bundles/resolve-cinematic-luts/Phantom Luts/Ursa G2 Phntm Arri LUTs - V1/Gen4/Standard (No WB Offset)/Jamaica Ursa Gen4 V1.cube
TITLE "Generated by Resolve"
LUT_3D_SIZE 5
0.0102235 0.0303807 0.0102235
0.220462 0.032578 0.0280308
0.551583 0.0455177 0.0838331
0.651194 0.0886702 0.154879
0.667308 0.10277 0.172488
0.0239414 0.231785 0.101595
0.177066 0.227298 0.0393225
0.595346 0.179126 0.099443
0.696452 0.17409 0.151873
0.664347 0.128878 0.131319
0.076051 0.648112 0.37937
0.130114 0.670283 0.269062
0.566049 0.647135 0.150759
0.915434 0.649027 0.300694
0.913954 0.638163 0.297337
0.357107 0.942916 0.726253
0.356588 0.946334 0.69337
0.455467 0.986297 0.522469
0.912154 0.963775 0.466529
0.994049 0.96524 0.513268
0.359579 0.941924 0.74435
0.356558 0.94406 0.715053
0.390692 0.967239 0.579797
0.866056 0.963607 0.450385
0.994659 0.968688 0.518669
0.028748 0.0330968 0.189563
0.234302 0.0358282 0.19707
0.586923 0.0491188 0.25005
0.706004 0.103304 0.289754
0.708232 0.103609 0.297902
0.0284733 0.187976 0.175616
0.167956 0.190921 0.168978
0.591196 0.141405 0.152514
0.652003 0.0933242 0.149569
0.65774 0.0965591 0.158846
0.0741741 0.612955 0.441474
0.0643473 0.625864 0.362646
0.552575 0.631083 0.144167
0.912352 0.620813 0.293858
0.908995 0.606043 0.288746
0.351019 0.93344 0.746105
0.348867 0.936751 0.71812
0.409598 0.973053 0.555764
0.905913 0.963317 0.463951
0.991958 0.960098 0.50724
0.360494 0.937194 0.767849
0.356588 0.939101 0.743587
0.370153 0.957656 0.610895
0.848035 0.96434 0.445258
0.994415 0.968826 0.518624
0.157824 0.0404822 0.494423
0.317586 0.043061 0.500526
0.569863 0.0554513 0.516808
0.71986 0.114855 0.526177
0.719326 0.11516 0.529915
0.00761425 0.0811475 0.430747
0.163943 0.0402228 0.481788
0.549508 0.0526131 0.490211
0.727016 0.112978 0.480186
0.727077 0.112993 0.481849
0.0725872 0.555688 0.538613
0.0675822 0.551446 0.525673
0.542229 0.558892 0.518959
0.956039 0.559167 0.536339
0.952453 0.537575 0.516854
0.334905 0.902602 0.78996
0.330617 0.903853 0.775006
0.327886 0.923064 0.687312
0.8757 0.952377 0.527291
0.990036 0.94139 0.569863
0.368658 0.926345 0.823072
0.365881 0.928496 0.810956
0.358465 0.942016 0.738506
0.786511 0.990738 0.508919
0.997589 0.96997 0.533867
0.328054 0.0649577 0.675563
0.405356 0.0697948 0.683238
0.56199 0.0985122 0.684977
0.672297 0.145769 0.687419
0.670375 0.14757 0.692546
0.142992 0.0529641 0.621225
0.323064 0.0631723 0.671992
0.536538 0.0886702 0.681712
0.675563 0.143191 0.678721
0.674128 0.144167 0.681956
0.0736095 0.446433 0.688212
0.0706798 0.426322 0.687434
0.563088 0.394461 0.856306
0.927108 0.413977 0.867689
0.916136 0.385443 0.84828
0.317052 0.850767 0.837842
0.310994 0.848859 0.828382
0.331289 0.859586 0.827878
0.845914 0.872663 0.834653
0.967636 0.872358 0.850034
0.419455 0.93193 0.907652
0.411795 0.931655 0.898955
0.398566 0.930602 0.87808
0.786465 0.980194 0.893141
0.985214 0.976684 0.871519
0.381308 0.07364 0.68957
0.438804 0.0797436 0.69369
0.581231 0.11548 0.698787
0.669367 0.151095 0.700648
0.669383 0.151034 0.70045
0.279011 0.0655375 0.670909
0.380072 0.0735027 0.689418
0.555886 0.107057 0.698604
0.669261 0.151186 0.700984
0.67039 0.152056 0.701473
0.126741 0.408988 0.745281
0.128573 0.379782 0.744533
0.586114 0.302678 0.882017
0.849989 0.331212 0.883055
0.817395 0.295964 0.850568
0.34992 0.820813 0.903853
0.342214 0.814206 0.898878
0.351781 0.792218 0.900252
0.857984 0.816342 0.939956
0.952102 0.822416 0.959686
0.457511 0.936156 0.947234
0.455009 0.937423 0.943999
0.466102 0.940581 0.946609
0.814237 0.96791 0.96762
0.981628 0.977264 0.97705
