bundles/resolve-cinematic-luts/Phantom Luts/Ursa G2 Phntm Arri LUTs - V1/Gen4/Standard (No WB Offset)/Jamaica Ursa Gen4 Legacy V1.cube
TITLE "Generated by Resolve"
LUT_3D_SIZE 9
0.017792 0.0344701 0.0177462
0.0644541 0.0377203 0.0225681
0.17763 0.0415808 0.0380713
0.340673 0.0458534 0.0545968
0.516091 0.0499123 0.0800336
0.628244 0.0693523 0.125399
0.643 0.082475 0.144778
0.650507 0.0884565 0.153353
0.654429 0.0919356 0.157153
0.0260624 0.0730449 0.0447852
0.0504005 0.0684825 0.0299229
0.152651 0.0653697 0.0419318
0.310689 0.0536507 0.0429236
0.490028 0.0484627 0.0583658
0.612116 0.0633707 0.0972457
0.624384 0.0738384 0.112413
0.623423 0.0733959 0.110796
0.623621 0.0738231 0.111009
0.0285801 0.179126 0.085832
0.0405127 0.17818 0.0548867
0.136614 0.174945 0.0434119
0.34107 0.152483 0.0710307
0.530098 0.141497 0.0894484
0.6645 0.141405 0.119249
0.670512 0.134173 0.139986
0.65597 0.114672 0.130449
0.647135 0.103227 0.124468
0.0362402 0.361013 0.166781
0.062501 0.3691 0.129427
0.114748 0.35845 0.0678569
0.289998 0.366155 0.0756542
0.57467 0.357809 0.104692
0.774578 0.322423 0.191394
0.818647 0.345541 0.234623
0.810712 0.333761 0.22945
0.805035 0.325811 0.225467
0.0728771 0.593912 0.314977
0.0745251 0.601648 0.281315
0.13843 0.611383 0.221317
0.284688 0.607263 0.102586
0.503471 0.595666 0.133791
0.789685 0.588663 0.195605
0.910918 0.588602 0.290303
0.910124 0.58265 0.289265
0.908248 0.575738 0.286931
0.204974 0.819226 0.523766
0.207294 0.822782 0.504631
0.221057 0.832761 0.468635
0.289296 0.848554 0.377417
0.533013 0.852964 0.265171
0.723369 0.83154 0.291936
0.938018 0.826154 0.383413
0.954528 0.826551 0.395804
0.954314 0.822629 0.393103
0.359869 0.949126 0.695811
0.358328 0.94873 0.680995
0.359136 0.950072 0.659022
0.371038 0.957198 0.603861
0.482063 0.988449 0.493462
0.725841 0.979263 0.422629
0.906874 0.95729 0.450767
0.985855 0.957534 0.491371
0.985275 0.957839 0.490471
0.361578 0.949279 0.709987
0.358877 0.948211 0.695674
0.35816 0.949004 0.674479
0.361929 0.95169 0.620493
0.426337 0.977234 0.534051
0.693919 0.986816 0.427619
0.862715 0.958053 0.435767
0.986099 0.956771 0.49131
0.985733 0.958328 0.493187
0.363195 0.949859 0.716533
0.360784 0.949126 0.703319
0.359091 0.949371 0.682506
0.359854 0.950439 0.629374
0.415274 0.972992 0.539101
0.678813 0.986038 0.425467
0.848646 0.959487 0.432441
0.983322 0.956939 0.489189
0.985458 0.958419 0.493385
0.023682 0.0353094 0.0518502
0.0686503 0.0377966 0.0605173
0.18793 0.0414893 0.0838788
0.35378 0.0454566 0.104173
0.530083 0.0550698 0.130556
0.663066 0.0901198 0.175799
0.678798 0.106447 0.193362
0.680827 0.10663 0.198428
0.681849 0.106783 0.200458
0.0261845 0.0594797 0.0522774
0.041062 0.0568399 0.0454261
0.1617 0.052903 0.0447852
0.323659 0.0472267 0.0525521
0.504021 0.0498207 0.0764935
0.625971 0.0679484 0.12166
0.642008 0.0820783 0.142977
0.649256 0.0878004 0.151247
0.653208 0.0911574 0.155169
0.0304875 0.159213 0.112367
0.0274662 0.162554 0.0827649
0.126818 0.163867 0.0421607
0.344732 0.129183 0.0693217
0.520058 0.11931 0.0798962
0.646876 0.111803 0.111284
0.647105 0.103014 0.124727
0.634287 0.0863813 0.116732
0.631891 0.083772 0.115099
0.0379797 0.340581 0.195544
0.0341039 0.347524 0.162356
0.0900282 0.352224 0.0888685
0.28217 0.357259 0.074403
0.579568 0.339925 0.109407
0.769558 0.307698 0.187961
0.807645 0.329076 0.227512
0.799084 0.316274 0.22211
0.793362 0.308156 0.218189
0.0724193 0.577707 0.341115
0.0684062 0.584543 0.308797
0.104631 0.599542 0.244236
0.258656 0.603891 0.11046
0.498375 0.589517 0.131594
0.792004 0.580789 0.194461
0.908965 0.576379 0.288014
0.908003 0.569268 0.286946
0.905913 0.562142 0.284581
0.196429 0.808164 0.535485
0.197131 0.811673 0.516777
0.202426 0.818036 0.483955
0.269291 0.840894 0.387091
0.51989 0.849775 0.261341
0.718898 0.826368 0.287037
0.937087 0.818784 0.378683
0.95259 0.818372 0.390143
0.95169 0.814328 0.386923
0.358007 0.946609 0.705455
0.356985 0.946822 0.692088
0.357244 0.948287 0.671412
0.363806 0.952667 0.615396
0.464805 0.985519 0.504326
0.721233 0.98027 0.42269
0.903914 0.957229 0.449546
0.985702 0.956847 0.490562
0.98529 0.956847 0.48954
0.361318 0.947677 0.719829
0.358465 0.946593 0.707179
0.357992 0.948013 0.688273
0.358633 0.949676 0.638437
0.414588 0.97435 0.546059
0.684855 0.987961 0.428092
0.855116 0.958679 0.433783
0.985763 0.956741 0.490837
0.985489 0.958434 0.49308
0.362753 0.947967 0.726802
0.358816 0.94609 0.713451
0.359045 0.948318 0.695842
0.358648 0.949844 0.647578
0.404532 0.970321 0.55198
0.668559 0.987091 0.426429
0.839963 0.960342 0.430488
0.981857 0.956741 0.487953
0.984329 0.958907 0.493019
0.0362554 0.0370489 0.149233
0.0969406 0.0395972 0.144381
0.190082 0.0417029 0.159503
0.360876 0.0456703 0.182483
0.544442 0.0553597 0.204059
0.684123 0.0913405 0.235981
0.699214 0.107332 0.250828
0.700694 0.1075 0.255497
0.701473 0.107561 0.257206
0.0197452 0.0521096 0.111406
0.0412757 0.0406195 0.134066
0.166354 0.0420844 0.137636
0.34284 0.0454108 0.139666
0.528878 0.0543374 0.161654
0.669444 0.0883345 0.197513
0.686961 0.106691 0.214984
0.68867 0.106828 0.219608
0.689342 0.106874 0.221042
0.0320439 0.14638 0.137728
0.031281 0.142794 0.131594
0.131136 0.14696 0.131868
0.324544 0.13521 0.12665
0.526421 0.111101 0.124269
0.648325 0.0907301 0.138643
0.643565 0.0854658 0.141527
0.644999 0.0855726 0.144747
0.647669 0.0876173 0.147875
0.0427405 0.318074 0.229679
0.0392157 0.316533 0.211963
0.03682 0.326009 0.154376
0.273671 0.342809 0.103655
0.581827 0.306645 0.145235
0.759884 0.285588 0.184894
0.788266 0.298161 0.216388
0.777173 0.282719 0.208927
0.770092 0.27332 0.203784
0.072755 0.554238 0.373693
0.0683909 0.558236 0.350378
0.0644846 0.567941 0.29958
0.199039 0.592142 0.142748
0.488746 0.577783 0.129397
0.798428 0.564523 0.197711
0.905699 0.556252 0.284886
0.903609 0.546304 0.282994
0.901427 0.539132 0.280919
0.18468 0.789807 0.553384
0.184131 0.793301 0.536995
0.185489 0.79913 0.506355
0.230854 0.82446 0.40914
0.493233 0.844999 0.256382
0.711025 0.816846 0.279423
0.936294 0.807172 0.371771
0.949691 0.804959 0.381125
0.948852 0.800443 0.377722
0.354513 0.941878 0.718242
0.353124 0.942123 0.705776
0.352956 0.943893 0.687373
0.355154 0.947066 0.637964
0.440635 0.980163 0.520485
0.713588 0.980972 0.421988
0.899306 0.957229 0.447837
0.985519 0.954986 0.48893
0.984833 0.954681 0.487373
0.361181 0.945006 0.735302
0.358831 0.944595 0.723415
0.358129 0.946273 0.707393
0.35848 0.949584 0.664057
0.398917 0.96939 0.562829
0.669703 0.990234 0.430228
0.844434 0.959426 0.431006
0.98497 0.956664 0.490013
0.98555 0.958526 0.493339
0.362676 0.94519 0.742214
0.359167 0.943862 0.729564
0.358526 0.945785 0.713939
0.35816 0.949126 0.672374
0.391928 0.966522 0.569619
0.650095 0.988357 0.428138
0.827619 0.961471 0.427848
0.979385 0.956451 0.486046
0.984131 0.959014 0.492988
0.0731212 0.0396429 0.290211
0.133364 0.0408179 0.282322
0.210636 0.0428473 0.284962
0.357702 0.0464637 0.303548
0.54815 0.0562905 0.328618
0.707591 0.0949569 0.335286
0.725963 0.11252 0.350118
0.726787 0.112825 0.354223
0.727092 0.112932 0.355108
0.0142367 0.0449226 0.253239
0.0725109 0.0394598 0.278141
0.182315 0.0415961 0.276158
0.34255 0.0457465 0.286519
0.537835 0.0553445 0.302785
0.700236 0.0913252 0.311757
0.720104 0.110811 0.324071
0.721004 0.111086 0.327672
0.72137 0.111177 0.328557
0.0197757 0.116274 0.230777
0.0196689 0.105867 0.237903
0.12311 0.0921492 0.271534
0.327916 0.0945296 0.274922
0.535714 0.0759747 0.260197
0.684077 0.0869154 0.256992
0.705303 0.108598 0.269032
0.706477 0.108751 0.27277
0.706874 0.108812 0.273579
0.0424201 0.295125 0.276753
0.0408637 0.292042 0.269703
0.0456855 0.28632 0.259693
0.289525 0.310826 0.278386
0.54612 0.298085 0.277714
0.784222 0.291615 0.280827
0.812467 0.273442 0.277729
0.792905 0.249805 0.262303
0.779736 0.234943 0.251316
0.0741283 0.527825 0.421637
0.0708629 0.528298 0.408606
0.0684062 0.526268 0.385702
0.107225 0.551263 0.305165
0.475898 0.550195 0.234684
0.811841 0.520333 0.302312
0.925231 0.52311 0.323461
0.916777 0.505653 0.312062
0.911147 0.495354 0.305303
0.172457 0.761166 0.583322
0.169543 0.7626 0.570687
0.166781 0.76495 0.550256
0.166598 0.777295 0.482063
0.386725 0.84123 0.303441
0.694667 0.798489 0.271534
0.941192 0.779782 0.3664
0.947936 0.776349 0.368261
0.946441 0.770535 0.363592
0.346578 0.930861 0.738964
0.345006 0.931365 0.728618
0.343938 0.933059 0.713771
0.343267 0.937026 0.674983
0.387869 0.962234 0.559304
0.687739 0.985122 0.425742
0.886854 0.95378 0.441901
0.985611 0.950576 0.486259
0.984329 0.949477 0.48368
0.362203 0.940322 0.761563
0.36051 0.94052 0.752865
0.359472 0.942306 0.740001
0.358083 0.946365 0.70631
0.37203 0.957916 0.60238
0.62739 0.995453 0.442313
0.821729 0.962219 0.428321
0.981964 0.956268 0.487694
0.985687 0.958679 0.493965
0.363989 0.940627 0.76759
0.361166 0.939818 0.758495
0.360006 0.941573 0.745861
0.358221 0.945602 0.713405
0.367697 0.955612 0.612467
0.600748 0.990539 0.438422
0.805402 0.964584 0.425589
0.973022 0.955642 0.481666
0.984497 0.959106 0.493874
0.129137 0.0428626 0.443793
0.185809 0.0437629 0.44155
0.264622 0.0449378 0.444144
0.368475 0.0504463 0.447379
0.538415 0.0600137 0.467277
0.709346 0.0963149 0.466438
0.730968 0.11574 0.481758
0.730465 0.115953 0.486641
0.73051 0.115908 0.486915
0.0318608 0.0397955 0.422034
0.126284 0.042649 0.435248
0.230091 0.0442054 0.439246
0.35079 0.0493324 0.441474
0.528527 0.0585489 0.456123
0.705592 0.0929732 0.455238
0.732357 0.115206 0.46389
0.732128 0.115312 0.467933
0.732158 0.115251 0.46804
0.0146792 0.0734264 0.374472
0.0124666 0.0574807 0.388647
0.134966 0.0428931 0.429175
0.312901 0.0471199 0.429618
0.510964 0.0583047 0.435294
0.698238 0.0875563 0.429496
0.734066 0.115251 0.427924
0.734081 0.115267 0.430167
0.734127 0.115236 0.430228
0.00886549 0.24303 0.391333
0.00831617 0.23328 0.39321
0.00915541 0.212634 0.400458
0.281727 0.224155 0.458793
0.543938 0.232502 0.472953
0.790677 0.221347 0.45742
0.818936 0.208011 0.435386
0.79942 0.186603 0.418723
0.786786 0.173495 0.406928
0.0720226 0.496956 0.475547
0.0693523 0.495689 0.469474
0.0682994 0.49189 0.462287
0.145556 0.49575 0.461036
0.48275 0.499962 0.458503
0.76643 0.495689 0.469596
0.949157 0.504097 0.480049
0.945449 0.489387 0.467857
0.942229 0.481163 0.460029
0.165988 0.728939 0.625223
0.162371 0.729152 0.616022
0.158816 0.728023 0.604898
0.151492 0.725628 0.574563
0.325017 0.776333 0.524788
0.669764 0.754116 0.441444
0.951965 0.733425 0.515251
0.972824 0.735622 0.508385
0.971008 0.728832 0.500526
0.336934 0.912947 0.768994
0.334874 0.913252 0.761318
0.331945 0.91342 0.75082
0.326452 0.914305 0.726711
0.332784 0.930465 0.654337
0.59765 0.998932 0.5635
0.867033 0.954467 0.488075
0.988281 0.945495 0.534524
0.986526 0.94258 0.529381
0.369757 0.935119 0.804196
0.368078 0.935637 0.79707
0.366049 0.936629 0.78764
0.362066 0.938689 0.766751
0.360128 0.948882 0.700374
0.500999 0.998932 0.571313
0.786023 0.98526 0.482033
0.976974 0.957321 0.489372
0.98735 0.960845 0.506279
0.371405 0.935332 0.80856
0.369055 0.935042 0.80177
0.367102 0.936187 0.792355
0.362768 0.938155 0.771298
0.359731 0.947707 0.707851
0.46128 0.994247 0.564126
0.763149 0.988479 0.473503
0.958022 0.956344 0.47776
0.986862 0.960113 0.502251
0.203037 0.0499275 0.586892
0.25008 0.0505226 0.589578
0.317342 0.0516518 0.59559
0.411063 0.0570382 0.596536
0.530632 0.071397 0.602365
0.685771 0.108721 0.591684
0.709239 0.126085 0.595209
0.70692 0.127123 0.60235
0.706615 0.127214 0.603632
0.129122 0.0469673 0.568704
0.200259 0.049424 0.580743
0.286488 0.0508888 0.590341
0.392935 0.0549325 0.593088
0.520516 0.0697642 0.59852
0.682719 0.104845 0.585931
0.71223 0.124697 0.585122
0.710903 0.125307 0.590143
0.710781 0.125322 0.590814
0.0179599 0.0507973 0.52517
0.0510109 0.0436561 0.538476
0.204639 0.0490578 0.575509
0.355291 0.0520638 0.587396
0.499184 0.066453 0.589761
0.676249 0.0982528 0.576349
0.716625 0.122866 0.569421
0.715999 0.12314 0.571939
0.716182 0.123049 0.571511
0.0129549 0.194186 0.519768
0.0138857 0.180148 0.521065
0.015259 0.153704 0.527916
0.27451 0.115862 0.606607
0.503731 0.135058 0.628107
0.716579 0.143297 0.605203
0.735973 0.133761 0.559243
0.727016 0.12343 0.54313
0.724819 0.120363 0.537011
0.0313115 0.43444 0.576623
0.0270237 0.42887 0.574884
0.0221866 0.416281 0.576562
0.077821 0.404807 0.606073
0.484627 0.419318 0.663401
0.772122 0.431571 0.672801
0.95903 0.428397 0.673991
0.954665 0.412268 0.664698
0.949447 0.403433 0.656046
0.159075 0.692912 0.668711
0.15552 0.69221 0.662257
0.152407 0.689052 0.656809
0.147356 0.682582 0.64567
0.369802 0.701839 0.659586
0.668269 0.688075 0.640528
0.92372 0.691218 0.662287
0.965896 0.690257 0.664927
0.964446 0.683757 0.658671
0.324361 0.885573 0.799603
0.321599 0.885512 0.792889
0.318212 0.884703 0.785794
0.312352 0.883711 0.772122
0.319829 0.897642 0.747646
0.580575 0.945876 0.726986
0.845014 0.925948 0.656779
0.976852 0.910491 0.704967
0.975998 0.905959 0.700557
0.379171 0.925643 0.850767
0.377432 0.926574 0.844388
0.376135 0.927703 0.838834
0.374105 0.930251 0.828061
0.370169 0.937179 0.799451
0.524895 0.998932 0.776318
0.767697 0.998932 0.71603
0.970153 0.964752 0.657877
0.986023 0.96524 0.688106
0.380835 0.92604 0.853834
0.378988 0.926085 0.849119
0.376944 0.926848 0.842603
0.374624 0.929519 0.831022
0.370474 0.936538 0.802152
0.489876 0.998581 0.769985
0.738964 0.998932 0.711284
0.938033 0.967056 0.641138
0.984207 0.966781 0.673396
0.279255 0.0658427 0.668956
0.308385 0.0669261 0.674113
0.357519 0.0695811 0.681682
0.436545 0.078706 0.690944
0.541039 0.0994736 0.695491
0.650111 0.133867 0.68455
0.669383 0.146975 0.691615
0.667704 0.148516 0.695994
0.667353 0.14876 0.696742
0.236011 0.0635691 0.657801
0.275441 0.0650034 0.666804
0.333455 0.0677958 0.677531
0.419028 0.0753948 0.688029
0.530404 0.0962844 0.694545
0.646235 0.131228 0.683314
0.670771 0.146044 0.688609
0.668986 0.147265 0.6925
0.66865 0.14757 0.693446
0.115892 0.0554513 0.613138
0.182712 0.0595712 0.639307
0.274418 0.0641794 0.664958
0.384497 0.070222 0.682231
0.510475 0.0906844 0.692073
0.637461 0.125536 0.681086
0.67364 0.144305 0.682612
0.672053 0.145312 0.686046
0.671748 0.145418 0.68658
0.0414435 0.133333 0.60853
0.0478065 0.116396 0.608194
0.0640421 0.0848096 0.606668
0.289296 0.0652171 0.667521
0.462272 0.0808423 0.687297
0.61622 0.114275 0.679057
0.682094 0.140597 0.66688
0.682063 0.141009 0.667781
0.682734 0.140993 0.667216
0.0542458 0.390753 0.669215
0.0528725 0.3841 0.66836
0.0531777 0.369223 0.669841
0.0986191 0.351934 0.709728
0.498939 0.336675 0.837598
0.753109 0.362341 0.859892
0.90074 0.364141 0.847501
0.892164 0.346899 0.832532
0.885405 0.336706 0.821363
0.145159 0.624292 0.729335
0.140627 0.620264 0.724651
0.136141 0.610651 0.722927
0.126116 0.588373 0.718456
0.314336 0.608682 0.797909
0.669627 0.619318 0.828183
0.922225 0.636683 0.842268
0.967819 0.630457 0.849104
0.967117 0.624094 0.842664
0.315465 0.853819 0.831205
0.312535 0.853788 0.825208
0.309026 0.851728 0.820768
0.303471 0.848585 0.813519
0.317205 0.859541 0.813321
0.605692 0.879667 0.835645
0.832654 0.871977 0.816953
0.966186 0.872251 0.837674
0.966354 0.867491 0.831998
0.405035 0.927092 0.901625
0.402594 0.927657 0.896819
0.400229 0.927184 0.893065
0.395743 0.926146 0.885969
0.394751 0.931609 0.874037
0.575219 0.976074 0.904662
0.774014 0.975525 0.882628
0.945144 0.960281 0.825376
0.971405 0.958892 0.856138
0.407858 0.927947 0.905257
0.405554 0.92842 0.901122
0.403189 0.927977 0.897475
0.397742 0.926543 0.889265
0.393454 0.930358 0.873655
0.546441 0.97644 0.899443
0.748714 0.981353 0.885298
0.918288 0.963577 0.822354
0.969589 0.963241 0.840726
0.323262 0.0722515 0.684153
0.347692 0.0740215 0.688426
0.389395 0.0785687 0.695186
0.461601 0.0914626 0.70544
0.562417 0.114839 0.707973
0.656275 0.147387 0.70312
0.665797 0.151308 0.70277
0.665797 0.151308 0.7028
0.665827 0.151293 0.702724
0.291325 0.0699474 0.677195
0.322194 0.0721294 0.683848
0.368124 0.0756237 0.691417
0.445396 0.0883192 0.703685
0.551202 0.111788 0.708339
0.652277 0.145754 0.703288
0.665797 0.151293 0.702754
0.665812 0.151293 0.702754
0.665843 0.151232 0.70251
0.208057 0.0645914 0.653269
0.259968 0.0679179 0.669169
0.322103 0.0721141 0.683818
0.414481 0.0825971 0.699306
0.530068 0.10663 0.708904
0.642695 0.141466 0.702968
0.667338 0.153185 0.704967
0.666468 0.152178 0.703838
0.666255 0.151629 0.702968
0.138338 0.103365 0.654536
0.140948 0.0863813 0.645777
0.149615 0.0630808 0.632883
0.335027 0.0731365 0.68632
0.482689 0.0962539 0.70779
0.619593 0.132433 0.703929
0.671427 0.157778 0.709987
0.671656 0.158053 0.710323
0.671855 0.157931 0.709895
0.0927596 0.367575 0.709972
0.0958419 0.360403 0.712398
0.102998 0.345769 0.717357
0.172549 0.31931 0.762737
0.532479 0.289128 0.861326
0.761196 0.313313 0.885298
0.840833 0.324651 0.877668
0.824994 0.306966 0.862516
0.815 0.296437 0.85214
0.158984 0.58265 0.763272
0.157046 0.57937 0.761578
0.15433 0.571557 0.760082
0.150164 0.555306 0.758602
0.317769 0.579797 0.873854
0.705806 0.570169 0.927611
0.911604 0.594064 0.951888
0.943526 0.589151 0.955947
0.940414 0.582437 0.951232
0.311513 0.817472 0.863264
0.308278 0.815274 0.859648
0.304433 0.810468 0.857481
0.297566 0.800397 0.85478
0.309087 0.795514 0.873152
0.567452 0.814008 0.903197
0.835966 0.823346 0.916365
0.957961 0.833844 0.937774
0.95906 0.827787 0.935195
0.421546 0.926741 0.929976
0.418509 0.927779 0.924468
0.416144 0.926726 0.922148
0.411536 0.9243 0.917815
0.410163 0.924163 0.913375
0.583978 0.952987 0.94139
0.803342 0.947814 0.938308
0.939681 0.94786 0.933364
0.968627 0.945525 0.939941
0.427024 0.929122 0.934127
0.424598 0.930175 0.930419
0.423362 0.930282 0.92842
0.421118 0.930251 0.925032
0.424903 0.934691 0.921904
0.573175 0.961288 0.946593
0.780407 0.961807 0.948348
0.918379 0.960128 0.943481
0.967117 0.958984 0.938918
0.335225 0.073167 0.686412
0.358068 0.0749523 0.690166
0.397314 0.0797284 0.696468
0.468788 0.0931106 0.706355
0.568276 0.116381 0.707561
0.659312 0.148699 0.70312
0.665797 0.151308 0.70277
0.665812 0.151293 0.702754
0.665873 0.151232 0.702586
0.306279 0.071046 0.680644
0.334539 0.0730907 0.686229
0.376715 0.0767224 0.692943
0.452552 0.0898299 0.704662
0.557015 0.113375 0.708202
0.655207 0.146975 0.703227
0.665797 0.151293 0.702754
0.665827 0.151293 0.702708
0.665934 0.151186 0.702388
0.233875 0.0662089 0.661616
0.278553 0.0691844 0.674098
0.333989 0.0730602 0.686137
0.421653 0.0838331 0.700359
0.535485 0.107927 0.708843
0.645731 0.142824 0.703075
0.665721 0.151385 0.702983
0.666896 0.152636 0.704311
0.666453 0.151843 0.703197
0.140063 0.0941176 0.650095
0.142412 0.0786297 0.641413
0.175082 0.0622721 0.641093
0.345495 0.0738384 0.688029
0.48777 0.0974594 0.708278
0.621134 0.132708 0.703304
0.668391 0.154421 0.706355
0.671412 0.157748 0.709957
0.671427 0.157458 0.709392
0.112551 0.353338 0.726787
0.112016 0.343359 0.724941
0.113146 0.323552 0.722469
0.171572 0.285695 0.751369
0.521065 0.253437 0.842344
0.735683 0.278645 0.859342
0.810285 0.291615 0.847715
0.792477 0.273869 0.830304
0.780545 0.262028 0.818067
0.169787 0.57792 0.778439
0.166171 0.573083 0.77496
0.161532 0.563775 0.771176
0.152178 0.542824 0.763836
0.317189 0.558816 0.87303
0.714702 0.54725 0.932937
0.911665 0.570565 0.957107
0.937301 0.566949 0.961578
0.935958 0.558663 0.960525
0.330251 0.811627 0.89575
0.326467 0.808438 0.892576
0.32221 0.802777 0.890272
0.312093 0.789029 0.884947
0.317006 0.772595 0.890379
0.549584 0.789517 0.914641
0.853513 0.796735 0.941497
0.950652 0.806928 0.960449
0.950744 0.800519 0.960006
0.425254 0.92163 0.940093
0.423239 0.921447 0.937881
0.421347 0.91989 0.936919
0.417105 0.91632 0.934874
0.41442 0.910506 0.934051
0.577691 0.931884 0.958007
0.793027 0.930144 0.954513
0.941909 0.935882 0.957839
0.964355 0.936202 0.964294
0.433234 0.929503 0.942046
0.431693 0.930495 0.939254
0.431601 0.930556 0.939086
0.431601 0.930556 0.939086
0.439323 0.934051 0.942214
0.567803 0.956649 0.962554
0.777035 0.957656 0.961166
0.928206 0.958251 0.960357
0.965896 0.958267 0.964935
