bundles/resolve-cinematic-luts/Phantom Luts/Ursa G2 Phntm Arri LUTs - V1/Gen4/Standard (No WB Offset)/Jamaica Ursa Gen4 V1.cube
TITLE "Generated by Resolve"
LUT_3D_SIZE 33
0.0102235 0.0303807 0.0102235
0.0101778 0.0303349 0.0101778
0.0188754 0.0304723 0.0102846
0.0421607 0.0309606 0.011368
0.0734569 0.0309911 0.0126955
0.106096 0.0310674 0.014847
0.14078 0.0313115 0.0184787
0.179232 0.0319219 0.0233158
0.220462 0.032578 0.0280308
0.264469 0.033051 0.0325322
0.309483 0.0338598 0.0370489
0.353002 0.0349432 0.0417945
0.395926 0.035996 0.0474098
0.438178 0.0374304 0.0550546
0.479393 0.039292 0.0635386
0.517296 0.0419623 0.0732433
0.551583 0.0455177 0.0838331
0.581338 0.0500343 0.0952621
0.605432 0.0560006 0.1075
0.622126 0.0636759 0.120333
0.632349 0.0717327 0.132113
0.639414 0.0787823 0.141405
0.644297 0.0830091 0.146807
0.647776 0.0858473 0.150912
0.651194 0.0886702 0.154879
0.654246 0.0912184 0.158419
0.657221 0.0937209 0.161822
0.659556 0.0957809 0.164385
0.661692 0.0975509 0.166857
0.663523 0.0991684 0.168841
0.665141 0.10071 0.170413
0.666499 0.101961 0.171756
0.667308 0.10277 0.172488
0.0104219 0.0314488 0.0108949
0.0102541 0.0310674 0.0103304
0.0120089 0.0306401 0.0102846
0.0295109 0.0316777 0.0111391
0.0583505 0.0318914 0.012253
0.0919051 0.0319982 0.0140383
0.127184 0.0318761 0.0164492
0.166522 0.0318151 0.0198825
0.208652 0.031754 0.0234226
0.254002 0.0316625 0.0270085
0.301015 0.0317235 0.0301671
0.346014 0.0319524 0.0330816
0.390112 0.0328527 0.0358587
0.4327 0.0314336 0.0358892
0.472694 0.0323796 0.0404669
0.509789 0.0344701 0.0489357
0.54229 0.0374456 0.0595407
0.570626 0.0422522 0.0731212
0.593408 0.0485389 0.0873121
0.608179 0.0558785 0.100908
0.616861 0.0625315 0.112703
0.623941 0.068513 0.122118
0.629602 0.0717937 0.127413
0.632776 0.0742046 0.131441
0.635813 0.0765698 0.135302
0.639261 0.0793469 0.139483
0.642298 0.0817884 0.143221
0.644587 0.0836957 0.145907
0.64683 0.0856184 0.148806
0.648661 0.0872358 0.15082
0.650355 0.088716 0.152697
0.651469 0.0897383 0.153887
0.652308 0.0905318 0.154742
0.0111086 0.0361028 0.0148928
0.0106966 0.0350652 0.0119478
0.0132448 0.0332952 0.0104524
0.0223087 0.0343481 0.0118563
0.0424353 0.0354925 0.0127413
0.0760815 0.0355993 0.0145571
0.112657 0.0349889 0.0151827
0.152422 0.0347295 0.0185092
0.195361 0.0349432 0.021973
0.241581 0.0344091 0.0246281
0.291127 0.034287 0.0278935
0.33814 0.0341802 0.03122
0.383841 0.0349889 0.0343328
0.428107 0.0358434 0.0396124
0.470039 0.0369726 0.0451362
0.507774 0.0385748 0.0512703
0.540658 0.0408789 0.0581674
0.567422 0.0436561 0.0658122
0.58703 0.0476692 0.0747387
0.599023 0.0532082 0.0847944
0.608209 0.0599222 0.097734
0.615579 0.0657511 0.107256
0.621866 0.0688487 0.112535
0.62443 0.0700389 0.116533
0.626627 0.0713359 0.119875
0.628183 0.0721447 0.122484
0.629633 0.0729992 0.124758
0.630945 0.0738384 0.126711
0.632303 0.0747234 0.128756
0.633249 0.0754101 0.13019
0.633997 0.0759899 0.131304
0.634897 0.0768444 0.132357
0.63563 0.0775616 0.133211
0.0130465 0.0548714 0.0272984
0.0126955 0.0540475 0.0229801
0.0177615 0.051667 0.0157931
0.0309758 0.0503395 0.0149233
0.0500191 0.0513924 0.017792
0.0795605 0.0510414 0.0208286
0.112062 0.0497444 0.0223087
0.149508 0.0467384 0.0233158
0.190494 0.0443427 0.0232853
0.234165 0.0413825 0.0229496
0.283055 0.038941 0.0262303
0.330632 0.0378424 0.0300755
0.377188 0.0384527 0.0334478
0.422049 0.037705 0.03682
0.464866 0.0388342 0.0427405
0.504265 0.0404364 0.0492561
0.538399 0.0428016 0.0569619
0.567041 0.0461433 0.065919
0.58851 0.0506752 0.0755322
0.602899 0.0569924 0.0870222
0.608972 0.0628367 0.0942245
0.613489 0.067689 0.0995346
0.617472 0.0701305 0.0999161
0.618296 0.0706035 0.0994736
0.618967 0.0703441 0.101518
0.620157 0.0702525 0.104585
0.621668 0.0706493 0.107729
0.623362 0.0715343 0.110628
0.624765 0.0722362 0.113069
0.626078 0.0730144 0.115175
0.627298 0.0737774 0.117144
0.628183 0.0743877 0.118578
0.628779 0.0748455 0.119539
0.0153048 0.0813611 0.0392462
0.0148013 0.0810864 0.0344244
0.0188754 0.0771649 0.0253758
0.0339055 0.0741131 0.0179904
0.052781 0.0744793 0.0199283
0.0823072 0.075761 0.0226444
0.117296 0.0739605 0.0280919
0.157229 0.0685893 0.0323949
0.196872 0.0657054 0.0337224
0.238849 0.06215 0.0333104
0.286458 0.0583047 0.0336919
0.332296 0.0543984 0.0337224
0.377401 0.0502632 0.0354925
0.419883 0.0455329 0.0358587
0.460487 0.0416571 0.0385138
0.49984 0.0423743 0.0459449
0.535073 0.0445869 0.0534981
0.564889 0.0480812 0.0620737
0.587976 0.0530556 0.0723888
0.60293 0.0592508 0.0836042
0.611154 0.0656748 0.0941329
0.616892 0.0713664 0.10161
0.620279 0.0728008 0.102998
0.62153 0.0729534 0.1028
0.621134 0.0729076 0.101854
0.620676 0.072755 0.100923
0.620172 0.0724804 0.100084
0.61973 0.0722362 0.0993362
0.619394 0.0720378 0.0988479
0.619043 0.0718395 0.0983291
0.618769 0.0717327 0.0979171
0.618723 0.0717937 0.0980087
0.618967 0.0720226 0.098558
0.01738 0.11426 0.0512856
0.0178531 0.115129 0.043473
0.0214542 0.111696 0.0362554
0.0315557 0.107332 0.0243992
0.0575723 0.106416 0.0213321
0.0807202 0.107439 0.0251316
0.114305 0.107729 0.0277256
0.156176 0.107607 0.032578
0.20441 0.0977188 0.0394751
0.252262 0.0876173 0.0442969
0.2981 0.081529 0.0450141
0.340505 0.0792706 0.0450294
0.385229 0.0751812 0.0457313
0.428885 0.0710765 0.0470436
0.470115 0.0666514 0.0484169
0.508965 0.0618906 0.0526131
0.540688 0.0581216 0.0561074
0.565988 0.0543526 0.0601053
0.586892 0.0556344 0.0685588
0.60296 0.061799 0.0801251
0.611963 0.0686198 0.0911269
0.618662 0.0750591 0.10016
0.625406 0.0797894 0.105745
0.62797 0.080827 0.106538
0.628 0.0808576 0.106569
0.627985 0.080827 0.106554
0.627955 0.0807965 0.106538
0.627955 0.0807965 0.106538
0.627955 0.0807965 0.106554
0.627909 0.0807965 0.106508
0.627817 0.0807813 0.106416
0.627649 0.080766 0.106264
0.627558 0.0808118 0.106203
0.0193942 0.14992 0.063508
0.0222171 0.151522 0.0517433
0.0263371 0.149157 0.0462959
0.0340887 0.144442 0.035111
0.0520027 0.14107 0.0242924
0.0829786 0.141787 0.02533
0.110246 0.143053 0.0301671
0.149432 0.14226 0.0328832
0.199176 0.143633 0.0358129
0.2542 0.132433 0.0453956
0.30898 0.117006 0.053666
0.358068 0.10988 0.0569467
0.401343 0.106142 0.0581521
0.440162 0.104692 0.0593271
0.482429 0.100587 0.0618906
0.521828 0.0966049 0.0644846
0.556069 0.0910658 0.0673381
0.584619 0.0867323 0.0720531
0.606836 0.0836652 0.0810254
0.619455 0.082536 0.0889906
0.622736 0.0811322 0.0962844
0.626413 0.0842298 0.104189
0.633005 0.0897841 0.110704
0.637079 0.0920424 0.112703
0.63711 0.0920729 0.112734
0.637079 0.0920424 0.112718
0.637049 0.0919966 0.112688
0.637034 0.0919661 0.112673
0.637003 0.0919509 0.112657
0.637003 0.0919661 0.112642
0.636927 0.0919203 0.112581
0.636805 0.0919051 0.112444
0.636667 0.0918898 0.112306
0.0217594 0.188907 0.0814832
0.0262303 0.19118 0.066865
0.0326543 0.190799 0.0580606
0.0391089 0.18677 0.0488289
0.0504768 0.181643 0.0338598
0.079408 0.181094 0.0260471
0.114839 0.182437 0.0296941
0.14258 0.183612 0.0350347
0.187915 0.180926 0.037705
0.245304 0.182803 0.0387579
0.306691 0.172671 0.0514076
0.365637 0.155077 0.06392
0.416602 0.145037 0.0701762
0.461158 0.140093 0.0739452
0.500252 0.13901 0.0764935
0.536873 0.138994 0.0791028
0.57409 0.13611 0.0831159
0.606699 0.132097 0.0880903
0.632242 0.130083 0.095491
0.649287 0.129137 0.104631
0.656931 0.128893 0.114107
0.658991 0.126787 0.12343
0.659434 0.125048 0.127886
0.657694 0.119524 0.126818
0.650538 0.109987 0.121828
0.647929 0.106386 0.120119
0.647929 0.106386 0.120104
0.647913 0.106386 0.120089
0.647974 0.106462 0.120134
0.647913 0.106401 0.120089
0.647822 0.106355 0.120012
0.6477 0.106325 0.119875
0.647532 0.106279 0.119707
0.0239414 0.231785 0.101595
0.0278935 0.234272 0.08748
0.0372931 0.23563 0.0739757
0.0435187 0.232944 0.0649577
0.053666 0.228977 0.0516518
0.068864 0.224308 0.0344396
0.108644 0.225498 0.0288548
0.146349 0.226947 0.0340581
0.177066 0.227298 0.0393225
0.229801 0.223514 0.0436408
0.296315 0.225254 0.0439765
0.361105 0.218311 0.056733
0.420905 0.202853 0.0721141
0.473899 0.185657 0.0841382
0.519432 0.180438 0.0899519
0.560357 0.178149 0.0953841
0.595346 0.179126 0.099443
0.628016 0.179767 0.104372
0.656718 0.178149 0.111498
0.678508 0.178347 0.122484
0.691798 0.180179 0.13463
0.6981 0.182422 0.145205
0.701473 0.18381 0.153155
0.702541 0.182498 0.156054
0.696452 0.17409 0.151873
0.690486 0.166079 0.147616
0.685237 0.158831 0.144091
0.681056 0.151308 0.142885
0.67657 0.145159 0.139803
0.672633 0.139757 0.137148
0.669306 0.135393 0.134798
0.666178 0.131258 0.132586
0.664347 0.128878 0.131319
0.0256962 0.278202 0.122713
0.0304112 0.280613 0.109712
0.0420996 0.283192 0.0945754
0.05037 0.283101 0.0839399
0.0583505 0.279316 0.0720989
0.0722667 0.274876 0.0546731
0.0962234 0.271931 0.0360876
0.141299 0.274266 0.0322423
0.179721 0.275319 0.0381781
0.215427 0.275532 0.0437018
0.275547 0.26981 0.0496681
0.349767 0.271183 0.0489509
0.415763 0.267857 0.0604257
0.476585 0.255116 0.0792706
0.530251 0.240024 0.0957656
0.577874 0.226093 0.107851
0.61857 0.223117 0.115724
0.653834 0.223575 0.122957
0.681453 0.226291 0.129488
0.705364 0.229068 0.13901
0.723461 0.232242 0.152941
0.733501 0.235203 0.16585
0.73994 0.238483 0.176883
0.743893 0.240528 0.183841
0.740353 0.234897 0.182025
0.73608 0.228916 0.179156
0.731563 0.222599 0.17612
0.727413 0.216861 0.173251
0.723781 0.211872 0.170733
0.720317 0.207034 0.168399
0.717403 0.203082 0.166354
0.715206 0.200168 0.164752
0.7131 0.197452 0.163195
0.027985 0.32961 0.146304
0.0325933 0.332158 0.133867
0.0442206 0.334417 0.120043
0.0563668 0.336385 0.107515
0.0645304 0.334447 0.0967422
0.0768444 0.331258 0.0803998
0.0938277 0.325978 0.0577401
0.13225 0.325261 0.0366674
0.177417 0.328237 0.0350652
0.217807 0.328145 0.0428168
0.258381 0.327886 0.0484932
0.326513 0.320439 0.0562142
0.404379 0.322438 0.0548714
0.472343 0.323033 0.0619821
0.531685 0.312825 0.0859541
0.584924 0.300862 0.105516
0.633478 0.287709 0.123217
0.674632 0.274861 0.138231
0.707744 0.274723 0.148272
0.733928 0.277684 0.159106
0.752361 0.28333 0.170642
0.766155 0.289235 0.184375
0.776028 0.293935 0.197879
0.782254 0.297475 0.207584
0.781521 0.294774 0.208621
0.777554 0.289067 0.205982
0.774319 0.284199 0.203952
0.771069 0.279408 0.201907
0.76817 0.275212 0.200015
0.765499 0.27129 0.198306
0.7635 0.268452 0.196963
0.76141 0.265583 0.195453
0.759579 0.263279 0.194003
0.0298161 0.382864 0.172702
0.0336767 0.385138 0.160693
0.0451667 0.38706 0.147143
0.0596017 0.389364 0.132998
0.071519 0.390051 0.12079
0.0812543 0.387457 0.109163
0.0961013 0.38497 0.0898451
0.119142 0.380636 0.059205
0.169177 0.380499 0.0361028
0.212589 0.383276 0.0379034
0.258824 0.381231 0.0475471
0.303716 0.380941 0.0543984
0.379095 0.372717 0.0652323
0.459312 0.375158 0.0633097
0.52755 0.376242 0.0692607
0.584741 0.370443 0.0919051
0.637476 0.361791 0.116365
0.68545 0.351568 0.138064
0.726223 0.339986 0.158129
0.757488 0.327718 0.176379
0.780209 0.330388 0.190356
0.795117 0.336751 0.20354
0.806683 0.344472 0.215991
0.815778 0.350805 0.227329
0.817426 0.350683 0.230655
0.81445 0.346029 0.228748
0.812055 0.342168 0.227329
0.80975 0.338476 0.22594
0.807385 0.335027 0.224353
0.805615 0.332189 0.223301
0.803708 0.329427 0.222019
0.802152 0.327108 0.220966
0.800809 0.325292 0.219959
0.0319829 0.436454 0.203861
0.0329137 0.439048 0.191775
0.0423743 0.441138 0.178058
0.0570687 0.443183 0.164569
0.0736248 0.445975 0.150179
0.0859998 0.445029 0.138048
0.0982834 0.441855 0.122896
0.116075 0.438788 0.0998245
0.146197 0.435325 0.0593423
0.207462 0.436683 0.0399329
0.251942 0.438117 0.0430152
0.302831 0.435447 0.0566567
0.353292 0.434699 0.0647288
0.432029 0.424857 0.0775158
0.512535 0.427482 0.0747539
0.579751 0.428824 0.082536
0.636194 0.427756 0.101839
0.687892 0.420645 0.131319
0.733318 0.412436 0.157092
0.774014 0.403845 0.181903
0.804135 0.39617 0.203494
0.822522 0.389258 0.221012
0.836088 0.391562 0.236362
0.845472 0.398642 0.246616
0.849226 0.401877 0.250965
0.847181 0.398566 0.249607
0.845396 0.395331 0.248615
0.843809 0.39266 0.247654
0.842222 0.390204 0.24654
0.840665 0.387518 0.245533
0.839185 0.385245 0.244602
0.837888 0.38349 0.243687
0.837034 0.382391 0.242969
0.0353399 0.490791 0.240146
0.0344396 0.493065 0.228565
0.0378729 0.495567 0.215839
0.0501106 0.498329 0.202731
0.0670329 0.500633 0.18761
0.0861067 0.502846 0.172183
0.0991989 0.500954 0.158587
0.115526 0.499092 0.1402
0.136385 0.495903 0.112703
0.181018 0.495033 0.0656291
0.245701 0.494911 0.0495918
0.294072 0.494255 0.0550546
0.348959 0.490761 0.0681773
0.405692 0.488563 0.0778363
0.485252 0.477882 0.0932021
0.563882 0.481239 0.0916304
0.630152 0.482414 0.101457
0.683558 0.485115 0.117769
0.734066 0.478782 0.151827
0.778378 0.473091 0.181033
0.816403 0.468101 0.20766
0.842969 0.46363 0.229114
0.860655 0.461357 0.246632
0.873335 0.461692 0.261189
0.877073 0.464836 0.265003
0.875731 0.460822 0.264454
0.874235 0.456977 0.263676
0.873152 0.453437 0.263371
0.871824 0.450294 0.262669
0.870787 0.447578 0.262226
0.869657 0.44477 0.261707
0.868727 0.442802 0.261143
0.86804 0.441474 0.2607
0.0417792 0.544396 0.281865
0.04065 0.546624 0.271138
0.0402686 0.549416 0.260044
0.0442206 0.551965 0.24773
0.05626 0.555077 0.234073
0.0771038 0.558679 0.216831
0.0984207 0.560296 0.199161
0.114061 0.558434 0.182849
0.134066 0.556634 0.160876
0.162539 0.554757 0.127199
0.224323 0.554574 0.0781567
0.288792 0.552132 0.0649882
0.340978 0.549523 0.072694
0.400168 0.545693 0.084535
0.459953 0.542794 0.0960708
0.537911 0.531304 0.113924
0.614038 0.533532 0.114275
0.677913 0.534676 0.127672
0.728466 0.537011 0.147143
0.776852 0.536416 0.178256
0.818631 0.531884 0.209171
0.850874 0.529122 0.23389
0.874083 0.527657 0.253468
0.890562 0.528298 0.26981
0.895918 0.531182 0.275135
0.894942 0.529686 0.274144
0.894331 0.526558 0.273777
0.893812 0.523522 0.273518
0.892973 0.520562 0.272908
0.892409 0.51812 0.272557
0.891936 0.516091 0.272282
0.891112 0.514382 0.271565
0.890333 0.512657 0.270909
0.0539406 0.597223 0.328847
0.0528878 0.599237 0.319402
0.0518349 0.601205 0.308659
0.0515145 0.603311 0.297429
0.0541085 0.605692 0.285466
0.0647135 0.609567 0.270573
0.0890516 0.615442 0.251194
0.110536 0.616373 0.232578
0.131792 0.615366 0.211749
0.159136 0.613703 0.184314
0.199878 0.613336 0.141375
0.275654 0.611154 0.0921645
0.336431 0.608316 0.0858473
0.393256 0.604013 0.0976272
0.451774 0.599588 0.107347
0.513481 0.595666 0.119997
0.588891 0.583566 0.13994
0.662455 0.584421 0.144457
0.723262 0.586252 0.160922
0.77232 0.58851 0.183307
0.815381 0.592065 0.209857
0.851987 0.589761 0.238788
0.879072 0.589059 0.260517
0.898497 0.589609 0.277684
0.907958 0.59118 0.286976
0.907546 0.591409 0.286458
0.90721 0.5888 0.285969
0.906645 0.586221 0.285267
0.906096 0.58407 0.284581
0.905928 0.582712 0.284321
0.905531 0.580667 0.283803
0.905013 0.579065 0.283192
0.904265 0.577829 0.282383
0.076051 0.648112 0.37937
0.0750439 0.64979 0.370703
0.0740826 0.651392 0.360952
0.0733959 0.652934 0.350988
0.072694 0.654536 0.339925
0.0730297 0.657053 0.327337
0.082063 0.661357 0.31043
0.105287 0.667872 0.289357
0.130114 0.670283 0.269062
0.158862 0.670481 0.242817
0.191989 0.669367 0.209796
0.242634 0.669139 0.155093
0.32752 0.665232 0.11223
0.388556 0.661509 0.113527
0.447578 0.655863 0.130068
0.503746 0.651835 0.136461
0.566049 0.647135 0.150759
0.638346 0.634546 0.170809
0.708858 0.634745 0.179156
0.76614 0.636149 0.198062
0.813367 0.638682 0.222522
0.85008 0.642802 0.246616
0.880003 0.645533 0.269871
0.902052 0.647272 0.288457
0.915434 0.649027 0.300694
0.915999 0.649531 0.30135
0.915877 0.647547 0.300893
0.915572 0.645289 0.300206
0.915389 0.643626 0.299748
0.914992 0.641672 0.299001
0.914702 0.640116 0.298436
0.91429 0.638895 0.29778
0.913954 0.638163 0.297337
0.103044 0.696406 0.430091
0.102464 0.697826 0.422858
0.10193 0.69926 0.414816
0.101518 0.700633 0.406332
0.101472 0.702342 0.397177
0.101488 0.703944 0.385443
0.102098 0.706096 0.371176
0.111604 0.71133 0.351843
0.133639 0.717723 0.32958
0.15845 0.721279 0.306279
0.189471 0.723384 0.277089
0.229313 0.723552 0.235859
0.293614 0.721645 0.169528
0.381781 0.717647 0.145922
0.444327 0.71284 0.151247
0.50135 0.707317 0.165743
0.5552 0.702754 0.171283
0.616617 0.696696 0.185031
0.685817 0.684199 0.204623
0.752132 0.683909 0.217365
0.806287 0.685863 0.23827
0.850507 0.688228 0.263325
0.882292 0.692454 0.285405
0.905486 0.69749 0.303441
0.920378 0.70277 0.316503
0.923217 0.703731 0.319463
0.923217 0.702663 0.319203
0.923003 0.701152 0.318593
0.92282 0.69955 0.317998
0.922759 0.698253 0.317525
0.922545 0.696925 0.31693
0.922225 0.695781 0.316274
0.92195 0.695094 0.315816
0.13576 0.742504 0.480354
0.135546 0.743633 0.474403
0.135378 0.744793 0.46775
0.13547 0.746197 0.46099
0.135409 0.747341 0.453178
0.135668 0.748745 0.443671
0.1364 0.750454 0.431937
0.137713 0.75259 0.416815
0.148241 0.758953 0.396124
0.165972 0.764523 0.37348
0.189715 0.768826 0.346624
0.222477 0.77171 0.312398
0.273198 0.774304 0.262699
0.355612 0.772793 0.201282
0.441138 0.767102 0.18587
0.502235 0.761929 0.193332
0.55436 0.756359 0.202594
0.605097 0.751034 0.208957
0.665522 0.744823 0.223285
0.730938 0.73312 0.242329
0.794095 0.733364 0.259556
0.844831 0.736034 0.281544
0.883223 0.73756 0.304448
0.910399 0.74139 0.32369
0.929198 0.745953 0.338811
0.936126 0.748226 0.345495
0.936858 0.748302 0.34641
0.936385 0.746899 0.345434
0.935958 0.745678 0.344533
0.935592 0.744625 0.343725
0.935225 0.743633 0.342885
0.935103 0.742977 0.342382
0.935012 0.742351 0.341985
0.174701 0.786816 0.530022
0.17496 0.788022 0.525322
0.174701 0.788907 0.519326
0.174548 0.789715 0.513405
0.174624 0.790631 0.50695
0.174899 0.791669 0.499306
0.175601 0.793072 0.489921
0.177325 0.795285 0.478386
0.179904 0.797772 0.46273
0.188357 0.802762 0.442512
0.203861 0.808713 0.41886
0.227054 0.814099 0.388495
0.261875 0.817868 0.349203
0.326543 0.822644 0.289769
0.426505 0.821408 0.238346
0.504936 0.814939 0.230365
0.557702 0.810239 0.238682
0.60589 0.80412 0.243671
0.654826 0.798749 0.250843
0.712978 0.793576 0.265751
0.77528 0.785183 0.284581
0.834272 0.783566 0.305867
0.878828 0.786114 0.327321
0.912276 0.788144 0.348119
0.934951 0.792111 0.365026
0.947097 0.794873 0.37528
0.948837 0.794507 0.377951
0.948562 0.793286 0.377005
0.948394 0.792248 0.376242
0.948058 0.791379 0.375326
0.947875 0.790753 0.374685
0.947738 0.78999 0.374014
0.947601 0.789303 0.373449
0.218021 0.82948 0.57847
0.218082 0.830213 0.574182
0.218067 0.830945 0.569192
0.218112 0.831647 0.564004
0.218311 0.832456 0.558587
0.21857 0.83328 0.552224
0.219425 0.834623 0.54493
0.220356 0.835935 0.535103
0.222019 0.837629 0.522759
0.225193 0.839979 0.505653
0.231968 0.844114 0.487053
0.246662 0.851118 0.462867
0.269947 0.857633 0.429755
0.312352 0.864546 0.383841
0.389914 0.868864 0.317739
0.49247 0.867887 0.282887
0.563439 0.86041 0.277867
0.610544 0.856092 0.286259
0.65655 0.849561 0.288792
0.703166 0.844663 0.29723
0.758587 0.840345 0.312886
0.818845 0.836255 0.333867
0.870848 0.832456 0.355688
0.909941 0.835157 0.376226
0.937438 0.83888 0.393912
0.955367 0.842161 0.406516
0.959319 0.841703 0.410788
0.959564 0.84094 0.411078
0.959365 0.840223 0.410498
0.959335 0.83946 0.409964
0.959304 0.838575 0.409293
0.959381 0.837736 0.408652
0.959426 0.837003 0.408148
0.260121 0.86717 0.623606
0.260105 0.86772 0.619806
0.260121 0.868315 0.615335
0.260212 0.868925 0.610925
0.260563 0.869718 0.606622
0.260761 0.87039 0.601205
0.261036 0.871138 0.594537
0.261585 0.872099 0.586221
0.262547 0.873289 0.575616
0.264591 0.875059 0.5617
0.26717 0.876768 0.544991
0.27306 0.880522 0.526619
0.287617 0.887831 0.500664
0.311345 0.89485 0.465141
0.365087 0.904601 0.411872
0.460288 0.909895 0.35024
0.555856 0.905898 0.326192
0.616861 0.899489 0.326314
0.661433 0.893645 0.330785
0.705318 0.887739 0.3346
0.750057 0.884047 0.344915
0.803021 0.880858 0.360998
0.859831 0.878737 0.382361
0.904799 0.876249 0.402335
0.938033 0.878386 0.419165
0.959976 0.882216 0.432685
0.969467 0.883665 0.44033
0.970153 0.883635 0.442145
0.969757 0.883207 0.441566
0.969299 0.882689 0.440909
0.969116 0.882124 0.440314
0.969253 0.881468 0.439811
0.969436 0.880995 0.439414
0.298817 0.899489 0.664256
0.298543 0.899733 0.660533
0.298375 0.900084 0.65655
0.298543 0.900679 0.652659
0.298665 0.901228 0.648478
0.298756 0.901762 0.643809
0.299046 0.902495 0.638315
0.299306 0.903197 0.631312
0.299962 0.904219 0.6224
0.301518 0.905806 0.611368
0.303746 0.907637 0.595895
0.305455 0.908782 0.580179
0.311513 0.912657 0.561181
0.326741 0.92015 0.533349
0.356725 0.92958 0.494636
0.425589 0.941176 0.436179
0.529412 0.946166 0.388235
0.613291 0.941146 0.372137
0.666133 0.933989 0.371603
0.707668 0.927779 0.373465
0.749615 0.922789 0.377874
0.793439 0.919615 0.388251
0.844129 0.917678 0.404517
0.894499 0.916548 0.423941
0.933196 0.915557 0.441825
0.960403 0.917632 0.455848
0.977447 0.919738 0.466712
0.979812 0.918868 0.469734
0.97969 0.918532 0.469627
0.979294 0.918395 0.469184
0.979095 0.918044 0.468711
0.979095 0.91754 0.468208
0.979461 0.91725 0.468025
0.333577 0.926146 0.700786
0.332967 0.92607 0.697215
0.33283 0.92636 0.693736
0.33283 0.926802 0.690242
0.332815 0.927245 0.686397
0.332921 0.927764 0.682383
0.333227 0.928512 0.677653
0.333577 0.92932 0.671885
0.333898 0.930144 0.664042
0.333883 0.930709 0.65362
0.334142 0.931319 0.639704
0.336431 0.933318 0.625116
0.33875 0.934997 0.609613
0.346532 0.939803 0.588739
0.364569 0.948135 0.559594
0.404883 0.960281 0.516396
0.492363 0.973983 0.457908
0.592676 0.976761 0.422049
0.663249 0.970245 0.410666
0.710353 0.962219 0.409171
0.749187 0.955627 0.409415
0.789624 0.95079 0.41416
0.834089 0.947814 0.425101
0.881743 0.946929 0.441321
0.92488 0.946349 0.458732
0.957748 0.947158 0.474891
0.978607 0.948516 0.487312
0.986954 0.947677 0.493233
0.987442 0.946868 0.494118
0.986999 0.946792 0.493812
0.986709 0.946746 0.493507
0.986526 0.946639 0.49308
0.986633 0.946334 0.492683
0.357107 0.942916 0.726253
0.356207 0.942519 0.723095
0.355779 0.942596 0.719661
0.35581 0.943023 0.716838
0.355886 0.943511 0.713741
0.356008 0.944091 0.710002
0.356298 0.944823 0.705898
0.356405 0.945495 0.700633
0.356588 0.946334 0.69337
0.356481 0.94699 0.684337
0.35523 0.946624 0.671305
0.355276 0.947234 0.655863
0.357992 0.94966 0.642161
0.362921 0.95317 0.6271
0.374487 0.960204 0.605356
0.399374 0.971252 0.573632
0.455467 0.986297 0.522469
0.555962 0.998901 0.471626
0.643824 0.996643 0.445472
0.703899 0.987228 0.436118
0.746105 0.977951 0.432883
0.782712 0.970581 0.432181
0.822599 0.966171 0.438148
0.868513 0.963455 0.450217
0.912154 0.963775 0.466529
0.950866 0.964233 0.483345
0.977371 0.965179 0.49958
0.992401 0.965698 0.510796
0.995163 0.965179 0.513909
0.994675 0.965164 0.513939
0.994186 0.965286 0.513726
0.994079 0.965331 0.513512
0.994049 0.96524 0.513268
0.357504 0.942702 0.729656
0.356588 0.942351 0.726329
0.355993 0.942229 0.723339
0.35584 0.942535 0.720287
0.355932 0.943038 0.717342
0.355932 0.943511 0.713878
0.356069 0.944198 0.709606
0.356344 0.945022 0.70454
0.35642 0.945785 0.697826
0.35671 0.946761 0.689219
0.355871 0.946822 0.677409
0.354665 0.946563 0.660853
0.356588 0.94844 0.647059
0.361059 0.951949 0.634989
0.370291 0.958282 0.61915
0.389425 0.969055 0.596902
0.428351 0.983612 0.557824
0.50985 0.998932 0.503929
0.605371 0.998932 0.464988
0.677791 0.995544 0.44686
0.730053 0.983444 0.437995
0.769131 0.974166 0.434791
0.806851 0.968582 0.437232
0.850263 0.964599 0.445808
0.895567 0.963287 0.459983
0.937942 0.964446 0.476677
0.968414 0.965331 0.494209
0.988144 0.966415 0.509239
0.995789 0.967636 0.51754
0.996277 0.968002 0.518822
0.995972 0.968124 0.5187
0.995834 0.9682 0.518563
0.99585 0.9682 0.518456
0.357687 0.942367 0.732616
0.357107 0.94229 0.729671
0.356542 0.942229 0.726635
0.356207 0.942382 0.723644
0.355947 0.942611 0.720409
0.355886 0.943023 0.717113
0.356023 0.943709 0.713069
0.3561 0.944427 0.707866
0.356374 0.945342 0.701732
0.356558 0.946319 0.693324
0.355978 0.946731 0.681941
0.354681 0.946395 0.665934
0.355566 0.947555 0.650492
0.359503 0.950759 0.637324
0.367346 0.956268 0.621912
0.383536 0.965743 0.600732
0.415991 0.979049 0.566079
0.489815 0.996231 0.513115
0.588037 0.998932 0.469749
