bundles/resolve-cinematic-luts/Phantom Luts/Ursa G2 Phntm Arri LUTs - V1/Gen4/Standard (No WB Offset)/Jamaica Ursa Gen4 V1.cube
TITLE "Generated by Resolve"
LUT_3D_SIZE 9
0.0102235 0.0303807 0.0102235
0.0734569 0.0309911 0.0126955
0.220462 0.032578 0.0280308
0.395926 0.035996 0.0474098
0.551583 0.0455177 0.0838331
0.632349 0.0717327 0.132113
0.651194 0.0886702 0.154879
0.661692 0.0975509 0.166857
0.667308 0.10277 0.172488
0.0153048 0.0813611 0.0392462
0.052781 0.0744793 0.0199283
0.196872 0.0657054 0.0337224
0.377401 0.0502632 0.0354925
0.535073 0.0445869 0.0534981
0.611154 0.0656748 0.0941329
0.621134 0.0729076 0.101854
0.619394 0.0720378 0.0988479
0.618967 0.0720226 0.098558
0.0239414 0.231785 0.101595
0.053666 0.228977 0.0516518
0.177066 0.227298 0.0393225
0.420905 0.202853 0.0721141
0.595346 0.179126 0.099443
0.691798 0.180179 0.13463
0.696452 0.17409 0.151873
0.67657 0.145159 0.139803
0.664347 0.128878 0.131319
0.0319829 0.436454 0.203861
0.0736248 0.445975 0.150179
0.146197 0.435325 0.0593423
0.353292 0.434699 0.0647288
0.636194 0.427756 0.101839
0.804135 0.39617 0.203494
0.849226 0.401877 0.250965
0.842222 0.390204 0.24654
0.837034 0.382391 0.242969
0.076051 0.648112 0.37937
0.072694 0.654536 0.339925
0.130114 0.670283 0.269062
0.32752 0.665232 0.11223
0.566049 0.647135 0.150759
0.813367 0.638682 0.222522
0.915434 0.649027 0.300694
0.915389 0.643626 0.299748
0.913954 0.638163 0.297337
0.218021 0.82948 0.57847
0.218311 0.832456 0.558587
0.222019 0.837629 0.522759
0.269947 0.857633 0.429755
0.563439 0.86041 0.277867
0.758587 0.840345 0.312886
0.937438 0.83888 0.393912
0.959365 0.840223 0.410498
0.959426 0.837003 0.408148
0.357107 0.942916 0.726253
0.355886 0.943511 0.713741
0.356588 0.946334 0.69337
0.357992 0.94966 0.642161
0.455467 0.986297 0.522469
0.746105 0.977951 0.432883
0.912154 0.963775 0.466529
0.995163 0.965179 0.513909
0.994049 0.96524 0.513268
0.358511 0.942016 0.73904
0.35639 0.942123 0.726772
0.355734 0.944167 0.708064
0.35465 0.946807 0.657023
0.400519 0.971695 0.572854
0.711452 0.986893 0.440055
0.876829 0.962982 0.453391
0.994904 0.966278 0.514626
0.996231 0.968063 0.519036
0.359579 0.941924 0.74435
0.358007 0.942519 0.733379
0.356558 0.94406 0.715053
0.354589 0.946487 0.665385
0.390692 0.967239 0.579797
0.695293 0.986404 0.437797
0.866056 0.963607 0.450385
0.989334 0.96611 0.51017
0.994659 0.968688 0.518669
0.0142672 0.030869 0.0569009
0.0778973 0.0319982 0.0659953
0.233463 0.0350958 0.0946059
0.413153 0.0393835 0.119387
0.57084 0.0474708 0.150469
0.663752 0.0824292 0.192721
0.681697 0.101289 0.212085
0.684413 0.101701 0.219318
0.685786 0.101946 0.222492
0.0154574 0.0614481 0.0531167
0.036759 0.057145 0.0424048
0.203464 0.0471809 0.0400854
0.380026 0.0372625 0.045594
0.54316 0.045304 0.0793774
0.630152 0.0704662 0.128206
0.649638 0.088014 0.152163
0.660197 0.0968643 0.164202
0.666026 0.102083 0.170214
0.0264744 0.206348 0.139284
0.0225834 0.211063 0.0975204
0.164279 0.214221 0.0374151
0.425849 0.165347 0.0746166
0.58526 0.152728 0.08925
0.669459 0.146319 0.121965
0.6636 0.127855 0.130983
0.64329 0.100511 0.116991
0.63946 0.0957351 0.114244
0.033051 0.415 0.243915
0.0296788 0.423346 0.199115
0.115145 0.429191 0.0945449
0.345281 0.425895 0.0634318
0.640208 0.409598 0.107881
0.799069 0.371984 0.202121
0.839185 0.385138 0.244526
0.830686 0.371817 0.239063
0.824659 0.362753 0.234913
0.0750439 0.634119 0.407492
0.0706951 0.640284 0.373266
0.0873121 0.655116 0.297292
0.297993 0.664378 0.120958
0.560906 0.641077 0.146853
0.814847 0.631464 0.220813
0.914397 0.638392 0.2981
0.913756 0.632105 0.296529
0.912428 0.626413 0.29427
0.21236 0.820874 0.590768
0.211826 0.82388 0.572335
0.21355 0.829175 0.539284
0.249332 0.848402 0.443748
0.550546 0.85922 0.274861
0.75462 0.836103 0.308354
0.937087 0.833417 0.390417
0.957687 0.833677 0.405707
0.957366 0.83064 0.40322
0.355169 0.93959 0.735042
0.353887 0.940352 0.723339
0.35375 0.94284 0.704295
0.355535 0.947555 0.651514
0.436011 0.981521 0.536217
0.741375 0.978851 0.432929
0.909621 0.963607 0.4654
0.994583 0.963729 0.512169
0.993469 0.963424 0.511162
0.358572 0.940154 0.748135
0.356268 0.940032 0.73753
0.355535 0.942306 0.720394
0.355108 0.946593 0.674067
0.390066 0.967895 0.586542
0.7019 0.988678 0.44065
0.870573 0.963073 0.451438
0.993881 0.966155 0.513649
0.996048 0.968139 0.518975
0.359716 0.939925 0.753979
0.356741 0.93933 0.743038
0.356466 0.942153 0.72694
0.355749 0.946532 0.682902
0.381292 0.963378 0.593164
0.683421 0.987976 0.438926
0.858961 0.963821 0.448234
0.987076 0.965866 0.508339
0.994659 0.968688 0.518669
0.028748 0.0330968 0.189563
0.114611 0.0346838 0.180285
0.234302 0.0358282 0.19707
0.420356 0.0399939 0.226932
0.586923 0.0491188 0.25005
0.68893 0.0845655 0.275502
0.706004 0.103304 0.289754
0.707378 0.10338 0.295628
0.708232 0.103609 0.297902
0.0110018 0.0501869 0.137484
0.0395819 0.0359197 0.169314
0.205463 0.0353246 0.168688
0.403189 0.0395819 0.170672
0.572717 0.0471809 0.193668
0.673365 0.0813458 0.22536
0.692073 0.102052 0.242313
0.694118 0.102266 0.248554
0.695018 0.102373 0.250858
0.0284733 0.187976 0.175616
0.0272831 0.182773 0.166598
0.167956 0.190921 0.168978
0.403983 0.172595 0.160922
0.591196 0.141405 0.152514
0.665537 0.108568 0.15436
0.652003 0.0933242 0.149569
0.653498 0.093019 0.153811
0.65774 0.0965591 0.158846
0.0353399 0.392279 0.28893
0.0328985 0.391623 0.266163
0.0332341 0.402625 0.190494
0.337163 0.410864 0.108888
0.645991 0.375601 0.158221
0.791089 0.343191 0.202396
0.820569 0.352514 0.234134
0.809354 0.336446 0.226398
0.802396 0.326665 0.2215
0.0741741 0.612955 0.441474
0.0697948 0.616724 0.418357
0.0643473 0.625864 0.362646
0.222293 0.657099 0.164508
0.552575 0.631083 0.144167
0.818372 0.618692 0.219516
0.912352 0.620813 0.293858
0.910933 0.612207 0.291432
0.908995 0.606043 0.288746
0.204334 0.806531 0.608789
0.202792 0.8094 0.592584
0.202228 0.814542 0.563851
0.218021 0.830579 0.469429
0.523995 0.856992 0.270604
0.748394 0.829236 0.30219
0.93666 0.824262 0.384741
0.955352 0.823209 0.398276
0.95465 0.819654 0.395239
0.351019 0.93344 0.746105
0.349783 0.934478 0.735286
0.348867 0.936751 0.71812
0.349371 0.942123 0.671626
0.409598 0.973053 0.555764
0.732754 0.979263 0.431739
0.905913 0.963317 0.463951
0.993103 0.960861 0.508843
0.991958 0.960098 0.50724
0.35906 0.937255 0.762142
0.357107 0.937667 0.752026
0.355932 0.939681 0.737713
0.356115 0.945541 0.698665
0.375708 0.960922 0.604166
0.685008 0.991455 0.443
0.861891 0.963439 0.44889
0.99205 0.96582 0.511833
0.996231 0.968185 0.519631
0.360494 0.937194 0.767849
0.357549 0.936797 0.757382
0.356588 0.939101 0.743587
0.35581 0.944457 0.706172
0.370153 0.957656 0.610895
0.66331 0.990219 0.441413
0.848035 0.96434 0.445258
0.983429 0.965728 0.50544
0.994415 0.968826 0.518624
0.082475 0.0364385 0.348272
0.163714 0.0378119 0.342214
0.259602 0.0395514 0.344518
0.412802 0.0417792 0.362936
0.584909 0.0495155 0.391318
0.706569 0.0886702 0.391897
0.727703 0.109819 0.401923
0.727779 0.109804 0.4065
0.727962 0.109804 0.407782
0.00585946 0.0381628 0.309422
0.0810559 0.0362402 0.336019
0.224567 0.0386206 0.335515
0.397818 0.0411994 0.34548
0.57789 0.0483253 0.366598
0.702617 0.0861982 0.365545
0.724926 0.108919 0.373754
0.725551 0.109194 0.377874
0.725917 0.109346 0.378912
0.0108186 0.144884 0.291722
0.0115816 0.128954 0.298848
0.156542 0.111757 0.339498
0.401617 0.114809 0.349722
0.59498 0.0829023 0.330449
0.693492 0.0845197 0.305531
0.71313 0.106279 0.311788
0.714321 0.106661 0.316106
0.714763 0.106813 0.317281
0.0367285 0.365362 0.345464
0.0352483 0.362341 0.337896
0.0362097 0.356634 0.326421
0.351888 0.376593 0.339132
0.613321 0.359899 0.335592
0.81976 0.34667 0.332906
0.861494 0.329152 0.323293
0.839292 0.30106 0.303761
0.824964 0.283955 0.291691
0.0752728 0.586892 0.488533
0.0714122 0.588083 0.475929
0.0680247 0.588052 0.454063
0.118791 0.617517 0.368627
0.535805 0.60766 0.273518
0.834638 0.581491 0.344579
0.940398 0.58764 0.345693
0.933516 0.573495 0.330556
0.928542 0.564904 0.321569
0.195666 0.783658 0.636545
0.192737 0.784955 0.625208
0.189349 0.787243 0.606577
0.18529 0.797894 0.542397
0.401617 0.864057 0.338918
0.735393 0.815686 0.297658
0.943465 0.803632 0.387686
0.954681 0.80061 0.391073
0.953307 0.795834 0.386282
0.343664 0.921233 0.764935
0.342123 0.922271 0.75584
0.340169 0.923934 0.742123
0.337713 0.928801 0.706127
0.360464 0.950057 0.597147
0.703487 0.983185 0.436545
0.894255 0.957 0.457206
0.991699 0.953918 0.503746
0.990402 0.952422 0.501152
0.361807 0.933135 0.785962
0.359945 0.933532 0.778225
0.35816 0.934997 0.766873
0.355962 0.939879 0.736828
0.35967 0.951125 0.64094
0.637598 0.998932 0.459052
0.842161 0.965072 0.446769
0.986786 0.965377 0.508125
0.996414 0.968429 0.520882
0.363241 0.933089 0.790539
0.360616 0.932799 0.782864
0.358907 0.93434 0.771923
0.356237 0.938857 0.743145
0.358373 0.950103 0.65008
0.606638 0.993881 0.4542
0.82594 0.966842 0.442924
0.975097 0.96492 0.499336
0.994888 0.968978 0.520272
0.157824 0.0404822 0.494423
0.229175 0.0414435 0.497688
0.317586 0.043061 0.500526
0.421225 0.0468605 0.503258
0.569863 0.0554513 0.516808
0.695338 0.0931563 0.517189
0.71986 0.114855 0.526177
0.719112 0.11519 0.530037
0.719326 0.11516 0.529915
0.0229038 0.0365301 0.465812
0.15375 0.0401923 0.486442
0.281209 0.0419776 0.497124
0.404654 0.0462501 0.498024
0.562295 0.0535897 0.507515
0.692729 0.0894331 0.50753
0.722194 0.113664 0.510872
0.721706 0.113909 0.514504
0.721935 0.113771 0.514138
0.00761425 0.0811475 0.430747
0.00480659 0.0551308 0.438895
0.163943 0.0402228 0.481788
0.367147 0.0446784 0.486992
0.549508 0.0526131 0.490211
0.689998 0.0841688 0.485893
0.727016 0.112978 0.480186
0.726879 0.113069 0.482277
0.727077 0.112993 0.481849
0.0016022 0.304173 0.461112
0.000411994 0.294102 0.46305
3.0518e-05 0.269368 0.469841
0.345205 0.277852 0.531746
0.610559 0.283635 0.545708
0.821561 0.260914 0.532708
0.854109 0.239155 0.504524
0.828916 0.211185 0.485176
0.813443 0.195026 0.472419
0.0725872 0.555688 0.538613
0.0695659 0.554955 0.532357
0.0675822 0.551446 0.525673
0.166659 0.560342 0.527886
0.542229 0.558892 0.518959
0.795514 0.553017 0.52929
0.956039 0.559167 0.536339
0.954665 0.545525 0.524819
0.952453 0.537575 0.516854
0.189349 0.754406 0.671458
0.185946 0.755062 0.662928
0.182406 0.754421 0.653284
0.175357 0.754513 0.628412
0.379156 0.806699 0.582361
0.710796 0.782101 0.499504
0.9411 0.766766 0.568719
0.968719 0.769207 0.56286
0.967407 0.763806 0.555093
0.334905 0.902602 0.78996
0.333028 0.903349 0.7832
0.330617 0.903853 0.775006
0.324712 0.904738 0.75436
0.327886 0.923064 0.687312
0.622278 0.995132 0.603738
0.8757 0.952377 0.527291
0.992065 0.94493 0.576028
0.990036 0.94139 0.569863
0.367712 0.926741 0.820066
0.3664 0.927657 0.814511
0.365316 0.929305 0.807263
0.361746 0.931548 0.790448
0.358663 0.943465 0.731701
0.519295 0.998932 0.613245
0.810513 0.986282 0.518624
0.979232 0.966705 0.512886
0.997864 0.970642 0.540505
0.368658 0.926345 0.823072
0.367086 0.926894 0.818204
0.365881 0.928496 0.810956
0.362585 0.931121 0.794263
0.358465 0.942016 0.738506
0.465156 0.996078 0.603418
0.786511 0.990738 0.508919
0.957351 0.966369 0.497856
0.997589 0.96997 0.533867
0.24831 0.0491035 0.614191
0.299229 0.050248 0.619974
0.367514 0.0522316 0.625483
0.455406 0.0568704 0.623423
0.555657 0.0697337 0.623117
0.670222 0.108598 0.614008
0.699702 0.128084 0.614755
0.697871 0.129061 0.62002
0.697704 0.129061 0.620737
0.16022 0.0460517 0.59295
0.244343 0.0486458 0.609567
0.336645 0.0509499 0.62208
0.439261 0.0554513 0.621653
0.547707 0.0676585 0.620706
0.667887 0.105226 0.609689
0.702129 0.126772 0.607324
0.700999 0.127321 0.610941
0.700999 0.12726 0.611307
0.00799573 0.0445716 0.537896
0.0534371 0.0413367 0.555184
0.249149 0.048188 0.606043
0.404318 0.0530404 0.618616
0.53077 0.0637064 0.615076
0.663111 0.0991684 0.602243
0.705852 0.124926 0.595605
0.705379 0.125307 0.597604
0.705638 0.125154 0.597101
0.0100099 0.244755 0.571801
0.00955215 0.228351 0.570871
0.0125887 0.194934 0.573129
0.341421 0.143008 0.664424
0.564675 0.163363 0.680674
0.727535 0.163745 0.652293
0.733928 0.14316 0.596216
0.718151 0.127245 0.578134
0.713909 0.12224 0.571176
0.0459144 0.489845 0.619654
0.0428321 0.484932 0.617472
0.0408026 0.472923 0.618814
0.0958877 0.464607 0.65156
0.54519 0.480888 0.70959
0.799695 0.491081 0.719112
0.968231 0.483543 0.722255
0.966506 0.466499 0.715221
0.962951 0.457649 0.707683
0.183597 0.723308 0.707256
0.180224 0.723018 0.701167
0.177218 0.720546 0.696757
0.171847 0.715358 0.68748
0.427161 0.738872 0.703624
0.710948 0.726864 0.686824
0.912703 0.728237 0.70573
0.96051 0.728664 0.709194
0.959167 0.722942 0.702861
0.324117 0.876509 0.81413
0.321324 0.876738 0.807767
0.318044 0.875685 0.801923
0.31249 0.874571 0.790387
0.327901 0.891554 0.774365
0.625071 0.929641 0.757076
0.855573 0.916991 0.699947
0.976349 0.907439 0.747539
0.975113 0.903075 0.742947
0.379217 0.921096 0.858488
0.376654 0.92163 0.852552
0.375067 0.922148 0.848005
0.372381 0.923384 0.839231
0.369497 0.929824 0.817349
0.569818 0.996765 0.806561
0.799298 0.996948 0.755077
0.96936 0.974334 0.709926
0.996521 0.975555 0.741375
0.381262 0.922377 0.860548
0.37882 0.922042 0.856535
0.376028 0.921675 0.851102
0.373205 0.92314 0.841688
0.369345 0.928847 0.819303
0.532113 0.994873 0.801389
0.773785 0.998672 0.750469
0.93991 0.97586 0.693889
0.994247 0.976822 0.727504
0.328054 0.0649577 0.675563
0.357534 0.0664073 0.679133
0.405356 0.0697948 0.683238
0.474952 0.0772412 0.684108
0.56199 0.0985122 0.684977
0.64506 0.129809 0.680583
0.672297 0.145769 0.687419
0.670924 0.147417 0.692012
0.670375 0.14757 0.692546
0.28304 0.0619364 0.666148
0.324178 0.0640116 0.67364
0.38204 0.0677043 0.681071
0.460365 0.0747539 0.683436
0.553353 0.0950484 0.68397
0.64181 0.127703 0.679606
0.673365 0.144701 0.684215
0.671946 0.146044 0.688197
0.671473 0.146502 0.688991
0.142992 0.0529641 0.621225
0.225528 0.0582589 0.649958
0.323064 0.0631723 0.671992
0.430243 0.0707713 0.682033
0.536538 0.0886702 0.681712
0.634028 0.122454 0.676966
0.675563 0.143191 0.678721
0.674311 0.143984 0.68188
0.674128 0.144167 0.681956
0.043946 0.166369 0.626337
0.0542916 0.143069 0.625208
0.077348 0.095964 0.61976
0.338521 0.0636912 0.673671
0.496437 0.0780957 0.679225
0.619883 0.114656 0.675837
0.682246 0.140627 0.666331
0.682429 0.141146 0.667201
0.68307 0.141253 0.666728
0.0736095 0.446433 0.688212
0.0715801 0.440436 0.686717
0.0706798 0.426322 0.687434
0.114733 0.41062 0.730205
0.563088 0.394461 0.856306
0.785992 0.418448 0.872251
0.927108 0.413977 0.867689
0.921904 0.395789 0.85745
0.916136 0.385443 0.84828
0.173617 0.66511 0.751919
0.169604 0.661982 0.747387
0.16524 0.653666 0.745388
0.155642 0.634348 0.740826
0.377157 0.65774 0.810483
0.712734 0.669032 0.835203
0.910903 0.681743 0.850141
0.963272 0.67686 0.855512
0.962173 0.670878 0.850156
0.317052 0.850767 0.837842
0.313985 0.850736 0.831952
0.310994 0.848859 0.828382
0.306462 0.845945 0.822919
0.331289 0.859586 0.827878
0.652628 0.874678 0.844358
0.845914 0.872663 0.834653
0.966217 0.8757 0.854536
0.967636 0.872358 0.850034
0.414633 0.930816 0.903532
0.411017 0.931243 0.898405
0.407568 0.930236 0.894896
0.400656 0.927886 0.888136
0.400351 0.931746 0.878553
0.622583 0.970397 0.905043
0.80766 0.973693 0.890578
0.949447 0.969436 0.855604
0.98381 0.965698 0.879545
0.419455 0.93193 0.907652
0.415457 0.932525 0.902602
0.411795 0.931655 0.898955
0.403571 0.928908 0.891051
0.398566 0.930602 0.87808
0.59292 0.971084 0.901396
0.786465 0.980194 0.893141
0.924941 0.975998 0.854139
0.985214 0.976684 0.871519
0.369863 0.0727245 0.68835
0.393729 0.0749218 0.690974
0.43183 0.0789502 0.693477
0.493278 0.0889448 0.695384
0.576883 0.114153 0.699016
0.65304 0.145281 0.70193
0.669367 0.151095 0.700648
0.669352 0.15111 0.700664
0.669367 0.151064 0.700542
0.338582 0.0700084 0.683574
0.368841 0.0726024 0.688182
0.413001 0.0768139 0.692424
0.479271 0.0855879 0.69427
0.568399 0.111223 0.698878
0.648402 0.143114 0.701488
0.669367 0.151095 0.700633
0.669383 0.151095 0.700618
0.669215 0.15108 0.700236
0.25304 0.0638132 0.664042
0.306447 0.0674601 0.677211
0.368856 0.0726024 0.688197
0.453651 0.0818341 0.69427
0.551522 0.105623 0.698466
0.63917 0.138705 0.700465
0.671992 0.154147 0.704051
0.670573 0.152621 0.702495
0.6701 0.151858 0.701244
0.182895 0.123629 0.685039
0.184405 0.0970474 0.66981
0.186999 0.0612039 0.644114
0.381109 0.0736095 0.68954
0.510719 0.0934768 0.696574
0.618799 0.12958 0.69897
0.67921 0.161669 0.71162
0.679545 0.162081 0.712123
0.679683 0.16199 0.711711
0.103044 0.422995 0.721202
0.105669 0.415946 0.724086
0.114549 0.40119 0.732967
0.205844 0.376928 0.798733
0.595926 0.342123 0.897322
0.790539 0.361181 0.916609
0.878035 0.368658 0.910643
0.864485 0.348821 0.897581
0.854536 0.336965 0.887404
0.182757 0.629007 0.781033
0.179477 0.625177 0.777661
0.175219 0.617182 0.774319
0.1691 0.600946 0.771023
0.372625 0.627909 0.882002
0.741085 0.623636 0.925399
0.904936 0.643305 0.94374
0.944518 0.638102 0.949325
0.941421 0.632425 0.943877
0.314855 0.82269 0.864881
0.311849 0.821118 0.861204
0.309163 0.817578 0.859892
0.303929 0.809796 0.858045
0.330648 0.811139 0.879286
0.625544 0.825193 0.896834
0.846693 0.837232 0.912734
0.959609 0.846891 0.93193
0.961913 0.842878 0.929229
0.44007 0.932952 0.933028
0.43505 0.934218 0.926757
0.431662 0.932906 0.924392
0.424567 0.92958 0.919493
0.424628 0.928054 0.914183
0.633585 0.949462 0.935164
0.831006 0.9467 0.935973
0.941543 0.949676 0.935042
0.981567 0.948013 0.945113
0.447623 0.936126 0.93753
0.444312 0.937301 0.93344
0.442435 0.937453 0.931151
0.439323 0.937469 0.927489
0.44596 0.941299 0.923598
0.624704 0.962707 0.942794
0.81709 0.967559 0.948669
0.925063 0.973693 0.948455
0.983902 0.976486 0.948165
0.381308 0.07364 0.68957
0.403601 0.075761 0.691661
0.438804 0.0797436 0.69369
0.498955 0.0902571 0.695628
0.581231 0.11548 0.698787
0.656474 0.1467 0.7019
0.669367 0.151095 0.700648
0.669383 0.151095 0.700618
0.669383 0.151034 0.70045
0.353033 0.0711528 0.685863
0.380606 0.0735637 0.689479
0.420874 0.0777142 0.692973
0.485222 0.0869459 0.694697
0.572854 0.112825 0.699062
0.651881 0.144762 0.701869
0.669367 0.151095 0.700648
0.669383 0.15108 0.700587
0.669367 0.150988 0.700145
0.279011 0.0655375 0.670909
0.325277 0.0688182 0.680964
0.380072 0.0735027 0.689418
0.459464 0.082475 0.694118
0.555886 0.107057 0.698604
0.642237 0.140124 0.70074
0.669261 0.151186 0.700984
0.671107 0.15317 0.702998
0.67039 0.152056 0.701473
0.184512 0.110353 0.677958
0.183963 0.0835431 0.6607
0.21738 0.0614328 0.653101
0.391653 0.0746777 0.69073
0.51519 0.0947433 0.69691
0.619837 0.129641 0.698375
0.674342 0.156573 0.706477
0.679149 0.161624 0.711604
0.678996 0.161273 0.710964
0.126741 0.408988 0.745281
0.126406 0.399344 0.744427
0.128573 0.379782 0.744533
0.207965 0.343221 0.790799
0.586114 0.302678 0.882017
0.768673 0.322057 0.894163
0.849989 0.331212 0.883055
0.830381 0.309453 0.863859
0.817395 0.295964 0.850568
0.192828 0.623117 0.79675
0.188403 0.618357 0.792172
0.182925 0.609461 0.787381
0.171984 0.589807 0.778302
0.371557 0.609033 0.884031
0.74757 0.60177 0.931716
0.905501 0.620996 0.952499
0.93785 0.617426 0.958068
0.936156 0.610132 0.956863
0.34992 0.820813 0.903853
0.346014 0.81857 0.900633
0.342214 0.814206 0.898878
0.33341 0.803723 0.894804
0.351781 0.792218 0.900252
0.609216 0.805005 0.912123
0.857984 0.816342 0.939956
0.951614 0.826963 0.960555
0.952102 0.822416 0.959686
0.443565 0.926482 0.942016
0.440055 0.926513 0.938613
0.437385 0.924788 0.937362
0.431769 0.920348 0.935271
0.430121 0.91252 0.933669
0.621744 0.926833 0.950759
0.816434 0.928267 0.95198
0.941558 0.935607 0.964187
0.97557 0.937423 0.974212
0.457511 0.936156 0.947234
0.455146 0.937346 0.944183
0.455009 0.937423 0.943999
0.455009 0.937423 0.943999
0.466102 0.940581 0.946609
0.618708 0.959686 0.96318
0.814237 0.96791 0.96762
0.934524 0.97319 0.972
0.981628 0.977264 0.97705
