bundles/resolve-cinematic-luts/Phantom Luts/Ursa G2 Phntm Arri LUTs - V1/Gen4/Standard (No WB Offset)/Jamaica Ursa Gen4 Legacy V1.cube
TITLE "Generated by Resolve"
LUT_3D_SIZE 33
0.017792 0.0344701 0.0177462
0.017792 0.0344701 0.0177462
0.0266575 0.0348211 0.0180056
0.0433204 0.0362554 0.0199893
0.0644541 0.0377203 0.0225681
0.0893263 0.0391699 0.0255283
0.115175 0.0399329 0.0292058
0.144152 0.0406806 0.0341192
0.17763 0.0415808 0.0380713
0.213901 0.0424353 0.0418708
0.254139 0.043595 0.0457618
0.297444 0.0450141 0.0501564
0.340673 0.0458534 0.0545968
0.384787 0.0468147 0.0600443
0.42974 0.0477455 0.0661173
0.474128 0.0485237 0.072343
0.516091 0.0499123 0.0800336
0.554726 0.052079 0.0888991
0.588663 0.0553597 0.09897
0.614679 0.0614176 0.111681
0.628244 0.0693523 0.125399
0.634974 0.0759289 0.135119
0.638621 0.079118 0.139635
0.640986 0.0809949 0.142306
0.643 0.082475 0.144778
0.645136 0.0841535 0.147265
0.647013 0.0856947 0.14934
0.648783 0.0871138 0.151324
0.650507 0.0884565 0.153353
0.651652 0.0893873 0.15462
0.652873 0.090486 0.155795
0.65391 0.0914168 0.156771
0.654429 0.0919356 0.157153
0.0183261 0.0361791 0.0189822
0.0180819 0.0356603 0.0181277
0.0200961 0.0351263 0.0180362
0.0347448 0.0372778 0.0200046
0.0544747 0.0395819 0.0225834
0.0790723 0.0411994 0.0256809
0.105562 0.041886 0.0276799
0.135042 0.0423133 0.0309453
0.168978 0.0426642 0.0339361
0.206119 0.0432441 0.0372931
0.246357 0.0436103 0.0407263
0.28983 0.0440681 0.0440986
0.334188 0.0445106 0.0470283
0.379019 0.0434272 0.0483406
0.422965 0.0432441 0.0517739
0.467369 0.0433204 0.0571145
0.509239 0.0440681 0.0641947
0.547066 0.0463111 0.0737774
0.580377 0.049897 0.0849317
0.605066 0.0557107 0.0980697
0.617609 0.0629892 0.111788
0.624521 0.0690929 0.122179
0.628855 0.0720226 0.127108
0.63064 0.0733959 0.12929
0.632563 0.0749218 0.131716
0.634485 0.0763256 0.134127
0.63653 0.0778973 0.136507
0.638209 0.0791943 0.138491
0.639643 0.0803082 0.140169
0.640879 0.0813001 0.141573
0.641886 0.0821393 0.142687
0.642573 0.0827192 0.143359
0.643107 0.0832227 0.143832
0.019852 0.0414588 0.0232395
0.0192874 0.0402838 0.0206149
0.0212558 0.0382086 0.0188144
0.0302739 0.0399939 0.0205539
0.0443885 0.0429389 0.0227359
0.0672313 0.0444495 0.0270085
0.0938125 0.0452888 0.028809
0.1234 0.0451362 0.0305486
0.157153 0.0446479 0.0330358
0.1944 0.0449378 0.0362097
0.234897 0.0447089 0.0387274
0.279118 0.044831 0.0424201
0.324804 0.0453346 0.0452583
0.370123 0.0455177 0.049546
0.415534 0.0456245 0.0535134
0.460151 0.0458228 0.0577401
0.502007 0.0462654 0.0622721
0.53994 0.047013 0.0682994
0.572549 0.0489509 0.0757458
0.596475 0.0529793 0.0857099
0.611246 0.0603952 0.101091
0.618875 0.0669108 0.112612
0.62388 0.0701152 0.118059
0.625711 0.0711376 0.120668
0.627192 0.071931 0.122972
0.628092 0.0723888 0.124392
0.628824 0.0728161 0.125521
0.62948 0.0732128 0.126558
0.630152 0.0736248 0.127535
0.630747 0.0740215 0.128389
0.631357 0.0745251 0.129259
0.631968 0.0751507 0.1299
0.632425 0.0755932 0.130373
0.0241245 0.0555428 0.0369726
0.0238041 0.0550088 0.0347143
0.0263981 0.0535897 0.028275
0.0366217 0.0527352 0.0254673
0.0496223 0.0531777 0.0283818
0.0692912 0.0543374 0.0318151
0.0925154 0.0542611 0.0330663
0.118929 0.0529793 0.034287
0.149554 0.0516365 0.0353246
0.184726 0.0497444 0.0353857
0.225116 0.0476234 0.0370642
0.268879 0.0468757 0.0408789
0.315557 0.0470893 0.0440681
0.361654 0.0465095 0.0472267
0.40766 0.0467079 0.0512093
0.453178 0.0467994 0.0557565
0.496742 0.0472419 0.0610208
0.536141 0.0483558 0.0674601
0.570214 0.0505074 0.0755016
0.596948 0.0549935 0.0864424
0.611521 0.0620737 0.0982986
0.618021 0.0684062 0.108003
0.620844 0.0704509 0.110323
0.620874 0.0703441 0.109865
0.6224 0.0712596 0.112184
0.624231 0.0722667 0.114992
0.624949 0.0724346 0.116472
0.625681 0.0726482 0.117861
0.626307 0.0729381 0.118929
0.627085 0.0733654 0.12018
0.627756 0.0737469 0.121233
0.628305 0.0741131 0.122042
0.628641 0.0744182 0.122499
0.0260624 0.0730449 0.0447852
0.0256199 0.0728771 0.0418097
0.0262913 0.0708019 0.0369573
0.0376593 0.0688792 0.0303349
0.0504005 0.0684825 0.0299229
0.071397 0.0689403 0.0331273
0.0970932 0.0684062 0.0378729
0.124575 0.0669261 0.0412299
0.152651 0.0653697 0.0419318
0.185794 0.062623 0.0412146
0.224125 0.0602426 0.0417334
0.265248 0.0574502 0.041474
0.310689 0.0536507 0.0429236
0.355123 0.0496834 0.0428931
0.399741 0.0479896 0.0473335
0.445075 0.0479286 0.0529793
0.490028 0.0484627 0.0583658
0.531182 0.0497292 0.064683
0.566751 0.0518196 0.0729686
0.594919 0.056199 0.0834363
0.612116 0.0633707 0.0972457
0.620447 0.0708171 0.1093
0.62504 0.0744945 0.114168
0.625162 0.0743572 0.113527
0.624384 0.0738384 0.112413
0.624002 0.07364 0.111818
0.623804 0.0735637 0.111452
0.623606 0.0734722 0.111101
0.623423 0.0733959 0.110796
0.623163 0.0732891 0.110384
0.622904 0.0731823 0.110002
0.623133 0.0734264 0.110323
0.623621 0.0738231 0.111009
0.0258946 0.095491 0.0525978
0.0251469 0.0961471 0.0478828
0.0263523 0.0945144 0.0436255
0.0359808 0.0920424 0.0367437
0.052491 0.0906691 0.0319371
0.0684062 0.090837 0.0340429
0.0940108 0.0902113 0.0367437
0.12401 0.089189 0.0408331
0.158206 0.0851606 0.0453956
0.194598 0.0794842 0.0487373
0.230777 0.0757 0.0495003
0.268559 0.0730144 0.0485084
0.312932 0.069337 0.0483711
0.357412 0.0660105 0.0492561
0.401694 0.0627451 0.0499428
0.44654 0.0583505 0.053727
0.488563 0.0542306 0.055436
0.526864 0.0523995 0.0608988
0.562524 0.0534981 0.0693523
0.592676 0.0576028 0.0803388
0.611811 0.0647746 0.0943618
0.620935 0.0727092 0.107088
0.627253 0.077821 0.114519
0.628122 0.0780957 0.114504
0.628122 0.0780957 0.114504
0.628122 0.0780957 0.114504
0.628122 0.0780957 0.114504
0.628107 0.0780652 0.114488
0.628077 0.0780652 0.114458
0.628031 0.0780499 0.114397
0.627955 0.0780499 0.114305
0.627848 0.0780652 0.114153
0.627787 0.0781262 0.114076
0.0254215 0.120546 0.0604715
0.0245823 0.122148 0.0531319
0.0257267 0.120302 0.0501564
0.0305028 0.117357 0.0441596
0.0492103 0.114794 0.0343175
0.0686961 0.114656 0.0337224
0.0890059 0.114733 0.0368048
0.118273 0.113359 0.0394598
0.153811 0.113298 0.0425269
0.195377 0.107576 0.049546
0.237736 0.0979477 0.0546883
0.281712 0.0922255 0.0570993
0.324407 0.0894636 0.0578317
0.363943 0.087541 0.0582132
0.408087 0.084184 0.0597391
0.452598 0.0799573 0.0609445
0.496574 0.0753185 0.0626841
0.536767 0.0708629 0.0677043
0.571191 0.0679026 0.072694
0.597574 0.0669413 0.0799573
0.612345 0.0681621 0.0907454
0.621775 0.0749523 0.104997
0.628626 0.0808881 0.113787
0.63151 0.0825818 0.115541
0.631525 0.0825666 0.115557
0.63151 0.0825666 0.115557
0.63151 0.0825513 0.115557
0.63151 0.0825513 0.115557
0.631495 0.082536 0.115541
0.631479 0.0825513 0.115511
0.631434 0.082536 0.11545
0.631342 0.082536 0.115328
0.631251 0.082536 0.115206
0.0268711 0.147448 0.0717479
0.0261692 0.149645 0.062211
0.0283207 0.149584 0.0572366
0.0314794 0.147036 0.0522316
0.0382239 0.143633 0.0435035
0.0652323 0.142046 0.0324559
0.0907301 0.142306 0.0358282
0.111559 0.142306 0.0398108
0.144717 0.1402 0.0430762
0.188388 0.140322 0.0453956
0.236042 0.133288 0.0544289
0.286641 0.120668 0.0619669
0.335775 0.114412 0.0655375
0.380987 0.110414 0.0677348
0.422431 0.109453 0.0697948
0.463386 0.109209 0.0720226
0.50898 0.106493 0.0747845
0.551537 0.102403 0.0779278
0.588922 0.0995041 0.0832685
0.61857 0.0964065 0.0929427
0.635309 0.0967117 0.103883
0.639887 0.0981308 0.114214
0.642161 0.0988022 0.120699
0.642283 0.0965438 0.121431
0.638025 0.0910811 0.118685
0.636271 0.0889448 0.11751
0.636301 0.0889754 0.11754
0.636316 0.0889906 0.117556
0.636362 0.0890364 0.117586
0.636332 0.0890364 0.117556
0.636286 0.0890211 0.11751
0.636194 0.0890059 0.117388
0.636088 0.0889906 0.117266
0.0285801 0.179126 0.085832
0.0278172 0.181491 0.0759747
0.0322881 0.183032 0.0673228
0.0354467 0.181003 0.0621805
0.0405127 0.17818 0.0548867
0.0525063 0.174289 0.040177
0.0897078 0.173739 0.0337377
0.114534 0.17467 0.0381933
0.136614 0.174945 0.0434119
0.176669 0.172396 0.0482795
0.228199 0.172641 0.0512856
0.283925 0.166293 0.0608377
0.34107 0.152483 0.0710307
0.393103 0.144183 0.0770123
0.441611 0.140475 0.0814679
0.487846 0.139727 0.0854963
0.530098 0.141497 0.0894484
0.570275 0.142061 0.09308
0.609567 0.139559 0.0979324
0.642374 0.1393 0.106767
0.6645 0.141405 0.119249
0.672709 0.144381 0.131304
0.676555 0.14461 0.142016
0.676448 0.142184 0.143847
0.670512 0.134173 0.139986
0.665965 0.128038 0.136995
0.661982 0.122728 0.13434
0.6589 0.118502 0.132448
0.65597 0.114672 0.130449
0.653513 0.111376 0.128832
0.650919 0.107973 0.127092
0.648402 0.104845 0.125292
0.647135 0.103227 0.124468
0.0303807 0.214649 0.100923
0.0298924 0.217166 0.0915999
0.0356603 0.219608 0.0813458
0.0402838 0.219593 0.0747539
0.0444648 0.216281 0.0674907
0.051133 0.212696 0.0577096
0.0796368 0.209888 0.0398871
0.113893 0.211002 0.0355535
0.139971 0.212604 0.0424353
0.166339 0.213687 0.0489815
0.213657 0.210727 0.0563973
0.275273 0.212131 0.059205
0.338766 0.208011 0.0679179
0.39939 0.195941 0.0807202
0.455863 0.183734 0.0920272
0.506874 0.179675 0.0979934
0.553124 0.178073 0.103395
0.595682 0.178012 0.108614
0.632074 0.180056 0.113985
0.665766 0.182177 0.122423
0.69218 0.185443 0.136095
0.705653 0.190127 0.151354
0.711849 0.194171 0.162463
0.714656 0.195727 0.16759
0.711101 0.190799 0.165347
0.706691 0.184817 0.162387
0.702037 0.178637 0.159152
0.698421 0.173602 0.156924
0.695094 0.169207 0.154574
0.69218 0.165606 0.152361
0.690745 0.161654 0.153323
0.688594 0.158923 0.151736
0.686839 0.156756 0.150408
0.032166 0.255619 0.119051
0.0322423 0.258381 0.110231
0.0378424 0.260517 0.100298
0.0450752 0.262242 0.0913863
0.0494545 0.260151 0.0842756
0.05626 0.256962 0.0741588
0.0655375 0.252659 0.0608072
0.103593 0.251865 0.041413
0.139467 0.255192 0.0404822
0.168612 0.257527 0.0496071
0.20238 0.259449 0.0580301
0.258625 0.256413 0.0673686
0.329732 0.258686 0.0664836
0.396277 0.256031 0.0738994
0.459236 0.245655 0.0894331
0.516182 0.23209 0.103822
0.568963 0.221256 0.114565
0.61529 0.219486 0.121813
0.65803 0.21973 0.130266
0.692729 0.222202 0.140032
0.719066 0.228946 0.153216
0.736416 0.236606 0.169497
0.745739 0.242359 0.183139
0.751019 0.24625 0.191226
0.749401 0.24361 0.190723
0.745846 0.238499 0.188479
0.742153 0.233326 0.186069
0.739147 0.22916 0.184085
0.736187 0.225071 0.182132
0.73344 0.221378 0.180209
0.731533 0.218677 0.179019
0.729458 0.216098 0.177356
0.727825 0.214099 0.176074
0.0341497 0.305669 0.141421
0.0350195 0.30782 0.132174
0.0403449 0.309697 0.122881
0.049485 0.311772 0.112749
0.0571298 0.31249 0.104128
0.0628672 0.309392 0.0954757
0.072221 0.30663 0.0825055
0.0857252 0.302602 0.0644999
0.132113 0.304006 0.0462959
0.168826 0.308949 0.0488289
0.203922 0.310933 0.0601053
0.244617 0.312016 0.0679637
0.308537 0.306905 0.0761883
0.384726 0.309133 0.0732738
0.454276 0.309346 0.0779126
0.517311 0.300206 0.0968032
0.57557 0.289509 0.114626
0.630014 0.275929 0.131807
0.678416 0.268238 0.145388
0.718196 0.269032 0.157824
0.748913 0.272908 0.173922
0.766339 0.280903 0.189563
0.778058 0.290318 0.203052
0.785611 0.296925 0.21265
0.786084 0.296666 0.214084
0.783459 0.292683 0.212497
0.780514 0.288411 0.210605
0.778103 0.284749 0.209171
0.775845 0.281544 0.207675
0.773495 0.278218 0.206134
0.771634 0.275639 0.204852
0.769848 0.273289 0.20351
0.768399 0.271458 0.20235
0.0362402 0.361013 0.166781
0.0367895 0.36321 0.157855
0.0428168 0.365148 0.148943
0.0517433 0.367025 0.138964
0.062501 0.3691 0.129427
0.0706493 0.368002 0.120226
0.079408 0.364645 0.109194
0.0918746 0.360967 0.0925612
0.114748 0.35845 0.0678569
0.164431 0.362158 0.0555886
0.202487 0.366598 0.0589609
0.244388 0.366018 0.0699931
0.289998 0.366155 0.0756542
0.361166 0.35964 0.0858473
0.440711 0.362081 0.0814374
0.512627 0.363806 0.0835737
0.57467 0.357809 0.104692
0.635172 0.348486 0.128267
0.689738 0.337163 0.14992
0.738186 0.321401 0.172656
0.774578 0.322423 0.191394
0.795743 0.327443 0.209049
0.808499 0.334676 0.223819
0.816434 0.342351 0.232624
0.818647 0.345541 0.234623
0.816373 0.342184 0.233112
0.814237 0.338918 0.231769
0.812345 0.336202 0.230472
0.810712 0.333761 0.22945
0.809308 0.331487 0.228672
0.807675 0.329229 0.227543
0.806241 0.327321 0.226444
0.805035 0.325811 0.225467
0.0390784 0.416968 0.196353
0.0381476 0.419135 0.187991
0.0432441 0.421027 0.178622
0.0521553 0.423362 0.168765
0.062211 0.425467 0.158511
0.0747845 0.427237 0.147784
0.0847028 0.424903 0.137484
0.0970626 0.421958 0.123445
0.115969 0.418311 0.103502
0.150408 0.418509 0.072694
0.201831 0.421408 0.0623789
0.240864 0.423835 0.0663767
0.288655 0.421668 0.0787976
0.338827 0.421302 0.0851301
0.414755 0.413199 0.0967575
0.496895 0.416205 0.090959
0.56965 0.418036 0.0958114
0.631785 0.415747 0.116182
0.692882 0.407156 0.145663
0.747051 0.397589 0.172519
0.794705 0.38526 0.20235
0.822385 0.377661 0.226154
0.837293 0.383368 0.24152
0.846418 0.38941 0.251896
0.848615 0.392737 0.253666
0.847105 0.390127 0.252796
0.845411 0.387503 0.251652
0.843687 0.384665 0.250568
0.84213 0.382162 0.249592
0.841016 0.380423 0.24889
0.839933 0.378698 0.248203
0.838941 0.37731 0.247471
0.838087 0.376272 0.246754
0.0487068 0.475044 0.23151
0.0471962 0.477226 0.222904
0.0489357 0.479515 0.213092
0.0558022 0.481422 0.20322
0.0636454 0.483894 0.192996
0.076051 0.486519 0.180209
0.0901503 0.487602 0.167544
0.104982 0.484794 0.155886
0.12314 0.482322 0.139178
0.14696 0.479515 0.11284
0.189181 0.480583 0.07953
0.240726 0.482551 0.0708171
0.284092 0.48333 0.0766155
0.33727 0.480705 0.0894484
0.391959 0.479301 0.0963302
0.470451 0.469276 0.109987
0.553033 0.472007 0.105699
0.625223 0.47361 0.113222
0.68658 0.475456 0.131258
0.747951 0.467826 0.168505
0.802594 0.45951 0.20235
0.84184 0.452827 0.232395
0.863233 0.447654 0.253727
0.874434 0.44741 0.266972
0.877958 0.451453 0.27013
0.877043 0.449592 0.269551
0.875471 0.445548 0.268849
0.873991 0.442237 0.268025
0.873075 0.439429 0.267811
0.872007 0.436698 0.267369
0.870893 0.434256 0.266804
0.870039 0.432471 0.266331
0.869078 0.431037 0.265553
0.0596017 0.534295 0.271382
0.0584421 0.536736 0.262715
0.0584115 0.538811 0.253239
0.0622568 0.54078 0.243946
0.0716106 0.542794 0.233951
0.0833448 0.545876 0.221332
0.0997787 0.550072 0.20618
0.115755 0.549569 0.192416
0.132113 0.546731 0.176455
0.150301 0.543709 0.156344
0.178241 0.542504 0.123522
0.23447 0.543618 0.0884718
0.285496 0.545632 0.0838788
0.334081 0.544701 0.0924239
0.390509 0.540871 0.103456
0.446983 0.53756 0.111849
0.525628 0.526024 0.128511
0.607294 0.528222 0.127108
0.679072 0.530068 0.138064
0.739483 0.533257 0.158816
0.798779 0.528527 0.197391
0.847425 0.522286 0.233127
0.876692 0.520012 0.257893
0.892531 0.520012 0.273381
0.898573 0.522057 0.279698
0.898207 0.522118 0.279194
0.897398 0.518975 0.278676
0.896834 0.516274 0.27837
0.896101 0.513726 0.277867
0.895552 0.512016 0.27744
0.894942 0.509682 0.277058
0.89427 0.50779 0.276555
0.893523 0.506218 0.275944
0.0728771 0.593912 0.314977
0.07187 0.59585 0.307088
0.0710002 0.597681 0.298665
0.0705577 0.599359 0.290608
0.0745251 0.601648 0.281315
0.0863203 0.604913 0.269535
0.101579 0.609049 0.255238
0.12163 0.612604 0.237629
0.13843 0.611383 0.221317
0.156771 0.609049 0.202167
0.178958 0.605951 0.17734
0.215396 0.606256 0.135348
0.284688 0.607263 0.102586
0.335851 0.607858 0.103868
0.388006 0.604822 0.115465
0.444282 0.600107 0.124346
0.503471 0.595666 0.133791
0.580789 0.582986 0.151797
0.661189 0.58439 0.154406
0.730694 0.58529 0.170626
0.789685 0.588663 0.195605
0.842664 0.588464 0.231907
0.880858 0.58613 0.262821
0.901518 0.586801 0.281132
0.910918 0.588602 0.290303
0.911345 0.589776 0.290806
0.910872 0.587106 0.290196
0.910338 0.584558 0.289555
0.910124 0.58265 0.289265
0.909972 0.580743 0.289006
0.909667 0.57879 0.288563
0.908949 0.577142 0.287724
0.908248 0.575738 0.286931
0.0919356 0.651804 0.363577
0.0912337 0.653376 0.356329
0.0906691 0.655024 0.348684
0.0903639 0.656626 0.340871
0.0903029 0.658701 0.332311
0.0953231 0.661341 0.32137
0.107973 0.665354 0.308507
0.125978 0.671199 0.291341
0.146044 0.673793 0.272709
0.164233 0.672984 0.254398
0.186587 0.671366 0.230854
0.214755 0.668788 0.198535
0.263371 0.66949 0.147967
0.337163 0.669825 0.128771
0.39028 0.669459 0.132509
0.444938 0.664576 0.145937
0.499443 0.659175 0.151461
0.558694 0.653056 0.161944
0.634592 0.640864 0.179599
0.712551 0.639414 0.188418
0.779309 0.640726 0.209094
0.836835 0.645487 0.239017
0.876326 0.650492 0.267353
0.90399 0.650446 0.290852
0.917311 0.652567 0.302953
0.919722 0.654108 0.305669
0.919722 0.652598 0.30544
0.919448 0.650675 0.304845
0.918929 0.648692 0.30399
0.918959 0.647211 0.303716
0.918837 0.645777 0.303304
0.918563 0.644404 0.302739
0.918059 0.643732 0.302113
0.118303 0.708034 0.414984
0.118013 0.709438 0.408896
0.117739 0.710704 0.401892
0.117784 0.712367 0.394751
0.117693 0.713634 0.386816
0.118044 0.71519 0.377691
0.122972 0.718242 0.366598
0.137987 0.724285 0.350576
0.158236 0.73135 0.330724
0.17583 0.733013 0.312612
0.196536 0.732784 0.290425
0.221149 0.731167 0.262608
0.259617 0.731212 0.223011
0.323766 0.732555 0.176257
0.397833 0.731762 0.164065
0.45095 0.73022 0.170489
0.50251 0.72488 0.184863
0.55491 0.718013 0.186679
0.613275 0.710765 0.19678
0.688807 0.702861 0.213733
0.762524 0.696727 0.230518
0.828 0.698604 0.254948
0.877348 0.702831 0.284596
0.90631 0.708507 0.307012
0.922194 0.713252 0.320882
0.92665 0.714977 0.325231
0.927382 0.714961 0.325933
0.927138 0.713512 0.325307
0.926848 0.712398 0.324681
0.926436 0.711131 0.323888
0.926101 0.710002 0.323201
0.925933 0.709072 0.322728
0.925658 0.707942 0.322148
0.15584 0.763745 0.467369
0.1561 0.765057 0.462547
0.156054 0.765972 0.456733
0.156268 0.766918 0.450813
0.156603 0.767987 0.444587
0.157305 0.769268 0.437156
0.158526 0.770993 0.428092
0.165438 0.775509 0.416098
0.181247 0.783337 0.398566
0.198657 0.788617 0.377295
0.216098 0.790494 0.356527
0.236896 0.790402 0.33109
0.264378 0.789242 0.299825
0.314534 0.791287 0.252857
0.395453 0.793729 0.215488
0.463127 0.792172 0.209918
0.51368 0.789853 0.216236
0.561166 0.783932 0.225711
0.611307 0.776837 0.228565
0.668162 0.770138 0.239673
0.739635 0.763653 0.257023
0.811902 0.7561 0.278935
0.872496 0.759609 0.306859
0.911177 0.762295 0.331594
0.931426 0.766995 0.34815
0.940108 0.769894 0.356161
0.941894 0.769238 0.357885
0.94139 0.767895 0.356863
0.941009 0.766674 0.355978
0.940673 0.765469 0.355108
0.940414 0.764553 0.354391
0.9402 0.763668 0.353689
0.940108 0.763043 0.353277
0.204974 0.819226 0.523766
0.205417 0.820081 0.519371
0.205982 0.821027 0.514672
0.206607 0.821927 0.509804
0.207294 0.822782 0.504631
0.20827 0.823804 0.49836
0.210224 0.825574 0.491234
0.212436 0.827237 0.482231
0.221057 0.832761 0.468635
0.237446 0.841535 0.448753
0.250187 0.844999 0.428901
0.266728 0.847257 0.405722
0.289296 0.848554 0.377417
0.323949 0.849973 0.341314
0.385702 0.852613 0.292821
0.469917 0.855161 0.268467
0.533013 0.852964 0.265171
0.577859 0.850172 0.270329
0.621698 0.844175 0.275883
0.669429 0.837629 0.279973
0.723369 0.83154 0.291936
0.788968 0.826795 0.311788
0.86038 0.819516 0.337804
0.90988 0.823316 0.364431
0.938018 0.826154 0.383413
0.951705 0.829847 0.394568
0.954284 0.828626 0.396536
0.954528 0.827436 0.396277
0.954528 0.826551 0.395804
0.954665 0.825528 0.395285
0.954635 0.824353 0.394537
0.954498 0.82327 0.393698
0.954314 0.822629 0.393103
0.258335 0.869322 0.579446
0.258671 0.869795 0.57554
0.259236 0.870466 0.57142
0.259953 0.871199 0.567208
0.261051 0.87219 0.562905
0.261982 0.872969 0.557641
0.263264 0.87393 0.551583
0.264973 0.875029 0.54374
0.268269 0.877119 0.533333
0.279316 0.884535 0.518364
0.291951 0.890959 0.498802
0.303075 0.89427 0.478935
0.319432 0.897108 0.453468
0.34432 0.899275 0.422019
0.389624 0.903319 0.381521
0.463615 0.907149 0.340307
0.543526 0.906889 0.323049
0.598672 0.903548 0.321645
0.638621 0.900679 0.327001
0.680217 0.894499 0.330449
0.725841 0.888548 0.335607
0.778973 0.883741 0.348684
0.842466 0.880949 0.370718
0.904082 0.875303 0.395285
0.941466 0.877821 0.415396
0.960433 0.881773 0.428031
0.966567 0.882246 0.432517
0.967056 0.881834 0.433188
0.966827 0.881239 0.4327
0.966506 0.880644 0.432105
0.96643 0.879927 0.43154
0.966369 0.879316 0.430915
0.966293 0.878614 0.430274
0.305348 0.908827 0.628763
0.305058 0.908721 0.624811
0.305165 0.908919 0.6206
0.305898 0.90959 0.617044
0.306493 0.910109 0.613291
0.306981 0.910521 0.608728
0.307698 0.911055 0.603113
0.308705 0.911696 0.596017
0.310277 0.912596 0.587289
0.31458 0.915419 0.57644
0.325673 0.922438 0.558968
0.335576 0.927169 0.540658
0.3467 0.930755 0.520577
0.364599 0.934569 0.493843
0.396841 0.939696 0.460227
0.454093 0.945418 0.418265
0.536812 0.948867 0.384985
0.607446 0.947036 0.372824
0.653071 0.943099 0.371405
0.689723 0.938491 0.373816
0.730159 0.932128 0.375174
0.77467 0.927062 0.381537
0.828443 0.922972 0.395361
0.890578 0.920928 0.417548
0.937438 0.917281 0.437629
0.963882 0.91931 0.45214
0.975769 0.920653 0.459831
0.977172 0.919585 0.460899
0.976944 0.919387 0.460716
0.976501 0.919127 0.460197
0.976318 0.918929 0.459815
0.976349 0.918486 0.459281
0.976684 0.918227 0.459007
0.339971 0.935073 0.669337
0.339025 0.934447 0.665095
0.338888 0.934462 0.661311
0.339025 0.934722 0.657603
0.339376 0.935119 0.653986
0.33959 0.935454 0.64976
0.340017 0.935882 0.644694
0.340642 0.936385 0.6383
0.341604 0.937072 0.630579
0.342611 0.937575 0.620493
0.345937 0.939483 0.60589
0.355718 0.945663 0.5897
0.36585 0.950729 0.572015
0.379156 0.955581 0.55082
0.400107 0.9608 0.52311
0.44152 0.968399 0.485878
0.511589 0.975723 0.443519
0.593698 0.977996 0.416861
0.653468 0.974609 0.407614
0.695171 0.969223 0.405646
0.7308 0.962783 0.405509
0.770581 0.955673 0.406165
0.815381 0.950774 0.413489
0.872068 0.947417 0.42948
0.925628 0.944198 0.449531
0.960952 0.944045 0.466392
0.978012 0.945388 0.476356
0.983078 0.945068 0.479789
0.983368 0.944915 0.480262
0.983001 0.944869 0.479957
0.982773 0.944869 0.479698
0.982635 0.944732 0.479194
0.982757 0.944518 0.478721
0.359869 0.949126 0.695811
0.358587 0.948302 0.691661
0.358114 0.948119 0.687831
0.358236 0.948409 0.684688
0.358328 0.94873 0.680995
0.358434 0.94902 0.677089
0.358618 0.94931 0.672328
0.358801 0.94966 0.666423
0.359136 0.950072 0.659022
0.35935 0.950271 0.649378
0.358938 0.949706 0.636118
0.362829 0.952163 0.619348
0.371038 0.957198 0.603861
0.38349 0.963943 0.587228
0.399771 0.970352 0.565118
0.428367 0.978882 0.536019
0.482063 0.988449 0.493462
0.561685 0.995315 0.455268
0.634516 0.993805 0.43415
0.687053 0.98732 0.425834
0.725841 0.979263 0.422629
0.761212 0.970764 0.419974
0.802029 0.96408 0.422217
0.852293 0.959228 0.432654
0.906874 0.95729 0.450767
0.950622 0.954391 0.468223
0.974914 0.955917 0.482048
0.984558 0.957214 0.489418
0.985855 0.957534 0.491371
0.985565 0.957748 0.491417
0.985336 0.957824 0.491188
0.985245 0.95787 0.490806
0.985275 0.957839 0.490471
0.360327 0.949157 0.699199
0.359091 0.948363 0.695354
0.358373 0.948013 0.691661
0.358312 0.948196 0.688472
0.358312 0.948409 0.685206
0.358373 0.948775 0.681163
0.358526 0.949096 0.676463
0.358679 0.949432 0.670832
0.358907 0.949828 0.663523
0.35935 0.950271 0.654429
0.359121 0.949996 0.642329
0.360357 0.950484 0.625254
0.366949 0.95465 0.609735
0.377707 0.961089 0.595804
0.392065 0.968109 0.578592
0.413321 0.976318 0.557015
0.453773 0.986877 0.522255
0.524865 0.996933 0.479469
0.601694 0.998932 0.450004
0.663752 0.993637 0.434119
0.710872 0.983993 0.426246
0.74815 0.974868 0.422553
0.78587 0.967224 0.422049
0.83035 0.961364 0.428183
0.885969 0.957794 0.443336
0.93698 0.954482 0.46157
0.967025 0.95494 0.477256
0.982269 0.957214 0.488197
0.985733 0.958022 0.492546
0.98558 0.958343 0.49308
0.985351 0.958465 0.492897
0.985245 0.958541 0.492576
0.98526 0.958572 0.492256
0.360586 0.94905 0.702571
0.359731 0.948623 0.698772
0.359045 0.948272 0.695659
0.358694 0.948226 0.69218
0.35848 0.948302 0.688746
0.358328 0.94844 0.685023
0.358404 0.948837 0.680446
0.358541 0.949172 0.674708
0.358785 0.949615 0.66775
0.359121 0.950057 0.658808
0.35906 0.950011 0.647181
0.35906 0.949645 0.63064
0.364187 0.95285 0.614176
0.374792 0.959365 0.598657
0.387976 0.965988 0.581415
0.407126 0.973693 0.560708
0.442283 0.983795 0.529351
