bundles/resolve-cinematic-luts/Phantom Luts/Ursa G2 Phntm Arri LUTs - V1/Gen4/Standard (No WB Offset)/Jamaica Ursa Gen4 Legacy V1.cube
TITLE "Generated by Resolve"
LUT_3D_SIZE 5
0.017792 0.0344701 0.0177462
0.17763 0.0415808 0.0380713
0.516091 0.0499123 0.0800336
0.643 0.082475 0.144778
0.654429 0.0919356 0.157153
0.0285801 0.179126 0.085832
0.136614 0.174945 0.0434119
0.530098 0.141497 0.0894484
0.670512 0.134173 0.139986
0.647135 0.103227 0.124468
0.0728771 0.593912 0.314977
0.13843 0.611383 0.221317
0.503471 0.595666 0.133791
0.910918 0.588602 0.290303
0.908248 0.575738 0.286931
0.359869 0.949126 0.695811
0.359136 0.950072 0.659022
0.482063 0.988449 0.493462
0.906874 0.95729 0.450767
0.985275 0.957839 0.490471
0.363195 0.949859 0.716533
0.359091 0.949371 0.682506
0.415274 0.972992 0.539101
0.848646 0.959487 0.432441
0.985458 0.958419 0.493385
0.0362554 0.0370489 0.149233
0.190082 0.0417029 0.159503
0.544442 0.0553597 0.204059
0.699214 0.107332 0.250828
0.701473 0.107561 0.257206
0.0320439 0.14638 0.137728
0.131136 0.14696 0.131868
0.526421 0.111101 0.124269
0.643565 0.0854658 0.141527
0.647669 0.0876173 0.147875
0.072755 0.554238 0.373693
0.0644846 0.567941 0.29958
0.488746 0.577783 0.129397
0.905699 0.556252 0.284886
0.901427 0.539132 0.280919
0.354513 0.941878 0.718242
0.352956 0.943893 0.687373
0.440635 0.980163 0.520485
0.899306 0.957229 0.447837
0.984833 0.954681 0.487373
0.362676 0.94519 0.742214
0.358526 0.945785 0.713939
0.391928 0.966522 0.569619
0.827619 0.961471 0.427848
0.984131 0.959014 0.492988
0.129137 0.0428626 0.443793
0.264622 0.0449378 0.444144
0.538415 0.0600137 0.467277
0.730968 0.11574 0.481758
0.73051 0.115908 0.486915
0.0146792 0.0734264 0.374472
0.134966 0.0428931 0.429175
0.510964 0.0583047 0.435294
0.734066 0.115251 0.427924
0.734127 0.115236 0.430228
0.0720226 0.496956 0.475547
0.0682994 0.49189 0.462287
0.48275 0.499962 0.458503
0.949157 0.504097 0.480049
0.942229 0.481163 0.460029
0.336934 0.912947 0.768994
0.331945 0.91342 0.75082
0.332784 0.930465 0.654337
0.867033 0.954467 0.488075
0.986526 0.94258 0.529381
0.371405 0.935332 0.80856
0.367102 0.936187 0.792355
0.359731 0.947707 0.707851
0.763149 0.988479 0.473503
0.986862 0.960113 0.502251
0.279255 0.0658427 0.668956
0.357519 0.0695811 0.681682
0.541039 0.0994736 0.695491
0.669383 0.146975 0.691615
0.667353 0.14876 0.696742
0.115892 0.0554513 0.613138
0.274418 0.0641794 0.664958
0.510475 0.0906844 0.692073
0.67364 0.144305 0.682612
0.671748 0.145418 0.68658
0.0542458 0.390753 0.669215
0.0531777 0.369223 0.669841
0.498939 0.336675 0.837598
0.90074 0.364141 0.847501
0.885405 0.336706 0.821363
0.315465 0.853819 0.831205
0.309026 0.851728 0.820768
0.317205 0.859541 0.813321
0.832654 0.871977 0.816953
0.966354 0.867491 0.831998
0.407858 0.927947 0.905257
0.403189 0.927977 0.897475
0.393454 0.930358 0.873655
0.748714 0.981353 0.885298
0.969589 0.963241 0.840726
0.335225 0.073167 0.686412
0.397314 0.0797284 0.696468
0.568276 0.116381 0.707561
0.665797 0.151308 0.70277
0.665873 0.151232 0.702586
0.233875 0.0662089 0.661616
0.333989 0.0730602 0.686137
0.535485 0.107927 0.708843
0.665721 0.151385 0.702983
0.666453 0.151843 0.703197
0.112551 0.353338 0.726787
0.113146 0.323552 0.722469
0.521065 0.253437 0.842344
0.810285 0.291615 0.847715
0.780545 0.262028 0.818067
0.330251 0.811627 0.89575
0.32221 0.802777 0.890272
0.317006 0.772595 0.890379
0.853513 0.796735 0.941497
0.950744 0.800519 0.960006
0.433234 0.929503 0.942046
0.431601 0.930556 0.939086
0.439323 0.934051 0.942214
0.777035 0.957656 0.961166
0.965896 0.958267 0.964935
