bundles/resolve-cinematic-luts/Phantom Luts/Ursa G2 Phntm Arri LUTs - V1/Gen4/Standard (No WB Offset)/Tungsten Ursa Gen4 V1.cube
TITLE "Generated by Resolve"
LUT_3D_SIZE 5
0.00947585 0.00973526 0.0161135
0.193774 0.0189975 0.047013
0.548104 0.0462501 0.129686
0.725643 0.0841077 0.19675
0.738338 0.0952621 0.215457
0.0345159 0.205097 0.111482
0.172534 0.211978 0.040238
0.600549 0.183749 0.11516
0.756725 0.140612 0.160998
0.731914 0.107652 0.150698
0 0.512642 0.274189
0.0031281 0.509224 0.160555
0.517891 0.544533 0.0654612
0.901366 0.61416 0.227649
0.90222 0.621439 0.229419
0.118135 0.785718 0.534508
0.105058 0.779293 0.493538
0.178347 0.751171 0.236622
0.865858 0.837095 0.313024
0.9579 0.85742 0.391012
0.131167 0.792477 0.569757
0.111498 0.782315 0.514214
0.169467 0.751339 0.245991
0.844114 0.83183 0.300603
0.957809 0.857664 0.391806
0.013962 0.024918 0.200244
0.195605 0.0310521 0.18204
0.539361 0.0620127 0.271748
0.75375 0.0970016 0.332921
0.755474 0.0988022 0.345373
0.0350958 0.179736 0.178836
0.161257 0.187457 0.193759
0.600031 0.159335 0.208652
0.732006 0.0901045 0.201221
0.743832 0.101625 0.217227
0.00138857 0.509972 0.360555
0 0.503441 0.290608
0.509163 0.534066 0.064744
0.90132 0.593805 0.225895
0.901518 0.599054 0.22649
0.132784 0.791455 0.576974
0.12108 0.78645 0.544427
0.13611 0.754574 0.28986
0.855497 0.83505 0.309194
0.957961 0.857252 0.389868
0.151247 0.802625 0.616297
0.131945 0.792599 0.571237
0.122866 0.756207 0.310872
0.814282 0.82504 0.284337
0.957763 0.857862 0.39266
0.145342 0.0568856 0.519539
0.30367 0.0499733 0.506615
0.543267 0.0683909 0.487831
0.754116 0.110414 0.542077
0.754391 0.111635 0.552666
0 0.0991226 0.435508
0.136309 0.0556802 0.505882
0.517571 0.0651865 0.464881
0.755795 0.109514 0.507042
0.756283 0.110628 0.517601
0.0399786 0.523095 0.504021
0.0394903 0.524392 0.505531
0.543999 0.549172 0.541283
0.96112 0.568261 0.584466
0.960723 0.56759 0.588327
0.177523 0.80499 0.678386
0.174853 0.806088 0.67216
0.132174 0.778408 0.539071
0.808438 0.833295 0.433463
0.952865 0.867704 0.541802
0.21059 0.831327 0.724605
0.200687 0.826505 0.708705
0.14078 0.794751 0.573236
0.692988 0.81474 0.388571
0.953079 0.86743 0.471305
0.356085 0.08925 0.749554
0.427741 0.0871901 0.75227
0.606775 0.105882 0.745953
0.729213 0.136751 0.741085
0.728969 0.138979 0.747082
0.197269 0.091722 0.709957
0.342855 0.0884108 0.744854
0.577081 0.0988785 0.74255
0.731594 0.135882 0.734936
0.730098 0.138003 0.742885
0.0473487 0.515068 0.727596
0.0488441 0.505791 0.736217
0.619776 0.456046 0.974273
0.894224 0.42208 0.860075
0.893233 0.421714 0.863157
0.230411 0.819242 0.797879
0.234424 0.823194 0.802548
0.297139 0.829313 0.807614
0.865187 0.869642 0.863828
0.953338 0.87924 0.878523
0.341955 0.887663 0.857221
0.336645 0.885893 0.853513
0.338842 0.876234 0.828779
0.806439 0.931991 0.882918
0.97406 0.96231 0.893111
0.393118 0.0897078 0.75671
0.452964 0.0894026 0.757748
0.624399 0.111986 0.753521
0.728923 0.138628 0.746303
0.728969 0.138933 0.74699
0.284596 0.0924849 0.73959
0.387015 0.0899519 0.756451
0.597162 0.106477 0.754589
0.728923 0.138308 0.745495
0.73048 0.14049 0.748577
0.0983444 0.501976 0.799512
0.101152 0.486458 0.802274
0.625498 0.373342 0.968688
0.873869 0.35903 0.89163
0.875196 0.364843 0.894362
0.333425 0.85037 0.89482
0.33521 0.852338 0.895811
0.39527 0.853101 0.911147
0.883467 0.844541 0.953704
0.939986 0.848981 0.942794
0.381567 0.904097 0.894163
0.381582 0.904616 0.895293
0.406653 0.908156 0.898939
0.836912 0.954986 0.952514
0.973754 0.973388 0.972961
