bundles/resolve-cinematic-luts/Phantom Luts/Ursa G2 Phntm Arri LUTs - V1/Gen4/Standard (No WB Offset)/Tungsten Ursa Gen4 V1.cube
TITLE "Generated by Resolve"
LUT_3D_SIZE 9
0.00947585 0.00973526 0.0161135
0.0486458 0.0114748 0.0211185
0.193774 0.0189975 0.047013
0.373754 0.0310216 0.0830091
0.548104 0.0462501 0.129686
0.695857 0.0701457 0.177279
0.725643 0.0841077 0.19675
0.73283 0.0908064 0.20676
0.738338 0.0952621 0.215457
0.0253452 0.0745098 0.0539712
0.0448768 0.0700542 0.0325322
0.181598 0.0616007 0.0461128
0.362341 0.0444038 0.061326
0.532006 0.0381781 0.090425
0.667903 0.0518807 0.126345
0.687984 0.0564584 0.131914
0.691463 0.0581826 0.13814
0.695003 0.0601663 0.143435
0.0345159 0.205097 0.111482
0.0521706 0.207416 0.0732738
0.172534 0.211978 0.040238
0.415167 0.19971 0.0819104
0.600549 0.183749 0.11516
0.742519 0.166217 0.148379
0.756725 0.140612 0.160998
0.737942 0.115862 0.152636
0.731914 0.107652 0.150698
0.00321965 0.354879 0.164431
0.0206149 0.358114 0.127031
0.103624 0.351675 0.0365606
0.33669 0.376562 0.024918
0.62118 0.403037 0.0785534
0.831174 0.379934 0.19144
0.890898 0.385428 0.223896
0.886793 0.375753 0.221042
0.888747 0.380285 0.222583
0 0.512642 0.274189
0 0.513252 0.245731
0.0031281 0.509224 0.160555
0.213199 0.505699 0
0.517891 0.544533 0.0654612
0.809216 0.590753 0.167834
0.901366 0.61416 0.227649
0.901488 0.613214 0.227771
0.90222 0.621439 0.229419
0.0384833 0.679774 0.422263
0.0354925 0.68101 0.409949
0.0264591 0.680293 0.367849
0.0557259 0.668116 0.251942
0.392569 0.676432 0.0754711
0.695811 0.722789 0.179736
0.936553 0.769253 0.308278
0.950088 0.775021 0.324132
0.951125 0.780743 0.32752
0.118135 0.785718 0.534508
0.114565 0.783902 0.523873
0.105058 0.779293 0.493538
0.0863508 0.76527 0.410483
0.178347 0.751171 0.236622
0.573388 0.778088 0.186252
0.865858 0.837095 0.313024
0.957946 0.857008 0.390219
0.9579 0.85742 0.391012
0.125673 0.789487 0.554986
0.121309 0.787182 0.542947
0.110582 0.781704 0.511177
0.0865644 0.766705 0.423102
0.146853 0.753323 0.275608
0.54818 0.773754 0.180255
0.829602 0.828504 0.292729
0.958099 0.856901 0.390341
0.957855 0.857542 0.391623
0.131167 0.792477 0.569757
0.124224 0.788922 0.551369
0.111498 0.782315 0.514214
0.0866865 0.766064 0.417533
0.169467 0.751339 0.245991
0.569421 0.77705 0.185336
0.844114 0.83183 0.300603
0.958068 0.857053 0.390249
0.957809 0.857664 0.391806
0.00932326 0.0140383 0.0745556
0.0565652 0.0163882 0.0695964
0.188876 0.0282902 0.105318
0.374777 0.0390478 0.145388
0.551598 0.0506142 0.18819
0.715373 0.0799573 0.236484
0.743648 0.0920577 0.253407
0.745052 0.0923934 0.260243
0.746975 0.0932937 0.266285
0.0198978 0.0581826 0.0645457
0.0223239 0.0525368 0.061738
0.184222 0.0500343 0.0728618
0.365576 0.0380713 0.0897536
0.542107 0.0484932 0.13077
0.69398 0.0700389 0.177676
0.727153 0.0850233 0.198367
0.735195 0.0927291 0.209003
0.7402 0.0971695 0.216434
0.0365301 0.190188 0.143908
0.0353246 0.189227 0.124498
0.158282 0.202426 0.0489662
0.420478 0.169451 0.0930343
0.593042 0.155566 0.111131
0.721859 0.128664 0.141497
0.723033 0.0973831 0.145785
0.705577 0.0767834 0.137591
0.707164 0.0779126 0.139345
0.011429 0.348318 0.210193
0.00691234 0.348348 0.180102
0.0759899 0.350423 0.0720531
0.331258 0.370428 0.026154
0.625956 0.38967 0.0888685
0.831571 0.362463 0.192004
0.884092 0.369482 0.219318
0.879271 0.358724 0.216297
0.881163 0.363241 0.21767
0 0.511452 0.311818
0 0.51104 0.287678
0 0.508095 0.206302
0.183246 0.501701 0.0019379
0.515297 0.541222 0.0639963
0.811063 0.587854 0.166995
0.901411 0.607904 0.227207
0.901427 0.606424 0.227024
0.901808 0.61471 0.22829
0.044007 0.679179 0.443793
0.0411841 0.680873 0.433082
0.0315251 0.679896 0.394705
0.0412299 0.669245 0.271778
0.378882 0.67454 0.0723583
0.694331 0.721096 0.17821
0.937652 0.76733 0.307729
0.949645 0.772061 0.322286
0.9505 0.777813 0.325673
0.123445 0.787732 0.550683
0.120119 0.786221 0.541207
0.110475 0.781598 0.512413
0.0873884 0.767391 0.426169
0.160388 0.752239 0.257038
0.56733 0.77702 0.18468
0.862913 0.8365 0.311604
0.957977 0.856931 0.389746
0.957961 0.857359 0.390509
0.132387 0.793011 0.572473
0.127977 0.790585 0.560815
0.116838 0.784909 0.53048
0.0920882 0.771115 0.447349
0.133883 0.754788 0.293462
0.539055 0.772457 0.178134
0.822904 0.826902 0.288823
0.957916 0.85684 0.390173
0.957839 0.857527 0.391623
0.138079 0.795956 0.586755
0.131258 0.792401 0.569696
0.118318 0.785748 0.534981
0.0906386 0.769848 0.440101
0.149218 0.752926 0.270146
0.558587 0.775265 0.183062
0.834119 0.82945 0.294881
0.958099 0.856931 0.389273
0.957809 0.857664 0.391806
0.013962 0.024918 0.200244
0.0950332 0.0239719 0.192721
0.195605 0.0310521 0.18204
0.361929 0.0471046 0.224353
0.539361 0.0620127 0.271748
0.722591 0.0870222 0.318944
0.75375 0.0970016 0.332921
0.754253 0.0976577 0.338384
0.755474 0.0988022 0.345373
0 0.0491188 0.14789
0 0.0272984 0.175341
0.171084 0.0310826 0.169436
0.350805 0.0446632 0.18909
0.537209 0.0560006 0.23209
0.716823 0.0820935 0.275731
0.750027 0.0940108 0.290394
0.750988 0.0945754 0.296574
0.752575 0.0955215 0.303532
0.0350958 0.179736 0.178836
0.0343175 0.177035 0.177371
0.161257 0.187457 0.193759
0.402991 0.17911 0.201785
0.600031 0.159335 0.208652
0.73286 0.112169 0.210468
0.732006 0.0901045 0.201221
0.73904 0.0970626 0.210529
0.743832 0.101625 0.217227
0.0205386 0.344656 0.264454
0.0187076 0.342458 0.251743
0.0120546 0.336446 0.189105
0.335439 0.371084 0.118395
0.633738 0.368368 0.177508
0.828748 0.341344 0.202594
0.871946 0.33228 0.218097
0.864759 0.319463 0.21236
0.867765 0.324865 0.214771
0.00138857 0.509972 0.360555
0 0.509682 0.347219
0 0.503441 0.290608
0.106523 0.495628 0.0650187
0.509163 0.534066 0.064744
0.814817 0.580163 0.169512
0.90132 0.593805 0.225895
0.901381 0.590646 0.225452
0.901518 0.599054 0.22649
0.0535134 0.678172 0.477195
0.0510262 0.679942 0.468849
0.0413825 0.67895 0.43682
0.020325 0.670344 0.317983
0.346868 0.669764 0.0665599
0.689586 0.716274 0.176516
0.938872 0.762646 0.305898
0.948257 0.76553 0.318013
0.949355 0.770748 0.321386
0.132784 0.791455 0.576974
0.13022 0.7906 0.56965
0.12108 0.78645 0.544427
0.0981003 0.774853 0.469398
0.13611 0.754574 0.28986
0.55436 0.774807 0.180941
0.855497 0.83505 0.309194
0.957961 0.856916 0.389563
0.957961 0.857252 0.389868
0.143984 0.798795 0.600092
0.139788 0.796796 0.590631
0.12903 0.790967 0.563272
0.104768 0.778836 0.491936
0.113283 0.757427 0.326925
0.518349 0.769528 0.17409
0.809369 0.823743 0.281514
0.957641 0.856718 0.3897
0.957824 0.857679 0.392721
0.151247 0.802625 0.616297
0.14493 0.799359 0.602258
0.131945 0.792599 0.571237
0.104616 0.778607 0.490227
0.122866 0.756207 0.310872
0.5355 0.771756 0.178912
0.814282 0.82504 0.284337
0.958114 0.856809 0.388617
0.957763 0.857862 0.39266
0.0619821 0.0401617 0.358511
0.137057 0.0376745 0.355398
0.237613 0.0380713 0.334813
0.370214 0.0491188 0.32932
0.534905 0.0647898 0.371435
0.719799 0.0966506 0.416342
0.756893 0.107057 0.431907
0.756863 0.107149 0.435294
0.757488 0.107927 0.441962
0 0.0396735 0.308034
0.03122 0.0387884 0.341756
0.204547 0.0359503 0.336049
0.356832 0.0479896 0.31754
0.524727 0.063508 0.354528
0.714992 0.0947127 0.396628
0.757031 0.105806 0.411048
0.757198 0.106203 0.414481
0.758053 0.107271 0.421851
0 0.161837 0.293965
0 0.151904 0.303532
0.123613 0.128115 0.367254
0.37293 0.12491 0.340841
0.539681 0.0981613 0.338704
0.709026 0.0906996 0.348745
0.756725 0.101747 0.361166
0.757076 0.102358 0.365118
0.758144 0.103578 0.372305
0.0302586 0.343282 0.331548
0.0297704 0.342779 0.331395
0.0303349 0.337987 0.326253
0.362615 0.368551 0.36669
0.6168 0.360632 0.375525
0.854963 0.350576 0.385199
0.908339 0.322118 0.365911
0.896605 0.299245 0.352941
0.899855 0.304631 0.360708
0.021622 0.515038 0.426963
0.0193637 0.515679 0.422995
0.0134432 0.510903 0.402594
0.0605936 0.501961 0.315053
0.506828 0.543328 0.256352
0.822538 0.571511 0.355596
0.940536 0.57879 0.343282
0.939162 0.572366 0.334157
0.939879 0.580438 0.342321
0.0708782 0.678218 0.527062
0.0699474 0.680537 0.524575
0.0633249 0.679622 0.506554
0.0375067 0.669078 0.428931
0.194965 0.656321 0.17615
0.675334 0.704753 0.182696
0.941558 0.753201 0.327321
0.944961 0.75259 0.324422
0.94641 0.757916 0.333227
0.150698 0.798398 0.62002
0.150164 0.799542 0.61767
0.142992 0.796918 0.600473
0.120974 0.786542 0.543801
0.0981155 0.762539 0.373526
0.506645 0.768719 0.186435
0.837446 0.831113 0.304555
0.957931 0.856977 0.391424
0.957488 0.856413 0.390707
0.164813 0.8094 0.643687
0.1617 0.807828 0.637858
0.152651 0.803204 0.619043
0.128649 0.790768 0.562264
0.0926223 0.764858 0.398352
0.448615 0.761746 0.183001
0.774502 0.816251 0.269368
0.957076 0.856413 0.388067
0.957732 0.857939 0.39472
0.173587 0.813886 0.660609
0.168765 0.811475 0.651301
0.158206 0.806012 0.630594
0.131548 0.792309 0.570031
0.0937514 0.765225 0.398672
0.456825 0.762814 0.187976
0.770993 0.816022 0.268803
0.950744 0.855009 0.382345
0.957656 0.858122 0.394949
0.145342 0.0568856 0.519539
0.208408 0.0535592 0.520226
0.30367 0.0499733 0.506615
0.40293 0.0551919 0.484169
0.543267 0.0683909 0.487831
0.716411 0.0993973 0.522377
0.754116 0.110414 0.542077
0.754086 0.110658 0.545098
0.754391 0.111635 0.552666
0.00460822 0.0531319 0.472862
0.122728 0.0567788 0.510262
0.267628 0.0501411 0.511864
0.388952 0.054139 0.482948
0.534432 0.0669261 0.480262
0.711025 0.0976883 0.51429
0.754482 0.109834 0.530968
0.754421 0.110033 0.534218
0.754742 0.110979 0.542184
0 0.0991226 0.435508
0 0.0707408 0.439277
0.136309 0.0556802 0.505882
0.356207 0.0517128 0.479881
0.517571 0.0651865 0.464881
0.700313 0.0944991 0.493919
0.755795 0.109514 0.507042
0.755856 0.109758 0.509789
0.756283 0.110628 0.517601
0 0.335531 0.471015
0 0.331426 0.477638
0 0.312139 0.487434
0.364462 0.290059 0.597391
0.584588 0.285115 0.539223
0.792386 0.262379 0.54255
0.839185 0.219059 0.529763
0.823331 0.193591 0.516609
0.824796 0.196582 0.525017
0.0399786 0.523095 0.504021
0.0399481 0.525124 0.506905
0.0394903 0.524392 0.505531
0.142748 0.530251 0.512764
0.543999 0.549172 0.541283
0.808179 0.557443 0.563088
0.96112 0.568261 0.584466
0.961044 0.560876 0.580591
0.960723 0.56759 0.588327
0.0953689 0.680919 0.591089
0.0966506 0.684367 0.593378
0.0946059 0.684749 0.587152
0.0840162 0.677348 0.560052
0.296651 0.672068 0.494087
0.67686 0.722179 0.467613
0.922988 0.762325 0.566155
0.938521 0.765194 0.56144
0.938506 0.770092 0.568765
0.177523 0.80499 0.678386
0.178607 0.807126 0.679591
0.174853 0.806088 0.67216
0.159747 0.79884 0.644083
0.132174 0.778408 0.539071
0.452369 0.779263 0.421103
0.808438 0.833295 0.433463
0.952605 0.865858 0.534997
0.952865 0.867704 0.541802
0.200519 0.826276 0.708125
0.198947 0.825574 0.705638
0.193286 0.823056 0.696178
0.176959 0.815488 0.666728
0.136385 0.792752 0.564218
0.368246 0.772747 0.406058
0.703365 0.814267 0.378805
0.945159 0.86453 0.463142
0.952819 0.868757 0.480491
0.21059 0.831327 0.724605
0.207706 0.829953 0.720256
0.200687 0.826505 0.708705
0.18294 0.818189 0.677302
0.14078 0.794751 0.573236
0.382864 0.776989 0.422904
0.692988 0.81474 0.388571
0.92842 0.8607 0.451164
0.953079 0.86743 0.471305
0.256565 0.0739605 0.669718
0.297353 0.0713359 0.671565
0.368795 0.067628 0.668971
0.461051 0.0683757 0.651514
0.564752 0.0806439 0.640497
0.712276 0.10927 0.641871
0.746777 0.120928 0.649592
0.745922 0.121492 0.654902
0.745159 0.12311 0.663981
0.172808 0.0758068 0.649424
0.240909 0.0739757 0.664607
0.338018 0.0684062 0.66952
0.445487 0.0673228 0.652003
0.556283 0.0790112 0.63888
0.707988 0.107668 0.637583
0.747662 0.120134 0.642817
0.747005 0.120821 0.64828
0.746349 0.122377 0.657206
0 0.0641031 0.551537
0.0357214 0.0694591 0.589136
0.245396 0.072755 0.660426
0.411444 0.0658579 0.653696
0.538064 0.0756695 0.634119
0.699001 0.104082 0.627131
0.749691 0.118715 0.627848
0.749096 0.119081 0.632258
0.748409 0.120455 0.641443
0 0.283833 0.598611
0 0.271275 0.602167
0 0.231083 0.603601
0.349828 0.142565 0.72578
0.55465 0.144884 0.690852
0.716609 0.137926 0.642466
0.758618 0.123293 0.608255
0.754559 0.118822 0.604501
0.760266 0.126528 0.617594
0.0239414 0.522713 0.635996
0.0247196 0.523598 0.641199
0.0249943 0.519463 0.647745
0.0789044 0.528496 0.693004
0.57351 0.51075 0.802029
0.780423 0.494957 0.724071
0.911864 0.491722 0.734035
0.91107 0.482338 0.73167
0.910674 0.490288 0.740108
0.118563 0.689006 0.666285
0.121279 0.693324 0.671122
0.122621 0.695354 0.673014
0.122301 0.693416 0.670451
0.403586 0.710124 0.692775
0.719692 0.725444 0.717357
0.916564 0.73933 0.739803
0.952728 0.742443 0.746197
0.952987 0.747082 0.753704
0.209567 0.811765 0.741741
0.211902 0.814481 0.744793
0.210269 0.813993 0.742061
0.201221 0.808637 0.729335
0.251148 0.80174 0.698116
0.57908 0.824277 0.701076
0.838712 0.867811 0.688777
0.956588 0.890425 0.760479
0.956558 0.892012 0.765667
0.252323 0.851957 0.781491
0.251804 0.852049 0.781613
0.247837 0.850172 0.776883
0.235401 0.844007 0.761563
0.22005 0.833051 0.722911
0.489082 0.837919 0.68896
0.743236 0.8869 0.691402
0.941436 0.915908 0.70219
0.966827 0.928664 0.746609
0.269261 0.859754 0.799268
0.265431 0.858518 0.796643
0.259266 0.855589 0.789837
0.2439 0.848234 0.772198
0.22417 0.835416 0.73048
0.503761 0.843214 0.703365
0.73817 0.888182 0.700771
0.916915 0.910887 0.688731
0.965988 0.927581 0.741054
0.356085 0.08925 0.749554
0.378988 0.0882429 0.751232
0.427741 0.0871901 0.75227
0.504799 0.0888685 0.748043
0.606775 0.105882 0.745953
0.706355 0.128725 0.737835
0.729213 0.136751 0.741085
0.728923 0.138399 0.745754
0.728969 0.138979 0.747082
0.315953 0.0903792 0.743328
0.34609 0.0892348 0.747677
0.403418 0.0870375 0.751064
0.489326 0.0877089 0.748211
0.596841 0.10341 0.744762
0.702724 0.127398 0.737026
0.72987 0.136233 0.73872
0.728969 0.13727 0.742855
0.72874 0.13846 0.746151
0.197269 0.091722 0.709957
0.255055 0.0916457 0.728634
0.342855 0.0884108 0.744854
0.458259 0.0862745 0.748211
0.577081 0.0988785 0.74255
0.693446 0.123598 0.733913
0.731594 0.135882 0.734936
0.730495 0.136431 0.738216
0.730098 0.138003 0.742885
0.0455024 0.189273 0.682353
0.0585641 0.168261 0.683101
0.0897841 0.10782 0.670848
0.366934 0.0866865 0.745052
0.53051 0.0898299 0.738643
0.676677 0.12076 0.732799
0.737362 0.136034 0.72488
0.737865 0.137575 0.728191
0.739055 0.141207 0.736095
0.0473487 0.515068 0.727596
0.0488746 0.51458 0.731487
0.0488441 0.505791 0.736217
0.127016 0.507378 0.812116
0.619776 0.456046 0.974273
0.799374 0.429007 0.890227
0.894224 0.42208 0.860075
0.892164 0.411139 0.855955
0.893233 0.421714 0.863157
0.128985 0.688746 0.761685
0.133516 0.693049 0.767376
0.136095 0.694163 0.772213
0.133654 0.687816 0.776516
0.419821 0.746639 0.873762
0.747555 0.705638 0.906157
0.892226 0.69604 0.856107
0.921996 0.695857 0.854963
0.921904 0.702098 0.859098
0.230411 0.819242 0.797879
0.233722 0.822431 0.801831
0.234424 0.823194 0.802548
0.232029 0.821088 0.800076
0.297139 0.829313 0.807614
0.651942 0.853101 0.841184
0.865187 0.869642 0.863828
0.952392 0.877928 0.875303
0.953338 0.87924 0.878523
0.327688 0.881331 0.843992
0.327962 0.881865 0.845182
0.325841 0.881132 0.843473
0.318669 0.878172 0.837308
0.332967 0.874235 0.824537
0.607187 0.896162 0.849104
0.814588 0.930343 0.879927
0.940459 0.951141 0.871809
0.972061 0.955291 0.89926
0.341955 0.887663 0.857221
0.340459 0.887465 0.85687
0.336645 0.885893 0.853513
0.32697 0.881605 0.844648
0.338842 0.876234 0.828779
0.613306 0.897932 0.852567
0.806439 0.931991 0.882918
0.923308 0.952529 0.873762
0.97406 0.96231 0.893111
0.384024 0.0898756 0.755993
0.404349 0.0894636 0.757366
0.446693 0.0892958 0.757839
0.519905 0.093019 0.755062
0.619745 0.11107 0.753902
0.715679 0.13611 0.749554
0.728923 0.138628 0.746303
0.728908 0.138567 0.746151
0.728969 0.138827 0.746715
0.351553 0.0907301 0.752285
0.377127 0.090135 0.75555
0.426123 0.0894026 0.758068
0.505058 0.0911574 0.755199
0.61059 0.109148 0.75433
0.711574 0.134874 0.749752
0.728923 0.138643 0.746319
0.728923 0.138689 0.746426
0.728969 0.13901 0.747189
0.266102 0.0928054 0.734874
0.308598 0.092134 0.745418
0.377325 0.0901198 0.75552
0.476982 0.0897841 0.756649
0.592248 0.105516 0.754665
0.7028 0.132387 0.750378
0.731624 0.141085 0.748241
0.730373 0.139849 0.747158
0.729976 0.13994 0.748012
0.161273 0.161944 0.743496
0.16054 0.13846 0.729381
0.17818 0.0934768 0.706111
0.400351 0.0895399 0.757168
0.547662 0.0974899 0.755306
0.681758 0.126329 0.751202
0.73843 0.148333 0.755596
0.739376 0.149325 0.756542
0.740246 0.150835 0.758968
0.0910506 0.511101 0.792081
0.0950027 0.510445 0.796292
0.0989548 0.499107 0.80032
0.194797 0.479606 0.870863
0.629511 0.396658 0.978103
0.805829 0.38056 0.920089
0.880095 0.378317 0.897795
0.876448 0.3664 0.8934
0.87985 0.379767 0.898405
0.154162 0.694041 0.813107
0.161181 0.699763 0.819318
0.167102 0.7028 0.825879
0.162188 0.694255 0.825498
0.432502 0.75462 0.943542
0.787305 0.684855 0.978271
0.902983 0.669444 0.9299
0.918639 0.668803 0.925673
0.918502 0.675258 0.927474
0.288212 0.839124 0.868666
0.294865 0.842817 0.873228
0.301457 0.844709 0.877058
0.308675 0.844388 0.882017
0.393637 0.856107 0.90779
0.671931 0.871229 0.923629
0.876661 0.853498 0.945052
0.940475 0.855711 0.930526
0.941299 0.857191 0.931319
0.374075 0.901305 0.888472
0.375769 0.902586 0.890669
0.374792 0.902327 0.889952
0.371511 0.901015 0.887037
0.37818 0.896849 0.881315
0.634012 0.918395 0.90753
0.842969 0.93666 0.931517
0.944152 0.94583 0.943084
0.966201 0.947692 0.9458
0.381567 0.904128 0.89424
0.381582 0.904585 0.895232
0.38143 0.904601 0.895201
0.378195 0.903441 0.892622
0.39205 0.90164 0.884413
0.64509 0.924727 0.908736
0.844755 0.949554 0.937865
0.935866 0.965225 0.952651
0.974563 0.971923 0.952285
0.393118 0.0897078 0.75671
0.412711 0.0893721 0.75761
0.452964 0.0894026 0.757748
0.525704 0.0938582 0.755047
0.624399 0.111986 0.753521
0.719539 0.137194 0.749203
0.728923 0.138628 0.746303
0.728923 0.138643 0.746319
0.728969 0.138933 0.74699
0.362554 0.0904402 0.753643
0.38706 0.0899672 0.756512
0.432792 0.0891432 0.757839
0.510872 0.0919203 0.755276
0.615717 0.110231 0.754192
0.715328 0.135943 0.749386
0.728923 0.138643 0.746319
0.728923 0.138689 0.746426
0.728969 0.139086 0.747356
0.284596 0.0924849 0.73959
0.323476 0.0918135 0.748379
0.387015 0.0899519 0.756451
0.482612 0.090013 0.756405
0.597162 0.106477 0.754589
0.706233 0.133349 0.750103
0.728923 0.138308 0.745495
0.731014 0.14052 0.747799
0.73048 0.14049 0.748577
0.161227 0.153094 0.738277
0.159411 0.128496 0.722622
0.195117 0.0930953 0.712215
0.408606 0.0894484 0.757549
0.552529 0.0982834 0.755291
0.683925 0.126619 0.750683
0.735561 0.14522 0.752438
0.739406 0.149371 0.756634
0.740185 0.150759 0.758907
0.0983444 0.501976 0.799512
0.0987259 0.499458 0.800092
0.101152 0.486458 0.802274
0.196963 0.460319 0.870069
0.625498 0.373342 0.968688
0.801129 0.361868 0.913893
0.873869 0.35903 0.89163
0.870314 0.348547 0.887953
0.875196 0.364843 0.894362
0.166613 0.698802 0.828016
0.170794 0.702815 0.831205
0.169314 0.70132 0.830274
0.156893 0.687999 0.8224
0.431571 0.748623 0.945205
0.788922 0.674235 0.977722
0.90251 0.661265 0.929259
0.9178 0.661097 0.925917
0.917967 0.668376 0.927138
0.333425 0.85037 0.89482
0.335149 0.852445 0.895857
0.33521 0.852338 0.895811
0.330663 0.84802 0.895171
0.39527 0.853101 0.911147
0.670909 0.868742 0.929717
0.883467 0.844541 0.953704
0.939452 0.846952 0.942306
0.939986 0.848981 0.942794
0.381567 0.904067 0.894102
0.381582 0.904585 0.895232
0.381369 0.904585 0.895338
0.376699 0.902403 0.894865
0.392264 0.901183 0.898039
0.644999 0.924224 0.928847
0.844068 0.936339 0.947738
0.944366 0.938735 0.961242
0.962219 0.941161 0.961349
0.381567 0.904097 0.894163
0.381582 0.904585 0.895232
0.381582 0.904616 0.895293
0.381582 0.904616 0.895293
0.406653 0.908156 0.898939
0.64593 0.933562 0.92813
0.836912 0.954986 0.952514
0.938445 0.96817 0.967514
0.973754 0.973388 0.972961
