bundles/resolve-cinematic-luts/Phantom Luts/Ursa G2 Phntm Arri LUTs - V1/Gen4/Standard (No WB Offset)/Tungsten Ursa Gen4 V1.cube
TITLE "Generated by Resolve"
LUT_3D_SIZE 33
0.00947585 0.00973526 0.0161135
0.00950637 0.00953689 0.015671
0.00982681 0.00918593 0.0148928
0.0210117 0.00984207 0.016556
0.0486458 0.0114748 0.0211185
0.0807965 0.0130922 0.026627
0.114076 0.0149081 0.0327611
0.152224 0.0168002 0.0395209
0.193774 0.0189975 0.047013
0.238666 0.0214237 0.054963
0.284901 0.024506 0.0637522
0.329427 0.0276341 0.0724651
0.373754 0.0310216 0.0830091
0.416587 0.0344244 0.0939803
0.460014 0.038056 0.105852
0.504021 0.0419776 0.117556
0.548104 0.0462501 0.129686
0.592187 0.0509957 0.142107
0.63418 0.0559396 0.154253
0.669535 0.0626383 0.166247
0.695857 0.0701457 0.177279
0.712749 0.0758679 0.185046
0.720577 0.0794842 0.189837
0.723079 0.0818036 0.193271
0.725643 0.0841077 0.19675
0.727947 0.0862593 0.199817
0.729885 0.0880598 0.202564
0.731365 0.0894026 0.204776
0.73283 0.0908064 0.20676
0.73434 0.0920272 0.209567
0.735653 0.0932021 0.211353
0.737194 0.0944686 0.213611
0.738338 0.0952621 0.215457
0.00967422 0.00975052 0.0157931
0.00965896 0.00982681 0.0159762
0.00950637 0.00953689 0.015671
0.0134127 0.0101167 0.0155642
0.0372625 0.0122377 0.0180362
0.0692607 0.0128634 0.0218967
0.10367 0.0140383 0.0273594
0.141833 0.0153201 0.0335699
0.183749 0.0161898 0.0395972
0.228992 0.0176242 0.0464637
0.276097 0.01944 0.0539559
0.321874 0.0214389 0.0609445
0.367285 0.0242161 0.0684825
0.411002 0.0268559 0.0775311
0.454368 0.0295262 0.0864271
0.498314 0.0331884 0.0974594
0.542062 0.0369726 0.109514
0.585473 0.041886 0.122621
0.626551 0.0468757 0.135775
0.660182 0.0528878 0.148196
0.683818 0.0588846 0.158907
0.699474 0.0637827 0.166522
0.706691 0.0668193 0.171084
0.710246 0.0699321 0.175326
0.71339 0.0728618 0.179202
0.716609 0.0758221 0.183139
0.719295 0.0783856 0.186358
0.721584 0.0805829 0.189181
0.7234 0.0823072 0.19147
0.725307 0.0839857 0.193896
0.726986 0.0854658 0.196033
0.728603 0.0868086 0.198184
0.730022 0.087892 0.200214
0.0130312 0.0205386 0.0233005
0.0130312 0.0208133 0.0236057
0.0126955 0.0196841 0.0209506
0.0148775 0.0185702 0.0189822
0.0309758 0.0213626 0.0202029
0.0578775 0.0213626 0.0225681
0.0937514 0.0207828 0.0260777
0.131777 0.0198062 0.0306096
0.17435 0.0184024 0.0360876
0.219608 0.018555 0.0426337
0.267247 0.0190127 0.0492409
0.31519 0.0206912 0.0558938
0.361715 0.0229038 0.0619059
0.406134 0.0249638 0.0697185
0.449989 0.0272526 0.07776
0.493492 0.0297551 0.0868544
0.536965 0.0325475 0.0966964
0.578943 0.0357824 0.1075
0.61825 0.0399634 0.11902
0.650202 0.0450599 0.130541
0.673167 0.0508125 0.141649
0.688136 0.0552377 0.149233
0.695354 0.0581674 0.153567
0.698619 0.0605173 0.157794
0.701778 0.0630503 0.161975
0.704173 0.0650034 0.165255
0.706111 0.0666514 0.167834
0.708064 0.0683146 0.170382
0.709819 0.0697642 0.172641
0.711421 0.0711223 0.174731
0.712779 0.072221 0.176577
0.71426 0.0733043 0.178683
0.715496 0.0741741 0.180499
0.0193027 0.0459297 0.0392157
0.0192569 0.0462348 0.0395361
0.0188602 0.0453803 0.0347143
0.022446 0.0425422 0.0278782
0.0380865 0.0430915 0.0264134
0.0633402 0.0455482 0.0287175
0.0962234 0.0420539 0.0325322
0.132815 0.0386053 0.0349432
0.172946 0.0350195 0.0373541
0.217578 0.0318608 0.0430762
0.264363 0.0290684 0.0483558
0.312093 0.0278325 0.0541543
0.358297 0.0278935 0.0599069
0.402533 0.0285801 0.0676738
0.446494 0.0301213 0.0758984
0.490761 0.0323644 0.0843061
0.534676 0.0346838 0.0931716
0.576425 0.0370794 0.102235
0.614878 0.0399939 0.111574
0.646311 0.0443122 0.12166
0.668345 0.0493935 0.131029
0.682155 0.0529183 0.136645
0.688701 0.0553292 0.139376
0.691157 0.0570077 0.141421
0.692454 0.057557 0.144045
0.693828 0.0581064 0.146929
0.695537 0.0591592 0.149783
0.697276 0.0603037 0.152483
0.69868 0.0613107 0.15462
0.700069 0.0623178 0.156588
0.701366 0.0631723 0.158556
0.702953 0.0641337 0.160906
0.70425 0.0650645 0.162509
0.0253452 0.0745098 0.0539712
0.0252842 0.0748302 0.0543374
0.0250401 0.0746624 0.0486763
0.026688 0.07187 0.0400702
0.0448768 0.0700542 0.0325322
0.0675669 0.0728313 0.0338903
0.101839 0.0739452 0.0361181
0.140414 0.0692607 0.0425116
0.181598 0.0616007 0.0461128
0.225254 0.0586099 0.0484016
0.271214 0.0547951 0.0514687
0.317647 0.0500496 0.0552682
0.362341 0.0444038 0.061326
0.404028 0.0404822 0.0668345
0.445441 0.0377356 0.074052
0.489326 0.0377356 0.0819867
0.532006 0.0381781 0.090425
0.574441 0.0401617 0.0994278
0.614206 0.0434577 0.109209
0.646204 0.0475776 0.118608
0.667903 0.0518807 0.126345
0.680812 0.0547341 0.129961
0.686595 0.0564279 0.13051
0.687373 0.0564736 0.13022
0.687984 0.0564584 0.131914
0.688777 0.056672 0.133745
0.689738 0.0571298 0.1355
0.690639 0.0577096 0.136797
0.691463 0.0581826 0.13814
0.692302 0.0586404 0.139498
0.692973 0.0590066 0.140612
0.693797 0.0594186 0.141848
0.695003 0.0601663 0.143435
0.0301061 0.105043 0.0677501
0.029984 0.105379 0.0682536
0.0299077 0.106203 0.0608072
0.0324407 0.104631 0.0525978
0.0438697 0.100679 0.0405585
0.0728771 0.103838 0.0374304
0.103349 0.105623 0.0408331
0.143267 0.106249 0.0431373
0.189044 0.100313 0.0496681
0.237705 0.0899062 0.0569314
0.284474 0.0841993 0.0603647
0.33022 0.0808576 0.0639811
0.374273 0.0771191 0.0682536
0.4168 0.0729534 0.072694
0.458244 0.0670481 0.0772259
0.499611 0.0600137 0.0840009
0.537835 0.0527199 0.0890974
0.57496 0.0476081 0.0969711
0.613565 0.0482338 0.10602
0.646174 0.0515908 0.115587
0.668879 0.0558633 0.123629
0.682841 0.0591135 0.128283
0.689601 0.0606546 0.130129
0.691264 0.0610513 0.130434
0.691264 0.0610361 0.130465
0.691249 0.0610208 0.130465
0.691218 0.0609903 0.130465
0.691218 0.0609751 0.13048
0.691234 0.0609751 0.13051
0.691402 0.0610666 0.130739
0.691691 0.0612345 0.131075
0.692302 0.0615702 0.131792
0.693126 0.0620737 0.132769
0.0335241 0.136156 0.082063
0.0334173 0.136706 0.0827802
0.0339818 0.137926 0.071458
0.0378729 0.137484 0.062562
0.0473182 0.133165 0.0503243
0.0691081 0.132937 0.0406653
0.103243 0.137179 0.040116
0.142123 0.137911 0.0438087
0.189166 0.139208 0.0472114
0.240696 0.133318 0.0535286
0.297414 0.120378 0.0656138
0.348119 0.112703 0.0724956
0.391226 0.111208 0.076585
0.431968 0.109392 0.0805066
0.473976 0.105089 0.0855268
0.517006 0.0992905 0.0909133
0.557977 0.0914931 0.0958419
0.596811 0.0830854 0.104936
0.63035 0.075288 0.111421
0.655741 0.0679789 0.117754
0.674647 0.0658885 0.124483
0.689586 0.0687114 0.130953
0.698772 0.0714885 0.134432
0.701335 0.072282 0.135119
0.701289 0.0722515 0.135103
0.701198 0.0721599 0.135042
0.701137 0.0720989 0.135012
0.701122 0.0720684 0.135012
0.701137 0.0720836 0.135027
0.70132 0.0722057 0.13521
0.701625 0.0724193 0.135546
0.702235 0.0728313 0.136233
0.702968 0.0733654 0.137026
0.0352026 0.169711 0.0968338
0.0348974 0.17023 0.0977798
0.0359197 0.171633 0.0851606
0.0419165 0.172427 0.0726329
0.0509651 0.169497 0.0621653
0.0684825 0.166033 0.0472419
0.104158 0.170291 0.0398108
0.137743 0.173831 0.0417639
0.184573 0.173404 0.0466926
0.240162 0.175753 0.0486
0.296712 0.170291 0.0571145
0.357565 0.154864 0.0755474
0.40972 0.148211 0.0852369
0.454276 0.145113 0.0912184
0.49337 0.144747 0.0948501
0.535317 0.143282 0.0996719
0.579446 0.13817 0.105303
0.621134 0.130571 0.11162
0.658213 0.123415 0.119203
0.687724 0.116121 0.127794
0.707393 0.108919 0.138231
0.717449 0.103609 0.143664
0.720943 0.098024 0.144869
0.717098 0.0904555 0.142672
0.714488 0.0874037 0.141451
0.713649 0.0864118 0.141039
0.713588 0.0863508 0.141009
0.713588 0.0863508 0.141009
0.713664 0.0864424 0.141054
0.713848 0.0865797 0.141222
0.714199 0.0868849 0.141543
0.71487 0.0874342 0.142214
0.715694 0.0881666 0.14287
0.0345159 0.205097 0.111482
0.0342107 0.205676 0.112642
0.0348211 0.207202 0.100191
0.0413672 0.208438 0.0861372
0.0521706 0.207416 0.0732738
0.0662394 0.203662 0.0580453
0.0927138 0.202548 0.0408637
0.135103 0.208743 0.0373388
0.172534 0.211978 0.040238
0.230472 0.210758 0.0473945
0.296544 0.215076 0.0486915
0.353201 0.212665 0.0595865
0.415167 0.19971 0.0819104
0.469459 0.187701 0.0978866
0.516106 0.184649 0.105516
0.560372 0.183505 0.111635
0.600549 0.183749 0.11516
0.642893 0.180209 0.120516
0.68333 0.174319 0.128069
0.718105 0.170016 0.138125
0.742519 0.166217 0.148379
0.757656 0.163424 0.157198
0.765362 0.159518 0.161898
0.76286 0.151431 0.161105
0.756725 0.140612 0.160998
0.750286 0.132036 0.158114
0.74522 0.125429 0.155764
0.741299 0.120211 0.154147
0.737942 0.115862 0.152636
0.735256 0.112459 0.151415
0.733257 0.109926 0.15053
0.732235 0.108385 0.150393
0.731914 0.107652 0.150698
0.0307774 0.241733 0.124697
0.0305333 0.242359 0.125811
0.0310521 0.243763 0.113985
0.0386206 0.245548 0.0990463
0.0508888 0.246143 0.0850538
0.0634012 0.243107 0.0707408
0.0818341 0.239277 0.0505379
0.11899 0.242359 0.0344396
0.165942 0.249119 0.0322881
0.2094 0.252384 0.0368963
0.281147 0.250416 0.0475319
0.354406 0.256046 0.0490272
0.408408 0.258427 0.0585336
0.469093 0.248646 0.0841535
0.526406 0.237217 0.106386
0.578775 0.228199 0.120394
0.625055 0.2271 0.127718
0.66659 0.226444 0.132891
0.70518 0.225528 0.137972
0.741802 0.223713 0.146746
0.771511 0.222492 0.158999
0.791119 0.221485 0.169863
0.803952 0.221027 0.17818
0.80557 0.216022 0.179995
0.801144 0.208316 0.178103
0.796551 0.201175 0.175998
0.792279 0.194522 0.174105
0.788617 0.1888 0.172595
0.785748 0.184375 0.171313
0.783734 0.181292 0.17052
0.782773 0.179904 0.170123
0.783795 0.180987 0.171008
0.785779 0.183566 0.172305
0.0239109 0.280156 0.136706
0.0234836 0.281041 0.138384
0.0237125 0.282109 0.125994
0.0317082 0.283665 0.112932
0.0450294 0.285222 0.0990158
0.0592508 0.284138 0.0836957
0.0768292 0.28014 0.0640421
0.105241 0.278233 0.0385443
0.151232 0.284733 0.0235294
0.198917 0.290837 0.0250401
0.249485 0.29427 0.0305028
0.334661 0.292561 0.0474556
0.413016 0.299825 0.0490883
0.464485 0.307485 0.0534218
0.520317 0.302083 0.0820783
0.578561 0.293721 0.10721
0.636133 0.282765 0.129503
0.686152 0.275181 0.143801
0.728862 0.274342 0.151507
0.765148 0.275395 0.159258
0.794507 0.277455 0.16907
0.81799 0.279103 0.180896
0.834577 0.28043 0.191409
0.840299 0.278126 0.195605
0.838178 0.272496 0.194873
0.834943 0.266468 0.193271
0.832135 0.261295 0.191959
0.829847 0.256901 0.191073
0.827726 0.253391 0.189944
0.82678 0.251347 0.189761
0.826719 0.251102 0.189837
0.82742 0.252155 0.190356
0.828946 0.254887 0.191104
0.0142367 0.317937 0.149294
0.013901 0.318669 0.151186
0.0140841 0.319432 0.138979
0.0215305 0.320668 0.12578
0.0356756 0.322225 0.111467
0.0514992 0.322927 0.0964675
0.0683452 0.320912 0.0787823
0.090486 0.316732 0.0526284
0.131624 0.317357 0.0215152
0.181064 0.324834 0.0100557
0.234974 0.330678 0.0167239
0.291005 0.335561 0.0254826
0.388907 0.335149 0.049897
0.467369 0.343709 0.0504616
0.519081 0.35346 0.0522621
0.569894 0.353994 0.0780194
0.628763 0.348043 0.107942
0.688334 0.340108 0.135073
0.741726 0.330282 0.157275
0.785 0.323888 0.172244
0.816312 0.326146 0.182467
0.839658 0.330892 0.192737
0.858106 0.33521 0.202976
0.86743 0.336095 0.20914
0.867369 0.332052 0.209262
0.865309 0.327474 0.208255
0.86331 0.323369 0.207126
0.862013 0.320287 0.206638
0.861158 0.318318 0.206271
0.860471 0.316915 0.205905
0.860426 0.316808 0.205921
0.861204 0.318257 0.206455
0.862837 0.321477 0.207492
0.00321965 0.354879 0.164431
0.00296025 0.355642 0.166674
0.00242618 0.355993 0.154437
0.00720226 0.356512 0.140597
0.0206149 0.358114 0.127031
0.0382849 0.35964 0.110658
0.0564279 0.358968 0.0936141
0.0755627 0.355917 0.0730297
0.103624 0.351675 0.0365606
0.158877 0.355077 0.00199893
0.21146 0.363653 0
0.273243 0.37052 0.0129397
0.33669 0.376562 0.024918
0.43801 0.377371 0.0551919
0.518151 0.386587 0.0546273
0.572335 0.397589 0.059678
0.62118 0.403037 0.0785534
0.678431 0.399908 0.112688
0.736584 0.393927 0.143603
0.790005 0.386465 0.170657
0.831174 0.379934 0.19144
0.858976 0.378866 0.206271
0.878309 0.383505 0.216876
0.889296 0.387366 0.222995
0.890898 0.385428 0.223896
0.889418 0.381949 0.222766
0.888441 0.379217 0.222263
0.887526 0.377157 0.221637
0.886793 0.375753 0.221042
0.886397 0.375036 0.220737
0.886503 0.375402 0.220783
0.887404 0.377066 0.221546
0.888747 0.380285 0.222583
0 0.391775 0.183444
0 0.392569 0.186145
0 0.39266 0.173556
0 0.393118 0.160494
0.000122072 0.394018 0.146822
0.0173342 0.39527 0.130098
0.0386053 0.396292 0.111604
0.0587625 0.39443 0.0923323
0.0816358 0.390814 0.066804
0.118227 0.387243 0.0168154
0.186419 0.394415 0
0.242924 0.402914 0
0.312444 0.410422 0.0104982
0.382376 0.417411 0.0268101
0.483803 0.419852 0.0618601
0.567437 0.430488 0.063386
0.624369 0.442145 0.0711528
0.671839 0.451377 0.0862287
0.7252 0.45098 0.123369
0.780819 0.448234 0.156024
0.829023 0.44506 0.183398
0.864973 0.442405 0.205005
0.890501 0.44184 0.222492
0.902312 0.44445 0.229618
0.904784 0.442496 0.231113
0.904189 0.439109 0.2309
0.904265 0.436744 0.231327
0.904005 0.434531 0.231342
0.903685 0.433021 0.231205
0.9037 0.432303 0.231388
0.903914 0.432837 0.231617
0.904662 0.43508 0.232319
0.904891 0.439277 0.232105
0 0.429984 0.207782
0 0.430793 0.210819
0 0.430854 0.198978
0 0.430777 0.186343
0 0.4309 0.17232
0 0.431373 0.156558
0.012253 0.432425 0.135576
0.03682 0.432242 0.114321
0.0593881 0.429725 0.0924392
0.0884718 0.426032 0.059678
0.144183 0.425406 0.00440986
0.215885 0.43357 0
0.278752 0.442222 0
0.352865 0.450721 0.0106966
0.427405 0.458854 0.0325628
0.529625 0.462898 0.073167
0.615595 0.474296 0.0785077
0.674815 0.486809 0.0906539
0.720317 0.49781 0.108064
0.769436 0.502342 0.140124
0.817716 0.502083 0.171435
0.858183 0.501839 0.196078
0.888319 0.502525 0.216266
0.903639 0.505241 0.226505
0.906172 0.505257 0.227665
0.906279 0.50309 0.227802
0.906218 0.501076 0.227832
0.906218 0.499702 0.227893
0.906218 0.499184 0.227924
0.906203 0.499397 0.227909
0.906126 0.501091 0.227771
0.90634 0.503899 0.227985
0.906096 0.50782 0.227787
0 0.470024 0.237705
0 0.47129 0.241718
0 0.470985 0.230396
0 0.47068 0.218524
0 0.470619 0.205493
0 0.470573 0.190448
0 0.470436 0.170733
0.00573739 0.470253 0.14548
0.0320439 0.468116 0.121965
0.0621195 0.465232 0.0943465
0.105241 0.462547 0.0510414
0.178149 0.465019 0
0.250568 0.473884 0
0.318685 0.48278 0.00108339
0.392782 0.491676 0.0183108
0.472755 0.501198 0.0457465
0.575448 0.506508 0.090074
0.66302 0.518608 0.102266
0.722622 0.532219 0.118502
0.766644 0.5449 0.136004
0.808835 0.552834 0.161105
0.847471 0.555657 0.187991
0.879225 0.55729 0.208225
0.899428 0.560067 0.222965
0.903151 0.561334 0.22536
0.902968 0.560296 0.224918
0.903075 0.559014 0.224994
0.903075 0.558267 0.224964
0.903059 0.558282 0.224933
0.903044 0.559213 0.224948
0.902983 0.560967 0.224948
0.9028 0.563439 0.224994
0.902647 0.567437 0.225223
0 0.512642 0.274189
0 0.513832 0.27837
0 0.513588 0.268421
0 0.513329 0.257252
0 0.513252 0.245731
0 0.513451 0.232319
0 0.513375 0.214664
0 0.512123 0.189288
0.0031281 0.509224 0.160555
0.0353094 0.505486 0.133074
0.0732738 0.501762 0.0983597
0.125551 0.49987 0.0432441
0.213199 0.505699 0
0.286671 0.514992 0
0.359258 0.523995 0.0175174
0.433021 0.533669 0.0344396
0.517891 0.544533 0.0654612
0.620249 0.551003 0.111772
0.708003 0.563775 0.129595
0.766918 0.577111 0.149523
0.809216 0.590753 0.167834
0.843732 0.600839 0.187228
0.873838 0.607752 0.207172
0.895491 0.611887 0.222705
0.901366 0.61416 0.227649
0.901442 0.613764 0.227771
0.901442 0.61294 0.227695
0.901488 0.612726 0.227726
0.901488 0.613214 0.227771
0.901671 0.614099 0.228031
0.901793 0.615549 0.22829
0.902083 0.61796 0.22887
0.90222 0.621439 0.229419
0 0.556649 0.313207
0 0.55787 0.317647
0 0.557656 0.30927
0 0.557534 0.299947
0 0.557565 0.290089
0 0.55726 0.278294
0 0.556909 0.262608
0 0.556619 0.241733
0 0.555016 0.212482
0.0113527 0.550271 0.181765
0.0437476 0.544854 0.148577
0.0870832 0.5402 0.105501
0.152056 0.539315 0.0360571
0.247013 0.548089 0.00128176
0.326207 0.55726 0.0115053
0.399207 0.566354 0.0376898
0.474571 0.576989 0.0551766
0.562478 0.588418 0.0883192
0.663279 0.595972 0.135103
0.74905 0.609186 0.159213
0.808164 0.62266 0.182696
0.848035 0.636378 0.203372
0.87715 0.64741 0.219547
0.899519 0.656336 0.232471
0.907942 0.660624 0.23949
0.908736 0.661021 0.241062
0.908858 0.661006 0.241382
0.908965 0.660883 0.241581
0.909087 0.661021 0.241886
0.909346 0.661555 0.242435
0.90985 0.662806 0.243351
0.910491 0.664851 0.244526
0.911635 0.667887 0.246662
4.57771e-05 0.599207 0.351049
0.00115969 0.60029 0.355398
0 0.600229 0.348318
0 0.600244 0.340826
0 0.600153 0.332586
0 0.599954 0.322927
0 0.599649 0.31046
0 0.599298 0.293629
0 0.599222 0.27039
0 0.596719 0.237675
0.0211032 0.591257 0.206683
0.0545205 0.584863 0.167941
0.105882 0.579873 0.113741
0.189014 0.582025 0.0430457
0.290562 0.591684 0.019913
0.37084 0.600885 0.0369116
0.442405 0.610086 0.0594797
0.518135 0.620966 0.0797742
0.607507 0.63331 0.115312
0.704753 0.642466 0.161852
0.788785 0.656168 0.19263
0.846082 0.669673 0.21857
0.883024 0.681559 0.23978
0.908095 0.692042 0.25481
0.921492 0.698344 0.264637
0.924132 0.700389 0.269093
0.924163 0.70042 0.269383
0.924147 0.700404 0.269352
0.924224 0.700664 0.269535
0.924529 0.701381 0.270085
0.925048 0.702617 0.271077
0.926055 0.704799 0.27274
0.92723 0.707485 0.274876
0.0175479 0.640131 0.387503
0.0190127 0.641657 0.392081
0.0172274 0.641611 0.38584
0.0156558 0.641474 0.379309
0.0139467 0.641428 0.372351
0.0120851 0.641398 0.364385
0.00975052 0.641245 0.354116
0.00709545 0.641276 0.340993
0.0034638 0.64094 0.322759
0.000503548 0.640162 0.296345
0.0125429 0.636423 0.265476
0.0352789 0.631006 0.231113
0.0710613 0.624155 0.185992
0.134051 0.620569 0.120287
0.235065 0.625071 0.0530709
0.340932 0.635493 0.0453651
0.416571 0.644221 0.066041
0.486931 0.654047 0.0861219
0.563348 0.66569 0.108537
0.651881 0.679393 0.145663
0.746471 0.691508 0.191272
0.825559 0.703655 0.228534
0.878645 0.715999 0.254841
0.91342 0.726741 0.275731
0.934325 0.735439 0.289555
0.939467 0.738201 0.297002
0.93962 0.73846 0.298711
0.93962 0.738506 0.298726
0.939681 0.738811 0.298924
0.940185 0.739879 0.299825
0.940612 0.741039 0.300649
0.941299 0.742901 0.30193
0.94226 0.745434 0.303914
0.0384833 0.679774 0.422263
0.0398413 0.680934 0.426398
0.0383917 0.68098 0.421485
0.0370184 0.681056 0.415976
0.0354925 0.68101 0.409949
0.0339208 0.680964 0.403098
0.0320287 0.681117 0.394705
0.0297093 0.680842 0.383169
0.0264591 0.680293 0.367849
0.0225834 0.679545 0.347433
0.0202945 0.677668 0.319341
0.0324712 0.67364 0.290562
0.0557259 0.668116 0.251942
0.0947127 0.661799 0.199863
0.172168 0.659693 0.122606
0.288609 0.66659 0.0672465
0.392569 0.676432 0.0754711
0.460456 0.684749 0.0975357
0.533272 0.695735 0.11519
0.608331 0.707927 0.141176
0.695811 0.722789 0.179736
0.787182 0.737789 0.225147
0.858259 0.748409 0.264302
0.906035 0.759808 0.289509
0.936553 0.769253 0.308278
0.949142 0.773785 0.319753
0.950103 0.774395 0.323598
0.950134 0.774517 0.323934
0.950088 0.775021 0.324132
0.950164 0.775753 0.324514
0.950362 0.776852 0.325063
0.950622 0.778439 0.326009
0.951125 0.780743 0.32752
0.060853 0.714534 0.454154
0.062501 0.715755 0.458701
0.0612497 0.715908 0.454047
0.0601053 0.716014 0.449546
0.0590066 0.716258 0.444663
0.057496 0.716121 0.438605
0.0558328 0.715953 0.43122
0.0535286 0.715526 0.421485
0.0504768 0.7149 0.408469
0.0469368 0.713954 0.391211
0.0429541 0.712627 0.366094
0.0428016 0.709224 0.340932
0.0551614 0.704952 0.309438
0.0780041 0.69897 0.267079
0.124575 0.693904 0.205753
0.225223 0.693751 0.120562
0.351171 0.702922 0.0915236
0.438285 0.711376 0.107515
0.507271 0.720592 0.126589
0.578943 0.732525 0.145983
0.653437 0.745693 0.175357
0.739818 0.762036 0.215824
0.825177 0.777935 0.261006
0.885893 0.78764 0.297246
0.927077 0.797574 0.320073
0.951431 0.804303 0.33698
0.953948 0.805249 0.342916
0.954009 0.805722 0.343877
0.954009 0.806119 0.344167
0.95407 0.806851 0.344717
0.954177 0.807874 0.345342
0.954421 0.809247 0.346334
0.954391 0.811093 0.347372
0.0831769 0.744839 0.484764
0.0849012 0.746227 0.48893
0.0839094 0.746319 0.485267
0.0830243 0.746593 0.481376
0.0817884 0.746548 0.476905
0.0805982 0.746532 0.47187
0.0791028 0.746258 0.464958
0.0770581 0.745769 0.456672
0.0741741 0.744961 0.4448
0.0707408 0.743954 0.429618
0.0664073 0.742123 0.408347
0.0631418 0.738979 0.381735
0.0640879 0.734905 0.357473
0.0780957 0.730358 0.321874
0.102953 0.724559 0.275135
0.169345 0.721141 0.197131
0.294438 0.724544 0.123674
0.404318 0.73373 0.121996
0.4851 0.742535 0.13959
0.552438 0.75288 0.157
0.624369 0.766018 0.179431
0.701137 0.780453 0.21239
0.783337 0.797299 0.253666
0.858518 0.81178 0.295857
0.909529 0.821836 0.327825
0.942946 0.829374 0.34963
0.955657 0.831479 0.360906
0.955474 0.83154 0.36286
0.955566 0.831983 0.363317
0.955566 0.832578 0.363851
0.955398 0.833265 0.364279
0.955383 0.834638 0.36527
0.955383 0.836301 0.366522
0.10457 0.770947 0.514
0.10634 0.772366 0.518166
0.105486 0.772457 0.514672
0.104646 0.772442 0.511254
0.103685 0.772381 0.506905
0.102571 0.772229 0.502419
0.100969 0.771878 0.496406
0.098909 0.771359 0.488472
0.0961166 0.770199 0.47776
0.0923934 0.768627 0.463508
0.0874189 0.766018 0.444419
0.082002 0.762051 0.417563
0.0817121 0.759167 0.394781
0.0838178 0.755123 0.367834
0.10042 0.750088 0.327535
0.136019 0.745403 0.268544
0.232914 0.743496 0.179034
0.362371 0.749828 0.14461
0.455573 0.758526 0.151293
0.530404 0.767941 0.16875
0.598001 0.77882 0.185794
0.669429 0.791791 0.211353
0.75024 0.807858 0.248264
0.822965 0.824262 0.287724
0.887968 0.837461 0.326253
0.930983 0.846784 0.358129
0.955566 0.851194 0.377569
0.957504 0.851148 0.381537
0.957534 0.851469 0.382162
0.957534 0.852003 0.382727
0.957641 0.852811 0.383627
0.957748 0.853758 0.384527
0.957824 0.854292 0.385199
0.118135 0.785718 0.534508
0.119142 0.786191 0.537041
0.117601 0.785443 0.532982
0.116014 0.784665 0.528313
0.114565 0.783902 0.523873
0.112947 0.783123 0.519112
0.110918 0.782116 0.512749
0.108354 0.780896 0.504387
0.105058 0.779293 0.493538
0.100893 0.77705 0.478904
0.0951705 0.773724 0.460288
0.0879683 0.768505 0.433555
0.0863508 0.76527 0.410483
0.0877241 0.76289 0.388876
0.0965286 0.760235 0.359609
0.119829 0.756329 0.315068
0.178347 0.751171 0.236622
0.306493 0.750835 0.169467
0.411246 0.758007 0.159472
0.501167 0.767758 0.170367
0.573388 0.778088 0.186252
0.641855 0.789776 0.205814
0.718257 0.804379 0.236545
0.796902 0.821164 0.275212
0.865858 0.837095 0.313024
0.914809 0.847089 0.349523
0.949218 0.854353 0.378286
0.957748 0.856886 0.389334
0.957946 0.857008 0.390219
0.957946 0.857176 0.390539
0.957931 0.857343 0.390829
0.957916 0.85742 0.390982
0.9579 0.85742 0.391012
0.120394 0.786877 0.540764
0.12137 0.78735 0.543236
0.119692 0.786496 0.538735
0.118151 0.785733 0.534646
0.116472 0.784955 0.529809
0.114855 0.784085 0.524926
0.11281 0.783078 0.518685
0.110185 0.781796 0.510399
0.106905 0.780194 0.499428
0.102693 0.778073 0.485542
0.097261 0.775036 0.466972
0.089662 0.769879 0.44094
0.086305 0.765835 0.414832
0.087541 0.763485 0.393805
0.0943008 0.761059 0.366293
0.114244 0.757763 0.326955
0.162539 0.752407 0.255467
0.282567 0.749981 0.176425
0.3953 0.756573 0.160937
0.487312 0.766125 0.168627
0.562737 0.77644 0.184955
0.63006 0.787747 0.202548
0.704021 0.801526 0.230594
0.782742 0.818082 0.267811
0.85127 0.833875 0.304997
0.904936 0.845396 0.342061
0.942 0.853056 0.372808
0.956664 0.856809 0.388556
0.957931 0.857343 0.391226
0.9579 0.857435 0.391455
0.95787 0.857481 0.391531
0.95787 0.857511 0.391562
0.95787 0.857511 0.391562
0.122332 0.787884 0.546151
0.123171 0.788266 0.548486
0.121706 0.787564 0.544259
0.120027 0.786709 0.539773
0.11841 0.785931 0.535485
0.116548 0.785016 0.530098
0.114427 0.783902 0.523491
0.111757 0.782559 0.515282
0.108415 0.780941 0.504601
0.10425 0.778851 0.490883
0.0990158 0.776074 0.472572
0.0914931 0.771176 0.447395
0.0864576 0.766323 0.418784
0.0872663 0.763851 0.396994
0.0922103 0.761364 0.370993
0.111772 0.758144 0.331212
0.154376 0.753109 0.265751
0.266545 0.749691 0.180774
0.38584 0.75581 0.161349
0.47808 0.764981 0.167071
0.556222 0.775479 0.183734
0.62359 0.786725 0.200549
0.69482 0.800107 0.227207
0.774121 0.816373 0.263676
0.840406 0.831647 0.299306
0.897841 0.843915 0.337011
0.936873 0.851957 0.368536
0.955978 0.856474 0.38677
