bundles/resolve-cinematic-luts/Phantom Luts/Ursa G2 Phntm Arri LUTs - V1/Gen4/Standard (No WB Offset)/Utopia Ursa Gen4 Legacy V1.cube
TITLE "Generated by Resolve"
LUT_3D_SIZE 5
0.00616464 0.0319371 0.0404822
0.148608 0.0329747 0.0517891
0.480949 0.0359655 0.0712139
0.727291 0.0452583 0.112413
0.739147 0.0556344 0.12903
0 0.171466 0.0743725
0.111437 0.170245 0.0438239
0.499275 0.129458 0.085893
0.769833 0.0958267 0.0946975
0.754742 0.0618601 0.0780652
0 0.584833 0.244266
0.0964523 0.600397 0.133623
0.511452 0.57554 0.130648
0.90338 0.561151 0.214878
0.905394 0.554543 0.216114
0.0910506 0.962814 0.545785
0.0898756 0.972045 0.484092
0.406226 0.970016 0.228168
0.914885 0.922057 0.350683
0.991684 0.913802 0.386557
0.0885634 0.961852 0.580865
0.0916457 0.968566 0.525628
0.283879 0.983307 0.308278
0.850416 0.927367 0.332586
0.99118 0.914275 0.39237
0 0.0408179 0.169162
0.15021 0.0372625 0.15819
0.48658 0.0480659 0.197452
0.751965 0.0765087 0.248997
0.755291 0.0765393 0.260304
0 0.139788 0.145647
0.10779 0.142641 0.151522
0.49575 0.112932 0.131594
0.737591 0.0535286 0.118883
0.742672 0.0565957 0.127504
0 0.544488 0.33611
0 0.559808 0.241825
0.496468 0.558709 0.128099
0.902892 0.528359 0.216083
0.903304 0.516777 0.215076
0.0877241 0.947982 0.589517
0.0846876 0.955901 0.541161
0.332067 0.97348 0.263783
0.906325 0.921736 0.348898
0.990921 0.909087 0.379599
0.0918288 0.955627 0.630243
0.0927901 0.960616 0.584695
0.217838 0.984924 0.352682
0.824277 0.929931 0.324605
0.990509 0.914458 0.392447
0.0333715 0.0606394 0.468772
0.202075 0.0513619 0.448524
0.47921 0.0658427 0.430716
0.740948 0.104341 0.481941
0.742473 0.104387 0.493126
0 0.0936141 0.395071
0.0566262 0.0587625 0.46038
0.453513 0.0626993 0.407797
0.743191 0.101778 0.43888
0.744778 0.101518 0.446311
0 0.498924 0.478157
0 0.494026 0.473564
0.473976 0.497459 0.493278
0.906584 0.488685 0.481498
0.905623 0.470069 0.467979
0.0944991 0.908095 0.692897
0.0865492 0.908095 0.674205
0.111833 0.928069 0.538643
0.86424 0.913314 0.480308
0.973892 0.891112 0.525582
0.116945 0.946242 0.747265
0.109834 0.948089 0.726238
0.101213 0.960876 0.590021
0.727657 0.964111 0.433967
0.986938 0.919326 0.459358
0.196963 0.0853132 0.732921
0.305547 0.0828412 0.733288
0.53286 0.102739 0.728603
0.725948 0.130846 0.73611
0.727703 0.131655 0.751934
0 0.0886091 0.702968
0.200244 0.0844129 0.728511
0.494514 0.0981613 0.723964
0.725429 0.129992 0.71902
0.728252 0.129564 0.735653
0 0.458579 0.677577
0 0.441535 0.686931
0.463966 0.390311 0.876829
0.86389 0.392218 0.804318
0.85626 0.366567 0.789334
0.0998398 0.856886 0.81828
0.0925307 0.854643 0.815747
0.205478 0.85153 0.811917
0.834409 0.84181 0.826703
0.948943 0.837324 0.829602
0.209995 0.940551 0.886793
0.199695 0.94107 0.882353
0.196826 0.942153 0.850874
0.694286 0.961379 0.858213
0.957702 0.94905 0.847501
0.27689 0.0872969 0.758709
0.361013 0.0891585 0.763699
0.580468 0.112047 0.762905
0.725063 0.133745 0.755459
0.726558 0.133059 0.75761
0.13901 0.0897841 0.747463
0.278676 0.0872358 0.759747
0.538415 0.107301 0.765011
0.723339 0.134554 0.752697
0.727275 0.134157 0.75845
0 0.440787 0.768414
0 0.409903 0.770016
0.488334 0.300496 0.879255
0.824002 0.316976 0.848508
0.811749 0.288685 0.83888
0.166262 0.828443 0.907851
0.157351 0.822095 0.907637
0.233768 0.80061 0.907561
0.855375 0.786969 0.94995
0.934051 0.788266 0.938247
0.256596 0.940978 0.928939
0.253788 0.941253 0.930129
0.278172 0.942351 0.931701
0.728054 0.95053 0.947997
0.952499 0.949722 0.948882
