bundles/resolve-cinematic-luts/Phantom Luts/Ursa G2 Phntm Arri LUTs - V1/Gen4/Standard (No WB Offset)/Utopia Ursa Gen4 Legacy V1.cube
TITLE "Generated by Resolve"
LUT_3D_SIZE 9
0.00616464 0.0319371 0.0404822
0.0467689 0.0324712 0.0446784
0.148608 0.0329747 0.0517891
0.305348 0.0347601 0.0566567
0.480949 0.0359655 0.0712139
0.661295 0.0406806 0.0973526
0.727291 0.0452583 0.112413
0.732006 0.0522164 0.122759
0.739147 0.0556344 0.12903
0.00892653 0.0687114 0.0586862
0.0285344 0.0664073 0.0475166
0.126848 0.0592966 0.054612
0.279164 0.0427863 0.0458228
0.455802 0.032105 0.0485695
0.636194 0.0327916 0.0644694
0.717815 0.0304417 0.0673686
0.718517 0.0304112 0.0677806
0.728817 0.0279393 0.0655375
0 0.171466 0.0743725
0.0134127 0.170047 0.0426337
0.111437 0.170245 0.0438239
0.318273 0.140459 0.0796674
0.499275 0.129458 0.085893
0.677043 0.119036 0.092134
0.769833 0.0958267 0.0946975
0.757305 0.075349 0.0856947
0.754742 0.0618601 0.0780652
0 0.355077 0.12166
0.0229191 0.364935 0.0813916
0.0959182 0.351019 0.0256352
0.285222 0.362127 0.0741588
0.542672 0.352865 0.0991226
0.766857 0.308263 0.166766
0.873549 0.316579 0.181628
0.871595 0.307576 0.178241
0.870573 0.301442 0.175021
0 0.584833 0.244266
0.00706493 0.594171 0.203998
0.0964523 0.600397 0.133623
0.292439 0.584726 0.0458076
0.511452 0.57554 0.130648
0.758206 0.567437 0.15169
0.90338 0.561151 0.214878
0.905562 0.558618 0.2168
0.905394 0.554543 0.216114
0.0346838 0.806836 0.414405
0.0355077 0.814603 0.386587
0.0657816 0.831739 0.325673
0.207584 0.826017 0.214542
0.525536 0.807568 0.154681
0.722805 0.79266 0.237827
0.935622 0.780301 0.274281
0.95584 0.782177 0.286702
0.955383 0.780438 0.286168
0.0910506 0.962814 0.545785
0.0890669 0.966171 0.525338
0.0898756 0.972045 0.484092
0.149371 0.981353 0.393912
0.406226 0.970016 0.228168
0.705089 0.94081 0.283131
0.914885 0.922057 0.350683
0.99202 0.913756 0.386572
0.991684 0.913802 0.386557
0.0934005 0.962432 0.56939
0.0923323 0.965118 0.550378
0.0937819 0.96997 0.512184
0.123522 0.979614 0.418631
0.31249 0.981613 0.291386
0.674159 0.946166 0.271885
0.871107 0.925338 0.338354
0.992309 0.913924 0.389212
0.991821 0.914168 0.392935
0.0885634 0.961852 0.580865
0.089189 0.96408 0.56231
0.0916457 0.968566 0.525628
0.10869 0.977951 0.430121
0.283879 0.983307 0.308278
0.657801 0.947982 0.264515
0.850416 0.927367 0.332586
0.990829 0.914107 0.384863
0.99118 0.914275 0.39237
0.00527962 0.0345617 0.073106
0.0431678 0.0346685 0.0784619
0.149722 0.0357519 0.0939498
0.311131 0.0351415 0.104509
0.48864 0.0419318 0.121736
0.682475 0.0625467 0.155993
0.747265 0.0711528 0.172595
0.748363 0.0715496 0.178927
0.752316 0.0708019 0.183612
0.00793469 0.0556802 0.0659953
0.0244144 0.0543221 0.0641337
0.137392 0.0482795 0.0613718
0.292836 0.0375067 0.0576791
0.471458 0.0369116 0.0710002
0.65655 0.0406043 0.0962081
0.732311 0.0439307 0.110857
0.736568 0.0508888 0.121477
0.743526 0.0543374 0.127459
0 0.152193 0.111711
0 0.155444 0.0779736
0.103075 0.158389 0.0450141
0.321141 0.118486 0.0762798
0.490684 0.10808 0.0757763
0.670878 0.0878767 0.0823224
0.750637 0.0620584 0.0787823
0.737484 0.0443732 0.0701152
0.740673 0.0400854 0.0675975
0 0.33344 0.163836
0 0.341405 0.12398
0.0645762 0.347219 0.041474
0.27715 0.35317 0.073167
0.548455 0.334524 0.105531
0.767803 0.29218 0.16257
0.868391 0.300298 0.175601
0.865324 0.289815 0.171618
0.864012 0.283055 0.168353
0 0.56791 0.283711
0 0.57583 0.244663
0.0541695 0.594369 0.159274
0.261341 0.581964 0.0420539
0.506584 0.570001 0.128878
0.76054 0.560891 0.149493
0.903181 0.549676 0.215335
0.905165 0.545922 0.216861
0.904555 0.541436 0.215671
0.0310063 0.792767 0.438743
0.0305943 0.799268 0.41352
0.0361028 0.813535 0.35845
0.180789 0.82295 0.229252
0.513283 0.804425 0.148592
0.718853 0.787671 0.235218
0.934417 0.773693 0.27042
0.953292 0.774807 0.282002
0.95259 0.772519 0.280949
0.0896315 0.957702 0.562478
0.0877546 0.960952 0.544381
0.0877699 0.966644 0.506142
0.130495 0.979065 0.405737
0.380056 0.970855 0.237583
0.699947 0.941466 0.279957
0.912383 0.922271 0.350027
0.991806 0.91249 0.384298
0.991455 0.912184 0.383886
0.0907301 0.96054 0.588113
0.0928969 0.962356 0.570779
0.0933852 0.96698 0.535897
0.102586 0.976944 0.440436
0.285389 0.983261 0.307668
0.664225 0.947234 0.267445
0.862806 0.926284 0.33611
0.992355 0.913893 0.388586
0.991135 0.91429 0.392554
0.0893416 0.959472 0.599359
0.0908827 0.961227 0.582254
0.0917067 0.965576 0.548104
0.097673 0.975586 0.458427
0.256916 0.984283 0.324971
0.646204 0.949569 0.259434
0.840177 0.928344 0.329671
0.989212 0.914214 0.383169
0.990677 0.914397 0.391897
0 0.0408179 0.169162
0.0565194 0.0383764 0.159625
0.15021 0.0372625 0.15819
0.304372 0.040528 0.175341
0.48658 0.0480659 0.197452
0.689097 0.0680705 0.230671
0.751965 0.0765087 0.248997
0.752453 0.0770886 0.255756
0.755291 0.0765393 0.260304
0 0.054139 0.125658
0.00260929 0.0406348 0.159518
0.12987 0.0376593 0.143038
0.294942 0.0384833 0.142153
0.480354 0.0445411 0.160235
0.680507 0.0643931 0.189715
0.750439 0.0735332 0.207034
0.751202 0.0739757 0.213626
0.75462 0.0731975 0.217609
0 0.139788 0.145647
0 0.137179 0.142626
0.10779 0.142641 0.151522
0.303334 0.130083 0.138811
0.49575 0.112932 0.131594
0.684779 0.0786755 0.131304
0.737591 0.0535286 0.118883
0.73727 0.0547036 0.123125
0.742672 0.0565957 0.127504
0 0.311467 0.216342
0 0.309804 0.197955
0 0.320867 0.127718
0.271626 0.339971 0.117342
0.549752 0.300404 0.159564
0.755886 0.27274 0.166415
0.855802 0.265293 0.169146
0.849485 0.250156 0.161044
0.847715 0.242008 0.155932
0 0.544488 0.33611
0 0.547753 0.310369
0 0.559808 0.241825
0.181216 0.577523 0.0701305
0.496468 0.558709 0.128099
0.765316 0.544198 0.156954
0.902892 0.528359 0.216083
0.903853 0.522255 0.216358
0.903304 0.516777 0.215076
0.0270695 0.770581 0.475959
0.0253758 0.775143 0.45658
0.0269627 0.785595 0.411399
0.116442 0.815198 0.267399
0.48632 0.800275 0.137301
0.710521 0.777279 0.232136
0.932235 0.761212 0.262867
0.948531 0.761013 0.273732
0.947784 0.758221 0.272175
0.0877241 0.947982 0.589517
0.0851606 0.950912 0.573205
0.0846876 0.955901 0.541161
0.091722 0.969802 0.448142
0.332067 0.97348 0.263783
0.689311 0.941634 0.273411
0.906325 0.921736 0.348898
0.991363 0.90959 0.380392
0.990921 0.909087 0.379599
0.0924544 0.95671 0.618936
0.0913558 0.958648 0.603464
0.0935073 0.962005 0.572839
0.0950332 0.972457 0.493294
0.238987 0.984894 0.337118
0.644587 0.949783 0.258701
0.847166 0.927672 0.331838
0.992325 0.913863 0.387182
0.991135 0.914382 0.393469
0.0918288 0.955627 0.630243
0.0906081 0.957473 0.614954
0.0927901 0.960616 0.584695
0.0941329 0.970382 0.50927
0.217838 0.984924 0.352682
0.62092 0.952132 0.248936
0.824277 0.929931 0.324605
0.986023 0.914458 0.380056
0.990509 0.914458 0.392447
0 0.0504158 0.31397
0.068574 0.0450294 0.301732
0.159945 0.0421607 0.289845
0.304128 0.0447395 0.281041
0.477821 0.0578317 0.303532
0.684535 0.0820325 0.33637
0.749981 0.0919051 0.360281
0.749996 0.0927291 0.365591
0.75172 0.0924697 0.369787
0 0.0558175 0.276463
0.00460822 0.0494545 0.306264
0.130861 0.041886 0.288106
0.291554 0.0436713 0.269154
0.467201 0.0556344 0.287724
0.678386 0.0779431 0.314534
0.751049 0.0882124 0.337194
0.750866 0.0887922 0.342061
0.752911 0.0885176 0.346365
0 0.12607 0.235569
0 0.117464 0.248096
0.0692607 0.0975814 0.309819
0.288365 0.0940108 0.27628
0.473014 0.0758068 0.261463
0.670344 0.0732433 0.266316
0.752468 0.081178 0.281147
0.752194 0.081529 0.285542
0.754101 0.0812238 0.289342
0 0.288823 0.281514
0 0.286778 0.278965
0 0.283848 0.275486
0.277668 0.308736 0.311437
0.520775 0.296818 0.299336
0.756069 0.288411 0.291127
0.84593 0.270253 0.277378
0.836851 0.250416 0.266194
0.832074 0.236454 0.259342
0 0.522591 0.405783
0 0.522057 0.395743
0 0.519722 0.368917
0.063508 0.546242 0.294942
0.480537 0.536904 0.264698
0.755947 0.507881 0.317037
0.911315 0.503151 0.310719
0.911604 0.490379 0.299184
0.910277 0.48217 0.292607
0.0268101 0.742657 0.530221
0.024155 0.743404 0.519432
0.0216526 0.746227 0.494453
0.0228885 0.762219 0.401968
0.341985 0.805295 0.217136
0.693278 0.75758 0.252872
0.925505 0.7337 0.308629
0.938293 0.731853 0.291981
0.937316 0.727749 0.288838
0.0885939 0.929564 0.63299
0.08336 0.931472 0.621927
0.0817884 0.934356 0.599161
0.0792401 0.943633 0.532738
0.204608 0.972503 0.350057
0.654246 0.943954 0.266896
0.892653 0.91696 0.345846
0.990433 0.9037 0.378698
0.989685 0.901884 0.376577
0.098436 0.951522 0.668391
0.0953994 0.952621 0.65742
0.0951553 0.95465 0.634958
0.0935836 0.961593 0.575586
0.149157 0.982162 0.40885
0.57348 0.963058 0.266102
0.815045 0.931746 0.329351
0.988632 0.91429 0.384405
0.990982 0.914549 0.395773
0.099321 0.951003 0.678019
0.0965744 0.951888 0.666957
0.0944533 0.95378 0.644831
0.0940414 0.959991 0.587701
0.12874 0.98027 0.422919
0.547967 0.965087 0.258885
0.791669 0.934173 0.320943
0.976608 0.914427 0.374456
0.990494 0.914611 0.39498
0.0333715 0.0606394 0.468772
0.104585 0.0562142 0.461341
0.202075 0.0513619 0.448524
0.317937 0.0540169 0.432639
0.47921 0.0658427 0.430716
0.676417 0.0920729 0.447059
0.740948 0.104341 0.481941
0.740764 0.104875 0.488045
0.742473 0.104387 0.493126
0 0.0636454 0.448844
0.0325628 0.0602579 0.463706
0.163058 0.0526741 0.452522
0.300786 0.0531624 0.431556
0.470329 0.0641337 0.423178
0.669505 0.0903792 0.437095
0.742046 0.103441 0.468498
0.741665 0.103624 0.47396
0.743267 0.103014 0.478798
0 0.0936141 0.395071
0 0.0762798 0.41474
0.0566262 0.0587625 0.46038
0.26183 0.051545 0.428595
0.453513 0.0626993 0.407797
0.6533 0.0867475 0.41706
0.743191 0.101778 0.43888
0.743191 0.102098 0.442496
0.744778 0.101518 0.446311
0 0.261509 0.389914
0 0.254475 0.39324
0 0.2383 0.402502
0.243381 0.234775 0.504829
0.5019 0.240772 0.471794
0.728481 0.226291 0.46363
0.810147 0.201617 0.453971
0.797314 0.178744 0.440803
0.789563 0.164126 0.433005
0 0.498924 0.478157
0 0.497154 0.476997
0 0.494026 0.473564
0.090425 0.50103 0.483894
0.473976 0.497459 0.493278
0.721828 0.490364 0.486046
0.906584 0.488685 0.481498
0.9075 0.477287 0.472892
0.905623 0.470069 0.467979
0.030457 0.71577 0.59266
0.0279393 0.714946 0.588373
0.0259709 0.713939 0.577752
0.0226444 0.71046 0.544442
0.297688 0.738598 0.501579
0.663951 0.71986 0.468498
0.902434 0.699489 0.515877
0.93373 0.704479 0.503639
0.932631 0.69926 0.498375
0.0944991 0.908095 0.692897
0.0893721 0.908431 0.687083
0.0865492 0.908095 0.674205
0.0811933 0.907942 0.639673
0.111833 0.928069 0.538643
0.551019 0.957977 0.459846
0.86424 0.913314 0.480308
0.97467 0.894347 0.528695
0.973892 0.891112 0.525582
0.116991 0.946624 0.740047
0.11223 0.94786 0.733486
0.108232 0.94847 0.71902
0.103166 0.949966 0.684215
0.104585 0.962737 0.580331
0.446143 0.994049 0.468101
0.766812 0.957977 0.456107
0.978576 0.921553 0.469856
0.985214 0.920745 0.481407
0.116945 0.946242 0.747265
0.113985 0.947204 0.740642
0.109834 0.948089 0.726238
0.104295 0.949401 0.691279
0.101213 0.960876 0.590021
0.391348 0.993927 0.453651
0.727657 0.964111 0.433967
0.955322 0.924102 0.442145
0.986938 0.919326 0.459358
0.103746 0.0724193 0.612161
0.165454 0.069276 0.608591
0.251423 0.0657054 0.60264
0.36144 0.0676738 0.587518
0.489052 0.0816663 0.578164
0.677195 0.103792 0.579507
0.736996 0.116091 0.59649
0.735729 0.117174 0.607355
0.737743 0.116457 0.616449
0.0127108 0.0752728 0.602701
0.1019 0.0720684 0.608591
0.215061 0.0668193 0.604227
0.342 0.0655375 0.587442
0.479133 0.0805829 0.576699
0.670558 0.102464 0.573343
0.737423 0.115053 0.586297
0.737285 0.115862 0.595728
0.739391 0.115206 0.603769
0 0.0816358 0.553552
0 0.0763867 0.576165
0.118929 0.0708629 0.605173
0.300298 0.06392 0.589517
0.457038 0.0771191 0.571389
0.654688 0.0990158 0.558602
0.737011 0.114 0.566064
0.736965 0.114458 0.571756
0.739071 0.113741 0.577722
0 0.233478 0.515099
0 0.22005 0.522652
0 0.191653 0.539773
0.213077 0.139849 0.639521
0.464942 0.150576 0.621118
0.677256 0.151125 0.582193
0.7505 0.13109 0.554345
0.743786 0.119463 0.542077
0.743847 0.116564 0.542
0 0.462913 0.585077
0 0.459648 0.587686
0 0.450935 0.589548
0 0.4607 0.618784
0.457862 0.444831 0.702342
0.712947 0.447089 0.65597
0.89163 0.435874 0.649821
0.890364 0.42211 0.644083
0.88658 0.414115 0.641093
0.0302129 0.690791 0.659403
0.0280461 0.689738 0.658793
0.0268559 0.687205 0.656306
0.026154 0.680446 0.648493
0.327016 0.684169 0.662181
0.655085 0.671839 0.660594
0.882918 0.667948 0.657588
0.93019 0.664927 0.656855
0.928939 0.65951 0.65333
0.102693 0.881422 0.753979
0.0976272 0.881025 0.750942
0.0948501 0.879622 0.744137
0.0897841 0.875563 0.726558
0.207691 0.883864 0.701289
0.540749 0.900282 0.676753
0.842786 0.883803 0.654749
0.952834 0.870619 0.695705
0.951553 0.866606 0.692149
0.144381 0.940536 0.815717
0.137621 0.941314 0.811917
0.132662 0.941756 0.803311
0.124987 0.942626 0.783841
0.130755 0.948379 0.738277
0.447669 0.976593 0.705608
0.737682 0.972396 0.661234
0.959228 0.937087 0.659724
0.97113 0.937346 0.695796
0.145449 0.940856 0.824506
0.141848 0.941115 0.819638
0.13611 0.941466 0.809934
0.126009 0.94229 0.788403
0.123384 0.947295 0.739681
0.400763 0.975586 0.694774
0.699077 0.977325 0.650629
0.921675 0.941222 0.646235
0.970336 0.936584 0.682872
0.196963 0.0853132 0.732921
0.237278 0.0839704 0.732464
0.305547 0.0828412 0.733288
0.404959 0.0882734 0.732784
0.53286 0.102739 0.728603
0.683635 0.121111 0.72282
0.725948 0.130846 0.73611
0.724834 0.132723 0.744091
0.727703 0.131655 0.751934
0.139116 0.0870985 0.729046
0.193957 0.0849928 0.73138
0.275242 0.0830091 0.732021
0.384466 0.0858015 0.731228
0.520195 0.10135 0.727703
0.67744 0.11986 0.720302
0.726207 0.130343 0.731411
0.72578 0.131304 0.740551
0.728511 0.13051 0.74902
0 0.0886091 0.702968
0.0702831 0.0878462 0.719814
0.200244 0.0844129 0.728511
0.342809 0.0822309 0.72845
0.494514 0.0981613 0.723964
0.661799 0.117189 0.714214
0.725429 0.129992 0.71902
0.724926 0.130846 0.727001
0.728252 0.129564 0.735653
0 0.177356 0.650813
0 0.160693 0.664515
0 0.124269 0.684047
0.225666 0.0858473 0.72845
0.435767 0.0931106 0.720195
0.625498 0.114 0.706142
0.728069 0.128466 0.694911
0.728298 0.129183 0.69752
0.731731 0.128298 0.704463
0 0.458579 0.677577
0 0.453574 0.681895
0 0.441535 0.686931
0 0.439536 0.740581
0.463966 0.390311 0.876829
0.719356 0.397101 0.846799
0.86389 0.392218 0.804318
0.860426 0.375906 0.793286
0.85626 0.366567 0.789334
0 0.653696 0.758236
0 0.651118 0.761349
0 0.645274 0.763409
0 0.631037 0.766232
0.258701 0.663905 0.808774
0.644999 0.635599 0.860243
0.871473 0.636149 0.817716
0.91516 0.630365 0.814832
0.913695 0.625345 0.812543
0.0998398 0.856886 0.81828
0.094377 0.856535 0.818509
0.0925307 0.854643 0.815747
0.0908675 0.850065 0.810162
0.205478 0.85153 0.811917
0.554665 0.84802 0.824567
0.834409 0.84181 0.826703
0.949599 0.842603 0.832944
0.948943 0.837324 0.829602
0.203189 0.940215 0.880796
0.197925 0.940627 0.880308
0.193866 0.940566 0.877134
0.185428 0.940368 0.869612
0.209232 0.940719 0.85095
0.507057 0.948486 0.861708
0.739269 0.954406 0.853895
0.935332 0.944137 0.826902
0.957259 0.941329 0.857496
0.209995 0.940551 0.886793
0.20444 0.941024 0.886061
0.199695 0.94107 0.882353
0.189334 0.940749 0.873121
0.196826 0.942153 0.850874
0.466056 0.953048 0.858381
0.694286 0.961379 0.858213
0.903838 0.950683 0.825818
0.957702 0.94905 0.847501
0.260365 0.0873732 0.757504
0.293202 0.0869459 0.760174
0.350774 0.088426 0.763241
0.442847 0.0973373 0.766583
0.571557 0.110964 0.763058
0.704326 0.130358 0.756252
0.725063 0.133745 0.755459
0.724605 0.133959 0.754726
0.726116 0.133257 0.756924
0.216739 0.0880293 0.754589
0.259251 0.0873426 0.758572
0.323919 0.0869154 0.76173
0.423194 0.0950484 0.766033
0.558053 0.109606 0.764202
0.698741 0.12932 0.756466
0.725078 0.133745 0.755489
0.725292 0.133639 0.75584
0.727199 0.132723 0.758984
0.104707 0.0907149 0.743877
0.173327 0.0888838 0.753109
0.263523 0.0873426 0.758831
0.385077 0.0911727 0.76495
0.531197 0.106798 0.765438
0.684993 0.126864 0.755978
0.724437 0.136217 0.754086
0.724498 0.135805 0.754208
0.727153 0.133806 0.758343
0 0.142458 0.742351
0 0.123354 0.740246
0.0105898 0.0925154 0.732692
0.283543 0.0873579 0.760128
0.470527 0.100984 0.766918
0.651606 0.121035 0.758679
0.727733 0.14255 0.758221
0.728237 0.143404 0.758785
0.731075 0.142153 0.763577
0 0.45359 0.753399
0 0.448356 0.760998
0 0.433936 0.766583
0.0242618 0.403037 0.813382
0.497124 0.338811 0.894865
0.738277 0.346883 0.881514
0.838422 0.35137 0.861601
0.832074 0.334646 0.854383
0.827497 0.324575 0.852934
0 0.648463 0.821286
0 0.647639 0.824964
0 0.643275 0.826017
0 0.632486 0.827024
0.24416 0.659449 0.875441
0.685557 0.608362 0.944671
0.878355 0.609888 0.916899
0.906249 0.607675 0.908949
0.903746 0.602762 0.9084
0.111498 0.835981 0.885695
0.107744 0.834775 0.887892
0.108217 0.830747 0.888609
0.107134 0.820508 0.888777
0.233616 0.814725 0.901518
0.536965 0.823331 0.903105
0.839811 0.807691 0.935882
0.939223 0.813443 0.919783
0.938949 0.808576 0.918151
0.22388 0.936492 0.913848
0.21593 0.936629 0.914885
0.210758 0.935821 0.913588
0.200809 0.933196 0.909529
0.223835 0.929397 0.903593
0.511009 0.935592 0.916869
0.764981 0.934554 0.924758
0.933135 0.931945 0.92575
0.95494 0.931411 0.926406
0.247242 0.941131 0.922744
0.24303 0.941466 0.923003
0.240452 0.941497 0.920897
0.235462 0.941466 0.916518
0.254444 0.942657 0.907469
0.500298 0.949416 0.919402
0.738231 0.952087 0.93051
0.899336 0.951873 0.931792
0.953246 0.950118 0.928832
0.27689 0.0872969 0.758709
0.307607 0.0869154 0.760906
0.361013 0.0891585 0.763699
0.45211 0.0983291 0.766537
0.580468 0.112047 0.762905
0.709636 0.131472 0.756207
0.725063 0.133745 0.755459
0.72491 0.133806 0.75523
0.726558 0.133059 0.75761
0.237461 0.0878614 0.756024
0.275761 0.0872663 0.759564
0.334981 0.0871748 0.762127
0.43267 0.0961929 0.766369
0.565988 0.110292 0.76379
0.703578 0.130419 0.755779
0.725078 0.133745 0.755489
0.725338 0.133608 0.755917
0.727443 0.132601 0.759365
0.13901 0.0897841 0.747463
0.198657 0.0884871 0.755169
0.278676 0.0872358 0.759747
0.394339 0.0919966 0.765209
0.538415 0.107301 0.765011
0.690059 0.127855 0.755978
0.723339 0.134554 0.752697
0.724895 0.136355 0.754788
0.727275 0.134157 0.75845
0 0.133562 0.740475
0 0.114794 0.73817
0.0574502 0.0907149 0.740032
0.296925 0.0869001 0.760433
0.47686 0.101534 0.766659
0.654551 0.121004 0.757931
0.725322 0.138857 0.755199
0.728237 0.14313 0.758831
0.730877 0.141756 0.763302
0 0.440787 0.768414
0 0.431083 0.770733
0 0.409903 0.770016
0.0277714 0.364385 0.810575
0.488334 0.300496 0.879255
0.723445 0.311788 0.867109
0.824002 0.316976 0.848508
0.816724 0.299947 0.841031
0.811749 0.288685 0.83888
0 0.649516 0.836149
0 0.646815 0.837125
0 0.639399 0.834089
0 0.622217 0.82652
0.239933 0.642557 0.876478
0.690303 0.589166 0.945083
0.876539 0.591852 0.91841
0.902174 0.59028 0.91249
0.900618 0.585306 0.912581
0.166262 0.828443 0.907851
0.161852 0.826551 0.908644
0.157351 0.822095 0.907637
0.145739 0.809781 0.904234
0.233768 0.80061 0.907561
0.523476 0.813107 0.908995
0.855375 0.786969 0.94995
0.935119 0.792782 0.938247
0.934051 0.788266 0.938247
0.2392 0.931456 0.925063
0.234638 0.930968 0.925994
0.231617 0.929656 0.925963
0.225681 0.925826 0.924971
0.253819 0.918547 0.925994
0.522957 0.923384 0.93817
0.757855 0.923064 0.941527
0.935637 0.920501 0.949142
0.950866 0.921416 0.947005
0.256596 0.940978 0.928939
0.254063 0.941222 0.930022
0.253788 0.941253 0.930129
0.253788 0.941253 0.930129
0.278172 0.942351 0.931701
0.493065 0.949752 0.942107
0.728054 0.95053 0.947997
0.90518 0.95021 0.95021
0.952499 0.949722 0.948882
