bundles/resolve-cinematic-luts/Phantom Luts/Ursa G2 Phntm Arri LUTs - V1/Gen4/Standard (No WB Offset)/Utopia Ursa Gen4 Legacy V1.cube
TITLE "Generated by Resolve"
LUT_3D_SIZE 33
0.00616464 0.0319371 0.0404822
0.00616464 0.0319371 0.0404822
0.0159152 0.0317693 0.0403143
0.0281834 0.0322881 0.0437324
0.0467689 0.0324712 0.0446784
0.0673381 0.0330663 0.0464332
0.0903639 0.0331426 0.0490272
0.11722 0.0330968 0.0510109
0.148608 0.0329747 0.0517891
0.183215 0.0331273 0.0523995
0.222232 0.0337987 0.0536507
0.264088 0.0346532 0.0549477
0.305348 0.0347601 0.0566567
0.347646 0.0352026 0.0594949
0.391424 0.0356756 0.0630045
0.43621 0.0359808 0.0668956
0.480949 0.0359655 0.0712139
0.524315 0.0371862 0.0769818
0.56846 0.0385748 0.0834211
0.615045 0.0394751 0.090013
0.661295 0.0406806 0.0973526
0.697704 0.0413367 0.102953
0.719112 0.0413367 0.105821
0.725826 0.0429999 0.109102
0.727291 0.0452583 0.112413
0.728176 0.0469062 0.114961
0.729397 0.0487068 0.117952
0.730663 0.0505074 0.120439
0.732006 0.0522164 0.122759
0.733883 0.0535439 0.124895
0.735759 0.0543679 0.126543
0.737697 0.0549325 0.127764
0.739147 0.0556344 0.12903
0.00616464 0.0319371 0.0404822
0.00616464 0.0319371 0.0404822
0.00834669 0.0318914 0.0402686
0.0219272 0.0340429 0.0420539
0.0380713 0.0348821 0.0456245
0.0594644 0.0361486 0.0464027
0.0831769 0.0356756 0.0465858
0.109926 0.0350958 0.0471046
0.141512 0.034699 0.0473945
0.176776 0.0341039 0.0476387
0.215488 0.0332647 0.0477913
0.25716 0.032517 0.0480812
0.298863 0.0317998 0.0478676
0.341299 0.03093 0.0487221
0.384558 0.0298772 0.0498207
0.429129 0.028748 0.0518196
0.474159 0.0279698 0.0551003
0.517311 0.0291295 0.0610208
0.561502 0.0307774 0.0677195
0.607217 0.031754 0.0742962
0.653376 0.0325628 0.0810712
0.690364 0.0327459 0.0864729
0.712734 0.0324865 0.0892348
0.7196 0.0336919 0.0919203
0.72105 0.0354772 0.0951095
0.722438 0.0374151 0.0982223
0.723323 0.0388952 0.100786
0.724819 0.04065 0.103761
0.72636 0.0420996 0.106142
0.728374 0.0431373 0.10808
0.730587 0.0439612 0.10959
0.7337 0.0442512 0.110536
0.736828 0.0442054 0.111177
0.00762951 0.0366064 0.0436713
0.0075227 0.0350042 0.0419776
0.0081178 0.0333867 0.0411078
0.0178531 0.0365911 0.0424659
0.0272679 0.039353 0.0439612
0.0484321 0.0396124 0.0472572
0.0723888 0.0397803 0.0478218
0.0995346 0.0382849 0.0473335
0.131258 0.0366217 0.046952
0.166598 0.035874 0.0472725
0.205066 0.0348821 0.0474098
0.247242 0.033753 0.047364
0.290623 0.0329747 0.047013
0.333776 0.0320134 0.0477913
0.377905 0.0310979 0.0488594
0.422721 0.030045 0.0498817
0.467811 0.0288548 0.0514382
0.509834 0.0283665 0.0543984
0.552682 0.0285191 0.0581979
0.597177 0.0287022 0.0625162
0.64419 0.0289311 0.0685283
0.68307 0.0289616 0.0740368
0.708125 0.0287938 0.076997
0.716121 0.0295872 0.0797894
0.717311 0.0304875 0.0822461
0.718456 0.0315862 0.0848096
0.719341 0.0324407 0.0869917
0.720088 0.0332341 0.0885634
0.720943 0.033875 0.0900282
0.722652 0.0342565 0.0911421
0.724712 0.0344549 0.0919966
0.727993 0.0343023 0.0926375
0.731563 0.0341802 0.0931106
0.00975052 0.0504158 0.0539254
0.00988785 0.0496834 0.0526131
0.0135042 0.0483101 0.0467994
0.0205844 0.0486 0.0465095
0.0307774 0.0497597 0.0493629
0.0497444 0.0502174 0.0517586
0.0699931 0.0492409 0.0502937
0.0942397 0.0474708 0.0496376
0.123568 0.0444038 0.0485389
0.157458 0.041062 0.046952
0.195636 0.0376593 0.0456703
0.237415 0.0354467 0.0458686
0.281956 0.0343786 0.0457465
0.326314 0.033463 0.0464942
0.371069 0.0325933 0.0474556
0.416312 0.0314488 0.0486458
0.462226 0.0302281 0.0502022
0.504829 0.0296788 0.0525368
0.548348 0.0298924 0.0566262
0.593072 0.0303197 0.0610666
0.639643 0.0305943 0.0656901
0.679927 0.0302892 0.0694896
0.705791 0.0289158 0.0691234
0.713726 0.027985 0.0679179
0.715053 0.0283665 0.0688029
0.716533 0.0297246 0.072343
0.717098 0.0302586 0.0745708
0.717632 0.0304112 0.0758984
0.718425 0.0306859 0.0772106
0.720256 0.0307774 0.0783703
0.722576 0.0308232 0.0793927
0.726207 0.0304723 0.0798657
0.730068 0.0300603 0.0801251
0.00892653 0.0687114 0.0586862
0.00901808 0.0681315 0.0567788
0.0101015 0.0660716 0.0522621
0.0195315 0.0645609 0.0477607
0.0285344 0.0664073 0.0475166
0.0509804 0.0660716 0.0484016
0.0755322 0.0641489 0.0559701
0.100832 0.0616465 0.0569467
0.126848 0.0592966 0.054612
0.158938 0.0561074 0.05243
0.195392 0.0522927 0.0502022
0.235721 0.047776 0.0478523
0.279164 0.0427863 0.0458228
0.32137 0.0377661 0.0439002
0.364309 0.0348211 0.0451209
0.409201 0.0333257 0.046891
0.455802 0.032105 0.0485695
0.499702 0.0315557 0.0509651
0.543832 0.0319829 0.0547951
0.588998 0.032578 0.0595712
0.636194 0.0327916 0.0644694
0.678004 0.0323491 0.0681163
0.707012 0.0319371 0.0696269
0.71664 0.0307622 0.0680247
0.717815 0.0304417 0.0673686
0.717876 0.030518 0.0676127
0.717891 0.0305486 0.0677653
0.718074 0.030518 0.0678264
0.718517 0.0304112 0.0677806
0.71986 0.0300603 0.0674449
0.721721 0.0295872 0.0669718
0.725093 0.0287175 0.066041
0.728817 0.0279393 0.0655375
0.00582895 0.0911727 0.0610819
0.00581369 0.09131 0.0578775
0.00735485 0.0897536 0.0526741
0.0172427 0.0880446 0.0463569
0.0283055 0.0884413 0.0438544
0.0438849 0.0894179 0.0446937
0.0741588 0.0868086 0.0499733
0.101427 0.0854505 0.0565499
0.134646 0.0787366 0.0608225
0.169711 0.0728618 0.0604257
0.203815 0.0690471 0.0579995
0.240299 0.0654307 0.0547799
0.283223 0.0608682 0.053315
0.325612 0.0555428 0.0510414
0.368017 0.0505684 0.0494392
0.411688 0.0455787 0.0484321
0.45507 0.0399481 0.0474098
0.496818 0.0362402 0.0490425
0.539635 0.0352483 0.0528267
0.58468 0.0353857 0.057557
0.631861 0.0352483 0.0624094
0.676524 0.0352941 0.0669413
0.70811 0.0350652 0.069276
0.720821 0.0343023 0.0684367
0.722988 0.0339208 0.0678111
0.722972 0.0339208 0.0678264
0.722972 0.0339361 0.0678416
0.723079 0.0339055 0.0677958
0.723339 0.0338445 0.0677195
0.724453 0.0335546 0.0673991
0.726009 0.0331426 0.0669413
0.729366 0.0322271 0.0657969
0.732982 0.0312505 0.0646983
0.00218204 0.114305 0.0625162
0.00209049 0.115434 0.0564431
0.00334173 0.114137 0.0522621
0.00968948 0.111925 0.0467079
0.0291905 0.110491 0.0383612
0.0425422 0.11191 0.0398871
0.0630198 0.111971 0.0425727
0.0984512 0.108003 0.0522011
0.131579 0.108354 0.0562295
0.172396 0.0997787 0.063386
0.214313 0.089662 0.0656138
0.25597 0.0846418 0.0640421
0.295842 0.0813611 0.0619821
0.333852 0.0789654 0.060441
0.375692 0.0749676 0.0590066
0.419959 0.0694285 0.058793
0.464866 0.0632334 0.0572061
0.50811 0.0580453 0.0570535
0.548913 0.0528115 0.057557
0.589822 0.0475319 0.0586557
0.632975 0.0429999 0.0617227
0.67599 0.0403754 0.06598
0.709422 0.0393988 0.0690013
0.726055 0.0389105 0.0691844
0.729 0.038529 0.068864
0.729015 0.0385443 0.0688487
0.72903 0.0385595 0.068864
0.729076 0.0385595 0.0688487
0.729152 0.0385595 0.0688182
0.729778 0.038407 0.0686351
0.730831 0.038117 0.0683146
0.733013 0.0375067 0.067628
0.735302 0.0368811 0.0668956
7.62951e-05 0.140566 0.0673686
0.00062562 0.142504 0.0567788
0.00262455 0.141955 0.053193
0.00686656 0.139651 0.0471199
0.0151369 0.136889 0.0387427
0.0450752 0.136995 0.0334173
0.0643473 0.138415 0.0376898
0.0845655 0.138201 0.0423438
0.125841 0.132952 0.0546731
0.167468 0.134142 0.0569162
0.214084 0.124666 0.0665293
0.263691 0.110063 0.0717937
0.310216 0.104555 0.0717327
0.353155 0.100999 0.0708934
0.392401 0.0997635 0.0706493
0.432288 0.0986648 0.0703441
0.477363 0.0951247 0.0694438
0.522713 0.0900435 0.0684977
0.567102 0.0855573 0.0720684
0.610056 0.079942 0.0735027
0.654536 0.0735027 0.0751812
0.695644 0.066392 0.0765545
0.724712 0.0602884 0.0768139
0.739635 0.0552529 0.0756542
0.739437 0.0501717 0.0732128
0.737499 0.0474861 0.0718547
0.736751 0.046479 0.0712291
0.736568 0.0462348 0.0710765
0.7364 0.0459754 0.0709544
0.73666 0.045594 0.0706798
0.737346 0.0450599 0.0702678
0.739422 0.0442359 0.0695048
0.74165 0.0434577 0.0687572
0 0.171466 0.0743725
0 0.173922 0.0625925
0.00329595 0.175067 0.0556191
0.0074464 0.173144 0.0497597
0.0134127 0.170047 0.0426337
0.0292058 0.166659 0.0287022
0.0653849 0.168719 0.0299077
0.0886702 0.170184 0.0367437
0.111437 0.170245 0.0438239
0.160266 0.163928 0.0590219
0.20882 0.165438 0.0607767
0.261799 0.156863 0.0700236
0.318273 0.140459 0.0796674
0.367864 0.133165 0.082414
0.41384 0.130114 0.0838178
0.457801 0.128985 0.0852522
0.499275 0.129458 0.085893
0.542672 0.128908 0.086305
0.58645 0.126055 0.0874647
0.631098 0.123003 0.0898909
0.677043 0.119036 0.092134
0.720836 0.112581 0.0967117
0.752331 0.107195 0.0979477
0.769757 0.102754 0.0976883
0.769833 0.0958267 0.0946975
0.76614 0.0895094 0.0919051
0.762936 0.0843366 0.0896773
0.759915 0.0793317 0.0873732
0.757305 0.075349 0.0856947
0.755215 0.071519 0.0837415
0.753704 0.0678721 0.0816968
0.754147 0.064622 0.0798657
0.754742 0.0618601 0.0780652
0 0.207126 0.0823682
0 0.209674 0.0710002
0.0043183 0.212299 0.0601205
0.00842298 0.211276 0.0545357
0.0142519 0.208423 0.0475776
0.0233158 0.204746 0.0380865
0.0608072 0.202609 0.024094
0.08925 0.206119 0.0280919
0.11632 0.207828 0.0378119
0.144274 0.208392 0.0479591
0.200473 0.201877 0.0658732
0.258396 0.204761 0.0670024
0.316716 0.199451 0.0742199
0.376287 0.185168 0.087602
0.429648 0.172335 0.09691
0.478279 0.168383 0.0999619
0.524239 0.166461 0.101762
0.568704 0.165805 0.103273
0.609125 0.166964 0.105699
0.651591 0.166796 0.10837
0.697917 0.165331 0.112154
0.742458 0.162768 0.115801
0.776669 0.160601 0.118273
0.797604 0.159106 0.119554
0.800595 0.15491 0.117861
0.798398 0.149432 0.115679
0.79498 0.143709 0.112337
0.793729 0.138277 0.113573
0.791287 0.133806 0.111604
0.789822 0.130419 0.110109
0.7888 0.127001 0.108385
0.788907 0.123827 0.106386
0.789914 0.121279 0.104952
0 0.248157 0.0925307
0 0.250645 0.0819257
0.00292973 0.2533 0.0709392
0.00915541 0.254932 0.0634775
0.0159152 0.252583 0.0551614
0.0250858 0.249241 0.0455329
0.0388342 0.244282 0.0339513
0.0897841 0.244923 0.0220493
0.116869 0.250614 0.028748
0.149096 0.253315 0.0423743
0.185473 0.254627 0.0563363
0.248905 0.248081 0.0758221
0.315801 0.251331 0.0726024
0.373358 0.249119 0.0779126
0.433112 0.236744 0.0940414
0.488609 0.222232 0.107485
0.540566 0.211612 0.114763
0.588937 0.208652 0.118151
0.634531 0.207706 0.122423
0.678325 0.208179 0.126284
0.721889 0.210132 0.130388
0.76408 0.211765 0.135485
0.799222 0.212207 0.139513
0.823072 0.21294 0.142748
0.829404 0.210758 0.142519
0.827939 0.206165 0.140581
0.825788 0.201755 0.138796
0.823621 0.197498 0.136965
0.821668 0.193744 0.135225
0.820706 0.190875 0.134127
0.819806 0.1879 0.132631
0.819669 0.185367 0.131029
0.820203 0.183215 0.12961
0 0.298161 0.105333
0 0.300633 0.0948959
0.00164797 0.303243 0.0854047
0.0118563 0.306157 0.0744488
0.0192721 0.305653 0.066804
0.0287633 0.3028 0.0570993
0.0417945 0.298589 0.0445869
0.0621347 0.294224 0.0296025
0.120607 0.297673 0.0231022
0.150835 0.304555 0.0326696
0.189593 0.3075 0.0504768
0.233906 0.308049 0.0657969
0.3028 0.298512 0.0838178
0.373068 0.301381 0.0790723
0.43061 0.303395 0.0798657
0.488136 0.294453 0.0970321
0.545373 0.281468 0.113924
0.601358 0.266316 0.127733
0.652277 0.258503 0.137713
0.700618 0.256657 0.143969
0.749966 0.255955 0.149722
0.790555 0.258167 0.15465
0.822065 0.262211 0.158877
0.845426 0.265919 0.162463
0.854383 0.266255 0.163348
0.854368 0.26305 0.162203
0.853208 0.259739 0.161227
0.851499 0.256092 0.159701
0.850126 0.252995 0.158495
0.849271 0.250568 0.157641
0.848417 0.248112 0.156527
0.84828 0.245991 0.155306
0.8486 0.24419 0.154162
0 0.355077 0.12166
0 0.357214 0.11162
0.00015259 0.359609 0.102602
0.0103151 0.362387 0.0922713
0.0229191 0.364935 0.0813916
0.0327153 0.362905 0.0726329
0.0463111 0.359213 0.0609445
0.0630045 0.354162 0.0452888
0.0959182 0.351019 0.0256352
0.155657 0.356512 0.0283665
0.189792 0.362097 0.0391394
0.237095 0.362219 0.0599527
0.285222 0.362127 0.0741588
0.359548 0.351202 0.0932021
0.430808 0.353826 0.086717
0.488045 0.357824 0.0830396
0.542672 0.352865 0.0991226
0.601694 0.342168 0.119554
0.658 0.329 0.138796
0.714336 0.312657 0.157
0.766857 0.308263 0.166766
0.811414 0.30724 0.173022
0.8439 0.309071 0.178058
0.865095 0.313375 0.181231
0.873549 0.316579 0.181628
0.874006 0.3149 0.180697
0.873365 0.312383 0.180041
0.872419 0.309819 0.179141
0.871595 0.307576 0.178241
0.870817 0.305577 0.177325
0.870268 0.303807 0.176593
0.870268 0.302602 0.175875
0.870573 0.301442 0.175021
0 0.41149 0.143267
0 0.413642 0.133669
0 0.416297 0.124453
0.00749218 0.418784 0.113039
0.0203708 0.421897 0.102495
0.0348821 0.423163 0.0916762
0.0485695 0.420447 0.0802319
0.0654459 0.41622 0.0662242
0.0922713 0.410697 0.0476692
0.139635 0.409827 0.0259709
0.196185 0.41413 0.0331426
0.235767 0.417868 0.0457771
0.289067 0.417014 0.0709544
0.340276 0.415885 0.0852369
0.416022 0.403616 0.10428
0.4878 0.405798 0.0947738
0.545007 0.409735 0.0908522
0.598306 0.409232 0.103517
0.655787 0.400443 0.128283
0.71313 0.388907 0.150759
0.772915 0.373709 0.172595
0.822736 0.361273 0.187671
0.857679 0.360082 0.194446
0.879744 0.362509 0.198627
0.887892 0.365621 0.199252
0.888716 0.364538 0.198825
0.88809 0.362249 0.198154
0.88748 0.35996 0.197375
0.886976 0.357961 0.196719
0.886397 0.356237 0.196002
0.886137 0.354971 0.195651
0.88603 0.353994 0.195026
0.886244 0.353201 0.194339
0 0.469429 0.172488
0 0.47155 0.162402
0 0.474022 0.151644
0.00477607 0.476616 0.140658
0.01561 0.479332 0.129686
0.0324559 0.482719 0.115663
0.0508431 0.48191 0.102937
0.0713664 0.478553 0.090547
0.0968032 0.474006 0.0740368
0.12987 0.469017 0.0501106
0.184634 0.469154 0.0302129
0.24033 0.472343 0.0395972
0.287327 0.474357 0.0567788
0.344182 0.472267 0.0830701
0.397833 0.469902 0.0977188
0.472084 0.456474 0.116609
0.543954 0.458061 0.106386
0.600473 0.461463 0.103334
0.652705 0.464729 0.112261
0.708827 0.458045 0.140246
0.769238 0.447608 0.166766
0.823102 0.43595 0.188159
0.863203 0.426947 0.20209
0.888441 0.422675 0.210681
0.897566 0.42533 0.21323
0.898634 0.424842 0.212848
0.898405 0.421942 0.212512
0.89807 0.419104 0.212192
0.897978 0.4168 0.212085
0.898024 0.414771 0.212146
0.897826 0.412741 0.211994
0.897658 0.411109 0.211566
0.897566 0.409995 0.210819
0 0.527794 0.206714
0 0.529992 0.196063
0 0.532525 0.185016
0.0041352 0.534951 0.175128
0.0147555 0.537911 0.163973
0.0325322 0.541451 0.148882
0.0552224 0.544244 0.131426
0.0771038 0.541588 0.118166
0.100725 0.537194 0.1019
0.125948 0.532006 0.0821698
0.166979 0.528161 0.052491
0.238132 0.527581 0.0371557
0.289845 0.529885 0.0490883
0.342779 0.529946 0.0718853
0.401221 0.526787 0.0961929
0.455039 0.523323 0.112459
0.526574 0.508919 0.132906
0.597314 0.509468 0.123171
0.653559 0.512688 0.122148
0.705715 0.51751 0.128267
0.761349 0.513619 0.154986
0.81738 0.505394 0.181811
0.859937 0.499184 0.199512
0.888792 0.495735 0.209751
0.900847 0.495918 0.215259
0.902388 0.497185 0.21532
0.902296 0.495445 0.21503
0.90248 0.493645 0.215198
0.902571 0.491844 0.215259
0.902235 0.490211 0.214878
0.902052 0.488655 0.214725
0.901991 0.487495 0.214405
0.90193 0.486641 0.213825
0 0.584833 0.244266
0 0.587015 0.234272
0 0.588998 0.224735
0 0.591394 0.215122
0.00706493 0.594171 0.203998
0.0223697 0.598062 0.188876
0.0451209 0.602319 0.170535
0.0718242 0.603754 0.151553
0.0964523 0.600397 0.133623
0.122652 0.595499 0.114961
0.155154 0.589227 0.0898909
0.207568 0.586069 0.0525673
0.292439 0.584726 0.0458076
0.343236 0.586252 0.0641337
0.400336 0.584146 0.0925917
0.456703 0.580468 0.11339
0.511452 0.57554 0.130648
0.579828 0.56051 0.150591
0.648768 0.559792 0.145418
0.705287 0.562692 0.146288
0.758206 0.567437 0.15169
0.810895 0.567544 0.172885
0.855802 0.563333 0.195193
0.887037 0.561151 0.207752
0.90338 0.561151 0.214878
0.905928 0.562951 0.216861
0.90576 0.56173 0.216846
0.905516 0.560052 0.216678
0.905562 0.558618 0.2168
0.90573 0.557397 0.217029
0.905653 0.556191 0.216983
0.905562 0.555245 0.216693
0.905394 0.554543 0.216114
0 0.639765 0.287556
0 0.641535 0.278904
0.000350958 0.64361 0.269764
0.0016022 0.645777 0.25951
0.00407416 0.648447 0.24744
0.0163119 0.652232 0.233341
0.0337224 0.656901 0.217182
0.0610208 0.661585 0.195209
0.0903792 0.661097 0.174304
0.116991 0.657267 0.154391
0.14992 0.651789 0.129015
0.191348 0.645884 0.0964828
0.258549 0.642145 0.0550393
0.345403 0.640696 0.0650339
0.400107 0.641032 0.0870069
0.458167 0.637598 0.118791
0.511055 0.633524 0.1346
0.565454 0.627283 0.153048
0.63154 0.613367 0.173068
0.699031 0.610361 0.17113
0.755947 0.612711 0.172473
0.809628 0.617655 0.178363
0.853956 0.621546 0.18764
0.886763 0.621256 0.203876
0.907149 0.622156 0.212375
0.910979 0.624002 0.216846
0.911177 0.623652 0.217838
0.911269 0.622766 0.218036
0.911025 0.621622 0.217853
0.910842 0.620691 0.217716
0.910735 0.619837 0.217655
0.910628 0.619013 0.217517
0.910552 0.618448 0.217258
0.00576791 0.694026 0.332128
0.00654612 0.695842 0.3243
0.00724804 0.69781 0.315785
0.00831617 0.700038 0.305882
0.00959792 0.702617 0.295064
0.0123445 0.705821 0.281651
0.0249943 0.710155 0.266545
0.0491798 0.71606 0.244556
0.0812543 0.719905 0.219425
0.108583 0.717876 0.199634
0.142336 0.713726 0.174548
0.180545 0.707576 0.145403
0.237903 0.702495 0.104097
0.321279 0.698741 0.0724041
0.40412 0.695735 0.0905776
0.459373 0.694774 0.116381
0.512978 0.691112 0.149401
0.56434 0.686519 0.160922
0.617929 0.679759 0.17882
0.684428 0.669764 0.195438
0.749355 0.66244 0.200092
0.808331 0.664607 0.201022
0.856733 0.668833 0.206394
0.891691 0.673396 0.212924
0.91487 0.677287 0.216648
0.922423 0.679591 0.221256
0.923384 0.680217 0.223941
0.923217 0.679622 0.223941
0.923049 0.678904 0.223575
0.922835 0.678172 0.223331
0.922652 0.677562 0.223056
0.922484 0.677012 0.222919
0.922316 0.676463 0.222827
0.0187228 0.749386 0.374411
0.019089 0.751171 0.367056
0.0195621 0.752834 0.359976
0.0200656 0.754879 0.352102
0.0206455 0.757046 0.343145
0.0217746 0.759915 0.331319
0.0251164 0.763622 0.316091
0.0419471 0.769314 0.296849
0.0696727 0.77557 0.272419
0.101289 0.777127 0.24715
0.133776 0.774197 0.223194
0.17026 0.769162 0.195926
0.216846 0.762127 0.160647
0.291295 0.757885 0.111955
0.392508 0.753887 0.0975814
0.464652 0.750439 0.121157
0.517662 0.749294 0.148165
0.567758 0.745449 0.176638
0.617136 0.74081 0.188754
0.669718 0.734051 0.206821
0.735348 0.726329 0.222354
0.800916 0.716701 0.2318
0.858595 0.719219 0.234409
0.898772 0.72221 0.238224
0.924147 0.725658 0.242267
0.937072 0.728634 0.246479
0.938537 0.729091 0.253223
0.938308 0.728496 0.253925
0.938109 0.72784 0.253468
0.937865 0.727199 0.252964
0.937697 0.726726 0.252598
0.93756 0.726299 0.252354
0.937469 0.725978 0.252125
0.0346838 0.806836 0.414405
0.0348821 0.808652 0.408301
0.0348821 0.810544 0.401602
0.0350347 0.812451 0.394705
0.0355077 0.814603 0.386587
0.0363775 0.817273 0.37586
0.0379187 0.820737 0.362509
0.0430152 0.825132 0.346502
0.0657816 0.831739 0.325673
0.0988479 0.837156 0.297063
0.127306 0.835538 0.273899
0.164218 0.831785 0.246662
0.207584 0.826017 0.214542
0.268299 0.820539 0.171374
0.355978 0.815702 0.121263
0.461219 0.811124 0.129259
0.525536 0.807568 0.154681
0.573617 0.805783 0.18088
0.622019 0.802655 0.205005
0.67071 0.798444 0.218341
0.722805 0.79266 0.237827
0.785183 0.786419 0.255283
0.853758 0.775692 0.267582
0.904555 0.777874 0.270115
0.935622 0.780301 0.274281
0.953368 0.783475 0.277729
0.956115 0.783322 0.284337
0.955993 0.782773 0.286595
0.95584 0.782177 0.286702
0.955764 0.78172 0.286656
0.955642 0.781247 0.286549
0.955489 0.780728 0.286351
0.955383 0.780438 0.286168
0.05243 0.862776 0.45156
0.0522316 0.864332 0.445609
0.0520485 0.866133 0.439673
0.051957 0.86807 0.433158
0.0520333 0.870115 0.425605
0.0528725 0.872526 0.416617
0.0538338 0.875471 0.405631
0.0556649 0.879149 0.391104
0.0666819 0.883864 0.372244
0.0957809 0.890455 0.347387
0.125261 0.891585 0.322026
0.157183 0.889296 0.296208
0.19855 0.885115 0.266575
0.25153 0.878828 0.228336
0.328206 0.874495 0.177356
0.429389 0.869474 0.141497
0.52459 0.862364 0.162615
0.581384 0.858793 0.18822
0.625986 0.857252 0.214984
0.674388 0.853941 0.235325
0.722652 0.850568 0.250706
0.776364 0.845472 0.269932
0.839429 0.840177 0.288838
0.90164 0.829938 0.303258
0.942092 0.831113 0.307179
0.965148 0.83386 0.309972
0.972625 0.834531 0.315541
0.972793 0.834241 0.319524
0.97261 0.833906 0.319799
0.972503 0.8336 0.319585
0.972396 0.833249 0.319356
0.97229 0.832959 0.319158
0.972198 0.8327 0.318975
0.0690929 0.908705 0.485222
0.0688945 0.909926 0.48011
0.0683909 0.911513 0.474571
0.0677501 0.913039 0.468666
0.0673228 0.914733 0.461982
0.0675517 0.916594 0.453819
0.0681163 0.918929 0.443397
0.0694133 0.921675 0.430472
0.0722057 0.925322 0.41352
0.0884565 0.930571 0.392309
0.120974 0.934676 0.36434
0.14818 0.933837 0.342153
0.182773 0.931823 0.314626
0.231632 0.927291 0.279881
0.298482 0.922393 0.23447
0.390814 0.916396 0.180484
0.503349 0.908873 0.170932
0.578225 0.902327 0.196353
0.628275 0.899687 0.221866
0.673426 0.896712 0.248478
0.721218 0.893645 0.263493
0.769711 0.890318 0.281758
0.827466 0.885039 0.30135
0.892149 0.880125 0.318715
0.939529 0.872129 0.33225
0.968948 0.872679 0.336812
0.983352 0.872847 0.342153
0.983963 0.871733 0.346822
0.983795 0.871504 0.347295
0.983734 0.871382 0.347112
0.983764 0.871305 0.347127
0.98378 0.871168 0.347127
0.98381 0.871061 0.347127
0.0818799 0.941146 0.51667
0.0813001 0.942229 0.511925
0.080293 0.943496 0.506539
0.07953 0.944747 0.501122
0.0791028 0.946181 0.494652
0.0792248 0.947692 0.487053
0.0797131 0.949569 0.477668
0.0807202 0.951766 0.466224
0.0822156 0.954681 0.451072
0.0868391 0.958312 0.43093
0.108156 0.962615 0.404883
0.137545 0.963973 0.381521
0.167437 0.963394 0.357076
0.205737 0.961227 0.326223
0.264393 0.957198 0.286381
0.348669 0.952712 0.233005
0.457816 0.945113 0.191348
0.555581 0.93727 0.202426
0.622522 0.931075 0.229129
0.669215 0.927825 0.254887
0.715175 0.924285 0.276127
0.763317 0.920546 0.291463
0.812802 0.916747 0.309957
0.87628 0.911116 0.329519
0.931212 0.903044 0.346746
0.966705 0.900893 0.356451
0.985153 0.90016 0.362188
0.989578 0.899046 0.366537
0.989624 0.89868 0.368246
0.98941 0.898619 0.368185
0.989288 0.898558 0.367987
0.989258 0.898482 0.36791
0.989349 0.898436 0.368002
0.0910506 0.962814 0.545785
0.0911574 0.963455 0.5411
0.0905623 0.964248 0.536492
0.0898451 0.965133 0.531182
0.0890669 0.966171 0.525338
0.088777 0.967239 0.518181
0.0889754 0.968536 0.509377
0.0892805 0.970123 0.498116
0.0898756 0.972045 0.484092
0.0905013 0.974105 0.46569
0.096376 0.976516 0.440894
0.119448 0.97908 0.415183
0.149371 0.981353 0.393912
0.185306 0.98172 0.366018
0.230838 0.980621 0.330968
0.305486 0.977295 0.282704
0.406226 0.970016 0.228168
0.52195 0.959884 0.215732
0.599878 0.952453 0.232731
0.660075 0.94609 0.259556
0.705089 0.94081 0.283131
0.750973 0.93611 0.29691
0.799985 0.931792 0.313588
0.857542 0.926375 0.33315
0.914885 0.922057 0.350683
0.959014 0.914107 0.363439
0.983124 0.914107 0.374731
0.99173 0.913771 0.383078
0.99202 0.913756 0.386572
0.991836 0.913832 0.38674
0.99173 0.913848 0.386633
0.991669 0.913832 0.386557
0.991684 0.913802 0.386557
0.0905318 0.964874 0.554238
0.0909133 0.965454 0.549691
0.0910658 0.966079 0.545342
0.090898 0.966827 0.540398
0.0902876 0.967681 0.53463
0.0898604 0.968612 0.527581
0.0897383 0.969772 0.518807
0.090074 0.971145 0.507774
0.0905165 0.973007 0.49398
0.0910048 0.974975 0.476432
0.0926528 0.976577 0.45272
0.108248 0.979156 0.425361
0.135668 0.981842 0.407034
0.167254 0.983764 0.385138
0.205539 0.985153 0.357336
0.260731 0.984314 0.319661
0.354177 0.977905 0.26276
0.468925 0.967788 0.22974
0.561746 0.959106 0.233204
0.635233 0.950866 0.254078
0.690761 0.943954 0.27953
0.734691 0.93901 0.295491
0.780911 0.934157 0.309377
0.832425 0.929488 0.327047
0.895109 0.923766 0.344686
0.945998 0.914519 0.358907
0.975402 0.91429 0.372305
0.990646 0.914061 0.38439
0.99147 0.914183 0.391379
0.991287 0.914244 0.391897
0.99118 0.914275 0.391821
0.991135 0.91429 0.391791
0.991135 0.91429 0.391791
0.0898146 0.964324 0.559457
0.0899214 0.964858 0.555169
0.0901198 0.965484 0.550622
0.0903029 0.966125 0.546105
0.0901198 0.966964 0.54049
0.0898451 0.96788 0.533486
0.0896925 0.969009 0.524804
0.0898299 0.970382 0.514153
0.0902724 0.972076 0.500664
0.0907912 0.974227 0.48365
0.0915236 0.976043 0.460685
0.101244 0.978363 0.43151
0.129442 0.981292 0.411032
0.160464 0.983566 0.390097
