bundles/resolve-cinematic-luts/Phantom Luts/DJI/DJI Phntm Film LUTs - G3/Mavic 3 D-Log/Bleach Mavic 3.cube
TITLE "Generated by Resolve"
LUT_3D_SIZE 65
0.0251011 0.037995 0.0268101
0.0251011 0.037995 0.0268101
0.0251011 0.037995 0.0268101
0.0251011 0.037995 0.0268101
0.0251011 0.037995 0.0268101
0.0251011 0.037995 0.0268101
0.0251011 0.037995 0.0268101
0.0266423 0.0382544 0.0271
0.0290227 0.038529 0.027451
0.0340887 0.0393225 0.0283207
0.0366217 0.0399023 0.0284733
0.0437018 0.0407416 0.0276493
0.0523842 0.0406653 0.0275273
0.0610361 0.0411231 0.0277256
0.0692302 0.0415656 0.0281682
0.0766461 0.0419318 0.0285496
0.0840009 0.0424659 0.0292058
0.0920424 0.043183 0.0300145
0.10074 0.0435798 0.0305638
0.110231 0.0444343 0.0314183
0.121263 0.0453651 0.0322881
0.132998 0.0461585 0.032929
0.146044 0.0474861 0.0337987
0.161273 0.0487831 0.0348211
0.179263 0.0505226 0.0363928
0.19617 0.0520027 0.0373999
0.212848 0.0535134 0.0390784
0.231052 0.0546883 0.0401007
0.249714 0.0563363 0.0412451
0.267933 0.0576181 0.0420844
0.287572 0.0593881 0.0432898
0.306661 0.0609598 0.044358
0.327184 0.0625162 0.0452125
0.348562 0.0639963 0.0463569
0.370901 0.0651408 0.0475776
0.397101 0.0667124 0.048661
0.422599 0.0675212 0.0492256
0.449683 0.0687419 0.0501259
0.474372 0.0702678 0.0513619
0.498985 0.0725719 0.0534218
0.521675 0.0751507 0.055787
0.542123 0.0778363 0.0583505
0.562722 0.0809949 0.061326
0.581003 0.0846571 0.0642405
0.600336 0.0885023 0.0678264
0.619028 0.0917678 0.0720073
0.636103 0.095079 0.0750286
0.653437 0.0982528 0.0784924
0.671656 0.100923 0.0815595
0.690166 0.10396 0.0849317
0.709575 0.107546 0.088365
0.728099 0.112779 0.092256
0.746929 0.118166 0.0960098
0.763348 0.122667 0.0997024
0.7785 0.127474 0.102052
0.790707 0.130877 0.104723
0.793454 0.131868 0.105455
0.7944 0.132143 0.105669
0.7944 0.132143 0.105669
0.7944 0.132143 0.105669
0.7944 0.132143 0.105669
0.7944 0.132143 0.105669
0.7944 0.132143 0.105669
0.7944 0.132143 0.105669
0.7944 0.132143 0.105669
0.0251011 0.037995 0.0268101
0.0251011 0.037995 0.0268101
0.0251011 0.037995 0.0268101
0.0251011 0.037995 0.0268101
0.0251011 0.037995 0.0268101
0.0251011 0.037995 0.0268101
0.0251011 0.037995 0.0268101
0.0265812 0.0382544 0.0271
0.0295415 0.0386053 0.0275425
0.035172 0.0395361 0.0284733
0.0420844 0.0406653 0.0276799
0.0517281 0.0406806 0.0275883
0.0601968 0.0411231 0.0277256
0.068986 0.0415045 0.0281224
0.0768444 0.041825 0.0284428
0.0840772 0.0425116 0.0292363
0.0920424 0.0431983 0.0300145
0.10103 0.0436561 0.0306401
0.110811 0.0444648 0.0314336
0.122026 0.0454414 0.0323796
0.133898 0.0463111 0.033051
0.14728 0.0475776 0.0338445
0.162295 0.0488746 0.0348821
0.177417 0.0503243 0.0362249
0.194507 0.0518654 0.0373083
0.211902 0.0534218 0.038941
0.230137 0.054612 0.0400244
0.24976 0.0563058 0.0411994
0.26775 0.0575875 0.0420539
0.287556 0.0594186 0.0433204
0.307012 0.0610208 0.0444038
0.327825 0.0625162 0.0451667
0.349462 0.0640879 0.0464637
0.372519 0.0652171 0.0476081
0.39913 0.0666361 0.0485847
0.425284 0.067689 0.0493782
0.452384 0.0689555 0.0502937
0.47805 0.0705577 0.0516213
0.501717 0.0729229 0.0536965
0.524208 0.0755169 0.0561685
0.544472 0.0782483 0.0588235
0.565042 0.0814984 0.0617533
0.58381 0.0852674 0.0647746
0.602777 0.0890822 0.0682841
0.621668 0.0923323 0.0726482
0.638407 0.0954147 0.0753948
0.656428 0.0986954 0.078996
0.674342 0.101457 0.0821546
0.693172 0.104494 0.085481
0.71223 0.108232 0.0888533
0.730877 0.113436 0.0927596
0.748943 0.118654 0.0963455
0.765423 0.123217 0.100038
0.780468 0.127977 0.102266
0.790722 0.130861 0.104723
0.793713 0.131914 0.105501
0.7944 0.132143 0.105669
0.7944 0.132143 0.105669
0.7944 0.132143 0.105669
0.7944 0.132143 0.105669
0.7944 0.132143 0.105669
0.7944 0.132143 0.105669
0.7944 0.132143 0.105669
0.7944 0.132143 0.105669
0.7944 0.132143 0.105669
0.0251011 0.037995 0.0268101
0.0251011 0.037995 0.0268101
0.0251011 0.037995 0.0268101
0.0251011 0.037995 0.0268101
0.0251011 0.037995 0.0268101
0.0251011 0.037995 0.0268101
0.0251011 0.037995 0.0268101
0.0263981 0.0382239 0.0270695
0.0306706 0.0386969 0.0276799
0.0364843 0.0398718 0.0284886
0.0444038 0.0407416 0.0276646
0.0537118 0.0407263 0.0275273
0.0629587 0.0412757 0.027863
0.0716106 0.0417639 0.0283818
0.0797894 0.0421302 0.028809
0.0881361 0.0428473 0.029572
0.0971542 0.0432746 0.0302281
0.107042 0.0440986 0.0311131
0.118608 0.0452888 0.0321508
0.130495 0.0459754 0.0328069
0.144167 0.047364 0.0337224
0.158938 0.0486763 0.0347295
0.173831 0.0500496 0.0359503
0.191272 0.0516823 0.037232
0.209216 0.053193 0.0387121
0.228153 0.0544747 0.0399176
0.247318 0.0561227 0.041062
0.265599 0.0574197 0.0419165
0.285756 0.0592203 0.0431983
0.305028 0.060853 0.0443122
0.326085 0.062501 0.0452125
0.347951 0.0639353 0.0463111
0.370748 0.0651408 0.0475776
0.397238 0.0666972 0.0486763
0.423743 0.0675212 0.0492409
0.450996 0.068864 0.0502174
0.476753 0.0704051 0.0514839
0.500481 0.0727092 0.0535286
0.522957 0.075349 0.0560311
0.543465 0.0780194 0.0585336
0.563836 0.0812695 0.0615702
0.582742 0.0850233 0.0645457
0.601587 0.088777 0.0680247
0.620172 0.0920119 0.072282
0.636744 0.0951247 0.0751049
0.654093 0.0982986 0.0785534
0.67248 0.101122 0.0817578
0.690181 0.104005 0.0849775
0.709163 0.107362 0.0882429
0.727672 0.112551 0.0920882
0.746242 0.117937 0.0958267
0.76257 0.122362 0.0995041
0.777539 0.127062 0.101854
0.7897 0.130556 0.104524
0.792966 0.131762 0.105394
0.7944 0.132143 0.105669
0.7944 0.132143 0.105669
0.7944 0.132143 0.105669
0.7944 0.132143 0.105669
0.7944 0.132143 0.105669
0.7944 0.132143 0.105669
0.7944 0.132143 0.105669
0.7944 0.132143 0.105669
0.7944 0.132143 0.105669
0.7944 0.132143 0.105669
0.0251011 0.037995 0.0268101
0.0251011 0.037995 0.0268101
0.0251011 0.037995 0.0268101
0.0251011 0.037995 0.0268101
0.0251011 0.037995 0.0268101
0.0251011 0.037995 0.0268101
0.0251011 0.037995 0.0268101
0.025803 0.0381018 0.0269322
0.0307164 0.0387274 0.0276951
0.0366522 0.0399176 0.0284581
0.0454566 0.0406806 0.0275731
0.0548562 0.0407111 0.0274662
0.0646525 0.0413825 0.0280003
0.0736553 0.0418555 0.0284733
0.0819257 0.0423133 0.0290227
0.0912032 0.0431373 0.029984
0.100633 0.0435035 0.030518
0.112047 0.0446937 0.0315862
0.124361 0.045594 0.0324865
0.137331 0.0467536 0.033341
0.152132 0.0481422 0.034287
0.167025 0.049424 0.0353552
0.183978 0.0510567 0.0368658
0.201846 0.0525216 0.037995
0.221057 0.0541543 0.0396735
0.240391 0.055436 0.0406043
0.25922 0.0569924 0.0416724
0.278935 0.0586862 0.0428931
0.297917 0.0602426 0.0438392
0.31902 0.0619364 0.0449073
0.340475 0.0634012 0.0458228
0.36318 0.0649577 0.0474861
0.388144 0.0661936 0.0483253
0.414343 0.0670329 0.0488441
0.442252 0.0682231 0.0497597
0.469032 0.0700236 0.051194
0.492973 0.0718853 0.0529335
0.515969 0.0743572 0.0549477
0.53669 0.0770733 0.0574044
0.55787 0.0803388 0.0607614
0.576822 0.0837873 0.063508
0.595422 0.0875563 0.0668803
0.614374 0.090837 0.0710613
0.631327 0.0943465 0.0744182
0.648539 0.0973678 0.0774853
0.666194 0.100023 0.0806897
0.684474 0.103105 0.0840162
0.702617 0.105913 0.0870527
0.721279 0.110597 0.0908675
0.740078 0.11603 0.0944076
0.757061 0.120714 0.0983139
0.772274 0.125338 0.100999
0.787396 0.129809 0.104036
0.791821 0.131365 0.105119
0.7944 0.132143 0.105669
0.7944 0.132143 0.105669
0.7944 0.132143 0.105669
0.7944 0.132143 0.105669
0.7944 0.132143 0.105669
0.7944 0.132143 0.105669
0.7944 0.132143 0.105669
0.7944 0.132143 0.105669
0.7944 0.132143 0.105669
0.7944 0.132143 0.105669
0.7944 0.132143 0.105669
0.0251011 0.037995 0.0268101
0.0251011 0.037995 0.0268101
0.0251011 0.037995 0.0268101
0.0251011 0.037995 0.0268101
0.0251011 0.037995 0.0268101
0.0251011 0.037995 0.0268101
0.0251011 0.037995 0.0268101
0.0255589 0.0380713 0.0268864
0.0306249 0.0387121 0.0276646
0.0371557 0.0400092 0.0283665
0.0464332 0.0406806 0.0275883
0.0563363 0.0407568 0.0274815
0.0659342 0.0414588 0.0280766
0.0749828 0.041825 0.0284123
0.0841382 0.0425116 0.0292363
0.0935836 0.0430915 0.0299992
0.10425 0.0438239 0.0308232
0.116732 0.0450294 0.0318608
0.128695 0.0458076 0.0326696
0.143297 0.0473487 0.0337072
0.158007 0.0486305 0.0347143
0.174853 0.0501717 0.0360723
0.192203 0.0517433 0.037232
0.211246 0.0532998 0.0388037
0.230243 0.054551 0.0399786
0.249729 0.05626 0.0411536
0.269413 0.0576944 0.0421302
0.289036 0.0596017 0.0434272
0.309102 0.0611582 0.04448
0.330602 0.0626078 0.0452125
0.351522 0.0642863 0.0466468
0.376028 0.0654459 0.0477302
0.401724 0.0664988 0.0484474
0.429694 0.0679179 0.0496376
0.456947 0.0692607 0.0505226
0.482033 0.0708934 0.0520485
0.505867 0.0733501 0.0540627
0.527291 0.0759594 0.0565652
0.548211 0.0787976 0.0593881
0.567391 0.0820172 0.06215
0.585702 0.0856184 0.0650339
0.604883 0.0894942 0.068574
0.62237 0.0925002 0.0727855
0.639506 0.095552 0.0755779
0.656535 0.0986954 0.0790265
0.67422 0.101534 0.0822156
0.692592 0.104326 0.0854047
0.710216 0.107668 0.0884718
0.729183 0.11313 0.0925154
0.746395 0.117952 0.0958419
0.763043 0.12253 0.0996262
0.777234 0.12694 0.101793
0.7888 0.130251 0.104326
0.792935 0.131762 0.105409
0.7944 0.132143 0.105669
0.7944 0.132143 0.105669
0.7944 0.132143 0.105669
0.7944 0.132143 0.105669
0.7944 0.132143 0.105669
0.7944 0.132143 0.105669
0.7944 0.132143 0.105669
0.7944 0.132143 0.105669
0.7944 0.132143 0.105669
0.7944 0.132143 0.105669
0.7944 0.132143 0.105669
0.0251011 0.037995 0.0268101
0.0251011 0.037995 0.0268101
0.0251011 0.037995 0.0268101
0.0251011 0.037995 0.0268101
0.0251011 0.037995 0.0268101
0.0251011 0.037995 0.0268101
0.0251011 0.037995 0.0268101
0.0257115 0.0380713 0.0269017
0.0302434 0.0386816 0.0276188
0.0364691 0.0398871 0.0284886
0.0455634 0.0407111 0.0276188
0.055436 0.0407568 0.0274815
0.0651255 0.0414588 0.0280766
0.0749218 0.0417945 0.028397
0.0842145 0.0424964 0.0292515
0.0945144 0.0431373 0.0300755
0.105486 0.0440223 0.0310521
0.11809 0.0452125 0.0320592
0.131594 0.046067 0.0328527
0.145846 0.0474556 0.0337682
0.16202 0.0487984 0.0348211
0.178958 0.0505226 0.0363928
0.196567 0.0522164 0.0376745
0.216297 0.0537118 0.0392615
0.235218 0.0548714 0.0402075
0.254795 0.0567178 0.0415045
0.274571 0.05832 0.0426337
0.294331 0.0599069 0.0436103
0.314977 0.0615702 0.0446632
0.335378 0.0630961 0.0456092
0.358907 0.0647135 0.0471046
0.3823 0.0658427 0.0480354
0.409567 0.0667582 0.0486305
0.43743 0.06804 0.0497902
0.463157 0.0696422 0.0508583
0.488914 0.0713664 0.0525826
0.511131 0.0738384 0.0544747
0.532616 0.0767987 0.0571756
0.553307 0.0796826 0.06009
0.571786 0.0829633 0.0628214
0.590661 0.0866255 0.0660716
0.608484 0.0902724 0.0691691
0.626551 0.0935225 0.0735485
0.643168 0.0963455 0.0764019
0.660288 0.0992447 0.0796826
0.67837 0.102129 0.082887
0.695613 0.104707 0.085893
0.713878 0.108598 0.0890364
0.73283 0.113863 0.09308
0.749355 0.1187 0.0963455
0.765743 0.123293 0.100038
0.779614 0.127779 0.10219
0.789456 0.13051 0.10454
0.79379 0.131945 0.105516
0.7944 0.132143 0.105669
0.7944 0.132143 0.105669
0.7944 0.132143 0.105669
0.7944 0.132143 0.105669
0.7944 0.132143 0.105669
0.7944 0.132143 0.105669
0.7944 0.132143 0.105669
0.7944 0.132143 0.105669
0.7944 0.132143 0.105669
0.7944 0.132143 0.105669
0.7944 0.132143 0.105669
0.0251011 0.037995 0.0268101
0.0251011 0.037995 0.0268101
0.0251011 0.037995 0.0268101
0.0251011 0.037995 0.0268101
0.0251011 0.037995 0.0268101
0.0251011 0.037995 0.0268101
0.0251011 0.037995 0.0268101
0.0251011 0.037995 0.0267948
0.02916 0.0386053 0.027512
0.0354925 0.0396277 0.0284886
0.0436713 0.0406806 0.0275883
0.0534371 0.0407263 0.0275273
0.0636606 0.0413062 0.027924
0.0737316 0.0418708 0.0285039
0.0837873 0.0424506 0.0291905
0.0944381 0.0431373 0.0300603
0.105287 0.0439765 0.0310216
0.118807 0.0453346 0.0321813
0.132326 0.0461891 0.032929
0.147509 0.0476081 0.0338598
0.164096 0.049073 0.0350347
0.181064 0.050782 0.0366064
0.199313 0.0522774 0.0377356
0.218662 0.0538949 0.0393835
0.238102 0.0552529 0.0404822
0.258412 0.0569772 0.0416876
0.278111 0.0586862 0.0429236
0.298085 0.0602426 0.0438392
0.318135 0.0619059 0.0448615
0.339849 0.0632792 0.045716
0.363195 0.0649424 0.0474403
0.387472 0.0661479 0.0482948
0.414801 0.0671397 0.0489509
0.441459 0.0681773 0.0497597
0.468711 0.0699779 0.051133
0.492851 0.0718547 0.052903
0.51519 0.0742199 0.0548257
0.536171 0.076997 0.0573129
0.557 0.0801709 0.0606088
0.57586 0.08365 0.0633707
0.594079 0.0873732 0.0667124
0.612512 0.0906233 0.0708324
0.629557 0.0940414 0.0740978
0.64564 0.0968185 0.0768902
0.663783 0.0996109 0.0802319
0.680995 0.102541 0.0833906
0.698833 0.105074 0.0863508
0.717113 0.109453 0.0897841
0.735759 0.114641 0.0934462
0.752514 0.119509 0.0972457
0.768231 0.124117 0.100465
0.782467 0.128328 0.102602
0.790005 0.130694 0.104677
0.7944 0.132143 0.105669
0.7944 0.132143 0.105669
0.7944 0.132143 0.105669
0.7944 0.132143 0.105669
0.7944 0.132143 0.105669
0.7944 0.132143 0.105669
0.7944 0.132143 0.105669
0.7944 0.132143 0.105669
0.7944 0.132143 0.105669
0.7944 0.132143 0.105669
0.7944 0.132143 0.105669
0.7944 0.132143 0.105669
0.0251011 0.037995 0.0268101
0.0251011 0.037995 0.0268101
0.0252232 0.0382849 0.0269169
0.0252995 0.0384527 0.0269932
0.0253452 0.0385443 0.027039
0.0252842 0.0383764 0.026978
0.0252079 0.0382239 0.0269017
0.0251011 0.037995 0.0268101
0.0280156 0.038468 0.0273289
0.0343786 0.039353 0.028336
0.0416419 0.0406348 0.0276646
0.0520333 0.0410468 0.0274815
0.0623178 0.0416571 0.0280308
0.0728466 0.0422675 0.0285954
0.0836805 0.0429541 0.0292821
0.0940414 0.0435035 0.0300145
0.105623 0.0442664 0.0309911
0.118776 0.0453193 0.0321813
0.132952 0.0461738 0.0329442
0.148379 0.0476844 0.0339055
0.164614 0.0491951 0.0351415
0.182696 0.0510567 0.03682
0.200702 0.052369 0.0377966
0.22121 0.0541238 0.0396429
0.240909 0.0554818 0.0406195
0.26099 0.0570993 0.0417334
0.281117 0.0590066 0.0431373
0.300557 0.0604105 0.0439765
0.321935 0.062089 0.0449989
0.342275 0.0635843 0.0459907
0.366339 0.0647898 0.0472877
0.391882 0.0663462 0.0484169
0.418173 0.067277 0.0490425
0.44593 0.0684672 0.0499275
0.471855 0.070161 0.0512703
0.49659 0.0722972 0.0532235
0.519036 0.0747845 0.0553445
0.539193 0.0774395 0.057847
0.559945 0.080766 0.0611124
0.578408 0.0842451 0.0638285
0.596506 0.0877241 0.0670634
0.614969 0.090898 0.0710918
0.631785 0.0944381 0.0745098
0.648463 0.0973526 0.0775006
0.666087 0.100008 0.0806592
0.684062 0.102968 0.0838941
0.701411 0.10547 0.0867933
0.720073 0.110185 0.090547
0.738201 0.115511 0.0940414
0.75494 0.119966 0.0976883
0.770184 0.124758 0.100801
0.784298 0.128954 0.103319
0.790661 0.130907 0.104814
0.7944 0.132143 0.105669
0.7944 0.132143 0.105669
0.7944 0.132143 0.105669
0.7944 0.132143 0.105669
0.7944 0.132143 0.105669
0.7944 0.132143 0.105669
0.7944 0.132143 0.105669
0.7944 0.132143 0.105669
0.7944 0.132143 0.105669
0.7944 0.132143 0.105669
0.7944 0.132143 0.105669
0.7944 0.132143 0.105669
0.0259403 0.0400244 0.0277409
0.026154 0.0406806 0.027985
0.026688 0.0415808 0.0286107
0.0272526 0.0422217 0.0291905
0.0275273 0.0425269 0.0294194
0.0277256 0.0427253 0.0295567
0.0277714 0.0427863 0.0295872
0.0276646 0.0425727 0.0294804
0.0291142 0.0429084 0.0297246
0.0345312 0.0444343 0.0298009
0.0408942 0.0460059 0.0300908
0.0491493 0.0475166 0.0288701
0.0609445 0.0477913 0.0285344
0.0722972 0.0489052 0.0289921
0.0840009 0.0486763 0.0291752
0.0961624 0.0487526 0.0301213
0.108324 0.0486915 0.0311131
0.121965 0.0489815 0.0320897
0.136568 0.0499428 0.0332341
0.151492 0.0507668 0.0341955
0.168734 0.0519722 0.0356146
0.186084 0.0530251 0.0372015
0.204883 0.0543069 0.0388037
0.224323 0.055314 0.0399939
0.244129 0.0567636 0.0410163
0.263676 0.057969 0.0420691
0.283085 0.0590677 0.0431373
0.303716 0.0606241 0.0441291
0.324071 0.0624094 0.0452277
0.345495 0.0637522 0.0461433
0.369787 0.0649424 0.047425
0.394659 0.0665904 0.0486
0.423163 0.0674754 0.0492103
0.449821 0.0687419 0.0501411
0.475959 0.0703136 0.0513771
0.500679 0.0727245 0.0535286
0.521691 0.0751354 0.055787
0.542992 0.0778973 0.0584421
0.562799 0.0810712 0.0613565
0.581247 0.0848249 0.0643626
0.599557 0.0882734 0.0676432
0.617411 0.0915389 0.0716869
0.634699 0.0948959 0.074876
0.651255 0.0978408 0.0779889
0.668956 0.100496 0.0811017
0.686366 0.103227 0.0842298
0.704372 0.106065 0.0873121
0.723201 0.111299 0.0912337
0.740932 0.116228 0.0945296
0.757382 0.12076 0.0983749
0.772274 0.125307 0.100999
0.785199 0.129244 0.10367
0.791623 0.131304 0.105135
0.7944 0.132143 0.105669
0.7944 0.132143 0.105669
0.7944 0.132143 0.105669
0.7944 0.132143 0.105669
0.7944 0.132143 0.105669
0.7944 0.132143 0.105669
0.7944 0.132143 0.105669
0.7944 0.132143 0.105669
0.7944 0.132143 0.105669
0.7944 0.132143 0.105669
0.7944 0.132143 0.105669
0.7944 0.132143 0.105669
0.0292058 0.0460059 0.0308537
0.0294957 0.0469673 0.0309911
0.0300145 0.0480201 0.0314794
0.0303349 0.0486915 0.0317998
0.0305943 0.0493935 0.032105
0.0307164 0.0496529 0.0322423
0.0306706 0.0495155 0.0321965
0.0306554 0.049485 0.032166
0.0314641 0.0495155 0.0322271
0.035996 0.0511177 0.0323949
0.043946 0.0525368 0.0326543
0.0500954 0.0548714 0.0321508
0.0575265 0.0569009 0.0301213
0.0697032 0.0579995 0.0295262
0.0826123 0.0589151 0.0299077
0.0949111 0.0595102 0.0303807
0.109697 0.0593423 0.0312657
0.125811 0.0587015 0.0322728
0.141283 0.0576791 0.0332647
0.158694 0.057023 0.0348363
0.174777 0.0575875 0.035996
0.192798 0.0585336 0.0377966
0.211276 0.0595102 0.0394751
0.229877 0.0604562 0.0412604
0.249668 0.0609293 0.0420691
0.269047 0.0616159 0.0431373
0.288121 0.0622721 0.0439612
0.307347 0.0628061 0.0448768
0.327718 0.0633555 0.0455634
0.349599 0.0642863 0.0465858
0.373144 0.0654154 0.0476997
0.399481 0.0665751 0.0485084
0.426627 0.0677958 0.0494698
0.453513 0.0690623 0.0504005
0.4804 0.0706951 0.0517739
0.503304 0.0731365 0.0538186
0.525795 0.0756695 0.0562905
0.54638 0.0785077 0.0591287
0.565637 0.0817121 0.0619059
0.584497 0.0854658 0.0649119
0.602457 0.0889601 0.0681926
0.620615 0.092256 0.0724651
0.637171 0.0951095 0.0751202
0.653864 0.0981918 0.0784161
0.671672 0.101091 0.0816663
0.688899 0.103639 0.0846876
0.707774 0.107256 0.0881056
0.726406 0.112154 0.091783
0.743435 0.117052 0.09514
0.760067 0.121599 0.0990158
0.774777 0.125994 0.101335
0.78616 0.129488 0.103883
0.792584 0.131655 0.105364
0.7944 0.132143 0.105669
0.7944 0.132143 0.105669
0.7944 0.132143 0.105669
0.7944 0.132143 0.105669
0.7944 0.132143 0.105669
0.7944 0.132143 0.105669
0.7944 0.132143 0.105669
0.7944 0.132143 0.105669
0.7944 0.132143 0.105669
0.7944 0.132143 0.105669
0.7944 0.132143 0.105669
0.7944 0.132143 0.105669
0.0325322 0.052903 0.033814
0.0330053 0.0543069 0.0344701
0.0333562 0.0555428 0.0348669
0.033753 0.0564736 0.0352026
0.0340276 0.0571298 0.0353704
0.0340581 0.0572213 0.0353857
0.0341192 0.0572976 0.0354314
0.0340276 0.057023 0.0353704
0.0350652 0.0571298 0.035584
0.0390326 0.0580911 0.0358587
0.0442969 0.0596628 0.0352026
0.0536355 0.0615396 0.0352178
0.062089 0.0637827 0.0330968
0.0717327 0.0661784 0.0314641
0.0845655 0.0676432 0.031281
0.0975509 0.0682536 0.0314336
0.111452 0.0696574 0.0321355
0.126864 0.0697642 0.0327001
0.144121 0.0690471 0.0333257
0.162615 0.0679026 0.0344549
0.181399 0.0665599 0.0363012
0.200275 0.0661326 0.0381323
0.218936 0.0655833 0.0404669
0.238666 0.0666667 0.0424506
0.258 0.0673075 0.0436255
0.277455 0.0676585 0.0447852
0.297398 0.068452 0.0465248
0.315984 0.0683452 0.0473487
0.337087 0.0690623 0.0483406
0.358114 0.0688182 0.0487221
0.380362 0.0690929 0.0495155
0.405753 0.0687572 0.0495308
0.432609 0.0690623 0.0501106
0.458854 0.0694133 0.0506142
0.483757 0.071046 0.0522316
0.507362 0.0733501 0.0539712
0.529 0.0762188 0.0568093
0.549752 0.0790265 0.0595865
0.569253 0.0823987 0.0623484
0.587167 0.0858778 0.0653239
0.605585 0.0896468 0.0686961
0.623682 0.0927596 0.0729534
0.639918 0.0955978 0.0756237
0.656886 0.0987411 0.079057
0.674342 0.101549 0.0822156
0.692317 0.104189 0.085359
0.710826 0.108248 0.0887465
0.728817 0.113024 0.0924086
0.74609 0.117861 0.0957504
0.762875 0.122484 0.0995804
0.777234 0.126909 0.101793
0.787274 0.129809 0.104128
0.793835 0.13196 0.105547
0.7944 0.132143 0.105669
0.7944 0.132143 0.105669
0.7944 0.132143 0.105669
0.7944 0.132143 0.105669
0.7944 0.132143 0.105669
0.7944 0.132143 0.105669
0.7944 0.132143 0.105669
0.7944 0.132143 0.105669
0.7944 0.132143 0.105669
0.7944 0.132143 0.105669
0.7944 0.132143 0.105669
0.7944 0.132143 0.105669
0.0353094 0.0607919 0.0365148
0.0361639 0.0620584 0.0374762
0.0367895 0.0635843 0.0380713
0.0373541 0.0645457 0.0386358
0.0375372 0.0650645 0.038819
0.037705 0.0654307 0.0389563
0.0375982 0.0652476 0.03888
0.0375525 0.0651408 0.0388342
0.0380102 0.0651408 0.0389868
0.041886 0.0655528 0.0395972
0.0472572 0.0676585 0.0396887
0.053666 0.06981 0.0377356
0.0661784 0.0718395 0.0368505
0.0771344 0.0742504 0.0335699
0.0891737 0.0763409 0.0327764
0.10338 0.0777905 0.0327611
0.118013 0.0784466 0.0332494
0.134447 0.0796368 0.0339513
0.151476 0.0797436 0.0343786
0.170062 0.0800031 0.0353246
0.189029 0.0793774 0.0360723
0.207568 0.0779889 0.0377813
0.227832 0.0767224 0.0405432
0.24744 0.0757305 0.0426795
0.268421 0.0756085 0.0451057
0.288151 0.0759289 0.0469215
0.307378 0.076173 0.0485847
0.328084 0.0762646 0.0498207
0.348867 0.076524 0.0512245
0.370916 0.0763714 0.0523232
0.394553 0.0760052 0.0529793
0.420127 0.0753185 0.0531319
0.445609 0.0749523 0.053193
0.469123 0.0744488 0.0532235
0.491707 0.0746777 0.054078
0.513207 0.0757458 0.0554971
0.532601 0.0768749 0.0572213
0.553826 0.0797894 0.0601816
0.572656 0.0831311 0.0628672
0.590661 0.0866712 0.0661326
0.60885 0.090425 0.069276
0.626581 0.093431 0.0734875
0.643137 0.0963455 0.0763867
0.660487 0.0992752 0.0796979
0.678096 0.101961 0.0827497
0.695354 0.104677 0.0859236
0.713542 0.108888 0.0890669
0.731853 0.113695 0.092958
0.749401 0.11873 0.0964218
0.76527 0.123232 0.100023
0.779858 0.12781 0.10222
0.788739 0.130266 0.104417
0.7944 0.132143 0.105669
0.7944 0.132143 0.105669
0.7944 0.132143 0.105669
0.7944 0.132143 0.105669
0.7944 0.132143 0.105669
0.7944 0.132143 0.105669
0.7944 0.132143 0.105669
0.7944 0.132143 0.105669
0.7944 0.132143 0.105669
0.7944 0.132143 0.105669
0.7944 0.132143 0.105669
0.7944 0.132143 0.105669
0.7944 0.132143 0.105669
0.0391241 0.0695811 0.0403449
0.0399023 0.0708782 0.041001
0.0406043 0.0725414 0.0415198
0.0407874 0.0734264 0.0417182
0.041062 0.0745708 0.0420081
0.0410925 0.0746929 0.0420233
0.0411078 0.0747387 0.0420233
0.041062 0.0746471 0.0419776
0.0412451 0.0745556 0.0420081
0.0448005 0.075288 0.0428016
0.0505074 0.0767987 0.0435798
0.0562905 0.0791028 0.0422065
0.0665446 0.0821241 0.0408942
0.0799878 0.0839246 0.037583
0.0936599 0.0863813 0.034638
0.107958 0.0882582 0.0336156
0.124529 0.0896773 0.0335699
0.143069 0.090547 0.0348821
0.161135 0.0910964 0.0357519
0.181247 0.0915389 0.03682
0.200565 0.0910201 0.0377661
0.220432 0.090486 0.0390326
0.239231 0.0897841 0.04065
0.259541 0.0883803 0.0429389
0.280171 0.0881361 0.0453498
0.299367 0.086717 0.0478828
0.320806 0.0869917 0.0503853
0.340841 0.0867628 0.0520485
0.362921 0.0866712 0.0538491
0.386297 0.0861372 0.0552682
0.412192 0.0853132 0.0561379
0.4374 0.0842756 0.0567941
0.462104 0.0838483 0.057496
0.484596 0.0831769 0.0578622
0.505852 0.0832227 0.0589151
0.525612 0.0834974 0.0599832
0.544198 0.084535 0.0616465
0.561532 0.0852064 0.0630045
0.578729 0.0869612 0.0653239
0.595697 0.088777 0.0679026
0.613016 0.0920882 0.0705425
0.630091 0.0940414 0.0741283
0.64625 0.0968948 0.0769665
0.66363 0.0995804 0.0801862
0.681071 0.10251 0.0833906
0.698405 0.105119 0.0863661
0.71696 0.109712 0.0899214
0.73521 0.114488 0.0933089
0.752346 0.119539 0.097322
0.767758 0.123873 0.100343
0.78146 0.128115 0.102434
0.790402 0.130816 0.104799
0.7944 0.132143 0.105669
0.7944 0.132143 0.105669
0.7944 0.132143 0.105669
0.7944 0.132143 0.105669
0.7944 0.132143 0.105669
0.7944 0.132143 0.105669
0.7944 0.132143 0.105669
0.7944 0.132143 0.105669
0.7944 0.132143 0.105669
0.7944 0.132143 0.105669
0.7944 0.132143 0.105669
0.7944 0.132143 0.105669
0.7944 0.132143 0.105669
0.0428321 0.0795453 0.0437476
0.0437171 0.081529 0.0446174
0.0441291 0.0830396 0.0449989
0.0446021 0.0845655 0.0454871
0.0448157 0.0854658 0.0456703
0.0448615 0.0858473 0.0457465
0.044892 0.0860304 0.0457771
0.0448157 0.0856489 0.0456703
0.044831 0.0857557 0.0456855
