bundles/resolve-cinematic-luts/Phantom Luts/DJI/DJI Phntm Film LUTs - G3/Mavic 3 D-Log/Bleach Mavic 3.cube
TITLE "Generated by Resolve"
LUT_3D_SIZE 5
0.0251011 0.037995 0.0268101
0.0840009 0.0424659 0.0292058
0.327184 0.0625162 0.0452125
0.671656 0.100923 0.0815595
0.7944 0.132143 0.105669
0.0522774 0.114519 0.0525368
0.127138 0.13904 0.0421149
0.532998 0.129488 0.07393
0.783978 0.160006 0.120012
0.816083 0.167346 0.126116
0.10544 0.42446 0.092256
0.108385 0.442802 0.0946365
0.61387 0.597635 0.114092
0.91931 0.694911 0.219471
0.935668 0.724849 0.219333
0.321813 0.754482 0.302937
0.321172 0.753658 0.302083
0.672496 0.793774 0.366995
0.887083 0.878523 0.37998
0.914794 0.889754 0.399634
0.333242 0.766339 0.317479
0.333242 0.766339 0.317479
0.723339 0.824002 0.418723
0.879652 0.885039 0.406897
0.913466 0.89456 0.435203
0.0235752 0.0407416 0.0518654
0.0861524 0.0425116 0.057908
0.386313 0.0712902 0.0852522
0.750805 0.149233 0.163943
0.863905 0.187533 0.225254
0.0396887 0.116609 0.0962234
0.126558 0.137118 0.123857
0.570703 0.134356 0.122255
0.853407 0.202777 0.221546
0.878294 0.217029 0.256245
0.111147 0.431876 0.111925
0.115206 0.450019 0.117708
0.619486 0.597025 0.118105
0.920211 0.690883 0.225544
0.936996 0.717739 0.232364
0.316686 0.749493 0.297002
0.315343 0.748196 0.295964
0.665003 0.787549 0.355001
0.886656 0.873274 0.362448
0.916121 0.884672 0.37644
0.336767 0.768139 0.340124
0.333761 0.766751 0.322301
0.715846 0.821241 0.421653
0.873137 0.883421 0.39762
0.913466 0.89456 0.43563
0.0178073 0.0526589 0.17322
0.0518654 0.0422827 0.216648
0.449592 0.0640269 0.28719
0.783993 0.110155 0.401434
0.865797 0.12697 0.509651
0.0145418 0.0692607 0.259983
0.0461891 0.0536049 0.312566
0.572351 0.0749828 0.406409
0.842527 0.121523 0.517159
0.861631 0.128435 0.561898
0.035111 0.42594 0.369604
0.0352178 0.440085 0.386801
0.634958 0.619821 0.599374
0.955032 0.682933 0.647517
0.96173 0.707973 0.674372
0.228626 0.748363 0.50898
0.226749 0.746181 0.507561
0.630655 0.803555 0.630304
0.899718 0.878782 0.665324
0.948928 0.893782 0.686549
0.225162 0.784726 0.586343
0.233173 0.783673 0.573358
0.686748 0.857191 0.688228
0.907118 0.918608 0.771557
0.949752 0.927794 0.752605
0.0123293 0.0783703 0.368307
0.0130159 0.0789807 0.409766
0.426276 0.0761883 0.5935
0.811368 0.137758 0.649531
0.883558 0.154803 0.707469
0.0118868 0.100343 0.492943
0.0123598 0.105196 0.518883
0.551003 0.0951095 0.67277
0.871748 0.156161 0.711406
0.89398 0.163287 0.7393
0.00836194 0.376669 0.573144
0.00727855 0.390372 0.580118
0.565515 0.554177 0.788449
0.957763 0.624643 0.846235
0.962142 0.648356 0.859251
0.150896 0.73669 0.687526
0.149523 0.732937 0.686381
0.478538 0.776562 0.73579
0.90956 0.885771 0.849363
0.962402 0.904921 0.861509
0.179477 0.800656 0.719295
0.180377 0.79939 0.711696
0.570947 0.84155 0.749279
0.93431 0.939818 0.881392
0.962631 0.946746 0.883711
0.0124819 0.119417 0.553323
0.0134585 0.133974 0.585153
0.334813 0.0883192 0.716777
0.869337 0.187152 0.811231
0.933211 0.224231 0.841169
0.0147707 0.165866 0.631159
0.0155489 0.17879 0.644038
0.479118 0.13872 0.780407
0.922042 0.222614 0.840986
0.933211 0.224231 0.841169
0.0117189 0.393133 0.656855
0.0109102 0.406378 0.658854
0.491966 0.530312 0.840208
0.962127 0.625101 0.915221
0.961868 0.646922 0.916014
0.126925 0.708705 0.743908
0.122698 0.703685 0.742107
0.428428 0.746624 0.79176
0.900114 0.869871 0.89279
0.962295 0.88246 0.898253
0.164965 0.79971 0.757397
0.166293 0.800122 0.754513
0.425422 0.81239 0.76788
0.923476 0.937865 0.899077
0.962692 0.946365 0.905501
