bundles/resolve-cinematic-luts/Phantom Luts/DJI/DJI Phntm Film LUTs - G3/Mavic 3 D-Log/Bleach Mavic 3.cube
TITLE "Generated by Resolve"
LUT_3D_SIZE 9
0.0251011 0.037995 0.0268101
0.0290227 0.038529 0.027451
0.0840009 0.0424659 0.0292058
0.179263 0.0505226 0.0363928
0.327184 0.0625162 0.0452125
0.521675 0.0751507 0.055787
0.671656 0.100923 0.0815595
0.793454 0.131868 0.105455
0.7944 0.132143 0.105669
0.0259403 0.0400244 0.0277409
0.0291142 0.0429084 0.0297246
0.108324 0.0486915 0.0311131
0.244129 0.0567636 0.0410163
0.423163 0.0674754 0.0492103
0.599557 0.0882734 0.0676432
0.740932 0.116228 0.0945296
0.7944 0.132143 0.105669
0.7944 0.132143 0.105669
0.0522774 0.114519 0.0525368
0.0542916 0.123903 0.0538949
0.127138 0.13904 0.0421149
0.340978 0.143465 0.0479591
0.532998 0.129488 0.07393
0.663188 0.144533 0.100999
0.783978 0.160006 0.120012
0.811261 0.159655 0.120958
0.816083 0.167346 0.126116
0.083711 0.257679 0.0766918
0.0860304 0.27158 0.0786145
0.118471 0.281666 0.0842908
0.328862 0.319936 0.0448768
0.646723 0.36611 0.0990768
0.824781 0.424247 0.193805
0.932204 0.451637 0.26099
0.945296 0.471 0.264744
0.943938 0.50808 0.256123
0.10544 0.42446 0.092256
0.107881 0.439109 0.0940719
0.108385 0.442802 0.0946365
0.320684 0.521233 0.143435
0.61387 0.597635 0.114092
0.817319 0.656657 0.167575
0.91931 0.694911 0.219471
0.937926 0.712703 0.225788
0.935668 0.724849 0.219333
0.220951 0.634211 0.199771
0.229572 0.645075 0.208331
0.230121 0.645914 0.208667
0.285023 0.66067 0.227054
0.627039 0.719799 0.249256
0.79263 0.778881 0.231617
0.916503 0.807019 0.266239
0.928847 0.819623 0.264149
0.928115 0.827604 0.273518
0.321813 0.754482 0.302937
0.322957 0.755825 0.304524
0.321172 0.753658 0.302083
0.31809 0.751095 0.298955
0.672496 0.793774 0.366995
0.788006 0.842039 0.335943
0.887083 0.878523 0.37998
0.915358 0.887419 0.395193
0.914794 0.889754 0.399634
0.333242 0.766339 0.317479
0.333242 0.766339 0.317479
0.333242 0.766339 0.317479
0.340597 0.767147 0.319539
0.706462 0.817777 0.423301
0.806485 0.859892 0.382055
0.876936 0.884398 0.402426
0.913619 0.89456 0.446403
0.913466 0.89456 0.435203
0.333242 0.766339 0.317479
0.333242 0.766339 0.317479
0.333242 0.766339 0.317479
0.376486 0.770275 0.32845
0.723339 0.824002 0.418723
0.815824 0.863584 0.380972
0.879652 0.885039 0.406897
0.913619 0.894545 0.446769
0.913466 0.89456 0.435203
0.0250401 0.0380407 0.0273594
0.0268559 0.0383307 0.0271763
0.0837873 0.0424659 0.0291905
0.184497 0.0511025 0.0369116
0.336614 0.0631723 0.0456397
0.53135 0.0766766 0.0571145
0.679805 0.102312 0.0831464
0.7944 0.132143 0.105669
0.7944 0.132143 0.105669
0.0253605 0.0386969 0.0272221
0.0274052 0.0406958 0.029099
0.114427 0.044831 0.0336461
0.255207 0.057435 0.0438087
0.435477 0.0681468 0.0502327
0.607172 0.0899519 0.0689097
0.747677 0.118288 0.0961013
0.7944 0.132143 0.105669
0.7944 0.132143 0.105669
0.0522164 0.113283 0.0526284
0.0543526 0.122759 0.054963
0.130831 0.138201 0.041825
0.347601 0.141329 0.0487984
0.537408 0.128801 0.0746777
0.667018 0.143648 0.100969
0.787076 0.157549 0.118898
0.808072 0.155596 0.11812
0.811887 0.160815 0.121523
0.084062 0.260014 0.0767376
0.0869154 0.274083 0.0793622
0.118593 0.284459 0.0845502
0.336355 0.322774 0.0448157
0.652918 0.371557 0.102098
0.831144 0.428458 0.196994
0.933837 0.454902 0.261387
0.94519 0.471092 0.264454
0.943587 0.50457 0.25658
0.105898 0.428534 0.0925917
0.108812 0.443549 0.0948959
0.10956 0.446174 0.0957504
0.325658 0.525963 0.146014
0.619501 0.601602 0.115602
0.821057 0.659739 0.169619
0.920531 0.696391 0.219593
0.937911 0.712825 0.225879
0.936019 0.72401 0.219974
0.223072 0.636942 0.202411
0.231174 0.647608 0.209873
0.231769 0.64828 0.210697
0.286534 0.662425 0.228168
0.629114 0.721172 0.250004
0.795422 0.779873 0.232273
0.916869 0.807065 0.266178
0.929198 0.819013 0.263523
0.928023 0.826123 0.271565
0.321218 0.753735 0.302205
0.322103 0.754879 0.303319
0.320134 0.752651 0.301091
0.317281 0.750179 0.297871
0.672267 0.793057 0.365301
0.787717 0.841459 0.333852
0.887648 0.87805 0.377172
0.915862 0.886503 0.390036
0.914916 0.888563 0.393515
0.333242 0.766339 0.317479
0.333242 0.766339 0.317479
0.333242 0.766339 0.317479
0.338491 0.766903 0.318837
0.705364 0.817304 0.423499
0.805783 0.859648 0.38204
0.875608 0.884092 0.400687
0.913619 0.894545 0.446632
0.913466 0.89456 0.435203
0.333242 0.766339 0.317479
0.333242 0.766339 0.317464
0.333242 0.766339 0.317479
0.36527 0.76936 0.325383
0.720195 0.822889 0.419699
0.813764 0.863035 0.381445
0.877806 0.884611 0.403815
0.913619 0.89456 0.44712
0.913466 0.89456 0.435203
0.0235752 0.0407416 0.0518654
0.023743 0.0403296 0.0482948
0.0861524 0.0425116 0.057908
0.208225 0.0515145 0.0642252
0.386313 0.0712902 0.0852522
0.591043 0.102403 0.115251
0.750805 0.149233 0.163943
0.857603 0.179294 0.203006
0.863905 0.187533 0.225254
0.0233768 0.0411841 0.0563516
0.0235294 0.0417029 0.0638895
0.121035 0.0446174 0.0849622
0.288746 0.0562448 0.0916609
0.507454 0.0777142 0.110399
0.675288 0.123186 0.155001
0.82443 0.178027 0.21413
0.865965 0.188632 0.231998
0.867857 0.186374 0.240055
0.0396887 0.116609 0.0962234
0.0400549 0.125765 0.105699
0.126558 0.137118 0.123857
0.361181 0.135653 0.117845
0.570703 0.134356 0.122255
0.721538 0.168841 0.171984
0.853407 0.202777 0.221546
0.873075 0.206943 0.238926
0.878294 0.217029 0.256245
0.0920272 0.268299 0.126894
0.0948653 0.283497 0.133944
0.120531 0.292195 0.144167
0.344778 0.335103 0.115084
0.643824 0.372244 0.139727
0.824765 0.431357 0.224155
0.929885 0.462486 0.281071
0.941176 0.482231 0.286076
0.941222 0.512459 0.285389
0.111147 0.431876 0.111925
0.115297 0.448478 0.11873
0.115206 0.450019 0.117708
0.319081 0.525887 0.170932
0.619486 0.597025 0.118105
0.822187 0.655283 0.177356
0.920211 0.690883 0.225544
0.938659 0.706569 0.234699
0.936996 0.717739 0.232364
0.219104 0.63154 0.198154
0.226886 0.642527 0.206012
0.227161 0.642588 0.206195
0.271794 0.6542 0.220645
0.623743 0.715679 0.245396
0.795682 0.773724 0.227832
0.915633 0.800763 0.260487
0.93022 0.812604 0.257572
0.928985 0.819409 0.263981
0.316686 0.749493 0.297002
0.317678 0.750591 0.298405
0.315343 0.748196 0.295964
0.313252 0.745403 0.293248
0.665003 0.787549 0.355001
0.781949 0.83595 0.324895
0.886656 0.873274 0.362448
0.916884 0.882185 0.37525
0.916121 0.884672 0.37644
0.333242 0.766339 0.317479
0.333242 0.766339 0.317479
0.333242 0.766339 0.317479
0.333242 0.766339 0.317464
0.701747 0.816175 0.42417
0.802472 0.858106 0.382422
0.872236 0.88307 0.396002
0.913619 0.894545 0.447333
0.913466 0.89456 0.435203
0.336767 0.768139 0.340124
0.334905 0.767346 0.329885
0.333761 0.766751 0.322301
0.350515 0.767926 0.322499
0.715846 0.821241 0.421653
0.809613 0.86125 0.381735
0.873137 0.883421 0.39762
0.913634 0.89456 0.447608
0.913466 0.89456 0.43563
0.0215152 0.0454261 0.0970474
0.0216373 0.0451514 0.0944839
0.0812085 0.045655 0.127916
0.226093 0.0509041 0.142306
0.42002 0.0583658 0.160586
0.621469 0.0855879 0.186328
0.781582 0.14052 0.255253
0.876173 0.164034 0.30901
0.875425 0.155154 0.333516
0.0205386 0.0477607 0.119249
0.0197452 0.049134 0.133883
0.0999008 0.0473182 0.188205
0.308186 0.0569009 0.205035
0.524285 0.0625467 0.224247
0.698741 0.0975357 0.25536
0.843061 0.148592 0.316426
0.874784 0.151354 0.343374
0.872984 0.144198 0.362799
0.0252842 0.10074 0.166751
0.0240635 0.107713 0.182452
0.0910506 0.102541 0.23238
0.364477 0.1037 0.261311
0.576577 0.0941176 0.258946
0.728069 0.112032 0.280232
0.857252 0.148333 0.334112
0.873503 0.146929 0.355993
0.872312 0.140429 0.37525
0.040238 0.261723 0.231998
0.0398108 0.275013 0.245686
0.0471351 0.279301 0.252415
0.349905 0.351003 0.332738
0.677852 0.38645 0.352605
0.862287 0.433051 0.397772
0.946639 0.465522 0.432212
0.947204 0.483268 0.454963
0.945968 0.50959 0.480842
0.0790112 0.449821 0.221561
0.0795758 0.464714 0.230762
0.0799878 0.466926 0.233265
0.334325 0.569299 0.360037
0.634928 0.618814 0.347738
0.844038 0.655833 0.399664
0.935424 0.69424 0.410788
0.95375 0.711833 0.418128
0.955108 0.72166 0.443809
0.246418 0.65388 0.332952
0.250355 0.662867 0.343221
0.250141 0.662409 0.34287
0.281224 0.669947 0.354604
0.63566 0.724819 0.488121
0.79263 0.770794 0.369833
0.929656 0.794812 0.430808
0.941604 0.813077 0.416358
0.941939 0.81912 0.44509
0.324544 0.754574 0.404303
0.325292 0.755611 0.407294
0.323842 0.753017 0.402564
0.320729 0.749783 0.396658
0.655604 0.793698 0.548318
0.776455 0.830701 0.506142
0.883833 0.867536 0.476493
0.923232 0.877729 0.496391
0.922911 0.879988 0.503655
0.341543 0.778103 0.459327
0.342443 0.77792 0.456367
0.343877 0.777462 0.450309
0.345281 0.777081 0.445106
0.685878 0.83003 0.602731
0.82324 0.872984 0.625742
0.873289 0.885939 0.557382
0.918715 0.898924 0.563592
0.918837 0.897887 0.545586
0.314092 0.779553 0.486885
0.321645 0.7794 0.481209
0.329351 0.778973 0.47512
0.335256 0.778622 0.46836
0.705196 0.839979 0.626947
0.832975 0.879225 0.649012
0.878187 0.889281 0.587304
0.917708 0.900404 0.587121
0.922347 0.901244 0.580484
0.0178073 0.0526589 0.17322
0.0177615 0.0529335 0.176516
0.0518654 0.0422827 0.216648
0.223682 0.0533608 0.279606
0.449592 0.0640269 0.28719
0.620798 0.0757305 0.340414
0.783993 0.110155 0.401434
0.86717 0.126177 0.463905
0.865797 0.12697 0.509651
0.0153964 0.0575875 0.223041
0.0142214 0.0596475 0.243702
0.0597391 0.0414588 0.287572
0.303853 0.0585184 0.370016
0.549554 0.0719158 0.370916
0.686564 0.0884871 0.436011
0.83151 0.117815 0.490471
0.865019 0.127337 0.523369
0.862928 0.127825 0.546944
0.0145418 0.0692607 0.259983
0.014435 0.0750134 0.278172
0.0461891 0.0536049 0.312566
0.311208 0.0608835 0.409384
0.572351 0.0749828 0.406409
0.70605 0.092546 0.466758
0.842527 0.121523 0.517159
0.86331 0.127626 0.541817
0.861631 0.128435 0.561898
0.0179904 0.223758 0.336858
0.0169833 0.236347 0.353063
0.0171817 0.237797 0.358343
0.289769 0.283162 0.525429
0.675807 0.312459 0.575662
0.853254 0.356619 0.614023
0.955825 0.40412 0.633631
0.960357 0.416785 0.651698
0.961212 0.440299 0.671077
0.035111 0.42594 0.369604
0.0352483 0.438941 0.383154
0.0352178 0.440085 0.386801
0.20293 0.529076 0.489815
0.634958 0.619821 0.599374
0.847257 0.651576 0.621805
0.955032 0.682933 0.647517
0.961822 0.696681 0.66186
0.96173 0.707973 0.674372
0.138323 0.637369 0.44271
0.141497 0.645731 0.455756
0.140276 0.644739 0.455421
0.153948 0.64741 0.462196
0.63592 0.741497 0.624292
0.799649 0.776944 0.618387
0.938643 0.799237 0.648005
0.962112 0.820768 0.650202
0.962066 0.828351 0.661006
0.228626 0.748363 0.50898
0.228336 0.749111 0.512093
0.226749 0.746181 0.507561
0.22417 0.742947 0.503548
0.630655 0.803555 0.630304
0.795285 0.851087 0.70193
0.899718 0.878782 0.665324
0.949767 0.889296 0.683848
0.948928 0.893782 0.686549
0.242344 0.782666 0.557046
0.243641 0.782513 0.555001
0.246189 0.782284 0.550271
0.247807 0.781079 0.545998
0.659403 0.842741 0.66183
0.836225 0.893584 0.754421
0.897398 0.909926 0.736904
0.940063 0.921401 0.731334
0.94757 0.923369 0.735302
0.225162 0.784726 0.586343
0.229358 0.7841 0.580026
0.233173 0.783673 0.573358
0.23743 0.7832 0.566155
0.686748 0.857191 0.688228
0.853544 0.905013 0.777569
0.907118 0.918608 0.771557
0.934173 0.923293 0.743954
0.949752 0.927794 0.752605
0.0132448 0.0632181 0.270054
0.0128481 0.0644694 0.278233
0.0299382 0.0541085 0.309056
0.162142 0.0490425 0.398001
0.474327 0.0613413 0.461051
0.649882 0.0907149 0.495857
0.773465 0.109163 0.554406
0.857633 0.130724 0.605188
0.859968 0.133761 0.630991
0.0127871 0.0725872 0.33257
0.0124056 0.0766003 0.356359
0.0330816 0.0616159 0.391852
0.232609 0.0567788 0.509331
0.563195 0.0701915 0.542535
0.717479 0.108919 0.567391
0.825788 0.124071 0.610895
0.861128 0.134813 0.638331
0.863828 0.137713 0.652705
0.0123598 0.0789502 0.37203
0.0126192 0.0821546 0.392889
0.0187228 0.0733196 0.416388
0.235157 0.0570535 0.535088
0.582147 0.0737621 0.568215
0.738003 0.114824 0.589899
0.839506 0.129152 0.628443
0.863493 0.137133 0.650156
0.866056 0.139361 0.661402
0.0153964 0.201633 0.445701
0.0152285 0.21442 0.465812
0.0149538 0.215518 0.470909
0.218082 0.208972 0.610788
0.652506 0.233433 0.684688
0.838392 0.280018 0.701167
0.925551 0.292988 0.727092
0.941268 0.309407 0.74847
0.950622 0.340063 0.773877
0.00543221 0.38323 0.494896
0.0041352 0.39617 0.504158
0.00404364 0.397681 0.505989
0.0865797 0.438697 0.552834
0.601984 0.58616 0.715282
0.854734 0.616907 0.748592
0.947417 0.635416 0.750332
0.961929 0.651987 0.75845
0.9617 0.66247 0.770611
0.0938582 0.618265 0.571664
0.0978866 0.627253 0.580896
0.0970932 0.624979 0.580453
0.0955062 0.621805 0.579629
0.568414 0.731273 0.698909
0.797009 0.776242 0.751949
0.940093 0.798459 0.767269
0.962097 0.822065 0.783948
0.962066 0.830762 0.792859
0.167651 0.744121 0.615412
0.167819 0.744823 0.617639
0.165454 0.741085 0.614664
0.162631 0.737301 0.612619
0.557916 0.795514 0.681697
0.812421 0.866423 0.780667
0.910979 0.885863 0.776104
0.957244 0.895842 0.787671
0.962234 0.902632 0.787167
0.199527 0.790768 0.648554
0.199237 0.789471 0.645823
0.199023 0.786587 0.641306
0.19678 0.782574 0.636423
0.595178 0.833951 0.70045
0.839231 0.904906 0.807034
0.911437 0.920714 0.834516
0.950271 0.929107 0.817182
0.961654 0.931289 0.823163
0.193271 0.793698 0.669047
0.195056 0.793164 0.663935
0.196597 0.792645 0.659022
0.198291 0.792035 0.653712
0.632242 0.85481 0.72575
0.866377 0.922118 0.830152
0.929046 0.935637 0.859663
0.947158 0.938659 0.846876
0.9626 0.942321 0.844007
0.0123293 0.0783703 0.368307
0.0123445 0.0810254 0.384649
0.0130159 0.0789807 0.409766
0.117433 0.0447242 0.498756
0.426276 0.0761883 0.5935
0.670527 0.0924239 0.610452
0.811368 0.137758 0.649531
0.874235 0.144961 0.683452
0.883558 0.154803 0.707469
0.0118105 0.0915236 0.452094
0.0121614 0.0966964 0.478004
0.0131075 0.0910506 0.497276
0.174258 0.0496529 0.579995
0.530953 0.0882277 0.65185
0.736706 0.112032 0.664698
0.859297 0.152071 0.695521
0.885634 0.156802 0.713512
0.89073 0.160662 0.729656
0.0118868 0.100343 0.492943
0.0123751 0.104829 0.510079
0.0123598 0.105196 0.518883
0.174701 0.0509499 0.599161
0.551003 0.0951095 0.67277
0.756039 0.119173 0.684489
0.871748 0.156161 0.711406
0.889799 0.15967 0.725597
0.89398 0.163287 0.7393
0.0142214 0.177096 0.537957
0.014435 0.193469 0.54995
0.0144045 0.193957 0.554055
0.155016 0.157733 0.655695
0.581949 0.17937 0.735607
0.806851 0.197421 0.746868
0.915206 0.243259 0.768444
0.933608 0.266835 0.788785
0.947021 0.303792 0.816495
0.00836194 0.376669 0.573144
0.00732433 0.389578 0.578714
0.00727855 0.390372 0.580118
0.0287633 0.407797 0.607248
0.565515 0.554177 0.788449
0.863569 0.610819 0.852125
0.957763 0.624643 0.846235
0.962081 0.63444 0.852644
0.962142 0.648356 0.859251
0.0685435 0.586007 0.642954
0.07393 0.595209 0.650675
0.0717937 0.59266 0.649454
0.0680095 0.589319 0.647166
0.539666 0.697826 0.767834
0.780896 0.755413 0.831571
0.940276 0.772686 0.848859
0.96173 0.785702 0.849515
0.961929 0.795377 0.85417
0.150896 0.73669 0.687526
0.150866 0.73695 0.68838
0.149523 0.732937 0.686381
0.146853 0.728054 0.683909
0.478538 0.776562 0.73579
0.782071 0.864118 0.826154
0.90956 0.885771 0.849363
0.960708 0.89659 0.856291
0.962402 0.904921 0.861509
0.177111 0.791455 0.70576
0.176791 0.789685 0.703975
0.176165 0.786221 0.700954
0.17496 0.781811 0.697627
0.522515 0.817975 0.735515
0.813642 0.904448 0.836072
0.921279 0.925017 0.867658
0.952605 0.930343 0.865888
0.962371 0.933455 0.867887
0.179477 0.800656 0.719295
0.17995 0.800092 0.715663
0.180377 0.79939 0.711696
0.180896 0.798825 0.7075
0.570947 0.84155 0.749279
0.846235 0.923232 0.85182
0.93431 0.939818 0.881392
0.955184 0.943694 0.886061
0.962631 0.946746 0.883711
0.0122988 0.0955825 0.472984
0.011902 0.10042 0.493782
0.0123751 0.105043 0.510765
0.0892195 0.0599069 0.571664
0.37348 0.082887 0.666102
0.669352 0.108629 0.705165
0.840986 0.149432 0.732494
0.901686 0.170123 0.762295
0.909285 0.179614 0.785016
0.0127718 0.115877 0.544137
0.013077 0.122774 0.561822
0.013138 0.124422 0.572061
0.13315 0.0589609 0.632059
0.489219 0.105623 0.716945
0.73959 0.135744 0.752758
0.888579 0.171069 0.774258
0.910903 0.181628 0.789319
0.916594 0.19089 0.804196
0.0131533 0.128145 0.572931
0.013489 0.134249 0.585916
0.013611 0.137697 0.591333
0.134768 0.0677653 0.650278
0.513893 0.114534 0.734005
0.760082 0.146975 0.76936
0.899428 0.178317 0.787274
0.914687 0.187121 0.798901
0.919554 0.195804 0.811444
0.0141451 0.166659 0.599863
0.0150759 0.185473 0.6103
0.0151522 0.187015 0.612787
0.108766 0.145815 0.678813
0.520562 0.147601 0.761898
0.777768 0.180667 0.794888
0.915007 0.216953 0.81149
0.935897 0.243946 0.828687
0.95108 0.287846 0.85449
0.0111238 0.379858 0.625269
0.00991836 0.39295 0.62797
0.00987259 0.393774 0.628565
0.0189364 0.403769 0.646342
0.526986 0.533394 0.825483
0.836789 0.60679 0.893599
0.962158 0.619867 0.89427
0.961975 0.630808 0.893996
0.962036 0.644938 0.898619
0.0216373 0.575967 0.661723
0.0241855 0.583947 0.66775
0.0238041 0.58114 0.665965
0.0227359 0.577218 0.663462
0.472831 0.682658 0.790768
0.764187 0.742428 0.869429
0.942184 0.773785 0.895781
0.961883 0.780728 0.895781
0.96199 0.788724 0.897063
0.14406 0.718196 0.724117
0.14374 0.717952 0.724163
0.142184 0.71313 0.722179
0.140383 0.707835 0.720088
0.465187 0.755108 0.778119
0.775601 0.84361 0.859113
0.90248 0.876143 0.878508
0.957626 0.883803 0.880339
0.962234 0.889799 0.88159
0.169665 0.787076 0.73666
0.168597 0.784772 0.734691
0.167086 0.780636 0.732372
0.164675 0.775204 0.729213
0.447486 0.801999 0.757717
0.778943 0.893996 0.850324
0.91545 0.923888 0.886152
0.95137 0.929641 0.889296
0.962432 0.933562 0.891676
0.17116 0.800931 0.744198
0.172168 0.801038 0.741955
0.173449 0.801068 0.739574
0.174426 0.800305 0.736507
0.497093 0.824475 0.760388
0.815244 0.917006 0.860456
0.930358 0.939773 0.893278
0.957427 0.944274 0.896651
0.962676 0.946639 0.89836
0.0124819 0.119417 0.553323
0.0131533 0.127504 0.572213
0.0134585 0.133974 0.585153
0.0637064 0.101503 0.633738
0.334813 0.0883192 0.716777
0.67068 0.155184 0.783642
0.869337 0.187152 0.811231
0.930892 0.219623 0.836606
0.933211 0.224231 0.841169
0.0144503 0.149248 0.610651
0.0149386 0.158801 0.623224
0.0148013 0.163897 0.629496
0.104356 0.118013 0.685664
0.448737 0.124605 0.765927
0.747311 0.199725 0.827268
0.915648 0.220905 0.840253
0.933211 0.224231 0.841169
0.933211 0.224231 0.841169
0.0147707 0.165866 0.631159
0.0150912 0.174777 0.640024
0.0155489 0.17879 0.644038
0.106645 0.13228 0.698619
0.479118 0.13872 0.780407
0.76965 0.208133 0.833524
0.922042 0.222614 0.840986
0.933211 0.224231 0.841169
0.933211 0.224231 0.841169
0.0158083 0.186648 0.64596
0.0159762 0.203586 0.650919
0.0158694 0.201984 0.650919
0.0754864 0.169421 0.698268
0.480568 0.149706 0.786007
0.781476 0.227939 0.843885
0.92285 0.231861 0.845396
0.944244 0.256504 0.856107
0.95436 0.292638 0.870848
0.0117189 0.393133 0.656855
0.0110018 0.405188 0.658213
0.0109102 0.406378 0.658854
0.0113985 0.408209 0.667781
0.491966 0.530312 0.840208
0.805402 0.604776 0.906401
0.962127 0.625101 0.915221
0.962249 0.632944 0.914519
0.961868 0.646922 0.916014
0.0254368 0.585733 0.685817
0.0267338 0.591638 0.689464
0.0260624 0.58854 0.687282
0.0247501 0.584054 0.68455
0.421378 0.674418 0.806546
0.747921 0.734066 0.884978
0.936645 0.775402 0.914199
0.961898 0.781659 0.918471
0.961868 0.78854 0.917891
0.126925 0.708705 0.743908
0.126009 0.708049 0.743389
0.122698 0.703685 0.742107
0.116884 0.698512 0.739147
0.428428 0.746624 0.79176
0.755657 0.831174 0.868971
0.900114 0.869871 0.89279
0.955169 0.880064 0.899672
0.962295 0.88246 0.898253
0.164111 0.780224 0.753429
0.163745 0.777752 0.752209
0.162722 0.772885 0.749889
0.161364 0.766796 0.747768
0.428916 0.790646 0.777203
0.772 0.881453 0.86511
0.91342 0.917418 0.895354
0.949386 0.926513 0.899657
0.962539 0.928832 0.902327
0.164965 0.79971 0.757397
0.165286 0.799954 0.756039
0.166293 0.800122 0.754513
0.167559 0.797238 0.751171
0.425422 0.81239 0.76788
0.781765 0.905974 0.861067
0.923476 0.937865 0.899077
0.954681 0.943801 0.902571
0.962692 0.946365 0.905501
