bundles/resolve-cinematic-luts/Phantom Luts/DJI/DJI Phntm Film LUTs - G3/Mavic 3 D-Log/EastmanRM Mavic 3.cube
TITLE "Generated by Resolve"
LUT_3D_SIZE 5
0.0454414 0.0395972 0.041001
0.161852 0.0381018 0.04065
0.452628 0.0408942 0.0522316
0.629099 0.0960555 0.113863
0.622843 0.0973526 0.119509
0.0767834 0.137682 0.0586709
0.162646 0.147967 0.0546731
0.490364 0.108232 0.0744945
0.617609 0.0984665 0.123964
0.617075 0.0985733 0.124407
0.135149 0.480369 0.104631
0.137362 0.489128 0.108309
0.648966 0.606943 0.163455
0.856794 0.615671 0.30396
0.860136 0.618128 0.299733
0.366613 0.735302 0.373785
0.369284 0.734737 0.369406
0.584268 0.791211 0.459144
0.896849 0.902205 0.570718
0.897734 0.9019 0.569879
0.376761 0.73341 0.35816
0.372686 0.734066 0.36437
0.597436 0.795727 0.456687
0.888792 0.901442 0.556176
0.900374 0.900969 0.55996
0.0421607 0.0476234 0.0717784
0.152178 0.0460517 0.0860609
0.476753 0.0518349 0.111009
0.659342 0.123079 0.197498
0.647303 0.115251 0.173129
0.0597086 0.137011 0.100786
0.146975 0.147539 0.121843
0.526558 0.0911879 0.128939
0.661234 0.119768 0.189914
0.654719 0.114473 0.173968
0.132891 0.477501 0.102815
0.13666 0.486412 0.107851
0.654978 0.601556 0.164675
0.856443 0.609461 0.300374
0.859464 0.612238 0.296101
0.366613 0.735302 0.373785
0.366613 0.735302 0.373785
0.586984 0.792218 0.459648
0.896635 0.902205 0.570336
0.897734 0.9019 0.569879
0.376761 0.73341 0.35816
0.372686 0.734066 0.36437
0.600946 0.797528 0.457191
0.88423 0.90222 0.564019
0.900374 0.900969 0.55996
0.0414893 0.0940414 0.241962
0.0465553 0.0685435 0.281819
0.480583 0.0777905 0.325689
0.673381 0.142702 0.364141
0.674052 0.144503 0.369833
0.0415808 0.100679 0.262272
0.0417334 0.0890822 0.286397
0.504005 0.0859541 0.359045
0.676066 0.152026 0.398611
0.682734 0.152514 0.399344
0.0806287 0.513146 0.433509
0.0800336 0.521935 0.446891
0.608591 0.620432 0.589197
0.910765 0.579599 0.568307
0.914153 0.579171 0.57615
0.372335 0.779782 0.540276
0.372503 0.781826 0.542702
0.554482 0.812024 0.60415
0.884978 0.915358 0.733791
0.897246 0.916808 0.743847
0.37348 0.785046 0.548516
0.369436 0.787411 0.556115
0.569497 0.823804 0.625299
0.866026 0.917662 0.760174
0.895171 0.926375 0.776028
0.0425116 0.161944 0.418021
0.0425422 0.166201 0.420539
0.346319 0.134463 0.584924
0.721172 0.222644 0.646281
0.720729 0.224948 0.652262
0.0425727 0.174929 0.429023
0.04271 0.179538 0.429328
0.39115 0.160861 0.623209
0.727779 0.233799 0.672282
0.728756 0.236088 0.677623
0.0440528 0.436805 0.543481
0.0442664 0.44654 0.547768
0.361547 0.468299 0.725444
0.921706 0.537942 0.877501
0.918685 0.542565 0.879332
0.29453 0.771771 0.703365
0.30518 0.772885 0.702052
0.373281 0.794293 0.730449
0.876493 0.912688 0.88043
0.901762 0.922805 0.886885
0.341985 0.805768 0.720043
0.343648 0.805447 0.721202
0.412329 0.827466 0.740017
0.892775 0.942733 0.900847
0.907851 0.949248 0.908995
0.0428168 0.206958 0.450874
0.0428168 0.207004 0.450462
0.267887 0.141939 0.597513
0.747051 0.258 0.713268
0.745113 0.258564 0.714046
0.0428168 0.206973 0.450782
0.0428168 0.207126 0.449546
0.345556 0.166308 0.6327
0.745205 0.258534 0.714015
0.744991 0.258595 0.714076
0.0444495 0.421271 0.551308
0.044419 0.432364 0.555261
0.305043 0.442695 0.723293
0.911299 0.517555 0.899306
0.911681 0.523949 0.900877
0.260334 0.735424 0.714107
0.263539 0.739269 0.716075
0.307897 0.753506 0.73843
0.863767 0.899229 0.895949
0.905379 0.906874 0.901167
0.33225 0.79498 0.739544
0.33225 0.79498 0.739544
0.345922 0.801266 0.74522
0.880049 0.938552 0.901411
0.910079 0.952102 0.917098
