bundles/resolve-cinematic-luts/Phantom Luts/DJI/DJI Phntm Film LUTs - G3/Mavic 3 D-Log/EastmanRM Mavic 3.cube
TITLE "Generated by Resolve"
LUT_3D_SIZE 65
0.0454414 0.0395972 0.041001
0.0454414 0.0395972 0.0410163
0.0457771 0.039353 0.04065
0.0464332 0.0388952 0.0400854
0.0479133 0.0383154 0.0392157
0.0513924 0.0377356 0.0386358
0.0582284 0.0373541 0.0383917
0.0667582 0.0370947 0.0384833
0.0770428 0.0366522 0.0383154
0.0887465 0.0364691 0.0383154
0.100084 0.0366522 0.0386053
0.11017 0.0366064 0.0387579
0.119585 0.0365606 0.0388495
0.129305 0.0370642 0.0395056
0.139574 0.0373693 0.0399176
0.150164 0.037583 0.0401465
0.161852 0.0381018 0.04065
0.173968 0.0385138 0.0411994
0.187579 0.0391241 0.0419165
0.20238 0.0396429 0.0426032
0.218906 0.0396277 0.0429847
0.23859 0.0397803 0.0435187
0.25977 0.0390631 0.0436255
0.282383 0.0387579 0.0438087
0.303777 0.0381476 0.044007
0.325139 0.0382544 0.0446021
0.344182 0.0386053 0.0449378
0.363256 0.0391394 0.0456245
0.382101 0.0383001 0.0467994
0.400854 0.0387884 0.047837
0.418387 0.0390784 0.0488136
0.435523 0.0396582 0.0499886
0.452628 0.0408942 0.0522316
0.467445 0.0421302 0.0549477
0.479316 0.0444953 0.0592355
0.488594 0.0471046 0.0645151
0.500099 0.0497749 0.0699474
0.512352 0.0525368 0.0748913
0.525643 0.0554208 0.0800946
0.537209 0.0583047 0.0847181
0.548516 0.0621042 0.0910201
0.559915 0.0672007 0.0976425
0.574136 0.0753033 0.104799
0.589364 0.0834211 0.111879
0.606348 0.0915236 0.117113
0.619745 0.0964981 0.11899
0.625513 0.0968338 0.116701
0.62826 0.0962539 0.114488
0.629099 0.0960555 0.113863
0.629099 0.0960555 0.113863
0.629099 0.0960555 0.113863
0.629099 0.0960555 0.113863
0.629099 0.0960555 0.113863
0.629099 0.0960555 0.113863
0.629099 0.0960555 0.113863
0.629099 0.0960555 0.113863
0.629099 0.0960555 0.113863
0.629099 0.0960555 0.113863
0.629099 0.0960555 0.113863
0.629099 0.0960555 0.113863
0.629099 0.0960555 0.113863
0.629099 0.0960555 0.113863
0.629099 0.0960555 0.113863
0.627146 0.0964981 0.115221
0.622843 0.0973526 0.119509
0.0464485 0.0388952 0.0400854
0.0457465 0.0393683 0.0406806
0.0454414 0.0395972 0.0410163
0.045716 0.0393988 0.0407263
0.0464027 0.0389715 0.0401617
0.0493172 0.0384375 0.0394598
0.0557107 0.0376593 0.0387884
0.0644541 0.0371405 0.0384527
0.0742657 0.0366827 0.0382849
0.085893 0.0364385 0.0382696
0.097322 0.0366522 0.0385748
0.107942 0.0366979 0.038819
0.117617 0.0364843 0.0387732
0.127901 0.0369421 0.0393835
0.138308 0.0373541 0.0398871
0.149371 0.0374914 0.0400549
0.161135 0.0380713 0.0406195
0.173266 0.0385443 0.0412146
0.187152 0.0391241 0.0419165
0.202213 0.0396277 0.0425879
0.218967 0.0396429 0.0429999
0.238712 0.0397803 0.0435492
0.259648 0.0391394 0.0437171
0.281895 0.0388647 0.0440681
0.303334 0.0383001 0.0442664
0.325185 0.0383459 0.0447242
0.345144 0.0386816 0.0448768
0.364401 0.0390784 0.045594
0.383429 0.0383154 0.0468605
0.402228 0.0387121 0.0478218
0.419974 0.0391394 0.0489357
0.436835 0.0397192 0.0500954
0.453986 0.0409705 0.0523995
0.468757 0.0423133 0.0551614
0.480598 0.0445869 0.0595102
0.490257 0.047303 0.0648051
0.501686 0.0499428 0.0703746
0.51368 0.0528115 0.0753796
0.526589 0.0555734 0.0805371
0.538247 0.0586404 0.0856184
0.549477 0.0625467 0.0915084
0.560861 0.0677043 0.0983444
0.575525 0.0763867 0.10573
0.590555 0.0843366 0.112703
0.605631 0.0923171 0.119142
0.616663 0.097261 0.121782
0.621805 0.0975662 0.120409
0.625269 0.0968795 0.116945
0.628077 0.0962844 0.114611
0.629099 0.0960555 0.113863
0.629099 0.0960555 0.113863
0.629099 0.0960555 0.113863
0.629099 0.0960555 0.113863
0.629099 0.0960555 0.113863
0.629099 0.0960555 0.113863
0.629099 0.0960555 0.113863
0.629099 0.0960555 0.113863
0.629099 0.0960555 0.113863
0.629099 0.0960555 0.113863
0.629099 0.0960555 0.113863
0.629099 0.0960555 0.113863
0.629099 0.0960555 0.113863
0.629099 0.0960555 0.113863
0.627146 0.0964981 0.115221
0.622843 0.0973526 0.119509
0.0464332 0.0388952 0.0400854
0.0457465 0.0393835 0.0406806
0.0454414 0.0395972 0.0410163
0.0457008 0.0393988 0.0407263
0.0463111 0.0389868 0.0401923
0.0488136 0.0383917 0.0393988
0.0539254 0.0377203 0.0387732
0.0622263 0.0371862 0.0384375
0.0719463 0.036759 0.0383307
0.0824292 0.0364843 0.0382544
0.0948653 0.0365606 0.0384527
0.105653 0.0366674 0.0387274
0.115572 0.0364385 0.0387121
0.126314 0.0368811 0.0393072
0.137316 0.0372931 0.0398108
0.148394 0.0373846 0.0399939
0.160464 0.038056 0.0406043
0.172793 0.0385443 0.0412146
0.186725 0.0391089 0.041886
0.202152 0.0396582 0.0426032
0.218997 0.0396735 0.0430152
0.239048 0.0397498 0.0435492
0.259937 0.0391241 0.0437629
0.281666 0.0389258 0.0442664
0.302678 0.0384985 0.0445869
0.324422 0.038529 0.0450599
0.345296 0.0387884 0.0450599
0.365438 0.0390326 0.045594
0.384894 0.0383001 0.046891
0.403494 0.0386664 0.0478218
0.421073 0.0392767 0.0491188
0.438331 0.0398413 0.0502785
0.455451 0.0410925 0.0526131
0.470039 0.0424048 0.0554055
0.482063 0.0446784 0.0597391
0.491676 0.0475319 0.0652171
0.502998 0.0502785 0.0708934
0.515068 0.0530861 0.0759594
0.527489 0.055787 0.0809491
0.5393 0.0590829 0.0863661
0.550591 0.0632029 0.0923934
0.562203 0.0682994 0.0990921
0.577249 0.077348 0.106523
0.591699 0.0854658 0.11342
0.60647 0.093019 0.119631
0.615213 0.0976883 0.123522
0.618189 0.0983444 0.123461
0.620645 0.0978103 0.121447
0.624109 0.0971237 0.117968
0.627207 0.0964828 0.115175
0.629099 0.0960555 0.113863
0.629099 0.0960555 0.113863
0.629099 0.0960555 0.113863
0.629099 0.0960555 0.113863
0.629099 0.0960555 0.113863
0.629099 0.0960555 0.113863
0.629099 0.0960555 0.113863
0.629099 0.0960555 0.113863
0.629099 0.0960555 0.113863
0.629099 0.0960555 0.113863
0.629099 0.0960555 0.113863
0.629099 0.0960555 0.113863
0.629099 0.0960555 0.113863
0.627146 0.0964981 0.115221
0.622858 0.0973526 0.119509
0.0464179 0.0389105 0.0401007
0.0457313 0.0393835 0.0407111
0.0454261 0.0396124 0.0410315
0.0457008 0.0394141 0.0407416
0.0462959 0.0389868 0.0401923
0.0480812 0.0384375 0.0393988
0.0524758 0.0377356 0.0387579
0.0598917 0.0372778 0.0384527
0.0692149 0.0370031 0.038468
0.0797742 0.0365148 0.0382086
0.0915236 0.0365759 0.0384527
0.103578 0.0365911 0.0386206
0.11368 0.0364691 0.0387121
0.124651 0.0368658 0.0392615
0.136095 0.0373388 0.0398108
0.147219 0.0373846 0.0399634
0.159716 0.0380713 0.0405737
0.172503 0.0385138 0.0411994
0.186481 0.0390784 0.0418555
0.20206 0.0396887 0.0425879
0.219043 0.0397345 0.0430457
0.239384 0.0397498 0.043534
0.260563 0.0391089 0.0437629
0.282078 0.038941 0.0443275
0.302785 0.0386358 0.0447852
0.323751 0.0387121 0.0453498
0.344442 0.0390173 0.0454566
0.365469 0.0388952 0.0459602
0.386191 0.0383459 0.0469673
0.404791 0.0386511 0.0478676
0.422629 0.039353 0.0492409
0.439857 0.0399481 0.0504616
0.456718 0.0412604 0.0528725
0.471122 0.0425879 0.0556802
0.48333 0.0448157 0.0599832
0.492958 0.0477455 0.0656901
0.504173 0.0506752 0.0714427
0.516442 0.0533761 0.0765545
0.528618 0.0560616 0.0810407
0.540642 0.0595254 0.0871595
0.551644 0.0638437 0.0932174
0.563836 0.0692149 0.0998703
0.578653 0.0780957 0.107012
0.593164 0.0861372 0.113893
0.607401 0.0937667 0.120272
0.615198 0.0978561 0.123964
0.616724 0.0986496 0.124727
0.617731 0.098436 0.123857
0.620096 0.0979324 0.121904
0.623529 0.0972305 0.118624
0.626795 0.0965744 0.115541
0.628931 0.0960861 0.113985
0.629099 0.0960555 0.113863
0.629099 0.0960555 0.113863
0.629099 0.0960555 0.113863
0.629099 0.0960555 0.113863
0.629099 0.0960555 0.113863
0.629099 0.0960555 0.113863
0.629099 0.0960555 0.113863
0.629099 0.0960555 0.113863
0.629099 0.0960555 0.113863
0.629099 0.0960555 0.113863
0.629099 0.0960555 0.113863
0.627131 0.0964981 0.115236
0.622858 0.0973526 0.119509
0.0463874 0.0389258 0.0401312
0.0456855 0.0394293 0.0407568
0.0453956 0.0396277 0.0410773
0.0453498 0.0396582 0.0411231
0.0455482 0.0395209 0.0408942
0.0460822 0.0391394 0.0403601
0.0500496 0.0383459 0.0395514
0.0571908 0.0376287 0.0388647
0.0667124 0.0370489 0.038468
0.0768444 0.0366522 0.0383154
0.0885176 0.0364385 0.0383001
0.101167 0.0366522 0.0386206
0.112093 0.0365301 0.0387121
0.122866 0.03682 0.0392004
0.134936 0.0372168 0.0397192
0.146105 0.0373541 0.0399176
0.158877 0.038117 0.040589
0.171954 0.038529 0.0412146
0.186282 0.0390631 0.0418402
0.201892 0.039704 0.0425879
0.219074 0.0397345 0.0430457
0.239841 0.0397192 0.0435187
0.261112 0.0391089 0.0437781
0.282994 0.0389563 0.044358
0.303655 0.0387121 0.0448768
0.323522 0.0389868 0.0453956
0.343877 0.0392309 0.0457923
0.365011 0.0389563 0.0471504
0.385534 0.0386206 0.047425
0.405463 0.0386969 0.0480354
0.424369 0.0393988 0.0493629
0.44126 0.0400397 0.0506447
0.458259 0.0413214 0.0530404
0.472801 0.0427253 0.0559548
0.484504 0.044892 0.0602426
0.494362 0.0478828 0.0661173
0.505531 0.0509804 0.0719921
0.517754 0.053727 0.0771954
0.529686 0.0564584 0.0814221
0.541817 0.0599527 0.0880293
0.552575 0.0644236 0.0939345
0.56524 0.0701915 0.10074
0.579828 0.0788434 0.107591
0.594125 0.0865644 0.114122
0.608896 0.0946517 0.121019
0.615457 0.0980697 0.124331
0.61651 0.0986954 0.124926
0.616571 0.0986801 0.12488
0.617517 0.0984817 0.124041
0.619944 0.0979629 0.121996
0.623407 0.097261 0.118761
0.62678 0.0965744 0.115557
0.628962 0.0960861 0.11397
0.629099 0.0960555 0.113863
0.629099 0.0960555 0.113863
0.629099 0.0960555 0.113863
0.629099 0.0960555 0.113863
0.629099 0.0960555 0.113863
0.629099 0.0960555 0.113863
0.629099 0.0960555 0.113863
0.629099 0.0960555 0.113863
0.629099 0.0960555 0.113863
0.629099 0.0960555 0.113863
0.6271 0.0965133 0.115251
0.622827 0.0973526 0.119524
0.0466468 0.0400549 0.0403906
0.0458686 0.0403754 0.0410773
0.0455024 0.0403906 0.0413062
0.0454108 0.0401617 0.0412757
0.0455787 0.0397803 0.0410163
0.0460517 0.0391546 0.0403906
0.0492103 0.0384985 0.0395972
0.0554513 0.037705 0.0388495
0.0643473 0.0371862 0.0384527
0.0742046 0.0368811 0.0383612
0.0855726 0.0366064 0.0383001
0.0986343 0.03682 0.0386358
0.110765 0.0366979 0.0387274
0.121691 0.0369268 0.0391394
0.13373 0.037232 0.0396582
0.145098 0.0372778 0.0398413
0.15816 0.038056 0.0405585
0.171313 0.038529 0.0411841
0.186038 0.0390478 0.0418097
0.201816 0.0396887 0.0425879
0.219135 0.0397192 0.0430457
0.240238 0.0396735 0.0435187
0.261738 0.0390784 0.0438087
0.283619 0.0389563 0.0444038
0.304738 0.0387427 0.0449378
0.324361 0.0389563 0.0454108
0.344457 0.0393072 0.0459144
0.364904 0.0388495 0.0475929
0.384955 0.0388647 0.0479438
0.404807 0.03888 0.0484627
0.424598 0.0396124 0.0498054
0.442451 0.0401312 0.0508583
0.459724 0.0413519 0.053193
0.47425 0.0429084 0.0562905
0.485634 0.0450141 0.0605173
0.495354 0.0480659 0.0665293
0.506676 0.0513619 0.0726024
0.518364 0.0540627 0.07776
0.530755 0.0567636 0.0820172
0.542733 0.0604715 0.0886091
0.553323 0.0647746 0.0947433
0.566171 0.0710765 0.101564
0.580407 0.0792706 0.107958
0.595361 0.0874495 0.114778
0.61033 0.0956436 0.12166
0.615732 0.0983902 0.124712
0.616342 0.0987411 0.125078
0.616297 0.0987411 0.125109
0.616403 0.0987259 0.125017
0.617365 0.0985275 0.124163
0.619898 0.0979782 0.122026
0.623407 0.097261 0.118761
0.626825 0.0965744 0.115511
0.628992 0.0960708 0.113939
0.629099 0.0960555 0.113863
0.629099 0.0960555 0.113863
0.629099 0.0960555 0.113863
0.629099 0.0960555 0.113863
0.629099 0.0960555 0.113863
0.629099 0.0960555 0.113863
0.629099 0.0960555 0.113863
0.629099 0.0960555 0.113863
0.629099 0.0960555 0.113863
0.62707 0.0965133 0.115282
0.622766 0.0973678 0.1196
0.0476081 0.0439307 0.0414282
0.0468147 0.0442512 0.0422675
0.0464637 0.0442969 0.0425727
0.0463874 0.0441444 0.0425727
0.0462806 0.0440375 0.0426032
0.0464027 0.043595 0.0423285
0.0473793 0.0432441 0.0415656
0.0524453 0.0428931 0.0400092
0.0596475 0.0425574 0.0391546
0.0699931 0.042237 0.0386664
0.0827802 0.0416419 0.03888
0.096376 0.0404974 0.0387427
0.110185 0.0399634 0.0391394
0.121721 0.0398718 0.0394293
0.133776 0.0390173 0.0395361
0.145693 0.0388342 0.0399023
0.158282 0.0390631 0.0404974
0.171252 0.0391089 0.041001
0.186007 0.0395514 0.0417334
0.201984 0.0400397 0.0425116
0.219471 0.0399329 0.0429999
0.240558 0.0396735 0.0435187
0.262379 0.0391089 0.0438239
0.284321 0.0389105 0.0445716
0.305547 0.0387884 0.0449989
0.325673 0.0388952 0.0453651
0.345571 0.0395819 0.0458991
0.365393 0.0388952 0.0477455
0.385351 0.0390478 0.0482338
0.404349 0.0390936 0.0489815
0.423987 0.0399634 0.0502785
0.442145 0.0404517 0.051545
0.460639 0.041413 0.0534371
0.475349 0.0431373 0.0567178
0.486763 0.0452277 0.0609293
0.496483 0.0482643 0.0669108
0.507866 0.0515145 0.0730297
0.519417 0.0543526 0.078172
0.531548 0.057145 0.0828107
0.543603 0.0608072 0.0891432
0.55433 0.0651865 0.0955062
0.566979 0.0721447 0.10248
0.58143 0.0800793 0.108843
0.596475 0.0884108 0.115816
0.61062 0.0959487 0.121904
0.616022 0.0987106 0.125154
0.616129 0.0987716 0.125246
0.616098 0.0987869 0.125277
0.616083 0.0987869 0.125307
0.616236 0.0987564 0.125154
0.61738 0.0985122 0.124147
0.62005 0.0979477 0.121935
0.623682 0.0972152 0.118425
0.627054 0.0965133 0.115297
0.629099 0.0960555 0.113863
0.629099 0.0960555 0.113863
0.629099 0.0960555 0.113863
0.629099 0.0960555 0.113863
0.629099 0.0960555 0.113863
0.629099 0.0960555 0.113863
0.629099 0.0960555 0.113863
0.629099 0.0960555 0.113863
0.629099 0.0960555 0.113863
0.627024 0.0965286 0.115328
0.622629 0.0973983 0.119707
0.0491646 0.0497902 0.0429084
0.0480812 0.0502174 0.043595
0.0475929 0.0503243 0.0439155
0.0474708 0.0501564 0.0438849
0.0473182 0.0499733 0.0438697
0.0471351 0.0497902 0.0438849
0.0473335 0.0495308 0.0436866
0.0500038 0.0499886 0.0432136
0.0581979 0.0487984 0.0413825
0.0669261 0.0486 0.0399329
0.0782177 0.049073 0.0396277
0.0906233 0.0493019 0.0394141
0.105104 0.049485 0.039292
0.12018 0.0485389 0.0396735
0.133196 0.046952 0.0400702
0.146441 0.0457008 0.0406806
0.159503 0.045304 0.0414435
0.17377 0.0440223 0.0417792
0.188403 0.0431678 0.0420081
0.203433 0.0425727 0.0422675
0.221759 0.0423285 0.0429236
0.241779 0.0409857 0.0432136
0.263935 0.0403906 0.0437324
0.285527 0.0392767 0.044358
0.306462 0.03888 0.0450599
0.326787 0.0389105 0.0453956
0.347066 0.0395819 0.0459144
0.366629 0.03888 0.0477913
0.386572 0.0391241 0.0483711
0.40499 0.0392615 0.0493324
0.423987 0.040238 0.0507973
0.441917 0.0407721 0.0521401
0.46009 0.0416876 0.0542153
0.475441 0.043534 0.0572976
0.487526 0.0455634 0.0616159
0.497536 0.0485695 0.0673533
0.509133 0.0515297 0.0734264
0.520531 0.0545663 0.078706
0.532647 0.0575113 0.0835889
0.544366 0.0610971 0.0897231
0.555337 0.0657054 0.0962539
0.568154 0.0728008 0.103227
0.582574 0.0809491 0.110033
0.597879 0.0893263 0.116945
0.610681 0.0961776 0.122164
0.61593 0.0988174 0.125429
0.6159 0.0988327 0.125444
0.615869 0.0988327 0.125475
0.615854 0.0988327 0.12549
0.615854 0.0988327 0.12549
0.616144 0.0987716 0.125246
0.617639 0.0984665 0.123949
0.620554 0.0978256 0.121508
0.624338 0.0970779 0.117769
0.627527 0.0964218 0.114961
0.629099 0.0960555 0.113863
0.629099 0.0960555 0.113863
0.629099 0.0960555 0.113863
0.629099 0.0960555 0.113863
0.629099 0.0960555 0.113863
0.629099 0.0960555 0.113863
0.629099 0.0960555 0.113863
0.629099 0.0960555 0.113863
0.626963 0.0965438 0.115373
0.622492 0.0974289 0.119829
0.0503853 0.0565347 0.0438544
0.0491951 0.0568856 0.0448615
0.0486152 0.0569009 0.045182
0.0485084 0.0567025 0.0451514
0.0483253 0.0564889 0.0451362
0.0481117 0.0562905 0.045182
0.0481575 0.0560769 0.0452125
0.0497749 0.0565347 0.0455177
0.0535286 0.0579232 0.0440375
0.0650339 0.0558938 0.0429084
0.0775311 0.0557259 0.0413977
0.0914626 0.0561379 0.0406653
0.105638 0.0568856 0.040528
0.117876 0.0576333 0.0406806
0.13019 0.0580453 0.0407111
0.14551 0.0565499 0.0408331
0.160372 0.0547494 0.0415808
0.175174 0.0525216 0.0423743
0.190204 0.0507515 0.0428931
0.206149 0.0496834 0.043473
0.224857 0.0481575 0.043473
0.245136 0.046128 0.0437171
0.267308 0.0435645 0.0435492
0.288655 0.0422217 0.0442054
0.309209 0.0408789 0.0451057
0.328969 0.0402075 0.045655
0.34873 0.0399329 0.0461128
0.368124 0.0388495 0.0478218
0.388128 0.0391546 0.0484779
0.406165 0.0393835 0.0495308
0.407233 0.0426032 0.0559701
0.42504 0.0432288 0.0573892
0.444816 0.0441138 0.0596475
0.464515 0.0453956 0.0619211
0.483864 0.04654 0.0637217
0.499825 0.0486763 0.0673075
0.513909 0.0510719 0.0716106
0.526452 0.0539712 0.0765545
0.537987 0.0570077 0.0812848
0.549905 0.0605325 0.0874189
0.560433 0.0652781 0.0938582
0.573754 0.0726177 0.100023
0.588556 0.0809644 0.107103
0.603571 0.0893568 0.114168
0.615228 0.0954604 0.119371
0.620096 0.0979324 0.121889
0.620081 0.0979324 0.121904
0.620081 0.0979324 0.121904
0.620096 0.0979324 0.121904
0.620096 0.0979324 0.121889
0.620111 0.0979324 0.121874
0.620401 0.0978561 0.121614
0.621744 0.0975814 0.120455
0.623743 0.0972 0.118364
0.626505 0.0966354 0.115801
0.628595 0.0961776 0.114229
0.629099 0.0960555 0.113863
0.629099 0.0960555 0.113863
0.629099 0.0960555 0.113863
0.629099 0.0960555 0.113863
0.629099 0.0960555 0.113863
0.629099 0.0960555 0.113863
0.629099 0.0960555 0.113863
0.62797 0.0963149 0.114672
0.624887 0.0969711 0.117296
0.0541695 0.0632486 0.0440681
0.0527504 0.0635233 0.0447395
0.0521706 0.063386 0.0449989
0.0519722 0.0631571 0.0449836
0.0517281 0.0629435 0.0449989
0.0514534 0.0627298 0.0450752
0.0514687 0.0625467 0.0451972
0.0526741 0.0626535 0.0454719
0.0560464 0.0640574 0.0455634
0.0616617 0.0657816 0.0438239
0.078294 0.0631876 0.0429389
0.0942397 0.063508 0.0421607
0.109194 0.06421 0.0417639
0.121691 0.065095 0.0419471
0.133761 0.0655985 0.0420539
0.146715 0.0660868 0.0420539
0.160113 0.0661936 0.0421302
0.175738 0.0638132 0.0423285
0.192554 0.0610361 0.0429999
0.209842 0.0579385 0.0436866
0.229053 0.0550393 0.0443732
0.248371 0.0536507 0.0449989
0.270039 0.0516518 0.0454414
0.291371 0.0489815 0.0451514
0.313146 0.0460059 0.0452735
0.333181 0.0443732 0.0456703
0.351644 0.0423285 0.0459449
0.370718 0.0405585 0.0472114
0.38761 0.0400092 0.0491035
0.401907 0.0403601 0.0509957
0.414282 0.0419471 0.0544747
0.42797 0.0431678 0.0571756
0.443351 0.0446632 0.060853
0.461341 0.0462348 0.0641031
0.479072 0.0477302 0.0669566
0.496757 0.0496834 0.0698558
0.512627 0.0516976 0.0734264
0.526986 0.0543832 0.0775921
0.538857 0.0573434 0.0817578
0.550591 0.0610208 0.0883497
0.561349 0.065568 0.0945754
0.575235 0.0735637 0.10135
0.590036 0.0818341 0.108278
0.605158 0.0902266 0.115206
0.615503 0.0957809 0.119738
0.619913 0.0979629 0.122026
0.619898 0.0979782 0.122042
0.619898 0.0979782 0.122042
0.619898 0.0979782 0.122042
0.619898 0.0979782 0.122042
0.619913 0.0979629 0.122026
0.619944 0.0979629 0.122011
0.620325 0.0978866 0.121691
0.621851 0.0975662 0.120363
0.624033 0.0971389 0.118044
0.62678 0.0965744 0.115557
0.628763 0.0961318 0.114092
0.629099 0.0960555 0.113863
0.629099 0.0960555 0.113863
0.629099 0.0960555 0.113863
0.629099 0.0960555 0.113863
0.629099 0.0960555 0.113863
0.629099 0.0960555 0.113863
0.627894 0.0963302 0.114717
0.624704 0.0970016 0.117464
0.0562295 0.0720684 0.0457313
0.0547799 0.072343 0.0463111
0.0540017 0.0724041 0.0465553
0.0538338 0.0720531 0.0465553
0.0536355 0.0717632 0.0465858
0.0532998 0.0714885 0.0466011
0.0531167 0.0713207 0.0466468
0.0540475 0.0712749 0.0467994
0.0572976 0.0724041 0.0474098
0.0609903 0.0744182 0.047013
0.0698253 0.0758984 0.0446479
0.0930953 0.0730144 0.0442206
0.110704 0.0728008 0.0431373
0.12549 0.07393 0.042771
0.138689 0.0746166 0.0429694
0.152468 0.0751202 0.0433661
0.16556 0.0755169 0.0433967
0.180575 0.0750134 0.0434882
0.195285 0.0741588 0.0433051
0.213367 0.0709087 0.0436561
0.233524 0.0665293 0.0442512
0.254322 0.0622568 0.0451514
0.275456 0.0595407 0.0462196
0.296468 0.0573587 0.046952
0.316258 0.0554208 0.0473487
0.336782 0.051545 0.0477455
0.356161 0.0482185 0.0473945
0.37525 0.0451514 0.0469215
0.391394 0.0436408 0.0483253
0.405127 0.0428168 0.0504616
0.416175 0.0426032 0.0544137
0.429816 0.0435492 0.0575723
0.444633 0.0447547 0.0610666
0.462119 0.0464942 0.0644541
0.479469 0.048127 0.0675975
0.49688 0.0501259 0.0709697
0.512505 0.0521859 0.0742962
0.527123 0.0548714 0.0785687
0.539361 0.0576944 0.0827955
0.551171 0.0615549 0.0890059
0.562387 0.0660716 0.0954299
0.576684 0.0744945 0.102373
0.59144 0.0824598 0.109407
0.606683 0.0910658 0.116213
0.615839 0.0961471 0.120058
0.619745 0.0980087 0.122133
0.619715 0.098024 0.122148
0.619715 0.098024 0.122164
0.619715 0.098024 0.122164
0.619715 0.098024 0.122164
0.61973 0.0980087 0.122148
0.619745 0.0980087 0.122133
0.61976 0.0980087 0.122133
0.620157 0.0979171 0.121813
0.621683 0.0975967 0.120516
0.623911 0.0971695 0.118181
0.626688 0.0965896 0.115648
0.628717 0.0961471 0.114137
0.629099 0.0960555 0.113863
0.629099 0.0960555 0.113863
0.629099 0.0960555 0.113863
0.629099 0.0960555 0.113863
0.629099 0.0960555 0.113863
0.627817 0.0963455 0.114763
0.624475 0.0970474 0.117647
0.0590982 0.0813458 0.0473945
0.0572061 0.0818799 0.0483253
0.0564736 0.0820783 0.0487526
0.0563058 0.0819257 0.0487831
0.0560922 0.0817578 0.0488289
0.0558175 0.081529 0.0489052
0.0556954 0.081529 0.0489052
0.0561532 0.0814221 0.049073
0.0590524 0.081651 0.0496223
0.0631571 0.0835431 0.0499428
0.0677806 0.0862135 0.0484321
0.0810101 0.0876783 0.0458381
0.107195 0.0839551 0.0458228
0.126055 0.0842908 0.0448157
0.141726 0.0852369 0.0441749
0.15697 0.0854658 0.0446479
0.172351 0.0855116 0.0454719
0.187533 0.0847791 0.0453803
0.203403 0.084123 0.0451057
0.222156 0.0810101 0.0446479
0.24126 0.0781109 0.0448157
0.261173 0.0742657 0.0454108
0.282155 0.0700389 0.0462959
0.303487 0.0660868 0.0472419
0.322866 0.0636301 0.0480812
0.341802 0.0617685 0.049012
0.360418 0.0596933 0.0495918
0.379278 0.0562448 0.0495613
0.396124 0.052369 0.0499886
0.410254 0.0490272 0.0509957
0.421149 0.0475776 0.0539559
0.432868 0.0466316 0.0565499
0.446723 0.046128 0.0611734
0.46331 0.0467842 0.0647288
0.480323 0.0484321 0.068101
0.497353 0.0503548 0.0717632
0.512627 0.0526284 0.0750744
0.526802 0.0552834 0.0797436
0.539406 0.0580758 0.0839246
0.551263 0.0619974 0.0899214
0.563104 0.0668498 0.0961929
0.577859 0.075349 0.103532
0.592752 0.0834821 0.110475
0.607507 0.091722 0.116899
0.616266 0.0965896 0.120577
0.619593 0.0980545 0.122255
0.619577 0.0980545 0.122271
0.619562 0.0980545 0.122271
0.619562 0.0980545 0.122286
0.619562 0.0980545 0.122271
0.619577 0.0980545 0.122271
0.619593 0.0980545 0.12224
0.619623 0.0980392 0.122225
0.619638 0.0980392 0.12221
0.619989 0.0979629 0.121965
0.621286 0.0976883 0.120821
0.623423 0.097261 0.118746
0.626139 0.0967117 0.116136
0.62829 0.0962387 0.114473
0.629099 0.0960555 0.113863
0.629099 0.0960555 0.113863
0.629099 0.0960555 0.113863
0.629099 0.0960555 0.113863
0.627741 0.0963607 0.114824
0.624262 0.0970932 0.11783
0.061738 0.0924392 0.0495003
0.0595254 0.0931868 0.0501717
0.0587625 0.0932937 0.0504311
0.0585641 0.0931716 0.0504616
0.0583505 0.09308 0.0505074
0.0581521 0.0930648 0.0505837
0.0579385 0.0928969 0.0505989
0.0577707 0.0926986 0.0505989
0.0599527 0.093019 0.0510414
0.0647746 0.0943618 0.0518196
0.0699474 0.0958877 0.0512703
0.0775158 0.0983291 0.0499428
0.0960098 0.0988174 0.0469978
0.12192 0.0955062 0.0472877
0.142046 0.0951705 0.0465095
0.160067 0.0956741 0.0460365
0.177127 0.0954299 0.0463569
0.194217 0.0954604 0.0473335
0.211933 0.0935836 0.0468299
0.231174 0.0914015 0.0462806
0.251575 0.0885481 0.0461433
0.272496 0.0843366 0.046128
0.29247 0.0806592 0.0466316
0.312306 0.0771344 0.0476234
0.331472 0.0737469 0.0487831
0.349065 0.0718242 0.0491035
0.367529 0.0696269 0.0499275
0.385397 0.0674449 0.0508125
0.400717 0.0653849 0.0527962
0.414374 0.0624399 0.0542153
0.426154 0.0582895 0.0560311
0.439292 0.0540017 0.0574197
0.452796 0.0521401 0.0608835
0.466239 0.0507515 0.0661021
0.480186 0.0510262 0.0702678
0.493751 0.0515908 0.0744335
0.510445 0.0534981 0.0775921
0.525414 0.0558633 0.0809644
0.539162 0.0586862 0.085481
0.55111 0.0626078 0.091249
0.563714 0.0678721 0.0973983
0.578408 0.0762493 0.104433
0.593591 0.0842145 0.111437
0.608072 0.0920729 0.117464
0.616922 0.0970779 0.121416
0.619379 0.0981003 0.122408
0.619394 0.098085 0.122393
0.61941 0.098085 0.122393
0.619394 0.098085 0.122393
0.61941 0.098085 0.122377
0.619425 0.098085 0.122377
0.619455 0.0980697 0.122347
0.619501 0.0980697 0.122332
0.619532 0.0980545 0.122301
0.619577 0.0980545 0.122271
0.619821 0.0979934 0.122087
0.620768 0.0977951 0.12134
0.622751 0.0973678 0.119615
