bundles/resolve-cinematic-luts/Phantom Luts/DJI/DJI Phntm Film LUTs - G3/Mavic 3 D-Log/Eastman Mavic 3.cube
TITLE "Generated by Resolve"
LUT_3D_SIZE 5
0.0407111 0.0390021 0.0390021
0.157778 0.0427405 0.0433967
0.423362 0.0823529 0.0445563
0.613306 0.164309 0.0965133
0.617746 0.162951 0.0965744
0.0897688 0.127932 0.074464
0.177676 0.141787 0.0698253
0.479667 0.154192 0.0802472
0.638529 0.186862 0.114992
0.614862 0.175463 0.105364
0.192782 0.49099 0.190066
0.195468 0.493446 0.189868
0.606912 0.585519 0.188922
0.818708 0.608255 0.223911
0.824506 0.607828 0.22266
0.313878 0.700328 0.359411
0.315267 0.699962 0.354925
0.617838 0.789227 0.409293
0.831266 0.839841 0.410513
0.845106 0.8365 0.405386
0.32079 0.698634 0.33637
0.318151 0.69929 0.345663
0.537194 0.757153 0.399893
0.799939 0.839338 0.390249
0.859373 0.841245 0.404898
0.0390021 0.0390021 0.0739605
0.165393 0.0390021 0.0940108
0.457206 0.0611276 0.0827649
0.67744 0.154681 0.197147
0.685466 0.151629 0.198322
0.0701915 0.127291 0.109514
0.155993 0.140368 0.140871
0.516274 0.143023 0.133165
0.696666 0.157244 0.195865
0.69189 0.150134 0.195804
0.194141 0.488884 0.198779
0.195468 0.489372 0.194766
0.606424 0.575051 0.185626
0.815732 0.59382 0.221363
0.822339 0.590265 0.219242
0.313878 0.700328 0.359411
0.314382 0.699901 0.356725
0.602457 0.778912 0.396582
0.828153 0.832425 0.398474
0.844678 0.828229 0.392905
0.320684 0.69865 0.336675
0.317983 0.699336 0.34641
0.519631 0.750378 0.395544
0.790845 0.839399 0.394766
0.859144 0.841291 0.405142
0.0390021 0.0644999 0.251545
0.0414282 0.0446784 0.294057
0.44976 0.073991 0.318685
0.651392 0.149599 0.395514
0.646479 0.152804 0.407614
0.0390021 0.0711223 0.268498
0.0390021 0.0539254 0.29044
0.463096 0.0823835 0.339803
0.647898 0.152529 0.409461
0.650706 0.152377 0.420493
0.144915 0.54728 0.452918
0.144213 0.546868 0.454856
0.597726 0.611093 0.592676
0.851286 0.540337 0.513405
0.854643 0.536553 0.518166
0.326162 0.780041 0.563378
0.321065 0.771252 0.550057
0.532708 0.775326 0.595315
0.837659 0.850629 0.613123
0.870802 0.834714 0.588113
0.333822 0.784985 0.554269
0.332799 0.775738 0.534813
0.467674 0.776776 0.559106
0.814298 0.88719 0.692714
0.879362 0.889586 0.655436
0.0390021 0.112856 0.368841
0.0390021 0.106493 0.374701
0.434791 0.130251 0.53875
0.680415 0.197681 0.562982
0.684627 0.20264 0.576822
0.0390021 0.123735 0.382452
0.0390021 0.126726 0.386023
0.455787 0.145937 0.561913
0.684443 0.202487 0.576684
0.689998 0.206195 0.587777
0.0770275 0.48304 0.536126
0.076585 0.481621 0.535897
0.432609 0.502937 0.728328
0.906767 0.534005 0.787655
0.90518 0.527184 0.782162
0.268864 0.795254 0.684581
0.263355 0.78735 0.676722
0.443778 0.812879 0.729885
0.843229 0.870024 0.842054
0.908186 0.862303 0.829282
0.307866 0.840726 0.698314
0.308507 0.839368 0.692638
0.40119 0.856275 0.712764
0.856428 0.929412 0.872145
0.920485 0.945647 0.880598
0.0390021 0.182376 0.428855
0.0390021 0.181964 0.428794
0.396078 0.17229 0.614206
0.72369 0.238285 0.649088
0.72369 0.238285 0.649088
0.0390021 0.182376 0.428855
0.0390021 0.182376 0.428855
0.433066 0.187259 0.631281
0.72369 0.238285 0.649088
0.72369 0.238285 0.649088
0.0734264 0.470298 0.563027
0.0728008 0.467903 0.56202
0.357946 0.464195 0.735637
0.903853 0.521111 0.850874
0.906737 0.510155 0.842756
0.229084 0.751369 0.700343
0.21503 0.738506 0.693233
0.338537 0.757717 0.743938
0.792264 0.832944 0.885893
0.911131 0.831281 0.892638
0.287663 0.836332 0.736706
0.288167 0.836637 0.736507
0.30454 0.841306 0.738277
0.822599 0.932342 0.895796
0.926818 0.954253 0.925338
