bundles/resolve-cinematic-luts/Phantom Luts/DJI/DJI Phntm Film LUTs - G3/Mavic 3 D-Log/EastmanRM Mavic 3.cube
TITLE "Generated by Resolve"
LUT_3D_SIZE 9
0.0454414 0.0395972 0.041001
0.0770428 0.0366522 0.0383154
0.161852 0.0381018 0.04065
0.303777 0.0381476 0.044007
0.452628 0.0408942 0.0522316
0.548516 0.0621042 0.0910201
0.629099 0.0960555 0.113863
0.629099 0.0960555 0.113863
0.622843 0.0973526 0.119509
0.0503853 0.0565347 0.0438544
0.0535286 0.0579232 0.0440375
0.160372 0.0547494 0.0415808
0.309209 0.0408789 0.0451057
0.444816 0.0441138 0.0596475
0.560433 0.0652781 0.0938582
0.620096 0.0979324 0.121904
0.629099 0.0960555 0.113863
0.624887 0.0969711 0.117296
0.0767834 0.137682 0.0586709
0.0716411 0.139834 0.0616159
0.162646 0.147967 0.0546731
0.377142 0.123156 0.0517281
0.490364 0.108232 0.0744945
0.589212 0.0977493 0.109667
0.617609 0.0984665 0.123964
0.618158 0.0983444 0.123491
0.617075 0.0985733 0.124407
0.101167 0.293889 0.0865034
0.103044 0.29839 0.0870069
0.118868 0.304234 0.0878462
0.41004 0.347951 0.0721599
0.650141 0.331212 0.113054
0.769558 0.321889 0.187091
0.792859 0.307866 0.21062
0.790555 0.295216 0.204257
0.782147 0.297063 0.212497
0.135149 0.480369 0.104631
0.13164 0.485725 0.110964
0.137362 0.489128 0.108309
0.299992 0.528344 0.145281
0.648966 0.606943 0.163455
0.821515 0.611704 0.270069
0.856794 0.615671 0.30396
0.857404 0.613916 0.300893
0.860136 0.618128 0.299733
0.257939 0.6486 0.250858
0.269352 0.651987 0.24799
0.27393 0.654856 0.249561
0.278141 0.655497 0.246738
0.591501 0.760739 0.333211
0.82208 0.814664 0.386419
0.901625 0.808896 0.447883
0.901503 0.809155 0.447807
0.900893 0.812482 0.4551
0.366613 0.735302 0.373785
0.367544 0.735103 0.372656
0.369284 0.734737 0.369406
0.369284 0.734737 0.369406
0.584268 0.791211 0.459144
0.803067 0.883696 0.49659
0.896849 0.902205 0.570718
0.898756 0.901549 0.565957
0.897734 0.9019 0.569879
0.369284 0.734737 0.369406
0.366613 0.735302 0.373785
0.369116 0.734783 0.369757
0.369284 0.734737 0.369406
0.561685 0.782895 0.448936
0.799832 0.88246 0.490715
0.888151 0.901366 0.555383
0.900374 0.900969 0.55996
0.900374 0.900969 0.55996
0.376761 0.73341 0.35816
0.372686 0.734066 0.36437
0.372686 0.734066 0.36437
0.376226 0.733516 0.359075
0.597436 0.795727 0.456687
0.800656 0.883543 0.500664
0.888792 0.901442 0.556176
0.900374 0.900969 0.55996
0.900374 0.900969 0.55996
0.04448 0.0410773 0.0462196
0.0634623 0.039765 0.0465095
0.152117 0.0402533 0.051194
0.296986 0.0437324 0.0587472
0.439673 0.0434424 0.0604105
0.53994 0.0643931 0.0980087
0.616327 0.0987411 0.125078
0.616327 0.0987411 0.125078
0.611841 0.0997024 0.128847
0.0471199 0.052369 0.0475319
0.0505684 0.0511635 0.0487984
0.152514 0.043183 0.0488594
0.297734 0.0434119 0.0557717
0.444221 0.0445258 0.0605173
0.557427 0.0662852 0.0975052
0.615595 0.0988937 0.125719
0.624949 0.0969558 0.11725
0.620569 0.0978256 0.121508
0.072221 0.133394 0.0606241
0.0669871 0.135393 0.0634775
0.158114 0.141924 0.0564126
0.366247 0.117998 0.0525521
0.485847 0.103243 0.0734722
0.580301 0.0901808 0.111223
0.612985 0.0994736 0.127703
0.613489 0.0993515 0.127398
0.614588 0.0990921 0.126696
0.100694 0.291066 0.0859388
0.102541 0.295964 0.0866255
0.115572 0.301198 0.0870527
0.414054 0.343999 0.0729992
0.650248 0.327428 0.112871
0.768795 0.3187 0.187503
0.791577 0.303883 0.208972
0.788403 0.291997 0.203586
0.780377 0.294209 0.211734
0.135012 0.480308 0.10457
0.131456 0.485695 0.110918
0.137484 0.489235 0.108431
0.299168 0.527977 0.14519
0.651896 0.606378 0.16434
0.822034 0.611505 0.270512
0.85687 0.615457 0.303792
0.857572 0.613642 0.300481
0.860166 0.618097 0.299718
0.258183 0.648814 0.251118
0.269612 0.652155 0.248157
0.274067 0.655039 0.249668
0.278294 0.655528 0.246571
0.593194 0.761379 0.332921
0.82356 0.814313 0.387198
0.90161 0.808804 0.447791
0.901564 0.808972 0.44773
0.900725 0.812207 0.454673
0.366613 0.735302 0.373785
0.366613 0.735302 0.373785
0.369284 0.734737 0.369406
0.369284 0.734737 0.369406
0.587259 0.79234 0.460029
0.803723 0.883864 0.496681
0.896834 0.90222 0.570687
0.898756 0.901534 0.565942
0.897749 0.9019 0.569863
0.369284 0.734737 0.369406
0.366613 0.735302 0.373785
0.369284 0.734737 0.369406
0.369284 0.734737 0.369406
0.565911 0.78436 0.451072
0.795941 0.882261 0.499107
0.888151 0.901335 0.555322
0.900374 0.900969 0.55996
0.900374 0.900969 0.55996
0.376761 0.73341 0.35816
0.372686 0.734066 0.36437
0.372686 0.734066 0.36437
0.37644 0.733471 0.358755
0.601221 0.797559 0.457893
0.801678 0.883757 0.500877
0.888716 0.901427 0.556115
0.900374 0.900969 0.55996
0.900374 0.900969 0.55996
0.0421607 0.0476234 0.0717784
0.0479591 0.0462806 0.0868238
0.152178 0.0460517 0.0860609
0.313451 0.0426795 0.0841382
0.476753 0.0518349 0.111009
0.619364 0.104936 0.183246
0.659342 0.123079 0.197498
0.65391 0.114382 0.172641
0.647303 0.115251 0.173129
0.0425269 0.0495155 0.0724651
0.0424811 0.0478065 0.0795911
0.145541 0.0461891 0.0891432
0.317159 0.0431373 0.0890669
0.487068 0.054078 0.117861
0.633936 0.112871 0.195636
0.667277 0.120974 0.192325
0.670222 0.116381 0.172259
0.659953 0.113756 0.171313
0.0597086 0.137011 0.100786
0.0558785 0.137835 0.107286
0.146975 0.147539 0.121843
0.384039 0.103822 0.0991836
0.526558 0.0911879 0.128939
0.639475 0.120272 0.201785
0.661234 0.119768 0.189914
0.655314 0.117357 0.179385
0.654719 0.114473 0.173968
0.115297 0.301915 0.130465
0.112184 0.30692 0.133318
0.127077 0.310246 0.132219
0.407904 0.351736 0.11809
0.643641 0.324865 0.127794
0.76936 0.315877 0.19263
0.791974 0.29958 0.209232
0.784848 0.28455 0.20383
0.776837 0.28687 0.211704
0.132891 0.477501 0.102815
0.130068 0.482902 0.109728
0.13666 0.486412 0.107851
0.292119 0.522942 0.142214
0.654978 0.601556 0.164675
0.820706 0.606714 0.266941
0.856443 0.609461 0.300374
0.859007 0.607584 0.29514
0.859464 0.612238 0.296101
0.256077 0.646998 0.249485
0.267552 0.649927 0.244312
0.271977 0.652934 0.247288
0.275822 0.653208 0.243336
0.592584 0.759579 0.329961
0.825177 0.810575 0.384863
0.90135 0.805646 0.44538
0.90135 0.805707 0.445289
0.900221 0.808881 0.451682
0.366613 0.735302 0.373785
0.366613 0.735302 0.373785
0.366613 0.735302 0.373785
0.369284 0.734737 0.369406
0.586984 0.792218 0.459648
0.803693 0.883848 0.496483
0.896635 0.902205 0.570336
0.898756 0.901503 0.565621
0.897734 0.9019 0.569879
0.369284 0.734737 0.369406
0.366613 0.735302 0.373785
0.366613 0.735302 0.373785
0.369284 0.734737 0.369406
0.566186 0.784451 0.451286
0.795789 0.882231 0.499336
0.884428 0.902113 0.562646
0.900374 0.900969 0.55996
0.900374 0.900969 0.55996
0.376761 0.73341 0.35816
0.372686 0.734066 0.36437
0.372686 0.734066 0.36437
0.376761 0.73341 0.35816
0.600946 0.797528 0.457191
0.801434 0.883635 0.500725
0.88423 0.90222 0.564019
0.900374 0.900969 0.55996
0.900374 0.900969 0.55996
0.0402991 0.0658732 0.13257
0.0407111 0.0632334 0.144488
0.108095 0.0527657 0.194446
0.312856 0.0536507 0.171984
0.476036 0.0500801 0.165164
0.621256 0.104189 0.243626
0.692164 0.142412 0.295415
0.695598 0.141726 0.291203
0.695918 0.141451 0.291005
0.0402228 0.0684215 0.137911
0.0400549 0.069337 0.144762
0.085832 0.0508278 0.202457
0.321874 0.0540932 0.185199
0.487572 0.0524453 0.179278
0.633722 0.11191 0.258137
0.689464 0.141436 0.298695
0.699168 0.139101 0.288075
0.70193 0.138079 0.284108
0.0434272 0.124025 0.158022
0.0426642 0.12398 0.165103
0.0757153 0.112139 0.212955
0.357641 0.0877089 0.215747
0.499123 0.0619669 0.199756
0.638834 0.117693 0.271046
0.685588 0.140917 0.302708
0.694759 0.138888 0.292531
0.698528 0.137728 0.288289
0.0645457 0.301122 0.239551
0.0645609 0.305547 0.244602
0.0656443 0.307103 0.246754
0.38996 0.371664 0.330449
0.678721 0.324239 0.315953
0.834287 0.286107 0.362829
0.843931 0.276097 0.381964
0.848814 0.265568 0.377401
0.843519 0.269825 0.390661
0.13872 0.5122 0.267765
0.134997 0.518883 0.279744
0.135653 0.523064 0.283375
0.282643 0.54345 0.320745
0.630213 0.612238 0.339223
0.826123 0.583856 0.318288
0.873045 0.598154 0.328161
0.876875 0.595407 0.320699
0.875257 0.599878 0.329717
0.273045 0.657481 0.323461
0.280278 0.661768 0.326452
0.283909 0.665187 0.332876
0.287861 0.66511 0.329686
0.560861 0.734188 0.425116
0.821683 0.806012 0.400641
0.90367 0.798566 0.455619
0.903624 0.798444 0.455573
0.903426 0.801038 0.461173
0.373266 0.742855 0.405447
0.374472 0.744183 0.410178
0.375692 0.745159 0.413825
0.376257 0.745556 0.415274
0.571206 0.787945 0.486198
0.798428 0.883116 0.523644
0.894133 0.902998 0.575021
0.899062 0.902174 0.573571
0.897658 0.902846 0.579858
0.374578 0.740764 0.395041
0.373129 0.742702 0.404669
0.37438 0.744076 0.409705
0.375204 0.744732 0.412345
0.546593 0.781186 0.476722
0.790799 0.881849 0.532982
0.878477 0.902785 0.567086
0.898497 0.902556 0.57734
0.900404 0.902129 0.572396
0.384848 0.742428 0.397345
0.382498 0.744945 0.409644
0.383536 0.746212 0.414282
0.38439 0.74696 0.417243
0.575952 0.790036 0.494835
0.795987 0.884245 0.557153
0.877424 0.903181 0.571313
0.898054 0.903288 0.58407
0.900221 0.902754 0.578058
0.0414893 0.0940414 0.241962
0.0415351 0.0950484 0.246983
0.0465553 0.0685435 0.281819
0.267872 0.0592966 0.360449
0.480583 0.0777905 0.325689
0.605432 0.113283 0.347234
0.673381 0.142702 0.364141
0.673533 0.143175 0.365515
0.674052 0.144503 0.369833
0.0417182 0.0976425 0.252506
0.0415808 0.098085 0.259556
0.0434272 0.0746929 0.28835
0.270863 0.0615549 0.375082
0.494484 0.0821241 0.343679
0.617624 0.121874 0.36524
0.676432 0.147326 0.381003
0.676982 0.147951 0.382803
0.684703 0.146853 0.379004
0.0415808 0.100679 0.262272
0.0415961 0.101625 0.266941
0.0417334 0.0890822 0.286397
0.268986 0.0634165 0.37882
0.504005 0.0859541 0.359045
0.624582 0.129717 0.383291
0.676066 0.152026 0.398611
0.676493 0.152819 0.401221
0.682734 0.152514 0.399344
0.0425422 0.247517 0.314504
0.0425422 0.251728 0.320302
0.0425879 0.253559 0.324086
0.240497 0.27454 0.454292
0.655192 0.283833 0.522805
0.798917 0.258259 0.509941
0.803937 0.243427 0.493385
0.787015 0.229374 0.485176
0.784527 0.227878 0.488014
0.0806287 0.513146 0.433509
0.0783856 0.51838 0.444282
0.0800336 0.521935 0.446891
0.14786 0.540017 0.472496
0.608591 0.620432 0.589197
0.852659 0.586023 0.564309
0.910765 0.579599 0.568307
0.911711 0.575586 0.572854
0.914153 0.579171 0.57615
0.236393 0.690913 0.474632
0.237507 0.695735 0.484047
0.239719 0.699336 0.489418
0.239261 0.699901 0.491981
0.555383 0.748531 0.581231
0.79881 0.812299 0.615122
0.901976 0.793393 0.614176
0.902678 0.795956 0.615412
0.90396 0.798718 0.617929
0.372335 0.779782 0.540276
0.372839 0.780652 0.540856
0.372503 0.781826 0.542702
0.369879 0.781659 0.543923
0.554482 0.812024 0.60415
0.782498 0.874067 0.719432
0.884978 0.915358 0.733791
0.898482 0.915846 0.736278
0.897246 0.916808 0.743847
0.376318 0.782986 0.542641
0.372564 0.784787 0.550378
0.370214 0.785794 0.553506
0.368521 0.78648 0.55584
0.544213 0.816785 0.612863
0.791836 0.883909 0.744595
0.867674 0.916732 0.744503
0.895277 0.924056 0.757504
0.895491 0.924651 0.762158
0.37348 0.785046 0.548516
0.371206 0.786267 0.552544
0.369436 0.787411 0.556115
0.368551 0.788266 0.559274
0.569497 0.823804 0.625299
0.797772 0.887984 0.759197
0.866026 0.917662 0.760174
0.894179 0.926116 0.775021
0.895171 0.926375 0.776028
0.0420386 0.123354 0.349142
0.0420539 0.124773 0.350454
0.0421454 0.11696 0.359228
0.112932 0.0626383 0.435447
0.442985 0.0909285 0.489342
0.64184 0.162524 0.505562
0.692729 0.182925 0.51516
0.693187 0.183185 0.516716
0.689403 0.184878 0.523217
0.0420996 0.127565 0.356405
0.0421302 0.128817 0.360067
0.0421302 0.123186 0.364111
0.114458 0.0664836 0.443336
0.456718 0.0977646 0.5037
0.656016 0.171664 0.523156
0.696193 0.185 0.525048
0.696757 0.185428 0.527077
0.693736 0.187579 0.533333
0.0423133 0.131182 0.365942
0.0421454 0.132555 0.363668
0.0420996 0.133028 0.363973
0.116457 0.0744335 0.435645
0.465629 0.10425 0.516976
0.6645 0.178378 0.537591
0.697337 0.188434 0.536538
0.697581 0.188785 0.538323
0.695674 0.190997 0.543908
0.0427558 0.204837 0.388586
0.0427253 0.209293 0.388861
0.0426947 0.21059 0.390494
0.0917525 0.171298 0.476371
0.529137 0.182223 0.618189
0.704997 0.204532 0.577432
0.703517 0.18967 0.539773
0.708232 0.191913 0.542809
0.696406 0.192157 0.548898
0.0448768 0.458732 0.495842
0.0451209 0.464027 0.49868
0.0454414 0.46775 0.499214
0.0457465 0.471397 0.506752
0.495415 0.533532 0.69543
0.858366 0.568399 0.756558
0.916777 0.559258 0.753628
0.917357 0.557733 0.757168
0.911589 0.563668 0.765652
0.170169 0.681788 0.607996
0.182071 0.684565 0.605615
0.184802 0.686503 0.608621
0.184009 0.68603 0.61004
0.477256 0.746853 0.692454
0.780102 0.807187 0.77644
0.903685 0.802686 0.765042
0.904402 0.806241 0.769558
0.901381 0.81088 0.779828
0.322225 0.792599 0.647425
0.331075 0.793332 0.645441
0.331319 0.793729 0.647974
0.328222 0.792554 0.649012
0.48687 0.823529 0.690578
0.789197 0.886656 0.800595
0.878599 0.914199 0.823392
0.900435 0.919844 0.829633
0.898726 0.920531 0.83357
0.346944 0.806851 0.657206
0.343816 0.807157 0.662364
0.343648 0.807309 0.664729
0.343435 0.807355 0.666423
0.487953 0.837034 0.698955
0.807752 0.908644 0.823606
0.876417 0.928405 0.862272
0.899214 0.938445 0.862654
0.897642 0.938704 0.8654
0.34641 0.807263 0.664591
0.347051 0.807324 0.666987
0.34963 0.80737 0.667765
0.349416 0.80737 0.669078
0.519036 0.844114 0.710613
0.81387 0.9122 0.833371
0.877867 0.930571 0.870176
0.898314 0.93962 0.870268
0.898711 0.939895 0.871458
0.0425116 0.161944 0.418021
0.0425422 0.163973 0.420478
0.0425422 0.166201 0.420539
0.0511788 0.122454 0.453986
0.346319 0.134463 0.584924
0.634287 0.196811 0.643397
0.721172 0.222644 0.646281
0.721645 0.22295 0.647303
0.720729 0.224948 0.652262
0.0425879 0.168887 0.423301
0.0426795 0.170687 0.426352
0.0425574 0.173083 0.426184
0.0528573 0.128573 0.463233
0.373251 0.149554 0.606806
0.654673 0.209064 0.659861
0.725093 0.228092 0.660624
0.72604 0.228458 0.662028
0.724865 0.23064 0.6663
0.0425727 0.174929 0.429023
0.0425879 0.177432 0.430106
0.04271 0.179538 0.429328
0.0525216 0.137346 0.467262
0.39115 0.160861 0.623209
0.66949 0.218738 0.673396
0.727779 0.233799 0.672282
0.72929 0.234363 0.673716
0.728756 0.236088 0.677623
0.04271 0.182589 0.433494
0.0425574 0.184817 0.433829
0.0425574 0.184634 0.433555
0.0434424 0.15935 0.461906
0.366171 0.15465 0.615946
0.669657 0.21944 0.676173
0.729564 0.23447 0.674159
0.731136 0.234714 0.674983
0.728588 0.236835 0.679255
0.0440528 0.436805 0.543481
0.0441901 0.442405 0.547005
0.0442664 0.44654 0.547768
0.0442969 0.447013 0.548974
0.361547 0.468299 0.725444
0.824765 0.546395 0.891493
0.921706 0.537942 0.877501
0.921111 0.53695 0.877363
0.918685 0.542565 0.879332
0.103517 0.62324 0.63299
0.106157 0.627482 0.638117
0.110277 0.630259 0.639216
0.109972 0.630228 0.639155
0.349218 0.685695 0.726345
0.720882 0.757229 0.840269
0.908309 0.777111 0.864027
0.909407 0.777569 0.864775
0.905547 0.782284 0.868879
0.29453 0.771771 0.703365
0.296895 0.773175 0.704631
0.30518 0.772885 0.702052
0.301503 0.770809 0.701289
0.373281 0.794293 0.730449
0.753552 0.883696 0.842725
0.876493 0.912688 0.88043
0.902388 0.922301 0.88574
0.901762 0.922805 0.886885
0.341833 0.805859 0.717632
0.341238 0.805753 0.719631
0.341405 0.805829 0.720378
0.341375 0.805783 0.720562
0.383032 0.820706 0.732769
0.789487 0.913893 0.854932
0.892454 0.941222 0.898039
0.908232 0.948592 0.906477
0.907622 0.949004 0.908202
0.341985 0.805768 0.720043
0.341299 0.805508 0.72163
0.343648 0.805447 0.721202
0.343786 0.805493 0.721416
0.412329 0.827466 0.740017
0.797818 0.916106 0.860166
0.892775 0.942733 0.900847
0.905257 0.947906 0.908339
0.907851 0.949248 0.908995
0.0428168 0.206958 0.450874
0.0428168 0.206912 0.451286
0.0428168 0.207004 0.450462
0.043595 0.178164 0.475364
0.272816 0.143206 0.599634
0.658091 0.244419 0.727153
0.746899 0.258045 0.713329
0.747402 0.257893 0.71313
0.745113 0.258564 0.714046
0.0428168 0.207004 0.450477
0.0428168 0.206912 0.451286
0.0428168 0.207004 0.450446
0.0449836 0.175311 0.480766
0.31696 0.157092 0.619654
0.675654 0.247333 0.725338
0.745632 0.258412 0.713848
0.746151 0.258259 0.713649
0.74519 0.258534 0.714015
0.0428168 0.206973 0.450782
0.0428168 0.206958 0.450889
0.0428168 0.207126 0.449546
0.045243 0.17496 0.479835
0.347951 0.167269 0.633692
0.686473 0.248646 0.723125
0.745205 0.258534 0.714015
0.745785 0.258366 0.713787
0.744991 0.258595 0.714092
0.0428168 0.206928 0.451087
0.0428168 0.206973 0.450752
0.0428168 0.207034 0.450294
0.042771 0.183673 0.457954
0.325826 0.160571 0.62443
0.684657 0.248081 0.723308
0.745953 0.25832 0.713726
0.746731 0.258091 0.71339
0.744839 0.25864 0.714122
0.0444343 0.429328 0.554711
0.0444343 0.435157 0.557244
0.0445869 0.439139 0.558663
0.0446021 0.439567 0.558587
0.309026 0.451911 0.72517
0.787488 0.531777 0.901076
0.913237 0.525872 0.901534
0.913146 0.525154 0.901503
0.913191 0.531273 0.902785
0.0920882 0.614221 0.639124
0.0943008 0.618021 0.642069
0.0960861 0.620096 0.642588
0.09897 0.619913 0.640452
0.256245 0.663844 0.720241
0.669352 0.72253 0.846067
0.896696 0.768811 0.906111
0.90927 0.765423 0.905241
0.907393 0.769467 0.905425
0.267002 0.740795 0.715526
0.266773 0.743313 0.718837
0.26978 0.743832 0.718059
0.267399 0.741711 0.716655
0.315435 0.759014 0.740444
0.716487 0.857862 0.854795
0.869032 0.90396 0.896971
0.909163 0.90837 0.898817
0.906065 0.91046 0.901884
0.334462 0.797299 0.73695
0.333883 0.797223 0.737484
0.338094 0.796887 0.735485
0.340536 0.796841 0.734218
0.344747 0.802213 0.740505
0.73872 0.902022 0.856184
0.883757 0.938766 0.901946
0.90927 0.949844 0.915068
0.909453 0.95024 0.916396
0.334478 0.797391 0.736782
0.333974 0.797345 0.737362
0.33518 0.797253 0.736675
0.335317 0.797436 0.736187
0.352621 0.80589 0.742031
0.755306 0.907698 0.861326
0.89073 0.942489 0.905028
0.911391 0.951263 0.916411
0.910384 0.951843 0.917006
0.0428168 0.206958 0.450874
0.0428168 0.206912 0.451286
0.0428168 0.207004 0.450462
0.0430915 0.17969 0.470268
0.267887 0.141939 0.597513
0.65774 0.244511 0.727352
0.747051 0.258 0.713268
0.747402 0.257893 0.71313
0.745113 0.258564 0.714046
0.0428168 0.207004 0.450477
0.0428168 0.206912 0.451286
0.0428168 0.207004 0.450446
0.0439918 0.17731 0.477165
0.313329 0.155612 0.617655
0.675395 0.247288 0.725368
0.745632 0.258412 0.713863
0.746151 0.258259 0.713634
0.74519 0.258534 0.714015
0.0428168 0.206973 0.450782
0.0428168 0.206958 0.450889
0.0428168 0.207126 0.449546
0.0443275 0.176471 0.476967
0.345556 0.166308 0.6327
0.686534 0.248768 0.723293
0.745205 0.258534 0.714015
0.7458 0.258366 0.713787
0.744991 0.258595 0.714076
0.0428168 0.206943 0.451072
0.0428168 0.206973 0.450767
0.0428168 0.207034 0.450294
0.0427405 0.184665 0.454261
0.323919 0.160067 0.623682
0.68452 0.248157 0.723461
0.745953 0.25832 0.713726
0.746731 0.258091 0.713405
0.744823 0.25864 0.714137
0.0444495 0.421271 0.551308
0.04448 0.427924 0.55404
0.044419 0.432364 0.555261
0.0444343 0.433112 0.555322
0.305043 0.442695 0.723293
0.786877 0.523552 0.900053
0.911299 0.517555 0.899306
0.911299 0.517128 0.899245
0.911681 0.523949 0.900877
0.0901198 0.610971 0.637583
0.0919203 0.614908 0.639963
0.0948806 0.617304 0.641062
0.0975052 0.617288 0.639216
0.251453 0.660334 0.719005
0.666789 0.717998 0.845502
0.896391 0.765209 0.906737
0.910109 0.762112 0.906294
0.907698 0.765972 0.905653
0.260334 0.735424 0.714107
0.260166 0.738445 0.716869
0.263539 0.739269 0.716075
0.261357 0.737011 0.715251
0.307897 0.753506 0.73843
0.703059 0.850874 0.851087
0.863767 0.899229 0.895949
0.908476 0.90428 0.898222
0.905379 0.906874 0.901167
0.33225 0.79498 0.739544
0.33225 0.79498 0.739544
0.336263 0.794827 0.737911
0.339071 0.79472 0.736721
0.339864 0.797116 0.742885
0.72459 0.893828 0.855497
0.877165 0.932906 0.900465
0.9066 0.94757 0.913237
0.907622 0.948257 0.914595
0.33225 0.79498 0.739544
0.33225 0.79498 0.739544
0.33225 0.79498 0.739544
0.33225 0.79498 0.739544
0.345922 0.801266 0.74522
0.72398 0.899687 0.854551
0.880049 0.938552 0.901411
0.909911 0.950652 0.916152
0.910079 0.952102 0.917098
