bundles/resolve-cinematic-luts/Phantom Luts/DJI/DJI Phntm Film LUTs - G3/Mavic 3 D-Log/Eastman Mavic 3.cube
TITLE "Generated by Resolve"
LUT_3D_SIZE 9
0.0407111 0.0390021 0.0390021
0.072343 0.0390021 0.0391241
0.157778 0.0427405 0.0433967
0.299626 0.0561074 0.0390021
0.423362 0.0823529 0.0445563
0.517754 0.128588 0.0661631
0.613306 0.164309 0.0965133
0.62797 0.159792 0.0972915
0.617746 0.162951 0.0965744
0.0552682 0.0471351 0.0462348
0.0593881 0.0491493 0.046128
0.159319 0.0554208 0.0487526
0.302129 0.061326 0.0390021
0.410407 0.090837 0.0441138
0.517143 0.133989 0.0680858
0.612802 0.164446 0.0965591
0.627344 0.159976 0.0972763
0.61857 0.162692 0.0966964
0.0897688 0.127932 0.074464
0.084947 0.128252 0.0751659
0.177676 0.141787 0.0698253
0.386389 0.134951 0.068864
0.479667 0.154192 0.0802472
0.573816 0.186435 0.106874
0.638529 0.186862 0.114992
0.623407 0.175616 0.107851
0.614862 0.175463 0.105364
0.147189 0.313512 0.135454
0.148425 0.315435 0.136019
0.170153 0.324834 0.14168
0.422766 0.365332 0.115099
0.614954 0.352392 0.131533
0.731167 0.353231 0.165011
0.792599 0.353079 0.182269
0.796521 0.352911 0.182437
0.78291 0.355947 0.18294
0.192782 0.49099 0.190066
0.190738 0.492393 0.192767
0.195468 0.493446 0.189868
0.386557 0.546807 0.21912
0.606912 0.585519 0.188922
0.76347 0.592584 0.208377
0.818708 0.608255 0.223911
0.826261 0.608667 0.222385
0.824506 0.607828 0.22266
0.265797 0.631937 0.288319
0.26566 0.630869 0.286549
0.264775 0.629984 0.28629
0.277226 0.628656 0.279881
0.599313 0.727092 0.303166
0.75169 0.753613 0.300237
0.837018 0.754299 0.317662
0.838071 0.754101 0.312825
0.833844 0.751598 0.312688
0.313878 0.700328 0.359411
0.313939 0.700313 0.359228
0.315267 0.699962 0.354925
0.316991 0.699397 0.349004
0.617838 0.789227 0.409293
0.746365 0.826398 0.377127
0.831266 0.839841 0.410513
0.847562 0.838254 0.406516
0.845106 0.8365 0.405386
0.316091 0.699794 0.352712
0.313878 0.700328 0.359411
0.314397 0.700206 0.357671
0.316716 0.699641 0.350576
0.579293 0.774487 0.414038
0.733181 0.828382 0.390356
0.813519 0.839826 0.39263
0.860838 0.841291 0.406104
0.859495 0.84123 0.404761
0.32079 0.698634 0.33637
0.318441 0.699214 0.344411
0.318151 0.69929 0.345663
0.320287 0.698741 0.338033
0.537194 0.757153 0.399893
0.718929 0.824567 0.392462
0.799939 0.839338 0.390249
0.860044 0.841672 0.409598
0.859373 0.841245 0.404898
0.0391699 0.0390021 0.0404669
0.0675669 0.0390021 0.0490425
0.164721 0.0390021 0.0480049
0.305638 0.0534524 0.0448463
0.418555 0.0889448 0.0472725
0.506004 0.133074 0.0661021
0.596689 0.169375 0.0960708
0.606546 0.166354 0.0964981
0.599374 0.168551 0.0962081
0.0487373 0.0419471 0.0469978
0.053315 0.0414893 0.0493629
0.162264 0.0468452 0.0501564
0.300313 0.0587625 0.0416419
0.413169 0.0909133 0.04448
0.514946 0.135302 0.0680705
0.604913 0.166842 0.0964523
0.619242 0.162478 0.0967575
0.611139 0.16495 0.0965896
0.0873579 0.123842 0.0780957
0.082826 0.123919 0.0781109
0.171954 0.134676 0.0692912
0.374945 0.128969 0.0661479
0.471534 0.149172 0.0765393
0.564431 0.181292 0.102754
0.622507 0.183551 0.11281
0.611475 0.175525 0.104494
0.605142 0.166888 0.0969711
0.146792 0.310491 0.135073
0.148257 0.311803 0.135042
0.164904 0.319661 0.139422
0.422995 0.360845 0.114473
0.612741 0.346975 0.130312
0.729259 0.348333 0.16376
0.791135 0.347158 0.181323
0.79379 0.346685 0.181201
0.779965 0.34905 0.181689
0.191974 0.489433 0.189197
0.190036 0.490623 0.19205
0.19469 0.491753 0.188617
0.384222 0.544228 0.21825
0.606653 0.58204 0.187671
0.762493 0.589426 0.20734
0.817975 0.603525 0.223056
0.826261 0.602762 0.221027
0.823651 0.60148 0.22121
0.264897 0.629969 0.28629
0.264576 0.629221 0.285512
0.26363 0.628321 0.285389
0.274556 0.626444 0.278553
0.596323 0.724224 0.300465
0.750698 0.749691 0.297459
0.836545 0.749981 0.313771
0.8383 0.749493 0.308324
0.833188 0.746517 0.307103
0.313878 0.700328 0.359411
0.313939 0.700328 0.359258
0.315267 0.699962 0.35494
0.31667 0.698848 0.347921
0.61236 0.785489 0.404822
0.742565 0.823438 0.372869
0.829847 0.837858 0.406317
0.847562 0.836027 0.402502
0.845365 0.833738 0.401129
0.316091 0.699794 0.352712
0.313878 0.700328 0.359411
0.314382 0.700206 0.357748
0.316732 0.699641 0.350561
0.570886 0.770977 0.413367
0.730785 0.82771 0.390661
0.8121 0.839475 0.390478
0.861021 0.841306 0.406348
0.859297 0.84126 0.40499
0.320729 0.698634 0.336492
0.318441 0.699214 0.344442
0.318151 0.69929 0.345678
0.320363 0.698726 0.337819
0.52961 0.754116 0.397635
0.717083 0.824063 0.39266
0.799817 0.839048 0.388388
0.860136 0.841657 0.409598
0.859236 0.841276 0.405035
0.0390021 0.0390021 0.0739605
0.0525216 0.0390021 0.0906081
0.165393 0.0390021 0.0940108
0.32166 0.0390021 0.0685588
0.457206 0.0611276 0.0827649
0.595117 0.12372 0.158053
0.67744 0.154681 0.197147
0.692622 0.14995 0.198611
0.685466 0.151629 0.198322
0.0392004 0.0392767 0.0770428
0.0390021 0.0390021 0.0835889
0.155276 0.0390021 0.0960708
0.321828 0.0390021 0.0687266
0.462196 0.0648508 0.0858167
0.602502 0.128145 0.16347
0.691127 0.1505 0.198611
0.704326 0.14583 0.19971
0.697047 0.148547 0.201968
0.0701915 0.127291 0.109514
0.0671702 0.12697 0.11162
0.155993 0.140368 0.140871
0.388052 0.127916 0.124498
0.516274 0.143023 0.133165
0.636683 0.167926 0.183276
0.696666 0.157244 0.195865
0.690303 0.152987 0.195209
0.69189 0.150134 0.195804
0.16289 0.322805 0.18497
0.162814 0.325124 0.186465
0.174533 0.329381 0.189899
0.425452 0.372824 0.166247
0.606882 0.34551 0.148577
0.725322 0.346914 0.174411
0.783276 0.349355 0.192248
0.790738 0.344091 0.190982
0.776837 0.345098 0.19089
0.194141 0.488884 0.198779
0.191669 0.48957 0.20058
0.195468 0.489372 0.194766
0.375753 0.537469 0.221485
0.606424 0.575051 0.185626
0.759136 0.581964 0.204318
0.815732 0.59382 0.221363
0.827497 0.591119 0.217853
0.822339 0.590265 0.219242
0.262577 0.626139 0.282628
0.262013 0.624842 0.281956
0.26096 0.623621 0.281407
0.268956 0.620951 0.274174
0.59173 0.718441 0.296223
0.749676 0.742718 0.291966
0.834958 0.742199 0.306615
0.838056 0.741634 0.301137
0.833356 0.738293 0.299306
0.313878 0.700328 0.359411
0.31397 0.700313 0.359091
0.314382 0.699901 0.356725
0.314488 0.69572 0.343511
0.602457 0.778912 0.396582
0.737499 0.818845 0.3664
0.828153 0.832425 0.398474
0.847684 0.830716 0.394614
0.844678 0.828229 0.392905
0.315969 0.699825 0.353079
0.313878 0.700328 0.359411
0.313878 0.700328 0.359411
0.316701 0.699641 0.350622
0.561151 0.766964 0.41178
0.728038 0.82707 0.390799
0.801404 0.840375 0.398032
0.86099 0.841367 0.40708
0.85919 0.841276 0.405081
0.320684 0.69865 0.336675
0.318318 0.699245 0.344991
0.317983 0.699336 0.34641
0.319493 0.698909 0.34023
0.519631 0.750378 0.395544
0.714977 0.823438 0.393271
0.790845 0.839399 0.394766
0.859953 0.841718 0.409918
0.859144 0.841291 0.405142
0.0390021 0.0481727 0.149386
0.0390021 0.0444343 0.165774
0.119234 0.0439002 0.219669
0.311864 0.0390021 0.190494
0.443763 0.0513619 0.202594
0.585565 0.113161 0.259953
0.663996 0.146014 0.305104
0.662547 0.145495 0.309346
0.667964 0.141878 0.31313
0.0390021 0.0496681 0.158724
0.0390021 0.0498817 0.16347
0.0961929 0.0442512 0.222843
0.315099 0.0393072 0.198795
0.448676 0.0546883 0.210407
0.590524 0.116945 0.267536
0.660853 0.146151 0.308843
0.670298 0.140719 0.313359
0.67454 0.13727 0.316686
0.0390021 0.109529 0.184207
0.0390021 0.108263 0.187625
0.0762493 0.0978103 0.237537
0.353338 0.0861372 0.248417
0.474968 0.0836652 0.240864
0.59762 0.121981 0.277546
0.656352 0.145388 0.311757
0.666667 0.140246 0.315709
0.667369 0.138262 0.317662
0.104036 0.329931 0.272602
0.102968 0.331655 0.274601
0.104906 0.333394 0.278767
0.412345 0.395529 0.389899
0.637675 0.358892 0.357519
0.768521 0.328389 0.335653
0.804959 0.325414 0.340581
0.824094 0.317388 0.347662
0.814466 0.321294 0.352132
0.193286 0.53402 0.345647
0.191989 0.534981 0.348653
0.193072 0.535882 0.348516
0.363195 0.553964 0.400198
0.608927 0.597818 0.379797
0.758419 0.543053 0.318975
0.820035 0.559197 0.298039
0.832853 0.556359 0.295857
0.826627 0.555169 0.295735
0.290028 0.650767 0.394995
0.288289 0.64892 0.394476
0.287419 0.647166 0.393713
0.289845 0.641978 0.385168
0.551064 0.704387 0.451041
0.74136 0.738811 0.362799
0.840146 0.723888 0.359411
0.843214 0.729732 0.344335
0.841779 0.725292 0.337011
0.33576 0.723278 0.448264
0.333974 0.720424 0.441398
0.331136 0.716793 0.434699
0.326421 0.710735 0.425742
0.553002 0.758129 0.489189
0.723644 0.816526 0.435859
0.823224 0.826551 0.415152
0.848264 0.821546 0.405951
0.845487 0.818311 0.403067
0.338033 0.725322 0.442908
0.334783 0.723552 0.442191
0.333577 0.721584 0.436316
0.331044 0.71873 0.427649
0.515358 0.758099 0.477546
0.725475 0.833555 0.482444
0.794339 0.841489 0.415427
0.847318 0.845411 0.43653
0.859113 0.842786 0.419974
0.337392 0.719097 0.414008
0.333394 0.717083 0.41326
0.331533 0.714916 0.407187
0.329778 0.712718 0.399466
0.47567 0.742321 0.433249
0.709972 0.82742 0.471199
0.784161 0.840772 0.416678
0.845624 0.845731 0.439399
0.859129 0.842969 0.421683
0.0390021 0.0644999 0.251545
0.0390021 0.0653544 0.253666
0.0414282 0.0446784 0.294057
0.296101 0.0437476 0.335988
0.44976 0.073991 0.318685
0.563348 0.11191 0.353002
0.651392 0.149599 0.395514
0.650843 0.150637 0.402564
0.646479 0.152804 0.407614
0.0390021 0.0666667 0.260273
0.0390021 0.0673838 0.262425
0.0390021 0.0457771 0.294606
0.296101 0.0451362 0.345769
0.456687 0.0772869 0.327367
0.570626 0.116442 0.362219
0.649943 0.150881 0.401724
0.649393 0.151965 0.409003
0.652506 0.151476 0.415595
0.0390021 0.0711223 0.268498
0.0390021 0.0704356 0.270558
0.0390021 0.0539254 0.29044
0.291341 0.0458534 0.357534
0.463096 0.0823835 0.339803
0.577218 0.120851 0.373175
0.647898 0.152529 0.409461
0.647822 0.15317 0.41561
0.650706 0.152377 0.420493
0.0462806 0.278492 0.333043
0.0463874 0.280308 0.335409
0.0462501 0.281117 0.337896
0.295201 0.315816 0.481987
0.637659 0.324819 0.52874
0.767071 0.306127 0.520256
0.816419 0.310246 0.524788
0.811093 0.304356 0.527733
0.806775 0.300313 0.528801
0.144915 0.54728 0.452918
0.144045 0.547127 0.454856
0.144213 0.546868 0.454856
0.25594 0.570886 0.496162
0.597726 0.611093 0.592676
0.780179 0.563638 0.542321
0.851286 0.540337 0.513405
0.850965 0.541024 0.517693
0.854643 0.536553 0.518166
0.257786 0.705333 0.514717
0.256779 0.703487 0.514717
0.254978 0.701152 0.513161
0.25098 0.695644 0.509239
0.559457 0.723552 0.596094
0.74873 0.761425 0.586404
0.84007 0.711482 0.531762
0.851911 0.707637 0.508812
0.849729 0.699702 0.501183
0.326162 0.780041 0.563378
0.323796 0.775525 0.55552
0.321065 0.771252 0.550057
0.316579 0.764004 0.541985
0.532708 0.775326 0.595315
0.712535 0.825559 0.661433
0.837659 0.850629 0.613123
0.874693 0.839139 0.596841
0.870802 0.834714 0.588113
0.334646 0.792355 0.567376
0.334356 0.789105 0.56582
0.333242 0.785153 0.558801
0.332769 0.780804 0.550958
0.503624 0.788418 0.589853
0.727321 0.855085 0.694377
0.823484 0.889082 0.685145
0.879332 0.889632 0.655009
0.877882 0.887602 0.647898
0.333822 0.784985 0.554269
0.332372 0.7794 0.539712
0.332799 0.775738 0.534813
0.333654 0.772427 0.529656
0.467674 0.776776 0.559106
0.707988 0.847898 0.68423
0.814298 0.88719 0.692714
0.867308 0.890043 0.656519
0.879362 0.889586 0.655436
0.0390021 0.0842298 0.319265
0.0390021 0.0854658 0.321721
0.0390021 0.0669261 0.336629
0.206043 0.0490883 0.414771
0.444526 0.085069 0.425605
0.596643 0.151919 0.455406
0.658885 0.165331 0.48246
0.659998 0.166705 0.487373
0.65771 0.16939 0.490181
0.0390021 0.0880446 0.326238
0.0390021 0.0885023 0.328191
0.0390021 0.0734569 0.33727
0.202808 0.0496071 0.419532
0.450889 0.0891737 0.434272
0.60415 0.156024 0.464103
0.660456 0.166369 0.487098
0.662181 0.1682 0.492409
0.660929 0.171923 0.496208
0.0390021 0.0910353 0.333562
0.0390021 0.0921035 0.334539
0.0390021 0.0863203 0.337728
0.191272 0.0489967 0.423316
0.459419 0.0944839 0.446723
0.611704 0.160555 0.475227
0.659922 0.169207 0.491722
0.662135 0.172198 0.497169
0.661189 0.174746 0.499901
0.0390021 0.245457 0.379492
0.0390021 0.246891 0.381643
0.0390021 0.246662 0.383017
0.176516 0.217411 0.499779
0.578973 0.254414 0.618494
0.724788 0.262913 0.584237
0.765042 0.256641 0.586679
0.75906 0.252857 0.584497
0.74789 0.250965 0.577829
0.0833295 0.498833 0.496513
0.08336 0.498848 0.496254
0.0829938 0.498238 0.495979
0.122362 0.51664 0.528466
0.511543 0.5561 0.687861
0.808621 0.559152 0.709895
0.88368 0.535103 0.693751
0.88574 0.53521 0.695766
0.880537 0.532143 0.692638
0.214359 0.702907 0.597208
0.212573 0.700893 0.592142
0.210803 0.697307 0.590082
0.206226 0.690318 0.585458
0.513817 0.742382 0.683711
0.741238 0.766827 0.742061
0.862501 0.737957 0.707546
0.884413 0.731502 0.696406
0.878767 0.723659 0.690455
0.298924 0.805615 0.644846
0.296437 0.802411 0.638926
0.293492 0.798566 0.634821
0.288518 0.791821 0.628153
0.505806 0.812909 0.680781
0.730587 0.843183 0.755917
0.848478 0.867994 0.753964
0.895628 0.856184 0.730541
0.8925 0.853498 0.722591
0.323125 0.831937 0.65687
0.325048 0.83061 0.654704
0.325216 0.829206 0.649592
0.325811 0.827604 0.644846
0.483635 0.837644 0.676051
0.729168 0.875746 0.767758
0.835279 0.906218 0.816159
0.90071 0.922591 0.79588
0.906905 0.920775 0.793744
0.324895 0.829419 0.648905
0.325856 0.827726 0.645441
0.325078 0.826444 0.636423
0.325765 0.824979 0.633173
0.447227 0.833219 0.656611
0.713542 0.874998 0.762081
0.839094 0.912993 0.827085
0.885939 0.925536 0.808911
0.908598 0.927764 0.804715
0.0390021 0.112856 0.368841
0.0390021 0.114855 0.371878
0.0390021 0.106493 0.374701
0.119432 0.0504158 0.436194
0.434791 0.130251 0.53875
0.610101 0.173053 0.547326
0.680415 0.197681 0.562982
0.682918 0.200824 0.570886
0.684627 0.20264 0.576822
0.0390021 0.118013 0.375647
0.0390021 0.119463 0.377157
0.0390021 0.114046 0.379355
0.117205 0.0512856 0.439033
0.444465 0.136858 0.548394
0.619272 0.177905 0.555901
0.682536 0.20061 0.569924
0.684779 0.202731 0.577127
0.687572 0.204974 0.583368
0.0390021 0.123735 0.382452
0.0390021 0.125124 0.383673
0.0390021 0.126726 0.386023
0.108248 0.0521706 0.439994
0.455787 0.145937 0.561913
0.628534 0.183719 0.566659
0.684443 0.202487 0.576684
0.688334 0.204486 0.583474
0.689998 0.206195 0.587777
0.0390021 0.219959 0.413489
0.0390021 0.221302 0.41471
0.0390021 0.221225 0.415702
0.0942397 0.172 0.485618
0.489921 0.214221 0.639811
0.666133 0.224155 0.613428
0.719387 0.234958 0.607889
0.714611 0.230243 0.605844
0.713588 0.229358 0.605814
0.0770275 0.48304 0.536126
0.0770428 0.482643 0.536202
0.076585 0.481621 0.535897
0.0779278 0.48304 0.545419
0.432609 0.502937 0.728328
0.809506 0.551827 0.830625
0.906767 0.534005 0.787655
0.909621 0.531182 0.786725
0.90518 0.527184 0.782162
0.172824 0.659861 0.630625
0.170489 0.656367 0.628183
0.167224 0.653254 0.62475
0.16144 0.646052 0.61912
0.452461 0.698466 0.734844
0.68806 0.730892 0.811551
0.878614 0.728954 0.817182
0.899489 0.718868 0.810468
0.897887 0.711742 0.806134
0.268864 0.795254 0.684581
0.26717 0.791348 0.681956
0.263355 0.78735 0.676722
0.25832 0.779583 0.671275
0.443778 0.812879 0.729885
0.704097 0.852537 0.808087
0.843229 0.870024 0.842054
0.90901 0.863539 0.831098
0.908186 0.862303 0.829282
0.307088 0.842115 0.704631
0.30753 0.841489 0.701564
0.306554 0.839628 0.697246
0.30576 0.834913 0.692897
0.434134 0.854887 0.724224
0.714656 0.890959 0.812894
0.850004 0.915816 0.86186
0.905303 0.929549 0.864027
0.91722 0.93109 0.862181
0.307866 0.840726 0.698314
0.308263 0.839948 0.694926
0.308507 0.839368 0.692638
0.309209 0.838895 0.690547
0.40119 0.856275 0.712764
0.711467 0.899046 0.813596
0.856428 0.929412 0.872145
0.903212 0.940963 0.890593
0.920485 0.945647 0.880598
0.0390021 0.172229 0.422507
0.0390021 0.176638 0.425345
0.0390021 0.177646 0.427802
0.0681315 0.117586 0.469215
0.399344 0.172885 0.61471
0.651347 0.232746 0.660731
0.723705 0.23827 0.649088
0.723705 0.23827 0.649088
0.72369 0.238285 0.649088
0.0390021 0.17908 0.427039
0.0390021 0.179416 0.427131
0.0390021 0.179858 0.427619
0.070161 0.119265 0.471672
0.416541 0.180621 0.623713
0.659113 0.233188 0.659342
0.72369 0.238285 0.649088
0.723705 0.23827 0.649088
0.72369 0.238285 0.649088
0.0390021 0.182376 0.428855
0.0390021 0.182376 0.428855
0.0390021 0.182376 0.428855
0.0695048 0.119982 0.471519
0.435096 0.188052 0.632105
0.665888 0.233616 0.658167
0.72369 0.238285 0.649088
0.72369 0.238285 0.649088
0.72369 0.238285 0.649088
0.0390021 0.221775 0.442603
0.0390021 0.222782 0.442954
0.0390021 0.222889 0.442954
0.0476539 0.17734 0.475456
0.405844 0.185061 0.627558
0.659281 0.239414 0.667979
0.72781 0.242496 0.653147
0.727092 0.241779 0.652583
0.72372 0.23827 0.649104
0.0756542 0.479454 0.566842
0.0754253 0.478614 0.566354
0.0751354 0.47776 0.565835
0.0739757 0.47274 0.567208
0.367681 0.477668 0.740185
0.742672 0.535866 0.878645
0.908736 0.531563 0.851072
0.910842 0.527016 0.84567
0.909712 0.521935 0.843153
0.133364 0.640604 0.630808
0.13225 0.637522 0.629099
0.131151 0.634272 0.626978
0.128389 0.627802 0.622873
0.370123 0.673091 0.742809
0.628931 0.690349 0.830777
0.877211 0.72343 0.884321
0.913146 0.706462 0.863874
0.913191 0.699535 0.860883
0.243839 0.765545 0.701381
0.241108 0.760281 0.698466
0.236713 0.754025 0.695399
0.230808 0.744488 0.690333
0.395102 0.773541 0.752728
0.664683 0.82031 0.836454
0.820005 0.85275 0.88014
0.909361 0.84799 0.881361
0.908827 0.843839 0.879728
0.294087 0.83769 0.72845
0.293263 0.835187 0.725795
0.291447 0.831373 0.722911
0.287739 0.825483 0.717418
0.357488 0.836103 0.738415
0.668986 0.889677 0.833127
0.835737 0.915984 0.884871
0.903258 0.928847 0.900496
0.92192 0.933669 0.902449
0.297108 0.841642 0.725811
0.297917 0.841947 0.724804
0.298741 0.842191 0.723751
0.299641 0.842634 0.72221
0.33312 0.850202 0.730831
0.677012 0.909453 0.836164
0.850324 0.933181 0.893324
0.912428 0.948302 0.914061
0.925216 0.952178 0.914137
0.0390021 0.182376 0.428855
0.0390021 0.182376 0.428855
0.0390021 0.181964 0.428794
0.0612955 0.12549 0.46862
0.396078 0.17229 0.614206
0.651621 0.232837 0.660822
0.72369 0.238285 0.649088
0.72369 0.238285 0.649088
0.72369 0.238285 0.649088
0.0390021 0.182376 0.428855
0.0390021 0.182376 0.428855
0.0390021 0.182254 0.428855
0.0641489 0.122759 0.469322
0.415 0.17995 0.623026
0.659144 0.233143 0.659236
0.72369 0.238285 0.649088
0.723796 0.238239 0.649165
0.72369 0.238285 0.649088
0.0390021 0.182376 0.428855
0.0390021 0.182376 0.428855
0.0390021 0.182376 0.428855
0.0641642 0.122896 0.469413
0.433066 0.187259 0.631281
0.665812 0.233677 0.658259
0.72369 0.238285 0.649088
0.72369 0.238285 0.649088
0.72369 0.238285 0.649088
0.0390021 0.196841 0.434058
0.0390021 0.197086 0.434195
0.0390021 0.19324 0.432502
0.0390021 0.146624 0.455116
0.396735 0.175387 0.617533
0.651102 0.232792 0.660883
0.72372 0.2383 0.649119
0.72369 0.238285 0.649088
0.72369 0.238285 0.649088
0.0734264 0.470298 0.563027
0.0731212 0.468956 0.562493
0.0728008 0.467903 0.56202
0.0717632 0.462318 0.562341
0.357946 0.464195 0.735637
0.733577 0.522576 0.87541
0.903853 0.521111 0.850874
0.908202 0.515831 0.844953
0.906737 0.510155 0.842756
0.132067 0.636591 0.631754
0.1308 0.633448 0.630213
0.129671 0.630259 0.628321
0.127169 0.624399 0.62536
0.339818 0.660609 0.740154
0.601755 0.671458 0.830442
0.864515 0.716365 0.899184
0.917617 0.696269 0.879042
0.918257 0.689143 0.878462
0.229084 0.751369 0.700343
0.223026 0.745464 0.697383
0.21503 0.738506 0.693233
0.202823 0.728237 0.686259
0.338537 0.757717 0.743938
0.625925 0.800076 0.834836
0.792264 0.832944 0.885893
0.905852 0.839734 0.894499
0.911131 0.831281 0.892638
0.281865 0.827436 0.732372
0.279271 0.822675 0.730678
0.275395 0.816999 0.728374
0.26923 0.808347 0.724041
0.319539 0.811719 0.74139
0.634348 0.864302 0.837125
0.813489 0.901717 0.888228
0.898711 0.922835 0.912871
0.918975 0.922271 0.913283
0.287663 0.836332 0.736706
0.287831 0.836454 0.73666
0.288167 0.836637 0.736507
0.289235 0.837415 0.735576
0.30454 0.841306 0.738277
0.606729 0.897642 0.830457
0.822599 0.932342 0.895796
0.907637 0.947829 0.921798
0.926818 0.954253 0.925338
