bundles/resolve-cinematic-luts/Phantom Luts/DJI/DJI Phntm Film LUTs - G3/Mavic 3 D-Log/Eastman Mavic 3.cube
TITLE "Generated by Resolve"
LUT_3D_SIZE 65
0.0407111 0.0390021 0.0390021
0.0406806 0.0390021 0.0390021
0.0406348 0.0390021 0.0390021
0.0405127 0.0390021 0.0390021
0.041474 0.0390021 0.0390021
0.04654 0.0390021 0.0390021
0.0533303 0.0390021 0.0390021
0.0622873 0.0390021 0.0390021
0.072343 0.0390021 0.0391241
0.0816205 0.0390021 0.0401617
0.090135 0.0390021 0.0408484
0.0988785 0.0390021 0.0416419
0.107774 0.0390021 0.0420233
0.118395 0.0390021 0.0430762
0.129717 0.0390021 0.0432593
0.143282 0.041001 0.0437629
0.157778 0.0427405 0.0433967
0.174517 0.0452735 0.0436103
0.191333 0.0469368 0.0425269
0.208621 0.0488289 0.0405737
0.227329 0.0503853 0.0390021
0.245518 0.0520333 0.0390021
0.263752 0.0532845 0.0390021
0.281758 0.0543374 0.0390021
0.299626 0.0561074 0.0390021
0.316472 0.0580453 0.0390021
0.333852 0.0590219 0.0390021
0.349676 0.0616007 0.0390021
0.364462 0.0644236 0.0390021
0.379904 0.0677653 0.0399329
0.394369 0.0725261 0.0413825
0.409308 0.0771344 0.0431983
0.423362 0.0823529 0.0445563
0.436164 0.0884108 0.0459449
0.446555 0.0946059 0.047776
0.455482 0.101427 0.0505379
0.466285 0.108507 0.0538186
0.477455 0.11426 0.0566415
0.490715 0.119081 0.0596323
0.504036 0.123751 0.0626841
0.517754 0.128588 0.0661631
0.532219 0.134188 0.0705882
0.547524 0.140749 0.0754101
0.563912 0.147951 0.0813306
0.578927 0.154192 0.0861219
0.594186 0.159701 0.0913558
0.605982 0.164248 0.0951705
0.611139 0.164813 0.0964981
0.613306 0.164309 0.0965133
0.616342 0.163394 0.0964981
0.619623 0.162356 0.0968032
0.623575 0.161151 0.0969711
0.62649 0.16025 0.0971695
0.627771 0.159854 0.0972763
0.628244 0.159701 0.0972915
0.628122 0.159747 0.0972763
0.62797 0.159792 0.0972915
0.627817 0.159838 0.0972763
0.627665 0.159884 0.0972763
0.627497 0.15993 0.0972763
0.627344 0.159976 0.0972763
0.627222 0.160006 0.097261
0.6271 0.160052 0.097261
0.624063 0.160998 0.0970016
0.617746 0.162951 0.0965744
0.0422217 0.0390021 0.0390021
0.0410773 0.0390021 0.0390021
0.0405737 0.0390021 0.0390021
0.0404517 0.0390021 0.0390021
0.0406043 0.0390021 0.0390021
0.0444495 0.0390021 0.0390021
0.0510872 0.0390021 0.0390021
0.0595254 0.0390021 0.0390021
0.0695354 0.0390021 0.0390021
0.0788434 0.0390021 0.0399939
0.0876478 0.0390021 0.0404974
0.0966201 0.0390021 0.0416114
0.105821 0.0390021 0.0419928
0.116411 0.0390021 0.0428473
0.128069 0.0390021 0.0432593
0.141375 0.0406043 0.0436713
0.156039 0.0426184 0.0435035
0.173114 0.0451057 0.0436561
0.189837 0.0466468 0.0425879
0.207675 0.0487678 0.0407111
0.226139 0.0502785 0.0390021
0.244541 0.0519875 0.0390021
0.262165 0.0533761 0.0390021
0.27985 0.0547494 0.0390021
0.298146 0.0563821 0.0390021
0.315435 0.0582437 0.0390021
0.333425 0.0590829 0.0390021
0.349248 0.0615549 0.0390021
0.364309 0.0644694 0.0390021
0.379538 0.0677653 0.0399481
0.394293 0.0725872 0.0413825
0.409064 0.0771191 0.043183
0.423301 0.0824445 0.0445563
0.436149 0.0885023 0.0459449
0.446418 0.0946822 0.0477607
0.455375 0.101503 0.0505379
0.465843 0.108553 0.0538186
0.477317 0.114412 0.0566415
0.490303 0.119066 0.0595407
0.503899 0.123873 0.0627298
0.517296 0.12871 0.0661784
0.531868 0.134264 0.0705577
0.54728 0.140902 0.0753948
0.563302 0.148013 0.081239
0.577996 0.154528 0.0860914
0.592432 0.160113 0.091249
0.604425 0.164508 0.0950637
0.610391 0.165072 0.0964675
0.612863 0.164431 0.0965438
0.616236 0.163424 0.0964981
0.619593 0.162371 0.0968032
0.623545 0.161166 0.0969711
0.626398 0.160281 0.0971542
0.627466 0.159945 0.0972763
0.627848 0.159823 0.0972763
0.62771 0.159869 0.0972763
0.627558 0.159915 0.0972763
0.627405 0.15996 0.0972763
0.627268 0.160006 0.0972763
0.627146 0.160037 0.097261
0.627008 0.160082 0.0972457
0.626886 0.160128 0.0972457
0.626764 0.160159 0.0972305
0.623652 0.161135 0.0969711
0.617334 0.163088 0.0965591
0.0421302 0.0390021 0.0390021
0.0409857 0.0390021 0.0390021
0.0404974 0.0390021 0.0390021
0.0403754 0.0390021 0.0390021
0.0404364 0.0390021 0.0390021
0.0430152 0.0390021 0.0390021
0.0490578 0.0390021 0.0390021
0.0569162 0.0390021 0.0390021
0.066331 0.0390021 0.0390021
0.0760204 0.0390021 0.0396277
0.0852369 0.0390021 0.0403449
0.094789 0.0390021 0.0413977
0.10396 0.0390021 0.0420081
0.114504 0.0390021 0.0427405
0.126253 0.0390021 0.0432746
0.140078 0.0402991 0.043595
0.154742 0.0424201 0.0435035
0.171893 0.0449226 0.0436713
0.189288 0.0466468 0.0426795
0.20676 0.0486763 0.0408484
0.225727 0.0502632 0.0390021
0.244068 0.0518959 0.0390021
0.261845 0.0534371 0.0390021
0.278813 0.0550088 0.0390021
0.29691 0.0567636 0.0390021
0.314244 0.0586557 0.0390021
0.332616 0.0593576 0.0390021
0.349248 0.0617227 0.0390021
0.364385 0.0645609 0.0390021
0.379965 0.0678416 0.0399176
0.3944 0.0727398 0.0413977
0.409354 0.0773022 0.043183
0.423575 0.0826429 0.0445716
0.436316 0.0887007 0.0459754
0.446906 0.0951705 0.0478981
0.455451 0.101671 0.0505531
0.466163 0.108751 0.0538338
0.477302 0.114641 0.0567178
0.4907 0.119432 0.0597848
0.50428 0.124147 0.0628977
0.517723 0.129168 0.0663767
0.531929 0.134417 0.0705272
0.547326 0.141222 0.0755322
0.56347 0.148318 0.0813764
0.577783 0.154864 0.0862745
0.591592 0.160723 0.0912947
0.602594 0.164935 0.0949111
0.608301 0.165805 0.096437
0.611734 0.164767 0.0966354
0.615625 0.163607 0.0964675
0.619577 0.162387 0.0968032
0.623423 0.161196 0.0969711
0.626215 0.160342 0.0971084
0.6271 0.160052 0.097261
0.627359 0.159976 0.0972763
0.627237 0.160006 0.0972763
0.627131 0.160052 0.097261
0.627008 0.160082 0.0972457
0.626886 0.160113 0.0972457
0.62678 0.160159 0.0972457
0.626673 0.160189 0.0972152
0.626581 0.16022 0.0972
0.626505 0.16025 0.0971695
0.623163 0.161288 0.0969558
0.616876 0.163226 0.0965438
0.0420081 0.0390021 0.0390021
0.0408637 0.0390021 0.0390021
0.0403754 0.0390021 0.0390021
0.0402686 0.0390021 0.0390021
0.040116 0.0390021 0.0390021
0.0418097 0.0390021 0.0390021
0.0472114 0.0390021 0.0390021
0.0544747 0.0390021 0.0390021
0.0634775 0.0390021 0.0390021
0.0734417 0.0390021 0.0392309
0.0831464 0.0390021 0.040238
0.0927291 0.0390021 0.0411841
0.10251 0.0390021 0.0418708
0.1131 0.0390021 0.0425116
0.125277 0.0390021 0.0432288
0.138781 0.0401007 0.0435645
0.15375 0.042237 0.043473
0.171405 0.0448463 0.0436713
0.188556 0.0465858 0.0427405
0.206622 0.0486763 0.0408789
0.225467 0.0502937 0.0390021
0.244282 0.0519265 0.0390021
0.262074 0.0535134 0.0390021
0.279164 0.0551003 0.0390021
0.296345 0.057023 0.0390021
0.31368 0.0590829 0.0390021
0.331792 0.0598154 0.0390021
0.348699 0.0621347 0.0390021
0.364752 0.0649271 0.0390021
0.380407 0.0679332 0.0398566
0.395285 0.0731518 0.0415198
0.409857 0.0775616 0.0432288
0.424308 0.082948 0.0445716
0.437125 0.0892042 0.0461128
0.447517 0.0953994 0.0480354
0.456168 0.10222 0.0508125
0.466438 0.108949 0.0538186
0.47808 0.115312 0.057023
0.491264 0.11986 0.0600595
0.50486 0.124651 0.0631571
0.518486 0.129671 0.0665751
0.532036 0.134615 0.0705119
0.548302 0.14197 0.0762036
0.56379 0.148852 0.0816205
0.57879 0.155276 0.086717
0.591791 0.161334 0.0916304
0.600992 0.165484 0.0949264
0.605829 0.166552 0.0964981
0.609354 0.165515 0.0964218
0.613901 0.164126 0.0964828
0.619104 0.162524 0.0967422
0.623514 0.161166 0.0969711
0.626139 0.160357 0.0970932
0.626825 0.160143 0.0972305
0.626978 0.160098 0.0972457
0.626856 0.160128 0.0972457
0.626749 0.160174 0.0972305
0.626657 0.160189 0.0972152
0.626581 0.16022 0.0971847
0.62649 0.16025 0.0971695
0.626398 0.160281 0.0971389
0.626307 0.160311 0.0971237
0.626215 0.160342 0.0971084
0.622644 0.16144 0.0969406
0.616388 0.163378 0.0964981
0.0420691 0.0390021 0.0390021
0.04094 0.0390021 0.0390021
0.0403601 0.0390021 0.0390021
0.0401923 0.0390021 0.0390021
0.0399939 0.0390021 0.0390021
0.0407721 0.0390021 0.0390021
0.0454871 0.0390021 0.0390021
0.0521553 0.0390021 0.0390021
0.0609293 0.0390021 0.0390021
0.0707408 0.0390021 0.0390784
0.0809644 0.0390021 0.0401465
0.090898 0.0390021 0.04094
0.100938 0.0390021 0.0417639
0.111574 0.0390021 0.0423133
0.123613 0.0390021 0.0432441
0.137713 0.0399329 0.043534
0.152575 0.0421302 0.043473
0.170459 0.0447242 0.0436866
0.188067 0.0465705 0.042771
0.206409 0.0485847 0.0408331
0.225681 0.0502632 0.0390021
0.244297 0.0519112 0.0390021
0.262638 0.0536049 0.0390021
0.279622 0.0551766 0.0390021
0.296757 0.057145 0.0390021
0.313756 0.0594034 0.0390021
0.330846 0.0601816 0.0390021
0.347662 0.0627604 0.0390021
0.363958 0.0654765 0.0390021
0.380438 0.0681926 0.0397345
0.395712 0.0734722 0.0415656
0.41062 0.0780652 0.0433661
0.424949 0.0834211 0.0447547
0.437613 0.0896162 0.0462348
0.448386 0.0959487 0.0483406
0.456718 0.102724 0.0511025
0.466941 0.109392 0.0539101
0.478569 0.115663 0.0572213
0.491814 0.120439 0.0603189
0.505486 0.125216 0.0634318
0.518837 0.130007 0.0666667
0.532631 0.134966 0.0706188
0.548775 0.142458 0.0764477
0.564584 0.14963 0.0821546
0.579278 0.15581 0.0871901
0.592355 0.161959 0.0919966
0.60032 0.165835 0.0950332
0.603998 0.167117 0.0964218
0.605951 0.166522 0.0964981
0.610773 0.165072 0.0965438
0.616815 0.163241 0.0965286
0.622217 0.161578 0.0969253
0.625772 0.160479 0.0970626
0.626566 0.16022 0.0971847
0.626627 0.160204 0.0972
0.626551 0.160235 0.0971847
0.626444 0.160266 0.0971542
0.626352 0.160296 0.0971389
0.626276 0.160327 0.0971237
0.626184 0.160342 0.0970932
0.626078 0.160388 0.0970779
0.625925 0.160433 0.0970779
0.625772 0.160479 0.0970626
0.622049 0.161624 0.0969253
0.615747 0.163577 0.0964828
0.0441596 0.0390021 0.0390021
0.0428321 0.0390021 0.0390021
0.0421302 0.0390021 0.0390021
0.0419318 0.0390021 0.0390021
0.0415961 0.0390021 0.0390021
0.0417487 0.0390021 0.0390021
0.0453651 0.0390021 0.0390021
0.0509957 0.0390021 0.0390021
0.0587167 0.0390021 0.0390021
0.0687877 0.0390021 0.0395819
0.0797131 0.0390021 0.040528
0.0903639 0.0390021 0.0415045
0.100084 0.0390021 0.0421607
0.110719 0.0390021 0.0428168
0.122927 0.0390021 0.0433814
0.13666 0.0399786 0.0435645
0.151781 0.0420386 0.043473
0.170062 0.0446784 0.0437018
0.187594 0.0465553 0.0428168
0.206424 0.0485542 0.0407874
0.225574 0.0502785 0.0390021
0.244678 0.052018 0.0390021
0.262974 0.053666 0.0390021
0.280247 0.0552071 0.0390021
0.297551 0.0572213 0.0390021
0.314092 0.059556 0.0390021
0.331136 0.0603494 0.0390021
0.34725 0.0631876 0.0390021
0.363592 0.0661479 0.0390021
0.379721 0.0686809 0.039704
0.395712 0.07393 0.0414893
0.411399 0.0786297 0.0434882
0.425681 0.0838636 0.0449226
0.438605 0.0902113 0.0463264
0.449119 0.0964981 0.0486
0.457725 0.103395 0.0514534
0.467369 0.109895 0.0541238
0.479271 0.115923 0.0573434
0.492576 0.12108 0.0606851
0.506188 0.125765 0.0636759
0.519615 0.130587 0.0670329
0.53315 0.135546 0.0707561
0.549828 0.143359 0.0770581
0.565209 0.150271 0.0825818
0.579797 0.156603 0.0876173
0.593225 0.162768 0.0925002
0.600015 0.16611 0.0951553
0.603174 0.167391 0.0963302
0.603693 0.167224 0.0963912
0.606592 0.166339 0.0964981
0.612161 0.164645 0.0966049
0.618997 0.162554 0.0967269
0.624048 0.161013 0.0970016
0.62623 0.160342 0.0971084
0.626337 0.160296 0.0971389
0.62623 0.160342 0.0971084
0.626108 0.160372 0.0970932
0.625986 0.160418 0.0970779
0.625818 0.160464 0.0970626
0.625666 0.16051 0.0970626
0.625513 0.160555 0.0970626
0.625345 0.160601 0.0970626
0.625177 0.160662 0.0970474
0.621393 0.161822 0.0968948
0.614954 0.163806 0.0964523
0.0476081 0.0390021 0.0390021
0.0460975 0.0390021 0.0390021
0.0455329 0.0390021 0.0390478
0.0453651 0.0390021 0.0390021
0.0451362 0.0390021 0.0390021
0.044892 0.0390021 0.0390021
0.0463874 0.0390021 0.0390021
0.0520333 0.0390021 0.0395056
0.0580911 0.0390021 0.0404364
0.0659495 0.0390021 0.0411688
0.0765393 0.0390021 0.0426795
0.0882429 0.0391699 0.0432593
0.100359 0.0400244 0.0438392
0.112474 0.0406043 0.0442359
0.1252 0.0411688 0.0442054
0.139681 0.0432746 0.0449836
0.154437 0.0446479 0.0448157
0.171313 0.0466316 0.0446326
0.1888 0.0484321 0.0434577
0.206561 0.0496681 0.0413062
0.226062 0.0509041 0.0390021
0.24509 0.0525521 0.0390021
0.263645 0.0541695 0.0390021
0.280964 0.0553292 0.0390021
0.29807 0.0573434 0.0390021
0.314931 0.0597696 0.0390021
0.331823 0.060441 0.0390021
0.348013 0.0635538 0.0390021
0.363699 0.0665751 0.0390021
0.379339 0.069337 0.0397345
0.395209 0.0744945 0.0412451
0.411429 0.0793317 0.043534
0.426703 0.0844739 0.0451667
0.439353 0.0905776 0.0463264
0.450004 0.0971084 0.0488289
0.458442 0.104067 0.0517433
0.468544 0.110552 0.054551
0.480064 0.116258 0.0574807
0.493324 0.121584 0.0609598
0.507088 0.126482 0.0640116
0.520302 0.131121 0.0673381
0.534478 0.136461 0.0713359
0.550637 0.144213 0.0776074
0.56614 0.151232 0.0831922
0.580621 0.157473 0.0882124
0.593927 0.16347 0.0929732
0.599954 0.166491 0.0953994
0.602625 0.167559 0.0962997
0.602457 0.167605 0.0962844
0.603586 0.167269 0.0963607
0.607309 0.166125 0.0964828
0.613535 0.164233 0.0964981
0.620188 0.162188 0.096849
0.624537 0.160861 0.0970321
0.625925 0.160433 0.0970779
0.625711 0.160494 0.0970626
0.625513 0.160555 0.0970626
0.625345 0.160616 0.0970474
0.625177 0.160662 0.0970474
0.62501 0.160708 0.0970474
0.624857 0.160754 0.0970321
0.624704 0.1608 0.0970321
0.624537 0.160861 0.0970321
0.620706 0.162036 0.0968795
0.614191 0.164034 0.0964675
0.0512856 0.0395666 0.0425727
0.0501869 0.0395972 0.0428168
0.0493935 0.0395056 0.0429084
0.0491646 0.0393225 0.0428626
0.0488136 0.0390326 0.0427405
0.0484016 0.0390021 0.0426032
0.0497292 0.0390784 0.0429084
0.0524453 0.0404822 0.0425269
0.060502 0.0420081 0.0429389
0.0673686 0.0435035 0.0434882
0.0761578 0.0452125 0.0443122
0.0871443 0.0467842 0.0456855
0.098558 0.0474098 0.0466163
0.11107 0.0483253 0.0473335
0.125963 0.0487678 0.0475166
0.141238 0.0485695 0.0467384
0.158236 0.0488136 0.0461128
0.175067 0.0495308 0.044892
0.192157 0.0505074 0.0436255
0.21088 0.0519722 0.0424964
0.228855 0.0535592 0.0404364
0.246754 0.0548714 0.0390021
0.265324 0.0564889 0.0390021
0.282521 0.0565194 0.0390021
0.29955 0.0583047 0.0390021
0.315831 0.0599985 0.0390021
0.332937 0.0605936 0.0390021
0.348913 0.0637675 0.0390021
0.364645 0.0669871 0.0390021
0.379629 0.0699168 0.0397803
0.394812 0.0750286 0.0411688
0.411154 0.0800946 0.0434577
0.426886 0.0852827 0.045243
0.440253 0.0913405 0.0466011
0.450752 0.0975509 0.0488746
0.459449 0.104692 0.052018
0.469566 0.111223 0.055024
0.480751 0.116854 0.0576028
0.494514 0.122301 0.0612345
0.507607 0.127108 0.0643168
0.521508 0.131838 0.0677806
0.535912 0.137469 0.0721904
0.55201 0.145312 0.0780957
0.567391 0.152193 0.0837568
0.581338 0.158175 0.0888075
0.594858 0.164202 0.0935378
0.599893 0.166903 0.0956283
0.602014 0.167742 0.0962692
0.601862 0.167788 0.0962692
0.601755 0.167819 0.0962692
0.603433 0.1673 0.0963455
0.607599 0.166033 0.0964675
0.614206 0.164034 0.0964675
0.620371 0.162127 0.0968643
0.624155 0.160967 0.0970016
0.62501 0.160708 0.0970474
0.624796 0.160784 0.0970474
0.624582 0.160845 0.0970321
0.624384 0.160906 0.0970169
0.624216 0.160952 0.0970169
0.624079 0.160998 0.0970016
0.623926 0.161044 0.0970016
0.623774 0.161089 0.0969863
0.619852 0.162295 0.096849
0.613291 0.164309 0.0965133
0.0552682 0.0471351 0.0462348
0.0534676 0.0469673 0.0463569
0.0525826 0.046891 0.0464485
0.0524147 0.0466468 0.0464027
0.0522316 0.046479 0.0463569
0.0520027 0.0461738 0.0462959
0.0524758 0.0462196 0.0464942
0.055024 0.0471351 0.0467384
0.0593881 0.0491493 0.046128
0.0704662 0.0503243 0.0465858
0.0805371 0.051957 0.0472419
0.0905623 0.0540627 0.0481575
0.101335 0.0552377 0.0491951
0.113054 0.0554208 0.049958
0.127077 0.056199 0.05037
0.14136 0.056199 0.0497444
0.159319 0.0554208 0.0487526
0.17763 0.0542153 0.0467079
0.196887 0.054078 0.0447242
0.214832 0.0547646 0.0429541
0.23331 0.0562448 0.041062
0.251637 0.0579995 0.039704
0.26891 0.0585031 0.0390021
0.28603 0.0598917 0.0390021
0.302129 0.061326 0.0390021
0.318181 0.0630045 0.0390021
0.333745 0.06392 0.0390021
0.349874 0.0645151 0.0390021
0.365789 0.0676432 0.0390021
0.380468 0.0703899 0.0398566
0.37969 0.0801556 0.0402686
0.394995 0.0851301 0.0423438
0.410407 0.090837 0.0441138
0.424643 0.0966049 0.0457313
0.437247 0.102373 0.0484474
0.447913 0.108782 0.0513161
0.459312 0.115038 0.0544289
0.472389 0.120272 0.0574044
0.48719 0.125231 0.0611429
0.502068 0.129732 0.0644388
0.517143 0.133989 0.0680858
0.5337 0.139635 0.0727245
0.551995 0.146715 0.0786908
0.568841 0.152789 0.0843061
0.585702 0.157977 0.08925
0.600336 0.162615 0.0935531
0.609064 0.164599 0.0960555
0.61207 0.16466 0.0966201
0.612802 0.164446 0.0965591
0.612924 0.164416 0.0965438
0.612741 0.164462 0.0965591
0.613764 0.164172 0.0964828
0.616815 0.163241 0.0965286
0.621241 0.161868 0.0968948
0.625498 0.160571 0.0970626
0.627115 0.160052 0.097261
0.627344 0.159976 0.0972763
0.627085 0.160067 0.097261
0.626825 0.160143 0.0972305
0.626612 0.160204 0.0972
0.626429 0.160266 0.0971542
0.62623 0.160327 0.0971084
0.625986 0.160418 0.0970779
0.623316 0.161227 0.0969558
0.61857 0.162692 0.0966964
0.0616617 0.055024 0.0497749
0.0604105 0.0549172 0.0499275
0.0596017 0.0546273 0.0499123
0.0592203 0.0542916 0.0497749
0.0587015 0.0538643 0.0495918
0.0583352 0.0536049 0.0494698
0.0583658 0.0534981 0.0495003
0.0612039 0.0543526 0.0504463
0.0646372 0.056199 0.0505531
0.0716106 0.0583047 0.0495308
0.0864576 0.059205 0.0501564
0.098085 0.0603799 0.0501869
0.108553 0.0623026 0.0509346
0.119692 0.062623 0.0513924
0.132921 0.0621805 0.0519875
0.147738 0.0623789 0.0517433
0.164172 0.0619364 0.0510872
0.181308 0.0616312 0.0494087
0.199435 0.0609751 0.0472267
0.219196 0.0600137 0.0445106
0.237537 0.0608225 0.0429999
0.255451 0.0614939 0.0410163
0.27303 0.063447 0.0401617
0.289097 0.064271 0.0394751
0.305989 0.0660716 0.039704
0.320928 0.067277 0.0392157
0.336248 0.0690471 0.0391241
0.3514 0.0715648 0.0395666
0.36321 0.0731975 0.0391089
0.375814 0.0754253 0.040528
0.385107 0.0797284 0.0408637
0.396735 0.0852674 0.0424048
0.41001 0.0913863 0.044007
0.424384 0.0977035 0.0458381
0.437156 0.103395 0.0487068
0.448371 0.109529 0.0517128
0.460121 0.115587 0.0546426
0.472877 0.120851 0.0576486
0.487724 0.125689 0.0611429
0.502617 0.130465 0.0647593
0.51783 0.134783 0.068513
0.534966 0.140826 0.073518
0.552514 0.147601 0.0792401
0.569574 0.15378 0.0848249
0.586023 0.158679 0.0895857
0.599878 0.163088 0.0936599
0.609354 0.165118 0.0963607
0.611719 0.164782 0.0966354
0.612497 0.164538 0.0965744
0.61265 0.164492 0.0965744
0.612482 0.164538 0.0965744
0.612329 0.164584 0.0966049
0.613169 0.16434 0.0965286
0.616022 0.163485 0.0964828
0.620127 0.162203 0.0968643
0.624353 0.160906 0.0970169
0.626413 0.160281 0.0971542
0.626627 0.160204 0.0972
0.626429 0.160266 0.0971542
0.62623 0.160342 0.0971084
0.625971 0.160418 0.0970779
0.62562 0.160525 0.0970626
0.625269 0.160632 0.0970474
0.622583 0.161456 0.0969406
0.61796 0.16289 0.0966049
0.0665904 0.0643931 0.0542
0.0650034 0.064271 0.0544137
0.0641947 0.0641642 0.0544594
0.0638285 0.0637369 0.0542763
0.0634623 0.063447 0.054139
0.0630503 0.0632029 0.0540322
0.0628214 0.0629129 0.0539559
0.0649424 0.0635538 0.0548257
0.068513 0.0647746 0.055375
0.0737011 0.0669871 0.0546273
0.0832685 0.0691691 0.052842
0.0993668 0.0690318 0.0526589
0.112581 0.0699168 0.0525826
0.123583 0.0706188 0.0526741
0.137209 0.0708629 0.0535134
0.152972 0.0693065 0.0540627
0.171221 0.0691081 0.0534218
0.189197 0.0683604 0.0514839
0.209628 0.0677348 0.0499886
0.227161 0.0674144 0.0475471
0.244907 0.067216 0.045182
0.263355 0.0678721 0.044007
0.280308 0.0687877 0.0425574
0.29662 0.0701915 0.041413
0.312444 0.0720073 0.0412604
0.327642 0.0734722 0.0409247
0.343206 0.0758373 0.0414588
0.357443 0.07776 0.0415656
0.370184 0.0809033 0.0420996
0.38056 0.0842603 0.0429694
0.38819 0.0881514 0.0426642
0.39939 0.0903029 0.0437781
0.410483 0.0923171 0.0441901
0.424491 0.0987869 0.0460822
0.436622 0.104295 0.0488441
0.448554 0.110414 0.052018
0.460304 0.116182 0.0548562
0.473503 0.121431 0.057847
0.488075 0.12607 0.0611582
0.503487 0.131228 0.0651102
0.51873 0.135546 0.0689097
0.535775 0.141817 0.0741436
0.553506 0.148516 0.0799268
0.570306 0.154696 0.085359
0.586908 0.159686 0.0902266
0.599603 0.163546 0.0938125
0.609415 0.165484 0.096437
0.611399 0.164874 0.0965896
0.612207 0.16463 0.0966049
0.612406 0.164569 0.0965744
0.612268 0.164614 0.0966049
0.612116 0.16466 0.0966201
0.611994 0.164691 0.0966201
0.612573 0.164523 0.0965744
0.614923 0.163821 0.0964523
0.61886 0.1626 0.0967269
0.622934 0.161349 0.0969558
0.625299 0.160632 0.0970626
0.625895 0.160433 0.0970779
0.625544 0.16054 0.0970626
0.625193 0.160662 0.0970474
0.624826 0.160769 0.0970474
0.624475 0.160876 0.0970321
0.621775 0.1617 0.09691
0.617151 0.163134 0.0965591
0.070634 0.07364 0.0581369
0.0691539 0.07364 0.0582895
0.0683146 0.0735027 0.058381
0.0680552 0.0733806 0.0583658
0.0677043 0.0731975 0.05832
0.0673075 0.0730602 0.0582742
0.0670176 0.0728923 0.0582132
0.0679789 0.0729992 0.0584268
0.0719463 0.0738994 0.0590677
0.0766308 0.0753948 0.0589303
0.0835431 0.0774548 0.0577401
0.0957046 0.078584 0.0550851
0.112352 0.0780041 0.0548562
0.126955 0.0782788 0.0544594
0.141299 0.0785992 0.0548104
0.158114 0.0777447 0.0552071
0.176593 0.0764782 0.0558633
0.197818 0.075761 0.0545968
0.219074 0.0756695 0.052491
0.237781 0.0752575 0.0503243
0.257038 0.0756085 0.0485542
0.273457 0.0758373 0.0464942
0.290593 0.0769513 0.0455329
0.305409 0.0775921 0.0442969
0.321111 0.0801099 0.0441901
0.335897 0.0813001 0.0437171
0.351171 0.0836652 0.0443122
0.365652 0.0856031 0.0442359
0.378225 0.088838 0.0447089
0.388617 0.0920119 0.0452583
0.395819 0.0958114 0.0450599
0.405753 0.0997482 0.0463569
0.4159 0.102693 0.0471046
0.427436 0.103807 0.0487678
0.437613 0.106844 0.0498512
0.448264 0.111467 0.0522927
0.460334 0.117144 0.0551156
0.473899 0.122133 0.0580606
0.48896 0.126772 0.0615396
0.504295 0.131594 0.0653239
0.519432 0.136172 0.0693828
0.536828 0.142809 0.0746166
0.554162 0.149264 0.0802777
0.571618 0.155413 0.0859083
0.587549 0.160555 0.0907912
0.599725 0.163897 0.0940261
0.608942 0.165637 0.0964218
0.611109 0.164965 0.0965896
0.611978 0.164691 0.0966201
0.612222 0.164614 0.0966049
0.6121 0.16466 0.0966201
0.611978 0.164691 0.0966201
0.611872 0.164721 0.0966201
0.611765 0.164767 0.0966354
0.6121 0.16466 0.0966201
0.61387 0.164126 0.0964828
0.617517 0.163027 0.0965744
0.621118 0.161898 0.0968948
0.623743 0.161105 0.0969863
0.624582 0.160845 0.0970321
0.624308 0.160922 0.0970169
0.623987 0.161028 0.0970016
0.623667 0.16112 0.0969711
0.620905 0.161959 0.0968795
0.616297 0.163409 0.0964981
0.0738384 0.082414 0.0610513
0.0721752 0.0824292 0.0613565
0.0712596 0.0823987 0.0614786
0.0709544 0.0821393 0.061387
0.0706798 0.0820325 0.0613718
0.0704204 0.0820325 0.061387
0.0700542 0.0818036 0.0612955
0.0702983 0.0818341 0.0614481
0.0733196 0.082414 0.0621347
0.0789197 0.0836805 0.0624552
0.0852674 0.0855268 0.0616617
0.0937819 0.0872206 0.0590677
0.107836 0.0880751 0.057145
0.126375 0.0865187 0.056672
0.144411 0.0871748 0.0570535
0.16321 0.0860914 0.057145
0.184497 0.0849622 0.0578622
0.203967 0.083772 0.0575723
0.227146 0.0834821 0.0559701
0.248692 0.0830549 0.0530556
0.267643 0.0837262 0.0518807
0.285176 0.0839094 0.0498665
0.301915 0.084947 0.0491035
0.316991 0.0854047 0.0476234
0.332082 0.0873884 0.0479744
0.345541 0.0890211 0.0476997
0.360479 0.0913863 0.047837
0.374319 0.09337 0.0475929
0.38706 0.0967269 0.0479744
0.396582 0.0996872 0.0483864
0.405127 0.104082 0.0493019
0.414099 0.107546 0.0501717
0.424796 0.11046 0.0517739
0.435874 0.114122 0.0534218
0.445365 0.117678 0.055314
0.454978 0.120851 0.057908
0.464668 0.123125 0.0588846
0.475349 0.124666 0.0596475
0.490517 0.128923 0.0627756
0.504738 0.132174 0.0656291
0.520775 0.137316 0.070161
0.537438 0.143313 0.0747387
0.555291 0.149981 0.0808423
0.572183 0.155734 0.0860456
0.588113 0.161028 0.0909895
0.600366 0.164309 0.0943923
0.608576 0.165743 0.096437
0.610925 0.165011 0.0965591
0.611841 0.164736 0.0966354
0.612116 0.164645 0.0966049
0.612039 0.164675 0.0966201
0.611933 0.164706 0.0966201
0.611841 0.164736 0.0966354
0.611719 0.164767 0.0966354
0.611597 0.164813 0.0966201
0.611704 0.164782 0.0966354
0.612787 0.164462 0.0965591
0.615641 0.163607 0.0964828
0.61915 0.162509 0.0967422
0.621851 0.161669 0.09691
0.623148 0.161288 0.0969558
0.623148 0.161288 0.0969558
0.622782 0.161395 0.0969406
0.619989 0.162249 0.096849
