bundles/resolve-cinematic-luts/Phantom Luts/DJI/DJI Phntm Film LUTs - G3/Mavic 3 D-Log/Vision Mavic 3.cube
TITLE "Generated by Resolve"
LUT_3D_SIZE 9
0.0233463 0.0330816 0.024155
0.0495308 0.0326238 0.0223087
0.145403 0.0379644 0.0195773
0.322362 0.0475013 0.026276
0.533944 0.0890516 0.0562905
0.757855 0.149645 0.103822
0.760662 0.151369 0.105867
0.760662 0.151369 0.105867
0.761028 0.151324 0.105745
0.0287022 0.0544442 0.032578
0.0337987 0.0534371 0.0302586
0.15378 0.046952 0.0220798
0.331548 0.049546 0.0275425
0.543801 0.0911879 0.0581216
0.759091 0.15021 0.104143
0.762509 0.151125 0.105196
0.760662 0.151369 0.105867
0.761074 0.151308 0.10573
0.0459754 0.147082 0.0623636
0.0457618 0.143328 0.0620584
0.135317 0.148775 0.0305638
0.382376 0.123384 0.0516518
0.565347 0.134524 0.0784466
0.766934 0.154574 0.107424
0.763287 0.152407 0.106188
0.76405 0.156298 0.107927
0.76582 0.172885 0.112978
0.107439 0.351629 0.142992
0.106798 0.349248 0.14168
0.104265 0.344625 0.138903
0.36875 0.340169 0.0414435
0.607248 0.335775 0.118761
0.780179 0.328115 0.178408
0.784039 0.313909 0.171939
0.783948 0.317037 0.174441
0.789151 0.337148 0.183474
0.242603 0.561868 0.297459
0.240009 0.559533 0.295247
0.238605 0.556115 0.292576
0.303609 0.558404 0.295857
0.598352 0.566964 0.117891
0.790555 0.575769 0.210956
0.818128 0.584741 0.224689
0.817243 0.583017 0.225818
0.816495 0.570031 0.225879
0.41181 0.766003 0.479484
0.410864 0.76463 0.478248
0.407599 0.762005 0.474769
0.403265 0.756619 0.469688
0.549386 0.76112 0.432578
0.763394 0.775067 0.301152
0.836744 0.764431 0.270787
0.838605 0.759701 0.25951
0.837873 0.745586 0.244327
0.464836 0.811795 0.538323
0.465034 0.811734 0.538445
0.465553 0.811551 0.538933
0.465507 0.811582 0.538888
0.594308 0.818051 0.568002
0.716762 0.831174 0.446754
0.824796 0.839048 0.44918
0.825132 0.837583 0.440253
0.825147 0.837537 0.438819
0.465614 0.811551 0.538979
0.464897 0.81178 0.538354
0.465202 0.811673 0.538567
0.4654 0.811612 0.53875
0.532723 0.815625 0.555779
0.691051 0.829038 0.460548
0.804883 0.839597 0.440482
0.825116 0.837568 0.440589
0.825086 0.837552 0.441047
0.466407 0.811276 0.539528
0.46569 0.811505 0.53904
0.465629 0.811521 0.538979
0.466331 0.811307 0.539498
0.466407 0.811276 0.539528
0.65716 0.825803 0.504723
0.773281 0.836118 0.423362
0.825422 0.838453 0.445716
0.825132 0.837583 0.440177
0.0224155 0.0335393 0.0380865
0.059968 0.0323491 0.0382696
0.183627 0.0392309 0.0297246
0.348699 0.0496529 0.0287022
0.568231 0.0979782 0.063859
0.76553 0.150851 0.104051
0.76408 0.150973 0.104524
0.764004 0.150973 0.10454
0.764782 0.150896 0.10428
0.0242771 0.047776 0.0344244
0.0328985 0.0451514 0.035935
0.160479 0.0402228 0.0241398
0.332204 0.0480812 0.027512
0.544121 0.0910811 0.0580758
0.760464 0.150118 0.103899
0.763943 0.150988 0.104585
0.761868 0.151186 0.10544
0.76286 0.151095 0.105043
0.0450446 0.137331 0.0601816
0.0445106 0.134005 0.0596475
0.133623 0.13286 0.0297856
0.373297 0.112383 0.0482795
0.561563 0.127962 0.0751965
0.766598 0.153903 0.106538
0.76492 0.151202 0.105028
0.765469 0.154681 0.106935
0.765881 0.169879 0.112352
0.104265 0.345571 0.13933
0.103563 0.34316 0.138109
0.102113 0.338842 0.136217
0.367483 0.33286 0.0390478
0.605203 0.328069 0.117632
0.778347 0.320668 0.174563
0.783764 0.306493 0.167788
0.784695 0.316197 0.173983
0.78912 0.336934 0.183215
0.239765 0.558358 0.294621
0.237583 0.555901 0.291966
0.235615 0.552361 0.289815
0.296376 0.553796 0.29221
0.597772 0.562097 0.115023
0.788556 0.571664 0.210956
0.817487 0.581125 0.224643
0.816938 0.579095 0.226184
0.814679 0.564431 0.225025
0.40885 0.764019 0.476509
0.407477 0.7617 0.474586
0.405234 0.759121 0.471962
0.399191 0.752621 0.465248
0.543587 0.756909 0.428443
0.761028 0.770336 0.293324
0.838453 0.760342 0.261173
0.837903 0.755184 0.253697
0.837598 0.740627 0.23975
0.464851 0.811795 0.538323
0.465034 0.811734 0.538445
0.465583 0.811551 0.538949
0.465553 0.811566 0.538918
0.589837 0.817884 0.567346
0.714443 0.831098 0.448112
0.824094 0.839017 0.449012
0.825132 0.837583 0.440284
0.825116 0.837415 0.438132
0.465614 0.811551 0.538979
0.464897 0.81178 0.538354
0.465385 0.811612 0.538735
0.4654 0.811612 0.53875
0.525292 0.815229 0.553307
0.688533 0.829023 0.461692
0.802563 0.839292 0.439506
0.825116 0.837568 0.44065
0.825101 0.837552 0.441062
0.466407 0.811276 0.539528
0.465705 0.811505 0.539055
0.465644 0.811536 0.538994
0.466377 0.811292 0.539513
0.466407 0.811276 0.539528
0.655543 0.825589 0.50779
0.771893 0.835874 0.423514
0.825437 0.838483 0.446128
0.825132 0.837583 0.440177
0.0266117 0.0390173 0.120516
0.0457923 0.0381628 0.132982
0.190204 0.0336156 0.103639
0.398123 0.0395819 0.104402
0.639933 0.101289 0.140505
0.78349 0.156832 0.124376
0.765576 0.150835 0.104051
0.764004 0.150973 0.10454
0.764767 0.150912 0.104265
0.026215 0.0388952 0.11339
0.0282597 0.0373388 0.117922
0.164981 0.0348363 0.0990311
0.38996 0.0386511 0.0920882
0.634424 0.0973373 0.11809
0.773877 0.152514 0.112566
0.763943 0.150988 0.104585
0.761807 0.151202 0.10547
0.762966 0.151095 0.104982
0.0244297 0.139498 0.120058
0.0244297 0.134646 0.118334
0.133379 0.150179 0.132433
0.421729 0.115984 0.0932631
0.620783 0.129946 0.112612
0.783017 0.156222 0.122316
0.764431 0.150927 0.104402
0.764569 0.151019 0.104707
0.765255 0.16025 0.109545
0.116518 0.348531 0.178302
0.115572 0.345571 0.175509
0.11281 0.33994 0.168948
0.366613 0.332372 0.0560922
0.598367 0.318151 0.120867
0.775097 0.309133 0.167544
0.782544 0.300725 0.165225
0.783597 0.311681 0.170611
0.787961 0.330556 0.180041
0.23566 0.552239 0.289769
0.232456 0.549783 0.287709
0.230579 0.546563 0.284993
0.286549 0.547234 0.287404
0.596963 0.555505 0.110231
0.786984 0.565713 0.21181
0.816419 0.574151 0.224781
0.815351 0.57116 0.225834
0.814374 0.5635 0.224643
0.404456 0.759121 0.471504
0.403891 0.75787 0.470771
0.400504 0.75523 0.467124
0.39469 0.748592 0.460594
0.53782 0.752163 0.424018
0.760204 0.764096 0.283986
0.838178 0.754238 0.252277
0.83798 0.749111 0.247257
0.836973 0.733623 0.234714
0.464836 0.811795 0.538323
0.465064 0.811719 0.53846
0.465126 0.811704 0.538491
0.465614 0.811536 0.538964
0.583108 0.81796 0.566476
0.710384 0.830991 0.450065
0.822904 0.838972 0.448737
0.825101 0.837522 0.439887
0.824964 0.836423 0.433799
0.465614 0.811551 0.538979
0.464881 0.81178 0.538338
0.464897 0.81178 0.538354
0.465385 0.811612 0.53872
0.515084 0.81532 0.551659
0.685389 0.828672 0.463371
0.800107 0.839307 0.435798
0.825116 0.837568 0.440742
0.825086 0.837552 0.441077
0.466407 0.811276 0.539528
0.465721 0.811505 0.539071
0.46566 0.811521 0.53901
0.466484 0.811261 0.539574
0.466407 0.811276 0.539528
0.654139 0.825223 0.510231
0.770092 0.836027 0.422553
0.825483 0.83859 0.446632
0.825132 0.837583 0.440177
0.0306706 0.053315 0.296345
0.0349432 0.0500801 0.30486
0.144167 0.0404822 0.299413
0.38703 0.0482643 0.256062
0.617685 0.0979782 0.327901
0.815946 0.156756 0.389349
0.824018 0.159609 0.349447
0.82707 0.159823 0.302953
0.82472 0.156298 0.235798
0.0306096 0.0529641 0.293065
0.0306249 0.0529183 0.293248
0.115282 0.0382086 0.300328
0.376837 0.0471656 0.251591
0.612741 0.0954452 0.320912
0.818555 0.158236 0.376822
0.825437 0.15967 0.327901
0.824613 0.161166 0.298192
0.823575 0.15552 0.228611
0.0304265 0.10544 0.301366
0.0311131 0.101946 0.299443
0.0868391 0.0829786 0.332006
0.377035 0.0661021 0.26424
0.602686 0.0905776 0.305013
0.825116 0.159426 0.341863
0.826673 0.15935 0.312749
0.826261 0.16112 0.282094
0.819776 0.147951 0.207248
0.0294347 0.345342 0.335286
0.0289616 0.341924 0.33315
0.0277256 0.335088 0.328222
0.369711 0.385382 0.358053
0.666896 0.340032 0.304433
0.828946 0.333333 0.307439
0.822156 0.30988 0.276631
0.811643 0.310277 0.253056
0.795621 0.328771 0.226291
0.260212 0.570077 0.396582
0.258213 0.567193 0.393652
0.25568 0.563409 0.390265
0.307103 0.562158 0.395987
0.59086 0.570657 0.257374
0.779706 0.56968 0.279057
0.813016 0.579553 0.282567
0.811215 0.573251 0.272648
0.811872 0.559442 0.243107
0.413672 0.757168 0.503319
0.410864 0.755199 0.500359
0.406973 0.751369 0.494774
0.39884 0.742992 0.482506
0.538521 0.745113 0.454109
0.757885 0.750408 0.268406
0.837186 0.741375 0.246342
0.837186 0.735805 0.239734
0.836118 0.72018 0.22562
0.471122 0.813931 0.550912
0.469245 0.813062 0.547189
0.467353 0.812222 0.543389
0.465309 0.811704 0.538888
0.574044 0.817639 0.565637
0.704768 0.83032 0.452873
0.820935 0.838651 0.447211
0.82501 0.837095 0.436759
0.825849 0.833097 0.422751
0.465553 0.811551 0.538933
0.464912 0.81178 0.538369
0.464881 0.81178 0.538338
0.464805 0.81181 0.538293
0.497993 0.813794 0.547066
0.68101 0.828458 0.467338
0.795697 0.838666 0.43212
0.825177 0.837613 0.439124
0.825101 0.837568 0.440726
0.466407 0.811276 0.539528
0.465736 0.811505 0.539071
0.465675 0.811521 0.539025
0.465721 0.811505 0.539071
0.466407 0.811276 0.539528
0.652125 0.824918 0.515587
0.767178 0.83592 0.423484
0.825742 0.838788 0.446128
0.825132 0.837583 0.440223
0.0430304 0.091249 0.472068
0.043061 0.0912642 0.472007
0.0945144 0.0593423 0.473152
0.365713 0.0713054 0.462486
0.622812 0.123857 0.474876
0.781735 0.13817 0.527459
0.781369 0.137713 0.530053
0.78381 0.140749 0.515877
0.797681 0.152224 0.465827
0.0428779 0.0908675 0.470817
0.0428779 0.090898 0.471046
0.0784466 0.0690318 0.476783
0.34995 0.0679179 0.458732
0.617304 0.123171 0.473182
0.781689 0.138643 0.525658
0.781552 0.138186 0.527855
0.786084 0.143069 0.509316
0.797543 0.153109 0.456779
0.0427405 0.0899062 0.467552
0.042771 0.0898451 0.467079
0.0497597 0.0819715 0.473167
0.319875 0.0632334 0.452171
0.604318 0.118196 0.465797
0.779232 0.137926 0.520439
0.783825 0.140337 0.517357
0.792096 0.147906 0.492454
0.799542 0.152651 0.449012
0.0269932 0.285863 0.510109
0.0276341 0.282582 0.50901
0.028397 0.276356 0.505638
0.296239 0.261341 0.576242
0.635035 0.258045 0.517876
0.804242 0.240436 0.541878
0.811872 0.221546 0.516915
0.807553 0.197452 0.483803
0.814511 0.196139 0.445441
0.0841688 0.563378 0.568154
0.0821088 0.560204 0.56611
0.0813764 0.555962 0.562905
0.0878462 0.549538 0.558801
0.597711 0.61326 0.590829
0.838453 0.604212 0.565957
0.863249 0.600748 0.549004
0.851408 0.588647 0.519127
0.834134 0.563409 0.461006
0.332189 0.770504 0.613977
0.330312 0.768292 0.6112
0.32874 0.765133 0.606851
0.322515 0.757687 0.598825
0.591302 0.769192 0.643076
0.759854 0.778958 0.548608
0.849729 0.766552 0.529854
0.849027 0.761395 0.520775
0.843641 0.743008 0.4757
0.455589 0.843809 0.676844
0.462501 0.842649 0.674647
0.468589 0.841627 0.67129
0.476448 0.840009 0.667552
0.589899 0.841337 0.684382
0.754391 0.852903 0.708766
0.8271 0.860212 0.611536
0.838071 0.852018 0.581445
0.83682 0.841688 0.546883
0.468086 0.84181 0.670893
0.475105 0.840711 0.667124
0.483528 0.839658 0.663081
0.492164 0.837949 0.659113
0.521523 0.836805 0.658015
0.748745 0.854475 0.711971
0.797955 0.860807 0.605753
0.832593 0.856306 0.561502
0.830594 0.85127 0.532067
0.510246 0.833967 0.647059
0.511833 0.832654 0.64184
0.511238 0.831907 0.636316
0.509728 0.830076 0.629984
0.506264 0.828229 0.622431
0.702754 0.840208 0.672648
0.769177 0.849744 0.556619
0.82858 0.846754 0.502586
0.827497 0.844419 0.488594
0.0703899 0.158984 0.636225
0.0703593 0.159136 0.636545
0.0718547 0.145388 0.642527
0.287526 0.0729076 0.616968
0.617395 0.159091 0.657786
0.798199 0.182376 0.667842
0.798596 0.181415 0.671077
0.799176 0.180407 0.675471
0.796246 0.1897 0.652079
0.0704356 0.158816 0.635645
0.0703899 0.158831 0.63592
0.0705272 0.151827 0.637644
0.269184 0.067216 0.612238
0.609567 0.156603 0.655146
0.796414 0.182361 0.665309
0.797818 0.182788 0.667887
0.798581 0.181201 0.672297
0.794217 0.190372 0.643198
0.0700694 0.15671 0.63238
0.0700084 0.15642 0.631403
0.0698711 0.155856 0.630274
0.235187 0.0572213 0.602289
0.595712 0.152148 0.649729
0.792157 0.182269 0.659373
0.797864 0.185763 0.662028
0.797925 0.184283 0.664988
0.792309 0.177646 0.624979
0.0687724 0.245563 0.646494
0.0689097 0.240162 0.645304
0.0693523 0.232853 0.64239
0.198978 0.171664 0.67335
0.566232 0.161547 0.651759
0.776852 0.175906 0.643946
0.794064 0.191699 0.646082
0.793881 0.191562 0.646601
0.787915 0.16199 0.598245
0.0205081 0.502281 0.694682
0.0203861 0.499046 0.69218
0.0205386 0.495079 0.689891
0.0204623 0.487343 0.685054
0.551415 0.522957 0.785
0.831998 0.547875 0.751156
0.868635 0.541909 0.75462
0.868482 0.532647 0.734585
0.86659 0.490394 0.677821
0.175174 0.757641 0.766094
0.175219 0.75433 0.763973
0.172427 0.750256 0.759915
0.166766 0.741207 0.753185
0.439567 0.758343 0.757275
0.771756 0.792142 0.775326
0.888594 0.789258 0.759365
0.885298 0.784955 0.740261
0.877714 0.769635 0.691478
0.29984 0.862058 0.794125
0.302541 0.85919 0.788739
0.3019 0.856336 0.782391
0.298894 0.85153 0.773312
0.394446 0.848737 0.761395
0.775692 0.867552 0.802197
0.843015 0.884276 0.780316
0.874891 0.881941 0.760586
0.875013 0.86978 0.739757
0.308278 0.864942 0.787106
0.311513 0.864485 0.780774
0.314031 0.864164 0.773953
0.319509 0.863294 0.766888
0.335225 0.862272 0.758373
0.76704 0.886015 0.804929
0.845136 0.908766 0.836133
0.868055 0.914336 0.79501
0.866361 0.911009 0.783322
0.340459 0.860014 0.748745
0.350469 0.85864 0.741665
0.360189 0.857328 0.735637
0.368978 0.856123 0.729976
0.37818 0.854826 0.724239
0.720409 0.870649 0.774533
0.82681 0.897856 0.816754
0.854063 0.905592 0.771008
0.863218 0.906538 0.767681
0.0882277 0.237812 0.736355
0.0882124 0.237812 0.736339
0.088426 0.236088 0.737591
0.267323 0.154269 0.741222
0.588907 0.213321 0.757641
0.806577 0.208621 0.761807
0.808698 0.209323 0.7617
0.808698 0.209323 0.7617
0.808698 0.209323 0.7617
0.0882277 0.237812 0.736355
0.0882277 0.237812 0.736355
0.0882277 0.237797 0.736355
0.250736 0.162615 0.744411
0.579995 0.210575 0.757107
0.805158 0.208255 0.76199
0.808698 0.209323 0.761685
0.808698 0.209323 0.7617
0.808698 0.209323 0.7617
0.0882277 0.237812 0.736355
0.0882277 0.237812 0.736355
0.0882277 0.237812 0.736355
0.217212 0.179309 0.74934
0.564004 0.207401 0.756573
0.800885 0.207324 0.762402
0.808682 0.209323 0.761685
0.808698 0.209323 0.7617
0.808698 0.209323 0.7617
0.0885328 0.250065 0.739849
0.0885939 0.247303 0.739223
0.0887617 0.243244 0.738399
0.123201 0.211093 0.753674
0.518364 0.192645 0.755093
0.783291 0.206271 0.760571
0.807813 0.207767 0.759533
0.80853 0.209064 0.761212
0.807904 0.207019 0.758236
0.0536049 0.498939 0.788128
0.054612 0.495598 0.786755
0.0558633 0.492302 0.785351
0.056733 0.484749 0.781704
0.495247 0.485924 0.853056
0.80766 0.507469 0.839002
0.868208 0.494072 0.831098
0.865583 0.484489 0.82739
0.858442 0.455283 0.808759
0.0587472 0.700267 0.837598
0.0558785 0.696437 0.835981
0.0510567 0.691752 0.833707
0.0439612 0.681682 0.828199
0.316701 0.706844 0.844388
0.740276 0.739361 0.887037
0.902419 0.749706 0.860945
0.90277 0.743099 0.858732
0.900877 0.723812 0.83714
0.242679 0.851667 0.867109
0.240208 0.848844 0.864271
0.238376 0.844755 0.860105
0.232547 0.83769 0.853971
0.255818 0.830182 0.846922
0.698421 0.865599 0.855619
0.860395 0.893309 0.874022
0.902815 0.897292 0.865522
0.901198 0.886122 0.847257
0.254841 0.87361 0.868879
0.25481 0.874189 0.866865
0.25742 0.873518 0.862745
0.259327 0.872984 0.858457
0.258762 0.873091 0.853056
0.693172 0.900481 0.843931
0.868696 0.93167 0.89395
0.906294 0.939406 0.901961
0.903593 0.9364 0.894591
0.26009 0.87248 0.847181
0.261402 0.871962 0.843153
0.262669 0.871717 0.839368
0.26424 0.871489 0.835691
0.269337 0.870512 0.830411
0.623255 0.889647 0.822644
0.846586 0.924987 0.87715
0.896422 0.93521 0.899275
0.902037 0.937789 0.890867
0.0882277 0.237812 0.736355
0.0882277 0.237812 0.736355
0.0882582 0.237675 0.736507
0.257115 0.159564 0.743297
0.585153 0.212146 0.757427
0.805951 0.208408 0.761791
0.808698 0.209323 0.7617
0.808698 0.209323 0.7617
0.808698 0.209323 0.7617
0.0882277 0.237812 0.736355
0.0882277 0.237812 0.736355
0.0882277 0.237812 0.736355
0.239673 0.168551 0.746899
0.577142 0.209705 0.757259
0.804898 0.208133 0.761944
0.808698 0.209323 0.7617
0.808698 0.209323 0.7617
0.808698 0.209323 0.7617
0.0882277 0.237812 0.736355
0.0882277 0.237812 0.736355
0.0882277 0.237812 0.736355
0.204196 0.184176 0.750164
0.558801 0.206683 0.7561
0.79939 0.20679 0.7626
0.808698 0.209323 0.7617
0.808698 0.209323 0.7617
0.808698 0.209323 0.7617
0.0882277 0.237812 0.736355
0.0882277 0.237812 0.736355
0.0882277 0.237812 0.736355
0.110033 0.214542 0.752071
0.511696 0.190036 0.754253
0.781018 0.208362 0.761547
0.808698 0.209323 0.7617
0.808698 0.209323 0.7617
0.808698 0.209323 0.7617
0.0623026 0.488899 0.792065
0.0627146 0.485679 0.790646
0.0640879 0.482536 0.790066
0.066392 0.475746 0.788998
0.475471 0.468559 0.856458
0.789487 0.493233 0.845045
0.862943 0.472374 0.839445
0.860471 0.461936 0.836545
0.852338 0.429114 0.827329
0.0213321 0.686366 0.847364
0.0209812 0.682918 0.84506
0.02121 0.677928 0.843732
0.0209812 0.669367 0.839765
0.181643 0.692561 0.863096
0.712261 0.715267 0.921523
0.891722 0.730098 0.900999
0.903075 0.718685 0.899321
0.903151 0.699931 0.896773
0.200229 0.828321 0.89276
0.195941 0.822858 0.891279
0.188891 0.816297 0.889403
0.176837 0.806058 0.886534
0.184237 0.79266 0.881315
0.654459 0.833036 0.90454
0.839185 0.867094 0.919326
0.899641 0.867063 0.912337
0.899718 0.854704 0.90811
0.232441 0.868986 0.903868
0.232761 0.869551 0.903151
0.234028 0.870192 0.901625
0.23682 0.870802 0.899962
0.240299 0.87013 0.896513
0.620737 0.887312 0.886839
0.834562 0.927367 0.909636
0.906661 0.942763 0.92636
0.912612 0.940871 0.924666
0.241291 0.871702 0.894957
0.242664 0.871717 0.893004
0.243854 0.871733 0.891234
0.245518 0.871778 0.889082
0.247196 0.872053 0.88632
0.536568 0.885115 0.874754
0.814649 0.927703 0.899428
0.905623 0.947188 0.927611
0.917311 0.948287 0.930343
0.0882277 0.237812 0.736355
0.0882277 0.237812 0.736355
0.0882277 0.237812 0.736355
0.246799 0.164614 0.745388
0.579187 0.209995 0.756924
0.804974 0.208164 0.76199
0.808698 0.209323 0.7617
0.808698 0.209323 0.7617
0.808698 0.209323 0.7617
0.0882277 0.237812 0.736355
0.0882277 0.237812 0.736355
0.0882277 0.237812 0.736355
0.228992 0.174029 0.748821
0.570962 0.208408 0.757122
0.803555 0.207904 0.762249
0.808698 0.209323 0.7617
0.808698 0.209323 0.7617
0.808698 0.209323 0.7617
0.0882277 0.237812 0.736355
0.0882277 0.237812 0.736355
0.0882277 0.237812 0.736355
0.19176 0.188617 0.750805
0.552529 0.205402 0.756542
0.797604 0.206012 0.76286
0.808698 0.209323 0.7617
0.808698 0.209323 0.7617
0.808698 0.209323 0.7617
0.0882277 0.237812 0.736355
0.0882277 0.237812 0.736355
0.0882277 0.237812 0.736355
0.103014 0.216571 0.750393
0.504204 0.186542 0.753643
0.777127 0.209354 0.761242
0.808698 0.209323 0.7617
0.808698 0.209323 0.7617
0.808698 0.209323 0.7617
0.0654917 0.478355 0.789654
0.0666514 0.474845 0.788708
0.0683757 0.471443 0.788312
0.0708476 0.464591 0.786557
0.46305 0.451591 0.85153
0.780224 0.472663 0.838758
0.857481 0.450202 0.833173
0.854002 0.437751 0.829282
0.84538 0.40061 0.818799
0.02121 0.67834 0.843763
0.021088 0.675242 0.842298
0.0209812 0.669337 0.839689
0.0208133 0.660151 0.835081
0.145495 0.679332 0.860914
0.703838 0.701518 0.919707
0.888273 0.717479 0.900023
0.90338 0.705318 0.897475
0.902388 0.685054 0.894942
0.192035 0.820447 0.89073
0.186282 0.814542 0.888518
0.177554 0.806775 0.886732
0.164965 0.796338 0.884138
0.158846 0.781308 0.879637
0.632059 0.822797 0.90454
0.82948 0.852842 0.922362
0.899306 0.853101 0.911864
0.898756 0.839948 0.909819
0.231342 0.86836 0.905516
0.231342 0.86836 0.905516
0.231342 0.86836 0.905516
0.231342 0.868345 0.905501
0.225467 0.860945 0.903349
0.58996 0.872648 0.89572
0.814725 0.910018 0.91075
0.896849 0.936721 0.927108
0.905592 0.934569 0.926192
0.231342 0.86836 0.905516
0.231342 0.86836 0.905516
0.231342 0.86836 0.905516
0.231342 0.86836 0.905516
0.231342 0.86836 0.905516
0.421271 0.874632 0.896757
0.767269 0.915343 0.905287
0.893599 0.946197 0.928786
0.914305 0.950408 0.93286
