bundles/resolve-cinematic-luts/Phantom Luts/DJI/DJI Phntm Film LUTs - G3/Mavic 3 D-Log/Vision Mavic 3.cube
TITLE "Generated by Resolve"
LUT_3D_SIZE 5
0.0233463 0.0330816 0.024155
0.145403 0.0379644 0.0195773
0.533944 0.0890516 0.0562905
0.760662 0.151369 0.105867
0.761028 0.151324 0.105745
0.0459754 0.147082 0.0623636
0.135317 0.148775 0.0305638
0.565347 0.134524 0.0784466
0.763287 0.152407 0.106188
0.76582 0.172885 0.112978
0.242603 0.561868 0.297459
0.238605 0.556115 0.292576
0.598352 0.566964 0.117891
0.818128 0.584741 0.224689
0.816495 0.570031 0.225879
0.464836 0.811795 0.538323
0.465553 0.811551 0.538933
0.594308 0.818051 0.568002
0.824796 0.839048 0.44918
0.825147 0.837537 0.438819
0.466407 0.811276 0.539528
0.465629 0.811521 0.538979
0.466407 0.811276 0.539528
0.773281 0.836118 0.423362
0.825132 0.837583 0.440177
0.0266117 0.0390173 0.120516
0.190204 0.0336156 0.103639
0.639933 0.101289 0.140505
0.765576 0.150835 0.104051
0.764767 0.150912 0.104265
0.0244297 0.139498 0.120058
0.133379 0.150179 0.132433
0.620783 0.129946 0.112612
0.764431 0.150927 0.104402
0.765255 0.16025 0.109545
0.23566 0.552239 0.289769
0.230579 0.546563 0.284993
0.596963 0.555505 0.110231
0.816419 0.574151 0.224781
0.814374 0.5635 0.224643
0.464836 0.811795 0.538323
0.465126 0.811704 0.538491
0.583108 0.81796 0.566476
0.822904 0.838972 0.448737
0.824964 0.836423 0.433799
0.466407 0.811276 0.539528
0.46566 0.811521 0.53901
0.466407 0.811276 0.539528
0.770092 0.836027 0.422553
0.825132 0.837583 0.440177
0.0430304 0.091249 0.472068
0.0945144 0.0593423 0.473152
0.622812 0.123857 0.474876
0.781369 0.137713 0.530053
0.797681 0.152224 0.465827
0.0427405 0.0899062 0.467552
0.0497597 0.0819715 0.473167
0.604318 0.118196 0.465797
0.783825 0.140337 0.517357
0.799542 0.152651 0.449012
0.0841688 0.563378 0.568154
0.0813764 0.555962 0.562905
0.597711 0.61326 0.590829
0.863249 0.600748 0.549004
0.834134 0.563409 0.461006
0.455589 0.843809 0.676844
0.468589 0.841627 0.67129
0.589899 0.841337 0.684382
0.8271 0.860212 0.611536
0.83682 0.841688 0.546883
0.510246 0.833967 0.647059
0.511238 0.831907 0.636316
0.506264 0.828229 0.622431
0.769177 0.849744 0.556619
0.827497 0.844419 0.488594
0.0882277 0.237812 0.736355
0.088426 0.236088 0.737591
0.588907 0.213321 0.757641
0.808698 0.209323 0.7617
0.808698 0.209323 0.7617
0.0882277 0.237812 0.736355
0.0882277 0.237812 0.736355
0.564004 0.207401 0.756573
0.808682 0.209323 0.761685
0.808698 0.209323 0.7617
0.0536049 0.498939 0.788128
0.0558633 0.492302 0.785351
0.495247 0.485924 0.853056
0.868208 0.494072 0.831098
0.858442 0.455283 0.808759
0.242679 0.851667 0.867109
0.238376 0.844755 0.860105
0.255818 0.830182 0.846922
0.860395 0.893309 0.874022
0.901198 0.886122 0.847257
0.26009 0.87248 0.847181
0.262669 0.871717 0.839368
0.269337 0.870512 0.830411
0.846586 0.924987 0.87715
0.902037 0.937789 0.890867
0.0882277 0.237812 0.736355
0.0882277 0.237812 0.736355
0.579187 0.209995 0.756924
0.808698 0.209323 0.7617
0.808698 0.209323 0.7617
0.0882277 0.237812 0.736355
0.0882277 0.237812 0.736355
0.552529 0.205402 0.756542
0.808698 0.209323 0.7617
0.808698 0.209323 0.7617
0.0654917 0.478355 0.789654
0.0683757 0.471443 0.788312
0.46305 0.451591 0.85153
0.857481 0.450202 0.833173
0.84538 0.40061 0.818799
0.192035 0.820447 0.89073
0.177554 0.806775 0.886732
0.158846 0.781308 0.879637
0.82948 0.852842 0.922362
0.898756 0.839948 0.909819
0.231342 0.86836 0.905516
0.231342 0.86836 0.905516
0.231342 0.86836 0.905516
0.767269 0.915343 0.905287
0.914305 0.950408 0.93286
