bundles/resolve-cinematic-luts/Phantom Luts/DJI/DJI Phntm Film LUTs - G3/Mavic 3 D-Log/Vision Mavic 3.cube
TITLE "Generated by Resolve"
LUT_3D_SIZE 65
0.0233463 0.0330816 0.024155
0.0233463 0.0330816 0.0241703
0.0233616 0.0330663 0.0241855
0.0233616 0.0330663 0.0242008
0.0235142 0.0331273 0.0242008
0.0255589 0.0335851 0.0240787
0.0311284 0.0339666 0.0222782
0.0409247 0.032639 0.022385
0.0495308 0.0326238 0.0223087
0.0593423 0.0324102 0.0217746
0.0695964 0.0327459 0.0214542
0.0791943 0.0328527 0.0209964
0.0906386 0.0333715 0.0205081
0.101396 0.0346227 0.0204166
0.114015 0.035462 0.0199893
0.128649 0.0368505 0.0200046
0.145403 0.0379644 0.0195773
0.166964 0.0383001 0.0190585
0.187671 0.0392615 0.0195468
0.209354 0.0400397 0.0201419
0.232136 0.0412604 0.0205234
0.254932 0.0426795 0.0214542
0.278431 0.0442512 0.0234684
0.299596 0.0458228 0.0247196
0.322362 0.0475013 0.026276
0.346349 0.0495308 0.0282139
0.369085 0.0523995 0.0296025
0.393576 0.0559243 0.0315709
0.419852 0.0604257 0.0345922
0.44593 0.0656291 0.0380255
0.473655 0.0719615 0.0429236
0.503029 0.0795758 0.0487068
0.533944 0.0890516 0.0562905
0.563088 0.0975814 0.0634623
0.59176 0.103746 0.0695506
0.622522 0.110262 0.0760052
0.655833 0.116396 0.0844739
0.687434 0.124132 0.0906691
0.717723 0.13344 0.0969406
0.740948 0.143435 0.100481
0.757855 0.149645 0.103822
0.762707 0.15111 0.105104
0.762768 0.151095 0.105089
0.762737 0.151095 0.105089
0.7626 0.15111 0.10515
0.76228 0.151141 0.105272
0.76173 0.151202 0.105516
0.761151 0.151293 0.105715
0.760662 0.151369 0.105867
0.760662 0.151369 0.105867
0.760662 0.151369 0.105867
0.760662 0.151369 0.105867
0.760662 0.151369 0.105867
0.760662 0.151369 0.105867
0.760662 0.151369 0.105867
0.760662 0.151369 0.105867
0.760662 0.151369 0.105867
0.760662 0.151369 0.105867
0.760662 0.151369 0.105867
0.760662 0.151369 0.105867
0.760662 0.151369 0.105867
0.760662 0.151369 0.105867
0.760662 0.151369 0.105867
0.760662 0.151369 0.105867
0.761028 0.151324 0.105745
0.0233005 0.0330968 0.0241093
0.023331 0.0330816 0.0241093
0.0233463 0.0330816 0.0241398
0.0233616 0.0330663 0.0241855
0.0235294 0.0331273 0.0241855
0.0261692 0.0337224 0.0240177
0.0335546 0.0335699 0.0223239
0.0426642 0.0326848 0.0224002
0.0513008 0.0325475 0.0222477
0.061265 0.0323491 0.0216831
0.0714733 0.0326238 0.0213169
0.081117 0.032929 0.0209506
0.0920119 0.0337072 0.0205081
0.1037 0.0348363 0.0203861
0.116579 0.0358892 0.0200198
0.130892 0.0370947 0.0200198
0.149493 0.0381628 0.0195773
0.16968 0.0387121 0.0194553
0.191546 0.0392767 0.0194858
0.213245 0.0404517 0.0203861
0.234867 0.041062 0.0202487
0.257465 0.042649 0.0214847
0.280705 0.0441291 0.0234836
0.302434 0.0458686 0.0247349
0.324941 0.0478523 0.0267033
0.34818 0.0497902 0.0283818
0.37171 0.0527047 0.0298314
0.396002 0.05626 0.0318608
0.421622 0.0607462 0.0349279
0.447333 0.0659342 0.0382239
0.47628 0.0722972 0.0430304
0.505287 0.0806592 0.0493324
0.535378 0.0895552 0.056611
0.565225 0.0980545 0.0637827
0.593668 0.104189 0.0699321
0.624765 0.110918 0.0768139
0.657618 0.116747 0.0848859
0.690074 0.125032 0.0914626
0.718608 0.133776 0.0973373
0.741726 0.143618 0.100603
0.758206 0.149767 0.103853
0.762783 0.151095 0.105074
0.762844 0.151095 0.105058
0.762844 0.15108 0.105043
0.762814 0.151095 0.105074
0.762631 0.15111 0.105135
0.762264 0.151141 0.105287
0.761654 0.151232 0.105562
0.761028 0.151324 0.105745
0.760662 0.151369 0.105867
0.760662 0.151369 0.105867
0.760662 0.151369 0.105867
0.760662 0.151369 0.105867
0.760662 0.151369 0.105867
0.760662 0.151369 0.105867
0.760662 0.151369 0.105867
0.760662 0.151369 0.105867
0.760662 0.151369 0.105867
0.760662 0.151369 0.105867
0.760662 0.151369 0.105867
0.760662 0.151369 0.105867
0.760662 0.151369 0.105867
0.760662 0.151369 0.105867
0.760662 0.151369 0.105867
0.761074 0.151308 0.10573
0.0233005 0.0330968 0.0241093
0.023331 0.0330816 0.0241093
0.0233463 0.0330663 0.0241398
0.0233616 0.0330663 0.0241855
0.0234684 0.0330968 0.0241703
0.0258183 0.0336461 0.0240635
0.0329442 0.0336461 0.0223239
0.0424048 0.0326696 0.022385
0.0511635 0.0325475 0.0222477
0.0614939 0.0323339 0.0216678
0.0719921 0.032578 0.0212863
0.0817121 0.0329595 0.0208896
0.0926528 0.0338903 0.0205081
0.104616 0.0348974 0.0203555
0.117617 0.0360418 0.0200198
0.132494 0.0371099 0.0199741
0.150942 0.038117 0.0195315
0.171618 0.0387732 0.0193637
0.193256 0.0395056 0.0198367
0.214878 0.0404364 0.0203403
0.237476 0.0411994 0.020325
0.259098 0.0427558 0.021622
0.282155 0.0443122 0.023682
0.304082 0.0462196 0.0250248
0.326253 0.0478981 0.0268101
0.349187 0.0500343 0.0285039
0.372702 0.0528725 0.0299535
0.397726 0.0565805 0.0321508
0.422492 0.0608988 0.0350958
0.448463 0.0660563 0.0383001
0.477089 0.0724956 0.0430457
0.506386 0.0809644 0.0496071
0.536568 0.0899825 0.0569772
0.566262 0.0983139 0.0639506
0.594873 0.104448 0.0700847
0.625864 0.111299 0.0770886
0.658991 0.11693 0.0849622
0.691402 0.125246 0.091722
0.719188 0.133883 0.0974136
0.742107 0.143786 0.100771
0.758404 0.149783 0.103853
0.76286 0.15108 0.105043
0.762905 0.15108 0.105013
0.762951 0.151095 0.105013
0.762951 0.151095 0.105013
0.762875 0.15108 0.105028
0.762692 0.15111 0.105119
0.76228 0.151141 0.105287
0.761624 0.151232 0.105562
0.760998 0.151324 0.10576
0.760662 0.151369 0.105867
0.760662 0.151369 0.105867
0.760662 0.151369 0.105867
0.760662 0.151369 0.105867
0.760662 0.151369 0.105867
0.760662 0.151369 0.105867
0.760662 0.151369 0.105867
0.760662 0.151369 0.105867
0.760662 0.151369 0.105867
0.760662 0.151369 0.105867
0.760662 0.151369 0.105867
0.760662 0.151369 0.105867
0.760662 0.151369 0.105867
0.760662 0.151369 0.105867
0.761105 0.151308 0.105715
0.0233005 0.0330816 0.0241093
0.023331 0.0330816 0.0241245
0.0233463 0.0330663 0.0241398
0.0233616 0.0330663 0.0242008
0.0233921 0.0330816 0.0242008
0.0247959 0.0334478 0.024094
0.0306249 0.0339666 0.0223087
0.0412299 0.0326696 0.022385
0.0496834 0.0326238 0.0223087
0.0605936 0.0324254 0.0217288
0.0715648 0.0326238 0.0213016
0.0814527 0.0329442 0.0209201
0.0928664 0.0339361 0.0205081
0.104707 0.0348974 0.0203403
0.118532 0.0361334 0.0200046
0.133227 0.0371252 0.019913
0.151369 0.0381323 0.0195315
0.173434 0.0386664 0.0190738
0.194324 0.0395209 0.0198367
0.2159 0.0405127 0.0203861
0.238056 0.0412909 0.0204623
0.260212 0.0428321 0.0218204
0.283207 0.04448 0.0239109
0.304692 0.0462959 0.0251011
0.327169 0.0481117 0.0270542
0.349889 0.0500801 0.0285801
0.373587 0.0531014 0.0301366
0.398535 0.0567636 0.0323033
0.423743 0.061387 0.0354162
0.449653 0.0661631 0.0383307
0.477485 0.0726329 0.0431678
0.507561 0.0813153 0.0499275
0.53782 0.0904402 0.0573587
0.566857 0.0983749 0.0639963
0.595834 0.104753 0.0703136
0.627192 0.111589 0.0772564
0.660319 0.117174 0.0850843
0.691783 0.125338 0.0917983
0.720638 0.134447 0.0979629
0.742931 0.143999 0.100984
0.758618 0.149813 0.103838
0.762921 0.15108 0.104997
0.762982 0.15108 0.104997
0.762997 0.151095 0.104982
0.763012 0.151095 0.104982
0.762997 0.15108 0.104967
0.762921 0.151095 0.105013
0.762692 0.15111 0.105119
0.762234 0.151141 0.105303
0.761517 0.151247 0.105592
0.760876 0.151339 0.105791
0.760662 0.151369 0.105867
0.760662 0.151369 0.105867
0.760662 0.151369 0.105867
0.760662 0.151369 0.105867
0.760662 0.151369 0.105867
0.760662 0.151369 0.105867
0.760662 0.151369 0.105867
0.760662 0.151369 0.105867
0.760662 0.151369 0.105867
0.760662 0.151369 0.105867
0.760662 0.151369 0.105867
0.760662 0.151369 0.105867
0.760662 0.151369 0.105867
0.761166 0.151308 0.10573
0.0233616 0.0331884 0.0241245
0.0233921 0.0331884 0.0241398
0.0233921 0.0331579 0.0241703
0.0234073 0.0331121 0.0242313
0.0233768 0.0330816 0.0242313
0.0237278 0.0332036 0.0241703
0.0279545 0.0338445 0.0234836
0.0379492 0.0330816 0.0223545
0.0479896 0.032578 0.0222934
0.0589303 0.0324102 0.0217899
0.0701152 0.0327764 0.0214237
0.0807507 0.0328985 0.0209812
0.0924086 0.0338598 0.0205234
0.104738 0.0348821 0.0203403
0.118822 0.0361486 0.0199893
0.133623 0.0371252 0.0198367
0.151843 0.0381323 0.0195315
0.173724 0.0386511 0.019028
0.19498 0.0395209 0.019791
0.216159 0.040528 0.0204013
0.238483 0.0413825 0.0205386
0.261311 0.0428321 0.0218814
0.283757 0.0442054 0.0239872
0.30573 0.0463874 0.0251469
0.327825 0.0481575 0.0271458
0.351049 0.0502174 0.0287022
0.374685 0.0532387 0.0302892
0.399313 0.0569467 0.0324559
0.424964 0.0616007 0.0355688
0.450324 0.066392 0.038468
0.478416 0.0728771 0.0433661
0.508812 0.0817578 0.0503243
0.53872 0.0906996 0.0575723
0.567498 0.098497 0.0640726
0.596735 0.104967 0.0704662
0.62829 0.111864 0.0773938
0.661006 0.11722 0.0851148
0.693172 0.12575 0.0921035
0.721904 0.134783 0.0983291
0.743206 0.144076 0.101061
0.75903 0.149889 0.103868
0.762997 0.151095 0.104982
0.763043 0.15108 0.104967
0.763088 0.15108 0.104967
0.763088 0.15108 0.104936
0.763088 0.15108 0.104936
0.763073 0.15108 0.104952
0.762951 0.151095 0.105013
0.762661 0.15111 0.105135
0.762127 0.151156 0.105348
0.76141 0.151247 0.105638
0.760784 0.151354 0.105837
0.760662 0.151369 0.105867
0.760662 0.151369 0.105867
0.760662 0.151369 0.105867
0.760662 0.151369 0.105867
0.760662 0.151369 0.105867
0.760662 0.151369 0.105867
0.760662 0.151369 0.105867
0.760662 0.151369 0.105867
0.760662 0.151369 0.105867
0.760662 0.151369 0.105867
0.760662 0.151369 0.105867
0.760662 0.151369 0.105867
0.761212 0.151293 0.105715
0.0237888 0.0357824 0.0245975
0.0237125 0.035462 0.0245823
0.0237278 0.0351873 0.0245975
0.0236973 0.0349279 0.0245823
0.0234684 0.0345312 0.0244144
0.0235142 0.0342718 0.0243534
0.0258946 0.0345617 0.0241245
0.0339971 0.034165 0.0223239
0.0446326 0.0333104 0.0223697
0.0551766 0.0328222 0.0220493
0.0683452 0.03299 0.0215305
0.0800183 0.033051 0.0209812
0.0921798 0.034287 0.0205539
0.104509 0.0352178 0.0203708
0.118654 0.0365911 0.0200504
0.1337 0.0373541 0.0197452
0.151553 0.0381781 0.0195315
0.174228 0.0385901 0.0189822
0.195422 0.0397955 0.0200351
0.217105 0.0408637 0.0205234
0.239017 0.0416571 0.0207065
0.261769 0.0428473 0.0218814
0.284504 0.0441596 0.0239414
0.305959 0.0463874 0.0251621
0.328893 0.0482032 0.0272526
0.352087 0.0502785 0.028748
0.375067 0.0533303 0.030396
0.400732 0.057145 0.0326085
0.425528 0.0616312 0.035584
0.451637 0.0666209 0.0386206
0.479133 0.0731823 0.0436408
0.509834 0.0822156 0.0507973
0.53991 0.090837 0.0577401
0.568338 0.0986191 0.0641337
0.59765 0.105119 0.070573
0.62884 0.11194 0.0774243
0.662242 0.117464 0.0852674
0.694041 0.126085 0.0923934
0.722347 0.134829 0.0983749
0.744488 0.14435 0.101305
0.758999 0.149844 0.103838
0.763073 0.15108 0.104952
0.763104 0.151064 0.104921
0.763149 0.151064 0.104921
0.763149 0.151064 0.104906
0.763165 0.151064 0.104906
0.763165 0.151064 0.104906
0.763104 0.151064 0.104921
0.762951 0.151095 0.104997
0.762615 0.15111 0.10515
0.76202 0.151171 0.105379
0.761334 0.151278 0.105653
0.760708 0.151369 0.105852
0.760662 0.151369 0.105867
0.760662 0.151369 0.105867
0.760662 0.151369 0.105867
0.760662 0.151369 0.105867
0.760662 0.151369 0.105867
0.760662 0.151369 0.105867
0.760662 0.151369 0.105867
0.760662 0.151369 0.105867
0.760662 0.151369 0.105867
0.760662 0.151369 0.105867
0.760708 0.151369 0.105852
0.761257 0.151278 0.105669
0.0250248 0.0410925 0.0275578
0.0249943 0.0407416 0.0275425
0.0249485 0.0404212 0.0274357
0.0247807 0.0399939 0.0271305
0.0246433 0.0396124 0.0269017
0.0245518 0.0391394 0.0267185
0.0257725 0.0393072 0.0266117
0.0297398 0.0400702 0.0245518
0.0363622 0.0408942 0.0224002
0.0493477 0.0391546 0.0221256
0.0634318 0.0373999 0.0217136
0.0781109 0.0361486 0.021149
0.091722 0.0362554 0.0208286
0.10425 0.0363928 0.0203555
0.118837 0.0378882 0.0202029
0.134401 0.0387732 0.0197757
0.152346 0.0396887 0.0198062
0.175402 0.0400549 0.0198978
0.195621 0.0406806 0.020264
0.218097 0.0416419 0.0209049
0.239719 0.0421759 0.0210422
0.262669 0.0432136 0.0221256
0.284581 0.0444343 0.0238499
0.306981 0.0464332 0.0253758
0.330388 0.0482185 0.0272679
0.352636 0.0503243 0.0287785
0.376379 0.0533913 0.0304723
0.401389 0.0572671 0.0327001
0.426749 0.0616007 0.0355535
0.452506 0.0668345 0.0388495
0.480095 0.0734112 0.0438697
0.510887 0.0826581 0.0511635
0.540825 0.0909743 0.0578622
0.569421 0.0988479 0.0642863
0.598062 0.105226 0.0706798
0.62977 0.112062 0.0774701
0.663233 0.117556 0.0853437
0.694438 0.126268 0.0925002
0.723903 0.135119 0.0986191
0.744854 0.144396 0.101335
0.759289 0.149935 0.103868
0.763134 0.151064 0.104921
0.76318 0.151064 0.104906
0.76321 0.151064 0.104875
0.76321 0.151064 0.104875
0.76321 0.151064 0.104875
0.763226 0.151064 0.104875
0.76321 0.151064 0.104875
0.763165 0.151064 0.104906
0.762966 0.15108 0.104997
0.7626 0.15111 0.10515
0.76199 0.151171 0.105394
0.761273 0.151278 0.105669
0.760678 0.151369 0.105852
0.760662 0.151369 0.105867
0.760662 0.151369 0.105867
0.760662 0.151369 0.105867
0.760662 0.151369 0.105867
0.760662 0.151369 0.105867
0.760662 0.151369 0.105867
0.760662 0.151369 0.105867
0.760662 0.151369 0.105867
0.760662 0.151369 0.105867
0.760739 0.151369 0.105837
0.761334 0.151278 0.105638
0.0266117 0.0472267 0.0297093
0.0264134 0.0468299 0.029572
0.026215 0.0462196 0.0293278
0.026154 0.0458076 0.0292973
0.0261082 0.0453803 0.0293278
0.026215 0.0451057 0.0294347
0.0267185 0.044892 0.0294957
0.0294194 0.0457008 0.028397
0.0350958 0.0463569 0.0251164
0.043946 0.0470741 0.0220951
0.0560922 0.0464942 0.0220645
0.0708782 0.0447089 0.0218967
0.085771 0.0435492 0.0220645
0.101915 0.0429999 0.0227817
0.118029 0.041825 0.0215
0.136172 0.0418402 0.0211185
0.154513 0.041886 0.0207828
0.176135 0.0419623 0.0204013
0.196567 0.042649 0.0207828
0.218921 0.0436561 0.0214084
0.240696 0.0443427 0.0219577
0.262684 0.0449226 0.022858
0.285115 0.045243 0.0239872
0.307286 0.0467842 0.0254063
0.330816 0.0484779 0.0273442
0.353399 0.0505074 0.0288548
0.37702 0.0534066 0.0305028
0.402411 0.0574502 0.0327764
0.427558 0.0616617 0.0355993
0.453819 0.0670634 0.038941
0.481056 0.0736553 0.0441749
0.511299 0.0827649 0.0512245
0.541741 0.0912184 0.0581064
0.569879 0.0988785 0.064332
0.59881 0.105455 0.0708171
0.630518 0.112337 0.0776837
0.663386 0.117617 0.0854353
0.695323 0.126589 0.0927138
0.724132 0.135149 0.0986038
0.74551 0.144518 0.101427
0.75938 0.14995 0.103883
0.763195 0.151064 0.104906
0.763241 0.151064 0.104875
0.763256 0.151049 0.10486
0.763256 0.151049 0.10486
0.763272 0.151049 0.104845
0.763287 0.151064 0.10486
0.763287 0.151064 0.10486
0.763272 0.151049 0.104845
0.763195 0.151064 0.104891
0.762982 0.15108 0.104997
0.7626 0.15111 0.10515
0.761959 0.151171 0.105409
0.761242 0.151278 0.105684
0.760662 0.151369 0.105867
0.760662 0.151369 0.105867
0.760662 0.151369 0.105867
0.760662 0.151369 0.105867
0.760662 0.151369 0.105867
0.760662 0.151369 0.105867
0.760662 0.151369 0.105867
0.760662 0.151369 0.105867
0.760662 0.151369 0.105867
0.760769 0.151354 0.105821
0.761395 0.151263 0.105638
0.0287022 0.0544442 0.032578
0.0285039 0.0538491 0.0324254
0.028397 0.0534371 0.0323644
0.0281682 0.0528115 0.0322576
0.0279088 0.0521096 0.0320592
0.0277104 0.0514992 0.0318456
0.0278325 0.0508278 0.0317388
0.0306859 0.0514687 0.0323339
0.0337987 0.0534371 0.0302586
0.0419776 0.0533608 0.0257267
0.056672 0.0534218 0.0219577
0.0695506 0.0525521 0.0222934
0.0842908 0.0509194 0.0226749
0.096376 0.051133 0.0228733
0.112764 0.0499886 0.0241703
0.132342 0.0486305 0.0228733
0.15378 0.046952 0.0220798
0.177707 0.0451667 0.0215457
0.199069 0.0453803 0.0216678
0.219516 0.046067 0.0220645
0.2421 0.0468757 0.023209
0.26479 0.0475929 0.0241398
0.286885 0.0482338 0.0250858
0.308309 0.0489815 0.0265202
0.331548 0.049546 0.0275425
0.35433 0.0511788 0.0288853
0.378531 0.0539559 0.030808
0.403388 0.057557 0.0328069
0.428687 0.0619211 0.0357671
0.455161 0.0674754 0.0394446
0.483543 0.0736553 0.0444343
0.513878 0.082826 0.0515755
0.543801 0.0911879 0.0581216
0.572152 0.0987869 0.0644846
0.601816 0.105715 0.0709239
0.631876 0.112306 0.0775006
0.664836 0.117601 0.0854047
0.696101 0.126955 0.092958
0.72488 0.135409 0.0988479
0.745617 0.144762 0.101717
0.759091 0.15021 0.104143
0.762463 0.151125 0.105211
0.762493 0.151125 0.105196
0.762509 0.151125 0.105196
0.762509 0.151125 0.10518
0.762509 0.151125 0.10518
0.762509 0.151125 0.10518
0.762509 0.151125 0.10518
0.762509 0.151125 0.105196
0.762493 0.151125 0.105196
0.762432 0.151125 0.105211
0.76228 0.151141 0.105287
0.761929 0.151186 0.105425
0.761471 0.151247 0.105623
0.761013 0.151324 0.10576
0.760662 0.151369 0.105867
0.760662 0.151369 0.105867
0.760662 0.151369 0.105867
0.760662 0.151369 0.105867
0.760662 0.151369 0.105867
0.760662 0.151369 0.105867
0.760662 0.151369 0.105867
0.760662 0.151369 0.105867
0.760662 0.151369 0.105867
0.761074 0.151308 0.10573
0.0300755 0.0621347 0.0351263
0.0299992 0.0617227 0.0350652
0.0300145 0.061265 0.0350195
0.0299535 0.0605173 0.0348821
0.0296178 0.0598917 0.0343938
0.0294041 0.0590677 0.0341039
0.0292668 0.0584573 0.0339666
0.03093 0.0585489 0.0343481
0.0348974 0.0599985 0.0346685
0.0386053 0.0620584 0.0318914
0.0543374 0.0615091 0.0250706
0.0733654 0.0596933 0.0229343
0.0844739 0.0588998 0.0231785
0.098909 0.0578317 0.0235752
0.1131 0.0578622 0.0242161
0.130419 0.0565347 0.0252384
0.151553 0.055375 0.0239872
0.175433 0.0523384 0.0228885
0.200504 0.050248 0.0229496
0.222599 0.0500191 0.0238041
0.24419 0.0504158 0.0246128
0.26688 0.0505074 0.0253147
0.288701 0.0517128 0.0267033
0.310552 0.052369 0.0274205
0.332525 0.0528115 0.028275
0.35613 0.0543069 0.0298314
0.379431 0.0554971 0.0309758
0.404074 0.0580606 0.0328527
0.429984 0.0624094 0.0360113
0.456321 0.0675669 0.0396124
0.484627 0.0740673 0.0447242
0.51516 0.0832227 0.0518502
0.544335 0.0912337 0.0581826
0.573663 0.0991379 0.0647593
0.602762 0.105943 0.0710765
0.632517 0.112535 0.0776684
0.665095 0.117601 0.08542
0.697414 0.127138 0.0930037
0.725628 0.135683 0.0990921
0.74638 0.144945 0.101808
0.759319 0.150286 0.104204
0.762463 0.151125 0.105196
0.762509 0.151125 0.105196
0.762509 0.151125 0.10518
0.762524 0.15111 0.105165
0.762539 0.151125 0.105196
0.762539 0.151125 0.105196
0.762524 0.15111 0.10518
0.762524 0.15111 0.105165
0.762509 0.151125 0.10518
0.762509 0.151125 0.105196
0.762448 0.151125 0.105211
0.76228 0.151141 0.105287
0.761929 0.151171 0.105425
0.761471 0.151263 0.105623
0.760998 0.151324 0.10576
0.760662 0.151369 0.105867
0.760662 0.151369 0.105867
0.760662 0.151369 0.105867
0.760662 0.151369 0.105867
0.760662 0.151369 0.105867
0.760662 0.151369 0.105867
0.760662 0.151369 0.105867
0.760662 0.151369 0.105867
0.761105 0.151308 0.105715
0.0323491 0.0713817 0.038819
0.0322881 0.0706188 0.0387121
0.032166 0.0699321 0.0384833
0.0321202 0.0692302 0.0383154
0.0320592 0.0687114 0.0381476
0.0319677 0.0683604 0.037995
0.0317845 0.0674907 0.0375982
0.0319829 0.0670329 0.0375219
0.0362554 0.0679942 0.03888
0.0398871 0.0695964 0.0371405
0.0452125 0.0723735 0.0330816
0.0701762 0.0689555 0.0242008
0.0878004 0.067277 0.0241245
0.0999619 0.0662089 0.0247654
0.11632 0.0656443 0.0249943
0.133181 0.0649729 0.0252232
0.153338 0.063386 0.026566
0.177722 0.0612955 0.0246586
0.199374 0.0592813 0.0243076
0.222522 0.0572671 0.0249638
0.245991 0.0556344 0.0260929
0.268254 0.055848 0.0271916
0.290639 0.055436 0.0276493
0.312688 0.0563516 0.0290532
0.335088 0.0571603 0.0304417
0.358434 0.0589303 0.0313268
0.381811 0.0602884 0.0324407
0.406546 0.0623178 0.0343023
0.431006 0.0644694 0.0367895
0.457618 0.0681773 0.0398413
0.485985 0.074815 0.0450294
0.516457 0.0834974 0.0520333
0.545892 0.0916152 0.0585031
0.574639 0.0993362 0.0649119
0.60444 0.106233 0.0712291
0.633844 0.112688 0.0776989
0.667247 0.117784 0.0855879
0.698192 0.127275 0.093019
0.725917 0.135851 0.0992447
0.747219 0.145205 0.101946
0.759609 0.150439 0.104402
0.762478 0.151125 0.105196
0.762509 0.151125 0.10518
0.762539 0.151125 0.105196
0.762539 0.151125 0.10518
0.762539 0.151125 0.10518
0.762539 0.151125 0.10518
0.762539 0.151125 0.10518
0.762539 0.151125 0.10518
0.762539 0.151125 0.10518
0.762539 0.151125 0.105196
0.762509 0.151125 0.10518
0.762448 0.151125 0.105211
0.762295 0.151141 0.105272
0.761944 0.151171 0.105425
0.761471 0.151247 0.105608
0.761013 0.151324 0.10576
0.760662 0.151369 0.105867
0.760662 0.151369 0.105867
0.760662 0.151369 0.105867
0.760662 0.151369 0.105867
0.760662 0.151369 0.105867
0.760662 0.151369 0.105867
0.760662 0.151369 0.105867
0.761151 0.151293 0.105715
0.0343023 0.0809186 0.0419776
0.0342718 0.0805219 0.0419623
0.0343328 0.0802014 0.0420233
0.034226 0.0796674 0.0418555
0.0339666 0.0792859 0.0415961
0.0338293 0.0786145 0.0413367
0.0337682 0.0779889 0.0411231
0.0337224 0.0774853 0.0409705
0.0365454 0.0779278 0.0417792
0.0409705 0.078706 0.0419318
0.0459297 0.0811475 0.0399176
0.0539559 0.083772 0.0332341
0.0831006 0.0795758 0.0245975
0.102296 0.0772564 0.0250401
0.118532 0.0747845 0.0263523
0.136233 0.0747082 0.0267491
0.157321 0.0720378 0.0262303
0.181399 0.0690471 0.0277409
0.205112 0.0671397 0.0269322
0.226474 0.0652628 0.0269932
0.248386 0.0637522 0.0275425
0.271778 0.0621805 0.0289311
0.292836 0.0624552 0.0298466
0.316167 0.0623484 0.0313268
0.339315 0.0630045 0.032105
0.361578 0.0643015 0.0330205
0.385 0.0662699 0.0345922
0.40943 0.0680552 0.0366369
0.435096 0.0703746 0.0389258
0.462104 0.0741894 0.0425422
0.488777 0.0777752 0.0469825
0.51783 0.084596 0.0525978
0.547189 0.0921798 0.0590829
0.575921 0.0997024 0.0652781
0.605631 0.106523 0.0714122
0.635004 0.112749 0.0776379
0.669459 0.118471 0.0860761
0.699168 0.127382 0.093019
0.726619 0.136248 0.0995346
0.747967 0.145449 0.102037
0.760037 0.150622 0.104631
0.762493 0.151125 0.105196
0.762509 0.151125 0.10518
0.762539 0.151125 0.10518
0.762539 0.151125 0.10518
0.762554 0.151125 0.105165
0.762554 0.151125 0.105165
0.762554 0.151125 0.105165
0.762554 0.151125 0.105165
0.762554 0.151125 0.105165
0.762554 0.151125 0.10518
0.762539 0.151125 0.10518
0.762524 0.15111 0.105165
0.762463 0.151125 0.105211
0.762295 0.151141 0.105257
0.761975 0.151171 0.105394
0.761517 0.151247 0.105608
0.761044 0.151308 0.10573
0.760662 0.151369 0.105867
0.760662 0.151369 0.105867
0.760662 0.151369 0.105867
0.760662 0.151369 0.105867
0.760662 0.151369 0.105867
0.760662 0.151369 0.105852
0.761181 0.151293 0.105699
0.0362097 0.0917372 0.0457618
0.0361181 0.0913405 0.0457008
0.0361181 0.0907607 0.0456245
0.0360266 0.0903334 0.0455482
0.0358282 0.0895552 0.0452583
0.0357366 0.0890364 0.0451057
0.0356146 0.0883803 0.0448768
0.0356298 0.0879683 0.0448463
0.0361791 0.0878157 0.0450446
0.0417334 0.0890516 0.0464027
0.0475929 0.0904555 0.0452888
0.0530861 0.0927749 0.0407416
0.0650339 0.0942397 0.0331426
0.0992447 0.0890669 0.0248264
0.119417 0.0851453 0.0264134
0.142061 0.0832532 0.0280919
0.160678 0.0815747 0.027039
0.185702 0.0784772 0.0272679
0.209613 0.0756542 0.0289464
0.232959 0.0737621 0.0290532
0.256413 0.0725414 0.029984
0.278477 0.0712139 0.0313268
0.300221 0.0705119 0.0325628
0.320348 0.0714122 0.0338903
0.34226 0.071931 0.0344396
0.365362 0.0723583 0.0356451
0.389029 0.073106 0.0371252
0.413931 0.0754559 0.0393378
0.439506 0.0782635 0.042298
0.465431 0.0814832 0.0458991
0.493935 0.0858473 0.0501106
0.521294 0.0905165 0.0557107
0.549401 0.0947433 0.0603037
0.577752 0.100526 0.0660563
0.607095 0.107057 0.0717021
0.639078 0.112001 0.0797284
0.670054 0.118685 0.0862593
0.700786 0.127657 0.0931258
0.727855 0.136522 0.0996719
0.748837 0.145632 0.102022
0.760723 0.150729 0.104692
0.762539 0.151125 0.10518
0.762524 0.15111 0.105165
0.762539 0.151125 0.10518
0.762554 0.151125 0.105165
0.76257 0.15111 0.10518
0.76257 0.15111 0.10518
0.76257 0.15111 0.10518
0.76257 0.15111 0.105165
0.76257 0.15111 0.10518
0.76257 0.15111 0.10518
0.76257 0.15111 0.10518
0.762554 0.151125 0.105165
0.762524 0.15111 0.105165
0.762478 0.151125 0.105196
0.762325 0.151141 0.105257
0.762005 0.151171 0.105379
0.761563 0.151232 0.105577
0.761105 0.151308 0.105715
0.760693 0.151369 0.105867
0.760662 0.151369 0.105867
0.760662 0.151369 0.105867
0.760662 0.151369 0.105867
0.760693 0.151369 0.105867
0.761212 0.151293 0.105699
0.0389563 0.10312 0.0494392
0.0389563 0.102708 0.049485
0.0389868 0.102403 0.0495308
0.0387427 0.101656 0.0491951
0.0386358 0.101167 0.049073
0.0385901 0.100679 0.0489967
0.0384985 0.100206 0.0488899
0.0384222 0.0998245 0.0488289
0.0379339 0.0991226 0.0484474
0.0411688 0.0998245 0.0495155
