bundles/resolve-cinematic-luts/Gamut/_Conversion/Sony/Sony A7SIII BaseLUTs/BaseLUT - Sony A7SIII - S-Log3 to DWG.cube
TITLE "BaseLUT - Sony A7SIII - S-Log3 to DWG"
# Developed for converting S-Log3 / S-Gamut3.Cine to DaVinci Intermediate / DaVinci Wide Gamut. Version 1.0 - 05/01/2025 - Copyright 2025 Gamut, LLC.
LUT_3D_SIZE 65
0.0000000000 0.0000000000 0.0000000000
0.0000000000 0.0000000000 0.0000000000
0.0000000000 0.0000000000 0.0000000000
0.0000000000 0.0000000000 0.0000000000
0.0000000000 0.0000000000 0.0000000000
0.0000000000 0.0000000000 0.0000000000
0.0000000000 0.0000000000 0.0000000000
0.0000000000 0.0000000000 0.0000000000
0.0100710000 0.0000000000 0.0000000000
0.0289311000 0.0000000000 0.0000000000
0.0482338000 0.0000000000 0.0000000000
0.0668193000 0.0000000000 0.0000000000
0.0847944000 0.0000000000 0.0000000000
0.1022810000 0.0000000000 0.0000000000
0.1193560000 0.0000000000 0.0000000000
0.1361100000 0.0000000000 0.0000000000
0.1525750000 0.0000000000 0.0000000000
0.1688110000 0.0000000000 0.0000000000
0.1848330000 0.0000000000 0.0000000000
0.2007020000 0.0000000000 0.0000000000
0.2164190000 0.0000000000 0.0000000000
0.2319980000 0.0000000000 0.0000000000
0.2474860000 0.0000000000 0.0000000000
0.2628820000 0.0000000000 0.0000000000
0.2782020000 0.0000000000 0.0000000000
0.2934460000 0.0000000000 0.0000000000
0.3086290000 0.0000000000 0.0000000000
0.3237660000 0.0000000000 0.0000000000
0.3388570000 0.0000000000 0.0000000000
0.3539180000 0.0000000000 0.0000000000
0.3689480000 0.0000000000 0.0198367000
0.3839480000 0.0000000000 0.0421149000
0.3989170000 0.0000000000 0.0632335341
0.4138700000 0.0000000000 0.0832380000
0.4287940000 0.0000000000 0.1023580000
0.4437170000 0.0000000000 0.1207900000
0.4586250000 0.0000000000 0.1386430000
0.4735180000 0.0000000000 0.1560390000
0.4883960000 0.0000000000 0.1730370000
0.5032730000 0.0000000000 0.1897150000
0.5181350000 0.0000000000 0.2061190000
0.5329820000 0.0000000000 0.2223090000
0.5478450000 0.0000000000 0.2383000000
0.5626920000 0.0000000000 0.2541240000
0.5775230000 0.0000000000 0.2697950000
0.5923710000 0.0000000000 0.2853590000
0.6072020000 0.0000000000 0.3008320000
0.6220340000 0.0000000000 0.3161970000
0.6368660000 0.0000000000 0.3315020000
0.6516980000 0.0000000000 0.3467310000
0.6665140000 0.0000000000 0.3619130157
0.6813460000 0.0000000000 0.3770350000
0.6961620000 0.0000000000 0.3921260837
0.7109790000 0.0000000000 0.4071721602
0.7258110000 0.0000000000 0.4221870000
0.7406270000 0.0000000000 0.4371861158
0.7554440000 0.0000000000 0.4521550074
0.7702600000 0.0000000000 0.4670940678
0.7850770000 0.0000000000 0.4820330740
0.7998930000 0.0000000000 0.4969410000
0.8147100000 0.0000000000 0.5118330413
0.8295260000 0.0000000000 0.5267259985
0.8443430000 0.0000000000 0.5416040023
0.8591590000 0.0000000000 0.5564810188
0.8739760000 0.0000000000 0.5713439678
0.0000000000 0.0000000000 0.0000000000
0.0000000000 0.0000000000 0.0000000000
0.0000000000 0.0000000000 0.0000000000
0.0000000000 0.0000000000 0.0000000000
0.0000000000 0.0000000000 0.0000000000
0.0000000000 0.0000000000 0.0000000000
0.0000000000 0.0000000000 0.0000000000
0.0000000000 0.0000000000 0.0000000000
0.0130159000 0.0000000000 0.0000000000
0.0320745000 0.0000000000 0.0000000000
0.0511635000 0.0000000000 0.0000000000
0.0695506000 0.0000000000 0.0000000000
0.0873732000 0.0000000000 0.0000000000
0.1047530000 0.0000000000 0.0000000000
0.1217360000 0.0000000000 0.0000000000
0.1383990000 0.0000000000 0.0000000000
0.1546810000 0.0000000000 0.0000000000
0.1706110000 0.0000000000 0.0000000000
0.1863890000 0.0000000000 0.0000000000
0.2020290000 0.0000000000 0.0000000000
0.2175630000 0.0000000000 0.0000000000
0.2329900000 0.0000000000 0.0000000000
0.2483410000 0.0000000000 0.0000000000
0.2636300000 0.0000000000 0.0000000000
0.2788430000 0.0000000000 0.0000000000
0.2939960000 0.0000000000 0.0000000000
0.3091170000 0.0000000000 0.0000000000
0.3241930000 0.0000000000 0.0000000000
0.3392230000 0.0000000000 0.0000000000
0.3542380000 0.0000000000 0.0005798430
0.3692230000 0.0000000000 0.0208743000
0.3841760000 0.0000000000 0.0430152164
0.3991150000 0.0000000000 0.0639658000
0.4140540000 0.0000000000 0.0838483000
0.4289620000 0.0000000000 0.1028760000
0.4438540000 0.0000000000 0.1212180000
0.4587320000 0.0000000000 0.1390100000
0.4736100000 0.0000000000 0.1563440000
0.4884870000 0.0000000000 0.1732970000
0.5033490000 0.0000000000 0.1899440000
0.5181960000 0.0000000000 0.2063170000
0.5330430000 0.0000000000 0.2224770000
0.5478900000 0.0000000000 0.2384370000
0.5627370000 0.0000000000 0.2542460000
0.5775690000 0.0000000000 0.2699020000
0.5924010000 0.0000000000 0.2854510000
0.6072330000 0.0000000000 0.3009080000
0.6220650000 0.0000000000 0.3162740000
0.6368810000 0.0000000000 0.3315630000
0.6517130000 0.0000000000 0.3467770000
0.6665290000 0.0000000000 0.3619590174
0.6813610000 0.0000000000 0.3770810000
0.6961780000 0.0000000000 0.3921570912
0.7109940000 0.0000000000 0.4072021806
0.7258110000 0.0000000000 0.4222170000
0.7406270000 0.0000000000 0.4372011056
0.7554440000 0.0000000000 0.4521710070
0.7702600000 0.0000000000 0.4671090655
0.7850770000 0.0000000000 0.4820480683
0.7998930000 0.0000000000 0.4969560000
0.8147100000 0.0000000000 0.5118490369
0.8295260000 0.0000000000 0.5267409985
0.8443430000 0.0000000000 0.5416190021
0.8591590000 0.0000000000 0.5564810188
0.8739760000 0.0000000000 0.5713439678
0.0000000000 0.0000000000 0.0000000000
0.0000000000 0.0000000000 0.0000000000
0.0000000000 0.0000000000 0.0000000000
0.0000000000 0.0000000000 0.0000000000
0.0000000000 0.0000000000 0.0000000000
0.0000000000 0.0000000000 0.0000000000
0.0000000000 0.0000000000 0.0000000000
0.0000000000 0.0000000000 0.0000000000
0.0138399000 0.0000000000 0.0000000000
0.0327916000 0.0000000000 0.0000000000
0.0516823000 0.0000000000 0.0000000000
0.0699474000 0.0000000000 0.0000000000
0.0876783000 0.0000000000 0.0000000000
0.1049820000 0.0000000000 0.0000000000
0.1219040000 0.0000000000 0.0000000000
0.1385370000 0.0000000000 0.0000000000
0.1549100000 0.0000000000 0.0000000000
0.1710690000 0.0000000000 0.0000000000
0.1870300000 0.0000000000 0.0000000000
0.2028380000 0.0000000000 0.0000000000
0.2185090000 0.0000000000 0.0000000000
0.2339820000 0.0000000000 0.0000000000
0.2491950000 0.0000000000 0.0000000000
0.2643630000 0.0000000000 0.0000000000
0.2794840000 0.0000000000 0.0000000000
0.2945600000 0.0000000000 0.0000000000
0.3095900000 0.0000000000 0.0000000000
0.3246050000 0.0000000000 0.0000000000
0.3395900000 0.0000000000 0.0000000000
0.3545430000 0.0000000000 0.0016174600
0.3694970000 0.0000000000 0.0219120479
0.3844210000 0.0000000000 0.0439192375
0.3993290000 0.0000000000 0.0646982000
0.4142210000 0.0000000000 0.0844587000
0.4291140000 0.0000000000 0.1033800000
0.4439920000 0.0000000000 0.1216450000
0.4588540000 0.0000000000 0.1393760000
0.4737160000 0.0000000000 0.1566490000
0.4885790000 0.0000000000 0.1735560000
0.5034260000 0.0000000000 0.1901580000
0.5182730000 0.0000000000 0.2065000000
0.5331040000 0.0000000000 0.2226290000
0.5479360000 0.0000000000 0.2385750000
0.5627830000 0.0000000000 0.2543680000
0.5776000000 0.0000000000 0.2700080000
0.5924320000 0.0000000000 0.2855420000
0.6072630000 0.0000000000 0.3009840000
0.6220800000 0.0000000000 0.3163350000
0.6369120000 0.0000000000 0.3316240000
0.6517280000 0.0000000000 0.3468380000
0.6665450000 0.0000000000 0.3619900186
0.6813760000 0.0000000000 0.3771110000
0.6961930000 0.0000000000 0.3921870984
0.7110090000 0.0000000000 0.4072332017
0.7258260000 0.0000000000 0.4222480000
0.7406420000 0.0000000000 0.4372320879
0.7554590000 0.0000000000 0.4521860066
0.7702750000 0.0000000000 0.4671240632
0.7850920000 0.0000000000 0.4820480683
0.7999080000 0.0000000000 0.4969710000
0.8147100000 0.0000000000 0.5118640328
0.8295260000 0.0000000000 0.5267409985
0.8443430000 0.0000000000 0.5416190021
0.8591590000 0.0000000000 0.5564970181
0.8739760000 0.0000000000 0.5713589699
0.0000000000 0.0000000000 0.0000000000
0.0000000000 0.0000000000 0.0000000000
0.0000000000 0.0000000000 0.0000000000
0.0000000000 0.0000000000 0.0000000000
0.0000000000 0.0000000000 0.0000000000
0.0000000000 0.0000000000 0.0000000000
0.0000000000 0.0000000000 0.0000000000
0.0000000000 0.0000000000 0.0000000000
0.0150759000 0.0000000000 0.0000000000
0.0339666000 0.0000000000 0.0000000000
0.0525521000 0.0000000000 0.0000000000
0.0705882000 0.0000000000 0.0000000000
0.0881514000 0.0000000000 0.0000000000
0.1053330000 0.0000000000 0.0000000000
0.1221790000 0.0000000000 0.0000000000
0.1387500000 0.0000000000 0.0000000000
0.1550620000 0.0000000000 0.0000000000
0.1711910000 0.0000000000 0.0000000000
0.1871210000 0.0000000000 0.0000000000
0.2029140000 0.0000000000 0.0000000000
0.2185700000 0.0000000000 0.0000000000
0.2341040000 0.0000000000 0.0000000000
0.2495460000 0.0000000000 0.0000000000
0.2649120000 0.0000000000 0.0000000000
0.2801100000 0.0000000000 0.0000000000
0.2951090000 0.0000000000 0.0000000000
0.3100790000 0.0000000000 0.0000000000
0.3250170000 0.0000000000 0.0000000000
0.3399560000 0.0000000000 0.0000000000
0.3548640000 0.0000000000 0.0026550700
0.3697570000 0.0000000000 0.0229721703
0.3846490000 0.0000000000 0.0448034429
0.3995270000 0.0000000000 0.0654307000
0.4144050000 0.0000000000 0.0850690000
0.4292670000 0.0000000000 0.1038830000
0.4441290000 0.0000000000 0.1220720000
0.4589760000 0.0000000000 0.1397270000
0.4738230000 0.0000000000 0.1569540000
0.4886550000 0.0000000000 0.1738160000
0.5035020000 0.0000000000 0.1903870000
0.5183340000 0.0000000000 0.2066990000
0.5331650000 0.0000000000 0.2227970000
0.5479970000 0.0000000000 0.2387120000
0.5628140000 0.0000000000 0.2544900000
0.5776460000 0.0000000000 0.2701150000
0.5924620000 0.0000000000 0.2856340000
0.6072940000 0.0000000000 0.3010600000
0.6221100000 0.0000000000 0.3164110000
0.6369270000 0.0000000000 0.3316700000
0.6517430000 0.0000000000 0.3468830171
0.6665600000 0.0000000000 0.3620360431
0.6813920000 0.0000000000 0.3771570000
0.6962080000 0.0000000000 0.3922181060
0.7110250000 0.0000000000 0.4072632222
0.7258260000 0.0000000000 0.4222630000
0.7406420000 0.0000000000 0.4372470853
0.7554590000 0.0000000000 0.4522010062
0.7702750000 0.0000000000 0.4671400607
0.7850920000 0.0000000000 0.4820630625
0.7999080000 0.0000000000 0.4969710000
0.8147250000 0.0000000000 0.5118790286
0.8295410000 0.0000000000 0.5267569986
0.8443430000 0.0000000000 0.5416340019
0.8591590000 0.0000000000 0.5564970181
0.8739760000 0.0000000000 0.5713589699
0.0000000000 0.0000000000 0.0000000000
0.0000000000 0.0000000000 0.0000000000
0.0000000000 0.0000000000 0.0000000000
0.0000000000 0.0000000000 0.0000000000
0.0000000000 0.0000000000 0.0000000000
0.0000000000 0.0000000000 0.0000000000
0.0000000000 0.0000000000 0.0000000000
0.0000000000 0.0000000000 0.0000000000
0.0154726000 0.0000000000 0.0000000000
0.0346227000 0.0000000000 0.0000000000
0.0534371000 0.0000000000 0.0000000000
0.0714885000 0.0000000000 0.0000000000
0.0888228000 0.0000000000 0.0000000000
0.1058370000 0.0000000000 0.0000000000
0.1225600000 0.0000000000 0.0000000000
0.1390250000 0.0000000000 0.0000000000
0.1552760000 0.0000000000 0.0000000000
0.1713440000 0.0000000000 0.0000000000
0.1872430000 0.0000000000 0.0000000000
0.2030060000 0.0000000000 0.0000000000
0.2186310000 0.0000000000 0.0000000000
0.2341650000 0.0000000000 0.0000000000
0.2495920000 0.0000000000 0.0000000000
0.2649420000 0.0000000000 0.0000000000
0.2802320000 0.0000000000 0.0000000000
0.2954450000 0.0000000000 0.0000000000
0.3105520000 0.0000000000 0.0000000000
0.3254290000 0.0000000000 0.0000000000
0.3403070000 0.0000000000 0.0000000000
0.3551690000 0.0000000000 0.0037079400
0.3700310000 0.0000000000 0.0240024000
0.3848940000 0.0000000000 0.0456855000
0.3997410000 0.0000000000 0.0661631000
0.4145880000 0.0000000000 0.0856641000
0.4294190000 0.0000000000 0.1044020000
0.4442510000 0.0000000000 0.1224990000
0.4590830000 0.0000000000 0.1400930000
0.4739150000 0.0000000000 0.1572590000
0.4887460000 0.0000000000 0.1740750000
0.5035780000 0.0000000000 0.1906160000
0.5183950000 0.0000000000 0.2068970000
0.5332270000 0.0000000000 0.2229650000
0.5480430000 0.0000000000 0.2388650000
0.5628600000 0.0000000000 0.2546120000
0.5776760000 0.0000000000 0.2702220000
0.5925080000 0.0000000000 0.2857250000
0.6073240000 0.0000000000 0.3011370000
0.6221410000 0.0000000000 0.3164720000
0.6369570000 0.0000000000 0.3317310013
0.6517740000 0.0000000000 0.3469290403
0.6665900000 0.0000000000 0.3620810686
0.6813920000 0.0000000000 0.3771880000
0.6962080000 0.0000000000 0.3922481132
0.7110250000 0.0000000000 0.4072942433
0.7258410000 0.0000000000 0.4222930000
0.7406580000 0.0000000000 0.4372630825
0.7554740000 0.0000000000 0.4522320054
0.7702910000 0.0000000000 0.4671550584
0.7850920000 0.0000000000 0.4820780567
0.7999080000 0.0000000000 0.4969860000
0.8147250000 0.0000000000 0.5118790286
0.8295410000 0.0000000000 0.5267719987
0.8443580000 0.0000000000 0.5416340019
0.8591590000 0.0000000000 0.5565120174
0.8739760000 0.0000000000 0.5713589699
0.0000000000 0.0000000000 0.0000000000
0.0000000000 0.0000000000 0.0000000000
0.0000000000 0.0000000000 0.0000000000
0.0000000000 0.0000000000 0.0000000000
0.0000000000 0.0000000000 0.0000000000
0.0000000000 0.0000000000 0.0000000000
0.0000000000 0.0000000000 0.0000000000
0.0000000000 0.0000000000 0.0000000000
0.0155184000 0.0000000000 0.0000000000
0.0348363000 0.0000000000 0.0000000000
0.0537270000 0.0000000000 0.0000000000
0.0718853000 0.0000000000 0.0000000000
0.0894789000 0.0000000000 0.0000000000
0.1064770000 0.0000000000 0.0000000000
0.1230330000 0.0000000000 0.0000000000
0.1393910000 0.0000000000 0.0000000000
0.1555500000 0.0000000000 0.0000000000
0.1715420000 0.0000000000 0.0000000000
0.1873960000 0.0000000000 0.0000000000
0.2031280000 0.0000000000 0.0000000000
0.2187230000 0.0000000000 0.0000000000
0.2342410000 0.0000000000 0.0000000000
0.2496530000 0.0000000000 0.0000000000
0.2649880000 0.0000000000 0.0000000000
0.2802620000 0.0000000000 0.0000000000
0.2954760000 0.0000000000 0.0000000000
0.3106280000 0.0000000000 0.0000000000
0.3257500000 0.0000000000 0.0000000000
0.3406730000 0.0000000000 0.0000000000
0.3554890000 0.0000000000 0.0047455600
0.3703060000 0.0000000000 0.0250401000
0.3851220000 0.0000000000 0.0465553000
0.3999390000 0.0000000000 0.0668803000
0.4147550000 0.0000000000 0.0862593000
0.4295720000 0.0000000000 0.1048910000
0.4443890000 0.0000000000 0.1229270000
0.4592050000 0.0000000000 0.1404440000
0.4740220000 0.0000000000 0.1575650000
0.4888380000 0.0000000000 0.1743340000
0.5036550000 0.0000000000 0.1908290000
0.5184710000 0.0000000000 0.2070800000
0.5332720000 0.0000000000 0.2231330000
0.5480890000 0.0000000000 0.2390020000
0.5629050000 0.0000000000 0.2547340000
0.5777220000 0.0000000000 0.2703290000
0.5925380000 0.0000000000 0.2858170000
0.6073550000 0.0000000000 0.3012130000
0.6221560000 0.0000000000 0.3165330000
0.6369730000 0.0000000000 0.3317920042
0.6517890000 0.0000000000 0.3469900711
0.6666060000 0.0000000000 0.3621270948
0.6814070000 0.0000000000 0.3772340000
0.6962230000 0.0000000000 0.3922941374
0.7110400000 0.0000000000 0.4073092535
0.7258560000 0.0000000000 0.4223090000
0.7406580000 0.0000000000 0.4372930772
0.7554740000 0.0000000000 0.4522470050
0.7702910000 0.0000000000 0.4671850537
0.7851070000 0.0000000000 0.4820940506
0.7999240000 0.0000000000 0.4970020000
0.8147250000 0.0000000000 0.5118940245
0.8295410000 0.0000000000 0.5267719987
0.8443580000 0.0000000000 0.5416500016
0.8591740000 0.0000000000 0.5565120174
0.8739760000 0.0000000000 0.5713739721
0.0000000000 0.0000000000 0.0000000000
0.0000000000 0.0000000000 0.0000000000
0.0000000000 0.0000000000 0.0000000000
0.0000000000 0.0000000000 0.0000000000
0.0000000000 0.0000000000 0.0000000000
0.0000000000 0.0000000000 0.0000000000
0.0000000000 0.0000000000 0.0000000000
0.0000000000 0.0000000000 0.0000000000
0.0152895000 0.0000000000 0.0000000000
0.0347753000 0.0000000000 0.0000000000
0.0538186000 0.0000000000 0.0000000000
0.0720836000 0.0000000000 0.0000000000
0.0897231000 0.0000000000 0.0000000000
0.1068740000 0.0000000000 0.0000000000
0.1236290000 0.0000000000 0.0000000000
0.1398340000 0.0000000000 0.0000000000
0.1558860000 0.0000000000 0.0000000000
0.1718010000 0.0000000000 0.0000000000
0.1875940000 0.0000000000 0.0000000000
0.2032650000 0.0000000000 0.0000000000
0.2188300000 0.0000000000 0.0000000000
0.2343180000 0.0000000000 0.0000000000
0.2497140000 0.0000000000 0.0000000000
0.2650340000 0.0000000000 0.0000000000
0.2802930000 0.0000000000 0.0000000000
0.2955060000 0.0000000000 0.0000000000
0.3106580000 0.0000000000 0.0000000000
0.3257650000 0.0000000000 0.0000000000
0.3408410000 0.0000000000 0.0000000000
0.3557950000 0.0000000000 0.0057984300
0.3705810000 0.0000000000 0.0260929000
0.3853510000 0.0000000000 0.0474250000
0.4001530000 0.0000000000 0.0675975000
0.4149390000 0.0000000000 0.0868696000
0.4297250000 0.0000000000 0.1053940000
0.4445260000 0.0000000000 0.1233390000
0.4593270000 0.0000000000 0.1408100000
0.4741280000 0.0000000000 0.1578700000
0.4889300000 0.0000000000 0.1746090000
0.5037310000 0.0000000000 0.1910580000
0.5185320000 0.0000000000 0.2072790000
0.5333330000 0.0000000000 0.2232850000
0.5481500000 0.0000000000 0.2391390000
0.5629510000 0.0000000000 0.2548410000
0.5777520000 0.0000000000 0.2704360000
0.5925690000 0.0000000000 0.2859080000
0.6073700000 0.0000000000 0.3013050000
0.6221870000 0.0000000000 0.3166090112
0.6370030000 0.0000000000 0.3318530072
0.6518040000 0.0000000000 0.3470360943
0.6666210000 0.0000000000 0.3621731209
0.6814220000 0.0000000000 0.3772640000
0.6962390000 0.0000000000 0.3923251768
0.7110550000 0.0000000000 0.4073402741
0.7258560000 0.0000000000 0.4223390000
0.7406730000 0.0000000000 0.4373080746
0.7554890000 0.0000000000 0.4522620046
0.7702910000 0.0000000000 0.4672010512
0.7851070000 0.0000000000 0.4821090448
0.7999240000 0.0000000000 0.4970170000
0.8147400000 0.0000000000 0.5119100201
0.8295410000 0.0000000000 0.5267869987
0.8443580000 0.0000000000 0.5416650014
0.8591740000 0.0000000000 0.5565270168
0.8739760000 0.0000000000 0.5713739721
0.0000000000 0.0093690400 0.0000000000
0.0000000000 0.0089265300 0.0000000000
0.0000000000 0.0084687600 0.0000000000
0.0000000000 0.0080262500 0.0000000000
0.0000000000 0.0075684700 0.0000000000
0.0000000000 0.0071259600 0.0000000000
0.0000000000 0.0066681900 0.0000000000
0.0000000000 0.0062409400 0.0000000000
0.0151217000 0.0061646400 0.0000000000
0.0344854000 0.0055848000 0.0000000000
0.0537118000 0.0044556300 0.0000000000
0.0721141000 0.0030975800 0.0000000000
0.0898451000 0.0015106400 0.0000000000
0.1070570000 0.0000000000 0.0000000000
0.1238420000 0.0000000000 0.0000000000
0.1402910000 0.0000000000 0.0000000000
0.1562830000 0.0000000000 0.0000000000
0.1720910000 0.0000000000 0.0000000000
0.1878080000 0.0000000000 0.0000000000
0.2034330000 0.0000000000 0.0000000000
0.2189670000 0.0000000000 0.0000000000
0.2344090000 0.0000000000 0.0000000000
0.2497900000 0.0000000000 0.0000000000
0.2650950000 0.0000000000 0.0000000000
0.2803390000 0.0000000000 0.0000000000
0.2955370000 0.0000000000 0.0000000000
0.3106890000 0.0000000000 0.0000000000
0.3257800000 0.0000000000 0.0000000000
0.3408560000 0.0000000000 0.0000000000
0.3558860000 0.0000000000 0.0063935300
0.3708400000 0.0000000000 0.0271305000
0.3855950000 0.0000000000 0.0482795000
0.4003510000 0.0000000000 0.0683146000
0.4151060000 0.0000000000 0.0874495000
0.4298770000 0.0000000000 0.1058980000
0.4446630000 0.0000000000 0.1237660000
0.4594340000 0.0000000000 0.1411610000
0.4742200000 0.0000000000 0.1581750000
0.4890060000 0.0000000000 0.1748530000
0.5038070000 0.0000000000 0.1912720000
0.5185930000 0.0000000000 0.2074620000
0.5333940000 0.0000000000 0.2234530000
0.5481960000 0.0000000000 0.2392770000
0.5629970000 0.0000000000 0.2549630000
0.5777980000 0.0000000000 0.2705420000
0.5925990000 0.0000000000 0.2860000000
0.6074010000 0.0000000000 0.3013810000
0.6222170000 0.0000000000 0.3166700255
0.6370180000 0.0000000000 0.3319140102
0.6518200000 0.0000000000 0.3470821175
0.6666360000 0.0000000000 0.3622191470
0.6814370000 0.0000000000 0.3773100000
0.6962540000 0.0000000000 0.3923552150
0.7110550000 0.0000000000 0.4073702323
0.7258720000 0.0000000000 0.4223700000
0.7406880000 0.0000000000 0.4373390692
0.7554890000 0.0000000000 0.4522770042
0.7703060000 0.0000000000 0.4672160489
0.7851070000 0.0000000000 0.4821240391
0.7999240000 0.0000000000 0.4970320000
0.8147400000 0.0000000000 0.5119100201
0.8295570000 0.0000000000 0.5268019988
0.8443580000 0.0000000000 0.5416650014
0.8591740000 0.0000000000 0.5565270168
0.8739910000 0.0000000000 0.5713889742
0.0000000000 0.0302129000 0.0000000000
0.0000000000 0.0297856000 0.0000000000
0.0000000000 0.0293431000 0.0000000000
0.0000000000 0.0289006000 0.0000000000
0.0000000000 0.0284428000 0.0000000000
0.0000000000 0.0280003000 0.0000000000
0.0000000000 0.0275578000 0.0000000000
0.0000000000 0.0271000000 0.0000000000
0.0154879000 0.0266728000 0.0000000000
0.0344396000 0.0265965000 0.0000000000
0.0534524000 0.0260319000 0.0000000000
0.0720073000 0.0247349000 0.0000000000
0.0898604000 0.0231826171 0.0000000000
0.1071490000 0.0213626000 0.0000000000
0.1239950000 0.0192569000 0.0000000000
0.1404750000 0.0168612000 0.0000000000
0.1566640000 0.0141146000 0.0000000000
0.1724270000 0.0137789000 0.0000000000
0.1880670000 0.0140993000 0.0000000000
0.2036160000 0.0144198000 0.0000000000
0.2191040000 0.0147097000 0.0000000000
0.2345160000 0.0149996000 0.0000000000
0.2498660000 0.0152743000 0.0000000000
0.2651560000 0.0155489000 0.0000000000
0.2803850000 0.0158083000 0.0000000000
0.2955670000 0.0160830000 0.0000000000
0.3107040000 0.0163577000 0.0000000000
0.3258110000 0.0166629000 0.0000000000
0.3408710000 0.0169680000 0.0000000000
0.3559010000 0.0173037000 0.0077515800
0.3709010000 0.0168460000 0.0276951000
0.3858240000 0.0148623000 0.0491340000
0.4005490000 0.0111238000 0.0690166000
0.4152900000 0.0068055200 0.0880446000
0.4300300000 0.0018616000 0.1063860000
0.4447850000 0.0000000000 0.1241780000
0.4595560000 0.0000000000 0.1415120000
0.4743270000 0.0000000000 0.1584800000
0.4890970000 0.0000000000 0.1751130000
0.5038830000 0.0000000000 0.1915010000
0.5186690000 0.0000000000 0.2076600000
0.5334550000 0.0000000000 0.2236210000
0.5482410000 0.0000000000 0.2394290000
0.5630430000 0.0000000000 0.2550850000
0.5778290000 0.0000000000 0.2706340000
0.5926300000 0.0000000000 0.2860910000
0.6074310000 0.0000000000 0.3014570000
0.6222320000 0.0000000000 0.3167470434
0.6370340000 0.0000000000 0.3319750131
0.6518500000 0.0000000000 0.3471431483
0.6666510000 0.0000000000 0.3622641725
0.6814530000 0.0000000000 0.3773400000
0.6962690000 0.0000000000 0.3923862545
0.7110700000 0.0000000000 0.4074011890
0.7258870000 0.0000000000 0.4223850000
0.7406880000 0.0000000000 0.4373540665
0.7555050000 0.0000000000 0.4522930037
0.7703060000 0.0000000000 0.4672310466
0.7851220000 0.0000000000 0.4821390333
0.7999240000 0.0000000000 0.4970320000
0.8147400000 0.0000000000 0.5119250159
0.8295570000 0.0000000000 0.5268019988
0.8443580000 0.0000000000 0.5416800012
0.8591740000 0.0000000000 0.5565420161
0.8739910000 0.0000000000 0.5713889742
0.0000000000 0.0492866000 0.0000000000
0.0000000000 0.0489204000 0.0000000000
0.0000000000 0.0485542000 0.0000000000
0.0000000000 0.0481880000 0.0000000000
0.0000000000 0.0478065000 0.0000000000
0.0000000000 0.0474403000 0.0000000000
0.0000000000 0.0470588000 0.0000000000
0.0000000000 0.0466926000 0.0000000000
0.0173342000 0.0463111000 0.0000000000
0.0347906000 0.0459449000 0.0000000000
0.0534371000 0.0458686000 0.0000000000
0.0717784000 0.0453040000 0.0000000000
0.0897688000 0.0440458703 0.0000000000
0.1071640000 0.0424964000 0.0000000000
0.1240860000 0.0406653000 0.0000000000
0.1406120000 0.0385138000 0.0000000000
0.1568320000 0.0359960000 0.0000000000
0.1728080000 0.0330510000 0.0000000000
0.1883570000 0.0330053000 0.0000000000
0.2038450000 0.0333562000 0.0000000000
0.2192720000 0.0336919000 0.0000000000
0.2346530000 0.0339971000 0.0000000000
0.2499580000 0.0343023000 0.0000000000
0.2652320000 0.0345922000 0.0000000000
