bundles/resolve-cinematic-luts/Gamut/_Conversion/Sony/Sony A7SIII BaseLUTs/BaseLUT - Sony A7SIII - S-Log3 to DWG.cube
TITLE "BaseLUT - Sony A7SIII - S-Log3 to DWG"
# Developed for converting S-Log3 / S-Gamut3.Cine to DaVinci Intermediate / DaVinci Wide Gamut. Version 1.0 - 05/01/2025 - Copyright 2025 Gamut, LLC.
LUT_3D_SIZE 5
0.0000000000 0.0000000000 0.0000000000
0.1525750000 0.0000000000 0.0000000000
0.3989170000 0.0000000000 0.0632335341
0.6368660000 0.0000000000 0.3315020000
0.8739760000 0.0000000000 0.5713439678
0.0000000000 0.1683380000 0.0000000000
0.1570460000 0.1656980000 0.0000000000
0.4010070000 0.1574580000 0.0839399000
0.6373390000 0.0698558000 0.3327840095
0.8740220000 0.0000000000 0.5714809875
0.1411150000 0.4127410000 0.0579690000
0.2253150696 0.4124820000 0.0660563000
0.4028080000 0.4104220000 0.1149770000
0.6389110000 0.4032350000 0.3463190000
0.8744180000 0.3240560000 0.5725340000
0.3939730000 0.6505070000 0.3276260000
0.4051420000 0.6504770000 0.3282830000
0.4670020927 0.6502630000 0.3333330000
0.6406960000 0.6482030000 0.3720150000
0.8760050000 0.6411230000 0.5856871089
0.6325320000 0.8875870000 0.5675900000
0.6337530000 0.8875870000 0.5676510000
0.6430150000 0.8875560000 0.5681850000
0.7044939174 0.8873430000 0.5730980000
0.8778060000 0.8852980000 0.6109410000
0.0000000000 0.0000000000 0.1707030000
0.1365220000 0.0000000000 0.1735560000
0.3972990000 0.0000000000 0.2117040000
0.6366980000 0.0000000000 0.3544980000
0.8739450000 0.0000000000 0.5739680000
0.0000000000 0.1813530000 0.1763030000
0.1790203756 0.1790203756 0.1790203756
0.4018010000 0.1727320000 0.2156560000
0.6371710000 0.0819867000 0.3555350000
0.8740060000 0.0000000000 0.5741050000
0.1644160000 0.4141150000 0.2126340000
0.2374300000 0.4138550000 0.2145720000
0.4051730000 0.4118100000 0.2288240000
0.6391550000 0.4056760000 0.3658050000
0.8744030000 0.3252160000 0.5751280000
0.3965510000 0.6506450000 0.3519800000
0.4074621436 0.6506290000 0.3524990000
0.4682990000 0.6504010000 0.3565420000
0.6409550000 0.6483560000 0.3886320000
0.8760360000 0.6413820000 0.5879000000
0.6328070000 0.8876020000 0.5703819869
0.6340280000 0.8876020000 0.5704429840
0.6432590000 0.8875720000 0.5709618567
0.7046309411 0.8873580000 0.5757530000
0.8778210000 0.8853130000 0.6128020000
0.1747770000 0.1497980000 0.4148320000
0.2318910000 0.1412380000 0.4151220000
0.3850920000 0.0169680000 0.4173800000
0.6353400000 0.0000000000 0.4535130000
0.8738080000 0.0000000000 0.5927670000
0.1885560000 0.2419930044 0.4154120000
0.2507210000 0.2406200153 0.4156860000
0.3899600000 0.2073850000 0.4179290000
0.6358280000 0.1476010000 0.4539250000
0.8738540000 0.0000000000 0.5928740000
0.2593880000 0.4243530000 0.4198370000
0.2957500000 0.4241090000 0.4201110000
0.4222480000 0.4222480000 0.4222480000
0.6395820000 0.4163420000 0.4570990000
0.8742660000 0.3339590000 0.5937440000
0.4134430000 0.6517890000 0.4543070000
0.4230870000 0.6517590000 0.4545050000
0.4780650000 0.6515450000 0.4560620000
0.6429240000 0.6495160000 0.4697640000
0.8762490000 0.6434270000 0.6039060000
0.6349430000 0.8877240000 0.5902650000
0.6361490000 0.8877240000 0.5903110000
0.6451970938 0.8876940000 0.5907530000
0.7057300000 0.8874800000 0.5947360000
0.8780350000 0.8854350000 0.6265200000
0.4233920000 0.4014500000 0.6525670000
0.4312660000 0.4009160000 0.6525980000
0.4737470000 0.3944300000 0.6528420000
0.6232550000 0.2989850000 0.6550700000
0.8724500000 0.0000000000 0.6910200000
0.4247960000 0.4142670000 0.6526280000
0.4334780000 0.4139930000 0.6526590000
0.4758830000 0.4085150000 0.6529030000
0.6237890000 0.3308310000 0.6551310000
0.8725110000 0.0000000000 0.6910660000
0.4352330000 0.4823990115 0.6531170000
0.4431370000 0.4822610177 0.6531470000
0.4909290000 0.4811470000 0.6533760000
0.6278320000 0.4491950000 0.6556040000
0.8729080000 0.3929050017 0.6914020000
0.5014570000 0.6619670000 0.6575110000
0.5057760000 0.6619520000 0.6575420000
0.5348590000 0.6617530000 0.6577710000
0.6598918739 0.6598918739 0.6598918739
0.8766610000 0.6540170000 0.6945600000
0.6516520000 0.8888690000 0.6917980000
0.6527050000 0.8888690000 0.6918140000
0.6607310000 0.8888380000 0.6919810000
0.7154500000 0.8886240000 0.6935380000
0.8800180000 0.8865950000 0.7071640000
0.6615550000 0.6399020000 0.8896470000
0.6625160000 0.6398720000 0.8896620000
0.6690170000 0.6394140000 0.8896770000
0.7112540000 0.6330210000 0.8899210000
0.8603800000 0.5398640000 0.8921490000
0.6617070000 0.6413210000 0.8896620000
0.6626690000 0.6412910000 0.8896620000
0.6693520000 0.6408790000 0.8896930000
0.7114820000 0.6345920000 0.8899210000
0.8604410000 0.5436030000 0.8921640000
0.6628670000 0.6519420000 0.8897080000
0.6638130000 0.6519110000 0.8897080000
0.6710610000 0.6516980000 0.8897380000
0.7132680000 0.6462500000 0.8899820000
0.8608830000 0.5693600000 0.8922100000
0.6732130000 0.7197680058 0.8901810000
0.6740830000 0.7197530061 0.8901960000
0.6806740000 0.7196310083 0.8902110000
0.7282670000 0.7185170000 0.8904550000
0.8649420000 0.6866870000 0.8926830000
0.7389940000 0.8969710000 0.8945750000
0.7394520000 0.8969710000 0.8945910000
0.7430690000 0.8969710000 0.8946060000
0.7720910000 0.8969710000 0.8948350000
0.8969271751 0.8969271751 0.8969271751
