bundles/resolve-cinematic-luts/Phantom Luts/Canon Alexa LUT/ATOMOS Monitoring LUTs/C-Log 3/IceBlue Canon CL3 AML.cube
TITLE "Generated by Resolve"
LUT_3D_SIZE 5
0.0925154 0.103517 0.102358
0.388663 0.0978866 0.123278
0.653056 0.132692 0.250797
0.703624 0.147066 0.324941
0.706889 0.145144 0.36527
0.086717 0.362112 0.129305
0.267384 0.304616 0.099443
0.628672 0.239872 0.137392
0.661463 0.140658 0.19968
0.663859 0.138918 0.211917
0.191562 0.722744 0.329366
0.201907 0.710613 0.256229
0.650721 0.676768 0.21326
0.832395 0.686885 0.295659
0.834119 0.693187 0.299001
0.248981 0.80499 0.437675
0.256489 0.79057 0.324331
0.565301 0.843198 0.322316
0.894469 0.877791 0.433234
0.902434 0.879484 0.435599
0.249226 0.809949 0.47567
0.254826 0.791669 0.331518
0.650584 0.853452 0.341527
0.901823 0.878019 0.436088
0.900954 0.879744 0.436957
0.0771191 0.115328 0.304234
0.368414 0.0995956 0.354177
0.674235 0.133669 0.420127
0.718166 0.150942 0.47274
0.713619 0.150744 0.502419
0.0844587 0.287678 0.27631
0.220722 0.257862 0.266453
0.632227 0.124147 0.25864
0.703853 0.145998 0.334203
0.707118 0.145418 0.36347
0.156802 0.684749 0.435172
0.167544 0.693309 0.329595
0.621012 0.659846 0.195575
0.826825 0.650278 0.281575
0.827192 0.654841 0.283375
0.258961 0.819944 0.567147
0.249714 0.80795 0.462058
0.441962 0.829511 0.321965
0.884611 0.876249 0.427039
0.901839 0.87924 0.439612
0.266987 0.824445 0.605539
0.251164 0.813001 0.504768
0.505699 0.83682 0.321019
0.884657 0.87538 0.427314
0.900114 0.879576 0.441123
0.090959 0.144472 0.545815
0.356695 0.128313 0.626596
0.619501 0.141512 0.619028
0.683207 0.163546 0.657954
0.67332 0.166247 0.680751
0.0783703 0.237186 0.525231
0.0962081 0.141329 0.542977
0.586099 0.130556 0.60145
0.695613 0.159365 0.616144
0.687572 0.161471 0.639658
0.151339 0.620737 0.604868
0.148333 0.616526 0.601236
0.578698 0.624216 0.631647
0.936568 0.553903 0.624643
0.93434 0.555581 0.647776
0.291875 0.821637 0.721157
0.294194 0.821912 0.700465
0.258122 0.817365 0.548241
0.873152 0.88423 0.484367
0.913375 0.888975 0.563287
0.299733 0.821958 0.757763
0.301549 0.820111 0.735485
0.266575 0.821775 0.593469
0.857038 0.887144 0.517555
0.911238 0.892134 0.528664
0.114458 0.207401 0.641291
0.352651 0.199023 0.737102
0.601297 0.163729 0.713436
0.665507 0.169085 0.7019
0.664973 0.169146 0.702602
0.0942092 0.285328 0.637446
0.104829 0.20824 0.632502
0.558022 0.17499 0.731334
0.666941 0.168872 0.700282
0.66479 0.169177 0.702815
0.173205 0.597452 0.72285
0.168917 0.583154 0.72726
0.427726 0.553429 0.88072
0.872297 0.462974 0.893797
0.870527 0.470695 0.899306
0.318441 0.82707 0.818692
0.325368 0.824781 0.813962
0.308904 0.809674 0.799176
0.851102 0.866972 0.871672
0.909743 0.865919 0.877714
0.323308 0.831754 0.827863
0.333074 0.829465 0.824353
0.319905 0.824109 0.807401
0.841672 0.906111 0.882628
0.924865 0.918425 0.904356
0.130968 0.206455 0.654597
0.365255 0.198642 0.739391
0.61001 0.161318 0.709072
0.665507 0.169085 0.701915
0.665049 0.169146 0.702525
0.0937819 0.280797 0.635355
0.115862 0.207401 0.643229
0.565209 0.173159 0.72871
0.666682 0.168902 0.700603
0.664866 0.169177 0.702785
0.178912 0.598138 0.741115
0.170092 0.580453 0.734401
0.424414 0.538506 0.878462
0.861631 0.447288 0.887953
0.863188 0.456367 0.892836
0.325948 0.831327 0.826917
0.333654 0.827253 0.823087
0.317327 0.81004 0.814588
0.834714 0.858152 0.897963
0.904219 0.857557 0.903471
0.32015 0.832532 0.828794
0.336324 0.828824 0.823835
0.337255 0.82974 0.824582
0.834073 0.90277 0.906416
0.924071 0.918669 0.919951
