bundles/resolve-cinematic-luts/Phantom Luts/Canon Alexa LUT/ATOMOS Monitoring LUTs/C-Log 3/IceBlue Canon CL3-Legacy AML.cube
TITLE "Generated by Resolve"
LUT_3D_SIZE 9
0.101686 0.112062 0.11368
0.1673 0.110201 0.115434
0.341009 0.109545 0.121248
0.520684 0.116289 0.15816
0.641367 0.140932 0.223972
0.698619 0.15967 0.279713
0.704112 0.160342 0.299794
0.70663 0.160037 0.312139
0.70901 0.157382 0.338247
0.103365 0.145235 0.121813
0.112184 0.125017 0.116335
0.229389 0.127413 0.112306
0.462806 0.114672 0.107134
0.592523 0.130602 0.155596
0.660395 0.151202 0.202502
0.670802 0.153811 0.218219
0.680842 0.156298 0.234653
0.687877 0.15433 0.259648
0.0993515 0.313939 0.132555
0.102388 0.289525 0.123262
0.224033 0.257527 0.115282
0.444068 0.250309 0.110796
0.59704 0.20383 0.129274
0.659327 0.153414 0.181064
0.656977 0.151827 0.186023
0.656718 0.151354 0.188373
0.659663 0.149645 0.198093
0.103578 0.510826 0.171237
0.106264 0.51223 0.14023
0.118578 0.482444 0.126162
0.417273 0.456458 0.108522
0.619364 0.466407 0.146868
0.768963 0.417273 0.226215
0.764324 0.378073 0.223056
0.752712 0.362097 0.213901
0.762325 0.3776 0.221912
0.189364 0.703593 0.298344
0.209155 0.713619 0.265873
0.197192 0.693294 0.245121
0.269017 0.672328 0.194644
0.616876 0.644465 0.192279
0.765332 0.658305 0.256504
0.824811 0.659083 0.287007
0.82414 0.653407 0.285695
0.826535 0.665766 0.289967
0.259937 0.801053 0.388052
0.266026 0.795804 0.345892
0.269612 0.792477 0.323919
0.349905 0.809705 0.314794
0.612482 0.838178 0.30103
0.797803 0.832258 0.353231
0.891051 0.843214 0.399924
0.890272 0.841398 0.400229
0.896452 0.850568 0.40766
0.259831 0.804135 0.413504
0.260975 0.800336 0.38114
0.268345 0.792706 0.325002
0.332067 0.806821 0.318288
0.541863 0.837827 0.315435
0.785138 0.864729 0.38175
0.900969 0.877272 0.432502
0.91104 0.87834 0.436377
0.910048 0.878508 0.437385
0.259083 0.807187 0.438437
0.260502 0.800366 0.382834
0.266285 0.793133 0.329763
0.315999 0.803998 0.322179
0.50695 0.834623 0.315938
0.773053 0.862669 0.374975
0.895003 0.875883 0.428809
0.912337 0.877882 0.437659
0.908583 0.878782 0.438499
0.258427 0.808911 0.448295
0.260548 0.801862 0.391485
0.266621 0.793378 0.330205
0.349493 0.810773 0.319005
0.627298 0.847959 0.331334
0.820325 0.867277 0.395071
0.909453 0.877455 0.436042
0.912428 0.877913 0.436973
0.90869 0.878874 0.437339
0.0983139 0.113939 0.143297
0.157504 0.112062 0.169909
0.345571 0.109499 0.221256
0.534066 0.115084 0.265934
0.659007 0.138308 0.315602
0.715267 0.159945 0.360693
0.718929 0.160525 0.381979
0.721386 0.16112 0.396246
0.720729 0.15996 0.414771
0.102251 0.119631 0.121843
0.101762 0.112291 0.113985
0.27042 0.109453 0.128573
0.496681 0.112566 0.165408
0.630671 0.134585 0.230762
0.700526 0.157427 0.294987
0.705547 0.158251 0.315328
0.707759 0.158145 0.327031
0.709072 0.156634 0.343725
0.101625 0.270832 0.187366
0.100908 0.269551 0.134493
0.196963 0.238041 0.117388
0.455756 0.200961 0.111711
0.585077 0.138109 0.132586
0.660777 0.150607 0.203906
0.66389 0.151446 0.209293
0.672312 0.153506 0.221668
0.674662 0.151919 0.231708
0.0995956 0.484733 0.224598
0.100725 0.490089 0.16556
0.103838 0.478874 0.13019
0.390677 0.446555 0.106722
0.62501 0.441703 0.145434
0.758267 0.375067 0.218647
0.738277 0.334478 0.203372
0.729534 0.314351 0.198108
0.742336 0.335561 0.20856
0.166064 0.682475 0.334798
0.178958 0.688991 0.291447
0.196185 0.696315 0.254261
0.228382 0.662303 0.19971
0.605188 0.635889 0.185428
0.765988 0.647486 0.253498
0.823133 0.643671 0.281773
0.822705 0.637308 0.280262
0.823301 0.650629 0.283787
0.258137 0.807858 0.445274
0.261189 0.801312 0.387182
0.266682 0.795361 0.343297
0.320623 0.803891 0.316747
0.580179 0.834653 0.295979
0.78851 0.824384 0.345113
0.886412 0.833829 0.39263
0.884611 0.830518 0.391546
0.890806 0.841611 0.398169
0.259007 0.812055 0.478691
0.258808 0.804883 0.418524
0.261585 0.799863 0.378393
0.286763 0.797192 0.324102
0.483848 0.832349 0.315877
0.767758 0.863767 0.373465
0.895476 0.876738 0.429862
0.910826 0.878264 0.437827
0.909712 0.878477 0.43859
0.259556 0.814191 0.497337
0.257862 0.807843 0.442832
0.260471 0.800168 0.383139
0.270069 0.793408 0.327092
0.455894 0.829358 0.318379
0.755123 0.860624 0.366552
0.887572 0.874861 0.424338
0.912428 0.877836 0.437736
0.908873 0.878813 0.437369
0.261311 0.814404 0.502098
0.258915 0.809186 0.456062
0.260655 0.800229 0.381109
0.317906 0.804257 0.321416
0.587549 0.843458 0.324193
0.806226 0.866163 0.389563
0.903166 0.876753 0.433494
0.912322 0.877882 0.437659
0.908217 0.878843 0.439017
0.0899825 0.119463 0.264668
0.177417 0.113634 0.281788
0.318441 0.111254 0.309041
0.527916 0.11487 0.364263
0.669963 0.141054 0.395071
0.727047 0.163149 0.427756
0.729213 0.164294 0.447318
0.729412 0.164691 0.460075
0.726589 0.16408 0.480171
0.0941176 0.129686 0.198383
0.0931563 0.118227 0.240314
0.256428 0.111589 0.267903
0.50959 0.113085 0.301198
0.650446 0.135103 0.336233
0.717205 0.160113 0.374548
0.720409 0.160739 0.392874
0.722683 0.161395 0.406058
0.722972 0.160998 0.428702
0.0976272 0.239689 0.23566
0.0972763 0.227543 0.226459
0.185992 0.216281 0.227268
0.489143 0.163256 0.208469
0.616068 0.130556 0.228199
0.700282 0.15877 0.288228
0.705104 0.159121 0.308461
0.707454 0.159228 0.319387
0.709178 0.157809 0.336553
0.0992142 0.451362 0.293523
0.0985428 0.454368 0.252934
0.0983902 0.459815 0.180652
0.360372 0.436851 0.110994
0.642557 0.393194 0.162524
0.735103 0.30724 0.211353
0.712734 0.2551 0.196292
0.703975 0.225834 0.19443
0.716075 0.245197 0.207584
0.145663 0.652888 0.385748
0.152331 0.661601 0.340887
0.16112 0.666224 0.289387
0.189883 0.651347 0.203738
0.585321 0.627283 0.175601
0.765499 0.63093 0.248142
0.821424 0.621118 0.275227
0.819867 0.611093 0.272725
0.820966 0.625025 0.276066
0.259449 0.814725 0.504631
0.259098 0.809979 0.462181
0.26157 0.802915 0.40354
0.272938 0.793683 0.326665
0.514702 0.828244 0.292454
0.774914 0.813107 0.333623
0.878111 0.819074 0.37969
0.874556 0.812711 0.376333
0.879622 0.821805 0.382971
0.263981 0.818875 0.539681
0.259648 0.813916 0.495216
0.25893 0.806745 0.435294
0.26717 0.79379 0.333165
0.419287 0.824277 0.31931
0.742458 0.860166 0.361089
0.888457 0.875593 0.425208
0.910582 0.878172 0.439414
0.909697 0.878477 0.438697
0.266667 0.821057 0.559655
0.261433 0.816785 0.518807
0.25835 0.809552 0.460227
0.263966 0.796246 0.351385
0.394018 0.820264 0.320577
0.728115 0.856947 0.35285
0.876799 0.873137 0.417136
0.912459 0.877714 0.439017
0.908995 0.878584 0.439414
0.26952 0.823362 0.578958
0.263859 0.82031 0.547784
0.25864 0.81178 0.47744
0.266133 0.793759 0.335897
0.482017 0.831571 0.315831
0.771481 0.862577 0.374578
0.888121 0.87512 0.425437
0.912291 0.877867 0.437919
0.907729 0.878859 0.44036
0.0856184 0.127291 0.425437
0.181643 0.1187 0.454643
0.326452 0.115297 0.466255
0.498833 0.11667 0.479362
0.650828 0.140658 0.500938
0.720623 0.164813 0.520958
0.717876 0.165545 0.538247
0.715618 0.165972 0.54963
0.710155 0.16669 0.568139
0.0843824 0.147341 0.379187
0.0883345 0.126162 0.416907
0.236728 0.117006 0.456748
0.472282 0.115084 0.465385
0.643809 0.136553 0.474525
0.727001 0.165103 0.489158
0.724224 0.164935 0.504189
0.72195 0.164782 0.514946
0.715862 0.164645 0.537743
0.0865644 0.223789 0.356695
0.0840772 0.20235 0.381781
0.108278 0.163882 0.430152
0.431968 0.120638 0.445014
0.630762 0.130632 0.418631
0.729107 0.164172 0.434516
0.730709 0.165225 0.450553
0.730297 0.165225 0.461006
0.727169 0.164599 0.482918
0.0971084 0.421561 0.400214
0.0957961 0.416876 0.398276
0.0951553 0.406027 0.391226
0.36173 0.408591 0.410925
0.687816 0.351598 0.389746
0.794583 0.271778 0.387503
0.764004 0.221668 0.374807
0.74493 0.194125 0.367315
0.761791 0.215991 0.391455
0.13579 0.618036 0.472648
0.134752 0.620066 0.455512
0.13257 0.61976 0.424735
0.140002 0.628702 0.316335
0.547799 0.614771 0.264073
0.814725 0.6047 0.335103
0.870436 0.576272 0.357733
0.865125 0.562997 0.353597
0.874937 0.579095 0.37113
0.256367 0.804639 0.580224
0.259007 0.808148 0.561395
0.259754 0.810285 0.531716
0.258595 0.806378 0.440726
0.362585 0.811261 0.312123
0.747677 0.792142 0.312963
0.864897 0.790921 0.358144
0.859663 0.780194 0.351583
0.864134 0.788418 0.358526
0.27744 0.827604 0.620371
0.272953 0.825406 0.597147
0.267857 0.8215 0.563882
0.259678 0.810407 0.468986
0.328939 0.806653 0.323369
0.696376 0.854749 0.344793
0.874922 0.873396 0.416358
0.910872 0.878172 0.440085
0.909834 0.878355 0.441306
0.281254 0.830335 0.637446
0.276814 0.827741 0.616358
0.270314 0.823758 0.583368
0.2598 0.81297 0.491524
0.291814 0.798505 0.325689
0.675303 0.853071 0.342977
0.855436 0.870649 0.407904
0.91342 0.877302 0.442023
0.909667 0.878218 0.443
0.286152 0.82974 0.662348
0.284215 0.830579 0.649607
0.276692 0.827924 0.616907
0.261936 0.815702 0.517281
0.338613 0.809293 0.324788
0.704173 0.85539 0.348669
0.865431 0.87158 0.411124
0.912306 0.877806 0.440314
0.90837 0.878752 0.441306
0.0902113 0.141466 0.527871
0.180591 0.132555 0.577386
0.318929 0.129366 0.605188
0.470024 0.130388 0.610788
0.61326 0.147127 0.608911
0.698711 0.173526 0.633112
0.693065 0.176272 0.65478
0.688991 0.177874 0.667201
0.680613 0.179629 0.683009
0.0836347 0.170947 0.518395
0.0923018 0.140261 0.528374
0.217548 0.131548 0.588785
0.435767 0.129885 0.612528
0.600656 0.143572 0.60354
0.702266 0.171756 0.618189
0.698283 0.173739 0.634791
0.69546 0.174945 0.645594
0.687343 0.177157 0.664469
0.0840009 0.204959 0.504005
0.0831006 0.180606 0.512367
0.0934615 0.13933 0.52285
0.365103 0.127962 0.603616
0.577737 0.136492 0.590661
0.710384 0.16936 0.587655
0.707912 0.170184 0.599878
0.705303 0.171023 0.609964
0.698238 0.172625 0.628794
0.0958114 0.402884 0.526558
0.0941787 0.388373 0.536583
0.092668 0.363058 0.546334
0.221637 0.320912 0.626535
0.621653 0.262455 0.646174
0.738918 0.18349 0.542809
0.725292 0.170367 0.534951
0.723186 0.168261 0.53611
0.719234 0.169848 0.55697
0.139773 0.588525 0.57258
0.139208 0.588266 0.572045
0.137194 0.583947 0.569024
0.132052 0.572061 0.560021
0.542382 0.587274 0.594232
0.860929 0.556222 0.589532
0.932036 0.519249 0.587488
0.928557 0.502281 0.589395
0.92961 0.519646 0.609766
0.241596 0.758663 0.647379
0.242023 0.758984 0.640375
0.237522 0.757351 0.628763
0.226307 0.753353 0.597482
0.32137 0.810254 0.533516
0.699489 0.784695 0.493004
0.90692 0.770245 0.539986
0.916197 0.758495 0.547463
0.909178 0.768261 0.579385
0.293873 0.822278 0.699535
0.297948 0.822904 0.690913
0.295552 0.825147 0.678904
0.288075 0.829465 0.64831
0.263294 0.816251 0.520653
0.591272 0.864958 0.450858
0.873732 0.884764 0.474372
0.923232 0.890166 0.511254
0.920775 0.891035 0.548104
0.293629 0.821408 0.711818
0.298528 0.82089 0.703105
0.296254 0.823529 0.690272
0.288914 0.82916 0.658869
0.265034 0.817731 0.537743
0.556695 0.859632 0.430655
0.840253 0.876463 0.429892
0.918776 0.887861 0.490578
0.917861 0.88957 0.508034
0.300816 0.82005 0.74078
0.304662 0.818738 0.732174
0.301366 0.819394 0.714641
0.293111 0.825727 0.680415
0.268605 0.820859 0.565637
0.634119 0.871046 0.527947
0.854215 0.887434 0.499474
0.919493 0.890318 0.509163
0.918181 0.890715 0.515435
0.0944991 0.18262 0.595209
0.175937 0.168154 0.649332
0.296681 0.165698 0.689876
0.438926 0.166674 0.716258
0.570306 0.164981 0.710246
0.66746 0.184283 0.714946
0.667262 0.184253 0.714977
0.667857 0.184161 0.714244
0.666697 0.184329 0.715877
0.0895857 0.200397 0.58703
0.0952926 0.181201 0.5953
0.199573 0.167514 0.658457
0.398764 0.166903 0.712184
0.553307 0.164736 0.712947
0.669078 0.184024 0.712902
0.667933 0.184146 0.714122
0.667414 0.184237 0.714855
0.665629 0.184512 0.717021
0.0905165 0.22681 0.58407
0.0890974 0.202213 0.582483
0.0948653 0.176181 0.587518
0.32401 0.163088 0.692699
0.52694 0.162676 0.709529
0.672862 0.183246 0.707362
0.671092 0.183642 0.710445
0.670253 0.183795 0.71165
0.666545 0.184344 0.716106
0.103487 0.373983 0.60911
0.102785 0.356252 0.615778
0.100938 0.325704 0.619043
0.151858 0.27657 0.667506
0.503609 0.222553 0.750896
0.664454 0.179065 0.687663
0.68159 0.180087 0.685283
0.680385 0.180423 0.688548
0.675486 0.181659 0.696986
0.154131 0.581308 0.649454
0.153307 0.576226 0.653986
0.150881 0.565332 0.658457
0.144717 0.536675 0.665705
0.448005 0.544564 0.794522
0.7953 0.503029 0.827588
0.904845 0.454643 0.799802
0.896208 0.438788 0.795407
0.897383 0.461448 0.817914
0.242527 0.729747 0.718364
0.243046 0.728557 0.716976
0.239918 0.723995 0.713161
0.231189 0.713741 0.703899
0.274449 0.716945 0.708034
0.701869 0.746227 0.755611
0.922469 0.723232 0.756207
0.934096 0.707729 0.756954
0.922637 0.721325 0.773129
0.309773 0.819089 0.774701
0.31426 0.818158 0.768643
0.312993 0.818067 0.76022
0.308293 0.818296 0.74287
0.295644 0.820401 0.706065
0.564614 0.877531 0.6981
0.831357 0.887098 0.716365
0.921401 0.881086 0.739376
0.917556 0.882658 0.766812
0.311818 0.819211 0.792035
0.317693 0.817929 0.783886
0.315724 0.817777 0.774105
0.309102 0.818677 0.752194
0.298039 0.822171 0.70695
0.485206 0.870481 0.672236
0.799283 0.898344 0.720317
0.924712 0.910521 0.787549
0.926223 0.911833 0.816358
0.321279 0.823804 0.812543
0.326955 0.821012 0.806851
0.323293 0.817807 0.79585
0.314504 0.818204 0.772457
0.302434 0.82266 0.723873
0.575387 0.878569 0.730449
0.821515 0.901961 0.759533
0.918975 0.912306 0.80444
0.922377 0.91342 0.823255
0.103975 0.188251 0.614832
0.193484 0.182513 0.672496
0.304997 0.179492 0.710155
0.444221 0.177005 0.733974
0.578592 0.171145 0.724224
0.666789 0.184314 0.71574
0.666819 0.184329 0.715602
0.667506 0.184207 0.714717
0.666819 0.184314 0.71574
0.0908522 0.202808 0.596811
0.103777 0.188632 0.615213
0.206317 0.182406 0.677867
0.401129 0.177661 0.729549
0.557626 0.171023 0.727016
0.666835 0.184298 0.715709
0.666957 0.184298 0.71548
0.666789 0.184314 0.715648
0.666209 0.184405 0.716503
0.0963912 0.247318 0.620813
0.0915541 0.210712 0.601709
0.0998093 0.189654 0.610437
0.322438 0.178988 0.714549
0.523339 0.172763 0.73164
0.667094 0.184268 0.715328
0.667918 0.184161 0.714199
0.667674 0.184192 0.714488
0.666316 0.184375 0.71635
0.112108 0.360067 0.655558
0.110338 0.341787 0.657542
0.104631 0.306294 0.64622
0.121889 0.236484 0.649042
0.446921 0.191882 0.744945
0.636957 0.179385 0.719631
0.667933 0.184192 0.714214
0.667857 0.184192 0.714336
0.666773 0.184329 0.715938
0.16463 0.56318 0.706127
0.163882 0.557656 0.710155
0.161624 0.547677 0.713314
0.154177 0.518975 0.714076
0.381415 0.509651 0.850019
0.729 0.47631 0.917388
0.84863 0.425635 0.875715
0.83949 0.409262 0.865797
0.848112 0.43386 0.883253
0.257496 0.73434 0.76379
0.259129 0.732067 0.764035
0.256397 0.727123 0.763424
0.247471 0.712062 0.761563
0.236896 0.685039 0.764752
0.64712 0.720577 0.891615
0.893736 0.69456 0.913207
0.925368 0.678782 0.907927
0.913878 0.693446 0.907637
0.325948 0.825879 0.820539
0.332387 0.824537 0.817487
0.33225 0.823423 0.815045
0.325841 0.817395 0.808331
0.30988 0.802258 0.793896
0.575952 0.846067 0.84303
0.844831 0.86862 0.875425
0.92221 0.862119 0.875669
0.916732 0.865858 0.881849
0.329824 0.831525 0.831464
0.337285 0.828641 0.82678
0.336431 0.826749 0.822934
0.330159 0.824048 0.815473
0.320104 0.819303 0.796582
0.423697 0.857114 0.798001
0.80824 0.907683 0.870649
0.915389 0.916548 0.88365
0.924865 0.918013 0.899901
0.332021 0.83241 0.833356
0.340414 0.830854 0.830701
0.342565 0.829892 0.82948
0.335531 0.826612 0.822156
0.325963 0.82269 0.806165
0.530587 0.870893 0.827665
0.83093 0.909895 0.884504
0.910033 0.917266 0.887663
0.923095 0.91873 0.910491
0.114885 0.187549 0.62562
0.207614 0.182284 0.678248
0.314305 0.179217 0.712566
0.450843 0.176883 0.734401
0.586984 0.17258 0.723964
0.666819 0.184314 0.715709
0.666819 0.184329 0.715618
0.666911 0.184298 0.715557
0.667094 0.184253 0.715419
0.0904555 0.199603 0.595438
0.112902 0.187747 0.624369
0.216007 0.181872 0.681407
0.407233 0.177508 0.730282
0.562524 0.170611 0.725887
0.666896 0.184298 0.715648
0.666987 0.184283 0.715465
0.666835 0.184314 0.715663
0.666163 0.184405 0.716548
0.0960098 0.244648 0.619226
0.0910658 0.206912 0.599405
0.106569 0.188678 0.617853
0.329046 0.178973 0.71632
0.526711 0.172595 0.731289
0.666835 0.184314 0.715663
0.667582 0.184207 0.714626
0.667536 0.184222 0.714672
0.666316 0.184375 0.71635
0.112276 0.349477 0.66186
0.107622 0.323903 0.653056
0.10135 0.284352 0.63769
0.114611 0.20943 0.632944
0.44387 0.184024 0.738949
0.635645 0.178912 0.7196
0.667842 0.184207 0.714321
0.667796 0.184207 0.714412
0.666758 0.184329 0.715969
0.170642 0.560281 0.728588
0.167422 0.553277 0.725841
0.162448 0.541192 0.721767
0.150011 0.506447 0.710079
0.368322 0.490349 0.841749
0.715618 0.456214 0.911009
0.832639 0.402777 0.864103
0.824552 0.386923 0.852781
0.836744 0.413291 0.871336
0.264469 0.734707 0.786435
0.264469 0.731258 0.785016
0.260121 0.724102 0.782269
0.247349 0.704326 0.775464
0.226856 0.670375 0.767315
0.630762 0.707149 0.908858
0.875624 0.683513 0.926192
0.918914 0.665232 0.924636
0.907256 0.680842 0.919326
0.333059 0.830594 0.831647
0.340902 0.830747 0.830549
0.33901 0.827756 0.828702
0.332769 0.820935 0.824887
0.31722 0.8038 0.816236
0.53872 0.848737 0.883024
0.824445 0.858015 0.909926
0.917372 0.850843 0.913924
0.913588 0.855222 0.90988
0.331258 0.832486 0.83357
0.340246 0.830915 0.830716
0.341344 0.830655 0.830427
0.339498 0.831159 0.830884
0.336934 0.830182 0.829053
0.36759 0.842985 0.838727
0.81239 0.910475 0.911559
0.918303 0.916869 0.919066
0.927749 0.916365 0.916213
0.331624 0.8327 0.83331
0.340383 0.830884 0.830701
0.34287 0.830243 0.829984
0.340841 0.830793 0.830564
0.338979 0.831708 0.830533
0.435584 0.86363 0.860777
0.82916 0.912795 0.912978
0.916121 0.919249 0.922637
0.92462 0.918959 0.920043
0.118105 0.187396 0.628534
0.210559 0.181994 0.679286
0.318776 0.179187 0.71371
0.455787 0.176867 0.734737
0.592905 0.172473 0.72282
0.666835 0.184298 0.715694
0.666819 0.184329 0.715618
0.666804 0.184314 0.715663
0.667063 0.184268 0.71545
0.0903792 0.198749 0.59501
0.115587 0.187671 0.626581
0.222339 0.181796 0.68394
0.413489 0.177417 0.730892
0.56846 0.170138 0.724559
0.666987 0.184283 0.715526
0.666972 0.184283 0.715465
0.666835 0.184314 0.715663
0.666056 0.184436 0.716655
0.0959487 0.243992 0.618936
0.0911116 0.206592 0.599298
0.108354 0.188449 0.619684
0.335653 0.178775 0.717617
0.531807 0.172335 0.73077
0.666941 0.184298 0.715526
0.667659 0.184192 0.714534
0.667613 0.184192 0.714626
0.666346 0.18436 0.716381
0.112566 0.350591 0.662516
0.108049 0.326635 0.653956
0.101534 0.286198 0.638224
0.115724 0.212009 0.635294
0.451011 0.188022 0.742428
0.638376 0.179187 0.719081
0.667842 0.184192 0.714321
0.667811 0.184192 0.714412
0.666789 0.184329 0.715984
0.172168 0.563424 0.729961
0.168917 0.557015 0.727245
0.163943 0.544839 0.72314
0.150942 0.509407 0.711116
0.376867 0.493385 0.846174
0.71989 0.460426 0.911696
0.836912 0.4094 0.86807
0.829282 0.3944 0.857481
0.839536 0.418235 0.873762
0.268269 0.738705 0.787976
0.267689 0.735103 0.785718
0.263264 0.727275 0.782879
0.249729 0.706508 0.775937
0.23093 0.672724 0.768582
0.636454 0.709331 0.907408
0.875685 0.686549 0.924987
0.917693 0.668757 0.923003
0.904952 0.68545 0.916167
0.335744 0.831754 0.832135
0.342565 0.830304 0.830121
0.341543 0.826688 0.82797
0.336385 0.820447 0.824308
0.319661 0.802243 0.815152
0.554894 0.848463 0.883116
0.826108 0.857404 0.90959
0.917189 0.850355 0.914855
0.912993 0.855192 0.910353
0.335607 0.831281 0.832486
0.342672 0.830259 0.830076
0.345083 0.829633 0.829541
0.345174 0.829602 0.829526
0.345342 0.830167 0.829908
0.377737 0.843732 0.842237
0.813931 0.910872 0.915343
0.915846 0.916671 0.920317
0.927596 0.916121 0.916426
0.330022 0.833005 0.833707
0.341711 0.830518 0.83035
0.345312 0.829557 0.82948
0.345586 0.829496 0.829419
0.347021 0.831006 0.830427
0.43679 0.860685 0.859922
0.825101 0.912764 0.915373
0.915557 0.919463 0.923247
0.925673 0.918715 0.919005
