bundles/resolve-cinematic-luts/Phantom Luts/Canon Alexa LUT/ATOMOS Monitoring LUTs/C-Log 3/IceBlue Canon CL3-Legacy AML.cube
TITLE "Generated by Resolve"
LUT_3D_SIZE 5
0.101686 0.112062 0.11368
0.341009 0.109545 0.121248
0.641367 0.140932 0.223972
0.704112 0.160342 0.299794
0.70901 0.157382 0.338247
0.0993515 0.313939 0.132555
0.224033 0.257527 0.115282
0.59704 0.20383 0.129274
0.656977 0.151827 0.186023
0.659663 0.149645 0.198093
0.189364 0.703593 0.298344
0.197192 0.693294 0.245121
0.616876 0.644465 0.192279
0.824811 0.659083 0.287007
0.826535 0.665766 0.289967
0.259831 0.804135 0.413504
0.268345 0.792706 0.325002
0.541863 0.837827 0.315435
0.900969 0.877272 0.432502
0.910048 0.878508 0.437385
0.258427 0.808911 0.448295
0.266621 0.793378 0.330205
0.627298 0.847959 0.331334
0.909453 0.877455 0.436042
0.90869 0.878874 0.437339
0.0899825 0.119463 0.264668
0.318441 0.111254 0.309041
0.669963 0.141054 0.395071
0.729213 0.164294 0.447318
0.726589 0.16408 0.480171
0.0976272 0.239689 0.23566
0.185992 0.216281 0.227268
0.616068 0.130556 0.228199
0.705104 0.159121 0.308461
0.709178 0.157809 0.336553
0.145663 0.652888 0.385748
0.16112 0.666224 0.289387
0.585321 0.627283 0.175601
0.821424 0.621118 0.275227
0.820966 0.625025 0.276066
0.263981 0.818875 0.539681
0.25893 0.806745 0.435294
0.419287 0.824277 0.31931
0.888457 0.875593 0.425208
0.909697 0.878477 0.438697
0.26952 0.823362 0.578958
0.25864 0.81178 0.47744
0.482017 0.831571 0.315831
0.888121 0.87512 0.425437
0.907729 0.878859 0.44036
0.0902113 0.141466 0.527871
0.318929 0.129366 0.605188
0.61326 0.147127 0.608911
0.693065 0.176272 0.65478
0.680613 0.179629 0.683009
0.0840009 0.204959 0.504005
0.0934615 0.13933 0.52285
0.577737 0.136492 0.590661
0.707912 0.170184 0.599878
0.698238 0.172625 0.628794
0.139773 0.588525 0.57258
0.137194 0.583947 0.569024
0.542382 0.587274 0.594232
0.932036 0.519249 0.587488
0.92961 0.519646 0.609766
0.293873 0.822278 0.699535
0.295552 0.825147 0.678904
0.263294 0.816251 0.520653
0.873732 0.884764 0.474372
0.920775 0.891035 0.548104
0.300816 0.82005 0.74078
0.301366 0.819394 0.714641
0.268605 0.820859 0.565637
0.854215 0.887434 0.499474
0.918181 0.890715 0.515435
0.103975 0.188251 0.614832
0.304997 0.179492 0.710155
0.578592 0.171145 0.724224
0.666819 0.184329 0.715602
0.666819 0.184314 0.71574
0.0963912 0.247318 0.620813
0.0998093 0.189654 0.610437
0.523339 0.172763 0.73164
0.667918 0.184161 0.714199
0.666316 0.184375 0.71635
0.16463 0.56318 0.706127
0.161624 0.547677 0.713314
0.381415 0.509651 0.850019
0.84863 0.425635 0.875715
0.848112 0.43386 0.883253
0.325948 0.825879 0.820539
0.33225 0.823423 0.815045
0.30988 0.802258 0.793896
0.844831 0.86862 0.875425
0.916732 0.865858 0.881849
0.332021 0.83241 0.833356
0.342565 0.829892 0.82948
0.325963 0.82269 0.806165
0.83093 0.909895 0.884504
0.923095 0.91873 0.910491
0.118105 0.187396 0.628534
0.318776 0.179187 0.71371
0.592905 0.172473 0.72282
0.666819 0.184329 0.715618
0.667063 0.184268 0.71545
0.0959487 0.243992 0.618936
0.108354 0.188449 0.619684
0.531807 0.172335 0.73077
0.667659 0.184192 0.714534
0.666346 0.18436 0.716381
0.172168 0.563424 0.729961
0.163943 0.544839 0.72314
0.376867 0.493385 0.846174
0.836912 0.4094 0.86807
0.839536 0.418235 0.873762
0.335744 0.831754 0.832135
0.341543 0.826688 0.82797
0.319661 0.802243 0.815152
0.826108 0.857404 0.90959
0.912993 0.855192 0.910353
0.330022 0.833005 0.833707
0.345312 0.829557 0.82948
0.347021 0.831006 0.830427
0.825101 0.912764 0.915373
0.925673 0.918715 0.919005
