bundles/resolve-cinematic-luts/Phantom Luts/Canon Alexa LUT/ATOMOS Monitoring LUTs/C-Log 3/IceBlue Canon CL3 AML.cube
TITLE "Generated by Resolve"
LUT_3D_SIZE 9
0.0925154 0.103517 0.102358
0.189319 0.0982986 0.106294
0.388663 0.0978866 0.123278
0.542245 0.107591 0.175937
0.653056 0.132692 0.250797
0.699214 0.146517 0.305364
0.703624 0.147066 0.324941
0.705989 0.147234 0.337758
0.706889 0.145144 0.36527
0.0905165 0.158907 0.115801
0.111818 0.128557 0.108034
0.278172 0.134035 0.102129
0.492302 0.109285 0.103166
0.604257 0.123278 0.165072
0.665965 0.140459 0.219837
0.675441 0.142275 0.239307
0.684016 0.144015 0.258106
0.690013 0.14229 0.286122
0.086717 0.362112 0.129305
0.0924697 0.339132 0.111162
0.267384 0.304616 0.099443
0.491981 0.296727 0.103426
0.628672 0.239872 0.137392
0.661982 0.141527 0.190906
0.661463 0.140658 0.19968
0.661463 0.140337 0.202487
0.663859 0.138918 0.211917
0.102052 0.545373 0.198642
0.106294 0.543938 0.151263
0.130877 0.519265 0.123934
0.464393 0.497169 0.105135
0.653132 0.506554 0.161303
0.789487 0.459129 0.242695
0.786206 0.421759 0.240482
0.775753 0.40766 0.230152
0.783917 0.421897 0.238087
0.191562 0.722744 0.329366
0.209705 0.727611 0.27776
0.201907 0.710613 0.256229
0.310567 0.700847 0.203754
0.650721 0.676768 0.21326
0.786542 0.688716 0.272862
0.832395 0.686885 0.295659
0.831708 0.681697 0.294606
0.834119 0.693187 0.299001
0.248478 0.801282 0.407813
0.253452 0.794705 0.354055
0.257801 0.790219 0.32311
0.366934 0.813443 0.311589
0.638712 0.84094 0.30248
0.811292 0.831098 0.358206
0.883146 0.839063 0.394659
0.882841 0.837369 0.395209
0.887877 0.844907 0.400656
0.248981 0.80499 0.437675
0.24921 0.800534 0.39939
0.256489 0.79057 0.324331
0.344732 0.809903 0.316075
0.565301 0.843198 0.322316
0.800046 0.859251 0.387793
0.894469 0.877791 0.433234
0.903273 0.87921 0.435981
0.902434 0.879484 0.435599
0.249943 0.808286 0.465553
0.248951 0.800595 0.40116
0.254444 0.791409 0.330739
0.324025 0.806134 0.320119
0.530037 0.839902 0.322316
0.791074 0.8607 0.383383
0.889937 0.876539 0.430121
0.904677 0.87866 0.437675
0.900786 0.879637 0.438361
0.249226 0.809949 0.47567
0.248936 0.802106 0.411856
0.254826 0.791669 0.331518
0.365805 0.814801 0.317342
0.650584 0.853452 0.341527
0.829694 0.861006 0.399176
0.901823 0.878019 0.436088
0.904753 0.878706 0.436942
0.900954 0.879744 0.436957
0.0869917 0.107149 0.147036
0.176669 0.102632 0.188632
0.395056 0.098024 0.255253
0.557916 0.106645 0.303456
0.667124 0.130388 0.343618
0.711162 0.146868 0.386053
0.714046 0.147829 0.408026
0.714977 0.148104 0.422156
0.713024 0.147143 0.440452
0.0935378 0.117891 0.11783
0.092607 0.104173 0.103075
0.319585 0.0970932 0.129809
0.52285 0.103578 0.18294
0.643473 0.126879 0.258824
0.700389 0.14461 0.322713
0.704067 0.145266 0.342458
0.705943 0.145541 0.353887
0.706508 0.144427 0.371221
0.0880446 0.321126 0.211017
0.0873732 0.317693 0.132372
0.231952 0.28188 0.101595
0.502953 0.238163 0.106752
0.604837 0.140887 0.140352
0.666178 0.139803 0.221302
0.66891 0.140414 0.227375
0.676616 0.141894 0.242863
0.67866 0.140414 0.253254
0.0949416 0.523064 0.262898
0.0977188 0.526406 0.191119
0.104265 0.514534 0.134508
0.440513 0.48719 0.101045
0.657877 0.483711 0.158831
0.78056 0.419287 0.235676
0.763348 0.382315 0.219089
0.754879 0.359258 0.213931
0.765911 0.379416 0.224186
0.17293 0.708034 0.379416
0.182788 0.711009 0.325414
0.199588 0.714153 0.269261
0.262181 0.690974 0.209354
0.639918 0.668681 0.206394
0.78703 0.678019 0.26949
0.830106 0.672557 0.28983
0.828992 0.666056 0.287465
0.830472 0.678752 0.291997
0.24921 0.808896 0.472618
0.249561 0.801572 0.407294
0.254108 0.79411 0.350072
0.329885 0.805905 0.312932
0.606973 0.836393 0.295857
0.804273 0.82536 0.351644
0.88011 0.8318 0.388968
0.878767 0.829343 0.388617
0.883558 0.837263 0.39292
0.251728 0.81326 0.505928
0.248417 0.805814 0.443717
0.249897 0.799954 0.395804
0.284123 0.797086 0.322988
0.506905 0.837659 0.321355
0.78587 0.861601 0.381521
0.890257 0.877043 0.431144
0.903059 0.879103 0.437736
0.9019 0.879347 0.438483
0.253361 0.815335 0.524926
0.248814 0.808911 0.470253
0.248905 0.800351 0.401633
0.2589 0.791485 0.326879
0.479194 0.834897 0.323125
0.77528 0.861708 0.376745
0.884153 0.87512 0.426123
0.904646 0.87866 0.437812
0.900893 0.879698 0.437629
0.255009 0.815518 0.529854
0.250217 0.810132 0.483238
0.248981 0.800381 0.39939
0.326604 0.806485 0.318898
0.610437 0.848966 0.332906
0.817563 0.859968 0.393942
0.896315 0.877363 0.43389
0.904677 0.87866 0.437675
0.900649 0.879576 0.439414
0.0771191 0.115328 0.304234
0.209445 0.10367 0.328664
0.368414 0.0995956 0.354177
0.548241 0.1066 0.39765
0.674235 0.133669 0.420127
0.717571 0.149889 0.454109
0.718166 0.150942 0.47274
0.717281 0.151125 0.484733
0.713619 0.150744 0.502419
0.080766 0.137606 0.22826
0.0835584 0.113298 0.278843
0.303822 0.100435 0.312215
0.535866 0.104311 0.340002
0.659739 0.128252 0.363943
0.712306 0.147005 0.400931
0.714305 0.147768 0.420478
0.714885 0.147982 0.432166
0.713603 0.147738 0.453605
0.0844587 0.287678 0.27631
0.0836194 0.272816 0.264683
0.220722 0.257862 0.266453
0.53666 0.187823 0.243915
0.632227 0.124147 0.25864
0.700252 0.145678 0.314885
0.703853 0.145998 0.334203
0.706355 0.146639 0.345632
0.707118 0.145418 0.36347
0.0922255 0.49575 0.342123
0.0911421 0.496651 0.29575
0.0918746 0.499138 0.207324
0.410437 0.478569 0.105486
0.679133 0.439658 0.183627
0.762509 0.351125 0.232822
0.737987 0.289265 0.217105
0.724498 0.250141 0.212436
0.738796 0.27483 0.226673
0.156802 0.684749 0.435172
0.161212 0.691341 0.391241
0.167544 0.693309 0.329595
0.214237 0.679576 0.215824
0.621012 0.659846 0.195575
0.786297 0.662135 0.263905
0.826825 0.650278 0.281575
0.825513 0.640955 0.279454
0.827192 0.654841 0.283375
0.253391 0.815885 0.532937
0.250996 0.811078 0.489891
0.25069 0.803525 0.426551
0.263478 0.792187 0.326619
0.542687 0.829999 0.290684
0.793179 0.816754 0.342489
0.874052 0.820554 0.378393
0.871641 0.816022 0.376181
0.875425 0.82266 0.381292
0.258961 0.819944 0.567147
0.253178 0.815106 0.522728
0.249714 0.80795 0.462058
0.25507 0.792081 0.335744
0.441962 0.829511 0.321965
0.76463 0.863249 0.372152
0.884611 0.876249 0.427039
0.9028 0.878981 0.439734
0.901839 0.87924 0.439612
0.26276 0.822492 0.58703
0.255756 0.818021 0.546517
0.250156 0.8103 0.487312
0.251728 0.794949 0.360174
0.416663 0.825193 0.320851
0.750652 0.860685 0.363836
0.8757 0.873365 0.419791
0.90457 0.878553 0.439063
0.900847 0.87953 0.439475
0.266987 0.824445 0.605539
0.25951 0.821622 0.575265
0.251164 0.813001 0.504768
0.25391 0.792218 0.339086
0.505699 0.83682 0.321019
0.789166 0.86009 0.382757
0.884657 0.87538 0.427314
0.90454 0.878614 0.438727
0.900114 0.879576 0.441123
0.0808576 0.123629 0.452781
0.217288 0.110338 0.494896
0.37023 0.105196 0.503319
0.516182 0.108553 0.503441
0.655222 0.134905 0.519188
0.708827 0.153429 0.543694
0.706172 0.154589 0.560922
0.703578 0.155169 0.57174
0.697734 0.155779 0.588327
0.074342 0.165118 0.420966
0.0840925 0.121767 0.448981
0.281559 0.107591 0.49659
0.495125 0.106126 0.492546
0.648737 0.130312 0.494881
0.714351 0.152056 0.512215
0.711864 0.152712 0.527199
0.709758 0.153124 0.537774
0.703777 0.153704 0.558831
0.0769818 0.26743 0.401495
0.0748913 0.237644 0.424262
0.113069 0.180331 0.480232
0.472251 0.118257 0.486275
0.639887 0.125002 0.443198
0.718959 0.150759 0.461234
0.719036 0.151339 0.47631
0.717983 0.151431 0.485908
0.71429 0.151278 0.505592
0.0919661 0.468696 0.444144
0.0909133 0.464454 0.442466
0.0896773 0.454551 0.43592
0.411688 0.455848 0.456611
0.73312 0.401022 0.434363
0.821561 0.303655 0.431067
0.782055 0.238926 0.415305
0.757153 0.202533 0.405005
0.776455 0.228473 0.430594
0.146777 0.650217 0.51574
0.145754 0.652399 0.499535
0.142763 0.652689 0.471397
0.149645 0.661509 0.365499
0.582132 0.650904 0.298924
0.835523 0.638086 0.365438
0.880796 0.607599 0.381216
0.877211 0.595285 0.378561
0.884367 0.610742 0.396933
0.254505 0.804944 0.608606
0.2551 0.807935 0.589227
0.253788 0.809323 0.559579
0.248936 0.806226 0.468223
0.38201 0.814466 0.308782
0.771923 0.800931 0.326284
0.864347 0.79884 0.359823
0.860014 0.790555 0.355337
0.86331 0.79707 0.362783
0.276448 0.828199 0.645991
0.271656 0.826474 0.623804
0.264759 0.822599 0.591073
0.252064 0.81149 0.4963
0.339712 0.809491 0.322194
0.71931 0.859815 0.355978
0.874037 0.874479 0.419532
0.903029 0.878965 0.44097
0.901595 0.879026 0.444785
0.278065 0.827924 0.660716
0.275929 0.828382 0.641749
0.267659 0.824948 0.610056
0.2533 0.814008 0.518791
0.291325 0.798871 0.324346
0.698512 0.858732 0.354543
0.858625 0.868925 0.411719
0.905821 0.87808 0.442206
0.901884 0.87892 0.444739
0.283238 0.825971 0.685161
0.281331 0.826825 0.672602
0.274739 0.82855 0.642008
0.256458 0.816861 0.544854
0.35198 0.813092 0.324437
0.72752 0.861021 0.360891
0.866972 0.871992 0.415137
0.904631 0.878538 0.441596
0.900557 0.879377 0.444038
0.090959 0.144472 0.545815
0.218814 0.130739 0.603754
0.356695 0.128313 0.626596
0.489067 0.127504 0.625315
0.619501 0.141512 0.619028
0.688365 0.161883 0.641947
0.683207 0.163546 0.657954
0.680079 0.164706 0.667384
0.67332 0.166247 0.680751
0.0779431 0.189609 0.532906
0.0946517 0.142382 0.547601
0.260182 0.129885 0.613993
0.459403 0.128405 0.629572
0.607904 0.137621 0.613275
0.691356 0.160769 0.630289
0.687953 0.161975 0.643107
0.685054 0.162646 0.651209
0.677852 0.164294 0.666697
0.0783703 0.237186 0.525231
0.0774395 0.200366 0.528695
0.0962081 0.141329 0.542977
0.398108 0.126558 0.623743
0.586099 0.130556 0.60145
0.697551 0.158221 0.605692
0.695613 0.159365 0.616144
0.693721 0.160159 0.623972
0.687572 0.161471 0.639658
0.0975204 0.447959 0.554849
0.0958114 0.435035 0.561898
0.0941787 0.412238 0.569543
0.271229 0.377066 0.676249
0.668116 0.308721 0.695094
0.737728 0.186358 0.577935
0.715053 0.161196 0.560708
0.712383 0.159136 0.561532
0.709575 0.162676 0.582498
0.151339 0.620737 0.604868
0.150759 0.620584 0.604212
0.148333 0.616526 0.601236
0.142031 0.604852 0.592279
0.578698 0.624216 0.631647
0.874266 0.591257 0.625025
0.936568 0.553903 0.624643
0.93669 0.538201 0.627863
0.93434 0.555581 0.647776
0.251896 0.774197 0.676936
0.252781 0.774044 0.669856
0.248951 0.772122 0.658869
0.236988 0.768688 0.629602
0.341283 0.817151 0.55726
0.728145 0.800427 0.526192
0.898817 0.787945 0.567971
0.905119 0.77882 0.576288
0.898528 0.786648 0.608164
0.291875 0.821637 0.721157
0.295811 0.821073 0.712352
0.294194 0.821912 0.700465
0.285557 0.825498 0.671
0.258122 0.817365 0.548241
0.614893 0.87039 0.473716
0.873152 0.88423 0.484367
0.916411 0.888334 0.520348
0.913375 0.888975 0.563287
0.292897 0.822202 0.733715
0.297734 0.820539 0.72462
0.295247 0.821393 0.711955
0.287144 0.824994 0.681407
0.260807 0.818509 0.565393
0.577935 0.864713 0.450721
0.846693 0.876478 0.439597
0.911528 0.88922 0.498802
0.911421 0.890806 0.519738
0.299733 0.821958 0.757763
0.304295 0.820279 0.750393
0.301549 0.820111 0.735485
0.291585 0.822553 0.702235
0.266575 0.821775 0.593469
0.661738 0.87715 0.557412
0.857038 0.887144 0.517555
0.911177 0.891417 0.519234
0.911238 0.892134 0.528664
0.0962692 0.200977 0.615732
0.21854 0.188022 0.684352
0.342596 0.181765 0.717159
0.475349 0.175753 0.729686
0.590066 0.155871 0.701015
0.666056 0.169039 0.701396
0.665858 0.169039 0.701457
0.666743 0.168887 0.700526
0.664897 0.169162 0.702663
0.085832 0.226719 0.602808
0.0980392 0.199985 0.617243
0.245274 0.185504 0.6925
0.437781 0.178897 0.730175
0.577935 0.159472 0.707042
0.667277 0.168887 0.699916
0.666499 0.168933 0.700755
0.66601 0.169009 0.701335
0.663798 0.169329 0.704005
0.0876478 0.261021 0.601068
0.0852064 0.230365 0.598367
0.0973983 0.195239 0.610117
0.367208 0.176791 0.717098
0.554498 0.16199 0.710704
0.669673 0.168521 0.696208
0.66894 0.168627 0.697627
0.66833 0.168719 0.698512
0.664912 0.169162 0.702678
0.107027 0.421881 0.63064
0.10576 0.405554 0.636988
0.103029 0.376532 0.639506
0.185199 0.324361 0.709285
0.549142 0.25452 0.78114
0.665446 0.1691 0.68481
0.675944 0.166476 0.680186
0.67509 0.166827 0.682536
0.671199 0.167575 0.689281
0.166903 0.614527 0.677333
0.165759 0.609506 0.681132
0.162646 0.599374 0.684108
0.154162 0.571984 0.688243
0.490974 0.585534 0.82884
0.822751 0.54136 0.849348
0.915511 0.491646 0.830869
0.909743 0.476951 0.828336
0.906584 0.499077 0.84538
0.255238 0.753414 0.741192
0.25684 0.752377 0.739574
0.254215 0.748653 0.736263
0.246571 0.740169 0.728847
0.308675 0.751125 0.741451
0.731182 0.771649 0.779675
0.913359 0.749447 0.777523
0.92726 0.736019 0.778607
0.916533 0.747311 0.791928
0.306645 0.821347 0.784176
0.31162 0.82031 0.779034
0.310857 0.820127 0.772671
0.307225 0.820264 0.75874
0.295079 0.820768 0.727855
0.595148 0.877348 0.727077
0.841596 0.88127 0.744121
0.910201 0.877043 0.764904
0.907164 0.878187 0.787167
0.308446 0.821958 0.797757
0.31429 0.820493 0.790814
0.313329 0.820188 0.783261
0.30753 0.820645 0.766232
0.296681 0.821714 0.728313
0.515938 0.875273 0.70045
0.816297 0.903059 0.749844
0.91725 0.91281 0.808759
0.923598 0.914351 0.834318
0.315236 0.825589 0.812482
0.321706 0.822828 0.807996
0.319692 0.820386 0.799954
0.311727 0.820493 0.781872
0.301259 0.822873 0.743481
0.606394 0.882872 0.756115
0.83476 0.904494 0.78407
0.912032 0.914137 0.822843
0.92015 0.916106 0.840772
0.114458 0.207401 0.641291
0.2383 0.201358 0.704738
0.352651 0.199023 0.737102
0.485039 0.191043 0.747997
0.601297 0.163729 0.713436
0.665492 0.16907 0.702022
0.665507 0.169085 0.7019
0.666407 0.168948 0.700923
0.664973 0.169146 0.702602
0.0869306 0.229328 0.611551
0.113558 0.207797 0.641199
0.253071 0.201205 0.709972
0.44448 0.195468 0.748898
0.584726 0.166079 0.718791
0.665431 0.169085 0.702129
0.665537 0.16907 0.7019
0.665354 0.169116 0.702129
0.664546 0.169223 0.703136
0.0942092 0.285328 0.637446
0.0880903 0.241093 0.617456
0.104829 0.20824 0.632502
0.369009 0.198367 0.739925
0.558022 0.17499 0.731334
0.665782 0.169039 0.70164
0.666941 0.168872 0.700282
0.666697 0.168902 0.700572
0.66479 0.169177 0.702815
0.114626 0.408179 0.673014
0.11223 0.392508 0.674632
0.105043 0.354009 0.663249
0.133654 0.273243 0.676982
0.491173 0.211368 0.762951
0.644785 0.166888 0.706172
0.667094 0.168872 0.700114
0.667002 0.168872 0.700267
0.665278 0.169131 0.702373
0.173205 0.597452 0.72285
0.172 0.592599 0.725429
0.168917 0.583154 0.72726
0.15967 0.556191 0.726421
0.427726 0.553429 0.88072
0.771603 0.514717 0.92221
0.872297 0.462974 0.893797
0.86511 0.447486 0.885649
0.870527 0.470695 0.899306
0.267231 0.758541 0.777646
0.270054 0.756451 0.776699
0.267536 0.752361 0.776333
0.25922 0.739757 0.77435
0.251194 0.715297 0.776318
0.6795 0.748043 0.886748
0.888441 0.72192 0.901366
0.916213 0.705562 0.893767
0.903563 0.720119 0.895003
0.318441 0.82707 0.818692
0.325216 0.825666 0.815686
0.325368 0.824781 0.813962
0.321065 0.820569 0.809262
0.308904 0.809674 0.799176
0.603586 0.852415 0.849424
0.851102 0.866972 0.871672
0.914 0.862669 0.87187
0.909743 0.865919 0.877714
0.320577 0.831357 0.826795
0.328557 0.828901 0.822416
0.32842 0.827436 0.82002
0.323308 0.825376 0.814542
0.315969 0.821668 0.800717
0.446418 0.862181 0.813916
0.823621 0.904891 0.871641
0.908461 0.912627 0.883314
0.921584 0.913603 0.896422
0.323308 0.831754 0.827863
0.331121 0.830198 0.825223
0.333074 0.829465 0.824353
0.327443 0.827253 0.819348
0.319905 0.824109 0.807401
0.55671 0.870878 0.836561
0.841672 0.906111 0.882628
0.904051 0.914748 0.887098
0.924865 0.918425 0.904356
0.127169 0.206744 0.651942
0.25481 0.201083 0.710384
0.361685 0.198871 0.738766
0.49131 0.189975 0.747311
0.605844 0.162356 0.710796
0.665522 0.16907 0.702007
0.665507 0.169085 0.701915
0.665797 0.169039 0.701625
0.665202 0.169116 0.702373
0.0863355 0.223728 0.609506
0.123995 0.206958 0.649805
0.264622 0.201007 0.713878
0.450401 0.195102 0.749142
0.58793 0.164172 0.71667
0.665476 0.16907 0.702068
0.665553 0.16907 0.701885
0.66537 0.1691 0.702129
0.664485 0.169223 0.703212
0.0937819 0.281621 0.635599
0.0873579 0.23563 0.614786
0.113222 0.207614 0.640848
0.37525 0.198337 0.741176
0.560952 0.174289 0.730282
0.665476 0.169085 0.701991
0.666621 0.168917 0.700664
0.666529 0.168917 0.700771
0.66479 0.169177 0.702815
0.114199 0.398184 0.67837
0.109041 0.373938 0.670283
0.100755 0.329397 0.654368
0.124483 0.236973 0.659281
0.486473 0.201053 0.755108
0.642344 0.16524 0.705211
0.666957 0.168887 0.700282
0.666972 0.168887 0.700328
0.665263 0.169131 0.702373
0.176852 0.594858 0.739757
0.173678 0.588586 0.737118
0.168322 0.577005 0.733166
0.155062 0.544747 0.722957
0.416007 0.535409 0.874937
0.761517 0.495583 0.919448
0.858412 0.441184 0.884978
0.851087 0.424704 0.874723
0.860868 0.451041 0.890852
0.272267 0.758724 0.793729
0.272847 0.755535 0.791852
0.269276 0.749554 0.789502
0.257908 0.733166 0.784039
0.234699 0.699474 0.774594
0.663539 0.73434 0.90016
0.874311 0.710643 0.913863
0.90898 0.693385 0.912947
0.897826 0.708095 0.908309
0.323491 0.830762 0.826825
0.331044 0.830228 0.825208
0.330495 0.82826 0.824033
0.326207 0.823346 0.821454
0.314763 0.811536 0.815641
0.566552 0.855512 0.88011
0.833066 0.858564 0.898833
0.906645 0.854246 0.906355
0.904128 0.857694 0.90367
0.321675 0.832105 0.828412
0.330419 0.830396 0.825406
0.331624 0.830091 0.825116
0.330022 0.830533 0.825513
0.328145 0.829831 0.824277
0.366323 0.843717 0.836545
0.82385 0.89958 0.900877
0.909636 0.908675 0.910796
0.923217 0.909743 0.910338
0.322988 0.832013 0.827771
0.331075 0.830213 0.825208
0.333257 0.829648 0.824704
0.331014 0.830274 0.825193
0.329412 0.830823 0.825299
0.448295 0.867155 0.862409
0.837507 0.902678 0.903105
0.91014 0.916594 0.917144
0.924422 0.919402 0.918654
0.130968 0.206455 0.654597
0.258381 0.201144 0.711681
0.365255 0.198642 0.739391
0.49575 0.189242 0.7467
0.61001 0.161318 0.709072
0.665522 0.16907 0.701991
0.665507 0.169085 0.701915
0.665431 0.169085 0.702052
0.665049 0.169146 0.702525
0.0861524 0.222171 0.608865
0.127169 0.206714 0.652399
0.271015 0.200488 0.71574
0.45623 0.194614 0.749233
0.591562 0.161975 0.713726
0.665583 0.169055 0.701946
0.665537 0.16907 0.7019
0.66537 0.1691 0.702129
0.664073 0.169299 0.703716
0.0937819 0.280797 0.635355
0.0873579 0.235248 0.614679
0.115862 0.207401 0.643229
0.381689 0.198276 0.742367
0.565209 0.173159 0.72871
0.665599 0.16907 0.701854
0.666682 0.168902 0.700603
0.66659 0.168902 0.700725
0.664866 0.169177 0.702785
0.114885 0.400427 0.679438
0.109285 0.375753 0.670771
0.101198 0.331441 0.655085
0.127596 0.239155 0.662638
0.493629 0.203983 0.757824
0.644434 0.165606 0.705028
0.666957 0.168887 0.700282
0.666972 0.168887 0.700328
0.665293 0.169131 0.702403
0.178912 0.598138 0.741115
0.175555 0.592126 0.738354
0.170092 0.580453 0.734401
0.156008 0.547219 0.723659
0.424414 0.538506 0.878462
0.764538 0.499763 0.919173
0.861631 0.447288 0.887953
0.855192 0.432212 0.878935
0.863188 0.456367 0.892836
0.275578 0.76173 0.794644
0.27657 0.758724 0.79266
0.272557 0.752117 0.78996
0.260273 0.735058 0.784283
0.240406 0.702144 0.776287
0.669459 0.736431 0.898589
0.872709 0.714397 0.910964
0.906844 0.696742 0.912688
0.894835 0.712245 0.904952
0.325948 0.831327 0.826917
0.33341 0.829572 0.824674
0.333654 0.827253 0.823087
0.330007 0.82266 0.820783
0.317327 0.81004 0.814588
0.582437 0.855222 0.880201
0.834714 0.858152 0.897963
0.907454 0.853651 0.90547
0.904219 0.857557 0.903471
0.325826 0.830945 0.827451
0.333379 0.829572 0.824689
0.336278 0.82884 0.823835
0.336309 0.828824 0.823835
0.335958 0.829221 0.824186
0.378164 0.844968 0.839826
0.823957 0.900069 0.905303
0.905852 0.908034 0.914595
0.922011 0.908644 0.912963
0.32015 0.832532 0.828794
0.332357 0.829862 0.82501
0.336324 0.828824 0.823835
0.336553 0.828763 0.823758
0.337255 0.82974 0.824582
0.44654 0.863249 0.860059
0.834073 0.90277 0.906416
0.909056 0.916609 0.920592
0.924071 0.918669 0.919951
