bundles/resolve-cinematic-luts/Phantom Luts/Canon Alexa LUT/ATOMOS Monitoring LUTs/C-Log 3/IceBlue Canon CL3-Legacy AML.cube
TITLE "Generated by Resolve"
LUT_3D_SIZE 33
0.101686 0.112062 0.11368
0.101717 0.112032 0.113558
0.104601 0.111818 0.113985
0.127657 0.110872 0.114519
0.1673 0.110201 0.115434
0.205997 0.10988 0.115846
0.245731 0.109804 0.117052
0.290776 0.109621 0.118273
0.341009 0.109545 0.121248
0.390814 0.10959 0.127611
0.439185 0.110582 0.139086
0.484382 0.113573 0.148775
0.520684 0.116289 0.15816
0.553094 0.120256 0.171405
0.582773 0.125643 0.186435
0.611292 0.132342 0.203098
0.641367 0.140932 0.223972
0.671977 0.151171 0.246815
0.692546 0.158679 0.264744
0.696513 0.159426 0.273014
0.698619 0.15967 0.279713
0.700374 0.159899 0.285573
0.701976 0.160082 0.290944
0.703105 0.160266 0.295644
0.704112 0.160342 0.299794
0.704997 0.160418 0.303136
0.705745 0.160464 0.306172
0.706233 0.16025 0.309239
0.70663 0.160037 0.312139
0.707179 0.159609 0.316609
0.707729 0.159091 0.321965
0.708446 0.158236 0.329931
0.70901 0.157382 0.338247
0.101778 0.111971 0.113359
0.101732 0.112032 0.113527
0.101747 0.112032 0.113527
0.111803 0.11165 0.11429
0.144015 0.110887 0.114488
0.182498 0.110155 0.114611
0.223438 0.109621 0.113924
0.266651 0.109392 0.113451
0.316701 0.109087 0.112291
0.369345 0.109773 0.113085
0.418723 0.110735 0.117571
0.465064 0.112718 0.124544
0.504173 0.115023 0.136797
0.53904 0.1187 0.152407
0.570581 0.123949 0.166812
0.599557 0.130404 0.182284
0.630594 0.139223 0.20209
0.66331 0.150011 0.226505
0.685512 0.157519 0.245701
0.690547 0.158999 0.254154
0.692836 0.159258 0.260471
0.694392 0.159091 0.266163
0.696147 0.159365 0.272038
0.697917 0.159594 0.277424
0.699413 0.159777 0.282216
0.700511 0.159884 0.286198
0.701488 0.159991 0.289464
0.702296 0.160037 0.292958
0.702953 0.160021 0.296101
0.703746 0.159716 0.300786
0.704463 0.159289 0.305638
0.705425 0.158389 0.313634
0.706233 0.157473 0.32163
0.101762 0.111971 0.113375
0.101717 0.112032 0.113542
0.101732 0.112032 0.113542
0.102647 0.112337 0.113542
0.120317 0.112795 0.113512
0.152377 0.112779 0.113588
0.192554 0.112306 0.113466
0.237171 0.111574 0.112093
0.286793 0.110674 0.110277
0.343206 0.109972 0.107897
0.396597 0.110384 0.107256
0.445472 0.111208 0.109804
0.487526 0.113573 0.116289
0.522545 0.117128 0.130999
0.554391 0.121584 0.146044
0.583124 0.127382 0.161059
0.612909 0.134981 0.179019
0.645258 0.145312 0.199619
0.670222 0.153872 0.219425
0.679026 0.156634 0.230152
0.682322 0.157122 0.236759
0.686122 0.158007 0.244144
0.689097 0.158755 0.250568
0.691234 0.159136 0.255894
0.692866 0.159258 0.260594
0.693919 0.159136 0.2645
0.694835 0.159106 0.267582
0.695857 0.159228 0.271504
0.69691 0.159228 0.275074
0.697978 0.158938 0.279973
0.699001 0.158495 0.285145
0.700313 0.157595 0.293248
0.701473 0.156634 0.301411
0.101762 0.119707 0.115434
0.101793 0.116106 0.113634
0.102373 0.114183 0.113848
0.102251 0.112856 0.113664
0.105699 0.11368 0.114061
0.128969 0.115496 0.114
0.160693 0.116411 0.113878
0.203571 0.116289 0.112764
0.2551 0.115312 0.111452
0.314183 0.113817 0.109499
0.374502 0.112306 0.106966
0.428611 0.111788 0.105959
0.4748 0.112322 0.108141
0.511147 0.115969 0.116426
0.542901 0.120287 0.130053
0.572412 0.125612 0.147829
0.599039 0.131792 0.163592
0.631052 0.140978 0.185061
0.656291 0.149676 0.20087
0.664225 0.152529 0.208057
0.668437 0.153506 0.214435
0.673487 0.154757 0.221622
0.677714 0.156008 0.228489
0.680797 0.156558 0.234119
0.68333 0.157046 0.239292
0.685924 0.157626 0.244419
0.68809 0.158129 0.248707
0.689601 0.15848 0.252476
0.690837 0.158587 0.25597
0.692042 0.15848 0.259998
0.693263 0.158114 0.265141
0.694835 0.157214 0.273136
0.696162 0.156268 0.281651
0.103365 0.145235 0.121813
0.103609 0.142687 0.119814
0.104723 0.135592 0.118151
0.107225 0.130312 0.11783
0.112184 0.125017 0.116335
0.124743 0.127565 0.116732
0.149355 0.130648 0.116884
0.183703 0.130144 0.115282
0.229389 0.127413 0.112306
0.282475 0.123156 0.109758
0.346441 0.119066 0.108751
0.408774 0.116182 0.10779
0.462806 0.114672 0.107134
0.502083 0.115206 0.109957
0.534798 0.119371 0.11986
0.564309 0.124453 0.136019
0.592523 0.130602 0.155596
0.619562 0.138048 0.172961
0.651926 0.148318 0.196155
0.659403 0.150958 0.200809
0.660395 0.151202 0.202502
0.662394 0.151858 0.205478
0.664515 0.152361 0.20882
0.66746 0.153048 0.213169
0.670802 0.153811 0.218219
0.674357 0.154742 0.223774
0.67718 0.15555 0.228229
0.679393 0.156146 0.231754
0.680842 0.156298 0.234653
0.682078 0.156176 0.238392
0.683589 0.155932 0.243046
0.685725 0.155184 0.250996
0.687877 0.15433 0.259648
0.103761 0.184771 0.126314
0.103593 0.180896 0.122713
0.103548 0.172869 0.122011
0.107469 0.16405 0.121355
0.116091 0.155612 0.120058
0.134524 0.150484 0.117845
0.153597 0.153597 0.118105
0.1823 0.1561 0.118135
0.227192 0.153979 0.116213
0.276493 0.149477 0.113283
0.33048 0.142962 0.109575
0.390036 0.135821 0.107454
0.445975 0.126299 0.106477
0.494408 0.119509 0.110155
0.527672 0.118898 0.114244
0.557122 0.123552 0.126101
0.585229 0.12929 0.145266
0.613123 0.136538 0.16466
0.642008 0.145388 0.186145
0.658686 0.150896 0.198749
0.659083 0.150988 0.199405
0.659281 0.151003 0.199985
0.65948 0.151019 0.200549
0.660456 0.151293 0.202029
0.661967 0.151781 0.204318
0.6636 0.152224 0.206714
0.664912 0.152483 0.208865
0.665995 0.152728 0.210468
0.667613 0.153155 0.21297
0.669306 0.153201 0.216312
0.671244 0.153079 0.220859
0.674037 0.152529 0.228962
0.676768 0.151904 0.237613
0.102647 0.223743 0.127977
0.102708 0.220569 0.125261
0.102312 0.213626 0.123033
0.104967 0.203159 0.123827
0.111147 0.195056 0.122728
0.131838 0.185534 0.121035
0.161883 0.182147 0.118639
0.185687 0.182254 0.118639
0.222766 0.184634 0.116655
0.27393 0.181994 0.113848
0.334737 0.175143 0.111727
0.390478 0.168429 0.108827
0.440955 0.160418 0.10692
0.489021 0.147295 0.107164
0.525139 0.134463 0.110475
0.551766 0.125521 0.119509
0.577081 0.127535 0.133303
0.606104 0.135088 0.155032
0.634073 0.143572 0.174945
0.654276 0.149798 0.192447
0.657618 0.150805 0.195804
0.658137 0.150881 0.196994
0.658381 0.150866 0.197879
0.658549 0.150896 0.198276
0.658701 0.150912 0.198627
0.658854 0.150927 0.199023
0.659205 0.151019 0.199634
0.659648 0.15111 0.200305
0.660471 0.151369 0.201434
0.661357 0.151492 0.203281
0.662699 0.151476 0.206149
0.664683 0.151156 0.211017
0.6663 0.150637 0.215885
0.101305 0.265309 0.130282
0.101045 0.263233 0.125856
0.101076 0.257877 0.124422
0.102495 0.24831 0.124056
0.107073 0.239551 0.123949
0.117144 0.231388 0.123598
0.149554 0.222171 0.121309
0.189288 0.217197 0.118044
0.224475 0.2159 0.117845
0.266484 0.218555 0.11548
0.326696 0.2168 0.111635
0.392279 0.208591 0.110353
0.448386 0.198444 0.110475
0.493751 0.189715 0.110155
0.531655 0.179919 0.112444
0.560723 0.163821 0.118257
0.580758 0.143496 0.126299
0.599023 0.13492 0.139483
0.6262 0.141466 0.164553
0.652232 0.149844 0.184588
0.65655 0.151156 0.189303
0.656672 0.151049 0.190524
0.656657 0.150896 0.191608
0.656641 0.15082 0.192264
0.656611 0.150744 0.192889
0.656748 0.150713 0.193576
0.657099 0.150759 0.194415
0.657435 0.15079 0.195239
0.657679 0.150835 0.195789
0.658091 0.150729 0.196857
0.658564 0.150469 0.198596
0.659617 0.149828 0.202396
0.660548 0.149157 0.205905
0.0993515 0.313939 0.132555
0.0989853 0.313893 0.125902
0.0990921 0.309499 0.123278
0.0986954 0.300206 0.123125
0.102388 0.289525 0.123262
0.108278 0.281743 0.123323
0.128191 0.272587 0.122194
0.171557 0.263539 0.119051
0.224033 0.257527 0.115282
0.268284 0.255161 0.115572
0.317205 0.257801 0.113344
0.381521 0.258061 0.110201
0.444068 0.250309 0.110796
0.500557 0.23801 0.113558
0.542626 0.227329 0.117113
0.573343 0.2177 0.122454
0.59704 0.20383 0.129274
0.614618 0.182116 0.136904
0.628595 0.155962 0.146441
0.648539 0.150103 0.168673
0.659327 0.153414 0.181064
0.657816 0.15259 0.182803
0.657771 0.152285 0.185016
0.657343 0.152071 0.185473
0.656977 0.151827 0.186023
0.656718 0.151629 0.186587
0.656672 0.151492 0.187274
0.656687 0.1514 0.187884
0.656718 0.151354 0.188373
0.656962 0.151171 0.18938
0.65742 0.150881 0.191089
0.658351 0.150256 0.194522
0.659663 0.149645 0.198093
0.0979782 0.36524 0.137148
0.0976425 0.366979 0.126833
0.0974746 0.366155 0.122271
0.0975662 0.358465 0.122057
0.0984207 0.34696 0.122026
0.103395 0.337682 0.121752
0.109606 0.330724 0.121782
0.142367 0.322133 0.119219
0.19704 0.312535 0.11574
0.262867 0.304326 0.111681
0.318929 0.300938 0.112428
0.373068 0.303807 0.112016
0.433127 0.307225 0.111177
0.493477 0.300847 0.112795
0.546365 0.287114 0.118532
0.587777 0.272206 0.129229
0.61471 0.262226 0.137118
0.634714 0.248966 0.144945
0.652613 0.230015 0.154116
0.66685 0.202701 0.163607
0.67303 0.176806 0.173053
0.667369 0.164858 0.171817
0.663417 0.158145 0.172229
0.661692 0.155291 0.174151
0.660914 0.153857 0.177829
0.659861 0.152377 0.179828
0.660517 0.153307 0.18262
0.66009 0.15285 0.183825
0.659739 0.152544 0.184802
0.659846 0.152377 0.185519
0.660029 0.152239 0.186236
0.660731 0.152163 0.187091
0.661875 0.152285 0.187228
0.0975204 0.415442 0.144945
0.0975509 0.418296 0.131258
0.0975967 0.41854 0.124971
0.0976425 0.414466 0.123934
0.0974594 0.404959 0.123384
0.100114 0.394736 0.122866
0.105531 0.386816 0.121874
0.115038 0.380011 0.120882
0.160754 0.374304 0.11693
0.231159 0.363928 0.111604
0.310811 0.355489 0.108553
0.375067 0.35201 0.110445
0.427649 0.355596 0.112016
0.481727 0.360525 0.113039
0.538643 0.357137 0.116548
0.587655 0.345281 0.128115
0.627863 0.328878 0.143572
0.657969 0.311284 0.157824
0.677394 0.299886 0.166873
0.693904 0.282963 0.176287
0.702632 0.259236 0.18262
0.698604 0.243336 0.181048
0.69247 0.229191 0.17763
0.688258 0.218189 0.175814
0.684413 0.207614 0.175265
0.680659 0.197314 0.174197
0.679438 0.1897 0.176196
0.676493 0.182803 0.175006
0.674479 0.17641 0.175174
0.671687 0.170916 0.17293
0.671321 0.170581 0.171969
0.673899 0.177127 0.173022
0.677577 0.18854 0.173953
0.0984054 0.464591 0.155245
0.0986343 0.466911 0.141238
0.0991379 0.468055 0.131838
0.099382 0.466361 0.128557
0.0988479 0.46041 0.127382
0.0991684 0.452033 0.126223
0.103975 0.442908 0.124529
0.109789 0.435523 0.122667
0.127306 0.429847 0.120058
0.189075 0.426322 0.113787
0.274159 0.414969 0.108141
0.36347 0.406821 0.106401
0.429923 0.40415 0.110613
0.478981 0.406699 0.114519
0.528237 0.412161 0.118547
0.580377 0.413031 0.127901
0.626917 0.404303 0.144289
0.666072 0.389807 0.161837
0.701503 0.372457 0.181888
0.725872 0.355444 0.19765
0.736675 0.339315 0.202716
0.734371 0.325872 0.201038
0.729702 0.31545 0.19791
0.725002 0.305165 0.195377
0.720974 0.295827 0.192981
0.717128 0.287358 0.190799
0.714107 0.280293 0.18912
0.712032 0.275517 0.188128
0.70988 0.271855 0.186679
0.709316 0.270817 0.186267
0.710536 0.272786 0.187152
0.71371 0.278401 0.189425
0.718898 0.287388 0.193683
0.103578 0.510826 0.171237
0.104952 0.513512 0.160296
0.106386 0.515114 0.149248
0.107179 0.514855 0.142016
0.106264 0.51223 0.14023
0.104616 0.505348 0.138155
0.104662 0.497185 0.13489
0.111009 0.489021 0.129671
0.118578 0.482444 0.126162
0.147204 0.47805 0.120378
0.231739 0.476509 0.111986
0.325734 0.465553 0.106584
0.417273 0.456458 0.108522
0.481483 0.454917 0.114488
0.527153 0.456947 0.122118
0.572641 0.46273 0.132616
0.619364 0.466407 0.146868
0.663035 0.461372 0.163943
0.704585 0.450034 0.184726
0.740734 0.435492 0.20647
0.768963 0.417273 0.226215
0.776715 0.401968 0.232486
0.773129 0.392599 0.230243
0.768612 0.384787 0.226535
0.764324 0.378073 0.223056
0.760418 0.372564 0.220066
0.757412 0.368322 0.217502
0.754284 0.364279 0.215183
0.752712 0.362097 0.213901
0.752224 0.361563 0.213397
0.753201 0.363317 0.214099
0.756924 0.368872 0.217212
0.762325 0.3776 0.221912
0.113939 0.556008 0.195743
0.115892 0.558526 0.187152
0.118166 0.560311 0.175082
0.119966 0.560525 0.163043
0.119905 0.559075 0.160342
0.118608 0.5552 0.159243
0.116747 0.548302 0.155444
0.118898 0.540475 0.149203
0.127413 0.533791 0.141894
0.137438 0.528222 0.135378
0.182528 0.525902 0.123934
0.284657 0.525734 0.113207
0.381643 0.514809 0.109361
0.469154 0.504753 0.115557
0.530556 0.505013 0.127184
0.572122 0.506065 0.138796
0.614008 0.511025 0.152987
0.655818 0.515969 0.168643
0.700343 0.517281 0.188952
0.742245 0.50985 0.211078
0.776165 0.498177 0.231205
0.797559 0.484291 0.245243
0.797116 0.476234 0.244877
0.795621 0.468849 0.243977
0.794217 0.46215 0.243153
0.793133 0.456413 0.242329
0.792035 0.451499 0.241733
0.79086 0.447807 0.240909
0.790555 0.445777 0.240833
0.790417 0.445548 0.240726
0.790997 0.448814 0.24097
0.792401 0.455009 0.241993
0.794675 0.464393 0.243992
0.129915 0.601129 0.224231
0.132372 0.60412 0.220249
0.135485 0.606241 0.209232
0.139132 0.606394 0.192691
0.140032 0.605707 0.186984
0.138857 0.603281 0.185183
0.135821 0.597436 0.182452
0.133577 0.590509 0.177829
0.141054 0.583032 0.167056
0.153185 0.576898 0.156512
0.166857 0.573327 0.148562
0.230671 0.574578 0.133989
0.346258 0.575967 0.124254
0.43917 0.563348 0.123049
0.520226 0.551827 0.1337
0.576852 0.55404 0.149386
0.614893 0.554498 0.162188
0.652903 0.559457 0.177981
0.692622 0.565026 0.195727
0.734661 0.568551 0.216449
0.77496 0.566934 0.238041
0.806394 0.557382 0.255482
0.812055 0.550347 0.25832
0.811185 0.545159 0.257252
0.809934 0.539986 0.25594
0.809491 0.536095 0.255543
0.808255 0.532143 0.254307
0.807797 0.529366 0.253742
0.807752 0.528038 0.253697
0.807721 0.528572 0.253666
0.808118 0.531212 0.25417
0.809476 0.537087 0.255772
0.810727 0.545419 0.257359
0.153918 0.649393 0.258076
0.157137 0.65301 0.255741
0.161059 0.655894 0.24889
0.166079 0.656931 0.233127
0.169177 0.656535 0.221836
0.168521 0.654902 0.219501
0.166827 0.651881 0.217014
0.161578 0.642618 0.209674
0.162661 0.634226 0.200504
0.17557 0.627558 0.187915
0.185229 0.621881 0.178958
0.207614 0.619821 0.169574
0.295796 0.624887 0.15201
0.414527 0.627894 0.147234
0.495827 0.61004 0.147585
0.569497 0.597467 0.160662
0.621653 0.602487 0.177508
0.657847 0.602869 0.191302
0.69131 0.606775 0.206119
0.730587 0.61236 0.225742
0.76643 0.616419 0.244617
0.801572 0.617655 0.263355
0.821286 0.615366 0.273594
0.821149 0.611627 0.272953
0.82031 0.607736 0.271717
0.819745 0.604227 0.270863
0.819196 0.601389 0.270069
0.818936 0.599329 0.269718
0.818814 0.598444 0.269566
0.818692 0.598672 0.269535
0.818753 0.600916 0.269932
0.819303 0.60557 0.271153
0.819883 0.612421 0.272786
0.189364 0.703593 0.298344
0.193378 0.707378 0.296559
0.197711 0.71107 0.294316
0.203525 0.713146 0.280995
0.209155 0.713619 0.265873
0.210147 0.713298 0.262181
0.208377 0.710506 0.259312
0.203647 0.703929 0.25359
0.197192 0.693294 0.245121
0.207782 0.684352 0.229709
0.222446 0.677211 0.215473
0.227512 0.671122 0.208484
0.269017 0.672328 0.194644
0.385916 0.679667 0.178531
0.482795 0.682887 0.181537
0.550896 0.656596 0.178927
0.616876 0.644465 0.192279
0.665537 0.651316 0.210025
0.70103 0.651194 0.224094
0.732204 0.654429 0.239246
0.765332 0.658305 0.256504
0.797955 0.662638 0.274052
0.823606 0.663935 0.287602
0.825254 0.661418 0.287739
0.824811 0.659083 0.287007
0.824735 0.656916 0.28661
0.824292 0.655055 0.286015
0.824125 0.653941 0.285756
0.82414 0.653407 0.285695
0.824292 0.653956 0.285939
0.824842 0.656016 0.286778
0.825025 0.659525 0.287388
0.826535 0.665766 0.289967
0.229465 0.757641 0.342184
0.233127 0.761273 0.341375
0.23743 0.765194 0.339803
0.242985 0.7673 0.32694
0.24799 0.768093 0.312612
0.249821 0.766842 0.303014
0.248753 0.765087 0.300603
0.247303 0.76289 0.298299
0.240833 0.753307 0.290715
0.243687 0.743145 0.277943
0.260716 0.735134 0.260349
0.266316 0.727565 0.250965
0.281346 0.723873 0.241886
0.34757 0.729946 0.225666
0.475593 0.739544 0.218585
0.546944 0.734356 0.219974
0.604318 0.704845 0.216983
0.662547 0.694316 0.22884
0.708583 0.702251 0.246418
0.745434 0.701915 0.261967
0.772763 0.703441 0.275425
0.799893 0.706554 0.289784
0.826123 0.709453 0.304112
0.837064 0.709255 0.309606
0.836423 0.707271 0.308705
0.835874 0.705211 0.307927
0.835401 0.703746 0.307378
0.835035 0.70277 0.307149
0.834836 0.702525 0.307103
0.835019 0.703105 0.30753
0.835477 0.705348 0.3084
0.836622 0.709728 0.310414
0.83827 0.716014 0.313252
0.260761 0.799374 0.378134
0.26125 0.799176 0.374655
0.261952 0.79884 0.370306
0.263996 0.797024 0.355108
0.266529 0.794949 0.338857
0.268284 0.792996 0.324819
0.269825 0.792416 0.324727
0.270024 0.792096 0.322393
0.269566 0.791485 0.321187
0.27216 0.78732 0.315648
0.294301 0.784329 0.301823
0.308919 0.779538 0.289845
0.314992 0.774548 0.284489
0.346578 0.775631 0.274296
0.452186 0.784329 0.256626
0.553384 0.795132 0.262898
0.605356 0.777829 0.258366
0.656001 0.750622 0.258412
0.708186 0.745296 0.2701
0.753689 0.75404 0.287877
0.788876 0.753445 0.302708
0.813397 0.754116 0.314794
0.83331 0.755718 0.325429
0.848646 0.757061 0.333959
0.848798 0.755611 0.333501
0.848157 0.753841 0.332509
0.847776 0.752468 0.331868
0.84744 0.751705 0.331441
0.847227 0.751476 0.331365
0.847654 0.752194 0.332204
0.848096 0.754467 0.333486
0.848966 0.758144 0.335424
0.850492 0.764096 0.338537
0.260395 0.800397 0.384207
0.260639 0.800122 0.381384
0.261433 0.799603 0.376074
0.263706 0.797681 0.359945
0.266377 0.795499 0.343542
0.268116 0.793317 0.329488
0.268711 0.793011 0.327337
0.269337 0.792599 0.324285
0.269261 0.792645 0.324392
0.273625 0.793759 0.324331
0.301579 0.799603 0.318334
0.32755 0.804044 0.311177
0.34049 0.805798 0.310933
0.357855 0.806714 0.307561
0.421744 0.813626 0.293812
0.546685 0.823987 0.285878
0.615015 0.830381 0.29572
0.65684 0.812696 0.295521
0.705135 0.78883 0.298711
0.754253 0.791867 0.312718
0.79588 0.800122 0.328527
0.827573 0.800122 0.342275
0.849729 0.800824 0.353704
0.865553 0.802365 0.363394
0.869474 0.801724 0.365301
0.868544 0.800198 0.364126
0.867826 0.798932 0.363088
0.867323 0.798276 0.362417
0.867262 0.798215 0.36231
0.867979 0.799313 0.36321
0.869383 0.801663 0.365011
0.871229 0.805219 0.36762
0.874357 0.81062 0.372183
0.259937 0.801053 0.388052
0.260502 0.800244 0.381659
0.261357 0.799649 0.376242
0.263416 0.797894 0.361913
0.266026 0.795804 0.345892
0.26807 0.7935 0.330678
0.269276 0.79266 0.324941
0.269551 0.792508 0.324224
0.269612 0.792477 0.323919
0.269429 0.792859 0.326024
0.293568 0.798535 0.323598
0.326101 0.804837 0.316777
0.349905 0.809705 0.314794
0.364309 0.813275 0.316365
0.404456 0.819409 0.31043
0.514397 0.828855 0.294072
0.612482 0.838178 0.30103
0.661723 0.844419 0.317723
0.704128 0.838651 0.32987
0.754131 0.821485 0.33698
0.797803 0.832258 0.353231
0.833768 0.840848 0.369314
0.861692 0.841993 0.382986
0.881285 0.842863 0.394293
0.891051 0.843214 0.399924
0.890608 0.842161 0.39942
0.89044 0.841611 0.399451
0.890318 0.841459 0.399771
0.890272 0.841398 0.400229
0.89041 0.841917 0.401175
0.891569 0.843473 0.403143
0.893477 0.846525 0.405692
0.896452 0.850568 0.40766
0.259724 0.801083 0.39147
0.260121 0.800366 0.384665
0.260517 0.800183 0.382071
0.261921 0.799023 0.371801
0.264088 0.797086 0.357015
0.266789 0.794522 0.338735
0.268757 0.792569 0.325628
0.269123 0.792401 0.324895
0.269352 0.792172 0.323659
0.2692 0.792309 0.3243
0.279179 0.795163 0.326452
0.319799 0.804334 0.32166
0.351186 0.810391 0.316686
0.367651 0.814969 0.320607
0.402136 0.821149 0.318791
0.481315 0.830411 0.31104
0.599115 0.841947 0.315557
0.661738 0.84828 0.326726
0.70515 0.853391 0.340887
0.753933 0.856748 0.361913
0.801999 0.854887 0.376684
0.83743 0.863386 0.391196
0.86595 0.868009 0.404044
0.889357 0.870649 0.417029
0.906813 0.872282 0.422461
0.90811 0.872084 0.422614
0.908217 0.872099 0.422827
0.90811 0.872251 0.423041
0.908034 0.872679 0.423392
0.907942 0.87361 0.423774
0.908156 0.874708 0.424521
0.90837 0.874983 0.425544
0.909041 0.87538 0.427466
0.259937 0.802106 0.397314
0.260273 0.800855 0.386755
0.260533 0.800488 0.383291
0.260899 0.800031 0.379263
0.26244 0.798444 0.366369
0.264607 0.796536 0.351003
0.266896 0.793866 0.33254
0.267918 0.792859 0.324636
0.268193 0.792599 0.322927
0.268162 0.79263 0.323095
0.271687 0.793835 0.325795
0.309377 0.802533 0.322744
0.344839 0.809125 0.316304
0.364599 0.814359 0.320104
0.394369 0.820401 0.320394
0.462821 0.830274 0.317739
0.578653 0.84242 0.320699
0.654246 0.851682 0.338094
0.700755 0.854032 0.341802
0.746777 0.860655 0.36318
0.80029 0.86424 0.386725
0.836789 0.870085 0.400778
0.864973 0.872282 0.410788
0.888457 0.875486 0.424384
0.907088 0.877668 0.434424
0.911376 0.87805 0.435966
0.911376 0.878065 0.436469
0.911223 0.878141 0.437171
0.910887 0.878233 0.437873
0.910353 0.87834 0.4383
0.910002 0.878416 0.438453
0.910002 0.878416 0.438437
0.910338 0.87834 0.438285
0.259968 0.80322 0.405386
0.260487 0.801434 0.391165
0.260746 0.800504 0.383398
0.260731 0.800473 0.382574
0.261509 0.799603 0.375158
0.26334 0.797833 0.360678
0.265736 0.795453 0.343023
0.267796 0.79292 0.325231
0.268025 0.792782 0.324071
0.268162 0.792645 0.32314
0.268757 0.793072 0.325017
0.298817 0.800366 0.324025
0.338643 0.808133 0.317189
0.361349 0.813382 0.319219
0.388006 0.81912 0.320562
0.446815 0.828244 0.318547
0.558633 0.839841 0.317327
0.645426 0.85098 0.336812
0.693172 0.853773 0.340963
0.737926 0.859632 0.358862
0.792676 0.863798 0.384482
0.83154 0.870039 0.399542
0.860471 0.872038 0.409598
0.884245 0.874739 0.421424
0.904295 0.877531 0.433921
0.911513 0.878202 0.43653
0.911452 0.878187 0.436896
0.911223 0.878202 0.437308
0.910826 0.878264 0.437827
0.910246 0.878355 0.438437
0.909865 0.878431 0.438727
0.909667 0.878462 0.438819
0.909865 0.878431 0.438727
0.259831 0.804135 0.413504
0.260471 0.802213 0.397498
0.260777 0.800793 0.385977
0.260853 0.800443 0.382757
0.260975 0.800336 0.38114
0.262257 0.79884 0.369085
0.264439 0.796719 0.352193
0.267384 0.793225 0.327688
0.268345 0.792706 0.325002
0.268544 0.792493 0.323339
0.268284 0.792691 0.324437
0.291157 0.798383 0.32459
0.332067 0.806821 0.318288
0.358587 0.812833 0.318853
0.382971 0.818051 0.3205
0.435233 0.826886 0.319387
0.541863 0.837827 0.315435
0.63772 0.850385 0.336324
0.686381 0.853559 0.34078
0.730358 0.858412 0.355123
0.785138 0.864729 0.38175
0.826154 0.86978 0.397528
0.856077 0.871809 0.407889
0.880568 0.874296 0.418921
0.900969 0.877272 0.432502
0.911543 0.878202 0.436347
0.911543 0.878202 0.436347
0.911376 0.878264 0.436316
0.91104 0.87834 0.436377
0.910521 0.878462 0.4365
0.910155 0.878553 0.436698
0.909941 0.878584 0.436988
0.910048 0.878508 0.437385
0.259083 0.805035 0.420966
0.259892 0.803143 0.404257
0.260533 0.801389 0.390448
0.260868 0.800412 0.382498
0.260838 0.800671 0.383566
0.26157 0.799695 0.375937
0.26363 0.797635 0.359564
0.266514 0.794598 0.337957
0.267994 0.792889 0.325841
0.268467 0.792508 0.323064
0.26836 0.792645 0.323812
0.285359 0.796857 0.32462
0.325856 0.80557 0.319448
0.355795 0.812146 0.318593
0.37937 0.817319 0.320333
0.426154 0.825269 0.319097
0.527352 0.836286 0.314549
0.630686 0.849821 0.335348
0.68098 0.853574 0.341131
0.72459 0.857847 0.352499
0.778241 0.865324 0.37911
0.821042 0.869078 0.395331
0.851743 0.8719 0.40679
0.877226 0.873854 0.416556
0.897688 0.877089 0.4309
0.910933 0.878172 0.436149
0.911543 0.878202 0.436332
0.911391 0.878264 0.43624
0.911086 0.878355 0.436027
0.910628 0.878508 0.435767
0.910307 0.878614 0.435615
0.91014 0.87866 0.435538
0.91014 0.87866 0.435538
0.258412 0.806165 0.42742
0.25919 0.804074 0.409766
0.260166 0.802289 0.395071
0.260746 0.800687 0.383383
0.260838 0.800687 0.3832
0.261112 0.80032 0.380545
0.262715 0.798428 0.366308
0.265461 0.795987 0.347112
0.267842 0.792996 0.326833
0.268513 0.792508 0.323201
0.268482 0.792554 0.32343
0.279438 0.795529 0.325475
0.321202 0.804669 0.3205
0.353582 0.811643 0.318608
0.37702 0.8168 0.320195
0.421546 0.824537 0.319112
0.515206 0.835218 0.314488
0.62446 0.84892 0.332967
0.677012 0.853513 0.341299
0.720729 0.857221 0.350362
0.77322 0.86479 0.376486
0.817441 0.868284 0.39382
0.8486 0.871824 0.40557
0.874083 0.873854 0.414847
0.894194 0.876936 0.429114
0.909422 0.878157 0.43566
0.911406 0.878264 0.436255
0.911315 0.878264 0.436454
0.910979 0.878325 0.436759
0.91043 0.878431 0.43714
0.910018 0.878492 0.437659
0.909758 0.878492 0.4383
0.910033 0.878386 0.438712
0.2589 0.806348 0.433982
0.259266 0.804303 0.416205
0.259754 0.802563 0.40145
0.260166 0.800809 0.387228
0.260304 0.800259 0.383047
0.260166 0.800427 0.384161
