bundles/resolve-cinematic-luts/Phantom Luts/Canon Alexa LUT/ATOMOS Monitoring LUTs/C-Log 3/IceBlue Canon CL3 AML.cube
TITLE "Generated by Resolve"
LUT_3D_SIZE 33
0.0925154 0.103517 0.102358
0.0925612 0.103487 0.102296
0.0981308 0.10312 0.103487
0.130282 0.100938 0.104723
0.189319 0.0982986 0.106294
0.2421 0.0974136 0.10753
0.291203 0.0975357 0.110369
0.340139 0.0978714 0.115053
0.388663 0.0978866 0.123278
0.434318 0.0988785 0.135729
0.475624 0.100389 0.147478
0.510842 0.10428 0.15967
0.542245 0.107591 0.175937
0.571694 0.1122 0.192599
0.599084 0.117876 0.209659
0.625925 0.124681 0.22916
0.653056 0.132692 0.250797
0.678431 0.140581 0.273991
0.694743 0.145937 0.2916
0.697917 0.146532 0.299519
0.699214 0.146517 0.305364
0.700557 0.146639 0.310842
0.701839 0.146807 0.315953
0.702724 0.14696 0.320851
0.703624 0.147066 0.324941
0.704402 0.147173 0.328603
0.705043 0.14728 0.331456
0.705562 0.147265 0.33489
0.705989 0.147234 0.337758
0.706386 0.146975 0.342763
0.70663 0.146593 0.348165
0.706783 0.145876 0.356695
0.706889 0.145144 0.36527
0.0926223 0.103426 0.102159
0.0925917 0.103456 0.10222
0.0926223 0.103426 0.102159
0.110552 0.103014 0.102922
0.158862 0.100618 0.104311
0.213977 0.098558 0.104936
0.26392 0.0973373 0.104677
0.315297 0.097261 0.104875
0.365225 0.097322 0.104723
0.413336 0.0987869 0.109667
0.456641 0.100587 0.117586
0.492638 0.103334 0.127825
0.525277 0.106218 0.146258
0.55668 0.110658 0.165911
0.586206 0.116152 0.184375
0.614328 0.122942 0.203281
0.642878 0.131075 0.22565
0.670527 0.139544 0.251179
0.688533 0.144961 0.271183
0.692683 0.146029 0.280156
0.694789 0.146334 0.287175
0.696178 0.14638 0.293263
0.697704 0.146517 0.298665
0.698802 0.146517 0.303426
0.699794 0.146548 0.307927
0.700679 0.146639 0.311559
0.701488 0.146731 0.314931
0.702144 0.146777 0.318074
0.702586 0.146761 0.32137
0.703059 0.146563 0.326085
0.703487 0.146212 0.331273
0.704021 0.145464 0.339788
0.704402 0.144671 0.348516
0.0926223 0.103441 0.10219
0.092546 0.103502 0.102296
0.092546 0.103487 0.102296
0.094789 0.104585 0.102907
0.125887 0.106126 0.103838
0.174853 0.105226 0.103883
0.229007 0.104158 0.103334
0.283375 0.102968 0.102556
0.339025 0.10164 0.100908
0.390921 0.0993668 0.0993515
0.437079 0.0994583 0.100786
0.475837 0.101244 0.106584
0.508415 0.104723 0.118379
0.540169 0.108888 0.13904
0.568978 0.113832 0.156451
0.59675 0.119768 0.17554
0.625986 0.127535 0.19736
0.654444 0.136019 0.220905
0.675532 0.142306 0.242496
0.682704 0.14432 0.253788
0.685924 0.144732 0.261753
0.688823 0.145251 0.269383
0.691447 0.145769 0.276341
0.693233 0.146075 0.281956
0.694759 0.146288 0.28719
0.695766 0.146349 0.291615
0.696635 0.146365 0.295094
0.69752 0.146395 0.298848
0.698192 0.146334 0.302068
0.698817 0.146014 0.306798
0.699489 0.145602 0.312016
0.700313 0.144808 0.320623
0.701015 0.143969 0.329564
0.0907912 0.118181 0.107408
0.0923629 0.111498 0.103944
0.094377 0.107836 0.10341
0.094377 0.105486 0.103243
0.101167 0.107439 0.104387
0.138109 0.111666 0.105409
0.187518 0.112947 0.104204
0.244572 0.11284 0.101961
0.306477 0.111543 0.100633
0.367666 0.108385 0.100252
0.420951 0.104936 0.0996109
0.46424 0.102953 0.100008
0.496773 0.103212 0.104707
0.527642 0.1075 0.118257
0.558038 0.112535 0.139101
0.584878 0.117952 0.15697
0.611612 0.124376 0.1776
0.641062 0.13257 0.202152
0.662806 0.13933 0.219379
0.669566 0.141161 0.227695
0.673762 0.141878 0.236118
0.677913 0.14287 0.244556
0.681544 0.143771 0.252308
0.684276 0.144091 0.25893
0.686793 0.144564 0.265049
0.688701 0.144823 0.270405
0.690471 0.14522 0.275151
0.691859 0.145434 0.279194
0.692836 0.145571 0.282399
0.693797 0.14548 0.286641
0.694713 0.145205 0.29163
0.695796 0.144518 0.300298
0.69688 0.143694 0.309468
0.0905165 0.158907 0.115801
0.0910353 0.152514 0.111208
0.0962387 0.142611 0.109361
0.102007 0.135348 0.10985
0.111818 0.128557 0.108034
0.130968 0.132738 0.108659
0.17055 0.13727 0.108492
0.2215 0.137194 0.105898
0.278172 0.134035 0.102129
0.338781 0.126833 0.0990921
0.399268 0.119326 0.0985428
0.453254 0.113497 0.100359
0.492302 0.109285 0.103166
0.519829 0.107408 0.107958
0.548394 0.111269 0.122621
0.577279 0.11696 0.145174
0.604257 0.123278 0.165072
0.63064 0.130098 0.188083
0.658259 0.13817 0.212375
0.664988 0.140276 0.217746
0.665965 0.140459 0.219837
0.667857 0.140887 0.223819
0.669566 0.141131 0.227451
0.672465 0.141649 0.232914
0.675441 0.142275 0.239307
0.678492 0.142931 0.245487
0.680949 0.143496 0.25069
0.682734 0.143938 0.25481
0.684016 0.144015 0.258106
0.685359 0.143938 0.262272
0.686763 0.143771 0.267613
0.688518 0.143099 0.276371
0.690013 0.14229 0.286122
0.0904555 0.215625 0.1196
0.0903182 0.210056 0.113756
0.0906386 0.19913 0.112352
0.100343 0.187915 0.111299
0.117556 0.175937 0.110292
0.14638 0.168841 0.107027
0.175692 0.172274 0.106615
0.219455 0.176425 0.106416
0.274693 0.172961 0.105058
0.332525 0.166201 0.102129
0.388174 0.155291 0.099443
0.44065 0.144244 0.0990005
0.487449 0.130495 0.101061
0.520668 0.118486 0.108522
0.542687 0.112032 0.113436
0.568551 0.115023 0.130373
0.596857 0.121706 0.154116
0.623667 0.128878 0.175525
0.649744 0.136004 0.201434
0.664103 0.1402 0.215091
0.664485 0.140261 0.21593
0.664729 0.140291 0.216663
0.664958 0.140322 0.217288
0.66598 0.14052 0.219104
0.667506 0.140871 0.222217
0.66865 0.141054 0.224842
0.669886 0.141253 0.227375
0.670924 0.141421 0.229572
0.672511 0.141695 0.232441
0.674037 0.141756 0.236622
0.675669 0.141634 0.241657
0.67808 0.141039 0.250538
0.680507 0.140352 0.259693
0.0891127 0.26479 0.121416
0.0889906 0.260471 0.115236
0.0887312 0.252262 0.112032
0.0941329 0.24033 0.112749
0.107317 0.23064 0.111543
0.141924 0.217395 0.109148
0.186007 0.21207 0.105333
0.222889 0.212634 0.10515
0.268574 0.21619 0.1028
0.330343 0.212818 0.101671
0.393256 0.203357 0.102464
0.442527 0.193912 0.100359
0.487953 0.182727 0.100267
0.52549 0.163668 0.104158
0.552178 0.142596 0.11107
0.568002 0.122774 0.121218
0.588205 0.119677 0.139574
0.616678 0.127489 0.163973
0.642267 0.134524 0.188159
0.660014 0.139452 0.206943
0.662867 0.140139 0.210941
0.663417 0.140185 0.212604
0.663722 0.140185 0.213794
0.66392 0.1402 0.214389
0.664088 0.140215 0.214893
0.664271 0.14023 0.215442
0.664622 0.140291 0.216266
0.665034 0.140383 0.216999
0.665919 0.140581 0.218402
0.666865 0.140612 0.22063
0.667918 0.140597 0.224033
0.669551 0.140108 0.229419
0.670848 0.139559 0.234318
0.0877852 0.313252 0.124514
0.0874952 0.310369 0.116167
0.0875715 0.304204 0.112978
0.090486 0.293736 0.112306
0.10013 0.283604 0.111467
0.118776 0.274128 0.110674
0.1682 0.262715 0.106401
0.22591 0.257099 0.102831
0.270253 0.255528 0.103182
0.320836 0.258488 0.100786
0.384298 0.25687 0.0991226
0.44538 0.247456 0.10219
0.495766 0.234913 0.10486
0.534676 0.224079 0.10695
0.565957 0.209857 0.113298
0.590387 0.188663 0.122164
0.602411 0.153918 0.129778
0.610773 0.129213 0.145708
0.634226 0.132998 0.173251
0.657465 0.139376 0.197864
0.661234 0.140337 0.202853
0.661509 0.140276 0.204471
0.661646 0.140185 0.205844
0.661723 0.140124 0.206806
0.661738 0.140078 0.207507
0.661906 0.140047 0.208347
0.662272 0.140078 0.209445
0.662593 0.140108 0.210254
0.662898 0.140154 0.210864
0.663279 0.140063 0.212238
0.663722 0.139803 0.214252
0.664561 0.139284 0.217899
0.665461 0.138628 0.221805
0.086717 0.362112 0.129305
0.0863813 0.361578 0.117052
0.0860609 0.357351 0.112108
0.0855573 0.348852 0.111864
0.0924697 0.339132 0.111162
0.103441 0.331456 0.10985
0.135515 0.321782 0.1075
0.198337 0.311528 0.103014
0.267384 0.304616 0.099443
0.321569 0.301808 0.100542
0.374975 0.304814 0.10042
0.433936 0.305684 0.0991684
0.491981 0.296727 0.103426
0.542855 0.282185 0.111345
0.579919 0.270329 0.11989
0.607507 0.258518 0.128283
0.628672 0.239872 0.137392
0.644251 0.211414 0.147356
0.647913 0.162158 0.159197
0.652186 0.138949 0.175891
0.661982 0.141527 0.190906
0.661463 0.141024 0.194903
0.662028 0.140917 0.198703
0.661707 0.140795 0.199191
0.661463 0.140658 0.19968
0.661311 0.140536 0.200229
0.66128 0.140444 0.200977
0.661357 0.140383 0.201785
0.661463 0.140337 0.202487
0.661738 0.140185 0.203555
0.66212 0.139925 0.205386
0.662837 0.139437 0.20853
0.663859 0.138918 0.211917
0.0866407 0.410193 0.139544
0.0864729 0.411322 0.120699
0.086305 0.410056 0.113878
0.0862745 0.403418 0.113298
0.0883192 0.393362 0.112108
0.0975662 0.384955 0.109682
0.107973 0.3785 0.108537
0.155596 0.370138 0.104143
0.233402 0.361349 0.0989853
0.313558 0.354131 0.0968948
0.374365 0.350637 0.0988022
0.426581 0.353445 0.100847
0.480766 0.356863 0.102205
0.535241 0.350805 0.106813
0.58439 0.337972 0.12134
0.623682 0.32166 0.137881
0.64921 0.310063 0.147814
0.668711 0.294026 0.157534
0.683421 0.268879 0.167651
0.690547 0.228504 0.177157
0.686107 0.182971 0.185229
0.676555 0.163607 0.183108
0.668528 0.1505 0.181979
0.664881 0.144793 0.183093
0.662303 0.140963 0.185885
0.662165 0.140246 0.189334
0.663127 0.141176 0.192905
0.66302 0.140917 0.195254
0.663081 0.140719 0.196918
0.663172 0.140627 0.197528
0.663249 0.140566 0.198001
0.663935 0.140871 0.198032
0.665217 0.141512 0.197604
0.0881819 0.457115 0.155642
0.0886702 0.458854 0.130892
0.0890364 0.458686 0.121706
0.0886549 0.454673 0.119387
0.0876326 0.446387 0.117952
0.0925765 0.437522 0.114946
0.103426 0.430442 0.111727
0.119097 0.424201 0.109224
0.185458 0.418875 0.101961
0.275074 0.41004 0.0965133
0.363439 0.401953 0.095964
0.426749 0.399496 0.0997635
0.476081 0.402258 0.103777
0.525567 0.40708 0.108385
0.575982 0.404944 0.118425
0.623011 0.394568 0.137072
0.66244 0.379248 0.156756
0.693675 0.363241 0.174578
0.710475 0.350072 0.182757
0.723507 0.328206 0.191546
0.728099 0.297261 0.196979
0.72195 0.276081 0.194842
0.71426 0.257359 0.190982
0.707759 0.241047 0.18854
0.702464 0.226673 0.187503
0.697658 0.213916 0.186435
0.69395 0.200656 0.187762
0.689616 0.191226 0.185931
0.687633 0.183856 0.186847
0.684108 0.177142 0.184146
0.682368 0.174548 0.182498
0.686061 0.181842 0.185138
0.692531 0.196063 0.188815
0.0930495 0.502403 0.17496
0.0943923 0.503899 0.154162
0.0957504 0.504265 0.138399
0.0957198 0.502098 0.133364
0.094667 0.496834 0.131258
0.094789 0.489479 0.127611
0.103395 0.482322 0.120256
0.112764 0.475731 0.115282
0.137972 0.470314 0.109056
0.222858 0.467384 0.100694
0.325322 0.458076 0.0958419
0.415183 0.450538 0.0980697
0.476905 0.448096 0.103838
0.522316 0.450614 0.111849
0.567727 0.455619 0.122805
0.615763 0.457359 0.138262
0.659571 0.4495 0.156863
0.699413 0.4365 0.178561
0.732586 0.420279 0.200092
0.754269 0.403128 0.21619
0.762127 0.386801 0.218723
0.759319 0.372534 0.21651
0.754971 0.361288 0.213443
0.750515 0.349783 0.210498
0.746426 0.338949 0.208194
0.74255 0.329351 0.2056
0.739315 0.320974 0.203815
0.737362 0.315694 0.202777
0.735393 0.311833 0.201389
0.734783 0.310704 0.2009
0.735714 0.312505 0.201541
0.738689 0.318624 0.203876
0.743755 0.32871 0.208042
0.102052 0.545373 0.198642
0.104067 0.547234 0.183047
0.106249 0.547662 0.163684
0.107286 0.546532 0.152865
0.106294 0.543938 0.151263
0.104265 0.537789 0.148577
0.105409 0.530938 0.143145
0.118517 0.525139 0.132021
0.130877 0.519265 0.123934
0.170214 0.516243 0.112917
0.276036 0.515267 0.101869
0.378347 0.505714 0.0986801
0.464393 0.497169 0.105135
0.523705 0.495796 0.116976
0.565667 0.497215 0.128588
0.609033 0.502525 0.143572
0.653132 0.506554 0.161303
0.694682 0.502617 0.179782
0.733623 0.492317 0.201999
0.765209 0.477668 0.222843
0.789487 0.459129 0.242695
0.796735 0.444053 0.250233
0.793698 0.435233 0.247837
0.790005 0.428016 0.24445
0.786206 0.421759 0.240482
0.782605 0.416648 0.23711
0.779599 0.412863 0.233875
0.777279 0.409613 0.231479
0.775753 0.40766 0.230152
0.775128 0.407218 0.229465
0.776104 0.408881 0.230259
0.779202 0.41387 0.233112
0.783917 0.421897 0.238087
0.11545 0.588083 0.22652
0.117845 0.590356 0.217639
0.121065 0.590997 0.196567
0.12372 0.590234 0.179156
0.123369 0.588663 0.17586
0.121706 0.584772 0.17377
0.11989 0.578241 0.169116
0.127611 0.572396 0.15906
0.144045 0.567422 0.146456
0.159167 0.56286 0.137835
0.217639 0.561547 0.122637
0.337118 0.562829 0.111894
0.432181 0.552529 0.112001
0.512245 0.542473 0.123003
0.568933 0.543023 0.138827
0.608331 0.54403 0.152407
0.64863 0.548669 0.168948
0.688563 0.55346 0.187213
0.729717 0.555123 0.207141
0.764752 0.547402 0.226276
0.792645 0.53492 0.243534
0.810437 0.520546 0.256474
0.810452 0.513024 0.256535
0.809705 0.506386 0.256321
0.808682 0.500053 0.255772
0.808148 0.494911 0.255695
0.807416 0.490227 0.255421
0.807019 0.487007 0.25539
0.806577 0.484794 0.255131
0.806485 0.484565 0.255085
0.806928 0.48777 0.255283
0.807553 0.493339 0.255451
0.80856 0.502068 0.256123
0.134249 0.631525 0.256992
0.13695 0.634012 0.251423
0.140871 0.63595 0.236393
0.14548 0.63476 0.211963
0.146685 0.633463 0.203494
0.145693 0.631556 0.202365
0.142016 0.625422 0.199023
0.141283 0.61915 0.193027
0.158465 0.614176 0.1776
0.178531 0.609674 0.164233
0.197436 0.606577 0.154681
0.276204 0.608881 0.138903
0.400412 0.611231 0.13286
0.484825 0.598398 0.134905
0.559106 0.587243 0.147723
0.612894 0.589548 0.166094
0.648997 0.589914 0.17998
0.685313 0.594446 0.196429
0.723964 0.599939 0.215824
0.759441 0.603265 0.233539
0.790768 0.600473 0.249683
0.815305 0.590204 0.263798
0.81973 0.583062 0.265675
0.819303 0.578058 0.264942
0.818769 0.573373 0.264225
0.818387 0.56939 0.263798
0.817441 0.565667 0.262791
0.817166 0.563195 0.262501
0.817349 0.562097 0.262638
0.817212 0.562539 0.262516
0.817304 0.564904 0.262638
0.81828 0.570474 0.263905
0.818906 0.578302 0.265019
0.160586 0.677653 0.292073
0.163806 0.680751 0.287922
0.167926 0.683116 0.279118
0.173495 0.682918 0.256855
0.177554 0.681605 0.239414
0.177096 0.680156 0.236484
0.175525 0.677607 0.234195
0.170993 0.669612 0.228382
0.179217 0.662837 0.215473
0.204013 0.65832 0.19855
0.215228 0.652659 0.188235
0.245121 0.651804 0.177523
0.345998 0.657694 0.161547
0.463142 0.660945 0.162646
0.537163 0.643412 0.165072
0.605371 0.631418 0.178973
0.655482 0.636179 0.197192
0.690059 0.6365 0.211307
0.722957 0.640528 0.227283
0.757366 0.644907 0.244526
0.786618 0.648157 0.259663
0.81268 0.648005 0.273136
0.82681 0.644862 0.279805
0.826337 0.64126 0.278798
0.825727 0.637552 0.277806
0.825208 0.634226 0.277028
0.824781 0.631647 0.276402
0.824552 0.629679 0.276127
0.824399 0.628992 0.27599
0.82443 0.629297 0.276097
0.824491 0.631342 0.276448
0.825055 0.635981 0.277668
0.825574 0.642344 0.279255
0.191562 0.722744 0.329366
0.194705 0.725338 0.326497
0.19855 0.728374 0.321782
0.204013 0.728725 0.300618
0.209705 0.727611 0.27776
0.210559 0.726909 0.27277
0.209613 0.724651 0.269337
0.205539 0.718914 0.263416
0.201907 0.710613 0.256229
0.227939 0.706661 0.238102
0.249226 0.702205 0.22388
0.259937 0.698497 0.218036
0.310567 0.700847 0.203754
0.435615 0.708644 0.192386
0.525673 0.711177 0.199176
0.58851 0.687648 0.19884
0.650721 0.676768 0.21326
0.697185 0.682765 0.231022
0.731395 0.682765 0.245457
0.758999 0.685588 0.258747
0.786542 0.688716 0.272862
0.812711 0.691508 0.287053
0.832227 0.691875 0.29723
0.833127 0.689311 0.296895
0.832395 0.686885 0.295659
0.831968 0.684749 0.294987
0.831968 0.68336 0.294881
0.831769 0.682246 0.294682
0.831708 0.681697 0.294606
0.831876 0.682216 0.29482
0.832135 0.68397 0.295262
0.832807 0.68751 0.296529
0.834119 0.693187 0.299001
0.221973 0.763516 0.364584
0.224994 0.766262 0.362203
0.228031 0.768582 0.357565
0.232761 0.769299 0.338735
0.237888 0.768978 0.318166
0.240238 0.76759 0.304631
0.239643 0.766064 0.301946
0.23801 0.763607 0.299199
0.233707 0.756222 0.292439
0.248936 0.751247 0.279622
0.278141 0.747311 0.261234
0.290364 0.743008 0.25333
0.310979 0.741482 0.245655
0.38819 0.747631 0.230198
0.515068 0.756634 0.228763
0.583047 0.753079 0.234165
0.638498 0.730159 0.236057
0.694514 0.722316 0.249866
0.737926 0.728862 0.266423
0.770413 0.728405 0.279881
0.79263 0.729564 0.290852
0.814755 0.73196 0.302983
0.835416 0.733837 0.314443
0.843687 0.733196 0.318502
0.843168 0.731334 0.317617
0.842649 0.729625 0.316732
0.842435 0.728481 0.316487
0.842115 0.727459 0.316228
0.842008 0.727123 0.316213
0.842008 0.727596 0.316365
0.842329 0.729412 0.317067
0.843336 0.733303 0.319036
0.84448 0.738582 0.321462
0.245792 0.795575 0.393347
0.247089 0.796353 0.390127
0.248829 0.797452 0.386084
0.251377 0.796185 0.367437
0.253727 0.793545 0.345235
0.256413 0.790967 0.325109
0.257603 0.790219 0.324254
0.256855 0.78851 0.319921
0.255268 0.786328 0.317327
0.264317 0.783932 0.310857
0.300145 0.784573 0.29546
0.323323 0.781598 0.282811
0.333089 0.779217 0.279973
0.372915 0.781628 0.270253
0.486381 0.789685 0.255283
0.583566 0.799054 0.2654
0.636057 0.787045 0.267277
0.686656 0.76788 0.275425
0.736934 0.763836 0.287053
0.776287 0.770123 0.301167
0.805066 0.769711 0.313634
0.82504 0.770596 0.324102
0.840696 0.771649 0.332753
0.85214 0.772503 0.33933
0.852247 0.771282 0.338903
0.851774 0.770031 0.338094
0.851377 0.768795 0.337316
0.851209 0.768002 0.336904
0.851179 0.767834 0.336828
0.851362 0.768521 0.337148
0.851896 0.770535 0.338354
0.852644 0.773388 0.340139
0.853864 0.778149 0.342947
0.248585 0.800748 0.403281
0.248875 0.800397 0.399817
0.249439 0.799649 0.393469
0.251438 0.797253 0.373129
0.253758 0.794202 0.350713
0.256214 0.791638 0.331548
0.256947 0.79118 0.328481
0.257527 0.790417 0.323751
0.257389 0.790448 0.323888
0.264546 0.792111 0.32314
0.306096 0.80061 0.314626
0.339315 0.804379 0.303868
0.354742 0.806363 0.304799
0.377188 0.808606 0.302617
0.448829 0.814832 0.287907
0.574029 0.823163 0.282277
0.640421 0.828473 0.294743
0.682612 0.81442 0.301488
0.73196 0.798688 0.313069
0.776349 0.800702 0.324636
0.810056 0.806058 0.334813
0.835203 0.806012 0.345907
0.852598 0.806867 0.355978
0.864378 0.807706 0.363897
0.867597 0.807218 0.365621
0.867002 0.806027 0.364706
0.866773 0.805432 0.364324
0.866545 0.804929 0.363882
0.866499 0.804852 0.36379
0.866819 0.80557 0.364309
0.867597 0.807157 0.365316
0.869673 0.810346 0.368322
0.871138 0.814084 0.37145
0.248478 0.801282 0.407813
0.248859 0.800412 0.399847
0.249454 0.799619 0.393164
0.251331 0.797528 0.375128
0.253452 0.794705 0.354055
0.256107 0.791745 0.332647
0.257527 0.790524 0.324529
0.25774 0.790295 0.323522
0.257801 0.790219 0.32311
0.256382 0.790539 0.326284
0.29514 0.799329 0.321874
0.338109 0.80798 0.314229
0.366934 0.813443 0.311589
0.383856 0.817838 0.315435
0.428412 0.824048 0.309651
0.542397 0.832425 0.294026
0.638712 0.84094 0.30248
0.686473 0.846494 0.322408
0.726802 0.835599 0.334676
0.775509 0.824155 0.348241
0.811292 0.831098 0.358206
0.839429 0.83682 0.3691
0.860899 0.837934 0.380468
0.875608 0.838636 0.389914
0.883146 0.839063 0.394659
0.882994 0.838132 0.394278
0.882811 0.837552 0.394171
0.882826 0.837415 0.394659
0.882841 0.837369 0.395209
0.883101 0.837873 0.396216
0.884047 0.839353 0.397925
0.885603 0.841947 0.399741
0.887877 0.844907 0.400656
0.248402 0.801358 0.411139
0.248631 0.800641 0.403342
0.248936 0.800381 0.400122
0.250004 0.798932 0.387594
0.251865 0.796307 0.367742
0.254368 0.793027 0.343282
0.257023 0.790417 0.325246
0.257328 0.790173 0.324239
0.257572 0.789853 0.322606
0.25742 0.790005 0.323293
0.273579 0.794308 0.325414
0.329076 0.806943 0.320058
0.368032 0.814298 0.314565
0.387182 0.81973 0.320012
0.424979 0.826581 0.320531
0.505714 0.835706 0.314885
0.623468 0.847013 0.322713
0.686 0.852781 0.334218
0.728527 0.857832 0.350698
0.773419 0.851423 0.36762
0.814755 0.849332 0.381094
0.842847 0.856046 0.391546
0.86511 0.860853 0.401495
0.883177 0.863203 0.412268
0.896712 0.866209 0.415122
0.897993 0.866163 0.415213
0.898039 0.866026 0.415106
0.897856 0.865934 0.415061
0.897673 0.866148 0.415061
0.897612 0.866773 0.415106
0.89778 0.867552 0.415549
0.898253 0.868376 0.417136
0.899443 0.870207 0.420752
0.248768 0.802487 0.418173
0.248936 0.801129 0.406119
0.248951 0.800748 0.402014
0.249195 0.800122 0.396948
0.25037 0.798215 0.381048
0.252064 0.795483 0.360586
0.254673 0.792203 0.33521
0.256138 0.790692 0.323964
0.256413 0.790311 0.321721
0.256367 0.790341 0.32192
0.262043 0.792294 0.325017
0.316228 0.8047 0.321202
0.360525 0.813001 0.314412
0.383734 0.819013 0.319677
0.417227 0.825376 0.320775
0.485359 0.835477 0.322332
0.601083 0.847684 0.328801
0.677134 0.857603 0.349279
0.723842 0.858991 0.351904
0.768231 0.862654 0.373495
0.812985 0.857954 0.392233
0.843015 0.864668 0.403723
0.865858 0.870863 0.413199
0.884596 0.875868 0.425986
0.899199 0.877729 0.433829
0.903548 0.878569 0.435691
0.903563 0.878676 0.436194
0.903395 0.878874 0.436942
0.903059 0.879103 0.43772
0.902464 0.87921 0.438117
0.902098 0.879316 0.438254
0.902098 0.879316 0.438254
0.902464 0.87921 0.438117
0.249058 0.803845 0.428183
0.248981 0.801633 0.411292
0.249104 0.800732 0.402213
0.249088 0.800702 0.401129
0.249561 0.799527 0.391897
0.251164 0.797314 0.373297
0.253223 0.794034 0.349187
0.256062 0.790799 0.324712
0.256214 0.790585 0.323339
0.256367 0.790372 0.322057
0.256352 0.79086 0.324636
0.301488 0.801358 0.322911
0.352804 0.811597 0.315221
0.380087 0.818006 0.318517
0.410803 0.824491 0.321111
0.470054 0.83389 0.323018
0.581857 0.845228 0.32488
0.667933 0.85684 0.347555
0.71664 0.859052 0.351553
0.760388 0.863432 0.370443
0.806836 0.858061 0.390677
0.838102 0.864118 0.402243
0.862333 0.870451 0.412451
0.8813 0.875486 0.423667
0.896757 0.877974 0.434043
0.903746 0.879042 0.436469
0.9037 0.879011 0.436835
0.903471 0.879042 0.437278
0.903059 0.879103 0.437736
0.902464 0.879225 0.438132
0.902098 0.879301 0.4383
0.90193 0.879347 0.438209
0.902129 0.879332 0.43798
0.248981 0.80499 0.437675
0.24892 0.80264 0.418631
0.249134 0.801114 0.405173
0.249104 0.800717 0.401282
0.24921 0.800534 0.39939
0.250248 0.798642 0.384146
0.252018 0.795712 0.362051
0.255634 0.791379 0.328588
0.256489 0.79057 0.324331
0.256657 0.790234 0.322179
0.256413 0.790509 0.323476
0.290364 0.798688 0.323217
0.344732 0.809903 0.316075
0.376761 0.817136 0.317754
0.405203 0.82324 0.320699
0.458351 0.832166 0.32282
0.565301 0.843198 0.322316
0.660502 0.856489 0.347158
0.709743 0.859281 0.352041
0.753445 0.863935 0.367575
0.800046 0.859251 0.387793
0.833371 0.86305 0.399985
0.858595 0.869764 0.410971
0.878218 0.874769 0.421088
0.894469 0.877791 0.433234
0.903777 0.879042 0.436301
0.903777 0.879042 0.436301
0.903609 0.879103 0.436194
0.903273 0.87921 0.435981
0.90277 0.879362 0.435752
0.902449 0.879469 0.435599
0.902281 0.87953 0.435523
0.902434 0.879484 0.435599
0.248219 0.806149 0.445945
0.248463 0.803906 0.42652
0.248722 0.801709 0.410269
0.249058 0.800687 0.400763
0.249134 0.800946 0.402564
0.249638 0.799634 0.39266
0.251377 0.797192 0.372595
0.253941 0.793271 0.34342
0.256229 0.790829 0.325658
0.256687 0.790188 0.321859
0.256535 0.790356 0.322881
0.282765 0.796704 0.323186
0.337209 0.808652 0.317708
0.373602 0.81648 0.317418
0.400641 0.822232 0.320211
0.449577 0.831006 0.322667
0.550683 0.841718 0.320928
0.653117 0.855741 0.345953
0.704219 0.859281 0.352499
0.74757 0.863294 0.36463
0.794079 0.860334 0.385428
0.829511 0.86244 0.398688
0.854826 0.868955 0.409323
0.875257 0.874311 0.418936
0.891554 0.877394 0.431724
0.903014 0.87895 0.436042
0.903761 0.879057 0.436286
0.903609 0.879103 0.436194
0.903273 0.87921 0.435966
0.90277 0.879362 0.435737
0.902449 0.879469 0.435584
0.902281 0.87953 0.435492
0.902281 0.87953 0.435492
0.248463 0.807233 0.453407
0.248325 0.804761 0.433631
0.248676 0.802579 0.416114
0.249119 0.800931 0.402274
0.249165 0.800931 0.402121
0.249332 0.800458 0.398917
0.250584 0.79823 0.381216
0.252872 0.794797 0.355138
0.256107 0.790997 0.327031
0.256718 0.790204 0.322148
0.256687 0.790249 0.322408
0.273457 0.794553 0.324331
0.330251 0.807324 0.318761
0.371038 0.815747 0.317098
0.397894 0.821698 0.31989
0.444907 0.830091 0.322255
0.538674 0.840467 0.3205
0.64683 0.854612 0.343267
0.700389 0.859174 0.352636
0.743709 0.862577 0.362142
0.790219 0.861219 0.383505
0.826749 0.861891 0.397665
0.852155 0.868315 0.408118
0.872938 0.874342 0.417578
0.888808 0.877302 0.430274
0.901015 0.87895 0.435355
0.903273 0.87921 0.435966
0.903227 0.87921 0.43621
0.902922 0.879255 0.436515
0.902403 0.879347 0.436835
0.902052 0.879423 0.437201
0.901839 0.879438 0.43772
0.902144 0.879316 0.438071
0.249378 0.807675 0.460395
0.248646 0.805142 0.440726
0.248585 0.803067 0.423239
0.248676 0.801114 0.406912
