bundles/resolve-cinematic-luts/Phantom Luts/Canon Alexa LUT/ATOMOS Monitoring LUTs/C-Log 3/Jamaica Canon CL3-Legacy AML.cube
TITLE "Generated by Resolve"
LUT_3D_SIZE 5
0.0927443 0.1028 0.092668
0.36994 0.10045 0.106874
0.648295 0.141649 0.242374
0.684932 0.158663 0.317617
0.688563 0.158709 0.336507
0.0832074 0.369802 0.112367
0.246189 0.278752 0.0939193
0.627619 0.221073 0.129625
0.638788 0.154345 0.18883
0.637598 0.153109 0.190341
0.304082 0.804273 0.388983
0.301213 0.772549 0.312963
0.66247 0.685435 0.210697
0.843061 0.683558 0.323857
0.840284 0.665507 0.316182
0.398657 0.901091 0.525795
0.389548 0.893629 0.426429
0.671565 0.93669 0.447578
0.930678 0.92108 0.500282
0.937728 0.922057 0.507027
0.407782 0.90869 0.570901
0.398184 0.89337 0.43621
0.610544 0.936736 0.450202
0.917815 0.918715 0.491814
0.937713 0.922118 0.505638
0.0861372 0.105852 0.251011
0.347936 0.099794 0.342473
0.676005 0.13962 0.427207
0.701549 0.163653 0.474205
0.699672 0.164034 0.488014
0.0906386 0.258457 0.239765
0.201129 0.234745 0.196063
0.624323 0.123278 0.207904
0.681666 0.158907 0.304021
0.686381 0.158862 0.325338
0.199725 0.740398 0.446387
0.238697 0.746166 0.333028
0.635462 0.65745 0.185809
0.838209 0.634302 0.306615
0.832471 0.604868 0.295842
0.391272 0.904204 0.647776
0.390219 0.899992 0.519371
0.568307 0.936706 0.466835
0.920287 0.919631 0.493797
0.937728 0.922042 0.507134
0.396521 0.905592 0.67425
0.390295 0.901915 0.555734
0.515679 0.921813 0.458198
0.901732 0.916793 0.48246
0.937713 0.922621 0.505364
0.0902571 0.115129 0.53315
0.344793 0.110689 0.601068
0.61117 0.146288 0.611185
0.654017 0.17464 0.646937
0.650034 0.176303 0.654917
0.085832 0.192874 0.485084
0.106844 0.112581 0.514351
0.588403 0.124102 0.588006
0.67483 0.166567 0.587472
0.672267 0.167361 0.594522
0.145388 0.611795 0.59263
0.132769 0.597101 0.5635
0.582513 0.596307 0.542916
0.934966 0.519905 0.54316
0.928344 0.481987 0.534493
0.386755 0.882521 0.758114
0.391348 0.897398 0.730663
0.392599 0.899168 0.505287
0.90515 0.915953 0.484123
0.937758 0.917449 0.50428
0.384787 0.876234 0.76466
0.390799 0.894835 0.739376
0.390082 0.90045 0.532723
0.853635 0.918013 0.461204
0.937728 0.922362 0.506065
0.112734 0.157855 0.598917
0.329564 0.159213 0.686702
0.574975 0.16672 0.687709
0.639628 0.180743 0.693553
0.638071 0.181399 0.691798
0.113558 0.213458 0.621866
0.11664 0.157916 0.601328
0.514977 0.164752 0.694499
0.63975 0.180728 0.693965
0.638911 0.181048 0.692439
0.178134 0.532341 0.710445
0.170871 0.494072 0.708492
0.431601 0.454612 0.81355
0.840864 0.386526 0.869917
0.804685 0.348821 0.833204
0.365408 0.828046 0.837491
0.357671 0.824384 0.823789
0.334722 0.807004 0.785412
0.849744 0.873671 0.824018
0.929992 0.849058 0.832639
0.374228 0.826719 0.847288
0.364523 0.828885 0.835828
0.369238 0.851865 0.796857
0.78114 0.936751 0.818967
0.929976 0.924575 0.86125
0.133898 0.156802 0.610544
0.343771 0.15993 0.689998
0.589899 0.171176 0.689754
0.639643 0.180728 0.693553
0.639643 0.180728 0.693568
0.115053 0.212726 0.622324
0.136584 0.156893 0.611841
0.519631 0.164767 0.693828
0.639689 0.180728 0.693706
0.639612 0.180728 0.693477
0.196307 0.508186 0.73373
0.181567 0.469703 0.720455
0.396002 0.405646 0.811154
0.781415 0.334005 0.822934
0.739956 0.294911 0.781155
0.367102 0.825025 0.853635
0.357916 0.813077 0.84651
0.330846 0.772931 0.827146
0.81062 0.823941 0.90753
0.918502 0.804959 0.925948
0.373404 0.833097 0.858244
0.372808 0.833509 0.857588
0.372946 0.833677 0.857633
0.71899 0.920226 0.926635
0.928512 0.922866 0.927901
