bundles/resolve-cinematic-luts/Phantom Luts/Canon Alexa LUT/ATOMOS Monitoring LUTs/C-Log 3/Jamaica Canon CL3-Legacy AML.cube
TITLE "Generated by Resolve"
LUT_3D_SIZE 9
0.0927443 0.1028 0.092668
0.18761 0.101381 0.0946059
0.36994 0.10045 0.106874
0.553201 0.106645 0.15671
0.648295 0.141649 0.242374
0.67982 0.158801 0.295445
0.684932 0.158663 0.317617
0.687678 0.158694 0.330739
0.688563 0.158709 0.336507
0.0863661 0.174456 0.0958267
0.117632 0.132219 0.0904707
0.250568 0.132113 0.0930037
0.483085 0.111681 0.0908827
0.603693 0.124697 0.153826
0.637781 0.149294 0.199557
0.641199 0.150668 0.205295
0.651972 0.154635 0.223407
0.656657 0.156191 0.23212
0.0832074 0.369802 0.112367
0.0882734 0.327825 0.0950332
0.246189 0.278752 0.0939193
0.470771 0.27129 0.100694
0.627619 0.221073 0.129625
0.639261 0.156985 0.180331
0.638788 0.154345 0.18883
0.638163 0.153521 0.18999
0.637598 0.153109 0.190341
0.1234 0.600137 0.189715
0.124529 0.590341 0.151568
0.146685 0.557397 0.127153
0.458595 0.488899 0.107042
0.654169 0.49456 0.147784
0.786068 0.438529 0.252689
0.773938 0.395163 0.251621
0.758434 0.374029 0.238605
0.748043 0.359258 0.230503
0.304082 0.804273 0.388983
0.32076 0.805676 0.345846
0.301213 0.772549 0.312963
0.400229 0.767956 0.244404
0.66247 0.685435 0.210697
0.793317 0.688975 0.2869
0.843061 0.683558 0.323857
0.841505 0.672526 0.319219
0.840284 0.665507 0.316182
0.397833 0.899077 0.504112
0.389334 0.893935 0.426917
0.390463 0.894392 0.431632
0.496284 0.91696 0.459449
0.722637 0.91693 0.421439
0.841413 0.867002 0.421057
0.90457 0.869566 0.457389
0.901335 0.862776 0.451911
0.898222 0.857771 0.448112
0.398657 0.901091 0.525795
0.391165 0.896819 0.473579
0.389548 0.893629 0.426429
0.480995 0.912154 0.450584
0.671565 0.93669 0.447578
0.839506 0.915862 0.453971
0.930678 0.92108 0.500282
0.937728 0.921904 0.505928
0.937728 0.922057 0.507027
0.407614 0.9066 0.557778
0.395804 0.898909 0.502251
0.390631 0.893095 0.428199
0.460533 0.906493 0.442695
0.628214 0.936828 0.449058
0.821561 0.918379 0.449042
0.92108 0.919463 0.494041
0.937728 0.921508 0.50605
0.937713 0.922194 0.506035
0.407782 0.90869 0.570901
0.401984 0.900008 0.505486
0.398184 0.89337 0.43621
0.447471 0.903838 0.440894
0.610544 0.936736 0.450202
0.814282 0.91809 0.446159
0.917815 0.918715 0.491814
0.937713 0.921523 0.505882
0.937713 0.922118 0.505638
0.0907454 0.104448 0.127871
0.177554 0.102464 0.173327
0.381842 0.0990463 0.232471
0.573877 0.103029 0.282261
0.66952 0.138354 0.337575
0.694987 0.159136 0.379644
0.697673 0.15993 0.402869
0.699092 0.16051 0.4168
0.699123 0.16083 0.422263
0.092607 0.123384 0.117876
0.0921187 0.106645 0.0932937
0.284245 0.101472 0.102296
0.513344 0.10454 0.144396
0.635828 0.131014 0.224109
0.67805 0.158984 0.291402
0.683436 0.158846 0.313985
0.686458 0.158862 0.327214
0.687465 0.158831 0.333242
0.0858473 0.30428 0.182757
0.0818799 0.302739 0.10634
0.216922 0.252949 0.0932631
0.482444 0.211109 0.10219
0.598383 0.141573 0.123064
0.641154 0.15079 0.205066
0.642664 0.151003 0.208347
0.647898 0.152926 0.217578
0.651835 0.154269 0.224628
0.104234 0.562173 0.251255
0.107927 0.565042 0.169223
0.112398 0.543114 0.127962
0.433631 0.47039 0.103822
0.659495 0.458717 0.144839
0.763241 0.382193 0.241917
0.736706 0.339895 0.22295
0.720623 0.310811 0.213336
0.710643 0.293355 0.207675
0.251957 0.776562 0.411841
0.272099 0.774166 0.35903
0.29099 0.773037 0.320607
0.320714 0.750164 0.25098
0.648997 0.670817 0.19762
0.793072 0.670695 0.279454
0.840589 0.659815 0.314855
0.839353 0.646281 0.310292
0.83769 0.638285 0.307134
0.392187 0.90277 0.566232
0.390494 0.898604 0.496071
0.389761 0.894667 0.435996
0.468513 0.907561 0.445655
0.701762 0.919005 0.420844
0.828138 0.854597 0.406043
0.895491 0.852735 0.442817
0.891005 0.844388 0.435676
0.887633 0.839551 0.431495
0.392737 0.904555 0.599405
0.390311 0.899947 0.519829
0.391012 0.897032 0.475761
0.423438 0.899962 0.440528
0.619944 0.936843 0.45771
0.823178 0.918685 0.449744
0.925078 0.920546 0.496971
0.937728 0.921904 0.506035
0.937728 0.922011 0.507134
0.399268 0.908248 0.624643
0.3906 0.901091 0.543572
0.391211 0.897887 0.496178
0.401556 0.895308 0.432334
0.564431 0.935683 0.459998
0.801038 0.917967 0.441749
0.913893 0.917784 0.489433
0.937728 0.921492 0.506081
0.937728 0.922393 0.505882
0.399451 0.908492 0.633478
0.390234 0.902098 0.556359
0.395789 0.898772 0.499962
0.395865 0.894209 0.430167
0.55169 0.931716 0.459098
0.793545 0.918624 0.439857
0.909758 0.91722 0.486732
0.937728 0.921523 0.505898
0.937713 0.92253 0.505409
0.0861372 0.105852 0.251011
0.193484 0.103304 0.28304
0.347936 0.099794 0.342473
0.563729 0.101869 0.412299
0.676005 0.13962 0.427207
0.701549 0.162509 0.455467
0.701549 0.163653 0.474205
0.700862 0.163973 0.48484
0.699672 0.164034 0.488014
0.0900587 0.123323 0.180652
0.0904707 0.105852 0.216266
0.278904 0.100862 0.269703
0.538827 0.100816 0.301793
0.660365 0.127337 0.336431
0.694713 0.159014 0.377737
0.697353 0.159838 0.399786
0.698695 0.160296 0.413062
0.699031 0.160647 0.418311
0.0906386 0.258457 0.239765
0.0899825 0.240208 0.215412
0.201129 0.234745 0.196063
0.504021 0.165942 0.177661
0.624323 0.123278 0.207904
0.675731 0.158938 0.281056
0.681666 0.158907 0.304021
0.6851 0.158846 0.318761
0.686381 0.158862 0.325338
0.0968795 0.510307 0.317678
0.0939345 0.515602 0.255421
0.0965744 0.526543 0.161852
0.408789 0.452079 0.103761
0.670649 0.405325 0.154757
0.730404 0.32108 0.223209
0.701595 0.270939 0.205859
0.683146 0.236942 0.196216
0.673472 0.220005 0.190723
0.199725 0.740398 0.446387
0.215869 0.746578 0.387671
0.238697 0.746166 0.333028
0.275639 0.730465 0.247974
0.635462 0.65745 0.185809
0.792782 0.651453 0.272358
0.838209 0.634302 0.306615
0.835248 0.615503 0.300084
0.832471 0.604868 0.295842
0.388525 0.903441 0.617853
0.388174 0.902434 0.563989
0.390372 0.899123 0.501884
0.414786 0.897642 0.435737
0.671687 0.92488 0.425422
0.816754 0.843198 0.392584
0.886931 0.837064 0.429038
0.880919 0.826352 0.419638
0.876967 0.820188 0.414054
0.391272 0.904204 0.647776
0.387396 0.903258 0.590112
0.390219 0.899992 0.519371
0.390204 0.893874 0.428809
0.568307 0.936706 0.466835
0.808087 0.918746 0.444556
0.920287 0.919631 0.493797
0.937728 0.921904 0.506081
0.937728 0.922042 0.507134
0.396185 0.90576 0.667506
0.386969 0.903517 0.60798
0.389487 0.900862 0.541787
0.39086 0.893446 0.433021
0.528145 0.926345 0.460929
0.784909 0.919799 0.438224
0.907423 0.917052 0.485557
0.937728 0.92137 0.506157
0.937728 0.92224 0.505928
0.396521 0.905592 0.67425
0.387198 0.903685 0.618189
0.390295 0.901915 0.555734
0.391455 0.894392 0.445655
0.515679 0.921813 0.458198
0.777691 0.920623 0.436912
0.901732 0.916793 0.48246
0.937728 0.921523 0.505898
0.937713 0.922621 0.505364
0.0848707 0.107301 0.411994
0.203311 0.104143 0.440253
0.344289 0.102495 0.47744
0.522438 0.103395 0.52668
0.652949 0.138735 0.529229
0.686778 0.16347 0.544274
0.682155 0.164279 0.558755
0.679744 0.16466 0.566857
0.678203 0.165072 0.568566
0.0859236 0.132906 0.345434
0.0908522 0.106447 0.388525
0.255894 0.103487 0.437034
0.49189 0.10071 0.490105
0.651377 0.127977 0.493324
0.698589 0.163729 0.499565
0.695277 0.163622 0.513695
0.693156 0.163516 0.522271
0.691905 0.1635 0.524483
0.0898451 0.224247 0.34818
0.0881971 0.193225 0.355947
0.144671 0.161822 0.39469
0.464256 0.113283 0.445411
0.648157 0.117617 0.426062
0.700847 0.161135 0.436362
0.701808 0.162371 0.453696
0.701717 0.162722 0.463783
0.701625 0.162951 0.467658
0.0954452 0.443122 0.413947
0.0932937 0.429877 0.392767
0.0922255 0.416724 0.367254
0.394446 0.423941 0.364569
0.700008 0.358343 0.349065
0.781918 0.277058 0.365087
0.741695 0.226535 0.350698
0.717891 0.196033 0.340627
0.703029 0.177005 0.334035
0.160266 0.680842 0.515694
0.156497 0.683909 0.479805
0.15729 0.690318 0.433066
0.211704 0.724025 0.321675
0.614008 0.64007 0.230076
0.839323 0.618036 0.3084
0.875257 0.575265 0.334356
0.86833 0.549661 0.327749
0.863783 0.535653 0.323659
0.366445 0.882582 0.667506
0.370611 0.888838 0.639612
0.379156 0.896773 0.604486
0.390478 0.899184 0.506233
0.565515 0.924407 0.441062
0.798093 0.824079 0.369314
0.873579 0.80911 0.405341
0.86891 0.795438 0.39469
0.866361 0.788357 0.388998
0.392782 0.900175 0.70576
0.387396 0.901961 0.672374
0.386419 0.903181 0.63212
0.39028 0.899931 0.518288
0.507942 0.921233 0.462531
0.781003 0.920928 0.438209
0.91284 0.91812 0.489281
0.937713 0.92134 0.505623
0.937606 0.920668 0.50573
0.396536 0.900359 0.717296
0.387991 0.901381 0.683589
0.386587 0.902892 0.646418
0.389715 0.900649 0.537804
0.470359 0.909407 0.451041
0.758175 0.925734 0.436728
0.894438 0.916533 0.478614
0.937728 0.921111 0.506401
0.937728 0.922072 0.506157
0.397147 0.899794 0.722835
0.388464 0.90103 0.690562
0.386755 0.902663 0.654688
0.388907 0.901152 0.550088
0.457328 0.906111 0.445884
0.745708 0.927764 0.436133
0.885145 0.916747 0.474205
0.937713 0.921492 0.50544
0.937713 0.922515 0.505486
0.0902571 0.115129 0.53315
0.210132 0.110048 0.567041
0.344793 0.110689 0.601068
0.491096 0.113436 0.616419
0.61117 0.146288 0.611185
0.660197 0.171817 0.633448
0.654017 0.17464 0.646937
0.652384 0.175494 0.654383
0.650034 0.176303 0.654917
0.0840314 0.145388 0.507897
0.0965438 0.112032 0.52491
0.247776 0.109209 0.569223
0.456092 0.110567 0.60737
0.599359 0.134813 0.600549
0.668849 0.168795 0.608164
0.663783 0.170718 0.619699
0.661433 0.171405 0.626123
0.659937 0.171817 0.627039
0.085832 0.192874 0.485084
0.084123 0.157382 0.492973
0.106844 0.112581 0.514351
0.394202 0.10811 0.588251
0.588403 0.124102 0.588006
0.677989 0.165377 0.577066
0.67483 0.166567 0.587472
0.673259 0.167178 0.593225
0.672267 0.167361 0.594522
0.0955367 0.398123 0.52987
0.0928817 0.369924 0.529717
0.0918441 0.33611 0.533913
0.305776 0.3187 0.568856
0.65655 0.261402 0.624125
0.711528 0.178256 0.526619
0.696239 0.164172 0.518563
0.695247 0.163699 0.519936
0.694942 0.163531 0.51928
0.145388 0.611795 0.59263
0.138186 0.60473 0.577127
0.132769 0.597101 0.5635
0.132982 0.589517 0.538369
0.582513 0.596307 0.542916
0.877684 0.559091 0.546685
0.934966 0.519905 0.54316
0.931624 0.49546 0.538003
0.928344 0.481987 0.534493
0.305013 0.812039 0.693278
0.299748 0.812161 0.675303
0.295323 0.812909 0.657298
0.296071 0.822293 0.616373
0.465537 0.930861 0.571466
0.766232 0.806714 0.461265
0.925444 0.783337 0.494789
0.927138 0.76289 0.492149
0.927428 0.751385 0.490211
0.386755 0.882521 0.758114
0.38854 0.891264 0.744686
0.391348 0.897398 0.730663
0.388312 0.901061 0.688624
0.392599 0.899168 0.505287
0.729793 0.936797 0.446357
0.90515 0.915953 0.484123
0.93756 0.919249 0.505409
0.937758 0.917449 0.50428
0.384955 0.87866 0.76228
0.387533 0.888777 0.749859
0.391363 0.896345 0.735637
0.388708 0.900603 0.69485
0.390372 0.900191 0.527352
0.656809 0.936843 0.454459
0.872831 0.917128 0.468864
0.937713 0.921355 0.505714
0.937713 0.922087 0.506905
0.384787 0.876234 0.76466
0.386099 0.886168 0.753002
0.390799 0.894835 0.739376
0.388998 0.900236 0.699519
0.390082 0.90045 0.532723
0.624155 0.936843 0.456764
0.853635 0.918013 0.461204
0.930755 0.921004 0.500267
0.937728 0.922362 0.506065
0.103273 0.143404 0.588052
0.21117 0.132921 0.631968
0.329671 0.136522 0.667628
0.457771 0.144533 0.679805
0.571481 0.160311 0.671229
0.641337 0.180575 0.69221
0.638331 0.181338 0.692317
0.639231 0.180957 0.693462
0.637522 0.181613 0.691249
0.0951553 0.163745 0.588296
0.106508 0.136049 0.585733
0.23827 0.129915 0.637827
0.420691 0.137896 0.675914
0.548211 0.150729 0.663325
0.644587 0.179614 0.684871
0.640665 0.180926 0.690669
0.638483 0.181628 0.69189
0.636866 0.18201 0.690074
0.0926986 0.189014 0.582086
0.0925612 0.162982 0.581735
0.110048 0.130266 0.58265
0.358465 0.130098 0.66392
0.527947 0.142458 0.658473
0.64863 0.177691 0.673136
0.646372 0.178988 0.6804
0.644465 0.17966 0.682979
0.643198 0.180011 0.683391
0.106279 0.354238 0.617426
0.105486 0.326802 0.619471
0.105074 0.290806 0.621225
0.224231 0.244022 0.665202
0.550134 0.207309 0.730617
0.648661 0.17116 0.644114
0.657465 0.173205 0.643839
0.656565 0.173648 0.646494
0.655772 0.173831 0.646983
0.157824 0.576059 0.662516
0.15108 0.559976 0.659022
0.146136 0.541131 0.658656
0.137591 0.495933 0.661082
0.514778 0.523812 0.715908
0.843381 0.479896 0.784268
0.920699 0.427115 0.777584
0.907179 0.402472 0.768612
0.898268 0.389288 0.760571
0.272267 0.742657 0.731853
0.261784 0.736126 0.719158
0.252064 0.728771 0.708827
0.235889 0.717372 0.690394
0.342092 0.758907 0.700008
0.733028 0.746914 0.694209
0.93492 0.720531 0.706493
0.937194 0.702937 0.699214
0.936477 0.694255 0.694377
0.36968 0.851102 0.798001
0.370611 0.857053 0.788067
0.372229 0.862058 0.780316
0.37792 0.872312 0.768566
0.384451 0.890517 0.728267
0.663127 0.936828 0.717662
0.88191 0.913283 0.660533
0.937606 0.904356 0.667018
0.937667 0.896437 0.663188
0.371588 0.84535 0.804623
0.36936 0.853361 0.793439
0.371649 0.859602 0.784756
0.377081 0.871046 0.769924
0.390265 0.89572 0.732677
0.552331 0.936797 0.674434
0.850919 0.936751 0.616556
0.937743 0.934173 0.637903
0.937758 0.934234 0.627771
0.372366 0.842405 0.807126
0.368978 0.851102 0.797696
0.370687 0.857328 0.787686
0.376074 0.869352 0.771893
0.390143 0.895064 0.734951
0.505501 0.936751 0.665644
0.82501 0.936767 0.608499
0.935805 0.935378 0.611688
0.937819 0.93579 0.605035
0.112734 0.157855 0.598917
0.219791 0.155871 0.65069
0.329564 0.159213 0.686702
0.456275 0.164813 0.701152
0.574975 0.16672 0.687709
0.639643 0.180728 0.693553
0.639628 0.180743 0.693553
0.63946 0.18085 0.693553
0.638071 0.181399 0.691798
0.106157 0.177264 0.603876
0.117922 0.15758 0.60177
0.236622 0.156542 0.657618
0.411688 0.162524 0.699657
0.545571 0.164446 0.689189
0.639673 0.180728 0.693675
0.639673 0.180743 0.69369
0.638178 0.181353 0.691859
0.637568 0.181552 0.691081
0.113558 0.213458 0.621866
0.106798 0.180789 0.605417
0.11664 0.157916 0.601328
0.34374 0.159869 0.689921
0.514977 0.164752 0.694499
0.639704 0.180728 0.693797
0.63975 0.180728 0.693965
0.639429 0.18085 0.693523
0.638911 0.181048 0.692439
0.127581 0.332937 0.661494
0.127398 0.304295 0.657099
0.125689 0.270985 0.6477
0.179934 0.214633 0.66302
0.467597 0.189273 0.727489
0.616129 0.176211 0.691691
0.639948 0.180728 0.694377
0.639948 0.180728 0.694362
0.639719 0.180743 0.693599
0.178134 0.532341 0.710445
0.173754 0.512581 0.709041
0.170871 0.494072 0.708492
0.167117 0.45304 0.706981
0.431601 0.454612 0.81355
0.754101 0.435233 0.895384
0.840864 0.386526 0.869917
0.818921 0.362966 0.847868
0.804685 0.348821 0.833204
0.27776 0.715023 0.769543
0.270161 0.705592 0.763851
0.262852 0.695186 0.759045
0.251667 0.675929 0.753841
0.274357 0.664164 0.789075
0.684077 0.692714 0.833921
0.922133 0.665202 0.887083
0.932403 0.643412 0.887846
0.931212 0.633433 0.885573
0.365408 0.828046 0.837491
0.362127 0.828275 0.830671
0.357671 0.824384 0.823789
0.351003 0.81857 0.811627
0.334722 0.807004 0.785412
0.599954 0.884306 0.827543
0.849744 0.873671 0.824018
0.931334 0.857618 0.838148
0.929992 0.849058 0.832639
0.372457 0.82649 0.843305
0.36492 0.828779 0.837919
0.363668 0.829435 0.832227
0.364385 0.835492 0.821286
0.369345 0.851774 0.79733
0.462623 0.936767 0.813169
0.812497 0.936736 0.82855
0.926253 0.924315 0.840635
0.9337 0.924514 0.843565
0.374228 0.826719 0.847288
0.365942 0.828504 0.84181
0.364523 0.828885 0.835828
0.364096 0.834043 0.823392
0.369238 0.851865 0.796857
0.435782 0.922454 0.796735
0.78114 0.936751 0.818967
0.910842 0.926909 0.803937
0.929976 0.924575 0.86125
0.126711 0.156985 0.606546
0.234958 0.156497 0.656962
0.338643 0.159579 0.688792
0.462745 0.164675 0.700511
0.585199 0.17023 0.68954
0.639643 0.180728 0.693553
0.639643 0.180728 0.693553
0.639612 0.180743 0.693568
0.639673 0.180743 0.693721
0.104891 0.172946 0.601312
0.132204 0.156786 0.609491
0.24593 0.156603 0.661006
0.417533 0.162951 0.700221
0.550744 0.164401 0.688533
0.639643 0.180728 0.693584
0.639643 0.180728 0.693614
0.639567 0.180774 0.693492
0.637858 0.181476 0.691478
0.115511 0.214313 0.623163
0.105562 0.175662 0.602914
0.129183 0.157031 0.60798
0.349538 0.159762 0.690791
0.518044 0.164782 0.694057
0.639643 0.180728 0.693599
0.639689 0.180728 0.693706
0.639673 0.180728 0.693675
0.639078 0.180957 0.69276
0.141711 0.323827 0.672038
0.133211 0.28864 0.657649
0.123644 0.247532 0.639323
0.163485 0.17818 0.63679
0.448661 0.168307 0.705409
0.614267 0.17586 0.691356
0.639765 0.180728 0.693767
0.63975 0.180728 0.693767
0.639673 0.180743 0.693523
0.195514 0.515465 0.732052
0.190921 0.498054 0.728862
0.185168 0.47953 0.723842
0.170535 0.43566 0.709712
0.406027 0.423453 0.816678
0.723064 0.404166 0.895903
0.803845 0.355383 0.845991
0.777417 0.330205 0.818982
0.763561 0.317205 0.804791
0.286 0.70489 0.793317
0.277119 0.689296 0.78822
0.269703 0.674556 0.784741
0.257694 0.647044 0.779568
0.266468 0.621088 0.801007
0.636484 0.650858 0.880888
0.886213 0.638636 0.93138
0.911757 0.615351 0.937743
0.908339 0.605402 0.935943
0.366964 0.825055 0.85185
0.362173 0.820218 0.846876
0.357656 0.814359 0.84271
0.348653 0.801892 0.835248
0.33341 0.780041 0.823728
0.527199 0.82269 0.886656
0.82945 0.84239 0.898054
0.924773 0.830289 0.920714
0.924056 0.819852 0.919387
0.373907 0.832715 0.858946
0.372671 0.833295 0.85742
0.371817 0.832441 0.855894
0.369558 0.830335 0.851209
0.366506 0.828992 0.84303
0.400824 0.851514 0.847974
0.796292 0.926253 0.908385
0.917174 0.920455 0.90837
0.927977 0.917144 0.912825
0.380438 0.830991 0.857435
0.372839 0.833478 0.857618
0.372702 0.833387 0.857466
0.370245 0.830884 0.852689
0.366079 0.828916 0.84181
0.387472 0.846799 0.836027
0.762158 0.935912 0.905394
0.907546 0.924544 0.906981
0.929046 0.92253 0.922011
0.133898 0.156802 0.610544
0.242374 0.156405 0.659739
0.343771 0.15993 0.689998
0.465751 0.164736 0.700313
0.589899 0.171176 0.689754
0.639643 0.180728 0.693553
0.639643 0.180728 0.693553
0.639643 0.180728 0.693553
0.639643 0.180728 0.693568
0.104616 0.170825 0.600259
0.139849 0.156771 0.613596
0.252186 0.156878 0.663432
0.420798 0.163165 0.700465
0.553689 0.164401 0.68809
0.639643 0.180728 0.693614
0.639643 0.180728 0.693614
0.639643 0.180728 0.693584
0.639155 0.180926 0.692851
0.115053 0.212726 0.622324
0.104814 0.172992 0.601282
0.136584 0.156893 0.611841
0.35288 0.159792 0.691371
0.519631 0.164767 0.693828
0.639643 0.180728 0.693553
0.639689 0.180728 0.693706
0.639673 0.180728 0.693675
0.639612 0.180728 0.693477
0.13875 0.310079 0.666789
0.130068 0.274662 0.651698
0.119509 0.2309 0.631434
0.155093 0.161425 0.62414
0.446937 0.164904 0.701778
0.613947 0.175769 0.691295
0.639765 0.180728 0.693767
0.639765 0.180728 0.693767
0.639673 0.180743 0.693523
0.196307 0.508186 0.73373
0.188907 0.489906 0.727108
0.181567 0.469703 0.720455
0.167041 0.423331 0.705974
0.396002 0.405646 0.811154
0.709041 0.383703 0.887343
0.781415 0.334005 0.822934
0.755734 0.309926 0.796933
0.739956 0.294911 0.781155
0.284718 0.696391 0.797421
0.275639 0.68069 0.791684
0.267613 0.665583 0.786648
0.252903 0.63653 0.777005
0.259174 0.60676 0.795209
0.627207 0.63653 0.879759
0.878248 0.62414 0.930663
0.90811 0.599039 0.936461
0.906874 0.587823 0.936492
0.367102 0.825025 0.853635
0.362951 0.820096 0.85008
0.357916 0.813077 0.84651
0.348592 0.799527 0.839719
0.330846 0.772931 0.827146
0.500221 0.800443 0.893614
0.81062 0.823941 0.90753
0.918502 0.816678 0.92575
0.918502 0.804959 0.925948
0.374609 0.832181 0.860243
0.374197 0.832517 0.859541
0.374166 0.832532 0.859495
0.374166 0.832532 0.859495
0.37435 0.832776 0.859632
0.379995 0.835081 0.861128
0.773281 0.909926 0.92845
0.913634 0.914336 0.924712
0.927062 0.911192 0.927291
0.373404 0.833097 0.858244
0.372839 0.833478 0.857618
0.372808 0.833509 0.857588
0.372808 0.833509 0.857588
0.372946 0.833677 0.857633
0.376059 0.83772 0.858946
0.71899 0.920226 0.926635
0.910109 0.923873 0.925414
0.928512 0.922866 0.927901
