bundles/resolve-cinematic-luts/Phantom Luts/Canon Alexa LUT/ATOMOS Monitoring LUTs/C-Log 3/Jamaica Canon CL3-Legacy AML.cube
TITLE "Generated by Resolve"
LUT_3D_SIZE 33
0.0927443 0.1028 0.092668
0.0927443 0.1028 0.092668
0.0973831 0.102724 0.0926833
0.139635 0.102342 0.0937057
0.18761 0.101381 0.0946059
0.228779 0.101183 0.0960708
0.270451 0.101305 0.0982528
0.318547 0.100801 0.10164
0.36994 0.10045 0.106874
0.420874 0.100725 0.117342
0.469657 0.102464 0.128374
0.513832 0.104463 0.138949
0.553201 0.106645 0.15671
0.586633 0.110933 0.174685
0.611963 0.117449 0.19411
0.630991 0.127565 0.216587
0.648295 0.141649 0.242374
0.669352 0.156069 0.269535
0.67541 0.158526 0.280995
0.677882 0.15877 0.288731
0.67982 0.158801 0.295445
0.68127 0.15877 0.301869
0.682658 0.158663 0.308019
0.683894 0.158694 0.313191
0.684932 0.158663 0.317617
0.685756 0.158663 0.321523
0.686564 0.158663 0.325246
0.68716 0.158679 0.328252
0.687678 0.158694 0.330739
0.688045 0.158709 0.332769
0.68835 0.158694 0.33463
0.688487 0.158694 0.335882
0.688563 0.158709 0.336507
0.0927443 0.1028 0.092668
0.0927443 0.1028 0.092668
0.0927443 0.1028 0.092668
0.11046 0.103227 0.092668
0.150408 0.103014 0.0927901
0.19617 0.102647 0.09308
0.238911 0.102296 0.0927749
0.283711 0.101823 0.092256
0.336492 0.100999 0.0920577
0.3906 0.101854 0.0946975
0.441001 0.102251 0.0992447
0.486381 0.103014 0.105074
0.527413 0.10547 0.123079
0.563684 0.109148 0.140002
0.59295 0.115099 0.158206
0.613825 0.123735 0.179385
0.632456 0.137255 0.205768
0.654505 0.152636 0.236225
0.665904 0.157946 0.252399
0.668147 0.158114 0.258778
0.670588 0.158312 0.265415
0.673014 0.158511 0.272297
0.675181 0.15877 0.279301
0.677211 0.158892 0.285847
0.678889 0.158968 0.291569
0.679973 0.158892 0.295689
0.680903 0.158846 0.299702
0.68159 0.158846 0.302922
0.682185 0.15877 0.305699
0.682658 0.158785 0.30779
0.68304 0.158831 0.309255
0.683223 0.158816 0.310521
0.683253 0.158785 0.311147
0.0916457 0.107485 0.0935531
0.0923934 0.104906 0.0924544
0.09308 0.104097 0.0926528
0.0948653 0.103655 0.0926986
0.120272 0.105303 0.0927749
0.160052 0.106386 0.0924849
0.202731 0.106538 0.091371
0.249302 0.106264 0.0901961
0.302113 0.105303 0.0890822
0.360906 0.103471 0.0892042
0.416419 0.102281 0.0903639
0.468132 0.101991 0.0942245
0.511574 0.104189 0.102159
0.545846 0.10782 0.113024
0.573663 0.111925 0.131685
0.59588 0.118578 0.14934
0.615137 0.129335 0.173571
0.633158 0.143908 0.198505
0.647425 0.152483 0.217273
0.652766 0.15433 0.226337
0.657969 0.155917 0.235782
0.662364 0.157366 0.244404
0.665675 0.158129 0.251255
0.667567 0.158221 0.25658
0.669245 0.158221 0.261402
0.670802 0.158373 0.265858
0.672221 0.158511 0.26978
0.673564 0.158618 0.273625
0.67454 0.158709 0.277302
0.675364 0.158801 0.280064
0.676097 0.158877 0.282307
0.676524 0.158923 0.284031
0.676677 0.158953 0.284855
0.0878614 0.125338 0.0945449
0.0896162 0.118578 0.0913863
0.0939193 0.112413 0.0921645
0.09514 0.109178 0.092195
0.104265 0.108736 0.0929885
0.136431 0.1122 0.0932479
0.174548 0.114839 0.0928664
0.219669 0.115053 0.092668
0.270817 0.114641 0.0912642
0.328435 0.111101 0.0895399
0.390921 0.108186 0.0885023
0.450004 0.105501 0.0903792
0.498711 0.104738 0.094316
0.536904 0.106874 0.102831
0.567041 0.11162 0.118502
0.590982 0.117525 0.141955
0.606546 0.125551 0.159274
0.625284 0.138552 0.187167
0.637385 0.148836 0.199496
0.637186 0.148882 0.198901
0.640787 0.150347 0.204959
0.645441 0.152087 0.212543
0.649805 0.15378 0.220218
0.653635 0.15491 0.227253
0.657282 0.156024 0.233585
0.660517 0.157092 0.239551
0.663035 0.15787 0.244709
0.664836 0.158267 0.248402
0.665873 0.158312 0.251179
0.666743 0.158404 0.2533
0.667292 0.158404 0.2551
0.667597 0.158419 0.256565
0.66772 0.158419 0.257404
0.0863661 0.174456 0.0958267
0.0864729 0.16791 0.0902419
0.0895094 0.155383 0.0905623
0.0972915 0.14464 0.0905318
0.117632 0.132219 0.0904707
0.140978 0.134478 0.0929274
0.16849 0.138659 0.0943313
0.207324 0.136721 0.0948806
0.250568 0.132113 0.0930037
0.30312 0.124392 0.0921798
0.365469 0.120333 0.0908064
0.428031 0.117632 0.0905776
0.483085 0.111681 0.0908827
0.527352 0.106294 0.0941787
0.559426 0.110628 0.107652
0.58378 0.116686 0.128588
0.603693 0.124697 0.153826
0.618036 0.134997 0.174136
0.640543 0.150134 0.204959
0.640269 0.150317 0.203891
0.637781 0.149294 0.199557
0.636545 0.148836 0.197467
0.636133 0.148684 0.19675
0.638331 0.149584 0.200259
0.641199 0.150668 0.205295
0.644404 0.151843 0.210544
0.647227 0.153002 0.215625
0.64976 0.153979 0.219608
0.651972 0.154635 0.223407
0.653391 0.155047 0.226215
0.654765 0.155489 0.228748
0.656062 0.155932 0.231006
0.656657 0.156191 0.23212
0.0842603 0.21619 0.0969863
0.084123 0.209567 0.0903487
0.0849928 0.196597 0.0905776
0.0941329 0.184726 0.0900893
0.113008 0.173587 0.0883955
0.151308 0.166461 0.090135
0.172152 0.167239 0.0920424
0.204639 0.169375 0.0948806
0.251759 0.167819 0.0951553
0.305669 0.163577 0.0959487
0.359228 0.158038 0.0943465
0.414664 0.146288 0.0943008
0.468025 0.12697 0.0926528
0.518227 0.119722 0.0955978
0.552941 0.116365 0.0991989
0.576104 0.115618 0.114519
0.596643 0.123232 0.140734
0.613519 0.133959 0.165133
0.630823 0.1449 0.191119
0.640909 0.150881 0.204166
0.641382 0.150958 0.205112
0.640833 0.150744 0.204303
0.639658 0.150271 0.202609
0.638712 0.149813 0.200778
0.637812 0.149416 0.19939
0.637034 0.149126 0.198077
0.636347 0.148852 0.196979
0.636469 0.148898 0.197086
0.637461 0.149355 0.198642
0.63827 0.149645 0.199985
0.639185 0.150088 0.201511
0.639979 0.150484 0.203006
0.640574 0.150729 0.203967
0.0829938 0.25922 0.0989242
0.0826734 0.253559 0.092668
0.0833753 0.241138 0.0922408
0.0897993 0.228504 0.0914626
0.0999466 0.220508 0.0907301
0.140658 0.206989 0.0897841
0.178149 0.200061 0.0931716
0.206973 0.199619 0.0949111
0.24477 0.201617 0.0936904
0.298344 0.199725 0.0946517
0.363409 0.191058 0.0966506
0.41857 0.181033 0.0973831
0.470558 0.171695 0.0978256
0.516411 0.162631 0.099794
0.553368 0.139803 0.102556
0.572763 0.119631 0.107134
0.58584 0.119753 0.122972
0.606561 0.131685 0.152712
0.623529 0.143496 0.176303
0.63743 0.150683 0.195834
0.63859 0.150713 0.198474
0.639368 0.150622 0.20087
0.63978 0.150622 0.202167
0.640238 0.150759 0.202884
0.640665 0.150881 0.203616
0.640635 0.150805 0.203693
0.640421 0.150683 0.203418
0.640146 0.150561 0.203067
0.639811 0.150423 0.202686
0.639521 0.150286 0.202182
0.63917 0.150164 0.201373
0.638804 0.150011 0.200732
0.638773 0.150027 0.200702
0.0827344 0.309407 0.103731
0.082414 0.30576 0.0946822
0.082414 0.294667 0.0944076
0.084062 0.279774 0.0933547
0.0944381 0.269871 0.0923018
0.113268 0.259037 0.0908217
0.165469 0.244526 0.0896162
0.210239 0.236118 0.0936141
0.24538 0.234592 0.0957046
0.289281 0.237308 0.0965133
0.352911 0.236255 0.0948501
0.417853 0.227237 0.0986343
0.479149 0.214466 0.102037
0.522515 0.20618 0.103578
0.5626 0.192691 0.108965
0.590097 0.180224 0.113527
0.604044 0.156695 0.122286
0.59617 0.133669 0.129641
0.617014 0.141375 0.164828
0.637171 0.15288 0.189425
0.6374 0.152789 0.190219
0.637095 0.152392 0.190631
0.636835 0.151919 0.191318
0.636561 0.151415 0.191882
0.636347 0.151003 0.19237
0.636576 0.15079 0.193439
0.637186 0.150729 0.195102
0.63772 0.150713 0.196292
0.638086 0.150729 0.197192
0.638468 0.150729 0.198154
0.638758 0.150683 0.198978
0.638956 0.150668 0.199588
0.639002 0.150652 0.199817
0.0832074 0.369802 0.112367
0.0823987 0.368795 0.0983139
0.0818189 0.35967 0.0986038
0.0800488 0.342214 0.0966812
0.0882734 0.327825 0.0950332
0.0978866 0.318746 0.0942245
0.137545 0.305379 0.0903944
0.191516 0.290379 0.0896925
0.246189 0.278752 0.0939193
0.289601 0.27686 0.0963607
0.342733 0.279805 0.0979629
0.40647 0.280751 0.0990005
0.470771 0.27129 0.100694
0.529778 0.256352 0.10695
0.575097 0.24126 0.114778
0.605051 0.233524 0.119783
0.627619 0.221073 0.129625
0.634363 0.2009 0.139757
0.630426 0.177157 0.154742
0.629877 0.153979 0.16495
0.639261 0.156985 0.180331
0.638453 0.155383 0.184085
0.639063 0.154879 0.187793
0.638956 0.154604 0.188373
0.638788 0.154345 0.18883
0.638651 0.154101 0.189166
0.638468 0.153872 0.189532
0.63827 0.153689 0.1897
0.638163 0.153521 0.18999
0.638056 0.153384 0.190219
0.637903 0.153231 0.190356
0.637705 0.15314 0.190341
0.637598 0.153109 0.190341
0.0862135 0.430945 0.126619
0.0858473 0.432517 0.106752
0.0845502 0.427665 0.103243
0.0835431 0.413626 0.102754
0.0853285 0.396948 0.10042
0.0949416 0.386023 0.0986191
0.105882 0.377081 0.097261
0.159823 0.364431 0.0918441
0.223377 0.344015 0.0905013
0.290654 0.328084 0.0946975
0.343389 0.325002 0.0979171
0.39733 0.32929 0.0999313
0.459098 0.332143 0.102541
0.52195 0.323049 0.105425
0.576837 0.307179 0.115114
0.620981 0.288884 0.12845
0.649348 0.276158 0.140322
0.662806 0.265858 0.149981
0.669551 0.250431 0.166064
0.665705 0.228428 0.176699
0.66331 0.204242 0.181689
0.650431 0.18027 0.172229
0.64242 0.166201 0.166262
0.63946 0.160021 0.167895
0.638575 0.156603 0.173449
0.637949 0.155474 0.17615
0.63917 0.156954 0.180316
0.638605 0.156054 0.182208
0.6383 0.155596 0.183032
0.638209 0.155489 0.18323
0.638071 0.155383 0.183337
0.637827 0.155291 0.183246
0.637552 0.1552 0.183124
0.0920424 0.491188 0.143694
0.0928206 0.493584 0.121386
0.0921492 0.491279 0.112047
0.0901503 0.481346 0.112673
0.0878309 0.466865 0.110109
0.0953841 0.453483 0.106874
0.104524 0.444587 0.104814
0.12488 0.435813 0.101152
0.193561 0.424765 0.0941024
0.265751 0.397284 0.0918288
0.345113 0.381643 0.0968338
0.400443 0.378927 0.0999924
0.452384 0.383261 0.103609
0.510704 0.386816 0.108461
0.570047 0.382086 0.113283
0.620432 0.366842 0.127764
0.661555 0.350195 0.144457
0.690227 0.326421 0.166018
0.7019 0.316701 0.180713
0.706447 0.304067 0.195254
0.704295 0.28246 0.203738
0.697322 0.270344 0.199817
0.689921 0.258427 0.195224
0.683116 0.246448 0.191196
0.677394 0.235966 0.188296
0.674159 0.228412 0.187121
0.671885 0.221866 0.186938
0.667796 0.212863 0.18529
0.661921 0.201953 0.181918
0.656474 0.192142 0.178149
0.653254 0.184833 0.176883
0.649927 0.1794 0.173953
0.648249 0.176699 0.172976
0.104097 0.547707 0.163119
0.105715 0.549371 0.144396
0.106447 0.548165 0.128466
0.104265 0.54284 0.129366
0.100923 0.532509 0.125917
0.100984 0.521355 0.122148
0.112047 0.512489 0.117845
0.119509 0.504479 0.114275
0.155322 0.49659 0.107881
0.240101 0.483696 0.0979324
0.316213 0.44947 0.0950027
0.401556 0.435508 0.100175
0.457649 0.432761 0.104814
0.505272 0.436439 0.109911
0.55938 0.440406 0.117617
0.61561 0.439841 0.129397
0.660731 0.427649 0.144289
0.700008 0.411933 0.166583
0.730785 0.393027 0.195163
0.747127 0.373373 0.22208
0.746807 0.360281 0.228382
0.74049 0.347295 0.224979
0.734981 0.336965 0.22179
0.729747 0.327611 0.218494
0.724575 0.318547 0.215641
0.719615 0.309651 0.212436
0.714992 0.301396 0.209888
0.711238 0.294545 0.207965
0.70808 0.288319 0.206134
0.704662 0.282521 0.204196
0.702266 0.277928 0.202991
0.699748 0.273533 0.201663
0.698146 0.27071 0.200839
0.1234 0.600137 0.189715
0.126299 0.601282 0.175708
0.130922 0.600153 0.154498
0.129091 0.59736 0.15288
0.124529 0.590341 0.151568
0.118486 0.579934 0.145647
0.122805 0.570886 0.138842
0.134539 0.564218 0.13283
0.146685 0.557397 0.127153
0.200748 0.552605 0.116732
0.293385 0.539742 0.10518
0.377447 0.500328 0.100877
0.458595 0.488899 0.107042
0.512108 0.485954 0.113146
0.554955 0.489311 0.120668
0.605295 0.493004 0.132387
0.654169 0.49456 0.147784
0.698711 0.487953 0.167819
0.738018 0.474144 0.195773
0.766506 0.457343 0.224979
0.786068 0.438529 0.252689
0.788434 0.421942 0.261067
0.783764 0.411292 0.258701
0.778851 0.40267 0.2551
0.773938 0.395163 0.251621
0.769787 0.389136 0.248142
0.765515 0.383536 0.244694
0.761715 0.378531 0.241413
0.758434 0.374029 0.238605
0.754986 0.36965 0.235798
0.752148 0.365423 0.233585
0.750057 0.362341 0.2318
0.748043 0.359258 0.230503
0.151797 0.649836 0.228305
0.155779 0.650858 0.219333
0.165789 0.648249 0.194278
0.166888 0.646052 0.187716
0.161318 0.642496 0.187854
0.154147 0.634287 0.181613
0.149035 0.625528 0.173648
0.157687 0.618906 0.161868
0.166903 0.613703 0.15404
0.183398 0.610681 0.146838
0.261006 0.60914 0.130297
0.355825 0.591684 0.117144
0.437781 0.549035 0.111437
0.513893 0.540948 0.119814
0.563485 0.537835 0.128191
0.601526 0.540093 0.138125
0.647303 0.543923 0.153597
0.690257 0.545892 0.171832
0.73579 0.546166 0.200168
0.771984 0.534524 0.229068
0.799512 0.521279 0.256504
0.813672 0.506142 0.273259
0.811322 0.497826 0.271672
0.80914 0.489693 0.270344
0.807034 0.481743 0.268971
0.805066 0.474464 0.267994
0.803372 0.468269 0.267247
0.80119 0.461967 0.266087
0.799695 0.456886 0.26537
0.797925 0.452415 0.264378
0.796307 0.448783 0.263432
0.794705 0.445548 0.262333
0.79382 0.443458 0.261662
0.192737 0.698482 0.274144
0.196689 0.700069 0.271626
0.209461 0.698161 0.25037
0.215106 0.694423 0.236118
0.210117 0.691798 0.235798
0.20322 0.686198 0.230716
0.192432 0.675975 0.220722
0.191318 0.66949 0.207996
0.202167 0.665904 0.192645
0.208469 0.661326 0.182559
0.232197 0.662074 0.172351
0.331456 0.661357 0.149889
0.420417 0.63859 0.134783
0.498222 0.594949 0.127474
0.566049 0.590463 0.139986
0.612573 0.587884 0.15201
0.644373 0.588937 0.16321
0.686473 0.593027 0.182727
0.72549 0.595651 0.205112
0.766445 0.596841 0.23508
0.802319 0.593591 0.265568
0.825833 0.580957 0.286137
0.827985 0.572732 0.287373
0.826566 0.565728 0.285649
0.825544 0.559731 0.284321
0.824491 0.554467 0.28304
0.82327 0.549065 0.281651
0.822324 0.544656 0.280674
0.821454 0.540246 0.279805
0.820356 0.536583 0.278798
0.819791 0.533883 0.278355
0.818784 0.531579 0.277424
0.817731 0.529183 0.276417
0.245075 0.748257 0.328374
0.249378 0.750896 0.328954
0.259571 0.750942 0.314122
0.268666 0.747982 0.294026
0.265629 0.744915 0.290776
0.260563 0.741024 0.28838
0.251347 0.73106 0.277592
0.241901 0.720729 0.264576
0.245563 0.71519 0.246189
0.251942 0.71107 0.230961
0.255619 0.708156 0.222171
0.302083 0.71458 0.205676
0.415 0.710292 0.179767
0.486946 0.682399 0.162722
0.554559 0.63714 0.153704
0.615473 0.638392 0.170245
0.65832 0.635279 0.185092
0.687831 0.636103 0.198901
0.722606 0.640146 0.219089
0.76228 0.643091 0.246265
0.794949 0.644617 0.271992
0.825757 0.64419 0.297795
0.839399 0.640894 0.30898
0.838865 0.636515 0.307698
0.837919 0.631601 0.305699
0.837018 0.626719 0.303883
0.836561 0.622583 0.302571
0.835889 0.618372 0.301213
0.835233 0.614649 0.299901
0.834684 0.612055 0.299031
0.83389 0.609262 0.297871
0.833051 0.606806 0.296727
0.832425 0.604913 0.295796
0.304082 0.804273 0.388983
0.307454 0.807202 0.390555
0.313848 0.808515 0.378759
0.321111 0.80827 0.35552
0.32076 0.805676 0.345846
0.316655 0.802243 0.346975
0.311635 0.795544 0.340734
0.299825 0.781537 0.328313
0.301213 0.772549 0.312963
0.310918 0.766461 0.292668
0.308171 0.761181 0.28304
0.323003 0.761944 0.271183
0.400229 0.767956 0.244404
0.498436 0.76199 0.227375
0.550347 0.721645 0.198779
0.60943 0.681117 0.190661
0.66247 0.685435 0.210697
0.702571 0.682841 0.228061
0.729961 0.683055 0.242847
0.758984 0.686 0.261982
0.793317 0.688975 0.2869
0.823026 0.690486 0.310079
0.843961 0.689937 0.326863
0.843671 0.687053 0.325597
0.843061 0.683558 0.323857
0.84242 0.680156 0.322332
0.842313 0.677455 0.32137
0.842176 0.674662 0.320424
0.841505 0.672526 0.319219
0.841123 0.670329 0.318334
0.841108 0.668589 0.317861
0.840497 0.666957 0.316823
0.840284 0.665507 0.316182
0.35552 0.858442 0.446769
0.357336 0.860273 0.447745
0.360616 0.86125 0.433173
0.364584 0.862089 0.409918
0.365423 0.86215 0.396094
0.363409 0.859739 0.39733
0.361501 0.856458 0.393683
0.355444 0.847166 0.387289
0.351888 0.833707 0.375113
0.366003 0.82533 0.358724
0.368231 0.817594 0.346197
0.372183 0.813977 0.337316
0.405737 0.820905 0.327047
0.507424 0.821103 0.295064
0.576944 0.809567 0.282521
0.612528 0.765072 0.247578
0.66128 0.726818 0.236316
0.70901 0.733059 0.259571
0.745129 0.7299 0.276371
0.773281 0.730144 0.29305
0.794217 0.730953 0.306966
0.821942 0.73463 0.328023
0.846876 0.735866 0.347036
0.853727 0.733745 0.351385
0.853056 0.730892 0.349813
0.852323 0.727916 0.34789
0.851911 0.725689 0.346624
0.851591 0.723827 0.345571
0.851072 0.721691 0.344259
0.850492 0.719661 0.343236
0.849928 0.717891 0.342031
0.849302 0.716426 0.340719
0.849195 0.715663 0.340063
0.391241 0.897353 0.488807
0.391119 0.897398 0.48777
0.391318 0.896544 0.469581
0.390585 0.894957 0.44477
0.389242 0.893874 0.426596
0.389288 0.894072 0.428183
0.388891 0.893828 0.424094
0.390234 0.893751 0.425711
0.392203 0.888182 0.423667
0.41294 0.880079 0.416129
0.423514 0.871534 0.404211
0.42768 0.866743 0.399725
0.442878 0.867033 0.393317
0.508568 0.875319 0.377234
0.602579 0.870314 0.357382
0.645899 0.847852 0.335637
0.670451 0.80444 0.298375
0.712383 0.776043 0.291005
0.755047 0.78352 0.316365
0.790249 0.780499 0.333806
0.815183 0.780148 0.348882
0.833432 0.780484 0.361105
0.849928 0.781994 0.373495
0.864591 0.783413 0.38497
0.863844 0.780514 0.382818
0.862928 0.778164 0.380789
0.862409 0.776364 0.379461
0.862409 0.774639 0.378683
0.861738 0.772656 0.377081
0.861021 0.770825 0.375631
0.860426 0.7691 0.374304
0.860121 0.768002 0.373388
0.860029 0.767056 0.372396
0.393851 0.898314 0.498268
0.39205 0.897948 0.494057
0.391196 0.896819 0.474845
0.390906 0.895476 0.45156
0.389502 0.894133 0.430167
0.389487 0.89427 0.431235
0.389273 0.894148 0.428733
0.389166 0.894057 0.427558
0.392813 0.894545 0.430594
0.422278 0.89929 0.435431
0.45185 0.903792 0.439689
0.472175 0.906218 0.444724
0.487327 0.90779 0.447852
0.522622 0.914748 0.442832
0.613657 0.914672 0.415198
0.680064 0.908141 0.406989
0.701549 0.878431 0.379324
0.721248 0.838636 0.347265
0.759258 0.819425 0.346273
0.800259 0.827497 0.372732
0.830671 0.826017 0.388464
0.852522 0.82565 0.401007
0.868238 0.826352 0.411261
0.879332 0.826612 0.41857
0.880491 0.825376 0.418677
0.879454 0.823484 0.417029
0.877913 0.8215 0.414786
0.876707 0.819394 0.413031
0.875944 0.817884 0.411719
0.874891 0.816251 0.410346
0.87425 0.815076 0.40943
0.873732 0.814099 0.408591
0.873365 0.813321 0.40766
0.397833 0.899077 0.504112
0.393301 0.89836 0.49778
0.391196 0.89688 0.475944
0.390921 0.895506 0.451774
0.389334 0.893935 0.426917
0.388815 0.893675 0.421866
0.389258 0.894133 0.428641
0.389181 0.894072 0.427771
0.390463 0.894392 0.431632
0.411917 0.898054 0.438697
0.448722 0.904524 0.443854
0.4795 0.910658 0.448081
0.496284 0.91696 0.459449
0.523827 0.926772 0.464714
0.589944 0.935958 0.450477
0.67509 0.925216 0.425772
0.722637 0.91693 0.421439
0.744503 0.899626 0.409552
0.767376 0.865629 0.387243
0.805936 0.85977 0.398642
0.841413 0.867002 0.421057
0.867384 0.867155 0.435019
0.88629 0.867521 0.445731
0.898924 0.868421 0.453468
0.90457 0.869566 0.457389
0.903456 0.867323 0.455695
0.902617 0.865522 0.454215
0.901778 0.863951 0.45275
0.901335 0.862776 0.451911
0.900694 0.86125 0.450843
0.89984 0.85977 0.449744
0.899077 0.858595 0.449042
0.898222 0.857771 0.448112
0.400519 0.899321 0.506264
0.394598 0.898222 0.498421
0.391196 0.897398 0.488457
0.391363 0.895918 0.462181
0.390494 0.894347 0.437186
0.389288 0.893309 0.417227
0.389609 0.89369 0.427207
0.389532 0.893614 0.426169
0.389609 0.89369 0.427253
0.397192 0.895247 0.433829
0.442298 0.903868 0.445228
0.475975 0.910231 0.447578
0.494514 0.916762 0.458701
0.518791 0.925383 0.464759
0.565454 0.93669 0.46186
0.654444 0.933135 0.435355
0.718364 0.920775 0.42475
0.753552 0.917113 0.427832
0.782742 0.911528 0.430533
0.813748 0.890532 0.424582
0.848341 0.891737 0.440513
0.877638 0.899107 0.459815
0.899855 0.900694 0.472572
0.914076 0.900832 0.480385
0.924819 0.903365 0.487861
0.924681 0.902174 0.487068
0.923842 0.900771 0.485756
0.923003 0.899367 0.484428
0.922072 0.897841 0.483146
0.921477 0.896696 0.482246
0.921019 0.895811 0.481697
0.920775 0.895201 0.481636
0.920409 0.89453 0.481392
0.400687 0.899809 0.511528
0.394903 0.89807 0.495628
0.391058 0.898131 0.496788
0.391302 0.896788 0.475547
0.391043 0.895277 0.450767
0.389593 0.893553 0.424811
0.389242 0.893339 0.418341
0.389563 0.893645 0.426596
0.389563 0.893645 0.426627
0.390967 0.894102 0.430549
0.430945 0.901411 0.441855
0.465583 0.907912 0.445441
0.491234 0.915755 0.45745
0.518349 0.92546 0.46511
0.559426 0.936645 0.468467
0.631708 0.936645 0.45452
0.704982 0.93669 0.442145
0.749477 0.92604 0.435294
0.781262 0.919371 0.436805
0.818097 0.917617 0.447196
0.853635 0.912963 0.457359
0.881865 0.913817 0.470787
0.903731 0.915755 0.48333
0.920729 0.918624 0.493858
0.934691 0.919554 0.502525
0.937057 0.919493 0.503944
0.937118 0.919417 0.50396
0.936919 0.919387 0.503853
0.936614 0.919387 0.503685
0.936278 0.919356 0.503609
0.936156 0.919203 0.503716
0.936263 0.91899 0.504112
0.936477 0.918837 0.50396
0.399725 0.900603 0.518837
0.39472 0.898344 0.495796
0.39089 0.898222 0.496849
0.390921 0.897673 0.488823
0.391119 0.896025 0.461799
0.390478 0.894514 0.438254
0.389136 0.893278 0.415122
0.3897 0.893767 0.428061
0.389502 0.893584 0.425757
0.389715 0.893782 0.428321
0.415396 0.898726 0.437705
0.455344 0.906004 0.443397
0.48484 0.913558 0.453635
0.512093 0.922408 0.462242
0.547799 0.935943 0.468238
0.607889 0.936751 0.461204
0.688334 0.936782 0.445655
0.740658 0.930755 0.43827
0.775341 0.92079 0.436469
0.809659 0.919066 0.44538
0.84799 0.916686 0.457801
0.879179 0.91696 0.471534
0.901671 0.917113 0.48275
0.918837 0.919371 0.492851
0.934081 0.921447 0.502617
0.937728 0.921752 0.505791
0.937728 0.921767 0.506203
0.937728 0.921798 0.506188
0.937728 0.921904 0.506111
0.937728 0.922042 0.506035
0.937728 0.922103 0.506203
0.937728 0.922042 0.506661
0.937728 0.921904 0.507225
0.398657 0.901091 0.525795
0.394461 0.898787 0.499779
0.390997 0.897902 0.492149
0.390814 0.898344 0.497581
0.391165 0.896819 0.473579
0.390875 0.895186 0.448661
0.389319 0.8934 0.419226
0.389471 0.893568 0.425437
0.389548 0.893629 0.426429
0.389593 0.893675 0.427024
0.403922 0.896574 0.434745
0.442252 0.903761 0.442832
0.480995 0.912154 0.450584
0.506752 0.920363 0.459693
0.538842 0.932769 0.467445
0.590524 0.936873 0.464973
0.671565 0.93669 0.447578
0.731701 0.932067 0.438041
0.768917 0.921889 0.435843
0.801312 0.919142 0.442603
0.839506 0.915862 0.453971
0.872938 0.91693 0.468788
0.897047 0.917281 0.480354
0.914931 0.918593 0.490455
0.930678 0.92108 0.500282
0.937713 0.921752 0.505257
0.937713 0.921782 0.506004
0.937713 0.921828 0.505989
0.937728 0.921904 0.505928
0.937728 0.922057 0.505928
0.937728 0.922118 0.505989
0.937728 0.922118 0.506493
0.937728 0.922057 0.507027
0.401266 0.902678 0.535683
0.397696 0.899825 0.50898
0.393133 0.898085 0.492058
0.391302 0.898543 0.498878
0.390906 0.897475 0.48452
0.390997 0.895735 0.456641
0.389929 0.89398 0.42974
0.389181 0.893324 0.416175
0.389532 0.893614 0.426123
0.389578 0.89366 0.426841
0.396887 0.895323 0.432456
0.43389 0.902129 0.442512
0.476387 0.910704 0.448402
0.501503 0.918166 0.457084
0.531212 0.9299 0.46659
0.577096 0.936797 0.466331
0.657481 0.936843 0.449531
0.723079 0.934157 0.438972
0.763363 0.923964 0.436316
0.794766 0.919463 0.440986
0.832486 0.916747 0.45182
0.867567 0.917525 0.466712
0.892546 0.917464 0.478202
0.911269 0.918257 0.488212
0.927565 0.920913 0.498497
0.937713 0.921736 0.504875
0.937713 0.921798 0.505837
0.937728 0.921843 0.505821
0.937713 0.921935 0.50576
0.937728 0.922057 0.50573
0.937713 0.922148 0.505806
0.937728 0.922148 0.506203
0.937728 0.922087 0.506752
0.404486 0.904463 0.545266
0.402197 0.901137 0.519265
0.398413 0.898894 0.497261
0.394278 0.898848 0.498909
0.391546 0.898238 0.493751
0.391089 0.896422 0.465644
0.390494 0.894682 0.440909
0.389227 0.893339 0.417609
0.389578 0.893645 0.426673
0.389578 0.893645 0.426825
0.392187 0.894377 0.431327
0.432059 0.901747 0.442161
0.470634 0.909285 0.446799
0.496574 0.916518 0.455619
0.525124 0.92752 0.465492
0.567971 0.936706 0.466651
0.645823 0.936736 0.45069
0.716213 0.936736 0.441581
0.758526 0.926314 0.437415
0.78938 0.920165 0.439933
0.827283 0.918654 0.45124
0.862837 0.91812 0.464988
0.888472 0.91754 0.476432
0.908446 0.918105 0.486671
0.924315 0.920638 0.496529
0.936767 0.921889 0.504158
0.937713 0.921843 0.50576
0.937713 0.921859 0.50576
0.937713 0.921935 0.505714
0.937713 0.921981 0.505684
0.937713 0.921904 0.505745
0.937728 0.921645 0.506035
0.937728 0.921431 0.506539
0.408148 0.906264 0.553719
