bundles/resolve-cinematic-luts/Phantom Luts/Canon Alexa LUT/ATOMOS Monitoring LUTs/C-Log 3/Jamaica Canon CL3 AML.cube
TITLE "Generated by Resolve"
LUT_3D_SIZE 9
0.0775464 0.0938277 0.0775311
0.217319 0.0890669 0.0830091
0.419928 0.0881514 0.110903
0.577081 0.0970016 0.178546
0.650568 0.13193 0.272679
0.678203 0.143526 0.327443
0.681529 0.143816 0.349416
0.682918 0.143633 0.362203
0.683207 0.143679 0.367605
0.0660105 0.203143 0.0833448
0.127031 0.149493 0.0715343
0.300298 0.151202 0.0763867
0.518547 0.111391 0.0852064
0.602777 0.118837 0.16524
0.640574 0.137621 0.217334
0.644755 0.138399 0.225422
0.655207 0.14081 0.246525
0.659434 0.141558 0.25684
0.0659495 0.427695 0.115846
0.0798199 0.391272 0.0782635
0.294606 0.331487 0.0740673
0.519799 0.321782 0.0893873
0.656901 0.263005 0.141619
0.639384 0.142901 0.184756
0.641184 0.14107 0.202564
0.640894 0.140551 0.204547
0.640284 0.140261 0.20531
0.131258 0.637049 0.22916
0.141299 0.623087 0.168978
0.17821 0.601617 0.128023
0.508003 0.534264 0.103258
0.687343 0.538598 0.164248
0.808408 0.483314 0.270024
0.80116 0.440894 0.271214
0.785489 0.421042 0.257557
0.775876 0.407813 0.249607
0.309545 0.820905 0.421897
0.322744 0.820737 0.350698
0.328298 0.795666 0.32694
0.46067 0.795148 0.267597
0.698528 0.718181 0.245212
0.810376 0.721111 0.314153
0.847944 0.714794 0.339025
0.846143 0.704402 0.333715
0.844907 0.697704 0.328771
0.38616 0.897566 0.520714
0.373632 0.892561 0.419013
0.373724 0.892668 0.425513
0.515038 0.922835 0.461158
0.738964 0.907591 0.41593
0.851972 0.867369 0.426932
0.900877 0.86978 0.455589
0.899199 0.865171 0.451942
0.896864 0.861357 0.449149
0.387961 0.899672 0.54641
0.377707 0.895628 0.483467
0.373785 0.892271 0.417456
0.498085 0.916747 0.452628
0.69012 0.936843 0.45034
0.849958 0.91107 0.455024
0.926619 0.921996 0.498497
0.934447 0.923156 0.503563
0.93402 0.923262 0.504372
0.396872 0.904067 0.580713
0.383124 0.897368 0.518578
0.375097 0.891737 0.420829
0.471458 0.90927 0.442512
0.64863 0.936797 0.450767
0.834852 0.9149 0.451408
0.919493 0.919875 0.493248
0.935378 0.922774 0.503853
0.933425 0.923568 0.503487
0.397269 0.905104 0.594202
0.390723 0.898604 0.521385
0.38436 0.891585 0.430335
0.454963 0.90605 0.44007
0.630655 0.936645 0.452522
0.829129 0.915816 0.449729
0.916777 0.919448 0.491676
0.935378 0.922774 0.503746
0.93315 0.923705 0.503014
0.0716259 0.0966812 0.134112
0.203326 0.0919509 0.20209
0.431647 0.0869612 0.281376
0.596033 0.093492 0.33135
0.664454 0.130007 0.369314
0.686183 0.144793 0.410727
0.686641 0.145113 0.432685
0.686824 0.145632 0.445975
0.686015 0.146059 0.450584
0.0762798 0.13164 0.120943
0.0749828 0.0998093 0.0780652
0.336583 0.0885481 0.0992142
0.54667 0.0934462 0.16379
0.63769 0.123934 0.254582
0.676493 0.143694 0.323095
0.680293 0.144091 0.345327
0.681727 0.143908 0.35845
0.682216 0.143847 0.364523
0.0658274 0.362799 0.217762
0.0657969 0.362478 0.105013
0.258076 0.302388 0.072755
0.530953 0.251652 0.0972915
0.611261 0.156756 0.1346
0.644053 0.138476 0.223575
0.645731 0.138506 0.227909
0.651164 0.139666 0.239307
0.65478 0.140551 0.247807
0.101472 0.604425 0.300374
0.110063 0.60528 0.204013
0.125353 0.584039 0.132586
0.485222 0.516869 0.0968185
0.691234 0.505592 0.160067
0.790997 0.429374 0.261753
0.765438 0.390356 0.241947
0.748806 0.357488 0.23183
0.738521 0.336614 0.226337
0.270222 0.798428 0.465064
0.285893 0.79704 0.399802
0.302281 0.794141 0.333928
0.377707 0.782635 0.276112
0.68513 0.70428 0.230335
0.809323 0.704005 0.305882
0.844175 0.692012 0.327901
0.842542 0.679393 0.322286
0.84094 0.671351 0.316747
0.382452 0.900175 0.590585
0.377707 0.897444 0.511879
0.374853 0.893416 0.433341
0.484642 0.911284 0.445884
0.718746 0.908278 0.412741
0.842161 0.858 0.415702
0.894545 0.857389 0.444846
0.890883 0.850614 0.439124
0.88809 0.846937 0.43563
0.38381 0.900969 0.622431
0.377768 0.898436 0.539361
0.377691 0.895888 0.485908
0.424811 0.900862 0.439765
0.639429 0.936736 0.459342
0.836408 0.915251 0.452354
0.922194 0.92105 0.495613
0.934447 0.92314 0.503609
0.934096 0.923201 0.504494
0.390829 0.902739 0.645548
0.379446 0.899504 0.567712
0.378531 0.896773 0.511971
0.391913 0.894286 0.426474
0.586374 0.936828 0.462867
0.818799 0.918074 0.447807
0.913527 0.91809 0.489235
0.935378 0.922774 0.503853
0.933196 0.923644 0.50341
0.391959 0.903059 0.654566
0.379568 0.899992 0.580896
0.383429 0.897231 0.515633
0.384253 0.893294 0.42359
0.572824 0.936736 0.461585
0.812375 0.920256 0.447242
0.90985 0.91696 0.486549
0.935378 0.922774 0.503746
0.93315 0.923705 0.503014
0.0659037 0.0995499 0.297139
0.225727 0.0924544 0.338064
0.395178 0.0871138 0.397574
0.579355 0.0941482 0.45153
0.665248 0.132723 0.452598
0.686198 0.147616 0.482689
0.684504 0.148333 0.49929
0.683482 0.148882 0.509422
0.681758 0.149233 0.511681
0.0690013 0.129213 0.2103
0.0739147 0.0991226 0.255009
0.327916 0.0886091 0.321904
0.566613 0.0905165 0.353216
0.654704 0.121843 0.368505
0.686183 0.144686 0.408743
0.686519 0.145022 0.429404
0.686763 0.145449 0.442145
0.686534 0.145693 0.446998
0.0696269 0.308797 0.287343
0.0683146 0.287526 0.256947
0.237003 0.28072 0.230365
0.551156 0.191363 0.206836
0.628061 0.117739 0.237705
0.675196 0.14342 0.311803
0.679698 0.143862 0.336385
0.681529 0.143908 0.350454
0.682017 0.143801 0.356725
0.0890364 0.555642 0.374578
0.0859083 0.561929 0.30544
0.0923323 0.571023 0.189242
0.461204 0.50016 0.0970932
0.707546 0.45623 0.174731
0.761349 0.36907 0.244968
0.729641 0.309178 0.227253
0.704952 0.263478 0.213993
0.692515 0.24126 0.206622
0.227848 0.766888 0.505196
0.240772 0.773877 0.447822
0.260349 0.773968 0.381491
0.325811 0.76408 0.275212
0.672297 0.691493 0.216754
0.808133 0.686168 0.297734
0.841306 0.667796 0.317754
0.839429 0.649958 0.311421
0.837781 0.639857 0.306981
0.381277 0.899763 0.641657
0.377325 0.900038 0.588357
0.377478 0.897826 0.519066
0.41297 0.897551 0.431922
0.687694 0.911254 0.411231
0.833387 0.849577 0.405646
0.887572 0.844923 0.433982
0.88307 0.836713 0.426825
0.879881 0.832258 0.422248
0.38407 0.899351 0.668589
0.377386 0.900023 0.613123
0.377707 0.898512 0.53872
0.373999 0.892378 0.421363
0.589654 0.936812 0.469062
0.824262 0.917647 0.449378
0.918502 0.920134 0.492927
0.934447 0.92314 0.50367
0.934005 0.923232 0.50454
0.390036 0.899474 0.686748
0.377722 0.89987 0.630411
0.377905 0.899168 0.565194
0.375753 0.892119 0.427817
0.548104 0.933257 0.463523
0.804211 0.921859 0.445991
0.907835 0.916411 0.485252
0.935409 0.922744 0.503838
0.933364 0.923598 0.503426
0.391104 0.899351 0.693355
0.378897 0.899962 0.640681
0.379522 0.899809 0.57969
0.377172 0.89305 0.444862
0.536202 0.928588 0.460868
0.796628 0.922438 0.444038
0.902907 0.915114 0.481956
0.935378 0.922774 0.503746
0.932937 0.923796 0.502953
0.0695811 0.102464 0.453285
0.237507 0.0954299 0.487739
0.386435 0.0914778 0.520058
0.535653 0.0964218 0.546624
0.641611 0.134539 0.54081
0.670619 0.151278 0.564385
0.66659 0.152514 0.577295
0.664515 0.153094 0.584909
0.662333 0.153811 0.585626
0.0659037 0.146944 0.395026
0.0799725 0.10071 0.432975
0.300191 0.0929274 0.487144
0.515236 0.0919661 0.520958
0.639384 0.125307 0.506111
0.681331 0.149233 0.523339
0.677913 0.149935 0.536233
0.676036 0.15024 0.544167
0.674693 0.150408 0.545754
0.0679789 0.265965 0.401877
0.0669871 0.226169 0.407752
0.161807 0.185016 0.445075
0.505882 0.116197 0.49427
0.640696 0.115023 0.449699
0.687602 0.14641 0.465507
0.687007 0.147356 0.481376
0.686076 0.147601 0.490761
0.685603 0.147768 0.49398
0.0830854 0.490822 0.464591
0.0794537 0.479042 0.444495
0.0769207 0.467079 0.421134
0.4421 0.473335 0.414435
0.749065 0.409827 0.401022
0.821057 0.308568 0.41265
0.767544 0.244892 0.395773
0.733394 0.204364 0.382818
0.710246 0.176379 0.372381
0.183993 0.710002 0.562371
0.179522 0.713237 0.530632
0.179477 0.719966 0.489418
0.241474 0.76112 0.373129
0.652476 0.679255 0.261387
0.859297 0.654292 0.336004
0.889845 0.610208 0.352758
0.885466 0.586023 0.347005
0.88246 0.572641 0.343465
0.358633 0.874647 0.687175
0.360449 0.881346 0.660105
0.365789 0.889158 0.625574
0.376669 0.896406 0.523491
0.58323 0.919097 0.427329
0.818418 0.83444 0.387518
0.877165 0.82324 0.415442
0.872999 0.81268 0.407248
0.870954 0.807218 0.40206
0.38677 0.894179 0.723369
0.380362 0.897551 0.69192
0.378439 0.899413 0.653544
0.377722 0.898436 0.537163
0.526619 0.927275 0.463722
0.800168 0.922866 0.445487
0.912566 0.91873 0.489281
0.933608 0.92166 0.502541
0.931365 0.919585 0.501518
0.389899 0.891646 0.732784
0.381109 0.896666 0.702724
0.378988 0.898848 0.667292
0.377905 0.898985 0.559731
0.484428 0.91368 0.453452
0.776669 0.927306 0.442679
0.896391 0.913344 0.477409
0.936446 0.922377 0.504189
0.934203 0.923278 0.503761
0.390661 0.890913 0.737881
0.381765 0.896086 0.709285
0.379355 0.898543 0.675074
0.37789 0.899382 0.572488
0.468376 0.908888 0.446464
0.764523 0.929534 0.442008
0.888304 0.91191 0.472572
0.934432 0.922728 0.503182
0.933257 0.923705 0.503075
0.0838788 0.117266 0.552407
0.245045 0.107805 0.597574
0.379507 0.108598 0.625391
0.498329 0.109728 0.616876
0.606958 0.141787 0.614771
0.651606 0.158923 0.642832
0.646815 0.161288 0.652094
0.646204 0.161761 0.657816
0.643427 0.162737 0.656733
0.068574 0.16022 0.538262
0.0947127 0.111727 0.548135
0.288151 0.106218 0.601465
0.474037 0.106767 0.617639
0.595224 0.133394 0.600504
0.656809 0.156237 0.6224
0.652613 0.158221 0.630732
0.651392 0.158816 0.636088
0.649714 0.159304 0.636133
0.0697948 0.225177 0.525673
0.0682383 0.177447 0.527855
0.11371 0.112261 0.544686
0.424933 0.104067 0.6112
0.581064 0.121202 0.583886
0.664012 0.153445 0.595438
0.661143 0.154421 0.604273
0.659907 0.154864 0.609323
0.6589 0.155093 0.610407
0.0891737 0.444953 0.569848
0.0847639 0.418051 0.569131
0.0828717 0.385672 0.573373
0.354162 0.371145 0.615305
0.704845 0.309194 0.67158
0.704356 0.178103 0.560311
0.679744 0.150546 0.541772
0.678691 0.15024 0.542794
0.678264 0.150027 0.541695
0.165438 0.64358 0.627054
0.156374 0.63743 0.613031
0.148516 0.630655 0.600946
0.147936 0.6271 0.580285
0.619745 0.634577 0.582086
0.891096 0.59675 0.585641
0.937621 0.557107 0.581949
0.937774 0.533883 0.578012
0.937163 0.521187 0.575357
0.318639 0.819821 0.720378
0.313832 0.820432 0.703471
0.310185 0.821622 0.687266
0.309575 0.830686 0.65005
0.48716 0.93669 0.596704
0.793286 0.825544 0.497017
0.920974 0.805676 0.522469
0.921767 0.78909 0.521065
0.922133 0.779629 0.520241
0.376501 0.870466 0.77052
0.376318 0.879255 0.758206
0.379767 0.886946 0.744823
0.381476 0.896223 0.707424
0.380118 0.89778 0.521584
0.746975 0.936782 0.452506
0.904601 0.912764 0.481666
0.931228 0.91281 0.496712
0.928298 0.90898 0.494011
0.376043 0.86714 0.774212
0.374533 0.876188 0.762264
0.378592 0.88455 0.74873
0.381903 0.895628 0.713283
0.377966 0.898451 0.546578
0.674601 0.936767 0.459205
0.877882 0.911696 0.467552
0.9346 0.922698 0.50341
0.934859 0.92343 0.504433
0.377508 0.864652 0.776654
0.37351 0.873945 0.765652
0.377813 0.882658 0.752361
0.382254 0.895171 0.717693
0.377951 0.898634 0.551415
0.642405 0.936767 0.460578
0.862119 0.912825 0.461372
0.926589 0.922072 0.498527
0.93402 0.923781 0.5037
0.105135 0.160555 0.595743
0.247761 0.146838 0.655589
0.365866 0.148165 0.684062
0.482612 0.150912 0.682307
0.583459 0.150011 0.665339
0.641489 0.16408 0.685939
0.638437 0.16495 0.684825
0.639582 0.164492 0.68632
0.637736 0.165148 0.683696
0.0896773 0.185718 0.596567
0.113466 0.152972 0.597848
0.278019 0.141314 0.660639
0.447547 0.145693 0.68188
0.560601 0.142443 0.656046
0.64332 0.16347 0.680797
0.64033 0.164614 0.684077
0.638331 0.165316 0.684321
0.636835 0.165621 0.682368
0.0863661 0.219852 0.601465
0.0856947 0.185092 0.593225
0.120256 0.145022 0.598215
0.390158 0.138109 0.675975
0.537453 0.137713 0.650629
0.645838 0.162234 0.671733
0.644541 0.162997 0.676677
0.642863 0.163684 0.679011
0.64181 0.163928 0.678614
0.109834 0.40029 0.643687
0.108217 0.373465 0.644144
0.107851 0.339605 0.643915
0.265156 0.289357 0.711498
0.593317 0.241382 0.765484
0.643397 0.158145 0.650034
0.650538 0.159716 0.651072
0.650019 0.160021 0.653162
0.649409 0.160128 0.653147
0.18352 0.608865 0.688701
0.175387 0.593515 0.68452
0.168704 0.575631 0.683253
0.15729 0.532692 0.683406
0.554467 0.56434 0.755886
0.863416 0.520806 0.819638
0.927047 0.466346 0.821744
0.918273 0.441871 0.816449
0.911452 0.428855 0.809979
0.295155 0.763333 0.757671
0.287175 0.758236 0.746242
0.280003 0.752331 0.737209
0.26656 0.742962 0.719738
0.381537 0.794766 0.737667
0.763073 0.775296 0.725734
0.925078 0.748302 0.735454
0.927977 0.731685 0.729381
0.927489 0.723201 0.724422
0.363195 0.84654 0.809079
0.36405 0.851408 0.801266
0.364828 0.855009 0.794308
0.3682 0.863005 0.781949
0.373297 0.879881 0.742855
0.684123 0.936797 0.737697
0.882872 0.904585 0.682933
0.92874 0.898299 0.688228
0.927138 0.892134 0.684169
0.36788 0.84123 0.814038
0.362997 0.848676 0.805585
0.364355 0.853117 0.797757
0.367956 0.862135 0.783795
0.37969 0.885985 0.747478
0.575875 0.936828 0.697002
0.861921 0.936736 0.639292
0.937545 0.933211 0.659678
0.93756 0.933898 0.650111
0.371359 0.838697 0.815244
0.362341 0.846708 0.808652
0.364034 0.851637 0.8009
0.36733 0.860731 0.785809
0.379019 0.884794 0.749035
0.526406 0.93669 0.687449
0.840467 0.93669 0.630381
0.929259 0.934905 0.633417
0.937728 0.935836 0.626429
0.116213 0.174044 0.606455
0.258396 0.174655 0.676921
0.372061 0.178698 0.710735
0.492866 0.17702 0.711147
0.589548 0.154055 0.679133
0.640269 0.164126 0.686687
0.640253 0.164126 0.686671
0.639933 0.164324 0.686595
0.638361 0.164904 0.684382
0.104509 0.20473 0.611017
0.12578 0.174197 0.612161
0.278187 0.175387 0.684565
0.452018 0.179873 0.717433
0.569085 0.159701 0.682795
0.640314 0.164111 0.686763
0.640299 0.164126 0.686778
0.638315 0.16495 0.684382
0.638132 0.16495 0.683848
0.114473 0.248157 0.631846
0.105241 0.208576 0.612772
0.123491 0.174472 0.611139
0.385824 0.178973 0.713115
0.545129 0.167575 0.692699
0.640375 0.164126 0.6869
0.640467 0.164111 0.68719
0.640009 0.164279 0.686687
0.639216 0.164523 0.685344
0.136919 0.377539 0.675013
0.135119 0.351308 0.670359
0.131197 0.315618 0.6607
0.207492 0.251621 0.695079
0.509316 0.206912 0.744228
0.622629 0.161105 0.683909
0.640665 0.164126 0.687602
0.640665 0.164126 0.687572
0.64033 0.164126 0.686671
0.198779 0.567239 0.72549
0.19295 0.548775 0.722881
0.188403 0.53106 0.720851
0.180697 0.492088 0.717174
0.474571 0.498283 0.839521
0.794003 0.477714 0.908507
0.868879 0.423163 0.897139
0.852155 0.399359 0.88069
0.840787 0.385611 0.868971
0.297002 0.743526 0.788128
0.290883 0.735988 0.782803
0.285023 0.727169 0.778775
0.274098 0.709117 0.772961
0.305104 0.703746 0.814847
0.717662 0.726268 0.845838
0.912978 0.696468 0.88893
0.923568 0.675395 0.891356
0.922728 0.665766 0.889784
0.359197 0.83006 0.840406
0.357443 0.830655 0.83537
0.354498 0.828031 0.830152
0.349844 0.823499 0.821103
0.338994 0.814496 0.800717
0.625513 0.886168 0.842435
0.856397 0.874525 0.836255
0.922026 0.861295 0.847974
0.920851 0.85481 0.843366
0.366995 0.828534 0.843778
0.358526 0.831098 0.840482
0.357931 0.831388 0.836103
0.358816 0.83566 0.827909
0.362844 0.847349 0.808606
0.470588 0.932143 0.830869
0.827695 0.936629 0.841398
0.919921 0.922393 0.853117
0.928557 0.920516 0.855817
0.36907 0.828717 0.846708
0.359075 0.830976 0.843153
0.358144 0.831022 0.838636
0.358511 0.834592 0.829602
0.362753 0.84744 0.80827
0.435874 0.91577 0.814786
0.800534 0.936645 0.834318
0.907012 0.926238 0.823194
0.927718 0.9252 0.871031
0.137911 0.174319 0.619364
0.275959 0.175235 0.683696
0.380804 0.178759 0.7122
0.498772 0.17644 0.709667
0.596841 0.154818 0.679698
0.640269 0.164126 0.686687
0.640284 0.164111 0.686702
0.640192 0.164157 0.68661
0.640269 0.164126 0.686702
0.102953 0.198947 0.607965
0.145617 0.174365 0.623896
0.289311 0.175875 0.688685
0.457496 0.179782 0.717159
0.571221 0.15613 0.680171
0.640269 0.164111 0.686671
0.640284 0.164111 0.686717
0.640146 0.164172 0.686549
0.638407 0.164874 0.684367
0.116533 0.249088 0.633082
0.103426 0.202213 0.609445
0.140703 0.17435 0.621134
0.391775 0.179294 0.714122
0.547784 0.166903 0.69163
0.640284 0.164111 0.686732
0.640375 0.164126 0.686946
0.64036 0.164111 0.6869
0.639475 0.164416 0.685695
0.148928 0.368368 0.683513
0.139437 0.335348 0.670573
0.126848 0.288441 0.651225
0.187243 0.205768 0.662089
0.488792 0.185153 0.72105
0.62118 0.160891 0.683452
0.640452 0.164126 0.687037
0.640452 0.164126 0.687007
0.640299 0.164126 0.686595
0.208927 0.552087 0.742336
0.203464 0.535866 0.738521
0.196567 0.517525 0.73283
0.180941 0.474876 0.718547
0.449683 0.468574 0.843198
0.77026 0.447044 0.910826
0.840391 0.392432 0.881056
0.816541 0.366415 0.856504
0.800961 0.350973 0.839902
0.299794 0.736309 0.805386
0.292088 0.723461 0.800717
0.284672 0.709514 0.796658
0.271366 0.682658 0.790021
0.289525 0.661585 0.818296
0.672984 0.68716 0.881468
0.886488 0.672175 0.924117
0.906584 0.647944 0.930739
0.904067 0.638224 0.929259
0.359838 0.828931 0.850935
0.356695 0.825849 0.84744
0.353445 0.821653 0.844358
0.347158 0.81265 0.838926
0.336538 0.796307 0.830625
0.560357 0.839384 0.889647
0.841276 0.85095 0.893645
0.918013 0.840421 0.912108
0.917281 0.83209 0.910735
0.364767 0.834348 0.856352
0.363653 0.834974 0.85481
0.363012 0.834348 0.853635
0.361364 0.8327 0.850172
0.359579 0.831296 0.844312
0.406027 0.853986 0.853971
0.811444 0.914549 0.90074
0.911162 0.913146 0.903883
0.926665 0.908644 0.909972
0.373312 0.832105 0.854109
0.363821 0.835187 0.8551
0.363684 0.835081 0.854871
0.361807 0.833112 0.851209
0.359243 0.831205 0.843275
0.390356 0.847639 0.842664
0.779232 0.923018 0.898436
0.90428 0.922759 0.904356
0.928908 0.92282 0.917967
0.146288 0.174212 0.62417
0.285161 0.175647 0.687144
0.385855 0.179004 0.713161
0.501686 0.176074 0.709026
0.601831 0.157824 0.681178
0.640284 0.164111 0.686687
0.640284 0.164111 0.686702
0.640269 0.164126 0.686671
0.640208 0.164126 0.686488
0.101564 0.195377 0.605753
0.154726 0.174121 0.628824
0.295399 0.175952 0.690532
0.460334 0.179706 0.717006
0.572335 0.15436 0.678843
0.640284 0.164111 0.686717
0.640284 0.164111 0.686717
0.640269 0.164111 0.686671
0.639597 0.16434 0.685695
0.115953 0.247059 0.632273
0.102708 0.198596 0.607721
0.149737 0.174334 0.626062
0.395102 0.179477 0.714672
0.549126 0.166674 0.691203
0.640269 0.164111 0.686687
0.640391 0.164111 0.686931
0.64036 0.164111 0.6869
0.640208 0.164126 0.686488
0.145632 0.356222 0.679026
0.135271 0.319539 0.664424
0.121935 0.269383 0.642695
0.176272 0.180362 0.643565
0.484642 0.178454 0.713802
0.620874 0.160845 0.683406
0.640452 0.164126 0.687007
0.640452 0.164126 0.687007
0.640284 0.164126 0.686595
0.20882 0.545739 0.743603
0.201068 0.527901 0.736828
0.193027 0.507927 0.729686
0.177035 0.463569 0.715068
0.440848 0.451667 0.839399
0.759594 0.427375 0.905928
0.820768 0.370657 0.860502
0.791852 0.342458 0.830549
0.774029 0.325704 0.81236
0.297871 0.729946 0.808164
0.289418 0.715785 0.802441
0.281147 0.70106 0.796979
0.266285 0.672206 0.787015
0.281773 0.64744 0.812924
0.664408 0.673701 0.881117
0.88069 0.657526 0.923842
0.903914 0.632258 0.929671
0.902815 0.621286 0.929839
0.359777 0.82916 0.852125
0.357214 0.825925 0.849958
0.353628 0.821073 0.847303
0.34699 0.811185 0.842313
0.334112 0.79115 0.832746
0.534997 0.822232 0.895125
0.826139 0.836896 0.90135
0.910979 0.829664 0.919478
0.910445 0.820722 0.919051
0.364233 0.834852 0.855619
0.363836 0.835172 0.855116
0.36379 0.835187 0.85507
0.36379 0.835187 0.85507
0.363958 0.835416 0.855222
0.373358 0.837674 0.85716
0.78819 0.902586 0.916091
0.906111 0.906737 0.918181
0.921553 0.904692 0.922271
0.364523 0.834607 0.856001
0.363821 0.835187 0.8551
0.36379 0.835187 0.85507
0.36379 0.835187 0.85507
0.363912 0.835355 0.855161
0.365621 0.837934 0.855848
0.740703 0.909789 0.915892
0.905913 0.921035 0.921263
0.930205 0.923858 0.929015
