bundles/resolve-cinematic-luts/Phantom Luts/Canon Alexa LUT/ATOMOS Monitoring LUTs/C-Log 3/Jamaica Canon CL3 AML.cube
TITLE "Generated by Resolve"
LUT_3D_SIZE 5
0.0775464 0.0938277 0.0775311
0.419928 0.0881514 0.110903
0.650568 0.13193 0.272679
0.681529 0.143816 0.349416
0.683207 0.143679 0.367605
0.0659495 0.427695 0.115846
0.294606 0.331487 0.0740673
0.656901 0.263005 0.141619
0.641184 0.14107 0.202564
0.640284 0.140261 0.20531
0.309545 0.820905 0.421897
0.328298 0.795666 0.32694
0.698528 0.718181 0.245212
0.847944 0.714794 0.339025
0.844907 0.697704 0.328771
0.387961 0.899672 0.54641
0.373785 0.892271 0.417456
0.69012 0.936843 0.45034
0.926619 0.921996 0.498497
0.93402 0.923262 0.504372
0.397269 0.905104 0.594202
0.38436 0.891585 0.430335
0.630655 0.936645 0.452522
0.916777 0.919448 0.491676
0.93315 0.923705 0.503014
0.0659037 0.0995499 0.297139
0.395178 0.0871138 0.397574
0.665248 0.132723 0.452598
0.684504 0.148333 0.49929
0.681758 0.149233 0.511681
0.0696269 0.308797 0.287343
0.237003 0.28072 0.230365
0.628061 0.117739 0.237705
0.679698 0.143862 0.336385
0.682017 0.143801 0.356725
0.227848 0.766888 0.505196
0.260349 0.773968 0.381491
0.672297 0.691493 0.216754
0.841306 0.667796 0.317754
0.837781 0.639857 0.306981
0.38407 0.899351 0.668589
0.377707 0.898512 0.53872
0.589654 0.936812 0.469062
0.918502 0.920134 0.492927
0.934005 0.923232 0.50454
0.391104 0.899351 0.693355
0.379522 0.899809 0.57969
0.536202 0.928588 0.460868
0.902907 0.915114 0.481956
0.932937 0.923796 0.502953
0.0838788 0.117266 0.552407
0.379507 0.108598 0.625391
0.606958 0.141787 0.614771
0.646815 0.161288 0.652094
0.643427 0.162737 0.656733
0.0697948 0.225177 0.525673
0.11371 0.112261 0.544686
0.581064 0.121202 0.583886
0.661143 0.154421 0.604273
0.6589 0.155093 0.610407
0.165438 0.64358 0.627054
0.148516 0.630655 0.600946
0.619745 0.634577 0.582086
0.937621 0.557107 0.581949
0.937163 0.521187 0.575357
0.376501 0.870466 0.77052
0.379767 0.886946 0.744823
0.380118 0.89778 0.521584
0.904601 0.912764 0.481666
0.928298 0.90898 0.494011
0.377508 0.864652 0.776654
0.377813 0.882658 0.752361
0.377951 0.898634 0.551415
0.862119 0.912825 0.461372
0.93402 0.923781 0.5037
0.116213 0.174044 0.606455
0.372061 0.178698 0.710735
0.589548 0.154055 0.679133
0.640253 0.164126 0.686671
0.638361 0.164904 0.684382
0.114473 0.248157 0.631846
0.123491 0.174472 0.611139
0.545129 0.167575 0.692699
0.640467 0.164111 0.68719
0.639216 0.164523 0.685344
0.198779 0.567239 0.72549
0.188403 0.53106 0.720851
0.474571 0.498283 0.839521
0.868879 0.423163 0.897139
0.840787 0.385611 0.868971
0.359197 0.83006 0.840406
0.354498 0.828031 0.830152
0.338994 0.814496 0.800717
0.856397 0.874525 0.836255
0.920851 0.85481 0.843366
0.36907 0.828717 0.846708
0.358144 0.831022 0.838636
0.362753 0.84744 0.80827
0.800534 0.936645 0.834318
0.927718 0.9252 0.871031
0.146288 0.174212 0.62417
0.385855 0.179004 0.713161
0.601831 0.157824 0.681178
0.640284 0.164111 0.686702
0.640208 0.164126 0.686488
0.115953 0.247059 0.632273
0.149737 0.174334 0.626062
0.549126 0.166674 0.691203
0.640391 0.164111 0.686931
0.640208 0.164126 0.686488
0.20882 0.545739 0.743603
0.193027 0.507927 0.729686
0.440848 0.451667 0.839399
0.820768 0.370657 0.860502
0.774029 0.325704 0.81236
0.359777 0.82916 0.852125
0.353628 0.821073 0.847303
0.334112 0.79115 0.832746
0.826139 0.836896 0.90135
0.910445 0.820722 0.919051
0.364523 0.834607 0.856001
0.36379 0.835187 0.85507
0.363912 0.835355 0.855161
0.740703 0.909789 0.915892
0.930205 0.923858 0.929015
