bundles/resolve-cinematic-luts/Phantom Luts/Canon Alexa LUT/ATOMOS Monitoring LUTs/C-Log 3/Jamaica Canon CL3 AML.cube
TITLE "Generated by Resolve"
LUT_3D_SIZE 33
0.0775464 0.0938277 0.0775311
0.0775158 0.0937819 0.0775006
0.0872206 0.093431 0.0775006
0.150286 0.0915236 0.0799725
0.217319 0.0890669 0.0830091
0.269978 0.0881056 0.0860151
0.319768 0.0882277 0.0912795
0.370657 0.0878462 0.0987106
0.419928 0.0881514 0.110903
0.466133 0.0891585 0.12462
0.50811 0.0911727 0.137484
0.545266 0.0936141 0.155489
0.577081 0.0970016 0.178546
0.601358 0.102815 0.200137
0.618372 0.110979 0.223423
0.633158 0.121309 0.246387
0.650568 0.13193 0.272679
0.67071 0.141772 0.301045
0.675105 0.14316 0.312474
0.676799 0.143389 0.320211
0.678203 0.143526 0.327443
0.679393 0.143648 0.333852
0.680415 0.143801 0.33962
0.681117 0.143847 0.344869
0.681529 0.143816 0.349416
0.682002 0.143755 0.353231
0.682383 0.143694 0.356832
0.682673 0.143648 0.359579
0.682918 0.143633 0.362203
0.683101 0.143648 0.364248
0.683238 0.143679 0.36585
0.683238 0.143679 0.367117
0.683207 0.143679 0.367605
0.0775158 0.0937972 0.0775006
0.0775311 0.0938125 0.0775158
0.0775158 0.0937819 0.0775006
0.111391 0.0943465 0.0770428
0.172885 0.0935836 0.079057
0.230701 0.0917525 0.0795911
0.282429 0.0907607 0.0799573
0.335393 0.0903182 0.0796521
0.387579 0.0899214 0.0811322
0.436027 0.0903029 0.0872206
0.479698 0.090837 0.0964523
0.517372 0.0925765 0.108492
0.551476 0.095964 0.132708
0.579339 0.100496 0.154513
0.600763 0.107713 0.179522
0.616709 0.117891 0.202701
0.635401 0.129 0.231693
0.657694 0.139361 0.262547
0.667857 0.142779 0.281178
0.670344 0.143099 0.289723
0.672251 0.143038 0.298009
0.673869 0.143084 0.305211
0.675227 0.143328 0.311833
0.676493 0.14345 0.317784
0.677501 0.143526 0.323049
0.678248 0.143587 0.327245
0.678965 0.143664 0.330983
0.679561 0.14374 0.334401
0.680034 0.143801 0.337057
0.680354 0.143816 0.339315
0.680568 0.143847 0.341054
0.680629 0.143847 0.342428
0.680568 0.143832 0.343114
0.0735027 0.101198 0.0788281
0.0762951 0.0969711 0.0763714
0.0785077 0.0959487 0.0771344
0.0833143 0.0959182 0.0775006
0.129 0.0993668 0.0780041
0.186664 0.101183 0.0777752
0.240574 0.101381 0.0764782
0.29659 0.100832 0.0753796
0.35581 0.0983902 0.0748913
0.410941 0.0942092 0.0764019
0.459327 0.0920882 0.0801404
0.501152 0.0916457 0.0882887
0.53521 0.0945449 0.103243
0.562768 0.0990005 0.124605
0.582071 0.104677 0.141436
0.598978 0.112062 0.165835
0.61651 0.122805 0.193286
0.636316 0.133639 0.219196
0.651072 0.139437 0.239826
0.656107 0.140597 0.250416
0.660822 0.141436 0.261509
0.664897 0.142275 0.271748
0.667796 0.142885 0.280415
0.66981 0.143114 0.287358
0.671305 0.143114 0.293553
0.672419 0.143053 0.298589
0.673365 0.143053 0.302785
0.674159 0.143175 0.306767
0.674815 0.143267 0.310094
0.675319 0.143328 0.312657
0.675715 0.143389 0.31487
0.675929 0.14345 0.316167
0.675959 0.143481 0.316991
0.0659648 0.133272 0.0817731
0.0675669 0.120928 0.0724804
0.0819715 0.109178 0.0751049
0.0839094 0.104097 0.0764324
0.101732 0.105684 0.0781109
0.147402 0.110842 0.0776379
0.203632 0.115038 0.0765393
0.262394 0.116472 0.0778821
0.323415 0.11664 0.0767224
0.3832 0.110124 0.0762951
0.439979 0.104952 0.0773938
0.488838 0.0987869 0.0814069
0.524895 0.0961471 0.0886549
0.552499 0.0983291 0.103822
0.576867 0.103883 0.132204
0.592889 0.111238 0.15288
0.608087 0.119402 0.177401
0.627314 0.130068 0.205844
0.640192 0.137316 0.217472
0.64007 0.137331 0.217151
0.644388 0.138247 0.225055
0.648859 0.139284 0.234165
0.653223 0.140215 0.243168
0.656947 0.140963 0.251225
0.660212 0.141466 0.258732
0.663005 0.142107 0.265873
0.66537 0.142596 0.271824
0.667033 0.14287 0.276478
0.667948 0.143053 0.280308
0.668803 0.14316 0.283207
0.669474 0.143221 0.285908
0.669871 0.143313 0.287602
0.669993 0.143328 0.288624
0.0660105 0.203143 0.0833448
0.0658732 0.192096 0.0679789
0.0713054 0.17554 0.0678569
0.0887922 0.164126 0.0691539
0.127031 0.149493 0.0715343
0.155978 0.152422 0.074815
0.197498 0.157382 0.0789044
0.247028 0.156344 0.0809033
0.300298 0.151202 0.0763867
0.360952 0.13402 0.0775311
0.419516 0.12311 0.078172
0.47483 0.118944 0.081239
0.518547 0.111391 0.0852064
0.542748 0.0973831 0.0878157
0.566705 0.103288 0.110628
0.587549 0.110063 0.142107
0.602777 0.118837 0.16524
0.619944 0.127459 0.192966
0.643595 0.13814 0.22385
0.643244 0.138262 0.222354
0.640574 0.137621 0.217334
0.639384 0.137301 0.215061
0.6392 0.137224 0.214618
0.641596 0.137926 0.219104
0.644755 0.138399 0.225422
0.647852 0.139147 0.231678
0.650797 0.139742 0.237568
0.653178 0.140337 0.242329
0.655207 0.14081 0.246525
0.656748 0.14107 0.250126
0.657969 0.141207 0.252888
0.658976 0.141421 0.255421
0.659434 0.141558 0.25684
0.0657969 0.257832 0.0859388
0.0658274 0.249409 0.0698405
0.0659495 0.233875 0.0693828
0.0841382 0.220569 0.0668345
0.122225 0.203464 0.0659648
0.167971 0.192493 0.0686809
0.200717 0.194095 0.0700999
0.243641 0.198138 0.0743725
0.300786 0.195239 0.0791791
0.363546 0.185946 0.0821241
0.415824 0.176822 0.0789349
0.46714 0.165225 0.0822461
0.512383 0.139956 0.0867018
0.547341 0.120027 0.0923018
0.568612 0.114305 0.102235
0.575051 0.107027 0.119799
0.596521 0.117266 0.153414
0.613336 0.126604 0.178027
0.633127 0.134401 0.208209
0.643824 0.138567 0.222522
0.644282 0.138567 0.223636
0.643732 0.138476 0.222675
0.642557 0.138262 0.220447
0.641413 0.137972 0.218402
0.640543 0.137697 0.21709
0.63975 0.137514 0.215641
0.639216 0.137316 0.21442
0.639399 0.137392 0.214817
0.640558 0.137728 0.21706
0.641535 0.138003 0.218677
0.642618 0.138247 0.220874
0.643565 0.13843 0.222965
0.643961 0.138491 0.223957
0.06598 0.312306 0.091371
0.0659953 0.30573 0.0741894
0.0659037 0.291279 0.0727703
0.0769818 0.276066 0.0708171
0.0972915 0.265293 0.0690776
0.159548 0.245731 0.068101
0.209781 0.235904 0.0721752
0.24567 0.235538 0.0741741
0.293126 0.238849 0.0730755
0.355993 0.236179 0.0764935
0.420233 0.225742 0.0842298
0.471962 0.214603 0.0868696
0.518318 0.201984 0.0886244
0.556466 0.184039 0.0957504
0.585229 0.16202 0.105989
0.581247 0.122393 0.110475
0.58436 0.114092 0.131945
0.605966 0.125338 0.163378
0.626123 0.133669 0.191806
0.63975 0.138582 0.211139
0.641062 0.138598 0.214862
0.642115 0.138567 0.217807
0.642741 0.138552 0.219638
0.643229 0.138582 0.220783
0.643641 0.138582 0.221836
0.64361 0.138552 0.221942
0.643381 0.138476 0.221653
0.643107 0.138445 0.221134
0.642786 0.138384 0.220523
0.642374 0.138277 0.219867
0.641886 0.138186 0.218982
0.641428 0.138079 0.218265
0.641352 0.138094 0.21828
0.0659342 0.369665 0.100832
0.0658885 0.365087 0.0781109
0.0659953 0.353246 0.0767376
0.0662547 0.337194 0.0749981
0.0894636 0.326192 0.0724498
0.124529 0.312444 0.0690623
0.192935 0.293019 0.0683299
0.249897 0.282139 0.0728313
0.293675 0.2804 0.075288
0.34551 0.283619 0.0769207
0.408988 0.282353 0.076112
0.471397 0.271733 0.0867475
0.527657 0.255039 0.0960403
0.565835 0.244617 0.0990921
0.600504 0.22858 0.110399
0.620417 0.211963 0.119921
0.628565 0.190249 0.13724
0.596475 0.130266 0.133928
0.616938 0.132494 0.171939
0.639887 0.140139 0.204044
0.64007 0.140047 0.205035
0.639689 0.139742 0.205478
0.639338 0.139376 0.206104
0.639063 0.13901 0.206806
0.638911 0.138705 0.207553
0.639109 0.138567 0.208881
0.639536 0.138582 0.210437
0.640009 0.138582 0.211841
0.640467 0.138582 0.213214
0.640894 0.138598 0.21445
0.641215 0.138582 0.215534
0.641443 0.138582 0.216373
0.641459 0.138582 0.216709
0.0659495 0.427695 0.115846
0.0658427 0.426703 0.0852369
0.0659037 0.418494 0.0844892
0.0659495 0.403296 0.0819409
0.0798199 0.391272 0.0782635
0.0974594 0.382712 0.076112
0.153582 0.36669 0.0704356
0.227543 0.345693 0.0696269
0.294606 0.331487 0.0740673
0.345632 0.329091 0.0769207
0.399481 0.332464 0.0795453
0.460273 0.333227 0.0829786
0.519799 0.321782 0.0893873
0.574289 0.305074 0.104295
0.615778 0.288441 0.118853
0.640345 0.279561 0.12665
0.656901 0.263005 0.141619
0.660441 0.24123 0.157305
0.654093 0.205173 0.173449
0.631296 0.140047 0.169863
0.639384 0.142901 0.184756
0.639796 0.141894 0.193942
0.641245 0.14139 0.201038
0.641215 0.141207 0.201938
0.641184 0.14107 0.202564
0.641138 0.140932 0.203128
0.641093 0.14081 0.203708
0.640955 0.140673 0.20412
0.640894 0.140551 0.204547
0.640787 0.140459 0.204898
0.64065 0.140383 0.205142
0.640421 0.140291 0.205219
0.640284 0.140261 0.20531
0.0715038 0.484382 0.139406
0.0729992 0.485298 0.100114
0.0717174 0.480934 0.0918288
0.0694896 0.469184 0.0923629
0.0756085 0.455573 0.0887007
0.0966964 0.446036 0.0840925
0.11487 0.437354 0.0810254
0.191089 0.422629 0.0728008
0.268986 0.398642 0.0711376
0.346014 0.38291 0.0762951
0.399985 0.380011 0.0800793
0.451408 0.383459 0.0838636
0.509026 0.385672 0.0899367
0.565805 0.3776 0.0959029
0.618082 0.36289 0.119142
0.659007 0.342397 0.139086
0.684153 0.329152 0.157
0.693507 0.317143 0.169131
0.697597 0.296239 0.18613
0.6925 0.265217 0.195193
0.683818 0.227237 0.198627
0.665644 0.19266 0.186664
0.649866 0.164202 0.175311
0.641474 0.148348 0.173434
0.637873 0.141009 0.17583
0.637598 0.141009 0.178561
0.639109 0.142916 0.18378
0.639139 0.142382 0.188403
0.639216 0.142077 0.190723
0.639231 0.142 0.191363
0.639246 0.141939 0.191867
0.639124 0.141848 0.192004
0.638926 0.141787 0.191943
0.0835279 0.539086 0.165576
0.0871138 0.539696 0.126619
0.0878462 0.535775 0.107271
0.0838483 0.528161 0.10956
0.0784466 0.51632 0.105516
0.0974746 0.507408 0.0988174
0.113481 0.500374 0.0940871
0.145083 0.492882 0.0878309
0.232624 0.478843 0.0773632
0.317403 0.448249 0.0751507
0.399695 0.433463 0.0805066
0.453941 0.430304 0.0856947
0.5028 0.434028 0.091371
0.555978 0.437278 0.100847
0.610727 0.433387 0.113985
0.657511 0.419318 0.135988
0.69723 0.404044 0.162066
0.725185 0.383856 0.190341
0.733623 0.372686 0.204227
0.735988 0.354269 0.215717
0.732799 0.326162 0.223041
0.724697 0.310582 0.218387
0.716518 0.295552 0.213367
0.708476 0.281285 0.208515
0.701473 0.267277 0.204944
0.695598 0.254566 0.202884
0.691325 0.243992 0.202197
0.688136 0.23566 0.201724
0.683604 0.226032 0.200229
0.676539 0.213321 0.195804
0.669932 0.199924 0.192004
0.664195 0.189944 0.187625
0.661295 0.185306 0.185748
0.102953 0.589532 0.192081
0.108095 0.589288 0.163912
0.11371 0.585458 0.135927
0.109316 0.581262 0.137102
0.104128 0.572259 0.131014
0.106569 0.564385 0.1243
0.128344 0.559625 0.115038
0.139956 0.55375 0.109545
0.183734 0.547784 0.0988022
0.288624 0.5308 0.0848402
0.373587 0.497139 0.0822766
0.454597 0.48452 0.0889906
0.507317 0.481743 0.096025
0.55108 0.48481 0.104601
0.60058 0.488197 0.117815
0.651804 0.488167 0.136614
0.693507 0.477791 0.159091
0.731899 0.462745 0.18938
0.760296 0.445151 0.219715
0.777173 0.423468 0.245212
0.775525 0.411139 0.24802
0.769482 0.399008 0.244297
0.763851 0.387778 0.240589
0.75848 0.376959 0.237537
0.75314 0.366201 0.234409
0.747906 0.356146 0.231113
0.743557 0.346746 0.228977
0.739391 0.338582 0.226734
0.73611 0.331716 0.224918
0.732845 0.325322 0.223453
0.730053 0.319371 0.221942
0.727077 0.313985 0.220233
0.725093 0.309957 0.219287
0.131258 0.637049 0.22916
0.137316 0.636927 0.210864
0.150851 0.631785 0.174945
0.148562 0.628687 0.171374
0.141299 0.623087 0.168978
0.132158 0.613367 0.161456
0.142565 0.609049 0.148547
0.16141 0.605768 0.136889
0.17821 0.601617 0.128023
0.242924 0.598718 0.11281
0.350988 0.580789 0.0981308
0.431556 0.544854 0.094255
0.508003 0.534264 0.103258
0.556832 0.530907 0.112581
0.596643 0.53373 0.124559
0.642771 0.537102 0.141848
0.687343 0.538598 0.164248
0.72607 0.533501 0.189166
0.763241 0.52018 0.219928
0.789166 0.504402 0.246021
0.808408 0.483314 0.270024
0.813275 0.466133 0.279194
0.810086 0.456306 0.277897
0.805997 0.448218 0.274968
0.80116 0.440894 0.271214
0.796735 0.434928 0.26746
0.792599 0.429664 0.263828
0.788663 0.425208 0.260319
0.785489 0.421042 0.257557
0.782254 0.417029 0.25478
0.77966 0.413489 0.252476
0.777584 0.410483 0.250935
0.775876 0.407813 0.249607
0.169482 0.682628 0.272389
0.174929 0.683207 0.263569
0.19173 0.677378 0.226658
0.19585 0.673289 0.21384
0.188464 0.670542 0.215778
0.179919 0.662821 0.208316
0.176898 0.656306 0.196582
0.193057 0.654597 0.177905
0.206943 0.652201 0.165454
0.22237 0.649775 0.155474
0.313588 0.647974 0.132967
0.412528 0.627054 0.117968
0.488655 0.589624 0.112535
0.558068 0.58201 0.125124
0.60444 0.579248 0.138399
0.639277 0.581125 0.152209
0.681788 0.584848 0.1738
0.720897 0.58703 0.198016
0.760739 0.5879 0.228519
0.790234 0.576242 0.251896
0.814176 0.562173 0.272969
0.826871 0.546059 0.285298
0.825681 0.537804 0.284153
0.824628 0.530327 0.283299
0.823194 0.522972 0.28217
0.822049 0.516136 0.281422
0.8215 0.510491 0.281132
0.820371 0.504982 0.280507
0.819379 0.500069 0.280232
0.818158 0.495796 0.279561
0.81709 0.492226 0.278996
0.815854 0.489128 0.278187
0.814908 0.487022 0.277394
0.216236 0.727855 0.320089
0.220432 0.729168 0.316426
0.234501 0.726238 0.287419
0.243183 0.720623 0.261448
0.239002 0.717968 0.26125
0.232303 0.712932 0.2589
0.222324 0.703716 0.250675
0.229191 0.700313 0.23389
0.248157 0.700114 0.213687
0.253864 0.695949 0.201877
0.283314 0.69926 0.190143
0.39234 0.693629 0.160601
0.474891 0.670756 0.146929
0.544625 0.631754 0.138827
0.606851 0.628336 0.157229
0.649958 0.625467 0.17322
0.679316 0.626581 0.187732
0.717311 0.630732 0.211002
0.753643 0.633738 0.236988
0.785412 0.634485 0.26186
0.812543 0.63064 0.283558
0.833249 0.617151 0.298619
0.835477 0.609262 0.299229
0.83473 0.60293 0.297505
0.834134 0.596963 0.296086
0.833738 0.592233 0.295109
0.832731 0.587015 0.29366
0.832334 0.582712 0.292805
0.831617 0.578454 0.291752
0.830732 0.575021 0.290639
0.830381 0.572244 0.29015
0.829679 0.570016 0.289311
0.828977 0.568139 0.288289
0.265751 0.774762 0.371801
0.269108 0.776974 0.371008
0.277867 0.776516 0.348516
0.286275 0.773083 0.314794
0.284794 0.769757 0.308385
0.281941 0.766491 0.308141
0.275227 0.758144 0.300938
0.271977 0.749325 0.290852
0.290303 0.747112 0.271901
0.299916 0.743511 0.255985
0.306676 0.741985 0.246738
0.361913 0.748257 0.228031
0.474159 0.738094 0.20087
0.537835 0.712428 0.186267
0.597406 0.672831 0.177371
0.653208 0.673747 0.197971
0.692805 0.670985 0.215595
0.719676 0.671717 0.230838
0.752178 0.675853 0.253086
0.784497 0.678721 0.277028
0.809583 0.679789 0.296483
0.832029 0.677958 0.313542
0.84155 0.673747 0.319677
0.841428 0.669688 0.318364
0.840528 0.664622 0.316152
0.840253 0.660365 0.314916
0.839887 0.656077 0.313466
0.839399 0.652232 0.311971
0.839521 0.649058 0.311284
0.839078 0.64651 0.310231
0.838544 0.643824 0.30898
0.838209 0.641733 0.308034
0.837934 0.640009 0.30721
0.309545 0.820905 0.421897
0.312291 0.823224 0.422171
0.317464 0.824048 0.40296
0.322988 0.822904 0.365591
0.322744 0.820737 0.350698
0.320089 0.817838 0.353582
0.317174 0.812177 0.34638
0.308461 0.799939 0.336843
0.328298 0.795666 0.32694
0.349767 0.792325 0.310323
0.352392 0.790921 0.307729
0.373297 0.793362 0.297154
0.46067 0.795148 0.267597
0.551141 0.785031 0.25362
0.596857 0.75079 0.230625
0.648768 0.714824 0.222232
0.698528 0.718181 0.245212
0.734722 0.715892 0.262623
0.760143 0.716396 0.277943
0.784375 0.718853 0.294911
0.810376 0.721111 0.314153
0.83331 0.722026 0.331106
0.849104 0.720897 0.342535
0.848219 0.717601 0.340475
0.847944 0.714794 0.339025
0.847181 0.711543 0.337163
0.84654 0.708644 0.335729
0.846418 0.70634 0.334722
0.846143 0.704402 0.333715
0.845579 0.702312 0.332174
0.845197 0.700435 0.330831
0.8448 0.698802 0.329519
0.844907 0.697704 0.328771
0.347219 0.861952 0.466331
0.349401 0.864225 0.466987
0.352651 0.865461 0.447242
0.354681 0.865278 0.413153
0.354314 0.864607 0.39115
0.352346 0.862242 0.39237
0.351278 0.859037 0.388251
0.34815 0.851209 0.383795
0.357885 0.843168 0.377401
0.38819 0.839826 0.364416
0.400092 0.836271 0.357092
0.408423 0.83534 0.353124
0.450797 0.842603 0.342809
0.553338 0.833936 0.309606
0.6177 0.821607 0.301595
0.652781 0.787243 0.277409
0.697963 0.757504 0.271061
0.741588 0.762051 0.294774
0.775204 0.760006 0.311986
0.797787 0.759869 0.325689
0.814389 0.760723 0.336934
0.836072 0.76408 0.353796
0.854612 0.764645 0.367514
0.859297 0.7626 0.370031
0.858579 0.759762 0.368002
0.858152 0.757656 0.366445
0.857725 0.75552 0.365011
0.857191 0.75317 0.36347
0.856428 0.751156 0.361776
0.856306 0.749676 0.360616
0.855772 0.748074 0.359091
0.855344 0.746639 0.357626
0.8551 0.745739 0.356405
0.375372 0.892134 0.500694
0.37557 0.893095 0.500053
0.376547 0.894026 0.47892
0.376287 0.893797 0.447837
0.373754 0.892622 0.420462
0.3738 0.89276 0.421408
0.372137 0.891402 0.413718
0.371984 0.888563 0.413825
0.377798 0.882368 0.41207
0.418265 0.880339 0.410574
0.441123 0.876127 0.401556
0.450355 0.875532 0.40351
0.471992 0.878248 0.398993
0.544228 0.881712 0.378775
0.632563 0.868482 0.357549
0.675959 0.850248 0.344991
0.703349 0.819471 0.323201
0.744259 0.797742 0.32192
0.783475 0.802136 0.345678
0.811612 0.800122 0.360418
0.83122 0.800275 0.372442
0.845838 0.800992 0.382315
0.859068 0.802426 0.392081
0.869505 0.80293 0.399451
0.86891 0.801114 0.398001
0.868254 0.799207 0.396521
0.867704 0.797467 0.395163
0.867155 0.795773 0.393881
0.866712 0.794232 0.392889
0.866438 0.793149 0.392126
0.86598 0.79176 0.390936
0.865614 0.790768 0.389609
0.865263 0.789868 0.388159
0.383291 0.897032 0.515785
0.379904 0.89688 0.510246
0.377859 0.89575 0.486259
0.37644 0.893996 0.455024
0.374243 0.892851 0.424826
0.374228 0.892958 0.425711
0.373785 0.892821 0.421653
0.374136 0.892653 0.420127
0.377997 0.892851 0.424506
0.425757 0.900069 0.432456
0.462989 0.903593 0.434379
0.483955 0.904845 0.438041
0.501183 0.907851 0.441016
0.542229 0.914946 0.433951
0.633631 0.903136 0.399512
0.696101 0.894789 0.395056
0.722148 0.873869 0.379995
0.748043 0.846601 0.364157
0.786038 0.83183 0.368643
0.820294 0.837201 0.390478
0.844297 0.836454 0.403326
0.860883 0.835996 0.412695
0.873335 0.83682 0.420798
0.881834 0.836896 0.426032
0.882216 0.835752 0.425559
0.881559 0.834546 0.424521
0.880674 0.833143 0.423163
0.879774 0.831571 0.421759
0.878828 0.83006 0.420661
0.877989 0.82887 0.419501
0.877562 0.827893 0.418753
0.87715 0.827146 0.418051
0.877012 0.826749 0.417105
0.38616 0.897566 0.520714
0.380972 0.897063 0.513512
0.377874 0.895781 0.48687
0.37644 0.893996 0.455039
0.373632 0.892561 0.419013
0.372564 0.892348 0.411307
0.373724 0.89279 0.421271
0.373556 0.892699 0.419684
0.373724 0.892668 0.425513
0.410193 0.898283 0.436957
0.461372 0.907668 0.444678
0.497353 0.914656 0.447913
0.515038 0.922835 0.461158
0.544381 0.933074 0.46482
0.612909 0.936751 0.446448
0.696223 0.918578 0.420096
0.738964 0.907591 0.41593
0.760662 0.892378 0.407538
0.789303 0.867735 0.397467
0.824155 0.86331 0.409491
0.851972 0.867369 0.426932
0.872068 0.867521 0.437919
0.886671 0.868254 0.44654
0.896574 0.869139 0.452552
0.900877 0.86978 0.455589
0.900206 0.868284 0.454337
0.899596 0.866926 0.453223
0.89926 0.86569 0.452277
0.899199 0.865171 0.451942
0.898573 0.864149 0.451072
0.897978 0.863035 0.450278
0.897398 0.862074 0.449775
0.896864 0.861357 0.449149
0.388403 0.897612 0.522133
0.382086 0.896819 0.513863
0.37847 0.896452 0.502358
0.377493 0.894499 0.468696
0.375647 0.893019 0.434653
0.372168 0.891737 0.404746
0.373922 0.892332 0.418845
0.373739 0.892256 0.417044
0.373907 0.892332 0.418814
0.385794 0.893889 0.428489
0.450217 0.906203 0.44654
0.492821 0.914672 0.449393
0.513375 0.923095 0.462104
0.539986 0.932998 0.467277
0.587854 0.936828 0.462699
0.675517 0.931441 0.432959
0.737926 0.916518 0.42414
0.772808 0.915938 0.431693
0.797391 0.904875 0.429679
0.828779 0.887419 0.428519
0.857877 0.887648 0.442298
0.880217 0.892241 0.456672
0.897795 0.894255 0.467521
0.909178 0.895171 0.474342
0.916472 0.896727 0.479271
0.916197 0.895842 0.478553
0.915816 0.895003 0.477821
0.915206 0.89424 0.477165
0.914488 0.893339 0.476219
0.913878 0.892699 0.475502
0.91339 0.892088 0.474937
0.913008 0.891432 0.47483
0.912825 0.890822 0.474845
0.388205 0.898405 0.528191
0.382116 0.896895 0.510536
0.378225 0.897032 0.512612
0.37792 0.895674 0.486046
0.376638 0.893843 0.453941
0.373648 0.89218 0.416144
0.372152 0.891798 0.405142
0.373831 0.892287 0.417853
0.373816 0.892287 0.417716
0.375189 0.892653 0.423453
0.433402 0.902724 0.441001
0.478462 0.91162 0.446738
0.509041 0.921538 0.460304
0.538811 0.932357 0.466789
0.579492 0.936812 0.470985
0.650889 0.936797 0.456092
0.722789 0.936797 0.445228
0.767758 0.927108 0.44036
0.800381 0.921172 0.444083
0.830686 0.911955 0.447562
0.860746 0.905272 0.455329
0.884352 0.906752 0.467445
0.90248 0.910704 0.479271
0.916365 0.913741 0.488472
0.927565 0.915801 0.496345
0.929519 0.915831 0.497658
0.929534 0.915618 0.497581
0.929244 0.915328 0.497276
0.928756 0.915038 0.496849
0.928176 0.914748 0.496498
0.92781 0.914382 0.496345
0.927642 0.913924 0.496422
0.927703 0.913542 0.496284
0.387411 0.899062 0.53698
0.381918 0.896986 0.510811
0.378164 0.897078 0.512505
0.378195 0.896727 0.502785
0.377279 0.894682 0.468818
0.375647 0.893187 0.435996
0.371786 0.891661 0.401846
0.37409 0.892409 0.420508
0.373663 0.892241 0.416602
0.37409 0.892409 0.420569
0.416922 0.899611 0.435554
0.466346 0.908736 0.443687
0.502312 0.918639 0.45597
0.532555 0.929244 0.46421
0.567758 0.936706 0.470497
0.628031 0.936675 0.463432
0.705943 0.936706 0.448585
0.758755 0.932097 0.443076
0.794156 0.922011 0.442893
0.825757 0.917327 0.449622
0.856977 0.910948 0.457649
0.882994 0.911604 0.469932
0.902815 0.91574 0.482353
0.917494 0.920302 0.492515
0.92903 0.922454 0.500099
0.934173 0.922957 0.503365
0.934722 0.923018 0.503822
0.934615 0.923064 0.503792
0.934447 0.92314 0.503716
0.934188 0.923232 0.503655
0.93402 0.923308 0.503716
0.934051 0.923262 0.504112
0.934264 0.923125 0.504707
0.387961 0.899672 0.54641
0.382559 0.897292 0.516503
0.378836 0.896895 0.50779
0.378302 0.897185 0.513573
0.377707 0.895628 0.483467
0.376532 0.893889 0.451087
0.372412 0.89189 0.407248
0.373587 0.89221 0.415976
0.373785 0.892271 0.417456
0.373877 0.892302 0.418357
0.398322 0.896422 0.430503
0.45127 0.906157 0.443549
0.498085 0.916747 0.452628
0.526802 0.926757 0.462074
0.559701 0.93666 0.470069
0.611429 0.936797 0.467628
0.69012 0.936843 0.45034
0.749844 0.933257 0.44239
0.787564 0.922927 0.441917
0.818692 0.918364 0.44799
0.849958 0.91107 0.455024
0.877562 0.910796 0.466773
0.898512 0.914809 0.479469
0.914183 0.919158 0.490288
0.926619 0.921996 0.498497
0.933455 0.922942 0.502754
0.934722 0.923033 0.50367
0.93463 0.923079 0.503639
0.934447 0.923156 0.503563
0.934188 0.923262 0.503487
0.93402 0.923323 0.503532
0.933944 0.923339 0.503807
0.93402 0.923262 0.504372
0.391852 0.900923 0.557656
0.387335 0.898528 0.527489
0.381933 0.896956 0.507652
0.379049 0.897322 0.515602
0.378012 0.896498 0.497307
0.376898 0.894362 0.46247
0.374456 0.892576 0.423804
0.371725 0.89163 0.401266
0.373739 0.892256 0.417014
0.373846 0.892302 0.418112
0.386847 0.894286 0.426764
0.439857 0.904326 0.443565
0.49305 0.915145 0.449958
0.520867 0.924331 0.459846
0.552422 0.936828 0.469352
0.598199 0.936721 0.468971
0.676478 0.936751 0.451652
0.741207 0.935103 0.442741
0.781765 0.9252 0.442222
0.813886 0.921004 0.448508
0.844266 0.912551 0.45362
0.872633 0.910704 0.464424
0.894484 0.914107 0.477165
0.910933 0.918242 0.487938
0.924071 0.921614 0.496925
0.93315 0.923018 0.502571
0.934722 0.923049 0.503594
0.934615 0.923095 0.503563
0.934447 0.923156 0.503487
0.934188 0.923278 0.50341
0.93402 0.923339 0.503426
0.933944 0.923354 0.503685
0.933974 0.923278 0.504128
0.39443 0.902281 0.567178
0.391974 0.899687 0.538094
0.38645 0.897444 0.512337
0.381582 0.897368 0.514336
0.378775 0.897108 0.508354
0.377356 0.895109 0.473976
0.375967 0.893492 0.441001
0.372198 0.891814 0.405493
0.373846 0.892287 0.418051
0.373846 0.892302 0.418112
0.373907 0.892485 0.424262
0.435187 0.903288 0.442664
0.486549 0.913466 0.448402
0.515023 0.922225 0.458198
0.546365 0.935241 0.468162
0.589212 0.936828 0.46894
0.66511 0.93666 0.452415
0.734051 0.936675 0.445182
0.776989 0.927642 0.443183
0.808606 0.922499 0.44802
0.83978 0.914183 0.45301
0.86894 0.910994 0.463081
0.891218 0.913603 0.475059
0.908309 0.917784 0.486305
0.921294 0.921263 0.495262
0.931716 0.923064 0.501823
0.934401 0.923186 0.503456
0.934417 0.923171 0.503471
0.934295 0.923217 0.50341
0.934081 0.923323 0.503319
0.933944 0.923384 0.503243
