bundles/resolve-cinematic-luts/Phantom Luts/Canon Alexa LUT/ATOMOS Monitoring LUTs/C-Log 3/Neutral Canon CL3 AML.cube
TITLE "Generated by Resolve"
LUT_3D_SIZE 5
0.0779278 0.0779278 0.0779278
0.427527 0.0656291 0.139467
0.837858 0.0691386 0.324956
0.897673 0.0690623 0.41886
0.898878 0.0691234 0.443687
0.0691081 0.398505 0.0948806
0.294881 0.327428 0.0690623
0.703883 0.238575 0.0875868
0.866712 0.0690623 0.203372
0.862257 0.0690166 0.209964
0.0690318 0.827619 0.19501
0.116945 0.798383 0.0659342
0.65832 0.711788 0.0690471
0.880537 0.693767 0.0722515
0.883803 0.676966 0.0698558
0.0690166 0.925917 0.282078
0.0690318 0.925933 0.0927138
0.586007 0.926101 0.193622
0.899092 0.923384 0.223972
0.909575 0.924361 0.215503
0.0690929 0.925994 0.351507
0.0690318 0.925933 0.0970169
0.48101 0.92604 0.188907
0.879454 0.923613 0.214069
0.909575 0.924361 0.215503
0.0697185 0.084596 0.329381
0.409751 0.0659495 0.395026
0.846021 0.0690166 0.540276
0.913176 0.068986 0.607889
0.911696 0.0689708 0.627634
0.0690929 0.29572 0.283726
0.269139 0.269139 0.269139
0.758633 0.068986 0.294987
0.897902 0.0690471 0.412451
0.898985 0.0691081 0.438239
0.0690929 0.74844 0.401053
0.0690013 0.765194 0.208713
0.633997 0.682857 0.0691539
0.891615 0.64007 0.0693523
0.892638 0.611383 0.0830549
0.0690471 0.925963 0.497368
0.0690471 0.925948 0.29929
0.422721 0.925902 0.192859
0.884596 0.922789 0.226658
0.909575 0.924361 0.215503
0.0691539 0.926055 0.534432
0.068986 0.925887 0.365698
0.326833 0.92607 0.16495
0.857649 0.920089 0.209079
0.909575 0.924361 0.215503
0.111788 0.108507 0.653422
0.445838 0.0886244 0.70013
0.810391 0.0691234 0.788098
0.899107 0.0690013 0.86833
0.898405 0.0690166 0.885786
0.0690929 0.219944 0.567544
0.146868 0.0974594 0.620539
0.730617 0.0656443 0.712047
0.902037 0.0690623 0.780346
0.901579 0.0690776 0.796017
0.0690623 0.633677 0.625589
0.0691997 0.614771 0.608087
0.612192 0.612192 0.612192
0.923888 0.524758 0.604868
0.925719 0.490028 0.60708
0.0690776 0.902205 0.712367
0.0691844 0.913848 0.664027
0.0691386 0.926055 0.338109
0.866087 0.912596 0.376898
0.910872 0.903456 0.348379
0.068986 0.897475 0.733516
0.0691539 0.909575 0.681041
0.0690318 0.925948 0.390387
0.802045 0.910048 0.250477
0.912428 0.92459 0.218967
0.134081 0.166323 0.825605
0.461616 0.149722 0.88687
0.822431 0.0656443 0.925673
0.893904 0.0691081 0.926009
0.893904 0.0691081 0.926009
0.0691386 0.255131 0.817929
0.126818 0.166812 0.824811
0.728145 0.0969253 0.920943
0.893904 0.0691081 0.926009
0.893904 0.0691081 0.926009
0.0690623 0.587732 0.825971
0.0690623 0.554925 0.838361
0.493355 0.502571 0.870771
0.905226 0.405493 0.921691
0.906981 0.36112 0.923598
0.0690471 0.876478 0.88043
0.0690776 0.86511 0.869429
0.0690471 0.837705 0.841794
0.850263 0.850263 0.850263
0.913573 0.830488 0.848371
0.0692302 0.879515 0.898589
0.0690471 0.876799 0.883696
0.0690623 0.883558 0.815824
0.770764 0.924163 0.819104
0.920943 0.92369 0.873182
0.172305 0.163363 0.833997
0.478111 0.148775 0.88986
0.839277 0.0691234 0.926024
0.893904 0.0691081 0.926009
0.893904 0.0691081 0.926009
0.0691997 0.249348 0.816068
0.167666 0.163867 0.833143
0.736248 0.0944533 0.921431
0.893919 0.0691081 0.926009
0.893904 0.0691081 0.926009
0.0690776 0.573785 0.872877
0.0691691 0.535683 0.866499
0.47306 0.46154 0.869108
0.906752 0.340826 0.926085
0.90753 0.285527 0.925933
0.0690929 0.873747 0.905058
0.0690013 0.861982 0.901671
0.0690776 0.827436 0.896269
0.824247 0.822187 0.906493
0.909377 0.799329 0.913939
0.0690471 0.882383 0.907073
0.0690471 0.882383 0.907073
0.0690471 0.882673 0.907225
0.724666 0.900435 0.906142
0.925124 0.925124 0.925124
