bundles/resolve-cinematic-luts/Phantom Luts/Canon Alexa LUT/ATOMOS Monitoring LUTs/C-Log 3/Neutral Canon CL3 AML.cube
TITLE "Generated by Resolve"
LUT_3D_SIZE 33
0.0779278 0.0779278 0.0779278
0.0779278 0.0779278 0.0779278
0.0937667 0.0774548 0.0787518
0.179217 0.0702525 0.0865644
0.235554 0.0667887 0.0915389
0.284199 0.0670024 0.098085
0.33164 0.0670787 0.107073
0.380835 0.0657206 0.120394
0.427527 0.0656291 0.139467
0.475135 0.0657359 0.156924
0.523247 0.0691081 0.171176
0.572045 0.0690471 0.193194
0.621637 0.0689708 0.215061
0.673259 0.0691386 0.238193
0.726497 0.0691234 0.264149
0.783352 0.0691234 0.292699
0.837858 0.0691386 0.324956
0.887678 0.0691081 0.359762
0.894438 0.0691539 0.373144
0.895171 0.068986 0.382757
0.89575 0.0690013 0.391363
0.896452 0.0690166 0.399405
0.897017 0.0690318 0.406744
0.897261 0.0690471 0.413199
0.897673 0.0690623 0.41886
0.898009 0.0690776 0.423789
0.898283 0.0690929 0.428092
0.89836 0.0690929 0.431968
0.898451 0.0690929 0.435111
0.898604 0.0691081 0.437827
0.898695 0.0691081 0.440299
0.898772 0.0691081 0.442283
0.898878 0.0691234 0.443687
0.0779278 0.0779278 0.0779278
0.0779278 0.0779278 0.0779278
0.0779278 0.0779278 0.0779278
0.128588 0.0780652 0.078294
0.19617 0.0719158 0.0838178
0.247517 0.0685893 0.0870222
0.296086 0.0661173 0.0890059
0.346334 0.0656291 0.090013
0.395636 0.0657511 0.0932021
0.444038 0.0690929 0.103151
0.491524 0.0689708 0.114672
0.539101 0.0691081 0.131273
0.587671 0.0690776 0.161929
0.642344 0.0690471 0.18471
0.697368 0.0690471 0.210422
0.756237 0.0690318 0.235386
0.815366 0.0690929 0.268727
0.870863 0.0690623 0.306233
0.888869 0.0690318 0.328786
0.890669 0.0690623 0.339925
0.892012 0.0690776 0.35079
0.892912 0.0691539 0.360174
0.894011 0.0691691 0.368765
0.894682 0.0690776 0.376318
0.895201 0.068986 0.383154
0.895521 0.0690013 0.388602
0.895964 0.0690166 0.393484
0.8963 0.0690166 0.398062
0.89662 0.0690318 0.401495
0.896849 0.0690318 0.404746
0.897047 0.0690318 0.407202
0.897185 0.0690471 0.409308
0.897169 0.0690471 0.411078
0.0779278 0.0779278 0.0779278
0.0779278 0.0779278 0.0779278
0.0779278 0.0779278 0.0779278
0.085069 0.0818647 0.0779126
0.149081 0.0882429 0.0772869
0.203891 0.0874952 0.0787213
0.256809 0.086305 0.0796979
0.311009 0.0847334 0.0806744
0.367285 0.0789349 0.0819257
0.419837 0.0686351 0.0840467
0.469841 0.0657816 0.0915084
0.519692 0.0657054 0.102495
0.569314 0.0691081 0.119707
0.618891 0.0690471 0.146899
0.667521 0.068986 0.163699
0.720577 0.0691386 0.189029
0.782589 0.0689708 0.219135
0.840589 0.0689708 0.249836
0.870924 0.0690166 0.275975
0.876524 0.0690776 0.289296
0.881498 0.0691539 0.302907
0.885679 0.0690013 0.315663
0.888945 0.0690318 0.327352
0.890364 0.0690471 0.336538
0.891463 0.0690776 0.344564
0.892287 0.0691081 0.351812
0.892729 0.0691386 0.357763
0.893324 0.0691539 0.362814
0.893843 0.0691691 0.367224
0.894224 0.0691691 0.370871
0.894484 0.0691386 0.373831
0.894682 0.0690776 0.376287
0.894835 0.0690318 0.378424
0.065919 0.11928 0.0785992
0.0731518 0.101701 0.0742657
0.0821393 0.0905013 0.0774395
0.082063 0.0827344 0.0776226
0.100206 0.0900893 0.0786755
0.161501 0.098909 0.0773938
0.214343 0.102617 0.0752575
0.271534 0.103182 0.0755474
0.333425 0.0992905 0.0787366
0.393393 0.09308 0.0822614
0.449271 0.0856489 0.0844434
0.503624 0.0723278 0.0874952
0.554681 0.0657206 0.0978103
0.605417 0.0691081 0.118074
0.655436 0.0690471 0.145342
0.706584 0.068986 0.167239
0.75935 0.068986 0.193988
0.818524 0.0690013 0.225986
0.856641 0.0690471 0.241718
0.857374 0.0690623 0.24419
0.863096 0.0691234 0.256336
0.868605 0.068986 0.268116
0.87335 0.0690471 0.279713
0.877775 0.0690929 0.290303
0.881651 0.0691386 0.300496
0.884703 0.0689555 0.309255
0.887236 0.0690166 0.317266
0.888975 0.0690318 0.32369
0.889799 0.0690318 0.328923
0.890471 0.0690471 0.333135
0.891005 0.0690623 0.336736
0.891371 0.0690623 0.339788
0.891661 0.0690623 0.342504
0.0691386 0.189914 0.078584
0.0691691 0.177325 0.066041
0.0823529 0.16318 0.0668498
0.0938888 0.153368 0.0716564
0.126375 0.142184 0.0696727
0.160143 0.151415 0.0725719
0.205112 0.154879 0.0772412
0.255634 0.150958 0.0795148
0.305165 0.145403 0.0732738
0.361563 0.125231 0.0733043
0.422522 0.110918 0.0795453
0.482841 0.097612 0.0851148
0.53959 0.085771 0.0897078
0.593515 0.0670176 0.0956436
0.644999 0.0691234 0.118944
0.69572 0.0691081 0.151003
0.749523 0.0690623 0.174151
0.800519 0.0690318 0.205814
0.856977 0.0690471 0.238849
0.85771 0.0690776 0.239902
0.85745 0.0690623 0.240436
0.857176 0.0690471 0.240925
0.85687 0.0690471 0.241413
0.860105 0.0691081 0.247776
0.864393 0.0691386 0.25716
0.868193 0.0689708 0.265507
0.871412 0.0690318 0.273136
0.874235 0.0690471 0.279515
0.876783 0.0690623 0.285283
0.878553 0.0691234 0.290272
0.880323 0.0691234 0.294804
0.881834 0.0691386 0.298421
0.883009 0.0690929 0.301595
0.0691386 0.242374 0.0798352
0.0691386 0.232807 0.0660105
0.0696422 0.217563 0.0690776
0.092546 0.207324 0.0659953
0.13434 0.191363 0.0659648
0.171817 0.188602 0.0658274
0.200961 0.192523 0.0659495
0.248737 0.19707 0.0688334
0.307225 0.1906 0.0762341
0.365133 0.179492 0.0807965
0.411124 0.171267 0.0729381
0.462089 0.15848 0.0750896
0.517586 0.124788 0.0831159
0.577691 0.0935836 0.0916304
0.63331 0.0708629 0.0964828
0.685527 0.0657511 0.123812
0.738293 0.068986 0.15758
0.791318 0.0690471 0.184985
0.839536 0.0691234 0.221637
0.857786 0.0690776 0.23563
0.858213 0.0690776 0.237232
0.858549 0.0690776 0.23859
0.858274 0.0690929 0.238987
0.858 0.0690929 0.239445
0.857771 0.0690776 0.239841
0.857572 0.0690776 0.240192
0.85742 0.0690623 0.240513
0.857496 0.0690623 0.241276
0.859464 0.0690929 0.245014
0.861234 0.0691081 0.248203
0.862501 0.0691081 0.251225
0.864225 0.0691386 0.254566
0.865507 0.0691234 0.257694
0.0691386 0.292241 0.0823224
0.0691691 0.284504 0.0691691
0.0690776 0.271519 0.0690776
0.0900587 0.259297 0.0692149
0.109026 0.249897 0.0690929
0.166659 0.236469 0.0691539
0.211963 0.232898 0.0692607
0.243992 0.233967 0.0691081
0.293996 0.238285 0.0659648
0.357809 0.232654 0.0694285
0.416205 0.219654 0.0809033
0.463905 0.208392 0.080354
0.509544 0.19559 0.0759442
0.560296 0.172824 0.080827
0.616983 0.141238 0.0891737
0.674662 0.0823682 0.100114
0.726909 0.0655985 0.13022
0.780697 0.0690623 0.1635
0.828962 0.068986 0.197894
0.856413 0.0690013 0.221561
0.856657 0.0690166 0.225147
0.85684 0.0690166 0.229114
0.856855 0.0690318 0.231647
0.857252 0.0690318 0.233051
0.857542 0.0690623 0.234424
0.857786 0.0690776 0.235615
0.85803 0.0690776 0.236683
0.858289 0.0690776 0.23743
0.858473 0.0690776 0.238209
0.858534 0.0690776 0.238636
0.858427 0.0690929 0.238773
0.858335 0.0690929 0.23888
0.858259 0.0690929 0.238987
0.0690929 0.345434 0.0870985
0.0691081 0.339193 0.0691081
0.0690166 0.327901 0.0690166
0.0823682 0.314534 0.0690166
0.0972457 0.306294 0.0691691
0.142229 0.293263 0.0691844
0.19733 0.284047 0.0691691
0.252003 0.278828 0.0691234
0.289906 0.278523 0.0691844
0.343175 0.282673 0.0692149
0.404913 0.2795 0.0658885
0.462287 0.265705 0.0767681
0.517769 0.247623 0.0857557
0.559655 0.236973 0.0805371
0.607095 0.218296 0.0824903
0.657847 0.188785 0.0861677
0.719051 0.144579 0.0981155
0.778225 0.0713359 0.115434
0.818402 0.0690929 0.168475
0.861936 0.0690166 0.207965
0.861814 0.0690166 0.210407
0.860548 0.0690318 0.211917
0.85919 0.0690318 0.213489
0.857893 0.0690318 0.214969
0.85687 0.068986 0.216129
0.856199 0.0690013 0.217563
0.856306 0.0690013 0.219837
0.856428 0.0690013 0.221851
0.85655 0.0690013 0.223575
0.856657 0.0690166 0.225055
0.856718 0.0690166 0.22649
0.856779 0.0690166 0.22771
0.856825 0.0690166 0.228748
0.0691081 0.398505 0.0948806
0.0690471 0.395407 0.0690623
0.0691081 0.38677 0.0691081
0.0660105 0.373602 0.0691386
0.0926833 0.363867 0.0691081
0.107576 0.356573 0.0690471
0.17145 0.343694 0.0691539
0.230274 0.333608 0.0691386
0.294881 0.327428 0.0690623
0.338537 0.325933 0.0690776
0.391135 0.330495 0.0691234
0.45005 0.330312 0.0691234
0.507256 0.316655 0.0721141
0.563546 0.297398 0.085771
0.614954 0.278264 0.0906386
0.655238 0.265766 0.0847028
0.703883 0.238575 0.0875868
0.758404 0.200916 0.0943313
0.823636 0.138216 0.117693
0.869032 0.0681163 0.152819
0.87628 0.0690318 0.174701
0.870588 0.0690166 0.187579
0.868727 0.0690471 0.20061
0.867674 0.0690471 0.202197
0.866712 0.0690623 0.203372
0.865827 0.0690623 0.204486
0.865003 0.0690623 0.205615
0.864347 0.0690318 0.206592
0.86392 0.0690166 0.207523
0.863493 0.0690166 0.208362
0.863005 0.0690166 0.209018
0.862593 0.0690166 0.209552
0.862257 0.0690166 0.209964
0.0690776 0.450904 0.107866
0.0691997 0.451072 0.0692149
0.0690471 0.445808 0.0690471
0.0691691 0.432654 0.0691691
0.084947 0.42092 0.0690471
0.0978256 0.413306 0.0691234
0.124315 0.404974 0.0691386
0.206027 0.396551 0.0690929
0.268894 0.383658 0.0691386
0.342992 0.378149 0.0690776
0.388037 0.37615 0.0691844
0.43714 0.380896 0.0692302
0.493889 0.382574 0.0691691
0.552071 0.37229 0.0660258
0.607202 0.35433 0.0844282
0.663386 0.330602 0.0947127
0.709407 0.311696 0.0932784
0.752117 0.290776 0.0912337
0.801526 0.256565 0.0979782
0.851774 0.207218 0.110491
0.886809 0.155261 0.132067
0.888884 0.119921 0.136995
0.888762 0.0919356 0.138994
0.885832 0.0759442 0.146624
0.882475 0.0667887 0.158175
0.879286 0.0656138 0.165591
0.877195 0.0690318 0.172366
0.87422 0.0690471 0.179583
0.871992 0.0690623 0.184909
0.871565 0.0690623 0.185916
0.871244 0.0690471 0.186755
0.870985 0.0690318 0.187457
0.870527 0.0690166 0.187533
0.0691081 0.503151 0.121004
0.0690013 0.504356 0.0723735
0.0691997 0.500984 0.0691997
0.0691234 0.491859 0.0691234
0.0662547 0.479988 0.0691691
0.0966354 0.469566 0.0690471
0.108934 0.461967 0.0689708
0.151217 0.453895 0.0691081
0.244617 0.449012 0.0691386
0.314015 0.431281 0.0690471
0.391669 0.427573 0.0690013
0.436362 0.425193 0.0690776
0.482948 0.429816 0.0690623
0.537148 0.432364 0.0690013
0.595407 0.426612 0.0690013
0.649622 0.409293 0.0816358
0.706844 0.388251 0.0942397
0.763958 0.361608 0.104616
0.801862 0.343603 0.100877
0.841154 0.314931 0.104097
0.874846 0.277119 0.112459
0.874922 0.260182 0.113008
0.874922 0.243122 0.113436
0.875822 0.226291 0.114549
0.877241 0.210315 0.11667
0.879637 0.193469 0.120394
0.882902 0.176074 0.125338
0.885481 0.16379 0.128985
0.887037 0.153475 0.132555
0.888258 0.140719 0.135058
0.888548 0.126421 0.136309
0.888808 0.115343 0.137224
0.888823 0.107301 0.137819
0.0691234 0.554177 0.130678
0.0691997 0.556069 0.0917372
0.068986 0.55433 0.068986
0.0691997 0.548684 0.0691997
0.0691081 0.539071 0.0691081
0.0855116 0.528557 0.0690929
0.107881 0.518761 0.0691386
0.126558 0.510811 0.0691234
0.182895 0.504082 0.0691234
0.288457 0.499825 0.0691539
0.365026 0.479133 0.0691997
0.439384 0.477226 0.0691234
0.484535 0.474266 0.0691844
0.527062 0.478325 0.0691691
0.58024 0.480964 0.0690623
0.638148 0.47895 0.0692149
0.691814 0.463508 0.0763714
0.748867 0.443641 0.0930343
0.805768 0.418784 0.106996
0.852659 0.39115 0.12491
0.878065 0.371984 0.117067
0.879789 0.358785 0.113863
0.878569 0.34725 0.112749
0.877852 0.335958 0.112642
0.877073 0.325017 0.11249
0.876097 0.314977 0.112108
0.875425 0.30547 0.111971
0.875181 0.297108 0.112078
0.874891 0.289509 0.112062
0.87483 0.282994 0.112245
0.874891 0.277317 0.112505
0.874861 0.272435 0.112581
0.874907 0.268208 0.112795
0.0690929 0.604974 0.144747
0.0690318 0.607416 0.112337
0.0691386 0.608072 0.0691539
0.0691386 0.604807 0.0691386
0.0690623 0.596338 0.0690623
0.0658885 0.586297 0.0690166
0.0981003 0.576455 0.0691386
0.121233 0.567285 0.0690166
0.150942 0.558587 0.0690471
0.236988 0.553094 0.0690013
0.336873 0.549676 0.0692454
0.414618 0.525505 0.0691539
0.485512 0.525216 0.0691691
0.53077 0.521706 0.0692454
0.570092 0.525109 0.0690776
0.622492 0.527489 0.0691234
0.676249 0.526925 0.0692149
0.73341 0.516472 0.0669566
0.788693 0.498131 0.0890059
0.839155 0.476112 0.105089
0.883772 0.448661 0.127169
0.900511 0.428656 0.14226
0.89984 0.418936 0.143481
0.898711 0.411307 0.141329
0.89659 0.404608 0.138048
0.893935 0.398917 0.134371
0.891859 0.394064 0.130938
0.88922 0.389776 0.127382
0.887037 0.385946 0.124926
0.885512 0.3823 0.122606
0.884153 0.379034 0.120699
0.883116 0.376333 0.119432
0.882521 0.373831 0.118517
0.0691386 0.657588 0.156176
0.0690776 0.660243 0.138308
0.0690929 0.662089 0.0708019
0.0690776 0.660029 0.0690776
0.0691386 0.654826 0.0691386
0.0690471 0.645655 0.0690471
0.0839399 0.634867 0.0692607
0.121126 0.62388 0.0691691
0.143587 0.615183 0.0691539
0.172992 0.607553 0.0691844
0.2972 0.602914 0.068986
0.386969 0.597894 0.0691539
0.46421 0.570489 0.0692607
0.530648 0.572305 0.0690318
0.575601 0.56846 0.0690166
0.611597 0.570748 0.0691539
0.662821 0.573358 0.0690318
0.71371 0.573434 0.0691386
0.773541 0.56875 0.0691844
0.822721 0.552117 0.082414
0.866773 0.53225 0.0977493
0.897475 0.511818 0.113344
0.897948 0.503685 0.116091
0.898634 0.496101 0.118929
0.898985 0.488838 0.121126
0.899382 0.482216 0.124025
0.899474 0.475944 0.126558
0.899992 0.47071 0.12903
0.900099 0.465766 0.130816
0.900374 0.461967 0.13257
0.900404 0.458228 0.133654
0.900328 0.455238 0.134646
0.900465 0.452583 0.135439
0.0690929 0.712489 0.165896
0.0690776 0.715343 0.158801
0.0690776 0.718761 0.0931563
0.0692149 0.717479 0.0660868
0.0690471 0.714611 0.065919
0.0691539 0.705882 0.0691539
0.0691997 0.695933 0.0691997
0.102632 0.683742 0.0691234
0.147021 0.672312 0.0691386
0.162493 0.663279 0.065919
0.213733 0.659083 0.0690318
0.357427 0.654826 0.0690776
0.435767 0.644984 0.0691081
0.512337 0.614145 0.0660258
0.574258 0.618952 0.0690929
0.619226 0.614694 0.0691386
0.651514 0.615793 0.0690013
0.700526 0.618738 0.0692302
0.751568 0.618662 0.0691539
0.801984 0.615488 0.0659953
0.850599 0.605722 0.0673075
0.888228 0.587335 0.0888685
0.894499 0.57879 0.0929885
0.89453 0.572488 0.0943923
0.895079 0.566949 0.0962081
0.895216 0.561639 0.0978103
0.895491 0.557 0.0991684
0.895369 0.552682 0.100282
0.895674 0.548913 0.101564
0.89572 0.54583 0.102449
0.895918 0.542947 0.103243
0.896117 0.540566 0.104021
0.895964 0.538567 0.104448
0.0690623 0.771191 0.178439
0.0692149 0.774639 0.175708
0.0690929 0.778515 0.123751
0.0689708 0.779477 0.0733349
0.0691844 0.776745 0.0691081
0.0690929 0.773098 0.0660868
0.0690929 0.761028 0.0690929
0.0872969 0.748196 0.0659648
0.136263 0.734112 0.0691386
0.160937 0.722683 0.0658427
0.184466 0.712856 0.070161
0.274937 0.710231 0.0691691
0.413535 0.708965 0.0690623
0.484428 0.690806 0.0692149
0.559503 0.656703 0.0783398
0.616693 0.665385 0.068986
0.661799 0.660822 0.0690776
0.69369 0.661158 0.0690623
0.737057 0.663737 0.0691234
0.785733 0.663386 0.065919
0.826596 0.660945 0.0659342
0.868559 0.654582 0.0660716
0.890959 0.647593 0.0660563
0.891432 0.642878 0.0674601
0.891554 0.638163 0.06981
0.891585 0.633539 0.0721447
0.891997 0.629725 0.0744945
0.891981 0.62594 0.0764019
0.892134 0.622827 0.0779736
0.892409 0.620203 0.07953
0.892348 0.617761 0.080705
0.892409 0.61561 0.0816205
0.892485 0.613779 0.0822003
0.0690318 0.827619 0.19501
0.0691997 0.830854 0.196231
0.0691081 0.83473 0.154849
0.0691081 0.837995 0.0853437
0.0690318 0.836271 0.0813153
0.0691386 0.833188 0.0760357
0.0691691 0.82533 0.066041
0.0658732 0.812802 0.0666819
0.116945 0.798383 0.0659342
0.165667 0.784573 0.0659495
0.18143 0.774487 0.0781109
0.225437 0.767224 0.0797131
0.363119 0.762112 0.0690776
0.467292 0.766766 0.0692302
0.532021 0.735546 0.0691234
0.604654 0.700969 0.0889601
0.65832 0.711788 0.0690471
0.703609 0.707149 0.0692149
0.736645 0.706783 0.0691997
0.771115 0.707744 0.0658274
0.812039 0.707515 0.0659037
0.849592 0.704723 0.0703136
0.879683 0.700038 0.0730144
0.879866 0.696651 0.0724651
0.880537 0.693767 0.0722515
0.880964 0.690684 0.0717174
0.881315 0.687861 0.0711528
0.88191 0.685359 0.0708782
0.88246 0.683223 0.070634
0.882948 0.681453 0.0704662
0.883177 0.679759 0.0701305
0.883528 0.678248 0.0699931
0.883803 0.676966 0.0698558
0.0692302 0.879225 0.210681
0.0690166 0.88217 0.213336
0.0691539 0.885924 0.170993
0.0691691 0.890028 0.11191
0.0691234 0.889693 0.0903792
0.0690929 0.886107 0.0831617
0.0690623 0.88394 0.0829175
0.0692149 0.872389 0.0774395
0.0986954 0.858625 0.0789349
0.15964 0.843595 0.0741131
0.18674 0.83151 0.0822461
0.213504 0.821607 0.089128
0.284642 0.818998 0.0843824
0.438209 0.813764 0.0691539
0.517403 0.812207 0.0690166
0.579828 0.77734 0.0792401
0.648386 0.747738 0.0966354
0.698802 0.75903 0.0691081
0.744427 0.753964 0.0690929
0.77615 0.752712 0.0660868
0.800732 0.751736 0.0708019
0.834257 0.751873 0.0763714
0.866361 0.749371 0.081178
0.877546 0.74609 0.0820172
0.877409 0.743389 0.0813764
0.877775 0.740902 0.0811627
0.877989 0.738613 0.0808118
0.877867 0.736553 0.0800641
0.877943 0.734539 0.0795758
0.878202 0.732967 0.0793622
0.878264 0.731456 0.0790417
0.878141 0.730205 0.0785992
0.878096 0.729091 0.0783551
0.0690013 0.920058 0.225467
0.0691081 0.922499 0.229404
0.0690166 0.92549 0.188922
0.0691234 0.926024 0.139483
0.0690471 0.925948 0.0990768
0.0690318 0.925933 0.0948959
0.0690166 0.923873 0.0886702
0.0690776 0.919509 0.0864424
0.0840925 0.908721 0.0877241
0.151324 0.894774 0.0877241
0.196414 0.882094 0.0849622
0.215747 0.873228 0.0967422
0.257465 0.86537 0.0995956
0.376211 0.862608 0.0798962
0.501228 0.862608 0.0691234
0.567041 0.848585 0.0690166
0.62855 0.812848 0.102296
0.690806 0.79202 0.107912
0.739178 0.802625 0.0681315
0.781476 0.797436 0.0670481
0.810315 0.794949 0.0751507
0.832532 0.793866 0.08365
0.853925 0.79292 0.0886244
0.873457 0.791867 0.090547
0.873579 0.789807 0.0902419
0.873686 0.787732 0.0898146
0.873426 0.785916 0.0890974
0.873625 0.784237 0.088716
0.873915 0.782818 0.0884718
0.874189 0.781537 0.0882887
0.874281 0.78027 0.0879683
0.874235 0.779187 0.087602
0.874327 0.778225 0.0873884
0.0691386 0.92604 0.242496
0.0691386 0.92604 0.244343
0.0690471 0.925948 0.201602
0.0691539 0.926055 0.151873
0.0690776 0.925978 0.111742
0.0690623 0.925963 0.110948
0.0690318 0.925933 0.0955367
0.0690318 0.925933 0.0950942
0.0746014 0.925978 0.0960708
0.142092 0.926009 0.0976577
0.194369 0.920562 0.0943313
0.224903 0.912917 0.104021
0.255558 0.905272 0.114
0.327321 0.902281 0.109026
0.473136 0.897261 0.0659037
0.558495 0.900923 0.0691234
0.615228 0.874708 0.0904555
0.676081 0.84033 0.139498
0.731624 0.829694 0.125643
0.776196 0.839384 0.0864576
0.813825 0.835309 0.0860609
0.840162 0.832532 0.0909285
0.859632 0.831342 0.0974136
0.874479 0.829786 0.104524
0.876097 0.828336 0.105028
0.875441 0.826673 0.104479
0.874754 0.825315 0.103807
0.874266 0.823972 0.103288
0.873747 0.822629 0.102785
0.873182 0.821485 0.102312
0.873259 0.820645 0.101884
0.87335 0.819898 0.101534
0.87335 0.819165 0.101137
0.0691539 0.92607 0.246677
0.0691234 0.926024 0.237934
0.0690318 0.925933 0.195621
0.0691539 0.926055 0.151293
0.0690471 0.925948 0.100145
0.0690471 0.925948 0.101381
0.0690318 0.925933 0.0959182
0.0690318 0.925948 0.0978866
0.0658427 0.925872 0.106783
0.130709 0.925948 0.109987
0.192966 0.925933 0.109133
0.240482 0.92604 0.111131
0.263279 0.925994 0.131136
0.308476 0.925917 0.135027
0.421592 0.925719 0.104891
0.544182 0.925109 0.0659037
0.60856 0.918318 0.0813916
0.662074 0.891905 0.133165
0.723415 0.861433 0.169421
0.770565 0.86273 0.149096
0.808728 0.870878 0.106386
0.841825 0.868177 0.107576
0.865278 0.865644 0.116243
0.881422 0.864561 0.12781
0.887938 0.863508 0.133639
0.887587 0.862394 0.13228
0.887526 0.861555 0.130999
0.887236 0.860426 0.129519
0.886946 0.859342 0.128222
0.886687 0.858351 0.127169
0.886244 0.857542 0.126299
0.885847 0.85684 0.125566
0.885679 0.856199 0.12488
0.0691386 0.92604 0.24419
0.0691539 0.92607 0.249744
0.0690776 0.925978 0.214176
0.0690013 0.925902 0.168734
0.0690623 0.925963 0.110048
0.0690318 0.925933 0.0968185
0.0690318 0.925933 0.0956436
0.0690318 0.925933 0.0927138
0.0690318 0.925933 0.0939498
0.0941482 0.925933 0.108125
0.189395 0.925978 0.127474
0.249836 0.925887 0.125689
0.273503 0.925902 0.148119
0.310231 0.925948 0.154055
0.389075 0.926009 0.147829
0.524742 0.925887 0.0907607
0.60618 0.925963 0.0725414
0.658991 0.925978 0.132448
0.710292 0.903868 0.172564
0.768414 0.881773 0.198352
0.805753 0.889433 0.167391
0.837446 0.896056 0.146761
0.865614 0.894636 0.153536
0.885176 0.892332 0.162112
0.899138 0.893462 0.159075
0.89836 0.892332 0.160678
0.897658 0.891096 0.16231
0.897017 0.88986 0.164019
0.896376 0.888655 0.165805
0.896147 0.887907 0.165164
0.895949 0.887297 0.164385
0.895735 0.886809 0.163699
0.895628 0.886488 0.163317
0.0691691 0.92607 0.252354
0.0691539 0.92607 0.249821
0.0691234 0.926024 0.233799
0.0690318 0.925933 0.195071
0.0691539 0.926055 0.151843
0.0690318 0.925933 0.0965286
0.0690318 0.925933 0.0971237
0.0690318 0.925933 0.0910964
0.0690318 0.925933 0.0927138
0.0713512 0.925994 0.103273
0.16846 0.92604 0.123995
0.237583 0.926024 0.126055
0.276387 0.925917 0.149599
0.316548 0.926009 0.160983
0.389151 0.92607 0.184512
0.504753 0.925948 0.18143
0.615244 0.926085 0.203204
0.662394 0.925933 0.1823
0.705959 0.925978 0.180575
0.761273 0.910933 0.217945
0.80589 0.904555 0.218402
0.836011 0.910063 0.200031
0.862196 0.914855 0.185885
0.885466 0.91519 0.196719
0.906844 0.918379 0.167727
0.908995 0.918486 0.163943
0.909026 0.918212 0.162264
0.908949 0.917861 0.160555
0.908904 0.917525 0.158846
0.908873 0.917235 0.157076
0.908843 0.916945 0.155474
0.908812 0.916671 0.153918
0.908782 0.916442 0.152239
0.068986 0.925887 0.266972
0.0691386 0.92604 0.244678
0.0691539 0.926055 0.247761
0.0690776 0.925978 0.214725
0.068986 0.925887 0.171786
0.0690776 0.925978 0.114382
0.0690318 0.925933 0.096849
0.0690318 0.925933 0.0928969
0.0690318 0.925933 0.0927138
0.0690471 0.925948 0.0989395
0.14847 0.926009 0.117525
0.222766 0.925933 0.126055
0.27248 0.925948 0.144808
0.308934 0.925948 0.159731
0.370489 0.925933 0.179751
0.477501 0.92604 0.189578
0.601617 0.926009 0.20412
0.659037 0.925948 0.21236
0.700435 0.925933 0.177844
0.753033 0.919646 0.21825
0.802701 0.908385 0.241459
0.834241 0.914687 0.225315
0.861189 0.920897 0.206241
0.882429 0.923919 0.218982
0.903075 0.92372 0.22092
0.909575 0.924361 0.215503
0.909575 0.924361 0.215503
0.909575 0.924361 0.215503
0.909575 0.924361 0.215503
0.909575 0.924361 0.215503
0.909575 0.924361 0.215503
0.909575 0.924361 0.215503
0.909575 0.924361 0.215503
0.0690166 0.925917 0.282078
0.0691539 0.92607 0.245853
0.0691539 0.926055 0.25127
0.0691234 0.926024 0.231159
0.0690318 0.925933 0.194385
0.0691539 0.926055 0.149905
0.0690318 0.925933 0.0966201
0.0690318 0.925933 0.0973068
0.0690318 0.925933 0.0927138
0.0690318 0.925933 0.0953078
0.116457 0.926085 0.112428
0.211414 0.926116 0.126558
0.268788 0.92607 0.138552
0.301793 0.925902 0.158419
0.360678 0.926024 0.177111
0.454154 0.92607 0.193729
0.586007 0.926101 0.193622
0.652552 0.925917 0.215915
0.69279 0.925933 0.171191
0.744411 0.921874 0.212512
0.797101 0.907362 0.245304
0.82945 0.91371 0.227115
0.856565 0.919676 0.210239
0.878706 0.923537 0.212802
0.899092 0.923384 0.223972
0.909575 0.924361 0.215503
0.909575 0.924361 0.215503
0.909575 0.924361 0.215503
0.909575 0.924361 0.215503
0.909575 0.924361 0.215503
0.909575 0.924361 0.215503
0.909575 0.924361 0.215503
0.909575 0.924361 0.215503
0.0690471 0.925963 0.296162
0.0691539 0.926055 0.25388
0.0691539 0.92607 0.247257
0.0691386 0.926055 0.244465
0.0690776 0.925978 0.210788
0.0690166 0.925933 0.166873
0.0690318 0.925933 0.0963607
0.0690318 0.925933 0.0970932
0.0690318 0.925933 0.091722
0.0690318 0.925933 0.0927138
0.095964 0.925933 0.108659
0.200305 0.926024 0.126909
0.26389 0.926024 0.133288
0.295186 0.92607 0.157641
0.351781 0.926055 0.174304
0.435355 0.925963 0.194339
0.569558 0.925994 0.185107
0.64683 0.925917 0.220111
0.686687 0.926055 0.178729
0.73637 0.923934 0.207172
0.791043 0.907866 0.245029
0.824857 0.912749 0.228901
0.852186 0.918807 0.214069
0.875227 0.923095 0.207156
0.895094 0.923278 0.226703
0.909575 0.924361 0.215503
0.909575 0.924361 0.215503
0.909575 0.924361 0.215503
0.909575 0.924361 0.215503
0.909575 0.924361 0.215503
0.909575 0.924361 0.215503
0.909575 0.924361 0.215503
0.909575 0.924361 0.215503
0.0690776 0.925978 0.308415
0.0689708 0.925872 0.264195
0.0691386 0.92604 0.244343
0.0691539 0.92607 0.250462
0.0690929 0.925994 0.223743
0.0690166 0.925917 0.183047
0.0690929 0.925994 0.125109
0.0690318 0.925933 0.09691
