bundles/resolve-cinematic-luts/Phantom Luts/Canon Alexa LUT/ATOMOS Monitoring LUTs/C-Log 3/Neutral Canon CL3 AML.cube
TITLE "Generated by Resolve"
LUT_3D_SIZE 9
0.0779278 0.0779278 0.0779278
0.235554 0.0667887 0.0915389
0.427527 0.0656291 0.139467
0.621637 0.0689708 0.215061
0.837858 0.0691386 0.324956
0.89575 0.0690013 0.391363
0.897673 0.0690623 0.41886
0.898451 0.0690929 0.435111
0.898878 0.0691234 0.443687
0.0691386 0.189914 0.078584
0.126375 0.142184 0.0696727
0.305165 0.145403 0.0732738
0.53959 0.085771 0.0897078
0.749523 0.0690623 0.174151
0.85745 0.0690623 0.240436
0.864393 0.0691386 0.25716
0.876783 0.0690623 0.285283
0.883009 0.0690929 0.301595
0.0691081 0.398505 0.0948806
0.0926833 0.363867 0.0691081
0.294881 0.327428 0.0690623
0.507256 0.316655 0.0721141
0.703883 0.238575 0.0875868
0.87628 0.0690318 0.174701
0.866712 0.0690623 0.203372
0.86392 0.0690166 0.207523
0.862257 0.0690166 0.209964
0.0690929 0.604974 0.144747
0.0690623 0.596338 0.0690623
0.150942 0.558587 0.0690471
0.485512 0.525216 0.0691691
0.676249 0.526925 0.0692149
0.883772 0.448661 0.127169
0.89659 0.404608 0.138048
0.887037 0.385946 0.124926
0.882521 0.373831 0.118517
0.0690318 0.827619 0.19501
0.0690318 0.836271 0.0813153
0.116945 0.798383 0.0659342
0.363119 0.762112 0.0690776
0.65832 0.711788 0.0690471
0.812039 0.707515 0.0659037
0.880537 0.693767 0.0722515
0.88246 0.683223 0.070634
0.883803 0.676966 0.0698558
0.0691539 0.92607 0.246677
0.0690471 0.925948 0.100145
0.0658427 0.925872 0.106783
0.263279 0.925994 0.131136
0.60856 0.918318 0.0813916
0.808728 0.870878 0.106386
0.887938 0.863508 0.133639
0.886946 0.859342 0.128222
0.885679 0.856199 0.12488
0.0690166 0.925917 0.282078
0.0690318 0.925933 0.194385
0.0690318 0.925933 0.0927138
0.268788 0.92607 0.138552
0.586007 0.926101 0.193622
0.797101 0.907362 0.245304
0.899092 0.923384 0.223972
0.909575 0.924361 0.215503
0.909575 0.924361 0.215503
0.0691081 0.926024 0.328283
0.0691386 0.92604 0.243824
0.0690318 0.925933 0.0955825
0.243671 0.926085 0.126528
0.523369 0.926055 0.180072
0.772396 0.914092 0.231464
0.885481 0.922484 0.228397
0.909575 0.924361 0.215503
0.909575 0.924361 0.215503
0.0690929 0.925994 0.351507
0.0691539 0.92607 0.250828
0.0690318 0.925933 0.0970169
0.221546 0.925933 0.126085
0.48101 0.92604 0.188907
0.756924 0.918608 0.220645
0.879454 0.923613 0.214069
0.909575 0.924361 0.215503
0.909575 0.924361 0.215503
0.0703593 0.0816358 0.162387
0.223743 0.0738689 0.212222
0.427115 0.0690471 0.289265
0.620508 0.0690929 0.363394
0.83978 0.0689708 0.442664
0.902449 0.0690623 0.495491
0.904967 0.0691234 0.521202
0.906096 0.0689708 0.536599
0.906828 0.0690013 0.544427
0.078233 0.117296 0.111879
0.0779278 0.0779278 0.0779278
0.351751 0.0661326 0.124269
0.571557 0.0690623 0.200183
0.794018 0.0690318 0.301625
0.895369 0.0690013 0.386252
0.897383 0.0690471 0.414237
0.898405 0.0690929 0.430991
0.898665 0.0691081 0.439765
0.0690776 0.343542 0.200244
0.0691691 0.338506 0.0965744
0.268803 0.295186 0.0692607
0.52221 0.242542 0.0859083
0.734966 0.100084 0.10631
0.858518 0.0690776 0.238651
0.85864 0.0690929 0.242893
0.87039 0.068986 0.267124
0.877317 0.0690623 0.283391
0.0690471 0.565454 0.246128
0.0691844 0.569284 0.141054
0.095964 0.547845 0.0690471
0.469245 0.506233 0.0691691
0.687251 0.492226 0.066041
0.887404 0.392645 0.129351
0.879271 0.353246 0.112993
0.876341 0.319768 0.112093
0.875059 0.299687 0.111833
0.0691539 0.791913 0.304234
0.0690776 0.797406 0.198474
0.0690471 0.8065 0.0722667
0.248295 0.754528 0.0721141
0.646464 0.697536 0.0691386
0.816403 0.688609 0.0659495
0.885679 0.669139 0.0692607
0.888655 0.656382 0.0673991
0.890684 0.649195 0.0663767
0.0689708 0.925872 0.362387
0.0691539 0.92607 0.246494
0.0690623 0.925963 0.110338
0.224979 0.925933 0.101106
0.579934 0.919753 0.0691386
0.799527 0.861616 0.0979324
0.884245 0.850736 0.119707
0.881987 0.844587 0.114199
0.880308 0.840574 0.111604
0.0690776 0.925994 0.409979
0.0690318 0.925933 0.289967
0.0690318 0.925933 0.192523
0.187503 0.925933 0.127581
0.511452 0.925994 0.18172
0.776379 0.912795 0.234119
0.891814 0.923003 0.22771
0.909575 0.924361 0.215503
0.909575 0.924361 0.215503
0.0691539 0.926055 0.439582
0.0691234 0.92604 0.335714
0.0691386 0.92604 0.243809
0.115358 0.926085 0.112276
0.434897 0.925948 0.194354
0.745373 0.92163 0.213367
0.877424 0.923323 0.210636
0.909575 0.924361 0.215503
0.909575 0.924361 0.215503
0.0689708 0.925872 0.456001
0.0689708 0.925887 0.35816
0.0691539 0.92607 0.25069
0.0823224 0.926055 0.104753
0.401587 0.925963 0.188037
0.728695 0.925887 0.201984
0.869886 0.922713 0.200687
0.909575 0.924361 0.215503
0.909575 0.924361 0.215503
0.0697185 0.084596 0.329381
0.252872 0.0730602 0.355352
0.409751 0.0659495 0.395026
0.614069 0.0690623 0.46923
0.846021 0.0690166 0.540276
0.912169 0.0690929 0.586358
0.913176 0.068986 0.607889
0.912306 0.0689555 0.620829
0.911696 0.0689708 0.627634
0.0671092 0.126101 0.232578
0.0839094 0.0826886 0.290623
0.342168 0.0691691 0.32929
0.577432 0.0690776 0.382849
0.800687 0.0691234 0.445579
0.903014 0.0690776 0.501793
0.905379 0.0691234 0.526268
0.906462 0.0690013 0.54078
0.907256 0.0690166 0.548486
0.0690929 0.29572 0.283726
0.0692302 0.274174 0.264439
0.269139 0.269139 0.269139
0.549157 0.190249 0.252583
0.758633 0.068986 0.294987
0.896178 0.068986 0.383825
0.897902 0.0690471 0.412451
0.898848 0.0690929 0.429313
0.898985 0.0691081 0.438239
0.0691997 0.522042 0.343664
0.0690471 0.521935 0.2795
0.0691539 0.531334 0.155428
0.452705 0.486336 0.0835126
0.708782 0.435096 0.133089
0.882872 0.315084 0.150469
0.88571 0.245167 0.145037
0.895537 0.185077 0.151339
0.899016 0.156115 0.155169
0.0690929 0.74844 0.401053
0.0690623 0.756756 0.322133
0.0690013 0.765194 0.208713
0.178439 0.742596 0.0729076
0.633997 0.682857 0.0691539
0.821729 0.667308 0.0659495
0.891615 0.64007 0.0693523
0.892226 0.621729 0.0785382
0.892638 0.611383 0.0830549
0.0689555 0.925856 0.453559
0.0690013 0.925902 0.378958
0.0690013 0.925902 0.26273
0.11548 0.926055 0.0980392
0.538613 0.913832 0.0691386
0.789792 0.851545 0.0912795
0.878935 0.836133 0.109239
0.875914 0.827893 0.104845
0.873899 0.823041 0.102937
0.0690471 0.925963 0.497368
0.0690929 0.926009 0.420554
0.0690471 0.925948 0.29929
0.0690318 0.925933 0.0913252
0.422721 0.925902 0.192859
0.751842 0.919951 0.217456
0.884596 0.922789 0.226658
0.909575 0.924361 0.215503
0.909575 0.924361 0.215503
0.0691234 0.926024 0.522026
0.0690318 0.925933 0.449393
0.0691539 0.92607 0.343938
0.0690318 0.925933 0.0968948
0.359518 0.926101 0.176822
0.716762 0.92607 0.192767
0.868528 0.922637 0.199512
0.909575 0.924361 0.215503
0.909575 0.924361 0.215503
0.0691539 0.926055 0.534432
0.068986 0.925902 0.465034
0.068986 0.925887 0.365698
0.0690318 0.925933 0.0964218
0.326833 0.92607 0.16495
0.700801 0.925933 0.17818
0.857649 0.920089 0.209079
0.909575 0.924361 0.215503
0.909575 0.924361 0.215503
0.0902571 0.0892958 0.498116
0.275273 0.0778821 0.517998
0.424475 0.0702068 0.537316
0.597269 0.0657816 0.581903
0.826566 0.0691386 0.655009
0.903517 0.0690929 0.705577
0.903212 0.0691539 0.727932
0.902922 0.0690776 0.741176
0.902693 0.0689708 0.748028
0.0691081 0.146471 0.433066
0.100649 0.0865644 0.476036
0.336553 0.073579 0.508461
0.555657 0.0656443 0.542
0.793164 0.0690013 0.600626
0.909911 0.0690166 0.648554
0.90779 0.0690623 0.667506
0.906432 0.0690776 0.679454
0.905852 0.0690623 0.685512
0.0691081 0.25864 0.420417
0.0690318 0.220111 0.435737
0.189776 0.173358 0.480369
0.515724 0.09308 0.501244
0.757916 0.0690318 0.529168
0.911345 0.0690776 0.579202
0.91397 0.0691386 0.597986
0.91313 0.0689555 0.609812
0.912551 0.0689403 0.616083
0.0691844 0.47068 0.459159
0.0691234 0.456855 0.446723
0.0690776 0.44213 0.433356
0.457221 0.457221 0.457221
0.726833 0.395773 0.440864
0.924636 0.255467 0.458717
0.923842 0.181582 0.462333
0.919768 0.130907 0.46305
0.913893 0.0949874 0.462089
0.0690929 0.688731 0.511925
0.0691081 0.686305 0.481025
0.0690776 0.687724 0.436057
0.156939 0.718929 0.304372
0.618326 0.654871 0.295201
0.850813 0.623514 0.322072
0.907897 0.57792 0.315679
0.902251 0.559655 0.306065
0.90045 0.548211 0.302037
0.0690776 0.887098 0.562753
0.068986 0.891905 0.522683
0.0691844 0.899931 0.467704
0.0690929 0.917556 0.288136
0.353597 0.907973 0.107729
0.772976 0.834821 0.0831922
0.876143 0.8103 0.0973373
0.876158 0.798306 0.0928054
0.876509 0.791592 0.0906996
0.0690776 0.925978 0.601465
0.068986 0.925887 0.558679
0.0690623 0.925978 0.500374
0.0690929 0.925994 0.316793
0.285328 0.925994 0.155642
0.703914 0.925978 0.181659
0.874281 0.922408 0.203861
0.909468 0.920455 0.178164
0.909331 0.91841 0.162783
0.0691234 0.923522 0.620249
0.0690318 0.925933 0.578286
0.0691234 0.926024 0.522896
0.0689708 0.925872 0.360037
0.251499 0.925902 0.127718
0.670878 0.926024 0.206058
0.848844 0.918715 0.214817
0.909926 0.924392 0.215183
0.909941 0.924407 0.215152
0.0691386 0.921324 0.629664
0.0690471 0.925948 0.588434
0.0691539 0.926055 0.534279
0.0690166 0.925917 0.380041
0.214527 0.925978 0.126406
0.65565 0.925948 0.216495
0.833768 0.91487 0.227283
0.908568 0.924254 0.216449
0.909911 0.924392 0.215183
0.111788 0.108507 0.653422
0.293828 0.0932631 0.673899
0.445838 0.0886244 0.70013
0.605234 0.0725261 0.727214
0.810391 0.0691234 0.788098
0.89987 0.0690776 0.844953
0.899107 0.0690013 0.86833
0.898711 0.0690166 0.88011
0.898405 0.0690166 0.885786
0.0692454 0.161852 0.605173
0.125261 0.102647 0.636378
0.342901 0.0904097 0.670207
0.557824 0.0776074 0.702907
0.773785 0.0690318 0.752667
0.901122 0.0691234 0.80853
0.900511 0.0691539 0.828336
0.900145 0.0691539 0.839658
0.899855 0.0690776 0.84538
0.0690929 0.219944 0.567544
0.0690318 0.167666 0.579461
0.146868 0.0974594 0.620539
0.488182 0.0820172 0.673762
0.730617 0.0656443 0.712047
0.902388 0.0690013 0.763622
0.902037 0.0690623 0.780346
0.901778 0.0690776 0.790768
0.901579 0.0690776 0.796017
0.0691081 0.439353 0.590478
0.0691844 0.414923 0.597025
0.0690776 0.384955 0.608652
0.374517 0.364294 0.643839
0.695109 0.297856 0.670939
0.921294 0.104387 0.690303
0.906264 0.0690929 0.685817
0.906355 0.0690929 0.686198
0.906081 0.0690776 0.687419
0.0690623 0.633677 0.625589
0.0690013 0.624186 0.616663
0.0691997 0.614771 0.608087
0.0990158 0.599725 0.591104
0.612192 0.612192 0.612192
0.861982 0.570474 0.604166
0.923888 0.524758 0.604868
0.925139 0.50248 0.606332
0.925719 0.490028 0.60708
0.0690623 0.829236 0.668711
0.0691844 0.825452 0.649714
0.0691386 0.822309 0.627344
0.0692302 0.822416 0.574243
0.413092 0.862135 0.542672
0.758938 0.796826 0.51017
0.900359 0.767895 0.532906
0.902251 0.752071 0.533227
0.903212 0.743221 0.533043
0.0690776 0.902205 0.712367
0.0691844 0.907362 0.69015
0.0691844 0.913848 0.664027
0.0690776 0.925978 0.601434
0.0691386 0.926055 0.338109
0.64387 0.926055 0.396506
0.866087 0.912596 0.376898
0.912306 0.908293 0.340078
0.910872 0.903456 0.348379
0.068986 0.899031 0.726238
0.0690471 0.904524 0.702464
0.0691539 0.91107 0.675059
0.0690929 0.925628 0.611261
0.068986 0.925887 0.368933
0.553353 0.925963 0.29778
0.827771 0.915251 0.23064
0.912673 0.924147 0.282445
0.912627 0.924147 0.279011
0.068986 0.897475 0.733516
0.0690623 0.902983 0.709072
0.0691539 0.909575 0.681041
0.0691081 0.924331 0.616831
0.0690318 0.925948 0.390387
0.467063 0.926055 0.235889
0.802045 0.910048 0.250477
0.895094 0.923186 0.242542
0.912428 0.92459 0.218967
0.103273 0.160479 0.796872
0.299687 0.139696 0.821759
0.452445 0.130022 0.852293
0.621988 0.108919 0.884321
0.806653 0.0656901 0.907027
0.893904 0.0691081 0.926009
0.893904 0.0691081 0.926009
0.893904 0.0691081 0.926009
0.893904 0.0691081 0.926009
0.0689555 0.18735 0.755062
0.121187 0.153399 0.781353
0.340795 0.13106 0.818097
0.564584 0.11284 0.863828
0.766293 0.0656291 0.888151
0.895476 0.0691081 0.923461
0.893904 0.0691081 0.926009
0.893904 0.0691081 0.926009
0.893904 0.0691081 0.926009
0.0691539 0.226841 0.714244
0.0691386 0.187716 0.732204
0.135851 0.145113 0.763455
0.483253 0.115236 0.833616
0.721111 0.0747387 0.868482
0.897154 0.0690623 0.905715
0.896147 0.0690929 0.917983
0.89543 0.0691081 0.923812
0.894942 0.0691081 0.926009
0.0690623 0.409094 0.713985
0.0691234 0.382712 0.728099
0.0690471 0.346365 0.745632
0.292302 0.285786 0.784283
0.652873 0.215015 0.843565
0.883055 0.0690929 0.86331
0.89929 0.0690166 0.866346
0.899153 0.0690013 0.871153
0.899077 0.0690013 0.874266
0.0690471 0.617075 0.733669
0.0691844 0.601144 0.737285
0.068986 0.582818 0.743755
0.0690471 0.540551 0.764172
0.555077 0.552987 0.778805
0.834058 0.509285 0.807889
0.91632 0.451026 0.811872
0.916457 0.42562 0.811856
0.916686 0.411124 0.811963
0.0691844 0.780591 0.778286
0.0690776 0.772259 0.769848
0.0691234 0.763745 0.761654
0.0691539 0.748821 0.747311
0.388937 0.737514 0.727504
0.748943 0.748943 0.748943
0.912886 0.716548 0.743847
0.918425 0.699016 0.743648
0.919036 0.690044 0.74374
0.0690471 0.884031 0.809323
0.0691691 0.886427 0.794949
0.0691386 0.888991 0.780224
0.0690623 0.88954 0.751812
0.0691234 0.89131 0.680247
0.631312 0.910002 0.710201
0.855482 0.880095 0.700511
0.904158 0.866667 0.69926
0.90399 0.859953 0.699855
0.0690776 0.880873 0.828199
0.0690471 0.883909 0.81004
0.0691539 0.887083 0.791257
0.0692302 0.893065 0.757183
0.0691539 0.911162 0.679515
0.536782 0.925917 0.647639
0.819532 0.9252 0.664317
0.911162 0.923186 0.717479
0.917327 0.923506 0.711269
0.0691081 0.879393 0.8374
0.0690623 0.882536 0.818326
0.0691539 0.88603 0.79733
0.0691691 0.892546 0.760128
0.0691539 0.910658 0.680552
0.478828 0.925948 0.613062
0.78764 0.925902 0.674128
0.897459 0.923369 0.671031
0.917021 0.923491 0.680537
0.134081 0.166323 0.825605
0.315022 0.155993 0.859983
0.461616 0.149722 0.88687
0.633738 0.124849 0.913161
0.822431 0.0656443 0.925673
0.893904 0.0691081 0.926009
0.893904 0.0691081 0.926009
0.893904 0.0691081 0.926009
0.893904 0.0691081 0.926009
0.0691539 0.198734 0.798627
0.135256 0.166293 0.825818
0.343374 0.155428 0.864668
0.569619 0.138598 0.905043
0.779797 0.0777142 0.922911
0.893904 0.0691081 0.926009
0.893904 0.0691081 0.926009
0.893904 0.0691081 0.926009
0.893904 0.0691081 0.926009
0.0691386 0.255131 0.817929
0.0690929 0.205417 0.800961
0.126818 0.166812 0.824811
0.480812 0.148623 0.890425
0.728145 0.0969253 0.920943
0.893904 0.0691081 0.926009
0.893904 0.0691081 0.926009
0.893904 0.0691081 0.926009
0.893904 0.0691081 0.926009
0.0690318 0.392416 0.811994
0.0692302 0.365148 0.824491
0.0691997 0.325017 0.83592
0.228321 0.238041 0.850523
0.618357 0.158679 0.912245
0.864424 0.0691234 0.926024
0.893996 0.0691081 0.926009
0.89398 0.0691081 0.926009
0.89398 0.0691081 0.926009
0.0690623 0.587732 0.825971
0.0692149 0.571984 0.831312
0.0690623 0.554925 0.838361
0.0690929 0.516442 0.857023
0.493355 0.502571 0.870771
0.79498 0.472175 0.910597
0.905226 0.405493 0.921691
0.906355 0.377844 0.922942
0.906981 0.36112 0.923598
0.0691844 0.77615 0.844236
0.0691997 0.767651 0.842832
0.0691386 0.756436 0.842847
0.0691234 0.731502 0.846616
0.286549 0.694575 0.845533
0.707256 0.708049 0.864057
0.898787 0.675959 0.880934
0.911086 0.655497 0.880339
0.910811 0.646372 0.879698
0.0690471 0.876478 0.88043
0.0691844 0.871305 0.875242
0.0690776 0.86511 0.869429
0.0691844 0.854551 0.858961
0.0690471 0.837705 0.841794
0.624918 0.840299 0.83386
0.850263 0.850263 0.850263
0.913252 0.838224 0.849454
0.913573 0.830488 0.848371
0.0692149 0.878355 0.893111
0.0690623 0.877119 0.886503
0.0690471 0.876356 0.879316
0.0690013 0.875395 0.862943
0.0690623 0.882979 0.820142
0.434348 0.893965 0.790143
0.805051 0.92108 0.84184
0.906691 0.915312 0.855512
0.915206 0.909743 0.844221
0.0692302 0.879515 0.898589
0.0691539 0.878126 0.891936
0.0690471 0.876799 0.883696
0.0690166 0.875059 0.865232
0.0690623 0.883558 0.815824
0.340368 0.894926 0.771557
0.770764 0.924163 0.819104
0.888197 0.920943 0.824811
0.920943 0.92369 0.873182
0.161913 0.164385 0.831434
0.336172 0.155825 0.863722
0.472404 0.149081 0.888762
0.643061 0.122576 0.914137
0.833341 0.0656748 0.925719
0.893904 0.0691081 0.926009
0.893904 0.0691081 0.926009
0.893904 0.0691081 0.926009
0.893904 0.0691081 0.926009
0.0692149 0.19144 0.795941
0.161563 0.164431 0.831342
0.356161 0.155016 0.867048
0.577279 0.137255 0.906157
0.786892 0.0725414 0.923049
0.893904 0.0691081 0.926009
0.893904 0.0691081 0.926009
0.893904 0.0691081 0.926009
0.893904 0.0691081 0.926009
0.068986 0.251499 0.816434
0.0691539 0.198932 0.798703
0.157595 0.164782 0.83003
0.487892 0.147936 0.891661
0.733303 0.0953078 0.92134
0.893904 0.0691081 0.926009
0.893904 0.0691081 0.926009
0.893904 0.0691081 0.926009
0.893904 0.0691081 0.926009
0.0691691 0.382498 0.846616
0.0692454 0.345342 0.839734
0.0690623 0.291402 0.828244
0.211948 0.188632 0.844953
0.615061 0.137621 0.911299
0.863294 0.0690929 0.925994
0.89398 0.0691081 0.926009
0.89398 0.0691081 0.926009
0.89398 0.0691081 0.926009
0.0690166 0.579904 0.871275
0.0691386 0.563622 0.871046
0.0690929 0.544442 0.867918
0.0692302 0.499138 0.86154
0.479988 0.476417 0.869993
0.785046 0.441703 0.913207
0.906157 0.36614 0.926024
0.907012 0.333745 0.926116
0.906905 0.314321 0.925902
0.0691081 0.768688 0.884169
0.0690166 0.755367 0.885527
0.0691539 0.741054 0.888182
0.0691844 0.712093 0.888075
0.231693 0.672923 0.879469
0.680842 0.682033 0.892882
0.884581 0.656397 0.913817
0.903441 0.633707 0.914183
0.902998 0.624552 0.914199
0.0690929 0.87509 0.904768
0.0691539 0.869581 0.901991
0.0690013 0.86363 0.899428
0.0690471 0.852552 0.896361
0.0690166 0.834653 0.896452
0.578973 0.81828 0.887739
0.831144 0.832303 0.903136
0.910903 0.818387 0.910521
0.910643 0.810315 0.910018
0.0690471 0.882383 0.907073
0.0690471 0.882383 0.907073
0.0690471 0.882383 0.907073
0.0690318 0.880964 0.903914
0.0692302 0.878981 0.893767
0.244526 0.87483 0.876295
0.805692 0.897826 0.895232
0.9037 0.9037 0.9037
0.916762 0.900649 0.903731
0.0690471 0.882383 0.907073
0.0690471 0.882383 0.907073
0.0690471 0.882383 0.907073
0.0690318 0.881514 0.905303
0.0691539 0.87805 0.88983
0.0810559 0.880415 0.874449
0.75787 0.90724 0.883421
0.895644 0.920409 0.904082
0.923018 0.923384 0.913924
0.172305 0.163363 0.833997
0.346059 0.155337 0.865019
0.478111 0.148775 0.88986
0.647974 0.121294 0.914656
0.839277 0.0691234 0.926024
0.893904 0.0691081 0.926009
0.893904 0.0691081 0.926009
0.893904 0.0691081 0.926009
0.893904 0.0691081 0.926009
0.0690471 0.18732 0.7944
0.171496 0.163455 0.833829
0.362844 0.154818 0.868421
0.581384 0.136538 0.906661
0.790631 0.0698405 0.923033
0.893904 0.0691081 0.926009
0.893904 0.0691081 0.926009
0.893904 0.0691081 0.926009
0.893904 0.0691081 0.926009
0.0691997 0.249348 0.816068
0.068986 0.194675 0.796857
0.167666 0.163867 0.833143
0.492012 0.147662 0.892378
0.736248 0.0944533 0.921431
0.893904 0.0691081 0.926009
0.893919 0.0691081 0.926009
0.893904 0.0691081 0.926009
0.893904 0.0691081 0.926009
0.0690776 0.370001 0.844327
0.0690013 0.329152 0.836408
0.0690318 0.271855 0.822675
0.206424 0.165652 0.841596
0.615946 0.128847 0.911055
0.863294 0.0690929 0.925994
0.893965 0.0691081 0.926009
0.89398 0.0691081 0.926009
0.893965 0.0691081 0.926009
0.0690776 0.573785 0.872877
0.0691997 0.556054 0.870039
0.0691691 0.535683 0.866499
0.0691386 0.48838 0.859785
0.47306 0.46154 0.869108
0.77995 0.423774 0.913817
0.906752 0.340826 0.926085
0.907149 0.305379 0.925948
0.90753 0.285527 0.925933
0.0690623 0.763241 0.890425
0.0690929 0.74902 0.889723
0.0692149 0.733761 0.889128
0.0692302 0.70277 0.887587
0.22211 0.661418 0.878828
0.67483 0.671 0.892973
0.880064 0.644236 0.913588
0.903243 0.620813 0.914626
0.90277 0.611536 0.914641
0.0690929 0.873747 0.905058
0.0691539 0.868208 0.903563
0.0690013 0.861982 0.901671
0.0691691 0.849805 0.899321
0.0690776 0.827436 0.896269
0.572366 0.807584 0.888014
0.824247 0.822187 0.906493
0.909667 0.807507 0.913909
0.909377 0.799329 0.913939
0.0690471 0.882383 0.907073
0.0690471 0.882383 0.907073
0.0690471 0.882383 0.907073
0.0690471 0.882383 0.907073
0.0690471 0.882719 0.907256
0.155764 0.875013 0.900221
0.787961 0.893477 0.909148
0.898421 0.89778 0.914687
0.915602 0.893812 0.916701
0.0690471 0.882383 0.907073
0.0690471 0.882383 0.907073
0.0690471 0.882383 0.907073
0.0690471 0.882383 0.907073
0.0690471 0.882673 0.907225
0.0691997 0.886854 0.909194
0.724666 0.900435 0.906142
0.898741 0.918685 0.919448
0.925124 0.925124 0.925124
