bundles/resolve-cinematic-luts/Phantom Luts/Canon Alexa LUT/ATOMOS Monitoring LUTs/C-Log 3/Tungsten Canon CL3 AML.cube
TITLE "Generated by Resolve"
LUT_3D_SIZE 33
0.0767376 0.0770733 0.082826
0.0767529 0.076997 0.0826429
0.0767376 0.0768292 0.0822614
0.090013 0.0766461 0.0841993
0.159564 0.0748608 0.0964218
0.219898 0.073579 0.107927
0.273442 0.0737926 0.119493
0.326421 0.0742046 0.13257
0.377447 0.0750286 0.148852
0.426657 0.0771191 0.168185
0.476555 0.081178 0.186023
0.525429 0.0856641 0.207218
0.570275 0.0894026 0.229099
0.611032 0.0941482 0.250202
0.647395 0.100725 0.273182
0.680201 0.109987 0.297475
0.706691 0.120485 0.323644
0.727413 0.130632 0.349111
0.730831 0.132082 0.359564
0.731563 0.132235 0.366522
0.732143 0.132357 0.373083
0.732586 0.132448 0.379095
0.732952 0.13254 0.384283
0.732372 0.131746 0.388556
0.732616 0.131807 0.392508
0.73286 0.131868 0.396063
0.733867 0.132769 0.39971
0.733989 0.132815 0.402289
0.734081 0.13283 0.404547
0.734264 0.13286 0.406836
0.734493 0.132967 0.40853
0.734981 0.133227 0.410636
0.735393 0.133501 0.412528
0.0767376 0.0768444 0.0823072
0.0767376 0.0769207 0.082475
0.0767376 0.0768292 0.0822614
0.0775769 0.0767681 0.0817578
0.121996 0.0770581 0.085481
0.186755 0.0735027 0.0923323
0.242252 0.0725414 0.0990921
0.297154 0.071519 0.105913
0.352926 0.0725719 0.115541
0.405692 0.0745556 0.127779
0.457984 0.0799878 0.142855
0.506813 0.082948 0.162707
0.552712 0.0863966 0.188861
0.596506 0.0910201 0.210513
0.634089 0.0975204 0.233845
0.668009 0.106676 0.258381
0.69662 0.117739 0.287053
0.720012 0.128283 0.316548
0.727657 0.131746 0.332433
0.728786 0.131807 0.340581
0.729763 0.131945 0.348028
0.730358 0.131991 0.354482
0.730846 0.132067 0.360265
0.731426 0.132189 0.365438
0.731853 0.13228 0.370031
0.732158 0.132372 0.373587
0.732418 0.132403 0.377035
0.732647 0.132479 0.379522
0.73286 0.13254 0.38201
0.733181 0.132692 0.384192
0.733547 0.132845 0.386221
0.734081 0.133104 0.388586
0.734615 0.13341 0.390494
0.076936 0.0829328 0.0852522
0.0769055 0.082826 0.08542
0.0766613 0.0787823 0.0831311
0.0767376 0.0768292 0.0822614
0.0859846 0.0807965 0.0831159
0.1505 0.0844587 0.086244
0.208881 0.0832074 0.0919051
0.267323 0.0818494 0.0959182
0.32694 0.0807202 0.099855
0.383642 0.0773938 0.105196
0.436484 0.0770428 0.115511
0.486671 0.0789807 0.131258
0.535088 0.0839704 0.15346
0.5785 0.0884871 0.176715
0.615854 0.0940719 0.196857
0.650523 0.102342 0.222889
0.682445 0.113756 0.252079
0.708293 0.124941 0.281239
0.72015 0.129885 0.301381
0.722576 0.130358 0.31043
0.724651 0.130938 0.319631
0.726558 0.131441 0.327718
0.728084 0.131807 0.335088
0.728832 0.131807 0.340841
0.729534 0.13193 0.345907
0.730083 0.132006 0.350576
0.730343 0.132006 0.353872
0.730571 0.132021 0.357076
0.730892 0.132128 0.359808
0.731289 0.13228 0.362158
0.731701 0.132448 0.364569
0.732341 0.132753 0.366964
0.732967 0.133043 0.369467
0.0772412 0.119081 0.0959487
0.0771649 0.119234 0.0960555
0.0778058 0.107713 0.0874189
0.0814374 0.0965744 0.0849317
0.0875715 0.0890364 0.0837415
0.117235 0.0991073 0.0869154
0.176959 0.103243 0.0893568
0.23595 0.101839 0.0898299
0.298756 0.0968032 0.0936599
0.362264 0.0902266 0.0984665
0.420874 0.0856641 0.107118
0.473442 0.0812085 0.115007
0.521477 0.0814221 0.129
0.564843 0.0867933 0.151537
0.601877 0.0918746 0.172778
0.63653 0.0992905 0.198825
0.66833 0.109804 0.22594
0.695842 0.121141 0.254276
0.710887 0.127581 0.273564
0.713619 0.128283 0.280842
0.717021 0.129229 0.290745
0.719478 0.129732 0.299153
0.721477 0.130068 0.306767
0.72343 0.130587 0.313863
0.72491 0.131106 0.320012
0.726329 0.131502 0.325429
0.727398 0.131777 0.330175
0.72813 0.131945 0.333928
0.728573 0.13196 0.336751
0.728969 0.131991 0.339452
0.729442 0.132158 0.341955
0.730144 0.132479 0.344564
0.73077 0.132799 0.34757
0.0779889 0.179095 0.104585
0.0778363 0.179309 0.104707
0.0780041 0.170245 0.0907454
0.0815595 0.158312 0.0836347
0.0992599 0.142977 0.0866712
0.135866 0.133303 0.0857862
0.174334 0.142809 0.0894942
0.223636 0.142641 0.0899367
0.283146 0.133104 0.0933547
0.346151 0.126711 0.0952468
0.406287 0.115892 0.0999008
0.462287 0.0980545 0.107088
0.512261 0.0881971 0.118853
0.554101 0.0849165 0.132448
0.593164 0.0907759 0.1561
0.627527 0.0978408 0.18204
0.65774 0.106783 0.207599
0.685695 0.1178 0.236347
0.70489 0.126345 0.257359
0.70753 0.12694 0.263386
0.709667 0.127474 0.269276
0.711696 0.127932 0.274891
0.713466 0.128344 0.279896
0.715831 0.129 0.286137
0.717937 0.129641 0.292699
0.719539 0.129915 0.298054
0.720913 0.130205 0.302693
0.721965 0.130373 0.306844
0.722927 0.130648 0.310018
0.72369 0.130877 0.313512
0.724453 0.131197 0.316167
0.725521 0.131594 0.319509
0.726604 0.132036 0.322683
0.0742351 0.224201 0.106279
0.0741131 0.224521 0.106706
0.0747692 0.217121 0.0895552
0.0755627 0.206775 0.0821698
0.0951705 0.194766 0.0813916
0.135882 0.183734 0.0802319
0.19057 0.179904 0.0833448
0.229816 0.183886 0.0869306
0.282231 0.185901 0.0867628
0.344091 0.180301 0.0903182
0.404288 0.16939 0.0961776
0.457771 0.146059 0.102144
0.508461 0.122164 0.111223
0.550805 0.100969 0.122301
0.585901 0.0926375 0.138674
0.618097 0.0950637 0.165667
0.649958 0.105089 0.192782
0.677577 0.115328 0.22208
0.699184 0.124346 0.247181
0.703563 0.126284 0.252857
0.703929 0.126314 0.253986
0.705531 0.126589 0.257954
0.707362 0.126986 0.262303
0.708858 0.127367 0.266011
0.709834 0.127596 0.269261
0.710994 0.12781 0.272648
0.712108 0.128115 0.275288
0.713344 0.12845 0.278614
0.714595 0.128817 0.281727
0.715816 0.129168 0.284932
0.716899 0.129549 0.287694
0.718105 0.130007 0.291112
0.719295 0.130358 0.294209
0.0668345 0.265278 0.104097
0.0665751 0.265873 0.104555
0.0677958 0.259754 0.0859693
0.0691691 0.251377 0.0777752
0.0798962 0.239994 0.0791943
0.113771 0.231556 0.0779278
0.182208 0.222797 0.0770581
0.238392 0.219333 0.080827
0.285252 0.222263 0.0823072
0.339696 0.22443 0.0813153
0.406668 0.215641 0.0909743
0.462394 0.205417 0.0957504
0.513741 0.191043 0.101976
0.560449 0.1691 0.112184
0.593378 0.129412 0.125795
0.61416 0.102327 0.146349
0.641321 0.102861 0.177005
0.670085 0.113695 0.206256
0.693049 0.122606 0.23505
0.702525 0.12639 0.247883
0.702831 0.126375 0.2495
0.70312 0.126329 0.250874
0.703273 0.126268 0.251865
0.703426 0.126253 0.252384
0.703548 0.126284 0.25272
0.704295 0.126467 0.254383
0.705058 0.126589 0.256321
0.705715 0.12668 0.258015
0.706691 0.126909 0.260105
0.707683 0.127169 0.262455
0.708492 0.127459 0.26424
0.709255 0.127764 0.266255
0.710033 0.128054 0.268025
0.0658427 0.305257 0.0988022
0.0658274 0.305867 0.0996109
0.0658579 0.301213 0.0782177
0.0658885 0.294316 0.0671702
0.0672618 0.284688 0.0698863
0.090135 0.276539 0.0707713
0.139116 0.26978 0.0706035
0.222126 0.262257 0.0692302
0.287144 0.259007 0.0771649
0.342061 0.262501 0.0791028
0.396521 0.265782 0.0754559
0.46302 0.256474 0.0885481
0.521614 0.244114 0.100954
0.567544 0.233188 0.105516
0.609049 0.214282 0.115312
0.643442 0.186511 0.130251
0.653437 0.137713 0.150072
0.662348 0.114183 0.183291
0.685863 0.121202 0.217731
0.700572 0.12668 0.238682
0.701259 0.126635 0.24126
0.701625 0.126528 0.243183
0.701823 0.126436 0.244465
0.701961 0.12636 0.245411
0.702113 0.126299 0.24622
0.702327 0.126314 0.247272
0.702541 0.126375 0.24802
0.702739 0.12639 0.248859
0.702922 0.126421 0.249577
0.703075 0.126421 0.250126
0.703288 0.126482 0.250721
0.7037 0.126604 0.251606
0.704112 0.126787 0.252369
0.0659648 0.343908 0.0955825
0.0658885 0.344396 0.0968185
0.0659037 0.341619 0.0716869
0.0658274 0.336721 0.0658274
0.0657511 0.328557 0.0657511
0.0658122 0.320195 0.0658122
0.0979782 0.314946 0.0659648
0.173678 0.308858 0.0660105
0.268086 0.301488 0.0659495
0.339895 0.299184 0.0716259
0.399481 0.304585 0.0770275
0.452338 0.310811 0.071458
0.512352 0.302617 0.0836347
0.57377 0.287907 0.10428
0.61857 0.27628 0.11284
0.655818 0.261402 0.122194
0.686305 0.234775 0.139544
0.699794 0.192599 0.163912
0.695979 0.146471 0.191897
0.697093 0.128923 0.215732
0.700557 0.128985 0.227039
0.700374 0.12813 0.230686
0.70071 0.127718 0.233799
0.700496 0.127428 0.234592
0.700313 0.127169 0.23534
0.700191 0.126925 0.236042
0.700252 0.126818 0.236866
0.700465 0.126757 0.237903
0.700664 0.126757 0.238636
0.700923 0.126772 0.239384
0.701167 0.126802 0.240131
0.701503 0.126909 0.240925
0.701854 0.127062 0.241596
0.0660105 0.381201 0.0970474
0.0660258 0.381903 0.0988937
0.0659495 0.37995 0.0690013
0.0657664 0.377646 0.0657664
0.0658732 0.371374 0.0658732
0.0658885 0.361883 0.0658885
0.0665446 0.355261 0.066041
0.118029 0.350637 0.0658122
0.21355 0.346716 0.06598
0.320806 0.341161 0.0658732
0.395621 0.341131 0.0667887
0.454078 0.348013 0.0743114
0.505974 0.357473 0.0741436
0.557565 0.353262 0.0783703
0.616663 0.339467 0.104234
0.669154 0.321294 0.12665
0.700954 0.308598 0.135637
0.727993 0.286305 0.155505
0.741802 0.247623 0.181262
0.732998 0.195621 0.198352
0.718685 0.161471 0.205219
0.707668 0.144244 0.206943
0.703334 0.137209 0.210376
0.700587 0.132326 0.213962
0.699626 0.129793 0.218463
0.700893 0.129625 0.224308
0.701122 0.129458 0.226642
0.701106 0.129198 0.227939
0.701091 0.129061 0.228641
0.701091 0.128985 0.229023
0.701137 0.128939 0.229328
0.701305 0.129015 0.229725
0.701518 0.129122 0.23003
0.0659342 0.419364 0.103319
0.0659495 0.420325 0.105516
0.0658579 0.419287 0.0687572
0.0658274 0.418448 0.0658274
0.0659648 0.414221 0.0659648
0.0658274 0.405234 0.0658274
0.0658122 0.396063 0.0658122
0.0713512 0.389944 0.0659953
0.150805 0.387472 0.0660716
0.260517 0.383215 0.0659953
0.379232 0.380255 0.0661021
0.448783 0.381735 0.0659037
0.505409 0.390265 0.0731212
0.555428 0.400519 0.0779889
0.601755 0.402106 0.0800183
0.654078 0.391562 0.106218
0.708492 0.374395 0.135561
0.747204 0.357031 0.160296
0.76669 0.338979 0.176303
0.778225 0.308675 0.195499
0.775937 0.279042 0.204211
0.766873 0.257069 0.20383
0.757351 0.235035 0.203769
0.74873 0.21619 0.204791
0.741939 0.20174 0.206149
0.734127 0.185168 0.208911
0.726619 0.173037 0.208026
0.720897 0.164019 0.207263
0.716655 0.157794 0.206317
0.712688 0.152499 0.205127
0.710643 0.149203 0.205447
0.708507 0.146151 0.204532
0.707103 0.144152 0.203693
0.0660105 0.459007 0.109331
0.0660105 0.459663 0.112581
0.0659342 0.459693 0.0760815
0.0658885 0.459998 0.0658885
0.0658885 0.457374 0.0658885
0.0659495 0.45095 0.0659495
0.0658579 0.441947 0.0658579
0.065919 0.43238 0.065919
0.0915999 0.42649 0.066041
0.194308 0.426093 0.066041
0.320226 0.418982 0.0658427
0.435523 0.420752 0.0659648
0.501244 0.423575 0.0659953
0.552438 0.432151 0.0755779
0.601755 0.442405 0.0855573
0.645838 0.44892 0.0940719
0.691218 0.440955 0.115694
0.744884 0.425666 0.150591
0.784833 0.408804 0.183398
0.805371 0.390021 0.204059
0.808484 0.372351 0.209369
0.80444 0.358251 0.208438
0.799817 0.344549 0.207111
0.7953 0.331823 0.20621
0.791211 0.319631 0.205707
0.787106 0.308263 0.205371
0.783917 0.298405 0.205509
0.781018 0.290562 0.205493
0.779171 0.28542 0.205386
0.777218 0.280995 0.204974
0.776074 0.279072 0.204471
0.776394 0.280705 0.203906
0.778134 0.286442 0.203311
0.0659648 0.498787 0.117906
0.0658885 0.499397 0.121294
0.066041 0.499763 0.0915999
0.0659495 0.500282 0.0659495
0.0659495 0.499062 0.0659495
0.0657969 0.494743 0.0657969
0.0658579 0.486931 0.0658579
0.0659037 0.47747 0.0659037
0.0727398 0.469154 0.0659648
0.125444 0.464042 0.0660563
0.254826 0.46569 0.0660716
0.382589 0.456291 0.0660716
0.490303 0.461814 0.0659342
0.549844 0.464958 0.0679942
0.595865 0.472999 0.0822919
0.645823 0.483345 0.0981918
0.687037 0.491859 0.112337
0.727749 0.488945 0.13283
0.774853 0.476753 0.168215
0.815091 0.459098 0.20502
0.83563 0.442344 0.227481
0.836881 0.430762 0.230869
0.833295 0.422019 0.228107
0.828855 0.414145 0.224094
0.824735 0.40705 0.220783
0.821576 0.400641 0.21796
0.818311 0.394812 0.215549
0.816236 0.39089 0.213977
0.81474 0.387457 0.212757
0.813657 0.385428 0.211856
0.813458 0.385321 0.211582
0.813626 0.38703 0.211231
0.814862 0.390906 0.211902
0.0658122 0.538674 0.130541
0.0658274 0.539452 0.134752
0.0657664 0.539391 0.110918
0.0659953 0.540307 0.0875563
0.0658579 0.538811 0.0658579
0.0658579 0.536034 0.0658579
0.065919 0.530312 0.065919
0.06598 0.522057 0.06598
0.0693523 0.513222 0.065919
0.0966659 0.506462 0.0659495
0.181262 0.503639 0.065919
0.32015 0.50695 0.0660716
0.444251 0.495384 0.0659953
0.538247 0.503532 0.0658732
0.595132 0.506432 0.078172
0.637385 0.513832 0.0952163
0.686275 0.523888 0.116991
0.725124 0.532967 0.136248
0.761898 0.536004 0.15845
0.797864 0.52665 0.185458
0.829267 0.512612 0.212467
0.841398 0.50106 0.224628
0.842435 0.492866 0.226642
0.842695 0.48539 0.227893
0.843 0.478981 0.229191
0.842985 0.473671 0.230106
0.842847 0.469306 0.230564
0.842893 0.465766 0.231083
0.842741 0.46302 0.231418
0.84332 0.461738 0.232563
0.844053 0.46157 0.233661
0.845167 0.46334 0.234821
0.844892 0.467079 0.233829
0.065919 0.577996 0.149554
0.0659342 0.578897 0.155566
0.0658732 0.578775 0.132158
0.0658427 0.579431 0.112718
0.06598 0.577508 0.0791485
0.0657664 0.574823 0.0657664
0.06598 0.570809 0.06598
0.0658274 0.56376 0.0658274
0.0678874 0.556634 0.06598
0.0975204 0.549477 0.0660105
0.128634 0.544854 0.0658732
0.254139 0.545953 0.065919
0.384421 0.547723 0.0658274
0.500648 0.534478 0.0659953
0.583215 0.544686 0.0717937
0.637888 0.547463 0.0956588
0.676066 0.553689 0.114855
0.723201 0.563729 0.141283
0.761028 0.573327 0.164889
0.79115 0.57911 0.184726
0.818402 0.574899 0.204181
0.833387 0.566186 0.216098
0.834958 0.559625 0.217014
0.83534 0.554025 0.217105
0.835904 0.549004 0.217426
0.836072 0.544793 0.217502
0.836515 0.541558 0.217929
0.836545 0.538888 0.218021
0.836515 0.537224 0.217975
0.836622 0.536751 0.218112
0.836454 0.537774 0.217884
0.836408 0.540063 0.217884
0.836133 0.543664 0.217639
0.0659495 0.617884 0.174548
0.0660563 0.619181 0.182376
0.0660105 0.618433 0.159472
0.06598 0.619532 0.148119
0.0658427 0.617807 0.118837
0.0745251 0.614969 0.092256
0.0760357 0.612299 0.0846723
0.0711223 0.606332 0.0810712
0.0779431 0.598383 0.0682231
0.109178 0.591699 0.0659495
0.125277 0.584665 0.0658885
0.177874 0.584451 0.066041
0.329015 0.590356 0.0660868
0.443473 0.588113 0.0660563
0.549645 0.573632 0.0660105
0.625101 0.585245 0.0943618
0.678721 0.588556 0.121126
0.714305 0.593942 0.141894
0.757107 0.603479 0.169238
0.792187 0.612177 0.193103
0.817456 0.618479 0.210681
0.83386 0.619318 0.221668
0.837613 0.616144 0.223774
0.837247 0.612833 0.223194
0.836576 0.609293 0.222339
0.836423 0.606409 0.221988
0.836057 0.604059 0.221439
0.836042 0.602548 0.221271
0.836057 0.601694 0.221225
0.835981 0.601633 0.22121
0.836011 0.602258 0.221378
0.835889 0.603845 0.221546
0.836255 0.606668 0.222354
0.0703136 0.655589 0.204974
0.0691844 0.656641 0.21323
0.0742046 0.655909 0.193378
0.0777905 0.657359 0.18677
0.0889448 0.655421 0.154665
0.0981918 0.653803 0.133211
0.10222 0.651148 0.12015
0.101213 0.646128 0.111559
0.0982376 0.638285 0.102327
0.124315 0.632807 0.0800946
0.14522 0.627329 0.0659495
0.163302 0.624353 0.0658579
0.25687 0.626642 0.0659648
0.400397 0.636011 0.0659953
0.498116 0.627985 0.0660105
0.595789 0.612955 0.0931868
0.666056 0.625834 0.124041
0.717708 0.629892 0.152773
0.752468 0.634958 0.174472
0.786557 0.642206 0.197055
0.818036 0.649607 0.219562
0.840269 0.65481 0.235874
0.847807 0.655543 0.240925
0.847181 0.653315 0.239796
0.846494 0.651408 0.238743
0.845884 0.649653 0.237934
0.845685 0.648432 0.23743
0.845685 0.647837 0.237232
0.845869 0.647761 0.237339
0.84596 0.647791 0.237446
0.846067 0.648264 0.237675
0.846448 0.649546 0.2383
0.847349 0.65185 0.239429
0.0960708 0.689372 0.235126
0.0945907 0.690806 0.245441
0.099321 0.689799 0.225574
0.102907 0.691432 0.220447
0.111971 0.69012 0.193011
0.119814 0.688563 0.171908
0.126909 0.685115 0.150835
0.126757 0.683574 0.147906
0.122255 0.676646 0.140307
0.135836 0.67071 0.123659
0.168261 0.665949 0.0988327
0.180255 0.661982 0.092134
0.217563 0.662165 0.0801709
0.342397 0.667552 0.0659648
0.465187 0.676112 0.0762188
0.550988 0.665537 0.0923476
0.640238 0.654337 0.12697
0.705516 0.66743 0.158495
0.755398 0.671839 0.187335
0.786725 0.676173 0.207248
0.812329 0.681056 0.225483
0.840085 0.687938 0.246036
0.856107 0.690944 0.257939
0.858701 0.690028 0.259388
0.857939 0.688319 0.258366
0.857771 0.687022 0.257801
0.857618 0.686198 0.257404
0.85742 0.685481 0.256977
0.857298 0.685084 0.256764
0.857298 0.685161 0.256764
0.857435 0.685878 0.25713
0.857618 0.68719 0.257679
0.858228 0.689464 0.258961
0.117678 0.716884 0.260884
0.116304 0.718318 0.271519
0.119615 0.716808 0.253132
0.121935 0.717708 0.249485
0.128267 0.715465 0.223911
0.136477 0.712337 0.19646
0.143786 0.709606 0.175372
0.143984 0.708354 0.171756
0.142977 0.705379 0.1673
0.148562 0.701137 0.158053
0.182727 0.699077 0.135286
0.205875 0.695598 0.120607
0.220768 0.693645 0.114611
0.288426 0.697368 0.0980087
0.427955 0.705592 0.0929122
0.528572 0.710475 0.111528
0.603677 0.699199 0.131258
0.684764 0.693629 0.165423
0.745266 0.706294 0.194965
0.789929 0.711223 0.221454
0.817685 0.715221 0.240497
0.838773 0.719524 0.256199
0.856306 0.723095 0.269032
0.862837 0.723796 0.273655
0.862562 0.722499 0.273091
0.86244 0.721569 0.272679
0.862257 0.720684 0.272206
0.862211 0.720119 0.271962
0.862287 0.719905 0.271962
0.862364 0.719997 0.272038
0.86247 0.720653 0.272343
0.862791 0.722057 0.273106
0.863157 0.723949 0.273915
0.12076 0.723232 0.273228
0.119966 0.724178 0.28069
0.121752 0.722545 0.26685
0.122805 0.722011 0.261418
0.128038 0.717952 0.232227
0.135515 0.714153 0.203067
0.141268 0.711315 0.18407
0.143557 0.710262 0.17734
0.144396 0.70988 0.174899
0.149584 0.711192 0.17377
0.188296 0.717311 0.158663
0.222934 0.718776 0.142611
0.236667 0.719142 0.140597
0.271214 0.721584 0.132479
0.378836 0.727123 0.114107
0.511482 0.737682 0.126604
0.587137 0.737041 0.145632
0.654521 0.727932 0.171618
0.729335 0.728542 0.205066
0.78172 0.741329 0.231708
0.820203 0.746365 0.255085
0.844831 0.750011 0.272114
0.862013 0.753185 0.285069
0.869902 0.754238 0.291112
0.870283 0.753597 0.291127
0.870069 0.75285 0.290623
0.869856 0.752255 0.290211
0.869551 0.751827 0.289754
0.86952 0.751659 0.289631
0.870024 0.752148 0.290211
0.870527 0.752758 0.290822
0.870863 0.753719 0.291463
0.87155 0.755688 0.292927
0.120668 0.723369 0.274006
0.119188 0.725216 0.288273
0.121477 0.722744 0.268528
0.123033 0.721798 0.259876
0.127977 0.717983 0.232456
0.135897 0.713954 0.201862
0.14052 0.711666 0.186389
0.144121 0.710002 0.175662
0.144183 0.709972 0.175463
0.142031 0.710353 0.179553
0.178531 0.717906 0.168246
0.222049 0.724392 0.153719
0.24715 0.729152 0.151141
0.268238 0.733288 0.151232
0.33547 0.738964 0.138079
0.478767 0.747326 0.132342
0.582162 0.755261 0.154482
0.637629 0.757412 0.180682
0.708156 0.752163 0.212177
0.771191 0.759411 0.243687
0.813306 0.771054 0.265721
0.845624 0.776394 0.286702
0.867445 0.780133 0.302663
0.880522 0.782879 0.313298
0.88249 0.782712 0.314641
0.882185 0.781979 0.314
0.881987 0.781491 0.313588
0.881895 0.781094 0.313329
0.881926 0.781109 0.313375
0.882033 0.781308 0.313558
0.882246 0.781842 0.314015
0.882643 0.782803 0.314839
0.883223 0.78436 0.315938
0.120363 0.723445 0.275669
0.118578 0.726162 0.295705
0.121218 0.722835 0.269917
0.12192 0.722408 0.266056
0.12549 0.719615 0.245151
0.132815 0.715236 0.212085
0.13872 0.712413 0.192142
0.144045 0.709895 0.175586
0.144884 0.709514 0.173266
0.144839 0.709529 0.173404
0.158541 0.713985 0.174624
0.214084 0.725048 0.161334
0.251255 0.730648 0.153475
0.269123 0.73518 0.156146
0.315755 0.741192 0.151781
0.428183 0.749111 0.141436
0.563897 0.761135 0.16321
0.629557 0.770809 0.189715
0.690288 0.773709 0.216678
0.759014 0.775708 0.252201
0.806241 0.785199 0.276875
0.839673 0.795041 0.296712
0.866377 0.801053 0.316136
0.887221 0.805585 0.328344
0.893065 0.807004 0.331716
0.892821 0.806531 0.331182
0.892653 0.806119 0.330663
0.892653 0.806027 0.330404
0.892699 0.806012 0.330098
0.892912 0.806241 0.329961
0.893202 0.806775 0.329885
0.89366 0.80766 0.329946
0.89456 0.80914 0.330556
0.119539 0.724651 0.284489
0.118105 0.727764 0.3066
0.120378 0.723812 0.277378
0.121492 0.722683 0.268193
0.123354 0.721386 0.257542
0.127825 0.717968 0.232853
0.135851 0.713848 0.201709
0.140581 0.711482 0.185824
0.145022 0.709453 0.172839
0.145083 0.709438 0.172656
0.148684 0.711711 0.176776
0.202655 0.723247 0.164614
0.247318 0.729763 0.153002
0.266545 0.735027 0.157259
0.305303 0.740917 0.155688
0.392142 0.750393 0.154269
0.536004 0.764096 0.171328
0.616083 0.773022 0.195377
0.681224 0.779721 0.216938
0.745724 0.786038 0.253605
0.801282 0.793667 0.284718
0.835966 0.80351 0.304372
0.862119 0.811948 0.322545
0.885328 0.81767 0.339818
0.896956 0.8206 0.346136
0.89752 0.820737 0.346456
0.897536 0.820768 0.346532
0.897536 0.820813 0.346624
0.897536 0.820966 0.346853
0.897581 0.821241 0.347234
0.897673 0.821591 0.347799
0.897887 0.82211 0.348791
0.898054 0.822797 0.349889
0.118608 0.726513 0.297047
0.117464 0.729473 0.319188
0.119402 0.725002 0.28658
0.121233 0.723003 0.270436
0.12221 0.722301 0.264469
0.125277 0.71986 0.246418
0.131945 0.715541 0.215152
0.139315 0.712123 0.190173
0.144564 0.709651 0.174243
0.14493 0.709499 0.173144
0.143893 0.710155 0.176715
0.191501 0.721218 0.167651
0.241413 0.728542 0.153277
0.262196 0.734249 0.157519
0.297551 0.739834 0.155917
0.36968 0.748501 0.15552
0.517998 0.761776 0.165881
0.604562 0.772885 0.194903
0.672282 0.778897 0.213199
0.735912 0.786679 0.249378
0.794156 0.7935 0.282628
0.831037 0.803647 0.303349
0.858747 0.812406 0.321294
0.881056 0.818967 0.339071
0.896345 0.822477 0.349096
0.898116 0.822889 0.350149
0.898116 0.822889 0.350149
0.898131 0.822919 0.350164
0.898131 0.822965 0.350179
0.898131 0.823041 0.35024
0.898131 0.823072 0.350286
0.898131 0.823087 0.350301
0.898131 0.823072 0.350286
0.117983 0.728374 0.310109
0.11751 0.731167 0.331075
0.118593 0.726513 0.297078
0.120821 0.723476 0.27396
0.121584 0.722683 0.267918
0.123461 0.721355 0.257023
0.127993 0.717876 0.23209
0.137697 0.712902 0.195483
0.143618 0.710094 0.176852
0.14493 0.709484 0.173068
0.144244 0.709804 0.175006
0.180499 0.718853 0.169818
0.235462 0.727825 0.154589
0.258946 0.733486 0.157305
0.291814 0.738949 0.156008
0.354208 0.747189 0.156313
0.499184 0.759228 0.160678
0.595789 0.772229 0.19353
0.663249 0.778103 0.210315
0.726528 0.786221 0.244114
0.786984 0.792218 0.278676
0.826246 0.802426 0.300893
0.854658 0.811109 0.317998
0.877104 0.817853 0.336263
0.895171 0.822232 0.348409
0.898116 0.822889 0.350149
0.898116 0.822889 0.350149
0.898131 0.822919 0.350164
0.898131 0.822965 0.350179
0.898131 0.823041 0.35024
0.898131 0.823072 0.350286
0.898131 0.823087 0.350301
0.898131 0.823087 0.350301
0.117433 0.730037 0.322744
0.117632 0.732708 0.341512
0.118151 0.727916 0.307012
0.120241 0.724071 0.279301
0.121309 0.723003 0.27013
0.122576 0.722118 0.262577
0.125826 0.719448 0.24358
0.134401 0.714611 0.20676
0.14197 0.710826 0.181735
0.145098 0.709422 0.172564
0.144656 0.709606 0.173953
0.173342 0.717037 0.170672
0.228702 0.726818 0.156283
0.256703 0.732891 0.156863
0.287388 0.73817 0.155856
0.343053 0.745892 0.156283
0.480583 0.757534 0.157488
0.587747 0.771618 0.192325
0.654795 0.77734 0.207965
0.718898 0.785336 0.239445
0.780514 0.791501 0.274693
0.821622 0.801099 0.298177
0.85185 0.810346 0.31606
0.873503 0.816983 0.333684
0.893233 0.82179 0.347219
0.898116 0.822904 0.350149
0.898116 0.822889 0.350149
0.898131 0.822919 0.350164
0.898131 0.822965 0.350179
0.898131 0.823041 0.35024
0.898131 0.823072 0.350286
0.898131 0.823087 0.350301
0.898131 0.823087 0.350301
0.11754 0.731548 0.33341
0.117769 0.733913 0.349905
0.117632 0.729076 0.315785
0.119554 0.724971 0.285695
0.121004 0.723369 0.272908
0.122087 0.722393 0.265232
0.124193 0.72076 0.252628
0.130694 0.716152 0.219623
0.141146 0.711238 0.184131
0.145083 0.709422 0.172595
0.144915 0.709499 0.173175
0.163638 0.715206 0.173495
0.223163 0.725978 0.157916
0.255299 0.732586 0.156603
0.284031 0.737484 0.155489
0.337087 0.745129 0.155901
0.463844 0.756161 0.155962
0.580652 0.770703 0.189258
0.648829 0.776959 0.206394
0.712779 0.784527 0.23592
0.775402 0.790997 0.271717
0.817929 0.800046 0.295979
0.848707 0.8094 0.314076
0.870832 0.816358 0.331701
0.890669 0.82121 0.34551
