bundles/resolve-cinematic-luts/Phantom Luts/Canon Alexa LUT/ATOMOS Monitoring LUTs/C-Log 3/Tungsten Canon CL3-Legacy AML.cube
TITLE "Generated by Resolve"
LUT_3D_SIZE 9
0.0921187 0.0913252 0.0960098
0.145632 0.0921798 0.104387
0.336004 0.0945144 0.138521
0.544961 0.105348 0.202579
0.705165 0.132738 0.289708
0.740948 0.147448 0.343038
0.742718 0.146944 0.36379
0.744259 0.147601 0.376471
0.745403 0.148318 0.383871
0.0978256 0.159823 0.111543
0.103853 0.130129 0.102617
0.236606 0.1243 0.10486
0.476661 0.101747 0.122621
0.645853 0.117952 0.190539
0.709941 0.141222 0.245731
0.719936 0.14406 0.265721
0.726314 0.145754 0.280552
0.730892 0.147143 0.2916
0.0776226 0.306828 0.105623
0.0810864 0.290562 0.0901503
0.229114 0.260502 0.0924544
0.466285 0.257465 0.103914
0.649149 0.19968 0.13753
0.701762 0.142779 0.213092
0.700328 0.140658 0.218128
0.700572 0.140093 0.221408
0.701717 0.140429 0.223941
0.065919 0.463874 0.100847
0.0658274 0.466514 0.0658274
0.0660563 0.434546 0.06598
0.443641 0.425956 0.0666972
0.648585 0.455573 0.109209
0.818616 0.399847 0.216556
0.805005 0.361975 0.210208
0.793637 0.340887 0.203204
0.79353 0.342382 0.202655
0.0710307 0.637919 0.169848
0.0879683 0.641184 0.135927
0.0891432 0.623484 0.0979324
0.210864 0.599329 0.0659342
0.632197 0.596536 0.10724
0.802594 0.624552 0.20763
0.838468 0.629358 0.231449
0.837995 0.62533 0.230304
0.839292 0.629709 0.23209
0.131914 0.722164 0.248753
0.139971 0.718196 0.216663
0.153353 0.712367 0.175799
0.229435 0.726223 0.155795
0.544793 0.753964 0.148562
0.798962 0.770504 0.258289
0.889296 0.785092 0.319448
0.888975 0.783246 0.318288
0.8907 0.78706 0.321431
0.12726 0.726543 0.279728
0.132891 0.721675 0.24416
0.152941 0.712383 0.176547
0.220279 0.724926 0.158511
0.473106 0.75433 0.152651
0.769268 0.794888 0.267536
0.90602 0.823117 0.352972
0.90869 0.823758 0.354772
0.908675 0.823865 0.354849
0.12401 0.731228 0.31696
0.131289 0.722728 0.252262
0.150118 0.712932 0.182681
0.206836 0.722698 0.161807
0.418509 0.749462 0.148882
0.74873 0.790478 0.255222
0.897032 0.82118 0.347219
0.908751 0.82356 0.35462
0.908675 0.82385 0.354833
0.124361 0.737957 0.363256
0.129915 0.724163 0.261875
0.149111 0.713451 0.185687
0.217899 0.724559 0.159274
0.470314 0.754116 0.153384
0.767224 0.793088 0.266285
0.898817 0.82153 0.348424
0.908751 0.823575 0.35465
0.908675 0.823835 0.354818
0.0838178 0.0975662 0.14432
0.13959 0.0958114 0.156374
0.315358 0.0999161 0.224857
0.525017 0.111009 0.297108
0.708507 0.133165 0.373434
0.747585 0.148974 0.416648
0.748806 0.149523 0.436835
0.749722 0.150118 0.448585
0.750713 0.150896 0.454566
0.0962692 0.120684 0.124453
0.0931563 0.101381 0.10779
0.262654 0.0952773 0.12871
0.503777 0.103639 0.188251
0.682475 0.125063 0.270924
0.740902 0.147997 0.337438
0.743694 0.148226 0.35906
0.744167 0.147692 0.370886
0.745449 0.148623 0.377951
0.0912337 0.272251 0.183261
0.088426 0.267292 0.128176
0.19939 0.244129 0.0954147
0.477562 0.210788 0.114412
0.634104 0.125032 0.151019
0.704875 0.140032 0.235309
0.711467 0.141863 0.247807
0.719921 0.144472 0.263737
0.723552 0.1458 0.270665
0.065919 0.44184 0.178988
0.0657816 0.441352 0.11429
0.065919 0.43154 0.065919
0.427405 0.413123 0.0675059
0.652308 0.429297 0.108934
0.801541 0.357336 0.207828
0.780438 0.31075 0.198184
0.770291 0.286076 0.196002
0.772122 0.290562 0.196399
0.0659342 0.620279 0.22623
0.0659495 0.6206 0.174258
0.0831159 0.623606 0.107347
0.147829 0.591272 0.0660105
0.623377 0.586831 0.102037
0.802426 0.614816 0.204898
0.83621 0.615702 0.22649
0.836133 0.611017 0.225238
0.836423 0.615946 0.226764
0.123857 0.731777 0.320989
0.129412 0.72459 0.265019
0.14229 0.717052 0.208331
0.206424 0.721691 0.158343
0.514382 0.750454 0.140108
0.791028 0.762249 0.249485
0.885405 0.775738 0.312383
0.884001 0.772534 0.309926
0.885817 0.777066 0.313481
0.124361 0.738003 0.364111
0.124788 0.729564 0.303258
0.132784 0.721813 0.244938
0.176364 0.717708 0.171771
0.398947 0.748165 0.148623
0.749386 0.791409 0.256062
0.902022 0.822263 0.350637
0.90869 0.823758 0.354772
0.908675 0.823865 0.354849
0.126253 0.742336 0.393256
0.123705 0.733593 0.332723
0.132738 0.721538 0.244404
0.158129 0.71342 0.175418
0.358297 0.74403 0.148608
0.724727 0.785946 0.242084
0.887449 0.819165 0.340887
0.908766 0.823545 0.35462
0.90866 0.823926 0.354879
0.130922 0.747799 0.427588
0.123552 0.734936 0.342855
0.132723 0.721675 0.244785
0.177844 0.717693 0.170748
0.407355 0.747906 0.146426
0.741955 0.790188 0.252232
0.888441 0.819379 0.341543
0.908751 0.823575 0.35465
0.908629 0.823957 0.354894
0.0697185 0.107698 0.259205
0.159136 0.101625 0.291112
0.300587 0.100694 0.312322
0.513085 0.110521 0.389868
0.709178 0.13463 0.451499
0.752041 0.151843 0.481117
0.752148 0.152575 0.497124
0.751751 0.152804 0.506111
0.751675 0.153323 0.512245
0.0805066 0.128588 0.193347
0.0726024 0.107332 0.218097
0.240986 0.0990311 0.2645
0.483619 0.10985 0.316396
0.6822 0.127153 0.379889
0.747814 0.14905 0.421592
0.749096 0.149737 0.439689
0.749981 0.150301 0.450065
0.751003 0.15111 0.457557
0.0959487 0.246357 0.243336
0.0959793 0.231968 0.231098
0.19324 0.228534 0.233524
0.50161 0.177905 0.23241
0.660182 0.119142 0.262181
0.740337 0.148028 0.332952
0.743069 0.147951 0.355184
0.744045 0.147875 0.367102
0.745129 0.148394 0.374258
0.0660258 0.422034 0.270481
0.0659953 0.4168 0.226291
0.0659953 0.415137 0.127153
0.410895 0.399863 0.0827344
0.677653 0.381781 0.150362
0.782803 0.284962 0.21735
0.755474 0.230182 0.209628
0.743526 0.201816 0.212329
0.74519 0.199603 0.217762
0.0660868 0.597208 0.306828
0.0659648 0.597726 0.249592
0.06598 0.599298 0.167498
0.105669 0.58265 0.0658732
0.612314 0.575814 0.0961471
0.802609 0.603326 0.20206
0.834287 0.596826 0.221332
0.8327 0.587594 0.218784
0.833005 0.593103 0.220066
0.125948 0.74168 0.390433
0.12372 0.735851 0.348272
0.128679 0.725261 0.269795
0.161364 0.714458 0.174685
0.465263 0.745602 0.131426
0.782254 0.753338 0.240116
0.880064 0.763882 0.30367
0.877516 0.758556 0.299519
0.879149 0.762234 0.301915
0.132036 0.748882 0.434638
0.125826 0.741482 0.388098
0.124804 0.72961 0.303349
0.152758 0.712428 0.176959
0.329793 0.741772 0.1514
0.723461 0.785794 0.241245
0.895232 0.820935 0.346029
0.90869 0.823758 0.354772
0.908675 0.823865 0.354849
0.137407 0.753643 0.462562
0.128969 0.745678 0.41503
0.123674 0.733379 0.331594
0.150225 0.712886 0.182467
0.294728 0.737652 0.15404
0.692882 0.781003 0.224048
0.875242 0.81619 0.331487
0.908766 0.823499 0.354589
0.90866 0.823911 0.354864
0.144671 0.759197 0.493172
0.131609 0.748501 0.431495
0.123522 0.734783 0.342
0.149859 0.713008 0.183276
0.318105 0.740475 0.152331
0.704128 0.78265 0.230488
0.875654 0.816129 0.331258
0.908751 0.823575 0.35465
0.908629 0.823987 0.354925
0.0659648 0.123369 0.413443
0.158953 0.116564 0.449439
0.315358 0.106966 0.470512
0.495964 0.108171 0.495247
0.688487 0.132601 0.54049
0.739116 0.151751 0.562097
0.736049 0.152148 0.576089
0.734203 0.152605 0.584054
0.733562 0.153567 0.590784
0.0658122 0.151034 0.357397
0.0659037 0.121477 0.38584
0.227726 0.110826 0.449973
0.462287 0.106615 0.462364
0.669566 0.126574 0.503685
0.748577 0.152361 0.523735
0.745815 0.152117 0.536141
0.744335 0.152056 0.543679
0.743297 0.152605 0.551339
0.0774395 0.24094 0.353399
0.0725872 0.220157 0.366018
0.109239 0.187762 0.412024
0.431296 0.122286 0.427893
0.644144 0.121584 0.444282
0.751553 0.151202 0.473274
0.752148 0.152087 0.486992
0.751858 0.152224 0.494911
0.751888 0.152789 0.502342
0.0836194 0.414069 0.400839
0.0835737 0.404685 0.392279
0.0838941 0.390631 0.37792
0.404944 0.411749 0.405066
0.71339 0.358999 0.407416
0.837766 0.250889 0.41207
0.79762 0.201007 0.397986
0.771954 0.172274 0.389258
0.772152 0.172747 0.394705
0.0658885 0.579767 0.427054
0.0659037 0.575082 0.401236
0.0658732 0.568261 0.35108
0.0658579 0.574456 0.192645
0.584192 0.563302 0.20235
0.852583 0.587533 0.291081
0.893935 0.560281 0.310582
0.890623 0.548867 0.308507
0.895277 0.555825 0.318486
0.132097 0.744244 0.480339
0.128679 0.743221 0.455985
0.123827 0.739513 0.408942
0.128023 0.725429 0.272725
0.299214 0.731014 0.135882
0.765377 0.737285 0.223362
0.872038 0.741131 0.288731
0.869688 0.73344 0.284291
0.869123 0.735515 0.284688
0.15346 0.765255 0.52459
0.145968 0.760113 0.498146
0.134127 0.751049 0.447379
0.125322 0.728847 0.297551
0.246845 0.730907 0.15903
0.671092 0.777264 0.212451
0.880476 0.817807 0.336431
0.90898 0.823758 0.354879
0.908965 0.823865 0.354986
0.161135 0.770321 0.548669
0.152102 0.764477 0.519997
0.139162 0.755077 0.470161
0.123735 0.732509 0.325826
0.230747 0.726665 0.156954
0.633997 0.77174 0.196155
0.855909 0.810849 0.315618
0.909072 0.823407 0.354635
0.908995 0.823865 0.354986
0.170336 0.775479 0.576226
0.158053 0.768307 0.539315
0.142901 0.758053 0.487068
0.123644 0.734157 0.336996
0.235325 0.728069 0.157885
0.640101 0.772015 0.197284
0.851423 0.810361 0.313649
0.909041 0.823606 0.354788
0.908934 0.824002 0.355077
0.0660105 0.146853 0.542885
0.162188 0.138033 0.589517
0.320668 0.128008 0.62977
0.490913 0.118425 0.633234
0.654185 0.137865 0.644648
0.712474 0.160876 0.666606
0.706813 0.16321 0.683009
0.703899 0.16463 0.691142
0.701839 0.166339 0.698772
0.0658732 0.184802 0.523919
0.0658122 0.143893 0.52636
0.216464 0.133761 0.600061
0.45301 0.117815 0.622568
0.633799 0.130571 0.627375
0.72076 0.157382 0.639658
0.716762 0.159045 0.653178
0.714534 0.160067 0.660548
0.712413 0.161608 0.669322
0.0658885 0.22797 0.502174
0.0659342 0.198459 0.508339
0.0666514 0.143771 0.523796
0.388174 0.118425 0.607309
0.608972 0.123796 0.604929
0.729168 0.153994 0.606394
0.726513 0.155032 0.618006
0.724697 0.155749 0.624903
0.723217 0.157076 0.633509
0.0877699 0.426474 0.540948
0.0846876 0.411032 0.548012
0.0802777 0.385733 0.558068
0.30605 0.356176 0.634455
0.634134 0.263111 0.61619
0.755779 0.161563 0.555886
0.741878 0.151675 0.552148
0.741161 0.151553 0.553979
0.741283 0.152926 0.561364
0.098497 0.579568 0.563226
0.0970016 0.575143 0.559197
0.0949874 0.568109 0.551675
0.098558 0.553628 0.533165
0.580041 0.583398 0.571878
0.905974 0.562448 0.596216
0.937621 0.525154 0.597406
0.937667 0.509789 0.598459
0.937621 0.516426 0.607248
0.141939 0.723751 0.586252
0.138399 0.722286 0.576898
0.131258 0.718486 0.557641
0.113085 0.709438 0.502251
0.239368 0.737118 0.385733
0.723812 0.728573 0.413138
0.904448 0.753094 0.480446
0.90515 0.74519 0.485832
0.905531 0.748653 0.495933
0.187686 0.780774 0.629999
0.18349 0.779965 0.617807
0.17644 0.778058 0.595514
0.157321 0.767819 0.537087
0.126467 0.731243 0.309499
0.568811 0.771756 0.212482
0.87274 0.816815 0.333959
0.914046 0.829953 0.377737
0.91426 0.830671 0.380179
0.194659 0.782681 0.649607
0.189395 0.781521 0.63476
0.181094 0.7794 0.609918
0.161257 0.770352 0.549447
0.123766 0.732357 0.324819
0.498558 0.763043 0.187716
0.832639 0.806592 0.302022
0.911971 0.826444 0.364294
0.912749 0.827756 0.36733
0.204532 0.785595 0.675258
0.196017 0.783093 0.653361
0.18674 0.780804 0.626902
0.166415 0.773434 0.563821
0.123613 0.734401 0.338842
0.495232 0.764584 0.221973
0.825574 0.806271 0.30071
0.91046 0.826871 0.365255
0.912306 0.827146 0.365164
0.06598 0.198581 0.626276
0.159533 0.186297 0.681285
0.304982 0.179004 0.742412
0.468925 0.165362 0.766217
0.606241 0.157031 0.743389
0.681208 0.173938 0.741421
0.681208 0.173953 0.741436
0.681224 0.173892 0.741283
0.681163 0.174075 0.741756
0.0658427 0.216114 0.62092
0.0657969 0.193088 0.613626
0.199756 0.17821 0.694942
0.42649 0.164767 0.758724
0.581857 0.151965 0.73959
0.682795 0.173693 0.739467
0.681239 0.173861 0.741222
0.681208 0.173938 0.741375
0.681163 0.174136 0.741939
0.0657969 0.24448 0.617105
0.06598 0.218906 0.614054
0.0658579 0.184405 0.612375
0.355856 0.164767 0.740688
0.557519 0.148318 0.736049
0.688441 0.17116 0.727779
0.684291 0.172915 0.736339
0.682582 0.173556 0.73933
0.681712 0.174151 0.741543
0.0848554 0.408103 0.651469
0.0825513 0.388083 0.656992
0.0783246 0.35137 0.660853
0.201785 0.297047 0.735332
0.549126 0.209812 0.788067
0.695567 0.164279 0.699031
0.700435 0.166232 0.700465
0.698589 0.166918 0.704524
0.697047 0.168032 0.70956
0.130205 0.595926 0.674662
0.129809 0.590188 0.678752
0.129107 0.580056 0.685283
0.125505 0.550881 0.699031
0.525765 0.573877 0.802106
0.8206 0.483024 0.789166
0.888304 0.433707 0.782956
0.884337 0.416464 0.782193
0.885054 0.425299 0.791379
0.183917 0.719295 0.70753
0.182712 0.717693 0.706249
0.178058 0.712612 0.700511
0.168551 0.701915 0.688502
0.298436 0.705425 0.682673
0.737621 0.743465 0.730709
0.937591 0.729229 0.747921
0.93753 0.716548 0.747921
0.937667 0.719173 0.754864
0.235843 0.797726 0.741711
0.232059 0.796353 0.734264
0.225223 0.793637 0.720287
0.211078 0.787976 0.690135
0.186236 0.780468 0.625834
0.520745 0.806439 0.600122
0.851972 0.85597 0.660136
0.917098 0.858579 0.679042
0.917937 0.858991 0.688273
0.248737 0.802853 0.767117
0.24329 0.800946 0.756298
0.23386 0.797147 0.737652
0.215122 0.789578 0.698665
0.186145 0.781476 0.623499
0.42475 0.780621 0.530587
0.790585 0.844343 0.589914
0.914794 0.880934 0.696681
0.916152 0.88246 0.702754
0.262455 0.808942 0.79324
0.254246 0.805478 0.777478
0.243458 0.801007 0.756634
0.221225 0.792065 0.711711
0.188983 0.782452 0.63122
0.436408 0.783536 0.539605
0.77261 0.846296 0.605936
0.908888 0.879438 0.691188
0.914366 0.879194 0.687663
0.0785229 0.204578 0.643046
0.177691 0.201175 0.704997
0.314199 0.195575 0.764111
0.473686 0.177798 0.784955
0.614038 0.162203 0.752514
0.681193 0.174014 0.741604
0.681193 0.174014 0.741604
0.681224 0.173907 0.741329
0.681178 0.174044 0.741695
0.0658122 0.222431 0.635172
0.0659342 0.204822 0.633112
0.204334 0.200702 0.719066
0.425788 0.183749 0.784634
0.583169 0.161959 0.760067
0.681193 0.173999 0.741604
0.681193 0.173999 0.741588
0.681178 0.174014 0.741619
0.681163 0.174105 0.741878
0.0745556 0.270726 0.663539
0.0660563 0.23566 0.643412
0.0747082 0.205356 0.639765
0.349874 0.192065 0.773404
0.549462 0.16611 0.77084
0.681224 0.173938 0.741421
0.681239 0.173877 0.741268
0.681224 0.173907 0.741344
0.681163 0.174075 0.741772
0.0991226 0.394095 0.706355
0.0971389 0.371893 0.705394
0.089128 0.331197 0.692973
0.149325 0.254276 0.713252
0.480751 0.189258 0.796185
0.669261 0.171862 0.744427
0.68127 0.173861 0.741161
0.68127 0.173877 0.741192
0.681224 0.174044 0.74165
0.155398 0.5888 0.747539
0.154788 0.58146 0.750805
0.153948 0.569848 0.754803
0.148257 0.537423 0.759152
0.467826 0.555505 0.919875
0.772213 0.451698 0.92781
0.850919 0.391012 0.894484
0.843702 0.373495 0.887999
0.84712 0.3832 0.892805
0.22121 0.734859 0.775921
0.221515 0.733761 0.777615
0.22031 0.729992 0.778759
0.217395 0.71899 0.781888
0.260075 0.720485 0.819608
0.707561 0.745769 0.906172
0.902678 0.680095 0.888258
0.906218 0.666712 0.886992
0.906142 0.670756 0.890547
0.27837 0.818204 0.818402
0.277043 0.817014 0.8168
0.274357 0.815061 0.813138
0.267109 0.808652 0.803601
0.250935 0.791897 0.784772
0.599756 0.83711 0.821942
0.863142 0.867475 0.860258
0.920531 0.859861 0.862852
0.920226 0.858213 0.865705
0.28748 0.824704 0.832227
0.285588 0.823194 0.829343
0.281468 0.820493 0.823301
0.272511 0.814588 0.809201
0.250797 0.80441 0.770718
0.402075 0.82475 0.736858
0.810636 0.899397 0.842847
0.922805 0.916732 0.875975
0.924865 0.916426 0.873213
0.292775 0.828916 0.83946
0.290684 0.827253 0.836683
0.286229 0.823682 0.830121
0.276127 0.816831 0.815015
0.252094 0.80502 0.7729
0.415717 0.824643 0.738109
0.796399 0.895705 0.833814
0.91014 0.912108 0.849775
0.924392 0.919081 0.889952
0.0941176 0.203891 0.653727
0.193133 0.200809 0.713237
0.323583 0.194842 0.766888
0.479683 0.176928 0.784482
0.62327 0.164736 0.752911
0.681193 0.174014 0.741604
0.681193 0.174014 0.741604
0.681208 0.173983 0.741543
0.681178 0.174029 0.741665
0.0660258 0.218173 0.632456
0.0751049 0.204395 0.64065
0.215396 0.20061 0.72462
0.431205 0.1832 0.785092
0.587961 0.161303 0.758282
0.681193 0.173999 0.741588
0.681208 0.173999 0.741588
0.681178 0.174014 0.741619
0.681163 0.174075 0.741787
0.0737011 0.267384 0.661646
0.0657969 0.230533 0.640146
0.0840314 0.20444 0.646708
0.356039 0.191409 0.774746
0.552605 0.165713 0.770016
0.681208 0.173983 0.741543
0.681224 0.173938 0.74139
0.681224 0.173938 0.741421
0.681163 0.174075 0.741772
0.10222 0.381567 0.714076
0.0947127 0.351644 0.702541
0.0827344 0.303853 0.680888
0.132052 0.219562 0.686809
0.475746 0.18027 0.787228
0.668956 0.171847 0.744549
0.68127 0.173892 0.741268
0.681254 0.173907 0.741299
0.681224 0.174044 0.741665
0.1691 0.587274 0.775555
0.165698 0.578195 0.773495
0.159625 0.563409 0.76907
0.143984 0.522377 0.757168
0.451453 0.529213 0.914626
0.757458 0.42443 0.925231
0.836454 0.358465 0.881483
0.828168 0.343084 0.872786
0.833951 0.354498 0.879591
0.240558 0.741756 0.811154
0.240452 0.739528 0.812863
0.238056 0.733577 0.812802
0.22974 0.716426 0.809918
0.24976 0.703929 0.829694
0.69482 0.742962 0.937591
0.891127 0.663081 0.922118
0.899641 0.648432 0.92018
0.899489 0.652628 0.92076
0.291951 0.827161 0.839582
0.292027 0.827283 0.839734
0.291203 0.825925 0.8392
0.286091 0.818173 0.835981
0.276493 0.803067 0.830396
0.588968 0.868467 0.913817
0.845029 0.862242 0.920607
0.912535 0.841932 0.914015
0.912245 0.84036 0.914656
0.293599 0.829526 0.840528
0.294057 0.829831 0.841306
0.294072 0.829831 0.841321
0.294026 0.829816 0.84126
0.28777 0.825132 0.832532
0.34786 0.852201 0.850996
0.825238 0.912123 0.907713
0.918914 0.919585 0.917861
0.922072 0.917861 0.917266
0.293858 0.829694 0.84094
0.294057 0.829831 0.841306
0.294072 0.829831 0.841321
0.294072 0.829831 0.841321
0.28687 0.824369 0.830945
0.360815 0.852079 0.847532
0.806134 0.911879 0.901244
0.916503 0.921675 0.920012
0.922194 0.921614 0.920851
0.0985122 0.203738 0.656825
0.200351 0.200916 0.717037
0.328771 0.194476 0.768383
0.483284 0.176379 0.784146
0.628351 0.165347 0.75198
0.681193 0.174014 0.741604
0.681193 0.174014 0.741604
0.681193 0.173999 0.741604
0.681178 0.174044 0.741711
0.0658579 0.216556 0.631281
0.0815137 0.204364 0.645533
0.222034 0.200259 0.727779
0.435355 0.182864 0.785473
0.592111 0.161212 0.757137
0.681193 0.173999 0.741588
0.681193 0.173999 0.741573
0.681178 0.174014 0.741619
0.681163 0.174105 0.741863
0.0732891 0.266468 0.660929
0.06598 0.228489 0.639109
0.0888075 0.204105 0.650111
0.360876 0.190936 0.77586
0.555505 0.165347 0.769116
0.681193 0.173999 0.741543
0.681208 0.173938 0.741375
0.681224 0.173922 0.741405
0.681163 0.174075 0.741756
0.10016 0.373266 0.711025
0.0927291 0.343999 0.699428
0.079942 0.293141 0.675395
0.128069 0.208347 0.67892
0.476738 0.177691 0.785031
0.669459 0.171939 0.744442
0.68127 0.173892 0.741268
0.68127 0.173907 0.741283
0.681224 0.174044 0.741665
0.168246 0.584619 0.775296
0.164309 0.575357 0.772656
0.158206 0.560235 0.767956
0.142565 0.517906 0.756176
0.450248 0.522927 0.914
0.75462 0.416632 0.923812
0.832517 0.351278 0.87776
0.824186 0.336492 0.869154
0.831037 0.349096 0.876875
0.242603 0.742138 0.814939
0.241169 0.739208 0.81474
0.237751 0.732433 0.813199
0.228595 0.713924 0.809537
0.250446 0.700999 0.830655
0.694148 0.738964 0.937804
0.888716 0.657496 0.92221
0.898619 0.642817 0.920073
0.899474 0.647791 0.920714
0.292241 0.827482 0.839918
0.292683 0.828046 0.840375
0.291066 0.825589 0.839323
0.285466 0.816938 0.835996
0.274861 0.800015 0.830106
0.591608 0.865675 0.916564
0.841901 0.857359 0.923827
0.912093 0.834836 0.9149
0.911894 0.833829 0.914977
0.293156 0.829206 0.839796
0.293568 0.829496 0.840467
0.293599 0.829511 0.840513
0.293599 0.829511 0.840513
0.294011 0.829877 0.840879
0.337835 0.851698 0.860121
0.817182 0.914244 0.918212
0.915587 0.91696 0.920623
0.92108 0.915572 0.920119
0.293828 0.829679 0.840894
0.294057 0.829831 0.841306
0.294072 0.829831 0.841321
0.294072 0.829831 0.841321
0.294362 0.830182 0.841566
0.322225 0.844419 0.852644
0.794766 0.917235 0.918044
0.917967 0.921965 0.921782
0.922225 0.921553 0.920928
