bundles/resolve-cinematic-luts/Phantom Luts/Canon Alexa LUT/ATOMOS Monitoring LUTs/C-Log 3/Tungsten Canon CL3-Legacy AML.cube
TITLE "Generated by Resolve"
LUT_3D_SIZE 33
0.0921187 0.0913252 0.0960098
0.0921187 0.0913252 0.0960098
0.0921187 0.0913252 0.0960098
0.0986038 0.0915084 0.0970932
0.145632 0.0921798 0.104387
0.191302 0.0925917 0.111406
0.235492 0.0933394 0.118532
0.282124 0.0938735 0.127581
0.336004 0.0945144 0.138521
0.388937 0.0956893 0.152621
0.442374 0.0988327 0.169467
0.495232 0.102617 0.185351
0.544961 0.105348 0.202579
0.588937 0.108629 0.220829
0.629938 0.113298 0.240299
0.669001 0.120897 0.263264
0.705165 0.132738 0.289708
0.733104 0.145281 0.316075
0.738827 0.147494 0.328206
0.740063 0.147524 0.336126
0.740948 0.147448 0.343038
0.741802 0.147524 0.349447
0.742489 0.147601 0.35494
0.742245 0.146853 0.359365
0.742718 0.146944 0.36379
0.74287 0.146822 0.367483
0.743755 0.147478 0.371191
0.744015 0.147555 0.373816
0.744259 0.147601 0.376471
0.744595 0.147753 0.378759
0.744915 0.147951 0.380728
0.745205 0.14815 0.382712
0.745403 0.148318 0.383871
0.0921187 0.0913252 0.0960098
0.0921187 0.0913252 0.0960098
0.0921187 0.0913252 0.0960098
0.0924239 0.0914015 0.096025
0.117479 0.092195 0.0981918
0.163958 0.0921645 0.102983
0.208499 0.0923476 0.106859
0.255711 0.0925154 0.111299
0.308141 0.0928969 0.117159
0.364263 0.0937667 0.126513
0.420005 0.0980697 0.138628
0.473243 0.10042 0.151369
0.523705 0.103243 0.172808
0.572168 0.106538 0.190173
0.61445 0.110979 0.208057
0.653788 0.117906 0.229999
0.69218 0.129519 0.257038
0.722683 0.142596 0.285527
0.733059 0.146944 0.300969
0.73489 0.147051 0.308614
0.736416 0.147127 0.315755
0.737697 0.147311 0.32282
0.738872 0.147448 0.329
0.739849 0.147524 0.334676
0.740459 0.147433 0.339406
0.740978 0.147433 0.343435
0.741482 0.147478 0.347051
0.741863 0.147524 0.350088
0.742229 0.147585 0.352499
0.742657 0.147753 0.354772
0.743099 0.147906 0.356985
0.743679 0.148211 0.35903
0.744213 0.148486 0.361044
0.0921492 0.0950332 0.0986038
0.0921187 0.0949416 0.0987106
0.0919814 0.0927291 0.0977035
0.0920729 0.0917525 0.096849
0.0961166 0.0929427 0.0966812
0.137362 0.0955978 0.0990158
0.179568 0.0956436 0.101991
0.227375 0.0957351 0.10544
0.280018 0.0953689 0.10808
0.33846 0.0946975 0.112032
0.396002 0.0963912 0.119097
0.451133 0.0975509 0.128985
0.50428 0.101427 0.146487
0.552758 0.104555 0.162692
0.594995 0.108675 0.180926
0.634897 0.114565 0.201175
0.674311 0.124788 0.226551
0.707424 0.138064 0.254368
0.722789 0.144594 0.272862
0.725856 0.145403 0.280766
0.728939 0.146075 0.288777
0.731426 0.146578 0.296651
0.733791 0.147036 0.303731
0.735042 0.147051 0.309255
0.736019 0.147082 0.314153
0.736965 0.147189 0.318441
0.737591 0.147295 0.322072
0.738262 0.147417 0.325399
0.738857 0.147524 0.328298
0.739437 0.147677 0.33077
0.739971 0.147784 0.333257
0.740566 0.147936 0.335821
0.741299 0.148226 0.33817
0.0943465 0.117021 0.104738
0.094255 0.117128 0.104906
0.0935988 0.109407 0.100908
0.0943008 0.102464 0.0992905
0.0971542 0.0978561 0.0981155
0.113893 0.102419 0.0992905
0.15584 0.104829 0.101457
0.19942 0.104417 0.102327
0.251545 0.101762 0.104524
0.313802 0.100511 0.107912
0.376074 0.0991531 0.113634
0.435904 0.0979477 0.119722
0.49015 0.0999313 0.129244
0.538033 0.103395 0.143374
0.579812 0.106752 0.160479
0.619867 0.112016 0.182696
0.65774 0.120439 0.204929
0.692805 0.133242 0.231144
0.711437 0.141482 0.249287
0.714763 0.142443 0.255711
0.718532 0.143511 0.263691
0.721996 0.144457 0.271046
0.724422 0.144991 0.277577
0.72694 0.145647 0.283604
0.729198 0.146166 0.289174
0.730983 0.146593 0.294682
0.732601 0.146929 0.299123
0.733715 0.147173 0.302541
0.734478 0.147265 0.305501
0.735119 0.147326 0.308232
0.735729 0.147433 0.310414
0.736538 0.147707 0.312871
0.737316 0.147997 0.315511
0.0978256 0.159823 0.111543
0.0977493 0.160006 0.111727
0.0975357 0.152865 0.105898
0.097734 0.141527 0.102739
0.103853 0.130129 0.102617
0.125002 0.123827 0.101579
0.150652 0.130037 0.103105
0.188067 0.130144 0.103532
0.236606 0.1243 0.10486
0.292775 0.120012 0.106767
0.354528 0.1131 0.109834
0.418158 0.10602 0.11426
0.476661 0.101747 0.122621
0.527092 0.102602 0.132372
0.570825 0.106096 0.146838
0.610666 0.110918 0.169665
0.645853 0.117952 0.190539
0.680842 0.129335 0.215854
0.704295 0.139681 0.235706
0.707469 0.14052 0.240787
0.709941 0.141222 0.245731
0.712474 0.141939 0.250706
0.714717 0.14255 0.254978
0.717205 0.143297 0.260197
0.719936 0.14406 0.265721
0.72221 0.144747 0.270314
0.723705 0.145068 0.274052
0.725124 0.145434 0.277867
0.726314 0.145754 0.280552
0.727443 0.146014 0.283467
0.728496 0.146334 0.285939
0.729702 0.146578 0.288716
0.730892 0.147143 0.2916
0.0977951 0.193759 0.11429
0.0976425 0.194003 0.114611
0.0977646 0.187991 0.106889
0.0977646 0.179263 0.104295
0.10454 0.169223 0.103212
0.126467 0.162432 0.102785
0.165026 0.160143 0.103838
0.192142 0.162554 0.105257
0.236179 0.163149 0.10457
0.288243 0.158419 0.106035
0.348165 0.147585 0.109071
0.406043 0.13434 0.112718
0.464134 0.120592 0.118105
0.516762 0.109514 0.125765
0.562081 0.10605 0.136446
0.601648 0.10959 0.155489
0.638224 0.116396 0.180255
0.671412 0.126345 0.20351
0.697765 0.137102 0.227237
0.70309 0.139605 0.232441
0.70341 0.139681 0.233158
0.705119 0.139925 0.236271
0.707301 0.140627 0.239734
0.708934 0.141009 0.242985
0.710246 0.141436 0.245762
0.711681 0.141802 0.248569
0.713008 0.142214 0.251133
0.714565 0.142702 0.253712
0.716091 0.14316 0.256596
0.717144 0.143465 0.259083
0.71841 0.143877 0.261524
0.720104 0.144503 0.264576
0.721645 0.145129 0.267247
0.0948806 0.228534 0.114137
0.094667 0.229084 0.114473
0.0957504 0.223896 0.105348
0.0962234 0.216297 0.1028
0.100069 0.206378 0.103334
0.11632 0.199008 0.102464
0.160128 0.191882 0.101961
0.200107 0.188937 0.103914
0.235782 0.191348 0.104402
0.284703 0.190951 0.102403
0.351354 0.183795 0.107164
0.408652 0.177218 0.110521
0.463661 0.168139 0.114382
0.513664 0.148959 0.120073
0.557839 0.124834 0.127352
0.593774 0.111421 0.141299
0.629084 0.114336 0.165393
0.663417 0.124529 0.191791
0.690654 0.13492 0.216297
0.70222 0.139681 0.228672
0.70251 0.139681 0.229923
0.702693 0.139651 0.230915
0.702785 0.13962 0.231403
0.702922 0.139605 0.231846
0.703044 0.139605 0.232273
0.703822 0.139834 0.233555
0.704601 0.139925 0.234974
0.70544 0.140078 0.236484
0.7066 0.140459 0.238331
0.707698 0.140856 0.239902
0.708583 0.1411 0.241703
0.709346 0.141405 0.243229
0.710185 0.141741 0.244755
0.0887465 0.265797 0.110536
0.0884871 0.266163 0.110964
0.08925 0.262577 0.101122
0.090547 0.256748 0.0978103
0.0941787 0.246555 0.0991836
0.104356 0.238193 0.100237
0.133852 0.23151 0.100633
0.191485 0.224887 0.0984512
0.240742 0.221271 0.103716
0.283314 0.224262 0.104265
0.341421 0.225467 0.0996262
0.412009 0.218112 0.106371
0.47219 0.208469 0.113603
0.519707 0.198825 0.117113
0.565026 0.184665 0.122835
0.604379 0.163012 0.131044
0.630182 0.130922 0.143145
0.655024 0.123735 0.172473
0.683452 0.133074 0.203311
0.70045 0.140017 0.221408
0.70106 0.140017 0.223331
0.70135 0.139864 0.224811
0.701518 0.139773 0.225757
0.701579 0.139696 0.226413
0.701686 0.139635 0.227115
0.701946 0.139651 0.227863
0.702235 0.139681 0.228733
0.702449 0.139727 0.22948
0.702602 0.139742 0.23003
0.702724 0.139773 0.230472
0.702907 0.139834 0.230915
0.703334 0.139956 0.231586
0.703716 0.140078 0.232319
0.0776226 0.306828 0.105623
0.0773327 0.307424 0.106325
0.0773632 0.305119 0.0940871
0.0785687 0.300649 0.087541
0.0810864 0.290562 0.0901503
0.0903182 0.280674 0.0924086
0.107225 0.27422 0.0932631
0.159594 0.267979 0.0928054
0.229114 0.260502 0.0924544
0.286839 0.257328 0.0997177
0.339773 0.262409 0.101015
0.398642 0.26627 0.0946822
0.466285 0.257465 0.103914
0.52874 0.244663 0.115358
0.575586 0.234562 0.121401
0.614542 0.222019 0.126772
0.649149 0.19968 0.13753
0.672496 0.170886 0.154025
0.685145 0.145525 0.180606
0.69865 0.142885 0.203998
0.701762 0.142779 0.213092
0.70103 0.141817 0.215228
0.700969 0.141314 0.217182
0.700633 0.140978 0.217624
0.700328 0.140658 0.218128
0.700145 0.140383 0.218723
0.70016 0.1402 0.219562
0.700374 0.140139 0.220554
0.700572 0.140093 0.221408
0.700786 0.140124 0.222019
0.701015 0.140169 0.222583
0.701366 0.140291 0.223316
0.701717 0.140429 0.223941
0.0659037 0.346563 0.100053
0.0659037 0.347219 0.101411
0.0658732 0.34609 0.0855726
0.0660563 0.344549 0.0717632
0.0659953 0.337789 0.0758221
0.0733806 0.327245 0.0788434
0.0846113 0.319509 0.0810864
0.120256 0.314 0.0817731
0.188769 0.308171 0.0807202
0.273716 0.29984 0.0840162
0.341985 0.297185 0.0950942
0.39823 0.304219 0.0976577
0.45388 0.312551 0.0936294
0.515343 0.304067 0.0990768
0.576837 0.2907 0.114443
0.629404 0.274052 0.12929
0.663279 0.261891 0.135103
0.692958 0.242023 0.148379
0.71397 0.214633 0.16965
0.715892 0.182391 0.185306
0.710948 0.162097 0.19321
0.705867 0.152605 0.197024
0.703731 0.148302 0.200793
0.70251 0.14583 0.203922
0.701961 0.14403 0.207431
0.702281 0.143587 0.210803
0.702205 0.143252 0.212436
0.702068 0.142977 0.213153
0.701976 0.142809 0.213611
0.701961 0.142748 0.213931
0.701976 0.142718 0.214206
0.702113 0.142763 0.214542
0.702281 0.14287 0.214908
0.0657969 0.385336 0.096376
0.065919 0.386221 0.0978408
0.0657816 0.385702 0.0768749
0.065919 0.385061 0.065919
0.065919 0.380667 0.065919
0.065919 0.371603 0.065919
0.065919 0.362539 0.0670634
0.0808728 0.356191 0.0686351
0.139498 0.353506 0.0677653
0.223148 0.347906 0.066392
0.329351 0.341878 0.0760967
0.39942 0.341878 0.089128
0.455421 0.350011 0.0946975
0.505455 0.360342 0.0932937
0.560525 0.358373 0.0950637
0.61828 0.344335 0.112856
0.673152 0.324575 0.1337
0.712963 0.305577 0.151583
0.737591 0.290196 0.166934
0.751644 0.266438 0.184619
0.751431 0.244144 0.192447
0.743252 0.226505 0.191577
0.736446 0.211734 0.191287
0.730739 0.199771 0.191745
0.724666 0.187411 0.192645
0.719951 0.175998 0.195727
0.715999 0.168963 0.195712
0.712184 0.163241 0.195148
0.709072 0.158755 0.194324
0.707332 0.1561 0.19382
0.706508 0.154589 0.19408
0.705669 0.153277 0.194095
0.705394 0.152529 0.19411
0.0658579 0.424155 0.0978714
0.0658732 0.424903 0.100649
0.0659342 0.424567 0.0733654
0.0659648 0.42501 0.0659648
0.06598 0.422599 0.06598
0.0658274 0.415885 0.0658274
0.0657664 0.407034 0.0657664
0.0657969 0.398611 0.0657969
0.089662 0.393683 0.0660258
0.169512 0.393683 0.0661479
0.269078 0.385031 0.0658274
0.387121 0.383917 0.0700084
0.455055 0.385504 0.0847944
0.506462 0.393927 0.092958
0.555291 0.404547 0.0961929
0.605386 0.408789 0.0981003
0.657359 0.39704 0.115389
0.713832 0.379385 0.142351
0.759258 0.361151 0.172168
0.781903 0.341817 0.193103
0.785962 0.325093 0.199557
0.780697 0.311727 0.198169
0.775555 0.299626 0.196689
0.770916 0.288304 0.195834
0.766003 0.277455 0.194766
0.762097 0.267887 0.194171
0.759167 0.260471 0.194232
0.756573 0.253925 0.194095
0.753948 0.24892 0.193393
0.752392 0.245518 0.193286
0.751568 0.244297 0.19263
0.751949 0.245609 0.192569
0.753002 0.249332 0.19205
0.065919 0.463874 0.100847
0.0659342 0.464576 0.104555
0.0658885 0.465492 0.0776379
0.0658274 0.466789 0.0658274
0.0658274 0.466514 0.0658274
0.0658885 0.462119 0.0658885
0.0659495 0.453269 0.0659495
0.0660105 0.442725 0.0660105
0.0660563 0.434546 0.06598
0.106905 0.43061 0.0660716
0.21297 0.432547 0.0658885
0.330999 0.422248 0.0660868
0.443641 0.425956 0.0666972
0.505989 0.428412 0.0827802
0.553216 0.436255 0.0928511
0.604105 0.447517 0.102342
0.648585 0.455573 0.109209
0.697246 0.449332 0.125444
0.752438 0.434592 0.157534
0.797436 0.416892 0.194232
0.818616 0.399847 0.216556
0.818875 0.38732 0.219043
0.814282 0.377997 0.216373
0.809506 0.369543 0.213214
0.805005 0.361975 0.210208
0.801022 0.355077 0.207462
0.797818 0.349111 0.205615
0.795316 0.344259 0.204181
0.793637 0.340887 0.203204
0.79234 0.338231 0.202564
0.791928 0.337636 0.202228
0.792279 0.339117 0.202182
0.79353 0.342382 0.202655
0.0660105 0.506081 0.108217
0.0660258 0.506783 0.111803
0.06598 0.507454 0.0913405
0.0659342 0.509071 0.076524
0.0658885 0.508965 0.0658885
0.0658885 0.506447 0.0658885
0.0659495 0.500587 0.0659495
0.0658579 0.491005 0.0658579
0.065919 0.480934 0.065919
0.0814679 0.473503 0.0659495
0.149294 0.469413 0.0658122
0.266606 0.472313 0.0660716
0.39408 0.460029 0.06598
0.493935 0.467918 0.0664225
0.55436 0.471275 0.0848707
0.598978 0.479301 0.0982528
0.649424 0.489982 0.112963
0.691142 0.498833 0.124086
0.73724 0.500664 0.145205
0.783459 0.489754 0.175692
0.820447 0.476341 0.206271
0.83331 0.46482 0.21912
0.833066 0.45594 0.220157
0.83238 0.447562 0.220844
0.831647 0.440436 0.221302
0.830945 0.434806 0.221668
0.83006 0.429847 0.221729
0.829572 0.426154 0.221958
0.829221 0.423148 0.222126
0.829328 0.421485 0.222675
0.829847 0.42153 0.223423
0.831281 0.423743 0.22446
0.831357 0.427649 0.223911
0.0658274 0.547631 0.119692
0.0658579 0.548196 0.123964
0.0658579 0.549249 0.108049
0.0658274 0.550881 0.0941634
0.0659953 0.550713 0.0697337
0.0659495 0.549249 0.0659495
0.0657969 0.544762 0.0657969
0.0658579 0.537026 0.0658579
0.065919 0.527382 0.065919
0.0794537 0.518761 0.0659953
0.104036 0.513649 0.0659342
0.207889 0.512398 0.0659342
0.330571 0.514046 0.0659495
0.453956 0.50016 0.06598
0.542687 0.511391 0.0727398
0.601358 0.514839 0.0936904
0.641382 0.521157 0.109102
0.690669 0.531624 0.129427
0.732113 0.541894 0.148318
0.772122 0.548409 0.171298
0.810468 0.54377 0.197421
0.830167 0.534478 0.212543
0.832029 0.527199 0.213886
0.832105 0.521004 0.214008
0.832502 0.515984 0.214466
0.832242 0.511528 0.214343
0.832547 0.507851 0.214771
0.832532 0.505135 0.214893
0.832593 0.503395 0.215061
0.832517 0.502876 0.214984
0.832502 0.503944 0.214923
0.832639 0.506355 0.215
0.832395 0.510185 0.214725
0.0659953 0.590661 0.139895
0.0659953 0.59176 0.14583
0.0659648 0.592309 0.128954
0.0659495 0.594049 0.119234
0.0659037 0.594171 0.0987716
0.066392 0.592966 0.0814221
0.0662547 0.59057 0.0776379
0.0658427 0.582971 0.0720226
0.0657664 0.573068 0.0657664
0.0865492 0.564431 0.0660563
0.101015 0.556756 0.0659953
0.142306 0.555108 0.0660105
0.278447 0.55903 0.0659342
0.393606 0.556374 0.06598
0.508339 0.541009 0.06598
0.588647 0.553597 0.0858473
0.644968 0.557061 0.109545
0.682811 0.562585 0.127474
0.729229 0.573007 0.152346
0.770153 0.58381 0.177752
0.802823 0.592569 0.19942
0.827207 0.593927 0.2159
0.834104 0.590707 0.220081
0.833417 0.586572 0.218906
0.833051 0.582773 0.218158
0.832654 0.579309 0.217487
0.832212 0.576425 0.216953
0.832425 0.574945 0.216999
0.832319 0.573892 0.216815
0.83212 0.57377 0.216709
0.83209 0.574441 0.2168
0.831785 0.576074 0.216815
0.831968 0.579248 0.21735
0.0710307 0.637919 0.169848
0.0695964 0.638819 0.176822
0.0752728 0.638819 0.159915
0.0789654 0.641062 0.156146
0.0879683 0.641184 0.135927
0.0958419 0.640589 0.119722
0.097673 0.638621 0.112062
0.0946822 0.633173 0.106569
0.0891432 0.623484 0.0979324
0.101701 0.613764 0.0802625
0.118135 0.605035 0.0664683
0.131472 0.59913 0.0660258
0.210864 0.599329 0.0659342
0.349111 0.608698 0.0658732
0.452583 0.599542 0.06598
0.55874 0.582544 0.0799725
0.632197 0.596536 0.10724
0.687449 0.600412 0.13431
0.724453 0.605829 0.155093
0.764874 0.614542 0.181384
0.802594 0.624552 0.20763
0.829587 0.63238 0.226734
0.839582 0.633738 0.233448
0.838682 0.631281 0.232074
0.838468 0.629358 0.231449
0.838026 0.627649 0.230869
0.837812 0.62623 0.230411
0.837797 0.625513 0.230228
0.837995 0.62533 0.230304
0.838087 0.625345 0.230365
0.838346 0.626017 0.230716
0.838758 0.627497 0.231205
0.839292 0.629709 0.23209
0.103548 0.682597 0.206012
0.101762 0.683787 0.214313
0.107439 0.683879 0.199451
0.111177 0.686336 0.196857
0.12047 0.686702 0.177371
0.127337 0.686366 0.163546
0.132418 0.683742 0.149355
0.131594 0.68191 0.147005
0.124895 0.673335 0.139452
0.126848 0.662745 0.124117
0.146014 0.654002 0.101839
0.152941 0.646922 0.0921187
0.182727 0.645655 0.07953
0.295827 0.650492 0.0660563
0.418128 0.65951 0.0659037
0.508995 0.643793 0.0751965
0.606287 0.626734 0.107424
0.674128 0.64065 0.137026
0.727871 0.645136 0.16672
0.765545 0.650553 0.190677
0.796872 0.656596 0.212284
0.830457 0.665461 0.236789
0.849683 0.670039 0.250614
0.852552 0.669535 0.252308
0.851881 0.667704 0.251438
0.851392 0.666453 0.250721
0.851011 0.665629 0.250217
0.850706 0.665003 0.249821
0.850706 0.664805 0.24979
0.85069 0.664958 0.249805
0.850996 0.665782 0.250263
0.851484 0.667308 0.251041
0.852308 0.669841 0.252262
0.132662 0.7196 0.239017
0.130968 0.720897 0.247639
0.134432 0.71931 0.233082
0.135973 0.719387 0.229511
0.141894 0.717128 0.209491
0.147677 0.714443 0.190494
0.153567 0.712306 0.175296
0.154192 0.712093 0.173861
0.154223 0.711116 0.171618
0.154101 0.704723 0.163272
0.173816 0.698253 0.142702
0.187243 0.691951 0.127916
0.197604 0.687617 0.11931
0.253758 0.690501 0.10193
0.385153 0.699718 0.0906539
0.486305 0.703609 0.101747
0.566506 0.684398 0.113329
0.652079 0.673121 0.143816
0.715434 0.688273 0.175494
0.769528 0.693828 0.207034
0.804623 0.698711 0.23003
0.8309 0.703563 0.248508
0.852995 0.708476 0.264652
0.861189 0.709438 0.270329
0.860838 0.708064 0.269581
0.8607 0.707042 0.269184
0.860639 0.706096 0.268849
0.860456 0.705394 0.268498
0.860517 0.705104 0.268467
0.860624 0.705257 0.268589
0.860914 0.706127 0.269062
0.861006 0.707652 0.269596
0.861494 0.709743 0.27071
0.132143 0.721981 0.247517
0.130983 0.722957 0.253864
0.133165 0.721538 0.242817
0.134371 0.721111 0.238422
0.140063 0.718166 0.216281
0.146349 0.715084 0.194888
0.151125 0.712963 0.181003
0.152941 0.712489 0.176761
0.153628 0.712306 0.175158
0.156451 0.71284 0.17438
0.183001 0.717449 0.164309
0.209613 0.719966 0.152804
0.220569 0.719539 0.149264
0.248615 0.721111 0.1402
0.344488 0.727062 0.119951
0.472175 0.739147 0.126268
0.549004 0.734783 0.136828
0.619928 0.718349 0.153964
0.698695 0.715587 0.184955
0.759594 0.732052 0.217884
0.807568 0.738109 0.246464
0.839612 0.742687 0.267918
0.861631 0.746685 0.283894
0.871977 0.748409 0.291737
0.872236 0.747372 0.291493
0.871794 0.746273 0.290761
0.871611 0.74551 0.290333
0.87129 0.744961 0.289815
0.871214 0.744732 0.289647
0.871794 0.745357 0.290333
0.872328 0.746212 0.291005
0.872984 0.747707 0.291981
0.874388 0.75024 0.293919
0.131914 0.722164 0.248753
0.129931 0.723842 0.260609
0.13283 0.721691 0.24445
0.134569 0.721035 0.237736
0.139971 0.718196 0.216663
0.146517 0.714961 0.194141
0.150378 0.713237 0.182788
0.153323 0.712383 0.17586
0.153353 0.712367 0.175799
0.152682 0.712673 0.177966
0.175555 0.717418 0.171176
0.208652 0.722393 0.158892
0.229435 0.726223 0.155795
0.247379 0.729671 0.154299
0.308248 0.735256 0.139956
0.442496 0.744564 0.130343
0.544793 0.753964 0.148562
0.603891 0.754955 0.168856
0.676768 0.747021 0.195209
0.747112 0.75436 0.228428
0.798962 0.770504 0.258289
0.840894 0.777447 0.28484
0.86949 0.781918 0.304829
0.886809 0.78555 0.317968
0.889296 0.785092 0.319448
0.889174 0.78436 0.319005
0.889067 0.78378 0.318639
0.88893 0.783291 0.318288
0.888975 0.783246 0.318288
0.889082 0.783413 0.318425
0.889357 0.78407 0.318944
0.889677 0.785183 0.319707
0.8907 0.78706 0.321431
0.131411 0.722194 0.250431
0.128679 0.724559 0.267399
0.132525 0.721721 0.245548
0.133211 0.721477 0.242527
0.137331 0.71957 0.226719
0.143893 0.71606 0.202243
0.148608 0.713878 0.187594
0.153277 0.712291 0.175738
0.153994 0.712093 0.174334
0.153903 0.712108 0.174502
0.161883 0.714809 0.17554
0.202884 0.722576 0.164096
0.233204 0.72755 0.157214
0.249119 0.731273 0.158541
0.292302 0.73669 0.151369
0.399832 0.744793 0.138506
0.531868 0.756634 0.154513
0.59791 0.765011 0.176684
0.659434 0.771786 0.20267
0.734417 0.775143 0.237888
0.791867 0.787717 0.268986
0.8336 0.799786 0.294545
0.868513 0.807584 0.318837
0.895689 0.811917 0.335378
0.902876 0.813779 0.33991
0.90248 0.813245 0.339269
0.90219 0.812848 0.338735
0.902174 0.812818 0.338521
0.902266 0.812894 0.338354
0.902571 0.813275 0.33843
0.902968 0.814054 0.338628
0.9037 0.815198 0.339193
0.904646 0.817014 0.340124
0.130236 0.723323 0.257496
0.127459 0.725917 0.27657
0.131411 0.722606 0.251621
0.132845 0.72166 0.244297
0.135027 0.720775 0.235813
0.139803 0.718196 0.217151
0.146456 0.714824 0.193927
0.150408 0.713115 0.182528
0.15407 0.712047 0.17406
0.154101 0.712032 0.173983
0.155932 0.713237 0.176455
0.194537 0.721325 0.167208
0.230213 0.726726 0.15697
0.246921 0.731151 0.159609
0.281865 0.736355 0.15552
0.368673 0.745541 0.149355
0.509896 0.758541 0.161105
0.587106 0.766781 0.181598
0.651774 0.77351 0.201587
0.720485 0.785412 0.239216
0.785931 0.796216 0.274998
0.82977 0.805737 0.299931
0.864164 0.81326 0.322271
0.893935 0.820203 0.343816
0.90779 0.822797 0.351965
0.908171 0.822873 0.352178
0.908186 0.822889 0.352224
0.908202 0.822934 0.352331
0.908232 0.823026 0.352499
0.908293 0.823148 0.352743
0.90837 0.823255 0.353124
0.908507 0.823423 0.353704
0.908675 0.823606 0.354482
0.128786 0.724865 0.268086
0.126345 0.727489 0.287236
0.130129 0.723705 0.259342
0.132525 0.721904 0.246021
0.133562 0.721386 0.24123
0.137087 0.719738 0.227832
0.143191 0.716411 0.204395
0.149081 0.713664 0.186221
0.153735 0.712169 0.174792
0.154025 0.712077 0.174258
0.153643 0.712459 0.176318
0.185977 0.719814 0.169757
0.225498 0.725689 0.157153
0.243244 0.730434 0.159701
0.27396 0.735348 0.156542
0.347143 0.743877 0.151171
0.491508 0.756374 0.156405
0.576455 0.766598 0.181277
0.64242 0.77232 0.197665
0.70959 0.783764 0.233753
0.77763 0.795804 0.272023
0.824033 0.805585 0.298024
0.859754 0.812436 0.319707
0.889296 0.819638 0.34197
0.907149 0.823423 0.353826
0.908705 0.823697 0.354726
0.908705 0.823697 0.354726
0.908705 0.823713 0.354742
0.90869 0.823743 0.354772
0.908675 0.823804 0.354803
0.908675 0.823835 0.354818
0.908675 0.823865 0.354833
0.908675 0.823835 0.354818
0.12726 0.726543 0.279728
0.125399 0.72874 0.296895
0.128771 0.724941 0.268376
0.132021 0.722301 0.248814
0.132891 0.721675 0.24416
0.135149 0.720745 0.235431
0.139834 0.718212 0.217121
0.14789 0.714168 0.189425
0.152941 0.712383 0.176547
0.154025 0.712077 0.174228
0.153399 0.712245 0.175494
0.178225 0.718227 0.171618
0.220279 0.724926 0.158511
0.24033 0.729809 0.159564
0.26862 0.734691 0.157275
0.331518 0.742321 0.152346
0.473106 0.75433 0.152651
0.568414 0.766049 0.180148
0.633814 0.771603 0.195132
0.699748 0.782376 0.228321
0.769268 0.794888 0.267536
0.817349 0.804364 0.294408
0.854597 0.811353 0.315923
0.88423 0.818402 0.338155
0.90602 0.823117 0.352972
0.908705 0.823713 0.354726
0.908705 0.823713 0.354726
0.908705 0.823713 0.354742
0.90869 0.823758 0.354772
0.908675 0.823804 0.354803
0.908675 0.823835 0.354833
0.908675 0.823865 0.354849
0.908675 0.823865 0.354849
0.12604 0.727993 0.290623
0.124483 0.729976 0.306661
0.127535 0.726116 0.276967
0.131212 0.722927 0.253086
0.132601 0.721904 0.245716
0.133944 0.721248 0.239826
0.137713 0.719402 0.225284
0.145449 0.715312 0.197177
0.151583 0.712734 0.179721
0.154101 0.712032 0.173938
0.153735 0.712169 0.174792
0.172641 0.716899 0.17258
0.215351 0.724376 0.160311
0.238239 0.729244 0.159396
0.264607 0.733898 0.157397
0.320317 0.741115 0.152834
0.455131 0.752605 0.150332
0.561288 0.765698 0.179171
0.625788 0.770947 0.192981
0.691829 0.781308 0.224002
0.761273 0.793759 0.263111
0.811612 0.803235 0.291173
0.850843 0.81062 0.313619
0.879286 0.817426 0.334905
0.9037 0.822675 0.351537
0.908721 0.823697 0.354726
0.908705 0.823713 0.354726
0.908705 0.823713 0.354742
0.90869 0.823758 0.354772
0.908675 0.823804 0.354803
0.908675 0.823835 0.354833
0.908675 0.823865 0.354849
0.908675 0.823865 0.354849
0.125139 0.729183 0.300084
0.124208 0.731151 0.315312
0.12665 0.72726 0.284749
0.130327 0.723705 0.258839
0.132265 0.722225 0.247791
0.133364 0.721492 0.242054
0.136034 0.720348 0.231952
0.142473 0.716823 0.207248
0.150805 0.712978 0.181643
0.154101 0.712032 0.173922
0.153979 0.712077 0.174334
0.16585 0.715801 0.174838
0.211093 0.723781 0.161349
0.23682 0.728969 0.159396
0.261463 0.733318 0.157458
0.314687 0.740414 0.153063
0.438514 0.751263 0.14905
0.553979 0.76466 0.176226
0.61976 0.770336 0.191318
0.685603 0.780056 0.22034
0.755184 0.792721 0.259388
0.807584 0.802457 0.288869
0.846922 0.809857 0.31107
0.875288 0.816632 0.332082
0.901076 0.822171 0.350149
0.908492 0.823697 0.354635
0.908705 0.823697 0.354742
0.908705 0.823728 0.354742
0.90869 0.823758 0.354772
