bundles/resolve-cinematic-luts/Phantom Luts/Canon Alexa LUT/ATOMOS Monitoring LUTs/C-Log 3/Tungsten Canon CL3 AML.cube
TITLE "Generated by Resolve"
LUT_3D_SIZE 5
0.0767376 0.0770733 0.082826
0.377447 0.0750286 0.148852
0.706691 0.120485 0.323644
0.732616 0.131807 0.392508
0.735393 0.133501 0.412528
0.0659648 0.343908 0.0955825
0.268086 0.301488 0.0659495
0.686305 0.234775 0.139544
0.700313 0.127169 0.23534
0.701854 0.127062 0.241596
0.0703136 0.655589 0.204974
0.0982376 0.638285 0.102327
0.666056 0.625834 0.124041
0.846494 0.651408 0.238743
0.847349 0.65185 0.239429
0.117983 0.728374 0.310109
0.143618 0.710094 0.176852
0.499184 0.759228 0.160678
0.895171 0.822232 0.348409
0.898131 0.823087 0.350301
0.121248 0.7411 0.398383
0.138979 0.712108 0.190875
0.495827 0.759274 0.16173
0.888914 0.820768 0.344411
0.898131 0.823209 0.350408
0.0659037 0.101808 0.300084
0.342428 0.0817273 0.358099
0.708492 0.12256 0.474678
0.735424 0.137316 0.517449
0.734249 0.138293 0.531838
0.0710613 0.293355 0.287312
0.224216 0.272831 0.277378
0.673213 0.107836 0.296498
0.733577 0.132845 0.384802
0.735042 0.133379 0.402686
0.0659495 0.631495 0.357427
0.0659648 0.626673 0.208362
0.647059 0.606226 0.109087
0.838743 0.621653 0.225635
0.838209 0.619058 0.225635
0.133577 0.752834 0.469154
0.117601 0.732174 0.337514
0.352728 0.7467 0.155215
0.885863 0.820081 0.342519
0.898131 0.823087 0.350301
0.149264 0.764004 0.527001
0.119142 0.737789 0.377325
0.34052 0.745129 0.155322
0.870939 0.815976 0.330602
0.898131 0.823255 0.350439
0.0658427 0.152605 0.565576
0.361517 0.122332 0.661204
0.655329 0.131365 0.65304
0.693187 0.151781 0.683314
0.68957 0.154299 0.695399
0.0659495 0.266636 0.541512
0.0660258 0.146914 0.553948
0.620508 0.112795 0.61912
0.709514 0.144396 0.632578
0.706584 0.146456 0.645594
0.100206 0.614374 0.597757
0.0945449 0.603998 0.587091
0.615106 0.619913 0.607553
0.937667 0.562051 0.632349
0.937606 0.55407 0.642618
0.196063 0.784421 0.661967
0.18323 0.78024 0.628321
0.120302 0.734417 0.344289
0.868254 0.817594 0.334905
0.904967 0.828687 0.382864
0.215244 0.79173 0.705547
0.195071 0.784222 0.659281
0.118624 0.737072 0.37258
0.831739 0.806348 0.306874
0.90219 0.826978 0.36228
0.0877852 0.224842 0.663996
0.364172 0.214725 0.796231
0.625711 0.148745 0.731701
0.67602 0.159243 0.724071
0.676036 0.159335 0.7243
0.0730449 0.311788 0.680522
0.0798352 0.225391 0.658274
0.582803 0.164096 0.763272
0.675975 0.15903 0.72369
0.676051 0.15935 0.72433
0.166995 0.620661 0.761379
0.164126 0.603601 0.766552
0.516045 0.601022 0.937667
0.867643 0.43151 0.906188
0.864973 0.424201 0.905425
0.273533 0.81854 0.816587
0.270848 0.816251 0.813016
0.253742 0.799451 0.792386
0.863539 0.867079 0.861585
0.910338 0.860136 0.865629
0.283711 0.826154 0.831815
0.279576 0.82269 0.825818
0.254429 0.808515 0.783154
0.814054 0.899214 0.843809
0.923018 0.919554 0.889723
0.112566 0.225147 0.681285
0.377844 0.21326 0.799207
0.637446 0.151904 0.73135
0.67602 0.159243 0.724056
0.676036 0.15938 0.724407
0.071809 0.306981 0.678157
0.0990005 0.225238 0.672175
0.587396 0.162219 0.75996
0.67599 0.159075 0.723781
0.676051 0.15935 0.72433
0.176425 0.617166 0.782712
0.166644 0.594598 0.776593
0.501534 0.571908 0.937606
0.855024 0.391424 0.895399
0.853056 0.387167 0.894545
0.283482 0.825269 0.832319
0.28278 0.824033 0.832135
0.271931 0.806409 0.82649
0.845167 0.857801 0.908598
0.901564 0.840986 0.90721
0.284428 0.826795 0.832868
0.284642 0.826978 0.833219
0.284855 0.827283 0.833402
0.810575 0.906905 0.908293
0.924498 0.924498 0.924254
