bundles/resolve-cinematic-luts/Phantom Luts/Canon Alexa LUT/ATOMOS Monitoring LUTs/C-Log 3/Tungsten Canon CL3-Legacy AML.cube
TITLE "Generated by Resolve"
LUT_3D_SIZE 5
0.0921187 0.0913252 0.0960098
0.336004 0.0945144 0.138521
0.705165 0.132738 0.289708
0.742718 0.146944 0.36379
0.745403 0.148318 0.383871
0.0776226 0.306828 0.105623
0.229114 0.260502 0.0924544
0.649149 0.19968 0.13753
0.700328 0.140658 0.218128
0.701717 0.140429 0.223941
0.0710307 0.637919 0.169848
0.0891432 0.623484 0.0979324
0.632197 0.596536 0.10724
0.838468 0.629358 0.231449
0.839292 0.629709 0.23209
0.12726 0.726543 0.279728
0.152941 0.712383 0.176547
0.473106 0.75433 0.152651
0.90602 0.823117 0.352972
0.908675 0.823865 0.354849
0.124361 0.737957 0.363256
0.149111 0.713451 0.185687
0.470314 0.754116 0.153384
0.898817 0.82153 0.348424
0.908675 0.823835 0.354818
0.0697185 0.107698 0.259205
0.300587 0.100694 0.312322
0.709178 0.13463 0.451499
0.752148 0.152575 0.497124
0.751675 0.153323 0.512245
0.0959487 0.246357 0.243336
0.19324 0.228534 0.233524
0.660182 0.119142 0.262181
0.743069 0.147951 0.355184
0.745129 0.148394 0.374258
0.0660868 0.597208 0.306828
0.06598 0.599298 0.167498
0.612314 0.575814 0.0961471
0.834287 0.596826 0.221332
0.833005 0.593103 0.220066
0.132036 0.748882 0.434638
0.124804 0.72961 0.303349
0.329793 0.741772 0.1514
0.895232 0.820935 0.346029
0.908675 0.823865 0.354849
0.144671 0.759197 0.493172
0.123522 0.734783 0.342
0.318105 0.740475 0.152331
0.875654 0.816129 0.331258
0.908629 0.823987 0.354925
0.0660105 0.146853 0.542885
0.320668 0.128008 0.62977
0.654185 0.137865 0.644648
0.706813 0.16321 0.683009
0.701839 0.166339 0.698772
0.0658885 0.22797 0.502174
0.0666514 0.143771 0.523796
0.608972 0.123796 0.604929
0.726513 0.155032 0.618006
0.723217 0.157076 0.633509
0.098497 0.579568 0.563226
0.0949874 0.568109 0.551675
0.580041 0.583398 0.571878
0.937621 0.525154 0.597406
0.937621 0.516426 0.607248
0.187686 0.780774 0.629999
0.17644 0.778058 0.595514
0.126467 0.731243 0.309499
0.87274 0.816815 0.333959
0.91426 0.830671 0.380179
0.204532 0.785595 0.675258
0.18674 0.780804 0.626902
0.123613 0.734401 0.338842
0.825574 0.806271 0.30071
0.912306 0.827146 0.365164
0.0785229 0.204578 0.643046
0.314199 0.195575 0.764111
0.614038 0.162203 0.752514
0.681193 0.174014 0.741604
0.681178 0.174044 0.741695
0.0745556 0.270726 0.663539
0.0747082 0.205356 0.639765
0.549462 0.16611 0.77084
0.681239 0.173877 0.741268
0.681163 0.174075 0.741772
0.155398 0.5888 0.747539
0.153948 0.569848 0.754803
0.467826 0.555505 0.919875
0.850919 0.391012 0.894484
0.84712 0.3832 0.892805
0.27837 0.818204 0.818402
0.274357 0.815061 0.813138
0.250935 0.791897 0.784772
0.863142 0.867475 0.860258
0.920226 0.858213 0.865705
0.292775 0.828916 0.83946
0.286229 0.823682 0.830121
0.252094 0.80502 0.7729
0.796399 0.895705 0.833814
0.924392 0.919081 0.889952
0.0985122 0.203738 0.656825
0.328771 0.194476 0.768383
0.628351 0.165347 0.75198
0.681193 0.174014 0.741604
0.681178 0.174044 0.741711
0.0732891 0.266468 0.660929
0.0888075 0.204105 0.650111
0.555505 0.165347 0.769116
0.681208 0.173938 0.741375
0.681163 0.174075 0.741756
0.168246 0.584619 0.775296
0.158206 0.560235 0.767956
0.450248 0.522927 0.914
0.832517 0.351278 0.87776
0.831037 0.349096 0.876875
0.292241 0.827482 0.839918
0.291066 0.825589 0.839323
0.274861 0.800015 0.830106
0.841901 0.857359 0.923827
0.911894 0.833829 0.914977
0.293828 0.829679 0.840894
0.294072 0.829831 0.841321
0.294362 0.830182 0.841566
0.794766 0.917235 0.918044
0.922225 0.921553 0.920928
