bundles/resolve-cinematic-luts/Phantom Luts/Canon Alexa LUT/ATOMOS Monitoring LUTs/C-Log 3/Tungsten Canon CL3 AML.cube
TITLE "Generated by Resolve"
LUT_3D_SIZE 9
0.0767376 0.0770733 0.082826
0.159564 0.0748608 0.0964218
0.377447 0.0750286 0.148852
0.570275 0.0894026 0.229099
0.706691 0.120485 0.323644
0.732143 0.132357 0.373083
0.732616 0.131807 0.392508
0.734081 0.13283 0.404547
0.735393 0.133501 0.412528
0.0779889 0.179095 0.104585
0.0992599 0.142977 0.0866712
0.283146 0.133104 0.0933547
0.512261 0.0881971 0.118853
0.65774 0.106783 0.207599
0.709667 0.127474 0.269276
0.717937 0.129641 0.292699
0.722927 0.130648 0.310018
0.726604 0.132036 0.322683
0.0659648 0.343908 0.0955825
0.0657511 0.328557 0.0657511
0.268086 0.301488 0.0659495
0.512352 0.302617 0.0836347
0.686305 0.234775 0.139544
0.700557 0.128985 0.227039
0.700313 0.127169 0.23534
0.700664 0.126757 0.238636
0.701854 0.127062 0.241596
0.0659648 0.498787 0.117906
0.0659495 0.499062 0.0659495
0.0727398 0.469154 0.0659648
0.490303 0.461814 0.0659342
0.687037 0.491859 0.112337
0.83563 0.442344 0.227481
0.824735 0.40705 0.220783
0.81474 0.387457 0.212757
0.814862 0.390906 0.211902
0.0703136 0.655589 0.204974
0.0889448 0.655421 0.154665
0.0982376 0.638285 0.102327
0.25687 0.626642 0.0659648
0.666056 0.625834 0.124041
0.818036 0.649607 0.219562
0.846494 0.651408 0.238743
0.845869 0.647761 0.237339
0.847349 0.65185 0.239429
0.120668 0.723369 0.274006
0.127977 0.717983 0.232456
0.144183 0.709972 0.175463
0.24715 0.729152 0.151141
0.582162 0.755261 0.154482
0.813306 0.771054 0.265721
0.88249 0.782712 0.314641
0.881926 0.781109 0.313375
0.883223 0.78436 0.315938
0.117983 0.728374 0.310109
0.121584 0.722683 0.267918
0.143618 0.710094 0.176852
0.235462 0.727825 0.154589
0.499184 0.759228 0.160678
0.786984 0.792218 0.278676
0.895171 0.822232 0.348409
0.898131 0.822965 0.350179
0.898131 0.823087 0.350301
0.11783 0.734249 0.352239
0.120226 0.723918 0.278538
0.140291 0.711238 0.185901
0.21854 0.725078 0.158862
0.442893 0.754528 0.155734
0.769482 0.789578 0.267842
0.887327 0.820249 0.343404
0.898116 0.822751 0.350011
0.898131 0.823209 0.350408
0.121248 0.7411 0.398383
0.119249 0.725551 0.289265
0.138979 0.712108 0.190875
0.232288 0.727245 0.155337
0.495827 0.759274 0.16173
0.785687 0.790555 0.278019
0.888914 0.820768 0.344411
0.898116 0.822766 0.350027
0.898131 0.823209 0.350408
0.065919 0.0875715 0.154421
0.151522 0.081178 0.173648
0.356603 0.0816052 0.261265
0.551949 0.0942245 0.338491
0.709026 0.12105 0.403143
0.73579 0.133761 0.441611
0.736248 0.134508 0.460822
0.736233 0.134829 0.471
0.736629 0.135317 0.476722
0.0830243 0.127398 0.130602
0.0794995 0.0967727 0.103609
0.305837 0.0781109 0.134752
0.533211 0.0865797 0.211749
0.689982 0.113771 0.30486
0.73257 0.13283 0.368475
0.734188 0.133165 0.388846
0.734203 0.132845 0.399649
0.734905 0.13312 0.406195
0.0659495 0.315709 0.206317
0.0659037 0.307897 0.128298
0.228824 0.283528 0.06598
0.527001 0.247196 0.102281
0.65214 0.125032 0.158541
0.705272 0.126711 0.25658
0.710857 0.127932 0.271656
0.717937 0.129946 0.290471
0.720867 0.130892 0.297993
0.0660563 0.477989 0.213291
0.065919 0.476829 0.131228
0.0658274 0.466423 0.0658274
0.474861 0.448844 0.0659648
0.687892 0.469154 0.109026
0.821653 0.402518 0.21796
0.804044 0.357198 0.208286
0.794781 0.32845 0.20705
0.796628 0.33463 0.207111
0.0659037 0.645869 0.27538
0.0659342 0.643 0.213184
0.0875257 0.640192 0.122377
0.184054 0.618006 0.0659342
0.65742 0.616892 0.117098
0.818311 0.640162 0.217212
0.843 0.638956 0.232578
0.842054 0.634394 0.230655
0.843122 0.638941 0.232761
0.1178 0.7346 0.356451
0.118944 0.726085 0.293248
0.130312 0.716533 0.22179
0.21886 0.723491 0.152636
0.551827 0.75201 0.145006
0.807172 0.76492 0.258473
0.879652 0.77554 0.308721
0.878264 0.772839 0.306386
0.880034 0.776516 0.309499
0.121309 0.741161 0.399084
0.117571 0.732204 0.337942
0.121462 0.722866 0.269078
0.177447 0.718135 0.170291
0.422614 0.752895 0.154498
0.770016 0.790204 0.268452
0.891615 0.821302 0.346014
0.898131 0.822965 0.350179
0.898131 0.823087 0.350301
0.125658 0.74583 0.428519
0.118334 0.736339 0.367529
0.121355 0.722591 0.268513
0.151461 0.712139 0.175814
0.381567 0.748898 0.153567
0.749279 0.786847 0.256901
0.879469 0.818341 0.338216
0.898116 0.822736 0.350011
0.898131 0.823194 0.350393
0.132006 0.751583 0.461906
0.119234 0.737926 0.37792
0.12137 0.722759 0.26894
0.179721 0.718303 0.169146
0.431693 0.752361 0.151843
0.764538 0.788602 0.265568
0.880934 0.818586 0.339086
0.898116 0.822766 0.350027
0.898131 0.823209 0.350408
0.0659037 0.101808 0.300084
0.180819 0.087541 0.341375
0.342428 0.0817273 0.358099
0.543969 0.0930495 0.428092
0.708492 0.12256 0.474678
0.736171 0.136461 0.502281
0.735424 0.137316 0.517449
0.734417 0.137575 0.525872
0.734249 0.138293 0.531838
0.0660105 0.141802 0.223972
0.0657969 0.103868 0.253269
0.28014 0.0818189 0.308995
0.515663 0.0919966 0.358251
0.690929 0.115007 0.410559
0.736095 0.134066 0.44654
0.7364 0.134722 0.463645
0.736233 0.13489 0.472786
0.73666 0.135485 0.479637
0.0710613 0.293355 0.287312
0.0719768 0.276631 0.273472
0.224216 0.272831 0.277378
0.55201 0.205768 0.273503
0.673213 0.107836 0.296498
0.732067 0.132662 0.363989
0.733577 0.132845 0.384802
0.73434 0.133104 0.39617
0.735042 0.133379 0.402686
0.0658274 0.462577 0.317662
0.0657816 0.454505 0.266011
0.0659037 0.449332 0.145403
0.456794 0.436622 0.0707561
0.716899 0.427787 0.165942
0.81088 0.326345 0.23621
0.780728 0.257527 0.230335
0.762219 0.215274 0.233417
0.76553 0.217838 0.236896
0.0659495 0.631495 0.357427
0.0658274 0.629938 0.302754
0.0659648 0.626673 0.208362
0.132021 0.608713 0.0659648
0.647059 0.606226 0.109087
0.818418 0.628824 0.214099
0.838743 0.621653 0.225635
0.837156 0.613825 0.223972
0.838209 0.619058 0.225635
0.125231 0.745312 0.426642
0.119875 0.73901 0.384298
0.118593 0.72694 0.299046
0.157565 0.713466 0.173754
0.500938 0.745769 0.132647
0.8 0.7579 0.250385
0.875959 0.766171 0.301366
0.873762 0.762005 0.297536
0.875319 0.76524 0.299962
0.133577 0.752834 0.469154
0.124849 0.745083 0.423255
0.117601 0.732174 0.337514
0.143404 0.710185 0.177462
0.352728 0.7467 0.155215
0.748226 0.787289 0.256428
0.885863 0.820081 0.342519
0.898131 0.822965 0.350179
0.898131 0.823087 0.350301
0.140429 0.758068 0.496818
0.129549 0.749615 0.449882
0.118242 0.736126 0.366613
0.140398 0.711177 0.18555
0.317983 0.742168 0.154604
0.719829 0.784543 0.239109
0.870756 0.816449 0.331182
0.898116 0.822721 0.349981
0.898131 0.823178 0.350378
0.149264 0.764004 0.527001
0.132982 0.7523 0.466148
0.119142 0.737789 0.377325
0.140047 0.71136 0.186755
0.34052 0.745129 0.155322
0.731228 0.786328 0.246296
0.870939 0.815976 0.330602
0.898116 0.822766 0.350027
0.898131 0.823255 0.350439
0.066041 0.119112 0.448966
0.186236 0.104845 0.493889
0.356329 0.0901198 0.506783
0.524742 0.0913863 0.527138
0.689616 0.123156 0.558556
0.722805 0.139406 0.580484
0.719707 0.140444 0.594095
0.717815 0.141176 0.601846
0.717021 0.142351 0.608652
0.0658732 0.174731 0.403906
0.0658579 0.118029 0.422278
0.268025 0.0946975 0.490806
0.493629 0.0885328 0.497444
0.679042 0.116091 0.52517
0.731319 0.138048 0.543084
0.729 0.138445 0.555154
0.727459 0.138827 0.562463
0.726345 0.139483 0.569802
0.06598 0.289036 0.406332
0.0658427 0.261723 0.416159
0.118563 0.216114 0.466545
0.474464 0.122469 0.474357
0.662837 0.108812 0.471794
0.736171 0.135866 0.494759
0.735897 0.13666 0.507683
0.735286 0.137026 0.515328
0.734997 0.137652 0.52253
0.0658885 0.460685 0.446387
0.0659342 0.451789 0.438407
0.0658427 0.438422 0.424842
0.450294 0.45864 0.452064
0.760403 0.409888 0.456062
0.863142 0.280385 0.458747
0.809964 0.21181 0.43975
0.778561 0.17612 0.42826
0.775677 0.173419 0.432013
0.0658885 0.616709 0.47039
0.0659495 0.612253 0.446586
0.0660105 0.605509 0.399252
0.068574 0.60676 0.230549
0.615503 0.596139 0.231388
0.864302 0.619196 0.319112
0.899947 0.591913 0.333501
0.898405 0.581476 0.332586
0.901747 0.588098 0.343618
0.136172 0.747768 0.516213
0.13138 0.746227 0.492058
0.123598 0.742382 0.445441
0.117067 0.725994 0.302495
0.326604 0.732174 0.130175
0.786648 0.745296 0.236439
0.870176 0.748608 0.288502
0.868513 0.742687 0.285023
0.868009 0.744427 0.28542
0.159564 0.770336 0.558022
0.150729 0.764935 0.531548
0.136797 0.755322 0.482109
0.117556 0.731304 0.331609
0.266011 0.734752 0.156878
0.699886 0.782605 0.228458
0.874388 0.817502 0.335241
0.89839 0.823041 0.350332
0.89839 0.823178 0.350454
0.167666 0.774517 0.581827
0.158038 0.769528 0.55346
0.142718 0.759518 0.504433
0.117922 0.735164 0.360678
0.247578 0.729763 0.153384
0.663203 0.778393 0.211627
0.855497 0.811383 0.317693
0.898421 0.822599 0.349981
0.898436 0.823163 0.350454
0.176455 0.778042 0.60911
0.164263 0.773022 0.572076
0.147463 0.762814 0.521111
0.118532 0.736904 0.371649
0.253193 0.731334 0.154559
0.669612 0.778729 0.21294
0.852293 0.810513 0.316091
0.898405 0.822858 0.350179
0.898421 0.823316 0.350591
0.0658427 0.152605 0.565576
0.195346 0.134859 0.626734
0.361517 0.122332 0.661204
0.513207 0.109041 0.654261
0.655329 0.131365 0.65304
0.697688 0.149889 0.671183
0.693187 0.151781 0.683314
0.69099 0.152911 0.689372
0.68957 0.154299 0.695399
0.0659648 0.20441 0.552956
0.0660105 0.14789 0.544381
0.258778 0.128206 0.637552
0.481468 0.10959 0.648524
0.64155 0.123796 0.639155
0.704524 0.146792 0.650477
0.701244 0.148226 0.660792
0.699351 0.149187 0.666697
0.697643 0.150744 0.673854
0.0659495 0.266636 0.541512
0.0658274 0.223529 0.541985
0.0660258 0.146914 0.553948
0.423957 0.110948 0.638056
0.620508 0.112795 0.61912
0.712093 0.143175 0.623087
0.709514 0.144396 0.632578
0.707988 0.145144 0.638498
0.706584 0.146456 0.645594
0.0755932 0.472572 0.578973
0.0730602 0.459281 0.58497
0.0691997 0.436439 0.594308
0.362783 0.415579 0.685908
0.68159 0.308461 0.662974
0.747784 0.158663 0.584421
0.725124 0.138964 0.570977
0.724575 0.138979 0.572671
0.726055 0.141787 0.581186
0.100206 0.614374 0.597757
0.0978561 0.610391 0.593912
0.0945449 0.603998 0.587091
0.101427 0.591959 0.570825
0.615106 0.619913 0.607553
0.910613 0.597131 0.628992
0.937667 0.562051 0.632349
0.937682 0.54789 0.634348
0.937606 0.55407 0.642618
0.158175 0.740826 0.621347
0.154208 0.738949 0.612238
0.14609 0.734768 0.593423
0.126055 0.724788 0.540337
0.265995 0.736522 0.410666
0.749981 0.747524 0.447623
0.896941 0.766873 0.506584
0.896651 0.761791 0.512062
0.896819 0.765103 0.522194
0.196063 0.784421 0.661967
0.191455 0.78294 0.650339
0.18323 0.78024 0.628321
0.163912 0.773083 0.570245
0.120302 0.734417 0.344289
0.593881 0.777478 0.232837
0.868254 0.817594 0.334905
0.90457 0.828641 0.379782
0.904967 0.828687 0.382864
0.20415 0.78732 0.681346
0.19794 0.785275 0.666712
0.188739 0.782055 0.642741
0.168078 0.775036 0.582681
0.11783 0.734844 0.358297
0.521691 0.768338 0.203662
0.837644 0.806851 0.307347
0.901854 0.826413 0.361776
0.902632 0.827787 0.365194
0.215244 0.79173 0.705547
0.205829 0.787976 0.685145
0.195071 0.784222 0.659281
0.172244 0.776318 0.596521
0.118624 0.737072 0.37258
0.518608 0.769177 0.243336
0.831739 0.806348 0.306874
0.899504 0.826413 0.362219
0.90219 0.826978 0.36228
0.0660563 0.218372 0.64242
0.198611 0.209201 0.720577
0.35317 0.195468 0.774105
0.504784 0.171389 0.775845
0.618402 0.144625 0.725124
0.67602 0.159167 0.723918
0.676005 0.159167 0.723934
0.676005 0.159075 0.723766
0.676036 0.15935 0.724361
0.0658427 0.244602 0.636713
0.0658427 0.212268 0.624506
0.246189 0.197742 0.734737
0.463874 0.172946 0.774289
0.599115 0.141161 0.724239
0.677058 0.15903 0.722881
0.676005 0.159091 0.723796
0.676005 0.159152 0.723918
0.676051 0.159457 0.72459
0.065919 0.281346 0.639246
0.0657816 0.251148 0.632578
0.0679942 0.205768 0.633661
0.397314 0.174456 0.763958
0.577996 0.14229 0.728725
0.680568 0.157382 0.714961
0.677989 0.158404 0.720302
0.676814 0.158846 0.722698
0.676493 0.159411 0.724193
0.0867475 0.457206 0.677729
0.0850538 0.438956 0.682399
0.0813611 0.405188 0.685252
0.250248 0.349599 0.791836
0.594461 0.238056 0.818677
0.685161 0.152743 0.695109
0.688655 0.15407 0.695888
0.687648 0.154574 0.699016
0.686595 0.155596 0.702907
0.14197 0.628305 0.702129
0.141649 0.622919 0.70576
0.140826 0.613382 0.711406
0.137224 0.586313 0.722515
0.56759 0.616358 0.839887
0.840269 0.522042 0.817716
0.8925 0.473594 0.814313
0.890257 0.457618 0.81474
0.890272 0.465934 0.821942
0.200885 0.742458 0.731487
0.199542 0.740963 0.730312
0.196201 0.737408 0.726299
0.187076 0.727764 0.715328
0.334051 0.738933 0.716915
0.763607 0.76936 0.758022
0.926772 0.753368 0.769772
0.928481 0.742336 0.770138
0.927474 0.745098 0.776043
0.241718 0.80264 0.759167
0.238697 0.801495 0.753338
0.233021 0.79913 0.742428
0.221317 0.794232 0.718212
0.194644 0.784054 0.658274
0.562585 0.81915 0.641215
0.858732 0.858747 0.697871
0.907378 0.859388 0.70901
0.907881 0.860105 0.717769
0.251835 0.806912 0.778668
0.247425 0.805188 0.770459
0.239994 0.80209 0.755962
0.22446 0.79556 0.725002
0.19408 0.784451 0.655604
0.45922 0.79237 0.564645
0.804639 0.854887 0.62707
0.909041 0.887434 0.726375
0.912535 0.889433 0.733135
0.262531 0.811887 0.798581
0.256001 0.808774 0.786587
0.247608 0.80531 0.770779
0.229755 0.797787 0.735531
0.197024 0.785733 0.66305
0.471168 0.795773 0.574746
0.790509 0.858366 0.644114
0.899977 0.885817 0.721187
0.91075 0.886275 0.718944
0.0877852 0.224842 0.663996
0.219898 0.222553 0.742977
0.364172 0.214725 0.796231
0.514855 0.186725 0.795224
0.625711 0.148745 0.731701
0.67602 0.159243 0.724056
0.67602 0.159243 0.724071
0.67599 0.159075 0.723781
0.676036 0.159335 0.7243
0.06598 0.253697 0.650111
0.0660105 0.224537 0.64799
0.251698 0.22182 0.758007
0.470375 0.198398 0.804578
0.606638 0.153536 0.743938
0.676036 0.159243 0.724071
0.67602 0.159228 0.724056
0.676036 0.159258 0.724117
0.676051 0.159426 0.724498
0.0730449 0.311788 0.680522
0.0658579 0.26949 0.658808
0.0798352 0.225391 0.658274
0.398779 0.210788 0.802625
0.582803 0.164096 0.763272
0.676005 0.159121 0.723842
0.675975 0.15903 0.72369
0.676005 0.159075 0.723766
0.676051 0.15935 0.72433
0.10573 0.444007 0.723232
0.103029 0.424445 0.722576
0.0921187 0.381369 0.710277
0.182727 0.29337 0.754574
0.525658 0.203372 0.811673
0.667628 0.157656 0.726131
0.676036 0.158984 0.723583
0.676036 0.159014 0.723629
0.676081 0.159274 0.724163
0.166995 0.620661 0.761379
0.165942 0.614084 0.763729
0.164126 0.603601 0.766552
0.156802 0.573968 0.768933
0.516045 0.601022 0.937667
0.804028 0.490593 0.925719
0.867643 0.43151 0.906188
0.863294 0.415015 0.902098
0.864973 0.424201 0.905425
0.231342 0.756268 0.786725
0.231479 0.755444 0.787869
0.231128 0.752743 0.789395
0.227817 0.742885 0.791699
0.282795 0.751827 0.835828
0.733211 0.767025 0.899001
0.89398 0.708049 0.883604
0.898161 0.695033 0.882841
0.897642 0.698817 0.885496
0.273533 0.81854 0.816587
0.272908 0.817792 0.815808
0.270848 0.816251 0.813016
0.265812 0.811749 0.806226
0.253742 0.799451 0.792386
0.629297 0.844236 0.831785
0.863539 0.867079 0.861585
0.91017 0.861219 0.863279
0.910338 0.860136 0.865629
0.280461 0.823453 0.827085
0.278981 0.822263 0.824918
0.275929 0.820279 0.820584
0.269566 0.815869 0.810437
0.253666 0.808301 0.781643
0.43946 0.83061 0.761959
0.825452 0.901884 0.850813
0.914549 0.91458 0.877226
0.920607 0.912764 0.876234
0.283711 0.826154 0.831815
0.282322 0.824994 0.83006
0.279576 0.82269 0.825818
0.272145 0.817548 0.814572
0.254429 0.808515 0.783154
0.453285 0.830823 0.763775
0.814054 0.899214 0.843809
0.901946 0.911986 0.857191
0.923018 0.919554 0.889723
0.107744 0.225299 0.678096
0.238712 0.222278 0.751995
0.37322 0.213855 0.798367
0.520302 0.185183 0.793698
0.632731 0.150469 0.731289
0.67602 0.159243 0.724071
0.67602 0.159243 0.724071
0.676005 0.159197 0.72398
0.676036 0.159319 0.724285
0.0660258 0.246357 0.646006
0.083238 0.225025 0.661097
0.264683 0.221515 0.763684
0.475486 0.197269 0.803998
0.60795 0.150469 0.739651
0.676036 0.159243 0.724071
0.676036 0.159228 0.724056
0.676036 0.159258 0.724117
0.676036 0.15938 0.724407
0.07187 0.307958 0.678416
0.065919 0.263554 0.655421
0.0915541 0.225025 0.666911
0.40441 0.210178 0.803418
0.58529 0.163287 0.761746
0.67602 0.159182 0.723949
0.67599 0.159075 0.723781
0.676005 0.159106 0.723827
0.676051 0.15935 0.72433
0.107912 0.432441 0.729747
0.0992294 0.404334 0.719676
0.0835889 0.350637 0.698116
0.161578 0.245991 0.722011
0.51873 0.19144 0.800076
0.667506 0.157641 0.726223
0.676036 0.159045 0.723674
0.676036 0.15906 0.723705
0.676066 0.159289 0.724178
0.17734 0.619318 0.783001
0.174105 0.611307 0.781277
0.168215 0.597848 0.777874
0.152438 0.560388 0.767071
0.502358 0.577874 0.937758
0.793622 0.464637 0.925505
0.858213 0.400168 0.898848
0.851591 0.38233 0.892042
0.855299 0.393088 0.896406
0.245731 0.761715 0.813245
0.245487 0.759716 0.814511
0.243366 0.754665 0.814664
0.236301 0.739895 0.812772
0.265446 0.73315 0.838437
0.720363 0.762295 0.937392
0.885298 0.691615 0.912367
0.892653 0.677424 0.910979
0.892821 0.681849 0.9122
0.283345 0.825116 0.832166
0.283467 0.825223 0.832395
0.282811 0.824216 0.831968
0.2795 0.819089 0.82974
0.272953 0.808362 0.826444
0.610437 0.86865 0.902449
0.848447 0.861875 0.906111
0.902815 0.847883 0.906096
0.902495 0.846555 0.906477
0.284215 0.826596 0.832471
0.284627 0.826947 0.833188
0.284642 0.826978 0.833219
0.284611 0.826963 0.833173
0.280598 0.823743 0.827329
0.354665 0.855573 0.853147
0.835737 0.90248 0.898909
0.909651 0.910582 0.908782
0.917586 0.90956 0.908934
0.284352 0.826719 0.832715
0.284627 0.826963 0.833188
0.284642 0.826978 0.833219
0.284642 0.826978 0.833219
0.280064 0.82324 0.826307
0.381582 0.857862 0.853254
0.820768 0.903395 0.893584
0.909239 0.919631 0.913054
0.923583 0.922271 0.917418
0.112566 0.225147 0.681285
0.247257 0.222171 0.7561
0.377844 0.21326 0.799207
0.523949 0.184146 0.792599
0.637446 0.151904 0.73135
0.67602 0.159243 0.724071
0.67602 0.159243 0.724056
0.676036 0.159243 0.724071
0.676036 0.15938 0.724407
0.0658579 0.243534 0.644343
0.094667 0.225269 0.669169
0.272496 0.221271 0.766842
0.479164 0.196521 0.803662
0.609964 0.148974 0.73724
0.676036 0.159228 0.724056
0.676036 0.159228 0.724056
0.676036 0.159258 0.724117
0.676051 0.159411 0.724529
0.071809 0.306981 0.678157
0.065919 0.26099 0.654017
0.0990005 0.225238 0.672175
0.408682 0.209552 0.803922
0.587396 0.162219 0.75996
0.67602 0.159182 0.723949
0.67599 0.159075 0.723781
0.676005 0.159106 0.723812
0.676051 0.15935 0.72433
0.105715 0.425498 0.727321
0.0970016 0.395911 0.716762
0.080293 0.338445 0.692912
0.157717 0.230961 0.71252
0.51783 0.186053 0.794507
0.66772 0.157748 0.726238
0.676036 0.159045 0.72369
0.676051 0.15906 0.723705
0.676081 0.159289 0.724178
0.176425 0.617166 0.782712
0.172763 0.608545 0.780438
0.166644 0.594598 0.776593
0.150744 0.55613 0.765927
0.501534 0.571908 0.937606
0.791608 0.457145 0.924681
0.855024 0.391424 0.895399
0.848142 0.374441 0.888716
0.853056 0.387167 0.894545
0.247166 0.761975 0.816007
0.245899 0.759274 0.815839
0.243244 0.753735 0.81503
0.23473 0.737331 0.811948
0.266423 0.730587 0.839841
0.719905 0.758663 0.937713
0.884001 0.686412 0.912718
0.892241 0.672892 0.912123
0.892317 0.677272 0.912154
0.283482 0.825269 0.832319
0.283772 0.825666 0.832685
0.28278 0.824033 0.832135
0.279255 0.818402 0.829969
0.271931 0.806409 0.82649
0.613016 0.866758 0.90486
0.845167 0.857801 0.908598
0.901534 0.841947 0.907118
0.901564 0.840986 0.90721
0.284398 0.826764 0.832807
0.284627 0.826947 0.833188
0.284642 0.826978 0.833219
0.284642 0.826978 0.833219
0.284855 0.827268 0.833402
0.341634 0.854246 0.859602
0.828077 0.904479 0.909361
0.90573 0.907744 0.914641
0.91545 0.907088 0.91577
0.284428 0.826795 0.832868
0.284627 0.826963 0.833204
0.284642 0.826978 0.833219
0.284642 0.826978 0.833219
0.284855 0.827283 0.833402
0.325109 0.846784 0.851316
0.810575 0.906905 0.908293
0.910964 0.91986 0.919982
0.924498 0.924498 0.924254
