bundles/resolve-cinematic-luts/Phantom Luts/Canon Alexa LUT/ATOMOS Monitoring LUTs/C-Log 3/Utopia Canon CL3-Legacy AML.cube
TITLE "Generated by Resolve"
LUT_3D_SIZE 9
0.0776989 0.100633 0.10901
0.170825 0.0947738 0.108415
0.345876 0.0880598 0.111345
0.534112 0.0908675 0.151232
0.704036 0.108476 0.230259
0.766049 0.120043 0.293614
0.766644 0.121508 0.31989
0.766232 0.121523 0.335332
0.772763 0.11989 0.345083
0.0698711 0.161273 0.0979171
0.0947738 0.125231 0.105028
0.230991 0.12224 0.105074
0.461799 0.0920119 0.087068
0.630732 0.0992905 0.127993
0.730785 0.112596 0.176043
0.73727 0.113359 0.187472
0.749783 0.115618 0.209033
0.76553 0.113405 0.220752
0.06598 0.35259 0.067277
0.0723888 0.31165 0.0660258
0.237217 0.267369 0.102525
0.450736 0.256107 0.108248
0.626551 0.196918 0.11725
0.73901 0.115145 0.136263
0.734691 0.113756 0.150561
0.73228 0.113268 0.153796
0.737026 0.111437 0.154101
0.0834974 0.590967 0.0816968
0.0881208 0.580713 0.0659342
0.121477 0.54345 0.066041
0.465583 0.474098 0.114839
0.634256 0.479423 0.126787
0.825101 0.409339 0.1738
0.838285 0.364599 0.179843
0.825818 0.344137 0.172412
0.820142 0.330419 0.167041
0.127184 0.824796 0.14345
0.141543 0.831388 0.0737926
0.150729 0.791699 0.0660105
0.360525 0.744762 0.0813153
0.667689 0.657511 0.153399
0.800717 0.656245 0.172747
0.864973 0.650217 0.178805
0.864515 0.641291 0.176989
0.864256 0.63592 0.175662
0.15729 0.937652 0.213397
0.186618 0.935286 0.1252
0.18938 0.935286 0.122377
0.298039 0.937713 0.119966
0.673594 0.907561 0.166781
0.847593 0.838148 0.216831
0.930312 0.829297 0.247379
0.928267 0.824018 0.246204
0.926238 0.820645 0.246479
0.147143 0.937667 0.238727
0.166094 0.937575 0.175952
0.19028 0.934524 0.120043
0.305989 0.937667 0.12958
0.644984 0.922606 0.211276
0.841962 0.895308 0.293034
0.937545 0.892058 0.305394
0.937545 0.891737 0.302235
0.93753 0.891829 0.300542
0.136446 0.937667 0.280766
0.156405 0.937652 0.211109
0.19147 0.934142 0.12636
0.292607 0.937682 0.1308
0.586664 0.929305 0.194766
0.82118 0.900572 0.283391
0.93666 0.892149 0.305776
0.937545 0.891539 0.305409
0.937545 0.891676 0.303334
0.125658 0.937606 0.296437
0.152789 0.937591 0.207752
0.189014 0.934691 0.125719
0.278431 0.937591 0.129427
0.547417 0.933776 0.188434
0.807996 0.901061 0.275563
0.933913 0.891905 0.297993
0.937545 0.891554 0.305348
0.93753 0.891798 0.300999
0.065919 0.104906 0.149081
0.152468 0.0988479 0.184085
0.333989 0.0934157 0.223987
0.523659 0.0945144 0.272526
0.700267 0.111269 0.339223
0.770138 0.123888 0.388327
0.769299 0.125658 0.411337
0.770214 0.126818 0.426017
0.776989 0.125353 0.435477
0.0764935 0.115251 0.123125
0.0779278 0.10103 0.109224
0.266804 0.0916762 0.112535
0.491615 0.0894331 0.142138
0.671092 0.102602 0.211872
0.773983 0.117189 0.287831
0.774777 0.118639 0.315709
0.774014 0.119142 0.331731
0.779049 0.117647 0.341085
0.0658732 0.292378 0.156344
0.065919 0.28809 0.077821
0.211887 0.24033 0.10219
0.463004 0.1953 0.110384
0.624353 0.114809 0.0991226
0.733288 0.111925 0.171374
0.733257 0.112078 0.175677
0.74284 0.113268 0.189975
0.755673 0.112825 0.201312
0.0658732 0.55227 0.167666
0.0766613 0.554711 0.0777447
0.0886702 0.53106 0.0659342
0.445624 0.45623 0.11371
0.636545 0.446998 0.122683
0.822889 0.354986 0.17322
0.811749 0.311421 0.163668
0.802274 0.283772 0.15874
0.798337 0.267552 0.154376
0.09691 0.788098 0.231357
0.11577 0.793393 0.138033
0.133471 0.797314 0.0660868
0.250751 0.744045 0.06981
0.655802 0.644831 0.150561
0.798566 0.640528 0.168811
0.863996 0.629236 0.174746
0.864439 0.618524 0.173587
0.864622 0.612543 0.172351
0.129488 0.937682 0.310567
0.153231 0.937591 0.204608
0.186557 0.935332 0.124971
0.272465 0.937728 0.109392
0.648753 0.910414 0.155306
0.835828 0.826734 0.209918
0.922103 0.814221 0.238712
0.918791 0.807019 0.235843
0.916533 0.802991 0.234943
0.114 0.937697 0.360021
0.144289 0.937621 0.24213
0.169421 0.937484 0.164736
0.249058 0.937606 0.12517
0.572778 0.931441 0.187198
0.82385 0.900786 0.283207
0.937591 0.892332 0.305531
0.937545 0.891737 0.302235
0.93753 0.891829 0.300649
0.105348 0.937728 0.392798
0.134997 0.937667 0.286519
0.159823 0.937636 0.207935
0.218021 0.936919 0.130663
0.497765 0.936416 0.179614
0.797543 0.902205 0.269551
0.932357 0.891966 0.296162
0.937545 0.891524 0.305684
0.93753 0.891951 0.29836
0.100206 0.937728 0.409323
0.126482 0.937667 0.306889
0.155047 0.937652 0.212848
0.205478 0.936492 0.13048
0.46598 0.937148 0.171115
0.785122 0.903029 0.260014
0.92578 0.89189 0.290318
0.937545 0.891554 0.305348
0.93753 0.891966 0.297917
0.065919 0.114168 0.272068
0.149935 0.104326 0.299123
0.306233 0.0961318 0.325887
0.505867 0.099855 0.380041
0.695781 0.118318 0.429526
0.771145 0.130999 0.465354
0.771374 0.132906 0.484001
0.770703 0.133379 0.495445
0.77641 0.131151 0.50454
0.0659037 0.125658 0.19379
0.0659648 0.111376 0.242222
0.243137 0.0966964 0.268254
0.482994 0.0949569 0.295216
0.666102 0.108629 0.344106
0.771176 0.123507 0.393622
0.770642 0.125643 0.415549
0.771176 0.126955 0.429816
0.777142 0.125734 0.439033
0.0659953 0.246815 0.243656
0.0659342 0.229313 0.226932
0.196414 0.224247 0.228946
0.483726 0.161608 0.19353
0.645243 0.102739 0.209613
0.77052 0.118334 0.282399
0.771527 0.119692 0.31046
0.771054 0.120333 0.326833
0.77583 0.118654 0.33637
0.0658579 0.497688 0.273365
0.0658579 0.503258 0.204639
0.0683299 0.515938 0.0895399
0.425299 0.436011 0.116411
0.65333 0.389441 0.145571
0.806439 0.282673 0.174624
0.794568 0.228031 0.157717
0.787198 0.188983 0.148516
0.786313 0.169497 0.146395
0.0658579 0.73579 0.338781
0.0818036 0.74966 0.24683
0.105974 0.758343 0.142504
0.186114 0.7337 0.0658732
0.64239 0.631342 0.147265
0.796628 0.622309 0.164462
0.863584 0.604028 0.171923
0.861097 0.587915 0.171481
0.860151 0.578637 0.170642
0.106264 0.937758 0.410925
0.119432 0.937667 0.323781
0.149004 0.937606 0.214588
0.209201 0.936736 0.116365
0.606806 0.915358 0.142214
0.823697 0.81442 0.203693
0.912154 0.796582 0.230381
0.907271 0.787472 0.226184
0.904097 0.78233 0.223911
0.094316 0.937652 0.458915
0.109331 0.937682 0.375006
0.142092 0.937636 0.246448
0.191226 0.934707 0.120134
0.474403 0.937316 0.171542
0.800641 0.902373 0.269398
0.936217 0.892485 0.302693
0.937545 0.891737 0.302235
0.93753 0.891844 0.300298
0.0898604 0.937392 0.486488
0.102235 0.937713 0.409064
0.134356 0.937682 0.292714
0.191272 0.934203 0.12694
0.408804 0.937682 0.161639
0.773541 0.904097 0.251591
0.923461 0.891829 0.289082
0.937545 0.891493 0.306203
0.93753 0.89192 0.299001
0.0860304 0.937331 0.49926
0.0972763 0.937697 0.426291
0.126589 0.937682 0.3149
0.191073 0.934234 0.127245
0.378775 0.937652 0.154818
0.761425 0.90457 0.242145
0.91223 0.892805 0.291752
0.937545 0.891554 0.305348
0.93753 0.892012 0.297246
0.0659495 0.127535 0.435126
0.129625 0.116518 0.464179
0.294911 0.105486 0.473716
0.478767 0.103059 0.492515
0.668299 0.122637 0.528023
0.75346 0.13666 0.558312
0.750362 0.137865 0.576181
0.749294 0.138445 0.587488
0.755703 0.136233 0.598474
0.0658427 0.148638 0.367849
0.0657816 0.124788 0.415152
0.196994 0.110521 0.454124
0.445747 0.100023 0.461524
0.644648 0.116899 0.486229
0.765423 0.134783 0.514748
0.761395 0.135531 0.530175
0.759274 0.13576 0.540566
0.764843 0.133318 0.549966
0.065919 0.234607 0.34963
0.0657816 0.208957 0.366827
0.0696117 0.181537 0.430884
0.417792 0.112993 0.42948
0.620874 0.110903 0.424125
0.768887 0.130846 0.456306
0.769955 0.132845 0.47303
0.768811 0.133654 0.483604
0.773831 0.132006 0.4916
0.0658579 0.435126 0.419501
0.0658427 0.421057 0.405982
0.0658274 0.406302 0.388296
0.39762 0.418814 0.412406
0.67039 0.355764 0.379736
0.851118 0.248798 0.381048
0.833509 0.196002 0.375647
0.812619 0.1608 0.367697
0.800244 0.141985 0.362936
0.0660258 0.667643 0.472541
0.06598 0.668086 0.436912
0.0660105 0.674662 0.380621
0.132982 0.72221 0.22974
0.614038 0.613764 0.26949
0.820279 0.589731 0.298619
0.890364 0.546517 0.305547
0.882002 0.528283 0.298116
0.878141 0.51783 0.294118
0.0776837 0.897093 0.527703
0.0789349 0.908507 0.483024
0.0911574 0.926345 0.417884
0.143984 0.937591 0.227298
0.399863 0.932708 0.114473
0.803418 0.794034 0.197757
0.900298 0.767559 0.217746
0.896941 0.754589 0.212787
0.894865 0.747845 0.2103
0.0856031 0.934569 0.571725
0.0837873 0.93669 0.525963
0.0926528 0.937697 0.461021
0.138735 0.937606 0.258625
0.329473 0.937728 0.142107
0.760555 0.905013 0.240192
0.928862 0.892164 0.289357
0.937713 0.890318 0.285023
0.937697 0.889876 0.277623
0.0816663 0.934295 0.590051
0.0821698 0.936049 0.548241
0.090013 0.937362 0.48809
0.131868 0.937667 0.302083
0.305989 0.937621 0.132311
0.730907 0.910292 0.245686
0.901991 0.893263 0.293812
0.937545 0.89131 0.308309
0.93753 0.891798 0.300877
0.0790875 0.934295 0.599634
0.0806897 0.93579 0.559915
0.0870832 0.93724 0.500801
0.12604 0.937682 0.325383
0.281224 0.937636 0.131746
0.716823 0.912993 0.24744
0.886107 0.894896 0.295293
0.937545 0.891585 0.305867
0.93753 0.891966 0.297826
0.0659037 0.145876 0.562005
0.114351 0.133242 0.596002
0.287236 0.123064 0.612421
0.460914 0.116335 0.616037
0.641474 0.129061 0.639765
0.733715 0.14638 0.675532
0.728832 0.149111 0.700221
0.726818 0.150286 0.714473
0.733166 0.147707 0.730343
0.0659342 0.176989 0.525093
0.0658732 0.142702 0.552789
0.167224 0.128466 0.595819
0.418158 0.115969 0.604913
0.612863 0.123903 0.615854
0.740276 0.143343 0.642298
0.736645 0.145113 0.661448
0.73489 0.145815 0.673884
0.741756 0.143206 0.688045
0.0659342 0.219913 0.493523
0.0658427 0.186374 0.50808
0.0660563 0.140597 0.545602
0.34725 0.11664 0.590433
0.58291 0.1187 0.589303
0.74374 0.140932 0.600397
0.740795 0.142657 0.614633
0.739681 0.143404 0.624689
0.746273 0.140871 0.636225
0.0658122 0.418982 0.53312
0.0657664 0.398291 0.530282
0.0658427 0.371298 0.5308
0.246281 0.351049 0.603754
0.61474 0.277577 0.606714
0.779919 0.161791 0.551919
0.758892 0.141634 0.542412
0.75642 0.139361 0.542428
0.761044 0.136202 0.546578
0.0659495 0.61146 0.593179
0.0658427 0.603006 0.58471
0.0658732 0.594156 0.575387
0.0659037 0.58439 0.559976
0.571542 0.585931 0.574563
0.833982 0.544274 0.552377
0.908049 0.501045 0.544091
0.906462 0.480827 0.544625
0.904463 0.46923 0.545144
0.0659953 0.817044 0.635981
0.0658885 0.814954 0.617487
0.0659495 0.813413 0.594476
0.06598 0.818418 0.5337
0.37145 0.899611 0.483299
0.75613 0.76965 0.489036
0.905501 0.737865 0.505348
0.908904 0.720241 0.505852
0.909316 0.711147 0.506661
0.0827039 0.913832 0.680171
0.0777752 0.922484 0.657938
0.0781567 0.930373 0.630823
0.0818647 0.935378 0.564645
0.138308 0.937667 0.283818
0.684779 0.934722 0.360143
0.913115 0.89929 0.396384
0.937621 0.892744 0.377707
0.937728 0.888975 0.383612
0.078706 0.909926 0.693874
0.0772869 0.917922 0.67155
0.0775158 0.92726 0.642908
0.0825055 0.934752 0.577111
0.131014 0.937667 0.30518
0.611032 0.934798 0.270436
0.880568 0.895384 0.298238
0.937804 0.89395 0.346059
0.937789 0.894194 0.341497
0.0787366 0.907164 0.702052
0.0771344 0.915114 0.679316
0.0772259 0.92517 0.649989
0.0818341 0.934569 0.583825
0.126436 0.937713 0.32369
0.535027 0.937102 0.224735
0.853956 0.896696 0.300481
0.937728 0.893004 0.322744
0.937636 0.89247 0.312337
0.06598 0.184405 0.667018
0.0970169 0.16434 0.712016
0.267338 0.154894 0.744854
0.446769 0.14551 0.766873
0.61323 0.13933 0.767239
0.710475 0.156374 0.776486
0.708644 0.156725 0.780682
0.707362 0.157275 0.779141
0.712077 0.155169 0.785458
0.0659342 0.204486 0.634195
0.0660258 0.177218 0.658305
0.139986 0.158862 0.713527
0.393408 0.145586 0.750912
0.580118 0.134676 0.754238
0.713451 0.155566 0.764843
0.709438 0.156817 0.775357
0.709148 0.156786 0.779812
0.713909 0.154513 0.787381
0.0660563 0.231312 0.605798
0.0659037 0.204364 0.619547
0.0660105 0.169802 0.647456
0.308751 0.145724 0.727062
0.546517 0.132799 0.739956
0.715648 0.153903 0.739712
0.711482 0.156527 0.753536
0.709865 0.157122 0.761852
0.716091 0.154269 0.77554
0.0658885 0.404211 0.609125
0.065919 0.379644 0.616464
0.065919 0.34342 0.629038
0.119814 0.291356 0.704509
0.523934 0.226139 0.758038
0.715297 0.150805 0.706371
0.727443 0.149844 0.697948
0.726543 0.150317 0.703197
0.732555 0.147875 0.713222
0.0658427 0.600198 0.683009
0.065919 0.588098 0.68365
0.0658732 0.57319 0.684169
0.0659037 0.540917 0.685084
0.470207 0.553704 0.741405
0.78439 0.498344 0.751919
0.877165 0.443626 0.736324
0.87129 0.421134 0.732448
0.866621 0.407843 0.731258
0.066041 0.758953 0.740749
0.0659037 0.751232 0.732906
0.0658122 0.741955 0.7234
0.0658579 0.726848 0.707301
0.304051 0.728862 0.700893
0.716823 0.725277 0.710597
0.914733 0.691981 0.694636
0.917876 0.675593 0.691478
0.916808 0.667338 0.690761
0.0879377 0.885985 0.779858
0.0796521 0.89044 0.76466
0.0778058 0.894011 0.747723
0.0754711 0.896529 0.715434
0.0775311 0.905837 0.643229
0.60766 0.937682 0.654887
0.871382 0.879072 0.674174
0.923735 0.85977 0.671717
0.921263 0.852216 0.671992
0.089601 0.881376 0.801251
0.08159 0.8869 0.782696
0.0787976 0.891814 0.760662
0.0767987 0.901198 0.721584
0.0808576 0.92755 0.641947
0.512947 0.937606 0.598718
0.840391 0.924743 0.632914
0.936202 0.910674 0.689464
0.936919 0.910338 0.685206
0.0862135 0.879973 0.813367
0.082536 0.884642 0.793194
0.0794995 0.890181 0.768643
0.0768597 0.900023 0.725628
0.0805982 0.927199 0.643229
0.456153 0.937606 0.572763
0.802335 0.933074 0.632715
0.928588 0.91017 0.653193
0.937072 0.909529 0.662211
0.0659342 0.202075 0.708507
0.0981613 0.189425 0.766766
0.265797 0.177432 0.801541
0.449271 0.163668 0.82179
0.621057 0.145388 0.80412
0.709743 0.156222 0.782269
0.709697 0.156237 0.782254
0.708171 0.156954 0.779904
0.712016 0.1552 0.785367
0.0659342 0.218189 0.681987
0.0659495 0.20206 0.709957
0.128405 0.187579 0.774838
0.386831 0.168612 0.81651
0.581994 0.14667 0.812039
0.70959 0.156268 0.782193
0.709422 0.156344 0.781949
0.709926 0.156146 0.782483
0.712947 0.154757 0.786847
0.0660105 0.262531 0.693812
0.0659953 0.224323 0.685725
0.0659342 0.202289 0.708385
0.290837 0.175448 0.805081
0.537072 0.1523 0.819471
0.707027 0.156649 0.780499
0.706279 0.157748 0.777691
0.706935 0.157458 0.778561
0.711772 0.155322 0.785016
0.0659037 0.3953 0.685481
0.0659648 0.367376 0.69778
0.0659342 0.330816 0.709026
0.0659495 0.263767 0.75906
0.453544 0.197665 0.835874
0.674083 0.152636 0.793652
0.704433 0.158633 0.775021
0.704646 0.158541 0.775326
0.710582 0.155901 0.78323
0.0658885 0.587686 0.747311
0.0657969 0.57557 0.74728
0.0660716 0.562371 0.747372
0.0659495 0.530755 0.750118
0.370398 0.520928 0.846128
0.713344 0.475013 0.89427
0.838544 0.410071 0.867689
0.8318 0.384939 0.862318
0.827955 0.369009 0.861372
0.0682689 0.752621 0.809735
0.0657969 0.744717 0.808865
0.0657969 0.734661 0.807599
0.0657664 0.714885 0.806943
0.204974 0.700511 0.815427
0.640299 0.70663 0.855528
0.887556 0.664088 0.857954
0.900938 0.644953 0.852934
0.898909 0.636988 0.852277
0.0981155 0.870115 0.861311
0.0892958 0.866438 0.856977
0.0856031 0.859449 0.84976
0.0812238 0.847379 0.836408
0.0755474 0.828992 0.812268
0.56907 0.846174 0.821759
0.845609 0.847501 0.836118
0.924407 0.831952 0.829923
0.923522 0.823224 0.828382
0.101808 0.873762 0.876463
0.0950637 0.873808 0.871092
0.0919966 0.87332 0.862379
0.0873121 0.874632 0.841398
0.0847334 0.886152 0.790784
0.375769 0.924147 0.765743
0.783475 0.933135 0.810987
0.923995 0.91809 0.842649
0.930083 0.91487 0.831159
0.104723 0.874861 0.882887
0.0972763 0.874556 0.877256
0.0937819 0.873655 0.868086
0.0878462 0.874006 0.844892
0.0834821 0.887007 0.785473
0.293385 0.923629 0.747234
0.743694 0.935775 0.787427
0.903273 0.918776 0.805386
0.927275 0.91902 0.864805
0.06598 0.200351 0.72018
0.120775 0.18819 0.772839
0.279683 0.176425 0.803418
0.459281 0.162539 0.822232
0.634256 0.147219 0.803082
0.709728 0.156222 0.782254
0.709697 0.156237 0.782254
0.709194 0.156466 0.781521
0.711025 0.155612 0.784237
0.0659648 0.21416 0.680034
0.0659648 0.200412 0.720638
0.142596 0.186557 0.778408
0.395758 0.168124 0.817609
0.589914 0.145678 0.810254
0.709728 0.156222 0.782254
0.709514 0.156298 0.782116
0.710018 0.1561 0.782605
0.712535 0.154971 0.786099
0.0660258 0.262119 0.697322
0.0659342 0.218677 0.68336
0.06598 0.200717 0.718486
0.299718 0.17464 0.806271
0.542016 0.15172 0.819089
0.708598 0.156451 0.78143
0.707057 0.157412 0.778729
0.707546 0.157198 0.77937
0.711788 0.155306 0.785031
0.0658427 0.389563 0.724575
0.065919 0.3514 0.720088
0.0659037 0.302525 0.710582
0.0658427 0.222904 0.746715
0.439261 0.173098 0.824765
0.67097 0.150607 0.795468
0.705837 0.158022 0.776654
0.706035 0.157916 0.777111
0.710735 0.155825 0.783459
0.0659648 0.588174 0.782391
0.0658732 0.575814 0.780957
0.06598 0.559304 0.773709
0.0658732 0.516472 0.755688
0.343969 0.493095 0.84947
0.688624 0.446967 0.901152
0.825315 0.373922 0.868955
0.817029 0.346548 0.860822
0.813458 0.331945 0.859968
0.0687572 0.749081 0.851102
0.0660716 0.738415 0.852033
0.06598 0.727123 0.851942
0.0659342 0.704143 0.847745
0.144976 0.686519 0.843
0.597086 0.690364 0.902663
0.859419 0.650874 0.914321
0.887419 0.629541 0.907576
0.884199 0.621698 0.907942
0.10277 0.867216 0.889738
0.0960708 0.861769 0.887678
0.0928817 0.855161 0.884978
0.0885328 0.842481 0.880186
0.0840925 0.822553 0.877867
0.52105 0.829389 0.89514
0.80145 0.835447 0.912306
0.916075 0.813001 0.912032
0.914946 0.804211 0.911452
0.111345 0.878523 0.895628
0.105898 0.879499 0.897932
0.10515 0.879072 0.896895
0.102296 0.877241 0.891325
0.099733 0.875456 0.878401
0.229297 0.886854 0.871626
0.774044 0.914458 0.902922
0.914641 0.912474 0.907164
0.925902 0.90901 0.906279
0.109056 0.879011 0.89659
0.105913 0.879515 0.897993
0.105806 0.879515 0.898146
0.102998 0.877684 0.892714
0.0975967 0.874525 0.873625
0.139757 0.886824 0.858808
0.715877 0.926329 0.886015
0.899168 0.922286 0.904234
0.923506 0.920592 0.916411
0.0659953 0.199496 0.725246
0.132235 0.18706 0.775433
0.28719 0.175784 0.804532
0.46424 0.161761 0.822232
0.640787 0.147662 0.801862
0.709712 0.156237 0.782238
0.709697 0.156237 0.782254
0.709758 0.156207 0.782284
0.711391 0.155474 0.784726
0.06598 0.211582 0.678538
0.0659953 0.199649 0.725689
0.151537 0.186084 0.780575
0.400977 0.16788 0.818173
0.594675 0.145144 0.80911
0.709514 0.156298 0.782116
0.709499 0.156313 0.782101
0.710018 0.1561 0.782574
0.712963 0.154757 0.786862
0.0660258 0.259937 0.696406
0.0657664 0.216068 0.682124
0.0659953 0.199985 0.72401
0.305608 0.174243 0.806973
0.545113 0.151324 0.818784
0.709117 0.156481 0.781476
0.707073 0.157412 0.778744
0.707546 0.157183 0.779385
0.711574 0.155383 0.784878
0.0659495 0.374014 0.722164
0.0658885 0.335744 0.717174
0.0658427 0.284047 0.705989
0.0659495 0.205127 0.739086
0.438743 0.168139 0.822568
0.670924 0.1505 0.7953
0.705913 0.157977 0.776837
0.70605 0.157916 0.777157
0.71075 0.155825 0.783444
0.0659648 0.583642 0.784695
0.06598 0.569131 0.778897
0.0660258 0.550591 0.769528
0.0657816 0.504952 0.751629
0.333867 0.476066 0.846403
0.678126 0.427878 0.897749
0.818387 0.350179 0.862547
0.809293 0.323674 0.854139
0.80528 0.307988 0.85275
0.0678874 0.744717 0.859297
0.0659342 0.733898 0.858122
0.0658122 0.721294 0.85417
0.0659953 0.696223 0.845151
0.134997 0.676081 0.837873
0.589517 0.6795 0.902464
0.851835 0.639658 0.914427
0.884749 0.617151 0.906935
0.882155 0.608972 0.90695
0.103151 0.866682 0.892699
0.0972457 0.860945 0.892317
0.0940566 0.85391 0.890089
0.0890516 0.839796 0.885939
0.0820783 0.815473 0.88072
0.50901 0.819211 0.897642
0.787091 0.824765 0.920943
0.91281 0.800717 0.916396
0.911818 0.792035 0.916259
0.11667 0.877348 0.893477
0.110521 0.878691 0.896025
0.110079 0.878798 0.896208
0.110079 0.878798 0.896208
0.110231 0.87924 0.896361
0.155901 0.882185 0.900801
0.752819 0.910048 0.923796
0.905119 0.907073 0.920668
0.922881 0.90161 0.91809
0.108949 0.879026 0.896605
0.105913 0.879515 0.897993
0.105806 0.879515 0.898146
0.105806 0.879515 0.898146
0.106065 0.879881 0.898375
0.112062 0.886763 0.900969
0.680583 0.920958 0.922667
0.902113 0.922011 0.921904
0.923781 0.920546 0.919432
