bundles/resolve-cinematic-luts/Phantom Luts/Canon Alexa LUT/ATOMOS Monitoring LUTs/C-Log 3/Utopia Canon CL3-Legacy AML.cube
TITLE "Generated by Resolve"
LUT_3D_SIZE 33
0.0776989 0.100633 0.10901
0.0776989 0.100633 0.10901
0.0823377 0.100587 0.109133
0.131228 0.0970474 0.110399
0.170825 0.0947738 0.108415
0.208881 0.0933242 0.107027
0.249454 0.0920882 0.107012
0.296544 0.0898451 0.107713
0.345876 0.0880598 0.111345
0.394644 0.0863508 0.120546
0.444114 0.0881056 0.130419
0.49163 0.0890822 0.138888
0.534112 0.0908675 0.151232
0.575219 0.0938888 0.167193
0.615061 0.0975814 0.184268
0.657786 0.10222 0.205142
0.704036 0.108476 0.230259
0.747219 0.11545 0.25687
0.763195 0.118837 0.274037
0.765515 0.119646 0.284703
0.766049 0.120043 0.293614
0.766415 0.120485 0.30135
0.766598 0.120912 0.308461
0.766674 0.121233 0.314565
0.766644 0.121508 0.31989
0.766491 0.121675 0.324651
0.766186 0.121675 0.328603
0.766079 0.121599 0.332097
0.766232 0.121523 0.335332
0.76759 0.121248 0.338094
0.769268 0.120821 0.340887
0.771527 0.120211 0.343374
0.772763 0.11989 0.345083
0.0776989 0.100633 0.10901
0.0776989 0.100633 0.10901
0.0776989 0.100633 0.10901
0.0967117 0.0999161 0.11075
0.140444 0.0972152 0.108812
0.180392 0.0949111 0.105821
0.219272 0.0928969 0.102617
0.262333 0.0909438 0.0992447
0.312856 0.0883955 0.0958419
0.364096 0.0882429 0.0953536
0.413993 0.0882429 0.0975967
0.461631 0.0876936 0.100877
0.505623 0.0896773 0.118273
0.550668 0.0921035 0.132708
0.593027 0.0953994 0.14667
0.635493 0.0995346 0.164416
0.684108 0.105348 0.187411
0.73138 0.112535 0.215534
0.75523 0.11722 0.236271
0.760967 0.118578 0.247715
0.762615 0.118883 0.256153
0.763455 0.11899 0.26389
0.764187 0.11899 0.271702
0.765087 0.119356 0.2795
0.765606 0.119738 0.286671
0.765957 0.120012 0.292546
0.766247 0.120256 0.297536
0.766613 0.120455 0.301869
0.767208 0.1205 0.305669
0.768811 0.120195 0.308736
0.770901 0.119722 0.31133
0.77319 0.119066 0.313756
0.774472 0.118746 0.315511
0.0776989 0.100633 0.10901
0.0776989 0.100633 0.10901
0.0776989 0.100633 0.10901
0.0796674 0.10132 0.109117
0.109621 0.102205 0.110231
0.146426 0.100755 0.107042
0.187121 0.0988632 0.103563
0.231556 0.0968338 0.0996567
0.282277 0.0935531 0.0954757
0.337881 0.0893263 0.0908064
0.390463 0.0872969 0.089662
0.441291 0.0852369 0.0897536
0.488548 0.0881056 0.0955062
0.531746 0.0907759 0.1066
0.570336 0.09337 0.120089
0.609964 0.0970321 0.134508
0.656031 0.1019 0.153857
0.705043 0.108354 0.17583
0.736584 0.113603 0.196384
0.746731 0.11577 0.209094
0.751675 0.116548 0.219104
0.755627 0.117128 0.22916
0.758938 0.118013 0.238468
0.761181 0.118471 0.246098
0.762432 0.118715 0.252644
0.763363 0.118944 0.258686
0.763699 0.118944 0.263508
0.764248 0.118807 0.268009
0.765194 0.118761 0.272435
0.766949 0.118547 0.276112
0.769116 0.11812 0.279408
0.772961 0.117144 0.282139
0.776898 0.116091 0.284489
0.0755016 0.114977 0.110216
0.0778668 0.107774 0.110033
0.0794232 0.103975 0.110002
0.0789044 0.101656 0.109377
0.0853437 0.103807 0.109667
0.121538 0.10605 0.109606
0.155398 0.106081 0.10605
0.199466 0.105043 0.10309
0.251621 0.101991 0.0992905
0.310689 0.0975052 0.0945296
0.369253 0.09308 0.090486
0.425467 0.0886397 0.0869154
0.475166 0.0865949 0.087129
0.519615 0.0894026 0.0939956
0.560586 0.0927291 0.10515
0.599527 0.0961013 0.122393
0.638834 0.0999466 0.137606
0.686564 0.105608 0.159014
0.722423 0.11107 0.174228
0.73106 0.11281 0.179553
0.735134 0.113481 0.185977
0.740032 0.114 0.194217
0.745052 0.114992 0.202762
0.74934 0.115846 0.210895
0.752773 0.116365 0.218601
0.755886 0.116716 0.225711
0.758495 0.117342 0.232258
0.760494 0.117784 0.237827
0.762005 0.117968 0.242267
0.763851 0.117845 0.245548
0.766125 0.117449 0.248646
0.770275 0.116396 0.250813
0.774441 0.115251 0.252735
0.0698711 0.161273 0.0979171
0.0708476 0.155108 0.0957198
0.0748302 0.144152 0.099321
0.0801251 0.134844 0.103487
0.0947738 0.125231 0.105028
0.12134 0.131441 0.106371
0.148562 0.133822 0.10927
0.189029 0.128801 0.109133
0.230991 0.12224 0.105074
0.280003 0.112688 0.0993515
0.342535 0.104845 0.0934005
0.404639 0.0977035 0.0901198
0.461799 0.0920119 0.087068
0.509148 0.08925 0.0871138
0.551446 0.091371 0.0947738
0.590692 0.0951553 0.109941
0.630732 0.0992905 0.127993
0.672694 0.104097 0.145388
0.718578 0.110597 0.167971
0.730419 0.112474 0.175097
0.730785 0.112596 0.176043
0.730938 0.112627 0.177111
0.731395 0.112673 0.17847
0.733944 0.113069 0.182025
0.73727 0.113359 0.187472
0.740841 0.113893 0.19353
0.744427 0.114565 0.199283
0.747173 0.115175 0.20444
0.749783 0.115618 0.209033
0.752392 0.115816 0.212985
0.755688 0.115496 0.216236
0.760281 0.114412 0.218509
0.76553 0.113405 0.220752
0.067216 0.201221 0.0877241
0.0685435 0.194369 0.0837568
0.068986 0.181552 0.0892653
0.0766461 0.172808 0.0907759
0.0957809 0.163088 0.0929274
0.132494 0.159518 0.0987411
0.149859 0.160449 0.104738
0.185809 0.162112 0.107164
0.234089 0.157839 0.10779
0.287373 0.150851 0.108019
0.338628 0.143984 0.104082
0.391058 0.131914 0.0991989
0.444327 0.111482 0.0912032
0.49723 0.0979324 0.0886397
0.542184 0.0922103 0.088426
0.582589 0.0939956 0.097734
0.622019 0.098085 0.116014
0.663539 0.102785 0.133959
0.705699 0.108431 0.156603
0.726238 0.111727 0.169329
0.730282 0.11249 0.172747
0.730602 0.112566 0.173648
0.730907 0.112627 0.174624
0.731197 0.112673 0.175402
0.731411 0.112703 0.17615
0.731594 0.112718 0.176974
0.731899 0.112749 0.177859
0.732387 0.11281 0.178927
0.733822 0.113039 0.180835
0.736233 0.113176 0.183078
0.738705 0.112795 0.184939
0.743252 0.111971 0.186587
0.748135 0.111223 0.188067
0.065919 0.242985 0.0793622
0.066453 0.236606 0.0771801
0.0668193 0.225193 0.079408
0.0728008 0.214725 0.0819104
0.0818036 0.207828 0.0840772
0.124361 0.196628 0.0907149
0.159625 0.19089 0.100221
0.187594 0.190143 0.106477
0.2262 0.193149 0.105837
0.281529 0.188342 0.105852
0.346532 0.175753 0.108461
0.398245 0.165499 0.106523
0.44622 0.156466 0.10338
0.494469 0.144228 0.0995193
0.537377 0.121416 0.0943923
0.575799 0.100664 0.0923323
0.61294 0.0959793 0.100725
0.654246 0.101411 0.121157
0.695827 0.107301 0.141772
0.722759 0.111421 0.159625
0.728267 0.112215 0.165286
0.728588 0.112261 0.167605
0.728786 0.112276 0.169299
0.729137 0.112337 0.170184
0.729519 0.112383 0.170977
0.729854 0.112428 0.171725
0.730312 0.11249 0.172656
0.730694 0.112596 0.173373
0.73109 0.112673 0.174212
0.73196 0.112612 0.174777
0.733074 0.112383 0.175021
0.735073 0.111833 0.17499
0.737224 0.111254 0.174746
0.0659037 0.291859 0.0722057
0.065919 0.286625 0.0675822
0.0660105 0.276356 0.0695506
0.0689708 0.264012 0.0719158
0.0749981 0.256016 0.0740063
0.0961013 0.245228 0.0781567
0.144228 0.234684 0.0858625
0.196063 0.225635 0.101656
0.228824 0.223972 0.107683
0.272709 0.227634 0.107622
0.336141 0.224231 0.104051
0.399756 0.211215 0.108141
0.45774 0.196979 0.110475
0.501656 0.188205 0.108202
0.54316 0.175372 0.107408
0.581231 0.158206 0.105623
0.61706 0.129854 0.100465
0.65214 0.107164 0.102144
0.68777 0.105898 0.124788
0.72343 0.111589 0.148852
0.7308 0.113054 0.155413
0.730251 0.112871 0.156832
0.729473 0.112688 0.157839
0.728725 0.11249 0.158831
0.728054 0.112322 0.159716
0.727672 0.112169 0.160678
0.727718 0.112169 0.16173
0.727932 0.112184 0.163195
0.72813 0.112215 0.16434
0.72871 0.112108 0.165301
0.729747 0.111864 0.165957
0.73164 0.111376 0.166232
0.733806 0.110796 0.166308
0.06598 0.35259 0.067277
0.0658732 0.349157 0.0658732
0.065919 0.339132 0.065919
0.065919 0.323033 0.065919
0.0723888 0.31165 0.0660258
0.0793164 0.303883 0.0666056
0.125353 0.291707 0.0730449
0.175982 0.278965 0.0836347
0.237217 0.267369 0.102525
0.276783 0.264637 0.108614
0.327779 0.269032 0.108309
0.388052 0.268986 0.105364
0.450736 0.256107 0.108248
0.509178 0.238666 0.112718
0.556802 0.223957 0.116518
0.591836 0.213794 0.116762
0.626551 0.196918 0.11725
0.660609 0.173037 0.115755
0.699046 0.138933 0.111681
0.729198 0.118425 0.123156
0.73901 0.115145 0.136263
0.737667 0.114641 0.142763
0.736355 0.114092 0.147173
0.735485 0.113924 0.149493
0.734691 0.113756 0.150561
0.733822 0.113603 0.151354
0.733135 0.113481 0.152255
0.732647 0.113329 0.153033
0.73228 0.113268 0.153796
0.732479 0.113085 0.154269
0.733043 0.112779 0.154559
0.734936 0.112123 0.154437
0.737026 0.111437 0.154101
0.0661021 0.414923 0.0663615
0.0685435 0.41445 0.0659037
0.0683757 0.409094 0.06598
0.0675059 0.393576 0.0661021
0.0708476 0.379736 0.0660563
0.0761883 0.371084 0.0659648
0.088777 0.362203 0.0659037
0.15111 0.350637 0.0672465
0.213245 0.330404 0.0824292
0.287068 0.316564 0.104356
0.334981 0.312154 0.110506
0.38497 0.318029 0.110536
0.440375 0.321736 0.107729
0.499352 0.310262 0.108095
0.555322 0.290944 0.114839
0.604349 0.27155 0.123842
0.641901 0.257527 0.127581
0.673304 0.241352 0.129305
0.709575 0.219318 0.131121
0.744076 0.188769 0.130144
0.76144 0.15996 0.127871
0.758709 0.139712 0.125811
0.752071 0.127169 0.122942
0.748531 0.121096 0.123323
0.746136 0.118029 0.128191
0.744198 0.115892 0.132784
0.743282 0.115785 0.136858
0.742184 0.11574 0.139681
0.740703 0.115099 0.141039
0.740154 0.11458 0.141497
0.740322 0.114183 0.141482
0.741726 0.113588 0.141421
0.743557 0.112856 0.141176
0.068925 0.477607 0.0677958
0.0721599 0.478553 0.0660563
0.071809 0.474632 0.0659037
0.0713054 0.463981 0.0659648
0.0702678 0.449897 0.0660868
0.078172 0.43801 0.066041
0.0836957 0.429633 0.066041
0.109117 0.421088 0.066041
0.191592 0.411185 0.0659495
0.262837 0.38378 0.0856641
0.347051 0.370687 0.107256
0.395483 0.365881 0.112764
0.442359 0.371283 0.113558
0.492134 0.376577 0.111177
0.546349 0.371572 0.108721
0.597284 0.354391 0.118273
0.646799 0.332235 0.129671
0.691615 0.307469 0.139803
0.726711 0.291814 0.143709
0.759548 0.27129 0.147173
0.783871 0.245518 0.148791
0.784344 0.230182 0.14641
0.780285 0.217487 0.14316
0.777295 0.205997 0.140185
0.773968 0.194232 0.137133
0.771389 0.182528 0.133974
0.769421 0.173434 0.131975
0.767773 0.165438 0.130297
0.765484 0.157351 0.128023
0.763714 0.148684 0.128115
0.761135 0.142458 0.126207
0.760082 0.137957 0.124804
0.760632 0.134112 0.123476
0.0751659 0.535668 0.0718547
0.0789197 0.536736 0.066041
0.0799573 0.534585 0.066041
0.0790112 0.528878 0.06598
0.0773785 0.518624 0.0660105
0.0800946 0.507347 0.0660716
0.0871901 0.497047 0.0660258
0.0968338 0.488884 0.065919
0.142748 0.480964 0.066041
0.240253 0.469535 0.0679332
0.321904 0.434714 0.0927443
0.407858 0.423484 0.111437
0.45481 0.418265 0.115709
0.497292 0.422583 0.116808
0.543282 0.427878 0.115831
0.592264 0.428519 0.117601
0.637949 0.415015 0.123766
0.686091 0.395346 0.13547
0.739116 0.371756 0.149828
0.78323 0.347219 0.162905
0.808957 0.327199 0.16553
0.811414 0.313512 0.163714
0.808362 0.302617 0.161822
0.805158 0.292973 0.160235
0.802121 0.283925 0.158556
0.799207 0.275578 0.156741
0.796262 0.267536 0.15491
0.793927 0.260594 0.153674
0.792004 0.254398 0.152148
0.790509 0.249302 0.15108
0.788998 0.24477 0.149874
0.788602 0.241077 0.148928
0.788525 0.237568 0.147341
0.0834974 0.590967 0.0816968
0.086717 0.59234 0.066041
0.0902876 0.591867 0.066041
0.0894789 0.588754 0.0658732
0.0881208 0.580713 0.0659342
0.0855573 0.570169 0.0659953
0.0934768 0.560586 0.0659495
0.10277 0.551629 0.065919
0.121477 0.54345 0.066041
0.192538 0.536568 0.065919
0.298253 0.522515 0.073579
0.388678 0.482765 0.102174
0.465583 0.474098 0.114839
0.510826 0.468605 0.118654
0.548974 0.472419 0.122499
0.592157 0.47715 0.125032
0.634256 0.479423 0.126787
0.679026 0.472175 0.131212
0.728954 0.456168 0.142535
0.779477 0.433951 0.157092
0.825101 0.409339 0.1738
0.843992 0.390143 0.182635
0.844465 0.379294 0.183566
0.84184 0.371374 0.181933
0.838285 0.364599 0.179843
0.835218 0.358816 0.177859
0.831418 0.353414 0.175555
0.828473 0.348379 0.173663
0.825818 0.344137 0.172412
0.823316 0.340047 0.170993
0.821439 0.336248 0.169451
0.820676 0.333333 0.16846
0.820142 0.330419 0.167041
0.091722 0.644877 0.0976883
0.0953689 0.64651 0.0834058
0.101137 0.646189 0.0659953
0.101427 0.644083 0.0659037
0.100328 0.639963 0.0661173
0.0982376 0.631525 0.0659342
0.100343 0.62121 0.0660258
0.112734 0.61146 0.0660105
0.124483 0.603433 0.06598
0.153811 0.596216 0.0658579
0.260182 0.587335 0.0659495
0.366567 0.569879 0.0854963
0.451133 0.526726 0.109545
0.520897 0.522408 0.121675
0.563714 0.516915 0.12723
0.596551 0.518914 0.130831
0.638041 0.523613 0.134981
0.676463 0.52665 0.135912
0.723293 0.52549 0.140307
0.769543 0.512535 0.149203
0.815412 0.494942 0.163088
0.848829 0.475593 0.176013
0.852872 0.46566 0.178698
0.852888 0.458167 0.179782
0.852735 0.451026 0.180529
0.852461 0.444312 0.180972
0.851911 0.43798 0.181353
0.851896 0.432792 0.182177
0.851362 0.427802 0.182269
0.851255 0.424063 0.182681
0.850874 0.420584 0.182742
0.850736 0.417563 0.182452
0.851392 0.415412 0.182025
0.102007 0.699626 0.112123
0.103563 0.702129 0.105531
0.111421 0.702602 0.0677195
0.113039 0.701152 0.0659342
0.112596 0.698558 0.0659342
0.110918 0.690883 0.0659495
0.108049 0.681239 0.06598
0.117937 0.670802 0.0659648
0.138872 0.66096 0.0659495
0.154101 0.652873 0.0660105
0.195682 0.648386 0.0660105
0.335882 0.635172 0.0757305
0.434043 0.6121 0.100816
0.510826 0.568719 0.120027
0.57261 0.568566 0.131411
0.613199 0.563027 0.137057
0.641855 0.564202 0.140826
0.680964 0.56846 0.145953
0.718257 0.571359 0.147646
0.762341 0.572259 0.151461
0.807797 0.566308 0.15787
0.846448 0.551568 0.168124
0.856489 0.542458 0.172457
0.856703 0.536004 0.173281
0.85655 0.530648 0.173922
0.85594 0.525475 0.173999
0.855924 0.521141 0.174655
0.855375 0.516869 0.174609
0.855222 0.513313 0.174975
0.855039 0.510292 0.175235
0.854826 0.507515 0.175372
0.854795 0.505241 0.174792
0.855436 0.503685 0.174334
0.113497 0.75848 0.12639
0.113878 0.762341 0.12459
0.121324 0.764416 0.0895857
0.125704 0.76408 0.0658732
0.125292 0.76144 0.0660563
0.124315 0.757534 0.065919
0.121874 0.745251 0.0659648
0.125261 0.732921 0.0658885
0.144335 0.721828 0.0659342
0.164904 0.711528 0.065919
0.182086 0.702953 0.0660716
0.261158 0.698528 0.0664225
0.416327 0.681773 0.0932631
0.496773 0.652033 0.115877
0.565606 0.608484 0.134142
0.621439 0.612894 0.142153
0.660258 0.607569 0.147875
0.68751 0.607965 0.151965
0.722484 0.611383 0.15555
0.762005 0.614115 0.159823
0.798459 0.615396 0.163165
0.83801 0.613046 0.167788
0.861021 0.608209 0.171328
0.863844 0.603998 0.171847
0.862928 0.599619 0.171664
0.862333 0.595789 0.171679
0.861555 0.591959 0.171313
0.861067 0.5888 0.171298
0.860761 0.586007 0.171359
0.860334 0.583291 0.171283
0.860029 0.581262 0.171328
0.859983 0.579538 0.17113
0.860059 0.577935 0.170581
0.127184 0.824796 0.14345
0.127169 0.828916 0.143511
0.133104 0.831846 0.117281
0.141543 0.8327 0.0805371
0.141543 0.831388 0.0737926
0.140475 0.82797 0.0701305
0.138552 0.819013 0.0666972
0.135943 0.805859 0.0660105
0.150729 0.791699 0.0660105
0.180209 0.777035 0.0658885
0.190646 0.765927 0.0684367
0.228367 0.757717 0.0702831
0.360525 0.744762 0.0813153
0.489998 0.733211 0.111727
0.555306 0.691218 0.129839
0.617487 0.649851 0.149401
0.667689 0.657511 0.153399
0.70631 0.652155 0.159091
0.733593 0.651865 0.161883
0.764858 0.654078 0.167773
0.800717 0.656245 0.172747
0.833722 0.657099 0.176242
0.861967 0.655482 0.17937
0.86537 0.652949 0.179568
0.864973 0.650217 0.178805
0.864866 0.647669 0.178378
0.864408 0.64509 0.177554
0.864515 0.643168 0.17731
0.864515 0.641291 0.176989
0.864439 0.639567 0.176608
0.864302 0.638193 0.176272
0.864286 0.636973 0.175967
0.864256 0.63592 0.175662
0.14287 0.88922 0.167361
0.142672 0.893568 0.169116
0.14966 0.896162 0.142397
0.160433 0.897398 0.108766
0.163622 0.896254 0.0944533
0.163592 0.893126 0.0888685
0.161776 0.889891 0.0864118
0.156695 0.877302 0.081178
0.160815 0.862318 0.0775464
0.190112 0.847517 0.0752117
0.207523 0.833844 0.0759289
0.228412 0.822751 0.0783856
0.29662 0.817441 0.081529
0.464759 0.796857 0.103502
0.556191 0.783551 0.128649
0.610956 0.733562 0.147021
0.666133 0.694163 0.164309
0.713771 0.703212 0.163348
0.751369 0.697337 0.169497
0.781323 0.696254 0.175769
0.804959 0.695964 0.181262
0.835782 0.697948 0.18677
0.864576 0.698497 0.19089
0.87599 0.696666 0.192065
0.876524 0.694667 0.191577
0.875837 0.69247 0.19089
0.875196 0.690288 0.190188
0.874479 0.688563 0.189471
0.874205 0.687282 0.189227
0.873747 0.685832 0.18883
0.87335 0.684627 0.188464
0.873121 0.683696 0.188266
0.87274 0.682811 0.187961
0.160037 0.936461 0.194797
0.158877 0.936996 0.196094
0.166918 0.936629 0.168017
0.177386 0.935637 0.139879
0.186618 0.933684 0.11989
0.188571 0.932952 0.116213
0.189609 0.932555 0.114199
0.188876 0.93106 0.111849
0.18529 0.923217 0.104402
0.204929 0.911513 0.0940414
0.229175 0.897612 0.0879377
0.243977 0.887251 0.0903029
0.279942 0.877791 0.0916457
0.401205 0.867857 0.0970626
0.548928 0.850401 0.125154
0.616205 0.824094 0.144427
0.664607 0.773968 0.168826
0.714199 0.744076 0.181292
0.759045 0.753384 0.178256
0.798703 0.746746 0.185
0.827237 0.744274 0.191699
0.849012 0.743542 0.198001
0.870176 0.743709 0.203677
0.88864 0.743908 0.207736
0.890181 0.742077 0.207416
0.88957 0.739925 0.206714
0.889067 0.738155 0.20621
0.888457 0.736629 0.205509
0.888121 0.73521 0.205081
0.88777 0.733776 0.204685
0.887373 0.732464 0.204273
0.887068 0.731456 0.203922
0.886778 0.730663 0.203601
0.158694 0.937636 0.20914
0.157031 0.937636 0.209689
0.165393 0.937591 0.179522
0.175341 0.937072 0.149767
0.185779 0.935485 0.126528
0.187427 0.935149 0.12372
0.190356 0.934569 0.119112
0.190875 0.934432 0.11841
0.192676 0.934569 0.117708
0.215198 0.936645 0.112963
0.247074 0.937133 0.106752
0.268391 0.935775 0.106218
0.289799 0.931594 0.108415
0.360571 0.925582 0.107988
0.52491 0.904997 0.12076
0.620279 0.897078 0.146288
0.668925 0.855848 0.166888
0.712902 0.808057 0.198108
0.758892 0.789181 0.200488
0.805325 0.79794 0.195544
0.842191 0.79234 0.202441
0.868955 0.789151 0.210193
0.888701 0.788235 0.217548
0.903822 0.787518 0.22417
0.906004 0.785946 0.225025
0.90518 0.784085 0.22446
0.90428 0.782498 0.223941
0.903639 0.781308 0.223438
0.902724 0.779904 0.222644
0.902266 0.778775 0.222217
0.901946 0.777722 0.221775
0.901778 0.776867 0.221454
0.90164 0.776181 0.22118
0.15729 0.937652 0.213397
0.157549 0.937636 0.208148
0.166125 0.937575 0.177462
0.175174 0.937102 0.150256
0.186618 0.935286 0.1252
0.188388 0.934951 0.12221
0.190005 0.93463 0.119646
0.189731 0.934707 0.120027
0.18938 0.935286 0.122377
0.209613 0.937301 0.120027
0.246403 0.937591 0.114107
0.280385 0.937591 0.112581
0.298039 0.937713 0.119966
0.343343 0.937575 0.122698
0.47013 0.934768 0.123339
0.609369 0.91754 0.143618
0.673594 0.907561 0.166781
0.715434 0.87892 0.198505
0.759167 0.83476 0.226642
0.804746 0.830686 0.225299
0.847593 0.838148 0.216831
0.881254 0.834058 0.224186
0.905684 0.830915 0.233005
0.922942 0.830274 0.242267
0.930312 0.829297 0.247379
0.930358 0.828016 0.24741
0.929747 0.826688 0.246723
0.929015 0.825315 0.246235
0.928267 0.824018 0.246204
0.927611 0.822736 0.246677
0.927138 0.82179 0.246906
0.926726 0.821256 0.246906
0.926238 0.820645 0.246479
0.159319 0.937652 0.216312
0.157397 0.937667 0.217624
0.163622 0.937652 0.19237
0.172244 0.937301 0.163455
0.183749 0.935851 0.133211
0.188495 0.934874 0.123598
0.189776 0.934646 0.120974
0.190204 0.934539 0.120195
0.189837 0.934646 0.120897
0.19826 0.936568 0.124636
0.243778 0.93756 0.124331
0.28864 0.937667 0.122179
0.308736 0.937606 0.132753
0.34403 0.937636 0.136477
0.433692 0.937362 0.139132
0.5888 0.921767 0.146075
0.673747 0.909483 0.167224
0.718837 0.905684 0.201831
0.760937 0.892958 0.233585
0.807172 0.859525 0.255116
0.848951 0.865583 0.250278
0.885054 0.872389 0.249119
0.914534 0.870054 0.258198
0.934112 0.86714 0.267216
0.937652 0.867597 0.272541
0.937652 0.866499 0.273106
0.937652 0.865125 0.273136
0.937499 0.863828 0.272953
0.937667 0.862669 0.273091
0.937713 0.861784 0.272709
0.937713 0.861189 0.272404
0.937713 0.860624 0.272038
0.937713 0.860121 0.271717
0.155688 0.937667 0.218265
0.155993 0.937652 0.215503
0.158495 0.937636 0.20383
0.166857 0.93756 0.177035
0.17615 0.936996 0.150378
0.187793 0.935027 0.124819
0.189425 0.934707 0.121553
0.19057 0.934462 0.119554
0.190341 0.934508 0.119921
0.192035 0.935653 0.123842
0.231281 0.937728 0.125048
0.281651 0.937621 0.123568
0.312566 0.937621 0.134371
0.348882 0.937652 0.143526
0.426246 0.937758 0.159365
0.557366 0.93225 0.177829
0.67158 0.918212 0.216846
0.719478 0.910506 0.224475
0.75935 0.90457 0.236362
0.806806 0.899306 0.269047
0.851499 0.888289 0.279576
0.885588 0.890867 0.275959
0.914672 0.89134 0.275517
0.936385 0.891157 0.286748
0.937713 0.889632 0.280613
0.937697 0.889418 0.279316
0.937697 0.889418 0.278553
0.937697 0.889418 0.27779
0.937697 0.889372 0.277195
0.937697 0.889281 0.276555
0.937697 0.889204 0.275898
0.937697 0.889113 0.275273
0.937697 0.889052 0.274678
0.151049 0.937636 0.226917
0.155947 0.937652 0.210712
0.155367 0.937652 0.2112
0.161746 0.937652 0.190555
0.170672 0.937407 0.163989
0.182742 0.936049 0.134447
0.188403 0.934905 0.123461
0.190387 0.934508 0.119875
0.190448 0.934493 0.119753
0.189929 0.934997 0.122393
0.22005 0.937514 0.124834
0.271733 0.937652 0.123751
0.309407 0.937606 0.132204
0.34165 0.937606 0.142565
0.406638 0.937621 0.157107
0.529107 0.93518 0.180529
0.659373 0.92108 0.220386
0.714351 0.913542 0.241917
0.754818 0.905592 0.234028
0.799619 0.902708 0.268086
0.848646 0.895094 0.293111
0.883589 0.895171 0.291768
0.913283 0.892836 0.287587
0.934707 0.892332 0.297856
0.937545 0.89189 0.304707
0.937545 0.891661 0.302983
0.937545 0.891676 0.302953
0.937545 0.891691 0.302724
0.937545 0.891737 0.302235
0.937545 0.891768 0.30161
0.937545 0.891768 0.30161
0.937545 0.891737 0.30222
0.937545 0.891691 0.302815
0.147143 0.937667 0.238727
0.155352 0.937652 0.211749
0.154635 0.937652 0.213062
0.157946 0.937621 0.201175
0.166094 0.937575 0.175952
0.176028 0.936996 0.149416
0.187823 0.935012 0.124483
0.189609 0.934676 0.121202
0.19028 0.934524 0.120043
0.189837 0.934722 0.121309
0.207507 0.93724 0.125231
0.262577 0.937713 0.12398
0.305989 0.937667 0.12958
0.335531 0.937591 0.141451
0.394797 0.937606 0.155154
0.504372 0.936568 0.177157
0.644984 0.922606 0.211276
0.708721 0.9149 0.243305
0.749004 0.906523 0.231891
0.791714 0.903334 0.26273
0.841962 0.895308 0.293034
0.878447 0.896101 0.291463
0.908064 0.8934 0.288396
0.932296 0.892271 0.293767
0.937545 0.892058 0.305394
0.937545 0.891691 0.303334
0.937545 0.891691 0.303181
0.937545 0.891691 0.302815
0.937545 0.891737 0.302235
0.93753 0.891798 0.301335
0.93753 0.891829 0.300649
0.93753 0.891844 0.300298
0.93753 0.891829 0.300542
0.14226 0.937636 0.248295
0.152758 0.937606 0.21677
0.15494 0.937652 0.21062
0.155337 0.937636 0.208728
0.161959 0.937636 0.187411
0.171481 0.937362 0.16054
0.186801 0.93521 0.126116
0.189242 0.934737 0.12192
0.190402 0.934508 0.119844
0.190021 0.934585 0.120485
0.200488 0.936782 0.124849
0.25359 0.937652 0.124086
0.301625 0.937743 0.127306
0.329976 0.937758 0.140612
0.384985 0.937682 0.153109
0.484565 0.937209 0.173587
0.629191 0.924193 0.203525
0.703258 0.916259 0.244907
0.743267 0.907622 0.233631
0.785153 0.90367 0.257694
0.835691 0.897124 0.289937
0.873686 0.896483 0.290806
0.903471 0.893797 0.288579
0.929274 0.892332 0.288792
0.937575 0.892256 0.30515
0.937545 0.891691 0.303014
0.937545 0.891676 0.303105
0.937545 0.891691 0.302815
0.937545 0.891737 0.302235
0.93753 0.891798 0.301335
0.93753 0.891829 0.300649
0.93753 0.891844 0.300298
0.93753 0.891844 0.300298
0.13875 0.937606 0.258564
0.149248 0.937621 0.223255
0.154345 0.937621 0.207752
0.15378 0.937591 0.210468
0.158526 0.937606 0.195605
0.16791 0.937545 0.169192
0.181521 0.936248 0.136873
0.188388 0.934905 0.123507
0.190539 0.934462 0.1196
0.190249 0.934524 0.120104
0.196429 0.936355 0.124285
0.245274 0.937575 0.124758
0.296361 0.937728 0.125872
0.325429 0.937713 0.139513
0.376791 0.937636 0.150805
0.468421 0.937407 0.169802
0.613809 0.926513 0.198413
0.698528 0.917342 0.24593
0.738018 0.908797 0.236057
0.779522 0.904005 0.253193
0.829618 0.899336 0.286183
0.869307 0.896483 0.290562
0.899275 0.894148 0.289235
0.926436 0.892348 0.285298
0.937636 0.892515 0.303838
0.937545 0.891798 0.302037
0.937545 0.891752 0.302159
0.937545 0.891752 0.302098
0.937545 0.891783 0.301625
0.93753 0.891783 0.301427
