bundles/resolve-cinematic-luts/Phantom Luts/Canon Alexa LUT/ATOMOS Monitoring LUTs/C-Log 3/Utopia Canon CL3-Legacy AML.cube
TITLE "Generated by Resolve"
LUT_3D_SIZE 5
0.0776989 0.100633 0.10901
0.345876 0.0880598 0.111345
0.704036 0.108476 0.230259
0.766644 0.121508 0.31989
0.772763 0.11989 0.345083
0.06598 0.35259 0.067277
0.237217 0.267369 0.102525
0.626551 0.196918 0.11725
0.734691 0.113756 0.150561
0.737026 0.111437 0.154101
0.127184 0.824796 0.14345
0.150729 0.791699 0.0660105
0.667689 0.657511 0.153399
0.864973 0.650217 0.178805
0.864256 0.63592 0.175662
0.147143 0.937667 0.238727
0.19028 0.934524 0.120043
0.644984 0.922606 0.211276
0.937545 0.892058 0.305394
0.93753 0.891829 0.300542
0.125658 0.937606 0.296437
0.189014 0.934691 0.125719
0.547417 0.933776 0.188434
0.933913 0.891905 0.297993
0.93753 0.891798 0.300999
0.065919 0.114168 0.272068
0.306233 0.0961318 0.325887
0.695781 0.118318 0.429526
0.771374 0.132906 0.484001
0.77641 0.131151 0.50454
0.0659953 0.246815 0.243656
0.196414 0.224247 0.228946
0.645243 0.102739 0.209613
0.771527 0.119692 0.31046
0.77583 0.118654 0.33637
0.0658579 0.73579 0.338781
0.105974 0.758343 0.142504
0.64239 0.631342 0.147265
0.863584 0.604028 0.171923
0.860151 0.578637 0.170642
0.094316 0.937652 0.458915
0.142092 0.937636 0.246448
0.474403 0.937316 0.171542
0.936217 0.892485 0.302693
0.93753 0.891844 0.300298
0.0860304 0.937331 0.49926
0.126589 0.937682 0.3149
0.378775 0.937652 0.154818
0.91223 0.892805 0.291752
0.93753 0.892012 0.297246
0.0659037 0.145876 0.562005
0.287236 0.123064 0.612421
0.641474 0.129061 0.639765
0.728832 0.149111 0.700221
0.733166 0.147707 0.730343
0.0659342 0.219913 0.493523
0.0660563 0.140597 0.545602
0.58291 0.1187 0.589303
0.740795 0.142657 0.614633
0.746273 0.140871 0.636225
0.0659495 0.61146 0.593179
0.0658732 0.594156 0.575387
0.571542 0.585931 0.574563
0.908049 0.501045 0.544091
0.904463 0.46923 0.545144
0.0827039 0.913832 0.680171
0.0781567 0.930373 0.630823
0.138308 0.937667 0.283818
0.913115 0.89929 0.396384
0.937728 0.888975 0.383612
0.0787366 0.907164 0.702052
0.0772259 0.92517 0.649989
0.126436 0.937713 0.32369
0.853956 0.896696 0.300481
0.937636 0.89247 0.312337
0.0659342 0.202075 0.708507
0.265797 0.177432 0.801541
0.621057 0.145388 0.80412
0.709697 0.156237 0.782254
0.712016 0.1552 0.785367
0.0660105 0.262531 0.693812
0.0659342 0.202289 0.708385
0.537072 0.1523 0.819471
0.706279 0.157748 0.777691
0.711772 0.155322 0.785016
0.0658885 0.587686 0.747311
0.0660716 0.562371 0.747372
0.370398 0.520928 0.846128
0.838544 0.410071 0.867689
0.827955 0.369009 0.861372
0.0981155 0.870115 0.861311
0.0856031 0.859449 0.84976
0.0755474 0.828992 0.812268
0.845609 0.847501 0.836118
0.923522 0.823224 0.828382
0.104723 0.874861 0.882887
0.0937819 0.873655 0.868086
0.0834821 0.887007 0.785473
0.743694 0.935775 0.787427
0.927275 0.91902 0.864805
0.0659953 0.199496 0.725246
0.28719 0.175784 0.804532
0.640787 0.147662 0.801862
0.709697 0.156237 0.782254
0.711391 0.155474 0.784726
0.0660258 0.259937 0.696406
0.0659953 0.199985 0.72401
0.545113 0.151324 0.818784
0.707073 0.157412 0.778744
0.711574 0.155383 0.784878
0.0659648 0.583642 0.784695
0.0660258 0.550591 0.769528
0.333867 0.476066 0.846403
0.818387 0.350179 0.862547
0.80528 0.307988 0.85275
0.103151 0.866682 0.892699
0.0940566 0.85391 0.890089
0.0820783 0.815473 0.88072
0.787091 0.824765 0.920943
0.911818 0.792035 0.916259
0.108949 0.879026 0.896605
0.105806 0.879515 0.898146
0.106065 0.879881 0.898375
0.680583 0.920958 0.922667
0.923781 0.920546 0.919432
