bundles/resolve-cinematic-luts/Phantom Luts/Canon Film LUT/C-Log 3/EastmanRM Canon-Legacy CL3.cube
TITLE "Generated by Resolve"
LUT_3D_SIZE 5
0.0480812 0.049958 0.0483406
0.289235 0.0339666 0.0442054
0.55407 0.0333562 0.0751812
0.629145 0.0565347 0.147036
0.593576 0.0695964 0.20795
0.0670787 0.222522 0.0540932
0.185687 0.196918 0.0589456
0.549187 0.123354 0.054078
0.588083 0.0460212 0.0777295
0.564248 0.0482338 0.0985122
0.109041 0.583169 0.100816
0.108675 0.574273 0.0840772
0.651301 0.663615 0.132113
0.84744 0.638788 0.255009
0.846006 0.630579 0.251057
0.217548 0.702922 0.282063
0.221592 0.693141 0.201526
0.599847 0.820432 0.344854
0.887694 0.898329 0.473716
0.903944 0.896727 0.494728
0.20885 0.716701 0.348745
0.229023 0.69276 0.190799
0.614389 0.826581 0.330098
0.883314 0.897292 0.45594
0.901839 0.897276 0.501945
0.0418097 0.0641947 0.120424
0.227405 0.0546426 0.164202
0.548379 0.0575113 0.23798
0.641505 0.100786 0.30518
0.622675 0.117754 0.367269
0.0628977 0.171832 0.129656
0.160159 0.176883 0.15845
0.535622 0.0430152 0.108721
0.614572 0.0595407 0.162966
0.59765 0.068452 0.202869
0.0667582 0.5635 0.205493
0.0686198 0.564126 0.12105
0.636378 0.641733 0.114885
0.842008 0.58265 0.21268
0.835431 0.561822 0.206394
0.226062 0.739986 0.439475
0.213504 0.707012 0.304906
0.483299 0.765301 0.286244
0.875731 0.89752 0.463004
0.903227 0.895842 0.492821
0.230533 0.754711 0.495018
0.218738 0.715511 0.344427
0.471611 0.759731 0.262181
0.861662 0.897093 0.440909
0.90164 0.897368 0.503365
0.0419318 0.0978714 0.317769
0.189761 0.0689708 0.420127
0.514199 0.0841077 0.440986
0.660029 0.143725 0.49865
0.633494 0.155962 0.551873
0.0418555 0.143969 0.299947
0.0421454 0.102525 0.339284
0.491722 0.078233 0.431632
0.675486 0.130755 0.433448
0.644282 0.144045 0.489311
0.0625925 0.530861 0.441474
0.0536202 0.52578 0.459312
0.608194 0.621042 0.5906
0.923613 0.475608 0.547433
0.912902 0.463127 0.569024
0.262119 0.768673 0.584131
0.247517 0.771878 0.579141
0.273472 0.740978 0.407523
0.860121 0.906264 0.584009
0.9122 0.898726 0.609903
0.248981 0.767712 0.619272
0.247669 0.772473 0.599512
0.227695 0.729458 0.39704
0.818051 0.904173 0.549935
0.905745 0.917037 0.623941
0.0426032 0.138018 0.42446
0.13814 0.137896 0.52134
0.479912 0.138933 0.60499
0.625086 0.171695 0.631907
0.62681 0.171283 0.631205
0.0424964 0.16083 0.430304
0.0426032 0.137392 0.429969
0.438361 0.13901 0.60296
0.626429 0.171374 0.631327
0.624689 0.171771 0.63212
0.048188 0.493843 0.572381
0.0462654 0.471977 0.575967
0.348775 0.472587 0.711101
0.907088 0.483742 0.882551
0.889342 0.466209 0.876738
0.234501 0.741238 0.678584
0.215915 0.73666 0.680613
0.208484 0.722118 0.66424
0.847929 0.880369 0.848676
0.910979 0.860945 0.837156
0.256428 0.759213 0.703731
0.243626 0.75967 0.701762
0.245212 0.76701 0.663981
0.812619 0.916472 0.83711
0.902449 0.942626 0.893782
0.0428321 0.139788 0.447181
0.15758 0.140017 0.537789
0.496422 0.141573 0.606989
0.625055 0.171695 0.631922
0.625025 0.171695 0.631937
0.0427253 0.167712 0.442206
0.0428016 0.139818 0.446647
0.449348 0.140505 0.605783
0.625956 0.171496 0.631479
0.624659 0.171771 0.632151
0.0495155 0.480232 0.603693
0.0470893 0.454459 0.591867
0.293812 0.428809 0.708339
0.873594 0.444144 0.879576
0.862669 0.427253 0.869612
0.232029 0.742046 0.708263
0.219211 0.735393 0.707027
0.196948 0.71104 0.699535
0.810376 0.852369 0.886748
0.907515 0.84715 0.898985
0.267918 0.762676 0.71252
0.252522 0.765759 0.722438
0.254154 0.767254 0.722988
0.807736 0.921889 0.883513
0.914443 0.943572 0.901274
