bundles/resolve-cinematic-luts/Phantom Luts/Canon Film LUT/C-Log 3/Eastman Canon CL3.cube
TITLE "Generated by Resolve"
LUT_3D_SIZE 5
0.0390021 0.0390021 0.0390021
0.286549 0.0390021 0.0393835
0.502541 0.0390021 0.0719005
0.577249 0.0537881 0.202441
0.566979 0.0619211 0.232258
0.088777 0.289128 0.0942092
0.25359 0.261479 0.0789349
0.568978 0.215732 0.0762646
0.570062 0.145617 0.0601205
0.535622 0.121462 0.0484932
0.187869 0.682643 0.256428
0.209583 0.661707 0.203555
0.59762 0.631754 0.130327
0.771511 0.631022 0.164294
0.779049 0.625498 0.164996
0.232609 0.781872 0.359411
0.249317 0.765194 0.280827
0.612177 0.810987 0.248325
0.771221 0.804578 0.255299
0.802136 0.801556 0.26128
0.232288 0.796246 0.419028
0.243244 0.761288 0.270649
0.580484 0.811688 0.254032
0.758938 0.806622 0.25304
0.807187 0.809079 0.271443
0.0390021 0.0417029 0.149477
0.255909 0.0390021 0.209598
0.494087 0.0458381 0.278691
0.577996 0.0762951 0.339178
0.57055 0.0813001 0.360678
0.0628824 0.218509 0.174685
0.244236 0.243656 0.242847
0.533547 0.0832074 0.16257
0.566873 0.0582895 0.206836
0.560891 0.0643626 0.231235
0.175448 0.676509 0.397498
0.167086 0.646586 0.262623
0.579812 0.608179 0.121019
0.785626 0.590143 0.159487
0.788357 0.57615 0.163439
0.257328 0.846448 0.544015
0.231083 0.78558 0.381064
0.535698 0.80473 0.248096
0.753491 0.790585 0.237644
0.794339 0.778546 0.241794
0.264942 0.857877 0.576516
0.23331 0.800595 0.427314
0.452018 0.800275 0.269581
0.729534 0.803845 0.252674
0.802502 0.810376 0.27779
0.0390021 0.0651713 0.328237
0.263035 0.0390021 0.404715
0.477485 0.0556802 0.414603
0.575097 0.0930495 0.474876
0.575463 0.0971084 0.495872
0.0390021 0.168154 0.335271
0.0421454 0.0945602 0.36762
0.451972 0.0463874 0.392538
0.573129 0.0863508 0.43769
0.572259 0.0898756 0.452293
0.148821 0.643366 0.541497
0.144228 0.627909 0.530205
0.620752 0.645335 0.623926
0.832471 0.498161 0.53283
0.828717 0.470863 0.534569
0.263828 0.871519 0.673472
0.260548 0.859129 0.639811
0.409659 0.842237 0.552804
0.74931 0.803616 0.499931
0.822553 0.774029 0.486854
0.266545 0.875135 0.691432
0.271366 0.876234 0.658122
0.250385 0.818235 0.473655
0.681498 0.834379 0.424033
0.813535 0.827146 0.418219
0.0390021 0.111147 0.423056
0.248585 0.0931868 0.534783
0.490608 0.0823987 0.524727
0.573922 0.103258 0.53254
0.574029 0.103182 0.532677
0.0390021 0.163928 0.42118
0.0390021 0.110719 0.432883
0.459709 0.0822766 0.530053
0.574441 0.103029 0.53048
0.573938 0.103258 0.532509
0.138354 0.625238 0.636362
0.125978 0.58822 0.63505
0.487282 0.57229 0.763149
0.827604 0.471382 0.752178
0.832807 0.437766 0.741176
0.24477 0.84538 0.735943
0.233814 0.827375 0.719188
0.40296 0.835569 0.744427
0.808911 0.837369 0.808698
0.889281 0.783246 0.776547
0.260014 0.86894 0.756115
0.261128 0.869871 0.739345
0.26891 0.878355 0.696376
0.716228 0.907042 0.781003
0.900664 0.931182 0.842542
0.0390021 0.126543 0.455756
0.271351 0.122713 0.575982
0.509575 0.0905165 0.538277
0.573861 0.103243 0.53254
0.573892 0.103227 0.53257
0.0390021 0.193774 0.462638
0.0390021 0.126741 0.457038
0.477653 0.100008 0.561273
0.573877 0.103243 0.53254
0.573892 0.103243 0.53254
0.134997 0.605951 0.679088
0.121447 0.568292 0.665217
0.427649 0.530632 0.784588
0.811856 0.443732 0.794568
0.825071 0.40415 0.777157
0.247196 0.846693 0.76228
0.235019 0.827283 0.753475
0.274983 0.805432 0.777768
0.747768 0.802441 0.872068
0.885634 0.754971 0.863447
0.265736 0.875212 0.776547
0.2654 0.87483 0.775799
0.264439 0.873976 0.769818
0.721035 0.920104 0.868162
0.909316 0.932265 0.901915
