bundles/resolve-cinematic-luts/Phantom Luts/Canon Film LUT/C-Log 3/EastmanRM Canon-Legacy CL3.cube
TITLE "Generated by Resolve"
LUT_3D_SIZE 33
0.0480812 0.049958 0.0483406
0.0493324 0.049134 0.0470741
0.0536355 0.0474098 0.0446937
0.0813916 0.0439918 0.0440833
0.126726 0.0408331 0.0437171
0.161776 0.0395972 0.044358
0.199115 0.0381323 0.0440681
0.24062 0.036408 0.0436866
0.289235 0.0339666 0.0442054
0.335149 0.0324407 0.0457618
0.375067 0.0320897 0.0491646
0.414664 0.0315404 0.0521248
0.451774 0.0313115 0.0552224
0.484932 0.0309606 0.0577401
0.512612 0.0310826 0.0623026
0.535363 0.0319677 0.0684215
0.55407 0.0333562 0.0751812
0.571756 0.0359655 0.0846876
0.58883 0.0402533 0.0978103
0.607065 0.0462654 0.114748
0.621225 0.0513924 0.129564
0.625605 0.0537575 0.13608
0.626612 0.0545663 0.139849
0.627924 0.0554055 0.143526
0.629145 0.0565347 0.147036
0.63035 0.0575875 0.150072
0.631006 0.0582132 0.152193
0.631693 0.0590372 0.154253
0.630426 0.0598917 0.157549
0.625727 0.0614328 0.165347
0.619089 0.0629129 0.175341
0.606378 0.0661326 0.191424
0.593576 0.0695964 0.20795
0.0492866 0.0491646 0.0471351
0.048661 0.0495766 0.0478065
0.0493324 0.049134 0.0470741
0.0607919 0.0471351 0.0451209
0.0959182 0.0433661 0.0437934
0.136416 0.0409705 0.0433051
0.171862 0.039353 0.0432136
0.212055 0.037705 0.0426947
0.259434 0.0352483 0.0417792
0.31162 0.0327001 0.0419013
0.35639 0.031754 0.0429084
0.397024 0.0321508 0.0445411
0.433051 0.0314641 0.0467994
0.46566 0.0311131 0.0506905
0.49659 0.0311437 0.0556191
0.523659 0.0317235 0.0602121
0.545922 0.0330358 0.0654917
0.563973 0.03505 0.073518
0.581109 0.0381933 0.0838026
0.599771 0.0428016 0.0983597
0.614816 0.0476387 0.113344
0.620325 0.0497444 0.121111
0.621912 0.0506905 0.125628
0.623377 0.0518196 0.12961
0.624552 0.052842 0.133349
0.625818 0.0540169 0.137072
0.626627 0.0545815 0.139895
0.627604 0.0551003 0.142565
0.626535 0.0561837 0.146822
0.622065 0.0577707 0.154498
0.615396 0.0598611 0.163668
0.603128 0.0627756 0.179049
0.589868 0.0658274 0.194644
0.0492866 0.0491646 0.0471199
0.0480659 0.049958 0.0483558
0.0480812 0.049958 0.0483406
0.0499275 0.0496834 0.0472114
0.0705119 0.0473487 0.0451057
0.107454 0.0447395 0.0437476
0.145281 0.0428779 0.0430304
0.182284 0.041474 0.0426032
0.229191 0.0385595 0.0416724
0.284764 0.035111 0.0404212
0.338598 0.032166 0.0401923
0.382452 0.0321508 0.0408484
0.420768 0.03122 0.0424048
0.454109 0.0310369 0.0451514
0.484062 0.0312963 0.049485
0.510338 0.0317235 0.0539406
0.532967 0.032929 0.059266
0.553079 0.0346075 0.0657054
0.572702 0.037644 0.0747997
0.591531 0.0412909 0.0860914
0.607797 0.0449531 0.0987869
0.613901 0.0464179 0.106004
0.616022 0.0473182 0.110536
0.618402 0.0486458 0.115618
0.619989 0.0495155 0.120104
0.621286 0.0503395 0.123857
0.622736 0.0512551 0.127581
0.623606 0.0520638 0.130526
0.622812 0.0531014 0.13489
0.618494 0.0547036 0.142962
0.61207 0.0565347 0.152728
0.599054 0.0592203 0.167605
0.585977 0.0620737 0.18352
0.0492409 0.0568246 0.0476539
0.0479286 0.0539864 0.0482338
0.0482643 0.0515602 0.0483253
0.0495613 0.0496529 0.0471809
0.0563363 0.049897 0.0451209
0.0867933 0.049073 0.0436408
0.124437 0.0482338 0.0432288
0.157702 0.0476234 0.0433814
0.197787 0.0448615 0.0430152
0.252796 0.0407111 0.0415656
0.316762 0.0355993 0.0401923
0.369619 0.0330205 0.040238
0.412619 0.0312505 0.0406806
0.448066 0.0306859 0.0417945
0.478447 0.0309911 0.0444648
0.503456 0.031754 0.049073
0.523842 0.0327916 0.0547341
0.542763 0.0345006 0.0616312
0.560479 0.0370489 0.0696269
0.579461 0.0406806 0.0796216
0.596567 0.0437018 0.08925
0.603296 0.0447547 0.0951247
0.606943 0.0454719 0.0992905
0.609354 0.0460059 0.103792
0.611749 0.0466468 0.107378
0.613611 0.0472572 0.111147
0.615763 0.0484321 0.115434
0.617151 0.0494698 0.120104
0.616968 0.0502174 0.124422
0.613275 0.0514687 0.131426
0.607477 0.0532692 0.140429
0.595682 0.0559854 0.155947
0.58233 0.0590524 0.171649
0.0515297 0.0934005 0.0506294
0.049546 0.0882429 0.0504158
0.0491188 0.0813611 0.05066
0.0502327 0.0731365 0.0500496
0.055436 0.067155 0.0484016
0.0790875 0.070222 0.0483864
0.111574 0.0689403 0.0470588
0.144976 0.0664378 0.0451209
0.17998 0.0613413 0.0454261
0.222751 0.0555123 0.0455177
0.28394 0.045716 0.0433509
0.347219 0.0394141 0.041413
0.400397 0.0344091 0.0407111
0.441886 0.0311894 0.0406806
0.474693 0.0307927 0.0423896
0.500618 0.0315862 0.0456855
0.520577 0.0328069 0.051194
0.538521 0.0345464 0.0588083
0.553719 0.0371252 0.0662547
0.570489 0.0404059 0.0756542
0.588083 0.0438849 0.0855268
0.592477 0.044419 0.088716
0.594736 0.0446632 0.0911727
0.597559 0.0449226 0.0944533
0.60061 0.0453346 0.0979629
0.603265 0.0458991 0.102037
0.605737 0.0463417 0.105638
0.607584 0.0470741 0.109148
0.608606 0.0475471 0.11252
0.606729 0.0483253 0.118135
0.602152 0.0497749 0.126207
0.590417 0.0523537 0.14078
0.577859 0.0552682 0.156451
0.0561074 0.123873 0.0546273
0.0531167 0.120974 0.0538033
0.052018 0.114687 0.0533913
0.053254 0.108736 0.0529183
0.0570077 0.105135 0.0533608
0.0784924 0.105592 0.0521248
0.103761 0.105928 0.053254
0.142107 0.103227 0.0528725
0.185611 0.0981765 0.0517891
0.229007 0.0907149 0.0485695
0.274571 0.0810864 0.0468299
0.325795 0.0673991 0.0462043
0.378317 0.0504311 0.0447089
0.429007 0.0376898 0.0416114
0.467857 0.0328679 0.0418097
0.496788 0.0316167 0.0437629
0.518395 0.032639 0.0482948
0.535622 0.0344396 0.0554513
0.550515 0.0368658 0.0633402
0.565621 0.0401465 0.072282
0.583658 0.0435798 0.0832074
0.588129 0.04448 0.0859998
0.588373 0.0444953 0.0862135
0.588815 0.0445106 0.0868544
0.590143 0.0445716 0.0883955
0.592432 0.0447395 0.0906844
0.594766 0.0451057 0.0935836
0.597009 0.0454108 0.0965438
0.599145 0.045655 0.0988174
0.598062 0.0462196 0.103929
0.594339 0.0474098 0.110979
0.583307 0.0493782 0.12491
0.570962 0.0518959 0.139773
0.0598001 0.15314 0.0581826
0.0565194 0.1505 0.0575113
0.0551003 0.145327 0.0570535
0.0575723 0.138766 0.0550851
0.0674144 0.133486 0.053666
0.0896468 0.129931 0.0543679
0.119554 0.128511 0.0520485
0.152789 0.125505 0.0514534
0.19527 0.122515 0.051667
0.248005 0.114397 0.0512093
0.300175 0.104128 0.0476539
0.349508 0.0941634 0.0460212
0.388205 0.0870222 0.0449226
0.428199 0.0769665 0.0449836
0.463828 0.0593118 0.0452125
0.495674 0.0419318 0.0435798
0.51635 0.0339666 0.0456245
0.531716 0.0339055 0.0503853
0.54789 0.0367437 0.0595102
0.561852 0.0397192 0.0680247
0.577401 0.04271 0.0779583
0.58819 0.0446479 0.084947
0.588403 0.0446479 0.0855726
0.588632 0.0446479 0.0858778
0.5888 0.0446326 0.0861524
0.588739 0.0446021 0.0862287
0.588876 0.0445869 0.0865644
0.588983 0.0445716 0.0868849
0.58912 0.0445716 0.0871138
0.587762 0.0448615 0.0890211
0.585275 0.0453956 0.0928511
0.577829 0.0465705 0.100694
0.569818 0.0479286 0.109987
0.0708019 0.181979 0.0565805
0.0643931 0.181201 0.0569162
0.059556 0.177707 0.0584878
0.0596475 0.171771 0.0590677
0.0638285 0.166354 0.0587625
0.0793774 0.162005 0.0585184
0.11281 0.161242 0.0591135
0.151812 0.158068 0.0560311
0.191058 0.15346 0.0560922
0.248402 0.148241 0.0549783
0.310231 0.139391 0.0531472
0.365103 0.127993 0.0498665
0.406867 0.118486 0.0480201
0.44332 0.10898 0.0474098
0.47422 0.0999161 0.0471809
0.502663 0.0885481 0.047715
0.524636 0.0716259 0.049485
0.54107 0.0522164 0.049424
0.54786 0.0400244 0.0537423
0.55903 0.0400244 0.0623789
0.57406 0.0429999 0.0721599
0.586755 0.0450752 0.0808728
0.586831 0.0448615 0.0816968
0.586954 0.0447547 0.0823835
0.587182 0.0447089 0.0829786
0.587396 0.0446784 0.0835431
0.587594 0.0446479 0.0839704
0.587701 0.0446326 0.0842756
0.587808 0.0446326 0.0845045
0.586191 0.0448768 0.0862593
0.582681 0.0454566 0.0894789
0.574563 0.0466468 0.0962844
0.565896 0.0478981 0.104189
0.0670787 0.222522 0.0540932
0.0610971 0.221881 0.0532387
0.0571603 0.218509 0.0549325
0.0565957 0.211872 0.0568856
0.0588846 0.204791 0.0576486
0.0663157 0.201175 0.0580758
0.0922713 0.19791 0.0590219
0.131487 0.198917 0.0611887
0.185687 0.196918 0.0589456
0.243549 0.189746 0.0590677
0.317906 0.18677 0.0598154
0.382086 0.17911 0.0577401
0.436484 0.166217 0.0567025
0.473228 0.153826 0.0538186
0.504356 0.141588 0.0527504
0.528267 0.135134 0.0526284
0.549187 0.123354 0.054078
0.564462 0.109773 0.0560922
0.568978 0.0876783 0.0589456
0.57612 0.0627298 0.0584115
0.575051 0.0472877 0.0641337
0.587686 0.0476081 0.0728771
0.588235 0.0465705 0.0749981
0.587594 0.0459449 0.0765087
0.588083 0.0460212 0.0777295
0.587839 0.0457923 0.0785534
0.587839 0.0455634 0.0795605
0.58732 0.0452888 0.0805829
0.587213 0.0451972 0.0810101
0.585458 0.0454108 0.0819867
0.581613 0.0459144 0.0847791
0.57319 0.0470283 0.0912032
0.564248 0.0482338 0.0985122
0.065156 0.27332 0.052781
0.0589761 0.27422 0.0500801
0.055375 0.273289 0.0514534
0.054078 0.266224 0.0526131
0.054902 0.256916 0.0532692
0.0601663 0.250141 0.0532387
0.0747234 0.247761 0.0535286
0.117281 0.249607 0.0578164
0.16173 0.253346 0.06215
0.2383 0.254047 0.0620584
0.312108 0.245029 0.0634775
0.390082 0.243763 0.0651865
0.455955 0.238117 0.063035
0.507439 0.224704 0.0635233
0.544579 0.206043 0.0627909
0.57229 0.191821 0.0621805
0.593271 0.179232 0.0631723
0.609277 0.169772 0.0653544
0.620157 0.156481 0.0698253
0.624247 0.140581 0.0753033
0.619242 0.117662 0.0794995
0.60824 0.0789502 0.0715496
0.602701 0.0664073 0.0734417
0.601099 0.0633707 0.075227
0.601495 0.0627756 0.0770275
0.59736 0.0587625 0.0766613
0.592615 0.0543526 0.0764477
0.588693 0.0513313 0.076051
0.586297 0.0495155 0.0757763
0.583749 0.0489052 0.0764782
0.580911 0.0488441 0.0784161
0.574212 0.0493629 0.0830396
0.566018 0.0502327 0.0894179
0.062089 0.325719 0.0501717
0.0568399 0.327413 0.0473793
0.0530861 0.328069 0.0481422
0.0519112 0.324147 0.0487221
0.0516823 0.315877 0.049836
0.0548714 0.307485 0.050721
0.0601816 0.301961 0.0510414
0.0856489 0.302647 0.0523384
0.138003 0.310018 0.0577707
0.199451 0.318059 0.0632334
0.308278 0.323735 0.0636912
0.385794 0.314672 0.0658885
0.460914 0.313726 0.0689555
0.523491 0.311406 0.0675364
0.572259 0.298802 0.0648814
0.610071 0.27602 0.0673228
0.638666 0.254032 0.069398
0.658167 0.23566 0.0729839
0.672572 0.225254 0.0773022
0.684764 0.212634 0.087129
0.689326 0.198062 0.0973678
0.686809 0.17966 0.104005
0.678676 0.163882 0.104692
0.667338 0.151919 0.10132
0.659998 0.143328 0.0995346
0.649927 0.132998 0.0978408
0.637537 0.118471 0.0906386
0.629511 0.107301 0.0856641
0.623606 0.0996872 0.0821698
0.61825 0.0939803 0.0797894
0.616464 0.0910811 0.0799268
0.6112 0.0896468 0.0820325
0.604059 0.0899977 0.086717
0.0570687 0.373785 0.0455634
0.0531319 0.37583 0.0443122
0.0503853 0.377234 0.0451057
0.0496986 0.375753 0.0443885
0.0492561 0.370474 0.0451209
0.049546 0.362142 0.0456092
0.0532845 0.355917 0.0467231
0.0593576 0.352941 0.047303
0.093019 0.359319 0.0496681
0.1579 0.371267 0.0546578
0.25304 0.384741 0.0620432
0.38024 0.39176 0.0621805
0.456336 0.382589 0.0662699
0.522759 0.381903 0.0728313
0.577539 0.381094 0.0739757
0.626551 0.372137 0.0724956
0.664546 0.352712 0.0710765
0.694011 0.327016 0.0776684
0.71664 0.305165 0.0828107
0.733333 0.289738 0.0930953
0.742168 0.277623 0.103105
0.747295 0.262211 0.113832
0.746883 0.249866 0.118837
0.741543 0.24155 0.118135
0.735622 0.233433 0.117586
0.729885 0.225284 0.116808
0.725063 0.218463 0.116396
0.720363 0.212634 0.115862
0.715969 0.207309 0.115007
0.7131 0.20351 0.114794
0.710323 0.200214 0.114168
0.704814 0.19855 0.116457
0.696498 0.19791 0.121126
0.0547799 0.419455 0.0432441
0.0515908 0.421958 0.0438849
0.0494545 0.423713 0.0446937
0.0490883 0.423209 0.0433051
0.0488441 0.421347 0.0430915
0.0490425 0.414176 0.0426642
0.0510414 0.40647 0.0423133
0.0551614 0.400916 0.0421607
0.0684215 0.402106 0.0424964
0.115557 0.413687 0.0446326
0.205341 0.433097 0.051194
0.328069 0.451942 0.0614786
0.447761 0.456962 0.0628519
0.518578 0.447837 0.068986
0.575387 0.447349 0.0785992
0.62446 0.44715 0.0849317
0.669429 0.442329 0.0880751
0.706813 0.429114 0.0882124
0.734829 0.404395 0.0905318
0.760037 0.379232 0.101122
0.779095 0.361501 0.11313
0.79057 0.345922 0.124468
0.794736 0.3337 0.130495
0.792996 0.327016 0.130205
0.788647 0.320836 0.127901
0.785382 0.315877 0.126467
0.782071 0.31046 0.125124
0.779171 0.305257 0.124147
0.777005 0.300481 0.123827
0.775509 0.296818 0.124132
0.774487 0.293477 0.124285
0.769696 0.291783 0.12726
0.762478 0.292439 0.133471
0.0571756 0.463142 0.0448005
0.05449 0.465797 0.0480507
0.0529793 0.467536 0.0475929
0.0525368 0.468223 0.0461433
0.0521096 0.467323 0.0453498
0.0513619 0.462791 0.0453803
0.0509957 0.455192 0.0444953
0.0555886 0.448768 0.0428321
0.0606241 0.444831 0.0415656
0.0830854 0.449851 0.0416724
0.154406 0.46656 0.0449989
0.276158 0.497765 0.0562142
0.403861 0.511788 0.0651102
0.508995 0.515373 0.0681621
0.571969 0.506691 0.0766461
0.623377 0.506523 0.0890669
0.665843 0.505898 0.100557
0.703838 0.503548 0.109148
0.736248 0.494575 0.113283
0.765515 0.478676 0.117739
0.789609 0.454551 0.125948
0.809232 0.433661 0.138384
0.819898 0.41883 0.144854
0.821897 0.410117 0.145892
0.820294 0.404608 0.144869
0.819547 0.399695 0.14406
0.818021 0.395132 0.142199
0.817349 0.391135 0.141741
0.815732 0.388296 0.140658
0.81503 0.385336 0.140108
0.814481 0.383398 0.13991
0.810834 0.382971 0.143389
0.804257 0.384146 0.150622
0.0652476 0.504952 0.0522011
0.0616617 0.508354 0.0579843
0.0604715 0.509957 0.0593881
0.0614023 0.510399 0.056611
0.0615702 0.510369 0.0554818
0.0602121 0.508492 0.055436
0.0580148 0.501686 0.053254
0.0594797 0.494972 0.0500191
0.0673533 0.489998 0.0467994
0.0772564 0.489494 0.0452277
0.122637 0.498726 0.0452277
0.229786 0.524804 0.0531624
0.358557 0.561059 0.0700084
0.475731 0.565164 0.0743267
0.562188 0.568719 0.0810254
0.620111 0.560098 0.0911879
0.663844 0.558816 0.105638
0.702495 0.558816 0.120928
0.735454 0.557733 0.135042
0.763409 0.553124 0.146624
0.790967 0.543969 0.156161
0.810162 0.52433 0.159152
0.827848 0.502647 0.165118
0.834348 0.493339 0.165209
0.835111 0.488258 0.163119
0.834119 0.484169 0.161868
0.834012 0.480583 0.161639
0.833356 0.477638 0.160723
0.832959 0.47454 0.160342
0.833097 0.472572 0.160449
0.832959 0.471321 0.160357
0.829953 0.47129 0.164492
0.823407 0.472206 0.172396
0.0831159 0.544839 0.066392
0.0776989 0.548226 0.0767071
0.0755779 0.550896 0.0818952
0.0780346 0.551125 0.0773327
0.0802625 0.551064 0.0747692
0.0797894 0.550423 0.0741588
0.0767224 0.545022 0.0711681
0.0748913 0.53814 0.0655375
0.0815747 0.533333 0.0589303
0.092195 0.529763 0.0545052
0.111192 0.532769 0.052781
0.19379 0.548592 0.0552071
0.318105 0.587259 0.0735027
0.433677 0.615213 0.0901045
0.535332 0.611933 0.0925307
0.609384 0.61706 0.10135
0.662531 0.608835 0.11342
0.699718 0.606928 0.128389
0.73463 0.607446 0.14641
0.764797 0.60708 0.166232
0.791287 0.604746 0.187625
0.811917 0.59852 0.202121
0.830671 0.58851 0.211017
0.838056 0.577798 0.208865
0.839765 0.571725 0.20441
0.840024 0.567926 0.201404
0.839719 0.56495 0.1991
0.839384 0.561913 0.197101
0.839261 0.559899 0.195377
0.838941 0.558114 0.194385
0.839033 0.557046 0.193881
0.837705 0.556954 0.196094
0.833646 0.557656 0.202029
0.109041 0.583169 0.100816
0.10515 0.586313 0.112169
0.101976 0.58967 0.120684
0.105379 0.590967 0.117418
0.111833 0.590768 0.106569
0.11368 0.590707 0.103471
0.111086 0.587625 0.100481
0.105623 0.580972 0.0942702
0.108675 0.574273 0.0840772
0.122759 0.569512 0.0740063
0.131273 0.567025 0.0691234
0.172564 0.574884 0.0670176
0.284535 0.605112 0.0796826
0.404913 0.6477 0.108431
0.499672 0.662943 0.120119
0.58677 0.655344 0.121584
0.651301 0.663615 0.132113
0.700496 0.655619 0.143755
0.733318 0.653071 0.159548
0.764752 0.653605 0.182605
0.793179 0.653864 0.208789
0.816342 0.651957 0.232074
0.833951 0.648264 0.248402
0.846174 0.642069 0.256641
0.84744 0.638788 0.255009
0.847684 0.637034 0.253391
0.847364 0.634821 0.251652
0.847684 0.633524 0.251072
0.847623 0.632288 0.250294
0.847425 0.631373 0.249439
0.847288 0.630716 0.248905
0.846845 0.630457 0.249546
0.846006 0.630579 0.251057
0.144793 0.621927 0.152071
0.144625 0.624994 0.159655
0.142794 0.628321 0.168048
0.144594 0.630442 0.167376
0.15021 0.631113 0.15642
0.155764 0.63122 0.145098
0.154574 0.630411 0.143572
0.147814 0.623407 0.135424
0.146548 0.615045 0.124651
0.161822 0.609125 0.110521
0.171374 0.60502 0.100832
0.190463 0.606912 0.0968032
0.268193 0.625483 0.0993057
0.393378 0.672801 0.133547
0.486381 0.705699 0.158297
0.559686 0.707927 0.158312
0.633097 0.698421 0.158633
0.689113 0.708125 0.173434
0.73373 0.700572 0.186938
0.766903 0.697795 0.206882
0.794446 0.697292 0.229679
0.817594 0.696986 0.252247
0.838529 0.696773 0.273808
0.85452 0.693629 0.289433
0.857847 0.691569 0.292195
0.858244 0.69041 0.292088
0.857816 0.689357 0.291432
0.857359 0.688411 0.290517
0.857114 0.687663 0.289937
0.856992 0.687221 0.28954
0.857084 0.687221 0.289647
0.857084 0.687175 0.289662
0.857053 0.687266 0.289708
0.185107 0.659449 0.199664
0.184527 0.661814 0.204318
0.183047 0.665278 0.212589
0.183398 0.668208 0.214084
0.186877 0.669139 0.203906
0.193347 0.66894 0.183658
0.192309 0.668345 0.182208
0.187366 0.663554 0.17673
0.185245 0.655772 0.168307
0.199084 0.648127 0.155779
0.213687 0.642893 0.146075
0.224918 0.640879 0.140566
0.267689 0.650401 0.142123
0.38204 0.6878 0.164218
0.484474 0.732372 0.203555
0.55201 0.751034 0.21471
0.614038 0.748318 0.207202
0.675746 0.743374 0.211017
0.723674 0.754543 0.2327
0.765637 0.74815 0.247013
0.797909 0.744198 0.263569
0.821378 0.743236 0.280491
0.840513 0.742718 0.29723
0.857954 0.742626 0.314672
0.869398 0.741939 0.3252
0.869398 0.740719 0.324727
0.869398 0.739681 0.324392
0.86952 0.738888 0.324163
0.869368 0.738094 0.323766
0.86923 0.737606 0.323323
0.869154 0.737346 0.323018
0.869215 0.737362 0.32314
0.869261 0.737377 0.323232
0.219455 0.691142 0.237675
0.217411 0.692729 0.242084
0.213947 0.694789 0.249699
0.212085 0.695857 0.249287
0.212284 0.695216 0.236011
0.215625 0.693721 0.213794
0.215305 0.693217 0.210361
0.213993 0.691585 0.205341
0.211307 0.685359 0.198672
0.227359 0.679652 0.191913
0.249805 0.677043 0.186236
0.261967 0.674342 0.182849
0.28661 0.677821 0.18352
0.363668 0.699733 0.195972
0.479591 0.747585 0.236835
0.556878 0.780056 0.266117
0.610513 0.788464 0.267689
0.663172 0.78529 0.262089
0.715557 0.785565 0.27097
0.758862 0.796551 0.293553
0.796201 0.791379 0.307576
0.824292 0.787839 0.320134
0.846571 0.786084 0.332326
0.862974 0.785046 0.344045
0.874144 0.784649 0.353704
0.876158 0.784298 0.355108
0.87599 0.783886 0.35465
0.875746 0.783368 0.354147
0.875746 0.782986 0.353933
0.875944 0.782788 0.353948
0.876188 0.782727 0.354116
0.876341 0.782803 0.354269
0.876585 0.783017 0.354665
0.22562 0.698222 0.250629
0.222202 0.699077 0.256306
0.217823 0.699748 0.26067
0.214374 0.699245 0.25771
0.213489 0.697322 0.243153
0.215259 0.694804 0.22031
0.215381 0.69424 0.215061
0.215839 0.693843 0.211185
0.218677 0.693889 0.210483
0.240436 0.695415 0.211368
0.27071 0.696544 0.210742
0.289799 0.697017 0.211734
0.307378 0.699947 0.216541
0.359701 0.712612 0.22501
0.466987 0.752773 0.256306
0.55967 0.795621 0.296773
0.615808 0.815259 0.313344
0.659358 0.819348 0.314244
0.708339 0.817411 0.313252
0.753414 0.822644 0.327886
0.79292 0.833143 0.349798
0.823651 0.829664 0.363272
0.848173 0.826566 0.374792
0.86746 0.824643 0.384131
0.881315 0.824231 0.391287
0.88716 0.823529 0.393332
0.88751 0.82327 0.392187
0.887495 0.822965 0.391653
0.887327 0.822766 0.391196
0.887739 0.822599 0.389517
0.888655 0.822354 0.387045
0.890272 0.822019 0.382635
0.891371 0.821988 0.380087
0.233478 0.696941 0.240162
0.229557 0.697902 0.247257
0.224277 0.698314 0.25124
0.220279 0.697856 0.247807
0.219135 0.696315 0.235813
0.219989 0.694331 0.216022
0.220874 0.693553 0.206546
0.22121 0.69337 0.203891
0.222309 0.693492 0.204562
0.243244 0.695201 0.207797
0.279866 0.699382 0.210422
0.309743 0.704646 0.215412
0.323857 0.70808 0.223651
0.363485 0.718624 0.233402
0.449866 0.74934 0.256153
0.560403 0.799146 0.299336
0.627161 0.828962 0.32842
0.669093 0.841581 0.342184
0.710094 0.846098 0.347143
0.756207 0.845106 0.349584
0.794339 0.854749 0.370108
0.826169 0.863447 0.390753
0.851621 0.861631 0.404532
0.872099 0.859449 0.416266
0.887999 0.857893 0.425132
0.897322 0.857343 0.430137
0.897856 0.857084 0.427955
0.897673 0.857038 0.428183
0.897276 0.857282 0.430442
0.896361 0.857603 0.433845
0.896056 0.857893 0.434714
0.896712 0.858 0.433539
0.897841 0.858167 0.429892
0.227344 0.698344 0.250629
0.226169 0.698695 0.253117
0.222126 0.69926 0.257389
0.219471 0.698817 0.253773
0.218585 0.697047 0.241779
0.219257 0.69485 0.221927
0.221241 0.693339 0.203708
0.221653 0.693095 0.201236
0.221714 0.693202 0.202075
0.2365 0.694652 0.207996
0.279026 0.699718 0.215396
0.314244 0.705852 0.219776
0.328481 0.709865 0.229664
0.36083 0.718364 0.238834
0.431739 0.742611 0.258167
0.535714 0.788251 0.298253
0.619867 0.826551 0.335592
0.667796 0.846647 0.357153
0.707393 0.860609 0.373709
0.751751 0.866041 0.381277
0.79443 0.872847 0.396551
0.824537 0.880888 0.414603
0.850111 0.887022 0.432334
0.87187 0.886976 0.446784
0.890913 0.886458 0.458946
0.901656 0.885954 0.465797
0.903365 0.885985 0.465812
0.903288 0.886458 0.466651
0.902846 0.887083 0.469062
0.902098 0.887846 0.472633
0.901656 0.88838 0.475013
0.901869 0.888808 0.475532
0.902663 0.888914 0.473686
0.219516 0.700908 0.268879
0.220493 0.699977 0.261677
0.219715 0.700099 0.262837
0.218494 0.699901 0.261891
0.217426 0.69839 0.252232
0.218631 0.695842 0.231525
0.221088 0.693446 0.204898
0.221592 0.693141 0.20148
0.221576 0.693156 0.201602
0.235065 0.694514 0.206867
0.272435 0.698817 0.21413
0.311589 0.705547 0.221469
0.332677 0.71104 0.232364
0.359869 0.718471 0.241352
0.422507 0.739803 0.261524
0.519509 0.78146 0.299687
0.608637 0.823407 0.343526
0.661997 0.845869 0.365225
0.703532 0.861433 0.381628
0.746288 0.875822 0.400763
0.792401 0.884001 0.415976
0.824659 0.89189 0.431662
0.849912 0.895415 0.44509
0.870848 0.896895 0.458167
0.889982 0.896757 0.472602
0.902617 0.895705 0.481544
0.905882 0.895094 0.483406
0.905547 0.895262 0.484718
0.904891 0.895506 0.486885
0.904097 0.895766 0.489952
0.903502 0.895979 0.492195
0.903532 0.89601 0.492287
0.904173 0.895842 0.490166
0.217548 0.702922 0.282063
0.218936 0.700633 0.267826
0.219165 0.700252 0.264591
0.218051 0.700298 0.264958
0.216587 0.699794 0.260624
0.217639 0.696986 0.241154
0.220432 0.693828 0.20972
0.221302 0.693294 0.203372
0.221592 0.693141 0.201526
0.230747 0.693996 0.205112
0.26305 0.69752 0.212406
0.307332 0.704555 0.220859
0.331991 0.710872 0.231464
0.357244 0.717784 0.241108
0.416114 0.737835 0.262501
0.512047 0.778347 0.299763
0.599847 0.820432 0.344854
0.656107 0.844923 0.369635
0.698802 0.860075 0.38352
0.740871 0.874846 0.404395
0.787335 0.886992 0.42565
0.821973 0.89424 0.439185
0.8477 0.897185 0.449119
0.869627 0.897932 0.45951
0.887694 0.898329 0.473716
0.901976 0.897002 0.483742
0.906401 0.896162 0.486412
0.906081 0.896239 0.487449
0.905394 0.896406 0.489647
0.904524 0.89659 0.492821
0.903944 0.896727 0.494743
0.903639 0.896803 0.495598
0.903944 0.896727 0.494728
0.215228 0.705211 0.294652
0.217624 0.701976 0.27631
0.218494 0.700465 0.266697
0.217884 0.700496 0.266682
0.216007 0.700603 0.266529
0.216449 0.698177 0.250248
0.218814 0.694942 0.22327
0.221149 0.693416 0.204334
0.221622 0.693126 0.201328
0.226352 0.693599 0.20415
0.258244 0.696895 0.211597
0.304448 0.704067 0.220523
0.331701 0.710704 0.230716
0.357092 0.717723 0.241138
0.410178 0.735348 0.259693
0.503807 0.774517 0.295811
0.595422 0.818204 0.343053
0.652873 0.843626 0.368627
0.695567 0.859159 0.383246
0.737316 0.873701 0.403937
0.782086 0.886458 0.42678
0.816922 0.893645 0.442115
0.843519 0.897246 0.452918
0.867414 0.897963 0.46157
0.884886 0.89865 0.473564
0.900984 0.897093 0.483497
0.906172 0.896178 0.48629
0.906081 0.896239 0.487449
0.905394 0.896406 0.489647
0.904524 0.89659 0.492821
0.903944 0.896727 0.494759
0.903639 0.896803 0.495613
0.903639 0.896803 0.495613
0.213443 0.707332 0.306355
0.214069 0.704326 0.289937
0.214862 0.7019 0.2757
0.215686 0.701076 0.270283
0.215076 0.701076 0.269978
0.215656 0.699168 0.257008
0.21828 0.695598 0.229877
0.22121 0.693385 0.203952
0.221637 0.693126 0.201312
0.223636 0.693462 0.203708
0.256687 0.696818 0.211627
