bundles/resolve-cinematic-luts/Phantom Luts/Canon Film LUT/C-Log 3/Eastman Canon CL3.cube
TITLE "Generated by Resolve"
LUT_3D_SIZE 33
0.0390021 0.0390021 0.0390021
0.0390021 0.0390021 0.0390021
0.0429236 0.0390021 0.0390021
0.0882887 0.0390021 0.0390021
0.12932 0.0390021 0.0390021
0.170626 0.0390021 0.0390021
0.212131 0.0390021 0.0390021
0.250843 0.0390021 0.0390021
0.286549 0.0390021 0.0393835
0.319753 0.0390021 0.0417334
0.350118 0.0390021 0.0432136
0.379705 0.0390021 0.0453498
0.407309 0.0390021 0.0474708
0.433371 0.0390021 0.0496071
0.458351 0.0390021 0.0526131
0.481575 0.0390021 0.057908
0.502541 0.0390021 0.0719005
0.522316 0.0390021 0.0953536
0.542321 0.0390021 0.124025
0.560571 0.0434424 0.153857
0.571344 0.0484932 0.172671
0.575891 0.0512703 0.185183
0.576455 0.0522927 0.191745
0.57705 0.0531624 0.197574
0.577249 0.0537881 0.202441
0.577386 0.0542 0.207385
0.577905 0.0548409 0.212528
0.577935 0.0556191 0.216449
0.577646 0.0563211 0.220584
0.575479 0.0576486 0.223896
0.572305 0.0592966 0.226947
0.5682 0.0609598 0.229633
0.566979 0.0619211 0.232258
0.0390021 0.0390021 0.0390021
0.0390021 0.0390021 0.0390021
0.0390021 0.0390021 0.0390021
0.0583047 0.0390021 0.0390021
0.101518 0.0390021 0.0390021
0.137285 0.0390021 0.0390021
0.178241 0.0390021 0.0390021
0.219318 0.0417487 0.0390021
0.258701 0.0467536 0.0390021
0.295338 0.0515602 0.0390021
0.328878 0.0541543 0.039292
0.358663 0.0548714 0.0408026
0.386526 0.0552682 0.0428016
0.413886 0.0547494 0.0449836
0.442115 0.0580606 0.0467384
0.467964 0.0594339 0.049073
0.491829 0.059556 0.0522469
0.513985 0.0537881 0.0570077
0.533532 0.0390021 0.066865
0.55317 0.0390021 0.0979477
0.565988 0.0438849 0.12752
0.572229 0.047013 0.1458
0.573053 0.0481727 0.155428
0.573404 0.0487678 0.163394
0.574105 0.049485 0.171298
0.574838 0.0505226 0.178683
0.575463 0.0515297 0.18558
0.575875 0.052491 0.191882
0.575998 0.0534676 0.197192
0.573999 0.0546273 0.201312
0.570596 0.0559548 0.205295
0.566751 0.0576181 0.208316
0.565515 0.0586404 0.211826
0.0390021 0.0390021 0.0390021
0.0390021 0.0390021 0.0390021
0.0390021 0.0390021 0.0390021
0.0416724 0.0390021 0.0390021
0.0742351 0.0390021 0.0390021
0.110414 0.0390021 0.0404212
0.14786 0.0424353 0.0390936
0.191455 0.0467536 0.0390021
0.235767 0.0506447 0.0390021
0.277165 0.0540169 0.0390021
0.313649 0.057084 0.0390021
0.345693 0.0606546 0.0390021
0.374868 0.062501 0.0406958
0.402487 0.0649119 0.0427558
0.428733 0.0667735 0.0446174
0.451911 0.071107 0.0457008
0.477333 0.0731823 0.0480507
0.500816 0.0738079 0.050782
0.523384 0.0702373 0.0551766
0.542794 0.0598154 0.064332
0.556985 0.0445563 0.0774701
0.565011 0.042298 0.097612
0.567132 0.0441138 0.111742
0.568505 0.0448005 0.12401
0.570291 0.0462806 0.135729
0.57145 0.0472725 0.145647
0.572534 0.0482948 0.154971
0.572824 0.0489509 0.162982
0.572747 0.0495308 0.169833
0.571313 0.0509651 0.175647
0.568383 0.0528725 0.181064
0.561944 0.0556802 0.185672
0.555459 0.0583963 0.189578
0.0449073 0.0511482 0.0441291
0.0424659 0.0419776 0.0401007
0.0423285 0.0390021 0.0390021
0.0436561 0.0390021 0.0390021
0.0591287 0.0390021 0.0391546
0.0973678 0.0436255 0.0431373
0.131075 0.0492714 0.0441138
0.169451 0.0521401 0.0393225
0.213596 0.0539254 0.0390021
0.259358 0.0583963 0.0390021
0.301732 0.0610513 0.0390021
0.336492 0.0634012 0.0390021
0.366781 0.0660868 0.0395972
0.394171 0.0689555 0.0411383
0.420172 0.0722362 0.0429084
0.443809 0.075349 0.044419
0.46717 0.0790112 0.0459602
0.489921 0.0827497 0.0479591
0.511437 0.0836194 0.0504768
0.532448 0.0800641 0.0552224
0.548943 0.0724193 0.063859
0.555856 0.0654002 0.0699474
0.558358 0.0573892 0.0746929
0.560311 0.0486305 0.0798962
0.561639 0.0419318 0.0865644
0.563897 0.0433051 0.100175
0.565911 0.044831 0.112886
0.566674 0.0454414 0.123262
0.567712 0.0466011 0.132387
0.566903 0.0480507 0.14052
0.564721 0.0496376 0.147646
0.558572 0.0523995 0.153719
0.552316 0.0548104 0.158221
0.0544594 0.0966812 0.0554665
0.0525978 0.0902266 0.0517281
0.0539101 0.0823682 0.0508583
0.0586099 0.0755779 0.05066
0.0737926 0.0713359 0.0479438
0.0989242 0.0762188 0.0492409
0.129778 0.0759594 0.0502327
0.170138 0.0720836 0.0473487
0.217304 0.0697642 0.041886
0.257877 0.0723583 0.0390021
0.29572 0.0745403 0.0390021
0.328756 0.0723583 0.0390021
0.359945 0.0722515 0.0390631
0.388251 0.0728313 0.0403143
0.413565 0.0757305 0.0415961
0.438605 0.0795453 0.0432746
0.460914 0.0830701 0.0450599
0.481941 0.0866865 0.0464637
0.503166 0.0903944 0.0484169
0.521965 0.0893263 0.0514229
0.541466 0.0852979 0.0575418
0.548745 0.0809186 0.0616922
0.550317 0.0790265 0.0628214
0.551583 0.0751354 0.0648814
0.552651 0.0729686 0.0664073
0.554284 0.0670787 0.0697032
0.556649 0.0609445 0.0734264
0.557671 0.0536507 0.0767071
0.558633 0.0470436 0.0807355
0.557855 0.043122 0.086305
0.556954 0.0449378 0.0961776
0.552056 0.047715 0.104738
0.546181 0.0504616 0.110903
0.0586557 0.13341 0.0612955
0.0567941 0.127398 0.057023
0.0565499 0.118593 0.0560464
0.0617227 0.112093 0.0551461
0.0817731 0.107988 0.0558938
0.107118 0.107546 0.0532998
0.132692 0.109117 0.0541695
0.176715 0.107698 0.0552682
0.229801 0.101045 0.0543221
0.275319 0.101061 0.049958
0.311849 0.100664 0.0449989
0.341421 0.0989548 0.0402991
0.3691 0.0964065 0.039826
0.394614 0.092668 0.0404517
0.415824 0.0927291 0.0413825
0.435477 0.0863813 0.0424964
0.455177 0.0859083 0.0439612
0.476219 0.0897841 0.0455329
0.496513 0.0931258 0.0471504
0.515053 0.0956436 0.0493477
0.532952 0.0923323 0.0532998
0.540871 0.0899672 0.0568551
0.545251 0.0880751 0.0590066
0.545296 0.0878004 0.0591135
0.545937 0.087129 0.0597391
0.546532 0.0863203 0.0603647
0.547173 0.0834669 0.0615091
0.547662 0.0816052 0.0621347
0.548745 0.0788586 0.063508
0.548486 0.0756847 0.0653697
0.546731 0.0747082 0.0663615
0.541497 0.0748913 0.0672465
0.535454 0.073106 0.0687572
0.0612497 0.176837 0.0659342
0.0584726 0.169955 0.060502
0.061387 0.159716 0.0584268
0.0666361 0.152544 0.0589151
0.081651 0.148226 0.0604257
0.116518 0.147524 0.0632181
0.148501 0.146654 0.0600137
0.183886 0.145434 0.0596628
0.238315 0.145815 0.0607156
0.294102 0.138598 0.0640726
0.340871 0.134676 0.0603799
0.375692 0.13164 0.0556954
0.40296 0.130663 0.051133
0.427512 0.128878 0.0477455
0.448753 0.125307 0.0447242
0.460761 0.116869 0.0425269
0.472114 0.112276 0.0431373
0.479484 0.100664 0.0441138
0.497597 0.101442 0.0459907
0.512963 0.100389 0.0475319
0.528374 0.100557 0.0499733
0.541497 0.097322 0.0540322
0.54609 0.0938888 0.0570687
0.546029 0.0934005 0.0572366
0.545739 0.0923323 0.0573892
0.545922 0.0916915 0.0575875
0.545922 0.0913558 0.0576944
0.545815 0.0905776 0.0578164
0.545953 0.0897231 0.0580453
0.545251 0.0896773 0.0581216
0.543923 0.0897078 0.0582742
0.540108 0.090547 0.0581521
0.535302 0.091722 0.0579843
0.07364 0.228367 0.0762493
0.0713664 0.22298 0.0696727
0.0693217 0.214206 0.0671397
0.0712749 0.204715 0.0659342
0.0769055 0.199161 0.0658122
0.100511 0.198215 0.0688792
0.146807 0.201373 0.0737011
0.195529 0.199924 0.0686961
0.240055 0.19765 0.0692607
0.296605 0.20148 0.0708629
0.353063 0.197314 0.0746777
0.401083 0.18584 0.0770123
0.436744 0.179049 0.0721447
0.465187 0.17322 0.0678264
0.488197 0.171572 0.0640879
0.507881 0.166384 0.0603952
0.523308 0.159762 0.0560159
0.530571 0.150942 0.0517433
0.52546 0.136324 0.047013
0.52697 0.127626 0.0475929
0.529305 0.115724 0.0467231
0.545235 0.115129 0.0513161
0.5458 0.11075 0.0517891
0.545373 0.109163 0.0521859
0.545113 0.108644 0.0521706
0.545907 0.107103 0.053254
0.545678 0.105852 0.0534829
0.545205 0.104143 0.0537118
0.54464 0.101457 0.0542458
0.543175 0.10016 0.0542458
0.54197 0.0994888 0.0543984
0.538445 0.100114 0.0543526
0.534005 0.101076 0.0542458
0.088777 0.289128 0.0942092
0.0862745 0.285237 0.0852064
0.0847944 0.278309 0.0823072
0.082536 0.267994 0.0795911
0.0858015 0.260914 0.0785534
0.101488 0.259144 0.0806744
0.13901 0.262638 0.0870375
0.193011 0.265126 0.0880598
0.25359 0.261479 0.0789349
0.301549 0.257923 0.0798505
0.355657 0.262989 0.0806897
0.410056 0.262379 0.0826123
0.458579 0.253178 0.0871443
0.495644 0.23621 0.090547
0.525521 0.226032 0.0840772
0.548714 0.221027 0.0796063
0.568978 0.215732 0.0762646
0.586145 0.209995 0.0737163
0.599573 0.202106 0.0731975
0.604288 0.191089 0.0716411
0.599054 0.177478 0.0681468
0.58056 0.158572 0.0620279
0.573556 0.1523 0.0619516
0.568154 0.145144 0.0580606
0.570062 0.145617 0.0601205
0.569299 0.143816 0.0597391
0.562646 0.137667 0.0553445
0.559106 0.134127 0.0541695
0.554421 0.129335 0.0515908
0.549462 0.124697 0.0499275
0.546136 0.122179 0.0495766
0.540902 0.120882 0.0487373
0.535622 0.121462 0.0484932
0.100267 0.347921 0.111528
0.0965744 0.346654 0.0997177
0.0940108 0.344488 0.0997024
0.0915084 0.334844 0.0969253
0.0946365 0.326467 0.0952621
0.102312 0.320256 0.0940108
0.12639 0.320439 0.0959487
0.182757 0.327169 0.102159
0.245396 0.326436 0.0961318
0.312062 0.322774 0.0861219
0.360967 0.317128 0.0856947
0.410788 0.321218 0.0852369
0.462165 0.323522 0.0866865
0.509834 0.317998 0.0908522
0.549462 0.304265 0.0959182
0.582391 0.287785 0.103639
0.608988 0.27837 0.0986801
0.6309 0.271305 0.0953536
0.648981 0.266148 0.0935836
0.662211 0.259464 0.0934768
0.671595 0.250477 0.0942702
0.677073 0.241047 0.0962387
0.674388 0.230289 0.0972915
0.671016 0.224628 0.0970169
0.667384 0.220935 0.0965591
0.662882 0.21619 0.0956436
0.659281 0.213321 0.0944381
0.65478 0.209247 0.0930343
0.647791 0.20415 0.0901808
0.64332 0.201495 0.0881819
0.637736 0.198901 0.0863355
0.630655 0.19765 0.0851606
0.624155 0.198184 0.0848096
0.110491 0.404318 0.127504
0.107836 0.403586 0.117082
0.105394 0.40293 0.113252
0.103441 0.397986 0.111849
0.101671 0.388464 0.110277
0.105516 0.38056 0.108629
0.116045 0.37644 0.107729
0.153399 0.383139 0.111025
0.227008 0.390188 0.111498
0.299001 0.383413 0.0968795
0.3664 0.378225 0.0872816
0.413108 0.371908 0.0877241
0.458579 0.374533 0.0868238
0.504143 0.377157 0.0874952
0.549538 0.375341 0.0913558
0.591485 0.368322 0.0965286
0.626886 0.355016 0.106477
0.657786 0.338811 0.115877
0.683177 0.330266 0.115724
0.704662 0.321523 0.116609
0.717678 0.316625 0.116396
0.72755 0.311192 0.116182
0.734112 0.302022 0.116716
0.735531 0.298314 0.116777
0.734325 0.296315 0.115908
0.732464 0.293339 0.115236
0.731319 0.291798 0.114641
0.729641 0.28957 0.113771
0.72697 0.28629 0.112474
0.7243 0.283696 0.111894
0.721538 0.2822 0.111574
0.715938 0.280919 0.110979
0.708782 0.280018 0.110399
0.118685 0.456657 0.142245
0.116869 0.457053 0.134874
0.115267 0.456596 0.126696
0.113909 0.4542 0.124697
0.112413 0.447715 0.123751
0.113069 0.439094 0.121538
0.121614 0.4336 0.120653
0.137743 0.433585 0.120165
0.188571 0.442374 0.121782
0.280629 0.445731 0.111116
0.351781 0.432944 0.0928664
0.414389 0.428336 0.087541
0.458595 0.421073 0.0887007
0.499977 0.423438 0.0896315
0.540352 0.426001 0.0919814
0.582162 0.427207 0.0957198
0.623728 0.425834 0.102907
0.658946 0.416007 0.112398
0.690318 0.404852 0.122408
0.716854 0.393347 0.132479
0.737774 0.379599 0.141512
0.754345 0.371633 0.142916
0.767376 0.36286 0.146136
0.768795 0.360449 0.145144
0.769451 0.35938 0.144533
0.767849 0.358923 0.142885
0.767224 0.357534 0.142351
0.766567 0.355535 0.141711
0.765652 0.353674 0.140673
0.76495 0.351308 0.140047
0.764599 0.349203 0.140047
0.76141 0.347341 0.139666
0.757595 0.346365 0.139834
0.12668 0.505806 0.15938
0.125841 0.506737 0.156542
0.125521 0.50602 0.142611
0.125246 0.505867 0.139361
0.125322 0.501625 0.134859
0.123476 0.493477 0.132616
0.130159 0.486778 0.130083
0.140887 0.482338 0.128283
0.163897 0.485969 0.128267
0.241535 0.494804 0.127581
0.336263 0.493492 0.109651
0.40209 0.477668 0.0918898
0.45774 0.473594 0.0915236
0.50045 0.466896 0.0943923
0.537163 0.467994 0.0968795
0.572213 0.47129 0.0990311
0.61117 0.473915 0.103471
0.649317 0.475196 0.109529
0.682979 0.469322 0.117556
0.713649 0.463645 0.126635
0.738293 0.454612 0.136767
0.758862 0.443976 0.146242
0.776303 0.434546 0.155306
0.784955 0.425788 0.161425
0.789014 0.4215 0.164004
0.789136 0.42031 0.164508
0.788449 0.418509 0.164385
0.788022 0.416403 0.164477
0.787778 0.414984 0.16463
0.787396 0.413046 0.164263
0.786938 0.411719 0.163882
0.785138 0.410605 0.163699
0.782132 0.409552 0.163378
0.139864 0.55227 0.180423
0.139315 0.55404 0.181857
0.14023 0.553262 0.166812
0.141588 0.552621 0.156207
0.14107 0.550423 0.153094
0.13901 0.544625 0.150698
0.138613 0.536522 0.147051
0.15317 0.532128 0.143832
0.166735 0.52987 0.142214
0.206455 0.535546 0.141985
0.306935 0.541543 0.132692
0.385595 0.535821 0.11223
0.444327 0.518822 0.0951858
0.496712 0.516503 0.0982681
0.537469 0.509911 0.10132
0.570138 0.510124 0.104814
0.602335 0.513481 0.107912
0.636866 0.515999 0.111681
0.670161 0.517418 0.117021
0.701457 0.516854 0.123644
0.730251 0.516136 0.131655
0.752544 0.509682 0.140612
0.772045 0.503166 0.148867
0.787457 0.494652 0.156115
0.791745 0.491966 0.158465
0.791928 0.491279 0.158724
0.791882 0.490059 0.15877
0.791547 0.489296 0.158572
0.791699 0.488182 0.158831
0.791775 0.486366 0.15906
0.791852 0.484688 0.159274
0.790417 0.483299 0.159701
0.788296 0.482872 0.16054
0.154162 0.59649 0.202106
0.154147 0.598611 0.205341
0.155169 0.598672 0.196643
0.158129 0.597086 0.178607
0.159121 0.596521 0.173709
0.157397 0.592081 0.170825
0.156268 0.584344 0.1673
0.163272 0.578119 0.162722
0.180392 0.575525 0.158968
0.194537 0.576211 0.157168
0.278294 0.581445 0.151995
0.36849 0.585031 0.134737
0.432349 0.574426 0.116655
0.48426 0.557427 0.101503
0.533364 0.557473 0.106767
0.571878 0.551095 0.110536
0.601251 0.550179 0.114168
0.627558 0.552209 0.117388
0.659052 0.555245 0.122347
0.688273 0.557137 0.126894
0.716457 0.558206 0.132174
0.7393 0.55877 0.137774
0.760159 0.556802 0.144549
0.779355 0.554574 0.151049
0.786633 0.551522 0.154665
0.790158 0.54995 0.156573
0.789899 0.548821 0.156512
0.789899 0.547753 0.156497
0.790204 0.546685 0.156695
0.790402 0.545373 0.15671
0.790433 0.543969 0.156573
0.789349 0.542901 0.15671
0.787442 0.54229 0.157595
0.171237 0.641245 0.228153
0.171023 0.642557 0.230594
0.171679 0.64361 0.22768
0.174746 0.642664 0.212146
0.176608 0.641123 0.201587
0.175708 0.637629 0.196948
0.172824 0.630198 0.192645
0.176913 0.622675 0.185458
0.194903 0.619058 0.178592
0.205127 0.61593 0.174334
0.24004 0.620966 0.172717
0.349645 0.626123 0.15874
0.421927 0.626245 0.14052
0.477592 0.609216 0.121935
0.522118 0.593027 0.112154
0.566522 0.595514 0.117205
0.603525 0.589181 0.121324
0.629633 0.587381 0.125154
0.65243 0.588602 0.129076
0.679469 0.591913 0.133806
0.705089 0.594263 0.138369
0.727794 0.595392 0.142504
0.747875 0.595575 0.147326
0.766232 0.595331 0.152346
0.779416 0.595285 0.156497
0.783475 0.59472 0.157778
0.783551 0.59443 0.15758
0.783825 0.59411 0.157473
0.78407 0.593439 0.157382
0.784253 0.592645 0.15729
0.784421 0.591684 0.157153
0.784222 0.590982 0.157504
0.782818 0.590249 0.158145
0.187869 0.682643 0.256428
0.188586 0.68397 0.257664
0.189334 0.684733 0.255985
0.19176 0.684321 0.245319
0.194598 0.68249 0.230884
0.195712 0.6804 0.223407
0.192935 0.673701 0.217533
0.193774 0.665873 0.211246
0.209583 0.661707 0.203555
0.222171 0.658 0.197971
0.243931 0.658366 0.194507
0.314229 0.663035 0.18378
0.418524 0.670359 0.164828
0.470039 0.662898 0.148623
0.519127 0.64097 0.130526
0.556405 0.627176 0.126009
0.59762 0.631754 0.130327
0.631815 0.625895 0.133867
0.657755 0.623636 0.138155
0.677928 0.62388 0.142
0.698878 0.626307 0.146242
0.718593 0.62829 0.150698
0.737774 0.630457 0.155871
0.755581 0.631006 0.160235
0.771511 0.631022 0.164294
0.778653 0.630304 0.165499
0.780545 0.629786 0.16553
0.780758 0.629404 0.165301
0.780636 0.628809 0.164981
0.780804 0.628061 0.164797
0.780682 0.626947 0.164324
0.779995 0.626032 0.164446
0.779049 0.625498 0.164996
0.204868 0.719539 0.28484
0.205493 0.719982 0.284215
0.206622 0.721294 0.285191
0.209033 0.720867 0.276051
0.212528 0.718547 0.258289
0.214466 0.716243 0.247272
0.213016 0.712703 0.244144
0.20827 0.702678 0.236393
0.225513 0.69926 0.227161
0.238239 0.695186 0.220584
0.254734 0.695277 0.218097
0.310475 0.697856 0.207935
0.401099 0.702556 0.190463
0.475273 0.710887 0.175906
0.514824 0.692668 0.156863
0.554543 0.671321 0.141497
0.589548 0.661357 0.142412
0.626627 0.666575 0.144732
0.658854 0.660517 0.148592
0.683207 0.658183 0.152255
0.701274 0.657755 0.156603
0.717464 0.659159 0.1608
0.731548 0.66041 0.165133
0.747417 0.66215 0.16965
0.762615 0.66331 0.174456
0.772473 0.66363 0.177127
0.775006 0.663462 0.177768
0.77525 0.662989 0.17763
0.775479 0.662394 0.177447
0.77557 0.661295 0.177005
0.775723 0.660212 0.176516
0.775753 0.659571 0.176287
0.775494 0.658747 0.175982
0.220096 0.750286 0.311864
0.221012 0.750408 0.30985
0.222034 0.75169 0.311757
0.224781 0.750835 0.301564
0.228946 0.748012 0.281376
0.231403 0.74522 0.268986
0.229984 0.741848 0.265705
0.226719 0.734966 0.259892
0.238819 0.730861 0.251102
0.257847 0.728084 0.241459
0.268223 0.725109 0.238193
0.306188 0.727825 0.232517
0.386297 0.731594 0.216037
0.473396 0.737041 0.194751
0.520638 0.736812 0.18436
0.555596 0.716258 0.168444
0.588556 0.69955 0.157473
0.619577 0.693523 0.159335
0.653742 0.697887 0.161044
0.683085 0.692271 0.163943
0.705531 0.689921 0.168414
0.722011 0.68893 0.172686
0.734035 0.689113 0.176501
0.745525 0.689921 0.180316
0.75903 0.69102 0.184298
0.768078 0.691722 0.187655
0.773831 0.692012 0.189441
0.773831 0.691234 0.189166
0.773739 0.690501 0.188785
0.773739 0.689677 0.188388
0.773922 0.68896 0.18822
0.773785 0.687739 0.187655
0.773663 0.686488 0.18706
0.229709 0.769497 0.331334
0.230137 0.769131 0.329274
0.23061 0.769284 0.329839
0.232593 0.766537 0.317845
0.235721 0.761532 0.295537
0.238727 0.758862 0.282506
0.238834 0.757565 0.279469
0.239185 0.754879 0.275425
0.250721 0.754955 0.270497
0.27219 0.754482 0.261112
0.285954 0.752285 0.257313
0.310613 0.752407 0.25362
0.378439 0.75584 0.238941
0.464347 0.761501 0.21886
0.524376 0.764355 0.203952
0.559884 0.753033 0.190661
0.592157 0.734813 0.180621
0.620127 0.722774 0.175311
0.648203 0.720333 0.177905
0.679347 0.723949 0.178943
0.704677 0.719402 0.181796
0.725139 0.717067 0.185229
0.739452 0.716014 0.189197
0.751125 0.715892 0.192416
0.761303 0.716152 0.196475
0.769589 0.716472 0.1991
0.774029 0.716472 0.200885
0.775265 0.716167 0.201083
0.775479 0.715694 0.200839
0.775311 0.714809 0.200214
0.775097 0.713695 0.199573
0.774945 0.712612 0.198932
0.774777 0.711482 0.19826
0.233433 0.777157 0.341344
0.233463 0.776837 0.341146
0.233677 0.776165 0.339681
0.23534 0.772503 0.325063
0.238087 0.766186 0.301732
0.240146 0.762707 0.287556
0.240482 0.761944 0.285252
0.242267 0.761868 0.282704
0.25771 0.767208 0.281422
0.282124 0.770397 0.274281
0.301854 0.77113 0.270466
0.323629 0.772686 0.269627
0.377127 0.775662 0.259831
0.46006 0.779767 0.237613
0.527916 0.785016 0.221286
0.565667 0.779889 0.209934
0.595987 0.76585 0.200824
0.622812 0.750637 0.196139
0.649256 0.743465 0.194339
0.676265 0.744045 0.196826
0.701427 0.746136 0.196078
0.723339 0.742794 0.19881
0.741375 0.740658 0.201785
0.755199 0.739651 0.205661
0.766247 0.739132 0.208865
0.774823 0.73901 0.212436
0.780179 0.738918 0.214435
0.783154 0.738521 0.214725
0.783703 0.73756 0.212894
0.785336 0.735927 0.21033
0.786313 0.73434 0.207965
0.78706 0.733227 0.206806
0.786892 0.732235 0.206424
0.233997 0.777859 0.337575
0.233799 0.778073 0.339742
0.234226 0.776486 0.334859
0.236027 0.772641 0.319463
0.238621 0.766766 0.298177
0.241062 0.762875 0.282872
0.241306 0.762097 0.280156
0.242939 0.762402 0.279042
0.259831 0.768704 0.279469
0.288777 0.777493 0.276066
0.316426 0.781949 0.273503
0.333394 0.784375 0.275685
0.380118 0.788037 0.268589
0.454475 0.791836 0.249805
0.530831 0.795819 0.226581
0.573861 0.797955 0.220188
0.60296 0.787808 0.21265
0.631678 0.776272 0.209979
0.656092 0.7635 0.207523
0.680049 0.760479 0.208621
0.704356 0.762737 0.20856
0.724712 0.764294 0.208331
0.744335 0.761776 0.21239
0.759915 0.760143 0.215091
0.772427 0.758862 0.218723
0.783093 0.758373 0.221973
0.790784 0.75816 0.225498
0.792981 0.757519 0.2262
0.79321 0.756771 0.225437
0.793301 0.755749 0.224125
0.793362 0.754818 0.223087
0.793027 0.753445 0.222004
0.79263 0.752544 0.221256
0.233829 0.778027 0.33962
0.233738 0.777966 0.340505
0.233738 0.776959 0.33814
0.23566 0.773129 0.322377
0.23827 0.767102 0.299794
0.241627 0.7617 0.278172
0.24181 0.761242 0.277119
0.241596 0.761181 0.277317
0.258183 0.768795 0.281498
0.290593 0.779171 0.280156
0.321309 0.783902 0.276844
0.3411 0.787427 0.279484
0.378775 0.791119 0.276295
0.448692 0.795422 0.2589
0.524041 0.799527 0.234241
0.57499 0.802304 0.225391
0.607477 0.803662 0.226032
0.63415 0.79585 0.226154
0.658579 0.784604 0.222416
0.683406 0.775448 0.223392
0.704204 0.777401 0.22475
0.724681 0.779553 0.224537
0.742275 0.780758 0.225513
0.758785 0.779004 0.22974
0.772732 0.777829 0.233997
0.784497 0.776593 0.236973
0.794415 0.776425 0.238178
0.798871 0.775662 0.237354
0.799008 0.775036 0.236118
0.799084 0.774227 0.23473
0.799023 0.77322 0.2336
0.798901 0.772061 0.232883
0.798672 0.770932 0.232288
0.233341 0.779873 0.347982
0.233677 0.77763 0.340108
0.233494 0.777752 0.342397
0.234821 0.774472 0.329122
0.237125 0.768811 0.307073
0.240177 0.764035 0.287465
0.241794 0.761242 0.277134
0.241718 0.761059 0.276722
0.25095 0.765774 0.281056
0.288899 0.779248 0.281956
0.323995 0.785351 0.279973
0.349386 0.789181 0.281163
0.383871 0.79234 0.278279
0.441459 0.796994 0.268391
0.524956 0.801587 0.241382
0.576089 0.805295 0.235767
0.610452 0.807843 0.23772
0.63801 0.806683 0.237385
0.661341 0.801251 0.236561
0.684672 0.793469 0.236255
0.706615 0.78912 0.238315
0.725032 0.791623 0.238926
0.742718 0.792966 0.239628
0.757366 0.794034 0.241077
0.771801 0.793469 0.24593
0.784665 0.792676 0.248737
0.79678 0.792935 0.247532
0.801175 0.792874 0.24625
0.80206 0.79237 0.245624
0.800946 0.791775 0.245426
0.800809 0.790997 0.244175
0.801633 0.789563 0.242084
0.80238 0.788281 0.239979
0.232609 0.781872 0.359411
0.233417 0.777813 0.343359
0.233371 0.777768 0.343816
0.233936 0.776242 0.337438
0.236515 0.770397 0.313527
0.239811 0.764294 0.289128
0.24181 0.761227 0.277073
0.242161 0.761242 0.276585
0.249317 0.765194 0.280827
0.287648 0.778866 0.282231
0.324865 0.785595 0.280278
0.351324 0.789456 0.281575
0.386038 0.79353 0.281239
0.440238 0.798932 0.276509
0.522072 0.804913 0.255131
0.578119 0.810254 0.253773
0.612177 0.810987 0.248325
0.638712 0.811002 0.244816
0.663066 0.809781 0.245075
0.6851 0.803922 0.24741
0.707225 0.798428 0.250111
0.725078 0.799924 0.251987
0.743008 0.801755 0.251591
0.758083 0.802945 0.252628
0.771221 0.804578 0.255299
0.784344 0.803906 0.260197
0.796307 0.803845 0.262348
0.803784 0.803952 0.263142
0.804959 0.803693 0.262455
0.803571 0.803525 0.26334
0.802563 0.803159 0.263416
0.801953 0.802502 0.262669
0.802136 0.801556 0.26128
0.231418 0.78407 0.373526
0.232944 0.779156 0.351797
0.233265 0.777752 0.345129
0.233494 0.776684 0.340764
0.235828 0.77203 0.320104
0.239368 0.764782 0.2916
0.24181 0.761212 0.277073
0.241672 0.760983 0.276555
0.245731 0.763714 0.280247
0.28571 0.778439 0.282841
0.323064 0.78529 0.280339
0.351263 0.789258 0.28098
0.384924 0.793561 0.281804
0.439811 0.800381 0.282017
0.517891 0.806897 0.266011
0.574823 0.813199 0.267353
0.612131 0.814008 0.261646
0.637705 0.812253 0.249424
0.66247 0.813153 0.249134
0.684642 0.809567 0.252369
0.706569 0.804349 0.258015
0.723232 0.804837 0.259663
0.741619 0.806821 0.260136
0.757702 0.808118 0.260304
0.770581 0.80911 0.261295
0.782696 0.809995 0.265888
0.794766 0.81001 0.271504
0.80296 0.80943 0.272251
0.80592 0.809384 0.27332
0.804746 0.809644 0.274647
0.803784 0.809598 0.27512
0.803326 0.809445 0.27509
0.803311 0.809247 0.274632
0.231113 0.78616 0.383703
0.232242 0.780728 0.361425
0.232975 0.777722 0.348882
0.233082 0.777325 0.345922
0.235142 0.773251 0.326711
0.238956 0.765652 0.295689
0.241794 0.761196 0.277165
0.241642 0.761028 0.276844
0.243946 0.763088 0.28043
0.283177 0.777935 0.283864
0.321614 0.784817 0.279683
0.349294 0.788983 0.280735
0.382788 0.793317 0.282048
0.435538 0.799344 0.280842
0.50811 0.805997 0.268391
0.570367 0.813046 0.268162
0.608164 0.814054 0.262211
0.63447 0.812863 0.252522
0.659388 0.812619 0.248157
0.681392 0.809888 0.251423
