bundles/resolve-cinematic-luts/Phantom Luts/Canon Film LUT/C-Log 3/Eastman Canon CL3.cube
TITLE "Generated by Resolve"
LUT_3D_SIZE 9
0.0390021 0.0390021 0.0390021
0.12932 0.0390021 0.0390021
0.286549 0.0390021 0.0393835
0.407309 0.0390021 0.0474708
0.502541 0.0390021 0.0719005
0.571344 0.0484932 0.172671
0.577249 0.0537881 0.202441
0.577646 0.0563211 0.220584
0.566979 0.0619211 0.232258
0.0544594 0.0966812 0.0554665
0.0737926 0.0713359 0.0479438
0.217304 0.0697642 0.041886
0.359945 0.0722515 0.0390631
0.460914 0.0830701 0.0450599
0.541466 0.0852979 0.0575418
0.552651 0.0729686 0.0664073
0.558633 0.0470436 0.0807355
0.546181 0.0504616 0.110903
0.088777 0.289128 0.0942092
0.0858015 0.260914 0.0785534
0.25359 0.261479 0.0789349
0.458579 0.253178 0.0871443
0.568978 0.215732 0.0762646
0.599054 0.177478 0.0681468
0.570062 0.145617 0.0601205
0.554421 0.129335 0.0515908
0.535622 0.121462 0.0484932
0.12668 0.505806 0.15938
0.125322 0.501625 0.134859
0.163897 0.485969 0.128267
0.45774 0.473594 0.0915236
0.61117 0.473915 0.103471
0.738293 0.454612 0.136767
0.789014 0.4215 0.164004
0.787778 0.414984 0.16463
0.782132 0.409552 0.163378
0.187869 0.682643 0.256428
0.194598 0.68249 0.230884
0.209583 0.661707 0.203555
0.418524 0.670359 0.164828
0.59762 0.631754 0.130327
0.698878 0.626307 0.146242
0.771511 0.631022 0.164294
0.780636 0.628809 0.164981
0.779049 0.625498 0.164996
0.233433 0.777157 0.341344
0.238087 0.766186 0.301732
0.25771 0.767208 0.281422
0.377127 0.775662 0.259831
0.595987 0.76585 0.200824
0.701427 0.746136 0.196078
0.766247 0.739132 0.208865
0.783703 0.73756 0.212894
0.786892 0.732235 0.206424
0.232609 0.781872 0.359411
0.236515 0.770397 0.313527
0.249317 0.765194 0.280827
0.386038 0.79353 0.281239
0.612177 0.810987 0.248325
0.707225 0.798428 0.250111
0.771221 0.804578 0.255299
0.804959 0.803693 0.262455
0.802136 0.801556 0.26128
0.231968 0.790677 0.386786
0.234913 0.775692 0.327306
0.246342 0.763027 0.267002
0.375921 0.791928 0.270405
0.604807 0.812848 0.251606
0.702983 0.806439 0.244358
0.76936 0.806958 0.251423
0.81178 0.80763 0.264561
0.812696 0.80766 0.264851
0.232288 0.796246 0.419028
0.233021 0.777173 0.346593
0.243244 0.761288 0.270649
0.357763 0.789868 0.273213
0.580484 0.811688 0.254032
0.688243 0.809339 0.243412
0.758938 0.806622 0.25304
0.806287 0.808515 0.266804
0.807187 0.809079 0.271443
0.0390021 0.0390021 0.0607462
0.115251 0.0390021 0.0939498
0.269184 0.0390021 0.127443
0.389548 0.0390021 0.162722
0.488899 0.0390021 0.200992
0.563302 0.0641337 0.252689
0.569131 0.0689708 0.272328
0.56997 0.0708171 0.285817
0.560159 0.0754864 0.294804
0.0475929 0.058854 0.0591745
0.0469673 0.0390021 0.045182
0.229023 0.0390021 0.0390021
0.370932 0.0400702 0.0449836
0.473594 0.0390021 0.0616465
0.552819 0.0530556 0.169955
0.561044 0.0584573 0.200855
0.562005 0.0609751 0.218524
0.553872 0.0658427 0.230945
0.0803235 0.250141 0.130968
0.0699626 0.239994 0.0840467
0.223392 0.234104 0.0754711
0.442542 0.192172 0.0757153
0.524651 0.164141 0.0566415
0.531746 0.121843 0.0478981
0.540963 0.110887 0.0525826
0.541619 0.102403 0.0552987
0.533425 0.0945754 0.0581826
0.121736 0.490394 0.214054
0.117586 0.485237 0.165316
0.132464 0.47097 0.126726
0.448051 0.461402 0.0902113
0.619348 0.454063 0.102754
0.743954 0.416342 0.141817
0.781689 0.38587 0.156268
0.777905 0.380087 0.152499
0.768643 0.375097 0.149569
0.176349 0.67689 0.312901
0.178424 0.668528 0.264012
0.188098 0.659113 0.205905
0.369482 0.658396 0.171405
0.590997 0.622187 0.125887
0.699535 0.614343 0.142519
0.775357 0.615457 0.159915
0.781659 0.612055 0.160555
0.780102 0.607599 0.160891
0.23125 0.795865 0.416159
0.231418 0.777417 0.354513
0.24065 0.7617 0.284352
0.330892 0.768917 0.263996
0.579309 0.765423 0.198932
0.694713 0.738277 0.189044
0.761532 0.728634 0.201785
0.778393 0.725719 0.206622
0.776547 0.720623 0.203662
0.236423 0.809644 0.452827
0.231922 0.783169 0.367346
0.241703 0.761379 0.277729
0.350042 0.789334 0.281453
0.591913 0.808499 0.243748
0.694865 0.797101 0.243763
0.763745 0.799084 0.2486
0.802426 0.79649 0.254078
0.798917 0.793652 0.254948
0.241382 0.818463 0.4813
0.231693 0.791852 0.395483
0.240986 0.76556 0.282338
0.342504 0.787137 0.267643
0.575509 0.811322 0.252964
0.687907 0.809583 0.241001
0.760037 0.806302 0.251286
0.808774 0.807996 0.264424
0.803967 0.809903 0.275868
0.243946 0.82324 0.494636
0.232975 0.798077 0.417334
0.237919 0.768933 0.301961
0.325017 0.784955 0.269764
0.538903 0.808667 0.257588
0.672953 0.811643 0.239963
0.748028 0.805783 0.253132
0.799268 0.808835 0.266606
0.80296 0.810208 0.27689
0.0390021 0.0417029 0.149477
0.126925 0.0390021 0.20174
0.255909 0.0390021 0.209598
0.382437 0.0390021 0.24445
0.494087 0.0458381 0.278691
0.571801 0.0733501 0.322164
0.577996 0.0762951 0.339178
0.579263 0.0776989 0.352148
0.57055 0.0813001 0.360678
0.0390021 0.0686809 0.110048
0.0390021 0.0403143 0.141619
0.215076 0.0390021 0.17818
0.368231 0.0390021 0.192721
0.475929 0.0400092 0.224186
0.561379 0.0677958 0.273793
0.570062 0.0723278 0.296193
0.572229 0.0746471 0.311742
0.564294 0.0783856 0.321386
0.0628824 0.218509 0.174685
0.0573587 0.200992 0.164218
0.244236 0.243656 0.242847
0.455268 0.155474 0.190875
0.533547 0.0832074 0.16257
0.555688 0.0518959 0.178271
0.566873 0.0582895 0.206836
0.567147 0.060029 0.22005
0.560891 0.0643626 0.231235
0.128573 0.485924 0.304952
0.12134 0.472755 0.268635
0.116686 0.463294 0.179004
0.438743 0.459663 0.143648
0.649012 0.422538 0.170657
0.75552 0.358968 0.18175
0.773754 0.327932 0.18584
0.770077 0.313146 0.189822
0.757366 0.304845 0.190265
0.175448 0.676509 0.397498
0.167605 0.663279 0.360861
0.167086 0.646586 0.262623
0.249851 0.645884 0.189487
0.579812 0.608179 0.121019
0.706523 0.595117 0.139071
0.785626 0.590143 0.159487
0.789197 0.583185 0.161685
0.788357 0.57615 0.163439
0.235492 0.810193 0.492119
0.228779 0.796216 0.455116
0.225818 0.772641 0.36463
0.277195 0.758511 0.263203
0.548837 0.767849 0.202609
0.684779 0.726818 0.179324
0.756313 0.71252 0.192935
0.774151 0.707515 0.196536
0.773648 0.70071 0.193149
0.257328 0.846448 0.544015
0.244999 0.825116 0.498665
0.231083 0.78558 0.381064
0.277333 0.775509 0.282155
0.535698 0.80473 0.248096
0.673075 0.794125 0.233326
0.753491 0.790585 0.237644
0.798108 0.78349 0.243885
0.794339 0.778546 0.241794
0.263111 0.855085 0.56846
0.251026 0.835019 0.522164
0.231815 0.794568 0.408698
0.258656 0.767895 0.271031
0.493782 0.804822 0.265095
0.664179 0.810544 0.23592
0.744915 0.805661 0.251713
0.801373 0.808652 0.264668
0.804288 0.809873 0.275776
0.264942 0.857877 0.576516
0.253254 0.838788 0.531777
0.23331 0.800595 0.427314
0.252049 0.765225 0.269902
0.452018 0.800275 0.269581
0.647395 0.811109 0.238743
0.729534 0.803845 0.252674
0.787518 0.80972 0.262943
0.802502 0.810376 0.27779
0.0390021 0.0537423 0.254215
0.114916 0.0436713 0.310506
0.262608 0.0390021 0.309941
0.372595 0.0390021 0.318242
0.481712 0.0468147 0.349905
0.573022 0.0754864 0.393393
0.577111 0.079408 0.409979
0.575097 0.0825208 0.422187
0.570611 0.0862287 0.429953
0.0390021 0.0810254 0.230686
0.0390021 0.0529183 0.254704
0.195407 0.0390021 0.315221
0.357778 0.0390021 0.304753
0.4701 0.0417334 0.327886
0.570871 0.074464 0.368673
0.578973 0.0779278 0.388205
0.57705 0.0782788 0.400092
0.569665 0.0815595 0.406699
0.0410163 0.190265 0.261967
0.0390021 0.160906 0.269413
0.103548 0.150103 0.338094
0.393957 0.0943008 0.345632
0.469474 0.0439918 0.300359
0.559991 0.0700999 0.325902
0.579736 0.0768749 0.34551
0.579095 0.0780346 0.356573
0.572808 0.0805371 0.363561
0.108309 0.461311 0.380545
0.105287 0.45156 0.374975
0.103868 0.439979 0.366827
0.476646 0.492027 0.478508
0.659403 0.394278 0.418585
0.771527 0.314672 0.388891
0.798993 0.27631 0.401266
0.79205 0.263569 0.41265
0.775708 0.253971 0.416999
0.169879 0.668589 0.474784
0.169543 0.662226 0.465629
0.168612 0.653422 0.434897
0.272953 0.662638 0.411475
0.583978 0.625208 0.357763
0.754849 0.583642 0.375082
0.831159 0.541054 0.362722
0.83241 0.529107 0.365225
0.828473 0.517891 0.365225
0.231785 0.808148 0.559579
0.230594 0.800748 0.546334
0.225299 0.789151 0.508629
0.217838 0.760815 0.382284
0.468391 0.750683 0.333486
0.668605 0.720455 0.277577
0.768872 0.702556 0.299153
0.802823 0.693904 0.304814
0.803616 0.684611 0.304692
0.271611 0.874937 0.624063
0.270954 0.869184 0.606592
0.260731 0.850996 0.560159
0.231235 0.790234 0.39913
0.420554 0.801587 0.297246
0.641993 0.79617 0.240909
0.743603 0.783398 0.235843
0.795712 0.77116 0.243839
0.794568 0.76466 0.241642
0.272587 0.876036 0.639979
0.272877 0.87332 0.619699
0.264286 0.856565 0.573648
0.232792 0.797559 0.421698
0.364385 0.792889 0.286198
0.621866 0.816739 0.271153
0.721325 0.80679 0.26006
0.787366 0.811704 0.272633
0.805188 0.809934 0.276326
0.272465 0.875944 0.643061
0.273274 0.873976 0.622583
0.265248 0.858442 0.577279
0.235309 0.805203 0.441947
0.329854 0.788434 0.284031
0.598077 0.817258 0.278721
0.701534 0.808301 0.254948
0.772808 0.810803 0.262638
0.804868 0.810071 0.276631
0.0390021 0.0651713 0.328237
0.106065 0.0549783 0.38407
0.263035 0.0390021 0.404715
0.376822 0.0390021 0.395407
0.477485 0.0556802 0.414603
0.568963 0.0883497 0.45594
0.575097 0.0930495 0.474876
0.575631 0.0951095 0.487022
0.575463 0.0971084 0.495872
0.0390021 0.0950484 0.317784
0.0390021 0.0646677 0.331594
0.170794 0.0476997 0.402426
0.357595 0.0390021 0.39675
0.46537 0.0512703 0.405249
0.562173 0.084184 0.441779
0.574533 0.0907301 0.46125
0.575021 0.0929122 0.472953
0.574151 0.0943465 0.480568
0.0390021 0.168154 0.335271
0.0390021 0.134112 0.336889
0.0421454 0.0945602 0.36762
0.327794 0.0449836 0.409644
0.451972 0.0463874 0.392538
0.550072 0.0770886 0.41883
0.573129 0.0863508 0.43769
0.573388 0.0879225 0.446128
0.572259 0.0898756 0.452293
0.0913863 0.446036 0.457893
0.0851301 0.424399 0.456306
0.0734875 0.386496 0.451759
0.359762 0.42005 0.579538
0.637873 0.351492 0.583734
0.742687 0.263554 0.551629
0.740444 0.208316 0.535317
0.728252 0.197513 0.53077
0.70721 0.185626 0.519036
0.148821 0.643366 0.541497
0.147051 0.636622 0.537011
0.144228 0.627909 0.530205
0.26891 0.644968 0.561257
0.620752 0.645335 0.623926
0.767895 0.566629 0.572091
0.832471 0.498161 0.53283
0.83473 0.482094 0.534539
0.828717 0.470863 0.534569
0.214496 0.788312 0.60827
0.213428 0.781781 0.600992
0.211246 0.774136 0.583535
0.212573 0.765393 0.546578
0.488365 0.770764 0.576104
0.699443 0.747707 0.541512
0.817273 0.710002 0.549126
0.84976 0.681788 0.537011
0.847913 0.666743 0.531579
0.263828 0.871519 0.673472
0.262623 0.865873 0.661921
0.260548 0.859129 0.639811
0.256596 0.84596 0.589471
0.409659 0.842237 0.552804
0.602808 0.818586 0.513207
0.74931 0.803616 0.499931
0.819165 0.782696 0.489265
0.822553 0.774029 0.486854
0.266209 0.87541 0.687831
0.268681 0.875685 0.676799
0.27155 0.876249 0.65655
0.271855 0.870558 0.610239
0.280415 0.831937 0.496635
0.582773 0.843412 0.509163
0.710292 0.835523 0.450111
0.791363 0.835264 0.46833
0.819379 0.828962 0.467338
0.266545 0.875135 0.691432
0.268482 0.875563 0.678859
0.271366 0.876234 0.658122
0.272328 0.871702 0.613413
0.250385 0.818235 0.473655
0.539437 0.834592 0.471397
0.681498 0.834379 0.424033
0.767834 0.829435 0.414343
0.813535 0.827146 0.418219
0.0390021 0.0819409 0.381903
0.102434 0.0703593 0.438376
0.253513 0.0580606 0.475883
0.386664 0.0565194 0.475914
0.47599 0.0632334 0.471046
0.571084 0.0972305 0.505074
0.575021 0.101137 0.519265
0.574929 0.102602 0.527886
0.574365 0.103105 0.531579
0.0390021 0.110384 0.374762
0.0390021 0.0817884 0.385718
0.157015 0.0665293 0.460548
0.358709 0.0561837 0.47863
0.464118 0.0603494 0.468101
0.562936 0.0936751 0.498116
0.575784 0.0999771 0.512886
0.575265 0.101488 0.521218
0.575021 0.102434 0.526879
0.0390021 0.154696 0.382498
0.0390021 0.123217 0.378515
0.0390021 0.0813306 0.395361
0.300587 0.0563821 0.480095
0.448035 0.0575723 0.465797
0.551843 0.0879988 0.486366
0.576699 0.0977951 0.50135
0.57673 0.0990463 0.507729
0.57554 0.0998093 0.511452
0.0784466 0.41854 0.504753
0.07187 0.396567 0.500969
0.0616159 0.355962 0.493004
0.269627 0.355444 0.613092
0.59704 0.301991 0.67747
0.715297 0.243977 0.636088
0.710811 0.197955 0.59765
0.6851 0.177752 0.578592
0.663188 0.162219 0.561578
0.143969 0.641566 0.595239
0.140475 0.632136 0.595499
0.133913 0.614572 0.596445
0.184039 0.60296 0.624338
0.546853 0.606302 0.71693
0.761471 0.54963 0.712291
0.83183 0.479744 0.677195
0.837079 0.4607 0.67454
0.831891 0.449393 0.67068
0.199298 0.766934 0.658061
0.196185 0.759411 0.651804
0.191241 0.749493 0.642786
0.185138 0.734462 0.629007
0.518013 0.76083 0.697414
0.729793 0.758038 0.732082
0.832654 0.706462 0.697826
0.863584 0.65481 0.667399
0.859083 0.638025 0.661768
0.251377 0.856916 0.707805
0.248905 0.850568 0.698589
0.244236 0.842451 0.6822
0.238773 0.829953 0.652079
0.428656 0.857252 0.679057
0.642512 0.839078 0.702388
0.787518 0.831052 0.68603
0.866117 0.805997 0.686671
0.871717 0.79263 0.678325
0.261143 0.87216 0.725353
0.263371 0.873137 0.716518
0.265461 0.874556 0.702739
0.268864 0.875868 0.678828
0.293965 0.886427 0.647227
0.569146 0.87332 0.669078
0.724132 0.873106 0.658351
0.82945 0.874983 0.678447
0.859434 0.861128 0.662196
0.261311 0.871519 0.729137
0.263081 0.872801 0.719066
0.265309 0.874495 0.704158
0.268696 0.875639 0.678813
0.275029 0.877028 0.633768
0.512734 0.861738 0.62623
0.726375 0.887053 0.677058
0.806241 0.881331 0.643183
0.875334 0.902785 0.73022
0.0390021 0.111147 0.423056
0.0997482 0.102068 0.483055
0.248585 0.0931868 0.534783
0.398657 0.0872053 0.544625
0.490608 0.0823987 0.524727
0.569406 0.101366 0.529931
0.573922 0.103258 0.53254
0.573938 0.103212 0.532601
0.574029 0.103182 0.532677
0.0390021 0.126558 0.413031
0.0390021 0.110948 0.42562
0.151995 0.0994888 0.507088
0.363592 0.0888075 0.546685
0.48069 0.0832837 0.527886
0.561105 0.0986343 0.528435
0.573877 0.103243 0.532555
0.573877 0.103243 0.532555
0.573907 0.103227 0.53257
0.0390021 0.163928 0.42118
0.0390021 0.136477 0.415335
0.0390021 0.110719 0.432883
0.293492 0.0914015 0.542138
0.459709 0.0822766 0.530053
0.549569 0.0943465 0.523796
0.574441 0.103029 0.53048
0.574121 0.103243 0.531975
0.573938 0.103258 0.532509
0.0732586 0.40734 0.53875
0.0678721 0.384512 0.534081
0.0590219 0.341924 0.52224
0.215259 0.326879 0.628412
0.553109 0.27747 0.725383
0.68484 0.224033 0.672953
0.661555 0.166583 0.601968
0.654154 0.16054 0.59617
0.640131 0.150637 0.583398
0.138354 0.625238 0.636362
0.133425 0.611048 0.635523
0.125978 0.58822 0.63505
0.145342 0.566506 0.65275
0.487282 0.57229 0.763149
0.736812 0.524422 0.793118
0.827604 0.471382 0.752178
0.835981 0.450431 0.74464
0.832807 0.437766 0.741176
0.199115 0.766888 0.689433
0.195666 0.759319 0.686366
0.189807 0.748074 0.682353
0.179095 0.725475 0.679179
0.472724 0.736797 0.758801
0.681712 0.732586 0.799771
0.829892 0.693263 0.793362
0.865522 0.639292 0.763836
0.861555 0.623774 0.758083
0.24477 0.84538 0.735943
0.24033 0.837537 0.728893
0.233814 0.827375 0.719188
0.22443 0.811963 0.704051
0.40296 0.835569 0.744427
0.670192 0.836469 0.786786
0.808911 0.837369 0.808698
0.881376 0.805264 0.788479
0.889281 0.783246 0.776547
0.259556 0.868482 0.752758
0.260487 0.868513 0.747631
0.26128 0.87013 0.737652
0.261372 0.869673 0.719966
0.271763 0.871443 0.699733
0.602457 0.897368 0.767758
0.754208 0.892454 0.796002
0.856275 0.892714 0.794064
0.893858 0.881636 0.794537
0.260014 0.86894 0.756115
0.260212 0.868254 0.750103
0.261128 0.869871 0.739345
0.263188 0.87277 0.719753
0.26891 0.878355 0.696376
0.52285 0.916747 0.743099
0.716228 0.907042 0.781003
0.831403 0.917388 0.791928
0.900664 0.931182 0.842542
0.0390021 0.12546 0.443091
0.103349 0.12723 0.510079
0.257115 0.123156 0.572259
0.418357 0.112596 0.583978
0.505135 0.0919509 0.541939
0.573022 0.10277 0.532326
0.573861 0.103243 0.53254
0.573861 0.103243 0.53254
0.573999 0.103197 0.532647
0.0390021 0.140078 0.433845
0.0390021 0.125689 0.444312
0.15491 0.125826 0.534722
0.379507 0.117189 0.588434
0.495079 0.0950484 0.549813
0.56466 0.100343 0.531792
0.573861 0.103243 0.53254
0.573877 0.103243 0.532555
0.573907 0.103227 0.532586
0.0390021 0.191546 0.458228
0.0390021 0.155535 0.442557
0.0390021 0.126421 0.449668
0.299596 0.121096 0.580941
0.474937 0.100816 0.562814
0.550759 0.0957198 0.530999
0.573892 0.103243 0.53254
0.573892 0.103243 0.53254
0.573892 0.103243 0.53254
0.0727398 0.401831 0.564721
0.0674449 0.378805 0.557565
0.0591592 0.337118 0.540917
0.175891 0.303517 0.620798
0.52015 0.253864 0.7299
0.649424 0.198993 0.664469
0.634058 0.14847 0.587243
0.616251 0.134188 0.569512
0.586984 0.112596 0.543236
0.135012 0.610849 0.662318
0.130465 0.597177 0.660777
0.123583 0.57615 0.658824
0.118181 0.542489 0.659968
0.438544 0.547692 0.787366
0.69984 0.509117 0.840742
0.818494 0.460258 0.795819
0.833448 0.437186 0.785611
0.829664 0.423957 0.781353
0.200397 0.766781 0.714992
0.1944 0.755383 0.712016
0.186313 0.738201 0.710094
0.171908 0.703929 0.707347
0.4159 0.70985 0.788464
0.631586 0.704555 0.834318
0.811612 0.671046 0.847837
0.864347 0.625208 0.814664
0.861204 0.608835 0.809445
0.24419 0.843824 0.750393
0.239536 0.835859 0.745647
0.2336 0.82594 0.740444
0.224155 0.810101 0.733455
0.320043 0.823285 0.772503
0.635828 0.821836 0.829435
0.778897 0.821164 0.855039
0.878187 0.794476 0.851148
0.888029 0.769451 0.838758
0.263188 0.872389 0.769345
0.26244 0.871092 0.766247
0.260609 0.868238 0.761273
0.25507 0.860044 0.752148
0.256748 0.854505 0.746609
0.594965 0.88751 0.819501
0.774212 0.889525 0.849989
0.868116 0.894652 0.865064
0.907134 0.883726 0.860075
0.264088 0.873442 0.772183
0.263218 0.871962 0.768765
0.261707 0.870146 0.763317
0.260456 0.868299 0.753811
0.263066 0.872679 0.742535
0.474998 0.918822 0.788006
0.731701 0.92163 0.840955
0.855787 0.930632 0.873106
0.905104 0.933989 0.879545
0.0390021 0.126543 0.455756
0.121996 0.126345 0.518959
0.271351 0.122713 0.575982
0.426947 0.111498 0.582422
0.509575 0.0905165 0.538277
0.573861 0.103243 0.53254
0.573861 0.103243 0.53254
0.573861 0.103243 0.53254
0.573892 0.103227 0.53257
0.0390021 0.135958 0.431357
0.0390021 0.126528 0.455497
0.170306 0.125948 0.54168
0.388312 0.11574 0.58735
0.499046 0.0939498 0.547005
0.567132 0.101137 0.531701
0.573861 0.103243 0.53254
0.573861 0.103243 0.53254
0.573877 0.103243 0.532555
0.0390021 0.193774 0.462638
0.0390021 0.150881 0.439582
0.0390021 0.126741 0.457038
0.308949 0.12076 0.582712
0.477653 0.100008 0.561273
0.553994 0.0968338 0.531365
0.573877 0.103243 0.53254
0.573892 0.103243 0.53254
0.573892 0.103243 0.53254
0.0727855 0.399817 0.578744
0.0657816 0.369863 0.561166
0.0545052 0.312901 0.527901
0.15964 0.267109 0.598321
0.499306 0.215854 0.696696
0.607721 0.165621 0.626368
0.605478 0.126543 0.560479
0.57406 0.103426 0.532723
0.573678 0.103014 0.532235
0.134997 0.605951 0.679088
0.130175 0.592233 0.675456
0.121447 0.568292 0.665217
0.109163 0.525277 0.650904
0.427649 0.530632 0.784588
0.690105 0.490623 0.838483
0.811856 0.443732 0.794568
0.828229 0.41886 0.78143
0.825071 0.40415 0.777157
0.198535 0.760983 0.730907
0.192248 0.747753 0.72813
0.183337 0.728405 0.724056
0.167452 0.690349 0.7131
0.385351 0.691279 0.790631
0.607706 0.686656 0.841321
0.795956 0.654917 0.862242
0.861158 0.607156 0.826307
0.860227 0.589975 0.823697
0.247196 0.846693 0.76228
0.242542 0.838911 0.758465
0.235019 0.827283 0.753475
0.222766 0.806119 0.747173
0.274983 0.805432 0.777768
0.601129 0.801541 0.843961
0.747768 0.802441 0.872068
0.869627 0.779141 0.876417
0.885634 0.754971 0.863447
0.258442 0.878172 0.767681
0.257969 0.876982 0.767239
0.255177 0.872908 0.764584
0.248585 0.862577 0.758404
0.242786 0.852872 0.755764
0.544869 0.889525 0.84123
0.753384 0.883513 0.870512
0.857069 0.888121 0.892241
0.906966 0.878233 0.893782
0.265736 0.875212 0.776547
0.265797 0.875196 0.776623
0.2654 0.87483 0.775799
0.264332 0.873274 0.772473
0.264439 0.873976 0.769818
0.369009 0.904768 0.805722
0.721035 0.920104 0.868162
0.862226 0.924834 0.895933
0.909316 0.932265 0.901915
