bundles/resolve-cinematic-luts/Phantom Luts/Canon Film LUT/C-Log 3/EastmanRM Canon-Legacy CL3.cube
TITLE "Generated by Resolve"
LUT_3D_SIZE 9
0.0480812 0.049958 0.0483406
0.126726 0.0408331 0.0437171
0.289235 0.0339666 0.0442054
0.451774 0.0313115 0.0552224
0.55407 0.0333562 0.0751812
0.621225 0.0513924 0.129564
0.629145 0.0565347 0.147036
0.630426 0.0598917 0.157549
0.593576 0.0695964 0.20795
0.0515297 0.0934005 0.0506294
0.055436 0.067155 0.0484016
0.17998 0.0613413 0.0454261
0.400397 0.0344091 0.0407111
0.520577 0.0328069 0.051194
0.588083 0.0438849 0.0855268
0.60061 0.0453346 0.0979629
0.608606 0.0475471 0.11252
0.577859 0.0552682 0.156451
0.0670787 0.222522 0.0540932
0.0588846 0.204791 0.0576486
0.185687 0.196918 0.0589456
0.436484 0.166217 0.0567025
0.549187 0.123354 0.054078
0.575051 0.0472877 0.0641337
0.588083 0.0460212 0.0777295
0.587213 0.0451972 0.0810101
0.564248 0.0482338 0.0985122
0.0547799 0.419455 0.0432441
0.0488441 0.421347 0.0430915
0.0684215 0.402106 0.0424964
0.447761 0.456962 0.0628519
0.669429 0.442329 0.0880751
0.779095 0.361501 0.11313
0.788647 0.320836 0.127901
0.777005 0.300481 0.123827
0.762478 0.292439 0.133471
0.109041 0.583169 0.100816
0.111833 0.590768 0.106569
0.108675 0.574273 0.0840772
0.284535 0.605112 0.0796826
0.651301 0.663615 0.132113
0.793179 0.653864 0.208789
0.84744 0.638788 0.255009
0.847623 0.632288 0.250294
0.846006 0.630579 0.251057
0.22562 0.698222 0.250629
0.213489 0.697322 0.243153
0.218677 0.693889 0.210483
0.307378 0.699947 0.216541
0.615808 0.815259 0.313344
0.79292 0.833143 0.349798
0.881315 0.824231 0.391287
0.887327 0.822766 0.391196
0.891371 0.821988 0.380087
0.217548 0.702922 0.282063
0.216587 0.699794 0.260624
0.221592 0.693141 0.201526
0.331991 0.710872 0.231464
0.599847 0.820432 0.344854
0.787335 0.886992 0.42565
0.887694 0.898329 0.473716
0.905394 0.896406 0.489647
0.903944 0.896727 0.494728
0.214237 0.709438 0.316793
0.223697 0.699062 0.256168
0.237507 0.692439 0.180316
0.348852 0.713451 0.213184
0.61474 0.826505 0.328832
0.787717 0.88571 0.404471
0.884474 0.897185 0.456641
0.908553 0.895491 0.477928
0.902144 0.897185 0.500404
0.20885 0.716701 0.348745
0.212116 0.702312 0.278309
0.229023 0.69276 0.190799
0.349279 0.713756 0.215839
0.614389 0.826581 0.330098
0.791897 0.887388 0.408347
0.883314 0.897292 0.45594
0.908171 0.895613 0.479347
0.901839 0.897276 0.501945
0.0454719 0.052079 0.0604715
0.0964523 0.0510414 0.0792706
0.252811 0.047013 0.094255
0.42359 0.0402075 0.108141
0.53698 0.042237 0.13959
0.610941 0.0682841 0.200061
0.621744 0.0773327 0.227192
0.623896 0.0833295 0.249546
0.60116 0.0926223 0.289952
0.0491798 0.0603647 0.0527504
0.0486458 0.0499123 0.0488899
0.18706 0.0429541 0.0578622
0.394415 0.0347448 0.068452
0.514931 0.035935 0.0976425
0.59321 0.0564584 0.159167
0.600107 0.061387 0.175845
0.603052 0.0648051 0.186023
0.58323 0.0707866 0.216327
0.0662242 0.19408 0.0918441
0.0571298 0.19292 0.0645151
0.164981 0.179187 0.0600595
0.409766 0.126802 0.0509651
0.516915 0.0729839 0.0545815
0.569574 0.0448615 0.0814984
0.581735 0.0459449 0.0935683
0.587533 0.0464179 0.101518
0.569085 0.0501106 0.126406
0.051957 0.402686 0.0773022
0.047776 0.404654 0.0552377
0.0547951 0.391089 0.042359
0.434119 0.441794 0.0621653
0.673228 0.406348 0.0803082
0.767773 0.320058 0.111223
0.764782 0.27747 0.121843
0.751766 0.254612 0.120989
0.735088 0.24773 0.128054
0.0842908 0.574044 0.131914
0.0810254 0.578958 0.126299
0.10248 0.578256 0.0913863
0.225559 0.583352 0.0677043
0.647044 0.655253 0.124147
0.793805 0.641642 0.2047
0.845472 0.620691 0.241352
0.845426 0.612573 0.234897
0.841596 0.609628 0.235813
0.223056 0.706966 0.304479
0.21088 0.702571 0.280598
0.215274 0.694392 0.216114
0.28809 0.694835 0.207523
0.598184 0.808789 0.306264
0.787686 0.826535 0.338766
0.879011 0.814939 0.379294
0.883818 0.811566 0.380041
0.883696 0.810712 0.378561
0.214908 0.718441 0.356283
0.215351 0.704601 0.291691
0.21857 0.695155 0.226062
0.309377 0.705013 0.221424
0.565423 0.803662 0.326528
0.774685 0.884504 0.416938
0.882567 0.898543 0.469993
0.905348 0.896162 0.488701
0.903777 0.896742 0.494972
0.215198 0.727474 0.390768
0.221195 0.707851 0.30901
0.229801 0.695186 0.225391
0.319799 0.705852 0.201251
0.570642 0.805722 0.306447
0.77203 0.882567 0.397742
0.87837 0.89691 0.451255
0.908904 0.895384 0.476677
0.902419 0.897108 0.499504
0.214374 0.733486 0.414908
0.21503 0.715221 0.342214
0.222065 0.697688 0.245975
0.31957 0.705806 0.202457
0.569986 0.805722 0.307774
0.771817 0.882719 0.397925
0.875822 0.8972 0.450324
0.908171 0.895613 0.479347
0.901839 0.897276 0.501945
0.0418097 0.0641947 0.120424
0.0985428 0.0573129 0.153689
0.227405 0.0546426 0.164202
0.423056 0.0498817 0.196475
0.548379 0.0575113 0.23798
0.631006 0.0916609 0.279728
0.641505 0.100786 0.30518
0.64445 0.107301 0.326192
0.622675 0.117754 0.367269
0.0446937 0.0699474 0.0885328
0.04271 0.0621653 0.114275
0.172488 0.056733 0.14612
0.401404 0.0459144 0.139147
0.527199 0.0462806 0.171176
0.613092 0.0746166 0.222019
0.623407 0.0833448 0.249836
0.626917 0.0896162 0.271153
0.607065 0.0991073 0.310887
0.0628977 0.171832 0.129656
0.0543984 0.164508 0.135302
0.160159 0.176883 0.15845
0.431418 0.0929274 0.110109
0.535622 0.0430152 0.108721
0.601984 0.052491 0.141741
0.614572 0.0595407 0.162966
0.617548 0.0623941 0.171817
0.59765 0.068452 0.202869
0.0568399 0.383169 0.157641
0.0496986 0.382605 0.134417
0.0490425 0.384024 0.0703593
0.415747 0.427695 0.0943618
0.680888 0.340383 0.105013
0.75462 0.241672 0.141573
0.71899 0.17554 0.145769
0.690959 0.141421 0.131762
0.671443 0.132204 0.138888
0.0667582 0.5635 0.205493
0.0593271 0.5673 0.189853
0.0686198 0.564126 0.12105
0.137362 0.561059 0.0629587
0.636378 0.641733 0.114885
0.796368 0.617487 0.197055
0.842008 0.58265 0.21268
0.84094 0.566995 0.201801
0.835431 0.561822 0.206394
0.208927 0.712489 0.371267
0.201312 0.713771 0.359518
0.205112 0.701976 0.2907
0.238392 0.687968 0.198993
0.552758 0.789487 0.286107
0.780423 0.815641 0.317494
0.874372 0.797604 0.361364
0.877546 0.791485 0.36083
0.877638 0.78938 0.359503
0.226062 0.739986 0.439475
0.215579 0.73077 0.404273
0.213504 0.707012 0.304906
0.2365 0.694514 0.205188
0.483299 0.765301 0.286244
0.750469 0.87747 0.400748
0.875731 0.89752 0.463004
0.905135 0.89572 0.487572
0.903227 0.895842 0.492821
0.230396 0.748226 0.46978
0.220356 0.738567 0.434043
0.221622 0.709804 0.317968
0.242176 0.692866 0.181781
0.471901 0.759915 0.262928
0.74107 0.873625 0.381323
0.867185 0.897169 0.443275
0.909819 0.895125 0.473732
0.903319 0.89688 0.497124
0.230533 0.754711 0.495018
0.222568 0.745022 0.457588
0.218738 0.715511 0.344427
0.244465 0.693339 0.183169
0.471611 0.759731 0.262181
0.737453 0.872328 0.379263
0.861662 0.897093 0.440909
0.90811 0.895628 0.479286
0.90164 0.897368 0.503365
0.0411688 0.0806439 0.215915
0.076051 0.0654307 0.273487
0.212329 0.0607004 0.306844
0.396841 0.0567178 0.31339
0.54226 0.0702983 0.334218
0.64947 0.121614 0.376776
0.657374 0.129259 0.400488
0.655421 0.131762 0.417838
0.630686 0.140093 0.455833
0.0417639 0.0934005 0.183627
0.0414588 0.0799878 0.216938
0.132418 0.0623636 0.296178
0.372457 0.0571298 0.305653
0.536385 0.0679637 0.312215
0.646738 0.112215 0.34493
0.655085 0.120531 0.368643
0.6533 0.12604 0.38735
0.629709 0.136797 0.427802
0.0485237 0.157122 0.200229
0.0435492 0.14284 0.223224
0.0658579 0.129946 0.279438
0.36318 0.0876631 0.316655
0.539788 0.061738 0.261479
0.636912 0.0911574 0.28011
0.65272 0.101595 0.304112
0.655833 0.106172 0.319677
0.636118 0.11548 0.35639
0.0585184 0.353948 0.277668
0.0518502 0.348272 0.288304
0.0519875 0.338506 0.281254
0.415091 0.424277 0.397696
0.701885 0.312718 0.347112
0.813016 0.209339 0.344991
0.775647 0.170947 0.315831
0.748104 0.151904 0.29424
0.715221 0.14612 0.30277
0.067216 0.558801 0.334295
0.0575418 0.562966 0.348577
0.0558328 0.558816 0.303197
0.101991 0.57145 0.224323
0.612207 0.635889 0.278141
0.819837 0.557809 0.291371
0.879347 0.516548 0.284566
0.879637 0.503746 0.283482
0.872374 0.501457 0.297963
0.17734 0.703487 0.446723
0.168048 0.708736 0.452811
0.169177 0.706233 0.415381
0.186999 0.689433 0.287312
0.420447 0.725795 0.243717
0.76875 0.801617 0.295003
0.88014 0.776867 0.370001
0.88748 0.768154 0.374792
0.888197 0.764263 0.375998
0.253376 0.759487 0.513466
0.23714 0.759915 0.514214
0.225803 0.748653 0.470817
0.212268 0.710109 0.320073
0.358755 0.718395 0.2421
0.710185 0.864805 0.382269
0.867826 0.89604 0.451591
0.90753 0.891249 0.469978
0.906233 0.891112 0.472465
0.250065 0.768338 0.549447
0.242756 0.765011 0.535378
0.231037 0.753872 0.492103
0.219348 0.714519 0.339818
0.357015 0.716564 0.221897
0.692363 0.858701 0.365499
0.855161 0.896468 0.42591
0.91162 0.894575 0.467613
0.904921 0.896483 0.494469
0.248981 0.772259 0.568002
0.244999 0.76875 0.551049
0.235111 0.757931 0.506691
0.22092 0.718807 0.357504
0.342962 0.712322 0.216785
0.683345 0.855711 0.364157
0.840864 0.896071 0.430838
0.902907 0.896498 0.475959
0.902632 0.897124 0.502449
0.0419318 0.0978714 0.317769
0.0668498 0.0936294 0.364965
0.189761 0.0689708 0.420127
0.372625 0.0697642 0.437842
0.514199 0.0841077 0.440986
0.652125 0.135973 0.469978
0.660029 0.143725 0.49865
0.654978 0.148333 0.521401
0.633494 0.155962 0.551873
0.0418097 0.111788 0.302861
0.0419623 0.0977493 0.323842
0.0950484 0.0852827 0.392248
0.343984 0.068986 0.440269
0.508156 0.0827192 0.438727
0.650278 0.133165 0.455756
0.662226 0.140169 0.478477
0.658289 0.143847 0.498283
0.634363 0.152712 0.53315
0.0418555 0.143969 0.299947
0.0418097 0.128222 0.316258
0.0421454 0.102525 0.339284
0.285222 0.0730602 0.437781
0.491722 0.078233 0.431632
0.65095 0.123552 0.421118
0.675486 0.130755 0.433448
0.672969 0.134203 0.450355
0.644282 0.144045 0.489311
0.0450752 0.326101 0.370672
0.043183 0.307454 0.383658
0.0433814 0.277455 0.385657
0.228183 0.31046 0.501625
0.64332 0.2934 0.595743
0.772107 0.206043 0.50251
0.717754 0.15462 0.42298
0.70454 0.147356 0.417533
0.665553 0.144015 0.433661
0.0625925 0.530861 0.441474
0.0547189 0.530312 0.462013
0.0536202 0.52578 0.459312
0.0945907 0.536385 0.472114
0.608194 0.621042 0.5906
0.850263 0.535744 0.547478
0.923613 0.475608 0.547433
0.921935 0.464179 0.555047
0.912902 0.463127 0.569024
0.152911 0.681163 0.505714
0.133059 0.686061 0.525963
0.128939 0.68452 0.513176
0.123598 0.680751 0.471672
0.377615 0.728069 0.46421
0.74815 0.791211 0.53286
0.890562 0.725475 0.530755
0.901244 0.702876 0.518395
0.896269 0.699626 0.528435
0.262119 0.768673 0.584131
0.249683 0.772198 0.593133
0.247517 0.771878 0.579141
0.239506 0.763638 0.5337
0.273472 0.740978 0.407523
0.605692 0.817136 0.468681
0.860121 0.906264 0.584009
0.913008 0.90248 0.604654
0.9122 0.898726 0.609903
0.254337 0.768383 0.605203
0.247639 0.771405 0.605829
0.248402 0.772763 0.591058
0.244999 0.767865 0.54818
0.2374 0.725917 0.37847
0.603738 0.815534 0.462867
0.83653 0.907103 0.534874
0.908919 0.912657 0.582712
0.906126 0.915282 0.60676
0.248981 0.767712 0.619272
0.246525 0.769955 0.614572
0.247669 0.772473 0.599512
0.246952 0.769787 0.556497
0.227695 0.729458 0.39704
0.602991 0.815091 0.472541
0.818051 0.904173 0.549935
0.899275 0.914717 0.588174
0.905745 0.917037 0.623941
0.0423285 0.114443 0.385458
0.0592813 0.110307 0.433021
0.149157 0.0802472 0.491997
0.354726 0.0914931 0.522896
0.478569 0.105135 0.530129
0.627588 0.158358 0.580484
0.633692 0.16643 0.607691
0.633097 0.169116 0.621103
0.628809 0.170901 0.628305
0.0424048 0.129442 0.384405
0.0423896 0.114412 0.392325
0.0797894 0.111009 0.450782
0.308415 0.090135 0.520241
0.469566 0.104128 0.531884
0.621729 0.154879 0.573816
0.6383 0.164034 0.597696
0.634836 0.167239 0.611734
0.627024 0.170291 0.623224
0.0422065 0.144076 0.383246
0.0422675 0.13373 0.386007
0.0424353 0.114443 0.397848
0.213031 0.0833753 0.507149
0.451881 0.100649 0.531075
0.615015 0.14931 0.560128
0.648814 0.159808 0.578424
0.643687 0.162264 0.59089
0.629938 0.166522 0.606226
0.0437476 0.294835 0.43917
0.0439155 0.278843 0.443732
0.0433814 0.245396 0.44181
0.106142 0.233845 0.519677
0.550866 0.23006 0.67863
0.664927 0.189502 0.607462
0.66717 0.161151 0.554025
0.649821 0.153597 0.548043
0.635325 0.158099 0.563622
0.0520027 0.520088 0.523964
0.0498817 0.514092 0.532937
0.0482643 0.500191 0.534844
0.0496223 0.478325 0.546517
0.482582 0.543297 0.684001
0.818906 0.549279 0.769451
0.93875 0.489906 0.748257
0.937453 0.4766 0.752636
0.915053 0.479332 0.767376
0.128435 0.652262 0.578241
0.115267 0.65359 0.590341
0.111376 0.648951 0.586435
0.103258 0.640055 0.577371
0.388296 0.69575 0.638575
0.745846 0.76643 0.733822
0.907408 0.709255 0.70161
0.922454 0.690578 0.705318
0.914275 0.68925 0.71725
0.25211 0.756237 0.631479
0.232639 0.757717 0.641474
0.228946 0.75584 0.63238
0.22031 0.751049 0.611688
0.253162 0.762661 0.585367
0.633631 0.845884 0.673533
0.847333 0.891463 0.733257
0.912902 0.878996 0.752834
0.911864 0.874083 0.754849
0.259678 0.760494 0.650614
0.243687 0.763912 0.658289
0.242649 0.765774 0.647898
0.243565 0.768261 0.627466
0.251759 0.774563 0.587976
0.578225 0.837324 0.637827
0.804227 0.901228 0.740749
0.902159 0.934035 0.814008
0.905837 0.93489 0.818662
0.24567 0.760845 0.672999
0.243549 0.76231 0.669093
0.242344 0.76463 0.65594
0.243061 0.767666 0.631662
0.251896 0.77467 0.590005
0.566003 0.831052 0.620127
0.792004 0.896406 0.737163
0.885985 0.931136 0.802762
0.898177 0.936294 0.837568
0.0426032 0.138018 0.42446
0.0542611 0.134981 0.473259
0.13814 0.137896 0.52134
0.314275 0.123293 0.579355
0.479912 0.138933 0.60499
0.61442 0.168368 0.629267
0.625086 0.171695 0.631907
0.627222 0.171176 0.631083
0.62681 0.171283 0.631205
0.0425269 0.14548 0.424247
0.0425574 0.137728 0.429038
0.067628 0.13576 0.485679
0.257221 0.114977 0.566217
0.467262 0.137484 0.60177
0.605814 0.166064 0.626657
0.625711 0.171542 0.631571
0.625452 0.171603 0.631708
0.624247 0.171847 0.63241
0.0424964 0.16083 0.430304
0.0426795 0.147921 0.42591
0.0426032 0.137392 0.429969
0.165255 0.124071 0.541329
0.438361 0.13901 0.60296
0.593088 0.162539 0.62359
0.626429 0.171374 0.631327
0.626322 0.171405 0.631357
0.624689 0.171771 0.63212
0.0438697 0.279454 0.480537
0.0435645 0.260853 0.478202
0.0431983 0.231113 0.470115
0.0595712 0.209033 0.52192
0.426047 0.195209 0.674495
0.58703 0.176928 0.64155
0.629038 0.171008 0.629435
0.628824 0.171221 0.630671
0.62594 0.171847 0.631937
0.048188 0.493843 0.572381
0.0472114 0.485847 0.574624
0.0462654 0.471977 0.575967
0.0453346 0.440269 0.573754
0.348775 0.472587 0.711101
0.757214 0.515343 0.871534
0.907088 0.483742 0.882551
0.902205 0.468498 0.87866
0.889342 0.466209 0.876738
0.129717 0.64947 0.629465
0.123079 0.648081 0.635584
0.114519 0.642939 0.635935
0.101869 0.626307 0.634653
0.267323 0.643198 0.68957
0.665843 0.716228 0.808927
0.893004 0.721691 0.861814
0.92578 0.70338 0.857939
0.921752 0.702205 0.862745
0.234501 0.741238 0.678584
0.220874 0.741314 0.684749
0.215915 0.73666 0.680613
0.204837 0.728084 0.671977
0.208484 0.722118 0.66424
0.652644 0.837552 0.790463
0.847929 0.880369 0.848676
0.914992 0.863188 0.830945
0.910979 0.860945 0.837156
0.256336 0.757595 0.695888
0.243778 0.759655 0.702174
0.241718 0.759091 0.6963
0.239582 0.760052 0.684901
0.245167 0.766751 0.665064
0.560342 0.854994 0.736965
0.824201 0.919036 0.843153
0.899733 0.937758 0.870863
0.904372 0.936507 0.867353
0.256428 0.759213 0.703731
0.246204 0.760449 0.707286
0.243626 0.75967 0.701762
0.239796 0.759731 0.68748
0.245212 0.76701 0.663981
0.537423 0.849668 0.726452
0.812619 0.916472 0.83711
0.880461 0.933715 0.8636
0.902449 0.942626 0.893782
0.0426184 0.139651 0.437476
0.0607462 0.140414 0.485283
0.150164 0.144778 0.532784
0.327565 0.128252 0.586908
0.490227 0.140993 0.606973
0.620676 0.170535 0.631006
0.625055 0.171695 0.631922
0.625254 0.171649 0.631815
0.625422 0.171603 0.631724
0.0425269 0.144549 0.424842
0.0426337 0.139651 0.438972
0.0739757 0.141726 0.495415
0.267704 0.120241 0.574136
0.475853 0.140017 0.606775
0.612207 0.167895 0.628779
0.625238 0.171649 0.63183
0.625101 0.171679 0.631891
0.62562 0.171557 0.631601
0.042649 0.169436 0.443168
0.0426337 0.14876 0.429084
0.042649 0.139635 0.439277
0.173251 0.126207 0.548959
0.444953 0.14049 0.605631
0.599634 0.16466 0.625528
0.626017 0.171481 0.631464
0.625925 0.171496 0.631495
0.624659 0.171771 0.632151
0.0437476 0.27483 0.499428
0.0435492 0.253513 0.490593
0.0429236 0.214572 0.46862
0.0512703 0.177508 0.49723
0.379461 0.163821 0.634501
0.560815 0.161181 0.625971
0.625177 0.17171 0.631937
0.625406 0.171664 0.631815
0.625071 0.171756 0.632013
0.0488899 0.483833 0.59675
0.0486 0.477989 0.59881
0.0476997 0.463447 0.596521
0.0459144 0.425071 0.579599
0.30277 0.444068 0.712276
0.719692 0.484077 0.87805
0.882155 0.464271 0.889265
0.87837 0.447593 0.882307
0.871839 0.444434 0.879393
0.11957 0.643565 0.659144
0.115633 0.639521 0.6607
0.110338 0.630961 0.660624
0.0991226 0.610559 0.658701
0.196826 0.617823 0.709377
0.599054 0.671855 0.818998
0.868055 0.709926 0.911009
0.919356 0.696986 0.915068
0.912551 0.695674 0.915648
0.231128 0.740185 0.699474
0.222766 0.739239 0.703105
0.21799 0.734966 0.701152
0.20795 0.726055 0.696986
0.199268 0.715358 0.696803
0.597681 0.808682 0.815503
0.824033 0.864668 0.884321
0.910903 0.85922 0.891325
0.909682 0.854994 0.892775
0.255711 0.764996 0.720119
0.251896 0.764828 0.720409
0.250553 0.763714 0.718379
0.247807 0.762234 0.713863
0.249485 0.763806 0.711131
0.507103 0.828183 0.772976
0.831952 0.920134 0.882155
0.898283 0.937652 0.902235
0.903624 0.938033 0.90251
0.264561 0.763256 0.7149
0.252735 0.765713 0.722271
0.252125 0.765423 0.721492
0.248341 0.762448 0.714763
0.248127 0.763149 0.708415
0.456703 0.820798 0.750423
0.820478 0.923995 0.875013
0.898268 0.943816 0.906447
0.910079 0.944442 0.904677
0.0428321 0.139788 0.447181
0.0683757 0.141207 0.491386
0.15758 0.140017 0.537789
0.340139 0.130373 0.590219
0.496422 0.141573 0.606989
0.623316 0.171176 0.63151
0.625055 0.171695 0.631922
0.625086 0.171695 0.631907
0.625025 0.171695 0.631937
0.0425269 0.143648 0.423987
0.0428473 0.139788 0.447517
0.080766 0.141665 0.499702
0.27866 0.121035 0.575814
0.481468 0.14023 0.606882
0.616449 0.169039 0.629862
0.625254 0.171649 0.631815
0.625116 0.171679 0.631891
0.625437 0.171603 0.631708
0.0427253 0.167712 0.442206
0.0426947 0.146838 0.427405
0.0428016 0.139818 0.446647
0.178317 0.120699 0.552117
0.449348 0.140505 0.605783
0.604349 0.166079 0.627176
0.625956 0.171496 0.631479
0.62594 0.171496 0.631479
0.624659 0.171771 0.632151
0.043595 0.260899 0.494301
0.0432593 0.237598 0.481514
0.0428779 0.197498 0.459251
0.0488289 0.160754 0.484199
0.369238 0.151583 0.618372
0.54522 0.150851 0.613504
0.625406 0.171664 0.6318
0.625483 0.171649 0.631769
0.625055 0.171756 0.632013
0.0495155 0.480232 0.603693
0.0484321 0.472496 0.600275
0.0470893 0.454459 0.591867
0.0455482 0.411887 0.573663
0.293812 0.428809 0.708339
0.715297 0.467796 0.876143
0.873594 0.444144 0.879576
0.868299 0.429709 0.871504
0.862669 0.427253 0.869612
0.118944 0.639246 0.669749
0.114641 0.635355 0.668849
0.108736 0.626047 0.665721
0.0946517 0.603128 0.657221
0.188327 0.608927 0.706508
0.590356 0.660319 0.816388
0.865309 0.700236 0.911376
0.921843 0.687327 0.91632
0.912459 0.686397 0.916045
0.232029 0.742046 0.708263
0.224811 0.740902 0.709682
0.219211 0.735393 0.707027
0.207568 0.725032 0.70219
0.196948 0.71104 0.699535
0.579751 0.794308 0.815808
0.810376 0.852369 0.886748
0.905364 0.851698 0.898833
0.907515 0.84715 0.898985
0.255604 0.765164 0.720348
0.252659 0.765728 0.722347
0.252522 0.765759 0.722438
0.252537 0.765774 0.722454
0.252598 0.765774 0.722683
0.460288 0.813626 0.776242
0.819242 0.91606 0.887663
0.896452 0.935027 0.906142
0.903548 0.934783 0.906188
0.267918 0.762676 0.71252
0.252735 0.765728 0.722286
0.252522 0.765759 0.722438
0.252567 0.765805 0.722454
0.254154 0.767254 0.722988
0.357809 0.797848 0.750225
0.807736 0.921889 0.883513
0.900343 0.944289 0.909148
0.914443 0.943572 0.901274
