bundles/resolve-cinematic-luts/Phantom Luts/Canon Film LUT/C-Log 3/Eterna Canon CL3.cube
TITLE "Generated by Resolve"
LUT_3D_SIZE 9
0.0128939 0.0406195 0.0403296
0.154772 0.0445106 0.0718547
0.280064 0.0535134 0.10631
0.438239 0.0727398 0.176303
0.631098 0.09308 0.272938
0.689876 0.107866 0.325826
0.692912 0.108705 0.345556
0.698863 0.107652 0.365194
0.731029 0.0999466 0.403433
0.0171969 0.0926833 0.0542153
0.0411231 0.0635691 0.0441596
0.222171 0.0733501 0.0537881
0.401816 0.0629587 0.0797131
0.578378 0.0851606 0.164858
0.673243 0.101625 0.238087
0.686885 0.103319 0.272572
0.694484 0.103822 0.296086
0.723751 0.0965896 0.324773
0.0589151 0.302556 0.105318
0.0480201 0.313573 0.0682536
0.245151 0.265354 0.0684825
0.481956 0.236683 0.0819715
0.616648 0.14966 0.105104
0.66067 0.0971847 0.179217
0.662974 0.0960555 0.187869
0.662364 0.0955673 0.192447
0.670176 0.0938735 0.198352
0.0496986 0.569909 0.176242
0.0405432 0.604883 0.0982376
0.0730449 0.588266 0.0645304
0.483848 0.52961 0.0562295
0.717052 0.529671 0.0954757
0.860807 0.479042 0.175189
0.86891 0.456794 0.184482
0.866499 0.437018 0.186389
0.861143 0.417411 0.183444
0.169558 0.826841 0.342626
0.169665 0.852918 0.291188
0.192416 0.863508 0.215549
0.290089 0.817349 0.173587
0.699931 0.758144 0.158007
0.838514 0.753582 0.200504
0.890379 0.746197 0.218784
0.887999 0.734874 0.211826
0.88687 0.719661 0.205966
0.204883 0.911254 0.431998
0.204822 0.908507 0.349615
0.207416 0.905013 0.282322
0.303136 0.913466 0.253788
0.667582 0.931548 0.244877
0.854765 0.90486 0.294194
0.923369 0.901793 0.320195
0.919005 0.891112 0.30692
0.915496 0.879042 0.297368
0.207187 0.912001 0.485588
0.206134 0.910018 0.41062
0.207874 0.907347 0.349081
0.22443 0.898985 0.244877
0.478813 0.933242 0.286732
0.818631 0.9411 0.343587
0.933318 0.946517 0.397314
0.948287 0.948425 0.408545
0.947631 0.948791 0.407324
0.197055 0.916381 0.521126
0.207614 0.910826 0.454887
0.221439 0.9028 0.362493
0.234562 0.892195 0.246708
0.404013 0.919448 0.276982
0.744671 0.941863 0.323796
0.910552 0.940764 0.379522
0.949874 0.947494 0.411658
0.94519 0.950195 0.402884
0.189288 0.919738 0.54815
0.191852 0.917082 0.481346
0.206058 0.909621 0.398505
0.220813 0.899321 0.275349
0.364797 0.913466 0.263722
0.658076 0.938827 0.301579
0.869963 0.934417 0.367407
0.949203 0.947646 0.410895
0.943877 0.950957 0.400107
0.010193 0.0451362 0.0849622
0.155489 0.0487678 0.139391
0.285618 0.0530251 0.179431
0.440177 0.0695964 0.249607
0.638071 0.085771 0.337072
0.721416 0.104234 0.394827
0.722454 0.104494 0.416526
0.727703 0.104097 0.436118
0.748012 0.0990311 0.46656
0.0180667 0.0558328 0.0517128
0.0253452 0.0411383 0.0449378
0.254185 0.0493324 0.103197
0.436194 0.063508 0.168521
0.622889 0.0818952 0.25391
0.718639 0.0986191 0.32961
0.721218 0.0984665 0.352605
0.725017 0.0990463 0.372473
0.74229 0.0955367 0.399298
0.0511788 0.258381 0.164019
0.0424506 0.272435 0.0993362
0.225803 0.241169 0.0675212
0.466865 0.18883 0.0823682
0.579568 0.0819104 0.110277
0.674037 0.0932937 0.200855
0.684047 0.0946059 0.222049
0.694118 0.0960098 0.243717
0.708232 0.0953841 0.265736
0.0365454 0.533639 0.229618
0.0271763 0.567727 0.161013
0.0460822 0.588159 0.0719921
0.470146 0.516487 0.0542611
0.713802 0.505455 0.0894484
0.855207 0.448814 0.172686
0.862562 0.422538 0.184131
0.851438 0.406348 0.17377
0.840162 0.385657 0.164172
0.139239 0.798566 0.372686
0.137896 0.819715 0.323201
0.160479 0.837507 0.266621
0.252369 0.803632 0.163119
0.684153 0.74313 0.146914
0.832456 0.739223 0.19028
0.886702 0.733257 0.209598
0.88484 0.719753 0.20354
0.884031 0.702419 0.197452
0.207309 0.9122 0.492515
0.198413 0.913497 0.431983
0.199496 0.910475 0.349371
0.255131 0.907012 0.248814
0.632792 0.929931 0.24152
0.844343 0.897032 0.282231
0.918196 0.892027 0.307362
0.913283 0.880415 0.294316
0.908827 0.868116 0.28333
0.204135 0.914961 0.547906
0.203037 0.913741 0.494453
0.203403 0.910475 0.39556
0.220493 0.897887 0.243748
0.451072 0.929946 0.282368
0.800504 0.942428 0.333379
0.93022 0.945647 0.393271
0.948547 0.947921 0.407385
0.946746 0.947372 0.397086
0.195712 0.918883 0.583734
0.206912 0.913497 0.533059
0.216358 0.90779 0.456001
0.228656 0.8972 0.295552
0.394507 0.917449 0.27126
0.727321 0.942153 0.325551
0.903166 0.939025 0.377737
0.949874 0.947494 0.411658
0.944991 0.950301 0.402518
0.192874 0.920348 0.607904
0.200519 0.916442 0.558145
0.203433 0.913481 0.490776
0.21416 0.905013 0.349935
0.344335 0.910307 0.2607
0.621912 0.938018 0.299855
0.85452 0.935714 0.361425
0.945983 0.94728 0.410178
0.943862 0.950973 0.400076
0.00781262 0.0486763 0.189502
0.161089 0.0505989 0.23154
0.294408 0.0558785 0.244266
0.447547 0.0704662 0.295018
0.62945 0.0861524 0.371817
0.724468 0.105196 0.433249
0.727596 0.107103 0.460777
0.731609 0.107225 0.485618
0.747997 0.101961 0.52224
0.0200809 0.0771191 0.110124
0.0128176 0.0534371 0.179431
0.260609 0.052781 0.215534
0.43238 0.0676585 0.251347
0.610483 0.0804456 0.325902
0.728115 0.100694 0.39968
0.732052 0.10251 0.434867
0.735088 0.103777 0.461143
0.750332 0.100694 0.493599
0.0490425 0.23093 0.199344
0.0380865 0.223835 0.194293
0.224445 0.217746 0.213794
0.480064 0.139971 0.215061
0.614313 0.0810101 0.255924
0.719356 0.0988327 0.330983
0.71928 0.097612 0.359075
0.722179 0.10164 0.383368
0.734218 0.0997482 0.411383
0.035874 0.489799 0.294102
0.0223697 0.515572 0.267323
0.0258793 0.544228 0.176181
0.45272 0.500648 0.055436
0.739208 0.451255 0.13959
0.857862 0.376974 0.209049
0.860304 0.342947 0.223499
0.851362 0.3028 0.232242
0.836057 0.261143 0.237949
0.102022 0.750546 0.429633
0.093492 0.769131 0.402945
0.112154 0.791547 0.33135
0.192569 0.790082 0.158923
0.667475 0.724788 0.136095
0.824613 0.712077 0.177783
0.884443 0.702708 0.197787
0.884062 0.687129 0.192615
0.883452 0.664668 0.187045
0.211154 0.906508 0.571374
0.194781 0.914168 0.545144
0.191135 0.914855 0.472404
0.212039 0.90248 0.267262
0.54165 0.924392 0.239185
0.82446 0.880232 0.262318
0.907042 0.871183 0.284138
0.904677 0.859205 0.27483
0.901091 0.845151 0.265705
0.205661 0.917082 0.632044
0.202686 0.917388 0.605158
0.20296 0.915175 0.54284
0.209262 0.90695 0.3514
0.408255 0.92462 0.274846
0.772641 0.942763 0.320226
0.924392 0.943862 0.387808
0.947936 0.946456 0.39884
0.944488 0.943755 0.377371
0.199649 0.916976 0.664256
0.201129 0.918685 0.636912
0.217029 0.912016 0.584573
0.217227 0.906996 0.436316
0.340291 0.908766 0.264683
0.688289 0.939208 0.313863
0.888487 0.935851 0.374044
0.949935 0.947448 0.41181
0.945037 0.950317 0.402502
0.199069 0.913085 0.681453
0.198291 0.918761 0.6551
0.205905 0.916442 0.611399
0.213611 0.91017 0.495583
0.254475 0.896498 0.25037
0.559823 0.934249 0.290349
0.827298 0.938491 0.350225
0.938872 0.946639 0.407553
0.943557 0.951141 0.399512
0.0251011 0.0564126 0.311818
0.145663 0.0568246 0.35935
0.306706 0.0567178 0.358465
0.462684 0.0702831 0.375036
0.649378 0.0899367 0.434226
0.728344 0.108217 0.479561
0.724971 0.10927 0.510124
0.723033 0.109941 0.5411
0.736782 0.105821 0.586709
0.0202335 0.0963607 0.244877
0.0165713 0.0665751 0.30161
0.230182 0.0580911 0.372992
0.441855 0.0663157 0.363256
0.624216 0.0835279 0.407828
0.731121 0.105867 0.467308
0.727123 0.108537 0.504112
0.725216 0.109285 0.538491
0.738705 0.105104 0.585367
0.0500496 0.223377 0.262455
0.0386053 0.195499 0.30457
0.0431067 0.140642 0.357153
0.444053 0.0784314 0.37789
0.607202 0.0846113 0.388464
0.722042 0.107347 0.446815
0.724132 0.109682 0.483192
0.721401 0.11043 0.512245
0.732952 0.106767 0.549905
0.0388037 0.448753 0.366705
0.0259251 0.45684 0.377752
0.0258488 0.457389 0.388876
0.451743 0.467781 0.433539
0.770962 0.401999 0.436805
0.921141 0.33785 0.473152
0.920729 0.299229 0.50013
0.898528 0.255894 0.511925
0.860945 0.208942 0.510338
0.0850996 0.693843 0.496666
0.0603799 0.705577 0.500725
0.0626841 0.713771 0.482826
0.0940719 0.749462 0.348394
0.640131 0.703395 0.267353
0.868345 0.672282 0.370169
0.943282 0.643931 0.41178
0.943267 0.625803 0.420218
0.94168 0.600137 0.415549
0.189883 0.866514 0.632898
0.168872 0.870192 0.627588
0.160678 0.872297 0.597086
0.172778 0.892363 0.484245
0.416358 0.922591 0.290135
0.800244 0.855695 0.262974
0.912718 0.840787 0.325963
0.921462 0.829252 0.339117
0.920928 0.813504 0.335592
0.209171 0.902861 0.70634
0.199435 0.908766 0.699367
0.201556 0.915007 0.670573
0.205493 0.915358 0.573938
0.249332 0.90425 0.280339
0.71603 0.943343 0.33875
0.908415 0.936996 0.36701
0.942992 0.934951 0.362631
0.937316 0.928054 0.345083
0.210452 0.894926 0.73228
0.2009 0.901625 0.722026
0.204089 0.907942 0.695598
0.219867 0.91223 0.619471
0.223362 0.902373 0.369039
0.534569 0.934768 0.308919
0.849042 0.936507 0.365789
0.948379 0.945846 0.414527
0.948959 0.948394 0.408957
0.198459 0.895384 0.748272
0.196963 0.899855 0.73434
0.196979 0.90634 0.710781
0.219989 0.912077 0.647089
0.216297 0.907881 0.458122
0.430854 0.92517 0.292103
0.771679 0.941665 0.331685
0.924895 0.945571 0.387106
0.94548 0.950256 0.402838
0.0457923 0.0728008 0.448478
0.134737 0.0734417 0.4925
0.325292 0.0768139 0.534264
0.489311 0.0685283 0.518669
0.657389 0.0947433 0.53608
0.717708 0.112276 0.552453
0.715724 0.113634 0.572488
0.721386 0.112398 0.609476
0.732738 0.109361 0.657313
0.0295872 0.115892 0.395346
0.0254978 0.0932326 0.424445
0.172656 0.0720226 0.489418
0.447166 0.0684215 0.521324
0.626352 0.0866255 0.520928
0.721233 0.110597 0.542748
0.718425 0.112612 0.573434
0.72105 0.11284 0.617868
0.732006 0.109941 0.668589
0.0438239 0.188464 0.371252
0.037644 0.169055 0.406119
0.0302586 0.116564 0.435721
0.388876 0.0763714 0.544137
0.613153 0.0829633 0.52694
0.718151 0.111086 0.530159
0.713756 0.114 0.563012
0.713436 0.115343 0.601724
0.726772 0.111589 0.650492
0.0375525 0.42565 0.462516
0.0301061 0.429664 0.495598
0.033051 0.417899 0.540063
0.207019 0.369207 0.620432
0.740795 0.31046 0.647669
0.866407 0.236423 0.608789
0.825238 0.193668 0.594278
0.79707 0.172686 0.599847
0.753292 0.126955 0.596338
0.0711833 0.65301 0.560433
0.0536965 0.654795 0.570214
0.0533455 0.653544 0.576272
0.0574197 0.643824 0.565454
0.625559 0.657908 0.615488
0.888395 0.615732 0.618647
0.960067 0.587533 0.637217
0.961013 0.569924 0.654521
0.960281 0.53611 0.666041
0.177295 0.82327 0.674403
0.149264 0.825238 0.676661
0.139864 0.816968 0.664134
0.131151 0.813245 0.620066
0.41883 0.89218 0.590249
0.77734 0.836286 0.537911
0.930526 0.80354 0.606287
0.948684 0.786892 0.629175
0.949371 0.769665 0.625498
0.219654 0.885664 0.75407
0.198367 0.893721 0.755703
0.192889 0.897932 0.741024
0.198108 0.903822 0.690211
0.243595 0.925292 0.583139
0.681788 0.949142 0.57322
0.90576 0.928893 0.594339
0.951904 0.923796 0.632486
0.949218 0.917418 0.626856
0.211734 0.882521 0.783123
0.201541 0.887388 0.779416
0.194629 0.893416 0.764569
0.201663 0.90222 0.719173
0.22031 0.911879 0.60885
0.568154 0.946929 0.576638
0.833051 0.946548 0.529625
0.948196 0.94966 0.572061
0.955566 0.952132 0.610574
0.212818 0.879423 0.796384
0.204013 0.884077 0.791012
0.195575 0.890333 0.77702
0.198779 0.89839 0.736919
0.219593 0.910887 0.646677
0.425269 0.945586 0.567605
0.757031 0.949508 0.5935
0.919264 0.949325 0.472908
0.951522 0.953262 0.567544
0.0588388 0.109255 0.560769
0.102739 0.114427 0.599985
0.30428 0.108507 0.663676
0.513924 0.0952163 0.688167
0.667628 0.0986648 0.667857
0.724651 0.113176 0.674662
0.724941 0.113039 0.685634
0.726604 0.112734 0.700877
0.725841 0.113313 0.713573
0.0367742 0.137087 0.524071
0.0370947 0.13402 0.544594
0.13608 0.103197 0.592371
0.433463 0.0994888 0.678386
0.635096 0.091371 0.66392
0.723171 0.113481 0.664179
0.722957 0.113817 0.676555
0.724804 0.113451 0.70013
0.72604 0.113359 0.723186
0.0402838 0.173358 0.485908
0.0403906 0.166506 0.507576
0.0363165 0.133776 0.529427
0.288731 0.0982681 0.630701
0.600687 0.084596 0.667262
0.721111 0.113375 0.652445
0.7196 0.114809 0.658152
0.720394 0.11487 0.683421
0.726116 0.113268 0.717891
0.0372168 0.403388 0.575204
0.0381628 0.396902 0.597833
0.0420996 0.383581 0.630579
0.0542916 0.330755 0.667796
0.627207 0.2477 0.800351
0.790524 0.182681 0.697627
0.796384 0.17435 0.671427
0.734829 0.122255 0.647532
0.731487 0.110506 0.672572
0.0685283 0.626719 0.639506
0.0627451 0.626398 0.652186
0.0670329 0.626398 0.666682
0.0694896 0.610025 0.688151
0.489021 0.603525 0.767987
0.870176 0.562982 0.787381
0.959426 0.525368 0.774563
0.957168 0.503944 0.782605
0.952804 0.474525 0.808072
0.160555 0.796262 0.720027
0.139925 0.790768 0.720302
0.133684 0.778668 0.714839
0.123278 0.763165 0.696651
0.383398 0.793912 0.717113
0.760983 0.794949 0.754711
0.936416 0.763439 0.75494
0.95845 0.745663 0.764126
0.958129 0.732525 0.770535
0.217426 0.877638 0.792584
0.196475 0.883207 0.793835
0.191287 0.879622 0.783383
0.180362 0.870024 0.749905
0.231235 0.89279 0.714809
0.655802 0.935622 0.752865
0.882811 0.913405 0.734279
0.948837 0.898207 0.77232
0.948638 0.890333 0.784588
0.233021 0.867323 0.817624
0.204929 0.87776 0.822293
0.198596 0.882185 0.812329
0.195865 0.889326 0.78143
0.198154 0.904677 0.729747
0.553185 0.95378 0.732906
0.841871 0.954116 0.776684
0.9552 0.954025 0.831601
0.967025 0.952209 0.86331
0.216495 0.869993 0.839948
0.207156 0.874037 0.838285
0.20032 0.878538 0.828183
0.19707 0.885542 0.797955
0.197498 0.898619 0.746166
0.46714 0.951217 0.734997
0.796551 0.954009 0.789929
0.928283 0.953033 0.783261
0.961364 0.956115 0.852308
0.0555428 0.144869 0.635767
0.0575113 0.145647 0.643565
0.267597 0.145418 0.727535
0.498543 0.140352 0.783398
0.656565 0.104677 0.735973
0.72105 0.115038 0.741527
0.720195 0.115236 0.744106
0.720394 0.115206 0.743862
0.719356 0.115572 0.742061
0.0461128 0.16405 0.620386
0.0492561 0.173465 0.64004
0.0893263 0.143801 0.657084
0.386221 0.145785 0.764416
0.625147 0.111391 0.749386
0.720821 0.115236 0.743114
0.719905 0.115343 0.742641
0.720424 0.115175 0.744152
0.720165 0.11519 0.744259
0.0468299 0.19382 0.590707
0.0487068 0.197589 0.611109
0.0471046 0.168246 0.62475
0.180835 0.140307 0.687831
0.57789 0.125719 0.770047
0.720851 0.115328 0.743633
0.720378 0.115373 0.739834
0.720745 0.115221 0.742519
0.720409 0.11519 0.744503
0.0450599 0.396902 0.665141
0.0484169 0.392737 0.681956
0.0539254 0.368826 0.702358
0.0608377 0.323919 0.715862
0.479942 0.244999 0.843519
0.699306 0.123552 0.742718
0.72372 0.112428 0.712642
0.72604 0.113298 0.711803
0.727382 0.112871 0.719676
0.084535 0.629191 0.709468
0.0840772 0.621302 0.72134
0.0853742 0.606729 0.734295
0.0873274 0.578622 0.754223
0.297246 0.546639 0.839002
0.781399 0.525063 0.912322
0.947387 0.475685 0.870161
0.948608 0.477607 0.856794
0.944015 0.441276 0.882826
0.160067 0.776791 0.778317
0.146197 0.768856 0.778607
0.140673 0.756451 0.774624
0.134905 0.740688 0.771832
0.162158 0.730831 0.788922
0.673472 0.754238 0.859953
0.92723 0.724163 0.871748
0.958221 0.704997 0.863661
0.956466 0.684428 0.872358
0.226291 0.862242 0.82681
0.196719 0.867872 0.831235
0.19057 0.858976 0.822644
0.179461 0.843137 0.801816
0.175051 0.83299 0.775647
0.63154 0.885115 0.833326
0.874739 0.890105 0.866331
0.95848 0.871458 0.862989
0.95874 0.865156 0.866911
0.229374 0.863157 0.852262
0.206195 0.87158 0.856687
0.203189 0.873671 0.849729
0.20032 0.878553 0.828168
0.198611 0.889158 0.796979
0.519631 0.938521 0.824079
0.824277 0.952422 0.875776
0.950164 0.947967 0.887449
0.963088 0.943557 0.896773
0.23888 0.861326 0.860548
0.212406 0.869856 0.868254
0.205295 0.871 0.864698
0.20267 0.87454 0.845899
0.198825 0.884321 0.808927
0.442039 0.931594 0.824491
0.792172 0.953124 0.875776
0.919066 0.95436 0.886458
0.964492 0.959365 0.936797
0.0497444 0.145098 0.64062
0.0140536 0.144549 0.624231
0.247395 0.145068 0.720531
0.460243 0.144244 0.781277
0.654215 0.111452 0.748516
0.720333 0.115114 0.744656
0.720333 0.115114 0.744656
0.720317 0.115129 0.744625
0.719478 0.115465 0.742626
0.0510872 0.178485 0.652811
0.0533455 0.190066 0.66212
0.0679484 0.145296 0.650095
0.330968 0.146197 0.748592
0.609247 0.120729 0.763745
0.720333 0.115114 0.744656
0.720333 0.115114 0.744656
0.720333 0.115114 0.744656
0.720088 0.115206 0.744106
0.0559396 0.220523 0.670771
0.059144 0.232227 0.687068
0.0537118 0.191959 0.663508
0.0975357 0.145525 0.662287
0.53492 0.136675 0.783658
0.720256 0.115099 0.74464
0.720333 0.115114 0.744656
0.720333 0.115114 0.744656
0.720302 0.115129 0.74461
0.0609293 0.397284 0.729778
0.0658885 0.399893 0.740032
0.070634 0.374014 0.750942
0.073167 0.332433 0.750088
0.328618 0.22063 0.799374
0.651591 0.11873 0.757351
0.720394 0.115129 0.744656
0.720394 0.115129 0.744656
0.720455 0.115145 0.744656
0.101701 0.61799 0.770306
0.104158 0.613825 0.779614
0.103441 0.592859 0.788891
0.101884 0.564385 0.797848
0.112245 0.511574 0.818265
0.654261 0.511177 0.933852
0.927977 0.425864 0.945434
0.930282 0.404364 0.93019
0.92842 0.389731 0.928771
0.161074 0.776913 0.816434
0.157916 0.772442 0.819196
0.154192 0.761074 0.81796
0.147616 0.73991 0.817349
0.137484 0.692485 0.826322
0.559686 0.709667 0.910552
0.871916 0.696101 0.944732
0.950805 0.663874 0.921889
0.950256 0.663111 0.921096
0.213519 0.861982 0.862791
0.199725 0.858259 0.862638
0.194598 0.848905 0.856855
0.185412 0.832105 0.845975
0.17464 0.809613 0.835294
0.495399 0.845426 0.884733
0.813977 0.865538 0.919371
0.949203 0.849317 0.922026
0.953429 0.841321 0.91783
0.23064 0.866468 0.874678
0.209934 0.872389 0.879789
0.208545 0.872114 0.876005
0.205509 0.871122 0.865263
0.201541 0.873121 0.844175
0.378836 0.908293 0.857557
0.806928 0.934844 0.913954
0.939956 0.943282 0.936538
0.961074 0.939178 0.935119
0.232013 0.868742 0.882567
0.213962 0.873701 0.887587
0.21146 0.873487 0.8851
0.208453 0.872023 0.875776
0.204166 0.873289 0.85507
0.318074 0.910353 0.862928
0.788495 0.942916 0.917861
0.931701 0.955764 0.941848
0.969436 0.958587 0.951949
0.0585489 0.145312 0.645228
0.0714122 0.145312 0.651881
0.221805 0.144488 0.711467
0.415503 0.1458 0.772534
0.625589 0.112001 0.751797
0.720333 0.115114 0.744656
0.720333 0.115114 0.744656
0.720333 0.115114 0.744656
0.720272 0.115129 0.744549
0.0507515 0.176272 0.651041
0.0505379 0.173922 0.649287
0.0484779 0.14548 0.639185
0.271595 0.145495 0.728862
0.573907 0.129351 0.776059
0.720333 0.115114 0.744656
0.720333 0.115114 0.744656
0.720333 0.115114 0.744656
0.720333 0.115114 0.744656
0.0606546 0.234211 0.695064
0.0605631 0.233585 0.694636
0.0554971 0.201053 0.670787
0.0485695 0.147158 0.639246
0.477745 0.143267 0.783749
0.712459 0.114046 0.744488
0.720333 0.115114 0.744656
0.720333 0.115114 0.744656
0.720333 0.115114 0.744656
0.0767834 0.404608 0.767636
0.0801556 0.413993 0.775296
0.0805676 0.387167 0.775265
0.075349 0.342916 0.756786
0.161669 0.214359 0.73434
0.611444 0.128862 0.773236
0.720378 0.115129 0.744656
0.720394 0.115129 0.744656
0.720394 0.115129 0.744656
0.115557 0.614389 0.811399
0.1178 0.614603 0.817823
0.116594 0.595666 0.82446
0.113741 0.570779 0.827253
0.0988937 0.505959 0.810513
0.5449 0.481682 0.917189
0.893309 0.385016 0.941329
0.898817 0.328191 0.916472
0.885069 0.306706 0.902983
0.169909 0.785229 0.848585
0.168704 0.779324 0.850996
0.16434 0.764828 0.851362
0.156786 0.738689 0.851301
0.143923 0.686748 0.852003
0.410727 0.67306 0.916548
0.786252 0.680476 0.94493
0.943297 0.623606 0.952544
0.942702 0.606775 0.952575
0.206455 0.863478 0.882261
0.204074 0.858091 0.88069
0.2 0.85005 0.877287
0.193805 0.836973 0.872282
0.183932 0.813565 0.866636
0.273304 0.809522 0.900893
0.731395 0.835492 0.934493
0.928176 0.830976 0.947158
0.944198 0.812772 0.948165
0.215106 0.876402 0.895644
0.214786 0.876127 0.89482
0.214038 0.875486 0.892897
0.21268 0.874342 0.888945
0.208957 0.8701 0.881102
0.217487 0.863615 0.881544
0.707225 0.915541 0.929564
0.916472 0.934371 0.947341
0.950668 0.933989 0.950256
0.21593 0.877256 0.897215
0.21593 0.877256 0.897215
0.215915 0.877241 0.897169
0.214221 0.875563 0.893507
0.210941 0.873289 0.883436
0.212161 0.87776 0.881025
0.689677 0.929335 0.92282
0.929412 0.953811 0.951293
0.96202 0.962356 0.962005
