bundles/resolve-cinematic-luts/Phantom Luts/Canon Film LUT/C-Log 3/Eterna Canon-Legacy CL3.cube
TITLE "Generated by Resolve"
LUT_3D_SIZE 33
0.0302892 0.0565805 0.0563516
0.0307317 0.0563668 0.0556497
0.0382086 0.0562753 0.0552834
0.0982071 0.058854 0.0643015
0.132662 0.0610513 0.0713817
0.162066 0.0630045 0.0789654
0.188525 0.065568 0.0873579
0.21648 0.0683604 0.0929122
0.247456 0.0709392 0.0995041
0.283772 0.07393 0.108797
0.321553 0.0773327 0.119951
0.361761 0.0805829 0.134646
0.409369 0.0873121 0.153429
0.457282 0.0915084 0.172427
0.507668 0.0961318 0.194263
0.558862 0.10103 0.21561
0.609415 0.106554 0.237888
0.657984 0.113542 0.26331
0.689052 0.120134 0.282826
0.696269 0.121721 0.292332
0.697887 0.121828 0.298909
0.699199 0.121874 0.304875
0.698573 0.120821 0.309071
0.701076 0.121965 0.314961
0.702083 0.121889 0.319936
0.703182 0.121996 0.324941
0.702495 0.120897 0.328832
0.70518 0.121569 0.334249
0.70927 0.121004 0.340536
0.714931 0.120027 0.348165
0.722789 0.118807 0.356847
0.731182 0.116793 0.366125
0.739849 0.114626 0.375189
0.031342 0.0560769 0.0546731
0.0311131 0.0561837 0.055024
0.0345617 0.0561532 0.0544747
0.068101 0.0570382 0.0558938
0.108751 0.0584421 0.0589609
0.141146 0.0605936 0.0621195
0.171588 0.062974 0.0660105
0.20061 0.0655985 0.0705577
0.233982 0.0681621 0.0768444
0.271244 0.071519 0.0867323
0.311482 0.0753948 0.101335
0.355535 0.0817273 0.116289
0.4009 0.0862593 0.130739
0.448936 0.0905013 0.148577
0.498573 0.0946517 0.1682
0.549889 0.0989242 0.189899
0.604974 0.10399 0.213993
0.656474 0.11046 0.2392
0.68957 0.117708 0.261051
0.6963 0.119402 0.271153
0.698131 0.11957 0.278386
0.699626 0.119738 0.28481
0.700816 0.119951 0.290425
0.701717 0.12015 0.295598
0.702358 0.120348 0.299916
0.702876 0.120531 0.304341
0.702449 0.119799 0.307759
0.702663 0.118853 0.311742
0.704982 0.118593 0.316152
0.709316 0.117433 0.322133
0.717464 0.117571 0.3299
0.726131 0.115496 0.338338
0.735561 0.113176 0.347143
0.0311894 0.0561379 0.0549172
0.0306859 0.0563821 0.0557412
0.0309453 0.05626 0.0553292
0.0449531 0.0573281 0.0549325
0.0832227 0.0588083 0.0561685
0.119097 0.0599374 0.0581979
0.151766 0.0614939 0.0606088
0.183398 0.063447 0.062974
0.216556 0.0658427 0.0664073
0.255436 0.068925 0.0711223
0.296544 0.0744945 0.0800488
0.338613 0.0794385 0.0912032
0.383185 0.0841688 0.106783
0.431495 0.0887312 0.126497
0.482902 0.0931868 0.144747
0.534478 0.0977035 0.164508
0.590646 0.102831 0.188144
0.64506 0.108904 0.214282
0.68011 0.115969 0.236347
0.690517 0.118837 0.248615
0.693217 0.119036 0.256428
0.695293 0.11899 0.263157
0.696941 0.119005 0.269734
0.698634 0.119188 0.275792
0.700145 0.119295 0.281392
0.701411 0.119371 0.286305
0.702617 0.119448 0.290944
0.703716 0.119448 0.295323
0.705669 0.11928 0.299962
0.70988 0.118456 0.305333
0.716426 0.116884 0.312505
0.725078 0.114763 0.320119
0.733944 0.112352 0.327916
0.0321813 0.0597848 0.0563363
0.0312505 0.0590982 0.0566415
0.0315404 0.0581979 0.0566262
0.0327001 0.0573281 0.0557107
0.0555581 0.0608835 0.0556344
0.0932174 0.0637369 0.056611
0.128359 0.0654154 0.0581826
0.164538 0.067216 0.0606699
0.201587 0.0685893 0.0632639
0.243458 0.0699626 0.0668803
0.286885 0.0726024 0.0717937
0.32929 0.0762951 0.0789349
0.372351 0.0812543 0.0900282
0.418372 0.0868391 0.106706
0.466621 0.0914626 0.124193
0.516594 0.0960708 0.143267
0.570962 0.100771 0.164584
0.626978 0.107164 0.188617
0.667506 0.11397 0.212741
0.682673 0.116899 0.22678
0.686366 0.117357 0.234531
0.689677 0.11783 0.242084
0.692409 0.118349 0.24918
0.694224 0.11873 0.255848
0.695521 0.118929 0.261952
0.696452 0.118868 0.267628
0.697917 0.119051 0.273014
0.699565 0.119127 0.278065
0.701885 0.119005 0.283146
0.706355 0.118166 0.289219
0.7131 0.116655 0.29546
0.722271 0.114412 0.30312
0.731517 0.112139 0.310643
0.036347 0.0866712 0.063386
0.0352178 0.0851148 0.0616617
0.035996 0.080827 0.0605783
0.0375372 0.0718853 0.059617
0.0440375 0.0670787 0.0579232
0.074876 0.0713512 0.0580301
0.10721 0.0733501 0.0583963
0.142977 0.0747845 0.0599222
0.182666 0.0743572 0.0623636
0.229328 0.0751202 0.0661936
0.278416 0.076051 0.0706951
0.325521 0.0766003 0.0753643
0.371145 0.0797436 0.0829023
0.415015 0.0847791 0.0941329
0.458167 0.089601 0.108659
0.50341 0.0941939 0.127642
0.552148 0.0989395 0.146746
0.607019 0.105013 0.168658
0.65005 0.111559 0.188678
0.667048 0.114702 0.202441
0.673762 0.115831 0.212024
0.67921 0.116655 0.22063
0.683406 0.117006 0.228122
0.686961 0.117479 0.23508
0.690028 0.117891 0.241978
0.692424 0.118135 0.248264
0.694697 0.118364 0.254246
0.696818 0.118517 0.260105
0.699062 0.118074 0.265324
0.703151 0.117327 0.271031
0.709377 0.11606 0.277394
0.718196 0.114061 0.284688
0.727871 0.111788 0.292302
0.0470588 0.13196 0.0738537
0.0446937 0.131441 0.0701305
0.043595 0.129793 0.0677043
0.0458839 0.120455 0.0665904
0.0577859 0.106065 0.0649271
0.0823987 0.103639 0.0652476
0.109422 0.107851 0.067628
0.144732 0.105684 0.0685893
0.180987 0.100084 0.0687572
0.221378 0.0959487 0.0690471
0.268605 0.0902266 0.071046
0.31986 0.0845502 0.0748608
0.368933 0.0816052 0.0799878
0.416159 0.0831464 0.0880446
0.460899 0.0872969 0.100237
0.50425 0.0923476 0.119417
0.546319 0.0972152 0.136706
0.593912 0.102983 0.155535
0.639979 0.110109 0.175875
0.653254 0.112673 0.183917
0.658167 0.113527 0.190036
0.663539 0.114122 0.197284
0.668635 0.115038 0.204105
0.67454 0.11603 0.212116
0.68011 0.116991 0.220203
0.684001 0.117342 0.226963
0.686854 0.117754 0.232395
0.689219 0.117968 0.237476
0.691905 0.117784 0.242359
0.696117 0.117235 0.247486
0.702846 0.115999 0.253452
0.712016 0.114015 0.260487
0.721736 0.11162 0.267704
0.0548562 0.16878 0.0828412
0.0526436 0.170748 0.0777905
0.0509041 0.170428 0.074403
0.0503548 0.163043 0.0740826
0.0592508 0.152911 0.071809
0.0900587 0.139925 0.0692302
0.119417 0.137636 0.0698863
0.14847 0.138201 0.0710307
0.191821 0.137377 0.0743725
0.234134 0.133303 0.076051
0.279225 0.125689 0.0773175
0.321782 0.115557 0.0780957
0.36669 0.106172 0.0805982
0.410025 0.0957504 0.0836347
0.45388 0.0894484 0.0920119
0.496895 0.0909438 0.107774
0.541985 0.096376 0.128405
0.585931 0.101503 0.145892
0.631815 0.108629 0.168368
0.646952 0.112154 0.176699
0.647105 0.11252 0.177417
0.647852 0.112779 0.178897
0.650355 0.113313 0.182162
0.654322 0.113985 0.186816
0.657969 0.114733 0.191669
0.661524 0.115023 0.195972
0.665385 0.115816 0.201282
0.669398 0.116335 0.2065
0.673671 0.116793 0.211795
0.678553 0.116793 0.216648
0.684596 0.116136 0.222217
0.691707 0.114977 0.227405
0.699809 0.113603 0.233051
0.0666819 0.204837 0.0906996
0.0638743 0.209705 0.0855116
0.060853 0.212238 0.0822919
0.059205 0.210178 0.080705
0.0624704 0.202106 0.0798199
0.0740063 0.190585 0.0782635
0.118486 0.177646 0.0776532
0.155001 0.17319 0.078233
0.189868 0.173419 0.0788586
0.242741 0.172168 0.0816968
0.299916 0.165225 0.084184
0.345724 0.159106 0.0859388
0.388739 0.150835 0.0870832
0.427405 0.135241 0.0881666
0.465888 0.116869 0.0907607
0.504265 0.106249 0.0985428
0.542824 0.0972 0.113375
0.58526 0.0998093 0.135668
0.627161 0.105196 0.156115
0.655955 0.109911 0.174243
0.657511 0.109957 0.17615
0.658473 0.109911 0.177386
0.658579 0.109911 0.178027
0.658274 0.109987 0.178454
0.657786 0.110079 0.178836
0.657252 0.110216 0.179065
0.656535 0.110369 0.179156
0.656199 0.110582 0.179492
0.657069 0.110872 0.18085
0.658976 0.110994 0.183093
0.662959 0.110887 0.186007
0.669139 0.110445 0.190021
0.676783 0.109468 0.194156
0.0733349 0.25069 0.10045
0.0695506 0.257313 0.094667
0.0658579 0.263279 0.088838
0.0635996 0.265126 0.0852064
0.0634318 0.259495 0.0848402
0.0696269 0.248096 0.0843061
0.0901503 0.234119 0.0834821
0.143923 0.222049 0.0834669
0.196246 0.215778 0.0840925
0.23949 0.215732 0.0851759
0.305684 0.216281 0.086183
0.368551 0.208209 0.0885634
0.419394 0.197345 0.092134
0.462409 0.187716 0.0937209
0.50132 0.17673 0.0948653
0.537835 0.16141 0.0976577
0.568444 0.135531 0.102708
0.601755 0.121965 0.116091
0.628412 0.107576 0.130892
0.655863 0.111635 0.155703
0.658076 0.111223 0.161868
0.658228 0.110369 0.163973
0.659403 0.110506 0.165621
0.659602 0.110369 0.166888
0.659556 0.110094 0.169116
0.658564 0.109606 0.170932
0.658473 0.10956 0.171557
0.658305 0.109514 0.172168
0.658183 0.109514 0.172808
0.658381 0.109438 0.173724
0.659388 0.109194 0.174868
0.661799 0.108705 0.17612
0.665721 0.107866 0.177798
0.078706 0.307912 0.114763
0.072343 0.31635 0.103136
0.0671855 0.325658 0.0931258
0.0637064 0.332341 0.0838636
0.0622721 0.332631 0.0852979
0.0650187 0.32137 0.0858167
0.0766461 0.308202 0.0861524
0.110124 0.29398 0.0862898
0.175845 0.279362 0.0859693
0.24622 0.269459 0.0860304
0.301228 0.268742 0.085893
0.373404 0.271382 0.0848554
0.441672 0.262882 0.0873884
0.49836 0.248066 0.0922103
0.545296 0.235599 0.0963455
0.583978 0.223529 0.0992599
0.616464 0.210986 0.101564
0.64744 0.193561 0.108095
0.670817 0.171801 0.118853
0.680613 0.14963 0.130816
0.677958 0.136507 0.135821
0.677699 0.135805 0.140063
0.679271 0.136522 0.143572
0.676173 0.132479 0.144839
0.669795 0.124727 0.143435
0.666117 0.119554 0.143069
0.664988 0.117144 0.145495
0.663539 0.114748 0.146166
0.663401 0.11429 0.147982
0.663615 0.113924 0.150622
0.663966 0.113222 0.152544
0.665141 0.112505 0.154131
0.668452 0.111421 0.155703
0.0762341 0.375204 0.125689
0.068925 0.384695 0.109834
0.0625772 0.395453 0.0983139
0.0588998 0.406409 0.0838483
0.0566262 0.411994 0.0800488
0.0580301 0.407156 0.0809949
0.062089 0.393866 0.0821851
0.0799268 0.377218 0.0831464
0.124163 0.363561 0.0829938
0.21297 0.348302 0.081529
0.307393 0.336858 0.0800793
0.369375 0.3346 0.0787213
0.441794 0.339727 0.0771801
0.512734 0.33431 0.0777142
0.574182 0.319677 0.0835889
0.626093 0.300938 0.0931868
0.668437 0.285954 0.100938
0.704021 0.271931 0.110048
0.727398 0.261906 0.11809
0.74435 0.246708 0.129732
0.749584 0.232517 0.136461
0.744778 0.22504 0.136614
0.74197 0.219226 0.137591
0.737514 0.213001 0.137316
0.733364 0.207782 0.136767
0.728725 0.202045 0.136156
0.725277 0.198413 0.135119
0.721691 0.194293 0.134874
0.717937 0.189563 0.134493
0.714565 0.184833 0.134874
0.711986 0.179995 0.134874
0.711147 0.17554 0.135348
0.712169 0.171313 0.135775
0.0701457 0.449165 0.134905
0.0627298 0.459327 0.120897
0.0565957 0.469612 0.102831
0.0528725 0.480415 0.0910048
0.0513161 0.488594 0.0811627
0.0508888 0.491081 0.0759899
0.0513771 0.486488 0.0758068
0.0589456 0.472435 0.076173
0.0786755 0.455055 0.076524
0.142885 0.443198 0.0747845
0.258228 0.424781 0.0721904
0.370001 0.409842 0.0709239
0.43801 0.405753 0.0709392
0.503014 0.411673 0.0715038
0.572122 0.411673 0.0734264
0.6336 0.402594 0.0803388
0.685756 0.386496 0.0926528
0.733989 0.369604 0.108614
0.772824 0.354574 0.127932
0.798871 0.339529 0.144976
0.81088 0.326787 0.151949
0.810391 0.321294 0.152361
0.807324 0.316991 0.150835
0.803586 0.31339 0.149096
0.799619 0.309682 0.146487
0.796902 0.305989 0.145144
0.793591 0.301747 0.143603
0.790997 0.297612 0.142733
0.78793 0.292576 0.141848
0.78471 0.287663 0.141115
0.782376 0.283055 0.140734
0.780163 0.27866 0.140139
0.778698 0.274754 0.139437
0.0677806 0.522347 0.148913
0.0605936 0.53225 0.136126
0.0551766 0.542199 0.116732
0.0532692 0.551873 0.108537
0.051957 0.56109 0.0959029
0.054551 0.56672 0.0840925
0.0570382 0.567407 0.0785382
0.0581979 0.559106 0.0784161
0.0710002 0.542428 0.0763714
0.0975052 0.524636 0.0745251
0.18526 0.517388 0.0709392
0.32163 0.499138 0.0687572
0.433982 0.480751 0.0696727
0.502602 0.47657 0.072343
0.558419 0.481117 0.0760815
0.621454 0.484611 0.0823682
0.678111 0.482856 0.0906233
0.73051 0.474403 0.105333
0.776349 0.461814 0.12549
0.814481 0.447364 0.146899
0.84181 0.431846 0.164096
0.852033 0.421958 0.170733
0.850706 0.417411 0.170352
0.84979 0.412909 0.170336
0.849699 0.409079 0.170962
0.848875 0.40412 0.170871
0.848554 0.399252 0.171313
0.846998 0.394049 0.170794
0.845579 0.388708 0.170581
0.843381 0.38233 0.169665
0.841642 0.377401 0.168917
0.839734 0.372091 0.167605
0.838422 0.367697 0.16672
0.0771344 0.592432 0.172686
0.0730297 0.601404 0.156878
0.0697948 0.61001 0.143145
0.0675059 0.619135 0.13666
0.0670329 0.627939 0.128511
0.0706798 0.634302 0.111406
0.076112 0.638346 0.0967727
0.0777295 0.63679 0.0965286
0.0764935 0.624994 0.0931716
0.0964523 0.607843 0.0857862
0.129244 0.593256 0.0789807
0.257984 0.587289 0.0753338
0.391928 0.566644 0.0742351
0.496696 0.547524 0.0763714
0.56257 0.544167 0.0813611
0.608194 0.546929 0.0865644
0.665202 0.551507 0.096025
0.714885 0.553292 0.107088
0.767819 0.551858 0.127031
0.809827 0.543191 0.146227
0.845365 0.531807 0.163256
0.866651 0.521385 0.173816
0.867369 0.518029 0.174228
0.867048 0.515221 0.174197
0.866423 0.511879 0.173877
0.865812 0.508202 0.173602
0.865339 0.503746 0.17351
0.864683 0.498741 0.173205
0.864195 0.493278 0.173007
0.863508 0.487465 0.172946
0.86305 0.482414 0.173053
0.86186 0.476875 0.172457
0.861402 0.471641 0.172305
0.0914015 0.663783 0.205188
0.09131 0.671611 0.190341
0.0915084 0.679118 0.175814
0.0914931 0.686809 0.169467
0.0914931 0.695277 0.171084
0.0975357 0.702342 0.161074
0.109499 0.706325 0.138506
0.115328 0.707561 0.133013
0.114168 0.700069 0.12781
0.114076 0.684855 0.117433
0.141497 0.668925 0.102434
0.178454 0.659175 0.0933394
0.347097 0.657069 0.0862135
0.46186 0.62768 0.0841382
0.5561 0.609277 0.089601
0.617365 0.607721 0.0965133
0.656855 0.608148 0.10396
0.703517 0.611749 0.115572
0.752041 0.61387 0.132723
0.796811 0.614145 0.150942
0.837034 0.611765 0.167605
0.867292 0.607385 0.179782
0.878111 0.60296 0.184009
0.877409 0.599542 0.183261
0.87689 0.596277 0.182605
0.876448 0.592599 0.182193
0.875746 0.588464 0.181415
0.875441 0.584161 0.180987
0.874876 0.579629 0.180392
0.874403 0.574578 0.179828
0.874174 0.569314 0.179614
0.87335 0.563729 0.178882
0.872801 0.558663 0.178256
0.126802 0.735409 0.249622
0.131426 0.742977 0.237736
0.134234 0.75082 0.22591
0.136019 0.758282 0.215351
0.136339 0.76762 0.217334
0.140124 0.776501 0.21622
0.149569 0.782895 0.199664
0.159625 0.786267 0.18114
0.162829 0.785046 0.177478
0.157763 0.769177 0.168063
0.172213 0.748135 0.150225
0.189059 0.728862 0.133562
0.26389 0.723949 0.113634
0.435737 0.724926 0.108278
0.530724 0.682551 0.103883
0.612909 0.666041 0.111208
0.668727 0.665858 0.121386
0.705821 0.664179 0.131289
0.744244 0.666163 0.144778
0.787137 0.667903 0.161868
0.825925 0.667872 0.177203
0.858946 0.666926 0.18999
0.880385 0.664652 0.197772
0.880415 0.662287 0.197024
0.880232 0.659739 0.196185
0.880369 0.657206 0.195514
0.880034 0.654536 0.194308
0.879927 0.651316 0.193393
0.879896 0.6477 0.192584
0.879759 0.643183 0.191546
0.879835 0.638605 0.190738
0.88014 0.634089 0.190219
0.879606 0.62974 0.188998
0.173938 0.808698 0.302495
0.177798 0.816526 0.291051
0.179507 0.824537 0.278859
0.180117 0.832609 0.267262
0.17998 0.841306 0.266316
0.182452 0.849897 0.266682
0.188632 0.857023 0.257649
0.198657 0.860883 0.231907
0.203769 0.859937 0.219104
0.202411 0.85185 0.213779
0.201907 0.829877 0.201038
0.233417 0.80705 0.17995
0.252979 0.792462 0.168612
0.391989 0.793439 0.145739
0.518196 0.788663 0.144121
0.59176 0.735531 0.13135
0.66276 0.721004 0.139055
0.713954 0.721355 0.152071
0.751614 0.718257 0.164019
0.783841 0.717739 0.176303
0.817517 0.718196 0.189395
0.851926 0.718196 0.202533
0.878752 0.71667 0.212299
0.885512 0.71429 0.214252
0.885054 0.711849 0.213046
0.884215 0.709041 0.211521
0.883787 0.70663 0.210361
0.88307 0.703593 0.208804
0.882628 0.700175 0.207553
0.882002 0.695949 0.205982
0.881758 0.691783 0.204776
0.881804 0.687938 0.2038
0.881575 0.684199 0.202533
0.217182 0.875181 0.35198
0.220203 0.883345 0.340749
0.21912 0.88864 0.325826
0.216938 0.892927 0.312078
0.214969 0.897276 0.307576
0.214893 0.900954 0.306477
0.217655 0.903319 0.297322
0.223636 0.904051 0.271641
0.228275 0.902876 0.249744
0.228122 0.899931 0.243565
0.224628 0.889845 0.236271
0.260121 0.876936 0.22295
0.281056 0.859739 0.211521
0.338247 0.854398 0.200168
0.510185 0.858244 0.187121
0.587839 0.833814 0.177874
0.649424 0.78674 0.167773
0.709804 0.778058 0.175708
0.757839 0.778347 0.187869
0.795193 0.773892 0.199619
0.823041 0.771069 0.209827
0.849195 0.769818 0.220264
0.875456 0.769024 0.230213
0.891493 0.767193 0.23566
0.891173 0.764065 0.234302
0.89044 0.761028 0.232471
0.88954 0.758221 0.230442
0.889189 0.754818 0.228824
0.888518 0.750957 0.226612
0.887877 0.746578 0.22475
0.887419 0.742367 0.223102
0.887022 0.738155 0.221805
0.886442 0.734401 0.220066
0.235721 0.904265 0.381674
0.233722 0.905272 0.365225
0.229847 0.906172 0.347143
0.225635 0.907149 0.330724
0.221561 0.9084 0.322713
0.219394 0.909163 0.319905
0.219806 0.908812 0.310506
0.223423 0.906355 0.284428
0.228016 0.90341 0.256626
0.230076 0.902495 0.249485
0.231525 0.90193 0.247471
0.26656 0.905882 0.246952
0.312001 0.906432 0.241962
0.339818 0.901366 0.240879
0.46453 0.903929 0.225132
0.597604 0.908858 0.229038
0.647974 0.868696 0.213138
0.701244 0.829831 0.206332
0.755581 0.827329 0.213611
0.800427 0.828748 0.22388
0.834348 0.824094 0.233799
0.859617 0.8206 0.24332
0.88127 0.818402 0.252644
0.897871 0.815671 0.25977
0.899321 0.812222 0.25951
0.898482 0.808804 0.25745
0.897581 0.80557 0.254978
0.897093 0.80235 0.252705
0.896025 0.798367 0.250004
0.895476 0.794507 0.247868
0.894606 0.790463 0.245563
0.894331 0.786068 0.244236
0.893828 0.782284 0.242496
0.236011 0.905516 0.391073
0.234501 0.905257 0.371557
0.231312 0.905806 0.352499
0.227405 0.906722 0.336202
0.223301 0.907835 0.326558
0.219989 0.909087 0.326314
0.219486 0.909087 0.317205
0.222171 0.907149 0.29276
0.226688 0.904265 0.263401
0.229587 0.902678 0.249546
0.230625 0.902235 0.248112
0.249119 0.904814 0.250553
0.306752 0.911574 0.249866
0.341451 0.915419 0.255695
0.408896 0.921065 0.254856
0.571603 0.926986 0.24332
0.654307 0.924315 0.250217
0.698161 0.895323 0.246189
0.749401 0.866758 0.243534
0.799512 0.870344 0.252079
0.839506 0.872541 0.2607
0.8692 0.868879 0.269261
0.891188 0.866224 0.277241
0.907057 0.864317 0.284108
0.911681 0.861006 0.285039
0.910277 0.857114 0.282139
0.908766 0.853437 0.279072
0.907317 0.849714 0.27602
0.90576 0.845747 0.273136
0.904677 0.84181 0.270466
0.903273 0.83769 0.267872
0.902602 0.833661 0.266285
0.901457 0.829633 0.264073
0.225788 0.909483 0.400229
0.226886 0.908415 0.379202
0.226184 0.907927 0.359564
0.224491 0.908034 0.34226
0.222202 0.908339 0.328176
0.219562 0.909255 0.326604
0.217853 0.909819 0.324849
0.219913 0.908522 0.304814
0.224033 0.905882 0.276081
0.229007 0.902861 0.247333
0.23006 0.902312 0.245243
0.234852 0.902998 0.249363
0.292454 0.911192 0.25536
0.343893 0.916869 0.256672
0.381643 0.921431 0.264927
0.505745 0.92781 0.251316
0.640513 0.931075 0.251713
0.697169 0.930404 0.270878
0.744335 0.914504 0.278233
0.795392 0.898161 0.280232
0.840375 0.906584 0.291173
0.874998 0.909026 0.301762
0.901869 0.906874 0.311482
0.918853 0.904433 0.318715
0.928344 0.902434 0.323079
0.928023 0.899351 0.320119
0.926009 0.895552 0.315679
0.924331 0.891722 0.311528
0.922545 0.888151 0.307439
0.920882 0.884184 0.303883
0.91957 0.880537 0.300801
0.918669 0.876539 0.298207
0.917906 0.872877 0.296498
0.22591 0.909911 0.416846
0.228992 0.908309 0.396674
0.230549 0.906935 0.376501
0.231113 0.90605 0.358282
0.23093 0.905547 0.340795
0.229953 0.90547 0.329168
0.228367 0.90605 0.328862
0.228809 0.905821 0.32018
0.23154 0.903716 0.294438
0.236957 0.900008 0.258198
0.239048 0.898802 0.248753
0.240253 0.898604 0.249958
0.281468 0.905211 0.258732
0.344854 0.912871 0.259449
0.378882 0.918593 0.272404
0.458793 0.925917 0.274403
0.610834 0.932525 0.274098
0.69456 0.934783 0.286213
0.744244 0.934752 0.301396
0.795514 0.925414 0.31426
0.844541 0.923888 0.324651
0.881636 0.929931 0.336965
0.910292 0.931319 0.348241
0.929793 0.930282 0.358602
0.943648 0.929564 0.364141
0.945541 0.927916 0.363043
0.943847 0.925673 0.358526
0.941924 0.923568 0.353796
0.939757 0.921401 0.348898
0.937591 0.919036 0.343832
0.935958 0.916381 0.340444
0.934768 0.91339 0.337545
0.93373 0.910155 0.334936
0.223651 0.911208 0.431312
0.226139 0.909636 0.412299
0.227955 0.908492 0.391012
0.228382 0.907591 0.372656
0.228428 0.906996 0.354208
0.228473 0.906355 0.336721
0.227985 0.906188 0.328099
0.227451 0.90634 0.327276
0.229358 0.905058 0.308736
0.234577 0.90135 0.269932
0.237766 0.899413 0.250446
0.238697 0.898939 0.248295
0.259586 0.90248 0.25536
0.325948 0.911269 0.258427
0.3635 0.91722 0.269581
0.421073 0.924514 0.276967
0.553307 0.933852 0.279973
0.673777 0.939208 0.299031
0.729091 0.938323 0.300221
0.781674 0.940337 0.323568
0.838376 0.937896 0.345739
0.878538 0.939879 0.356725
0.908324 0.942031 0.366278
0.930251 0.943343 0.379751
0.947356 0.944427 0.389715
0.953979 0.944411 0.389319
0.953948 0.944457 0.386343
0.953002 0.944579 0.382269
0.951888 0.944686 0.377768
0.950301 0.943893 0.372564
0.94876 0.942138 0.367697
0.947692 0.9402 0.36466
0.947066 0.938262 0.362631
0.222263 0.912077 0.443488
0.224628 0.910689 0.425422
0.225834 0.909483 0.405341
0.226108 0.908965 0.386084
0.225589 0.908446 0.367239
0.225376 0.907897 0.348455
0.225528 0.907256 0.33225
0.225376 0.907073 0.326986
0.226093 0.906798 0.32079
0.229801 0.904036 0.28896
0.23505 0.90071 0.254582
0.23621 0.899962 0.247715
0.243809 0.901198 0.251926
0.30724 0.909789 0.258137
0.354696 0.916152 0.26569
0.393652 0.921599 0.27396
0.497505 0.93164 0.280247
0.640604 0.938735 0.292683
0.710307 0.940246 0.303746
0.761257 0.940826 0.312871
0.820233 0.941894 0.343847
0.868025 0.943099 0.362585
0.901671 0.943954 0.371923
0.925704 0.944335 0.38262
0.944106 0.945312 0.400107
0.954192 0.946014 0.408148
0.955947 0.946334 0.408057
0.955367 0.94667 0.406104
0.954452 0.946975 0.402289
0.953506 0.947234 0.398001
0.952773 0.947295 0.394171
0.952407 0.947127 0.39115
0.952377 0.946746 0.389395
0.220493 0.912917 0.454047
0.222629 0.91165 0.43679
0.223941 0.910658 0.418189
0.22388 0.910124 0.398871
0.222827 0.909895 0.379553
0.221866 0.909545 0.360098
0.222171 0.908843 0.340185
0.222843 0.908019 0.326497
0.224933 0.907286 0.328008
0.228122 0.905348 0.303563
0.233753 0.901335 0.261585
0.235981 0.900053 0.247913
0.238163 0.900725 0.250141
0.285451 0.907897 0.257099
0.343816 0.91516 0.261234
0.379339 0.920241 0.271366
0.452796 0.928542 0.279606
0.598047 0.936309 0.281926
0.6916 0.941222 0.3066
0.741512 0.940276 0.305119
0.797436 0.942809 0.331914
0.851942 0.943206 0.356435
0.889113 0.944717 0.366995
0.91722 0.944915 0.37612
0.937728 0.945617 0.392508
0.951339 0.946258 0.406088
0.955764 0.946471 0.407553
0.955352 0.946746 0.406577
0.95465 0.947173 0.405371
0.953964 0.947616 0.403891
0.95349 0.947906 0.402914
0.953307 0.948013 0.402548
0.953475 0.947906 0.402899
0.218753 0.913848 0.463569
0.220691 0.912673 0.446921
0.222034 0.911696 0.429358
0.222385 0.910948 0.411322
0.221622 0.910796 0.391348
0.220386 0.910491 0.37171
0.220386 0.90988 0.350607
0.221759 0.908598 0.330739
0.222354 0.908263 0.327855
0.224933 0.907073 0.315328
0.230701 0.903243 0.276066
0.235477 0.900282 0.24831
0.235431 0.900206 0.248356
0.26656 0.90544 0.255802
0.330892 0.913848 0.258824
0.367346 0.919188 0.268696
0.422354 0.925704 0.276066
0.543496 0.934157 0.277485
0.668406 0.941161 0.304738
0.721828 0.940383 0.302892
0.774701 0.942016 0.319615
0.833707 0.943801 0.349859
0.876402 0.945052 0.36321
0.907103 0.945464 0.37084
0.929488 0.946242 0.382086
0.945663 0.947463 0.400076
0.953338 0.947967 0.402686
0.952758 0.948363 0.401389
0.952041 0.948806 0.399893
0.9514 0.949187 0.398596
0.951049 0.949386 0.397986
0.950988 0.949432 0.397879
0.951217 0.949294 0.39823
0.208743 0.917357 0.472129
0.210727 0.916381 0.455436
0.213046 0.915145 0.438376
0.21529 0.913832 0.422019
0.216693 0.912642 0.402136
0.217426 0.911986 0.381933
0.218021 0.911009 0.361349
0.219608 0.909743 0.339757
0.220768 0.908797 0.32694
0.221942 0.908263 0.32166
0.227039 0.905226 0.289555
0.233677 0.901076 0.249668
0.234699 0.900526 0.246799
0.251621 0.903456 0.252644
0.313329 0.91194 0.257832
0.357351 0.917952 0.265202
0.398886 0.923568 0.27364
0.491203 0.93164 0.276707
0.625956 0.939162 0.290898
0.702235 0.941054 0.304585
0.752468 0.941009 0.309239
0.812772 0.944045 0.341024
0.862715 0.94435 0.358907
0.89662 0.945388 0.368505
0.922621 0.945739 0.374731
0.940063 0.947356 0.396887
