bundles/resolve-cinematic-luts/Phantom Luts/Canon Film LUT/C-Log 3/Eterna Canon-Legacy CL3.cube
TITLE "Generated by Resolve"
LUT_3D_SIZE 5
0.0302892 0.0565805 0.0563516
0.247456 0.0709392 0.0995041
0.609415 0.106554 0.237888
0.702083 0.121889 0.319936
0.739849 0.114626 0.375189
0.0733349 0.25069 0.10045
0.196246 0.215778 0.0840925
0.568444 0.135531 0.102708
0.659556 0.110094 0.169116
0.665721 0.107866 0.177798
0.173938 0.808698 0.302495
0.203769 0.859937 0.219104
0.66276 0.721004 0.139055
0.885054 0.711849 0.213046
0.881575 0.684199 0.202533
0.220493 0.912917 0.454047
0.224933 0.907286 0.328008
0.452796 0.928542 0.279606
0.937728 0.945617 0.392508
0.953475 0.947906 0.402899
0.20238 0.920775 0.517357
0.222827 0.909514 0.369451
0.346593 0.909941 0.263523
0.858763 0.941253 0.361547
0.94992 0.950103 0.395514
0.0307927 0.0608988 0.161654
0.255146 0.0726482 0.207477
0.605097 0.100084 0.339925
0.744305 0.121065 0.439506
0.76434 0.116289 0.500435
0.0616617 0.188907 0.163577
0.177035 0.176883 0.173617
0.583474 0.0955062 0.221439
0.724346 0.114336 0.328389
0.743954 0.114275 0.38294
0.0948653 0.714992 0.374166
0.108507 0.761227 0.280629
0.627756 0.686778 0.119966
0.880034 0.666789 0.196399
0.879301 0.627161 0.18732
0.215717 0.918853 0.603525
0.215305 0.916365 0.512413
0.383551 0.92015 0.271794
0.925109 0.944198 0.382239
0.951385 0.946807 0.38497
0.212329 0.920897 0.654765
0.216815 0.917784 0.582116
0.262821 0.897276 0.25507
0.806806 0.940673 0.338979
0.949889 0.950118 0.395422
0.0505379 0.0756847 0.412421
0.279988 0.0832227 0.492943
0.644007 0.105791 0.513588
0.728237 0.125826 0.551308
0.742794 0.122515 0.640406
0.0587015 0.155016 0.317525
0.0454108 0.103365 0.394461
0.586069 0.0981003 0.498924
0.726192 0.126238 0.541604
0.735668 0.125139 0.632731
0.0771038 0.6103 0.51487
0.056199 0.612314 0.532845
0.585458 0.616312 0.574701
0.959243 0.54873 0.598337
0.956909 0.494621 0.623621
0.228382 0.890883 0.727199
0.20296 0.904753 0.713222
0.244633 0.92369 0.55407
0.903578 0.934524 0.576883
0.956222 0.920897 0.609491
0.220798 0.881148 0.774517
0.203113 0.894087 0.750149
0.231632 0.91426 0.619272
0.73022 0.946349 0.560616
0.957259 0.95169 0.5449
0.0628214 0.128786 0.601587
0.216663 0.126558 0.683665
0.641825 0.117388 0.74992
0.724117 0.130831 0.759838
0.72311 0.131243 0.757351
0.0595254 0.162417 0.540276
0.0586709 0.141772 0.579919
0.537758 0.120684 0.763439
0.723873 0.131212 0.751995
0.72462 0.130694 0.760372
0.0760662 0.589929 0.673701
0.0760967 0.567498 0.701152
0.251972 0.498238 0.796719
0.944076 0.43183 0.842069
0.938369 0.395483 0.852369
0.23331 0.858885 0.81294
0.19411 0.851057 0.80415
0.1691 0.815778 0.744595
0.861921 0.88278 0.852201
0.963287 0.853101 0.856458
0.248539 0.858091 0.857984
0.213901 0.867857 0.85951
0.206348 0.886275 0.788205
0.764675 0.952941 0.86099
0.964935 0.958663 0.932967
0.0622721 0.12874 0.612787
0.178759 0.125933 0.668254
0.598093 0.118746 0.761059
0.724483 0.130617 0.760876
0.724468 0.130632 0.760845
0.0701762 0.195071 0.655604
0.0656596 0.169329 0.631754
0.427741 0.125978 0.754345
0.724483 0.130617 0.760876
0.724483 0.130617 0.760876
0.112383 0.574319 0.793027
0.116106 0.55436 0.809979
0.100465 0.460899 0.794293
0.860685 0.339696 0.928664
0.854948 0.269352 0.876799
0.215015 0.856153 0.882124
0.205997 0.837507 0.874693
0.18526 0.788907 0.859205
0.697948 0.812222 0.941421
0.952605 0.786328 0.954787
0.228656 0.875654 0.903639
0.228656 0.875639 0.903593
0.221393 0.870436 0.884504
0.664302 0.934905 0.926192
0.962081 0.962081 0.962081
