bundles/resolve-cinematic-luts/Phantom Luts/Canon Film LUT/C-Log 3/Eterna Canon-Legacy CL3.cube
TITLE "Generated by Resolve"
LUT_3D_SIZE 9
0.0302892 0.0565805 0.0563516
0.132662 0.0610513 0.0713817
0.247456 0.0709392 0.0995041
0.409369 0.0873121 0.153429
0.609415 0.106554 0.237888
0.697887 0.121828 0.298909
0.702083 0.121889 0.319936
0.70927 0.121004 0.340536
0.739849 0.114626 0.375189
0.036347 0.0866712 0.063386
0.0440375 0.0670787 0.0579232
0.182666 0.0743572 0.0623636
0.371145 0.0797436 0.0829023
0.552148 0.0989395 0.146746
0.673762 0.115831 0.212024
0.690028 0.117891 0.241978
0.699062 0.118074 0.265324
0.727871 0.111788 0.292302
0.0733349 0.25069 0.10045
0.0634318 0.259495 0.0848402
0.196246 0.215778 0.0840925
0.419394 0.197345 0.092134
0.568444 0.135531 0.102708
0.658076 0.111223 0.161868
0.659556 0.110094 0.169116
0.658183 0.109514 0.172808
0.665721 0.107866 0.177798
0.0677806 0.522347 0.148913
0.051957 0.56109 0.0959029
0.0710002 0.542428 0.0763714
0.433982 0.480751 0.0696727
0.678111 0.482856 0.0906233
0.84181 0.431846 0.164096
0.849699 0.409079 0.170962
0.845579 0.388708 0.170581
0.838422 0.367697 0.16672
0.173938 0.808698 0.302495
0.17998 0.841306 0.266316
0.203769 0.859937 0.219104
0.252979 0.792462 0.168612
0.66276 0.721004 0.139055
0.817517 0.718196 0.189395
0.885054 0.711849 0.213046
0.882628 0.700175 0.207553
0.881575 0.684199 0.202533
0.225788 0.909483 0.400229
0.222202 0.908339 0.328176
0.224033 0.905882 0.276081
0.292454 0.911192 0.25536
0.640513 0.931075 0.251713
0.840375 0.906584 0.291173
0.928344 0.902434 0.323079
0.922545 0.888151 0.307439
0.917906 0.872877 0.296498
0.220493 0.912917 0.454047
0.222827 0.909895 0.379553
0.224933 0.907286 0.328008
0.238163 0.900725 0.250141
0.452796 0.928542 0.279606
0.797436 0.942809 0.331914
0.937728 0.945617 0.392508
0.95465 0.947173 0.405371
0.953475 0.947906 0.402899
0.209033 0.917723 0.489403
0.222873 0.911223 0.422965
0.238392 0.902663 0.340017
0.249973 0.894469 0.252506
0.380179 0.915053 0.274067
0.718929 0.938384 0.309728
0.908461 0.943114 0.375875
0.955596 0.946593 0.407095
0.95108 0.949371 0.398032
0.20238 0.920775 0.517357
0.208042 0.917144 0.449348
0.222827 0.909514 0.369451
0.23827 0.900008 0.272953
0.346593 0.909941 0.263523
0.633219 0.934997 0.290974
0.858763 0.941253 0.361547
0.954971 0.946792 0.406348
0.94992 0.950103 0.395514
0.0299687 0.0585946 0.0852064
0.131151 0.0628824 0.119539
0.248661 0.0685283 0.153414
0.407523 0.0851606 0.214328
0.611734 0.0998703 0.301823
0.731517 0.11812 0.368231
0.73463 0.118105 0.391806
0.741512 0.118227 0.412787
0.761807 0.113878 0.441581
0.0335851 0.063859 0.0613718
0.036347 0.0569772 0.0581369
0.215641 0.0669261 0.0966201
0.40206 0.0801404 0.14583
0.594614 0.0964828 0.220233
0.723888 0.113573 0.298726
0.728237 0.113298 0.322805
0.732448 0.113298 0.342947
0.749935 0.110384 0.368765
0.0653544 0.211078 0.138369
0.0589456 0.223239 0.0962692
0.179797 0.196109 0.0821393
0.409705 0.160967 0.0895552
0.552407 0.0945754 0.106661
0.669062 0.107485 0.179309
0.680247 0.108934 0.196796
0.692744 0.110948 0.215702
0.708171 0.110658 0.234333
0.0593729 0.482918 0.193225
0.0475166 0.518898 0.140429
0.0586404 0.543282 0.0794232
0.419425 0.467201 0.0690318
0.674403 0.456611 0.0870069
0.8336 0.399481 0.160159
0.840024 0.373358 0.167452
0.827787 0.356283 0.159106
0.814328 0.334646 0.151171
0.135943 0.772198 0.319585
0.140215 0.79678 0.281163
0.166964 0.820737 0.242451
0.219348 0.776394 0.159899
0.646479 0.705119 0.12932
0.81088 0.703136 0.180041
0.881254 0.698146 0.205463
0.879637 0.684245 0.200565
0.879469 0.666575 0.196063
0.225666 0.911376 0.461204
0.214664 0.913252 0.398871
0.216846 0.910307 0.327688
0.258259 0.906508 0.25243
0.604807 0.929747 0.24741
0.826413 0.895644 0.276738
0.921691 0.889433 0.308202
0.915892 0.874067 0.293568
0.909926 0.858015 0.281605
0.21619 0.916182 0.517632
0.217075 0.914412 0.462806
0.220188 0.910414 0.366705
0.236591 0.89987 0.249393
0.423224 0.92517 0.277043
0.777646 0.941955 0.321111
0.933227 0.945159 0.388357
0.954421 0.947173 0.4038
0.952819 0.947585 0.396323
0.207111 0.920211 0.554055
0.220661 0.91426 0.502464
0.231357 0.908248 0.424506
0.244877 0.898024 0.28809
0.371771 0.913451 0.269795
0.703212 0.938201 0.312032
0.899016 0.942596 0.374212
0.955657 0.946563 0.407233
0.950957 0.949447 0.397833
0.204868 0.921416 0.578073
0.21146 0.918044 0.527626
0.217533 0.914168 0.459251
0.23299 0.904402 0.329442
0.329885 0.907195 0.261357
0.596918 0.934035 0.289845
0.840192 0.942199 0.354971
0.952026 0.946715 0.405829
0.949905 0.950103 0.395499
0.0307927 0.0608988 0.161654
0.132769 0.0650797 0.195651
0.255146 0.0726482 0.207477
0.415427 0.0859388 0.258595
0.605097 0.100084 0.339925
0.738445 0.11931 0.410178
0.744305 0.121065 0.439506
0.749096 0.121187 0.464897
0.76434 0.116289 0.500435
0.0351263 0.0746319 0.0993057
0.0315251 0.062974 0.152575
0.219287 0.0691691 0.182254
0.398993 0.0831617 0.215335
0.5794 0.0951247 0.289845
0.738003 0.115007 0.37261
0.744839 0.116609 0.410071
0.750362 0.118242 0.438087
0.765896 0.115419 0.469932
0.0616617 0.188907 0.163577
0.0534676 0.183917 0.160845
0.177035 0.176883 0.173617
0.427497 0.125551 0.17792
0.583474 0.0955062 0.221439
0.723613 0.114076 0.299107
0.724346 0.114336 0.328389
0.728008 0.116915 0.353262
0.743954 0.114275 0.38294
0.0612497 0.436042 0.245838
0.0479744 0.463127 0.223621
0.0488441 0.493874 0.150805
0.401343 0.449897 0.0700542
0.691752 0.399313 0.122927
0.827375 0.328252 0.18645
0.827314 0.295903 0.19913
0.816373 0.262867 0.204944
0.801297 0.229038 0.208377
0.0948653 0.714992 0.374166
0.0863661 0.735256 0.345449
0.108507 0.761227 0.280629
0.173602 0.762219 0.158602
0.627756 0.686778 0.119966
0.801938 0.67509 0.168261
0.880034 0.666789 0.196399
0.879896 0.650233 0.19237
0.879301 0.627161 0.18732
0.223301 0.909422 0.541344
0.207935 0.916503 0.513954
0.206973 0.916671 0.439628
0.228229 0.9037 0.265492
0.512566 0.92517 0.244663
0.801511 0.873198 0.253376
0.907897 0.861753 0.282841
0.905348 0.845792 0.273564
0.900435 0.827588 0.263279
0.215717 0.918853 0.603525
0.213428 0.918624 0.57528
0.215305 0.916365 0.512413
0.226307 0.906859 0.330129
0.383551 0.92015 0.271794
0.747463 0.939483 0.307866
0.925109 0.944198 0.382239
0.954086 0.946868 0.399008
0.951385 0.946807 0.38497
0.210971 0.921263 0.636683
0.211795 0.92015 0.607889
0.229023 0.91313 0.555627
0.232792 0.907118 0.404242
0.326131 0.905623 0.2645
0.663264 0.935302 0.301549
0.880812 0.941695 0.370016
0.955673 0.946548 0.407248
0.950988 0.949447 0.397818
0.212329 0.920897 0.654765
0.209064 0.921538 0.626657
0.216815 0.917784 0.582116
0.227665 0.910811 0.464637
0.262821 0.897276 0.25507
0.534386 0.929946 0.282353
0.806806 0.940673 0.338979
0.943923 0.94638 0.401816
0.949889 0.950118 0.395422
0.0379797 0.0655222 0.275166
0.120378 0.0685435 0.321187
0.265232 0.0742809 0.320195
0.430777 0.0868849 0.341161
0.629892 0.102647 0.406149
0.745998 0.122118 0.459663
0.74229 0.122576 0.491356
0.738277 0.122469 0.522057
0.750454 0.118044 0.566079
0.0373388 0.0856641 0.204013
0.0356298 0.070985 0.264042
0.190799 0.0717784 0.334539
0.408774 0.0834363 0.32784
0.595621 0.0976272 0.375387
0.746029 0.120287 0.444358
0.74403 0.122271 0.484398
0.741009 0.121889 0.519417
0.752438 0.117372 0.564828
0.0625315 0.183459 0.214466
0.0524147 0.161227 0.252827
0.0509651 0.120836 0.310826
0.40444 0.088304 0.336309
0.578729 0.0986496 0.35671
0.738079 0.121416 0.425589
0.741955 0.123278 0.463691
0.738582 0.123445 0.493996
0.748028 0.119615 0.529671
0.0649119 0.393347 0.313024
0.0527962 0.400977 0.323644
0.0525673 0.401816 0.334493
0.399985 0.415 0.380575
0.718181 0.350134 0.38497
0.897185 0.291386 0.423362
0.894392 0.260151 0.449012
0.868452 0.224994 0.459846
0.838666 0.18999 0.460899
0.0839246 0.654231 0.448829
0.0602731 0.665614 0.451942
0.0620584 0.673991 0.432593
0.087892 0.708614 0.293095
0.600458 0.662104 0.230259
0.844266 0.632914 0.327977
0.942733 0.606363 0.372137
0.941405 0.587457 0.379583
0.93872 0.56109 0.374456
0.193988 0.862684 0.599985
0.172503 0.865034 0.593576
0.16492 0.866758 0.561624
0.18526 0.891615 0.447456
0.394949 0.920043 0.284672
0.771298 0.840406 0.244495
0.908492 0.821256 0.306889
0.919661 0.806607 0.315419
0.918883 0.787198 0.310353
0.225238 0.910704 0.679454
0.212741 0.917418 0.672328
0.214054 0.920165 0.643
0.217105 0.916686 0.543725
0.25771 0.903578 0.276127
0.690654 0.939834 0.320195
0.906416 0.942153 0.367864
0.950668 0.940841 0.374212
0.945342 0.935119 0.358175
0.221485 0.902846 0.70573
0.212604 0.910109 0.695247
0.218906 0.915892 0.668498
0.230716 0.913634 0.591043
0.240146 0.902235 0.346181
0.509819 0.929702 0.298451
0.832837 0.940597 0.355871
0.954833 0.944823 0.411612
0.955062 0.947204 0.405402
0.208423 0.901976 0.720821
0.207965 0.907423 0.707027
0.209979 0.915175 0.683787
0.230762 0.914458 0.619058
0.231205 0.9084 0.427558
0.406714 0.92015 0.286168
0.746288 0.938216 0.317098
0.925628 0.944656 0.38024
0.951446 0.949355 0.398154
0.0505379 0.0756847 0.412421
0.113573 0.0772869 0.45359
0.279988 0.0832227 0.492943
0.457511 0.0859846 0.486229
0.644007 0.105791 0.513588
0.732921 0.124285 0.534447
0.728237 0.125826 0.551308
0.731594 0.125811 0.586389
0.742794 0.122515 0.640406
0.0450599 0.101106 0.351385
0.0420386 0.086656 0.386313
0.141009 0.0769207 0.449607
0.412436 0.084535 0.486839
0.603555 0.100877 0.494896
0.736751 0.122896 0.524498
0.732372 0.124407 0.553903
0.731548 0.126131 0.597559
0.741421 0.123323 0.654169
0.0587015 0.155016 0.317525
0.0516365 0.142351 0.358099
0.0454108 0.103365 0.394461
0.347509 0.0852369 0.504326
0.586069 0.0981003 0.498924
0.73344 0.12369 0.511086
0.726192 0.126238 0.541604
0.723613 0.12874 0.57995
0.735668 0.125139 0.632731
0.0655528 0.368734 0.405722
0.0559548 0.373816 0.441047
0.0578622 0.362188 0.48542
0.174792 0.311833 0.554757
0.680156 0.262715 0.590829
0.83386 0.208362 0.553613
0.807599 0.177722 0.545235
0.777829 0.15758 0.549767
0.753658 0.129992 0.561135
0.0771038 0.6103 0.51487
0.0574655 0.613428 0.526192
0.056199 0.612314 0.532845
0.0590219 0.600641 0.520531
0.585458 0.616312 0.574701
0.866423 0.576288 0.579293
0.959243 0.54873 0.598337
0.958907 0.530007 0.614679
0.956909 0.494621 0.623621
0.175753 0.804608 0.637736
0.144106 0.805524 0.639307
0.131548 0.795224 0.626368
0.121935 0.790234 0.579843
0.380163 0.880964 0.555154
0.745693 0.813535 0.499596
0.933318 0.775051 0.571237
0.956939 0.754681 0.59498
0.95671 0.735836 0.590921
0.228382 0.890883 0.727199
0.208331 0.899092 0.727749
0.20296 0.904753 0.713222
0.21088 0.910414 0.662531
0.244633 0.92369 0.55407
0.654917 0.947631 0.541939
0.903578 0.934524 0.576883
0.959167 0.928878 0.619333
0.956222 0.920897 0.609491
0.220005 0.885328 0.758404
0.210254 0.89041 0.75314
0.203159 0.898314 0.736629
0.214725 0.910277 0.691981
0.232547 0.912673 0.580194
0.539849 0.943557 0.546227
0.811917 0.943709 0.496056
0.954818 0.948913 0.551965
0.959167 0.951324 0.586786
0.220798 0.881148 0.774517
0.211719 0.886595 0.767208
0.203113 0.894087 0.750149
0.210269 0.905837 0.709911
0.231632 0.91426 0.619272
0.396826 0.941787 0.539101
0.73022 0.946349 0.560616
0.920638 0.948592 0.454917
0.957259 0.95169 0.5449
0.0595254 0.096025 0.517998
0.0878767 0.099382 0.553399
0.252384 0.100313 0.615656
0.476707 0.0981003 0.656107
0.658885 0.108492 0.657404
0.731182 0.127596 0.661295
0.732006 0.127687 0.675761
0.733639 0.127535 0.695644
0.733394 0.127718 0.715831
0.0514382 0.121782 0.483238
0.0514534 0.118975 0.50399
0.113588 0.0939803 0.546395
0.39028 0.0987259 0.637659
0.617197 0.101396 0.650828
0.730037 0.127718 0.648417
0.729503 0.128389 0.663828
0.732021 0.128191 0.696025
0.73312 0.12784 0.728817
0.054078 0.145281 0.437598
0.0538949 0.139773 0.460594
0.0509346 0.118486 0.488487
0.239643 0.0940566 0.581781
0.579263 0.0963149 0.652628
0.728405 0.127291 0.635325
0.726314 0.129061 0.642435
0.72781 0.129427 0.67602
0.733394 0.127779 0.721126
0.0615244 0.348196 0.519753
0.0611276 0.341909 0.542489
0.0633555 0.329366 0.574502
0.0695811 0.277455 0.607507
0.567452 0.210346 0.736934
0.762982 0.163699 0.648692
0.783398 0.164721 0.624048
0.737881 0.130907 0.622049
0.74081 0.123995 0.659434
0.0682078 0.586069 0.599481
0.0610819 0.585611 0.613062
0.0633555 0.586145 0.628336
0.0650187 0.56965 0.650935
0.444846 0.559136 0.72166
0.842664 0.521187 0.745022
0.956985 0.48394 0.729717
0.954437 0.461479 0.740276
0.950545 0.430426 0.765576
0.15433 0.769787 0.683238
0.129503 0.763043 0.684352
0.121492 0.748455 0.678386
0.108751 0.729152 0.659525
0.339544 0.755703 0.677424
0.727275 0.762646 0.719524
0.938888 0.730236 0.721202
0.962081 0.712245 0.730541
0.961486 0.698085 0.737545
0.229007 0.877974 0.769116
0.203632 0.884474 0.769696
0.196704 0.879316 0.756939
0.183276 0.865629 0.718944
0.221271 0.886595 0.68127
0.630182 0.941421 0.725246
0.872557 0.914199 0.707485
0.955993 0.894163 0.747097
0.956054 0.883574 0.758633
0.240208 0.867079 0.802472
0.212528 0.877821 0.805356
0.205844 0.883314 0.792538
0.203387 0.892638 0.755123
0.212375 0.912886 0.703075
0.522164 0.951324 0.702312
0.816693 0.9514 0.743786
0.95935 0.952636 0.809613
0.96907 0.952834 0.847547
0.224079 0.868009 0.828397
0.215488 0.872648 0.825025
0.207767 0.878355 0.812177
0.204486 0.8878 0.775158
0.209995 0.905379 0.718532
0.438254 0.94934 0.704234
0.767956 0.95111 0.758099
0.925963 0.952514 0.758022
0.962692 0.955291 0.830182
0.0628214 0.128786 0.601587
0.0631113 0.129381 0.611368
0.216663 0.126558 0.683665
0.450324 0.125277 0.758389
0.641825 0.117388 0.74992
0.725643 0.130449 0.756039
0.724117 0.130831 0.759838
0.724575 0.130739 0.759487
0.72311 0.131243 0.757351
0.0581674 0.140017 0.576776
0.0601358 0.145586 0.598123
0.0801099 0.126528 0.620447
0.333043 0.126589 0.725994
0.596368 0.117296 0.757488
0.724971 0.130861 0.757595
0.723308 0.131136 0.756863
0.724376 0.130785 0.759365
0.724239 0.130739 0.76025
0.0595254 0.162417 0.540276
0.0611276 0.165637 0.56083
0.0586709 0.141772 0.579919
0.145861 0.121187 0.643809
0.537758 0.120684 0.763439
0.725292 0.130861 0.758297
0.723873 0.131212 0.751995
0.724193 0.131106 0.755184
0.72462 0.130694 0.760372
0.0637217 0.342687 0.611521
0.0653849 0.339208 0.629099
0.0684062 0.31545 0.648951
0.0723888 0.273259 0.666423
0.421775 0.207492 0.788052
0.685435 0.129595 0.744778
0.731395 0.127642 0.715404
0.733516 0.127871 0.712535
0.734936 0.12726 0.723598
0.0760662 0.589929 0.673701
0.0747234 0.582071 0.686915
0.0760967 0.567498 0.701152
0.0791333 0.538079 0.724865
0.251972 0.498238 0.796719
0.736996 0.481086 0.895125
0.944076 0.43183 0.842069
0.945602 0.43444 0.827115
0.938369 0.395483 0.852369
0.151965 0.746242 0.748882
0.136126 0.735561 0.747951
0.130007 0.720882 0.743404
0.123339 0.703532 0.74023
0.141711 0.692164 0.757702
0.637201 0.717113 0.838972
0.928374 0.688869 0.857237
0.961288 0.669566 0.847974
0.960571 0.648188 0.857466
0.23331 0.858885 0.81294
0.202472 0.863539 0.815641
0.19411 0.851057 0.80415
0.179217 0.829862 0.777874
0.1691 0.815778 0.744595
0.59826 0.874723 0.810468
0.861921 0.88278 0.852201
0.963897 0.861158 0.851591
0.963287 0.853101 0.856458
0.238941 0.859373 0.845212
0.214221 0.868589 0.848783
0.21062 0.87155 0.839704
0.207752 0.878355 0.812177
0.2065 0.892546 0.773953
0.492134 0.944945 0.801602
0.798413 0.952743 0.860334
0.95552 0.952773 0.883101
0.968688 0.950195 0.897169
0.248539 0.858091 0.857984
0.221347 0.86656 0.86479
0.213901 0.867857 0.85951
0.209888 0.872801 0.834379
0.206348 0.886275 0.788205
0.411841 0.936049 0.800641
0.764675 0.952941 0.86099
0.913878 0.954864 0.872404
0.964935 0.958663 0.932967
0.0595102 0.129198 0.61033
0.0397345 0.130159 0.59997
0.199557 0.126101 0.676844
0.409735 0.126299 0.750027
0.631571 0.11989 0.760235
0.724483 0.130617 0.760876
0.724483 0.130617 0.760876
0.724468 0.130632 0.76083
0.723033 0.131167 0.757687
0.0617227 0.149798 0.614099
0.0635843 0.158221 0.622522
0.0673228 0.128313 0.616327
0.27657 0.127138 0.706615
0.57232 0.120241 0.764843
0.724483 0.130617 0.760876
0.724483 0.130617 0.760876
0.724483 0.130617 0.760861
0.72398 0.1308 0.759899
0.0665141 0.183734 0.624369
0.0690318 0.1935 0.644602
0.0641184 0.161334 0.624491
0.083299 0.127779 0.624475
0.489464 0.125078 0.766079
0.724361 0.130602 0.760876
0.724483 0.130617 0.760876
0.724483 0.130617 0.760876
0.724453 0.130632 0.760784
0.0698253 0.345525 0.686488
0.0725109 0.34873 0.702022
0.0767987 0.322286 0.717311
0.0800336 0.28246 0.718563
0.270283 0.184878 0.74136
0.62388 0.123201 0.76463
0.724575 0.130632 0.760876
0.72459 0.130632 0.760876
0.724697 0.130648 0.760876
0.0925307 0.57879 0.743023
0.0964065 0.574517 0.754421
0.097673 0.552316 0.766552
0.0986801 0.522591 0.778256
0.108553 0.465904 0.800458
0.609415 0.465202 0.922805
0.912535 0.380972 0.937118
0.914702 0.35993 0.916716
0.911208 0.345327 0.911543
0.155825 0.744457 0.793881
0.151843 0.738186 0.797284
0.147326 0.724102 0.795697
0.140719 0.70132 0.79559
0.13344 0.6533 0.808942
0.521447 0.669886 0.899336
0.854643 0.659281 0.95024
0.956161 0.627482 0.922026
0.955917 0.626474 0.919799
0.221225 0.856031 0.857359
0.205753 0.849546 0.855573
0.198779 0.836667 0.847578
0.186694 0.814206 0.832517
0.172656 0.785 0.818021
0.457313 0.821546 0.87129
0.788144 0.850721 0.921813
0.956207 0.831586 0.926741
0.959213 0.821881 0.921889
0.244282 0.86247 0.873747
0.220142 0.869169 0.879545
0.218387 0.868864 0.874464
0.213428 0.867765 0.860182
0.208484 0.870954 0.832593
0.349722 0.903563 0.838819
0.786862 0.941558 0.914611
0.946319 0.950469 0.942733
0.965728 0.945632 0.941466
0.244785 0.865965 0.885801
0.225528 0.871 0.890105
0.222034 0.87071 0.886671
0.21825 0.868742 0.874159
0.211124 0.870863 0.846342
0.300038 0.906676 0.845823
0.768734 0.950149 0.919493
0.932036 0.957458 0.944656
0.970794 0.958129 0.953735
0.0622721 0.12874 0.612787
0.0699168 0.128252 0.617945
0.178759 0.125933 0.668254
0.363012 0.12668 0.7364
0.598093 0.118746 0.761059
0.724483 0.130617 0.760876
0.724483 0.130617 0.760876
0.724483 0.130617 0.760876
0.724468 0.130632 0.760845
0.0613107 0.148348 0.612482
0.0609293 0.146487 0.610697
0.0597543 0.129747 0.608804
0.220066 0.126406 0.685176
0.532036 0.122728 0.767895
0.724483 0.130617 0.760876
0.724483 0.130617 0.760876
0.724483 0.130617 0.760876
0.724483 0.130617 0.760876
0.0701762 0.195071 0.655604
0.0700847 0.194553 0.655268
0.0656596 0.169329 0.631754
0.0589303 0.130648 0.608026
0.427741 0.125978 0.754345
0.71339 0.129168 0.760754
0.724483 0.130617 0.760876
0.724483 0.130617 0.760876
0.724483 0.130617 0.760876
0.0808881 0.354223 0.741329
0.0834669 0.364126 0.750881
0.085481 0.336431 0.750713
0.0815595 0.292088 0.726986
0.133043 0.178897 0.682216
0.570748 0.124468 0.769741
0.724559 0.130632 0.760876
0.724575 0.130632 0.760876
0.724575 0.130632 0.760876
0.112383 0.574319 0.793027
0.115602 0.574304 0.801007
0.116106 0.55436 0.809979
0.114992 0.528801 0.814786
0.100465 0.460899 0.794293
0.498222 0.432303 0.895186
0.860685 0.339696 0.928664
0.867979 0.288075 0.890013
0.854948 0.269352 0.876799
0.167422 0.753399 0.83444
0.166278 0.745953 0.83798
0.16173 0.728328 0.838911
0.154406 0.698985 0.839567
0.144015 0.646647 0.843107
0.367147 0.630182 0.902708
0.750072 0.642451 0.949676
0.946685 0.586374 0.956695
0.945174 0.569177 0.956161
0.215015 0.856153 0.882124
0.211734 0.848905 0.879774
0.205997 0.837507 0.874693
0.197589 0.819547 0.867216
0.18526 0.788907 0.859205
0.253422 0.776226 0.892012
0.697948 0.812222 0.941421
0.934325 0.807919 0.954376
0.952605 0.786328 0.954787
0.227604 0.874556 0.901228
0.227207 0.87422 0.900206
0.225986 0.873335 0.897368
0.223865 0.871794 0.891768
0.218784 0.865766 0.881117
0.221897 0.854688 0.879683
0.679164 0.916518 0.935302
0.91725 0.939483 0.954086
0.955718 0.938323 0.955474
0.228656 0.875654 0.903639
0.228656 0.875654 0.903639
0.228656 0.875639 0.903593
0.226413 0.873533 0.898436
0.221393 0.870436 0.884504
0.223636 0.877241 0.881605
0.664302 0.934905 0.926192
0.931563 0.958221 0.956939
0.962081 0.962081 0.962081
