bundles/resolve-cinematic-luts/Phantom Luts/Canon Film LUT/C-Log 3/Eterna Canon CL3.cube
TITLE "Generated by Resolve"
LUT_3D_SIZE 5
0.0128939 0.0406195 0.0403296
0.280064 0.0535134 0.10631
0.631098 0.09308 0.272938
0.692912 0.108705 0.345556
0.731029 0.0999466 0.403433
0.0589151 0.302556 0.105318
0.245151 0.265354 0.0684825
0.616648 0.14966 0.105104
0.662974 0.0960555 0.187869
0.670176 0.0938735 0.198352
0.169558 0.826841 0.342626
0.192416 0.863508 0.215549
0.699931 0.758144 0.158007
0.890379 0.746197 0.218784
0.88687 0.719661 0.205966
0.207187 0.912001 0.485588
0.207874 0.907347 0.349081
0.478813 0.933242 0.286732
0.933318 0.946517 0.397314
0.947631 0.948791 0.407324
0.189288 0.919738 0.54815
0.206058 0.909621 0.398505
0.364797 0.913466 0.263722
0.869963 0.934417 0.367407
0.943877 0.950957 0.400107
0.00781262 0.0486763 0.189502
0.294408 0.0558785 0.244266
0.62945 0.0861524 0.371817
0.727596 0.107103 0.460777
0.747997 0.101961 0.52224
0.0490425 0.23093 0.199344
0.224445 0.217746 0.213794
0.614313 0.0810101 0.255924
0.71928 0.097612 0.359075
0.734218 0.0997482 0.411383
0.102022 0.750546 0.429633
0.112154 0.791547 0.33135
0.667475 0.724788 0.136095
0.884443 0.702708 0.197787
0.883452 0.664668 0.187045
0.205661 0.917082 0.632044
0.20296 0.915175 0.54284
0.408255 0.92462 0.274846
0.924392 0.943862 0.387808
0.944488 0.943755 0.377371
0.199069 0.913085 0.681453
0.205905 0.916442 0.611399
0.254475 0.896498 0.25037
0.827298 0.938491 0.350225
0.943557 0.951141 0.399512
0.0457923 0.0728008 0.448478
0.325292 0.0768139 0.534264
0.657389 0.0947433 0.53608
0.715724 0.113634 0.572488
0.732738 0.109361 0.657313
0.0438239 0.188464 0.371252
0.0302586 0.116564 0.435721
0.613153 0.0829633 0.52694
0.713756 0.114 0.563012
0.726772 0.111589 0.650492
0.0711833 0.65301 0.560433
0.0533455 0.653544 0.576272
0.625559 0.657908 0.615488
0.960067 0.587533 0.637217
0.960281 0.53611 0.666041
0.219654 0.885664 0.75407
0.192889 0.897932 0.741024
0.243595 0.925292 0.583139
0.90576 0.928893 0.594339
0.949218 0.917418 0.626856
0.212818 0.879423 0.796384
0.195575 0.890333 0.77702
0.219593 0.910887 0.646677
0.757031 0.949508 0.5935
0.951522 0.953262 0.567544
0.0555428 0.144869 0.635767
0.267597 0.145418 0.727535
0.656565 0.104677 0.735973
0.720195 0.115236 0.744106
0.719356 0.115572 0.742061
0.0468299 0.19382 0.590707
0.0471046 0.168246 0.62475
0.57789 0.125719 0.770047
0.720378 0.115373 0.739834
0.720409 0.11519 0.744503
0.084535 0.629191 0.709468
0.0853742 0.606729 0.734295
0.297246 0.546639 0.839002
0.947387 0.475685 0.870161
0.944015 0.441276 0.882826
0.226291 0.862242 0.82681
0.19057 0.858976 0.822644
0.175051 0.83299 0.775647
0.874739 0.890105 0.866331
0.95874 0.865156 0.866911
0.23888 0.861326 0.860548
0.205295 0.871 0.864698
0.198825 0.884321 0.808927
0.792172 0.953124 0.875776
0.964492 0.959365 0.936797
0.0585489 0.145312 0.645228
0.221805 0.144488 0.711467
0.625589 0.112001 0.751797
0.720333 0.115114 0.744656
0.720272 0.115129 0.744549
0.0606546 0.234211 0.695064
0.0554971 0.201053 0.670787
0.477745 0.143267 0.783749
0.720333 0.115114 0.744656
0.720333 0.115114 0.744656
0.115557 0.614389 0.811399
0.116594 0.595666 0.82446
0.0988937 0.505959 0.810513
0.893309 0.385016 0.941329
0.885069 0.306706 0.902983
0.206455 0.863478 0.882261
0.2 0.85005 0.877287
0.183932 0.813565 0.866636
0.731395 0.835492 0.934493
0.944198 0.812772 0.948165
0.21593 0.877256 0.897215
0.215915 0.877241 0.897169
0.210941 0.873289 0.883436
0.689677 0.929335 0.92282
0.96202 0.962356 0.962005
