bundles/resolve-cinematic-luts/Phantom Luts/Canon Film LUT/C-Log 3/Eterna Canon CL3.cube
TITLE "Generated by Resolve"
LUT_3D_SIZE 33
0.0128939 0.0406195 0.0403296
0.0133516 0.0404059 0.0396277
0.0300603 0.0406195 0.0416876
0.108125 0.0422522 0.0587167
0.154772 0.0445106 0.0718547
0.19202 0.0464637 0.0844739
0.222354 0.0491188 0.0928206
0.249378 0.0516823 0.0981918
0.280064 0.0535134 0.10631
0.315129 0.0573739 0.12108
0.351354 0.0611734 0.136324
0.391043 0.0652934 0.153445
0.438239 0.0727398 0.176303
0.486519 0.0770275 0.199756
0.538048 0.0819409 0.224201
0.586908 0.087129 0.248768
0.631098 0.09308 0.272938
0.66453 0.100008 0.294255
0.685481 0.10631 0.311818
0.689052 0.107546 0.319692
0.689876 0.107866 0.325826
0.690578 0.108217 0.331212
0.689189 0.106996 0.334539
0.692027 0.108522 0.340642
0.692912 0.108705 0.345556
0.693721 0.108904 0.350149
0.692439 0.107668 0.353491
0.695171 0.108232 0.35877
0.698863 0.107652 0.365194
0.70428 0.106218 0.372839
0.712505 0.105119 0.381918
0.721386 0.102495 0.392554
0.731029 0.0999466 0.403433
0.0139925 0.0400854 0.0387427
0.0138705 0.0401465 0.0389563
0.0210422 0.0402533 0.0386053
0.0726787 0.0402075 0.0427863
0.125841 0.039704 0.0486458
0.166033 0.0417487 0.0544137
0.202228 0.04477 0.061265
0.235599 0.0476997 0.0692912
0.268864 0.0505379 0.080293
0.304265 0.0549783 0.0952773
0.342596 0.0596323 0.110979
0.384253 0.0665141 0.126467
0.42884 0.070985 0.147112
0.476326 0.0754864 0.168795
0.526513 0.0800946 0.192432
0.577844 0.0849622 0.218158
0.625589 0.0904555 0.244694
0.66363 0.0969863 0.271168
0.686931 0.103487 0.291844
0.69218 0.105135 0.301427
0.693599 0.105074 0.307988
0.694697 0.105043 0.313832
0.695613 0.105272 0.319524
0.696391 0.10547 0.32459
0.697047 0.105638 0.328817
0.697536 0.105837 0.332967
0.696773 0.105058 0.336263
0.696376 0.104082 0.339651
0.697902 0.103792 0.343679
0.702129 0.102693 0.349859
0.709133 0.100954 0.358221
0.720592 0.100801 0.368658
0.729961 0.0983749 0.378378
0.013962 0.0401007 0.0388037
0.0135195 0.0403143 0.0394141
0.0137942 0.0401923 0.0390784
0.0413672 0.0425727 0.0393378
0.0958724 0.0440223 0.0434424
0.140566 0.0437629 0.0477302
0.179446 0.0436103 0.0513313
0.215808 0.0444953 0.0549325
0.252781 0.047776 0.0607462
0.290074 0.0518349 0.0676738
0.329366 0.0584726 0.0803235
0.368704 0.0638285 0.0952926
0.411032 0.068513 0.115404
0.458274 0.0733654 0.139406
0.509606 0.0782635 0.162707
0.561669 0.0834058 0.18732
0.612451 0.0891737 0.21471
0.654276 0.0957351 0.242924
0.679072 0.102007 0.266438
0.68658 0.104295 0.278843
0.688472 0.104616 0.286427
0.690257 0.104799 0.293172
0.691844 0.105013 0.299489
0.693156 0.105135 0.305211
0.693935 0.105028 0.310109
0.69482 0.105074 0.31458
0.695567 0.105241 0.319295
0.696529 0.105333 0.323354
0.698314 0.10518 0.327855
0.702754 0.104219 0.333806
0.709575 0.102525 0.341268
0.718944 0.100023 0.350103
0.728237 0.0975662 0.358938
0.0149996 0.0475471 0.0419776
0.0141451 0.0463111 0.0409247
0.0158389 0.0445869 0.0410925
0.0192416 0.0436713 0.0397803
0.0604257 0.0515908 0.0414588
0.111086 0.056672 0.0445716
0.155367 0.0587625 0.0476387
0.198322 0.0596323 0.0514534
0.239918 0.0592508 0.0551156
0.281102 0.0565347 0.0590524
0.320638 0.0551766 0.0651713
0.361105 0.0592508 0.0763561
0.402243 0.0652018 0.0925917
0.44654 0.0712444 0.115358
0.493416 0.0762493 0.136141
0.543084 0.081529 0.160555
0.594324 0.0873426 0.186236
0.639155 0.0940261 0.213977
0.669352 0.100114 0.239567
0.680751 0.102632 0.255161
0.683711 0.102876 0.263996
0.68661 0.103243 0.272374
0.688884 0.103655 0.280003
0.690288 0.104051 0.28658
0.691142 0.104463 0.292454
0.691722 0.104799 0.29752
0.692622 0.105058 0.302342
0.693736 0.105028 0.306844
0.695369 0.104646 0.311788
0.699855 0.103731 0.317723
0.706798 0.102068 0.32488
0.716625 0.0995651 0.333608
0.726574 0.0970016 0.342397
0.0171969 0.0926833 0.0542153
0.0162661 0.0906081 0.0480964
0.0215 0.0831311 0.0446021
0.0273899 0.0695506 0.0455024
0.0411231 0.0635691 0.0441596
0.0854047 0.0709087 0.0464027
0.131167 0.0755627 0.0486458
0.176272 0.0766766 0.0502937
0.222171 0.0733501 0.0537881
0.270375 0.0695506 0.058381
0.316686 0.066804 0.0637064
0.359823 0.0632486 0.0694133
0.401816 0.0629587 0.0797131
0.444862 0.0682841 0.0978408
0.487114 0.0739605 0.118227
0.531456 0.0793011 0.140444
0.578378 0.0851606 0.164858
0.623392 0.0917525 0.190112
0.654994 0.0979934 0.212238
0.667903 0.100649 0.227512
0.673243 0.101625 0.238087
0.677714 0.102281 0.247532
0.681132 0.102617 0.256519
0.684184 0.102968 0.26482
0.686885 0.103319 0.272572
0.688685 0.103593 0.279194
0.690364 0.103853 0.285176
0.692226 0.10399 0.290883
0.694484 0.103822 0.296086
0.698329 0.103136 0.301869
0.704631 0.101701 0.30837
0.713573 0.0992447 0.316304
0.723751 0.0965896 0.324773
0.0333867 0.155566 0.0705272
0.0302129 0.155459 0.0609445
0.028336 0.151369 0.052369
0.0395361 0.141344 0.0516823
0.0644236 0.125566 0.0523079
0.0986954 0.122713 0.0535897
0.137133 0.127001 0.0588235
0.182239 0.124468 0.0623026
0.225834 0.115526 0.0628061
0.270634 0.107485 0.0623941
0.315465 0.0971695 0.0643015
0.358923 0.080705 0.0680705
0.402579 0.0704204 0.0749828
0.44564 0.0669718 0.0859541
0.490105 0.0711833 0.106249
0.533516 0.0763714 0.129473
0.574548 0.0822461 0.150591
0.614099 0.0888075 0.174792
0.647776 0.0964675 0.197131
0.656779 0.0989395 0.206149
0.66067 0.0997177 0.213275
0.665019 0.100374 0.221637
0.669123 0.100908 0.229114
0.673716 0.101793 0.238087
0.67837 0.10251 0.247028
0.681331 0.1028 0.25481
0.683757 0.103075 0.261219
0.686046 0.103243 0.267353
0.688457 0.103166 0.272969
0.692866 0.10248 0.278843
0.699519 0.101122 0.285725
0.70901 0.0988937 0.293873
0.71957 0.0963302 0.302205
0.0420539 0.204746 0.0835279
0.0390784 0.207233 0.0718242
0.0367437 0.206226 0.0616007
0.0366064 0.19765 0.0614328
0.0605783 0.186618 0.0591745
0.109071 0.168994 0.057969
0.148241 0.166094 0.0589303
0.187106 0.168109 0.0610666
0.24036 0.165148 0.0671855
0.28954 0.158572 0.0707256
0.333547 0.149142 0.0725567
0.370642 0.129946 0.0724346
0.408896 0.111391 0.0756695
0.445899 0.0931563 0.0800031
0.483375 0.0779889 0.0924544
0.523903 0.0757458 0.115068
0.569192 0.0818952 0.139239
0.608896 0.0874952 0.163165
0.644144 0.0944228 0.189105
0.654902 0.0976272 0.198245
0.654643 0.0980392 0.199008
0.654856 0.0983749 0.200595
0.656367 0.0990311 0.204761
0.65893 0.099794 0.210071
0.661555 0.100496 0.215473
0.663615 0.100954 0.220432
0.666423 0.101549 0.226108
0.669474 0.102113 0.23183
0.672618 0.102525 0.237842
0.677104 0.102358 0.243534
0.683101 0.101701 0.249973
0.69041 0.100175 0.256565
0.698833 0.0983902 0.263371
0.0542458 0.249821 0.0942397
0.0504921 0.255436 0.0825513
0.0466163 0.258137 0.0713512
0.0446937 0.255512 0.0670329
0.0569619 0.246601 0.0666972
0.0811017 0.233143 0.0661479
0.14461 0.217426 0.0661936
0.194934 0.21236 0.0670024
0.23888 0.212848 0.0669871
0.302434 0.21091 0.0699474
0.359731 0.200916 0.076463
0.403861 0.189731 0.0786908
0.44358 0.175616 0.0805676
0.481285 0.158145 0.0838636
0.50959 0.124178 0.0888685
0.541009 0.104494 0.101747
0.571206 0.0866712 0.120394
0.60618 0.0861677 0.148272
0.639124 0.0916457 0.174243
0.661143 0.0958419 0.194324
0.66305 0.0957351 0.196735
0.664225 0.0956436 0.198306
0.664775 0.0955367 0.199313
0.664958 0.0955062 0.200076
0.665049 0.095491 0.200595
0.66508 0.0955062 0.201053
0.664927 0.095552 0.201358
0.664942 0.0956436 0.202029
0.665736 0.0959029 0.203845
0.667201 0.0960861 0.206332
0.669856 0.0961013 0.209537
0.674281 0.0958419 0.214054
0.680507 0.0950637 0.218784
0.0589151 0.302556 0.105318
0.0530709 0.310643 0.0929274
0.0475319 0.31693 0.0775616
0.0450446 0.318608 0.0679789
0.0480201 0.313573 0.0682536
0.0634928 0.302083 0.0683604
0.104082 0.287587 0.0685893
0.177798 0.272831 0.0683909
0.245151 0.265354 0.0684825
0.2981 0.265003 0.0679942
0.36759 0.264042 0.0674754
0.431327 0.251972 0.0741283
0.481956 0.236683 0.0819715
0.525551 0.22417 0.0849012
0.562737 0.208698 0.0878462
0.596445 0.186862 0.0940719
0.616648 0.14966 0.105104
0.634821 0.125124 0.124697
0.638071 0.0975814 0.141573
0.657786 0.0977035 0.170184
0.66067 0.0971847 0.179217
0.660899 0.0962081 0.180926
0.661936 0.0964218 0.18233
0.662379 0.0962997 0.184207
0.662974 0.0960555 0.187869
0.662531 0.0956588 0.190066
0.662516 0.0955978 0.191012
0.662425 0.0955825 0.191699
0.662364 0.0955673 0.192447
0.662684 0.0955062 0.193454
0.663676 0.0952926 0.194797
0.665705 0.0948653 0.196231
0.670176 0.0938735 0.198352
0.0571603 0.363272 0.12137
0.0500801 0.372045 0.103685
0.0437171 0.381186 0.0829175
0.040589 0.387808 0.0621195
0.0393378 0.388205 0.0639506
0.0452583 0.377127 0.0650492
0.0722057 0.364263 0.065507
0.121691 0.350378 0.0654612
0.214252 0.33666 0.06392
0.303227 0.327031 0.0625315
0.362371 0.325414 0.061326
0.433921 0.326604 0.059144
0.502861 0.316136 0.0649424
0.562097 0.298314 0.0765393
0.611063 0.282506 0.0859998
0.649683 0.266819 0.0916762
0.680323 0.25124 0.097673
0.702754 0.229191 0.11075
0.71043 0.197864 0.127413
0.70489 0.161593 0.142153
0.689494 0.13666 0.146731
0.687465 0.134203 0.149813
0.688991 0.134524 0.154238
0.688014 0.131853 0.157382
0.678843 0.121263 0.157046
0.670878 0.111986 0.156832
0.666835 0.106371 0.157473
0.663645 0.102235 0.15729
0.662608 0.100542 0.158587
0.662196 0.0995193 0.160784
0.662593 0.0984054 0.16318
0.66424 0.0979019 0.165606
0.668452 0.096788 0.168444
0.0510872 0.431098 0.134707
0.0435798 0.440894 0.116655
0.0370489 0.451087 0.096025
0.0339208 0.461051 0.0682841
0.0324559 0.465995 0.057847
0.0336614 0.461875 0.0585184
0.0395972 0.449622 0.059617
0.0746319 0.434424 0.0594339
0.140291 0.421378 0.0577401
0.257191 0.406287 0.0547341
0.364492 0.393774 0.053193
0.426276 0.39086 0.0530404
0.496452 0.395056 0.0531777
0.565759 0.388952 0.0557107
0.627771 0.373922 0.0688945
0.682185 0.355398 0.0884718
0.72398 0.339818 0.102235
0.754345 0.324514 0.117647
0.770474 0.312078 0.12639
0.784527 0.292134 0.138262
0.786511 0.271458 0.144884
0.782269 0.26215 0.145495
0.777005 0.251667 0.1467
0.773465 0.245151 0.146883
0.769741 0.239734 0.146654
0.764355 0.232197 0.145846
0.759945 0.226825 0.144732
0.755581 0.221561 0.143771
0.752163 0.216419 0.144228
0.747768 0.210407 0.144381
0.743954 0.203723 0.144869
0.740703 0.196582 0.145815
0.739879 0.190265 0.146715
0.0461433 0.501625 0.152224
0.0391089 0.511193 0.134218
0.0336461 0.521019 0.109575
0.0310826 0.530831 0.0899672
0.0312505 0.537789 0.0689555
0.0316777 0.539986 0.0595254
0.0316472 0.535775 0.0579385
0.0458228 0.524025 0.0562753
0.0792248 0.508522 0.0539254
0.16463 0.497993 0.0505989
0.309728 0.47953 0.0481727
0.422934 0.464103 0.0492866
0.489143 0.459358 0.0517281
0.551476 0.463981 0.0560311
0.617716 0.463493 0.0628519
0.67747 0.45478 0.0773327
0.728511 0.439918 0.0981613
0.772183 0.424079 0.121538
0.805554 0.408087 0.143008
0.828702 0.391775 0.160555
0.838895 0.377264 0.166506
0.838056 0.370596 0.166201
0.834913 0.365469 0.164065
0.832029 0.362264 0.161349
0.829404 0.359518 0.158556
0.826795 0.35642 0.156527
0.824994 0.353063 0.155001
0.822751 0.34876 0.15317
0.820813 0.343893 0.152193
0.818021 0.338323 0.150759
0.816144 0.332891 0.150225
0.814008 0.32755 0.149432
0.812894 0.323354 0.149035
0.0496986 0.569909 0.176242
0.0434424 0.579171 0.155001
0.0388952 0.588724 0.135515
0.0382544 0.597513 0.124453
0.0405432 0.604883 0.0982376
0.0462501 0.608988 0.0823224
0.0505226 0.608972 0.0731212
0.0505379 0.601572 0.0711833
0.0730449 0.588266 0.0645304
0.114275 0.572976 0.0586252
0.225162 0.565911 0.0538949
0.375555 0.547677 0.0532387
0.483848 0.52961 0.0562295
0.54934 0.52488 0.0610056
0.603021 0.528923 0.0679942
0.663554 0.531731 0.0794232
0.717052 0.529671 0.0954757
0.763821 0.521889 0.114595
0.80444 0.509941 0.138399
0.837232 0.495338 0.158312
0.860807 0.479042 0.175189
0.869551 0.468956 0.182315
0.868788 0.464759 0.182422
0.868681 0.460899 0.183185
0.86891 0.456794 0.184482
0.868589 0.451835 0.185367
0.868757 0.447089 0.186572
0.867506 0.44213 0.186343
0.866499 0.437018 0.186389
0.864988 0.431144 0.186007
0.86389 0.426413 0.185367
0.862272 0.421439 0.184298
0.861143 0.417411 0.183444
0.0672007 0.635523 0.207233
0.0644846 0.644053 0.187091
0.0631266 0.651682 0.169024
0.0624247 0.660151 0.162448
0.0654002 0.668025 0.151141
0.0731365 0.672374 0.130846
0.0852827 0.673594 0.104967
0.0869917 0.671763 0.103746
0.0840467 0.661097 0.0986191
0.117464 0.649439 0.0830549
0.156893 0.637415 0.0712596
0.309758 0.632532 0.0639658
0.442191 0.611963 0.0636149
0.542351 0.592477 0.0681621
0.605493 0.588663 0.0768139
0.649317 0.590692 0.0865339
0.703685 0.594553 0.103212
0.750744 0.596201 0.120806
0.794903 0.594415 0.137316
0.830594 0.585718 0.154879
0.859571 0.57409 0.169665
0.876905 0.563409 0.179507
0.877623 0.559945 0.180011
0.877256 0.557351 0.179797
0.876768 0.554055 0.179492
0.876265 0.55053 0.179232
0.876173 0.546563 0.179416
0.875608 0.541909 0.179248
0.875685 0.536934 0.179644
0.875059 0.531533 0.179492
0.874846 0.526726 0.179706
0.874418 0.521447 0.179751
0.873991 0.516335 0.179797
0.089128 0.704402 0.247639
0.092256 0.710887 0.230915
0.095552 0.717052 0.213718
0.097673 0.723812 0.203464
0.0986038 0.732189 0.205524
0.105425 0.738491 0.191623
0.119539 0.741482 0.156924
0.127108 0.741527 0.141894
0.125505 0.73431 0.138857
0.132631 0.720348 0.128908
0.176349 0.707271 0.107301
0.219272 0.699306 0.0920272
0.400198 0.699016 0.08365
0.508034 0.670008 0.0813764
0.597986 0.651301 0.090837
0.657053 0.648905 0.103212
0.695109 0.648768 0.114717
0.739895 0.652064 0.131258
0.783047 0.653941 0.14696
0.819532 0.653696 0.159884
0.851133 0.650416 0.171206
0.874372 0.645274 0.180163
0.883024 0.640528 0.184588
0.882673 0.637491 0.184558
0.88278 0.634485 0.184863
0.882246 0.630915 0.184512
0.882109 0.627054 0.184283
0.881849 0.623102 0.183932
0.881605 0.618433 0.183612
0.881651 0.613855 0.183551
0.881453 0.608301 0.183276
0.881254 0.603326 0.183001
0.88069 0.598321 0.18233
0.132143 0.767697 0.296971
0.135225 0.774014 0.280827
0.13695 0.780789 0.264134
0.137392 0.787305 0.249531
0.136706 0.795636 0.250645
0.140078 0.802853 0.244541
0.148196 0.807324 0.22211
0.159716 0.808011 0.188647
0.164279 0.806027 0.179873
0.162692 0.792233 0.168185
0.198505 0.777844 0.152651
0.226734 0.763928 0.141527
0.318151 0.76173 0.122484
0.487144 0.762051 0.119066
0.573785 0.722072 0.113069
0.652033 0.70518 0.12372
0.70602 0.704479 0.137331
0.741878 0.702617 0.148898
0.777249 0.704219 0.161212
0.812818 0.705119 0.173205
0.844068 0.704845 0.184833
0.869627 0.703426 0.194202
0.885512 0.700816 0.199878
0.885527 0.698451 0.199054
0.885191 0.695994 0.197818
0.884794 0.693401 0.196429
0.884871 0.691035 0.195392
0.884596 0.688106 0.194064
0.884291 0.684352 0.192905
0.884459 0.680262 0.191989
0.884382 0.675608 0.190997
0.884337 0.671153 0.190143
0.88426 0.66717 0.189258
0.169558 0.826841 0.342626
0.171603 0.833143 0.327367
0.171527 0.83949 0.30988
0.171176 0.846159 0.29395
0.169665 0.852918 0.291188
0.170886 0.859342 0.289815
0.17615 0.863905 0.273793
0.186725 0.865049 0.234638
0.192416 0.863508 0.215549
0.192599 0.85655 0.20798
0.204227 0.841031 0.197711
0.259266 0.826368 0.177768
0.290089 0.817349 0.173587
0.442374 0.817899 0.15259
0.562661 0.813535 0.155261
0.632319 0.770001 0.148119
0.699931 0.758144 0.158007
0.749096 0.757778 0.169879
0.783871 0.754635 0.179995
0.810971 0.753643 0.189425
0.838514 0.753582 0.200504
0.865599 0.75314 0.211597
0.886046 0.751446 0.219272
0.890898 0.748928 0.220325
0.890379 0.746197 0.218784
0.889693 0.74377 0.217044
0.889311 0.741543 0.215717
0.888762 0.738384 0.21387
0.887999 0.734874 0.211826
0.887755 0.730999 0.21033
0.887221 0.726894 0.208667
0.887373 0.723171 0.207721
0.88687 0.719661 0.205966
0.200732 0.875624 0.383398
0.20174 0.881529 0.367712
0.199893 0.886244 0.349264
0.19736 0.890242 0.331334
0.194873 0.894148 0.324773
0.194842 0.897612 0.323003
0.197757 0.89987 0.310872
0.204608 0.899931 0.276265
0.209888 0.897765 0.244724
0.209888 0.895216 0.235706
0.207401 0.887129 0.228305
0.269093 0.880705 0.215656
0.302785 0.868849 0.207996
0.373754 0.866468 0.198795
0.548379 0.867781 0.186938
0.624903 0.849104 0.186114
0.686259 0.812757 0.185641
0.744549 0.805478 0.191394
0.788098 0.805356 0.198688
0.819608 0.801556 0.208865
0.842435 0.799374 0.219501
0.863798 0.798001 0.229679
0.884321 0.796994 0.238422
0.896819 0.795117 0.243137
0.8963 0.792218 0.241337
0.895598 0.789654 0.239414
0.89485 0.787091 0.237598
0.894301 0.784466 0.235615
0.89366 0.780941 0.233494
0.893172 0.777127 0.231571
0.89279 0.773419 0.229923
0.892638 0.769619 0.228779
0.892134 0.766278 0.22707
0.21915 0.904356 0.413931
0.217136 0.90544 0.394156
0.212665 0.906203 0.372671
0.208331 0.907362 0.353063
0.204242 0.908522 0.343343
0.201755 0.909285 0.340063
0.202396 0.908583 0.328191
0.206241 0.90573 0.295857
0.212055 0.901991 0.257176
0.214374 0.900496 0.245441
0.214298 0.899626 0.242191
0.268696 0.905303 0.240223
0.326146 0.904601 0.232425
0.3608 0.901305 0.235172
0.495079 0.902052 0.215869
0.625254 0.904128 0.22031
0.679637 0.875593 0.219028
0.734829 0.847272 0.22266
0.785687 0.844572 0.226307
0.823667 0.845304 0.231815
0.850843 0.841947 0.240391
0.870451 0.839353 0.248737
0.887312 0.837537 0.257038
0.900267 0.835233 0.263737
0.901366 0.832242 0.263386
0.900954 0.829252 0.261631
0.900435 0.826551 0.259724
0.899886 0.824079 0.257847
0.89929 0.820783 0.25568
0.898878 0.817395 0.253712
0.898558 0.814237 0.252171
0.898512 0.810498 0.251072
0.898161 0.807279 0.2495
0.220005 0.90547 0.423026
0.218112 0.905287 0.400626
0.214405 0.905791 0.377997
0.210346 0.906859 0.358999
0.206104 0.907942 0.34757
0.202838 0.909178 0.347509
0.202121 0.908995 0.335851
0.204883 0.906722 0.305974
0.210437 0.90309 0.266514
0.214008 0.900649 0.245258
0.215091 0.900069 0.242832
0.243458 0.904387 0.245975
0.32221 0.914061 0.245563
0.362692 0.919097 0.254322
0.4365 0.924575 0.253819
0.600137 0.925414 0.233097
0.680339 0.920745 0.243046
0.726177 0.896727 0.252384
0.778576 0.876234 0.257481
0.822751 0.877958 0.261326
0.854795 0.878782 0.265232
0.878248 0.876188 0.272526
0.895216 0.874296 0.279484
0.906706 0.872923 0.285664
0.910185 0.870619 0.286732
0.90898 0.867552 0.283696
0.90779 0.86482 0.28098
0.906493 0.862089 0.277989
0.905272 0.859007 0.275029
0.90428 0.856306 0.272557
0.903197 0.853056 0.269978
0.902327 0.849805 0.267857
0.901534 0.846998 0.265995
0.204883 0.911254 0.431998
0.206149 0.909957 0.409384
0.206668 0.908965 0.386099
0.206043 0.908431 0.365789
0.204822 0.908507 0.349615
0.202472 0.909316 0.347707
0.200763 0.90988 0.345678
0.202655 0.908186 0.320562
0.207416 0.905013 0.282322
0.213458 0.900694 0.24213
0.21474 0.900008 0.238743
0.221897 0.901595 0.244846
0.303136 0.913466 0.253788
0.365423 0.920653 0.256367
0.407279 0.92607 0.266957
0.534157 0.930907 0.250217
0.667582 0.931548 0.244877
0.722805 0.93106 0.27425
0.768826 0.912413 0.283955
0.818326 0.900114 0.290455
0.854765 0.90486 0.294194
0.8822 0.906188 0.300679
0.902983 0.90486 0.309331
0.91632 0.903441 0.316686
0.923369 0.901793 0.320195
0.92311 0.899443 0.317891
0.921492 0.89659 0.313893
0.920043 0.893767 0.310338
0.919005 0.891112 0.30692
0.917601 0.888136 0.303731
0.91664 0.8851 0.301076
0.916121 0.88217 0.299062
0.915496 0.879042 0.297368
0.210575 0.909575 0.448936
0.212726 0.908309 0.428763
0.213809 0.907073 0.406378
0.214115 0.906172 0.384451
0.213809 0.905715 0.364004
0.212787 0.905531 0.350072
0.211261 0.906126 0.350027
0.21149 0.905562 0.338491
0.214633 0.902876 0.304784
0.221256 0.898161 0.255772
0.223682 0.896529 0.242695
0.224765 0.896391 0.243885
0.28513 0.906645 0.257145
0.364828 0.916533 0.259129
0.402838 0.923247 0.275456
0.48571 0.930709 0.278538
0.636423 0.935897 0.278889
0.719799 0.937758 0.291905
0.767681 0.934905 0.307546
0.816846 0.921218 0.321386
0.858549 0.918669 0.327855
0.88809 0.922744 0.3346
0.910475 0.924163 0.342687
0.925795 0.923491 0.351919
0.936767 0.923674 0.355383
0.938415 0.922286 0.354131
0.936767 0.920226 0.350164
0.934783 0.918471 0.345846
0.932921 0.916594 0.341634
0.930922 0.914534 0.337423
0.929381 0.912291 0.33492
0.928527 0.909941 0.333104
0.928145 0.907408 0.331197
0.209598 0.910445 0.463081
0.211231 0.909316 0.44448
0.211856 0.908461 0.423209
0.211643 0.907683 0.401724
0.211231 0.907057 0.379995
0.211246 0.906538 0.359319
0.210742 0.906279 0.349126
0.210315 0.906386 0.347936
0.212177 0.904723 0.324956
0.218372 0.900206 0.273014
0.222171 0.897292 0.245197
0.223087 0.896727 0.241856
0.255039 0.902403 0.251957
0.341985 0.914229 0.257984
0.386389 0.921523 0.272694
0.448203 0.929381 0.282094
0.578164 0.938064 0.287816
0.698528 0.942931 0.311147
0.754055 0.941787 0.310536
0.803998 0.939712 0.332998
0.85185 0.931167 0.350149
0.885222 0.933333 0.356939
0.909606 0.936736 0.36408
0.926848 0.93846 0.375387
0.940826 0.939483 0.381537
0.946792 0.940002 0.3794
0.946609 0.939422 0.37496
0.94522 0.938643 0.369039
0.943938 0.937789 0.362615
0.942046 0.936248 0.356725
0.940475 0.934356 0.352361
0.939452 0.932448 0.34963
0.939025 0.930297 0.348119
0.208362 0.911254 0.475242
0.209918 0.910094 0.457176
0.210407 0.909514 0.43798
0.209552 0.909041 0.417502
0.208423 0.90866 0.395926
0.207828 0.908019 0.373205
0.208164 0.907454 0.354025
0.20827 0.907149 0.347646
0.209003 0.906554 0.340002
0.21294 0.903304 0.29926
0.219318 0.898772 0.251621
0.220386 0.897826 0.24155
0.233646 0.900511 0.247532
0.318257 0.912444 0.257023
0.376532 0.920287 0.267277
0.420981 0.926299 0.277241
0.523262 0.936217 0.288334
0.665766 0.942382 0.304631
0.735821 0.94374 0.317159
0.786282 0.943465 0.325719
0.837385 0.937667 0.352956
0.876814 0.937118 0.366598
0.904906 0.941009 0.375616
0.924697 0.944335 0.388098
0.939345 0.946029 0.405692
0.948318 0.946731 0.412589
0.95024 0.94725 0.412573
0.949615 0.947433 0.410132
0.948486 0.947204 0.404349
0.947311 0.946807 0.397787
0.946426 0.946197 0.391852
0.945983 0.945312 0.387396
0.945922 0.944366 0.38378
0.207187 0.912001 0.485588
0.208789 0.910903 0.468559
0.208957 0.91017 0.450324
0.208164 0.910063 0.431342
0.206134 0.910018 0.41062
0.204517 0.909789 0.387396
0.204135 0.909087 0.363592
0.204623 0.908492 0.347112
0.207874 0.907347 0.349081
0.21091 0.904921 0.317556
0.217929 0.899825 0.261234
0.220325 0.897871 0.241947
0.22443 0.898985 0.244877
0.291905 0.909682 0.255512
0.364141 0.918715 0.26128
0.404425 0.924529 0.273945
0.478813 0.933242 0.286732
0.623407 0.940002 0.291051
0.717281 0.944488 0.321645
0.767224 0.943496 0.318227
0.818631 0.9411 0.343587
0.863401 0.936385 0.361837
0.894286 0.940551 0.370535
0.916915 0.944305 0.38027
0.933318 0.946517 0.397314
0.944823 0.947341 0.409598
0.94931 0.947829 0.410529
0.948913 0.948058 0.409766
0.948287 0.948425 0.408545
0.947662 0.948791 0.407324
0.947265 0.94902 0.406592
0.947234 0.949035 0.406546
0.947631 0.948791 0.407324
0.204669 0.913207 0.495033
0.206332 0.912077 0.478462
0.20734 0.911131 0.461311
0.207141 0.910674 0.443534
0.205493 0.910735 0.424079
0.203815 0.910521 0.401205
0.203113 0.909895 0.376165
0.204334 0.908843 0.352377
0.204654 0.908553 0.349111
0.206989 0.906996 0.332479
0.213672 0.902495 0.281849
0.219577 0.898222 0.242466
0.219837 0.8981 0.242329
0.2654 0.90605 0.253559
0.348638 0.917144 0.258396
0.391043 0.923522 0.271046
0.448539 0.930617 0.281712
0.568627 0.938247 0.285222
0.693858 0.944656 0.319738
0.747738 0.94374 0.316258
0.799344 0.943847 0.334203
0.848722 0.937179 0.356832
0.88368 0.939101 0.366613
0.909148 0.94342 0.375433
0.927016 0.946548 0.387961
0.940154 0.947967 0.405402
0.947204 0.949004 0.406592
0.946502 0.949432 0.405386
0.945678 0.949905 0.403815
0.945006 0.950286 0.402548
0.944701 0.950484 0.40177
0.944595 0.950561 0.401511
0.944671 0.950515 0.401694
0.192584 0.917586 0.503868
0.193393 0.916762 0.487129
0.195026 0.915679 0.470298
0.196963 0.914443 0.453895
0.19884 0.913359 0.435142
0.199985 0.912322 0.413504
0.200778 0.911192 0.389319
0.202182 0.909758 0.363256
0.203616 0.908904 0.347936
0.204517 0.908293 0.341192
0.209491 0.904646 0.299138
0.217548 0.899138 0.244511
0.218769 0.898451 0.240269
0.243244 0.902922 0.248997
0.327337 0.914992 0.257649
0.380011 0.92195 0.266621
0.42504 0.928267 0.277653
0.51667 0.936248 0.283986
0.650629 0.942977 0.302251
0.727932 0.944564 0.319142
0.778256 0.944305 0.323491
0.831205 0.939086 0.349859
