bundles/resolve-cinematic-luts/Phantom Luts/Canon Film LUT/C-Log 3/VisionTeal Canon CL3.cube
TITLE "Generated by Resolve"
LUT_3D_SIZE 9
0.0224308 0.0321508 0.0302892
0.101045 0.0243076 0.0265202
0.276005 0.0366369 0.0175021
0.446998 0.0329747 0.0200351
0.609079 0.0232548 0.0473487
0.713832 0.0431067 0.141649
0.713146 0.043122 0.145403
0.71342 0.0426642 0.140597
0.716152 0.0412909 0.133562
0.01944 0.115099 0.0310063
0.0531319 0.0772717 0.0307469
0.236683 0.0724346 0.0220645
0.442908 0.0623026 0.0242161
0.605905 0.039826 0.0434882
0.710475 0.0405737 0.116594
0.711879 0.0398413 0.10135
0.715908 0.0413367 0.113848
0.723842 0.0402838 0.101701
0.033051 0.330037 0.0632944
0.0392309 0.292576 0.0434577
0.232441 0.263706 0.029572
0.462669 0.259312 0.0459602
0.633097 0.211856 0.0555123
0.761822 0.137499 0.0979782
0.756664 0.131395 0.0911116
0.766613 0.197833 0.0928969
0.766018 0.204669 0.0881208
0.0921492 0.541878 0.14699
0.086717 0.52282 0.0956741
0.122057 0.482078 0.0836652
0.430991 0.449531 0.0568399
0.623575 0.48043 0.080293
0.778775 0.454047 0.13695
0.787137 0.430182 0.151034
0.786389 0.434241 0.148394
0.793133 0.4692 0.146197
0.179599 0.767208 0.282338
0.186374 0.76527 0.199298
0.196521 0.718135 0.158999
0.394827 0.657038 0.145052
0.610437 0.636606 0.105898
0.751293 0.657206 0.126787
0.806012 0.671611 0.144091
0.805554 0.667475 0.141497
0.806577 0.655695 0.136873
0.230365 0.854368 0.368124
0.233692 0.839643 0.26714
0.237369 0.838636 0.259617
0.358938 0.813886 0.25417
0.638315 0.791791 0.229374
0.760266 0.789883 0.200092
0.811765 0.788785 0.232319
0.812238 0.786328 0.229465
0.809964 0.777462 0.218112
0.223239 0.863798 0.404501
0.231037 0.849958 0.339025
0.234394 0.837522 0.25098
0.361578 0.812604 0.261021
0.622354 0.791455 0.294743
0.751797 0.804486 0.278126
0.810117 0.821744 0.299641
0.822019 0.824964 0.297948
0.821912 0.82501 0.297902
0.212879 0.87364 0.439796
0.229831 0.85478 0.36907
0.235309 0.835676 0.249393
0.35053 0.813001 0.254246
0.592279 0.787747 0.295125
0.73666 0.802594 0.274327
0.800275 0.820478 0.295094
0.821958 0.82472 0.29839
0.821637 0.824933 0.2981
0.203632 0.881621 0.458976
0.227466 0.857786 0.372885
0.234821 0.836866 0.25037
0.310567 0.820188 0.249729
0.497673 0.79173 0.280156
0.703731 0.804761 0.262058
0.789868 0.820859 0.275532
0.822126 0.824964 0.297948
0.821775 0.825162 0.297642
0.0214694 0.0432441 0.0967269
0.123217 0.0251316 0.142947
0.329335 0.0130922 0.186816
0.501595 0.0220645 0.218402
0.692348 0.0523842 0.289601
0.736522 0.0603037 0.301122
0.735958 0.0578317 0.282612
0.733349 0.0538643 0.252964
0.719875 0.0440833 0.17879
0.021149 0.0631571 0.0525521
0.0222934 0.0349889 0.03299
0.267994 0.013962 0.0318608
0.447318 0.0143435 0.0542458
0.623667 0.0287938 0.128359
0.727321 0.0496681 0.224826
0.726009 0.0487068 0.214405
0.719249 0.044831 0.17937
0.715663 0.0413825 0.143801
0.0188754 0.296391 0.11783
0.0220645 0.271565 0.0542153
0.200656 0.232074 0.0298009
0.474128 0.186679 0.049073
0.638788 0.115496 0.0525826
0.723903 0.0408331 0.0943923
0.723232 0.0410925 0.0949111
0.73257 0.052781 0.0804913
0.76556 0.153201 0.0937514
0.0497292 0.531212 0.217746
0.0764477 0.509621 0.135363
0.0876173 0.472908 0.0810712
0.413931 0.432212 0.0526741
0.630335 0.454322 0.0771344
0.778302 0.404334 0.141115
0.779965 0.378393 0.130953
0.783764 0.389944 0.140642
0.787396 0.42446 0.151934
0.143008 0.758999 0.357214
0.159289 0.742275 0.272999
0.169909 0.733471 0.174914
0.286259 0.657588 0.137407
0.597177 0.621363 0.102724
0.75407 0.643565 0.122744
0.805844 0.6542 0.135973
0.807385 0.648814 0.134401
0.809064 0.63537 0.129809
0.201678 0.882795 0.467369
0.227863 0.856794 0.370779
0.233448 0.839643 0.261692
0.327642 0.818143 0.239322
0.620539 0.790112 0.227741
0.751766 0.781796 0.186435
0.808606 0.779141 0.218616
0.809064 0.774899 0.21442
0.805676 0.764187 0.20293
0.158679 0.896712 0.501915
0.221683 0.865629 0.40972
0.232807 0.84509 0.305974
0.323186 0.819287 0.251362
0.586084 0.78819 0.296468
0.739727 0.803052 0.275029
0.804013 0.820981 0.298131
0.822034 0.824918 0.29723
0.822477 0.824811 0.292622
0.157794 0.903517 0.52694
0.210269 0.875319 0.44358
0.231617 0.850858 0.347677
0.294499 0.823575 0.254047
0.529183 0.788922 0.286503
0.723964 0.805066 0.270237
0.795804 0.820966 0.286656
0.821973 0.824689 0.298451
0.821653 0.824918 0.298131
0.157214 0.907988 0.547204
0.201892 0.882948 0.46305
0.228717 0.855985 0.371008
0.24065 0.835492 0.254597
0.428428 0.799939 0.273793
0.683131 0.802823 0.264225
0.780362 0.81677 0.275059
0.821454 0.824704 0.298054
0.82179 0.825177 0.297627
0.0195773 0.0713207 0.269291
0.12784 0.0315709 0.303899
0.307134 0.0149538 0.316991
0.504646 0.0290684 0.398825
0.695384 0.0554208 0.463127
0.737301 0.0662852 0.486076
0.736278 0.0665293 0.479667
0.734951 0.0677806 0.4607
0.73666 0.0752117 0.408576
0.0201724 0.08748 0.166415
0.019791 0.0627146 0.238071
0.245182 0.016968 0.260975
0.46685 0.0153811 0.301015
0.670085 0.0554513 0.371832
0.733776 0.0731518 0.41503
0.734112 0.0743572 0.411322
0.73579 0.0768597 0.397375
0.739788 0.0661936 0.34287
0.0187839 0.255161 0.195743
0.0189975 0.227192 0.176211
0.229084 0.248417 0.229252
0.519524 0.120226 0.160128
0.64184 0.0390936 0.187289
0.735164 0.0543221 0.253803
0.734783 0.0532235 0.240284
0.729442 0.0484627 0.204944
0.731228 0.0411383 0.10956
0.039765 0.505455 0.302754
0.0364843 0.496086 0.243565
0.062501 0.475731 0.134112
0.398428 0.418067 0.0623941
0.650355 0.407996 0.117266
0.777447 0.329152 0.13135
0.775769 0.316609 0.118502
0.773037 0.347936 0.117708
0.780331 0.382239 0.131991
0.0966201 0.737667 0.422324
0.0910353 0.732372 0.353491
0.143893 0.711101 0.267414
0.212131 0.654734 0.135897
0.581949 0.604898 0.0995193
0.756878 0.627375 0.118654
0.808591 0.632853 0.130541
0.807691 0.622583 0.131197
0.807385 0.614618 0.133486
0.161608 0.906096 0.550652
0.158175 0.893629 0.484474
0.226123 0.861112 0.385946
0.270146 0.830045 0.246494
0.590082 0.782757 0.230808
0.741604 0.771649 0.173709
0.804166 0.766217 0.204059
0.804456 0.760662 0.199619
0.80119 0.748196 0.188708
0.167178 0.909957 0.587808
0.156283 0.904326 0.527993
0.219562 0.86836 0.417166
0.240467 0.836881 0.255451
0.516136 0.790066 0.284504
0.726711 0.80473 0.271366
0.797955 0.819318 0.292515
0.823377 0.824521 0.287526
0.825025 0.824109 0.275395
0.171298 0.911635 0.605402
0.15819 0.908003 0.551171
0.207767 0.877928 0.450965
0.235462 0.835889 0.25153
0.453574 0.795926 0.278691
0.703761 0.806104 0.265843
0.790661 0.820142 0.279011
0.821988 0.824643 0.298543
0.821744 0.824903 0.298146
0.16997 0.913207 0.61091
0.15761 0.908476 0.552422
0.197009 0.884352 0.468162
0.234852 0.839063 0.275486
0.377218 0.808255 0.264118
0.661021 0.797559 0.283268
0.769665 0.811795 0.275303
0.817792 0.823453 0.298665
0.821759 0.825193 0.297597
0.0192874 0.106661 0.427314
0.121981 0.0560159 0.468803
0.314031 0.0342565 0.463096
0.48188 0.0287938 0.501396
0.705806 0.0882582 0.617792
0.758465 0.0977951 0.657969
0.754833 0.0877699 0.640558
0.750484 0.0757153 0.619638
0.747738 0.0617533 0.582406
0.0192416 0.135042 0.368994
0.0192569 0.0996567 0.412146
0.211856 0.0342412 0.446342
0.443793 0.0230869 0.46157
0.669749 0.064271 0.558831
0.747005 0.0664836 0.595651
0.745205 0.0629282 0.579187
0.745342 0.0632792 0.567544
0.744503 0.0629435 0.533837
0.0188296 0.237736 0.351644
0.0189517 0.204913 0.367636
0.0567941 0.168963 0.451209
0.431464 0.0484169 0.441459
0.626871 0.0403601 0.475914
0.739956 0.0643168 0.518532
0.738735 0.0648051 0.508736
0.736736 0.066392 0.489479
0.734951 0.068925 0.44416
0.0201267 0.470512 0.401724
0.0203708 0.454994 0.389715
0.0199893 0.436439 0.372641
0.478843 0.475395 0.443931
0.718242 0.374609 0.387137
0.807721 0.273182 0.407156
0.804318 0.246601 0.382803
0.805936 0.246021 0.339132
0.807019 0.303243 0.293202
0.0644694 0.696727 0.499672
0.0698863 0.688853 0.474708
0.0814069 0.680385 0.437613
0.174456 0.67866 0.3308
0.573587 0.597513 0.256992
0.786221 0.609903 0.321752
0.824262 0.588006 0.337606
0.81883 0.576333 0.311513
0.815167 0.568078 0.25713
0.172274 0.883452 0.629984
0.160922 0.885649 0.603265
0.153536 0.887907 0.558709
0.215488 0.858824 0.402869
0.442298 0.781598 0.236164
0.721447 0.752148 0.164172
0.799542 0.744945 0.19353
0.80296 0.736446 0.191318
0.805188 0.72282 0.172564
0.178805 0.917113 0.673304
0.178714 0.916426 0.646204
0.165606 0.911986 0.596078
0.21503 0.872496 0.431586
0.383001 0.807797 0.271611
0.693294 0.803311 0.26302
0.792081 0.817334 0.27187
0.825635 0.820645 0.263478
0.821317 0.811856 0.257115
0.165759 0.919707 0.68632
0.182132 0.916686 0.65594
0.168994 0.913375 0.608637
0.201953 0.882567 0.46331
0.348928 0.813916 0.255039
0.661448 0.797467 0.285008
0.775662 0.814572 0.276646
0.821637 0.82446 0.299092
0.822187 0.82504 0.297978
0.167208 0.920256 0.68365
0.179431 0.916716 0.648707
0.167514 0.913039 0.604059
0.169314 0.889479 0.472908
0.289052 0.825345 0.255329
0.618372 0.790356 0.299062
0.747982 0.804196 0.277287
0.804593 0.821057 0.300557
0.821988 0.825193 0.297673
0.0193027 0.152316 0.560235
0.145739 0.132342 0.616541
0.322225 0.0612497 0.622049
0.507408 0.0808118 0.655802
0.683528 0.0762341 0.720638
0.752117 0.0944381 0.777066
0.752163 0.0964828 0.795666
0.752483 0.0958419 0.789258
0.75375 0.090135 0.750301
0.0194095 0.185336 0.51667
0.0192874 0.143984 0.551431
0.192355 0.0729076 0.60618
0.461219 0.0722515 0.632181
0.652369 0.0684977 0.68629
0.751781 0.090898 0.750393
0.751781 0.09337 0.76701
0.751614 0.0918135 0.757351
0.757244 0.106218 0.718013
0.0192569 0.242023 0.493965
0.0191196 0.191653 0.497765
0.0194858 0.137179 0.545556
0.381399 0.0558785 0.596841
0.609751 0.0560006 0.640589
0.754604 0.107012 0.714656
0.753353 0.101244 0.724361
0.755642 0.110674 0.709682
0.764736 0.106004 0.676936
0.0200198 0.469505 0.533654
0.0200046 0.442878 0.537377
0.0199283 0.409598 0.546365
0.317876 0.386145 0.651499
0.665934 0.29131 0.659342
0.791592 0.158129 0.674281
0.764584 0.0996414 0.64152
0.749889 0.0705577 0.609537
0.74667 0.0631571 0.56199
0.0567941 0.661677 0.596857
0.0523232 0.65098 0.587243
0.0497902 0.638422 0.575616
0.0790723 0.622217 0.560555
0.652506 0.64683 0.619058
0.842634 0.590661 0.592096
0.86978 0.55079 0.577646
0.866911 0.541375 0.553643
0.854582 0.543267 0.507301
0.0995041 0.859571 0.700389
0.0947738 0.853758 0.683726
0.094667 0.844663 0.658167
0.114229 0.828504 0.605447
0.442603 0.814328 0.56405
0.717098 0.750515 0.48304
0.840024 0.7523 0.527382
0.849882 0.742138 0.529335
0.845396 0.722332 0.495705
0.118059 0.924361 0.76022
0.117449 0.926574 0.744457
0.134127 0.924575 0.720043
0.179644 0.91812 0.66804
0.223865 0.880766 0.477485
0.618036 0.794903 0.424506
0.772946 0.803143 0.416297
0.812741 0.802152 0.396368
0.811353 0.793881 0.371817
0.117784 0.923583 0.76939
0.117037 0.925933 0.751522
0.129915 0.925032 0.726024
0.176013 0.919676 0.672663
0.188251 0.886625 0.469642
0.566293 0.791455 0.374807
0.75613 0.807065 0.287465
0.810239 0.817792 0.353918
0.817166 0.820188 0.341955
0.11667 0.924987 0.761074
0.12076 0.926101 0.739178
0.139834 0.924025 0.713405
0.183322 0.91725 0.661952
0.158221 0.8934 0.483421
0.43621 0.800153 0.295048
0.714046 0.806912 0.273289
0.797528 0.822583 0.291447
0.823621 0.82504 0.30013
0.0196231 0.234989 0.681132
0.134447 0.21799 0.744259
0.32842 0.122408 0.773159
0.523796 0.112123 0.788663
0.700389 0.12929 0.819623
0.756741 0.116289 0.833814
0.756725 0.116289 0.833799
0.756771 0.116289 0.833844
0.756695 0.116289 0.833722
0.0195315 0.247623 0.644862
0.0197147 0.225864 0.673472
0.211414 0.195697 0.745129
0.46424 0.107256 0.772015
0.668391 0.130083 0.805203
0.757458 0.115084 0.832258
0.756512 0.11635 0.833677
0.756603 0.11632 0.833722
0.756848 0.116243 0.83389
0.0195315 0.276081 0.617044
0.0192264 0.24419 0.626291
0.0196231 0.213931 0.661952
0.370703 0.105882 0.75053
0.623652 0.120806 0.783536
0.755291 0.104112 0.818601
0.756558 0.111711 0.828397
0.757275 0.115023 0.831922
0.755825 0.108644 0.824125
0.0202029 0.458717 0.643366
0.0201572 0.438193 0.652934
0.0201267 0.408331 0.664363
0.172396 0.355489 0.743557
0.593576 0.23476 0.785443
0.75494 0.115663 0.794812
0.753033 0.0953384 0.789746
0.75346 0.0959945 0.791775
0.754253 0.0933089 0.772503
0.0210117 0.668208 0.687831
0.0211185 0.654917 0.687572
0.0208743 0.640574 0.690837
0.0209964 0.602106 0.702846
0.557702 0.585 0.79237
0.816403 0.536614 0.804807
0.85362 0.499565 0.795651
0.846525 0.472633 0.780789
0.83592 0.411917 0.74313
0.110475 0.833494 0.7785
0.103731 0.823926 0.768688
0.0977798 0.811643 0.755169
0.0896925 0.790829 0.733471
0.395789 0.763394 0.712047
0.773526 0.777935 0.75436
0.893355 0.742107 0.735973
0.906508 0.715114 0.723507
0.897795 0.704494 0.692805
0.131838 0.922576 0.826871
0.118135 0.926223 0.816556
0.109438 0.92604 0.803616
0.109575 0.915602 0.776791
0.133028 0.90074 0.716304
0.654566 0.863386 0.713024
0.812955 0.840955 0.685023
0.871626 0.834211 0.69308
0.871931 0.823026 0.68159
0.140139 0.921828 0.837644
0.125002 0.925261 0.824964
0.111604 0.92723 0.808087
0.111635 0.925963 0.780758
0.137942 0.925216 0.717891
0.559594 0.87042 0.661952
0.768231 0.859449 0.665431
0.850019 0.875746 0.70425
0.853391 0.865721 0.67924
0.131197 0.923842 0.830091
0.116976 0.926116 0.814069
0.109911 0.926955 0.797208
0.112932 0.92578 0.769558
0.1458 0.923506 0.706203
0.386801 0.87155 0.582269
0.705776 0.847105 0.615137
0.804273 0.843488 0.584985
0.836912 0.850385 0.611292
0.0195621 0.248173 0.711269
0.147601 0.241459 0.776181
0.341268 0.145724 0.804776
0.540413 0.128115 0.814282
0.715145 0.134081 0.832425
0.756832 0.116258 0.833921
0.756832 0.116258 0.833921
0.756802 0.116274 0.83389
0.756741 0.116289 0.833768
0.0196994 0.269337 0.681743
0.0195621 0.248203 0.711803
0.211704 0.230549 0.7841
0.478141 0.135836 0.812528
0.684825 0.148394 0.831342
0.756832 0.116258 0.833921
0.756832 0.116258 0.833921
0.756832 0.116258 0.833921
0.756771 0.116274 0.833844
0.0196994 0.326802 0.704753
0.0198672 0.279957 0.687419
0.0195621 0.248447 0.710246
0.372656 0.144427 0.806622
0.634882 0.139757 0.825147
0.756848 0.116258 0.833921
0.756832 0.116258 0.833906
0.756832 0.116258 0.833921
0.756817 0.116258 0.833906
0.0200961 0.469429 0.720729
0.0202792 0.448127 0.727428
0.020264 0.416617 0.732143
0.0755016 0.345892 0.778622
0.548333 0.187335 0.828397
0.742901 0.131243 0.8365
0.756878 0.116228 0.83389
0.756909 0.116213 0.83389
0.756893 0.116213 0.833906
0.021088 0.66949 0.761959
0.021088 0.650172 0.762066
0.0210575 0.629938 0.763867
0.0209812 0.591959 0.773587
0.48011 0.561578 0.843
0.771359 0.513802 0.868894
0.837308 0.462776 0.871702
0.832563 0.440146 0.868284
0.824872 0.394705 0.859388
0.0854505 0.840482 0.823087
0.078233 0.831159 0.818494
0.0615702 0.819715 0.813016
0.0398413 0.797833 0.805264
0.26656 0.754452 0.803571
0.71902 0.743145 0.858671
0.882887 0.709697 0.870253
0.900023 0.687419 0.86598
0.893553 0.653742 0.845136
0.143313 0.925322 0.866224
0.141039 0.921706 0.862348
0.139879 0.913863 0.857328
0.134676 0.899626 0.845518
0.127016 0.878187 0.826108
0.649866 0.846555 0.810101
0.845777 0.855314 0.833722
0.91043 0.834562 0.82266
0.910201 0.815229 0.808042
0.1411 0.928237 0.873243
0.140444 0.927306 0.868345
0.145022 0.925002 0.861051
0.140887 0.923445 0.845869
0.116411 0.927352 0.813947
0.471839 0.885924 0.768093
0.786328 0.902815 0.809461
0.881498 0.905135 0.821683
0.894072 0.892302 0.806058
0.142519 0.927077 0.870985
0.142702 0.926101 0.865232
0.147936 0.923644 0.856214
0.135149 0.924071 0.838972
0.109682 0.927626 0.801633
0.197299 0.918639 0.749599
0.715999 0.892561 0.764202
0.839155 0.89781 0.78584
0.906722 0.922866 0.842023
0.0196231 0.248112 0.721691
0.180835 0.236057 0.780423
0.356603 0.145495 0.80589
0.552392 0.12903 0.815244
0.724224 0.130098 0.832914
0.756832 0.116258 0.833921
0.756832 0.116258 0.833921
0.756832 0.116258 0.833921
0.756771 0.116289 0.833814
0.0193942 0.262562 0.679057
0.0196078 0.248081 0.721477
0.231983 0.226703 0.786374
0.487648 0.134234 0.812665
0.69276 0.146548 0.831434
0.756832 0.116258 0.833921
0.756832 0.116258 0.833921
0.756832 0.116258 0.833921
0.756786 0.116274 0.83386
0.0197452 0.326909 0.707668
0.0194705 0.274281 0.684718
0.0195926 0.247913 0.720134
0.383612 0.144442 0.807691
0.640009 0.140352 0.825452
0.756832 0.116258 0.833921
0.756848 0.116258 0.833921
0.756832 0.116258 0.833921
0.756832 0.116258 0.833921
0.0204166 0.476127 0.754238
0.0202487 0.443809 0.744961
0.0200961 0.392737 0.729625
0.0551461 0.305745 0.767926
0.534203 0.155261 0.822126
0.735317 0.126421 0.833402
0.756893 0.116213 0.833906
0.756893 0.116228 0.833921
0.756893 0.116213 0.833906
0.0210117 0.666712 0.796139
0.0212253 0.649393 0.796475
0.0209812 0.627253 0.79173
0.0208743 0.581613 0.780453
0.454856 0.53994 0.843702
0.753323 0.487831 0.872694
0.829145 0.433631 0.876097
0.823728 0.40827 0.871321
0.815732 0.363378 0.866239
0.059678 0.85066 0.853513
0.0471656 0.83856 0.849561
0.0353246 0.824262 0.845045
0.0212558 0.796979 0.83859
0.187884 0.748348 0.836255
0.678019 0.722637 0.896422
0.854475 0.691402 0.9122
0.880995 0.663325 0.909941
0.875105 0.635325 0.908125
0.130343 0.929961 0.882139
0.127703 0.924636 0.879957
0.124315 0.917189 0.878035
0.115908 0.904036 0.874006
0.0998093 0.88571 0.871107
0.593942 0.833921 0.858106
0.817365 0.835126 0.891569
0.907408 0.813611 0.897047
0.907103 0.795331 0.894255
0.135454 0.933333 0.882582
0.13312 0.934401 0.882918
0.133425 0.933455 0.881605
0.134646 0.931121 0.876554
0.140475 0.928359 0.868605
0.399512 0.876524 0.831632
0.788632 0.895766 0.860883
0.898283 0.911727 0.888579
0.917723 0.901549 0.881971
0.13492 0.933623 0.882933
0.133181 0.934462 0.883009
0.133532 0.933318 0.881346
0.136248 0.930404 0.875044
0.144869 0.925139 0.861448
0.148898 0.926589 0.841093
0.691646 0.898756 0.825635
0.871565 0.927886 0.877623
0.924178 0.936767 0.903166
0.0196231 0.247822 0.726986
0.202518 0.231922 0.782773
0.365423 0.145083 0.806317
0.557671 0.129671 0.815915
0.728954 0.130205 0.833646
0.756832 0.116258 0.833921
0.756832 0.116258 0.833921
0.756832 0.116258 0.833921
0.756802 0.116274 0.83389
0.0196841 0.257298 0.676524
0.0196536 0.247944 0.726452
0.242557 0.224567 0.788052
0.491234 0.133654 0.81268
0.694881 0.144335 0.831739
0.756832 0.116258 0.833921
0.756832 0.116258 0.833921
0.756832 0.116258 0.833921
0.756832 0.116258 0.833921
0.0198062 0.324239 0.706493
0.0195773 0.268574 0.681071
0.0196384 0.248264 0.725322
0.387854 0.144366 0.808072
0.641871 0.140841 0.825727
0.756832 0.116258 0.833921
0.756848 0.116258 0.833921
0.756832 0.116258 0.833906
0.756832 0.116258 0.833921
0.0202945 0.460487 0.749889
0.0201877 0.423713 0.739162
0.0199893 0.365103 0.720623
0.0389105 0.272938 0.75491
0.524178 0.139269 0.816419
0.734218 0.126848 0.833478
0.756878 0.116228 0.833906
0.756893 0.116213 0.833906
0.756878 0.116228 0.833921
0.0211643 0.657755 0.799863
0.0209812 0.636927 0.794446
0.0210422 0.613626 0.788098
0.0205997 0.566033 0.776516
0.438499 0.518853 0.839857
0.738781 0.460792 0.866331
0.822492 0.400168 0.870573
0.816663 0.370062 0.866606
0.808957 0.318502 0.862089
0.0489204 0.846525 0.858701
0.0377508 0.833463 0.852781
0.0270542 0.816342 0.845716
0.0211337 0.78381 0.83444
0.157702 0.731792 0.832151
0.665995 0.703593 0.896605
0.846296 0.670848 0.910872
0.876509 0.63975 0.908675
0.868666 0.610254 0.904356
0.128649 0.928771 0.882856
0.125231 0.923491 0.882582
0.119814 0.915526 0.881071
0.109865 0.901198 0.878492
0.0750896 0.8757 0.871275
0.569894 0.821668 0.864179
0.802396 0.820325 0.904433
0.900145 0.797528 0.909468
0.899962 0.778531 0.910719
0.133425 0.93434 0.882994
0.133135 0.934508 0.88304
0.133135 0.934508 0.88304
0.133135 0.934508 0.88304
0.130175 0.931502 0.882811
0.313573 0.885435 0.858366
0.757809 0.887602 0.878325
0.884932 0.900191 0.903639
0.915465 0.888624 0.908522
0.133135 0.934508 0.88304
0.133135 0.934508 0.88304
0.133135 0.934508 0.88304
0.133135 0.934508 0.88304
0.133211 0.934646 0.883085
0.134478 0.937026 0.882887
0.625971 0.891127 0.856565
0.874495 0.929458 0.906111
0.93022 0.941421 0.923049
