bundles/resolve-cinematic-luts/Phantom Luts/Canon Film LUT/C-Log 3/Vision Canon-Legacy CL3.cube
TITLE "Generated by Resolve"
LUT_3D_SIZE 33
0.0302434 0.0415351 0.0326696
0.0302281 0.0415351 0.0326543
0.0314794 0.0415961 0.0327001
0.0475166 0.0412909 0.0298924
0.0816663 0.0391241 0.0301366
0.109972 0.0393072 0.0290684
0.139467 0.04094 0.028687
0.178302 0.0409552 0.0255741
0.223209 0.041413 0.0233921
0.271733 0.041474 0.0216373
0.318303 0.0429084 0.0231937
0.364508 0.0458839 0.025864
0.409689 0.0497139 0.0281376
0.45565 0.0559701 0.0326696
0.503868 0.0631113 0.0402991
0.547875 0.0673075 0.0495918
0.586679 0.0723583 0.0571298
0.643671 0.071931 0.0722667
0.697917 0.0679179 0.088838
0.704295 0.07393 0.0884871
0.698863 0.0802319 0.0851911
0.709377 0.0682994 0.0915084
0.706325 0.0726787 0.0893263
0.700694 0.0787366 0.0861067
0.709346 0.0653849 0.0927291
0.708629 0.0660563 0.0920882
0.7084 0.0665141 0.0917372
0.708522 0.0669108 0.0915694
0.709392 0.0671092 0.0915236
0.710658 0.0672313 0.091249
0.711528 0.0682841 0.0907454
0.712352 0.0695659 0.0899825
0.713344 0.0707713 0.0891585
0.0302129 0.0415351 0.0326543
0.0302281 0.0415351 0.0326696
0.030396 0.0415656 0.032639
0.0426947 0.0423285 0.0297856
0.0749218 0.0402533 0.0309148
0.103822 0.0406653 0.0298009
0.134539 0.0420233 0.0288396
0.174334 0.0417639 0.0255131
0.220615 0.0419928 0.0228428
0.269459 0.0429084 0.0228122
0.316503 0.0442359 0.0239567
0.363333 0.0463417 0.0252689
0.406882 0.0493324 0.0267338
0.451286 0.0553597 0.0303044
0.500496 0.0627451 0.0382544
0.548226 0.0716869 0.0489662
0.59379 0.0720378 0.0594492
0.638148 0.0760204 0.0696422
0.698177 0.0695048 0.0879072
0.709026 0.0688792 0.0912795
0.709957 0.0689708 0.0915999
0.710231 0.0690623 0.0916152
0.707012 0.0736095 0.0895552
0.708888 0.0706493 0.0908675
0.708721 0.067155 0.0915694
0.708568 0.0674601 0.0914321
0.708736 0.0677501 0.0913863
0.709087 0.0679026 0.0914168
0.70956 0.0688792 0.0912184
0.710307 0.0702831 0.0906233
0.711269 0.0716411 0.0897993
0.712551 0.072755 0.0892348
0.714717 0.0756847 0.0881819
0.0302281 0.0418708 0.0327001
0.0302434 0.0417029 0.0326848
0.0302586 0.0415503 0.0326696
0.0319066 0.0426337 0.032929
0.0560464 0.0428779 0.0301518
0.0872816 0.0422217 0.0299382
0.119265 0.0436866 0.0289769
0.158602 0.0446937 0.0271611
0.208911 0.0444038 0.0248875
0.259571 0.0444648 0.0232853
0.307912 0.0457923 0.0236667
0.355413 0.0477607 0.0251316
0.400687 0.050782 0.0261692
0.446891 0.0547646 0.028748
0.494148 0.0622263 0.0346075
0.542931 0.0711986 0.0461738
0.59118 0.074464 0.0578775
0.63978 0.0777752 0.0689403
0.684977 0.0741588 0.0827955
0.709209 0.0701152 0.0910964
0.710506 0.0698405 0.0915694
0.708782 0.0726177 0.0903487
0.708339 0.0719463 0.0903334
0.708858 0.0725567 0.090425
0.709255 0.0729076 0.090486
0.708721 0.0687419 0.0912337
0.708934 0.0693523 0.0911574
0.708904 0.0712139 0.0906233
0.709468 0.0730297 0.0902724
0.710124 0.0748608 0.0897383
0.710979 0.0755932 0.0888228
0.713848 0.0771038 0.0878157
0.716655 0.0803845 0.0865797
0.0289311 0.0563058 0.0345617
0.0293889 0.0500954 0.0331121
0.0306554 0.0465095 0.033051
0.0313878 0.0436561 0.0330053
0.0353552 0.0466011 0.0327764
0.0676585 0.0465705 0.0298466
0.0998703 0.0465553 0.0296941
0.14136 0.0485237 0.029221
0.192752 0.0484779 0.0267796
0.244373 0.0482338 0.0250095
0.297276 0.0486763 0.0250401
0.347601 0.0492714 0.02533
0.39556 0.050782 0.0248722
0.441855 0.054139 0.0266728
0.488304 0.0613107 0.0324102
0.538216 0.0700847 0.0419623
0.588449 0.0779736 0.0555123
0.636805 0.0806134 0.0666819
0.678599 0.0764324 0.0802625
0.706432 0.0773785 0.0881666
0.708537 0.0773022 0.0890516
0.708415 0.0759594 0.0895705
0.70811 0.0746929 0.0897993
0.708476 0.0751507 0.0898451
0.708827 0.0836805 0.0864271
0.708904 0.0732586 0.0902571
0.708995 0.0757 0.0898451
0.709087 0.0767071 0.0895552
0.709163 0.077409 0.0888533
0.710185 0.0781872 0.0881819
0.713298 0.0802472 0.0871595
0.716442 0.0830549 0.0865187
0.718975 0.0860151 0.0859236
0.0323949 0.0952163 0.042237
0.0314794 0.0895857 0.0393835
0.0323949 0.0809339 0.0383612
0.0349737 0.0731365 0.0375525
0.0426032 0.0674296 0.035523
0.0637369 0.0733043 0.0314336
0.0977951 0.0706645 0.0313726
0.13312 0.0656443 0.0324559
0.17821 0.0598611 0.0293736
0.229099 0.0546731 0.0267948
0.285649 0.0554818 0.0269932
0.338979 0.0560922 0.0273136
0.388342 0.0559548 0.0271
0.435645 0.0562295 0.027039
0.481712 0.0603799 0.0294041
0.529732 0.0692454 0.0372015
0.583215 0.0788128 0.0518044
0.633982 0.0840772 0.0643168
0.681376 0.0858015 0.0773632
0.706325 0.0811933 0.0861372
0.707866 0.0798962 0.0869917
0.708003 0.0782483 0.0881666
0.712139 0.086244 0.0865187
0.710491 0.0871595 0.0859236
0.709499 0.0888991 0.0848402
0.708003 0.0902419 0.083711
0.708598 0.0803693 0.0873579
0.709636 0.0815137 0.0871595
0.712001 0.0832074 0.0869306
0.715023 0.0850538 0.0868849
0.717388 0.0868086 0.0863355
0.718776 0.0882734 0.0850996
0.722057 0.0911116 0.084062
0.0350652 0.128237 0.0495155
0.0342565 0.121874 0.0458991
0.0337224 0.111696 0.0451209
0.0369268 0.105333 0.0433509
0.0474556 0.0983444 0.0418555
0.0673075 0.099855 0.0358892
0.0887617 0.100343 0.032639
0.134371 0.0938582 0.0321508
0.184237 0.0844434 0.0322881
0.237003 0.0786908 0.0332799
0.284153 0.0756695 0.0317082
0.332891 0.0702068 0.0307469
0.381308 0.0661021 0.0296025
0.431373 0.0674144 0.0309911
0.478035 0.0675975 0.0315404
0.524407 0.0691234 0.0347906
0.576684 0.0775311 0.0472725
0.629847 0.0880751 0.062211
0.677592 0.0892805 0.0738079
0.7122 0.0878157 0.0855116
0.715755 0.0882734 0.0859998
0.715038 0.0898146 0.0846876
0.713771 0.0916304 0.0838483
0.711803 0.0924544 0.0829328
0.719158 0.0931563 0.08542
0.721386 0.0955062 0.0854658
0.714412 0.0872358 0.0864271
0.715816 0.0880598 0.0861677
0.71725 0.0890211 0.0856641
0.718181 0.0909285 0.0848554
0.721065 0.0932021 0.0848707
0.724117 0.0953841 0.0842145
0.726192 0.0974594 0.0831311
0.033753 0.166583 0.0530098
0.0338293 0.159792 0.0505074
0.0344854 0.149203 0.0498512
0.038056 0.140658 0.0499123
0.0426032 0.135805 0.0495155
0.0646983 0.129488 0.0485695
0.0877089 0.129778 0.0392157
0.125597 0.124468 0.0319829
0.181247 0.118318 0.0321813
0.238041 0.108492 0.0342412
0.295628 0.100084 0.0380713
0.343145 0.0957656 0.0368963
0.385702 0.0929732 0.0367132
0.431022 0.0903487 0.0370031
0.477195 0.0854505 0.0373846
0.523598 0.0844587 0.0394141
0.571847 0.0854047 0.042298
0.624292 0.0891127 0.0547341
0.674922 0.0937362 0.0707561
0.717159 0.09337 0.0842908
0.720455 0.0966049 0.0847028
0.721752 0.0987411 0.0840467
0.722347 0.0966506 0.085069
0.72369 0.0978714 0.0847181
0.725017 0.0989853 0.0844129
0.726131 0.10045 0.0841688
0.727489 0.106233 0.082536
0.721355 0.0964218 0.085008
0.722026 0.0973831 0.0844739
0.723171 0.0984054 0.0842451
0.72462 0.0998093 0.0830701
0.726589 0.101839 0.0824445
0.731106 0.111177 0.080766
0.0383001 0.219287 0.0643473
0.0370489 0.213016 0.059205
0.0348058 0.201297 0.0564126
0.0348516 0.188235 0.0535134
0.0381018 0.181109 0.0521248
0.05066 0.17319 0.0529183
0.0760815 0.168841 0.0522011
0.1149 0.169055 0.0384222
0.174609 0.159716 0.0306554
0.238437 0.154818 0.0369726
0.302373 0.147478 0.0415351
0.353704 0.137026 0.0470283
0.407141 0.131136 0.0493172
0.445319 0.128023 0.0489357
0.484825 0.123262 0.0495766
0.524895 0.114809 0.0488746
0.571496 0.107546 0.0489204
0.620935 0.104784 0.0517128
0.67042 0.106828 0.0623484
0.720226 0.10959 0.0769665
0.729519 0.108492 0.0816815
0.72781 0.107424 0.0819867
0.728008 0.113939 0.0828412
0.728634 0.112428 0.0783703
0.730388 0.111055 0.0786908
0.731487 0.109194 0.0779431
0.732601 0.112032 0.0780499
0.73312 0.11284 0.0785229
0.728985 0.109163 0.0829938
0.731167 0.115892 0.0825818
0.733425 0.118517 0.0802625
0.735256 0.119905 0.0772869
0.737606 0.120775 0.0736248
0.0484779 0.283238 0.0840925
0.0467842 0.278523 0.076524
0.0454261 0.26978 0.0743114
0.0430304 0.253178 0.0708476
0.0455329 0.241932 0.0676738
0.0484321 0.234867 0.0661326
0.0756542 0.22977 0.0656138
0.10071 0.224353 0.0629892
0.158404 0.223041 0.0431067
0.233387 0.210422 0.0320134
0.298589 0.204837 0.0408637
0.358068 0.198627 0.0486458
0.406027 0.186465 0.0503548
0.45478 0.174655 0.0584878
0.500038 0.165469 0.0603189
0.532326 0.159655 0.0585031
0.569604 0.149523 0.058381
0.613123 0.136889 0.0588235
0.6701 0.129397 0.0629282
0.714702 0.129076 0.0709087
0.734295 0.130877 0.0774548
0.733669 0.12668 0.0750591
0.732754 0.121019 0.0683299
0.732494 0.117678 0.0643626
0.730144 0.127031 0.0730144
0.728069 0.133318 0.0766155
0.729549 0.141772 0.0790265
0.732189 0.149325 0.0808728
0.7346 0.152331 0.081239
0.735348 0.134798 0.0740063
0.736706 0.133547 0.0713664
0.736431 0.139498 0.0722515
0.735836 0.145953 0.0735332
0.057969 0.342535 0.103624
0.0569162 0.340902 0.093843
0.0559548 0.335393 0.0922103
0.0532235 0.320958 0.0883497
0.0537423 0.308446 0.0849317
0.0556039 0.299794 0.0822156
0.0627909 0.293904 0.081529
0.0989853 0.293217 0.0809949
0.130282 0.283177 0.0753796
0.2159 0.277821 0.0468605
0.296269 0.26334 0.0323339
0.35462 0.260533 0.0417029
0.412985 0.254353 0.0571603
0.457481 0.244312 0.05832
0.497566 0.227558 0.0637369
0.541482 0.21445 0.0699474
0.580011 0.203494 0.0684977
0.612177 0.193469 0.0670329
0.654337 0.180194 0.069398
0.700526 0.164904 0.0724041
0.732341 0.157824 0.0770581
0.731609 0.154101 0.0758679
0.728588 0.156054 0.0755474
0.72604 0.158282 0.0757
0.724544 0.160891 0.0760357
0.722316 0.164721 0.0756695
0.728161 0.167422 0.0787518
0.728985 0.174441 0.0800183
0.728359 0.18143 0.0808118
0.726787 0.187778 0.0814679
0.727199 0.176684 0.0800183
0.725765 0.183856 0.079942
0.72224 0.191043 0.0791638
0.0708782 0.400275 0.127398
0.0688792 0.398505 0.113359
0.0675212 0.394461 0.110231
0.0655985 0.385504 0.107378
0.0631266 0.372396 0.103441
0.0663462 0.361944 0.100374
0.069398 0.355474 0.0987106
0.0838636 0.3514 0.0973678
0.13019 0.353735 0.0979934
0.173373 0.339269 0.0856794
0.282414 0.335668 0.0504768
0.355795 0.319295 0.0340734
0.409506 0.318669 0.0419318
0.462654 0.312505 0.063035
0.50808 0.303716 0.0686503
0.543023 0.289631 0.0726482
0.582391 0.27216 0.0818494
0.625269 0.253529 0.0848402
0.661204 0.243427 0.0834058
0.694316 0.231434 0.0838483
0.720424 0.217121 0.0849317
0.720775 0.2094 0.0829328
0.720088 0.204944 0.0814679
0.720577 0.206561 0.082002
0.72134 0.209491 0.0832074
0.720699 0.213123 0.0836957
0.720348 0.218067 0.085008
0.722927 0.223026 0.0869154
0.72549 0.230426 0.0891432
0.726909 0.238209 0.0917067
0.728389 0.247181 0.0941939
0.725734 0.236423 0.0894636
0.727993 0.243519 0.0919051
0.0831159 0.45272 0.151751
0.0820783 0.452506 0.139376
0.0804913 0.450126 0.130663
0.0792859 0.44509 0.128756
0.0775006 0.434943 0.125048
0.0771344 0.424292 0.121019
0.0813764 0.415656 0.118013
0.0867475 0.409293 0.116075
0.112581 0.408484 0.115236
0.171984 0.410422 0.115801
0.226001 0.392615 0.0930037
0.344656 0.390204 0.0554055
0.412039 0.372961 0.0362554
0.460029 0.373022 0.0398108
0.508186 0.368017 0.0636606
0.555154 0.360967 0.0833753
0.590158 0.347723 0.0859846
0.624353 0.332647 0.0901198
0.666682 0.315892 0.103059
0.708064 0.301122 0.107958
0.731273 0.288914 0.105028
0.735332 0.27982 0.103456
0.734539 0.27274 0.101808
0.733623 0.267582 0.10045
0.732265 0.26334 0.0983597
0.733913 0.26772 0.100877
0.735103 0.272709 0.102159
0.736553 0.278157 0.103731
0.737865 0.285328 0.106462
0.735729 0.292943 0.107012
0.736339 0.301045 0.108873
0.737697 0.294667 0.10779
0.740673 0.299489 0.109621
0.0969253 0.504555 0.184527
0.0962844 0.50544 0.173449
0.0945907 0.503731 0.154833
0.093843 0.500908 0.152163
0.091722 0.493172 0.148836
0.0885481 0.483162 0.144167
0.09337 0.474052 0.140551
0.0990158 0.466438 0.137713
0.109377 0.4607 0.134859
0.15552 0.462425 0.133547
0.220584 0.462745 0.135271
0.284459 0.443519 0.0961929
0.403006 0.442359 0.0613565
0.464225 0.42472 0.0403143
0.507622 0.425177 0.0352331
0.551949 0.420401 0.0632639
0.594629 0.414557 0.0879072
0.635309 0.40383 0.098909
0.669932 0.392447 0.103365
0.703563 0.377432 0.109529
0.736782 0.363165 0.125734
0.752651 0.353033 0.130419
0.751675 0.347219 0.128481
0.751186 0.34345 0.126757
0.750637 0.339086 0.125124
0.749737 0.335576 0.123583
0.749691 0.33228 0.122988
0.749081 0.335592 0.123095
0.749538 0.341909 0.12488
0.750439 0.348684 0.12752
0.75198 0.356893 0.130739
0.754406 0.365621 0.13341
0.754421 0.357305 0.131273
0.112566 0.556374 0.218128
0.112245 0.557549 0.210803
0.110124 0.555886 0.185718
0.109224 0.553796 0.179446
0.107866 0.549432 0.1785
0.105043 0.540932 0.173785
0.105348 0.530648 0.168124
0.114549 0.521691 0.163516
0.119905 0.514733 0.159243
0.135683 0.511376 0.156054
0.211078 0.51252 0.156298
0.271672 0.511864 0.155047
0.344732 0.490089 0.10074
0.456138 0.491478 0.0679026
0.51194 0.473335 0.045716
0.551873 0.473304 0.0302434
0.594522 0.469963 0.0604715
0.634348 0.464897 0.0870985
0.678172 0.457191 0.110796
0.712184 0.447837 0.117006
0.74078 0.437461 0.120546
0.760739 0.425711 0.125933
0.761028 0.421149 0.125948
0.760525 0.41709 0.125872
0.759686 0.413611 0.125551
0.759106 0.410407 0.125399
0.758907 0.407355 0.125597
0.75816 0.404608 0.125673
0.757839 0.40264 0.126131
0.758236 0.405173 0.125612
0.759548 0.412085 0.125505
0.761349 0.419791 0.125948
0.763409 0.427817 0.126146
0.129335 0.608911 0.249516
0.129763 0.611856 0.248112
0.127504 0.611399 0.223621
0.126268 0.609552 0.21236
0.125399 0.606928 0.209979
0.12253 0.598535 0.205707
0.118761 0.587854 0.199466
0.12604 0.57763 0.194095
0.138872 0.56846 0.189288
0.144976 0.561181 0.183108
0.17525 0.560143 0.179797
0.265568 0.563287 0.185336
0.320424 0.558221 0.167269
0.401373 0.533257 0.108598
0.504295 0.538628 0.0751812
0.557351 0.520531 0.052369
0.593118 0.519539 0.0368505
0.634714 0.517555 0.0547799
0.673533 0.513741 0.0868849
0.713054 0.508309 0.114611
0.748943 0.501289 0.130312
0.772198 0.493584 0.135439
0.77789 0.489525 0.136034
0.776715 0.486397 0.135286
0.775708 0.483497 0.134371
0.775494 0.482124 0.134112
0.775128 0.480369 0.133867
0.774502 0.478569 0.133639
0.773663 0.47602 0.133211
0.772854 0.473014 0.132494
0.772229 0.469612 0.132097
0.773098 0.473457 0.13257
0.775464 0.47985 0.133791
0.150683 0.667308 0.28452
0.151553 0.67126 0.28629
0.150484 0.672206 0.26714
0.148135 0.671717 0.248417
0.146181 0.668574 0.243565
0.144396 0.663767 0.240803
0.139651 0.650706 0.23183
0.141268 0.637873 0.224887
0.154513 0.626245 0.21915
0.163821 0.616571 0.214527
0.174807 0.608652 0.209751
0.234699 0.61001 0.205768
0.322164 0.615778 0.215732
0.368475 0.601877 0.177096
0.457771 0.57499 0.117479
0.548104 0.584863 0.0846876
0.598566 0.565972 0.0611887
0.634623 0.564691 0.0430457
0.671092 0.564553 0.0487526
0.711101 0.561074 0.0846265
0.743694 0.557656 0.112688
0.773342 0.551369 0.136095
0.789654 0.547646 0.147448
0.789715 0.545541 0.14725
0.789227 0.543908 0.146914
0.788952 0.542702 0.146883
0.788861 0.541421 0.146899
0.788739 0.539727 0.146654
0.788251 0.537652 0.145708
0.787869 0.534737 0.145006
0.787701 0.531563 0.145006
0.786542 0.527153 0.144121
0.785901 0.524956 0.143282
0.17789 0.730068 0.323537
0.179507 0.73463 0.326513
0.178744 0.736492 0.313466
0.175799 0.736873 0.290578
0.173602 0.735012 0.283314
0.172 0.731838 0.280552
0.167407 0.722805 0.273762
0.161563 0.70811 0.264897
0.175326 0.692409 0.255253
0.191348 0.678294 0.246098
0.195865 0.668116 0.242618
0.221317 0.662974 0.2383
0.305409 0.663401 0.237446
0.374716 0.671626 0.247578
0.416587 0.64802 0.189593
0.506508 0.620035 0.130449
0.588769 0.631617 0.0964218
0.639445 0.614374 0.0740215
0.673503 0.611688 0.0536202
0.708476 0.612467 0.0437934
0.74168 0.609888 0.0755932
0.770443 0.607187 0.105135
0.792142 0.603479 0.128237
0.796017 0.601602 0.132601
0.795804 0.600412 0.132677
0.795605 0.598917 0.132982
0.795407 0.59736 0.133745
0.795743 0.596277 0.135119
0.79585 0.594736 0.135958
0.795682 0.592477 0.136965
0.794232 0.58851 0.136873
0.794934 0.583963 0.140368
0.793957 0.576349 0.142016
0.211734 0.786709 0.36553
0.212406 0.789685 0.368109
0.211048 0.790753 0.354055
0.208728 0.791592 0.335164
0.206394 0.790265 0.323064
0.203677 0.787762 0.319081
0.202564 0.785611 0.316701
0.195132 0.77348 0.30724
0.199802 0.757763 0.296757
0.217823 0.742687 0.285023
0.223743 0.730648 0.279438
0.235431 0.721523 0.274617
0.282673 0.721935 0.27155
0.373648 0.722469 0.274525
0.422614 0.723339 0.272404
0.464729 0.694499 0.208865
0.552148 0.667765 0.148531
0.626932 0.681376 0.113558
0.676722 0.664363 0.0924239
0.713252 0.661357 0.0719463
0.740764 0.660761 0.0607156
0.768338 0.660883 0.0696117
0.791379 0.658686 0.0942397
0.802899 0.656657 0.107515
0.803418 0.655268 0.108598
0.803189 0.654017 0.109102
0.803235 0.653025 0.109697
0.803647 0.651576 0.110719
0.803525 0.649485 0.111147
0.80296 0.646677 0.112215
0.802121 0.642618 0.113771
0.801694 0.638041 0.115648
0.800626 0.630671 0.119631
0.231678 0.818433 0.394339
0.231388 0.818845 0.39556
0.229343 0.817868 0.378882
0.225956 0.815839 0.361013
0.223148 0.81474 0.345403
0.222782 0.814694 0.343694
0.222461 0.814649 0.341146
0.222644 0.814496 0.340398
0.225879 0.807172 0.335439
0.244831 0.796277 0.325475
0.256245 0.784817 0.316228
0.264012 0.776928 0.314443
0.288869 0.77113 0.309514
0.36405 0.77232 0.305943
0.436713 0.776471 0.314549
0.47013 0.764294 0.291524
0.517525 0.735119 0.228885
0.593362 0.717769 0.177691
0.661494 0.728893 0.13814
0.711589 0.71516 0.115465
0.7476 0.71043 0.0990768
0.771359 0.709346 0.0893568
0.791379 0.709758 0.082002
0.807462 0.709651 0.0857099
0.809979 0.708598 0.088304
0.810086 0.707744 0.0890516
0.809461 0.706111 0.0885481
0.809186 0.704479 0.0886397
0.808637 0.701885 0.0892958
0.807935 0.699519 0.0906386
0.808545 0.696574 0.0926986
0.806897 0.69073 0.0934615
0.80647 0.684627 0.0960403
0.232364 0.819333 0.400183
0.23209 0.819532 0.400534
0.230091 0.818097 0.383124
0.226856 0.816327 0.365866
0.223789 0.815106 0.350332
0.223331 0.814969 0.34789
0.222766 0.81471 0.34374
0.222904 0.814755 0.343816
0.229831 0.814954 0.344778
0.255833 0.81561 0.345235
0.277607 0.816068 0.343786
0.290974 0.813718 0.346075
0.30927 0.809934 0.345418
0.360983 0.808896 0.340902
0.44242 0.810559 0.340536
0.490959 0.81326 0.347951
0.516808 0.792538 0.307637
0.566979 0.766735 0.249317
0.633631 0.759594 0.209491
0.699916 0.770459 0.164477
0.744778 0.759121 0.142626
0.774395 0.754299 0.128511
0.795911 0.75288 0.122484
0.810941 0.752132 0.118746
0.815778 0.751186 0.117388
0.816175 0.750347 0.116396
0.815915 0.749325 0.115373
0.815351 0.748348 0.113542
0.814618 0.746654 0.112108
0.813825 0.743755 0.109728
0.812879 0.740337 0.106203
0.813001 0.736736 0.102388
0.811246 0.730297 0.095613
0.232303 0.819623 0.401602
0.231846 0.819547 0.399939
0.230167 0.818189 0.384146
0.227085 0.816541 0.368338
0.223926 0.815152 0.351232
0.223011 0.814725 0.344945
0.222766 0.814725 0.343862
0.222843 0.814771 0.344198
0.22681 0.815137 0.347219
0.254002 0.815778 0.35053
0.28101 0.816876 0.350881
0.302815 0.817823 0.353368
0.31931 0.81828 0.358907
0.358709 0.819501 0.360067
0.429221 0.821469 0.355047
0.491279 0.823758 0.356008
0.527016 0.824918 0.348943
0.562325 0.813062 0.318624
0.615641 0.792294 0.2701
0.676997 0.794644 0.239185
0.734157 0.803357 0.199054
0.772442 0.797177 0.179324
0.79649 0.791211 0.169909
0.813611 0.78941 0.16672
0.822904 0.788144 0.165087
0.82472 0.787472 0.164126
0.824918 0.78677 0.162585
0.824674 0.785672 0.159899
0.824567 0.7841 0.15729
0.824247 0.782025 0.155062
0.823148 0.779416 0.150576
0.822446 0.775479 0.145708
0.82089 0.769497 0.137789
0.233539 0.819196 0.402823
0.233326 0.819409 0.40322
0.231403 0.818402 0.392905
0.22948 0.817349 0.376699
0.225864 0.815137 0.358373
0.223514 0.81442 0.3449
0.223331 0.81442 0.343923
0.223178 0.814374 0.34284
0.224384 0.814527 0.344366
0.245106 0.81593 0.351537
0.282338 0.816541 0.355901
0.31014 0.818112 0.359045
0.327871 0.818753 0.366583
0.361456 0.819883 0.36994
0.419974 0.821012 0.366949
0.488701 0.823713 0.36408
0.53051 0.827924 0.354833
0.566308 0.831022 0.345968
0.608728 0.827024 0.321355
0.663539 0.81445 0.288502
0.718212 0.82063 0.260151
0.761486 0.827405 0.234836
0.794995 0.825406 0.217441
0.811017 0.81799 0.218082
0.82707 0.816739 0.210834
0.83125 0.816068 0.207614
0.830839 0.815122 0.207111
0.830121 0.813901 0.206134
0.829664 0.812879 0.205203
0.829297 0.811383 0.204334
0.828946 0.809247 0.202228
0.82826 0.806302 0.198718
0.827527 0.801541 0.189868
0.234257 0.820157 0.408103
0.233021 0.819394 0.402243
0.232319 0.819303 0.399939
0.230701 0.818143 0.386206
0.22768 0.816587 0.36994
0.224491 0.814862 0.350896
0.223316 0.81445 0.344045
0.223117 0.814374 0.342519
0.223423 0.814466 0.343648
0.237507 0.815259 0.349966
0.27747 0.816663 0.355947
0.307836 0.81828 0.359258
0.3299 0.819272 0.367987
0.365072 0.820645 0.375402
0.422415 0.822126 0.381369
0.491295 0.825086 0.387991
0.540063 0.829572 0.383062
0.568322 0.833036 0.359289
0.607217 0.836774 0.342321
0.656321 0.837827 0.327642
0.708843 0.834562 0.303166
0.752041 0.837842 0.278004
0.787121 0.840726 0.251987
0.809369 0.837736 0.249592
0.828672 0.832364 0.231189
0.835691 0.831189 0.223301
0.836103 0.831067 0.221836
0.836194 0.831006 0.220615
0.836378 0.830961 0.218128
0.836454 0.830518 0.215946
0.836362 0.829358 0.21416
0.835187 0.826886 0.211521
0.833951 0.823804 0.209628
0.23534 0.821439 0.415961
0.232593 0.819532 0.401846
0.23238 0.819791 0.40235
0.231037 0.818799 0.393805
0.229099 0.817884 0.37792
0.22594 0.815625 0.360021
0.22327 0.814466 0.343969
0.223133 0.814435 0.343145
0.223102 0.814435 0.343221
0.231556 0.815045 0.348043
0.27097 0.816297 0.355108
0.304128 0.817838 0.357961
0.327001 0.818891 0.367071
0.358068 0.819867 0.373953
0.412772 0.821576 0.381704
0.48246 0.824491 0.389838
0.537301 0.829313 0.391455
0.566827 0.833051 0.36733
0.603021 0.836835 0.344991
0.650782 0.839643 0.335744
0.702571 0.837827 0.3205
0.748058 0.839445 0.29482
0.784436 0.840955 0.265827
0.807767 0.841321 0.260014
0.824414 0.834745 0.259907
0.833677 0.83331 0.253208
0.835126 0.833066 0.25124
0.835157 0.833051 0.250675
0.835233 0.83299 0.249104
0.835233 0.832868 0.247562
0.835294 0.832639 0.245151
0.835416 0.832441 0.241749
0.835538 0.832029 0.235096
0.235676 0.822965 0.423148
0.232654 0.820294 0.404486
0.231769 0.819913 0.401755
0.231342 0.819776 0.399756
0.230045 0.818433 0.385702
0.227008 0.816587 0.368231
0.223239 0.814572 0.344869
0.223117 0.814557 0.343969
0.22298 0.814496 0.342947
0.227085 0.814862 0.346563
0.262928 0.815747 0.353979
0.299733 0.817349 0.35671
0.323903 0.818677 0.365454
0.353155 0.819593 0.373022
0.406149 0.821714 0.381415
0.473671 0.824338 0.388022
0.532509 0.828595 0.392477
0.562722 0.832517 0.37145
0.597177 0.836316 0.345922
0.644388 0.839734 0.337041
0.694316 0.838239 0.326863
0.740871 0.83975 0.300557
0.779141 0.840848 0.272175
0.804913 0.842084 0.257847
0.820981 0.835584 0.263325
0.832959 0.833677 0.255619
0.83505 0.833326 0.253697
0.835065 0.833341 0.253422
0.835111 0.833356 0.253086
0.835126 0.833387 0.252781
0.835142 0.833387 0.252598
0.835157 0.833402 0.252506
0.835142 0.833387 0.252583
0.235492 0.823621 0.429847
0.233173 0.821118 0.409674
0.231312 0.820005 0.4009
0.23154 0.820233 0.402457
0.230335 0.818875 0.391867
0.22768 0.817395 0.373144
0.223651 0.814923 0.348974
0.223072 0.814557 0.343923
0.222919 0.814496 0.342718
0.22443 0.81474 0.345235
0.258091 0.815564 0.352819
0.29543 0.817014 0.355917
0.320729 0.818418 0.36408
0.348684 0.819333 0.371801
0.397986 0.821775 0.380438
0.46389 0.824247 0.385931
0.528161 0.828077 0.395239
0.559319 0.832349 0.37612
0.591577 0.836072 0.348592
0.636851 0.839414 0.338323
0.686458 0.838331 0.329671
0.734295 0.839857 0.304356
0.772641 0.840452 0.277607
0.801709 0.841917 0.256657
0.816953 0.836149 0.265339
0.832135 0.833814 0.256382
0.835065 0.833326 0.25362
0.835081 0.833341 0.253315
0.835111 0.833371 0.252979
0.835142 0.833387 0.252659
0.835157 0.833402 0.252415
0.835157 0.833402 0.252369
0.835157 0.833402 0.252522
0.236088 0.824262 0.435767
0.233936 0.822095 0.414862
0.231296 0.820203 0.401694
0.231403 0.820325 0.40238
0.230808 0.819623 0.396292
0.228672 0.818265 0.37911
0.224964 0.815564 0.357931
0.222995 0.814588 0.343832
0.222827 0.814527 0.342397
0.22359 0.814679 0.344335
0.253086 0.815717 0.351949
0.290791 0.816617 0.35552
0.318334 0.818189 0.363012
0.344717 0.819486 0.371359
