bundles/resolve-cinematic-luts/Phantom Luts/Canon Film LUT/C-Log 3/Vision Canon-Legacy CL3.cube
TITLE "Generated by Resolve"
LUT_3D_SIZE 5
0.0302434 0.0415351 0.0326696
0.223209 0.041413 0.0233921
0.586679 0.0723583 0.0571298
0.709346 0.0653849 0.0927291
0.713344 0.0707713 0.0891585
0.0484779 0.283238 0.0840925
0.158404 0.223041 0.0431067
0.569604 0.149523 0.058381
0.730144 0.127031 0.0730144
0.735836 0.145953 0.0735332
0.17789 0.730068 0.323537
0.175326 0.692409 0.255253
0.588769 0.631617 0.0964218
0.795804 0.600412 0.132677
0.793957 0.576349 0.142016
0.235676 0.822965 0.423148
0.22298 0.814496 0.342947
0.532509 0.828595 0.392477
0.820981 0.835584 0.263325
0.835142 0.833387 0.252583
0.238499 0.828626 0.458457
0.22327 0.814343 0.343008
0.433051 0.822599 0.383062
0.778637 0.840787 0.271595
0.835233 0.833478 0.251347
0.0351568 0.0483406 0.222293
0.278431 0.0363622 0.231907
0.692638 0.098085 0.395193
0.752422 0.113558 0.426032
0.755581 0.0966659 0.339132
0.0192264 0.186328 0.16466
0.170764 0.189944 0.165911
0.62562 0.0493324 0.114321
0.743313 0.068925 0.168429
0.72668 0.0804608 0.0906233
0.151461 0.669154 0.412985
0.146105 0.660548 0.291264
0.56582 0.601907 0.0871901
0.789792 0.544305 0.146715
0.786145 0.521416 0.142367
0.260685 0.84567 0.57499
0.235279 0.823697 0.429923
0.447959 0.823209 0.385107
0.805508 0.842084 0.259907
0.836088 0.831846 0.227115
0.253422 0.847913 0.592966
0.241642 0.828717 0.467231
0.336431 0.819364 0.370108
0.733013 0.839277 0.306249
0.835279 0.833478 0.251164
0.0718395 0.0893111 0.534493
0.32987 0.0749065 0.533165
0.675761 0.10811 0.613214
0.759701 0.127703 0.703059
0.76408 0.120226 0.641672
0.060502 0.143832 0.499107
0.0816205 0.0833906 0.507591
0.596139 0.0911727 0.537789
0.76466 0.132906 0.626123
0.758053 0.108446 0.547875
0.042649 0.578164 0.5991
0.0402533 0.555886 0.576349
0.596277 0.611048 0.589426
0.87747 0.505867 0.535729
0.862791 0.476753 0.466621
0.116167 0.852949 0.745922
0.185168 0.858457 0.699718
0.269841 0.830564 0.483574
0.769345 0.841566 0.440223
0.835737 0.814984 0.35404
0.115343 0.853132 0.745876
0.197436 0.858564 0.692622
0.245304 0.832166 0.485466
0.622156 0.839139 0.344778
0.836759 0.833219 0.2542
0.112795 0.151598 0.705577
0.378485 0.129046 0.742138
0.715862 0.167529 0.763027
0.76759 0.138735 0.76202
0.767468 0.138796 0.761852
0.0998856 0.20676 0.722438
0.111925 0.151354 0.704921
0.622202 0.142718 0.750988
0.76759 0.138735 0.76202
0.767575 0.13875 0.76199
0.0477302 0.553552 0.790494
0.0712444 0.517784 0.800046
0.482078 0.482612 0.836088
0.843229 0.434699 0.828565
0.832349 0.363928 0.808652
0.097734 0.840894 0.886976
0.0899672 0.823972 0.865171
0.0762798 0.782467 0.820768
0.826795 0.851637 0.835111
0.902373 0.805386 0.800076
0.0992447 0.842115 0.897093
0.0939956 0.84181 0.872114
0.0773938 0.846876 0.796536
0.722316 0.883864 0.782101
0.885191 0.930449 0.853208
0.137835 0.153079 0.713848
0.396612 0.129915 0.74255
0.732998 0.160433 0.764645
0.76759 0.138735 0.76202
0.76759 0.138735 0.76202
0.100359 0.204807 0.724636
0.134264 0.152987 0.713054
0.629892 0.14522 0.752285
0.76759 0.13875 0.762005
0.76759 0.138735 0.76202
0.0898604 0.542351 0.844862
0.104463 0.50135 0.834394
0.448722 0.431937 0.831922
0.828458 0.363622 0.819806
0.813565 0.283223 0.801724
0.0908675 0.837934 0.914595
0.0736095 0.816205 0.903792
0.0433204 0.762112 0.888319
0.784054 0.801144 0.928298
0.900679 0.766247 0.906828
0.10045 0.847196 0.918502
0.10045 0.847196 0.918502
0.100603 0.847349 0.918547
0.583703 0.877119 0.895644
0.907561 0.943694 0.927184
