bundles/resolve-cinematic-luts/Phantom Luts/Canon Film LUT/C-Log 3/VisionTeal Canon CL3.cube
TITLE "Generated by Resolve"
LUT_3D_SIZE 33
0.0224308 0.0321508 0.0302892
0.0224308 0.0321202 0.0302586
0.0223545 0.0314031 0.0303197
0.0492409 0.0297246 0.030396
0.101045 0.0243076 0.0265202
0.137484 0.0297856 0.0250553
0.182895 0.0328374 0.0219883
0.227924 0.0360113 0.0189517
0.276005 0.0366369 0.0175021
0.318837 0.0330053 0.0167544
0.36463 0.0359808 0.0184939
0.40647 0.0348516 0.0187991
0.446998 0.0329747 0.0200351
0.490669 0.0375372 0.0256809
0.529931 0.0294957 0.0321813
0.567346 0.0327916 0.0375677
0.609079 0.0232548 0.0473487
0.648676 0.0287938 0.0803998
0.701991 0.0402838 0.131853
0.707317 0.0407416 0.123262
0.713832 0.0431067 0.141649
0.7131 0.0432136 0.146563
0.713191 0.0432136 0.146365
0.713298 0.0432288 0.14612
0.713146 0.043122 0.145403
0.712932 0.0429694 0.144228
0.712932 0.0429084 0.143679
0.713207 0.0429389 0.143481
0.71342 0.0426642 0.140597
0.713497 0.0421912 0.138415
0.713649 0.041825 0.137453
0.713893 0.0415045 0.136919
0.716152 0.0412909 0.133562
0.0224308 0.0320592 0.0301518
0.0224155 0.0320745 0.0301671
0.022385 0.0318761 0.0299687
0.0461585 0.0314031 0.0302586
0.0956741 0.0290074 0.0277104
0.132601 0.033875 0.0261082
0.177417 0.0360418 0.021912
0.224979 0.0384833 0.0190127
0.273411 0.0385748 0.0177768
0.320851 0.0375525 0.0170748
0.365759 0.03888 0.0191196
0.40647 0.0364996 0.0179599
0.445182 0.0350042 0.0190585
0.488228 0.0410315 0.0246891
0.529763 0.037705 0.0311131
0.568414 0.0302586 0.0381476
0.610636 0.0281834 0.0475624
0.645838 0.027863 0.0728008
0.690532 0.0373999 0.112718
0.713085 0.0425422 0.138323
0.713985 0.043061 0.139773
0.714076 0.0430762 0.139361
0.712291 0.0421759 0.134234
0.7131 0.0429389 0.143679
0.712856 0.0428016 0.142168
0.712825 0.0427405 0.141146
0.712993 0.0426947 0.13994
0.712825 0.0423438 0.135851
0.712856 0.0420691 0.133623
0.712947 0.0416724 0.131899
0.713497 0.0413519 0.131075
0.715434 0.0413214 0.129381
0.717968 0.04094 0.126665
0.0225071 0.0325322 0.0302434
0.0224765 0.0323491 0.0302281
0.022446 0.0321355 0.0302281
0.0224765 0.0339361 0.0298314
0.0691844 0.0358282 0.0285801
0.112764 0.0380865 0.0266728
0.158221 0.0403906 0.0238804
0.210834 0.0422675 0.0205234
0.26508 0.0434119 0.0191348
0.315267 0.0433051 0.018204
0.36022 0.0443732 0.0184176
0.402564 0.0442054 0.0189517
0.446937 0.0448768 0.0224765
0.48423 0.0404059 0.022446
0.527749 0.0433204 0.0296941
0.5664 0.0331426 0.0374914
0.608835 0.0300908 0.0473487
0.649409 0.0278935 0.063447
0.68658 0.0362402 0.105608
0.712642 0.0422827 0.135546
0.711528 0.0415351 0.12723
0.711681 0.0416724 0.128817
0.71165 0.0418402 0.130465
0.711971 0.0418555 0.130236
0.71252 0.0424659 0.138491
0.712551 0.0422827 0.135561
0.712444 0.0420539 0.131853
0.712123 0.0417029 0.128649
0.712123 0.0413825 0.126909
0.71313 0.0412146 0.12549
0.714824 0.0412909 0.124804
0.717311 0.0410163 0.122621
0.719295 0.04065 0.119707
0.0208286 0.0604562 0.0284581
0.021622 0.0480964 0.0263371
0.0223392 0.0413519 0.0291905
0.0221408 0.0364385 0.0291142
0.0326848 0.0403296 0.0320592
0.0816815 0.0442206 0.0293278
0.131609 0.0474403 0.025391
0.193912 0.0492103 0.0217288
0.251545 0.0520485 0.0201419
0.303792 0.0511177 0.0194095
0.35378 0.051133 0.0201877
0.399496 0.0496071 0.0201419
0.441062 0.0464485 0.0185702
0.484886 0.0480049 0.0243229
0.525368 0.0472267 0.0286717
0.564309 0.0389258 0.0342565
0.606989 0.033051 0.0461433
0.648081 0.0290532 0.0576333
0.688777 0.0362097 0.0972457
0.707576 0.0404669 0.119051
0.710765 0.0411536 0.122347
0.710887 0.0414282 0.125734
0.710796 0.0415503 0.127596
0.712749 0.0408026 0.113787
0.711284 0.0401923 0.108934
0.711894 0.0416724 0.127611
0.711528 0.0413977 0.123888
0.711299 0.0411688 0.121965
0.713283 0.0412451 0.120882
0.714809 0.0413214 0.119631
0.717067 0.041062 0.117784
0.718944 0.0408179 0.115694
0.721218 0.0404669 0.111376
0.01944 0.115099 0.0310063
0.0196384 0.103639 0.0267948
0.0201419 0.0931563 0.0276188
0.0275578 0.0861982 0.0307927
0.0531319 0.0772717 0.0307469
0.0783856 0.0859541 0.0303807
0.120668 0.0869764 0.030518
0.179644 0.0782483 0.0289006
0.236683 0.0724346 0.0220645
0.292226 0.0632334 0.0195773
0.347677 0.0643931 0.0209506
0.398016 0.0651713 0.0225528
0.442908 0.0623026 0.0242161
0.479255 0.0525978 0.0214847
0.519722 0.0479744 0.0243534
0.562615 0.0450752 0.0325322
0.605905 0.039826 0.0434882
0.647135 0.0332341 0.0563973
0.685298 0.034165 0.0858473
0.708293 0.0400854 0.112932
0.710475 0.0405737 0.116594
0.714504 0.0413367 0.113954
0.71397 0.0409247 0.11017
0.712993 0.040238 0.105821
0.711879 0.0398413 0.10135
0.709911 0.0392309 0.0971084
0.712947 0.0409552 0.116365
0.714137 0.0413519 0.115724
0.715908 0.0413367 0.113848
0.71783 0.0411231 0.112169
0.719585 0.04094 0.109483
0.721477 0.0406806 0.105974
0.723842 0.0402838 0.101701
0.0187533 0.160739 0.0336004
0.0186465 0.150118 0.0277867
0.0188754 0.137041 0.0301671
0.0281834 0.129656 0.0292668
0.0586404 0.117479 0.0348516
0.0927749 0.116625 0.0292515
0.111009 0.11696 0.028809
0.168093 0.120073 0.0267033
0.239673 0.109926 0.0294347
0.304387 0.100587 0.0305333
0.350576 0.0968185 0.0257877
0.398856 0.0913863 0.0252842
0.443458 0.0832685 0.0267948
0.489937 0.082063 0.0305028
0.530007 0.0759747 0.0308385
0.564996 0.058732 0.0335699
0.604517 0.0458076 0.0424353
0.647837 0.0420691 0.0561685
0.682841 0.033051 0.0713054
0.713756 0.0403601 0.107378
0.717357 0.0411078 0.108934
0.716609 0.0407111 0.104372
0.715648 0.0403143 0.100343
0.719631 0.0413672 0.10486
0.720867 0.0414588 0.102708
0.721889 0.0417029 0.10045
0.723796 0.0419471 0.0982681
0.718517 0.0412757 0.107927
0.719493 0.0411841 0.104433
0.720851 0.0410163 0.100984
0.722438 0.0408331 0.0976577
0.724681 0.0404212 0.0945907
0.728252 0.0417639 0.0887312
0.0184329 0.211902 0.0362097
0.0182956 0.201221 0.028809
0.0185092 0.188739 0.0281682
0.022797 0.178592 0.0283818
0.0357671 0.170687 0.0309148
0.090837 0.159487 0.0368963
0.130098 0.15848 0.0281529
0.16083 0.154742 0.0272068
0.228885 0.160327 0.026627
0.306889 0.156405 0.0334783
0.369451 0.144915 0.0397955
0.420142 0.139925 0.0395361
0.460288 0.134035 0.0371557
0.502113 0.12253 0.0376135
0.544961 0.115969 0.0404822
0.581262 0.100618 0.0413977
0.620111 0.0911727 0.0455787
0.654322 0.0656138 0.0542611
0.684642 0.0419623 0.0674296
0.717479 0.0404669 0.0990005
0.721218 0.0405737 0.0876173
0.721813 0.0406958 0.0871901
0.722377 0.0416114 0.0982681
0.723507 0.0417182 0.0969863
0.724941 0.0417945 0.0948806
0.724102 0.0388037 0.080293
0.73051 0.0548257 0.0808576
0.732021 0.057969 0.0811627
0.723171 0.0408484 0.0870527
0.72372 0.0407416 0.0857862
0.729046 0.0475624 0.0843671
0.740307 0.0728923 0.0897688
0.749554 0.0938582 0.0929732
0.0246128 0.273426 0.0491035
0.0233921 0.263767 0.0384833
0.0210269 0.25211 0.0365301
0.0253452 0.239139 0.0355077
0.0330663 0.230808 0.0348516
0.0654154 0.220829 0.0385443
0.125658 0.215198 0.0418555
0.180972 0.212345 0.0288853
0.219699 0.206897 0.0287175
0.287877 0.213809 0.0310369
0.357839 0.212421 0.0346075
0.416251 0.199939 0.0426032
0.471473 0.187762 0.0484474
0.510475 0.181964 0.0456703
0.550378 0.172915 0.0464637
0.591058 0.155627 0.0480507
0.63476 0.140414 0.0526589
0.670802 0.117525 0.0583047
0.706844 0.104387 0.0769513
0.72636 0.0615854 0.0772869
0.732647 0.0581979 0.0813306
0.738781 0.0742657 0.0944533
0.740749 0.076997 0.0929732
0.737575 0.0677501 0.085359
0.733562 0.0579995 0.0797894
0.734447 0.0604868 0.0770581
0.738277 0.0715038 0.0771038
0.754543 0.126604 0.102998
0.761135 0.145922 0.107301
0.752895 0.111879 0.099321
0.757671 0.122148 0.0969711
0.760525 0.125917 0.0940871
0.764233 0.130297 0.0912032
0.033051 0.330037 0.0632944
0.0319219 0.321706 0.0470283
0.0304875 0.314076 0.0459907
0.0261692 0.300343 0.0430457
0.0392309 0.292576 0.0434577
0.0479286 0.285695 0.0429694
0.100374 0.277241 0.0480201
0.169726 0.267399 0.0477607
0.232441 0.263706 0.029572
0.277668 0.258213 0.0313115
0.341741 0.266178 0.0350195
0.405432 0.269978 0.0395514
0.462669 0.259312 0.0459602
0.513024 0.244465 0.0567788
0.560616 0.233692 0.0598001
0.595285 0.227863 0.0568246
0.633097 0.211856 0.0555123
0.674876 0.18912 0.0581826
0.720272 0.161303 0.0733654
0.745693 0.138643 0.0855726
0.761822 0.137499 0.0979782
0.760342 0.130846 0.0956893
0.757626 0.119387 0.0870832
0.754665 0.118395 0.0875105
0.756664 0.131395 0.0911116
0.756725 0.145037 0.0896315
0.760449 0.160174 0.0928206
0.763546 0.179873 0.0933547
0.766613 0.197833 0.0928969
0.769284 0.186877 0.0932174
0.767575 0.174472 0.0914473
0.767788 0.186664 0.0907301
0.766018 0.204669 0.0881208
0.0446784 0.385611 0.0823987
0.0435645 0.378195 0.0590066
0.0410315 0.373144 0.0563211
0.0389563 0.360845 0.0550851
0.0437934 0.349828 0.0525368
0.0516976 0.34258 0.051545
0.0689097 0.335409 0.0512703
0.142809 0.330632 0.0586099
0.219547 0.316411 0.0511177
0.285847 0.313924 0.0308232
0.332311 0.309041 0.0352178
0.389639 0.318059 0.0391852
0.449668 0.325246 0.0445106
0.505684 0.321279 0.0496529
0.555001 0.310155 0.0637369
0.601343 0.294347 0.0763561
0.644327 0.282689 0.0751965
0.677302 0.271504 0.071519
0.712993 0.25124 0.0726177
0.744427 0.22121 0.0780499
0.765728 0.198566 0.0888533
0.764752 0.191104 0.0881056
0.763043 0.1953 0.0870832
0.760922 0.202335 0.0844587
0.759289 0.213642 0.0827497
0.76286 0.217212 0.085832
0.763897 0.223789 0.0869154
0.765377 0.233921 0.0886702
0.76553 0.247028 0.0901198
0.766217 0.263493 0.092668
0.766171 0.281483 0.0945144
0.764614 0.270314 0.0903182
0.766766 0.282185 0.0945296
0.0580758 0.439399 0.101198
0.0569009 0.432059 0.0755016
0.055024 0.427283 0.069276
0.0523842 0.419089 0.0671092
0.0485084 0.407767 0.0642557
0.0635996 0.398733 0.0631876
0.0708934 0.39115 0.0616312
0.0982071 0.384573 0.0619211
0.198184 0.378714 0.0685588
0.270161 0.361898 0.0528267
0.337606 0.361608 0.0363622
0.383474 0.357275 0.0403601
0.437797 0.367803 0.0468757
0.492424 0.376226 0.0520638
0.546624 0.379599 0.0586404
0.594949 0.371084 0.0717021
0.64242 0.358068 0.0847486
0.687312 0.343084 0.100481
0.719203 0.332326 0.0986648
0.7476 0.315511 0.0966354
0.765805 0.295262 0.0962997
0.765408 0.28394 0.0941329
0.76495 0.277653 0.0924392
0.765332 0.279942 0.0934157
0.765896 0.285756 0.0944991
0.76614 0.29189 0.0957656
0.765774 0.301472 0.0972915
0.768322 0.30721 0.102144
0.770581 0.315541 0.105715
0.772213 0.326162 0.109819
0.773526 0.338399 0.114015
0.772122 0.335088 0.110124
0.773785 0.346181 0.114183
0.0737621 0.490333 0.121523
0.0732738 0.485878 0.100496
0.0715343 0.480018 0.0828412
0.0695354 0.474815 0.0814527
0.0658427 0.465385 0.0792096
0.0717937 0.455451 0.0766461
0.0848554 0.445762 0.074052
0.0946059 0.43772 0.0716869
0.135698 0.431846 0.0734417
0.256352 0.423621 0.0805066
0.324788 0.406943 0.0537881
0.38471 0.406592 0.0443122
0.433982 0.404791 0.0483864
0.481483 0.415366 0.0566567
0.534035 0.424918 0.06215
0.586358 0.432822 0.0692149
0.634577 0.428443 0.0802777
0.681056 0.419135 0.0966049
0.722683 0.405234 0.109972
0.755291 0.391333 0.131731
0.773724 0.380758 0.128267
0.77705 0.370504 0.1252
0.776287 0.362753 0.122805
0.775952 0.356741 0.120333
0.774899 0.351247 0.117662
0.776211 0.356741 0.120882
0.777295 0.361944 0.123919
0.778515 0.369207 0.126909
0.779156 0.378454 0.131289
0.77763 0.388144 0.132235
0.777569 0.398199 0.134615
0.779171 0.409613 0.13962
0.781491 0.402365 0.140291
0.0921492 0.541878 0.14699
0.0926833 0.540398 0.129564
0.0916152 0.533486 0.100618
0.0903792 0.531029 0.098558
0.086717 0.52282 0.0956741
0.0823224 0.512322 0.0927291
0.0967422 0.500938 0.0888533
0.10811 0.491142 0.0860304
0.122057 0.482078 0.0836652
0.210498 0.472084 0.0871748
0.31899 0.46627 0.0914168
0.379507 0.450416 0.0554513
0.430991 0.449531 0.0568399
0.481727 0.45095 0.0597696
0.523323 0.459861 0.065568
0.573709 0.470527 0.0729076
0.623575 0.48043 0.080293
0.673823 0.484138 0.0876783
0.717983 0.478325 0.106645
0.752102 0.468223 0.120928
0.778775 0.454047 0.13695
0.789334 0.443412 0.151751
0.788708 0.437964 0.152178
0.787961 0.433982 0.151705
0.787137 0.430182 0.151034
0.786023 0.426764 0.150439
0.785031 0.423346 0.150057
0.785412 0.427283 0.149142
0.786389 0.434241 0.148394
0.788586 0.442451 0.149096
0.790356 0.451438 0.14992
0.791577 0.459251 0.148501
0.793133 0.4692 0.146197
0.111604 0.595163 0.17702
0.112367 0.596063 0.166567
0.113527 0.588617 0.122774
0.11191 0.585473 0.116228
0.109789 0.580789 0.114717
0.106157 0.571664 0.111879
0.109422 0.559335 0.10753
0.124849 0.545174 0.101656
0.134432 0.534829 0.097673
0.154376 0.526528 0.0955825
0.287953 0.513588 0.102052
0.372763 0.50869 0.0970474
0.430793 0.491768 0.058793
0.475456 0.493446 0.070161
0.526558 0.496056 0.0702831
0.564126 0.503655 0.0760204
0.613916 0.51545 0.0845045
0.661738 0.526558 0.0911574
0.712077 0.53637 0.0987259
0.74902 0.53434 0.113298
0.77847 0.527382 0.127626
0.796613 0.518364 0.140642
0.797299 0.514046 0.141833
0.796506 0.510155 0.141726
0.79646 0.506798 0.142336
0.796262 0.504005 0.142535
0.795834 0.500694 0.142596
0.795819 0.498146 0.142931
0.795514 0.496162 0.14284
0.79556 0.499199 0.142565
0.796429 0.507042 0.142428
0.797772 0.515404 0.142
0.799084 0.525567 0.140826
0.131365 0.650996 0.209018
0.131594 0.653925 0.207111
0.134585 0.649439 0.159533
0.13431 0.645106 0.136995
0.133089 0.641901 0.134249
0.129335 0.633478 0.133165
0.125719 0.622034 0.128466
0.137819 0.606195 0.122072
0.156207 0.590326 0.114626
0.163775 0.5794 0.109499
0.2159 0.569635 0.1093
0.358618 0.558358 0.116426
0.423072 0.551095 0.100847
0.478096 0.533944 0.0647135
0.520012 0.539467 0.082536
0.568994 0.541054 0.0819715
0.60412 0.54786 0.0871595
0.651484 0.559197 0.0956283
0.697688 0.571481 0.101976
0.739101 0.581521 0.107561
0.774182 0.587472 0.115373
0.799176 0.584649 0.133333
0.804746 0.581338 0.136034
0.804578 0.578195 0.136309
0.803998 0.575189 0.136263
0.80412 0.573846 0.137087
0.804181 0.57229 0.137652
0.804013 0.570443 0.138003
0.803693 0.568048 0.138125
0.802884 0.564874 0.137758
0.802533 0.561257 0.138216
0.803174 0.566186 0.137758
0.804257 0.573709 0.137392
0.153613 0.710567 0.243748
0.15349 0.714153 0.244282
0.157763 0.712062 0.209323
0.158801 0.708202 0.168353
0.158145 0.705211 0.161959
0.15523 0.70042 0.157046
0.150744 0.688396 0.152987
0.155413 0.672129 0.144076
0.17673 0.652277 0.134066
0.187457 0.637858 0.127291
0.204791 0.62536 0.125078
0.297032 0.612253 0.124392
0.424323 0.60621 0.133089
0.473228 0.594461 0.105058
0.524804 0.577005 0.0802167
0.565225 0.586465 0.0949264
0.613565 0.587777 0.0950484
0.645838 0.593042 0.0988174
0.68629 0.603647 0.108125
0.728862 0.615122 0.112459
0.761685 0.624079 0.118715
0.791516 0.632074 0.12607
0.807401 0.634928 0.129931
0.808133 0.633539 0.130343
0.80824 0.632105 0.131014
0.807355 0.630777 0.130556
0.806714 0.629389 0.13019
0.807309 0.628168 0.130709
0.807691 0.626764 0.131289
0.807401 0.624353 0.131472
0.807004 0.621286 0.132067
0.806699 0.617258 0.132647
0.807157 0.616358 0.133333
0.179599 0.767208 0.282338
0.180484 0.77261 0.286183
0.183352 0.77052 0.256245
0.18819 0.767514 0.211444
0.186374 0.76527 0.199298
0.184802 0.761639 0.193439
0.180804 0.753063 0.182498
0.174044 0.740276 0.175753
0.196521 0.718135 0.158999
0.218051 0.69929 0.149233
0.224643 0.687373 0.15024
0.262318 0.674815 0.146517
0.394827 0.657038 0.145052
0.483055 0.65951 0.149996
0.523079 0.640314 0.114
0.570504 0.623529 0.0967727
0.610437 0.636606 0.105898
0.655085 0.636439 0.10927
0.68748 0.641367 0.112902
0.718456 0.648753 0.1187
0.751293 0.657206 0.126787
0.780529 0.665553 0.135546
0.80264 0.671977 0.143023
0.805585 0.672007 0.143969
0.806012 0.671611 0.144091
0.805966 0.671016 0.14345
0.805753 0.67013 0.142611
0.805447 0.668849 0.141817
0.805554 0.667475 0.141497
0.805676 0.66569 0.14107
0.805753 0.663508 0.140124
0.806195 0.6607 0.138933
0.806577 0.655695 0.136873
0.21004 0.816587 0.321859
0.210254 0.820264 0.32604
0.214359 0.818036 0.295689
0.217365 0.815045 0.255879
0.217334 0.813336 0.234653
0.215488 0.809644 0.227863
0.213565 0.806867 0.224994
0.207568 0.796582 0.215854
0.217807 0.778775 0.202487
0.242298 0.757305 0.180774
0.253269 0.743053 0.177188
0.268666 0.73022 0.173892
0.341817 0.717311 0.168048
0.4748 0.702907 0.17261
0.534997 0.703777 0.164324
0.572747 0.683955 0.128054
0.616861 0.671046 0.114199
0.65716 0.687129 0.118654
0.694453 0.685023 0.125551
0.724437 0.688319 0.128405
0.745342 0.692485 0.136233
0.770352 0.699474 0.148836
0.792554 0.705699 0.157916
0.802869 0.707774 0.1608
0.803708 0.707134 0.160723
0.803769 0.70605 0.160113
0.803906 0.705242 0.159472
0.804166 0.704479 0.158801
0.804608 0.703456 0.158495
0.805142 0.702373 0.157977
0.804547 0.699596 0.15584
0.8047 0.695598 0.153841
0.805097 0.691783 0.151827
0.22884 0.847532 0.352071
0.229938 0.850767 0.357046
0.231678 0.84683 0.326696
0.2327 0.84184 0.288945
0.233967 0.838758 0.258244
0.233875 0.838468 0.254826
0.232303 0.836439 0.24802
0.231022 0.832807 0.244617
0.238071 0.822324 0.237339
0.265919 0.80383 0.219821
0.28513 0.787854 0.206104
0.295079 0.777768 0.207004
0.333165 0.763485 0.200427
0.445716 0.748608 0.192554
0.543938 0.744717 0.2047
0.583291 0.738338 0.174426
0.622187 0.719158 0.14699
0.661799 0.715328 0.135256
0.699321 0.730907 0.136461
0.730388 0.727886 0.146731
0.75494 0.729671 0.153033
0.772015 0.732647 0.162631
0.787778 0.735271 0.172595
0.79942 0.738323 0.181537
0.802075 0.738247 0.182559
0.80177 0.73756 0.182315
0.801358 0.736522 0.181659
0.801404 0.735622 0.181262
0.801526 0.734401 0.180591
0.802029 0.733364 0.180346
0.801587 0.73138 0.178973
0.802274 0.728038 0.175372
0.802441 0.724483 0.172076
0.230869 0.853864 0.36553
0.230411 0.854246 0.366934
0.231418 0.848188 0.333623
0.232929 0.842985 0.296651
0.233799 0.839506 0.266316
0.233753 0.839414 0.26273
0.233829 0.838468 0.254215
0.233921 0.838544 0.254429
0.242847 0.837003 0.253819
0.279042 0.828153 0.243732
0.305959 0.817777 0.232151
0.320867 0.808911 0.232349
0.346792 0.799222 0.232578
0.421759 0.785321 0.225315
0.541329 0.775357 0.218753
0.598367 0.777264 0.218769
0.627741 0.762356 0.19556
0.662684 0.745953 0.174533
0.700801 0.750729 0.164096
0.734127 0.764965 0.165743
0.757961 0.761913 0.179324
0.778195 0.762921 0.184878
0.791745 0.764187 0.193545
0.802014 0.765362 0.202258
0.805325 0.765438 0.204883
0.805508 0.764904 0.204608
0.805188 0.764187 0.203708
0.80499 0.763592 0.203021
0.804913 0.762509 0.202304
0.804318 0.760647 0.200381
0.803464 0.758129 0.197818
0.803037 0.756039 0.195621
0.802243 0.751888 0.192081
0.230365 0.854368 0.368124
0.230549 0.8542 0.364981
0.231373 0.848676 0.335821
0.232776 0.844129 0.302571
0.233692 0.839643 0.26714
0.233921 0.83859 0.256321
0.233829 0.838483 0.254246
0.233463 0.838788 0.255177
0.237369 0.838636 0.259617
0.27361 0.830014 0.254292
0.310872 0.822003 0.244648
0.337621 0.817548 0.245792
0.358938 0.813886 0.25417
0.41149 0.803983 0.251102
0.514778 0.793698 0.241413
0.601755 0.79324 0.237308
0.638315 0.791791 0.229374
0.66717 0.778256 0.216495
0.699428 0.767361 0.206058
0.732876 0.778637 0.199115
0.760266 0.789883 0.200092
0.778286 0.78761 0.213336
0.795026 0.787823 0.220539
0.805264 0.788312 0.228214
0.811765 0.788785 0.232319
0.813046 0.788678 0.233082
0.812604 0.787976 0.231708
0.812222 0.787182 0.230716
0.812238 0.786328 0.229465
0.811948 0.784939 0.228046
0.811994 0.783841 0.226062
0.811475 0.781628 0.22295
0.809964 0.777462 0.218112
0.231342 0.853452 0.368521
0.23093 0.853895 0.369512
0.231937 0.851194 0.351141
0.23331 0.845319 0.318105
0.233814 0.839673 0.279469
0.234852 0.837201 0.255116
0.234745 0.837232 0.252979
0.234699 0.837034 0.250401
0.236362 0.836942 0.25304
0.261036 0.832532 0.258213
0.310994 0.821439 0.253635
0.345205 0.815152 0.252079
0.366812 0.811231 0.261372
0.409964 0.803189 0.263416
0.493019 0.7935 0.259556
0.592371 0.790539 0.257588
0.643305 0.798825 0.240284
0.674403 0.798871 0.244953
0.705165 0.790845 0.235279
0.732311 0.786938 0.234104
0.760723 0.79971 0.228275
0.778683 0.805539 0.236835
0.793286 0.804654 0.248768
0.80557 0.804639 0.255253
0.816693 0.807248 0.256123
0.819455 0.807736 0.256489
0.819196 0.806851 0.256077
0.818814 0.805875 0.25565
0.818173 0.804807 0.255329
0.816983 0.803418 0.254795
0.816052 0.801846 0.253803
0.815747 0.799863 0.252003
0.814191 0.796689 0.246952
0.230167 0.85539 0.377569
0.230808 0.85388 0.368856
0.230945 0.853742 0.364553
0.231708 0.848966 0.338933
0.233188 0.84419 0.305455
0.234668 0.838926 0.266072
0.234668 0.837354 0.253452
0.234668 0.837034 0.249836
0.234775 0.837278 0.252018
0.250172 0.835294 0.258518
0.303243 0.823026 0.254871
0.342199 0.815854 0.25243
0.368429 0.81088 0.263005
0.410895 0.803098 0.271168
0.483421 0.793591 0.279576
0.575769 0.788754 0.289906
0.635569 0.794186 0.284474
0.671351 0.800702 0.266361
0.705806 0.803754 0.259052
0.733227 0.800946 0.261906
0.758999 0.80502 0.260395
0.779492 0.813901 0.258305
0.791485 0.816815 0.268238
0.80322 0.816358 0.279515
0.819776 0.821622 0.273335
0.825315 0.82359 0.271015
0.826062 0.823728 0.269825
0.826215 0.823728 0.268482
0.826429 0.823682 0.266773
0.826551 0.823316 0.265446
0.826246 0.821927 0.263752
0.825299 0.820035 0.262318
0.823621 0.816587 0.260822
0.227619 0.860182 0.391806
0.230289 0.854368 0.368688
0.229755 0.854902 0.369924
0.231327 0.85301 0.355322
0.232136 0.846494 0.32224
0.233036 0.840803 0.284001
0.234562 0.837476 0.253483
0.234562 0.837339 0.251164
0.234531 0.837385 0.251179
0.24445 0.836454 0.257313
0.295018 0.82475 0.255512
0.337453 0.816831 0.251347
0.36466 0.811872 0.262196
0.402808 0.804578 0.2701
0.468421 0.794827 0.280171
0.56199 0.788617 0.292134
0.628794 0.792538 0.294484
0.66717 0.799313 0.275212
0.702373 0.805097 0.262791
0.730846 0.803754 0.271611
0.755993 0.805478 0.275563
0.776791 0.814923 0.273167
0.791775 0.820829 0.276997
0.79968 0.820722 0.293935
0.813184 0.821805 0.297108
0.820768 0.824079 0.295705
0.822354 0.824704 0.295445
0.822309 0.824689 0.295277
0.822354 0.824674 0.294606
0.822446 0.824643 0.293172
0.822675 0.824598 0.291157
0.823148 0.82446 0.28777
0.824231 0.824338 0.282841
0.223239 0.863798 0.404501
0.228946 0.856397 0.37435
0.229221 0.855238 0.369421
0.229648 0.854856 0.365743
0.231037 0.849958 0.339025
0.232654 0.844068 0.301137
0.234348 0.837995 0.255711
0.234302 0.837858 0.253864
0.234394 0.837522 0.25098
0.238514 0.837446 0.256657
0.284688 0.827283 0.257542
0.332952 0.817838 0.250507
0.361578 0.812604 0.261021
0.397543 0.805356 0.269184
0.458152 0.795941 0.27985
0.550515 0.788754 0.288548
0.622354 0.791455 0.294743
0.662409 0.798459 0.279088
0.698039 0.80499 0.262257
0.726802 0.804257 0.272023
0.751797 0.804486 0.278126
0.773342 0.813642 0.274922
0.789975 0.820615 0.277043
0.797879 0.820966 0.291798
0.810117 0.821744 0.299641
0.819608 0.824002 0.298451
0.822141 0.824903 0.298039
0.822095 0.824933 0.297993
0.822019 0.824964 0.297948
0.821973 0.82501 0.297887
0.821912 0.825025 0.297856
0.821897 0.825025 0.297856
0.821912 0.82501 0.297902
0.220401 0.867613 0.41622
0.227207 0.859419 0.383383
0.228916 0.855406 0.368246
0.228641 0.856138 0.371069
0.231037 0.852949 0.351888
0.23238 0.846006 0.313756
0.234104 0.8392 0.263355
0.234272 0.837888 0.253803
0.234318 0.837568 0.250614
0.236286 0.837674 0.255344
0.277806 0.828748 0.257115
0.327382 0.818814 0.250675
0.3579 0.813504 0.260243
0.391669 0.806378 0.267811
0.448157 0.797864 0.279744
0.538384 0.790021 0.287297
0.616571 0.79115 0.295918
0.657282 0.797528 0.283085
0.693217 0.804639 0.263249
0.723873 0.804746 0.271031
0.748089 0.803143 0.277699
0.770611 0.812451 0.275044
0.787839 0.819974 0.275456
0.797421 0.821576 0.28719
0.807553 0.821378 0.299275
0.818753 0.823713 0.298528
0.822141 0.824918 0.297993
0.822095 0.824964 0.297932
0.822049 0.82501 0.297871
0.821988 0.82504 0.29781
0.821973 0.825071 0.29778
0.821973 0.825071 0.29778
0.821988 0.825055 0.297795
0.217807 0.870817 0.425956
0.225864 0.861936 0.392477
0.228412 0.856199 0.370138
0.228382 0.856489 0.371298
0.229786 0.854551 0.360906
0.230884 0.847761 0.326513
0.232624 0.84097 0.2813
0.234195 0.837995 0.253681
0.234241 0.837613 0.250156
0.235294 0.837659 0.253681
0.27126 0.830365 0.256916
0.321401 0.819867 0.251225
0.355016 0.814252 0.259373
0.386343 0.807492 0.266758
0.439445 0.799558 0.278386
0.525231 0.790249 0.285161
0.610437 0.790677 0.297856
