bundles/resolve-cinematic-luts/Phantom Luts/Canon Film LUT/C-Log 3/Vision Canon-Legacy CL3.cube
TITLE "Generated by Resolve"
LUT_3D_SIZE 9
0.0302434 0.0415351 0.0326696
0.0816663 0.0391241 0.0301366
0.223209 0.041413 0.0233921
0.409689 0.0497139 0.0281376
0.586679 0.0723583 0.0571298
0.698863 0.0802319 0.0851911
0.709346 0.0653849 0.0927291
0.709392 0.0671092 0.0915236
0.713344 0.0707713 0.0891585
0.0323949 0.0952163 0.042237
0.0426032 0.0674296 0.035523
0.17821 0.0598611 0.0293736
0.388342 0.0559548 0.0271
0.583215 0.0788128 0.0518044
0.707866 0.0798962 0.0869917
0.709499 0.0888991 0.0848402
0.712001 0.0832074 0.0869306
0.722057 0.0911116 0.084062
0.0484779 0.283238 0.0840925
0.0455329 0.241932 0.0676738
0.158404 0.223041 0.0431067
0.406027 0.186465 0.0503548
0.569604 0.149523 0.058381
0.734295 0.130877 0.0774548
0.730144 0.127031 0.0730144
0.7346 0.152331 0.081239
0.735836 0.145953 0.0735332
0.0969253 0.504555 0.184527
0.091722 0.493172 0.148836
0.109377 0.4607 0.134859
0.403006 0.442359 0.0613565
0.594629 0.414557 0.0879072
0.736782 0.363165 0.125734
0.750637 0.339086 0.125124
0.749538 0.341909 0.12488
0.754421 0.357305 0.131273
0.17789 0.730068 0.323537
0.173602 0.735012 0.283314
0.175326 0.692409 0.255253
0.305409 0.663401 0.237446
0.588769 0.631617 0.0964218
0.74168 0.609888 0.0755932
0.795804 0.600412 0.132677
0.79585 0.594736 0.135958
0.793957 0.576349 0.142016
0.232303 0.819623 0.401602
0.223926 0.815152 0.351232
0.22681 0.815137 0.347219
0.31931 0.81828 0.358907
0.527016 0.824918 0.348943
0.734157 0.803357 0.199054
0.822904 0.788144 0.165087
0.824567 0.7841 0.15729
0.82089 0.769497 0.137789
0.235676 0.822965 0.423148
0.230045 0.818433 0.385702
0.22298 0.814496 0.342947
0.323903 0.818677 0.365454
0.532509 0.828595 0.392477
0.694316 0.838239 0.326863
0.820981 0.835584 0.263325
0.835111 0.833356 0.253086
0.835142 0.833387 0.252583
0.237797 0.825711 0.445747
0.232074 0.819776 0.401831
0.223804 0.814038 0.343343
0.313726 0.817639 0.361166
0.505013 0.825254 0.392721
0.663508 0.840131 0.335927
0.80824 0.840803 0.262135
0.834989 0.83328 0.254292
0.835142 0.833387 0.252613
0.238499 0.828626 0.458457
0.231266 0.8206 0.403006
0.22327 0.814343 0.343008
0.282704 0.816159 0.354604
0.433051 0.822599 0.383062
0.605768 0.836789 0.343648
0.778637 0.840787 0.271595
0.835081 0.833341 0.253361
0.835233 0.833478 0.251347
0.0278782 0.0421302 0.075349
0.106004 0.0402075 0.0906844
0.295476 0.0373846 0.123445
0.486839 0.0403754 0.149065
0.697169 0.069749 0.22208
0.749905 0.0769055 0.227146
0.747723 0.0733196 0.205859
0.742626 0.0686503 0.170642
0.722316 0.0561074 0.0972
0.0286107 0.0583352 0.0438544
0.0317998 0.0431983 0.0345769
0.227024 0.0400397 0.0308537
0.427161 0.0378424 0.0394293
0.613642 0.0413977 0.073579
0.733898 0.0634623 0.135378
0.731411 0.0617838 0.127321
0.720684 0.0575418 0.100465
0.715892 0.072221 0.0888685
0.0380102 0.232914 0.107393
0.0375067 0.215427 0.0653391
0.13138 0.187549 0.0386511
0.411612 0.129992 0.0493782
0.583093 0.0987411 0.0469673
0.724193 0.0945144 0.0854963
0.719997 0.0915999 0.0849928
0.72903 0.104112 0.081651
0.735759 0.130114 0.0772412
0.0877394 0.477424 0.223346
0.0868544 0.469764 0.164492
0.0863355 0.444968 0.129244
0.38204 0.422583 0.0586252
0.595376 0.37731 0.0894026
0.739696 0.313375 0.114855
0.739086 0.287098 0.106645
0.74493 0.296193 0.11162
0.751293 0.322789 0.120455
0.164355 0.70074 0.359701
0.16025 0.697826 0.306493
0.157275 0.698543 0.260471
0.233265 0.650126 0.229236
0.578225 0.617487 0.0919051
0.740734 0.588937 0.0891737
0.793622 0.574838 0.142596
0.792172 0.565789 0.144594
0.791501 0.547036 0.146792
0.242542 0.828397 0.468193
0.231128 0.820294 0.40145
0.223133 0.81503 0.347356
0.294453 0.816709 0.34873
0.509987 0.823209 0.352544
0.721981 0.791608 0.184207
0.819379 0.772457 0.1411
0.820554 0.766018 0.132433
0.816724 0.748928 0.11284
0.24889 0.834241 0.500771
0.235233 0.823407 0.425925
0.227115 0.816876 0.369619
0.291981 0.816556 0.355947
0.50135 0.825727 0.393133
0.669841 0.839872 0.333989
0.812161 0.837049 0.26743
0.835081 0.833295 0.252522
0.835233 0.832715 0.245655
0.254093 0.837552 0.520378
0.238407 0.8262 0.448554
0.231128 0.818402 0.391211
0.26952 0.81532 0.354314
0.456855 0.823484 0.38735
0.633738 0.839231 0.340536
0.797147 0.841962 0.261799
0.834974 0.833265 0.254551
0.835126 0.833387 0.252735
0.256535 0.840574 0.535805
0.240558 0.828534 0.462989
0.231647 0.820188 0.402441
0.228748 0.814328 0.346426
0.377676 0.820218 0.377172
0.580087 0.834669 0.354025
0.755047 0.839506 0.291096
0.834562 0.833432 0.253895
0.835233 0.833478 0.251331
0.0351568 0.0483406 0.222293
0.125521 0.0442969 0.215351
0.278431 0.0363622 0.231907
0.479469 0.05449 0.313817
0.692638 0.098085 0.395193
0.752743 0.113436 0.426734
0.752422 0.113558 0.426032
0.75256 0.113176 0.41268
0.755581 0.0966659 0.339132
0.0303502 0.0625315 0.131914
0.0357671 0.0467536 0.187045
0.213123 0.0372168 0.175174
0.445274 0.0479286 0.229099
0.662196 0.0765087 0.281666
0.751919 0.0972305 0.33843
0.752148 0.0979477 0.338674
0.753033 0.0937667 0.320394
0.755886 0.0829328 0.265431
0.0192264 0.186328 0.16466
0.0195773 0.166262 0.144488
0.170764 0.189944 0.165911
0.476356 0.100893 0.10367
0.62562 0.0493324 0.114321
0.746746 0.0701915 0.18088
0.743313 0.068925 0.168429
0.736507 0.0642557 0.135912
0.72668 0.0804608 0.0906233
0.0644999 0.444556 0.276341
0.076112 0.439445 0.231434
0.0779431 0.432715 0.155505
0.36437 0.401907 0.0604562
0.59527 0.326085 0.10103
0.73753 0.248692 0.108583
0.734524 0.233555 0.0973983
0.727306 0.247883 0.0944381
0.734157 0.27335 0.100008
0.151461 0.669154 0.412985
0.148562 0.664134 0.35462
0.146105 0.660548 0.291264
0.183215 0.635065 0.223941
0.56582 0.601907 0.0871901
0.739742 0.564019 0.105104
0.789792 0.544305 0.146715
0.787961 0.53254 0.144427
0.786145 0.521416 0.142367
0.25893 0.840406 0.541115
0.245335 0.832273 0.485771
0.232197 0.821607 0.409644
0.250919 0.815915 0.345693
0.484993 0.821378 0.352544
0.709667 0.778775 0.169451
0.813107 0.752789 0.118578
0.81413 0.74345 0.108904
0.811414 0.724849 0.0891432
0.260685 0.84567 0.57499
0.253788 0.837964 0.520745
0.235279 0.823697 0.429923
0.227924 0.81474 0.345861
0.447959 0.823209 0.385107
0.642542 0.840116 0.337881
0.805508 0.842084 0.259907
0.83534 0.832364 0.241688
0.836088 0.831846 0.227115
0.254826 0.847135 0.589502
0.257404 0.84097 0.540246
0.238712 0.827237 0.45275
0.224323 0.814008 0.34403
0.400809 0.821347 0.379995
0.604059 0.836622 0.345632
0.781277 0.840787 0.271626
0.834943 0.833234 0.254856
0.835111 0.833371 0.252964
0.253422 0.847913 0.592966
0.257465 0.841382 0.540871
0.241642 0.828717 0.467231
0.225879 0.814771 0.356268
0.336431 0.819364 0.370108
0.561883 0.832242 0.375662
0.733013 0.839277 0.306249
0.831052 0.834012 0.257191
0.835279 0.833478 0.251164
0.0496376 0.0639811 0.395483
0.14638 0.0523232 0.394247
0.297993 0.0542611 0.375311
0.470878 0.059266 0.414694
0.687938 0.106844 0.515801
0.754757 0.109941 0.547982
0.752682 0.101427 0.528481
0.754299 0.10016 0.515099
0.760937 0.104402 0.498268
0.0424353 0.0803388 0.343984
0.0498054 0.0606088 0.374807
0.208804 0.0498207 0.3682
0.429358 0.0507362 0.375006
0.650187 0.0891432 0.461936
0.75761 0.1037 0.502907
0.759716 0.107744 0.488624
0.75996 0.108217 0.484932
0.761883 0.110857 0.462303
0.033875 0.159319 0.346578
0.0420691 0.12987 0.364218
0.102007 0.108659 0.404532
0.397421 0.0568093 0.343435
0.608499 0.0741894 0.391577
0.755093 0.112612 0.441794
0.754376 0.112917 0.437293
0.752361 0.113725 0.425391
0.754894 0.104982 0.376974
0.0214084 0.397818 0.395697
0.0200961 0.381338 0.379095
0.0196841 0.363684 0.360113
0.409857 0.423911 0.39675
0.69189 0.314534 0.328405
0.82295 0.226246 0.349432
0.816251 0.190784 0.330663
0.815381 0.174609 0.297414
0.81915 0.200153 0.231815
0.0752575 0.621958 0.486198
0.0927443 0.615976 0.455741
0.110414 0.61178 0.415671
0.182116 0.627512 0.333745
0.549249 0.594476 0.233524
0.753338 0.548821 0.286778
0.793301 0.519844 0.292088
0.787472 0.503395 0.268818
0.783627 0.482338 0.219165
0.218326 0.823407 0.60679
0.229816 0.82443 0.580255
0.248646 0.828428 0.544579
0.232258 0.821057 0.420462
0.381262 0.811292 0.350469
0.689754 0.757931 0.16257
0.809598 0.720943 0.0940261
0.812634 0.706249 0.100832
0.809293 0.679316 0.101778
0.235386 0.85452 0.654765
0.243717 0.85211 0.625162
0.258061 0.846723 0.580423
0.236164 0.82472 0.438666
0.344121 0.819364 0.373495
0.593103 0.836072 0.347997
0.790982 0.840101 0.251438
0.835996 0.828061 0.213764
0.833371 0.8206 0.206546
0.231373 0.856107 0.665553
0.240452 0.853208 0.63563
0.254261 0.847623 0.590448
0.240833 0.828382 0.462943
0.31397 0.81767 0.360479
0.564431 0.83241 0.374914
0.747768 0.839231 0.297108
0.835218 0.833188 0.254627
0.835401 0.83331 0.252689
0.232532 0.855909 0.661891
0.243 0.852338 0.627634
0.25536 0.847288 0.586221
0.243015 0.829892 0.475807
0.265797 0.815305 0.353674
0.530678 0.827863 0.396704
0.685466 0.839292 0.329641
0.814237 0.836774 0.267445
0.835538 0.833417 0.251148
0.0718395 0.0893111 0.534493
0.17026 0.0691844 0.536202
0.32987 0.0749065 0.533165
0.497887 0.0981003 0.551705
0.675761 0.10811 0.613214
0.760006 0.119493 0.679652
0.759701 0.127703 0.703059
0.76112 0.123568 0.690181
0.76408 0.120226 0.641672
0.0618906 0.109117 0.513634
0.0738079 0.0854963 0.520058
0.220264 0.0671092 0.524422
0.45214 0.0911269 0.530404
0.638224 0.100053 0.577722
0.760586 0.116548 0.652003
0.759716 0.116152 0.669032
0.76025 0.116121 0.6533
0.766766 0.137774 0.607691
0.060502 0.143832 0.499107
0.0594339 0.113664 0.496544
0.0816205 0.0833906 0.507591
0.375189 0.0732891 0.502235
0.596139 0.0911727 0.537789
0.765225 0.138277 0.619074
0.76466 0.132906 0.626123
0.763622 0.13492 0.599084
0.758053 0.108446 0.547875
0.0259556 0.371084 0.554009
0.0363928 0.344381 0.561669
0.0532692 0.311849 0.572641
0.307912 0.296834 0.614069
0.631556 0.247364 0.573297
0.787152 0.144518 0.5673
0.767315 0.112627 0.531899
0.758709 0.103639 0.505806
0.763455 0.10959 0.479042
0.042649 0.578164 0.5991
0.0410773 0.567178 0.587839
0.0402533 0.555886 0.576349
0.0527199 0.543923 0.557931
0.596277 0.611048 0.589426
0.833936 0.542199 0.549706
0.87747 0.505867 0.535729
0.874937 0.490272 0.51368
0.862791 0.476753 0.466621
0.0799878 0.777173 0.677073
0.0831769 0.770809 0.656565
0.0960861 0.763622 0.631693
0.138628 0.753307 0.577066
0.460014 0.796506 0.585626
0.687327 0.759045 0.493202
0.829862 0.724849 0.508217
0.831342 0.707378 0.507744
0.824704 0.682155 0.472007
0.116167 0.852949 0.745922
0.143435 0.856367 0.726192
0.185168 0.858457 0.699718
0.237446 0.854429 0.646174
0.269841 0.830564 0.483574
0.584649 0.83772 0.509285
0.769345 0.841566 0.440223
0.834455 0.82826 0.384848
0.835737 0.814984 0.35404
0.10518 0.850904 0.757275
0.131777 0.855695 0.735164
0.175021 0.858579 0.705867
0.235782 0.85481 0.650523
0.241474 0.829328 0.4692
0.523369 0.831022 0.460899
0.707454 0.839582 0.329229
0.829007 0.839246 0.327977
0.834775 0.837369 0.308553
0.115343 0.853132 0.745876
0.152773 0.857542 0.72079
0.197436 0.858564 0.692622
0.239689 0.85388 0.639902
0.245304 0.832166 0.485466
0.39443 0.822385 0.391897
0.622156 0.839139 0.344778
0.801938 0.842252 0.261738
0.836759 0.833219 0.2542
0.0958419 0.137926 0.670878
0.217136 0.131853 0.684718
0.360525 0.11339 0.696208
0.525261 0.119585 0.709392
0.697597 0.160449 0.744198
0.767483 0.138781 0.761898
0.767483 0.138781 0.761883
0.767483 0.138781 0.761883
0.767422 0.138811 0.761791
0.0854658 0.14548 0.644541
0.0972763 0.129107 0.653544
0.245914 0.109621 0.675303
0.473243 0.114961 0.692073
0.656519 0.146532 0.719966
0.767727 0.136828 0.758877
0.767346 0.138842 0.7617
0.767422 0.138811 0.761807
0.767651 0.138659 0.76173
0.0833143 0.168627 0.624125
0.0817731 0.142489 0.625269
0.0983597 0.11873 0.631449
0.390387 0.106706 0.666682
0.612436 0.134142 0.692317
0.764248 0.127871 0.736416
0.765881 0.134081 0.751904
0.767132 0.136843 0.758495
0.764874 0.128573 0.738369
0.0817426 0.350698 0.674937
0.0884718 0.324132 0.683543
0.0911421 0.285527 0.689891
0.238621 0.240681 0.710994
0.580331 0.203326 0.702953
0.753826 0.136233 0.69572
0.760616 0.128603 0.694743
0.760784 0.128328 0.697078
0.761379 0.112001 0.659632
0.0286412 0.565103 0.702647
0.0251926 0.549828 0.704768
0.023209 0.531884 0.708782
0.0428931 0.493233 0.726802
0.535882 0.52694 0.766155
0.79646 0.511681 0.752834
0.848798 0.477791 0.741207
0.844663 0.452125 0.718837
0.837659 0.378302 0.665507
0.0655833 0.735943 0.770077
0.0631113 0.725139 0.758633
0.0603189 0.711315 0.745434
0.0572061 0.690898 0.725109
0.347112 0.701381 0.702647
0.733822 0.753857 0.73521
0.891768 0.708492 0.706508
0.904616 0.684306 0.690425
0.895613 0.66659 0.659312
0.0562448 0.843748 0.831647
0.0571298 0.846143 0.817563
0.0731975 0.844892 0.796811
0.0935073 0.834455 0.757946
0.147311 0.828428 0.689067
0.667872 0.860304 0.735027
0.794827 0.852476 0.694575
0.870314 0.832929 0.673136
0.867781 0.816434 0.66244
0.0601663 0.842924 0.846494
0.0548409 0.84477 0.828229
0.0683146 0.846265 0.804791
0.10042 0.850294 0.76669
0.191959 0.859586 0.696406
0.580865 0.860258 0.68925
0.751781 0.876799 0.706523
0.846357 0.893141 0.702754
0.851545 0.887633 0.677272
0.0534981 0.843946 0.83621
0.0601511 0.846235 0.814191
0.082887 0.847257 0.79028
0.10486 0.852155 0.753689
0.208316 0.858351 0.685298
0.412787 0.845579 0.604379
0.69929 0.864012 0.673411
0.799695 0.871702 0.604715
0.844907 0.87425 0.61149
0.112795 0.151598 0.705577
0.238437 0.15259 0.732738
0.378485 0.129046 0.742138
0.542031 0.131456 0.747112
0.715862 0.167529 0.763027
0.76759 0.138735 0.76202
0.76759 0.138735 0.76202
0.767559 0.13875 0.761975
0.767468 0.138796 0.761852
0.0945907 0.161151 0.689158
0.113436 0.151705 0.706035
0.273548 0.151247 0.735866
0.488991 0.132753 0.747189
0.672908 0.156481 0.757061
0.76759 0.138735 0.76202
0.76759 0.138735 0.76202
0.76759 0.138735 0.76202
0.767529 0.138766 0.761929
0.0998856 0.20676 0.722438
0.0961776 0.169986 0.696773
0.111925 0.151354 0.704921
0.402106 0.129778 0.742535
0.622202 0.142718 0.750988
0.76759 0.13875 0.762005
0.76759 0.138735 0.76202
0.76759 0.138735 0.76202
0.767575 0.13875 0.76199
0.104707 0.347066 0.757244
0.106416 0.318898 0.762951
0.108293 0.283055 0.765896
0.200824 0.225513 0.764614
0.550637 0.173632 0.771435
0.74757 0.154406 0.765545
0.767681 0.13872 0.76199
0.767681 0.13872 0.761975
0.767681 0.13872 0.76199
0.0477302 0.553552 0.790494
0.0581369 0.536171 0.794949
0.0712444 0.517784 0.800046
0.103182 0.479835 0.817029
0.482078 0.482612 0.836088
0.755962 0.475364 0.831281
0.843229 0.434699 0.828565
0.838209 0.410224 0.823682
0.832349 0.363928 0.808652
0.0487831 0.730465 0.827008
0.0436103 0.719112 0.822293
0.0413825 0.705562 0.819944
0.0353552 0.679484 0.816938
0.230869 0.662943 0.820111
0.694392 0.70074 0.857649
0.877714 0.693111 0.850431
0.897993 0.672938 0.842634
0.890867 0.64181 0.813642
0.097734 0.840894 0.886976
0.0939651 0.834867 0.877668
0.0899672 0.823972 0.865171
0.0843214 0.806424 0.846677
0.0762798 0.782467 0.820768
0.609644 0.827131 0.819196
0.826795 0.851637 0.835111
0.901167 0.826017 0.81944
0.902373 0.805386 0.800076
0.0987259 0.842985 0.899641
0.0966201 0.841611 0.890806
0.0963455 0.841505 0.878569
0.0692149 0.841733 0.855879
0.0614633 0.846906 0.813947
0.433707 0.866346 0.773465
0.780194 0.902861 0.822614
0.866636 0.921218 0.833814
0.879301 0.909026 0.807248
0.0992447 0.842115 0.897093
0.0968032 0.841474 0.884993
0.0939956 0.84181 0.872114
0.0587778 0.843519 0.846448
0.0773938 0.846876 0.796536
0.199054 0.862638 0.739086
0.722316 0.883864 0.782101
0.826642 0.908125 0.802701
0.885191 0.930449 0.853208
0.128832 0.152438 0.710597
0.255238 0.151873 0.733791
0.390127 0.129519 0.742245
0.551217 0.131304 0.747311
0.727626 0.163378 0.764355
0.76759 0.138735 0.76202
0.76759 0.138735 0.76202
0.76759 0.138735 0.76202
0.767529 0.138766 0.761959
0.0937057 0.157046 0.685084
0.128481 0.152438 0.710506
0.280766 0.142428 0.736645
0.497444 0.132753 0.747478
0.682216 0.158114 0.757366
0.76759 0.138735 0.76202
0.76759 0.138735 0.76202
0.76759 0.138735 0.76202
0.767575 0.13875 0.76199
0.100511 0.20676 0.725795
0.0950484 0.164645 0.692332
0.125536 0.152407 0.709682
0.410483 0.130251 0.742992
0.628473 0.144823 0.75227
0.76759 0.138735 0.76202
0.76759 0.13875 0.762005
0.76759 0.138735 0.76202
0.76759 0.138735 0.76202
0.115084 0.346716 0.796185
0.112291 0.311177 0.783413
0.106935 0.259785 0.759838
0.184649 0.193149 0.747692
0.537545 0.149004 0.759335
0.740932 0.15436 0.76376
0.767681 0.13872 0.76199
0.767681 0.13872 0.76199
0.767666 0.13872 0.762005
0.0809033 0.550851 0.838346
0.0920729 0.534874 0.840848
0.100206 0.514473 0.837079
0.116945 0.4663 0.827756
0.463416 0.456352 0.838224
0.738445 0.445686 0.835966
0.835004 0.401282 0.828077
0.829709 0.373083 0.821698
0.820935 0.326452 0.811154
0.0385443 0.732479 0.867231
0.0347143 0.717067 0.865797
0.0307469 0.699504 0.86569
0.033341 0.669032 0.868391
0.196597 0.64126 0.864179
0.664057 0.669795 0.904814
0.851774 0.670329 0.892012
0.888747 0.648188 0.887648
0.882063 0.619562 0.879805
0.0930037 0.839277 0.913344
0.0876326 0.831296 0.906981
0.0809339 0.820966 0.89958
0.0695048 0.802762 0.889845
0.0500038 0.776532 0.885069
0.558328 0.795758 0.887053
0.798993 0.820874 0.916915
0.903655 0.806119 0.904173
0.904128 0.785946 0.896941
0.10045 0.847196 0.918502
0.100282 0.84712 0.918334
0.0981613 0.846754 0.916075
0.0969253 0.844816 0.906737
0.0967269 0.842847 0.891478
0.353948 0.832532 0.852689
0.754452 0.896468 0.881971
0.88835 0.924819 0.90695
0.904082 0.912902 0.900191
0.10045 0.847196 0.918502
0.100435 0.847196 0.918502
0.0978714 0.846723 0.915648
0.0964981 0.843976 0.902663
0.0966049 0.841611 0.879103
0.0713054 0.850752 0.853681
0.651804 0.895109 0.839109
0.858091 0.93341 0.894072
0.91046 0.941039 0.921355
0.137835 0.153079 0.713848
0.266423 0.151568 0.734691
0.396612 0.129915 0.74255
0.555459 0.131228 0.747189
0.732998 0.160433 0.764645
0.76759 0.138735 0.76202
0.76759 0.138735 0.76202
0.76759 0.138735 0.76202
0.76759 0.138735 0.76202
0.0931563 0.154452 0.681758
0.137057 0.153109 0.71371
0.284123 0.136385 0.738094
0.500404 0.132692 0.7476
0.686564 0.15964 0.758373
0.76759 0.138735 0.76202
0.76759 0.138735 0.76202
0.76759 0.138735 0.76202
0.76759 0.138735 0.76202
0.100359 0.204807 0.724636
0.0945754 0.161227 0.689082
0.134264 0.152987 0.713054
0.414328 0.130388 0.743175
0.629892 0.14522 0.752285
0.76759 0.138735 0.76202
0.76759 0.13875 0.762005
0.76759 0.138735 0.76202
0.76759 0.138735 0.76202
0.11339 0.328298 0.790036
0.110384 0.289891 0.774838
0.104143 0.237598 0.747372
0.172045 0.172335 0.734096
0.530129 0.140169 0.753399
0.739498 0.155352 0.76376
0.767666 0.138735 0.76199
0.767666 0.13872 0.762005
0.767666 0.138735 0.76199
0.0898604 0.542351 0.844862
0.0965896 0.523384 0.839689
0.104463 0.50135 0.834394
0.121645 0.449805 0.823392
0.448722 0.431937 0.831922
0.724208 0.415122 0.829419
0.828458 0.363622 0.819806
0.821897 0.334813 0.812818
0.813565 0.283223 0.801724
0.0352483 0.725017 0.877134
0.0310826 0.708202 0.873777
0.0280156 0.689235 0.871092
0.0375525 0.654994 0.868132
0.180957 0.622049 0.861219
0.652888 0.648234 0.901228
0.841779 0.648737 0.88661
0.883558 0.624887 0.881346
0.876417 0.593606 0.873198
0.0908675 0.837934 0.914595
0.0836347 0.829114 0.910033
0.0736095 0.816205 0.903792
0.0596475 0.796124 0.895109
0.0433204 0.762112 0.888319
0.534096 0.77409 0.894987
0.784054 0.801144 0.928298
0.899321 0.788174 0.909438
0.900679 0.766247 0.906828
0.10045 0.847196 0.918502
0.10045 0.847196 0.918502
0.10045 0.847196 0.918502
0.10045 0.847196 0.918502
0.0935073 0.841764 0.915923
0.257038 0.827878 0.891707
0.72256 0.881437 0.914061
0.868605 0.909117 0.926665
0.903929 0.896651 0.923476
0.10045 0.847196 0.918502
0.10045 0.847196 0.918502
0.10045 0.847196 0.918502
0.10045 0.847196 0.918502
0.100603 0.847349 0.918547
0.104723 0.851774 0.919829
0.583703 0.877119 0.895644
0.851377 0.936843 0.920134
0.907561 0.943694 0.927184
