bundles/resolve-cinematic-luts/Phantom Luts/Canon Film LUT/C-Log 3/VisionTeal Canon CL3.cube
TITLE "Generated by Resolve"
LUT_3D_SIZE 5
0.0224308 0.0321508 0.0302892
0.276005 0.0366369 0.0175021
0.609079 0.0232548 0.0473487
0.713146 0.043122 0.145403
0.716152 0.0412909 0.133562
0.033051 0.330037 0.0632944
0.232441 0.263706 0.029572
0.633097 0.211856 0.0555123
0.756664 0.131395 0.0911116
0.766018 0.204669 0.0881208
0.179599 0.767208 0.282338
0.196521 0.718135 0.158999
0.610437 0.636606 0.105898
0.806012 0.671611 0.144091
0.806577 0.655695 0.136873
0.223239 0.863798 0.404501
0.234394 0.837522 0.25098
0.622354 0.791455 0.294743
0.810117 0.821744 0.299641
0.821912 0.82501 0.297902
0.203632 0.881621 0.458976
0.234821 0.836866 0.25037
0.497673 0.79173 0.280156
0.789868 0.820859 0.275532
0.821775 0.825162 0.297642
0.0195773 0.0713207 0.269291
0.307134 0.0149538 0.316991
0.695384 0.0554208 0.463127
0.736278 0.0665293 0.479667
0.73666 0.0752117 0.408576
0.0187839 0.255161 0.195743
0.229084 0.248417 0.229252
0.64184 0.0390936 0.187289
0.734783 0.0532235 0.240284
0.731228 0.0411383 0.10956
0.0966201 0.737667 0.422324
0.143893 0.711101 0.267414
0.581949 0.604898 0.0995193
0.808591 0.632853 0.130541
0.807385 0.614618 0.133486
0.167178 0.909957 0.587808
0.219562 0.86836 0.417166
0.516136 0.790066 0.284504
0.797955 0.819318 0.292515
0.825025 0.824109 0.275395
0.16997 0.913207 0.61091
0.197009 0.884352 0.468162
0.377218 0.808255 0.264118
0.769665 0.811795 0.275303
0.821759 0.825193 0.297597
0.0193027 0.152316 0.560235
0.322225 0.0612497 0.622049
0.683528 0.0762341 0.720638
0.752163 0.0964828 0.795666
0.75375 0.090135 0.750301
0.0192569 0.242023 0.493965
0.0194858 0.137179 0.545556
0.609751 0.0560006 0.640589
0.753353 0.101244 0.724361
0.764736 0.106004 0.676936
0.0567941 0.661677 0.596857
0.0497902 0.638422 0.575616
0.652506 0.64683 0.619058
0.86978 0.55079 0.577646
0.854582 0.543267 0.507301
0.118059 0.924361 0.76022
0.134127 0.924575 0.720043
0.223865 0.880766 0.477485
0.772946 0.803143 0.416297
0.811353 0.793881 0.371817
0.11667 0.924987 0.761074
0.139834 0.924025 0.713405
0.158221 0.8934 0.483421
0.714046 0.806912 0.273289
0.823621 0.82504 0.30013
0.0195621 0.248173 0.711269
0.341268 0.145724 0.804776
0.715145 0.134081 0.832425
0.756832 0.116258 0.833921
0.756741 0.116289 0.833768
0.0196994 0.326802 0.704753
0.0195621 0.248447 0.710246
0.634882 0.139757 0.825147
0.756832 0.116258 0.833906
0.756817 0.116258 0.833906
0.021088 0.66949 0.761959
0.0210575 0.629938 0.763867
0.48011 0.561578 0.843
0.837308 0.462776 0.871702
0.824872 0.394705 0.859388
0.143313 0.925322 0.866224
0.139879 0.913863 0.857328
0.127016 0.878187 0.826108
0.845777 0.855314 0.833722
0.910201 0.815229 0.808042
0.142519 0.927077 0.870985
0.147936 0.923644 0.856214
0.109682 0.927626 0.801633
0.715999 0.892561 0.764202
0.906722 0.922866 0.842023
0.0196231 0.247822 0.726986
0.365423 0.145083 0.806317
0.728954 0.130205 0.833646
0.756832 0.116258 0.833921
0.756802 0.116274 0.83389
0.0198062 0.324239 0.706493
0.0196384 0.248264 0.725322
0.641871 0.140841 0.825727
0.756848 0.116258 0.833921
0.756832 0.116258 0.833921
0.0211643 0.657755 0.799863
0.0210422 0.613626 0.788098
0.438499 0.518853 0.839857
0.822492 0.400168 0.870573
0.808957 0.318502 0.862089
0.128649 0.928771 0.882856
0.119814 0.915526 0.881071
0.0750896 0.8757 0.871275
0.802396 0.820325 0.904433
0.899962 0.778531 0.910719
0.133135 0.934508 0.88304
0.133135 0.934508 0.88304
0.133211 0.934646 0.883085
0.625971 0.891127 0.856565
0.93022 0.941421 0.923049
