bundles/resolve-cinematic-luts/Gamut/CINECLIPSE+/Cineclipse 06.cube
TITLE "Cineclipse 06 by Gamut"
# Version 1.0 - 07/22/2024 - Designed for Rec.709 Color Space. Copyright 2024 Gamut, LLC
LUT_3D_SIZE 33
0.0746640000 0.0741580000 0.0731370000
0.0867640937 0.0746640000 0.0726380938
0.0956211875 0.0751680000 0.0716488750
0.1065873125 0.0746640000 0.0685448438
0.1186091250 0.0746007500 0.0652938750
0.1346024687 0.0746640000 0.0614194375
0.1570246875 0.0746640000 0.0561481250
0.1890266250 0.0733603438 0.0459651875
0.2232865000 0.0707957500 0.0325285000
0.2562019062 0.0686966250 0.0199114062
0.2863158125 0.0669275625 0.0088220000
0.3127756250 0.0662020000 0.0010841875
0.3361460000 0.0652953750 0.0000000000
0.3574069687 0.0641837500 0.0000000000
0.3771972500 0.0630580000 0.0000000000
0.3954659375 0.0619167500 0.0000000000
0.4122900000 0.0610560000 0.0000000000
0.4281449688 0.0601846250 0.0000000000
0.4431669375 0.0596050625 0.0000000000
0.4579155625 0.0590212188 0.0000000000
0.4716843750 0.0578227500 0.0000000000
0.4847097500 0.0563896250 0.0000000000
0.4965281875 0.0545330625 0.0000000000
0.5070762187 0.0528177813 0.0000000000
0.5167137500 0.0508520000 0.0000000000
0.5252020938 0.0486811563 0.0000000000
0.5336443750 0.0467586875 0.0000000000
0.5420989375 0.0454630000 0.0000000000
0.5508532500 0.0446463750 0.0000000000
0.5594428125 0.0432640000 0.0000000000
0.5681221250 0.0425160000 0.0000000000
0.5773839062 0.0417350937 0.0000000000
0.5868970000 0.0409940000 0.0000000000
0.0711088125 0.0790102813 0.0705658437
0.0849803750 0.0818001562 0.0726058125
0.0979184375 0.0836121875 0.0750729688
0.1101219375 0.0857978125 0.0732001562
0.1233542500 0.0850377500 0.0691333125
0.1393852812 0.0849953750 0.0648866250
0.1618791250 0.0837989062 0.0581717812
0.1935749063 0.0819900625 0.0468034688
0.2277926563 0.0801305938 0.0340815937
0.2611201563 0.0785844375 0.0220308438
0.2914754687 0.0776100625 0.0111387187
0.3179943438 0.0761620937 0.0026365625
0.3416831250 0.0756631250 0.0002712187
0.3635826562 0.0746739375 0.0000000000
0.3832367812 0.0736915625 0.0000000000
0.4016605000 0.0726811562 0.0000000000
0.4190155000 0.0716595625 0.0000000000
0.4352586563 0.0703778125 0.0000000000
0.4505326562 0.0690630937 0.0000000000
0.4652218125 0.0680171875 0.0000000000
0.4791901563 0.0667144375 0.0000000000
0.4923592500 0.0650973437 0.0000000000
0.5045038438 0.0634292188 0.0000000000
0.5149600313 0.0611606875 0.0000000000
0.5243815312 0.0594123125 0.0000000000
0.5332495312 0.0570284375 0.0000000000
0.5417571875 0.0551661875 0.0000000000
0.5501018438 0.0527741250 0.0000000000
0.5589469375 0.0513909375 0.0000000000
0.5677673125 0.0494958750 0.0000000000
0.5767948438 0.0474626875 0.0000000000
0.5860526563 0.0460905625 0.0000000000
0.5957391875 0.0446685625 0.0000000000
0.0705330000 0.0840872500 0.0705330000
0.0836084063 0.0858868437 0.0725731875
0.0963833750 0.0901604375 0.0751048750
0.1080976875 0.0918991563 0.0761358750
0.1239775625 0.0939185625 0.0727818125
0.1410769375 0.0947603125 0.0691333125
0.1653082500 0.0940493750 0.0622520625
0.1979034375 0.0916994375 0.0502061563
0.2331401875 0.0899176250 0.0369578750
0.2666584063 0.0882016875 0.0243229375
0.2968776875 0.0867916875 0.0132581250
0.3232318438 0.0859110625 0.0049779375
0.3475257500 0.0850512500 0.0005421250
0.3696009687 0.0841551875 0.0000000000
0.3896947500 0.0830779375 0.0000000000
0.4086340313 0.0823372813 0.0000000000
0.4261850625 0.0814158125 0.0000000000
0.4428418750 0.0804540000 0.0000000000
0.4586042500 0.0793036250 0.0000000000
0.4734346563 0.0776554375 0.0000000000
0.4879657500 0.0761915000 0.0000000000
0.5008293750 0.0744980000 0.0000000000
0.5128386875 0.0725177500 0.0000000000
0.5234743125 0.0703091875 0.0000000000
0.5326302500 0.0678441875 0.0000000000
0.5418373125 0.0656727187 0.0000000000
0.5506968125 0.0634450625 0.0000000000
0.5593175938 0.0611960313 0.0000000000
0.5682073750 0.0588444375 0.0000000000
0.5773483437 0.0565228750 0.0000000000
0.5866922500 0.0546091875 0.0000000000
0.5959763125 0.0527525625 0.0000000000
0.6059470000 0.0501760000 0.0000000000
0.0690342188 0.0897444688 0.0705330000
0.0813868750 0.0918181563 0.0725895625
0.0939820937 0.0962805000 0.0755270937
0.1069936562 0.0990676875 0.0775537500
0.1193870312 0.1006437187 0.0775537500
0.1395869688 0.1036194063 0.0733743750
0.1668314375 0.1037279063 0.0657042188
0.2015938750 0.1033200625 0.0552863750
0.2371940312 0.1011758125 0.0416150937
0.2709535937 0.0995329375 0.0290786250
0.3014397188 0.0979660000 0.0179893125
0.3289872812 0.0970870000 0.0092165937
0.3534534375 0.0956664063 0.0023164062
0.3755772187 0.0944573125 0.0002465625
0.3963203750 0.0935092812 0.0000000000
0.4156569062 0.0920379688 0.0000000000
0.4332363750 0.0910421563 0.0000000000
0.4502278438 0.0898071250 0.0000000000
0.4661889375 0.0883228750 0.0000000000
0.4816863125 0.0870251250 0.0000000000
0.4963784688 0.0857108438 0.0000000000
0.5095534063 0.0839214062 0.0000000000
0.5215666250 0.0819527188 0.0000000000
0.5321007813 0.0796764062 0.0000000000
0.5415022188 0.0772975312 0.0000000000
0.5506695625 0.0745125313 0.0000000000
0.5599317812 0.0724011563 0.0000000000
0.5691062500 0.0699087500 0.0000000000
0.5783787500 0.0672959375 0.0000000000
0.5876674687 0.0646011563 0.0000000000
0.5972780312 0.0623448125 0.0000000000
0.6071168125 0.0600264687 0.0000000000
0.6175340938 0.0577006875 0.0000000000
0.0674411250 0.0985180000 0.0715185000
0.0785987812 0.1008460625 0.0739980938
0.0906968750 0.1042190625 0.0764750625
0.1040927812 0.1088989375 0.0793243750
0.1182728750 0.1097428750 0.0799402500
0.1338464062 0.1113981562 0.0802963750
0.1617541250 0.1159966250 0.0738988125
0.2017176875 0.1171381563 0.0619325938
0.2408947500 0.1171220000 0.0499830000
0.2760321875 0.1158192188 0.0374465625
0.3072095000 0.1138733125 0.0263676250
0.3348931562 0.1124260313 0.0173239062
0.3597632500 0.1104463750 0.0095612500
0.3823899375 0.1086176875 0.0030311562
0.4032359375 0.1072214375 0.0009366250
0.4224887187 0.1054337812 0.0006903750
0.4405292500 0.1036172500 0.0000000000
0.4575758437 0.1021579375 0.0000000000
0.4739833125 0.1004575625 0.0000000000
0.4895894688 0.0982238750 0.0000000000
0.5040163750 0.0959433750 0.0000000000
0.5174927813 0.0938317188 0.0000000000
0.5291985625 0.0913078125 0.0000000000
0.5397679687 0.0891804062 0.0000000000
0.5496862500 0.0870082500 0.0000000000
0.5593280938 0.0846885313 0.0000000000
0.5691588125 0.0821130625 0.0000000000
0.5789502187 0.0797035625 0.0000000000
0.5887690000 0.0768331250 0.0000000000
0.5987937813 0.0739382187 0.0000000000
0.6087484375 0.0714059375 0.0000000000
0.6192322813 0.0688008125 0.0000000000
0.6298288750 0.0661898750 0.0000000000
0.0652595313 0.1091487188 0.0739180000
0.0752880000 0.1109733750 0.0759793438
0.0864996563 0.1140454375 0.0783745313
0.1000035625 0.1183939063 0.0811989063
0.1147030937 0.1236133750 0.0826033750
0.1322575313 0.1237307813 0.0822699062
0.1551259688 0.1264271250 0.0826030937
0.1946425625 0.1332550312 0.0739098125
0.2380059687 0.1355838125 0.0600110625
0.2768756562 0.1355405937 0.0488545625
0.3111577500 0.1351918750 0.0389928125
0.3406427812 0.1343164062 0.0302125000
0.3665971250 0.1326534688 0.0216613437
0.3900526563 0.1306312187 0.0143666562
0.4112374375 0.1283577188 0.0084033750
0.4308032188 0.1260337500 0.0034004062
0.4491383438 0.1235239063 0.0017250938
0.4664165312 0.1210646875 0.0009612188
0.4827155938 0.1177919688 0.0006657188
0.4984913437 0.1143930000 0.0003451875
0.5130196562 0.1108867500 0.0000000000
0.5260843125 0.1074316875 0.0000000000
0.5375278750 0.1040516562 0.0000000000
0.5479967500 0.1010865938 0.0000000000
0.5578823125 0.0981719688 0.0000000000
0.5677286875 0.0950420938 0.0000000000
0.5779808437 0.0923210000 0.0000000000
0.5884135625 0.0897280938 0.0000000000
0.5990523437 0.0869080625 0.0000000000
0.6096303750 0.0842434063 0.0000000000
0.6202900625 0.0814764688 0.0000000000
0.6313823125 0.0782840000 0.0000000000
0.6424401562 0.0758685625 0.0000000000
0.0609031250 0.1232247500 0.0777651875
0.0703279063 0.1247482500 0.0787215313
0.0811793750 0.1278247500 0.0806820625
0.0945485000 0.1322580625 0.0838710000
0.1092913125 0.1379665625 0.0853095625
0.1276187500 0.1444669375 0.0865435000
0.1532196250 0.1446424375 0.0854523125
0.1868870313 0.1480505625 0.0852227500
0.2285701875 0.1553735625 0.0761224375
0.2700871250 0.1589533750 0.0650598750
0.3080003750 0.1591930000 0.0536580625
0.3407288750 0.1584789688 0.0446995938
0.3697960000 0.1578817500 0.0369130000
0.3954649375 0.1573359375 0.0305570938
0.4181812500 0.1554880625 0.0237556875
0.4387000000 0.1528489062 0.0172010625
0.4577077500 0.1499121250 0.0112863125
0.4757465625 0.1466590625 0.0062595313
0.4927656250 0.1425658125 0.0037948750
0.5089358438 0.1383114375 0.0023904375
0.5234713125 0.1333911250 0.0014292500
0.5362283125 0.1283923750 0.0006410625
0.5475531875 0.1234908125 0.0006410625
0.5578015625 0.1184952813 0.0006410625
0.5675641250 0.1137882500 0.0000000000
0.5776353438 0.1094422500 0.0000000000
0.5880870625 0.1056056875 0.0000000000
0.5986044688 0.1017733750 0.0000000000
0.6095241875 0.0981805625 0.0000000000
0.6203685937 0.0950640937 0.0000000000
0.6319966875 0.0918815000 0.0000000000
0.6435757187 0.0893450625 0.0000000000
0.6548225625 0.0871894375 0.0000000000
0.0567354375 0.1393142500 0.0810655937
0.0649713125 0.1409306875 0.0828178438
0.0754723125 0.1441915937 0.0846110937
0.0887298750 0.1483782500 0.0868905000
0.1047823438 0.1543995625 0.0890095937
0.1217968437 0.1618942812 0.0900152500
0.1490216250 0.1693338437 0.0896235937
0.1831225938 0.1667540625 0.0877543125
0.2201132500 0.1720712500 0.0881614062
0.2598732187 0.1796820937 0.0815565000
0.2968927500 0.1831939375 0.0725221875
0.3321664687 0.1846078125 0.0633507188
0.3650670938 0.1848508750 0.0544593125
0.3936031250 0.1844625938 0.0475411875
0.4192911875 0.1838210625 0.0412108125
0.4424201563 0.1826552500 0.0348944062
0.4637932500 0.1810572813 0.0294729687
0.4836891250 0.1785336563 0.0238791562
0.5021056875 0.1742531875 0.0172256875
0.5190510000 0.1690812812 0.0113602187
0.5341995000 0.1632642188 0.0065796250
0.5472978125 0.1571292188 0.0045588438
0.5588792812 0.1510822187 0.0031788750
0.5694761250 0.1446815000 0.0020210313
0.5793988750 0.1381168437 0.0014046250
0.5897745313 0.1318264375 0.0007890000
0.6002031562 0.1255973437 0.0006164062
0.6106330313 0.1196207187 0.0006164062
0.6213362500 0.1140641562 0.0000000000
0.6325235625 0.1094464063 0.0000000000
0.6441291250 0.1053697500 0.0000000000
0.6557385937 0.1017923750 0.0000000000
0.6672345312 0.0988952187 0.0000000000
0.0521772500 0.1580305000 0.0862890000
0.0603081250 0.1603029687 0.0879239687
0.0703254375 0.1630122500 0.0889966875
0.0837868125 0.1673560312 0.0910860313
0.0998441250 0.1731505000 0.0927945000
0.1168211563 0.1802300000 0.0937119687
0.1422441875 0.1908385625 0.0945424375
0.1811224688 0.1957952500 0.0918086250
0.2154375000 0.1916860000 0.0906770000
0.2508242188 0.1963389063 0.0919373125
0.2864913750 0.2029256875 0.0876733125
0.3201822500 0.2065734063 0.0808680938
0.3522965000 0.2087007500 0.0736652500
0.3833735312 0.2097242187 0.0663294688
0.4130566875 0.2104211250 0.0595759375
0.4393677813 0.2100750312 0.0533080000
0.4634707500 0.2095685000 0.0475082500
0.4856795313 0.2080517500 0.0417843438
0.5065632500 0.2056400000 0.0362743750
0.5258089062 0.2024466562 0.0303848125
0.5428900000 0.1982633750 0.0246428750
0.5573970625 0.1922249062 0.0188273125
0.5698118125 0.1855395000 0.0130111250
0.5812856562 0.1783123125 0.0082058438
0.5921200000 0.1702147500 0.0059142500
0.6030230937 0.1620449063 0.0039673750
0.6138328750 0.1541770625 0.0026120000
0.6245857500 0.1462684063 0.0018484687
0.6355070000 0.1385385000 0.0013800000
0.6467741875 0.1315795625 0.0007890000
0.6580524375 0.1249876875 0.0005917500
0.6691462812 0.1194280312 0.0005670937
0.6804547500 0.1147725000 0.0000000000
0.0486807188 0.1784407188 0.0918705625
0.0565807187 0.1807560000 0.0930017812
0.0659510625 0.1838231875 0.0942403125
0.0786490937 0.1878961875 0.0955423125
0.0954979375 0.1936774063 0.0972588125
0.1124014063 0.2003390625 0.0976996875
0.1365775938 0.2099703750 0.0984875625
0.1743691562 0.2215045000 0.0983987813
0.2151520313 0.2213833437 0.0951120000
0.2461905313 0.2164513125 0.0943252812
0.2777305625 0.2191393750 0.0956078750
0.3106035938 0.2251921250 0.0938088437
0.3414280312 0.2293486563 0.0894274375
0.3709703125 0.2317376250 0.0840679375
0.3998164062 0.2334091562 0.0780133438
0.4282287500 0.2345852812 0.0724296875
0.4554441250 0.2352431250 0.0665270937
0.4813543750 0.2354207188 0.0610686563
0.5048714687 0.2341312812 0.0552240000
0.5264056250 0.2320432500 0.0495962188
0.5455593125 0.2290173437 0.0440053750
0.5620209687 0.2249484688 0.0383067187
0.5766536875 0.2198749063 0.0324052813
0.5900144375 0.2139140938 0.0261955625
0.6026183438 0.2065032187 0.0204289375
0.6150002187 0.1982387187 0.0138740312
0.6269749688 0.1895453750 0.0091918125
0.6386693125 0.1804291563 0.0066537500
0.6502656250 0.1709609687 0.0047559375
0.6619043750 0.1618826250 0.0032035938
0.6734233438 0.1536456875 0.0026612187
0.6843727500 0.1458185625 0.0013553750
0.6955972188 0.1386807500 0.0013553750
0.0464031875 0.1992227500 0.0975731250
0.0539086250 0.2012061562 0.0983490313
0.0630135625 0.2046573125 0.0997841250
0.0755125625 0.2084457188 0.1005822187
0.0923995625 0.2136565625 0.1018111250
0.1096838125 0.2196953125 0.1022345938
0.1320050625 0.2288453125 0.1027288125
0.1674608437 0.2414282188 0.1025875313
0.2093971875 0.2474718750 0.0998645625
0.2466796563 0.2450911562 0.0985010000
0.2743670625 0.2399848750 0.0979537500
0.3026507813 0.2409075000 0.0995409688
0.3326990000 0.2464760625 0.0988224375
0.3614801250 0.2510005000 0.0962512812
0.3888963125 0.2538462500 0.0924911875
0.4156088437 0.2557175000 0.0881115625
0.4423913750 0.2570310000 0.0830723750
0.4690159063 0.2581239375 0.0780209375
0.4949672500 0.2584810000 0.0729827500
0.5195152188 0.2581031250 0.0677643125
0.5418177500 0.2566268750 0.0624060625
0.5607766250 0.2539302500 0.0568920937
0.5773599375 0.2501671250 0.0513902500
0.5928240625 0.2455358750 0.0457342500
0.6077457500 0.2398595625 0.0395788125
0.6223380312 0.2334044063 0.0331696250
0.6363200000 0.2257438125 0.0268114375
0.6497167188 0.2171485000 0.0203302812
0.6629409375 0.2080626875 0.0142926875
0.6757133750 0.1985325000 0.0102023125
0.6879222500 0.1889463750 0.0073925625
0.6997312812 0.1795873125 0.0052984062
0.7113823125 0.1705453750 0.0039919375
0.0449872188 0.2185310938 0.1029916562
0.0524466250 0.2211207500 0.1037309687
0.0611592813 0.2243071250 0.1044893125
0.0733592812 0.2278815625 0.1052307500
0.0897956875 0.2327798438 0.1060497188
0.1072885937 0.2383297813 0.1061442188
0.1278288750 0.2461022500 0.1061442188
0.1607231562 0.2580866562 0.1059007500
0.2014316250 0.2695042813 0.1047040625
0.2423501875 0.2708796250 0.1019382500
0.2751540000 0.2673907500 0.1015847500
0.3005078750 0.2625370938 0.1014658437
0.3262209063 0.2622776250 0.1027296875
0.3539304063 0.2670383750 0.1027416250
0.3807290625 0.2713614688 0.1015216563
0.4062917500 0.2744256563 0.0987551563
0.4313448750 0.2764605937 0.0954315937
0.4564484375 0.2778345938 0.0912279062
0.4818010625 0.2788727188 0.0872233750
0.5070457500 0.2794925625 0.0827542813
0.5308633437 0.2793815312 0.0780715938
0.5524679375 0.2783805625 0.0735029375
0.5719032188 0.2763263125 0.0684789688
0.5899567500 0.2733298125 0.0633450937
0.6070225625 0.2691485000 0.0577022500
0.6235152188 0.2641594063 0.0518810313
0.6395964375 0.2583259375 0.0457658750
0.6554074062 0.2516513750 0.0393009062
0.6707282187 0.2441754687 0.0330463437
0.6852956250 0.2355034375 0.0264174062
0.6991054688 0.2265129375 0.0204781875
0.7124382500 0.2173214063 0.0148351250
0.7255346875 0.2080441250 0.0115085000
0.0442798750 0.2365588750 0.1071986250
0.0511419375 0.2393492188 0.1079225313
0.0594098750 0.2423225000 0.1086422500
0.0705688125 0.2458471250 0.1090295000
0.0865428750 0.2500782500 0.1094830000
0.1034747187 0.2555093438 0.1095286250
0.1231201875 0.2626806875 0.1091667500
0.1540951563 0.2739547187 0.1088032500
0.1929722500 0.2869846250 0.1087572500
0.2342547500 0.2930305313 0.1059940625
0.2711302500 0.2925831875 0.1044695625
0.3010310937 0.2893041250 0.1047283750
0.3247336250 0.2846846250 0.1047283750
0.3487837500 0.2837046250 0.1058423750
0.3739355000 0.2867181875 0.1062268750
0.3991576875 0.2906842813 0.1057474062
0.4232871250 0.2937252500 0.1038245000
0.4469578125 0.2957900625 0.1010791250
0.4706028125 0.2971369375 0.0978140000
0.4945612500 0.2981383437 0.0941915937
0.5180595000 0.2985146250 0.0904415000
0.5404908125 0.2983774375 0.0863781250
0.5614771875 0.2976643125 0.0824648125
0.5810791875 0.2961317500 0.0782555312
0.6002285000 0.2937272500 0.0734655000
0.6191094375 0.2905625625 0.0684711875
0.6375659375 0.2864776875 0.0626173750
0.6553849062 0.2814370313 0.0569474687
0.6727125000 0.2757425000 0.0512456250
0.6894670312 0.2692586563 0.0447042188
0.7054627500 0.2621520625 0.0387995625
0.7209853750 0.2543419062 0.0326271875
0.7361865000 0.2461860000 0.0267132500
0.0423704062 0.2531308438 0.1105646250
0.0487211562 0.2557679375 0.1112680313
0.0570457812 0.2589247500 0.1119682188
0.0673922813 0.2624080937 0.1119905312
0.0823439063 0.2663665312 0.1122996563
0.0997200000 0.2713566563 0.1123441563
0.1188427500 0.2781192813 0.1117809375
0.1474456250 0.2886522188 0.1116359062
0.1848240625 0.3019076562 0.1116359062
0.2253726563 0.3125243750 0.1105752500
0.2639414688 0.3149682500 0.1081073438
0.2975410312 0.3138999375 0.1076600000
0.3248820937 0.3104460938 0.1076600000
0.3473993750 0.3061239062 0.1078103125
0.3699199687 0.3043359688 0.1087349687
0.3931197500 0.3058552500 0.1094608438
0.4166667500 0.3090993750 0.1093350625
0.4397350000 0.3120360625 0.1081834688
0.4623063438 0.3140070938 0.1060471875
0.4846560313 0.3152335312 0.1031309062
0.5068277500 0.3158770000 0.0999144063
0.5286658750 0.3160229688 0.0966010312
0.5495996562 0.3157393125 0.0931108438
0.5698640625 0.3150853750 0.0895747500
0.5898242812 0.3139127812 0.0860999375
0.6099386562 0.3122047813 0.0817363437
0.6299614688 0.3097246250 0.0772877813
0.6498973750 0.3064963125 0.0723179062
0.6694374063 0.3025811250 0.0670587813
0.6884672813 0.2979863750 0.0617108750
0.7065985000 0.2927551250 0.0560342812
0.7244554062 0.2871074375 0.0506046563
0.7421776250 0.2811384062 0.0451028750
0.0405569375 0.2680720000 0.1131593125
0.0463786875 0.2708202812 0.1134986250
0.0539676875 0.2742193125 0.1141853750
0.0636379687 0.2774424688 0.1144018750
0.0777076250 0.2812850000 0.1147486250
0.0954674688 0.2863558750 0.1150943750
0.1143301875 0.2924590625 0.1144673125
0.1410186250 0.3022987812 0.1141306875
0.1767913750 0.3153541250 0.1144018750
0.2163221875 0.3283530000 0.1146940938
0.2553018125 0.3346896250 0.1126301250
0.2909674063 0.3357548750 0.1108437500
0.3215844375 0.3340438125 0.1105197500
0.3471653750 0.3305855000 0.1108775000
0.3687613125 0.3263826250 0.1108775000
0.3897646250 0.3239785625 0.1115803438
0.4113307500 0.3241738750 0.1122779375
0.4335864063 0.3266429063 0.1124973750
0.4555956875 0.3293151875 0.1118340000
0.4771051562 0.3311054062 0.1101686250
0.4980975625 0.3320873125 0.1075615625
0.5186999063 0.3323540625 0.1047548437
0.5387506250 0.3321776875 0.1018280625
0.5584926250 0.3317163750 0.0986261875
0.5782606875 0.3310699375 0.0955570625
0.5984182500 0.3301411875 0.0921879375
0.6192470625 0.3288641875 0.0884594375
0.6403112812 0.3270955312 0.0842852812
0.6614628125 0.3247886875 0.0798670625
0.6824343750 0.3219097188 0.0755388125
0.7028401875 0.3186166250 0.0707444375
0.7229589687 0.3148829062 0.0662163750
0.7429558750 0.3109376875 0.0611518125
0.0382213750 0.2819094375 0.1148684375
0.0438379375 0.2848309688 0.1157296563
0.0507631875 0.2881540000 0.1162230937
0.0605060000 0.2916484375 0.1167660938
0.0736865000 0.2952935938 0.1169268750
0.0908755625 0.3000074062 0.1172135313
0.1099593438 0.3060761562 0.1171069687
0.1348904687 0.3153201875 0.1167660937
0.1689152187 0.3278587813 0.1170212188
0.2074800000 0.3413405312 0.1174458438
0.2460605313 0.3513516875 0.1169997812
0.2825376875 0.3547907188 0.1147375625
0.3156684063 0.3550929375 0.1136286875
0.3439153437 0.3529838750 0.1136616875
0.3679103125 0.3495409687 0.1136616875
0.3887969688 0.3454159375 0.1136616875
0.4086324687 0.3424661562 0.1139997188
0.4289994375 0.3417314062 0.1150296875
0.4500448438 0.3435326563 0.1153960625
0.4709115625 0.3456247812 0.1149309375
0.4912291563 0.3470016563 0.1136049688
0.5108825000 0.3477290625 0.1115766875
0.5297497187 0.3475951875 0.1089224062
0.5483999375 0.3471096875 0.1061021250
0.5673241875 0.3464920938 0.1033103750
0.5868354375 0.3458290000 0.1004667187
0.6073156562 0.3451840937 0.0973377187
0.6286750625 0.3442777500 0.0938520312
0.6505421250 0.3431351875 0.0901563438
0.6728231250 0.3417787500 0.0864453125
0.6948468125 0.3400100313 0.0826605000
0.7169004062 0.3379160937 0.0786822812
0.7387761250 0.3357604375 0.0748044375
0.0358800000 0.2947555000 0.1165540000
0.0420410312 0.2979502500 0.1175628750
0.0487186250 0.3014672500 0.1183747500
0.0575807187 0.3050098438 0.1188884062
0.0699106250 0.3086473750 0.1190865000
0.0866423438 0.3130445312 0.1194200000
0.1055890625 0.3189115625 0.1194200000
0.1285916875 0.3274456875 0.1195855000
0.1610560000 0.3395130000 0.1197530000
0.1986728437 0.3530328437 0.1203228437
0.2366434375 0.3649811875 0.1208482500
0.2731914687 0.3712955000 0.1189282187
0.3074262500 0.3733671250 0.1171495000
0.3380931875 0.3729197187 0.1163825000
0.3644604375 0.3704282500 0.1163825000
0.3876963437 0.3671965938 0.1165520000
0.4077615000 0.3631175000 0.1163825000
0.4267950938 0.3600561250 0.1167129062
0.4461981875 0.3588433750 0.1175524375
0.4659764063 0.3595857500 0.1180475937
0.4855092500 0.3609373750 0.1177420000
0.5044528125 0.3618048750 0.1166049687
0.5225934375 0.3620181875 0.1148551250
0.5403311250 0.3616703750 0.1126160312
0.5579810000 0.3610145000 0.1101560000
0.5763344688 0.3603071875 0.1073775625
0.5957904375 0.3597203750 0.1045080000
0.6164804063 0.3592488750 0.1016107813
0.6382990000 0.3587951250 0.0985137500
0.6609232187 0.3582131250 0.0953651875
0.6838886250 0.3575686875 0.0922499375
0.7071025000 0.3568182500 0.0888657812
0.7303240000 0.3560205000 0.0858170000
0.0351161563 0.3066772500 0.1182169687
0.0405315938 0.3102467500 0.1193797188
0.0467082812 0.3138367813 0.1201996562
0.0551816250 0.3173690937 0.1208500937
0.0667823125 0.3210285625 0.1213634687
0.0826903125 0.3253592500 0.1216915937
0.1014112500 0.3309640000 0.1221700625
0.1226288750 0.3387037813 0.1223443125
0.1532764688 0.3500258750 0.1223443125
0.1896733438 0.3634307187 0.1231350000
0.2273025312 0.3763081563 0.1238615625
0.2636566875 0.3854402188 0.1231960313
0.2981042187 0.3891235625 0.1210550313
0.3303106875 0.3903042187 0.1196695625
0.3589991250 0.3892795000 0.1190447187
0.3842341875 0.3868022187 0.1190447188
0.4065129062 0.3836469375 0.1192122188
0.4259707188 0.3797413438 0.1190447188
0.4442368125 0.3765689375 0.1192226875
0.4626817187 0.3748930625 0.1198681875
0.4811335937 0.3746809063 0.1203442188
0.4992565000 0.3751845312 0.1200435625
0.5166959688 0.3753882500 0.1191483125
0.5336159687 0.3751623438 0.1178253750
0.5503712188 0.3746939062 0.1158776563
0.5675754375 0.3740238125 0.1135706875
0.5857061875 0.3733672500 0.1109499688
0.6052182500 0.3728726562 0.1083533437
0.6261486563 0.3725540938 0.1055533438
0.6482115000 0.3723757188 0.1029493750
0.6712652188 0.3723236562 0.1000718438
0.6948671875 0.3723578437 0.0973350312
0.7185720000 0.3724430313 0.0945264063
0.0335638125 0.3177345625 0.1197129375
0.0389852188 0.3216053437 0.1211587187
0.0449616250 0.3252683125 0.1219991875
0.0529937500 0.3288747812 0.1229234375
0.0635370625 0.3324281875 0.1235598750
0.0788646250 0.3366313750 0.1240538438
0.0970184375 0.3420985625 0.1248240625
0.1174279375 0.3491299062 0.1248842500
0.1456576250 0.3597306250 0.1249842500
0.1806978438 0.3726867500 0.1255206250
0.2178684375 0.3860405000 0.1263716250
0.2541034688 0.3970287500 0.1267162500
0.2886773750 0.4029147500 0.1248836875
0.3214202500 0.4052687188 0.1230350937
0.3517896875 0.4056841875 0.1217941875
0.3788430625 0.4042602813 0.1216506875
0.4030916875 0.4019071875 0.1216506875
