bundles/resolve-cinematic-luts/Gamut/CINECLIPSE+/Cineclipse 05.cube
TITLE "Cineclipse 05 by Gamut"
# Version 1.0 - 07/22/2024 - Designed for Rec.709 Color Space. Copyright 2024 Gamut, LLC
LUT_3D_SIZE 33
0.0766620000 0.0776460000 0.0781340000
0.0859138125 0.0790869063 0.0786190000
0.0947989375 0.0800301250 0.0791020000
0.1030020313 0.0809655625 0.0791020000
0.1116737500 0.0823577500 0.0777676250
0.1216085625 0.0820228125 0.0749761875
0.1347998125 0.0807131875 0.0710212500
0.1566771875 0.0784507500 0.0632177187
0.1878690000 0.0767852500 0.0531242500
0.2222263437 0.0761670000 0.0424528438
0.2534475000 0.0760113750 0.0335638750
0.2811444375 0.0769855313 0.0268363125
0.3067462500 0.0787390000 0.0221788750
0.3306250000 0.0798658125 0.0195666563
0.3537854375 0.0812749375 0.0176937500
0.3756427813 0.0829084687 0.0161408437
0.3968570000 0.0842600000 0.0145885000
0.4178405938 0.0860429375 0.0138246250
0.4381293750 0.0877948750 0.0122722500
0.4575929062 0.0895172187 0.0115084687
0.4751385000 0.0910521250 0.0102510000
0.4906858750 0.0923130625 0.0091917812
0.5054466875 0.0936893125 0.0084277500
0.5201869688 0.0949074688 0.0076640937
0.5354387500 0.0965177500 0.0069000000
0.5521285938 0.0981047813 0.0061364063
0.5699928750 0.0997428750 0.0055200000
0.5896708750 0.1020473125 0.0047310000
0.6105050000 0.1047296250 0.0047310000
0.6338214688 0.1084954687 0.0055939687
0.6638129375 0.1150236250 0.0080338125
0.7085109375 0.1285168125 0.0144158125
0.7725170000 0.1523120000 0.0283890000
0.0752146875 0.0832552812 0.0786190000
0.0845863438 0.0846011563 0.0790869063
0.0939975937 0.0859436875 0.0800450625
0.1044376562 0.0876825000 0.0805211250
0.1137073437 0.0889851250 0.0800896875
0.1243261563 0.0886722812 0.0773533437
0.1376174062 0.0874341250 0.0726310313
0.1604633125 0.0856901875 0.0654525313
0.1921330625 0.0839008437 0.0543979688
0.2268940937 0.0832104688 0.0439227500
0.2579248125 0.0830805313 0.0350918750
0.2860025000 0.0839716562 0.0283886562
0.3115946562 0.0856037500 0.0242237500
0.3362093125 0.0870864688 0.0210943750
0.3598597813 0.0884114375 0.0192461250
0.3821008750 0.0899341563 0.0176937500
0.4035251562 0.0916074375 0.0161408438
0.4242591250 0.0932685937 0.0145885000
0.4448215625 0.0949044062 0.0138246250
0.4642277812 0.0965148750 0.0122722500
0.4814585937 0.0981020000 0.0110400000
0.4969561250 0.0992713750 0.0102263750
0.5117165313 0.1008064063 0.0094383437
0.5268073125 0.1022259062 0.0086493750
0.5422702500 0.1034717187 0.0078613437
0.5589861562 0.1053272187 0.0070970000
0.5770022813 0.1071647813 0.0069246250
0.5968122188 0.1093805938 0.0062843438
0.6175687187 0.1122868125 0.0062843438
0.6411726250 0.1161857500 0.0072202188
0.6718514062 0.1239220625 0.0103989063
0.7172507813 0.1385429687 0.0183095000
0.7812960312 0.1634524687 0.0330214375
0.0726861875 0.0898125000 0.0781340000
0.0823111563 0.0906743125 0.0786190000
0.0927160000 0.0923213125 0.0795520000
0.1032976250 0.0939715937 0.0809209375
0.1146043750 0.0955965625 0.0814515625
0.1267648750 0.0960821875 0.0792664375
0.1417005000 0.0957251250 0.0755401875
0.1655010625 0.0941536250 0.0675981250
0.1976285625 0.0928999375 0.0574468125
0.2322600625 0.0919905000 0.0468987187
0.2638503125 0.0918705625 0.0381443125
0.2922175312 0.0929628125 0.0316906563
0.3190964375 0.0944596875 0.0273048125
0.3441933437 0.0956955625 0.0238789688
0.3679826875 0.0972683750 0.0215381875
0.3902123750 0.0986347188 0.0199852813
0.4115501875 0.1003731875 0.0184329375
0.4326548437 0.1019316250 0.0168805313
0.4530548125 0.1036091875 0.0153770000
0.4722751250 0.1052872500 0.0141447500
0.4895835625 0.1067553125 0.0130115625
0.5048074062 0.1079878438 0.0122475625
0.5197840625 0.1093876250 0.0114838125
0.5347276875 0.1107946250 0.0109414375
0.5503744375 0.1124275625 0.0101524375
0.5674251250 0.1139080313 0.0094136875
0.5855218750 0.1159281250 0.0093644375
0.6052894375 0.1183051562 0.0085754375
0.6261978750 0.1213364375 0.0093151250
0.6499570625 0.1259181250 0.0103003750
0.6809887500 0.1342956875 0.0142926250
0.7278010000 0.1512773750 0.0237309688
0.7918513125 0.1779945000 0.0399705625
0.0721040000 0.0960052500 0.0780882500
0.0813304063 0.0971837187 0.0786038437
0.0918428125 0.0987602812 0.0795520000
0.1021581250 0.1002889063 0.0809209375
0.1129725312 0.1022091563 0.0823137812
0.1253155938 0.1033975625 0.0824013750
0.1421339063 0.1047569687 0.0793250313
0.1697741562 0.1051665000 0.0726464687
0.2041512812 0.1051511562 0.0632355000
0.2394926562 0.1040303125 0.0528328438
0.2717374375 0.1041813125 0.0441270937
0.3009402188 0.1049248750 0.0377775312
0.3281070000 0.1062688438 0.0329231875
0.3535690312 0.1076883437 0.0295219688
0.3772688750 0.1094537188 0.0264172500
0.3994903438 0.1111929688 0.0245196875
0.4209126250 0.1131159688 0.0229673125
0.4417730625 0.1148264375 0.0214149375
0.4623187500 0.1166731875 0.0199360000
0.4814777813 0.1180086250 0.0190981875
0.4987720312 0.1196298750 0.0175458125
0.5141353125 0.1209339375 0.0170532188
0.5290427187 0.1222247812 0.0162643125
0.5443249688 0.1235925938 0.0155492813
0.5601711250 0.1250867500 0.0152783125
0.5773464062 0.1266890938 0.0146873125
0.5958140000 0.1285940312 0.0139722812
0.6156767500 0.1310624687 0.0138983125
0.6368911250 0.1344067812 0.0147858125
0.6612236563 0.1399392500 0.0164861250
0.6933671875 0.1496583437 0.0212180312
0.7412779375 0.1684845313 0.0321829687
0.8041866875 0.1967787813 0.0491380000
0.0721040000 0.1036812500 0.0786190000
0.0804283438 0.1047936562 0.0790416250
0.0902420625 0.1055691250 0.0795520000
0.1006666250 0.1076748750 0.0813330625
0.1119366250 0.1104631250 0.0827646250
0.1237670938 0.1122225938 0.0837455000
0.1392532500 0.1129515625 0.0829386250
0.1694362500 0.1166831563 0.0788873125
0.2086225000 0.1186871250 0.0701888750
0.2478614062 0.1199625625 0.0606695312
0.2830010625 0.1215885625 0.0539995625
0.3131141875 0.1223544688 0.0478407500
0.3409420000 0.1239957500 0.0426856250
0.3665415938 0.1255648437 0.0389078125
0.3899663750 0.1273870625 0.0355845625
0.4122197187 0.1294925000 0.0331692187
0.4336171250 0.1317142500 0.0313460000
0.4546732813 0.1337430625 0.0297932500
0.4752396250 0.1356148750 0.0282408750
0.4945339687 0.1371883750 0.0266885000
0.5117686250 0.1384373750 0.0259246250
0.5271916250 0.1397495625 0.0250617813
0.5421025000 0.1411161250 0.0246426250
0.5573955625 0.1423424062 0.0238545000
0.5736355000 0.1436756250 0.0230656250
0.5909413125 0.1452712500 0.0230656250
0.6093097500 0.1472081875 0.0222775000
0.6292086250 0.1497180312 0.0229670000
0.6505852500 0.1536652500 0.0238545000
0.6752569063 0.1600034062 0.0263437188
0.7085853125 0.1716613125 0.0326272500
0.7568133750 0.1923838750 0.0441958750
0.8179391250 0.2215902500 0.0624837500
0.0721040000 0.1124868750 0.0803869375
0.0795194688 0.1132359375 0.0803869375
0.0885599063 0.1142159375 0.0804616250
0.0984232187 0.1158654062 0.0818325625
0.1095663750 0.1187960937 0.0836152500
0.1222091250 0.1229207812 0.0850279687
0.1377737187 0.1247171563 0.0851133438
0.1647539375 0.1276867187 0.0838165625
0.2073780313 0.1338289375 0.0788555000
0.2528953750 0.1383495312 0.0703553437
0.2907147500 0.1408570312 0.0640300312
0.3239139688 0.1436672813 0.0591345312
0.3537826250 0.1466817500 0.0552666562
0.3804614687 0.1493725312 0.0520916562
0.4043266563 0.1514920312 0.0491639688
0.4268913437 0.1539229375 0.0467825625
0.4490004063 0.1568688125 0.0452471250
0.4706277187 0.1596010937 0.0438106563
0.4914406250 0.1616050625 0.0420224687
0.5105351563 0.1633957812 0.0405324375
0.5277830000 0.1650289688 0.0394723125
0.5434410625 0.1663654375 0.0387140937
0.5583628125 0.1677715312 0.0381968125
0.5738390937 0.1690607188 0.0374078125
0.5901400000 0.1702741562 0.0366198125
0.6072490313 0.1716570938 0.0359540937
0.6256456250 0.1737424062 0.0358308125
0.6454017187 0.1766351875 0.0366198125
0.6668019375 0.1809022812 0.0376049375
0.6921574375 0.1885358437 0.0408117188
0.7263906875 0.2016774688 0.0479868125
0.7741380625 0.2238696250 0.0610942500
0.8315077187 0.2526046875 0.0786537500
0.0711582500 0.1232182500 0.0826185000
0.0781013437 0.1244223437 0.0829938750
0.0860396875 0.1259533750 0.0834555625
0.0949656563 0.1277383750 0.0835865312
0.1063113750 0.1311958125 0.0853380625
0.1190111250 0.1360032500 0.0871020000
0.1358642500 0.1419099375 0.0880423750
0.1613042812 0.1436101563 0.0872698750
0.2004361875 0.1489381250 0.0863224375
0.2480546250 0.1578142187 0.0825666562
0.2918806250 0.1636907500 0.0773532500
0.3293266563 0.1680464688 0.0729793125
0.3612778750 0.1716300000 0.0689384375
0.3894614063 0.1751390313 0.0660455625
0.4149718125 0.1786108125 0.0641599375
0.4391333750 0.1822758437 0.0626583125
0.4624538750 0.1860530625 0.0617980000
0.4852506875 0.1898771563 0.0609387813
0.5068973750 0.1929755625 0.0602418125
0.5264396562 0.1953618437 0.0590586250
0.5441030625 0.1976033750 0.0583437500
0.5601759688 0.1995549375 0.0577490938
0.5755031250 0.2013422500 0.0571500625
0.5912248750 0.2026373125 0.0560505000
0.6074881250 0.2040761875 0.0554386875
0.6247883125 0.2057757188 0.0548220000
0.6430703750 0.2080349375 0.0543181875
0.6627717188 0.2113347813 0.0545490000
0.6845068750 0.2165119375 0.0563749375
0.7105592500 0.2248653125 0.0600987500
0.7452726875 0.2390996875 0.0679443750
0.7913893125 0.2610591875 0.0807740313
0.8443788750 0.2879008125 0.0973398750
0.0705330000 0.1366839687 0.0856758437
0.0767523437 0.1376055937 0.0862105312
0.0845560938 0.1392330000 0.0869192187
0.0931221563 0.1418891250 0.0870180937
0.1033576563 0.1458438125 0.0878475937
0.1156727188 0.1513723750 0.0892032187
0.1316256875 0.1592999375 0.0909564687
0.1609877500 0.1663256875 0.0909429687
0.1961621875 0.1650765938 0.0894229687
0.2398715000 0.1731501563 0.0899609375
0.2851060313 0.1826946250 0.0881310000
0.3248468125 0.1891229687 0.0853374375
0.3597336875 0.1945452187 0.0825243125
0.3907489687 0.1997135625 0.0803849375
0.4187927812 0.2045309688 0.0788654063
0.4448151250 0.2092375938 0.0776911875
0.4694688437 0.2138794375 0.0770800937
0.4932212187 0.2182378125 0.0765865625
0.5156350000 0.2224122813 0.0760900312
0.5361163750 0.2260503125 0.0756580313
0.5545266562 0.2294662813 0.0753566563
0.5713636875 0.2325045000 0.0753566563
0.5874990625 0.2351690000 0.0750844687
0.6039812812 0.2374237813 0.0745955937
0.6210170000 0.2396930313 0.0742284375
0.6388270312 0.2422786875 0.0741083437
0.6576969375 0.2454027813 0.0739871563
0.6778629687 0.2493353438 0.0746488125
0.7001449375 0.2551025937 0.0766219062
0.7272338750 0.2643175313 0.0809780000
0.7623930313 0.2791078750 0.0893231563
0.8067208125 0.3001373125 0.1017711875
0.8558017187 0.3248085625 0.1166166875
0.0696032500 0.1527895000 0.0891627500
0.0761645000 0.1542468750 0.0900020625
0.0835690625 0.1555165000 0.0907532500
0.0922527500 0.1583316563 0.0915935000
0.1023822500 0.1621607500 0.0915800000
0.1146502500 0.1684370000 0.0927677500
0.1298095000 0.1781775625 0.0945159375
0.1569632813 0.1905090000 0.0952882500
0.2003380000 0.1941272500 0.0938440000
0.2356918125 0.1896207813 0.0922854063
0.2771067500 0.1972259375 0.0936067500
0.3178259688 0.2067265938 0.0935262500
0.3539087500 0.2143318750 0.0925238750
0.3860394688 0.2211010312 0.0914710313
0.4154083750 0.2273600000 0.0906293125
0.4428114063 0.2333616250 0.0901004375
0.4687005000 0.2391937500 0.0898947500
0.4936645000 0.2447252500 0.0897817500
0.5173671875 0.2498481875 0.0893482500
0.5388396562 0.2544365312 0.0893482500
0.5580186250 0.2584555000 0.0893482500
0.5757230313 0.2621612188 0.0893482500
0.5927995625 0.2655375625 0.0892342500
0.6102602188 0.2688274375 0.0893543438
0.6282305000 0.2722102500 0.0895545000
0.6469679375 0.2757100937 0.0898740000
0.6667471250 0.2797358125 0.0904633125
0.6878605625 0.2846022500 0.0919840625
0.7115670000 0.2914613750 0.0945007500
0.7400049375 0.3016313750 0.0999041875
0.7757611875 0.3169441250 0.1084685625
0.8187127813 0.3374764375 0.1209370000
0.8652597500 0.3607857500 0.1354032500
0.0698530937 0.1716890313 0.0935540937
0.0764120000 0.1728775000 0.0943722500
0.0834385625 0.1741667813 0.0948906875
0.0921457188 0.1767659688 0.0956985938
0.1028829063 0.1807050937 0.0963851875
0.1154880000 0.1868618125 0.0971820625
0.1305325625 0.1966205937 0.0987338438
0.1553228125 0.2110261562 0.0999459375
0.1993447812 0.2222481875 0.0989362187
0.2437239688 0.2192099063 0.0966684063
0.2755776250 0.2148081875 0.0961331562
0.3113466875 0.2206298437 0.0975987500
0.3475569375 0.2302125000 0.0984123750
0.3805038125 0.2390499688 0.0989681563
0.4103183125 0.2468621875 0.0989032187
0.4381930312 0.2540337812 0.0987887500
0.4646400000 0.2609625313 0.0989852500
0.4899265312 0.2674469063 0.0990712187
0.5140930625 0.2735663125 0.0992422812
0.5363420313 0.2790096563 0.0994667187
0.5563914688 0.2836420625 0.0997470313
0.5747166563 0.2878995313 0.0998807500
0.5924695313 0.2918806250 0.1002620625
0.6107070000 0.2957875000 0.1005282500
0.6295796250 0.2996835000 0.1011830312
0.6492174688 0.3039020625 0.1019470625
0.6700730937 0.3086149687 0.1031184063
0.6925074687 0.3144972812 0.1053043125
0.7178072813 0.3225240313 0.1089170000
0.7478420625 0.3339800625 0.1151920625
0.7843732187 0.3500960625 0.1250623750
0.8267810313 0.3707832500 0.1377776250
0.8724392188 0.3939823750 0.1526015937
0.0721338750 0.1917826250 0.0979746250
0.0785380000 0.1927854375 0.0987605938
0.0854168750 0.1939856875 0.0995405000
0.0942201562 0.1964842187 0.1003147812
0.1049180000 0.1999177500 0.1008179375
0.1179196563 0.2054848125 0.1017865313
0.1329026250 0.2145696875 0.1032998125
0.1558342188 0.2293253125 0.1045003750
0.1967340625 0.2466923125 0.1043018750
0.2478201250 0.2496383125 0.1018528750
0.2848188125 0.2432767500 0.1002081250
0.3120831250 0.2398060625 0.1000718438
0.3425801250 0.2438742500 0.1015971250
0.3750906562 0.2534010937 0.1033742500
0.4054153125 0.2629515625 0.1044173750
0.4336780937 0.2716770313 0.1052378125
0.4602433750 0.2796831250 0.1056592500
0.4856610937 0.2871352812 0.1062747500
0.5098893750 0.2940353125 0.1068868125
0.5323667187 0.3000380938 0.1073628438
0.5528265625 0.3052695625 0.1078332500
0.5716203438 0.3099442813 0.1083241250
0.5898121250 0.3143895000 0.1089254375
0.6081962813 0.3186385000 0.1096398437
0.6275901875 0.3230041250 0.1103227500
0.6479518750 0.3277096875 0.1116157813
0.6696516250 0.3331041250 0.1131370625
0.6932446250 0.3397367500 0.1160979688
0.7198589375 0.3486708125 0.1204663125
0.7513222500 0.3612658438 0.1279373437
0.7886714375 0.3782307500 0.1384393750
0.8314275000 0.3995143750 0.1522576875
0.8771192500 0.4232198750 0.1677678750
0.0754764063 0.2111069063 0.1028579375
0.0816640937 0.2121877187 0.1033616250
0.0883360000 0.2133917812 0.1041105625
0.0966832500 0.2153821250 0.1046088125
0.1074090937 0.2183410000 0.1052188437
0.1202194375 0.2234855313 0.1060260938
0.1351540625 0.2318174375 0.1074264688
0.1568248437 0.2461867500 0.1088793750
0.1946020938 0.2668784687 0.1086878125
0.2458279688 0.2786382500 0.1069446562
0.2899926250 0.2739524375 0.1047517500
0.3195896250 0.2677127812 0.1038871563
0.3447646250 0.2648572812 0.1042547813
0.3719204375 0.2680980937 0.1059448125
0.4010724688 0.2767744688 0.1077954687
0.4293156875 0.2864087813 0.1096595938
0.4560792500 0.2956230000 0.1111185625
0.4815779062 0.3040348438 0.1120388750
0.5057540000 0.3116987500 0.1129524687
0.5282975000 0.3182663437 0.1138403438
0.5488655625 0.3239829687 0.1146296563
0.5679546562 0.3291275625 0.1153107813
0.5862370625 0.3338255937 0.1162098437
0.6048494688 0.3384432500 0.1170954063
0.6243524375 0.3431790000 0.1183084687
0.6449646875 0.3482591562 0.1196980000
0.6670906562 0.3539972812 0.1216537188
0.6913460312 0.3611923750 0.1248725938
0.7190276250 0.3707983438 0.1300495313
0.7515398438 0.3841131875 0.1380921875
0.7898977500 0.4018868750 0.1496935313
0.8333810000 0.4238823750 0.1643445313
0.8797360625 0.4482608125 0.1809682813
0.0790390000 0.2294140000 0.1068283750
0.0848377812 0.2306103438 0.1077833750
0.0910456250 0.2316593750 0.1081616250
0.0990520938 0.2334648750 0.1086307500
0.1093305000 0.2358448750 0.1092545000
0.1222230938 0.2405600000 0.1100005938
0.1367582500 0.2482131875 0.1110535000
0.1582892500 0.2625098437 0.1130222188
0.1940687500 0.2845932500 0.1126965000
0.2417929062 0.3045797500 0.1121877500
0.2900656875 0.3051089375 0.1094599375
0.3253109063 0.2985842500 0.1081616250
0.3514283750 0.2928675000 0.1077950000
0.3749325937 0.2903109063 0.1085159063
0.3996615625 0.2930162500 0.1101338750
0.4258389375 0.3002394063 0.1123752500
0.4521946250 0.3093912500 0.1146587500
0.4776245937 0.3184063125 0.1162710313
0.5018456875 0.3267090000 0.1179487500
0.5244080625 0.3339347812 0.1191430937
0.5450348750 0.3401168750 0.1203265000
0.5641243437 0.3456151562 0.1213868438
0.5825461250 0.3507080000 0.1224583125
0.6011561875 0.3556120937 0.1236104375
0.6206528750 0.3606273750 0.1249531250
0.6413084062 0.3660050625 0.1267050937
0.6636449375 0.3720791875 0.1290328750
0.6883170937 0.3795638750 0.1326150312
0.7165755000 0.3896321250 0.1382470000
0.7498039063 0.4033703750 0.1467992188
0.7889401250 0.4217225000 0.1589830000
0.8333953750 0.4443332812 0.1745523437
0.8806861250 0.4693621250 0.1921461250
0.0818448125 0.2466591563 0.1107760000
0.0872110000 0.2476566875 0.1111330313
0.0935405937 0.2486235313 0.1116134688
0.1011417500 0.2502082500 0.1121995312
0.1110960625 0.2527698125 0.1128602188
0.1238134063 0.2570089688 0.1135509062
0.1385847188 0.2643195625 0.1145187187
0.1603080625 0.2788244375 0.1168268125
0.1950129063 0.3011177812 0.1168594688
0.2397061875 0.3241032500 0.1163277813
0.2877468750 0.3335053125 0.1148647500
0.3274668125 0.3289615625 0.1128601563
0.3572309062 0.3227209375 0.1120545000
0.3812766250 0.3177404688 0.1120545000
0.4031490313 0.3154475313 0.1127494375
0.4258120938 0.3174949375 0.1144430938
0.4497221563 0.3231257813 0.1168177813
0.4743754063 0.3313381875 0.1193023437
0.4982524063 0.3397299062 0.1214927813
0.5207517188 0.3473439063 0.1234152813
0.5413896250 0.3540096563 0.1250470625
0.5605050938 0.3598263750 0.1264953437
0.5788949063 0.3652106875 0.1279148750
0.5974924062 0.3705085000 0.1294054062
0.6168330625 0.3758330625 0.1309104375
0.6374702813 0.3814360625 0.1329408125
0.6597972812 0.3877459688 0.1355674688
0.6846639062 0.3954576875 0.1394227812
0.7132325312 0.4057700937 0.1453230313
0.7470056250 0.4198895938 0.1542520000
0.7867960313 0.4386160312 0.1669161875
0.8321499688 0.4617457187 0.1832453125
0.8806111875 0.4874454687 0.2019072500
0.0841158750 0.2629975000 0.1140541250
0.0897844063 0.2640427188 0.1145850000
0.0958240625 0.2650538750 0.1149421250
0.1032610000 0.2667043750 0.1155995312
0.1133818750 0.2692166250 0.1162743125
0.1259669688 0.2731805937 0.1169457812
0.1413771250 0.2808156250 0.1181604375
0.1631919688 0.2953529375 0.1206490000
0.1973759375 0.3174131875 0.1211351250
0.2396638125 0.3408210313 0.1206316562
0.2844703125 0.3569258125 0.1204543750
0.3270196875 0.3569757188 0.1179189375
0.3602725000 0.3511803750 0.1168278125
0.3868875938 0.3457404687 0.1165081250
0.4092205000 0.3414139375 0.1166988125
0.4297635938 0.3393124375 0.1173574375
0.4506653750 0.3405448750 0.1189995000
0.4727490313 0.3450220625 0.1212580312
0.4956565000 0.3521193750 0.1239988750
0.5176164063 0.3593867188 0.1263793750
0.5379456875 0.3660651250 0.1285196875
0.5570619062 0.3721394375 0.1303986250
0.5754143125 0.3778201875 0.1322874375
0.5939222500 0.3833485937 0.1341325312
0.6131573750 0.3889151875 0.1361156250
0.6336416563 0.3947675000 0.1383415937
0.6559847500 0.4013559375 0.1412586250
0.6808490625 0.4093318437 0.1453813125
0.7096137500 0.4198266250 0.1515561250
0.7438134687 0.4342409063 0.1608717188
0.7842678125 0.4533297500 0.1741445000
0.8305221250 0.4769836250 0.1910323125
0.8800076875 0.5032921875 0.2102726875
0.0872270937 0.2790050000 0.1172860000
0.0925453750 0.2802590625 0.1179515938
0.0985723750 0.2813739063 0.1182779063
0.1060661563 0.2831059375 0.1189387188
0.1159469375 0.2854717500 0.1195956563
0.1289356875 0.2896974375 0.1202495625
0.1447114375 0.2973463438 0.1217602500
0.1669494375 0.3121366562 0.1244189687
0.2004518750 0.3332872812 0.1251896875
0.2409422187 0.3559964063 0.1248708750
0.2830804688 0.3742079062 0.1249715000
0.3247668750 0.3808472188 0.1234061875
0.3612579688 0.3772239063 0.1217294063
0.3905083750 0.3719557812 0.1211149375
0.4147313750 0.3671560938 0.1209800625
0.4355295937 0.3633375313 0.1209800625
0.4548675313 0.3613924375 0.1219432187
0.4744512188 0.3622566875 0.1235269063
0.4949783125 0.3658664688 0.1258739688
0.5155581250 0.3713295937 0.1284927812
0.5352641875 0.3773325000 0.1310768438
0.5540366562 0.3831677813 0.1334540938
0.5722341875 0.3888534062 0.1356507500
0.5905458750 0.3945143125 0.1378124063
0.6096970000 0.4003085625 0.1402256875
0.6300395937 0.4064329375 0.1428514375
0.6522566250 0.4132484375 0.1460868438
0.6771495938 0.4214703438 0.1505885000
0.7060839063 0.4322661562 0.1570764375
0.7405385000 0.4468854375 0.1667366875
0.7815480313 0.4663605312 0.1803212500
0.8286243750 0.4904187812 0.1977968750
0.8791735938 0.5173093750 0.2175000625
0.0904595000 0.2947430000 0.1205805000
0.0960157500 0.2961060937 0.1212291562
0.1020281875 0.2973865000 0.1217093750
0.1095076250 0.2992621875 0.1223522500
0.1195247500 0.3018881250 0.1229921250
0.1324941875 0.3061847812 0.1237395938
0.1486763125 0.3141144375 0.1254179375
0.1713527187 0.3284257187 0.1279077813
0.2041337500 0.3483817500 0.1291210000
0.2431181875 0.3703710000 0.1291990000
0.2833673750 0.3889357500 0.1293520000
0.3231702813 0.3996720000 0.1287916875
0.3609500000 0.3999923750 0.1267831250
0.3923458437 0.3958063438 0.1257260000
0.4185720625 0.3911764375 0.1254385000
0.4407453437 0.3868047812 0.1254385000
0.4602745000 0.3833955000 0.1257560000
0.4785833438 0.3816668750 0.1265254375
0.4968878125 0.3822527500 0.1282105000
0.5155917187 0.3849477813 0.1306204063
0.5339175000 0.3889191250 0.1330051250
0.5519034375 0.3938424687 0.1356433750
0.5695736875 0.3990451250 0.1380858750
0.5876152188 0.4045969687 0.1407075625
0.6065102500 0.4103825000 0.1434022500
0.6266416875 0.4166697188 0.1465163750
0.6486982500 0.4236272500 0.1501123125
0.6735563750 0.4321142500 0.1548642812
0.7026907500 0.4432172500 0.1617760000
0.7374040313 0.4581471563 0.1718518438
0.7788924375 0.4779734375 0.1857612500
0.8267895312 0.5025560625 0.2036746875
0.8782340000 0.5299500000 0.2239805000
0.0943993125 0.3106486250 0.1241123437
0.0995647500 0.3119244063 0.1247435313
0.1057768438 0.3131939062 0.1250526563
0.1134964063 0.3151222188 0.1256785313
0.1235598750 0.3178986875 0.1263019375
0.1366818750 0.3222849688 0.1271867813
0.1532045938 0.3302031563 0.1288116563
0.1758511563 0.3438046562 0.1314747500
0.2080632813 0.3630126563 0.1332375625
0.2458515313 0.3840773750 0.1336030313
0.2845315000 0.4028052500 0.1338259687
0.3226825313 0.4152725938 0.1337347187
0.3597171875 0.4190582812 0.1322043125
0.3928720000 0.4169506875 0.1306290937
0.4209373750 0.4130306563 0.1300263437
0.4446693438 0.4087290312 0.1297477500
0.4651800313 0.4047944687 0.1297477500
0.4834946250 0.4016587500 0.1301974375
0.5006584063 0.3999889688 0.1312581563
0.5175368438 0.4002191562 0.1328724688
0.5343689062 0.4020227187 0.1349037813
0.5510570000 0.4050916562 0.1373707500
0.5679533750 0.4092980938 0.1400153125
0.5853984062 0.4141689687 0.1427944375
0.6037660938 0.4196620938 0.1457156875
0.6236032812 0.4258191562 0.1490978125
0.6454631250 0.4328842188 0.1531453750
0.6702259687 0.4415095937 0.1584179688
0.6993322500 0.4528930000 0.1655485625
0.7343887500 0.4681738750 0.1760447500
0.7763900000 0.4883941875 0.1905517500
0.8250159688 0.5134960000 0.2089175000
0.8773559375 0.5415270000 0.2295968125
0.0984009375 0.3258585625 0.1273726250
0.1039188437 0.3272312187 0.1278522500
0.1100856875 0.3286346875 0.1284650000
0.1177079688 0.3304018750 0.1289003125
0.1278990000 0.3333001875 0.1295083125
0.1411798750 0.3376294687 0.1305443750
0.1576990000 0.3452165625 0.1324216875
0.1802998750 0.3579915938 0.1351421562
0.2119608125 0.3763639375 0.1372320000
0.2485563438 0.3968480625 0.1378678125
0.2861098750 0.4155506250 0.1383548125
0.3230135625 0.4292702812 0.1384454375
0.3590034375 0.4357170000 0.1371605625
0.3927801250 0.4357438125 0.1356051250
0.4222516875 0.4329097500 0.1344783125
0.4474129687 0.4289394687 0.1339207500
0.4691240000 0.4248363750 0.1339207500
