bundles/resolve-cinematic-luts/Gamut/CINECLIPSE+/Cineclipse 06.cube
TITLE "Cineclipse 06 by Gamut"
# Version 1.0 - 07/22/2024 - Designed for Rec.709 Color Space. Copyright 2024 Gamut, LLC
LUT_3D_SIZE 5
0.0746640000 0.0741580000 0.0731370000
0.2232865000 0.0707957500 0.0325285000
0.4122900000 0.0610560000 0.0000000000
0.5167137500 0.0508520000 0.0000000000
0.5868970000 0.0409940000 0.0000000000
0.0521772500 0.1580305000 0.0862890000
0.2154375000 0.1916860000 0.0906770000
0.4634707500 0.2095685000 0.0475082500
0.5921200000 0.1702147500 0.0059142500
0.6804547500 0.1147725000 0.0000000000
0.0358800000 0.2947555000 0.1165540000
0.1610560000 0.3395130000 0.1197530000
0.4077615000 0.3631175000 0.1163825000
0.5579810000 0.3610145000 0.1101560000
0.7303240000 0.3560205000 0.0858170000
0.0299660000 0.3683445000 0.1282732500
0.1074615000 0.4025585000 0.1372915000
0.3553055000 0.4771240000 0.1361230000
0.5303185000 0.4667712500 0.1314232500
0.6552400000 0.4545287500 0.1324807500
0.0291770000 0.4169790000 0.1385950000
0.0772485000 0.4473095000 0.1505340000
0.2624340000 0.5232170000 0.1568240000
0.5020932500 0.5754027500 0.1469810000
0.6730640000 0.5691250000 0.1486010000
0.0717140000 0.0784977500 0.1708142500
0.1897370000 0.0975082500 0.1790320000
0.3841372500 0.0836635000 0.0854137500
0.5075125000 0.0632380000 0.0078855000
0.6021487500 0.0539717500 0.0000000000
0.0143917500 0.2063725000 0.2199372500
0.2279450075 0.2230636125 0.2371806425
0.4428134787 0.1753263750 0.1154117450
0.5598608363 0.1229857850 0.0270648000
0.6590410000 0.0973222500 0.0000000000
0.0132085000 0.3445062500 0.1854770000
0.1540984488 0.3668492238 0.2037908712
0.4373621488 0.4032910463 0.2074869587
0.6064160413 0.3831061950 0.1630160375
0.7661485000 0.3525080000 0.1080795000
0.0258257500 0.4029252500 0.1665790000
0.1021925275 0.4228606125 0.1768971937
0.3642116775 0.5045456788 0.2016431650
0.5572976038 0.4976306475 0.1909511100
0.7054282500 0.4845015000 0.1774217500
0.0317402500 0.4454665000 0.1643760000
0.0853775000 0.4718460000 0.1804672500
0.2774880000 0.5510255000 0.1989345000
0.5137915000 0.6061765000 0.1922067500
0.7022837500 0.5962150000 0.1945447500
0.0619350000 0.0858470000 0.3228030000
0.1517727500 0.0849412500 0.3457150000
0.3705710000 0.1343505000 0.2957705000
0.4883412500 0.1344215000 0.2186070000
0.5765325000 0.0958580000 0.1284710000
0.0285860000 0.1968505000 0.3636312500
0.1764928112 0.1927959987 0.3756656588
0.4067955100 0.2226233763 0.3451550963
0.5261617050 0.1867195400 0.2555573613
0.6243775000 0.1268995000 0.1529980000
0.0000000000 0.3953220000 0.3914675000
0.0945353850 0.4251887313 0.4161469063
0.4756605712 0.4692059088 0.4434934863
0.6200925462 0.3717539663 0.3137404550
0.7360915000 0.2793085000 0.1863235000
0.0000000000 0.4652220000 0.3413972500
0.0318664225 0.4956291725 0.3601371537
0.3510298750 0.5511619012 0.3891733275
0.6077151650 0.5679105863 0.3757041212
0.8072475000 0.5370725000 0.3167217500
0.0039425000 0.5058955000 0.2943410000
0.0303600000 0.5381272500 0.3149752500
0.2355035000 0.5791955000 0.3201350000
0.5096092500 0.6685117500 0.3380437500
0.7531405000 0.6568405000 0.3333370000
0.0560390000 0.0879610000 0.3926487500
0.1182040000 0.0842610000 0.4120975000
0.2944602500 0.1219685000 0.4240765000
0.4829015000 0.1506662500 0.3423852500
0.5904340000 0.1519845000 0.2807525000
0.0388345000 0.1672297500 0.4177747500
0.1298752738 0.1553001788 0.4296385050
0.3259342950 0.1890292900 0.4629420375
0.5211367538 0.2121033000 0.3821092500
0.6434520000 0.1942400000 0.3143147500
0.0000000000 0.3575525000 0.4816612500
0.0604406613 0.3821413037 0.5127425313
0.3835715662 0.4032794075 0.5555997812
0.5898358863 0.4032866925 0.4846938450
0.7220432500 0.3176462500 0.3703420000
0.0000000000 0.5025662500 0.4822150000
0.0158850188 0.5311837175 0.5069107938
0.3147974375 0.5829975112 0.5475465900
0.6551979300 0.6361689187 0.5729181650
0.8581577500 0.5457267500 0.4520530000
0.0000000000 0.5546797500 0.4405030000
0.0017745000 0.5900305000 0.4591002500
0.2007430000 0.6453015000 0.4786187500
0.5072952500 0.7440165000 0.5334090000
0.8435392500 0.7532475000 0.5212647500
0.0503480000 0.0851700000 0.4352620000
0.0905500000 0.0838030000 0.4545175000
0.2376960000 0.0989190000 0.4853995000
0.4268685000 0.1517172500 0.4629097500
0.5924050000 0.1592180000 0.3675760000
0.0411852500 0.1312567500 0.4507252500
0.0948672500 0.1246350000 0.4664707500
0.2561040000 0.1433765000 0.5159697500
0.4494952500 0.1966867500 0.5062205000
0.6530375000 0.2017667500 0.3929850000
0.0003945000 0.3028915000 0.5287615000
0.0416675000 0.3232860000 0.5599990000
0.2885455000 0.3195755000 0.5932775000
0.4868440000 0.3556010000 0.6198095000
0.7449330000 0.3690430000 0.5082660000
0.0000000000 0.4824722500 0.5720105000
0.0053230000 0.5085607500 0.6135360000
0.2456597500 0.5345067500 0.6714872500
0.5327772500 0.5626892500 0.7442012500
0.8597670000 0.5656990000 0.6357682500
0.0000000000 0.5930420000 0.5605950000
0.0013800000 0.6233340000 0.5855760000
0.1844030000 0.6944830000 0.6445695000
0.4931437500 0.8029812500 0.7417772500
0.9284010000 0.8354740000 0.7422690000
