bundles/resolve-cinematic-luts/Gamut/CINECLIPSE+/Cineclipse 03.cube
TITLE "Cineclipse 03 by Gamut"
# Version 1.0 - 07/22/2024 - Designed for Rec.709 Color Space. Copyright 2024 Gamut, LLC
LUT_3D_SIZE 33
0.0795820000 0.0746640000 0.0746640000
0.0885750625 0.0751522500 0.0746640000
0.0980236875 0.0770932500 0.0751680000
0.1031495937 0.0767082188 0.0736967188
0.1122906250 0.0762288750 0.0712552500
0.1230793750 0.0757468125 0.0686454062
0.1376176875 0.0756690000 0.0649400625
0.1604470625 0.0747742500 0.0588383125
0.1866062500 0.0728787500 0.0506645000
0.2134583125 0.0717302500 0.0420470000
0.2390395625 0.0714202500 0.0354363750
0.2627040000 0.0719252500 0.0299903125
0.2858420000 0.0729438750 0.0258257500
0.3086895000 0.0747576875 0.0227206562
0.3317276875 0.0767227500 0.0200591875
0.3543500313 0.0784195000 0.0185068438
0.3766590000 0.0805350000 0.0169545000
0.3983544375 0.0823864062 0.0154016250
0.4199170625 0.0842028750 0.0138492500
0.4404607188 0.0859868125 0.0122968750
0.4592632500 0.0877397500 0.0107441250
0.4761476875 0.0894630312 0.0094630000
0.4925396875 0.0911585625 0.0084277500
0.5091623438 0.0932458438 0.0076640937
0.5266505000 0.0949840000 0.0063090000
0.5460219375 0.0973018750 0.0055200000
0.5664941875 0.0994211250 0.0047310000
0.5884348125 0.1024922188 0.0047310000
0.6112361250 0.1059468750 0.0048296250
0.6373360937 0.1115100625 0.0064568438
0.6715491250 0.1205303125 0.0112864375
0.7180637188 0.1366553438 0.0215384062
0.7736470000 0.1592180000 0.0362740000
0.0781491562 0.0799692188 0.0741738125
0.0881363750 0.0813611562 0.0751680000
0.0987829688 0.0827338125 0.0765999375
0.1073992813 0.0840723438 0.0766153125
0.1163925625 0.0832685938 0.0737914063
0.1273723125 0.0827629063 0.0707458437
0.1410018437 0.0814648438 0.0665789687
0.1635199375 0.0800584688 0.0600048125
0.1900475313 0.0782687187 0.0521172187
0.2174446250 0.0771840938 0.0442621563
0.2431020625 0.0770454375 0.0372352813
0.2669439375 0.0775370000 0.0315426875
0.2904934687 0.0788130312 0.0276495937
0.3135097500 0.0800571875 0.0242730313
0.3366024375 0.0814488750 0.0219326563
0.3595600313 0.0832826563 0.0200591875
0.3817157500 0.0850830312 0.0180882187
0.4033831250 0.0868518125 0.0161655000
0.4249536562 0.0887802812 0.0153769687
0.4458309688 0.0909021875 0.0138492500
0.4647280312 0.0928111875 0.0122968750
0.4815107187 0.0944539688 0.0110153437
0.4975845938 0.0960715313 0.0099801250
0.5143877500 0.0980659063 0.0092164375
0.5323093125 0.1000121563 0.0084277188
0.5514367812 0.1020337813 0.0076641250
0.5721000938 0.1043615000 0.0068999687
0.5939266562 0.1072916875 0.0064074688
0.6164372813 0.1110102812 0.0071463438
0.6425560625 0.1163656250 0.0088711875
0.6768603125 0.1259644687 0.0143911562
0.7230099375 0.1425688125 0.0246185000
0.7780989687 0.1654721875 0.0393550625
0.0776460000 0.0845440625 0.0741580000
0.0872522187 0.0854505937 0.0741738125
0.0972727500 0.0867960000 0.0761358750
0.1070898437 0.0893385938 0.0784970937
0.1174357500 0.0910479375 0.0767540000
0.1298048438 0.0910468750 0.0737914063
0.1457220000 0.0914462500 0.0702987500
0.1681636250 0.0891181250 0.0629914688
0.1945843750 0.0873202500 0.0546354375
0.2223935938 0.0860097187 0.0465163750
0.2487456875 0.0854756875 0.0395183125
0.2729095000 0.0856585000 0.0338840000
0.2966360000 0.0865125000 0.0297191250
0.3204500000 0.0876785625 0.0265650937
0.3442680625 0.0889681875 0.0242483750
0.3671753438 0.0906713125 0.0223512813
0.3893515625 0.0923196875 0.0204043750
0.4112341563 0.0939696875 0.0185068438
0.4325921875 0.0960035000 0.0169545000
0.4530262500 0.0977863125 0.0154016250
0.4716866250 0.0995912500 0.0141447500
0.4886182500 0.1012672187 0.0130362188
0.5050614375 0.1030160000 0.0122721875
0.5219217500 0.1048906250 0.0109906875
0.5398193125 0.1068271875 0.0102017500
0.5590473125 0.1089700937 0.0094136875
0.5797396250 0.1111875625 0.0093644375
0.6013577500 0.1143437188 0.0093644375
0.6239816875 0.1181161250 0.0102510625
0.6498720313 0.1238032187 0.0119520938
0.6839095625 0.1338145625 0.0175460625
0.7294247188 0.1505864062 0.0277725000
0.7839638125 0.1739230625 0.0431221250
0.0776460000 0.0893112500 0.0736490000
0.0872384062 0.0905930937 0.0746006562
0.0964880625 0.0926502812 0.0761045625
0.1063610313 0.0958865625 0.0789655000
0.1158081563 0.0956364063 0.0794917187
0.1286198750 0.0978733750 0.0776607813
0.1469424375 0.0994278437 0.0734223750
0.1718477500 0.0991555625 0.0673308750
0.2002091250 0.0982941562 0.0600221875
0.2284738750 0.0971765937 0.0518163125
0.2552738438 0.0962631250 0.0446365312
0.2803084375 0.0961745313 0.0391546250
0.3052164687 0.0970840938 0.0345001875
0.3299258125 0.0982249375 0.0311732500
0.3540168125 0.0993934687 0.0285120313
0.3769284063 0.1009400937 0.0261710313
0.3991761563 0.1026558750 0.0238296875
0.4209832500 0.1045253125 0.0222773437
0.4425876250 0.1065383125 0.0207250000
0.4630322188 0.1081746563 0.0191721562
0.4818106250 0.1097876563 0.0176196875
0.4986220937 0.1115571250 0.0163381875
0.5151818125 0.1132663125 0.0155492812
0.5321056875 0.1150817188 0.0145392813
0.5500582188 0.1167649375 0.0139722812
0.5692351250 0.1190959375 0.0131841875
0.5898234687 0.1214445000 0.0131841875
0.6113019687 0.1246618438 0.0131841875
0.6336856875 0.1285189687 0.0141694062
0.6595050938 0.1346398437 0.0165600000
0.6930698438 0.1449897500 0.0228689063
0.7381753750 0.1624498750 0.0338585313
0.7915576875 0.1858715625 0.0487221250
0.0772163750 0.0977695000 0.0750417500
0.0864605313 0.0985954375 0.0765064688
0.0949036875 0.1001008750 0.0774920625
0.1056383438 0.1035331250 0.0803414062
0.1163707500 0.1063490000 0.0808912500
0.1268981250 0.1047927500 0.0808912500
0.1447889375 0.1080788125 0.0799392500
0.1741775938 0.1112491875 0.0740237188
0.2049537500 0.1119687500 0.0662601250
0.2359127813 0.1124698437 0.0596538750
0.2650623750 0.1131240000 0.0538825625
0.2914025937 0.1131892500 0.0483894375
0.3170088750 0.1134928750 0.0434328750
0.3424639063 0.1145989063 0.0396899375
0.3662711250 0.1156144375 0.0363728750
0.3891518125 0.1171399062 0.0337855000
0.4111443750 0.1190861250 0.0314446250
0.4327175625 0.1207168437 0.0294234062
0.4542688125 0.1226522500 0.0275509375
0.4748608125 0.1245150938 0.0259985938
0.4936755000 0.1259608750 0.0244457500
0.5107610938 0.1276221250 0.0231641250
0.5272396250 0.1291480000 0.0223761250
0.5443521875 0.1309211563 0.0215871250
0.5626925000 0.1325235000 0.0207991250
0.5818001563 0.1345410625 0.0207005000
0.6021961250 0.1371658125 0.0201580625
0.6236922812 0.1402950625 0.0208236250
0.6459646250 0.1445488750 0.0223760000
0.6714827812 0.1508316875 0.0248644375
0.7046971875 0.1619872500 0.0312473125
0.7490544062 0.1796704687 0.0421987500
0.8009875000 0.2030062500 0.0574216250
0.0767390313 0.1074397187 0.0779040000
0.0843147188 0.1088212188 0.0784362188
0.0932677813 0.1095233438 0.0797740313
0.1030967813 0.1119830625 0.0817140625
0.1144250000 0.1163150625 0.0830667188
0.1279571250 0.1188568437 0.0827355312
0.1433083125 0.1177312812 0.0827355312
0.1716382500 0.1230991250 0.0821513125
0.2061460000 0.1273921562 0.0758338125
0.2411023750 0.1295134375 0.0681472500
0.2722082188 0.1309539375 0.0627961562
0.3015059375 0.1325927813 0.0585164375
0.3301464687 0.1346909688 0.0552666562
0.3568966875 0.1369822813 0.0519306562
0.3808112500 0.1381487188 0.0485902187
0.4034470000 0.1396715000 0.0458127188
0.4253458437 0.1413517500 0.0429250625
0.4470221562 0.1432444063 0.0411858437
0.4688137813 0.1452301875 0.0388866250
0.4893558437 0.1467290000 0.0373342500
0.5081966250 0.1482823750 0.0360772188
0.5252044688 0.1496880625 0.0348942187
0.5417638437 0.1512478125 0.0341305312
0.5588332188 0.1529355938 0.0333664688
0.5770460625 0.1545322500 0.0328000938
0.5959070937 0.1563512812 0.0321343750
0.6162378438 0.1590540625 0.0321343750
0.6372374063 0.1622651250 0.0329232187
0.6593284375 0.1666658125 0.0344755937
0.6847196563 0.1734389375 0.0371607812
0.7177747812 0.1848250000 0.0438469687
0.7611165000 0.2029618125 0.0546934688
0.8114483437 0.2260971875 0.0695048750
0.0757623750 0.1195421875 0.0819742500
0.0824572813 0.1214291250 0.0825153750
0.0895968125 0.1232035000 0.0825301875
0.0997249375 0.1262336250 0.0842854687
0.1126631875 0.1306086875 0.0860676875
0.1265199062 0.1349719688 0.0869891875
0.1452486250 0.1381420625 0.0861819375
0.1691777500 0.1363535625 0.0854663750
0.2028034375 0.1429550000 0.0852228125
0.2400861875 0.1492557187 0.0805979687
0.2756726250 0.1532750000 0.0757116875
0.3092967500 0.1563195000 0.0711838750
0.3388630625 0.1585085625 0.0669753750
0.3658795313 0.1606671875 0.0638946562
0.3914902500 0.1631369375 0.0615019375
0.4159749375 0.1657896250 0.0594738125
0.4391544375 0.1687601250 0.0579695000
0.4621802188 0.1716812188 0.0568176563
0.4844821875 0.1741040000 0.0555830625
0.5052867500 0.1757977187 0.0538156875
0.5241502500 0.1773924375 0.0523975000
0.5415528438 0.1789579375 0.0517567187
0.5582723750 0.1805804375 0.0511103750
0.5753160312 0.1819299062 0.0501068750
0.5932283125 0.1835467500 0.0494255000
0.6119504375 0.1854498750 0.0487375625
0.6317624375 0.1878595625 0.0487375625
0.6523438750 0.1913536563 0.0488425625
0.6740643125 0.1959578125 0.0502713750
0.6993245000 0.2031892188 0.0535276562
0.7320568125 0.2149769375 0.0601849375
0.7743493750 0.2327971562 0.0707172500
0.8230125000 0.2549395000 0.0853091875
0.0761670000 0.1347156562 0.0868201250
0.0818459063 0.1360027187 0.0873492812
0.0889153125 0.1381999063 0.0876789062
0.0982321250 0.1421744062 0.0885444062
0.1107944375 0.1485521250 0.0899739375
0.1245911562 0.1531917812 0.0904460937
0.1442166562 0.1589499063 0.0908341875
0.1735044063 0.1609594062 0.0888775625
0.2011024375 0.1581836250 0.0880146250
0.2366854063 0.1656902187 0.0893340938
0.2735541563 0.1725215312 0.0868441250
0.3082370625 0.1771711563 0.0832115938
0.3400083750 0.1808606563 0.0801702813
0.3698405938 0.1843202500 0.0771997500
0.3977938437 0.1878879375 0.0747546250
0.4235517500 0.1911750312 0.0729050625
0.4476082188 0.1943467812 0.0716199687
0.4712966875 0.1977498437 0.0708531875
0.4945095625 0.2010534687 0.0700389687
0.5165166562 0.2041069062 0.0695053437
0.5365960625 0.2069971250 0.0692544375
0.5550537187 0.2098547813 0.0689466250
0.5723471875 0.2122163750 0.0687160625
0.5896556563 0.2140654062 0.0678959375
0.6075721563 0.2159828750 0.0673659375
0.6263716875 0.2183593750 0.0669508125
0.6460944687 0.2212216562 0.0668193437
0.6665293125 0.2249469687 0.0674528438
0.6882171250 0.2299636875 0.0686562813
0.7135721875 0.2374604375 0.0719347188
0.7461681250 0.2493905312 0.0786374687
0.7877554687 0.2669159687 0.0893985000
0.8348811875 0.2880840000 0.1029478437
0.0760425000 0.1524472500 0.0915260000
0.0821954063 0.1539841563 0.0923605312
0.0892415625 0.1557943750 0.0931075000
0.0992235000 0.1607166563 0.0939033125
0.1115695000 0.1672692500 0.0948243750
0.1243970312 0.1742416563 0.0948770000
0.1425060000 0.1816553750 0.0952882500
0.1747568125 0.1885142812 0.0948638438
0.2083552500 0.1861397500 0.0922722500
0.2359229063 0.1827185313 0.0918490000
0.2701141875 0.1884568125 0.0934741875
0.3057078750 0.1956715313 0.0927265938
0.3379832500 0.2011688750 0.0908771250
0.3685992500 0.2060234687 0.0890638750
0.3972756250 0.2106530625 0.0876608125
0.4242739062 0.2149154062 0.0864720000
0.4499730000 0.2191765000 0.0854687500
0.4751381562 0.2235618125 0.0845755000
0.4996782500 0.2276967500 0.0837942500
0.5225842188 0.2314265000 0.0830712500
0.5432105000 0.2349786250 0.0830712500
0.5620217500 0.2383093750 0.0830712500
0.5799294375 0.2414458750 0.0830712500
0.5983451250 0.2446519375 0.0829492500
0.6172955000 0.2479612500 0.0832890000
0.6368484375 0.2515876562 0.0836280000
0.6571806875 0.2554889375 0.0841715000
0.6779926563 0.2597209062 0.0850169375
0.7001537500 0.2650297500 0.0867785000
0.7261197187 0.2729816875 0.0905509687
0.7590434375 0.2850841250 0.0974632500
0.8002163438 0.3024225313 0.1079581563
0.8463387500 0.3230247500 0.1213415000
0.0782072500 0.1724757812 0.0971306875
0.0842130313 0.1740404063 0.0979228125
0.0911380000 0.1757495000 0.0983099688
0.1010126562 0.1800753437 0.0994893438
0.1138110625 0.1863180937 0.0999834375
0.1271011250 0.1937660938 0.0999209375
0.1435967500 0.2031418125 0.0996399062
0.1737072188 0.2131739687 0.0994449375
0.2122730312 0.2145676562 0.0974374375
0.2452371875 0.2104751875 0.0958540312
0.2718500938 0.2072117813 0.0958413125
0.3029740000 0.2111422187 0.0973110625
0.3353868437 0.2183946563 0.0976488125
0.3661784688 0.2250894062 0.0974181875
0.3952822188 0.2310554688 0.0968983750
0.4225859687 0.2365170625 0.0963758750
0.4485732500 0.2417331875 0.0958502500
0.4740086250 0.2469893125 0.0954404688
0.4989306250 0.2519672813 0.0953215000
0.5224453125 0.2565474062 0.0950367500
0.5439941875 0.2607966562 0.0947897812
0.5636474688 0.2647910000 0.0949293438
0.5825435000 0.2686131250 0.0950815938
0.6018609375 0.2726001250 0.0954927813
0.6217559062 0.2766546562 0.0960025000
0.6420825625 0.2808575938 0.0966842187
0.6631187500 0.2854058437 0.0978383437
0.6849519687 0.2905755625 0.0994677812
0.7082105625 0.2969358750 0.1020331563
0.7353125625 0.3058031562 0.1064699062
0.7690259063 0.3187082500 0.1141675000
0.8102952500 0.3362946250 0.1251421875
0.8560964687 0.3570230625 0.1384969688
0.0821481875 0.1929435625 0.1026801875
0.0879394062 0.1942790937 0.1033120938
0.0950252500 0.1959096250 0.1036818125
0.1048257500 0.1998606562 0.1044283750
0.1176268750 0.2056504375 0.1049131250
0.1312208750 0.2132585312 0.1054737500
0.1470676875 0.2226066875 0.1049131250
0.1740936250 0.2355847500 0.1039106875
0.2133963750 0.2436743125 0.1031363750
0.2531535313 0.2399136562 0.1005752188
0.2825723125 0.2347615000 0.0996905625
0.3065092187 0.2315428438 0.0994203750
0.3335662500 0.2335923750 0.1010612500
0.3636946875 0.2410068125 0.1022596875
0.3928888750 0.2486165625 0.1028945000
0.4205593125 0.2556913125 0.1032026875
0.4468005000 0.2621348750 0.1033921875
0.4722718125 0.2682466875 0.1033413750
0.4969804375 0.2741309375 0.1033413750
0.5204181250 0.2794500000 0.1036005625
0.5422605625 0.2842755625 0.1038634375
0.5622289687 0.2887208125 0.1041095000
0.5814958125 0.2929681875 0.1044765000
0.6010410938 0.2971702813 0.1050980937
0.6214285625 0.3015865625 0.1058358125
0.6425480313 0.3062124063 0.1069002812
0.6645852500 0.3113262500 0.1084165000
0.6874326875 0.3171681875 0.1104941563
0.7119871250 0.3243346250 0.1136537500
0.7403640938 0.3341184375 0.1189862500
0.7752151875 0.3479976875 0.1275292500
0.8171723125 0.3665024062 0.1395243750
0.8636275625 0.3881743750 0.1539008125
0.0863479688 0.2127611250 0.1074965937
0.0918974688 0.2138912188 0.1081028750
0.0987195000 0.2154807187 0.1085726875
0.1085937188 0.2190846875 0.1092881250
0.1210197187 0.2243450625 0.1096389375
0.1346225938 0.2315991563 0.1102800312
0.1502941250 0.2409365625 0.1096275000
0.1759174063 0.2555866250 0.1083918438
0.2121400000 0.2694091563 0.1075895937
0.2556273750 0.2701202188 0.1051865312
0.2899077812 0.2644157500 0.1036264375
0.3156135313 0.2593458125 0.1031250312
0.3385169375 0.2562953437 0.1034945938
0.3634034375 0.2577135625 0.1048431875
0.3910947812 0.2643582187 0.1066538125
0.4186574687 0.2724081562 0.1080117500
0.4449901875 0.2803054688 0.1090133750
0.4705860312 0.2876721562 0.1096006562
0.4951391563 0.2943353437 0.1101845000
0.5183370312 0.3001709062 0.1105324062
0.5400396875 0.3054324063 0.1111119687
0.5600415625 0.3102119375 0.1116921563
0.5792913750 0.3146790938 0.1121563125
0.5988978125 0.3191825313 0.1130791250
0.6194198125 0.3237727500 0.1139770625
0.6408517500 0.3286610000 0.1152215313
0.6633437812 0.3340718125 0.1168563125
0.6869025625 0.3401536875 0.1195043125
0.7123815625 0.3478378125 0.1231863438
0.7418851875 0.3582387188 0.1290676562
0.7779051250 0.3730350937 0.1384268125
0.8209000312 0.3925602500 0.1514484688
0.8684851250 0.4152409062 0.1667680938
0.0902443750 0.2313962500 0.1117663750
0.0955954687 0.2327616250 0.1124630938
0.1020743125 0.2342085625 0.1128042500
0.1115562813 0.2372968750 0.1132775938
0.1238988750 0.2422922500 0.1138335000
0.1378708125 0.2496346875 0.1145182813
0.1535583125 0.2588919375 0.1141598750
0.1790240938 0.2745292812 0.1129041562
0.2132121250 0.2922587500 0.1119453750
0.2549670312 0.3011331875 0.1105074062
0.2932318125 0.2956375625 0.1077984375
0.3230145000 0.2897978438 0.1071986250
0.3470002500 0.2848930000 0.1070583750
0.3689255000 0.2817627500 0.1074159375
0.3921502500 0.2828673125 0.1088234375
0.4173991875 0.2883370625 0.1109537500
0.4432031250 0.2962645000 0.1129133750
0.4687332500 0.3044896250 0.1145488438
0.4932806250 0.3119818125 0.1156281875
0.5164675000 0.3186430937 0.1166517500
0.5378465000 0.3243342500 0.1173950000
0.5577480938 0.3293895625 0.1180605625
0.5770037500 0.3341416875 0.1189300625
0.5964528125 0.3388539063 0.1199200000
0.6168621250 0.3436128750 0.1209832500
0.6382988750 0.3486122500 0.1224751563
0.6609400000 0.3541200625 0.1243885000
0.6848159375 0.3604124375 0.1271058438
0.7109007500 0.3683223750 0.1311000000
0.7412028125 0.3791951250 0.1374848125
0.7780676875 0.3945366250 0.1474957500
0.8221835938 0.4148645000 0.1614535625
0.8709671250 0.4385287500 0.1780278750
0.0931643125 0.2491105313 0.1155448750
0.0986231875 0.2505487500 0.1162199375
0.1054139687 0.2521727188 0.1166904375
0.1143248750 0.2550666562 0.1170204063
0.1273147813 0.2602899687 0.1177910000
0.1414328125 0.2676693438 0.1188320938
0.1575447500 0.2774199687 0.1185284375
0.1828897500 0.2934297500 0.1176023750
0.2157423438 0.3118615625 0.1162629375
0.2539324062 0.3261606875 0.1153516875
0.2939708750 0.3262836875 0.1127075938
0.3271845000 0.3204131250 0.1114675625
0.3541047813 0.3150664687 0.1113438125
0.3770897500 0.3104509375 0.1113438125
0.3980495625 0.3075563125 0.1116886250
0.4195149375 0.3080458750 0.1130681250
0.4426347500 0.3122172187 0.1153069375
0.4672691875 0.3195780625 0.1176648750
0.4913744062 0.3272726875 0.1196981562
0.5143663125 0.3344605938 0.1213273437
0.5357093750 0.3407847813 0.1226748125
0.5555580625 0.3462840313 0.1238151563
0.5747687812 0.3514258438 0.1249452813
0.5940980000 0.3563782813 0.1260662188
0.6142974375 0.3613714375 0.1273833437
0.6356590312 0.3665877813 0.1289783125
0.6582684688 0.3721589687 0.1312680000
0.6822257188 0.3785452500 0.1340773750
0.7085816250 0.3865140000 0.1383969062
0.7393517188 0.3976424063 0.1451580313
0.7768398437 0.4133909375 0.1555780625
0.8217692500 0.4343787500 0.1703097812
0.8714940000 0.4588119063 0.1878833750
0.0972703750 0.2669568750 0.1195430000
0.1026771562 0.2683781875 0.1200608125
0.1090461250 0.2699989375 0.1205171250
0.1182733125 0.2732143125 0.1208369687
0.1312216250 0.2784147500 0.1218115000
0.1458056562 0.2859580625 0.1227790625
0.1625781875 0.2962630000 0.1233350625
0.1876978437 0.3121162187 0.1221789375
0.2195311875 0.3297808750 0.1208887500
0.2551945000 0.3460327188 0.1201026875
0.2927523750 0.3535286875 0.1185606250
0.3287674688 0.3499452812 0.1162526563
0.3587015000 0.3442579375 0.1156720625
0.3840950625 0.3393460000 0.1154802500
0.4058324375 0.3349646250 0.1156720625
0.4256673750 0.3322180000 0.1161558750
0.4458531875 0.3323750000 0.1176539375
0.4675410937 0.3355557812 0.1199679063
0.4903615625 0.3417269375 0.1223813125
0.5126231875 0.3485590625 0.1246503750
0.5336332500 0.3550589375 0.1266433750
0.5533452500 0.3609048750 0.1283060313
0.5724497500 0.3664189375 0.1299276250
0.5918336250 0.3718089375 0.1314612187
0.6119296250 0.3771406875 0.1332428125
0.6331720000 0.3825907813 0.1350652500
0.6556852500 0.3883541875 0.1374610625
0.6796531875 0.3948642500 0.1405368125
0.7061016250 0.4029907500 0.1450861875
0.7371731250 0.4142907188 0.1520770000
0.7750133125 0.4303392500 0.1632331875
0.8205588750 0.4517788125 0.1786120312
0.8709868750 0.4768486250 0.1970216875
0.1019330313 0.2846658750 0.1234170938
0.1071132812 0.2863415000 0.1240506563
0.1136410938 0.2881274688 0.1245308125
0.1231354688 0.2914150938 0.1251595000
0.1359151250 0.2967080937 0.1257853750
0.1507683437 0.3045450312 0.1269880000
0.1682284687 0.3150677500 0.1275652500
0.1933231875 0.3299040625 0.1268422188
0.2242077188 0.3471562188 0.1256677812
0.2580065938 0.3636240625 0.1246419062
0.2929718750 0.3752968437 0.1239593750
0.3290939688 0.3765372500 0.1217806875
0.3614534375 0.3719271250 0.1204132813
0.3891244062 0.3668390625 0.1199881563
0.4126445000 0.3620515625 0.1199881563
0.4332205937 0.3580070938 0.1203194375
0.4521297500 0.3554808750 0.1209698438
0.4712268125 0.3552325937 0.1222498125
0.4913847500 0.3577470000 0.1246001250
0.5119461562 0.3624326562 0.1270963125
0.5321294375 0.3681134062 0.1295455313
0.5513792500 0.3738296250 0.1316470937
0.5703239063 0.3794645938 0.1337319687
0.5895715312 0.3851585312 0.1358422500
0.6095677187 0.3908399375 0.1380007500
0.6306892500 0.3965697500 0.1404020938
0.6531614688 0.4026641563 0.1430938125
0.6771450000 0.4094453750 0.1464495625
0.7037404687 0.4178328437 0.1513695000
0.7349695313 0.4293672188 0.1586874375
0.7731138750 0.4457229688 0.1701880625
0.8189455625 0.4675168750 0.1861910312
0.8697488125 0.4930155625 0.2051595937
0.1067765000 0.3023000000 0.1273320000
0.1121034062 0.3039720625 0.1279476562
0.1190100625 0.3059869375 0.1284054375
0.1285608125 0.3095666875 0.1291697500
0.1415502500 0.3150676250 0.1297762500
0.1566883125 0.3228348750 0.1312475625
0.1745944375 0.3329035625 0.1319500000
0.1991423125 0.3466789375 0.1314104375
0.2289975000 0.3632182500 0.1301995000
0.2615628125 0.3798868750 0.1294394688
0.2948650000 0.3930216875 0.1288308125
0.3288424375 0.3989330937 0.1273417187
0.3626720000 0.3970452500 0.1255183750
0.3922944063 0.3924655000 0.1246122188
0.4178485625 0.3875705000 0.1244810000
0.4397686875 0.3830056250 0.1244910938
0.4590955000 0.3792340000 0.1249590000
0.4771495313 0.3767446250 0.1255861562
0.4951681250 0.3763337500 0.1271155000
0.5135643437 0.3780256250 0.1292367813
0.5319295000 0.3813765000 0.1314958750
0.5502216250 0.3860177500 0.1339672812
0.5685175625 0.3912163125 0.1364303750
0.5874444375 0.3967962187 0.1391370000
0.6073062500 0.4026527500 0.1417925000
0.6282914688 0.4087103125 0.1447338125
0.6507104375 0.4151637500 0.1478690625
0.6747009688 0.4223301250 0.1517530313
0.7014347500 0.4310738750 0.1569996250
0.7328872500 0.4429573437 0.1648819375
0.7712949375 0.4596529375 0.1766316875
0.8173804375 0.4818126563 0.1928589687
0.8683975000 0.5076355000 0.2123270000
0.1124703438 0.3196207500 0.1314395938
0.1180487812 0.3213627187 0.1318838125
0.1249502813 0.3233640937 0.1321860000
0.1347748750 0.3269325625 0.1330605938
0.1476221875 0.3320497188 0.1338099688
0.1625419687 0.3392120625 0.1349419687
0.1806515938 0.3490496250 0.1360005000
0.2048721875 0.3623460938 0.1358267500
0.2339190313 0.3783486563 0.1349512812
0.2654270313 0.3949446875 0.1342087188
0.2973685000 0.4089654375 0.1337601250
0.3299521562 0.4176716250 0.1327787813
0.3631206250 0.4189463125 0.1306864375
0.3942178437 0.4157270000 0.1294012187
0.4214370312 0.4111420625 0.1289656875
0.4450237188 0.4065253125 0.1288217812
0.4653715312 0.4022216875 0.1291314375
0.4836371875 0.3985912812 0.1295830625
0.5007322813 0.3962526563 0.1304845938
0.5173360313 0.3955855625 0.1316841562
0.5338854063 0.3965359687 0.1336040625
0.5505895937 0.3990167187 0.1359095625
0.5677877188 0.4028215937 0.1385822188
0.5859751250 0.4077030313 0.1414683125
0.6052665938 0.4132423750 0.1444682188
0.6259930938 0.4193749375 0.1478798438
0.6483124688 0.4260731562 0.1516001250
0.6723354688 0.4335914375 0.1560425000
0.6992452188 0.4427870625 0.1618706562
0.7309127812 0.4550589687 0.1700708125
0.7695973125 0.4722142812 0.1824137812
0.8158612500 0.4947850625 0.1990027812
0.8668987812 0.5209555625 0.2187248125
0.1183876875 0.3359201250 0.1352749375
0.1240122500 0.3373965937 0.1355701875
0.1311786875 0.3393245000 0.1361396250
0.1408665313 0.3425510937 0.1367155000
0.1538416875 0.3474241250 0.1375431250
0.1686608125 0.3543146875 0.1388061875
0.1866305000 0.3640318750 0.1403423750
0.2102008125 0.3767395625 0.1400667500
0.2387220000 0.3924059375 0.1395761250
0.2692476250 0.4088353750 0.1390210625
0.3002025000 0.4233417500 0.1386615000
0.3315795625 0.4338099063 0.1379043125
0.3635447500 0.4378761875 0.1362287500
0.3950806875 0.4365527812 0.1344222187
0.4237188750 0.4329401250 0.1335847500
0.4488153750 0.4285154375 0.1333231250
0.4705098750 0.4239720625 0.1334718750
