bundles/resolve-cinematic-luts/Gamut/CINECLIPSE+/Cineclipse 03.cube
TITLE "Cineclipse 03 by Gamut"
# Version 1.0 - 07/22/2024 - Designed for Rec.709 Color Space. Copyright 2024 Gamut, LLC
LUT_3D_SIZE 5
0.0795820000 0.0746640000 0.0746640000
0.1866062500 0.0728787500 0.0506645000
0.3766590000 0.0805350000 0.0169545000
0.5266505000 0.0949840000 0.0063090000
0.7736470000 0.1592180000 0.0362740000
0.0760425000 0.1524472500 0.0915260000
0.2083552500 0.1861397500 0.0922722500
0.4499730000 0.2191765000 0.0854687500
0.6172955000 0.2479612500 0.0832890000
0.8463387500 0.3230247500 0.1213415000
0.1067765000 0.3023000000 0.1273320000
0.2289975000 0.3632182500 0.1301995000
0.4590955000 0.3792340000 0.1249590000
0.6073062500 0.4026527500 0.1417925000
0.8683975000 0.5076355000 0.2123270000
0.1604537500 0.4197675000 0.1603350000
0.2697020000 0.4700757500 0.1718147500
0.4786977500 0.5403960000 0.1624290000
0.6217327500 0.5127770000 0.1652185000
0.8578705000 0.5907902500 0.2472680000
0.2557850000 0.6173480000 0.2459130000
0.3374397500 0.6630520000 0.2626567500
0.5189340000 0.7612065000 0.2862600000
0.6700282500 0.7980935000 0.2828175000
0.8666170000 0.7642030000 0.2872370000
0.0749152500 0.0807725000 0.1723852500
0.1572587500 0.0906715000 0.1880605000
0.3727420000 0.1074132500 0.1260800000
0.5041420000 0.1085202500 0.1050165000
0.7468275000 0.1596537500 0.1151182500
0.0534887500 0.2011225000 0.2252882500
0.2052652567 0.2176702165 0.2422397589
0.4451729018 0.2075727366 0.1727780647
0.5910447924 0.2127678705 0.1492877835
0.8149785000 0.2802290000 0.1765877500
0.0940442500 0.3802445000 0.2185267500
0.2386471071 0.4031913504 0.2478967455
0.4934417455 0.4437393929 0.2551765915
0.6585208594 0.4536427656 0.2593488973
0.8958780000 0.5385870000 0.3153195000
0.1446490000 0.4860592500 0.2522992500
0.2727758683 0.5073089219 0.2787666250
0.4854283080 0.5876121027 0.2979486071
0.6537076562 0.5732362746 0.2928331540
0.8871330000 0.6506425000 0.3619872500
0.2403625000 0.6624910000 0.3187092500
0.3352025000 0.6920285000 0.3439792500
0.5286610000 0.7765200000 0.3942597500
0.6782212500 0.8290540000 0.4094610000
0.8793715000 0.8018372500 0.3985850000
0.0769085000 0.0985280000 0.3036600000
0.1390297500 0.0947757500 0.3245412500
0.3709115000 0.1467030000 0.3052440000
0.5278085000 0.1595260000 0.2392327500
0.7593080000 0.2163190000 0.2527695000
0.0657832500 0.2151140000 0.3659292500
0.1873671540 0.2191741518 0.3804427679
0.4206302433 0.2611036607 0.3749045201
0.5849154509 0.2719479821 0.3121637277
0.8025085000 0.3057685000 0.2997417500
0.1035860000 0.4342355000 0.4060260000
0.2086652277 0.4571484955 0.4231605067
0.4909673728 0.4993984643 0.4475930089
0.6826307612 0.4725915804 0.3896086518
0.8853605000 0.5086515000 0.3879745000
0.1268607500 0.5410405000 0.3904375000
0.2336294442 0.5715781094 0.4072881897
0.4891407902 0.6220261830 0.4500087344
0.6874570692 0.6511952924 0.4453661562
0.9181797500 0.7091010000 0.4872585000
0.2056150000 0.7211890000 0.4207095000
0.3215190000 0.7431267500 0.4394122500
0.5381990000 0.8038315000 0.5156860000
0.6825030000 0.8460832500 0.5467152500
0.8939595000 0.8412135000 0.5266255000
0.0840315000 0.1138810000 0.3805920000
0.1376770000 0.1091672500 0.4024015000
0.3187270000 0.1471025000 0.4226532500
0.5234612500 0.1830252500 0.3520872500
0.7708657500 0.2522280000 0.3294577500
0.0811257500 0.2367327500 0.4480980000
0.1869870379 0.2302642969 0.4598106808
0.3831826049 0.2598961384 0.4857559487
0.5778650982 0.3018517679 0.4202475826
0.8121610000 0.3573140000 0.3970712500
0.1108650000 0.4392830000 0.5081905000
0.2139056496 0.4604973013 0.5317249464
0.4653168705 0.4963205781 0.5746649241
0.6539638080 0.5057269018 0.5233579955
0.8692835000 0.5166767500 0.4736945000
0.1401645000 0.5711212500 0.5030387500
0.2316397321 0.5974734063 0.5229441607
0.4591559487 0.6478330424 0.5548686004
0.6904009799 0.6938078594 0.5844563393
0.9212295000 0.7105052500 0.5631435000
0.2015335000 0.7496572500 0.5151080000
0.3132682500 0.7723167500 0.5328765000
0.5318132500 0.8256237500 0.5999612500
0.6818727500 0.8583625000 0.6552862500
0.9020417500 0.8656840000 0.6309332500
0.1056690000 0.1541330000 0.5430200000
0.1510307500 0.1514590000 0.5657530000
0.2965350000 0.1765925000 0.6163890000
0.4484525000 0.2215485000 0.6154912500
0.7745120000 0.2881430000 0.4885690000
0.1212392500 0.2853435000 0.6213360000
0.2056912500 0.2758245000 0.6355807500
0.3529917500 0.2912392500 0.6830687500
0.5012765000 0.3336965000 0.6909447500
0.8138890000 0.4122027500 0.5755645000
0.1308880000 0.4680045000 0.7026130000
0.2401967500 0.4846075000 0.7216282500
0.4378155000 0.5071470000 0.7645200000
0.5737357500 0.5179062500 0.7836490000
0.8670855000 0.6185210000 0.7174735000
0.1695510000 0.6057752500 0.7310692500
0.2651185000 0.6237022500 0.7516227500
0.4611977500 0.6651115000 0.8010992500
0.6384647500 0.6945135000 0.8423237500
0.8952887500 0.7502780000 0.8035847500
0.2396060000 0.7875170000 0.7344720000
0.3451900000 0.8053635000 0.7531245000
0.5311245000 0.8520275000 0.8106150000
0.6615380000 0.8792202500 0.8428810000
0.9097400000 0.9051630000 0.8665840000
