bundles/resolve-cinematic-luts/Gamut/CINECLIPSE+/Cineclipse 05.cube
TITLE "Cineclipse 05 by Gamut"
# Version 1.0 - 07/22/2024 - Designed for Rec.709 Color Space. Copyright 2024 Gamut, LLC
LUT_3D_SIZE 5
0.0766620000 0.0776460000 0.0781340000
0.1878690000 0.0767852500 0.0531242500
0.3968570000 0.0842600000 0.0145885000
0.5354387500 0.0965177500 0.0069000000
0.7725170000 0.1523120000 0.0283890000
0.0696032500 0.1527895000 0.0891627500
0.2003380000 0.1941272500 0.0938440000
0.4687005000 0.2391937500 0.0898947500
0.6282305000 0.2722102500 0.0895545000
0.8652597500 0.3607857500 0.1354032500
0.0904595000 0.2947430000 0.1205805000
0.2041337500 0.3483817500 0.1291210000
0.4602745000 0.3833955000 0.1257560000
0.6065102500 0.4103825000 0.1434022500
0.8782340000 0.5299500000 0.2239805000
0.1266240000 0.4043870000 0.1477240000
0.2372330000 0.4486177500 0.1633430000
0.4752890000 0.5291040000 0.1618172500
0.6116142500 0.5040812500 0.1618780000
0.8721215000 0.6062522500 0.2575957500
0.1894330000 0.5367970000 0.2070360000
0.2856517500 0.5834175000 0.2318180000
0.4918660000 0.7195855000 0.2664385000
0.6565045000 0.7719605000 0.2707225000
0.8669730000 0.7217260000 0.2758120000
0.0723622500 0.0831112500 0.1733985000
0.1403302500 0.0856192500 0.1933412500
0.3683520000 0.0959872500 0.1105282500
0.4978657500 0.0955905000 0.0840535000
0.7126592500 0.1292800000 0.0804780000
0.0474200000 0.2052087500 0.2394355000
0.1825278563 0.2273444350 0.2620890625
0.4595325300 0.2185224537 0.1713504337
0.6006012200 0.2239154025 0.1427651175
0.8266077500 0.3015647500 0.1753847500
0.0776400000 0.3772680000 0.2277902500
0.1912878713 0.4083137963 0.2581152350
0.5014365862 0.4641768938 0.2829285412
0.6664702088 0.4710205712 0.2815300425
0.9065465000 0.5685555000 0.3434890000
0.1141410000 0.4794130000 0.2596025000
0.2238741287 0.5042541987 0.2857848550
0.4805990987 0.5858269925 0.3244716738
0.6533110850 0.5814678012 0.3168371050
0.9026942500 0.6757190000 0.3941825000
0.1583392500 0.6069990000 0.3112035000
0.2693385000 0.6351130000 0.3343715000
0.5027470000 0.7485805000 0.4065195000
0.6677562500 0.8262807500 0.4380270000
0.8866462500 0.7951572500 0.4188720000
0.0718440000 0.0979295000 0.3044505000
0.1244435000 0.0930095000 0.3183557500
0.3606070000 0.1434035000 0.3091440000
0.5173370000 0.1541952500 0.2396305000
0.7094595000 0.1787010000 0.2324075000
0.0580517500 0.2210790000 0.3713722500
0.1707395800 0.2307619163 0.3845299488
0.4160308875 0.2760332488 0.3923485625
0.5826153588 0.2825862887 0.3182500975
0.7854365000 0.2976717500 0.2870780000
0.0898105000 0.4364380000 0.4126325000
0.1638583625 0.4594311437 0.4298189788
0.4872677325 0.5196804688 0.4646156825
0.6890390825 0.4901727125 0.4029924687
0.8991655000 0.5361625000 0.4047060000
0.0991220000 0.5260872500 0.3957142500
0.1782532938 0.5532610212 0.4121713188
0.4734165125 0.6224866663 0.4606554688
0.6870560713 0.6604327463 0.4626231062
0.9231187500 0.7220675000 0.5035895000
0.1488690000 0.6585895000 0.4107055000
0.2413142500 0.6894822500 0.4285115000
0.5051895000 0.7853500000 0.5115380000
0.6700540000 0.8496197500 0.5669805000
0.8996000000 0.8479875000 0.5414615000
0.0767852500 0.1088047500 0.3740207500
0.1245317500 0.1039735000 0.3877032500
0.2976030000 0.1363312500 0.4199592500
0.5126520000 0.1707195000 0.3393435000
0.7240997500 0.2194877500 0.3195782500
0.0678490000 0.2414392500 0.4468137500
0.1709559725 0.2400528138 0.4555300313
0.3747091750 0.2662914900 0.4874964637
0.5757362250 0.3159357875 0.4222736400
0.7949180000 0.3522447500 0.3926272500
0.0960017500 0.4382965000 0.5018267500
0.1713784613 0.4627204325 0.5253695162
0.4580196587 0.5111950900 0.5779015100
0.6592183488 0.5203155875 0.5306969012
0.8841142500 0.5235257500 0.4674887500
0.1147482500 0.5562862500 0.4968917500
0.1812293187 0.5784879963 0.5137344587
0.4325774462 0.6402821875 0.5517697937
0.6867564275 0.7019079900 0.5916899800
0.9267487500 0.7231630000 0.5718942500
0.1505342500 0.6828587500 0.4934035000
0.2289775000 0.7191820000 0.5141362500
0.4954507500 0.8102557500 0.5913140000
0.6659345000 0.8627225000 0.6619535000
0.9053240000 0.8719842500 0.6372787500
0.0856220000 0.1249650000 0.4594460000
0.1284810000 0.1207480000 0.4723602500
0.2758820000 0.1412995000 0.5243480000
0.4474982500 0.1932797500 0.5158930000
0.7243150000 0.2371920000 0.3976480000
0.0859577500 0.2725042500 0.5469182500
0.1749922500 0.2637347500 0.5552442500
0.3447440000 0.2749502500 0.6053805000
0.5015562500 0.3304942500 0.6196940000
0.7993417500 0.4052197500 0.5106387500
0.1045360000 0.4510690000 0.6372230000
0.1889412500 0.4731700000 0.6686250000
0.4252875000 0.5101765000 0.7432940000
0.5634122500 0.5216730000 0.7807347500
0.8777705000 0.6167085000 0.6841060000
0.1414422500 0.5859942500 0.6786257500
0.2117942500 0.6080282500 0.7157060000
0.4359580000 0.6578122500 0.8024337500
0.6201070000 0.6947282500 0.8484535000
0.9019412500 0.7566632500 0.8167387500
0.1764850000 0.7373630000 0.6708950000
0.2599345000 0.7705130000 0.7086112500
0.5009210000 0.8504830000 0.8157240000
0.6402665000 0.8818632500 0.8507595000
0.9138630000 0.9097090000 0.8749930000
