bundles/resolve-cinematic-luts/Phantom Luts/Komodo Phantom FILM LUTs G2/Komodo Phantom FILM LUTs G2/33x/Standard (No WB Offset)/Bleach_Komodo_Legacy_G2_33x.cube
TITLE "Generated by Resolve"
LUT_3D_SIZE 5
0.0413977 0.0541238 0.0424048
0.0746777 0.0546731 0.0439002
0.383169 0.0649729 0.0649577
0.684672 0.0756085 0.113329
0.695689 0.0763256 0.132158
0.0541085 0.133837 0.0539101
0.135042 0.158984 0.0586709
0.634745 0.127123 0.0863508
0.714229 0.0809949 0.0624094
0.775113 0.128176 0.0867933
0.0738384 0.596445 0.0841535
0.127367 0.645136 0.0750286
0.758495 0.795087 0.206653
0.909895 0.857908 0.252872
0.909636 0.881666 0.277943
0.128069 0.758663 0.202396
0.129854 0.758953 0.190799
0.788327 0.864332 0.281529
0.913695 0.904128 0.337911
0.91371 0.904128 0.337957
0.12784 0.758679 0.20441
0.176471 0.763485 0.126406
0.846952 0.887526 0.291691
0.91371 0.904128 0.337957
0.91371 0.904128 0.337957
0.038407 0.0568856 0.0682231
0.0822461 0.0573434 0.0724193
0.458839 0.0701305 0.122637
0.72636 0.083299 0.223621
0.743053 0.0975814 0.30576
0.0496376 0.121355 0.101518
0.137072 0.147677 0.134005
0.631632 0.101595 0.128099
0.698817 0.0767834 0.127932
0.714641 0.0775769 0.148531
0.0479438 0.573159 0.179797
0.0690929 0.598978 0.110857
0.74728 0.781277 0.20087
0.910796 0.838285 0.237903
0.909834 0.858717 0.253635
0.11162 0.762432 0.334432
0.127581 0.758663 0.206973
0.739895 0.842832 0.270542
0.913283 0.904036 0.334874
0.91371 0.904128 0.337957
0.0850233 0.768734 0.407416
0.125505 0.758816 0.228092
0.786023 0.86334 0.281453
0.91313 0.904051 0.333089
0.91371 0.904128 0.337942
0.0363775 0.0648661 0.234165
0.088716 0.0623484 0.27512
0.556664 0.0758679 0.447547
0.773754 0.0894179 0.60824
0.816205 0.115328 0.692073
0.0291295 0.104982 0.318959
0.0533913 0.0618448 0.375845
0.684688 0.0915084 0.587304
0.798871 0.104906 0.657633
0.816999 0.115541 0.691341
0.0184787 0.519936 0.467155
0.0204929 0.533028 0.482231
0.717037 0.699947 0.678508
0.933349 0.727199 0.707027
0.939437 0.751324 0.732998
0.0716869 0.775372 0.606134
0.0714122 0.774807 0.564141
0.384375 0.781598 0.416846
0.925887 0.909377 0.570794
0.920546 0.905043 0.417731
0.075288 0.776043 0.6795
0.0717784 0.775372 0.611276
0.546487 0.807187 0.560769
0.915999 0.905653 0.547646
0.9131 0.904067 0.332601
0.0339055 0.0682383 0.502098
0.094377 0.0633707 0.548989
0.576684 0.0854658 0.68191
0.8224 0.122362 0.745159
0.8224 0.122362 0.745159
0.0255589 0.115679 0.608148
0.0650187 0.0601663 0.565072
0.69398 0.100084 0.710887
0.8224 0.122362 0.745159
0.8224 0.122362 0.745159
0.0189059 0.49366 0.621149
0.0209201 0.494499 0.638636
0.628519 0.595544 0.831601
0.950851 0.676341 0.884199
0.954879 0.70515 0.889662
0.0777905 0.772305 0.736126
0.0789807 0.773434 0.724376
0.133394 0.760784 0.713695
0.950973 0.929259 0.888869
0.962448 0.933639 0.893935
0.0771344 0.771984 0.738445
0.0780804 0.772412 0.735042
0.0855879 0.802121 0.711116
0.943923 0.948592 0.889143
0.962798 0.951659 0.895506
0.0556802 0.0606546 0.562737
0.134279 0.0698405 0.599207
0.647822 0.0932021 0.700435
0.8224 0.122362 0.745159
0.8224 0.122362 0.745159
0.0252384 0.11194 0.606714
0.0872511 0.0619516 0.575189
0.72607 0.105379 0.719081
0.8224 0.122362 0.745159
0.8224 0.122362 0.745159
0.0217594 0.501991 0.644053
0.0214847 0.496742 0.643565
0.643702 0.596048 0.836057
0.9505 0.674464 0.883711
0.954787 0.704524 0.889494
0.0771344 0.771984 0.738445
0.0763867 0.769726 0.737652
0.104402 0.737179 0.74641
0.937682 0.912139 0.90016
0.962463 0.924437 0.905501
0.0771344 0.771984 0.738445
0.0771344 0.771984 0.738445
0.0865339 0.805371 0.759777
0.925246 0.944656 0.904814
0.962661 0.95256 0.911696
