bundles/resolve-cinematic-luts/Phantom Luts/Komodo Phantom FILM LUTs G2/Komodo Phantom FILM LUTs G2/33x/Standard (No WB Offset)/Bleach_Komodo_Legacy_G2_33x.cube
TITLE "Generated by Resolve"
LUT_3D_SIZE 33
0.0413977 0.0541238 0.0424048
0.0413977 0.0541238 0.0424048
0.0413977 0.0541238 0.0424048
0.0413977 0.0541238 0.0424048
0.0424506 0.0542153 0.0425574
0.0467689 0.0547799 0.0433204
0.051667 0.0548409 0.0436866
0.0614939 0.055024 0.0430915
0.0746777 0.0546731 0.0439002
0.0909133 0.0543374 0.0452125
0.113176 0.0538338 0.0469215
0.139773 0.0542611 0.0477455
0.17377 0.0555123 0.0484932
0.214054 0.0576486 0.0508278
0.261509 0.0609751 0.0542306
0.315877 0.0637522 0.0595712
0.383169 0.0649729 0.0649577
0.463279 0.0638437 0.0696727
0.530678 0.0637369 0.0759289
0.583932 0.0638285 0.0846723
0.626795 0.0637369 0.0922866
0.665904 0.0735485 0.100343
0.680095 0.0751049 0.10634
0.682383 0.0753796 0.110201
0.684672 0.0756085 0.113329
0.686625 0.0756542 0.116518
0.688182 0.0756542 0.119112
0.689494 0.0758373 0.12195
0.691035 0.0759747 0.12462
0.692622 0.0760815 0.126864
0.693584 0.0761883 0.128511
0.694697 0.0762951 0.130449
0.695689 0.0763256 0.132158
0.0413977 0.0541238 0.0424048
0.0413977 0.0541238 0.0424048
0.0413977 0.0541238 0.0424048
0.0413977 0.0541238 0.0424048
0.043473 0.0544442 0.0427863
0.0490425 0.0547341 0.0435492
0.0561532 0.0552834 0.0430762
0.0706188 0.0548409 0.0436561
0.0875563 0.0543526 0.04477
0.110826 0.0537881 0.0466773
0.138293 0.0541543 0.0476692
0.172229 0.0555581 0.0485542
0.213321 0.0576944 0.0509041
0.261769 0.0610208 0.0542458
0.316075 0.0637369 0.0594797
0.385351 0.0650339 0.0651713
0.466941 0.0637675 0.0699779
0.532799 0.0635843 0.0758679
0.58735 0.0638132 0.0852979
0.629145 0.0645762 0.0922408
0.66775 0.0737469 0.100481
0.679927 0.0750896 0.105989
0.682139 0.075349 0.109773
0.684276 0.0755627 0.11281
0.686198 0.0756542 0.11574
0.687541 0.075639 0.118196
0.688807 0.0757153 0.120104
0.68983 0.0758831 0.122621
0.690929 0.0759747 0.124361
0.691798 0.0760357 0.125566
0.692653 0.0760967 0.12694
0.693324 0.0761578 0.128145
0.693523 0.0758831 0.128573
0.0413977 0.0541238 0.0424048
0.0413977 0.0541238 0.0424048
0.0413977 0.0541238 0.0424048
0.0413977 0.0541238 0.0424048
0.0440528 0.0545205 0.0428626
0.05066 0.0547494 0.0436713
0.0621958 0.0550088 0.0431678
0.0783703 0.0545357 0.0442054
0.0987106 0.0538949 0.0455634
0.125917 0.0537118 0.0471046
0.156863 0.0543374 0.0474708
0.195789 0.0560616 0.0487373
0.241688 0.058854 0.051606
0.293675 0.0617227 0.0553445
0.355581 0.063859 0.0607004
0.434607 0.0632334 0.0656138
0.507317 0.0624857 0.0704356
0.566079 0.0625925 0.0778515
0.612406 0.0623178 0.0863966
0.651987 0.0723125 0.092607
0.675792 0.0749065 0.100755
0.679026 0.0750286 0.104616
0.680995 0.0751812 0.107591
0.682582 0.0754101 0.110491
0.684138 0.0755474 0.112627
0.685389 0.0756542 0.114473
0.68632 0.075639 0.115892
0.68687 0.0756542 0.117098
0.687205 0.0756542 0.117723
0.687434 0.0756542 0.11809
0.687526 0.075639 0.118273
0.687465 0.075639 0.118166
0.687282 0.0756542 0.117876
0.0413977 0.0541238 0.0424048
0.0413977 0.0541238 0.0424048
0.0413977 0.0541238 0.0424048
0.0413977 0.0541238 0.0424048
0.0430152 0.0547189 0.0428016
0.0501717 0.0552224 0.0437171
0.0618601 0.055787 0.043122
0.0798199 0.055314 0.0441749
0.102434 0.0546731 0.0458839
0.13135 0.054551 0.0474708
0.165225 0.0551156 0.0476844
0.204547 0.0564431 0.0484169
0.250309 0.0586404 0.0501564
0.301808 0.0602731 0.0522621
0.365743 0.0615091 0.0557565
0.446372 0.0603494 0.0594339
0.51725 0.0594339 0.0650492
0.571588 0.0598611 0.0713359
0.619577 0.0693065 0.0783246
0.65275 0.0726329 0.0827649
0.667948 0.0741283 0.0879377
0.670878 0.074403 0.092195
0.674434 0.0747845 0.0972
0.676387 0.0749676 0.100618
0.677531 0.0750439 0.10222
0.678447 0.0750439 0.103487
0.67895 0.0750286 0.104433
0.679301 0.0750134 0.105196
0.679133 0.0750134 0.104952
0.678798 0.0750286 0.104234
0.678447 0.0750286 0.103731
0.677211 0.0750439 0.10164
0.675883 0.0749218 0.10013
0.0417487 0.0554513 0.042649
0.0420233 0.056733 0.0428473
0.0420386 0.0576028 0.0428626
0.0423896 0.0577401 0.0430304
0.0438087 0.057084 0.0432441
0.0498665 0.058732 0.0450599
0.0589151 0.0596628 0.0447242
0.0781109 0.0588846 0.0440528
0.10071 0.0573587 0.0451209
0.132006 0.056611 0.0472877
0.167941 0.0572366 0.048249
0.209888 0.0589761 0.0492561
0.257038 0.0612192 0.0507362
0.310155 0.0622873 0.052781
0.371695 0.0622873 0.0538643
0.448341 0.0596933 0.0543984
0.512505 0.057847 0.0556039
0.570184 0.0648966 0.0614481
0.611429 0.0686351 0.0655833
0.641093 0.0713359 0.0689555
0.651469 0.0725872 0.0715343
0.654459 0.0729076 0.0729839
0.656809 0.0732128 0.0749371
0.6589 0.0735637 0.076463
0.660426 0.07364 0.0780194
0.660975 0.07364 0.0787976
0.66099 0.0736553 0.0787213
0.660533 0.0736553 0.0781415
0.659495 0.0736095 0.0773632
0.657786 0.0733806 0.0755932
0.656138 0.0731365 0.0734264
0.655192 0.0730297 0.0724193
0.653666 0.0728161 0.071458
0.0444343 0.0646982 0.045304
0.0450752 0.0672923 0.0458381
0.0451972 0.0688182 0.0458076
0.0454414 0.0691234 0.0458076
0.0483253 0.0682689 0.0462196
0.0548257 0.0691081 0.0471809
0.0657206 0.0711681 0.0501106
0.0864729 0.0708782 0.0484474
0.112322 0.0700084 0.048188
0.143664 0.0682383 0.048127
0.180484 0.0660105 0.0496529
0.219913 0.0645304 0.0515145
0.263432 0.0643168 0.0524605
0.316686 0.0650187 0.0532998
0.381704 0.0646067 0.0543374
0.45864 0.061677 0.0542611
0.521767 0.059556 0.0559243
0.573556 0.0608988 0.0593881
0.617624 0.0691844 0.0644694
0.64686 0.0719768 0.0675975
0.652216 0.0726482 0.068101
0.651576 0.0725719 0.0680095
0.651331 0.0725414 0.0680247
0.651011 0.0724804 0.0679026
0.651133 0.0725109 0.0679179
0.651652 0.0725872 0.0680095
0.652491 0.0726635 0.0681468
0.653788 0.0728008 0.0682841
0.655131 0.0729686 0.0684215
0.656611 0.073167 0.0686046
0.658244 0.0734264 0.0688487
0.66009 0.07364 0.0690623
0.661952 0.0738994 0.0692912
0.0478065 0.0797284 0.047837
0.0484932 0.0830549 0.0484474
0.0489967 0.0859998 0.0484321
0.0491188 0.0868086 0.0485237
0.0521248 0.0860914 0.0491493
0.057969 0.0859693 0.050309
0.0714733 0.0880446 0.052018
0.0919509 0.0910811 0.0522621
0.127901 0.0901045 0.0532235
0.16321 0.0881666 0.0540475
0.204929 0.0844739 0.0559854
0.249104 0.0806287 0.0573587
0.292729 0.0761273 0.0570687
0.340307 0.0721447 0.0550393
0.398444 0.0686351 0.0538186
0.468849 0.0646372 0.0536202
0.530526 0.0624857 0.0555276
0.580865 0.0611276 0.0584421
0.626841 0.070161 0.0640879
0.657038 0.0732128 0.0682231
0.665843 0.0742657 0.0694285
0.665675 0.0742657 0.0693828
0.665675 0.0742504 0.0694438
0.666102 0.0742809 0.0695354
0.666835 0.0743114 0.069398
0.667659 0.0743267 0.069276
0.668482 0.074403 0.0692302
0.669703 0.0745098 0.069276
0.671305 0.0747234 0.0692149
0.673136 0.0749523 0.0691539
0.674983 0.0752422 0.0691386
0.676951 0.0755169 0.0690318
0.679194 0.0757458 0.0687877
0.0516976 0.102388 0.0516518
0.0517586 0.107713 0.0516213
0.0525063 0.111299 0.051545
0.0526131 0.111971 0.051133
0.0542916 0.111986 0.0515755
0.0608988 0.110887 0.0525063
0.074342 0.113817 0.0542611
0.0971695 0.116609 0.0561685
0.130724 0.121782 0.0534524
0.186023 0.120745 0.057969
0.234241 0.119051 0.0621653
0.285084 0.114824 0.0648356
0.340658 0.107988 0.0678721
0.405035 0.10045 0.0675212
0.469459 0.0899519 0.0634623
0.520638 0.080354 0.0576791
0.560861 0.0712902 0.0524147
0.599115 0.0660868 0.0543526
0.633143 0.0671702 0.059968
0.668299 0.0743725 0.0663767
0.680507 0.0759442 0.0687877
0.680964 0.0760204 0.0688182
0.681544 0.0760967 0.0688029
0.682078 0.0761883 0.0688334
0.683207 0.0763714 0.0686503
0.684657 0.0765087 0.0684062
0.686244 0.0766918 0.0681773
0.687785 0.0768139 0.0679026
0.689906 0.0770733 0.0674601
0.692424 0.0773632 0.0669261
0.694636 0.0776379 0.066453
0.696712 0.077821 0.0659648
0.700404 0.078172 0.0647593
0.0541085 0.133837 0.0539101
0.0550088 0.141146 0.0547341
0.0550088 0.14493 0.0532998
0.0554971 0.146059 0.0526131
0.0557565 0.146227 0.0525978
0.0627756 0.146929 0.0537881
0.074403 0.148363 0.0555734
0.0992142 0.153094 0.0580453
0.135042 0.158984 0.0586709
0.184146 0.166217 0.0559701
0.258289 0.167422 0.0635538
0.323095 0.16492 0.0724346
0.394995 0.160037 0.0767987
0.475303 0.150332 0.0794385
0.540719 0.142824 0.0845502
0.59266 0.135302 0.0873579
0.634745 0.127123 0.0863508
0.666285 0.112963 0.0784466
0.691508 0.0966812 0.0671092
0.708293 0.0786603 0.0574807
0.721202 0.0828412 0.0621195
0.715129 0.0796521 0.0614786
0.714199 0.0796674 0.0603647
0.714611 0.0797284 0.0604715
0.714229 0.0809949 0.0624094
0.715236 0.0820783 0.0635538
0.716899 0.0797742 0.0611276
0.720394 0.0766155 0.0573739
0.729717 0.0835584 0.0596628
0.741802 0.0972763 0.0667887
0.752575 0.107973 0.0740978
0.763195 0.117037 0.0799115
0.775113 0.128176 0.0867933
0.0569009 0.171618 0.0571145
0.0573129 0.18085 0.0572671
0.0579385 0.185931 0.0563821
0.0579843 0.187015 0.0530709
0.0577707 0.186877 0.0528725
0.0619516 0.188022 0.053315
0.0725414 0.190097 0.055024
0.0943313 0.195361 0.0584421
0.134447 0.203632 0.0628672
0.184817 0.213245 0.0620737
0.250217 0.223224 0.0581979
0.339376 0.228916 0.0670634
0.441871 0.224537 0.0813001
0.524788 0.224247 0.0917067
0.589136 0.228031 0.101701
0.645075 0.228443 0.112978
0.694942 0.223011 0.124392
0.737972 0.214328 0.130022
0.774365 0.206958 0.12961
0.80383 0.195285 0.124941
0.812833 0.182788 0.118975
0.810132 0.176867 0.116579
0.809567 0.176089 0.116167
0.810285 0.177966 0.116915
0.813581 0.183246 0.119432
0.819165 0.192187 0.12491
0.824948 0.201877 0.130083
0.831617 0.21471 0.136782
0.842283 0.233951 0.147021
0.8533 0.255375 0.157305
0.86627 0.281956 0.169696
0.879881 0.311315 0.183658
0.891081 0.33753 0.196384
0.058793 0.217487 0.0590066
0.059266 0.22797 0.059205
0.0591897 0.233509 0.0572366
0.0590677 0.234211 0.0536202
0.0588846 0.234089 0.0518044
0.0591897 0.234775 0.0518959
0.0696727 0.238483 0.0540017
0.0872816 0.242679 0.0561837
0.123857 0.251881 0.0606241
0.180514 0.263233 0.0671092
0.244999 0.278111 0.0635843
0.327642 0.291676 0.0613413
0.443427 0.302022 0.0647898
0.551598 0.312078 0.0912032
0.626169 0.328038 0.117296
0.691081 0.348089 0.142107
0.748089 0.366049 0.165118
0.800305 0.377356 0.181689
0.846296 0.385916 0.195224
0.885847 0.386862 0.201328
0.903548 0.379248 0.209415
0.903334 0.379477 0.21033
0.903609 0.38088 0.210712
0.904631 0.386297 0.210544
0.907027 0.39765 0.211063
0.909148 0.41149 0.213092
0.909346 0.425971 0.214939
0.909346 0.444343 0.215961
0.907546 0.465492 0.213733
0.906126 0.486793 0.211688
0.902953 0.50576 0.206836
0.900343 0.521523 0.203037
0.898375 0.538705 0.199771
0.0577096 0.267369 0.0584726
0.0566415 0.277684 0.0574502
0.0563363 0.283299 0.0551308
0.056199 0.284718 0.0509804
0.0559701 0.284489 0.0471809
0.0559854 0.284672 0.046891
0.0606088 0.287526 0.0474098
0.077409 0.292348 0.0498054
0.107759 0.299504 0.0541543
0.163806 0.314626 0.0607919
0.235401 0.333654 0.0695811
0.315145 0.357 0.0652628
0.431617 0.378271 0.0640421
0.54461 0.40943 0.0727398
0.631647 0.446616 0.101793
0.704341 0.474205 0.145525
0.758785 0.496056 0.171008
0.806317 0.514641 0.187045
0.846967 0.531853 0.193637
0.878599 0.54461 0.194522
0.89688 0.548455 0.198062
0.898695 0.55024 0.198093
0.896406 0.554223 0.196918
0.895323 0.559136 0.196948
0.893477 0.565621 0.195789
0.892271 0.573754 0.19498
0.89099 0.583505 0.193378
0.889509 0.591653 0.190112
0.886885 0.601434 0.186755
0.884688 0.611963 0.184253
0.882033 0.62324 0.181582
0.880751 0.632624 0.176318
0.878935 0.641306 0.170596
0.0517586 0.319539 0.0543679
0.049897 0.33109 0.0526894
0.0489967 0.337362 0.0495003
0.0489967 0.33872 0.0448768
0.0485237 0.340154 0.0387884
0.0486915 0.34081 0.0373693
0.0486763 0.341482 0.0372931
0.0632792 0.346578 0.0392615
0.0880293 0.352819 0.0428931
0.138857 0.367514 0.0506142
0.213504 0.39353 0.0611887
0.299886 0.42829 0.0704051
0.408545 0.46424 0.0703288
0.532555 0.497734 0.0804761
0.620493 0.529091 0.0931716
0.690349 0.558419 0.112566
0.747646 0.582879 0.137896
0.798276 0.600961 0.164813
0.835813 0.617899 0.172656
0.865721 0.633448 0.169726
0.878325 0.641703 0.16907
0.878523 0.643885 0.168887
0.877119 0.647364 0.167407
0.877272 0.650599 0.16669
0.876738 0.655528 0.164218
0.876204 0.660548 0.161303
0.875471 0.666209 0.157504
0.874342 0.673243 0.152758
0.874266 0.680339 0.150408
0.874098 0.68716 0.14844
0.874006 0.694301 0.146563
0.873106 0.70132 0.143877
0.874464 0.708095 0.144152
0.0430304 0.378668 0.0473945
0.0408331 0.391821 0.0457313
0.0396735 0.398947 0.0423438
0.0399786 0.401465 0.0372625
0.0404364 0.402853 0.0312505
0.0412604 0.406012 0.027863
0.0413672 0.406394 0.0277867
0.0466926 0.407446 0.0277256
0.0723888 0.415106 0.0304875
0.113573 0.427604 0.0379492
0.190982 0.456519 0.0524147
0.29337 0.497353 0.076463
0.416449 0.537835 0.0948043
0.523598 0.565805 0.0965286
0.614343 0.592813 0.11014
0.689052 0.618051 0.123018
0.747417 0.640742 0.132616
0.796002 0.661158 0.143389
0.832105 0.679896 0.145205
0.861143 0.696635 0.142535
0.875181 0.706249 0.145892
0.875914 0.706584 0.146639
0.876402 0.709209 0.146426
0.876951 0.712093 0.146212
0.877668 0.715801 0.14641
0.879667 0.720134 0.148043
0.881392 0.725444 0.149233
0.883543 0.73077 0.151308
0.88574 0.73579 0.153094
0.887907 0.741588 0.156207
0.890272 0.748211 0.159838
0.892744 0.754421 0.163622
0.895155 0.760876 0.166949
0.0365301 0.44535 0.0427863
0.0368048 0.459083 0.0429541
0.0379492 0.467231 0.0413062
0.0390631 0.469963 0.036408
0.040116 0.472206 0.0306249
0.0435492 0.476768 0.0260777
0.0442512 0.477775 0.0258488
0.0450294 0.478599 0.0258793
0.0661631 0.482444 0.027451
0.112169 0.494743 0.0377661
0.185336 0.516976 0.0561685
0.302678 0.560281 0.0891737
0.421912 0.594614 0.115343
0.538979 0.621576 0.125032
0.61146 0.646647 0.128191
0.684031 0.669993 0.142809
0.750393 0.691905 0.157916
0.804044 0.712215 0.163272
0.844999 0.730678 0.163302
0.875441 0.748455 0.159289
0.892027 0.758053 0.164797
0.894011 0.758755 0.166262
0.894652 0.761196 0.168109
0.895567 0.764294 0.170321
0.897429 0.768582 0.173297
0.898512 0.773022 0.175769
0.899779 0.777539 0.18024
0.900893 0.782223 0.185168
0.902342 0.788098 0.190585
0.9037 0.793606 0.195743
0.905165 0.79942 0.201862
0.906416 0.804746 0.20766
0.907759 0.810117 0.213275
0.0454261 0.515358 0.053193
0.0498207 0.531441 0.0576486
0.053315 0.540505 0.057557
0.0559243 0.544366 0.0520485
0.0594186 0.548348 0.0464637
0.0688792 0.556451 0.0430457
0.073167 0.56054 0.0438697
0.0730602 0.560723 0.0439765
0.0868696 0.562234 0.0445106
0.136278 0.570947 0.0535897
0.207385 0.58613 0.0723888
0.314992 0.615473 0.102495
0.439017 0.643549 0.129519
0.548272 0.667811 0.147326
0.626764 0.693812 0.157565
0.686015 0.719432 0.165957
0.748119 0.742992 0.182452
0.80557 0.765011 0.193591
0.850645 0.785122 0.197787
0.883162 0.799939 0.204135
0.903777 0.807568 0.211246
0.907485 0.80914 0.212039
0.907256 0.8103 0.212558
0.907927 0.813504 0.21619
0.90869 0.816968 0.219287
0.90959 0.820371 0.223377
0.910628 0.824887 0.228016
0.911254 0.828962 0.231968
0.910872 0.833341 0.234516
0.91078 0.838163 0.237705
0.910475 0.843015 0.241367
0.910216 0.8477 0.244388
0.910048 0.851377 0.247379
0.0738384 0.596445 0.0841535
0.0808881 0.611429 0.0898146
0.0862898 0.62031 0.0903182
0.0901656 0.624338 0.0838636
0.0947738 0.629206 0.0760204
0.109316 0.638056 0.0741588
0.119402 0.644266 0.0746624
0.119631 0.644251 0.0746777
0.127367 0.645136 0.0750286
0.173404 0.646922 0.0783703
0.244297 0.654841 0.0940566
0.335088 0.667857 0.116823
0.469398 0.689708 0.141604
0.568856 0.712703 0.165957
0.647578 0.739605 0.187762
0.706584 0.767529 0.19791
0.758495 0.795087 0.206653
0.809903 0.817594 0.219242
0.850111 0.832853 0.222324
0.879942 0.841993 0.231022
0.901534 0.848737 0.242252
0.909957 0.851286 0.247303
0.910155 0.852689 0.248478
0.910079 0.855253 0.250645
0.909895 0.857908 0.252872
0.909712 0.86041 0.254963
0.909697 0.863447 0.257923
0.909728 0.86656 0.260868
0.909483 0.870298 0.264393
0.909621 0.87335 0.26772
0.909804 0.876051 0.271336
0.909651 0.87895 0.27425
0.909636 0.881666 0.277943
0.107134 0.667811 0.115785
0.113359 0.680461 0.120027
0.117723 0.687678 0.119081
0.122377 0.69189 0.111101
0.130632 0.697322 0.101915
0.150454 0.70602 0.101396
0.163577 0.717037 0.102586
0.163867 0.716716 0.102571
0.166842 0.715465 0.102235
0.213458 0.715206 0.105135
0.2822 0.715557 0.117754
0.372717 0.72105 0.135409
0.5084 0.734401 0.156725
0.601144 0.75787 0.18407
0.67538 0.785489 0.211429
0.736599 0.813642 0.227726
0.778393 0.836576 0.229984
0.815671 0.85275 0.237888
0.85156 0.8645 0.253254
0.879789 0.872847 0.264988
0.899092 0.878599 0.271839
0.909743 0.881895 0.278767
0.909789 0.882673 0.279927
0.909758 0.884169 0.281468
0.909911 0.886076 0.284108
0.909926 0.88806 0.2869
0.909926 0.88954 0.289937
0.909987 0.891066 0.292683
0.910567 0.892546 0.296345
0.910887 0.894377 0.299718
0.910933 0.896056 0.303136
0.910994 0.897292 0.30634
0.911513 0.898482 0.310094
0.133639 0.728008 0.136934
0.136172 0.738415 0.139788
0.13695 0.743709 0.138827
0.139361 0.74696 0.13225
0.144518 0.750729 0.126268
0.148379 0.755413 0.126116
0.15462 0.757931 0.125002
0.155993 0.757809 0.123934
0.155856 0.758068 0.121401
0.207309 0.760525 0.123232
0.302129 0.762219 0.141573
0.399695 0.763226 0.159121
0.534173 0.769375 0.179034
0.620981 0.7906 0.210727
0.690639 0.814496 0.240299
0.748089 0.838254 0.259113
0.788342 0.858763 0.263157
0.822995 0.873396 0.268452
0.854643 0.883635 0.279225
0.883131 0.89134 0.296513
0.902007 0.896651 0.31107
0.910979 0.899275 0.317632
0.911711 0.899626 0.314153
0.911604 0.899809 0.313619
0.911925 0.900511 0.31603
0.912139 0.901381 0.318593
0.912093 0.902068 0.321111
0.912444 0.90312 0.32488
0.912612 0.904067 0.327733
0.912718 0.904051 0.329244
0.91284 0.904051 0.33077
0.913024 0.904067 0.331991
0.913146 0.904051 0.333349
0.133455 0.759289 0.169574
0.131655 0.759075 0.17966
0.131197 0.75903 0.182025
0.13138 0.75906 0.180789
0.131594 0.759075 0.178897
0.131945 0.759152 0.176272
0.132219 0.759182 0.173846
0.132189 0.759197 0.173281
0.132372 0.759228 0.171664
0.140459 0.760098 0.146853
0.228855 0.767529 0.129824
0.350301 0.774853 0.157809
0.500252 0.779049 0.180743
0.606897 0.796399 0.212512
0.677424 0.818723 0.244633
0.741314 0.843229 0.270466
0.78938 0.86482 0.281376
0.824216 0.879744 0.285801
0.85507 0.889998 0.294316
0.883482 0.897139 0.305486
0.901884 0.901564 0.321874
0.912215 0.903853 0.334081
0.913466 0.904097 0.33611
0.913481 0.904082 0.33608
0.913497 0.904097 0.3364
0.913619 0.904112 0.337514
0.913634 0.904112 0.337667
0.913664 0.904112 0.33785
0.913725 0.904143 0.338109
0.913771 0.904143 0.338537
0.913817 0.904143 0.338964
0.913878 0.904158 0.339483
0.913863 0.904158 0.339345
0.128496 0.75874 0.199771
0.128511 0.758755 0.199725
0.128618 0.75877 0.199115
0.128893 0.758862 0.197238
0.129244 0.758923 0.194934
0.129396 0.758923 0.193759
0.129793 0.758953 0.191135
0.129854 0.758953 0.190799
0.129854 0.758953 0.190799
0.132052 0.759182 0.175235
0.148836 0.761273 0.126452
0.272618 0.770459 0.139223
0.421698 0.778988 0.171344
0.575601 0.789899 0.201312
0.657679 0.81207 0.236103
0.721782 0.835645 0.263874
0.777584 0.85919 0.280934
0.817487 0.877302 0.284108
0.850019 0.888395 0.2925
0.879637 0.896223 0.303578
0.900359 0.901213 0.315785
0.912398 0.903975 0.329625
0.913222 0.904036 0.334249
0.913649 0.904112 0.337758
0.913802 0.904143 0.338704
0.913787 0.904143 0.338552
0.913771 0.904143 0.338369
0.913741 0.904143 0.338186
0.913725 0.904128 0.338033
0.91371 0.904128 0.337957
0.91371 0.904128 0.337957
0.91371 0.904128 0.337957
0.91371 0.904128 0.337957
0.128344 0.758709 0.200671
0.128389 0.758724 0.200488
0.128527 0.758755 0.199619
0.128801 0.758816 0.197864
0.129213 0.758923 0.195178
0.129396 0.758923 0.193851
0.129824 0.758953 0.190967
0.129854 0.758953 0.190799
0.129854 0.758953 0.190799
0.132067 0.759167 0.175067
0.15848 0.761959 0.130434
0.278035 0.770855 0.1411
0.405097 0.778317 0.168627
0.564874 0.78822 0.197513
0.652354 0.810452 0.233692
0.717311 0.834287 0.261845
0.77496 0.857755 0.281163
0.815503 0.87628 0.28423
0.848295 0.887953 0.292119
0.879515 0.896254 0.303304
0.89926 0.900938 0.3149
0.910964 0.903716 0.326894
0.9131 0.904051 0.332708
0.913512 0.904082 0.336553
0.91371 0.904128 0.337942
0.91371 0.904128 0.337957
0.91371 0.904128 0.337957
0.91371 0.904128 0.337957
0.91371 0.904128 0.337957
0.91371 0.904128 0.337957
0.91371 0.904128 0.337957
0.91371 0.904128 0.337957
0.91371 0.904128 0.337957
0.128237 0.758694 0.201389
0.128267 0.758679 0.20119
0.12845 0.75874 0.200092
0.128725 0.758801 0.198291
0.129213 0.758923 0.1953
0.129396 0.758923 0.19379
0.129824 0.758953 0.190982
0.129854 0.758953 0.190799
0.129854 0.758953 0.190799
0.132433 0.759228 0.172427
0.16614 0.762753 0.127062
0.288487 0.771649 0.143252
0.417853 0.77879 0.170626
0.574701 0.789837 0.201038
0.658412 0.812314 0.236469
0.723751 0.836378 0.264698
0.778012 0.859464 0.280812
0.818051 0.877516 0.28455
0.850416 0.888579 0.292393
0.879576 0.896254 0.303609
0.899275 0.900954 0.315022
0.911345 0.903822 0.327214
0.913085 0.904067 0.332433
0.913466 0.904082 0.336095
0.91371 0.904128 0.337957
0.91371 0.904128 0.337957
0.91371 0.904128 0.337957
0.91371 0.904128 0.337957
0.91371 0.904128 0.337957
0.91371 0.904128 0.337957
0.91371 0.904128 0.337957
0.91371 0.904128 0.337957
0.91371 0.904128 0.337957
0.128145 0.758679 0.201907
0.128206 0.758679 0.201617
0.128374 0.758709 0.200473
0.128679 0.758785 0.19852
0.129198 0.758923 0.195224
0.129412 0.758923 0.193637
0.129854 0.758953 0.190829
0.129854 0.758953 0.190799
0.129854 0.758953 0.190768
0.132891 0.759258 0.167941
0.173892 0.763424 0.122759
0.305104 0.772946 0.14786
0.43624 0.779065 0.172961
0.58674 0.792447 0.205646
0.666972 0.815198 0.24036
0.729809 0.839078 0.266957
0.782025 0.861677 0.280598
0.821851 0.879133 0.285206
0.852827 0.889265 0.293584
0.881132 0.896452 0.304189
0.900572 0.901274 0.315526
0.911742 0.903883 0.327611
0.913069 0.904067 0.332403
0.913451 0.904082 0.335927
0.913695 0.904128 0.337911
0.91371 0.904128 0.337957
0.91371 0.904128 0.337957
0.91371 0.904128 0.337957
0.91371 0.904128 0.337957
0.91371 0.904128 0.337957
0.91371 0.904128 0.337957
0.91371 0.904128 0.337957
0.91371 0.904128 0.337957
0.128069 0.758663 0.202396
0.12813 0.758679 0.201953
0.128359 0.758709 0.200656
0.128679 0.758785 0.198566
0.129229 0.758907 0.195148
0.129458 0.758923 0.193286
0.129854 0.758953 0.190799
0.129854 0.758953 0.190799
0.129854 0.758953 0.190799
0.134524 0.759518 0.16112
0.198734 0.765286 0.126818
0.325963 0.774197 0.152834
0.47248 0.779538 0.17734
0.6 0.79527 0.210254
0.676783 0.818952 0.2448
0.738109 0.842405 0.269825
0.788327 0.864332 0.281529
0.826246 0.880476 0.286229
0.856504 0.890303 0.294896
0.884169 0.897246 0.305623
0.901518 0.901488 0.31696
0.911162 0.903777 0.327321
0.913085 0.904051 0.332479
0.913451 0.904082 0.335927
0.913695 0.904128 0.337911
0.91371 0.904128 0.337957
0.91371 0.904128 0.337957
0.91371 0.904128 0.337957
0.91371 0.904128 0.337957
0.91371 0.904128 0.337957
0.91371 0.904128 0.337957
0.91371 0.904128 0.337957
0.91371 0.904128 0.337957
0.127993 0.758648 0.202853
0.128099 0.758663 0.202197
0.128344 0.758709 0.200778
0.12871 0.758785 0.198428
0.129259 0.758923 0.194827
0.129549 0.758938 0.192721
0.129854 0.758953 0.190799
0.129854 0.758953 0.190799
0.130053 0.758968 0.18941
0.135546 0.759823 0.152285
0.223331 0.767147 0.127596
0.348669 0.775631 0.157717
0.501228 0.780758 0.182071
0.615915 0.799222 0.216999
0.688563 0.822843 0.250278
0.747799 0.846662 0.272755
0.796109 0.867903 0.282078
0.831632 0.882368 0.287419
0.860838 0.891478 0.296269
0.887037 0.897902 0.307454
0.90309 0.901915 0.31809
0.912154 0.90396 0.328725
0.913115 0.904051 0.332769
0.913466 0.904082 0.336065
0.91371 0.904128 0.337957
0.91371 0.904128 0.337957
0.91371 0.904128 0.337957
0.91371 0.904128 0.337957
0.91371 0.904128 0.337957
0.91371 0.904128 0.337957
0.91371 0.904128 0.337957
0.91371 0.904128 0.337957
0.91371 0.904128 0.337957
0.127947 0.758648 0.203235
0.128069 0.758663 0.202426
0.128359 0.758709 0.200702
0.128771 0.758816 0.198032
0.129305 0.758923 0.194522
0.129656 0.758938 0.192035
0.129854 0.758953 0.190799
0.129854 0.758953 0.190799
0.130877 0.759014 0.184085
0.141054 0.760281 0.143542
0.250706 0.768933 0.134524
0.378027 0.777356 0.164233
0.529397 0.783261 0.187671
