bundles/resolve-cinematic-luts/Phantom Luts/Komodo Phantom FILM LUTs G2/Komodo Phantom FILM LUTs G2/33x/Standard (No WB Offset)/Bleach_Komodo_G2_33x.cube
TITLE "Generated by Resolve"
LUT_3D_SIZE 5
0.0262913 0.0395514 0.0281834
0.0842603 0.0408026 0.0314641
0.459785 0.0504921 0.068925
0.71548 0.0621653 0.144121
0.725704 0.0626078 0.170779
0.0420844 0.161379 0.0421759
0.169039 0.197498 0.0451057
0.688548 0.153231 0.101396
0.729885 0.0681315 0.0606546
0.799405 0.139574 0.0939498
0.095079 0.644572 0.115557
0.160403 0.683955 0.0908675
0.793118 0.819821 0.230671
0.910018 0.867826 0.277485
0.910613 0.884993 0.307622
0.132342 0.762829 0.234745
0.13373 0.762661 0.220401
0.817288 0.87158 0.315343
0.914305 0.902831 0.381826
0.914305 0.902831 0.381903
0.132189 0.76289 0.236927
0.193378 0.767651 0.137942
0.864683 0.889769 0.324971
0.914305 0.902831 0.381903
0.914305 0.902831 0.381903
0.0231327 0.0443427 0.0735027
0.098909 0.0446937 0.082475
0.533669 0.0607462 0.159533
0.755459 0.0722972 0.293538
0.775341 0.0966354 0.397223
0.035584 0.147646 0.12549
0.175235 0.184207 0.170169
0.683162 0.113527 0.166476
0.727916 0.063035 0.164187
0.74522 0.0700999 0.194415
0.0644083 0.628214 0.245075
0.088304 0.647166 0.152819
0.783246 0.808759 0.225055
0.91043 0.853956 0.259297
0.909911 0.868635 0.27834
0.116594 0.768277 0.385153
0.131884 0.762951 0.239918
0.775235 0.854429 0.306004
0.913954 0.90277 0.377584
0.914305 0.902831 0.381903
0.0787823 0.773816 0.473136
0.129671 0.76347 0.264714
0.81529 0.870756 0.315312
0.913771 0.902739 0.375525
0.914305 0.902831 0.381872
0.0238956 0.0542 0.276875
0.110307 0.0504921 0.335164
0.612024 0.069688 0.516091
0.792233 0.0760052 0.639216
0.8336 0.108034 0.717159
0.0149081 0.120089 0.382086
0.0576181 0.0483101 0.437308
0.724437 0.0866865 0.628519
0.816587 0.093904 0.684474
0.834195 0.108385 0.716793
0.0228733 0.583398 0.536614
0.0248264 0.594644 0.549218
0.765057 0.745815 0.72311
0.943023 0.767788 0.748318
0.947219 0.790341 0.772335
0.0609903 0.781826 0.643748
0.0599985 0.780835 0.609171
0.466392 0.79089 0.495674
0.930526 0.913024 0.617533
0.919814 0.903258 0.477821
0.0641337 0.783032 0.701885
0.0612039 0.781949 0.648371
0.618067 0.830137 0.62504
0.921431 0.908949 0.597818
0.913725 0.902739 0.375021
0.0263066 0.0577707 0.538598
0.1187 0.0495613 0.590341
0.631403 0.0794537 0.708797
0.840757 0.116869 0.762325
0.840757 0.116869 0.762325
0.0141604 0.135164 0.641093
0.078706 0.0484779 0.599954
0.734401 0.0968032 0.734707
0.840757 0.116869 0.762325
0.840757 0.116869 0.762325
0.0188602 0.560204 0.659846
0.020676 0.560784 0.674266
0.68777 0.652018 0.854932
0.9579 0.718151 0.894072
0.959503 0.744472 0.896956
0.0639353 0.780743 0.743633
0.0669718 0.781552 0.735714
0.151034 0.773159 0.728237
0.953811 0.932219 0.891783
0.962631 0.935683 0.895827
0.062974 0.780468 0.745037
0.0645304 0.780804 0.743206
0.077821 0.802853 0.725399
0.949065 0.94905 0.891722
0.962692 0.954604 0.897856
0.063859 0.0478676 0.594369
0.17528 0.0584726 0.638666
0.692683 0.0888533 0.725032
0.840757 0.116869 0.762325
0.840757 0.116869 0.762325
0.0138094 0.129641 0.638972
0.109438 0.049424 0.611627
0.762112 0.102434 0.74107
0.840757 0.116869 0.762325
0.840757 0.116869 0.762325
0.0217899 0.567437 0.67892
0.0210727 0.562737 0.678157
0.702312 0.65275 0.858839
0.95758 0.716548 0.893584
0.959319 0.743816 0.896712
0.062974 0.780468 0.745037
0.0622263 0.778744 0.744396
0.110765 0.755627 0.752392
0.944289 0.919966 0.902037
0.962539 0.928435 0.907088
0.062974 0.780468 0.745037
0.062974 0.780468 0.745037
0.072343 0.804974 0.760372
0.936736 0.945602 0.90692
0.962661 0.952621 0.911757
