bundles/resolve-cinematic-luts/Phantom Luts/Komodo Phantom FILM LUTs G2/Komodo Phantom FILM LUTs G2/33x/Standard (No WB Offset)/Bleach_Komodo_G2_33x.cube
TITLE "Generated by Resolve"
LUT_3D_SIZE 33
0.0262913 0.0395514 0.0281834
0.0262913 0.0395514 0.0281834
0.0262913 0.0395514 0.0281834
0.0262913 0.0395514 0.0281834
0.027924 0.0396582 0.0284276
0.0347143 0.040589 0.0297398
0.0472267 0.0413672 0.0293736
0.0638285 0.0412299 0.0302434
0.0842603 0.0408026 0.0314641
0.109056 0.0400092 0.0327153
0.137194 0.0399023 0.0332799
0.171984 0.0405432 0.0346075
0.215106 0.0422065 0.0379339
0.262623 0.0444648 0.0438544
0.316762 0.0488289 0.0510872
0.380926 0.0507973 0.060029
0.459785 0.0504921 0.068925
0.527779 0.0507057 0.0803235
0.581857 0.0510872 0.0931868
0.627878 0.0531472 0.105882
0.667353 0.0569162 0.115755
0.698161 0.0604868 0.124819
0.710887 0.0617533 0.133776
0.713191 0.0619516 0.139254
0.71548 0.0621653 0.144121
0.717342 0.0623178 0.148455
0.718914 0.0623636 0.152422
0.72018 0.0623026 0.156115
0.72163 0.0623941 0.15964
0.722759 0.0624399 0.162905
0.723674 0.0624247 0.165499
0.724773 0.0625162 0.168261
0.725704 0.0626078 0.170779
0.0262913 0.0395514 0.0281834
0.0262913 0.0395514 0.0281834
0.0262913 0.0395514 0.0281834
0.0262913 0.0395514 0.0281834
0.0297398 0.0398566 0.0287785
0.0398871 0.0413519 0.0297246
0.0569924 0.0411231 0.0296941
0.0776837 0.0409247 0.0309758
0.103792 0.0400702 0.0325475
0.134173 0.039765 0.0331121
0.170123 0.0403601 0.0342718
0.212787 0.0421149 0.0377661
0.261921 0.0445258 0.0438849
0.317143 0.0488746 0.0511635
0.381155 0.0508125 0.0599069
0.461692 0.0505531 0.0694285
0.53048 0.0506294 0.0809796
0.584054 0.0512245 0.0932784
0.631113 0.0534676 0.106462
0.669154 0.057084 0.115724
0.699763 0.0606699 0.125109
0.710658 0.061738 0.133349
0.712886 0.0619364 0.138552
0.715068 0.06215 0.143236
0.716854 0.0622721 0.147631
0.718395 0.0623789 0.150713
0.719402 0.0623331 0.154131
0.720531 0.0623026 0.157031
0.721553 0.0623789 0.159258
0.722194 0.0624094 0.161501
0.722805 0.0624399 0.163073
0.723323 0.0624399 0.164767
0.723705 0.0624247 0.165667
0.0262913 0.0395514 0.0281834
0.0262913 0.0395514 0.0281834
0.0262913 0.0395514 0.0281834
0.0262913 0.0395514 0.0281834
0.0304723 0.0399634 0.0289311
0.0438849 0.0415808 0.0294499
0.0649271 0.0412451 0.0303502
0.0904707 0.040589 0.0320287
0.119493 0.0397498 0.0327459
0.153429 0.0393683 0.0327306
0.193393 0.0403449 0.0343328
0.239948 0.0425574 0.0389868
0.293858 0.0460365 0.045304
0.353384 0.0489967 0.0536355
0.427619 0.0492561 0.0619364
0.502922 0.0488899 0.071809
0.561196 0.0493019 0.0834669
0.612131 0.0518196 0.0966506
0.654749 0.055848 0.108217
0.685725 0.0592813 0.114183
0.706645 0.0615091 0.125124
0.709651 0.0616922 0.130816
0.711711 0.0618296 0.135515
0.713451 0.0619821 0.139666
0.714916 0.0621347 0.142855
0.716167 0.062211 0.145739
0.71696 0.0622873 0.147799
0.717723 0.0623484 0.148989
0.71812 0.0623789 0.149966
0.718318 0.0623789 0.150576
0.718379 0.0623789 0.150805
0.718318 0.0623789 0.150683
0.718196 0.0623789 0.150271
0.0262913 0.0395514 0.0281834
0.0262913 0.0395514 0.0281834
0.0262913 0.0395514 0.0281834
0.0262913 0.0395514 0.0281834
0.0290684 0.040238 0.028809
0.0424811 0.0422217 0.0299687
0.0649729 0.0421607 0.0305943
0.0925002 0.0417487 0.0321202
0.124681 0.0408179 0.0330358
0.161028 0.040589 0.0332952
0.204135 0.0414435 0.0346075
0.250187 0.0429847 0.0377356
0.302068 0.0452735 0.0420233
0.360586 0.0464485 0.0464637
0.434882 0.0456092 0.0525063
0.51043 0.0462196 0.0624857
0.569482 0.0492256 0.0751507
0.618021 0.0525978 0.0874647
0.657404 0.0565194 0.0963302
0.685359 0.059678 0.100984
0.698726 0.0611429 0.107668
0.701747 0.0612345 0.113451
0.70515 0.0615091 0.120363
0.707027 0.0615549 0.124834
0.708156 0.0615702 0.127611
0.709133 0.0616312 0.129396
0.709606 0.0616922 0.130617
0.709926 0.0617075 0.13167
0.709758 0.0617075 0.131304
0.709468 0.0616617 0.130358
0.709148 0.0616159 0.129656
0.70779 0.0615396 0.127047
0.706615 0.0615396 0.124056
0.0269169 0.041413 0.028809
0.0281224 0.0435798 0.0297398
0.0287175 0.0451667 0.0301976
0.029221 0.0451514 0.0302739
0.0313115 0.0442817 0.0304723
0.0414435 0.0469825 0.0328069
0.0628977 0.0477913 0.0319219
0.090425 0.0466163 0.0317082
0.12462 0.0445258 0.0336767
0.164034 0.0439155 0.0349432
0.209201 0.0450599 0.0359197
0.257343 0.0470741 0.0386511
0.310826 0.0496529 0.0424048
0.371084 0.0495308 0.0461738
0.441444 0.0470741 0.0487678
0.510781 0.0465248 0.0535134
0.565469 0.0493629 0.0604715
0.611261 0.0527047 0.0682536
0.647501 0.0559396 0.0743114
0.673396 0.0587778 0.0781415
0.682429 0.0599222 0.0823835
0.684977 0.0602426 0.0847639
0.687602 0.0603494 0.0880446
0.689708 0.0604715 0.0906691
0.690822 0.0606699 0.0931563
0.691386 0.0607156 0.0939345
0.691386 0.0607309 0.0938582
0.690944 0.0606851 0.0931411
0.690105 0.0605325 0.0916457
0.688319 0.0603952 0.088838
0.686656 0.0604105 0.085359
0.685573 0.0603494 0.0835584
0.684001 0.0601816 0.0821241
0.032517 0.0590372 0.0332647
0.0333257 0.0635996 0.0339818
0.0339818 0.0670481 0.0346227
0.0343786 0.0676432 0.0347448
0.0387579 0.0657969 0.0354009
0.0522316 0.0672618 0.0372168
0.0715953 0.0710765 0.0380102
0.105913 0.0700999 0.0380865
0.143053 0.0674754 0.0379339
0.184802 0.0635691 0.038056
0.228275 0.0583658 0.0393378
0.271595 0.0555123 0.0412757
0.319432 0.0543069 0.0432288
0.380484 0.0539101 0.0462043
0.452964 0.0509499 0.0486763
0.517708 0.0478676 0.0527352
0.570962 0.0497444 0.059617
0.616526 0.0531167 0.066453
0.652735 0.0566567 0.072343
0.677562 0.0594797 0.0755627
0.682185 0.0600748 0.0758526
0.681682 0.0599985 0.0757305
0.681468 0.0599527 0.075761
0.681208 0.0599222 0.0756237
0.681331 0.0599374 0.075639
0.681758 0.0599985 0.0757305
0.682368 0.0601053 0.0758984
0.683238 0.0602579 0.0761273
0.684337 0.0604105 0.0762798
0.685725 0.0605631 0.0764935
0.687343 0.0607309 0.0767529
0.688716 0.0609293 0.0769818
0.690242 0.0610513 0.0770886
0.0369116 0.0857557 0.0367285
0.0380865 0.0919051 0.0377966
0.0385138 0.095964 0.0374151
0.0384833 0.0969253 0.0373083
0.0430304 0.0958572 0.0382391
0.0557565 0.0958877 0.0402228
0.0804303 0.0998093 0.0424811
0.115343 0.103716 0.0408179
0.166171 0.101701 0.045182
0.214923 0.0977493 0.047425
0.264744 0.0918441 0.0504311
0.314946 0.084535 0.0521096
0.363928 0.0747845 0.0514229
0.414008 0.0642557 0.0463569
0.47155 0.0576791 0.0473945
0.527245 0.0530861 0.0513466
0.576867 0.0508278 0.0575723
0.622553 0.0537881 0.0643168
0.660197 0.0576944 0.0712139
0.685802 0.0606088 0.0757
0.693751 0.0614633 0.0772869
0.693584 0.0614481 0.0772564
0.693614 0.0614481 0.0773327
0.693965 0.0614786 0.0774395
0.694606 0.0615549 0.0773022
0.695216 0.0616617 0.0772412
0.69604 0.0617685 0.0772259
0.697093 0.0618906 0.0772717
0.698039 0.0621195 0.0771496
0.699535 0.0623178 0.0768749
0.701213 0.0625162 0.0766003
0.702525 0.0627146 0.0761425
0.704051 0.0628214 0.0754253
0.040589 0.120806 0.0403296
0.0410315 0.128618 0.04065
0.0412451 0.133165 0.0393225
0.0412909 0.134081 0.0384985
0.0437629 0.134157 0.0390021
0.0564279 0.133364 0.0408026
0.0821698 0.137942 0.0438849
0.119234 0.143069 0.0441901
0.168887 0.149172 0.0415961
0.242496 0.147478 0.052842
0.302647 0.143481 0.0599527
0.368093 0.13521 0.0646525
0.438483 0.122301 0.0670634
0.499626 0.111406 0.0670481
0.545953 0.0982528 0.0656138
0.57821 0.0809796 0.0567483
0.603708 0.0636454 0.0497597
0.634318 0.0551766 0.0544747
0.66656 0.0587015 0.0645914
0.694926 0.061738 0.0721447
0.705104 0.0629129 0.0750744
0.705425 0.0629282 0.0749981
0.705928 0.0629892 0.0749065
0.706371 0.0630808 0.0748302
0.707134 0.0632181 0.0745098
0.708125 0.0633402 0.0741131
0.709224 0.0634775 0.0736248
0.710369 0.0636759 0.0730755
0.71191 0.0639353 0.0721294
0.713726 0.0641642 0.0710765
0.715236 0.0643931 0.070222
0.71664 0.0645762 0.0691081
0.719188 0.0648661 0.0665141
0.0420844 0.161379 0.0421759
0.0425116 0.170428 0.0424201
0.0426795 0.175113 0.0408637
0.0426795 0.176715 0.0381323
0.0429847 0.177081 0.038117
0.0546883 0.178439 0.0400549
0.077348 0.181247 0.0428779
0.117723 0.18854 0.0464637
0.169039 0.197498 0.0451057
0.235813 0.206012 0.043534
0.327871 0.206912 0.0602731
0.41622 0.199985 0.0730907
0.497856 0.191363 0.0804913
0.560189 0.183276 0.0904555
0.610498 0.176379 0.0986801
0.654002 0.168032 0.103731
0.688548 0.153231 0.101396
0.71252 0.130297 0.0895552
0.723903 0.100526 0.069337
0.723995 0.0667735 0.0513924
0.734691 0.070161 0.0576791
0.729839 0.0661631 0.0584268
0.728389 0.0659495 0.0558328
0.729 0.066041 0.0564431
0.729885 0.0681315 0.0606546
0.73051 0.0693065 0.0614023
0.73077 0.0663767 0.0575418
0.735042 0.0667582 0.052781
0.741512 0.0718395 0.051606
0.756985 0.0910353 0.0624704
0.770932 0.107485 0.0737163
0.785016 0.122652 0.0835126
0.799405 0.139574 0.0939498
0.0429541 0.207538 0.0440375
0.0428779 0.217777 0.0440986
0.0433814 0.223331 0.0420691
0.0434119 0.224292 0.0367895
0.0431983 0.224186 0.0363012
0.0493019 0.225391 0.0368811
0.0707713 0.229084 0.0402228
0.105837 0.236301 0.0442969
0.162142 0.247456 0.050309
0.228809 0.260441 0.0467842
0.312398 0.272679 0.048249
0.4309 0.278386 0.0631266
0.533745 0.27895 0.0905776
0.601831 0.286427 0.111788
0.662196 0.293355 0.131167
0.714214 0.292973 0.148821
0.76051 0.286549 0.163882
0.796582 0.272862 0.168338
0.82536 0.259953 0.163012
0.843732 0.238529 0.1505
0.845319 0.217563 0.138857
0.842237 0.210742 0.135607
0.841062 0.208942 0.134417
0.842206 0.210681 0.135637
0.846555 0.218372 0.13962
0.852445 0.230381 0.146609
0.860014 0.244007 0.155215
0.869459 0.262455 0.166369
0.88278 0.289555 0.18323
0.895079 0.31931 0.198795
0.906432 0.351736 0.214282
0.915251 0.383978 0.228168
0.919829 0.410986 0.23624
0.042298 0.257084 0.0466011
0.0417945 0.268009 0.0461433
0.0422065 0.27335 0.0437629
0.0423438 0.273564 0.0362097
0.0420996 0.273274 0.0336004
0.0423438 0.273884 0.0335546
0.0611124 0.279347 0.0354162
0.0903639 0.285359 0.0393835
0.143313 0.298253 0.0461585
0.216526 0.315785 0.0548714
0.298985 0.336446 0.0512551
0.409232 0.354131 0.0539712
0.527062 0.376547 0.0664378
0.62623 0.405676 0.116503
0.696117 0.432074 0.157229
0.754391 0.451698 0.186694
0.804623 0.462516 0.207874
0.847745 0.466361 0.220172
0.881788 0.467628 0.226291
0.907439 0.463935 0.22562
0.921035 0.453803 0.235431
0.920989 0.453208 0.236789
0.920714 0.453956 0.236194
0.920317 0.459083 0.233051
0.919005 0.47245 0.229038
0.918135 0.486885 0.227146
0.916381 0.500099 0.226734
0.914717 0.516274 0.225803
0.913298 0.534981 0.224323
0.912322 0.554086 0.223178
0.910628 0.569284 0.220111
0.909514 0.582361 0.217441
0.908614 0.596719 0.214862
0.0394903 0.30901 0.0468757
0.0385748 0.319692 0.046067
0.0385138 0.325551 0.0429694
0.0388037 0.326513 0.035935
0.03888 0.326055 0.0290227
0.038941 0.326253 0.0285954
0.0473182 0.329915 0.0292363
0.0753643 0.337606 0.0330205
0.117891 0.348684 0.0391852
0.191714 0.370703 0.0494545
0.278431 0.400656 0.0601358
0.384344 0.434226 0.0569314
0.516442 0.469291 0.0685893
0.609689 0.505974 0.0850385
0.684306 0.535271 0.119509
0.750134 0.554726 0.171511
0.798749 0.569986 0.197925
0.840146 0.582101 0.211795
0.872282 0.593744 0.215549
0.895628 0.602731 0.212955
0.907362 0.605081 0.213092
0.908812 0.606714 0.213107
0.907546 0.610407 0.212955
0.906645 0.614237 0.212711
0.906233 0.620188 0.212634
0.905333 0.626719 0.211826
0.90457 0.635416 0.210712
0.903395 0.642466 0.206699
0.901503 0.650706 0.202594
0.899916 0.659892 0.199222
0.897581 0.670039 0.195453
0.895842 0.677836 0.187335
0.894255 0.685725 0.178805
0.0340429 0.364065 0.0447242
0.0324712 0.376333 0.0433204
0.0320592 0.383444 0.0394293
0.0326696 0.384817 0.0323796
0.0328069 0.385962 0.0231632
0.0335393 0.386664 0.0211948
0.0334783 0.387518 0.0210269
0.0562448 0.395056 0.0232242
0.0921645 0.405447 0.028336
0.157336 0.4271 0.0400244
0.257664 0.46595 0.0602731
0.380179 0.513451 0.0812238
0.505241 0.544625 0.082536
0.602274 0.572335 0.0984207
0.674922 0.596704 0.110063
0.736278 0.619821 0.128847
0.788846 0.639185 0.15668
0.833463 0.653117 0.187732
0.863844 0.666773 0.192065
0.884916 0.679194 0.180758
0.893935 0.686091 0.177142
0.893645 0.687892 0.176364
0.892683 0.690822 0.175036
0.892287 0.69398 0.172412
0.891798 0.698177 0.168322
0.890501 0.702373 0.163134
0.889555 0.707591 0.157321
0.887816 0.71368 0.150271
0.887388 0.72018 0.146654
0.885969 0.726238 0.14168
0.885039 0.732891 0.137697
0.883635 0.739132 0.132982
0.884718 0.745281 0.13344
0.0283055 0.428428 0.0405585
0.028336 0.442176 0.0408179
0.0289921 0.449928 0.0383917
0.0302586 0.452873 0.0317998
0.0314488 0.454871 0.0233463
0.033875 0.458335 0.018616
0.0341955 0.458747 0.018616
0.0423896 0.460243 0.0183108
0.0819257 0.470802 0.0249485
0.14081 0.488518 0.037995
0.254063 0.530831 0.0683299
0.379492 0.573449 0.101732
0.509331 0.601114 0.111879
0.593744 0.62536 0.113634
0.669886 0.648157 0.131563
0.735302 0.669474 0.142809
0.786648 0.688212 0.148486
0.827359 0.705165 0.155444
0.855772 0.721126 0.149554
0.875624 0.73518 0.135729
0.885252 0.743404 0.135348
0.885954 0.74374 0.136873
0.886519 0.746166 0.137026
0.886 0.748669 0.135378
0.886763 0.751934 0.136019
0.887999 0.756008 0.138384
0.889326 0.76054 0.140841
0.890517 0.765393 0.142992
0.891768 0.769818 0.145754
0.893919 0.775051 0.150637
0.895216 0.780697 0.156207
0.896742 0.785916 0.161089
0.898589 0.791501 0.166491
0.0353399 0.497032 0.0504005
0.03888 0.511727 0.0538491
0.0420233 0.520455 0.0532998
0.0445411 0.523613 0.0467689
0.0469825 0.526757 0.0378424
0.054139 0.532418 0.0319219
0.0555581 0.533516 0.0317388
0.0569162 0.534493 0.0318761
0.0921492 0.543038 0.035584
0.159762 0.560754 0.0538338
0.256718 0.58706 0.081239
0.386511 0.622538 0.116701
0.509194 0.64593 0.13521
0.603189 0.670726 0.145876
0.665278 0.693599 0.148882
0.730037 0.714199 0.168429
0.788525 0.733272 0.182528
0.832792 0.750561 0.18146
0.864164 0.766262 0.173159
0.884672 0.781018 0.159808
0.8963 0.789212 0.163973
0.897688 0.789685 0.165164
0.898421 0.791821 0.168002
0.898863 0.794385 0.171206
0.900236 0.798154 0.175692
0.900999 0.801938 0.179797
0.901869 0.805493 0.18584
0.902907 0.809583 0.192477
0.904051 0.81413 0.200229
0.904936 0.819059 0.207324
0.905821 0.823651 0.215
0.907027 0.827832 0.222126
0.907881 0.831952 0.228779
0.0607309 0.572427 0.0790875
0.0678264 0.588693 0.085832
0.072694 0.597192 0.0856794
0.0767681 0.600504 0.0779583
0.0812543 0.604685 0.0680552
0.0958419 0.612619 0.0617227
0.101656 0.616403 0.061677
0.101457 0.616495 0.0617685
0.123079 0.619654 0.0627298
0.192935 0.630823 0.0762188
0.275731 0.644511 0.0988785
0.394354 0.666072 0.129015
0.520653 0.686015 0.15198
0.608179 0.710124 0.172259
0.676295 0.734569 0.183261
0.729244 0.757153 0.190631
0.784833 0.777661 0.208362
0.833402 0.795941 0.218021
0.867765 0.811948 0.218082
0.890883 0.824155 0.221164
0.905241 0.830106 0.227024
0.907561 0.831281 0.227543
0.90753 0.832181 0.228443
0.908095 0.834913 0.232685
0.908858 0.837491 0.236881
0.909056 0.840055 0.240894
0.910369 0.843641 0.247074
0.910582 0.846998 0.251392
0.910353 0.850065 0.254826
0.910384 0.853834 0.258961
0.910185 0.857435 0.263279
0.909957 0.860685 0.267247
0.910018 0.863615 0.271229
0.095079 0.644572 0.115557
0.101854 0.656336 0.120775
0.106752 0.662913 0.118379
0.111467 0.666087 0.110124
0.117296 0.670542 0.0973831
0.137819 0.677913 0.0920577
0.150561 0.683253 0.090898
0.150805 0.683162 0.090898
0.160403 0.683955 0.0908675
0.222095 0.688197 0.0952926
0.304616 0.696788 0.114839
0.410819 0.706508 0.1402
0.543175 0.72398 0.165972
0.623072 0.747433 0.192294
0.693126 0.772763 0.213962
0.747021 0.796948 0.222675
0.793118 0.819821 0.230671
0.835828 0.838026 0.24477
0.86714 0.849744 0.245502
0.888457 0.856428 0.253819
0.903609 0.861173 0.265461
0.909911 0.863554 0.271107
0.909957 0.864363 0.272175
0.909972 0.866087 0.274525
0.910018 0.867826 0.277485
0.910063 0.869825 0.280476
0.910124 0.87187 0.283497
0.910338 0.874052 0.287633
0.910033 0.876692 0.291417
0.910201 0.878859 0.295598
0.910185 0.880705 0.29926
0.910491 0.882872 0.30341
0.910613 0.884993 0.307622
0.124605 0.698329 0.142748
0.129381 0.707317 0.145098
0.134142 0.712612 0.142214
0.139528 0.71603 0.131228
0.150072 0.72018 0.117372
0.174701 0.727794 0.114931
0.189883 0.736171 0.113954
0.190188 0.735958 0.113954
0.194614 0.735378 0.113787
0.253986 0.738048 0.11812
0.336721 0.741268 0.135302
0.449561 0.744472 0.154147
0.570977 0.759289 0.181048
0.64892 0.783566 0.211124
0.716976 0.809216 0.23859
0.772946 0.833539 0.253666
0.809796 0.851652 0.253773
0.840055 0.863645 0.262272
0.868086 0.872099 0.280079
0.888212 0.878233 0.293217
0.902373 0.882322 0.300542
0.910765 0.885359 0.308492
0.910796 0.885817 0.30988
0.910719 0.886656 0.3122
0.910674 0.887968 0.314855
0.91075 0.889433 0.317968
0.910903 0.890944 0.322133
0.91133 0.892058 0.326268
0.911452 0.893309 0.329686
0.911391 0.894423 0.333867
0.911543 0.895918 0.337911
0.912093 0.897124 0.342245
0.912352 0.898146 0.346807
0.145434 0.741573 0.156939
0.145632 0.748455 0.158312
0.145724 0.752178 0.156481
0.14815 0.754482 0.147234
0.154452 0.757305 0.138277
0.158618 0.760571 0.137148
0.165362 0.762783 0.13518
0.167437 0.762753 0.134157
0.167071 0.762966 0.131289
0.234318 0.76762 0.134127
0.352224 0.773358 0.158938
0.473121 0.773831 0.176776
0.589426 0.78558 0.206973
0.664775 0.807919 0.242054
0.730175 0.831235 0.272328
0.782605 0.851453 0.290501
0.817624 0.867445 0.292256
0.846098 0.878935 0.297551
0.870375 0.886488 0.309651
0.890913 0.892195 0.331044
0.903944 0.8963 0.34818
0.912093 0.898756 0.356039
0.912612 0.899077 0.351797
0.912535 0.899199 0.35108
0.912596 0.899687 0.354131
0.912718 0.900435 0.356863
0.91281 0.90103 0.360616
0.91284 0.901823 0.364538
0.913146 0.902617 0.36875
0.913314 0.902647 0.370321
0.913466 0.902678 0.372335
0.913634 0.902708 0.374334
0.913802 0.902739 0.375875
0.13698 0.762631 0.193439
0.135164 0.762585 0.206851
0.134783 0.762554 0.209598
0.13489 0.762539 0.208225
0.135103 0.76257 0.205356
0.135332 0.762554 0.202228
0.135546 0.762524 0.199222
0.13547 0.762524 0.198322
0.135637 0.762539 0.196231
0.146365 0.763424 0.16321
0.259693 0.773251 0.142611
0.410056 0.782544 0.176699
0.560571 0.789029 0.206851
0.651591 0.810254 0.245731
0.716976 0.832593 0.279561
0.776684 0.854688 0.305638
0.818082 0.871946 0.31516
0.846677 0.883818 0.318669
0.870939 0.891768 0.328252
0.891173 0.897307 0.341588
0.904326 0.900603 0.361303
0.912871 0.90251 0.376776
0.914107 0.9028 0.37937
0.914107 0.9028 0.379339
0.914137 0.9028 0.379751
0.914229 0.902815 0.381186
0.914244 0.902815 0.381445
0.91429 0.902831 0.38175
0.914321 0.902831 0.382147
0.914351 0.902846 0.382742
0.914382 0.902846 0.383307
0.914427 0.902861 0.383856
0.914427 0.902861 0.383703
0.132631 0.762768 0.231678
0.132647 0.762768 0.231617
0.132753 0.762768 0.230503
0.132967 0.762753 0.228199
0.133181 0.762692 0.226032
0.133379 0.762676 0.22414
0.133669 0.762661 0.220905
0.13373 0.762661 0.220401
0.13373 0.762661 0.220401
0.135393 0.762554 0.201022
0.157626 0.764889 0.136522
0.312963 0.777523 0.154742
0.493645 0.784054 0.190784
0.624109 0.802655 0.233127
0.698116 0.826154 0.270512
0.758129 0.84802 0.298802
0.808301 0.867536 0.315526
0.841215 0.881865 0.317082
0.866697 0.890501 0.326223
0.88838 0.896559 0.339315
0.903273 0.900252 0.353902
0.912978 0.902571 0.37084
0.913893 0.90277 0.376867
0.914275 0.902815 0.381582
0.914366 0.902846 0.382956
0.914366 0.902846 0.382773
0.914351 0.902846 0.382513
0.914336 0.902831 0.382254
0.914321 0.902831 0.38201
0.914305 0.902831 0.381903
0.914305 0.902831 0.381903
0.914305 0.902831 0.381903
0.914305 0.902831 0.381903
0.13257 0.762783 0.232685
0.132586 0.762783 0.232471
0.132662 0.762768 0.231418
0.132891 0.762753 0.228962
0.133181 0.762707 0.226169
0.133349 0.762676 0.224323
0.1337 0.762661 0.220676
0.13373 0.762661 0.220401
0.13373 0.762661 0.220401
0.135409 0.762554 0.200809
0.169772 0.765316 0.142061
0.320302 0.77821 0.156786
0.476219 0.783597 0.187823
0.614908 0.800458 0.228611
0.69337 0.82446 0.268177
0.754406 0.846723 0.296971
0.805982 0.866392 0.316213
0.839612 0.881178 0.317342
0.86569 0.890089 0.325582
0.888197 0.896544 0.338903
0.90248 0.900038 0.35285
0.911879 0.902235 0.367742
0.913741 0.902739 0.375113
0.914137 0.9028 0.379934
0.914305 0.902831 0.381888
0.914305 0.902831 0.381903
0.914305 0.902831 0.381903
0.914305 0.902831 0.381903
0.914305 0.902831 0.381903
0.914305 0.902831 0.381903
0.914305 0.902831 0.381903
0.914305 0.902831 0.381903
0.914305 0.902831 0.381903
0.132464 0.762798 0.23357
0.132494 0.762798 0.23331
0.132616 0.762783 0.232074
0.13283 0.762753 0.229465
0.133181 0.762722 0.226261
0.133349 0.762692 0.224231
0.1337 0.762661 0.220706
0.13373 0.762661 0.220401
0.13373 0.762661 0.220401
0.135744 0.762539 0.197269
0.180423 0.766461 0.137514
0.332586 0.779034 0.159625
0.489693 0.783917 0.18999
0.623407 0.802518 0.232822
0.698741 0.826383 0.270832
0.760189 0.848753 0.299733
0.80882 0.867781 0.315373
0.841749 0.882002 0.317586
0.867018 0.890715 0.326116
0.888258 0.896544 0.339284
0.902617 0.900084 0.353063
0.912123 0.902312 0.368124
0.913695 0.902724 0.374853
0.914107 0.9028 0.379355
0.914305 0.902831 0.381903
0.914305 0.902831 0.381903
0.914305 0.902831 0.381903
0.914305 0.902831 0.381903
0.914305 0.902831 0.381903
0.914305 0.902831 0.381903
0.914305 0.902831 0.381903
0.914305 0.902831 0.381903
0.914305 0.902831 0.381903
0.132403 0.762829 0.234226
0.132448 0.762798 0.23389
0.132586 0.762783 0.232456
0.132799 0.762737 0.22974
0.133181 0.762722 0.226215
0.133379 0.762676 0.223957
0.133715 0.762661 0.220447
0.13373 0.762661 0.220401
0.13373 0.762661 0.220356
0.136172 0.762539 0.191348
0.191287 0.767697 0.132647
0.353414 0.780591 0.165209
0.506981 0.784787 0.193423
0.633967 0.805386 0.238148
0.707073 0.829221 0.275273
0.765972 0.850965 0.302113
0.8121 0.869795 0.3149
0.844694 0.88307 0.317784
0.868879 0.891157 0.32726
0.889281 0.896864 0.340322
0.903441 0.900298 0.353597
0.912413 0.902419 0.368673
0.91371 0.902724 0.374792
0.914076 0.9028 0.379126
0.91429 0.902831 0.381811
0.914305 0.902831 0.381903
0.914305 0.902831 0.381903
0.914305 0.902831 0.381903
0.914305 0.902831 0.381903
0.914305 0.902831 0.381903
0.914305 0.902831 0.381903
0.914305 0.902831 0.381903
0.914305 0.902831 0.381903
0.132342 0.762829 0.234745
0.132387 0.762814 0.234272
0.13257 0.762798 0.23267
0.132815 0.762753 0.229816
0.133181 0.762707 0.226154
0.133425 0.762676 0.223514
0.13373 0.762661 0.220401
0.13373 0.762661 0.220401
0.13373 0.762661 0.220401
0.137987 0.762692 0.182391
0.2215 0.770108 0.137774
0.379202 0.782071 0.171023
0.537636 0.78732 0.201205
0.645685 0.808713 0.243473
0.716304 0.832654 0.279774
0.773495 0.853864 0.305074
0.817288 0.87158 0.315343
0.84828 0.884474 0.319036
0.872038 0.891966 0.329046
0.891768 0.897414 0.341863
0.904082 0.900587 0.355077
0.912016 0.902281 0.368292
0.91371 0.902724 0.374899
0.914076 0.9028 0.379141
0.914305 0.902831 0.381826
0.914305 0.902831 0.381903
0.914305 0.902831 0.381903
0.914305 0.902831 0.381903
0.914305 0.902831 0.381903
0.914305 0.902831 0.381903
0.914305 0.902831 0.381903
0.914305 0.902831 0.381903
0.914305 0.902831 0.381903
0.132311 0.762844 0.235111
0.132357 0.762829 0.234546
0.13254 0.762783 0.232807
0.132815 0.762753 0.229633
0.133211 0.762692 0.22594
0.133501 0.762676 0.222812
0.13373 0.762661 0.220401
0.13373 0.762661 0.220401
0.133883 0.762646 0.218601
0.138949 0.762753 0.170581
0.252903 0.772778 0.138933
0.406943 0.782971 0.176837
0.561196 0.790143 0.208438
0.659998 0.813199 0.251118
0.727642 0.836393 0.285313
0.782101 0.857298 0.307912
0.823926 0.874571 0.315984
0.852369 0.885924 0.320134
0.875166 0.893095 0.330846
0.893385 0.897688 0.343725
0.905272 0.900847 0.356497
0.912688 0.902495 0.369863
0.913741 0.902739 0.375174
0.914107 0.9028 0.379309
0.914305 0.902831 0.381903
0.914305 0.902831 0.381903
0.914305 0.902831 0.381903
0.914305 0.902831 0.381903
0.914305 0.902831 0.381903
0.914305 0.902831 0.381903
0.914305 0.902831 0.381903
0.914305 0.902831 0.381903
0.914305 0.902831 0.381903
0.132311 0.762875 0.235386
0.132342 0.762844 0.23476
0.132555 0.762783 0.2327
0.132876 0.762753 0.22916
0.133227 0.762692 0.225574
0.133577 0.762676 0.221973
0.13373 0.762661 0.220401
0.13373 0.762661 0.220401
0.1346 0.762585 0.211917
0.145861 0.763424 0.158968
0.285969 0.775525 0.148104
0.44564 0.783123 0.18294
