bundles/resolve-cinematic-luts/Phantom Luts/Komodo Phantom FILM LUTs G2/Komodo Phantom FILM LUTs G2/33x/Standard (No WB Offset)/Bleach_Komodo_Legacy_G2_33x.cube
TITLE "Generated by Resolve"
LUT_3D_SIZE 9
0.0413977 0.0541238 0.0424048
0.0424506 0.0542153 0.0425574
0.0746777 0.0546731 0.0439002
0.17377 0.0555123 0.0484932
0.383169 0.0649729 0.0649577
0.626795 0.0637369 0.0922866
0.684672 0.0756085 0.113329
0.691035 0.0759747 0.12462
0.695689 0.0763256 0.132158
0.0417487 0.0554513 0.042649
0.0438087 0.057084 0.0432441
0.10071 0.0573587 0.0451209
0.257038 0.0612192 0.0507362
0.512505 0.057847 0.0556039
0.651469 0.0725872 0.0715343
0.660426 0.07364 0.0780194
0.659495 0.0736095 0.0773632
0.653666 0.0728161 0.071458
0.0541085 0.133837 0.0539101
0.0557565 0.146227 0.0525978
0.135042 0.158984 0.0586709
0.394995 0.160037 0.0767987
0.634745 0.127123 0.0863508
0.721202 0.0828412 0.0621195
0.714229 0.0809949 0.0624094
0.729717 0.0835584 0.0596628
0.775113 0.128176 0.0867933
0.0517586 0.319539 0.0543679
0.0485237 0.340154 0.0387884
0.0880293 0.352819 0.0428931
0.408545 0.46424 0.0703288
0.747646 0.582879 0.137896
0.878325 0.641703 0.16907
0.876738 0.655528 0.164218
0.874266 0.680339 0.150408
0.874464 0.708095 0.144152
0.0738384 0.596445 0.0841535
0.0947738 0.629206 0.0760204
0.127367 0.645136 0.0750286
0.469398 0.689708 0.141604
0.758495 0.795087 0.206653
0.901534 0.848737 0.242252
0.909895 0.857908 0.252872
0.909483 0.870298 0.264393
0.909636 0.881666 0.277943
0.128496 0.75874 0.199771
0.129244 0.758923 0.194934
0.129854 0.758953 0.190799
0.421698 0.778988 0.171344
0.777584 0.85919 0.280934
0.900359 0.901213 0.315785
0.913802 0.904143 0.338704
0.913725 0.904128 0.338033
0.91371 0.904128 0.337957
0.128069 0.758663 0.202396
0.129229 0.758907 0.195148
0.129854 0.758953 0.190799
0.47248 0.779538 0.17734
0.788327 0.864332 0.281529
0.901518 0.901488 0.31696
0.913695 0.904128 0.337911
0.91371 0.904128 0.337957
0.91371 0.904128 0.337957
0.127871 0.758648 0.20383
0.129366 0.758923 0.19411
0.132799 0.759258 0.168643
0.588952 0.792874 0.206165
0.820539 0.878752 0.285054
0.909056 0.903197 0.324392
0.91371 0.904128 0.337957
0.91371 0.904128 0.337957
0.91371 0.904128 0.337957
0.12784 0.758679 0.20441
0.129702 0.758953 0.19176
0.176471 0.763485 0.126406
0.66537 0.814679 0.239658
0.846952 0.887526 0.291691
0.912779 0.904051 0.33019
0.91371 0.904128 0.337957
0.91371 0.904128 0.337957
0.91371 0.904128 0.337957
0.0413367 0.0541085 0.0431067
0.0422065 0.0542 0.0429847
0.0768292 0.0558938 0.0483253
0.188647 0.0598459 0.0551461
0.415717 0.0672465 0.0763256
0.644419 0.0648356 0.109606
0.696849 0.0690013 0.140719
0.705959 0.0718547 0.160784
0.712612 0.0742809 0.178195
0.0415656 0.0547189 0.0427863
0.0429541 0.0561837 0.0442359
0.11133 0.0547799 0.0483711
0.275593 0.0630503 0.0582437
0.549233 0.0650187 0.0818952
0.68249 0.0753948 0.110338
0.689754 0.0758831 0.12253
0.695171 0.0763104 0.131472
0.694667 0.0685435 0.136782
0.0536355 0.135821 0.0640574
0.0553445 0.147356 0.05832
0.136309 0.159884 0.0586709
0.408881 0.151858 0.0759594
0.632563 0.111406 0.0776379
0.707698 0.0789654 0.0619821
0.698772 0.0779278 0.0640879
0.70782 0.0797894 0.0639048
0.735897 0.0921187 0.0645151
0.0494392 0.324422 0.0709697
0.0477302 0.343374 0.0552529
0.0757763 0.353902 0.0404364
0.418433 0.471473 0.0716106
0.757885 0.58616 0.144121
0.879026 0.639094 0.172107
0.877745 0.650278 0.16582
0.874434 0.673152 0.153567
0.87454 0.698528 0.1467
0.0672465 0.594217 0.110338
0.0829633 0.620584 0.100618
0.122072 0.647807 0.0760052
0.460182 0.690913 0.14107
0.761547 0.797375 0.208164
0.9037 0.848615 0.242893
0.909941 0.856077 0.251179
0.909636 0.866972 0.261067
0.909651 0.877226 0.272297
0.127779 0.758679 0.205005
0.128283 0.758709 0.201083
0.129854 0.758953 0.190799
0.386877 0.777813 0.165942
0.774044 0.857679 0.280568
0.899748 0.901061 0.315419
0.913848 0.904143 0.339055
0.91371 0.904128 0.337957
0.91371 0.904128 0.338003
0.126787 0.75874 0.21619
0.127871 0.758648 0.203891
0.129854 0.758953 0.190799
0.409888 0.778668 0.169467
0.77998 0.860304 0.281498
0.897978 0.900542 0.314092
0.913664 0.904112 0.337743
0.91371 0.904128 0.337957
0.91371 0.904128 0.337957
0.122377 0.759533 0.258473
0.127733 0.758679 0.205524
0.129854 0.758953 0.190799
0.5355 0.7841 0.189548
0.807126 0.873213 0.282933
0.904189 0.902296 0.318944
0.913619 0.904097 0.337499
0.91371 0.904128 0.337957
0.91371 0.904128 0.337957
0.119036 0.761059 0.292927
0.127596 0.758663 0.206821
0.131411 0.759106 0.179309
0.619715 0.800473 0.218952
0.83006 0.881926 0.28716
0.909361 0.903273 0.324788
0.913649 0.904112 0.337728
0.91371 0.904128 0.337957
0.91371 0.904128 0.337957
0.038407 0.0568856 0.0682231
0.0447547 0.0554971 0.0651255
0.0822461 0.0573434 0.0724193
0.208392 0.0658732 0.0905928
0.458839 0.0701305 0.122637
0.678233 0.073991 0.176745
0.72636 0.083299 0.223621
0.736614 0.0928206 0.26276
0.743053 0.0975814 0.30576
0.0361791 0.0603799 0.0734874
0.0398566 0.057969 0.0862593
0.129641 0.0592966 0.108324
0.313176 0.071809 0.128725
0.590311 0.0741436 0.162951
0.725017 0.0825055 0.219715
0.732235 0.0891585 0.246677
0.738384 0.0949874 0.27274
0.742382 0.0972305 0.298543
0.0496376 0.121355 0.101518
0.049897 0.131807 0.111254
0.137072 0.147677 0.134005
0.400641 0.130022 0.12285
0.631632 0.101595 0.128099
0.694377 0.0716259 0.11873
0.698817 0.0767834 0.127932
0.699809 0.0693523 0.134508
0.714641 0.0775769 0.148531
0.0459449 0.316838 0.136095
0.0439307 0.336233 0.13167
0.0478676 0.334325 0.0733349
0.394629 0.445869 0.0774548
0.774441 0.554681 0.175204
0.887877 0.596841 0.191287
0.886122 0.605402 0.186862
0.881544 0.628779 0.177386
0.877195 0.656001 0.166934
0.0479438 0.573159 0.179797
0.055848 0.593072 0.180972
0.0690929 0.598978 0.110857
0.361547 0.672999 0.122866
0.74728 0.781277 0.20087
0.905669 0.834867 0.233829
0.910796 0.838285 0.237903
0.910231 0.848325 0.2448
0.909834 0.858717 0.253635
0.119097 0.761028 0.292149
0.120989 0.759976 0.27219
0.127855 0.758648 0.203967
0.25626 0.769314 0.136782
0.752895 0.848737 0.274769
0.893355 0.899611 0.311543
0.913695 0.904128 0.33785
0.913985 0.904173 0.34023
0.913878 0.904158 0.339452
0.11162 0.762432 0.334432
0.11722 0.762448 0.314092
0.127581 0.758663 0.206973
0.225803 0.767117 0.130694
0.739895 0.842832 0.270542
0.883162 0.897063 0.305379
0.913283 0.904036 0.334874
0.91371 0.904128 0.337957
0.91371 0.904128 0.337957
0.0949721 0.764904 0.368536
0.109422 0.762371 0.338613
0.127062 0.758709 0.212787
0.311894 0.773663 0.149477
0.764416 0.853269 0.278645
0.887221 0.897917 0.307469
0.913161 0.904051 0.333455
0.91371 0.904128 0.337957
0.91371 0.904128 0.337957
0.0850233 0.768734 0.407416
0.0990616 0.763836 0.359686
0.125505 0.758816 0.228092
0.416953 0.778714 0.170352
0.786023 0.86334 0.281453
0.892195 0.899229 0.310216
0.91313 0.904051 0.333089
0.91371 0.904128 0.337957
0.91371 0.904128 0.337942
0.0358282 0.0618143 0.130816
0.0444648 0.0587778 0.132418
0.0876783 0.0588388 0.152377
0.241505 0.0650645 0.193484
0.494438 0.0627604 0.242893
0.712612 0.0870527 0.333959
0.74284 0.0816358 0.40734
0.743664 0.0775616 0.465217
0.74876 0.0765087 0.520958
0.0254978 0.0680858 0.156497
0.0390021 0.0619669 0.186801
0.125811 0.0616312 0.234989
0.361242 0.0717632 0.285176
0.612284 0.0642405 0.336385
0.741497 0.0767834 0.432837
0.744259 0.0771191 0.473014
0.748837 0.0794842 0.511055
0.753368 0.0789197 0.543999
0.0368048 0.114427 0.178866
0.0363928 0.118807 0.199405
0.0795453 0.0866407 0.2663
0.402945 0.0849012 0.316152
0.625772 0.0692607 0.31931
0.744274 0.084535 0.39321
0.741939 0.0786755 0.421988
0.740764 0.0746166 0.445457
0.746044 0.0806897 0.473869
0.0425879 0.289326 0.258778
0.0392767 0.306569 0.273899
0.0395972 0.304646 0.272938
0.425376 0.417365 0.393484
0.766262 0.460533 0.434974
0.897444 0.465354 0.455863
0.896376 0.468696 0.467292
0.893355 0.498329 0.493996
0.892088 0.53518 0.525948
0.0258946 0.559548 0.303868
0.0298924 0.57731 0.315969
0.0319829 0.57438 0.280537
0.163806 0.602228 0.219104
0.705348 0.722103 0.35819
0.923445 0.766812 0.463798
0.93666 0.780072 0.463554
0.940749 0.787747 0.496986
0.946288 0.798764 0.53463
0.0772869 0.758114 0.416968
0.0800641 0.761532 0.412314
0.0876936 0.757 0.372808
0.117388 0.74699 0.231434
0.698024 0.825101 0.273579
0.886275 0.897627 0.307683
0.91281 0.904051 0.330388
0.912947 0.904051 0.331563
0.913237 0.904036 0.334371
0.0774243 0.771954 0.461921
0.0792248 0.771038 0.445869
0.0894942 0.766934 0.388067
0.12369 0.759243 0.246555
0.671733 0.816861 0.242496
0.858656 0.890867 0.29546
0.912795 0.904051 0.330129
0.913512 0.904082 0.336599
0.913497 0.904082 0.33637
0.0727398 0.774014 0.523964
0.0745861 0.77322 0.494148
0.083238 0.769711 0.417853
0.121492 0.759701 0.266377
0.702495 0.827863 0.256123
0.862074 0.891768 0.296696
0.912581 0.904067 0.327382
0.913344 0.904051 0.335195
0.913451 0.904082 0.335973
0.0713817 0.77499 0.571008
0.072343 0.774304 0.533516
0.078996 0.77113 0.44715
0.119799 0.760555 0.284215
0.733043 0.840391 0.267811
0.872038 0.894347 0.300191
0.91252 0.904051 0.32665
0.913161 0.904051 0.333425
0.91339 0.904067 0.335592
0.0363775 0.0648661 0.234165
0.0440375 0.0614786 0.240543
0.088716 0.0623484 0.27512
0.25153 0.0686198 0.348699
0.556664 0.0758679 0.447547
0.73373 0.0798962 0.548821
0.773754 0.0894179 0.60824
0.796948 0.104005 0.654459
0.816205 0.115328 0.692073
0.0244907 0.0728313 0.294347
0.0382544 0.0662547 0.326863
0.12079 0.0657664 0.38761
0.372229 0.0744335 0.495262
0.668833 0.0891585 0.570825
0.786526 0.096788 0.635142
0.803723 0.108217 0.666773
0.817288 0.115679 0.691493
0.819745 0.117372 0.706538
0.0291295 0.104982 0.318959
0.0283665 0.105959 0.351125
0.0533913 0.0618448 0.375845
0.348577 0.0746929 0.517632
0.684688 0.0915084 0.587304
0.787045 0.0971542 0.635813
0.798871 0.104906 0.657633
0.808957 0.112001 0.676036
0.816999 0.115541 0.691341
0.0276341 0.278874 0.420279
0.0259709 0.294102 0.451591
0.026627 0.281956 0.476646
0.317678 0.292943 0.632151
0.806851 0.37702 0.726299
0.902007 0.338155 0.735561
0.905074 0.343145 0.746044
0.91754 0.384039 0.77084
0.925185 0.436362 0.791028
0.0184787 0.519936 0.467155
0.0211795 0.537026 0.486229
0.0204929 0.533028 0.482231
0.0833753 0.552575 0.506905
0.717037 0.699947 0.678508
0.904067 0.71812 0.698253
0.933349 0.727199 0.707027
0.935561 0.736919 0.717983
0.939437 0.751324 0.732998
0.0560311 0.726452 0.565164
0.056672 0.728054 0.563302
0.0565957 0.727855 0.551949
0.0571756 0.727626 0.508644
0.62118 0.794537 0.608377
0.877638 0.872175 0.683253
0.962386 0.890303 0.729549
0.962158 0.894835 0.738582
0.962402 0.899687 0.751385
0.0716869 0.775372 0.606134
0.0716106 0.775402 0.598169
0.0714122 0.774807 0.564141
0.0757763 0.773785 0.486046
0.384375 0.781598 0.416846
0.83061 0.884688 0.608225
0.925887 0.909377 0.570794
0.915679 0.904463 0.35314
0.920546 0.905043 0.417731
0.0729839 0.775753 0.648142
0.0723125 0.775555 0.632303
0.0714885 0.775235 0.591775
0.0741283 0.776364 0.514382
0.461418 0.791119 0.494026
0.828138 0.884184 0.610788
0.914656 0.903609 0.433173
0.91281 0.904051 0.330465
0.91313 0.904051 0.333181
0.075288 0.776043 0.6795
0.073579 0.775814 0.656886
0.0717784 0.775372 0.611276
0.0741131 0.780713 0.541558
0.546487 0.807187 0.560769
0.848981 0.895659 0.657206
0.915999 0.905653 0.547646
0.913451 0.904067 0.335851
0.9131 0.904067 0.332601
0.0359808 0.0679026 0.363531
0.0438697 0.0640879 0.375906
0.0949721 0.0655528 0.429526
0.253437 0.0722667 0.530465
0.583261 0.0826276 0.60119
0.795514 0.112505 0.68658
0.822156 0.119448 0.723171
0.822477 0.121889 0.741802
0.8224 0.122362 0.745159
0.0237736 0.0743267 0.463355
0.0364538 0.0668498 0.488624
0.121614 0.0680247 0.538094
0.35462 0.0780346 0.618509
0.683864 0.0979019 0.678782
0.8224 0.120623 0.732906
0.822385 0.122347 0.745037
0.8224 0.122362 0.745159
0.8224 0.122362 0.745159
0.0255894 0.115023 0.539239
0.0254978 0.113237 0.563348
0.0546731 0.0605325 0.523796
0.316915 0.0774243 0.627314
0.688762 0.0990616 0.689525
0.8224 0.120974 0.735683
0.822461 0.122057 0.742992
0.8224 0.122362 0.745159
0.8224 0.122362 0.745159
0.0271458 0.255985 0.566979
0.0270695 0.268376 0.580957
0.0274357 0.247135 0.594858
0.229297 0.189853 0.684535
0.734051 0.246479 0.777356
0.907683 0.27332 0.810987
0.912139 0.284123 0.817365
0.928237 0.328511 0.839033
0.94139 0.385763 0.857908
0.0148775 0.50071 0.572183
0.0174563 0.514 0.584619
0.016495 0.5066 0.585611
0.0184482 0.500984 0.610162
0.670787 0.64593 0.796704
0.918212 0.688777 0.837812
0.945708 0.693828 0.844053
0.948455 0.705791 0.849363
0.951034 0.721523 0.855207
0.0497292 0.689021 0.639139
0.0502022 0.691081 0.64094
0.0491951 0.687327 0.638163
0.0476539 0.680888 0.633753
0.566476 0.774655 0.73727
0.884581 0.860609 0.827756
0.957458 0.870802 0.839948
0.962203 0.875837 0.845624
0.962188 0.881453 0.850706
0.0762951 0.775738 0.6925
0.0759289 0.775723 0.687892
0.0743725 0.776059 0.668742
0.0711681 0.771695 0.632914
0.190951 0.773297 0.632776
0.86479 0.914626 0.821332
0.951614 0.933562 0.83975
0.962554 0.937499 0.856687
0.962554 0.938643 0.859525
0.0791333 0.774548 0.720195
0.0779583 0.775174 0.709529
0.0756695 0.775876 0.684794
0.0736706 0.778866 0.643153
0.0963149 0.801999 0.642542
0.820508 0.910704 0.785641
0.944854 0.941588 0.826291
0.962676 0.944854 0.828016
0.962661 0.943832 0.819791
0.0775158 0.772137 0.736812
0.0794385 0.774334 0.723186
0.0764019 0.775692 0.694331
0.075639 0.782742 0.658305
0.135698 0.798474 0.650599
0.83917 0.917372 0.804318
0.944213 0.941772 0.829786
0.9626 0.942687 0.811414
0.959014 0.938369 0.775113
0.0339055 0.0682383 0.502098
0.0441901 0.0629435 0.514839
0.094377 0.0633707 0.548989
0.247913 0.0751049 0.62446
0.576684 0.0854658 0.68191
0.809277 0.120287 0.741024
0.8224 0.122362 0.745159
0.8224 0.122362 0.745159
0.8224 0.122362 0.745159
0.0251011 0.0740826 0.569909
0.0434424 0.0632639 0.562005
0.129427 0.0687266 0.596765
0.357519 0.0795758 0.660487
0.692164 0.0999466 0.710704
0.8224 0.122362 0.745159
0.8224 0.122362 0.745159
0.8224 0.122362 0.745159
0.8224 0.122362 0.745159
0.0255589 0.115679 0.608148
0.0250401 0.107332 0.604608
0.0650187 0.0601663 0.565072
0.32488 0.0787671 0.655314
0.69398 0.100084 0.710887
0.8224 0.122362 0.745159
0.8224 0.122362 0.745159
0.8224 0.122362 0.745159
0.8224 0.122362 0.745159
0.0284886 0.224537 0.634241
0.0285649 0.236835 0.636759
0.0285039 0.214511 0.633799
0.202152 0.142718 0.678676
0.680827 0.174014 0.759991
0.878782 0.213581 0.799649
0.886351 0.229084 0.807874
0.912001 0.283909 0.834287
0.933257 0.347417 0.858045
0.0189059 0.49366 0.621149
0.0211185 0.504967 0.630076
0.0209201 0.494499 0.638636
0.0216831 0.481422 0.65658
0.628519 0.595544 0.831601
0.912795 0.656611 0.876371
0.950851 0.676341 0.884199
0.952758 0.688411 0.886641
0.954879 0.70515 0.889662
0.0494545 0.655604 0.682841
0.0501717 0.656916 0.684916
0.0488441 0.649317 0.684276
0.0462043 0.634256 0.683879
0.437095 0.715068 0.766018
0.864225 0.828473 0.871931
0.957824 0.84976 0.886305
0.96202 0.855741 0.88748
0.962219 0.863706 0.888579
0.0777905 0.772305 0.736126
0.0779431 0.772412 0.735042
0.0789807 0.773434 0.724376
0.071458 0.754925 0.703014
0.133394 0.760784 0.713695
0.841306 0.909041 0.86685
0.950973 0.929259 0.888869
0.962448 0.932372 0.892576
0.962448 0.933639 0.893935
0.0771344 0.771984 0.738445
0.0771344 0.771984 0.738445
0.0787213 0.773083 0.731731
0.0785992 0.778637 0.708644
0.0833753 0.797421 0.703639
0.743694 0.897475 0.826246
0.949859 0.946014 0.891203
0.962631 0.948669 0.894331
0.962646 0.949798 0.897704
0.0771344 0.771984 0.738445
0.0771344 0.771984 0.738445
0.0780804 0.772412 0.735042
0.0803235 0.782284 0.714229
0.0855879 0.802121 0.711116
0.666728 0.874006 0.791745
0.943923 0.948592 0.889143
0.962875 0.951308 0.893828
0.962798 0.951659 0.895506
0.0398108 0.0646372 0.563043
0.0563363 0.0606241 0.562936
0.111437 0.0658732 0.588129
0.27834 0.0773022 0.645701
0.613443 0.0891127 0.692988
0.820157 0.122042 0.744366
0.8224 0.122362 0.745159
0.8224 0.122362 0.745159
0.8224 0.122362 0.745159
0.0381628 0.0654612 0.563699
0.0596323 0.0603952 0.563622
0.148608 0.0707713 0.605325
0.396033 0.0797742 0.664286
0.714458 0.103319 0.716045
0.8224 0.122362 0.745159
0.8224 0.122362 0.745159
0.8224 0.122362 0.745159
0.8224 0.122362 0.745159
0.0255283 0.113054 0.608103
0.0242008 0.0995346 0.598901
0.077348 0.0605936 0.570108
0.35108 0.0793469 0.659419
0.711254 0.103029 0.715419
0.8224 0.122362 0.745159
0.8224 0.122362 0.745159
0.8224 0.122362 0.745159
0.8224 0.122362 0.745159
0.0284123 0.216159 0.634333
0.0285344 0.229343 0.635554
0.0284276 0.204532 0.632349
0.20325 0.130144 0.67187
0.679286 0.161273 0.752514
0.868132 0.193652 0.790097
0.879606 0.215625 0.800534
0.907607 0.273716 0.829892
0.931884 0.342855 0.856321
0.0215457 0.496422 0.643519
0.0225071 0.505745 0.644984
0.0211948 0.493446 0.643412
0.0212558 0.477409 0.656825
0.635752 0.591989 0.834043
0.91252 0.653117 0.875776
0.950408 0.672114 0.88333
0.951873 0.68571 0.885618
0.954498 0.702419 0.889128
0.0500801 0.64741 0.697215
0.050721 0.649012 0.697856
0.0488136 0.640421 0.695613
0.0455787 0.624811 0.68983
0.37348 0.695552 0.768872
0.8439 0.805203 0.885191
0.955688 0.834104 0.901778
0.96202 0.844282 0.903044
0.962219 0.852216 0.903334
0.0771344 0.771984 0.738445
0.0771344 0.771984 0.738445
0.0764172 0.770047 0.737697
0.0675517 0.741527 0.729458
0.0953231 0.741802 0.745602
0.788632 0.880034 0.869337
0.944564 0.920241 0.900084
0.962676 0.92697 0.904387
0.962585 0.92845 0.905028
0.0771344 0.771984 0.738445
0.0771344 0.771984 0.738445
0.0771344 0.771984 0.738445
0.0787976 0.775982 0.739361
0.0878462 0.79646 0.743069
0.684733 0.872923 0.827451
0.944579 0.943542 0.90338
0.962692 0.946746 0.905867
0.962692 0.947707 0.906844
0.0771344 0.771984 0.738445
0.0771344 0.771984 0.738445
0.0771344 0.771984 0.738445
0.0805829 0.781064 0.741222
0.0896468 0.802518 0.742962
0.315557 0.803754 0.738582
0.936034 0.94789 0.902983
0.962646 0.952148 0.906584
0.962646 0.952392 0.908293
0.0556802 0.0606546 0.562737
0.0712596 0.0601511 0.567117
0.134279 0.0698405 0.599207
0.315038 0.0785382 0.653529
0.647822 0.0932021 0.700435
0.8224 0.122362 0.745159
0.8224 0.122362 0.745159
0.8224 0.122362 0.745159
0.8224 0.122362 0.745159
0.0469062 0.062211 0.561791
0.0690776 0.0601816 0.566445
0.162295 0.071519 0.610788
0.429694 0.079469 0.666499
0.734218 0.107073 0.721401
0.8224 0.122362 0.745159
0.8224 0.122362 0.745159
0.8224 0.122362 0.745159
0.8224 0.122362 0.745159
0.0252384 0.11194 0.606714
0.0243992 0.096376 0.596155
0.0872511 0.0619516 0.575189
0.374273 0.0796979 0.662089
0.72607 0.105379 0.719081
0.8224 0.122362 0.745159
0.8224 0.122362 0.745159
0.8224 0.122362 0.745159
0.8224 0.122362 0.745159
0.0283818 0.218936 0.634531
0.028748 0.230747 0.63621
0.0284886 0.20415 0.632151
0.214206 0.132143 0.676234
0.688487 0.163439 0.755016
0.869322 0.19736 0.79115
0.88333 0.221866 0.805066
0.911711 0.284153 0.834318
0.934081 0.351858 0.859159
0.0217594 0.501991 0.644053
0.0227665 0.510353 0.645701
0.0214847 0.496742 0.643565
0.0218967 0.481086 0.65893
0.643702 0.596048 0.836057
0.91458 0.655146 0.876326
0.9505 0.674464 0.883711
0.952499 0.687633 0.886412
0.954787 0.704524 0.889494
0.0509499 0.650324 0.698253
0.0509651 0.650629 0.698009
0.0489967 0.640742 0.695552
0.0459754 0.626184 0.691066
0.398047 0.699718 0.772808
0.84831 0.80502 0.886
0.955962 0.833478 0.90193
0.96202 0.843549 0.903136
0.962234 0.851713 0.90338
0.0771344 0.771984 0.738445
0.0771344 0.771984 0.738445
0.0763867 0.769726 0.737652
0.0664378 0.737285 0.728267
0.104402 0.737179 0.74641
0.764874 0.866239 0.866743
0.937682 0.912139 0.90016
0.962493 0.92079 0.903792
0.962463 0.924437 0.905501
0.0771344 0.771984 0.738445
0.0771344 0.771984 0.738445
0.0771344 0.771984 0.738445
0.0784924 0.776379 0.741283
0.0799878 0.785824 0.750957
0.627939 0.844099 0.817227
0.934005 0.93753 0.90631
0.962631 0.944244 0.909743
0.962722 0.94612 0.911574
0.0771344 0.771984 0.738445
0.0771344 0.771984 0.738445
0.0771344 0.771984 0.738445
0.0800183 0.78114 0.744152
0.0865339 0.805371 0.759777
0.169451 0.803525 0.753948
0.925246 0.944656 0.904814
0.962661 0.951736 0.910826
0.962661 0.95256 0.911696
