bundles/resolve-cinematic-luts/Phantom Luts/Komodo Phantom FILM LUTs G2/Komodo Phantom FILM LUTs G2/33x/Standard (No WB Offset)/Bleach_Komodo_G2_33x.cube
TITLE "Generated by Resolve"
LUT_3D_SIZE 9
0.0262913 0.0395514 0.0281834
0.027924 0.0396582 0.0284276
0.0842603 0.0408026 0.0314641
0.215106 0.0422065 0.0379339
0.459785 0.0504921 0.068925
0.667353 0.0569162 0.115755
0.71548 0.0621653 0.144121
0.72163 0.0623941 0.15964
0.725704 0.0626078 0.170779
0.0269169 0.041413 0.028809
0.0313115 0.0442817 0.0304723
0.12462 0.0445258 0.0336767
0.310826 0.0496529 0.0424048
0.565469 0.0493629 0.0604715
0.682429 0.0599222 0.0823835
0.690822 0.0606699 0.0931563
0.690105 0.0605325 0.0916457
0.684001 0.0601816 0.0821241
0.0420844 0.161379 0.0421759
0.0429847 0.177081 0.038117
0.169039 0.197498 0.0451057
0.497856 0.191363 0.0804913
0.688548 0.153231 0.101396
0.734691 0.070161 0.0576791
0.729885 0.0681315 0.0606546
0.741512 0.0718395 0.051606
0.799405 0.139574 0.0939498
0.0340429 0.364065 0.0447242
0.0328069 0.385962 0.0231632
0.0921645 0.405447 0.028336
0.505241 0.544625 0.082536
0.788846 0.639185 0.15668
0.893935 0.686091 0.177142
0.891798 0.698177 0.168322
0.887388 0.72018 0.146654
0.884718 0.745281 0.13344
0.095079 0.644572 0.115557
0.117296 0.670542 0.0973831
0.160403 0.683955 0.0908675
0.543175 0.72398 0.165972
0.793118 0.819821 0.230671
0.903609 0.861173 0.265461
0.910018 0.867826 0.277485
0.910033 0.876692 0.291417
0.910613 0.884993 0.307622
0.132631 0.762768 0.231678
0.133181 0.762692 0.226032
0.13373 0.762661 0.220401
0.493645 0.784054 0.190784
0.808301 0.867536 0.315526
0.903273 0.900252 0.353902
0.914366 0.902846 0.382956
0.914321 0.902831 0.38201
0.914305 0.902831 0.381903
0.132342 0.762829 0.234745
0.133181 0.762707 0.226154
0.13373 0.762661 0.220401
0.537636 0.78732 0.201205
0.817288 0.87158 0.315343
0.904082 0.900587 0.355077
0.914305 0.902831 0.381826
0.914305 0.902831 0.381903
0.914305 0.902831 0.381903
0.132235 0.762875 0.236072
0.133288 0.762692 0.224842
0.13608 0.762539 0.192233
0.635889 0.805997 0.239017
0.843809 0.882795 0.317769
0.910109 0.901869 0.364218
0.914305 0.902831 0.381903
0.914305 0.902831 0.381903
0.914305 0.902831 0.381903
0.132189 0.76289 0.236927
0.133623 0.762676 0.221637
0.193378 0.767651 0.137942
0.705684 0.828702 0.274678
0.864683 0.889769 0.324971
0.91339 0.902663 0.371527
0.914305 0.902831 0.381903
0.914305 0.902831 0.381903
0.914305 0.902831 0.381903
0.0261845 0.0395514 0.0290837
0.027512 0.0396735 0.0289921
0.0881208 0.042649 0.0382544
0.236057 0.048188 0.053193
0.492927 0.0543221 0.0884108
0.684291 0.0583505 0.141238
0.730343 0.0629892 0.184955
0.738079 0.0631571 0.213825
0.742931 0.0633707 0.237156
0.0264897 0.0402686 0.028748
0.0298009 0.0424964 0.0312963
0.135409 0.0414435 0.0352789
0.334371 0.0512093 0.057908
0.598291 0.0531167 0.101381
0.713314 0.0619516 0.139467
0.72047 0.0622873 0.156893
0.725155 0.062562 0.169543
0.728603 0.0628061 0.178454
0.04094 0.164431 0.0621653
0.0422522 0.178943 0.0479133
0.170825 0.198367 0.044892
0.510063 0.180957 0.081239
0.683589 0.130465 0.0890364
0.723613 0.0654459 0.0597238
0.717678 0.064744 0.0647746
0.724651 0.0665446 0.0635996
0.753124 0.0863966 0.0625162
0.0304265 0.369802 0.0683452
0.0299229 0.38996 0.0472877
0.0749218 0.404852 0.0251316
0.513069 0.550286 0.0844892
0.797299 0.641138 0.163867
0.894484 0.683864 0.181857
0.892592 0.693614 0.17055
0.887907 0.713619 0.150546
0.885924 0.736675 0.138872
0.0857404 0.643061 0.152529
0.10193 0.663005 0.132876
0.152895 0.685618 0.0917678
0.535637 0.724453 0.164569
0.795483 0.821378 0.232197
0.904845 0.861143 0.266011
0.910094 0.866667 0.275517
0.910185 0.87451 0.287831
0.910399 0.881605 0.300908
0.132113 0.762921 0.237629
0.132509 0.762798 0.233188
0.13373 0.762661 0.220401
0.455314 0.783352 0.184604
0.805203 0.866255 0.315267
0.902693 0.900099 0.353491
0.914397 0.902846 0.383429
0.914305 0.902831 0.381918
0.914305 0.902831 0.381964
0.130907 0.763088 0.250584
0.132235 0.762875 0.236133
0.13373 0.762661 0.220401
0.481697 0.783719 0.188724
0.810559 0.868421 0.316091
0.901656 0.899825 0.351675
0.91426 0.902815 0.381582
0.914305 0.902831 0.381903
0.914305 0.902831 0.381903
0.127398 0.764614 0.299413
0.132067 0.762921 0.238209
0.13373 0.762661 0.220401
0.589197 0.795056 0.218326
0.832883 0.878584 0.315679
0.906203 0.90103 0.357382
0.914229 0.902815 0.381186
0.914305 0.902831 0.381903
0.914305 0.902831 0.381903
0.125063 0.766476 0.338048
0.131914 0.762936 0.239734
0.134859 0.762554 0.206058
0.663676 0.814267 0.252827
0.851392 0.885557 0.319844
0.910353 0.9019 0.364523
0.914275 0.902815 0.381552
0.914305 0.902831 0.381903
0.914305 0.902831 0.381903
0.0231327 0.0443427 0.0735027
0.0324254 0.0421607 0.0698405
0.098909 0.0446937 0.082475
0.26482 0.0559091 0.11548
0.533669 0.0607462 0.159533
0.713863 0.0615549 0.236301
0.755459 0.0722972 0.293538
0.767758 0.0874342 0.342794
0.775341 0.0966354 0.397223
0.0195315 0.0492103 0.081178
0.0250095 0.0455177 0.101015
0.166674 0.047364 0.134783
0.392279 0.0634623 0.165866
0.641245 0.0671855 0.220325
0.754116 0.0708019 0.289067
0.763104 0.0810864 0.32314
0.770596 0.0919509 0.356374
0.774716 0.0959487 0.388373
0.035584 0.147646 0.12549
0.0351568 0.160555 0.13727
0.175235 0.184207 0.170169
0.501549 0.153201 0.149111
0.683162 0.113527 0.166476
0.725612 0.0630808 0.152087
0.727916 0.063035 0.164187
0.732265 0.0634928 0.175555
0.74522 0.0700999 0.194415
0.0235599 0.363363 0.150256
0.0216983 0.383474 0.143481
0.0286717 0.380819 0.0723735
0.493492 0.530449 0.0942397
0.813382 0.615366 0.203159
0.902113 0.647135 0.208362
0.900633 0.654261 0.202304
0.896742 0.674708 0.18941
0.89247 0.698512 0.172274
0.0644083 0.628214 0.245075
0.0724498 0.644724 0.244038
0.088304 0.647166 0.152819
0.443656 0.709072 0.145174
0.783246 0.808759 0.225055
0.906645 0.85124 0.254551
0.91043 0.853956 0.259297
0.909987 0.861158 0.267964
0.909911 0.868635 0.27834
0.125093 0.76643 0.337209
0.126421 0.76527 0.315007
0.132219 0.762875 0.236271
0.292149 0.775952 0.151049
0.786954 0.858885 0.309941
0.897688 0.898756 0.348287
0.91429 0.902815 0.38172
0.914504 0.902876 0.384771
0.914427 0.902861 0.38381
0.116594 0.768277 0.385153
0.123644 0.767819 0.361288
0.131884 0.762951 0.239918
0.25565 0.772625 0.143206
0.775235 0.854429 0.306004
0.890929 0.897246 0.341436
0.913954 0.90277 0.377584
0.914305 0.902831 0.381903
0.914305 0.902831 0.381903
0.0936904 0.770703 0.425956
0.113802 0.768307 0.389715
0.131304 0.763058 0.246647
0.35996 0.780819 0.166613
0.796887 0.862898 0.313756
0.893523 0.897704 0.343755
0.913817 0.902754 0.376013
0.914305 0.902831 0.381903
0.914305 0.902831 0.381903
0.0787823 0.773816 0.473136
0.0990921 0.769863 0.415167
0.129671 0.76347 0.264714
0.48838 0.783963 0.189822
0.81529 0.870756 0.315312
0.896788 0.898497 0.346624
0.913771 0.902739 0.375525
0.914305 0.902831 0.381888
0.914305 0.902831 0.381872
0.0210269 0.0506294 0.158572
0.0355077 0.0462348 0.162676
0.110399 0.0463722 0.194369
0.304662 0.055787 0.243305
0.557519 0.0518044 0.301518
0.744884 0.0804608 0.423499
0.764584 0.0692302 0.486717
0.767071 0.0679484 0.529809
0.773495 0.0703441 0.573144
0.0145418 0.0625315 0.193393
0.0266117 0.0508736 0.225742
0.161303 0.0498512 0.290837
0.452247 0.0607309 0.345647
0.654551 0.0556344 0.415213
0.764996 0.0676127 0.506783
0.767926 0.0683299 0.535668
0.771862 0.0698405 0.564309
0.77731 0.0717174 0.590875
0.0207828 0.136538 0.226642
0.0202335 0.141756 0.249653
0.0969253 0.0940871 0.336767
0.500328 0.0853132 0.393454
0.665583 0.0585794 0.39498
0.766918 0.0737316 0.477409
0.764736 0.0682078 0.498329
0.765698 0.0675364 0.51725
0.767681 0.0682231 0.534615
0.0213626 0.334401 0.29868
0.0187839 0.352895 0.313893
0.0192721 0.351171 0.313222
0.528099 0.513924 0.491356
0.805005 0.539956 0.517647
0.907332 0.536004 0.528145
0.906844 0.538521 0.53753
0.906981 0.563485 0.559121
0.909102 0.594385 0.586038
0.0347448 0.617517 0.385672
0.038117 0.633219 0.398123
0.041886 0.631098 0.357458
0.21355 0.653178 0.279088
0.748318 0.760494 0.43328
0.928512 0.79968 0.523766
0.937713 0.810437 0.521721
0.941466 0.817761 0.549538
0.946548 0.827832 0.582254
0.0688792 0.76643 0.485328
0.0722515 0.768841 0.48014
0.0840009 0.765377 0.43299
0.12079 0.755413 0.270314
0.736324 0.838468 0.31458
0.892943 0.897627 0.344472
0.91342 0.902663 0.371771
0.913573 0.902693 0.373571
0.913893 0.90277 0.377005
0.0681468 0.776593 0.525383
0.0705577 0.775738 0.511131
0.085069 0.772396 0.450141
0.128145 0.76405 0.286107
0.71133 0.830701 0.277348
0.87332 0.89247 0.330007
0.913405 0.902663 0.371435
0.914137 0.9028 0.379995
0.914122 0.9028 0.379705
0.0616617 0.7794 0.575936
0.0639048 0.778088 0.551736
0.076112 0.774563 0.484947
0.126894 0.764996 0.308354
0.740475 0.841123 0.291066
0.875944 0.893309 0.331167
0.91313 0.902617 0.368292
0.914 0.902785 0.377966
0.914092 0.9028 0.379202
0.0599222 0.780957 0.614908
0.0611276 0.779843 0.583917
0.0701915 0.775845 0.512901
0.125582 0.765927 0.328283
0.769299 0.85211 0.303243
0.882322 0.894972 0.335225
0.913039 0.902617 0.367193
0.913802 0.902754 0.375967
0.914046 0.9028 0.378622
0.0238956 0.0542 0.276875
0.0385595 0.0491951 0.286305
0.110307 0.0504921 0.335164
0.315816 0.0586252 0.425711
0.612024 0.069688 0.516091
0.760708 0.0699931 0.592035
0.792233 0.0760052 0.639216
0.815152 0.092607 0.682078
0.8336 0.108034 0.717159
0.0120241 0.0686809 0.342733
0.0290074 0.0551308 0.376303
0.153643 0.0540017 0.466697
0.467033 0.0624247 0.548241
0.710338 0.084184 0.614771
0.804089 0.0837568 0.663111
0.821973 0.0982681 0.693935
0.834455 0.108568 0.716945
0.83711 0.110384 0.730098
0.0149081 0.120089 0.382086
0.0139925 0.120623 0.419791
0.0576181 0.0483101 0.437308
0.441123 0.0634623 0.566964
0.724437 0.0866865 0.628519
0.804486 0.084062 0.663798
0.816587 0.093904 0.684474
0.826749 0.103105 0.702647
0.834195 0.108385 0.716793
0.00993362 0.326055 0.479408
0.0084535 0.344091 0.503624
0.00993362 0.332189 0.526055
0.423575 0.376089 0.696834
0.855619 0.465095 0.773892
0.935912 0.413336 0.793118
0.937575 0.418601 0.801114
0.937713 0.459373 0.810498
0.934752 0.510781 0.814466
0.0228733 0.583398 0.536614
0.0252842 0.598108 0.552529
0.0248264 0.594644 0.549218
0.114626 0.61062 0.56875
0.765057 0.745815 0.72311
0.923461 0.760311 0.740612
0.943023 0.767788 0.748318
0.94461 0.776913 0.758526
0.947219 0.790341 0.772335
0.0458839 0.746746 0.611322
0.0462959 0.747845 0.609979
0.0460975 0.747417 0.600122
0.0461738 0.746593 0.565072
0.677302 0.825666 0.661051
0.900877 0.890211 0.724178
0.962371 0.903197 0.764721
0.962417 0.907042 0.773892
0.962249 0.910399 0.785702
0.0609903 0.781826 0.643748
0.0606699 0.781628 0.63714
0.0599985 0.780835 0.609171
0.0653086 0.778271 0.545312
0.466392 0.79089 0.495674
0.864759 0.898039 0.658152
0.930526 0.913024 0.617533
0.915404 0.902876 0.40116
0.919814 0.903258 0.477821
0.0627451 0.782757 0.677943
0.0620432 0.782559 0.665171
0.0603799 0.781415 0.631983
0.0634928 0.781094 0.568551
0.544808 0.805859 0.564172
0.8636 0.897948 0.660639
0.915343 0.902419 0.492958
0.913436 0.902678 0.371862
0.913787 0.902739 0.375647
0.0641337 0.783032 0.701885
0.0630808 0.782895 0.684718
0.0612039 0.781949 0.648371
0.0634318 0.784527 0.590158
0.618067 0.830137 0.62504
0.88101 0.908629 0.703334
0.921431 0.908949 0.597818
0.914092 0.9028 0.378988
0.913725 0.902739 0.375021
0.0261234 0.0575418 0.417044
0.0410163 0.0517281 0.433173
0.11812 0.0534981 0.498726
0.322469 0.0626383 0.582116
0.635477 0.0790417 0.641611
0.818692 0.106325 0.714549
0.839246 0.112688 0.743755
0.84062 0.116091 0.759426
0.840757 0.116869 0.762325
0.0110933 0.069337 0.507591
0.0308232 0.0556191 0.528008
0.157916 0.0571298 0.587732
0.448569 0.0662394 0.651041
0.725551 0.0958267 0.709194
0.839902 0.11429 0.751934
0.840742 0.116838 0.762234
0.840757 0.116869 0.762325
0.840757 0.116869 0.762325
0.013489 0.135668 0.584344
0.0136873 0.132662 0.603952
0.062089 0.0465553 0.561044
0.403357 0.0660258 0.660212
0.729946 0.0966964 0.717968
0.840192 0.114733 0.754162
0.840665 0.11635 0.760311
0.840757 0.116869 0.762325
0.840757 0.116869 0.762325
0.0141909 0.307515 0.607126
0.0142672 0.322103 0.618463
0.0153048 0.297719 0.632044
0.301381 0.236576 0.738552
0.820264 0.331197 0.84213
0.943328 0.3355 0.855512
0.946548 0.347097 0.86067
0.95378 0.39292 0.872404
0.955474 0.454582 0.877836
0.0158999 0.565728 0.619684
0.0189975 0.57763 0.631479
0.0177768 0.571252 0.631708
0.0186923 0.566217 0.65124
0.725704 0.696422 0.828641
0.934188 0.731517 0.858091
0.953353 0.735317 0.86305
0.95436 0.746334 0.865904
0.956115 0.760662 0.870054
0.0451514 0.71986 0.672938
0.0455024 0.721477 0.673777
0.0446021 0.718379 0.671946
0.0437324 0.713588 0.668147
0.626535 0.808148 0.769955
0.9066 0.882902 0.847089
0.958068 0.889906 0.855619
0.962219 0.893599 0.859709
0.962448 0.897917 0.863752
0.0651255 0.783078 0.712077
0.064744 0.783001 0.708354
0.0634165 0.782971 0.693782
0.0603799 0.779675 0.665476
0.22472 0.779873 0.662898
0.895399 0.923674 0.846647
0.955215 0.936034 0.856794
0.96257 0.939666 0.869383
0.962615 0.940566 0.8719
0.0670634 0.782406 0.732448
0.0662699 0.782788 0.724498
0.0644999 0.783047 0.70576
0.0632181 0.784695 0.673686
0.0977646 0.802686 0.672053
0.865385 0.922942 0.822324
0.950698 0.944137 0.847135
0.962509 0.948196 0.848692
0.962524 0.947616 0.843015
0.0635233 0.780652 0.744106
0.0673228 0.782254 0.734737
0.0652476 0.783047 0.713344
0.0653697 0.787945 0.68542
0.153017 0.799832 0.678325
0.879927 0.927794 0.836316
0.950286 0.944259 0.849729
0.962753 0.94641 0.836484
0.962585 0.942687 0.808423
0.0263066 0.0577707 0.538598
0.045243 0.0491646 0.550454
0.1187 0.0495613 0.590341
0.318059 0.0645762 0.661967
0.631403 0.0794537 0.708797
0.8309 0.11574 0.759441
0.840757 0.116869 0.762325
0.840757 0.116869 0.762325
0.840757 0.116869 0.762325
0.0136568 0.0652018 0.591363
0.0447395 0.0489357 0.588708
0.168048 0.0569009 0.635843
0.452049 0.066392 0.686107
0.732738 0.0962997 0.734249
0.840757 0.116869 0.762325
0.840757 0.116869 0.762325
0.840757 0.116869 0.762325
0.840757 0.116869 0.762325
0.0141604 0.135164 0.641093
0.0137942 0.122408 0.636393
0.078706 0.0484779 0.599954
0.413809 0.0663005 0.683909
0.734401 0.0968032 0.734707
0.840757 0.116869 0.762325
0.840757 0.116869 0.762325
0.840757 0.116869 0.762325
0.840757 0.116869 0.762325
0.016846 0.271672 0.666117
0.0170901 0.285771 0.667872
0.0170138 0.259968 0.666117
0.267552 0.173129 0.729427
0.753307 0.22707 0.809583
0.919249 0.263416 0.841337
0.926757 0.283131 0.8495
0.945861 0.345418 0.87129
0.955184 0.412345 0.884291
0.0188602 0.560204 0.659846
0.0214084 0.570397 0.668437
0.020676 0.560784 0.674266
0.0198825 0.547921 0.686046
0.68777 0.652018 0.854932
0.932158 0.701686 0.887755
0.9579 0.718151 0.894072
0.958511 0.72932 0.895323
0.959503 0.744472 0.896956
0.0446174 0.69337 0.707088
0.0450446 0.694469 0.708873
0.0440375 0.688014 0.708492
0.0424964 0.67657 0.708675
0.518608 0.748867 0.784207
0.89102 0.858412 0.878035
0.957259 0.873716 0.885344
0.962127 0.878111 0.886152
0.962325 0.884215 0.887282
0.0639353 0.780743 0.743633
0.0643778 0.78085 0.743252
0.0669718 0.781552 0.735714
0.0595407 0.768444 0.719982
0.151034 0.773159 0.728237
0.879896 0.919356 0.879118
0.953811 0.932219 0.891783
0.9626 0.934646 0.89482
0.962631 0.935683 0.895827
0.062974 0.780468 0.745037
0.062974 0.780468 0.745037
0.0659342 0.781338 0.740902
0.0675212 0.785306 0.723949
0.074876 0.798962 0.719936
0.80206 0.914321 0.851347
0.953277 0.946349 0.893645
0.962661 0.948745 0.89659
0.962692 0.949935 0.900099
0.062974 0.780468 0.745037
0.062974 0.780468 0.745037
0.0645304 0.780804 0.743206
0.0693675 0.787976 0.727962
0.077821 0.802853 0.725399
0.731487 0.895293 0.823651
0.949065 0.94905 0.891722
0.962631 0.952865 0.895979
0.962692 0.954604 0.897856
0.0381476 0.0511482 0.588357
0.0650797 0.0478676 0.594766
0.142412 0.0529641 0.625284
0.354833 0.0662547 0.678691
0.662699 0.0838026 0.718624
0.839124 0.116716 0.761868
0.840757 0.116869 0.762325
0.840757 0.116869 0.762325
0.840757 0.116869 0.762325
0.0352941 0.052491 0.588571
0.0700847 0.0481575 0.596536
0.194751 0.0594339 0.644785
0.488075 0.0670787 0.688899
0.752407 0.100282 0.738994
0.840757 0.116869 0.762325
0.840757 0.116869 0.762325
0.840757 0.116869 0.762325
0.840757 0.116869 0.762325
0.0140993 0.131426 0.64036
0.0128481 0.110826 0.629465
0.0973983 0.0490425 0.607065
0.444511 0.0662089 0.685573
0.749203 0.0997482 0.738415
0.840757 0.116869 0.762325
0.840757 0.116869 0.762325
0.840757 0.116869 0.762325
0.840757 0.116869 0.762325
0.016968 0.262501 0.666667
0.0171054 0.277058 0.667292
0.0169833 0.248615 0.664836
0.270207 0.15642 0.723171
0.746471 0.203998 0.797879
0.908003 0.238178 0.82977
0.919844 0.26508 0.841962
0.942946 0.334829 0.86836
0.955169 0.40708 0.884001
0.0210574 0.562448 0.67808
0.0226902 0.570764 0.679973
0.0206149 0.559792 0.677714
0.019028 0.544244 0.685313
0.694713 0.649012 0.857145
0.932128 0.698421 0.887602
0.957534 0.714504 0.893263
0.958068 0.726711 0.89485
0.959182 0.741726 0.896483
0.0448157 0.68629 0.718227
0.0449989 0.687602 0.71841
0.0442359 0.680873 0.717723
0.0419776 0.668635 0.713649
0.455497 0.730968 0.785168
0.879072 0.839307 0.887999
0.955184 0.859785 0.898756
0.962127 0.867781 0.899413
0.962341 0.874022 0.899321
0.062974 0.780468 0.745037
0.062974 0.780468 0.745037
0.0623026 0.778943 0.744457
0.0568704 0.758343 0.739605
0.0976883 0.759075 0.751659
0.83653 0.900313 0.87985
0.948959 0.92575 0.900206
0.962432 0.930648 0.904112
0.962493 0.931807 0.904982
0.062974 0.780468 0.745037
0.062974 0.780468 0.745037
0.062974 0.780468 0.745037
0.0650339 0.783505 0.746075
0.0791791 0.798001 0.748806
0.746761 0.894423 0.849149
0.949554 0.944183 0.903029
0.962692 0.946914 0.905974
0.962692 0.947951 0.907088
0.062974 0.780468 0.745037
0.062974 0.780468 0.745037
0.062974 0.780468 0.745037
0.0671092 0.786877 0.747295
0.0815137 0.802762 0.748501
0.380224 0.811826 0.75314
0.943069 0.948348 0.904509
0.962646 0.952316 0.907057
0.962631 0.953399 0.90866
0.063859 0.0478676 0.594369
0.0889143 0.0488441 0.603784
0.17528 0.0584726 0.638666
0.401144 0.0663462 0.68278
0.692683 0.0888533 0.725032
0.840757 0.116869 0.762325
0.840757 0.116869 0.762325
0.840757 0.116869 0.762325
0.840757 0.116869 0.762325
0.0508125 0.0478981 0.589929
0.0851148 0.0486763 0.602182
0.213825 0.0607156 0.650721
0.514946 0.0683604 0.69192
0.769528 0.104189 0.743191
0.840757 0.116869 0.762325
0.840757 0.116869 0.762325
0.840757 0.116869 0.762325
0.840757 0.116869 0.762325
0.0138094 0.129641 0.638972
0.0127871 0.105257 0.626078
0.109438 0.049424 0.611627
0.4692 0.066804 0.687129
0.762112 0.102434 0.74107
0.840757 0.116869 0.762325
0.840757 0.116869 0.762325
0.840757 0.116869 0.762325
0.840757 0.116869 0.762325
0.0170138 0.265324 0.666606
0.0171054 0.278904 0.667613
0.0168002 0.248066 0.664454
0.282887 0.157198 0.726177
0.755718 0.208698 0.800763
0.908934 0.240543 0.830579
0.924361 0.276005 0.846738
0.946059 0.346151 0.871717
0.955398 0.416999 0.884489
0.0217899 0.567437 0.67892
0.0229953 0.574899 0.680934
0.0210727 0.562737 0.678157
0.0200656 0.54757 0.687434
0.702312 0.65275 0.858839
0.933288 0.700618 0.887709
0.95758 0.716548 0.893584
0.958404 0.728634 0.895277
0.959319 0.743816 0.896712
0.0454719 0.688472 0.718883
0.0454719 0.688777 0.7187
0.0442664 0.681331 0.717525
0.0421607 0.669795 0.714321
0.484672 0.734524 0.788617
0.881804 0.8392 0.888457
0.955276 0.859144 0.898817
0.962142 0.867201 0.899428
0.962356 0.873518 0.899397
0.062974 0.780468 0.745037
0.062974 0.780468 0.745037
0.0622263 0.778744 0.744396
0.0564736 0.755718 0.738964
0.110765 0.755627 0.752392
0.81561 0.890532 0.877607
0.944289 0.919966 0.902037
0.962509 0.926146 0.905791
0.962539 0.928435 0.907088
0.062974 0.780468 0.745037
0.062974 0.780468 0.745037
0.062974 0.780468 0.745037
0.0643778 0.78381 0.747524
0.0648814 0.790051 0.754513
0.692027 0.869673 0.837201
0.941192 0.939315 0.905196
0.962631 0.944793 0.909209
0.962707 0.946548 0.910933
0.062974 0.780468 0.745037
0.062974 0.780468 0.745037
0.062974 0.780468 0.745037
0.0656596 0.786969 0.749554
0.072343 0.804974 0.760372
0.191989 0.803662 0.756054
0.936736 0.945602 0.90692
0.962661 0.951339 0.910414
0.962661 0.952621 0.911757
