bundles/resolve-cinematic-luts/Phantom Luts/Komodo Phantom FILM LUTs G2/Komodo Phantom FILM LUTs G2/33x/Standard (No WB Offset)/EastmanRM_Komodo_G2_33x.cube
TITLE "Generated by Resolve"
LUT_3D_SIZE 9
0.0446021 0.0421149 0.0435492
0.064683 0.0390784 0.0416114
0.182437 0.0312505 0.0438392
0.374899 0.0297093 0.0587625
0.519097 0.0311894 0.0933547
0.548424 0.037644 0.115251
0.552468 0.0395209 0.124239
0.552666 0.0404517 0.129625
0.532937 0.0433204 0.151125
0.0468147 0.0676127 0.0456855
0.0545815 0.0647593 0.0461891
0.170764 0.0476234 0.0454566
0.381628 0.030045 0.0519722
0.511116 0.0322118 0.0762188
0.531563 0.0362402 0.0918898
0.539117 0.0367437 0.104646
0.540871 0.0369726 0.108446
0.522438 0.0392157 0.126482
0.0592966 0.190646 0.0558328
0.0557412 0.193408 0.0538338
0.199451 0.215579 0.0606851
0.497612 0.182391 0.0912947
0.551766 0.0692454 0.0784466
0.529412 0.0403296 0.0892348
0.529 0.0402533 0.089662
0.529213 0.0402838 0.0894789
0.525124 0.04094 0.0923476
0.0547646 0.430991 0.0534371
0.0517281 0.43769 0.0470741
0.0922255 0.452415 0.048188
0.550088 0.568856 0.1093
0.797772 0.584558 0.223682
0.833356 0.584054 0.246738
0.832654 0.571206 0.240024
0.8327 0.576776 0.242588
0.832044 0.593942 0.254994
0.177172 0.638376 0.186114
0.195315 0.64268 0.177264
0.234867 0.651652 0.171115
0.49044 0.733211 0.226474
0.817121 0.84744 0.385779
0.899199 0.85034 0.453422
0.899123 0.851225 0.453895
0.898894 0.854047 0.456611
0.899413 0.858839 0.46154
0.232578 0.70695 0.330724
0.231281 0.706371 0.329198
0.231098 0.705165 0.324208
0.358419 0.71104 0.243549
0.786435 0.880781 0.450507
0.89691 0.908797 0.545769
0.898436 0.90959 0.554162
0.898436 0.90959 0.554162
0.899367 0.9093 0.551049
0.234836 0.706676 0.329519
0.23389 0.705882 0.326009
0.233692 0.704189 0.319142
0.356283 0.709972 0.239048
0.783078 0.879805 0.448554
0.894682 0.908415 0.540261
0.899245 0.909331 0.551385
0.898924 0.909438 0.552483
0.898161 0.909682 0.555138
0.231922 0.70808 0.335988
0.238239 0.704463 0.319142
0.240818 0.701839 0.3066
0.408682 0.727062 0.243503
0.805325 0.885649 0.448859
0.898878 0.907759 0.534112
0.901274 0.908644 0.543908
0.900755 0.908812 0.545907
0.897917 0.909758 0.556527
0.230457 0.708858 0.33991
0.233677 0.705943 0.326253
0.2374 0.702968 0.312901
0.459571 0.748043 0.264225
0.823362 0.892058 0.460243
0.900816 0.907973 0.53785
0.901274 0.908644 0.543908
0.900755 0.908812 0.545907
0.897795 0.909789 0.557443
0.0430762 0.0431678 0.0519265
0.0601511 0.0433661 0.0564126
0.172717 0.0426642 0.0653849
0.36846 0.0353857 0.0854047
0.512627 0.0343481 0.1205
0.54406 0.0429541 0.146563
0.546639 0.0446021 0.154162
0.546319 0.0456245 0.159701
0.533684 0.0477455 0.175051
0.0460212 0.0590677 0.0525063
0.050309 0.0557717 0.0531472
0.163653 0.0372931 0.0552834
0.37499 0.0324254 0.0733196
0.51104 0.0344396 0.114321
0.53402 0.0403296 0.134295
0.537285 0.0420996 0.142824
0.539055 0.0428321 0.146822
0.528466 0.0445716 0.159197
0.0573129 0.189075 0.0804913
0.0538949 0.189822 0.0647288
0.189136 0.207614 0.0611124
0.479301 0.156054 0.0863813
0.520317 0.0474556 0.0782788
0.521385 0.0399329 0.0951247
0.520684 0.0396887 0.095201
0.520699 0.039704 0.0951247
0.51664 0.0403906 0.0985885
0.0519875 0.433158 0.0808728
0.0502632 0.437873 0.0673075
0.0719463 0.444312 0.0462654
0.548409 0.56585 0.107942
0.798566 0.576165 0.222156
0.832731 0.569635 0.239506
0.831678 0.554665 0.233097
0.832197 0.560647 0.235782
0.83003 0.576577 0.247105
0.156329 0.642161 0.224323
0.16788 0.643854 0.21146
0.233524 0.650904 0.170489
0.472435 0.725246 0.217365
0.816922 0.846677 0.384466
0.898787 0.848051 0.450919
0.898848 0.848341 0.451316
0.899046 0.851728 0.454383
0.899153 0.856275 0.458305
0.23267 0.708019 0.335439
0.231205 0.707835 0.334874
0.231037 0.705409 0.324971
0.321584 0.701274 0.237125
0.782483 0.87953 0.448447
0.896559 0.908721 0.545083
0.898436 0.90959 0.554162
0.898436 0.90959 0.554162
0.898543 0.90956 0.553857
0.23328 0.70837 0.336812
0.233616 0.707362 0.332723
0.233448 0.704662 0.321401
0.31165 0.698421 0.233265
0.77644 0.87776 0.444556
0.8934 0.908263 0.53785
0.899428 0.909285 0.550835
0.899107 0.909377 0.551827
0.898238 0.909651 0.554772
0.230381 0.710674 0.347662
0.237156 0.706294 0.327474
0.240589 0.70219 0.3084
0.366552 0.712108 0.230488
0.797726 0.883238 0.443885
0.897398 0.907652 0.531228
0.901274 0.908644 0.543908
0.900755 0.908812 0.545907
0.897795 0.909789 0.557458
0.230503 0.712581 0.354849
0.233585 0.707759 0.334234
0.237507 0.703075 0.31339
0.420142 0.731548 0.247959
0.816999 0.889677 0.456336
0.900084 0.907866 0.535668
0.901274 0.908644 0.543908
0.900755 0.908812 0.545907
0.897795 0.909789 0.557458
0.0406806 0.0576944 0.109529
0.0527657 0.0476997 0.129351
0.17847 0.0508736 0.139574
0.385626 0.0495613 0.13843
0.538247 0.047364 0.173495
0.570352 0.0606394 0.210361
0.581216 0.0690929 0.228519
0.585779 0.0755474 0.241642
0.576776 0.082475 0.264851
0.0405432 0.0675059 0.102617
0.0415656 0.0569314 0.11873
0.173861 0.0526284 0.147738
0.397116 0.0507362 0.137652
0.535637 0.0466621 0.173495
0.560998 0.0571603 0.205264
0.5691 0.0636912 0.220417
0.574853 0.0686351 0.230121
0.567269 0.0740673 0.249332
0.0544442 0.172229 0.136004
0.0508125 0.173495 0.14284
0.17818 0.198734 0.1823
0.468833 0.113191 0.147494
0.534524 0.043061 0.136477
0.536385 0.0415503 0.139193
0.538888 0.0427253 0.146288
0.540322 0.0433509 0.149645
0.536492 0.0441444 0.154833
0.0527352 0.43592 0.176532
0.0498665 0.441108 0.170733
0.0496529 0.428138 0.0880293
0.531151 0.549844 0.111116
0.797971 0.534035 0.206668
0.828473 0.509133 0.221576
0.826566 0.490181 0.219211
0.827298 0.49453 0.219928
0.823468 0.508278 0.227924
0.134539 0.656428 0.320485
0.1337 0.659175 0.31783
0.148638 0.643656 0.234211
0.397681 0.691524 0.180682
0.810162 0.838941 0.372595
0.898283 0.837873 0.442344
0.898436 0.836454 0.441672
0.898497 0.838788 0.44332
0.898665 0.843076 0.447196
0.235462 0.725811 0.401999
0.23154 0.720439 0.382727
0.230442 0.708812 0.339696
0.239155 0.69427 0.269429
0.760876 0.872999 0.434852
0.894835 0.908522 0.542107
0.898436 0.909606 0.554208
0.898436 0.90959 0.554162
0.898436 0.90959 0.554162
0.237873 0.733974 0.432654
0.234638 0.728634 0.413779
0.232685 0.708415 0.337331
0.236744 0.696651 0.284749
0.747662 0.868788 0.427054
0.888609 0.908019 0.529046
0.89984 0.909117 0.54963
0.899367 0.9093 0.551049
0.898436 0.90959 0.554162
0.239384 0.740719 0.455756
0.235981 0.734218 0.433295
0.238544 0.706767 0.329061
0.250202 0.692348 0.254368
0.769619 0.874693 0.426032
0.891249 0.907393 0.522179
0.901274 0.908644 0.543908
0.900755 0.908812 0.545907
0.897795 0.909789 0.557443
0.242313 0.744579 0.4701
0.237613 0.738689 0.448478
0.2365 0.708125 0.335042
0.272709 0.692851 0.237629
0.789929 0.880705 0.438727
0.894026 0.9075 0.526406
0.901274 0.908644 0.543908
0.900755 0.908812 0.545907
0.897642 0.909819 0.558175
0.0412146 0.0771191 0.21738
0.0475929 0.0699016 0.240513
0.147173 0.0553445 0.298726
0.398718 0.0597086 0.317586
0.536446 0.0652018 0.308125
0.573236 0.085069 0.334966
0.574426 0.0893111 0.348058
0.574685 0.0921645 0.358816
0.56228 0.0970321 0.382696
0.0415503 0.0999771 0.224384
0.0418708 0.0774853 0.237949
0.129656 0.0550546 0.311101
0.409964 0.0621653 0.338552
0.540887 0.0720073 0.323583
0.569497 0.0888991 0.348089
0.571038 0.0923629 0.359411
0.572702 0.0940261 0.367926
0.56318 0.0981155 0.388312
0.0420539 0.160006 0.224033
0.0421149 0.154223 0.23595
0.0555123 0.104799 0.301274
0.403784 0.0722515 0.348043
0.551812 0.0668345 0.295598
0.579049 0.0814374 0.316457
0.576593 0.0818341 0.323156
0.577462 0.0837873 0.329427
0.566354 0.088838 0.349142
0.0522011 0.411063 0.3364
0.0494545 0.416648 0.35024
0.0493782 0.413336 0.349172
0.49546 0.510491 0.487755
0.808576 0.420554 0.462013
0.857099 0.344335 0.445838
0.848859 0.319753 0.439429
0.848478 0.320592 0.44239
0.847211 0.334676 0.456077
0.126192 0.670649 0.462669
0.121675 0.676249 0.474632
0.121828 0.674907 0.453315
0.138735 0.640238 0.281376
0.756268 0.794263 0.405905
0.902296 0.79678 0.449332
0.900542 0.791333 0.443046
0.901198 0.792035 0.449332
0.902815 0.795911 0.458549
0.244938 0.750042 0.50605
0.23856 0.752132 0.513542
0.2392 0.748211 0.491951
0.230503 0.712581 0.354849
0.693553 0.849958 0.397681
0.891768 0.907515 0.524025
0.901335 0.908782 0.545373
0.901274 0.908675 0.544167
0.901289 0.908705 0.544503
0.239734 0.756054 0.534707
0.237949 0.755825 0.532036
0.238331 0.750683 0.50602
0.233112 0.717739 0.372564
0.648493 0.832395 0.371099
0.873106 0.906462 0.510277
0.899779 0.909041 0.548653
0.899336 0.90927 0.55082
0.898405 0.90956 0.553948
0.23769 0.759319 0.551202
0.23714 0.758404 0.546242
0.23827 0.753277 0.51928
0.238056 0.720348 0.381643
0.671122 0.841123 0.372107
0.872892 0.905837 0.502251
0.901061 0.908324 0.541009
0.900725 0.908766 0.545556
0.897749 0.909743 0.55697
0.237995 0.761837 0.565621
0.237568 0.760754 0.559487
0.237751 0.755795 0.531991
0.239109 0.724743 0.396643
0.704555 0.853529 0.389746
0.877424 0.906233 0.506691
0.901045 0.908278 0.54049
0.900725 0.908736 0.545281
0.897734 0.909712 0.556664
0.0419928 0.0964065 0.345647
0.0429084 0.0867323 0.359106
0.0979171 0.0740063 0.417227
0.370123 0.072694 0.472404
0.572137 0.124224 0.50341
0.620111 0.143984 0.527642
0.631571 0.15523 0.550011
0.631739 0.157885 0.55848
0.625544 0.161242 0.568841
0.0421454 0.115038 0.357961
0.0421149 0.0966049 0.359091
0.0901503 0.0872816 0.417533
0.378592 0.0762646 0.48542
0.586084 0.13402 0.520668
0.631006 0.153384 0.546517
0.635355 0.158587 0.559884
0.634791 0.160693 0.566583
0.626688 0.163378 0.575525
0.0422522 0.157687 0.376272
0.0423743 0.152209 0.385275
0.0425269 0.0888838 0.374334
0.347005 0.0747082 0.486
0.588113 0.136309 0.525216
0.633158 0.150088 0.53875
0.638086 0.155306 0.550774
0.639597 0.158251 0.558099
0.630716 0.161379 0.568399
0.0435187 0.396307 0.46537
0.043595 0.397604 0.474754
0.0437018 0.380621 0.478401
0.277607 0.327169 0.603418
0.79469 0.368505 0.742824
0.793011 0.274144 0.669596
0.763577 0.243854 0.638956
0.762387 0.244434 0.641947
0.76965 0.262562 0.664607
0.105165 0.636042 0.559182
0.101366 0.640482 0.569787
0.100816 0.640208 0.570367
0.100923 0.637171 0.568597
0.728603 0.751308 0.722469
0.882841 0.715862 0.705058
0.883497 0.706905 0.703075
0.883558 0.709651 0.706722
0.879438 0.717922 0.717739
0.232181 0.757153 0.605859
0.228458 0.76054 0.613962
0.225116 0.758343 0.607691
0.219654 0.753902 0.586435
0.556512 0.804974 0.593164
0.869642 0.910689 0.742107
0.912871 0.914244 0.764172
0.913451 0.912673 0.770184
0.913115 0.914366 0.776638
0.249775 0.767391 0.624979
0.242634 0.768658 0.631342
0.241596 0.768353 0.622065
0.239887 0.765194 0.588647
0.338247 0.755383 0.456474
0.844831 0.907759 0.578973
0.899458 0.908492 0.543252
0.899702 0.908827 0.546212
0.899306 0.908949 0.547387
0.246159 0.768734 0.642359
0.243992 0.769039 0.64213
0.242298 0.768673 0.631479
0.240452 0.766064 0.595285
0.361715 0.762295 0.476081
0.838209 0.907561 0.620661
0.899229 0.908202 0.540993
0.899443 0.908888 0.546777
0.898207 0.9093 0.550561
0.244251 0.769299 0.654902
0.244038 0.769314 0.652445
0.242954 0.76907 0.639689
0.240742 0.766857 0.601556
0.428336 0.77966 0.519234
0.842496 0.910948 0.671046
0.89781 0.908629 0.544656
0.898039 0.909316 0.550896
0.897337 0.909483 0.554238
0.0422522 0.100252 0.388495
0.0426337 0.0956588 0.404089
0.0840162 0.10074 0.454658
0.299397 0.0839246 0.520912
0.55967 0.146136 0.580468
0.631571 0.1729 0.606897
0.631571 0.1729 0.606897
0.631403 0.17293 0.607004
0.629313 0.173419 0.608515
0.0421759 0.110964 0.383413
0.0422522 0.0966659 0.39205
0.0783398 0.10042 0.451652
0.317327 0.0866865 0.524346
0.5794 0.154467 0.588647
0.63209 0.172778 0.606638
0.63209 0.172778 0.606638
0.631769 0.172854 0.60679
0.629313 0.173419 0.608515
0.0424811 0.161028 0.429801
0.0425269 0.149752 0.423667
0.0428931 0.0957809 0.405585
0.281056 0.0819257 0.51812
0.578042 0.154452 0.58912
0.63267 0.172625 0.606195
0.632944 0.17258 0.605997
0.633005 0.172549 0.605966
0.630671 0.173114 0.607477
0.0445716 0.32015 0.500572
0.0446326 0.317403 0.50277
0.0440986 0.288029 0.492012
0.134737 0.180346 0.544381
0.633677 0.222034 0.692729
0.671946 0.201633 0.64358
0.641276 0.176638 0.609766
0.66006 0.191669 0.630137
0.669413 0.202976 0.64593
0.0830243 0.603067 0.608881
0.082414 0.604944 0.61294
0.0799878 0.599893 0.612619
0.0730144 0.582834 0.61387
0.595499 0.630579 0.790188
0.889769 0.688411 0.860288
0.894255 0.681819 0.85716
0.894575 0.685328 0.857511
0.891386 0.692409 0.859495
0.19791 0.727245 0.654627
0.190494 0.726177 0.656901
0.187442 0.723323 0.654795
0.180423 0.717357 0.649561
0.451667 0.792615 0.734447
0.856077 0.891569 0.860975
0.902022 0.892348 0.862257
0.902632 0.891264 0.861295
0.901991 0.894194 0.86537
0.251881 0.76643 0.687984
0.246036 0.76762 0.692592
0.24596 0.768246 0.687984
0.245914 0.768948 0.675212
0.263447 0.780682 0.666896
0.829999 0.918105 0.839597
0.90515 0.946288 0.88574
0.910185 0.948562 0.891844
0.910491 0.948745 0.893477
0.246937 0.766369 0.69839
0.246067 0.766735 0.697673
0.245899 0.767666 0.692943
0.246021 0.768887 0.677058
0.267674 0.782132 0.669337
0.817884 0.914336 0.831144
0.895094 0.941894 0.869764
0.904936 0.938216 0.811063
0.904189 0.936599 0.799832
0.246372 0.764599 0.701396
0.246098 0.765667 0.701671
0.245808 0.767193 0.696056
0.245975 0.76878 0.679271
0.272969 0.784833 0.677562
0.830152 0.919188 0.843473
0.896223 0.943572 0.879973
0.906249 0.945449 0.869749
0.904341 0.942214 0.847898
0.0432136 0.0959029 0.407187
0.0487068 0.0961624 0.42266
0.10396 0.0979782 0.467338
0.327352 0.0879377 0.525979
0.576394 0.153017 0.586801
0.631571 0.1729 0.606897
0.631571 0.1729 0.606897
0.632944 0.17258 0.605997
0.630823 0.173083 0.60737
0.0422522 0.0967269 0.391257
0.0440833 0.0959182 0.411643
0.098909 0.101869 0.46244
0.341466 0.0893263 0.527977
0.593317 0.160327 0.594079
0.631693 0.172869 0.606836
0.631693 0.172869 0.606836
0.631525 0.172915 0.606928
0.629313 0.173419 0.608515
0.0424964 0.153307 0.425406
0.0424201 0.129809 0.405585
0.0469368 0.0959487 0.419287
0.302876 0.0841993 0.521462
0.588327 0.158831 0.592981
0.632349 0.172702 0.606439
0.632486 0.172671 0.606332
0.632502 0.172671 0.606317
0.630625 0.173129 0.607492
0.0436408 0.269261 0.481788
0.0437018 0.268254 0.482444
0.0434424 0.244617 0.470542
0.109285 0.132021 0.498711
0.556725 0.162554 0.611093
0.635142 0.174029 0.607492
0.636515 0.173724 0.60679
0.636454 0.173907 0.607095
0.633509 0.17499 0.609537
0.0778821 0.58732 0.622263
0.0777905 0.589792 0.624933
0.0761883 0.586221 0.623667
0.0673533 0.565179 0.616602
0.555947 0.580774 0.78468
0.884932 0.655909 0.878035
0.888716 0.651316 0.877958
0.888701 0.655131 0.877913
0.887968 0.663066 0.878508
0.169451 0.695613 0.667536
0.165026 0.697002 0.671458
0.162737 0.694926 0.671092
0.152026 0.683894 0.666773
0.267399 0.723003 0.720058
0.825589 0.856626 0.879301
0.901228 0.872053 0.888884
0.901778 0.872602 0.887999
0.900557 0.876387 0.889967
0.241535 0.762478 0.703883
0.238651 0.763073 0.705806
0.238453 0.763119 0.705959
0.238697 0.763073 0.705791
0.262577 0.77525 0.710216
0.787503 0.90782 0.867048
0.901015 0.940948 0.904799
0.907546 0.943023 0.907027
0.907546 0.943069 0.90724
0.244862 0.761837 0.700954
0.238712 0.763073 0.705776
0.238453 0.763119 0.705959
0.239643 0.763134 0.705089
0.269841 0.779339 0.708705
0.562539 0.860182 0.787839
0.903487 0.949416 0.909148
0.915984 0.955749 0.918593
0.91635 0.956268 0.919982
0.24123 0.762539 0.704143
0.239353 0.762936 0.705287
0.238453 0.763119 0.705959
0.23978 0.76321 0.705028
0.273121 0.781491 0.710536
0.640696 0.879988 0.814328
0.903502 0.949599 0.909499
0.915312 0.954864 0.916808
0.916762 0.956146 0.919264
0.0460822 0.0957809 0.416602
0.0547036 0.096025 0.430442
0.110933 0.0912032 0.474891
0.342184 0.0893873 0.528023
0.585489 0.15668 0.590906
0.631571 0.1729 0.606897
0.631571 0.1729 0.606897
0.633158 0.172519 0.605844
0.630854 0.173083 0.60734
0.0424048 0.0956436 0.400778
0.0469978 0.0959335 0.419394
0.105501 0.0964523 0.469108
0.35433 0.0910201 0.530327
0.600412 0.162966 0.59707
0.631678 0.172869 0.606836
0.631693 0.172869 0.606836
0.631525 0.172915 0.606928
0.629313 0.173419 0.608515
0.0425269 0.145769 0.419516
0.0423896 0.122011 0.397284
0.0501717 0.0961929 0.425147
0.314992 0.086183 0.52372
0.594095 0.16112 0.595254
0.632425 0.172686 0.606394
0.632486 0.172671 0.606317
0.632517 0.172671 0.606317
0.630625 0.173129 0.607492
0.0435035 0.253346 0.473762
0.0435035 0.253056 0.474723
0.0431678 0.229984 0.46334
0.101061 0.118929 0.48249
0.532158 0.14287 0.583688
0.634699 0.173648 0.60708
0.63621 0.173526 0.606531
0.636072 0.173693 0.606836
0.633051 0.17467 0.609201
0.0768139 0.58407 0.621393
0.076524 0.58677 0.623667
0.0746777 0.582956 0.622538
0.065568 0.560525 0.615412
0.553994 0.571969 0.783749
0.883925 0.648783 0.877714
0.888701 0.643977 0.877592
0.888411 0.64889 0.877501
0.888014 0.657572 0.878447
0.16643 0.693004 0.666087
0.165133 0.696834 0.671809
0.159976 0.691905 0.669764
0.15021 0.68127 0.666072
0.280232 0.721416 0.722469
0.821668 0.849607 0.878492
0.899947 0.865766 0.888411
0.900786 0.866011 0.887968
0.899397 0.869947 0.890013
0.241459 0.762493 0.703944
0.238651 0.763073 0.705806
0.238453 0.763119 0.705959
0.238712 0.763058 0.70576
0.235447 0.760708 0.706523
0.733883 0.886763 0.855528
0.897002 0.934356 0.906722
0.907561 0.939956 0.911009
0.907576 0.9402 0.911101
0.244862 0.761837 0.700954
0.238712 0.763073 0.705776
0.238453 0.763119 0.705959
0.238758 0.763058 0.70573
0.260975 0.777066 0.716548
0.279774 0.788846 0.726177
0.895109 0.945632 0.908995
0.914351 0.954284 0.91899
0.914397 0.954726 0.920165
0.241138 0.762554 0.704219
0.239322 0.762936 0.705318
0.238453 0.763119 0.705959
0.238651 0.763073 0.705821
0.26392 0.779278 0.7178
0.329931 0.798535 0.735698
0.892454 0.946059 0.90837
0.916686 0.955932 0.920562
0.917998 0.957076 0.922942
0.0476692 0.0959029 0.419669
0.0579385 0.0961318 0.43331
0.115068 0.0879225 0.478798
0.35079 0.0906844 0.529686
0.591241 0.159213 0.59292
0.631571 0.1729 0.606897
0.631571 0.1729 0.606897
0.633143 0.172519 0.605844
0.630854 0.173083 0.60734
0.0427253 0.0957046 0.404166
0.048188 0.0961471 0.421958
0.108598 0.0935531 0.472526
0.361822 0.0920272 0.53164
0.605035 0.164889 0.599115
0.631678 0.172869 0.606836
0.631693 0.172869 0.606836
0.631525 0.172915 0.606928
0.629313 0.173419 0.608515
0.0424659 0.143526 0.41738
0.0422065 0.119905 0.394141
0.0518044 0.0961013 0.42742
0.322072 0.0873274 0.525154
0.598032 0.162524 0.596963
0.632441 0.172686 0.606378
0.632502 0.172671 0.606317
0.632517 0.172671 0.606317
0.630625 0.173129 0.607492
0.043473 0.251637 0.47274
0.0433204 0.250584 0.472938
0.0431373 0.228046 0.462409
0.104036 0.118791 0.48397
0.531273 0.140978 0.580941
0.634684 0.173587 0.607004
0.636179 0.17351 0.6065
0.636072 0.173709 0.606836
0.633066 0.17467 0.609216
0.0770733 0.584421 0.621561
0.0766461 0.587304 0.623682
0.0747845 0.583307 0.622568
0.0652781 0.560113 0.615167
0.557549 0.572152 0.785031
0.88394 0.648783 0.87776
0.889265 0.645258 0.877455
0.888762 0.6495 0.877714
0.887877 0.658473 0.87837
0.166491 0.693034 0.666117
0.166308 0.697917 0.672129
0.159701 0.69163 0.669612
0.149996 0.681086 0.666026
0.290013 0.72221 0.724514
0.821973 0.848692 0.878523
0.89987 0.865217 0.888334
0.900633 0.865354 0.887724
0.89929 0.869642 0.889937
0.241443 0.762493 0.70396
0.238651 0.763073 0.705806
0.238453 0.763119 0.705959
0.238453 0.763119 0.705959
0.231327 0.758724 0.705806
0.742992 0.888304 0.858793
0.896117 0.933333 0.906569
0.907149 0.938964 0.910948
0.907362 0.939269 0.910918
0.244938 0.761822 0.700908
0.238712 0.763073 0.705776
0.238453 0.763119 0.705959
0.238453 0.763119 0.705959
0.2598 0.77763 0.717754
0.280827 0.789364 0.728008
0.890654 0.943267 0.908919
0.912703 0.953185 0.918624
0.914137 0.954238 0.919722
0.241123 0.762554 0.704219
0.239322 0.762936 0.705318
0.238453 0.763119 0.705959
0.238468 0.763119 0.705943
0.262791 0.779828 0.719234
0.305882 0.79353 0.733074
0.878996 0.941253 0.905333
0.916091 0.955978 0.92134
0.918639 0.957748 0.923781
