bundles/resolve-cinematic-luts/Phantom Luts/Komodo Phantom FILM LUTs G2/Komodo Phantom FILM LUTs G2/33x/Standard (No WB Offset)/Eastman_Komodo_Legacy_G2_33x.cube
TITLE "Generated by Resolve"
LUT_3D_SIZE 33
0.0508736 0.0419471 0.0491951
0.0508736 0.0419471 0.0491951
0.0513466 0.0420386 0.0492866
0.0575265 0.0430457 0.0506142
0.0660105 0.0430152 0.0510414
0.080293 0.0427863 0.0518349
0.100069 0.0424048 0.0532387
0.125673 0.0408789 0.0526741
0.156985 0.039765 0.0511025
0.195956 0.0413977 0.0486152
0.241947 0.044007 0.0449378
0.287648 0.0455329 0.042771
0.335592 0.0458228 0.0423743
0.381613 0.0491035 0.0431983
0.420478 0.0545205 0.0449073
0.453483 0.0595254 0.0462348
0.480644 0.063447 0.048188
0.510292 0.0801556 0.0549325
0.518776 0.0806744 0.0582895
0.520027 0.0787976 0.059556
0.521141 0.0768597 0.0605173
0.522148 0.0749065 0.0615396
0.523232 0.0729534 0.0629129
0.524269 0.0709239 0.0641031
0.525032 0.0689555 0.0653239
0.526146 0.0678264 0.0665599
0.526284 0.0654459 0.067277
0.525567 0.0624247 0.0673838
0.522133 0.0569619 0.0649729
0.51873 0.0543832 0.0642557
0.514809 0.0545968 0.0645762
0.506539 0.0564584 0.0648051
0.497276 0.058793 0.0647593
0.0531319 0.0412909 0.0484779
0.051545 0.0417639 0.0489662
0.0510262 0.0419928 0.0492256
0.0561685 0.043061 0.0505379
0.0642863 0.0433051 0.051194
0.0778668 0.0430915 0.0518959
0.0979477 0.0426947 0.0531624
0.124147 0.0407874 0.0520943
0.155291 0.0400854 0.0507973
0.193103 0.0420081 0.0476997
0.238254 0.0445411 0.0437171
0.284108 0.04654 0.0410315
0.332128 0.0471962 0.0404212
0.378088 0.0495003 0.0411078
0.417609 0.0544442 0.0433661
0.450599 0.0599832 0.0445869
0.478813 0.0657969 0.0468605
0.508888 0.0836347 0.0538033
0.516136 0.0833295 0.0563211
0.517632 0.08159 0.057847
0.518761 0.0798199 0.0590066
0.519661 0.0783246 0.0599069
0.520317 0.0766461 0.0605631
0.521096 0.075349 0.0613413
0.521904 0.0740368 0.0624704
0.522377 0.0726329 0.0632792
0.522942 0.0715038 0.0639658
0.523232 0.0704204 0.0645304
0.523308 0.0696117 0.0651102
0.521431 0.0696574 0.0656443
0.51812 0.0703136 0.0659648
0.509544 0.0726635 0.065919
0.499718 0.0753338 0.0656901
0.053193 0.0417182 0.048661
0.0515755 0.0420233 0.0490883
0.0509041 0.0419623 0.0492103
0.0539712 0.0432136 0.0503853
0.0612497 0.043946 0.0513466
0.0735637 0.0445563 0.0523232
0.0935531 0.0442359 0.0535897
0.119692 0.0425269 0.0530861
0.152071 0.0419165 0.0510872
0.192111 0.0432898 0.0478981
0.237186 0.0456703 0.0435645
0.281346 0.0479591 0.039826
0.328374 0.0495003 0.0390021
0.373297 0.0512703 0.0390021
0.413092 0.0556497 0.0411688
0.446372 0.0610513 0.0430457
0.480934 0.079118 0.0478523
0.503426 0.0881514 0.0509346
0.509743 0.0879225 0.0533761
0.511925 0.0856794 0.0547036
0.513802 0.0840009 0.0560922
0.515236 0.0826429 0.0574807
0.515984 0.0813306 0.0582742
0.516838 0.0801862 0.0590066
0.51751 0.0793622 0.0595407
0.51783 0.0786908 0.059968
0.518074 0.0779889 0.0603342
0.51812 0.0771191 0.0605173
0.518334 0.0766461 0.0607614
0.516732 0.076936 0.0607919
0.513344 0.0776989 0.0608988
0.504799 0.0800946 0.0606241
0.494987 0.0829175 0.0601205
0.0561074 0.0485695 0.0517128
0.0544747 0.0486458 0.052018
0.0540475 0.0482795 0.0521859
0.0558328 0.0478828 0.0520943
0.0617838 0.0492866 0.0535439
0.0728161 0.0497444 0.0547646
0.0898756 0.0491646 0.0551308
0.112871 0.046128 0.0548867
0.145892 0.0460975 0.0534218
0.187671 0.046891 0.049897
0.235264 0.0485389 0.0438849
0.282002 0.0503548 0.0403449
0.327871 0.051545 0.0390021
0.371359 0.0539712 0.0390021
0.407019 0.0585794 0.0390021
0.443076 0.070985 0.0430915
0.472313 0.082948 0.0457465
0.492317 0.0914778 0.047837
0.497902 0.0928359 0.0491798
0.50074 0.0923476 0.0497902
0.503197 0.0912947 0.0509346
0.504814 0.0899977 0.0522164
0.506523 0.0888685 0.053193
0.507988 0.0876631 0.0538949
0.508659 0.0868238 0.0543069
0.509163 0.0862135 0.0548257
0.509255 0.085893 0.0549783
0.509529 0.0855573 0.0552071
0.510292 0.0852369 0.0556039
0.508934 0.0855421 0.0557107
0.505989 0.0862287 0.0558175
0.498085 0.0885786 0.0552224
0.488106 0.0916457 0.0542153
0.0608377 0.059968 0.0564584
0.0588235 0.0601663 0.0567788
0.0581979 0.0598154 0.0568856
0.0599832 0.0587167 0.0569619
0.06598 0.0599069 0.0572824
0.0781262 0.061326 0.059266
0.096025 0.0604257 0.0607462
0.120241 0.0587778 0.0605325
0.148775 0.0572061 0.0575418
0.185794 0.0557412 0.0522927
0.232227 0.0527504 0.0457465
0.280629 0.0537881 0.0411994
0.328359 0.0549325 0.0392004
0.372366 0.0573129 0.0390021
0.408148 0.0612192 0.0393225
0.438575 0.0668956 0.0404974
0.470649 0.085359 0.0455634
0.486839 0.0926528 0.0470893
0.487282 0.0929427 0.046952
0.487343 0.0927901 0.0470588
0.488563 0.0929274 0.0473182
0.489372 0.09308 0.0475319
0.490272 0.0931716 0.0477455
0.491035 0.0932937 0.0479133
0.491997 0.0935378 0.0481422
0.492638 0.0938125 0.0482795
0.492866 0.0938277 0.0483711
0.492897 0.0938735 0.0483864
0.493004 0.0938888 0.0484169
0.491646 0.0943465 0.0482643
0.488899 0.0951705 0.0480507
0.481773 0.0973526 0.0474556
0.472999 0.10013 0.0464942
0.0659495 0.075761 0.0619821
0.0640574 0.076051 0.0620127
0.0631876 0.076112 0.0622721
0.0652018 0.0753033 0.0625925
0.068986 0.074815 0.0629129
0.0802625 0.076051 0.0622416
0.101122 0.0766461 0.06421
0.129305 0.0734874 0.066331
0.161471 0.0694896 0.0635996
0.200397 0.0659037 0.0573434
0.242496 0.064271 0.049958
0.284245 0.0629282 0.0432746
0.327031 0.0605173 0.0404212
0.371466 0.0612955 0.039292
0.408469 0.0657054 0.0398108
0.439811 0.0706188 0.0413062
0.471717 0.0874647 0.0452583
0.490089 0.0959945 0.0476081
0.493233 0.097673 0.0479286
0.492454 0.0972915 0.0478218
0.491966 0.0970626 0.0477455
0.4916 0.0969406 0.0476997
0.491188 0.0968338 0.0476539
0.49099 0.0968185 0.0476387
0.490913 0.0968643 0.0476387
0.491005 0.0969863 0.0476539
0.491218 0.0971542 0.0476692
0.491371 0.0973068 0.0476844
0.491524 0.0974899 0.047715
0.490639 0.0979629 0.0476692
0.488807 0.0987411 0.0475013
0.482856 0.100725 0.0470283
0.474754 0.103395 0.0463417
0.069749 0.0949264 0.0666209
0.0675059 0.0950027 0.0659953
0.0664683 0.0949721 0.0661784
0.0675364 0.0945754 0.066392
0.0717021 0.0938277 0.0669413
0.0809796 0.0957046 0.0678721
0.100847 0.0972915 0.0667735
0.133288 0.0982528 0.0691844
0.177157 0.091722 0.0722362
0.223941 0.0876631 0.0683757
0.270512 0.0846418 0.0615702
0.314183 0.0835889 0.0540017
0.353384 0.0834058 0.0469368
0.388098 0.0797742 0.0429847
0.416663 0.0746471 0.0411231
0.444343 0.0751202 0.0415198
0.472755 0.0845502 0.0441291
0.498451 0.0992752 0.0484016
0.503197 0.101091 0.0487373
0.502419 0.100999 0.0486458
0.502007 0.100969 0.0485847
0.501854 0.100984 0.0485847
0.501991 0.101076 0.0486305
0.50222 0.101228 0.0486763
0.502388 0.10135 0.0487221
0.502861 0.10161 0.0487984
0.503182 0.101839 0.0488441
0.503517 0.102083 0.0488594
0.503853 0.102296 0.0488594
0.503716 0.102586 0.0488136
0.50309 0.103059 0.0487678
0.499825 0.104326 0.0486305
0.495186 0.106035 0.0480507
0.0796216 0.120684 0.0713512
0.0762036 0.120699 0.0704662
0.0731975 0.121126 0.070634
0.0715496 0.121263 0.0709697
0.0752575 0.122194 0.0722515
0.0837873 0.123095 0.0740215
0.102174 0.127596 0.0760052
0.133425 0.130617 0.0750439
0.183032 0.130694 0.0779278
0.247059 0.122469 0.0828717
0.304097 0.119463 0.0810559
0.353429 0.1178 0.0750744
0.396201 0.116091 0.0675212
0.432517 0.117525 0.0612802
0.456489 0.115587 0.0551461
0.471824 0.10927 0.0492103
0.48336 0.0984512 0.0448463
0.505699 0.106661 0.0482948
0.511757 0.107408 0.0495918
0.511452 0.107439 0.0495766
0.511177 0.107485 0.049546
0.511116 0.107622 0.0494698
0.511116 0.107774 0.0493629
0.511162 0.108003 0.0492256
0.511284 0.108278 0.0492103
0.511742 0.10869 0.0493324
0.512352 0.109194 0.0495613
0.512871 0.109667 0.0497139
0.513313 0.110109 0.0497902
0.513512 0.110643 0.0498207
0.513283 0.111177 0.0497902
0.510887 0.11223 0.0494545
0.506294 0.113909 0.0490883
0.0850385 0.156771 0.0775311
0.0817273 0.157214 0.0764935
0.0778821 0.158053 0.0759594
0.076051 0.158297 0.0761273
0.0764324 0.158846 0.0764019
0.0840314 0.160708 0.078172
0.0993515 0.163745 0.0815595
0.130755 0.17435 0.0872969
0.179873 0.181125 0.0868086
0.254566 0.184771 0.0915847
0.33164 0.1823 0.101183
0.398688 0.177539 0.106569
0.452338 0.177081 0.103349
0.495872 0.175296 0.100313
0.529046 0.172442 0.0968185
0.553918 0.17026 0.0914778
0.569375 0.166186 0.0837262
0.56527 0.154177 0.0691997
0.553658 0.142031 0.0607156
0.537789 0.13051 0.0535286
0.535134 0.129107 0.0526741
0.539376 0.133471 0.0562295
0.537285 0.131548 0.0553902
0.53315 0.127794 0.0530861
0.529793 0.124437 0.0510567
0.525093 0.120256 0.0475929
0.536065 0.13138 0.0536812
0.541436 0.135988 0.0568856
0.547921 0.140429 0.0605173
0.550072 0.141573 0.0612345
0.552941 0.14345 0.0621042
0.5523 0.145068 0.0623331
0.549355 0.147494 0.0608988
0.0950332 0.207584 0.0876936
0.0904402 0.20763 0.0860151
0.0856184 0.208148 0.0843671
0.0833906 0.208835 0.0839246
0.0819562 0.208804 0.083772
0.0881819 0.212726 0.0861982
0.0999924 0.216526 0.0901045
0.129046 0.227344 0.0979629
0.179644 0.246006 0.108248
0.254154 0.257694 0.107134
0.343557 0.264469 0.111803
0.423575 0.267399 0.117937
0.495033 0.255283 0.129168
0.549081 0.252644 0.12987
0.593347 0.253025 0.127642
0.629435 0.250004 0.125902
0.658747 0.246052 0.12575
0.678492 0.241794 0.125139
0.682246 0.233005 0.12372
0.677028 0.228397 0.121798
0.673747 0.226017 0.119615
0.672435 0.22472 0.118669
0.672206 0.224369 0.119203
0.672679 0.224842 0.119585
0.675395 0.227268 0.121233
0.679179 0.230106 0.122805
0.683589 0.234592 0.124041
0.687739 0.238376 0.124773
0.691051 0.241978 0.125505
0.694682 0.245518 0.126421
0.697581 0.248539 0.127169
0.697993 0.252079 0.128237
0.697185 0.257404 0.129595
0.110582 0.273838 0.104356
0.105486 0.273976 0.102419
0.0997787 0.275212 0.100404
0.0961776 0.275654 0.0983139
0.0945907 0.276234 0.098497
0.0958419 0.276936 0.098909
0.107973 0.283711 0.102739
0.128374 0.289967 0.108522
0.176028 0.30808 0.119951
0.254322 0.332341 0.128374
0.341665 0.345266 0.12256
0.43978 0.351095 0.125994
0.515496 0.358007 0.124987
0.579309 0.347005 0.135531
0.630793 0.337087 0.143557
0.672511 0.33341 0.151247
0.708247 0.336812 0.152438
0.737728 0.341161 0.152209
0.758114 0.338384 0.15378
0.758328 0.336309 0.153597
0.757885 0.335119 0.152667
0.757504 0.33489 0.151812
0.757794 0.336156 0.151858
0.758679 0.33872 0.153262
0.760418 0.343191 0.155474
0.761791 0.347967 0.157122
0.763851 0.353033 0.159365
0.764721 0.356802 0.160357
0.76553 0.360235 0.161135
0.766049 0.362936 0.161791
0.766445 0.36585 0.162493
0.765026 0.370123 0.163622
0.761074 0.374029 0.164752
0.117082 0.34345 0.11313
0.11223 0.344015 0.112367
0.106584 0.345205 0.110948
0.102586 0.346075 0.107973
0.10132 0.34757 0.107164
0.10135 0.347967 0.10721
0.105699 0.350286 0.108141
0.12462 0.35845 0.112367
0.160052 0.367315 0.119783
0.239445 0.393545 0.132448
0.34287 0.423636 0.136965
0.428199 0.434821 0.12932
0.521691 0.436713 0.134905
0.588418 0.444862 0.136324
0.642725 0.446983 0.145281
0.68716 0.440391 0.156374
0.72224 0.44007 0.163851
0.751751 0.446113 0.167224
0.771282 0.449821 0.169986
0.772747 0.448905 0.170932
0.772427 0.449393 0.171328
0.772717 0.451911 0.17174
0.773007 0.454948 0.171313
0.773129 0.459693 0.170962
0.773907 0.465721 0.171176
0.774044 0.47013 0.171359
0.774273 0.475349 0.171817
0.774838 0.480446 0.172702
0.774762 0.485054 0.173007
0.775433 0.489921 0.173266
0.776013 0.493706 0.173404
0.774685 0.497307 0.173754
0.772137 0.501595 0.174685
0.117464 0.40972 0.118425
0.113451 0.409979 0.118654
0.108171 0.411017 0.118181
0.104875 0.412543 0.115663
0.104372 0.414969 0.113054
0.104417 0.415732 0.11284
0.104509 0.416312 0.11281
0.116548 0.419867 0.113313
0.146227 0.428275 0.11696
0.208499 0.442008 0.124819
0.321675 0.478996 0.140749
0.429191 0.505745 0.145266
0.500862 0.513863 0.143664
0.585718 0.514382 0.155474
0.647883 0.521843 0.158724
0.69691 0.531899 0.164492
0.735576 0.542397 0.17052
0.766659 0.552163 0.175799
0.785138 0.564675 0.178088
0.786908 0.565545 0.179065
0.78645 0.567025 0.179309
0.78674 0.56997 0.179736
0.787488 0.573388 0.17998
0.788403 0.576471 0.180697
0.789746 0.579644 0.181765
0.790875 0.583505 0.182849
0.791379 0.586923 0.18349
0.791806 0.589975 0.184146
0.792462 0.593805 0.184771
0.792813 0.596658 0.185031
0.793286 0.599405 0.185443
0.792828 0.601801 0.186511
0.790768 0.603616 0.187976
0.12105 0.467781 0.126482
0.118883 0.467918 0.12636
0.115785 0.469123 0.126452
0.113527 0.470558 0.124529
0.113497 0.473243 0.123049
0.114534 0.475349 0.122606
0.114015 0.475517 0.123278
0.11696 0.475532 0.122576
0.142016 0.480858 0.123461
0.195148 0.489525 0.128237
0.296071 0.51667 0.143114
0.409277 0.556435 0.159762
0.505592 0.57673 0.160494
0.567376 0.585702 0.165515
0.64239 0.589441 0.180499
0.701869 0.597025 0.190097
0.747127 0.609628 0.194263
0.781537 0.623178 0.197177
0.806027 0.637095 0.200992
0.811231 0.638315 0.201709
0.811292 0.638743 0.201892
0.811673 0.640879 0.202777
0.81239 0.643595 0.203967
0.813825 0.646372 0.2056
0.814572 0.649653 0.206867
0.816205 0.652827 0.209216
0.816678 0.655634 0.210925
0.817502 0.658488 0.212528
0.818051 0.660319 0.213504
0.818814 0.66247 0.214832
0.819059 0.664134 0.215564
0.818906 0.665736 0.216587
0.81854 0.667826 0.218692
0.133913 0.520043 0.145083
0.132616 0.520134 0.144366
0.130327 0.521172 0.14493
0.129137 0.523049 0.144305
0.129809 0.525643 0.142687
0.134493 0.529351 0.141634
0.134524 0.529717 0.142351
0.134279 0.529381 0.142107
0.147921 0.529717 0.138827
0.196323 0.536568 0.140398
0.276326 0.551705 0.148516
0.395804 0.594797 0.170703
0.497902 0.628244 0.183612
0.576226 0.645579 0.186496
0.632197 0.659129 0.197192
0.699107 0.667384 0.215244
0.753689 0.677516 0.228641
0.791363 0.691417 0.235859
0.8177 0.704219 0.242161
0.829847 0.704967 0.243885
0.829572 0.703227 0.242557
0.830503 0.705211 0.243839
0.831235 0.707866 0.245212
0.832044 0.710903 0.247669
0.832822 0.713893 0.249683
0.833906 0.71693 0.251652
0.834669 0.719036 0.252918
0.835554 0.721309 0.254826
0.836164 0.722988 0.256565
0.836271 0.724483 0.257694
0.836561 0.725872 0.258717
0.836942 0.72694 0.259556
0.837232 0.727993 0.26006
0.147906 0.567956 0.165927
0.147784 0.56849 0.164828
0.146792 0.569818 0.165133
0.146517 0.571389 0.164721
0.149157 0.574334 0.163622
0.156573 0.579232 0.163134
0.158511 0.580865 0.163378
0.158373 0.580591 0.16318
0.164675 0.580575 0.161318
0.204364 0.581628 0.155474
0.279484 0.592615 0.161547
0.382712 0.626902 0.181491
0.492607 0.671489 0.205142
0.586358 0.700008 0.217319
0.647379 0.718105 0.226719
0.699245 0.736645 0.239628
0.755764 0.748425 0.257694
0.796033 0.756909 0.26743
0.823285 0.760815 0.275959
0.840558 0.761898 0.282704
0.843748 0.760616 0.283192
0.844038 0.761822 0.283818
0.84445 0.763622 0.285161
0.844953 0.766323 0.28687
0.845319 0.769207 0.288655
0.846067 0.771786 0.290776
0.845808 0.773724 0.291112
0.845884 0.775555 0.291875
0.846143 0.777066 0.293065
0.846296 0.778332 0.294194
0.84654 0.779278 0.295094
0.846555 0.779965 0.295552
0.846571 0.780499 0.295949
0.164767 0.613581 0.18761
0.164981 0.61413 0.186801
0.164813 0.615351 0.186709
0.165942 0.617029 0.184039
0.171069 0.620737 0.185428
0.181094 0.628229 0.186831
0.185733 0.633494 0.188251
0.185458 0.633158 0.187976
0.185641 0.6318 0.187076
0.227237 0.630518 0.179644
0.296727 0.637461 0.180941
0.389288 0.66389 0.197452
0.504891 0.713939 0.227771
0.60029 0.748562 0.248295
0.670329 0.770092 0.258671
0.718242 0.789929 0.269505
0.758968 0.799756 0.281666
0.796536 0.804028 0.294438
0.82359 0.806271 0.30396
0.843397 0.807919 0.312291
0.849378 0.808499 0.315633
0.849561 0.809125 0.316213
0.849607 0.81091 0.317372
0.849775 0.812604 0.318746
0.849851 0.814237 0.320073
0.850309 0.816007 0.321859
0.850538 0.817456 0.323171
0.850492 0.81883 0.323857
0.850477 0.820035 0.324605
0.85037 0.820737 0.32517
0.850385 0.821408 0.325597
0.850401 0.821912 0.325933
0.850401 0.822339 0.326284
0.177523 0.655421 0.209537
0.177508 0.655543 0.209171
0.177188 0.656168 0.210712
0.177005 0.657328 0.212253
0.177371 0.660014 0.215656
0.179248 0.662028 0.217365
0.179644 0.662257 0.217594
0.180041 0.662181 0.216159
0.181064 0.662013 0.213718
0.209842 0.664302 0.203769
0.305058 0.673945 0.205035
0.394278 0.696651 0.219821
0.508873 0.743633 0.251835
0.602869 0.781018 0.27921
0.677897 0.803754 0.294408
0.725353 0.819318 0.303151
0.760739 0.830411 0.310689
0.7953 0.836088 0.319814
0.824948 0.838209 0.333913
0.844831 0.8392 0.343816
0.853162 0.839933 0.346227
0.852796 0.840177 0.345693
0.852888 0.841016 0.346777
0.852842 0.842206 0.347906
0.852811 0.84329 0.348913
0.85301 0.844038 0.349905
0.853284 0.844694 0.350973
0.853422 0.845151 0.351843
0.853513 0.845579 0.352529
0.853513 0.845869 0.352926
0.853513 0.846052 0.353246
0.853513 0.846204 0.353613
0.853468 0.846296 0.353826
0.175891 0.670054 0.256352
0.175631 0.669871 0.257099
0.174929 0.669779 0.259205
0.174182 0.669718 0.261738
0.173556 0.669673 0.264469
0.17322 0.66952 0.265049
0.172961 0.669123 0.263478
0.172946 0.668864 0.26183
0.172885 0.668727 0.261051
0.173358 0.666331 0.246265
0.215915 0.667765 0.208072
0.343145 0.689891 0.215976
0.472541 0.737606 0.249638
0.576471 0.781613 0.282948
0.662303 0.810101 0.306798
0.719417 0.828794 0.321248
0.757137 0.841566 0.328893
0.790143 0.848402 0.337652
0.822995 0.851301 0.346975
0.843519 0.852354 0.359167
0.853727 0.85272 0.3673
0.854368 0.852766 0.367254
0.854032 0.852644 0.366155
0.854047 0.852689 0.366583
0.854093 0.85275 0.366964
0.854109 0.852781 0.367483
0.854124 0.852811 0.36788
0.854109 0.852842 0.368154
0.854109 0.852872 0.368338
0.854063 0.852888 0.36846
0.854047 0.852903 0.368597
0.853986 0.852903 0.368627
0.853956 0.852903 0.368612
0.175174 0.67158 0.268177
0.174884 0.671473 0.268742
0.174273 0.671397 0.270527
0.173693 0.671244 0.272114
0.173022 0.671092 0.274006
0.172549 0.670954 0.274464
0.172396 0.670573 0.273228
0.172427 0.670512 0.272755
0.172427 0.670512 0.272755
0.172992 0.669093 0.26331
0.180835 0.664149 0.219867
0.268162 0.673548 0.205219
0.397421 0.708309 0.22887
0.536492 0.76611 0.271138
0.633616 0.80206 0.300649
0.69929 0.822721 0.318318
0.744945 0.838499 0.3299
0.778927 0.847791 0.340185
0.812772 0.851652 0.34931
0.838056 0.85275 0.358068
0.852171 0.852811 0.366583
0.853086 0.852979 0.368719
0.853498 0.853101 0.370672
0.853513 0.853132 0.370993
0.853437 0.853147 0.371038
0.85333 0.853147 0.37116
0.853147 0.853178 0.371344
0.852949 0.853208 0.371572
0.85275 0.853239 0.371756
0.852567 0.853284 0.371939
0.852399 0.853315 0.372091
0.852247 0.853346 0.372244
0.85214 0.853361 0.372366
0.17467 0.671778 0.271351
0.174502 0.671672 0.271382
0.17406 0.671565 0.272404
0.173648 0.671351 0.273243
0.173022 0.671153 0.274235
0.172564 0.671016 0.274693
0.172396 0.670558 0.273075
0.172427 0.670512 0.272755
0.172427 0.670512 0.272755
0.17293 0.669673 0.266712
0.177417 0.663462 0.219471
0.268452 0.673609 0.206882
0.38172 0.702663 0.226749
0.520684 0.759274 0.267475
0.620539 0.797772 0.298344
0.690806 0.820462 0.316457
0.739254 0.836667 0.329473
0.773648 0.847181 0.340719
0.806729 0.851835 0.351247
0.83238 0.853132 0.361212
0.845975 0.853315 0.369238
0.848646 0.853559 0.372488
0.849332 0.853712 0.374563
0.849531 0.853727 0.374884
0.84947 0.853742 0.374945
0.849378 0.853758 0.375067
0.849287 0.853773 0.375189
0.849226 0.853773 0.375265
0.84918 0.853788 0.375326
0.849134 0.853788 0.375387
0.849073 0.853788 0.375463
0.849042 0.853803 0.375494
0.849104 0.853788 0.375433
0.174105 0.671977 0.274708
0.174258 0.671809 0.27332
0.174395 0.671595 0.271183
0.174502 0.67129 0.268986
0.174472 0.670954 0.267094
0.174411 0.670756 0.266178
0.174472 0.67039 0.263798
0.174502 0.670314 0.263355
0.174456 0.670329 0.263493
0.175082 0.669154 0.255924
0.184176 0.6645 0.21294
0.278996 0.675669 0.200214
0.391119 0.706432 0.22388
0.529015 0.762875 0.266194
0.62855 0.800198 0.296803
0.698421 0.821683 0.312322
0.746258 0.837324 0.323156
0.780133 0.846815 0.333761
0.812818 0.851194 0.344106
0.837217 0.852094 0.353689
0.850782 0.852461 0.362112
0.854017 0.852644 0.366003
0.854429 0.852827 0.368215
0.854658 0.852918 0.368933
0.854673 0.852903 0.368887
0.854688 0.852903 0.368872
0.854704 0.852903 0.368856
0.853986 0.85301 0.369818
0.852399 0.853254 0.37174
0.85005 0.853651 0.374304
0.848569 0.85388 0.375998
0.84773 0.854017 0.376944
0.847837 0.854002 0.376822
0.173892 0.672099 0.277058
0.173983 0.671916 0.274937
0.174121 0.671702 0.273213
0.174289 0.671382 0.27039
0.174365 0.671 0.267811
0.174365 0.670771 0.266361
0.174456 0.670375 0.263691
0.174502 0.670314 0.263355
0.174456 0.670329 0.263493
0.175128 0.669123 0.255665
0.187015 0.664454 0.209949
0.285405 0.676539 0.200671
0.396292 0.707973 0.225177
0.532799 0.764477 0.26865
0.631098 0.801114 0.299229
0.697688 0.822034 0.315587
0.745296 0.837476 0.325246
0.77966 0.846967 0.335332
0.811887 0.85127 0.344823
0.835782 0.852232 0.354376
0.850263 0.852552 0.363195
0.85301 0.852796 0.366796
0.853437 0.852979 0.368978
0.853712 0.85304 0.370169
0.853727 0.85304 0.370153
0.853742 0.85304 0.370123
0.853742 0.85304 0.370138
0.852934 0.853162 0.37113
0.851377 0.853437 0.372763
0.849058 0.853803 0.375494
0.84744 0.854063 0.377295
0.846723 0.85417 0.378302
0.846784 0.854154 0.37821
0.173693 0.672221 0.278752
0.1738 0.672007 0.27689
0.173922 0.671778 0.274418
0.17409 0.671458 0.27158
0.174243 0.671031 0.268467
0.174319 0.670756 0.266423
0.174472 0.670344 0.263569
0.174502 0.670314 0.263355
0.174456 0.670329 0.263493
0.175128 0.668818 0.253941
0.184543 0.663294 0.20351
0.294133 0.678416 0.20206
0.408682 0.712795 0.228992
0.539727 0.767391 0.271153
0.634562 0.802228 0.30074
0.698817 0.82269 0.31812
0.743526 0.83772 0.32842
0.778164 0.847303 0.338079
0.810147 0.851392 0.346822
0.834867 0.852354 0.355566
0.848997 0.852674 0.363699
0.852064 0.852918 0.36759
0.852537 0.853101 0.369848
0.852766 0.853178 0.371237
0.852781 0.853193 0.371328
0.852766 0.853193 0.371344
0.85275 0.853193 0.371359
0.851896 0.853346 0.372183
0.850401 0.85359 0.373968
0.848142 0.853956 0.376471
0.846586 0.85417 0.3785
0.845853 0.854292 0.379385
0.845884 0.854292 0.379355
0.173419 0.672328 0.280659
0.173556 0.672114 0.278614
0.173709 0.671839 0.276188
0.173877 0.671519 0.273198
0.17406 0.671061 0.269368
0.174243 0.670756 0.26659
0.174441 0.670359 0.263722
0.174517 0.670314 0.263294
0.174441 0.670329 0.263554
0.175113 0.668391 0.251102
0.19086 0.664561 0.204364
0.30367 0.68069 0.203815
0.417273 0.716121 0.23151
0.544167 0.769162 0.272511
0.637949 0.803159 0.301534
0.700191 0.82324 0.318456
0.74435 0.838285 0.330098
0.776761 0.847379 0.340185
0.808087 0.851667 0.349126
0.832959 0.852613 0.357
0.846967 0.852903 0.364309
0.85124 0.85304 0.368414
0.851591 0.853208 0.370703
0.85185 0.853346 0.372168
0.85185 0.853361 0.372229
0.85182 0.853361 0.372259
0.851804 0.853361 0.372274
0.851118 0.853468 0.373098
0.849531 0.853727 0.374884
0.847211 0.854109 0.377584
0.845808 0.854307 0.379416
0.844999 0.854444 0.380194
0.845029 0.854444 0.380179
0.17319 0.672435 0.282017
0.173342 0.672221 0.280217
0.17351 0.671916 0.277653
0.173724 0.671565 0.274113
0.173922 0.671092 0.269993
0.174182 0.670771 0.26688
0.174426 0.670359 0.263767
0.174487 0.670314 0.263386
0.174456 0.670329 0.263508
0.175204 0.668025 0.249088
0.196384 0.665675 0.205371
0.309758 0.681941 0.204623
0.421729 0.717906 0.232914
0.547921 0.770657 0.273671
0.64036 0.803983 0.302296
0.701305 0.823697 0.318883
0.745037 0.838575 0.33022
0.776013 0.847303 0.340581
0.806851 0.85182 0.350393
0.830854 0.852888 0.359152
0.844892 0.853178 0.36614
0.849821 0.853239 0.369833
0.850797 0.853315 0.371466
0.851301 0.853437 0.372763
0.851347 0.853437 0.372793
0.851331 0.853437 0.372808
0.851301 0.853437 0.372854
0.850477 0.853559 0.373877
0.84892 0.853819 0.375616
0.846586 0.85417 0.3785
0.844984 0.854444 0.380224
0.844205 0.854566 0.381247
0.844129 0.854582 0.381353
0.17293 0.672541 0.283345
0.173053 0.672312 0.281926
0.173281 0.672007 0.279011
0.173571 0.671595 0.274998
0.173831 0.671122 0.270481
0.174136 0.670756 0.267002
0.174411 0.670344 0.263676
0.174472 0.670314 0.263447
0.174441 0.670329 0.263554
0.175219 0.668009 0.249027
0.198596 0.66598 0.205509
0.311681 0.682353 0.204837
0.424262 0.718746 0.233585
0.548943 0.771145 0.274159
0.64036 0.804059 0.302403
0.701228 0.823545 0.318959
0.744564 0.838514 0.330159
0.775067 0.847166 0.340459
