bundles/resolve-cinematic-luts/Phantom Luts/Komodo Phantom FILM LUTs G2/Komodo Phantom FILM LUTs G2/33x/Standard (No WB Offset)/EastmanRM_Komodo_G2_33x.cube
TITLE "Generated by Resolve"
LUT_3D_SIZE 33
0.0446021 0.0421149 0.0435492
0.0447242 0.0419928 0.0434119
0.0452583 0.0416419 0.0429236
0.0502174 0.0410773 0.0424201
0.064683 0.0390784 0.0416114
0.0893568 0.0370947 0.0411841
0.119875 0.0350347 0.041001
0.150423 0.0331579 0.042237
0.182437 0.0312505 0.0438392
0.222232 0.0298924 0.0468147
0.271839 0.0285801 0.0503395
0.323903 0.0289311 0.0537728
0.374899 0.0297093 0.0587625
0.42385 0.0295415 0.0660716
0.466865 0.0293126 0.0749065
0.498085 0.030045 0.0834669
0.519097 0.0311894 0.0933547
0.534066 0.0343633 0.100877
0.545068 0.0368353 0.10927
0.546838 0.0371557 0.112123
0.548424 0.037644 0.115251
0.549828 0.0381628 0.117678
0.551049 0.0386206 0.120424
0.551827 0.0391241 0.122683
0.552468 0.0395209 0.124239
0.552804 0.0397803 0.12546
0.552956 0.0400397 0.126772
0.55288 0.040238 0.128222
0.552666 0.0404517 0.129625
0.550561 0.0408637 0.132418
0.547158 0.0413977 0.136065
0.540261 0.0423438 0.143282
0.532937 0.0433204 0.151125
0.0450599 0.0416876 0.0429694
0.0448768 0.0418555 0.0432441
0.0450599 0.0416876 0.0429541
0.0492409 0.0412451 0.0424659
0.0621805 0.0396429 0.0418708
0.085481 0.037644 0.0418708
0.115831 0.0355993 0.0417945
0.148836 0.0332341 0.0425727
0.182849 0.03093 0.043473
0.223987 0.0289769 0.0454719
0.272969 0.0273594 0.0483558
0.325643 0.0274357 0.0518349
0.375799 0.0282444 0.0564889
0.42388 0.0285649 0.064332
0.465034 0.0294652 0.0736858
0.495399 0.0302281 0.0829023
0.517418 0.031632 0.093843
0.531441 0.0346075 0.100999
0.54136 0.0370184 0.109743
0.542687 0.0372168 0.112963
0.544228 0.0375372 0.115587
0.545464 0.0380407 0.118105
0.546685 0.0384527 0.120729
0.547738 0.0388495 0.122805
0.54847 0.0392309 0.124498
0.548928 0.0395972 0.125658
0.549325 0.0398413 0.126543
0.549676 0.0399939 0.127489
0.549935 0.0400854 0.128099
0.548653 0.0403754 0.130068
0.545693 0.0408331 0.133181
0.538918 0.0417182 0.140047
0.531487 0.0426642 0.147539
0.0450599 0.0416876 0.0429694
0.0448768 0.0418555 0.0432441
0.0450599 0.0416876 0.0429541
0.0473335 0.0418097 0.0424201
0.0573587 0.0411231 0.0420386
0.0787366 0.039292 0.0419776
0.108476 0.0371099 0.0425269
0.14258 0.03505 0.0431983
0.179278 0.0320745 0.0438239
0.223514 0.029633 0.0453803
0.2748 0.0273747 0.0473335
0.325658 0.0265354 0.0498054
0.376104 0.0273594 0.0529183
0.423636 0.0284733 0.0597391
0.465492 0.0294499 0.0694591
0.495995 0.0301823 0.0800793
0.516899 0.0319829 0.090013
0.530617 0.0348974 0.097261
0.538506 0.0366674 0.103975
0.541283 0.0370184 0.109499
0.542412 0.0371405 0.112322
0.54374 0.0374456 0.114717
0.544823 0.0377966 0.117052
0.545739 0.0381476 0.118715
0.546624 0.0384375 0.120653
0.547341 0.0386816 0.121904
0.547814 0.0388952 0.122988
0.548196 0.0390631 0.12369
0.54844 0.0392157 0.124407
0.546944 0.0395361 0.125978
0.544106 0.0399481 0.129351
0.537163 0.0408484 0.135897
0.529442 0.0418402 0.143343
0.0458076 0.0483406 0.0439002
0.0452735 0.0483406 0.0443122
0.0454414 0.0475013 0.0443122
0.0467231 0.0459144 0.0437476
0.0531624 0.0462196 0.0436408
0.0713207 0.0443122 0.0433814
0.0996567 0.0406806 0.0425574
0.13463 0.0382849 0.0437629
0.170825 0.0355383 0.0449683
0.218631 0.0322881 0.0459144
0.274678 0.029633 0.047425
0.329641 0.0284276 0.0495766
0.379416 0.0275273 0.0519875
0.424125 0.028397 0.0560769
0.46392 0.0293889 0.0627756
0.493584 0.0300908 0.0723278
0.513771 0.0321202 0.082002
0.527123 0.0351415 0.0893721
0.533974 0.0364691 0.0956741
0.537194 0.0366369 0.101381
0.53991 0.0368963 0.106081
0.541344 0.0370184 0.109651
0.542214 0.0370947 0.111772
0.543038 0.0373083 0.113695
0.543832 0.0374609 0.114931
0.544442 0.0375982 0.115969
0.544808 0.0377813 0.117006
0.545144 0.0379187 0.117586
0.545419 0.0380255 0.118029
0.544289 0.0382086 0.120027
0.541482 0.0385748 0.123171
0.534401 0.0393988 0.129519
0.526543 0.0403296 0.136599
0.0468147 0.0676127 0.0456855
0.0461891 0.0679026 0.0460975
0.0461128 0.067216 0.0462501
0.0478218 0.0647593 0.0464179
0.0545815 0.0647593 0.0461891
0.0742351 0.0641642 0.0473182
0.105165 0.0612192 0.0466621
0.137499 0.0560159 0.0459144
0.170764 0.0476234 0.0454566
0.212573 0.0387427 0.0463569
0.267872 0.033814 0.0480812
0.328344 0.0313268 0.0501106
0.381628 0.030045 0.0519722
0.428367 0.0284733 0.0558022
0.466011 0.0294194 0.062211
0.493416 0.0300908 0.068864
0.511116 0.0322118 0.0762188
0.52311 0.0349889 0.0817731
0.526741 0.0357519 0.0848249
0.528939 0.035935 0.0879835
0.531563 0.0362402 0.0918898
0.534051 0.0364538 0.0958419
0.536034 0.0366064 0.0996414
0.537728 0.0366522 0.102586
0.539117 0.0367437 0.104646
0.540185 0.0369421 0.106523
0.540551 0.0369421 0.10753
0.540734 0.0369573 0.108156
0.540871 0.0369726 0.108446
0.539422 0.0371405 0.110002
0.53695 0.0375067 0.113237
0.530358 0.0382696 0.119707
0.522438 0.0392157 0.126482
0.0485542 0.0942397 0.0480354
0.0477913 0.0945907 0.0481727
0.047425 0.0946059 0.0485084
0.0490883 0.0932021 0.0489967
0.0535744 0.0913252 0.0498665
0.0702678 0.0937972 0.0489509
0.108812 0.091249 0.0522469
0.145281 0.0867933 0.0530861
0.183703 0.0788281 0.0514382
0.226902 0.0685588 0.0501869
0.275868 0.052079 0.0487068
0.325734 0.0380865 0.0500343
0.376959 0.0337072 0.0534371
0.42742 0.0301213 0.0567178
0.466377 0.0295262 0.0619974
0.494636 0.0301213 0.0685283
0.51223 0.0325628 0.0761425
0.524987 0.0354772 0.0819257
0.526787 0.0360571 0.0825666
0.526284 0.0359197 0.0823224
0.525948 0.0357977 0.0823377
0.525551 0.0356756 0.0822614
0.526146 0.0357214 0.0831922
0.527031 0.0358434 0.0848249
0.527993 0.0359045 0.0863203
0.528634 0.0359808 0.0874189
0.529137 0.0360113 0.087892
0.529519 0.0360418 0.0883345
0.529809 0.0360571 0.088716
0.528099 0.0362707 0.0899519
0.525017 0.0365301 0.0923781
0.517784 0.0372473 0.0978256
0.509896 0.0380255 0.104219
0.0513313 0.123369 0.0511025
0.0503395 0.124071 0.0506447
0.0500038 0.1243 0.0507973
0.0510109 0.12372 0.0509194
0.056733 0.122042 0.0515755
0.0706951 0.123354 0.0527962
0.107485 0.124605 0.0511788
0.159197 0.121431 0.056199
0.20708 0.114916 0.0603494
0.257771 0.103395 0.0560006
0.309667 0.0874495 0.054551
0.354452 0.0712749 0.0538491
0.396963 0.0468452 0.050309
0.431708 0.0355688 0.0552529
0.464073 0.0310216 0.0626841
0.488884 0.0305791 0.0704814
0.508003 0.0333867 0.0783246
0.522225 0.0364691 0.085359
0.526879 0.0374609 0.0875868
0.526833 0.0372778 0.0872053
0.52665 0.0371099 0.086717
0.526421 0.0369573 0.086305
0.526162 0.0368505 0.0860456
0.525872 0.036759 0.0858778
0.525597 0.0367132 0.0858167
0.525292 0.0366979 0.0858167
0.525032 0.0366827 0.0859083
0.524819 0.0366979 0.0860914
0.524575 0.0367285 0.086305
0.52369 0.03682 0.0869917
0.522499 0.0369879 0.0877241
0.518853 0.0374151 0.0901198
0.515038 0.0378271 0.0936141
0.0577554 0.154147 0.0534218
0.0555886 0.155138 0.0529183
0.0538033 0.156069 0.0533455
0.0535134 0.1561 0.0535592
0.0581674 0.156237 0.0545052
0.0706645 0.155154 0.0554055
0.0973526 0.15993 0.0577554
0.149065 0.162692 0.0560769
0.217807 0.157275 0.0615396
0.284504 0.148898 0.0684062
0.341939 0.137453 0.0667887
0.392309 0.121019 0.0645762
0.435874 0.104662 0.064332
0.470771 0.0860304 0.064683
0.491661 0.0500343 0.058793
0.495995 0.0363622 0.0666056
0.503761 0.0343786 0.0772106
0.518013 0.0375525 0.0870222
0.525902 0.0392615 0.0920577
0.525521 0.0391394 0.0920424
0.525261 0.0390326 0.0920424
0.524971 0.0389258 0.0920577
0.524773 0.0388495 0.0920577
0.52462 0.0388037 0.0920729
0.524498 0.0387579 0.0920729
0.524392 0.0387427 0.0920882
0.524392 0.0387274 0.0920882
0.524407 0.0387427 0.0920729
0.524468 0.0387579 0.0920729
0.524544 0.0387884 0.0920577
0.524666 0.038819 0.0920424
0.523156 0.0390631 0.0931411
0.519982 0.0395056 0.0951705
0.0592966 0.190646 0.0558328
0.0566873 0.191852 0.0547951
0.0546731 0.192798 0.0537575
0.0542458 0.193362 0.0539254
0.0557412 0.193408 0.0538338
0.0678721 0.194842 0.0552682
0.0901198 0.197375 0.0572976
0.128344 0.207874 0.0601205
0.199451 0.215579 0.0606851
0.301808 0.21236 0.0704662
0.381888 0.207446 0.0842603
0.445396 0.196628 0.0929885
0.497612 0.182391 0.0912947
0.539315 0.163241 0.0952316
0.570489 0.145861 0.0968795
0.579263 0.121736 0.0958572
0.551766 0.0692454 0.0784466
0.525856 0.0421149 0.0746777
0.531289 0.0411078 0.0844129
0.530541 0.0406806 0.0878157
0.529412 0.0403296 0.0892348
0.529229 0.0402991 0.0893873
0.529137 0.0402838 0.0894942
0.529061 0.0402686 0.089601
0.529 0.0402533 0.089662
0.529 0.040238 0.0896925
0.52903 0.0402533 0.0896925
0.529107 0.0402686 0.0896162
0.529213 0.0402838 0.0894789
0.52932 0.0403143 0.0893416
0.529458 0.0403449 0.089189
0.527886 0.0405737 0.0901503
0.525124 0.04094 0.0923476
0.0575875 0.238941 0.0551156
0.0552224 0.240436 0.0535286
0.0530861 0.241245 0.0514839
0.0522469 0.24181 0.0508736
0.0521401 0.241962 0.050782
0.0581064 0.244999 0.051667
0.0774701 0.249821 0.0544137
0.113161 0.259876 0.0593576
0.169635 0.281834 0.0657664
0.278462 0.295186 0.0678111
0.400275 0.293309 0.0811627
0.483619 0.292531 0.0974441
0.549706 0.277668 0.115572
0.603876 0.270176 0.119585
0.650767 0.255085 0.124987
0.6851 0.231083 0.140169
0.696757 0.211917 0.146838
0.681453 0.185107 0.144518
0.630747 0.127153 0.115114
0.589349 0.0840009 0.0920729
0.573388 0.0709544 0.0840162
0.562127 0.0594339 0.084596
0.550057 0.0501411 0.082887
0.540459 0.0444953 0.0802319
0.53727 0.0427405 0.0776379
0.536599 0.04271 0.0754559
0.536263 0.0425727 0.0769513
0.535912 0.0424201 0.0785687
0.53576 0.0423896 0.0798352
0.539101 0.0444953 0.0815747
0.542229 0.0461128 0.0826734
0.543801 0.0482643 0.0844282
0.543908 0.0505989 0.0875715
0.0583505 0.301534 0.0563973
0.0558633 0.303319 0.0556954
0.0537423 0.304128 0.0530098
0.0525826 0.304402 0.0500801
0.0521096 0.305226 0.0500801
0.0527199 0.305608 0.0498665
0.0656748 0.312673 0.0516823
0.0933547 0.319509 0.0549172
0.144244 0.337697 0.0613718
0.235859 0.368948 0.0702678
0.370489 0.387732 0.0735027
0.49984 0.386603 0.0919509
0.580255 0.39295 0.110231
0.640101 0.37882 0.131731
0.694133 0.368551 0.144778
0.737301 0.363638 0.152651
0.766659 0.354635 0.160525
0.781628 0.339391 0.17409
0.781628 0.310506 0.182269
0.772885 0.290867 0.17966
0.763592 0.274022 0.177356
0.753262 0.256535 0.174609
0.745312 0.244465 0.172183
0.737865 0.234852 0.16939
0.733364 0.22829 0.16759
0.73051 0.225391 0.166094
0.730007 0.22475 0.16585
0.730953 0.225956 0.166308
0.73373 0.228977 0.167376
0.736233 0.233127 0.168246
0.740261 0.237995 0.169711
0.741436 0.243 0.17145
0.741482 0.248905 0.176181
0.0558633 0.36582 0.0545968
0.0537728 0.367803 0.0542611
0.051957 0.369177 0.0524758
0.0511177 0.369329 0.0485084
0.0507668 0.37023 0.0468605
0.0507668 0.370901 0.046891
0.0539101 0.373831 0.0471199
0.0722362 0.382483 0.0487984
0.110552 0.391379 0.0525063
0.189319 0.418296 0.0610666
0.323232 0.462699 0.0776074
0.464591 0.482261 0.0843977
0.585199 0.482551 0.112047
0.659571 0.492073 0.129686
0.71223 0.488365 0.155245
0.753429 0.476204 0.171893
0.788678 0.470375 0.188235
0.811383 0.472663 0.202853
0.822965 0.469566 0.211627
0.823011 0.458366 0.209476
0.8215 0.447776 0.2056
0.818906 0.43859 0.201129
0.817273 0.43212 0.199451
0.816571 0.428397 0.199054
0.816312 0.425925 0.199069
0.816342 0.424735 0.199283
0.81677 0.425803 0.199725
0.817166 0.428046 0.200137
0.817823 0.430396 0.200748
0.818952 0.434455 0.202014
0.819852 0.438315 0.203311
0.819074 0.44358 0.206897
0.816052 0.447822 0.212299
0.0547646 0.430991 0.0534371
0.0527199 0.433112 0.0540475
0.0514534 0.435126 0.0533608
0.0512093 0.436103 0.0504768
0.0517281 0.43769 0.0470741
0.0520027 0.438956 0.0463569
0.0521859 0.4392 0.0460212
0.0610971 0.443565 0.0460517
0.0922255 0.452415 0.048188
0.154238 0.465171 0.0543679
0.275792 0.506004 0.0742351
0.429145 0.553811 0.0991836
0.550088 0.568856 0.1093
0.656229 0.566873 0.141054
0.721553 0.574517 0.162524
0.765499 0.584894 0.191989
0.797772 0.584558 0.223682
0.818921 0.590661 0.241199
0.832547 0.598123 0.25156
0.833249 0.590967 0.249729
0.833356 0.584054 0.246738
0.832959 0.578637 0.243687
0.832654 0.574929 0.241459
0.832456 0.572473 0.240436
0.832654 0.571206 0.240024
0.83267 0.571145 0.239948
0.832395 0.572076 0.240131
0.832456 0.574166 0.240864
0.8327 0.576776 0.242588
0.832776 0.580438 0.243915
0.833448 0.584558 0.246769
0.8327 0.58912 0.249928
0.832044 0.593942 0.254994
0.0629129 0.495552 0.0646372
0.0622568 0.497307 0.0654307
0.0614176 0.499382 0.0652018
0.0615549 0.501106 0.0630198
0.0629587 0.502922 0.0598611
0.0657664 0.505394 0.0576486
0.0661021 0.506127 0.0576028
0.0671397 0.506233 0.0569467
0.0933547 0.511376 0.0550546
0.150179 0.52018 0.0582589
0.246677 0.543481 0.0734874
0.390326 0.596887 0.109148
0.527413 0.632456 0.133227
0.623087 0.644556 0.145907
0.715846 0.643671 0.184985
0.775448 0.651484 0.222782
0.81088 0.66479 0.258213
0.831525 0.678996 0.28365
0.844862 0.692943 0.296529
0.847395 0.693111 0.299443
0.846647 0.68986 0.298466
0.846632 0.687404 0.298146
0.846418 0.685466 0.297597
0.846372 0.684733 0.297459
0.846433 0.684657 0.297505
0.846464 0.685069 0.297612
0.846662 0.686183 0.298054
0.847013 0.687892 0.298817
0.847044 0.689738 0.29929
0.84773 0.69192 0.300359
0.848295 0.694148 0.300999
0.848829 0.696727 0.301793
0.849317 0.699123 0.3028
0.0838636 0.554314 0.0942702
0.084535 0.555611 0.0932021
0.0848249 0.557107 0.092195
0.0869612 0.558785 0.0900587
0.0913863 0.560525 0.0874647
0.100893 0.563043 0.082063
0.103761 0.564172 0.0813916
0.10544 0.56434 0.0805524
0.11722 0.564889 0.0766003
0.172396 0.571481 0.0738689
0.246204 0.585733 0.0836805
0.365682 0.626429 0.118944
0.49897 0.676234 0.156924
0.61268 0.703059 0.181476
0.69099 0.716716 0.204868
0.767956 0.718898 0.25449
0.822187 0.726467 0.301579
0.849775 0.73962 0.331685
0.866545 0.75346 0.349798
0.871183 0.754131 0.353948
0.870054 0.751659 0.350469
0.869551 0.750484 0.349508
0.869444 0.749828 0.349096
0.869474 0.750027 0.349432
0.869612 0.750546 0.349889
0.869902 0.751278 0.350607
0.87039 0.75227 0.351873
0.870817 0.753414 0.353353
0.871687 0.754635 0.355184
0.872374 0.756191 0.356695
0.872709 0.757946 0.358282
0.873533 0.75967 0.36025
0.87422 0.761486 0.362142
0.125444 0.601282 0.13933
0.127672 0.602426 0.138811
0.130053 0.603861 0.138598
0.133989 0.604837 0.136599
0.140993 0.605844 0.130434
0.155047 0.608209 0.125185
0.168093 0.610849 0.122316
0.170123 0.611276 0.121782
0.172793 0.611063 0.119478
0.207782 0.614099 0.10898
0.27216 0.628305 0.114031
0.35935 0.655268 0.139834
0.487282 0.707485 0.190051
0.598901 0.747097 0.22916
0.692988 0.770382 0.26099
0.756802 0.786038 0.293767
0.815747 0.793072 0.338994
0.857633 0.80145 0.37882
0.880858 0.808484 0.4038
0.891585 0.808576 0.413886
0.891142 0.805386 0.411231
0.891096 0.805371 0.4112
0.89102 0.805402 0.411154
0.891035 0.805493 0.411185
0.891234 0.805936 0.411612
0.891447 0.806455 0.412314
0.891859 0.807462 0.413428
0.892103 0.808576 0.414237
0.892409 0.809567 0.415396
0.893202 0.810895 0.417197
0.893416 0.812116 0.418509
0.89366 0.813367 0.419821
0.894301 0.81503 0.421607
0.177172 0.638376 0.186114
0.179599 0.639689 0.186084
0.181765 0.640513 0.185641
0.186419 0.64152 0.182818
0.195315 0.64268 0.177264
0.211902 0.64593 0.172671
0.230961 0.650813 0.172335
0.233875 0.651743 0.172091
0.234867 0.651652 0.171115
0.250507 0.653193 0.166217
0.309529 0.664637 0.161822
0.387625 0.690135 0.182605
0.49044 0.733211 0.226474
0.603037 0.780301 0.276753
0.699519 0.811917 0.318273
0.769863 0.833204 0.353445
0.817121 0.84744 0.385779
0.854597 0.852888 0.415961
0.879194 0.85301 0.43595
0.896498 0.85243 0.452079
0.899199 0.85034 0.453422
0.899199 0.849943 0.453178
0.899184 0.850187 0.453315
0.899138 0.850675 0.453544
0.899123 0.851225 0.453895
0.899031 0.851804 0.454429
0.899001 0.852369 0.454978
0.898939 0.853101 0.455665
0.898894 0.854047 0.456611
0.899138 0.855177 0.457755
0.899229 0.856458 0.45861
0.899413 0.857511 0.460227
0.899413 0.858839 0.46154
0.225223 0.670146 0.224781
0.227451 0.671504 0.224506
0.229099 0.672648 0.225315
0.232715 0.673884 0.222065
0.240589 0.676234 0.219394
0.250477 0.680079 0.22031
0.265034 0.684245 0.221103
0.269276 0.685924 0.221378
0.272694 0.686656 0.221164
0.280339 0.687449 0.219638
0.347387 0.701076 0.224384
0.419165 0.723232 0.238361
0.507424 0.759365 0.272816
0.617227 0.808576 0.327718
0.711406 0.844038 0.375753
0.781353 0.864515 0.410925
0.820401 0.877012 0.431128
0.851423 0.883925 0.451255
0.876951 0.885817 0.474281
0.893919 0.885832 0.488014
0.900023 0.884825 0.491737
0.900023 0.884367 0.490959
0.899992 0.884825 0.4916
0.899886 0.885298 0.492348
0.899931 0.885893 0.493355
0.900069 0.886564 0.49424
0.899916 0.886992 0.494835
0.899763 0.887449 0.495613
0.89984 0.888121 0.496788
0.899901 0.888945 0.497932
0.900084 0.889754 0.499596
0.900298 0.890623 0.501213
0.900328 0.891569 0.502434
0.243 0.694545 0.270604
0.24097 0.695216 0.27512
0.238056 0.696086 0.280858
0.236469 0.69659 0.284611
0.234928 0.697246 0.288609
0.234302 0.697673 0.290944
0.234287 0.69778 0.291386
0.234485 0.697795 0.291386
0.234821 0.697643 0.290608
0.234745 0.697383 0.289265
0.255024 0.692561 0.251072
0.368856 0.714031 0.245106
0.470573 0.752605 0.280232
0.583871 0.803418 0.335622
0.686091 0.846677 0.391043
0.767575 0.874235 0.436652
0.816571 0.890349 0.466255
0.846937 0.900313 0.487556
0.872084 0.90518 0.509651
0.890547 0.907027 0.531929
0.899168 0.906966 0.542107
0.898909 0.906401 0.536568
0.899077 0.906584 0.53669
0.89926 0.906935 0.537255
0.899428 0.907332 0.538125
0.89958 0.907759 0.538872
0.899718 0.908186 0.540246
0.899763 0.908217 0.540673
0.899779 0.908263 0.541207
0.899779 0.908324 0.541878
0.899779 0.9084 0.542367
0.899748 0.908492 0.542931
0.899702 0.908568 0.543664
0.236286 0.705348 0.323522
0.235309 0.705516 0.324392
0.2336 0.705913 0.326162
0.232197 0.706111 0.327337
0.231327 0.706157 0.328176
0.230991 0.706065 0.327947
0.23093 0.705776 0.326741
0.231083 0.705196 0.324361
0.231098 0.705165 0.324208
0.231098 0.705165 0.324208
0.232074 0.70248 0.311833
0.252903 0.692287 0.25095
0.374594 0.715953 0.246708
0.503838 0.767788 0.298024
0.635843 0.827176 0.365972
0.732723 0.863798 0.418524
0.800443 0.885283 0.460151
0.837903 0.898695 0.484901
0.865583 0.90602 0.509743
0.886931 0.908232 0.531304
0.897963 0.909178 0.54992
0.898421 0.90959 0.554162
0.898466 0.909636 0.554543
0.898466 0.909636 0.554528
0.898482 0.909636 0.554528
0.898497 0.909651 0.554589
0.898497 0.909651 0.55465
0.898497 0.909651 0.554726
0.898497 0.909667 0.554742
0.898497 0.909651 0.554711
0.898497 0.909651 0.554665
0.898482 0.909651 0.554635
0.898482 0.909651 0.554574
0.232578 0.70695 0.330724
0.232609 0.706783 0.330007
0.232334 0.706645 0.329488
0.231937 0.706493 0.329152
0.231281 0.706371 0.329198
0.230976 0.706142 0.328298
0.230869 0.705913 0.327321
0.231067 0.705257 0.324514
0.231098 0.705165 0.324208
0.231098 0.705165 0.324208
0.231434 0.704067 0.319753
0.242176 0.692485 0.258839
0.358419 0.71104 0.243549
0.471824 0.753567 0.283864
0.60708 0.814649 0.351156
0.71223 0.857023 0.40795
0.786435 0.880781 0.450507
0.832059 0.896635 0.47982
0.860349 0.904997 0.504402
0.88397 0.90808 0.527993
0.89691 0.908797 0.545769
0.898222 0.909407 0.551843
0.898436 0.90959 0.554162
0.898436 0.90959 0.554162
0.898436 0.90959 0.554162
0.898436 0.90959 0.554162
0.898436 0.90959 0.554162
0.898436 0.90959 0.554162
0.898436 0.90959 0.554162
0.898436 0.90959 0.554162
0.898589 0.909545 0.553735
0.898878 0.909453 0.552621
0.899367 0.9093 0.551049
0.235798 0.705974 0.326101
0.236194 0.705684 0.324712
0.235874 0.705592 0.324514
0.23508 0.705531 0.324483
0.234012 0.705486 0.324544
0.233448 0.705242 0.324025
0.233234 0.705074 0.323262
0.233616 0.704326 0.319783
0.233692 0.704189 0.319142
0.233692 0.704189 0.319142
0.233936 0.703502 0.316579
0.238682 0.693462 0.265553
0.353201 0.709133 0.238621
0.468269 0.752041 0.278828
0.601801 0.812177 0.345632
0.710506 0.855955 0.402228
0.785595 0.880064 0.445106
0.831388 0.895766 0.47335
0.860365 0.904555 0.497871
0.883711 0.907485 0.521157
0.897139 0.908354 0.539574
0.899626 0.908843 0.54638
0.89984 0.909117 0.549615
0.89984 0.909117 0.549615
0.89984 0.909117 0.549615
0.89984 0.909117 0.549615
0.89984 0.909117 0.549615
0.899672 0.909178 0.550027
0.899367 0.9093 0.551049
0.898878 0.909453 0.552621
0.898726 0.909499 0.553201
0.898878 0.909453 0.552621
0.899367 0.9093 0.551049
0.235752 0.706127 0.326802
0.236164 0.705852 0.325444
0.235843 0.705776 0.32517
0.23505 0.70573 0.325093
0.233951 0.705669 0.325063
0.233387 0.705333 0.324346
0.233204 0.705104 0.323415
0.233555 0.704417 0.32018
0.233692 0.704189 0.319142
0.233692 0.704189 0.319142
0.233997 0.703365 0.316045
0.240543 0.694224 0.269017
0.350469 0.708446 0.238407
0.465248 0.75082 0.277653
0.595575 0.809384 0.344228
0.705837 0.854566 0.402258
0.783276 0.879652 0.446113
0.829725 0.895399 0.473732
0.859037 0.904173 0.496834
0.882582 0.907408 0.519875
0.896742 0.908293 0.538567
0.899565 0.908782 0.545861
0.89984 0.909087 0.549447
0.899855 0.909117 0.549615
0.89984 0.909117 0.549615
0.89984 0.909117 0.549615
0.89984 0.909117 0.549615
0.899672 0.909178 0.550027
0.899367 0.9093 0.551049
0.898878 0.909453 0.552621
0.898726 0.909499 0.553201
0.898878 0.909453 0.552621
0.899367 0.9093 0.551064
0.235721 0.706249 0.327367
0.236133 0.705974 0.32607
0.235828 0.705898 0.325734
0.235035 0.705882 0.32575
0.233921 0.705806 0.325658
0.233356 0.705409 0.324575
0.233188 0.705135 0.323522
0.233555 0.704433 0.320302
0.233692 0.704189 0.319142
0.233692 0.704189 0.319142
0.233875 0.703822 0.317571
0.241733 0.693645 0.265522
0.353475 0.709194 0.238529
0.46746 0.751705 0.279072
0.594247 0.808911 0.343801
0.705501 0.85452 0.403449
0.782147 0.879454 0.447364
0.828702 0.895506 0.476493
0.857832 0.904082 0.499001
0.881392 0.907439 0.520378
0.896117 0.908141 0.537652
0.899519 0.908736 0.545525
0.899809 0.909072 0.549172
0.89984 0.909117 0.549615
0.89984 0.909117 0.549615
0.89984 0.909117 0.549615
0.89984 0.909117 0.549615
0.899672 0.909178 0.550027
0.899367 0.9093 0.551064
0.898878 0.909453 0.552621
0.898573 0.909545 0.553719
0.898573 0.909545 0.553719
0.898878 0.909453 0.552621
0.234836 0.706676 0.329519
0.235721 0.706203 0.327123
0.235782 0.705989 0.326192
0.235004 0.705989 0.326207
0.23389 0.705882 0.326009
0.233341 0.70547 0.324712
0.233173 0.70518 0.32369
0.23357 0.704402 0.320165
0.233692 0.704189 0.319142
0.233692 0.704189 0.319142
0.233692 0.704189 0.319142
0.241871 0.693385 0.263691
0.356283 0.709972 0.239048
0.473045 0.754025 0.281849
0.598978 0.810895 0.345892
0.707973 0.855253 0.404898
0.783078 0.879805 0.448554
0.829252 0.895796 0.478065
0.857099 0.904295 0.501411
0.880278 0.907652 0.523476
0.894682 0.908415 0.540261
0.898528 0.909041 0.54847
0.899001 0.909346 0.551461
0.899168 0.909361 0.551614
0.899245 0.909331 0.551385
0.899321 0.909316 0.551202
0.899367 0.9093 0.551064
0.899214 0.909346 0.551461
0.898924 0.909438 0.552483
0.898482 0.90959 0.55407
0.898207 0.909667 0.554955
0.898085 0.909712 0.55555
0.898161 0.909682 0.555138
0.232517 0.707652 0.333776
0.233356 0.707134 0.331502
0.23389 0.706737 0.329717
0.23386 0.706447 0.328298
0.233326 0.706142 0.327077
0.233143 0.705577 0.325139
0.233173 0.705165 0.323644
0.23357 0.704387 0.320089
0.233692 0.704189 0.319142
0.233692 0.704189 0.319142
0.233814 0.703914 0.317998
0.241001 0.692988 0.261952
0.363195 0.712077 0.241138
0.480064 0.757076 0.28481
0.606836 0.814435 0.349645
0.712505 0.857099 0.407675
0.78677 0.880735 0.451057
0.830472 0.896178 0.478889
0.858488 0.904646 0.502724
0.880735 0.907744 0.524788
0.894774 0.908522 0.542077
0.897993 0.909194 0.550042
0.898375 0.909545 0.553628
0.898436 0.90959 0.554162
0.898436 0.90959 0.554162
0.898436 0.90959 0.554162
0.898436 0.90959 0.554162
0.898283 0.909636 0.554574
0.898085 0.909712 0.555566
0.897856 0.909758 0.556985
0.897719 0.909804 0.55787
0.897642 0.909819 0.558175
0.897642 0.909819 0.558175
0.230686 0.708583 0.338643
0.23122 0.708171 0.336522
0.2318 0.707622 0.333761
0.232288 0.707088 0.33138
0.232654 0.706401 0.328344
0.232944 0.705669 0.325505
0.233188 0.705135 0.323507
0.2336 0.704356 0.319951
0.233692 0.704189 0.319142
0.233692 0.704189 0.319142
0.234058 0.703044 0.314672
0.240986 0.692607 0.260075
0.373175 0.715145 0.243931
0.48806 0.760662 0.288914
0.614557 0.818051 0.354009
