bundles/resolve-cinematic-luts/Phantom Luts/Komodo Phantom FILM LUTs G2/Komodo Phantom FILM LUTs G2/33x/Standard (No WB Offset)/Eastman_Komodo_Legacy_G2_33x.cube
TITLE "Generated by Resolve"
LUT_3D_SIZE 5
0.0508736 0.0419471 0.0491951
0.156985 0.039765 0.0511025
0.480644 0.063447 0.048188
0.525032 0.0689555 0.0653239
0.497276 0.058793 0.0647593
0.0850385 0.156771 0.0775311
0.179873 0.181125 0.0868086
0.569375 0.166186 0.0837262
0.529793 0.124437 0.0510567
0.549355 0.147494 0.0608988
0.164767 0.613581 0.18761
0.185641 0.6318 0.187076
0.758968 0.799756 0.281666
0.849851 0.814237 0.320073
0.850401 0.822339 0.326284
0.173419 0.672328 0.280659
0.174441 0.670329 0.263554
0.74435 0.838285 0.330098
0.85185 0.853361 0.372229
0.845029 0.854444 0.380179
0.172519 0.67277 0.286107
0.176654 0.670176 0.253147
0.74197 0.834104 0.31519
0.859403 0.85211 0.363668
0.844022 0.854597 0.381506
0.0457618 0.0523537 0.098497
0.164904 0.050782 0.121447
0.503578 0.0604868 0.172763
0.553155 0.0867628 0.238117
0.535256 0.0925917 0.259007
0.0740673 0.135058 0.117464
0.163699 0.156863 0.158114
0.523232 0.0850385 0.0893873
0.508949 0.0588693 0.0662699
0.505135 0.053193 0.0712902
0.151904 0.618875 0.313313
0.144381 0.598749 0.228092
0.744091 0.7823 0.268711
0.848157 0.787808 0.300145
0.848219 0.792126 0.303288
0.193927 0.713649 0.410437
0.174105 0.673136 0.281544
0.702861 0.823774 0.319387
0.851942 0.8533 0.371725
0.845594 0.854337 0.379644
0.194659 0.717708 0.423865
0.175509 0.673442 0.276783
0.694072 0.818738 0.30248
0.859419 0.85182 0.360784
0.842466 0.854856 0.383169
0.0390021 0.0652781 0.310338
0.102815 0.0578317 0.364294
0.544991 0.123766 0.459388
0.599435 0.149676 0.513619
0.6009 0.154299 0.530022
0.0390021 0.112535 0.327291
0.0390021 0.0601053 0.332753
0.554864 0.127993 0.468803
0.600046 0.148013 0.506584
0.598962 0.150576 0.515892
0.140795 0.631388 0.52546
0.138964 0.625147 0.522271
0.670481 0.695659 0.674662
0.830716 0.636255 0.630854
0.828931 0.636057 0.632593
0.224735 0.794827 0.613046
0.223911 0.788327 0.584588
0.335363 0.724361 0.437247
0.845228 0.853635 0.372015
0.846036 0.854124 0.377188
0.225315 0.795819 0.622568
0.224109 0.788739 0.586252
0.27425 0.715236 0.420401
0.837339 0.855222 0.388678
0.842603 0.854536 0.37995
0.0390021 0.0621805 0.371862
0.105165 0.0619974 0.422126
0.574624 0.148318 0.532769
0.601877 0.157015 0.542092
0.601984 0.156985 0.542138
0.0390021 0.111742 0.392935
0.0390021 0.0617075 0.380468
0.569375 0.145968 0.531136
0.601877 0.157015 0.542092
0.601877 0.157015 0.542092
0.116487 0.581353 0.593286
0.11223 0.569574 0.589456
0.506172 0.548089 0.760647
0.876005 0.604303 0.826474
0.875044 0.604669 0.825772
0.216693 0.793164 0.688716
0.217029 0.79321 0.688701
0.223987 0.795804 0.68127
0.895796 0.921645 0.89337
0.920653 0.917906 0.890455
0.216449 0.793286 0.688151
0.216892 0.793118 0.68896
0.237736 0.819532 0.672221
0.861662 0.937331 0.876265
0.925155 0.950439 0.884627
0.0390021 0.0615854 0.379446
0.13193 0.0611582 0.43209
0.590814 0.153246 0.538216
0.601877 0.157015 0.542092
0.602075 0.156954 0.542168
0.0390021 0.108888 0.391638
0.0390021 0.0630961 0.388388
0.582574 0.150622 0.535332
0.601877 0.157015 0.542092
0.601877 0.157015 0.542092
0.11603 0.579767 0.592615
0.110994 0.565469 0.588449
0.505364 0.531807 0.759457
0.873991 0.5906 0.822873
0.872648 0.589014 0.821439
0.216693 0.793164 0.688716
0.216846 0.793088 0.689036
0.195727 0.759304 0.683742
0.872465 0.894835 0.905425
0.9187 0.897398 0.91014
0.216617 0.793194 0.688533
0.216846 0.793088 0.689036
0.232563 0.818753 0.708507
0.626734 0.905165 0.839414
0.92752 0.954681 0.925704
