bundles/resolve-cinematic-luts/Phantom Luts/Komodo Phantom FILM LUTs G2/Komodo Phantom FILM LUTs G2/33x/Standard (No WB Offset)/Eastman_Komodo_Legacy_G2_33x.cube
TITLE "Generated by Resolve"
LUT_3D_SIZE 9
0.0508736 0.0419471 0.0491951
0.0660105 0.0430152 0.0510414
0.156985 0.039765 0.0511025
0.335592 0.0458228 0.0423743
0.480644 0.063447 0.048188
0.521141 0.0768597 0.0605173
0.525032 0.0689555 0.0653239
0.522133 0.0569619 0.0649729
0.497276 0.058793 0.0647593
0.0608377 0.059968 0.0564584
0.06598 0.0599069 0.0572824
0.148775 0.0572061 0.0575418
0.328359 0.0549325 0.0392004
0.470649 0.085359 0.0455634
0.488563 0.0929274 0.0473182
0.491997 0.0935378 0.0481422
0.493004 0.0938888 0.0484169
0.472999 0.10013 0.0464942
0.0850385 0.156771 0.0775311
0.0764324 0.158846 0.0764019
0.179873 0.181125 0.0868086
0.452338 0.177081 0.103349
0.569375 0.166186 0.0837262
0.535134 0.129107 0.0526741
0.529793 0.124437 0.0510567
0.547921 0.140429 0.0605173
0.549355 0.147494 0.0608988
0.117464 0.40972 0.118425
0.104372 0.414969 0.113054
0.146227 0.428275 0.11696
0.500862 0.513863 0.143664
0.735576 0.542397 0.17052
0.78645 0.567025 0.179309
0.789746 0.579644 0.181765
0.792462 0.593805 0.184771
0.790768 0.603616 0.187976
0.164767 0.613581 0.18761
0.171069 0.620737 0.185428
0.185641 0.6318 0.187076
0.504891 0.713939 0.227771
0.758968 0.799756 0.281666
0.849378 0.808499 0.315633
0.849851 0.814237 0.320073
0.850477 0.820035 0.324605
0.850401 0.822339 0.326284
0.17467 0.671778 0.271351
0.173022 0.671153 0.274235
0.172427 0.670512 0.272755
0.38172 0.702663 0.226749
0.739254 0.836667 0.329473
0.845975 0.853315 0.369238
0.84947 0.853742 0.374945
0.84918 0.853788 0.375326
0.849104 0.853788 0.375433
0.173419 0.672328 0.280659
0.17406 0.671061 0.269368
0.174441 0.670329 0.263554
0.417273 0.716121 0.23151
0.74435 0.838285 0.330098
0.846967 0.852903 0.364309
0.85185 0.853361 0.372229
0.849531 0.853727 0.374884
0.845029 0.854444 0.380179
0.172549 0.672709 0.285786
0.174731 0.671 0.266438
0.178653 0.670024 0.245396
0.439445 0.726207 0.224659
0.755581 0.837339 0.314244
0.854978 0.851072 0.349615
0.862943 0.85153 0.359838
0.860838 0.85185 0.362325
0.844053 0.854582 0.381476
0.172519 0.67277 0.286107
0.173342 0.671321 0.274174
0.176654 0.670176 0.253147
0.404791 0.712428 0.216739
0.74197 0.834104 0.31519
0.848447 0.851545 0.351247
0.859403 0.85211 0.363668
0.858259 0.852293 0.365087
0.844022 0.854597 0.381506
0.0496834 0.0435187 0.0573434
0.067216 0.0449836 0.0615244
0.158114 0.0479133 0.0700542
0.334417 0.0390478 0.0500191
0.475425 0.0521706 0.0564584
0.512078 0.039826 0.0763714
0.516854 0.0440528 0.100832
0.519173 0.0473945 0.117006
0.505943 0.0545205 0.126726
0.0576028 0.0555734 0.0597848
0.0621653 0.0546578 0.0611276
0.149737 0.0461738 0.0571145
0.327016 0.0508888 0.0427863
0.46862 0.0770275 0.0497139
0.500038 0.0804913 0.0611734
0.503182 0.0701762 0.0658274
0.500877 0.0572976 0.0654002
0.490303 0.0572671 0.0672313
0.0826276 0.151858 0.0898909
0.0746624 0.152178 0.0814984
0.172396 0.171954 0.0846876
0.435325 0.158846 0.0926833
0.524102 0.141939 0.0615854
0.512978 0.118166 0.0495155
0.510185 0.116365 0.0493629
0.512337 0.119173 0.0492409
0.5084 0.123171 0.0484169
0.114702 0.409461 0.14696
0.10457 0.410559 0.133959
0.126696 0.418906 0.113481
0.498116 0.509026 0.142596
0.736355 0.532158 0.16939
0.784207 0.550454 0.177386
0.785946 0.5635 0.17847
0.788113 0.577691 0.180377
0.786557 0.586709 0.184085
0.153628 0.609628 0.22237
0.155459 0.610513 0.208331
0.183536 0.62707 0.184955
0.48368 0.702846 0.219257
0.755138 0.795499 0.278035
0.848753 0.802152 0.310872
0.849592 0.807538 0.314885
0.849958 0.812177 0.318013
0.849897 0.813581 0.319188
0.174746 0.672633 0.27602
0.173098 0.672251 0.281575
0.172427 0.670512 0.272755
0.342397 0.690135 0.216892
0.731579 0.834028 0.32755
0.844694 0.853315 0.367468
0.849973 0.853666 0.37438
0.849622 0.853712 0.374762
0.849409 0.853742 0.375021
0.174166 0.676417 0.298421
0.174044 0.672374 0.278004
0.174456 0.670329 0.263523
0.364538 0.697246 0.2168
0.733486 0.834485 0.327337
0.843519 0.852811 0.361242
0.852049 0.853315 0.372045
0.849683 0.853712 0.374685
0.845106 0.854429 0.380087
0.175051 0.680613 0.31957
0.17435 0.67245 0.276814
0.178637 0.670024 0.245426
0.377951 0.702983 0.205539
0.742275 0.832944 0.310567
0.849973 0.851072 0.34641
0.862928 0.85153 0.359594
0.860655 0.851896 0.36257
0.844007 0.854597 0.381537
0.175082 0.680659 0.319814
0.173266 0.67274 0.283253
0.176852 0.670161 0.252399
0.346548 0.692714 0.200076
0.728969 0.829557 0.311681
0.843153 0.851408 0.348196
0.859846 0.851972 0.362905
0.858671 0.852232 0.364584
0.844038 0.854597 0.381491
0.0457618 0.0523537 0.098497
0.0643931 0.0505379 0.112383
0.164904 0.050782 0.121447
0.343282 0.043534 0.131197
0.503578 0.0604868 0.172763
0.548699 0.0798657 0.215763
0.553155 0.0867628 0.238117
0.551598 0.0882582 0.251957
0.535256 0.0925917 0.259007
0.0450752 0.0580301 0.0919966
0.0484321 0.0511635 0.106096
0.159411 0.0518196 0.122744
0.348257 0.0452583 0.122286
0.50103 0.0562753 0.155489
0.536919 0.0729076 0.195026
0.544945 0.0824292 0.218296
0.550393 0.0892958 0.234638
0.537987 0.093492 0.242908
0.0740673 0.135058 0.117464
0.0680552 0.134661 0.118959
0.163699 0.156863 0.158114
0.421683 0.116045 0.12845
0.523232 0.0850385 0.0893873
0.51194 0.0710002 0.0658885
0.508949 0.0588693 0.0662699
0.511009 0.0540169 0.0698558
0.505135 0.053193 0.0712902
0.12311 0.410239 0.22385
0.112947 0.409644 0.214908
0.105623 0.397726 0.149737
0.478599 0.491096 0.14583
0.735576 0.487449 0.168612
0.775906 0.493446 0.173236
0.776318 0.501762 0.173022
0.777798 0.515267 0.174365
0.773632 0.525383 0.176593
0.151904 0.618875 0.313313
0.146212 0.614038 0.307469
0.144381 0.598749 0.228092
0.40647 0.664103 0.196155
0.744091 0.7823 0.268711
0.847333 0.78529 0.298894
0.848157 0.787808 0.300145
0.848402 0.791257 0.30248
0.848219 0.792126 0.303288
0.187198 0.701228 0.372366
0.180835 0.691997 0.355215
0.172519 0.672892 0.286931
0.217716 0.667781 0.204913
0.709224 0.826596 0.321096
0.841047 0.85301 0.362676
0.851743 0.853437 0.372793
0.851392 0.853483 0.373175
0.851225 0.853513 0.373602
0.193927 0.713649 0.410437
0.188479 0.703746 0.386877
0.174105 0.673136 0.281544
0.216266 0.667597 0.199924
0.702861 0.823774 0.319387
0.832807 0.852461 0.355734
0.851942 0.8533 0.371725
0.849867 0.853681 0.374472
0.845594 0.854337 0.379644
0.194766 0.718364 0.42533
0.191546 0.708904 0.400351
0.176074 0.673503 0.273457
0.219257 0.668437 0.186526
0.707607 0.822461 0.303899
0.834424 0.850492 0.340871
0.861601 0.851545 0.359136
0.859754 0.852049 0.363455
0.843931 0.854597 0.381598
0.194659 0.717708 0.423865
0.191058 0.707805 0.398856
0.175509 0.673442 0.276783
0.202594 0.66659 0.194507
0.694072 0.818738 0.30248
0.827619 0.850767 0.341344
0.859419 0.85182 0.360784
0.858381 0.852277 0.364935
0.842466 0.854856 0.383169
0.0390021 0.0603342 0.202121
0.0455634 0.0569772 0.218219
0.138888 0.0523842 0.261021
0.352514 0.0561074 0.279194
0.502724 0.0661021 0.298299
0.543191 0.0811475 0.333257
0.548791 0.0859541 0.358846
0.549935 0.0910811 0.377493
0.544427 0.0995956 0.390326
0.0390021 0.0737163 0.204318
0.0390021 0.0595712 0.217838
0.118395 0.0538186 0.267048
0.359396 0.0569619 0.286503
0.506569 0.0689708 0.301122
0.544793 0.0856184 0.336233
0.546517 0.0859693 0.355795
0.548974 0.0898909 0.373495
0.542809 0.0975357 0.384634
0.0426642 0.124804 0.20296
0.0390021 0.118654 0.208453
0.0526741 0.0793011 0.265156
0.358984 0.0674144 0.293568
0.501747 0.0646525 0.276493
0.541543 0.078996 0.305516
0.546807 0.0841382 0.321416
0.544244 0.0832837 0.330495
0.5346 0.0846265 0.33492
0.108232 0.394324 0.325551
0.103044 0.396506 0.329702
0.101717 0.390784 0.325978
0.450248 0.46006 0.451438
0.710796 0.379873 0.403174
0.781949 0.336889 0.385138
0.782269 0.338537 0.392187
0.78265 0.346288 0.400305
0.774548 0.354253 0.404944
0.162066 0.654047 0.432761
0.161837 0.652781 0.441321
0.158755 0.641993 0.418143
0.18761 0.593683 0.303441
0.672511 0.714519 0.367926
0.851789 0.692897 0.358251
0.854582 0.695552 0.357671
0.85449 0.695415 0.36318
0.850294 0.695933 0.365148
0.2047 0.749493 0.475624
0.204517 0.745052 0.476661
0.198276 0.730404 0.450019
0.174395 0.679622 0.315724
0.666026 0.813184 0.313527
0.836561 0.852155 0.354131
0.854261 0.852857 0.368292
0.854017 0.852811 0.36759
0.853788 0.852735 0.366827
0.213352 0.764218 0.513512
0.210147 0.757015 0.501366
0.202304 0.739498 0.468299
0.177722 0.685496 0.332876
0.621088 0.797955 0.29807
0.802838 0.851347 0.348775
0.8477 0.853635 0.3729
0.847303 0.854047 0.376822
0.846357 0.85417 0.37821
0.216449 0.769879 0.528664
0.212711 0.761898 0.512139
0.203738 0.742443 0.473793
0.179644 0.688182 0.33846
0.608454 0.793332 0.283223
0.790768 0.849119 0.338384
0.850431 0.852918 0.366842
0.848859 0.853788 0.375158
0.844266 0.85452 0.380529
0.216266 0.768475 0.527794
0.211933 0.75996 0.508995
0.202747 0.740658 0.469703
0.179599 0.688045 0.337728
0.584772 0.78497 0.276463
0.783963 0.84744 0.334768
0.848737 0.852811 0.36408
0.849134 0.853666 0.374075
0.842695 0.854749 0.382223
0.0390021 0.0652781 0.310338
0.0390021 0.0596628 0.319799
0.102815 0.0578317 0.364294
0.351781 0.0692912 0.411536
0.544991 0.123766 0.459388
0.597177 0.14667 0.49868
0.599435 0.149676 0.513619
0.60087 0.152285 0.523919
0.6009 0.154299 0.530022
0.0390021 0.0779583 0.322667
0.0390021 0.0643473 0.321019
0.0836042 0.0594339 0.364111
0.35375 0.070573 0.419196
0.553292 0.12845 0.467887
0.597208 0.147463 0.501472
0.599054 0.150103 0.514458
0.600641 0.152483 0.524056
0.600946 0.154192 0.529488
0.0390021 0.112535 0.327291
0.0390021 0.107317 0.333928
0.0390021 0.0601053 0.332753
0.323461 0.0666972 0.421683
0.554864 0.127993 0.468803
0.597696 0.145037 0.496544
0.600046 0.148013 0.506584
0.600534 0.148943 0.512978
0.598962 0.150576 0.515892
0.068101 0.385611 0.431128
0.0665904 0.382177 0.434012
0.059678 0.360082 0.434882
0.286061 0.318547 0.561212
0.721828 0.35137 0.639094
0.762234 0.309422 0.620706
0.763699 0.311315 0.624994
0.769833 0.320043 0.633631
0.770138 0.326955 0.636423
0.140795 0.631388 0.52546
0.140459 0.629786 0.525887
0.138964 0.625147 0.522271
0.163165 0.624186 0.527596
0.670481 0.695659 0.674662
0.821134 0.64271 0.633326
0.830716 0.636255 0.630854
0.831922 0.636225 0.633066
0.828931 0.636057 0.632593
0.213489 0.775692 0.578729
0.211429 0.769314 0.577096
0.203693 0.754208 0.55671
0.20209 0.749615 0.537255
0.526955 0.768032 0.579461
0.820752 0.858885 0.653132
0.897368 0.848066 0.660777
0.895689 0.842115 0.659068
0.893736 0.836728 0.653284
0.224735 0.794827 0.613046
0.225315 0.793149 0.605753
0.223911 0.788327 0.584588
0.217594 0.772183 0.535927
0.335363 0.724361 0.437247
0.753185 0.85481 0.481285
0.845228 0.853635 0.372015
0.846098 0.854078 0.376776
0.846036 0.854124 0.377188
0.22504 0.796292 0.624125
0.225254 0.794369 0.612787
0.224445 0.78941 0.589334
0.217502 0.771984 0.535973
0.29688 0.718502 0.427085
0.728008 0.846525 0.476631
0.841657 0.854078 0.374258
0.843488 0.854322 0.378195
0.843641 0.854368 0.378988
0.225315 0.795819 0.622568
0.225376 0.793942 0.610147
0.224109 0.788739 0.586252
0.217441 0.771237 0.534005
0.27425 0.715236 0.420401
0.71519 0.842557 0.478294
0.837339 0.855222 0.388678
0.842039 0.854398 0.378424
0.842603 0.854536 0.37995
0.0390021 0.0662852 0.365896
0.0390021 0.0616464 0.373083
0.0836805 0.0631723 0.412329
0.315831 0.0739147 0.475914
0.556512 0.14136 0.527214
0.601877 0.157015 0.542092
0.601877 0.157015 0.542092
0.601907 0.157015 0.542092
0.601907 0.157 0.542107
0.0390021 0.0761273 0.368322
0.0390021 0.0644541 0.367544
0.071107 0.0637369 0.40798
0.318929 0.0747997 0.477577
0.56434 0.144213 0.5299
0.602197 0.156909 0.54226
0.602197 0.156909 0.54226
0.602106 0.156939 0.542199
0.601877 0.157015 0.542092
0.0390021 0.116594 0.395605
0.0390021 0.109407 0.391989
0.0390021 0.0615854 0.374075
0.280995 0.0692607 0.470832
0.558923 0.142168 0.528023
0.601877 0.157015 0.542092
0.601877 0.157015 0.542092
0.601877 0.157015 0.542092
0.601877 0.157015 0.542092
0.0460212 0.330205 0.465797
0.0439307 0.322072 0.465599
0.0390021 0.287068 0.45919
0.18027 0.194537 0.533349
0.640299 0.265538 0.667811
0.726452 0.268696 0.660853
0.729259 0.271672 0.662898
0.737377 0.28069 0.671916
0.741436 0.286366 0.67602
0.122499 0.597543 0.575692
0.121279 0.595087 0.574792
0.118349 0.587121 0.57261
0.111528 0.568307 0.57705
0.559808 0.604654 0.755993
0.858137 0.634028 0.795117
0.877989 0.629129 0.794156
0.878233 0.63064 0.794568
0.874464 0.629358 0.79176
0.190738 0.745541 0.627527
0.183688 0.731929 0.615625
0.178271 0.721935 0.607156
0.173953 0.713893 0.60148
0.50544 0.796368 0.726787
0.820554 0.848508 0.821897
0.895125 0.835142 0.812802
0.893782 0.828855 0.808331
0.891722 0.82327 0.803586
0.221912 0.798169 0.673213
0.22359 0.798398 0.669291
0.224491 0.798672 0.657374
0.225864 0.796948 0.631113
0.251942 0.817166 0.638361
0.776242 0.894163 0.799985
0.898314 0.927413 0.828199
0.922621 0.927565 0.838087
0.922103 0.924712 0.834379
0.220584 0.796811 0.680491
0.222843 0.798016 0.674556
0.224369 0.798657 0.659754
0.225666 0.796429 0.628031
0.241917 0.818357 0.625971
0.680308 0.863188 0.722957
0.872663 0.926055 0.773373
0.891386 0.904158 0.66746
0.848096 0.85536 0.393652
0.221592 0.797192 0.68043
0.222934 0.798001 0.673121
0.224445 0.798672 0.65832
0.225574 0.796063 0.624933
0.24065 0.815824 0.620264
0.661601 0.856016 0.711803
0.864439 0.924269 0.776226
0.901915 0.91902 0.730007
0.852903 0.860349 0.446906
0.0390021 0.0621805 0.371862
0.0390021 0.0618296 0.381476
0.105165 0.0619974 0.422126
0.341634 0.0785992 0.481025
0.574624 0.148318 0.532769
0.601877 0.157015 0.542092
0.601877 0.157015 0.542092
0.601953 0.157 0.542107
0.601984 0.156985 0.542138
0.0390021 0.0680552 0.367132
0.0390021 0.0617075 0.373739
0.0901961 0.0631723 0.416541
0.341512 0.0785077 0.480888
0.578805 0.149508 0.534279
0.601877 0.157015 0.542092
0.601877 0.157015 0.542092
0.601877 0.157015 0.542092
0.601877 0.157015 0.542092
0.0390021 0.111742 0.392935
0.0390021 0.101671 0.388403
0.0390021 0.0617075 0.380468
0.301167 0.0717632 0.474159
0.569375 0.145968 0.531136
0.601877 0.157015 0.542092
0.601877 0.157015 0.542092
0.601877 0.157015 0.542092
0.601877 0.157015 0.542092
0.0390021 0.293706 0.465644
0.0390021 0.287068 0.46247
0.0390021 0.253346 0.448203
0.167239 0.157427 0.507652
0.606302 0.22829 0.63267
0.688411 0.233814 0.626337
0.6981 0.242496 0.635264
0.708125 0.252079 0.645045
0.714763 0.258869 0.651789
0.116487 0.581353 0.593286
0.115465 0.578439 0.592279
0.11223 0.569574 0.589456
0.105562 0.549691 0.592371
0.506172 0.548089 0.760647
0.852461 0.601877 0.829618
0.876005 0.604303 0.826474
0.876402 0.606653 0.827314
0.875044 0.604669 0.825772
0.172763 0.715099 0.648341
0.167193 0.703639 0.643748
0.158267 0.683894 0.634745
0.150149 0.665293 0.629786
0.372351 0.722606 0.725155
0.772244 0.806485 0.861341
0.902098 0.818463 0.873671
0.903609 0.812741 0.8701
0.902113 0.807736 0.867308
0.216693 0.793164 0.688716
0.216846 0.793088 0.689036
0.217029 0.79321 0.688701
0.220233 0.795224 0.678416
0.223987 0.795804 0.68127
0.752026 0.897795 0.854261
0.895796 0.921645 0.89337
0.92163 0.920592 0.892424
0.920653 0.917906 0.890455
0.216526 0.79324 0.68835
0.216846 0.793088 0.689036
0.216907 0.793133 0.688914
0.222751 0.797864 0.67509
0.238361 0.820752 0.677714
0.489723 0.871183 0.748089
0.882902 0.942351 0.889769
0.925261 0.952087 0.898543
0.926284 0.952651 0.902678
0.216449 0.793286 0.688151
0.216754 0.793133 0.688853
0.216892 0.793118 0.68896
0.223163 0.798123 0.672847
0.237736 0.819532 0.672221
0.484413 0.868544 0.741604
0.861662 0.937331 0.876265
0.9196 0.950744 0.890639
0.925155 0.950439 0.884627
0.0390021 0.061265 0.375967
0.0390021 0.0631418 0.38883
0.121645 0.0613565 0.428016
0.360342 0.0823377 0.48394
0.584955 0.151324 0.536294
0.601877 0.157015 0.542092
0.601877 0.157015 0.542092
0.601907 0.157015 0.542092
0.602014 0.156985 0.542138
0.0390021 0.0641642 0.36817
0.0390021 0.0613413 0.377691
0.103456 0.062089 0.421469
0.359243 0.0822003 0.483833
0.588495 0.152331 0.537392
0.601877 0.157015 0.542092
0.601877 0.157015 0.542092
0.601877 0.157015 0.542092
0.601907 0.157 0.542092
0.0390021 0.110506 0.392248
0.0390021 0.0956283 0.384497
0.0390021 0.0625467 0.385489
0.315373 0.073991 0.476661
0.577768 0.149157 0.53373
0.601877 0.157015 0.542092
0.601877 0.157015 0.542092
0.601877 0.157015 0.542092
0.601877 0.157015 0.542092
0.0390021 0.282307 0.460151
0.0390021 0.273014 0.456489
0.0390021 0.239231 0.442573
0.161578 0.140703 0.495949
0.589426 0.209751 0.61268
0.671641 0.218448 0.609873
0.679835 0.225834 0.61825
0.694286 0.238972 0.631739
0.701289 0.24538 0.638086
0.116045 0.579782 0.592721
0.114717 0.575723 0.591501
0.111391 0.566232 0.588846
0.103349 0.543526 0.590463
0.505348 0.536171 0.759945
0.849897 0.591455 0.826535
0.874342 0.595148 0.824033
0.874601 0.596551 0.824552
0.874022 0.594171 0.823346
0.17293 0.715816 0.64979
0.165301 0.700984 0.642664
0.156069 0.67866 0.634272
0.147936 0.659449 0.628763
0.356847 0.708064 0.722255
0.744976 0.776562 0.860563
0.898253 0.797559 0.878187
0.902937 0.793744 0.877562
0.901534 0.78793 0.875456
0.216678 0.793164 0.688701
0.216846 0.793088 0.689036
0.216846 0.793088 0.689036
0.208713 0.780545 0.681971
0.195499 0.763027 0.683574
0.663035 0.85507 0.841352
0.879759 0.902892 0.90634
0.921065 0.908583 0.911299
0.920455 0.905394 0.909972
0.216464 0.793271 0.688197
0.216846 0.793088 0.689036
0.216846 0.793088 0.689036
0.216846 0.793088 0.689036
0.234318 0.820096 0.707942
0.348333 0.84387 0.741375
0.863172 0.936477 0.906722
0.922789 0.949554 0.920607
0.928328 0.950256 0.921447
0.216663 0.793179 0.688624
0.216831 0.793088 0.689021
0.216846 0.793088 0.689036
0.216846 0.793088 0.689036
0.236316 0.819837 0.703487
0.254536 0.839246 0.713497
0.796017 0.934432 0.884565
0.921172 0.953811 0.921233
0.927199 0.954437 0.922683
0.0390021 0.0615854 0.379446
0.0423133 0.0632792 0.391989
0.13193 0.0611582 0.43209
0.371633 0.0844892 0.485618
0.590814 0.153246 0.538216
0.601877 0.157015 0.542092
0.601877 0.157015 0.542092
0.601907 0.157 0.542092
0.602075 0.156954 0.542168
0.0390021 0.0629892 0.369955
0.0390021 0.0616922 0.380713
0.1122 0.0616464 0.424842
0.36936 0.0840162 0.485176
0.594736 0.154803 0.539712
0.601877 0.157015 0.542092
0.601877 0.157015 0.542092
0.601877 0.157015 0.542092
0.601923 0.157 0.542107
0.0390021 0.108888 0.391638
0.0390021 0.0925307 0.382681
0.0390021 0.0630961 0.388388
0.325124 0.0760052 0.478676
0.582574 0.150622 0.535332
0.601877 0.157015 0.542092
0.601877 0.157015 0.542092
0.601877 0.157015 0.542092
0.601877 0.157015 0.542092
0.0390021 0.278935 0.459174
0.0390021 0.269688 0.455238
0.0390021 0.234409 0.440925
0.159335 0.13228 0.490517
0.583017 0.203281 0.605417
0.663813 0.211429 0.602564
0.674525 0.220951 0.613108
0.687617 0.232868 0.625345
0.695506 0.239918 0.632502
0.11603 0.579767 0.592615
0.114641 0.575586 0.59144
0.110994 0.565469 0.588449
0.102144 0.540917 0.589578
0.505364 0.531807 0.759457
0.848951 0.58732 0.82562
0.873991 0.5906 0.822873
0.874495 0.592035 0.82359
0.872648 0.589014 0.821439
0.173449 0.717891 0.650858
0.162982 0.696803 0.64062
0.15523 0.676814 0.633692
0.1467 0.657221 0.627787
0.358831 0.704509 0.721828
0.740887 0.769223 0.858976
0.896849 0.791257 0.876814
0.9019 0.786999 0.875364
0.900572 0.780819 0.873167
0.216693 0.793164 0.688716
0.216846 0.793088 0.689036
0.216846 0.793088 0.689036
0.204929 0.774929 0.67892
0.195727 0.759304 0.683742
0.664408 0.850477 0.841077
0.872465 0.894835 0.905425
0.918822 0.900679 0.910719
0.9187 0.897398 0.91014
0.216358 0.793317 0.687938
0.216831 0.793088 0.689021
0.216831 0.793088 0.689021
0.216831 0.793088 0.689021
0.232975 0.819242 0.709056
0.354803 0.833463 0.749584
0.829618 0.925475 0.89926
0.919402 0.944305 0.925261
0.928389 0.946426 0.924987
0.216617 0.793194 0.688533
0.216846 0.793088 0.689036
0.216846 0.793088 0.689036
0.216846 0.793088 0.689036
0.232563 0.818753 0.708507
0.239963 0.831357 0.719036
0.626734 0.905165 0.839414
0.916228 0.95378 0.927352
0.92752 0.954681 0.925704
