bundles/resolve-cinematic-luts/Phantom Luts/Komodo Phantom FILM LUTs G2/Komodo Phantom FILM LUTs G2/33x/Standard (No WB Offset)/EastmanRM_Komodo_G2_33x.cube
TITLE "Generated by Resolve"
LUT_3D_SIZE 5
0.0446021 0.0421149 0.0435492
0.182437 0.0312505 0.0438392
0.519097 0.0311894 0.0933547
0.552468 0.0395209 0.124239
0.532937 0.0433204 0.151125
0.0592966 0.190646 0.0558328
0.199451 0.215579 0.0606851
0.551766 0.0692454 0.0784466
0.529 0.0402533 0.089662
0.525124 0.04094 0.0923476
0.177172 0.638376 0.186114
0.234867 0.651652 0.171115
0.817121 0.84744 0.385779
0.899123 0.851225 0.453895
0.899413 0.858839 0.46154
0.234836 0.706676 0.329519
0.233692 0.704189 0.319142
0.783078 0.879805 0.448554
0.899245 0.909331 0.551385
0.898161 0.909682 0.555138
0.230457 0.708858 0.33991
0.2374 0.702968 0.312901
0.823362 0.892058 0.460243
0.901274 0.908644 0.543908
0.897795 0.909789 0.557443
0.0406806 0.0576944 0.109529
0.17847 0.0508736 0.139574
0.538247 0.047364 0.173495
0.581216 0.0690929 0.228519
0.576776 0.082475 0.264851
0.0544442 0.172229 0.136004
0.17818 0.198734 0.1823
0.534524 0.043061 0.136477
0.538888 0.0427253 0.146288
0.536492 0.0441444 0.154833
0.134539 0.656428 0.320485
0.148638 0.643656 0.234211
0.810162 0.838941 0.372595
0.898436 0.836454 0.441672
0.898665 0.843076 0.447196
0.237873 0.733974 0.432654
0.232685 0.708415 0.337331
0.747662 0.868788 0.427054
0.89984 0.909117 0.54963
0.898436 0.90959 0.554162
0.242313 0.744579 0.4701
0.2365 0.708125 0.335042
0.789929 0.880705 0.438727
0.901274 0.908644 0.543908
0.897642 0.909819 0.558175
0.0419928 0.0964065 0.345647
0.0979171 0.0740063 0.417227
0.572137 0.124224 0.50341
0.631571 0.15523 0.550011
0.625544 0.161242 0.568841
0.0422522 0.157687 0.376272
0.0425269 0.0888838 0.374334
0.588113 0.136309 0.525216
0.638086 0.155306 0.550774
0.630716 0.161379 0.568399
0.105165 0.636042 0.559182
0.100816 0.640208 0.570367
0.728603 0.751308 0.722469
0.883497 0.706905 0.703075
0.879438 0.717922 0.717739
0.249775 0.767391 0.624979
0.241596 0.768353 0.622065
0.338247 0.755383 0.456474
0.899458 0.908492 0.543252
0.899306 0.908949 0.547387
0.244251 0.769299 0.654902
0.242954 0.76907 0.639689
0.428336 0.77966 0.519234
0.89781 0.908629 0.544656
0.897337 0.909483 0.554238
0.0432136 0.0959029 0.407187
0.10396 0.0979782 0.467338
0.576394 0.153017 0.586801
0.631571 0.1729 0.606897
0.630823 0.173083 0.60737
0.0424964 0.153307 0.425406
0.0469368 0.0959487 0.419287
0.588327 0.158831 0.592981
0.632486 0.172671 0.606332
0.630625 0.173129 0.607492
0.0778821 0.58732 0.622263
0.0761883 0.586221 0.623667
0.555947 0.580774 0.78468
0.888716 0.651316 0.877958
0.887968 0.663066 0.878508
0.241535 0.762478 0.703883
0.238453 0.763119 0.705959
0.262577 0.77525 0.710216
0.901015 0.940948 0.904799
0.907546 0.943069 0.90724
0.24123 0.762539 0.704143
0.238453 0.763119 0.705959
0.273121 0.781491 0.710536
0.903502 0.949599 0.909499
0.916762 0.956146 0.919264
0.0476692 0.0959029 0.419669
0.115068 0.0879225 0.478798
0.591241 0.159213 0.59292
0.631571 0.1729 0.606897
0.630854 0.173083 0.60734
0.0424659 0.143526 0.41738
0.0518044 0.0961013 0.42742
0.598032 0.162524 0.596963
0.632502 0.172671 0.606317
0.630625 0.173129 0.607492
0.0770733 0.584421 0.621561
0.0747845 0.583307 0.622568
0.557549 0.572152 0.785031
0.889265 0.645258 0.877455
0.887877 0.658473 0.87837
0.241443 0.762493 0.70396
0.238453 0.763119 0.705959
0.231327 0.758724 0.705806
0.896117 0.933333 0.906569
0.907362 0.939269 0.910918
0.241123 0.762554 0.704219
0.238453 0.763119 0.705959
0.262791 0.779828 0.719234
0.878996 0.941253 0.905333
0.918639 0.957748 0.923781
