bundles/resolve-cinematic-luts/Phantom Luts/Komodo Phantom FILM LUTs G2/Komodo Phantom FILM LUTs G2/33x/Standard (No WB Offset)/VisionTeal_Komodo_G2_33x.cube
TITLE "Generated by Resolve"
LUT_3D_SIZE 9
0.0221408 0.0355993 0.0336461
0.0471046 0.033341 0.0332647
0.200458 0.0216831 0.0194095
0.427802 0.0120546 0.0250553
0.637675 0.0246891 0.0784924
0.645258 0.0276493 0.100252
0.635508 0.0241855 0.0733043
0.631159 0.0230411 0.0530709
0.652399 0.0250401 0.0620279
0.0209354 0.0639353 0.0328527
0.0386358 0.0573587 0.0373541
0.203021 0.0383154 0.0248875
0.440757 0.0184634 0.0268101
0.633951 0.0230106 0.0537728
0.634318 0.0230411 0.0538796
0.643183 0.0238804 0.0550698
0.657862 0.0289616 0.0571908
0.682704 0.0418708 0.0626993
0.024506 0.221546 0.0441138
0.0219425 0.214649 0.0377356
0.198001 0.223407 0.0374762
0.530678 0.204593 0.0878767
0.695888 0.0743267 0.059266
0.687099 0.0514992 0.0630045
0.704005 0.0712291 0.0628061
0.748928 0.145388 0.0834211
0.78143 0.290272 0.129763
0.111254 0.51577 0.147417
0.107744 0.511193 0.12137
0.139956 0.500389 0.112444
0.485634 0.504723 0.109636
0.76202 0.590967 0.170916
0.790051 0.591073 0.180926
0.789746 0.590433 0.182666
0.789868 0.608408 0.166369
0.791302 0.642176 0.150637
0.258259 0.775143 0.297032
0.259922 0.777737 0.270436
0.2869 0.779065 0.252003
0.508782 0.713008 0.253742
0.755856 0.782254 0.279026
0.813413 0.790387 0.311498
0.813413 0.79234 0.314412
0.812772 0.793744 0.316365
0.813077 0.78764 0.30605
0.264317 0.828946 0.409155
0.263416 0.829282 0.406378
0.263951 0.828077 0.396902
0.323293 0.792309 0.268666
0.727184 0.79115 0.327977
0.812924 0.81706 0.382971
0.812833 0.816938 0.388327
0.812772 0.816968 0.388266
0.812848 0.816953 0.388312
0.263447 0.829938 0.41149
0.264164 0.828885 0.407477
0.264851 0.827497 0.396414
0.296269 0.799573 0.280903
0.712764 0.78677 0.323491
0.811307 0.81677 0.377722
0.813199 0.816983 0.388174
0.812985 0.817014 0.388113
0.812741 0.816968 0.388266
0.262379 0.831434 0.413764
0.264973 0.828305 0.407477
0.267979 0.824842 0.394324
0.279347 0.80531 0.304021
0.699718 0.782483 0.320027
0.807477 0.815854 0.372152
0.81326 0.816983 0.388159
0.813169 0.817029 0.388022
0.81268 0.81706 0.387991
0.261814 0.832212 0.414679
0.262562 0.830442 0.410574
0.265538 0.827237 0.399512
0.267735 0.822995 0.38674
0.624796 0.765637 0.308431
0.790097 0.812879 0.358343
0.81326 0.817014 0.387976
0.813062 0.817014 0.388128
0.812543 0.81706 0.388022
0.022034 0.0402075 0.0638285
0.0557717 0.0332647 0.072694
0.232593 0.0246128 0.0690166
0.475059 0.0219883 0.0906081
0.657237 0.03299 0.169192
0.660197 0.0347601 0.183001
0.656489 0.0326543 0.166186
0.640742 0.0261692 0.0923476
0.646204 0.0242771 0.06421
0.0214542 0.0556954 0.0491646
0.0303044 0.0510567 0.0488136
0.205478 0.019852 0.0258793
0.432944 0.0122683 0.0334173
0.630488 0.0231174 0.0695964
0.631937 0.0231632 0.067689
0.635584 0.0229953 0.0594339
0.652476 0.0250706 0.0614176
0.680522 0.0380713 0.0616464
0.0187076 0.221607 0.063798
0.0192874 0.208911 0.0467536
0.186267 0.214405 0.0383917
0.526635 0.178393 0.0824598
0.683619 0.0549477 0.0604562
0.677363 0.0385901 0.0614633
0.698985 0.0620127 0.0633402
0.748516 0.137316 0.0791791
0.783246 0.300587 0.135256
0.104601 0.519554 0.186679
0.104479 0.51191 0.152712
0.119081 0.495949 0.110399
0.48072 0.499901 0.108431
0.762219 0.584024 0.173266
0.790707 0.580438 0.187289
0.790524 0.578454 0.189593
0.790585 0.611963 0.163088
0.791455 0.646998 0.147646
0.246891 0.775631 0.332387
0.249485 0.773632 0.30457
0.287526 0.77586 0.249668
0.490562 0.710567 0.247608
0.75346 0.781094 0.275608
0.812924 0.788479 0.30753
0.812863 0.789609 0.309682
0.813199 0.790829 0.311711
0.813291 0.785077 0.301976
0.263478 0.830137 0.413596
0.262806 0.830304 0.410574
0.263462 0.828458 0.399649
0.294362 0.800549 0.28072
0.721889 0.789151 0.326711
0.812909 0.81706 0.382559
0.812787 0.816953 0.388296
0.812711 0.816968 0.388251
0.812741 0.816968 0.388281
0.262791 0.832013 0.417014
0.263371 0.830106 0.412299
0.26424 0.827939 0.399924
0.277211 0.808896 0.311208
0.70518 0.784253 0.321309
0.810269 0.816632 0.376104
0.81323 0.817014 0.388098
0.813016 0.817029 0.388083
0.812696 0.816968 0.388251
0.262196 0.833021 0.418601
0.263386 0.830213 0.413245
0.267613 0.825879 0.398001
0.269856 0.812711 0.335607
0.691234 0.779995 0.318105
0.805676 0.815747 0.370153
0.81326 0.816983 0.388159
0.813169 0.817029 0.388022
0.812665 0.81706 0.387991
0.261585 0.833432 0.418494
0.262608 0.831266 0.41413
0.265003 0.827527 0.401755
0.267811 0.824353 0.391669
0.616495 0.764721 0.308553
0.78938 0.813199 0.355993
0.81326 0.817014 0.387762
0.813062 0.816999 0.388144
0.812528 0.81706 0.388022
0.0199283 0.063798 0.211994
0.0428473 0.0526131 0.234134
0.236805 0.0270848 0.228428
0.484672 0.0443732 0.266133
0.677272 0.0618143 0.335821
0.674632 0.0546578 0.319554
0.672969 0.050721 0.305974
0.67248 0.0467079 0.282689
0.668559 0.0401312 0.23592
0.0203098 0.0751049 0.176287
0.0202182 0.0581521 0.208942
0.217121 0.0271916 0.215366
0.480888 0.049134 0.24126
0.673732 0.0502632 0.303487
0.673259 0.0484627 0.293187
0.672587 0.0458381 0.274098
0.668299 0.0400854 0.233341
0.643015 0.0254368 0.0872206
0.0189822 0.192554 0.145586
0.0193027 0.188251 0.144121
0.196765 0.218769 0.202106
0.529717 0.104295 0.139696
0.647166 0.0260929 0.0814374
0.645197 0.0247349 0.0683146
0.654887 0.0257725 0.060502
0.701183 0.0670024 0.0692912
0.775174 0.235599 0.112398
0.0695506 0.523171 0.273762
0.0650034 0.519905 0.256138
0.0903029 0.490593 0.16553
0.465263 0.484611 0.103075
0.764248 0.557336 0.190814
0.791653 0.536614 0.198535
0.791913 0.555123 0.19736
0.789044 0.596368 0.178363
0.790799 0.638209 0.151431
0.174945 0.795941 0.431083
0.185611 0.789517 0.411856
0.233234 0.760159 0.319234
0.424903 0.706722 0.230274
0.746715 0.773739 0.268055
0.813489 0.782254 0.296651
0.813489 0.782208 0.296559
0.813474 0.782834 0.297673
0.813443 0.782071 0.29633
0.229206 0.85182 0.473045
0.254047 0.84213 0.451911
0.262211 0.831617 0.413657
0.265232 0.820523 0.359854
0.706676 0.78471 0.322225
0.81294 0.817029 0.381186
0.812772 0.816938 0.388373
0.812696 0.816968 0.388266
0.812711 0.816968 0.388296
0.231785 0.860197 0.509209
0.228183 0.853483 0.478691
0.262699 0.831556 0.415473
0.265583 0.824353 0.384482
0.685267 0.779202 0.31725
0.805982 0.815839 0.370748
0.81326 0.817029 0.388052
0.813046 0.817029 0.388037
0.812802 0.816999 0.388159
0.231556 0.862074 0.516884
0.227878 0.854612 0.484718
0.263447 0.830549 0.415732
0.268009 0.824445 0.392966
0.667048 0.774487 0.313115
0.801328 0.814771 0.366064
0.813275 0.816983 0.388174
0.813169 0.817029 0.388022
0.81265 0.81706 0.387991
0.227451 0.854673 0.483482
0.249836 0.845945 0.461036
0.262943 0.831128 0.415488
0.26775 0.824857 0.393515
0.590723 0.760632 0.306996
0.787045 0.814191 0.34844
0.813275 0.817044 0.386908
0.813062 0.816999 0.388128
0.812497 0.81706 0.388022
0.0193179 0.103471 0.413489
0.0213321 0.0877546 0.426795
0.191699 0.0412299 0.446479
0.504097 0.0510567 0.494301
0.6907 0.0600748 0.566476
0.691371 0.0608072 0.568063
0.676997 0.0452735 0.51606
0.675761 0.0479591 0.476814
0.690532 0.0798657 0.439338
0.0192416 0.129686 0.402457
0.0192569 0.099382 0.413031
0.151461 0.0434577 0.445731
0.495003 0.0489204 0.48513
0.687984 0.0555276 0.552331
0.68394 0.0516976 0.539773
0.675517 0.046067 0.49044
0.678416 0.0531777 0.467231
0.692805 0.0881666 0.423682
0.0189975 0.186496 0.338277
0.0191958 0.178698 0.345815
0.0264439 0.104402 0.426551
0.457938 0.0432441 0.447669
0.673289 0.0459297 0.497139
0.674952 0.0503243 0.469932
0.684993 0.0712902 0.446983
0.69163 0.0919966 0.411124
0.675349 0.0553445 0.322118
0.0348669 0.489937 0.422171
0.0314641 0.486275 0.420584
0.0299992 0.473075 0.408026
0.509102 0.50425 0.473594
0.787396 0.439078 0.437858
0.798352 0.364187 0.360922
0.794339 0.36434 0.304814
0.793423 0.432883 0.288106
0.793896 0.55288 0.247593
0.132509 0.798932 0.569711
0.133074 0.796674 0.563195
0.148302 0.783719 0.534234
0.187152 0.737957 0.371649
0.693233 0.723995 0.275883
0.812284 0.761868 0.269703
0.813001 0.758709 0.2654
0.813245 0.760189 0.266453
0.813581 0.765942 0.274037
0.220859 0.876768 0.609308
0.219226 0.87718 0.604715
0.231144 0.870298 0.579522
0.26154 0.833799 0.419974
0.65008 0.771878 0.312566
0.807538 0.815808 0.373968
0.812955 0.816846 0.390097
0.812879 0.816892 0.390265
0.812619 0.816892 0.388663
0.21326 0.883772 0.630564
0.214145 0.881346 0.620722
0.225177 0.873625 0.5906
0.261387 0.83592 0.429191
0.611872 0.764263 0.309514
0.792691 0.813184 0.360967
0.812528 0.8168 0.388815
0.81268 0.816922 0.388434
0.812833 0.816999 0.388144
0.212055 0.884978 0.634119
0.213626 0.881941 0.622415
0.225162 0.873457 0.590463
0.261997 0.836118 0.432364
0.585672 0.759854 0.309499
0.787259 0.814008 0.352041
0.812055 0.816587 0.387594
0.812436 0.8168 0.3888
0.812558 0.817029 0.388128
0.218265 0.877867 0.606134
0.222904 0.874983 0.594491
0.23743 0.867994 0.569848
0.262745 0.832898 0.422034
0.478279 0.762448 0.287587
0.772396 0.810513 0.336965
0.812528 0.816846 0.384527
0.812619 0.816861 0.388632
0.812543 0.817029 0.388144
0.0193332 0.148653 0.595438
0.0194553 0.129854 0.597711
0.180575 0.116258 0.634256
0.49749 0.09337 0.682277
0.739666 0.113497 0.767163
0.738079 0.115663 0.777234
0.737102 0.11812 0.783734
0.737865 0.115267 0.775189
0.736233 0.103914 0.725383
0.0194705 0.177264 0.601907
0.0193027 0.144335 0.594339
0.143435 0.126589 0.629953
0.483925 0.0891127 0.6766
0.739895 0.112978 0.764874
0.738354 0.114961 0.774212
0.737835 0.11664 0.781216
0.738964 0.114137 0.768017
0.729854 0.101381 0.707668
0.0193027 0.256031 0.611414
0.0192416 0.246036 0.617212
0.0192264 0.127581 0.586053
0.421393 0.0717784 0.648417
0.733608 0.109667 0.749798
0.739437 0.112642 0.761059
0.739605 0.112871 0.762158
0.739269 0.109178 0.741268
0.718166 0.098085 0.673152
0.0204623 0.496788 0.611383
0.0203403 0.490822 0.61239
0.0204471 0.464912 0.616861
0.327245 0.347707 0.724849
0.751492 0.286198 0.744442
0.762402 0.19292 0.731548
0.743191 0.152819 0.693355
0.728756 0.117433 0.648997
0.712245 0.0908064 0.56582
0.0821241 0.763455 0.691356
0.0802625 0.761395 0.689494
0.0802625 0.753506 0.682292
0.0806897 0.733989 0.663676
0.742977 0.744549 0.718502
0.877165 0.724605 0.704433
0.871183 0.720958 0.685557
0.864424 0.728481 0.659052
0.850904 0.733379 0.592721
0.127398 0.92134 0.757366
0.125963 0.921996 0.753445
0.128191 0.920211 0.73962
0.152392 0.90518 0.697551
0.5178 0.82948 0.584985
0.82182 0.845563 0.615778
0.841581 0.840223 0.579278
0.84445 0.839582 0.584833
0.824125 0.821057 0.48249
0.125216 0.923278 0.774289
0.123919 0.923339 0.766857
0.126329 0.921538 0.749859
0.158495 0.907835 0.697719
0.295171 0.849699 0.518288
0.77995 0.813703 0.34023
0.812787 0.816983 0.383093
0.812741 0.816922 0.386038
0.812482 0.816785 0.38677
0.124117 0.924147 0.776715
0.124163 0.923278 0.76672
0.126467 0.921355 0.748623
0.161624 0.906737 0.694865
0.248432 0.860487 0.524559
0.765286 0.807782 0.333806
0.81297 0.817075 0.379034
0.812802 0.81706 0.385779
0.812848 0.817075 0.385885
0.127306 0.920913 0.745556
0.131075 0.918715 0.734813
0.144411 0.913588 0.716655
0.184833 0.897246 0.667979
0.23032 0.860121 0.505241
0.732341 0.793378 0.3299
0.808545 0.816449 0.373449
0.812467 0.81706 0.385946
0.812573 0.81709 0.386175
0.0194553 0.141573 0.630686
0.0330053 0.140108 0.640879
0.202747 0.120302 0.672251
0.499046 0.0922408 0.713741
0.738293 0.118196 0.785611
0.738262 0.118196 0.785565
0.738262 0.118196 0.785565
0.738308 0.118181 0.785626
0.738308 0.118181 0.785611
0.0193637 0.154253 0.626947
0.0194553 0.141192 0.631251
0.171466 0.137514 0.670665
0.482216 0.0871138 0.708278
0.738338 0.118166 0.785672
0.738277 0.118196 0.785595
0.738216 0.118212 0.785534
0.738247 0.118212 0.78555
0.738354 0.118166 0.785626
0.0196078 0.257679 0.665797
0.0194705 0.239063 0.662486
0.0195468 0.139666 0.634363
0.407416 0.0723278 0.689113
0.735073 0.117418 0.783993
0.738354 0.118166 0.785672
0.738354 0.118166 0.785702
0.738338 0.118166 0.785672
0.738354 0.118166 0.785702
0.0202335 0.443595 0.697841
0.0203555 0.435096 0.697261
0.0200656 0.404425 0.692103
0.19646 0.227802 0.725933
0.682216 0.169696 0.779629
0.739284 0.120195 0.786236
0.739025 0.120165 0.785992
0.740734 0.122789 0.787549
0.738827 0.119005 0.786023
0.0210117 0.732891 0.759152
0.0212406 0.730327 0.757565
0.0211185 0.721553 0.75494
0.021149 0.701656 0.760601
0.643992 0.636103 0.862928
0.871656 0.64213 0.865187
0.86923 0.634592 0.861311
0.86807 0.62829 0.85272
0.859556 0.583841 0.829435
0.147372 0.914733 0.84387
0.143297 0.912413 0.842252
0.137072 0.903822 0.834546
0.12166 0.869581 0.80444
0.33077 0.854444 0.803021
0.86125 0.872862 0.850294
0.912444 0.865782 0.84535
0.906935 0.855879 0.833539
0.882521 0.835798 0.793957
0.160342 0.925338 0.856977
0.156085 0.926863 0.853468
0.149584 0.927718 0.845457
0.132448 0.928908 0.824979
0.126864 0.934874 0.790616
0.794461 0.900145 0.800793
0.906737 0.924254 0.828534
0.913725 0.923186 0.827512
0.911696 0.917876 0.819257
0.15938 0.925124 0.858747
0.157214 0.926619 0.85449
0.149233 0.927779 0.845167
0.130266 0.929 0.822126
0.126726 0.93164 0.779599
0.745495 0.886305 0.767865
0.865141 0.894102 0.753155
0.812558 0.81709 0.383017
0.812436 0.816999 0.383902
0.149859 0.926833 0.844083
0.14432 0.928115 0.838788
0.136309 0.928954 0.829938
0.120607 0.93019 0.808637
0.126864 0.922866 0.750088
0.663828 0.868345 0.711238
0.836912 0.873579 0.697704
0.813703 0.817609 0.402106
0.812863 0.817121 0.383566
0.0209506 0.13962 0.635599
0.0566873 0.139025 0.646494
0.21004 0.0991684 0.670863
0.517021 0.0977798 0.718685
0.738354 0.118166 0.785672
0.738323 0.118181 0.785641
0.738308 0.118181 0.785626
0.738247 0.118212 0.785534
0.738277 0.118196 0.785428
0.0193179 0.143328 0.628382
0.0234531 0.13991 0.63682
0.19733 0.131975 0.672343
0.498894 0.0921798 0.713619
0.738369 0.118181 0.785702
0.738369 0.118181 0.785702
0.738369 0.118181 0.785702
0.738369 0.118181 0.785702
0.738354 0.118166 0.785702
0.0192874 0.251911 0.664973
0.0194553 0.218601 0.653758
0.0339971 0.140246 0.64152
0.422797 0.0738384 0.692058
0.737697 0.118029 0.785336
0.738293 0.118196 0.785611
0.738293 0.118196 0.785611
0.738323 0.118181 0.785657
0.738354 0.118166 0.785672
0.0200809 0.418494 0.694347
0.0201724 0.407645 0.692851
0.0200656 0.375494 0.687236
0.167788 0.186282 0.701762
0.667643 0.138399 0.76704
0.73904 0.119448 0.78616
0.738949 0.119402 0.786053
0.739132 0.119615 0.786206
0.738918 0.119112 0.786099
0.0213474 0.728481 0.770779
0.0211185 0.7252 0.770169
0.02121 0.717433 0.768261
0.0209659 0.689113 0.763302
0.631083 0.604212 0.86215
0.85948 0.607462 0.867308
0.855955 0.598215 0.86421
0.855085 0.594888 0.863645
0.846586 0.561059 0.857038
0.125032 0.904784 0.860609
0.121767 0.900221 0.859159
0.109682 0.883375 0.851621
0.0719005 0.831312 0.823117
0.114168 0.839002 0.842649
0.822736 0.828214 0.898726
0.90927 0.829602 0.901579
0.908385 0.825254 0.899748
0.905226 0.809491 0.891325
0.147433 0.926131 0.864561
0.145357 0.927184 0.865202
0.145357 0.927184 0.865202
0.145357 0.927184 0.865202
0.164843 0.934325 0.858946
0.727214 0.899351 0.85774
0.916579 0.929564 0.908415
0.93048 0.927825 0.905165
0.9252 0.919402 0.894499
0.148302 0.925719 0.864759
0.14548 0.927108 0.865171
0.145357 0.927184 0.865202
0.145357 0.927184 0.865202
0.155535 0.933242 0.849271
0.281621 0.926009 0.830259
0.900664 0.939391 0.896239
0.935561 0.945953 0.90164
0.936141 0.945861 0.900511
0.145449 0.927123 0.865171
0.145373 0.927169 0.865202
0.145357 0.927184 0.865202
0.148135 0.926848 0.86389
0.14255 0.929595 0.83711
0.164462 0.949203 0.828824
0.873671 0.932189 0.875349
0.925765 0.941085 0.886183
0.929656 0.939559 0.87512
0.0279088 0.13991 0.638483
0.0686198 0.13991 0.650599
0.21239 0.0869306 0.669154
0.526879 0.101427 0.72314
0.738354 0.118166 0.785672
0.738338 0.118166 0.785657
0.738338 0.118166 0.785672
0.738277 0.118196 0.785595
0.738308 0.118181 0.785626
0.01944 0.142382 0.62977
0.0300145 0.140017 0.639597
0.201358 0.123598 0.67248
0.5084 0.0955062 0.717083
0.738354 0.118166 0.785702
0.738354 0.118166 0.785702
0.738354 0.118166 0.785702
0.738369 0.118181 0.785702
0.738338 0.118181 0.785657
0.0195621 0.249546 0.664836
0.0193484 0.210864 0.649271
0.0412604 0.140017 0.643885
0.430945 0.0754101 0.693919
0.738354 0.118166 0.785702
0.738293 0.118181 0.785611
0.738293 0.118181 0.785611
0.738293 0.118196 0.785611
0.738338 0.118166 0.785672
0.0201724 0.411017 0.693599
0.020264 0.400183 0.691569
0.0197604 0.364828 0.684367
0.160525 0.174517 0.694179
0.668818 0.135058 0.766644
0.738781 0.119036 0.785977
0.738888 0.119173 0.786053
0.738994 0.119356 0.786099
0.73872 0.118853 0.785931
0.0213474 0.726604 0.770489
0.0209812 0.723568 0.770092
0.0211185 0.715358 0.767727
0.0210574 0.685328 0.762615
0.629831 0.59469 0.860395
0.85684 0.598276 0.865187
0.852796 0.58819 0.862028
0.853071 0.583703 0.861875
0.844633 0.554467 0.855512
0.123812 0.902358 0.859907
0.119554 0.897337 0.857694
0.103273 0.874464 0.84654
0.0584726 0.825925 0.820737
0.114977 0.830579 0.838178
0.819516 0.819516 0.898741
0.906767 0.82092 0.900099
0.905287 0.814893 0.89926
0.902174 0.800275 0.897185
0.146899 0.92639 0.864927
0.145357 0.927184 0.865202
0.145357 0.927184 0.865202
0.145357 0.927184 0.865202
0.142306 0.929946 0.86807
0.662867 0.881514 0.862974
0.904128 0.91603 0.91368
0.929366 0.917967 0.917937
0.927657 0.912093 0.917311
0.146258 0.926696 0.864988
0.145388 0.927169 0.865187
0.145357 0.927184 0.865202
0.145357 0.927184 0.865202
0.15079 0.933349 0.867323
0.164767 0.948287 0.870527
0.86334 0.934783 0.908064
0.935988 0.946639 0.929824
0.937575 0.945449 0.929458
0.148592 0.925505 0.86421
0.14551 0.927092 0.865141
0.145357 0.927184 0.865202
0.145357 0.927184 0.865202
0.146593 0.928374 0.865568
0.177935 0.944335 0.862486
0.772885 0.92166 0.874907
0.932937 0.949157 0.926253
0.941878 0.951568 0.927474
0.0300298 0.140002 0.639582
0.0724804 0.140475 0.652049
0.212757 0.0864118 0.669261
0.52488 0.100801 0.722423
0.738354 0.118166 0.785672
0.738338 0.118166 0.785672
0.738338 0.118166 0.785672
0.738293 0.118181 0.785611
0.738308 0.118181 0.785626
0.01944 0.141726 0.630274
0.0331731 0.140124 0.641001
0.201724 0.123201 0.672541
0.506752 0.0949874 0.716777
0.738354 0.118166 0.785702
0.738354 0.118166 0.785687
0.738354 0.118166 0.785687
0.738354 0.118166 0.785687
0.738323 0.118181 0.78555
0.0195621 0.245319 0.664347
0.019501 0.205829 0.64654
0.0443122 0.139712 0.644312
0.429862 0.0753185 0.693767
0.738354 0.118166 0.785702
0.738293 0.118181 0.785611
0.738293 0.118196 0.785611
0.738308 0.118181 0.785626
0.738338 0.118166 0.785657
0.020264 0.402579 0.691554
0.0203555 0.390997 0.690196
0.019852 0.356771 0.683391
0.152728 0.167575 0.689204
0.666468 0.133455 0.765438
0.738628 0.118822 0.785855
0.738735 0.118975 0.785931
0.738842 0.119097 0.786023
0.738598 0.118685 0.785855
0.0209812 0.7234 0.769985
0.0212253 0.719997 0.768887
0.0211032 0.711727 0.767178
0.021088 0.679759 0.761227
0.623377 0.585214 0.858442
0.853452 0.586969 0.862989
0.850401 0.576211 0.8598
0.848554 0.56997 0.858473
0.840726 0.540627 0.85185
0.121233 0.898863 0.858991
0.116472 0.891859 0.85568
0.096849 0.865003 0.842023
0.0544747 0.821607 0.819364
0.0953384 0.827802 0.836728
0.815213 0.812451 0.898848
0.904936 0.813626 0.898848
0.903517 0.806867 0.897734
0.900191 0.792752 0.89633
0.146517 0.926574 0.864973
0.145357 0.927184 0.865202
0.145357 0.927184 0.865202
0.145357 0.927184 0.865202
0.137224 0.925353 0.868269
0.662547 0.878096 0.863401
0.901122 0.911315 0.912566
0.928008 0.913497 0.917189
0.925628 0.906493 0.916365
0.146151 0.926757 0.865019
0.145373 0.927169 0.865202
0.145357 0.927184 0.865202
0.145357 0.927184 0.865202
0.150088 0.932677 0.867048
0.162097 0.948165 0.871107
0.846464 0.928176 0.904265
0.93315 0.94403 0.930617
0.937102 0.94342 0.9308
0.148775 0.925399 0.864118
0.14551 0.927092 0.865141
0.145357 0.927184 0.865202
0.145357 0.927184 0.865202
0.146441 0.928267 0.865507
0.165194 0.949752 0.871748
0.620691 0.906401 0.859434
0.924651 0.947982 0.929763
0.943633 0.952407 0.935042
