bundles/resolve-cinematic-luts/Phantom Luts/Komodo Phantom FILM LUTs G2/Komodo Phantom FILM LUTs G2/33x/Standard (No WB Offset)/VisionTeal_Komodo_Legacy_G2_33x.cube
TITLE "Generated by Resolve"
LUT_3D_SIZE 5
0.0293584 0.0500191 0.0484016
0.162173 0.0331884 0.0355535
0.613642 0.0508736 0.0631723
0.612406 0.0527504 0.0623484
0.632029 0.0630961 0.0657054
0.0324407 0.177325 0.0504158
0.148165 0.178302 0.0499123
0.673548 0.092256 0.0627909
0.68513 0.0944381 0.067155
0.76408 0.251316 0.11249
0.240223 0.757855 0.271916
0.265812 0.769741 0.242374
0.740932 0.776638 0.247333
0.814755 0.787549 0.291676
0.814404 0.781064 0.283543
0.258869 0.820218 0.375143
0.259342 0.817365 0.361013
0.689662 0.781857 0.29723
0.816449 0.819883 0.359426
0.816114 0.819898 0.359426
0.256672 0.821881 0.377707
0.260365 0.81706 0.363561
0.59234 0.757763 0.291905
0.816434 0.819898 0.35938
0.815778 0.819959 0.359335
0.0202029 0.0682383 0.165499
0.193042 0.0413672 0.186603
0.659098 0.0643778 0.265599
0.654063 0.0555428 0.237842
0.641825 0.0437934 0.172351
0.019379 0.151858 0.121386
0.142565 0.168307 0.154772
0.62298 0.0512551 0.065919
0.63566 0.0659648 0.0663767
0.755367 0.206058 0.101045
0.187213 0.754482 0.377462
0.214542 0.731197 0.282734
0.727749 0.763973 0.235355
0.814649 0.773098 0.275105
0.814588 0.772961 0.274907
0.232807 0.844602 0.460594
0.258198 0.821088 0.378027
0.654627 0.772107 0.294865
0.816434 0.819883 0.359426
0.816114 0.819913 0.35938
0.24741 0.8383 0.442084
0.258762 0.820706 0.377951
0.556939 0.7523 0.291707
0.816419 0.819913 0.358694
0.815747 0.819959 0.359335
0.0194553 0.146487 0.557382
0.123247 0.131792 0.592157
0.722103 0.11725 0.737408
0.719127 0.120806 0.760723
0.72047 0.119265 0.685954
0.0194553 0.213352 0.564279
0.0193179 0.130816 0.542443
0.716655 0.113527 0.717021
0.722347 0.116457 0.731624
0.710552 0.111437 0.636774
0.0860304 0.70695 0.634195
0.0829023 0.69604 0.624994
0.69984 0.697597 0.669474
0.855817 0.672541 0.635721
0.836728 0.686763 0.542489
0.146914 0.909743 0.738369
0.159594 0.905516 0.708431
0.279866 0.837385 0.473381
0.815778 0.819852 0.355322
0.815869 0.819654 0.358526
0.163577 0.903685 0.70312
0.185229 0.895262 0.670939
0.237675 0.843565 0.458717
0.8112 0.819562 0.34757
0.815686 0.819959 0.358328
0.0194705 0.140856 0.592004
0.164935 0.140566 0.63798
0.72018 0.120546 0.76289
0.720119 0.120562 0.762844
0.720073 0.120592 0.762768
0.0195468 0.218662 0.627039
0.0195621 0.141176 0.596246
0.719326 0.1205 0.762737
0.720073 0.120577 0.762829
0.72018 0.120546 0.762875
0.0210269 0.667247 0.732815
0.0209506 0.653315 0.730205
0.567712 0.549096 0.834028
0.834989 0.542 0.843229
0.822858 0.502693 0.833677
0.165957 0.912261 0.857771
0.164279 0.912993 0.858534
0.17734 0.92697 0.851759
0.915587 0.928359 0.906859
0.925566 0.916732 0.891356
0.164309 0.912963 0.858534
0.164279 0.912993 0.858534
0.152117 0.919097 0.82208
0.856992 0.929564 0.861677
0.921996 0.93312 0.862409
0.0194705 0.140536 0.594614
0.177554 0.138613 0.638758
0.72018 0.120546 0.76289
0.72015 0.120562 0.762875
0.720165 0.120546 0.76289
0.0193637 0.214191 0.626001
0.0268864 0.142229 0.59942
0.720195 0.120546 0.762921
0.720104 0.120577 0.762844
0.720165 0.120546 0.762905
0.0208286 0.660807 0.731441
0.0210574 0.646464 0.729503
0.558511 0.529534 0.828992
0.827207 0.517983 0.836713
0.815595 0.480125 0.827619
0.164858 0.912718 0.858503
0.164279 0.912993 0.858534
0.155688 0.910277 0.86128
0.895827 0.905241 0.913878
0.926619 0.898466 0.917571
0.167208 0.911711 0.857023
0.164279 0.912993 0.858534
0.164614 0.914748 0.858671
0.574151 0.906126 0.85658
0.934905 0.946105 0.928756
