bundles/resolve-cinematic-luts/Phantom Luts/Komodo Phantom FILM LUTs G2/Komodo Phantom FILM LUTs G2/33x/Standard (No WB Offset)/VisionTeal_Komodo_Legacy_G2_33x.cube
TITLE "Generated by Resolve"
LUT_3D_SIZE 33
0.0293584 0.0500191 0.0484016
0.0293584 0.0500191 0.0484169
0.0295567 0.0499733 0.0483711
0.0360723 0.0495613 0.0485389
0.0474403 0.0479744 0.0475776
0.0627604 0.0456397 0.0453498
0.0889601 0.0416876 0.0424353
0.120607 0.0372015 0.0392462
0.162173 0.0331884 0.0355535
0.20943 0.03122 0.0320134
0.263188 0.03093 0.0311589
0.321736 0.0314488 0.031632
0.385473 0.0302892 0.0318456
0.450248 0.0269169 0.0344244
0.5131 0.0285039 0.0409705
0.575372 0.0424353 0.0534981
0.613642 0.0508736 0.0631723
0.616007 0.0457923 0.0642863
0.617258 0.0416724 0.0649119
0.618357 0.0395819 0.0657511
0.618448 0.039292 0.0659495
0.61767 0.0406653 0.0652171
0.615549 0.0429541 0.0644846
0.615228 0.0489357 0.0639506
0.612406 0.0527504 0.0623484
0.608637 0.0564431 0.060441
0.606592 0.0581674 0.0592508
0.605783 0.0599527 0.058793
0.609216 0.0607462 0.059678
0.614527 0.0614176 0.0612802
0.619821 0.0616464 0.06215
0.625772 0.0619211 0.0640726
0.632029 0.0630961 0.0657054
0.0297093 0.0499123 0.0482643
0.0294652 0.0499886 0.0483711
0.0295415 0.0499428 0.0483558
0.0368658 0.0496834 0.0486305
0.0480049 0.0482643 0.0477913
0.0642405 0.0459602 0.045655
0.0908522 0.0419928 0.0428016
0.123842 0.0375067 0.0396735
0.167407 0.0337072 0.0356298
0.215579 0.0325475 0.0326085
0.269108 0.0331426 0.0321202
0.326787 0.0320134 0.0318151
0.38883 0.0309148 0.0318608
0.449332 0.0288243 0.0327459
0.513863 0.0355077 0.0412757
0.573709 0.0470741 0.0529488
0.607065 0.0546578 0.0606394
0.610544 0.0529793 0.0619364
0.612543 0.0514076 0.0630503
0.613184 0.0502632 0.0634012
0.613397 0.0509041 0.0633402
0.611917 0.0513619 0.0627604
0.609964 0.0536355 0.0616617
0.606912 0.0560464 0.0602884
0.604837 0.057847 0.059266
0.605798 0.058732 0.0591287
0.60647 0.0603342 0.0589761
0.611551 0.0612802 0.0606394
0.616632 0.0621653 0.0614786
0.621424 0.0630198 0.0624247
0.626749 0.0635691 0.0640574
0.631861 0.0641794 0.0651408
0.638621 0.0658579 0.066804
0.0296788 0.0499886 0.0482948
0.0294347 0.0500496 0.0483864
0.0294499 0.0500038 0.0483864
0.0328527 0.0497139 0.0478523
0.0459907 0.0490883 0.048127
0.0620737 0.0469673 0.0459602
0.0890516 0.0437934 0.0438392
0.12285 0.0389105 0.0398566
0.167971 0.0352331 0.0362554
0.216709 0.034699 0.0333715
0.271397 0.0353857 0.0327306
0.32932 0.0334325 0.0323949
0.391852 0.0326543 0.0324865
0.453239 0.0309606 0.0339208
0.515084 0.0395819 0.0418555
0.571649 0.0505989 0.0520485
0.601465 0.057145 0.0585641
0.603128 0.0564279 0.0590372
0.605035 0.0561532 0.0598306
0.605219 0.0561685 0.0599069
0.605264 0.0564126 0.0598611
0.604898 0.0568399 0.0595254
0.602136 0.058381 0.0584878
0.604868 0.0585489 0.0588998
0.606607 0.0595407 0.059205
0.610117 0.0605478 0.06009
0.614313 0.0619516 0.061326
0.618494 0.0626688 0.0619516
0.623011 0.0641642 0.0628367
0.627909 0.0649577 0.0638132
0.632776 0.0662089 0.0651255
0.638682 0.0672313 0.0666361
0.645716 0.0688182 0.0682841
0.0295872 0.0558022 0.0468605
0.0292363 0.0555428 0.0469978
0.030045 0.0547646 0.0474708
0.0328985 0.053727 0.0480201
0.0411231 0.053666 0.0485542
0.0569467 0.0510109 0.0475624
0.0843214 0.0466468 0.0442054
0.119707 0.0430152 0.0417792
0.165164 0.038468 0.0375525
0.216663 0.0371099 0.0347906
0.272053 0.0370642 0.0332952
0.331502 0.0356146 0.0335241
0.394949 0.0339818 0.0328679
0.455161 0.0323644 0.0345922
0.515419 0.0361486 0.039826
0.575662 0.0521553 0.0529488
0.602457 0.0589609 0.0581674
0.603067 0.0587472 0.0583352
0.601892 0.0590219 0.0581064
0.60351 0.0586404 0.0585489
0.603708 0.0588083 0.0585031
0.604913 0.0592355 0.0585489
0.607889 0.0595712 0.0592813
0.610819 0.0603799 0.0601816
0.614679 0.0617227 0.0613107
0.618067 0.0623636 0.0618143
0.621805 0.0636606 0.0623636
0.626123 0.0650339 0.0633707
0.630198 0.066865 0.0642405
0.635233 0.0680247 0.0652476
0.640909 0.069276 0.066743
0.64686 0.0711223 0.0683909
0.6542 0.0737316 0.0690166
0.0300755 0.0659648 0.0465553
0.0296635 0.0656748 0.0467231
0.0299687 0.0651713 0.046952
0.0337835 0.0634928 0.0484016
0.0418708 0.0626535 0.0491493
0.0562295 0.0622873 0.0508125
0.0805371 0.0586099 0.0486
0.113848 0.0531472 0.0430457
0.160296 0.0457465 0.0386664
0.214847 0.0411383 0.0364843
0.272251 0.0399786 0.0350652
0.332982 0.0382086 0.0341802
0.39678 0.0372473 0.0337987
0.456809 0.0348821 0.0353246
0.51577 0.0323796 0.037995
0.57966 0.0530098 0.0530251
0.612161 0.0607309 0.0605783
0.61059 0.0602121 0.060029
0.610559 0.0602274 0.0600137
0.611261 0.0604562 0.0602884
0.612696 0.0608377 0.0607004
0.615137 0.0616922 0.0613107
0.617716 0.0621653 0.0616464
0.62034 0.0628519 0.0620432
0.623468 0.0642405 0.0627909
0.626856 0.0651713 0.063386
0.630793 0.067277 0.0643168
0.634943 0.0686046 0.0650034
0.640208 0.0708171 0.0664988
0.645411 0.0728466 0.0675517
0.650126 0.0745708 0.0677501
0.656245 0.0769513 0.0688945
0.6645 0.0805524 0.0701457
0.0303655 0.0814679 0.0471199
0.0298619 0.0811627 0.0469215
0.0298772 0.0806439 0.047303
0.0325322 0.0793927 0.048127
0.0383307 0.0767224 0.0490578
0.0546578 0.0765698 0.0511177
0.0795758 0.0755932 0.0494087
0.114473 0.0705882 0.050309
0.161852 0.0614328 0.0434424
0.216266 0.0533913 0.0373541
0.271794 0.0467536 0.0355688
0.33167 0.0418097 0.0354162
0.39678 0.0404059 0.0348974
0.459693 0.0381323 0.0367895
0.519387 0.0373846 0.0397803
0.584375 0.0549935 0.0539101
0.621759 0.0634775 0.0623484
0.621759 0.063508 0.0623331
0.620829 0.0630503 0.0621653
0.621744 0.0634623 0.0623331
0.62327 0.0641642 0.0627451
0.625132 0.0649271 0.0631723
0.627115 0.0654002 0.0632792
0.630045 0.066865 0.0641184
0.633616 0.0682689 0.064744
0.637537 0.0695659 0.0656748
0.642145 0.0719615 0.0668803
0.64625 0.0744182 0.0673991
0.651148 0.0765393 0.067689
0.656336 0.0791638 0.0687724
0.662455 0.0816052 0.0694591
0.66894 0.0839704 0.0693523
0.677333 0.0880903 0.0702678
0.0306401 0.104433 0.047776
0.0299382 0.103731 0.0469825
0.0296025 0.103304 0.0471351
0.0302892 0.102296 0.0473945
0.0364233 0.100679 0.0485542
0.0495918 0.0987106 0.0527657
0.0768292 0.0978714 0.0531624
0.114382 0.0965438 0.0487831
0.171298 0.0873274 0.0503243
0.232013 0.0762036 0.0432288
0.290684 0.0654765 0.0393988
0.343481 0.0569162 0.0354925
0.400992 0.0496223 0.0352789
0.461814 0.0439612 0.0378119
0.52372 0.0411688 0.0402533
0.589578 0.0587625 0.054902
0.631632 0.0680095 0.0642557
0.632013 0.0681163 0.0642252
0.632914 0.0686198 0.0644694
0.633768 0.068925 0.064683
0.635019 0.069276 0.0648966
0.63769 0.0705882 0.0657359
0.640162 0.0716259 0.0663005
0.643748 0.0733806 0.0669718
0.646296 0.0749676 0.0670329
0.650599 0.0767987 0.0675212
0.655131 0.0797284 0.0684215
0.659739 0.0823529 0.0688029
0.664271 0.0851301 0.0687266
0.670619 0.0885328 0.0694743
0.675959 0.0902419 0.068513
0.682445 0.0928206 0.0672313
0.691157 0.0978561 0.066865
0.0339513 0.134722 0.0509194
0.0333257 0.13463 0.0499428
0.0328985 0.133837 0.0494698
0.0323796 0.132937 0.0491493
0.035111 0.131807 0.0503243
0.0429999 0.129931 0.0522927
0.0641794 0.129015 0.0556802
0.106386 0.129229 0.0523995
0.163302 0.127596 0.0485695
0.24242 0.117479 0.054612
0.309758 0.10692 0.0509957
0.374487 0.0966354 0.0484321
0.435309 0.0879377 0.04654
0.487053 0.0766613 0.0432746
0.534218 0.0598459 0.0429847
0.587533 0.0533455 0.0500649
0.641627 0.0724804 0.0667735
0.645472 0.0734874 0.0678111
0.646052 0.0740978 0.0679026
0.647196 0.0749371 0.0674296
0.649577 0.0758831 0.067628
0.652781 0.0772412 0.0683146
0.654582 0.078584 0.0686961
0.658366 0.080705 0.0694438
0.66157 0.0824445 0.0688487
0.66598 0.0855116 0.0690166
0.671229 0.0888228 0.06981
0.675929 0.0904555 0.0684215
0.680629 0.0928359 0.067155
0.686519 0.0956741 0.066041
0.701076 0.109346 0.0706951
0.7196 0.131014 0.0766003
0.738323 0.152087 0.0851759
0.0324407 0.177325 0.0504158
0.0317845 0.176684 0.0493477
0.0306401 0.175677 0.0469978
0.0302586 0.174487 0.0473487
0.0300298 0.172793 0.0473945
0.0373541 0.172747 0.0488899
0.05037 0.170748 0.0524605
0.0882124 0.173266 0.0580606
0.148165 0.178302 0.0499123
0.231403 0.17937 0.0509041
0.326345 0.176577 0.0679179
0.401587 0.170382 0.0743114
0.472801 0.161288 0.0743572
0.53756 0.149386 0.0751812
0.594965 0.133867 0.0723583
0.639155 0.110948 0.0638132
0.673548 0.092256 0.0627909
0.669047 0.0867475 0.0691997
0.664134 0.0835737 0.0692607
0.664393 0.0836194 0.069337
0.668391 0.0860609 0.0691234
0.67071 0.0879225 0.0697032
0.674449 0.0896162 0.0695506
0.678218 0.0918135 0.0692149
0.68513 0.0944381 0.067155
0.690074 0.0977188 0.0643168
0.694911 0.100633 0.063859
0.710536 0.121889 0.0715953
0.725521 0.138354 0.0789654
0.739528 0.157107 0.0861982
0.748837 0.184619 0.0945296
0.756024 0.215763 0.102312
0.76408 0.251316 0.11249
0.0420844 0.238941 0.0620432
0.04094 0.239063 0.0609293
0.0398718 0.237217 0.058732
0.0391394 0.235142 0.0565652
0.03888 0.233616 0.0565652
0.0397498 0.231617 0.0563821
0.0515602 0.233234 0.0588388
0.0751202 0.232288 0.0628672
0.134234 0.238483 0.0708476
0.21384 0.240726 0.0529946
0.307286 0.243473 0.0573892
0.404974 0.250416 0.0789349
0.482429 0.248707 0.0952316
0.553109 0.247364 0.100618
0.61854 0.234775 0.101106
0.679484 0.216785 0.100038
0.733166 0.195102 0.0949874
0.741695 0.161105 0.0880903
0.728054 0.138567 0.0789502
0.719127 0.128176 0.072755
0.715343 0.123735 0.0729839
0.715572 0.117388 0.0715648
0.720134 0.127108 0.0732433
0.728115 0.139559 0.0793317
0.738872 0.158022 0.0862287
0.746059 0.174182 0.0916152
0.750896 0.195178 0.0962997
0.756909 0.218158 0.103182
0.76202 0.244205 0.11075
0.765881 0.270222 0.117311
0.76968 0.296864 0.125307
0.773739 0.325551 0.136034
0.774594 0.35552 0.147051
0.0561685 0.307942 0.0774853
0.0545357 0.307515 0.0762646
0.053193 0.306111 0.0738231
0.052018 0.304341 0.0706188
0.0509804 0.302373 0.0688029
0.0506142 0.300725 0.0686503
0.0556344 0.300237 0.0689708
0.07393 0.300618 0.0714885
0.110033 0.300694 0.0771801
0.197864 0.303899 0.0823377
0.283177 0.309743 0.0584421
0.385733 0.31545 0.0679179
0.47866 0.335393 0.0867323
0.559442 0.340902 0.116503
0.625025 0.343862 0.132586
0.684794 0.344427 0.139986
0.743374 0.334295 0.134432
0.771405 0.306508 0.129595
0.769238 0.289387 0.124086
0.766857 0.273701 0.119066
0.765286 0.260761 0.116381
0.764355 0.25156 0.114031
0.764477 0.251682 0.113924
0.766278 0.264378 0.117769
0.767926 0.282261 0.121111
0.770413 0.301335 0.126055
0.773495 0.324056 0.134264
0.774273 0.345556 0.142458
0.774594 0.367895 0.151247
0.773587 0.389761 0.160021
0.773144 0.413504 0.172107
0.773754 0.433753 0.173678
0.774502 0.454017 0.172305
0.0730755 0.381399 0.0958572
0.0718242 0.381415 0.0945754
0.0711376 0.381292 0.0927138
0.0704051 0.379934 0.0893111
0.06981 0.378347 0.0851759
0.0692912 0.376761 0.0845655
0.0679026 0.374304 0.0833906
0.081239 0.375082 0.085481
0.104768 0.372564 0.0869917
0.172107 0.372564 0.0955825
0.272114 0.375418 0.0947433
0.359503 0.384573 0.071397
0.465568 0.394018 0.0879072
0.545159 0.41825 0.0982376
0.623377 0.434104 0.133486
0.685374 0.44416 0.157137
0.738964 0.453666 0.164691
0.772488 0.452827 0.170642
0.774365 0.440253 0.172961
0.773495 0.429801 0.17203
0.77319 0.422065 0.171527
0.773297 0.416861 0.172
0.772717 0.414191 0.170565
0.772992 0.414633 0.171725
0.773541 0.416648 0.173724
0.773754 0.43183 0.174121
0.773404 0.445075 0.172869
0.773495 0.459159 0.171771
0.774762 0.476143 0.173266
0.774258 0.490776 0.172595
0.77351 0.504936 0.172061
0.773114 0.520531 0.171221
0.772152 0.534478 0.169253
0.0988479 0.459648 0.123278
0.0971542 0.460212 0.121782
0.0961624 0.459602 0.118273
0.095491 0.458595 0.114366
0.0951858 0.458198 0.109453
0.0959793 0.45774 0.106188
0.0953536 0.455573 0.105455
0.0949721 0.452766 0.104402
0.114473 0.449226 0.103883
0.155917 0.443824 0.108309
0.257221 0.442222 0.118822
0.355215 0.447364 0.107225
0.432944 0.456016 0.0940871
0.534539 0.470314 0.110399
0.611383 0.49369 0.117479
0.677256 0.5196 0.134188
0.733394 0.540719 0.152453
0.768963 0.556603 0.157473
0.771878 0.550347 0.161273
0.77232 0.54432 0.163699
0.771893 0.539849 0.164492
0.771923 0.537179 0.165225
0.771923 0.537163 0.165652
0.771801 0.538048 0.166003
0.771649 0.538842 0.166171
0.771649 0.540627 0.16669
0.771618 0.542062 0.166064
0.771496 0.549554 0.162829
0.771847 0.559915 0.158419
0.771725 0.570901 0.153338
0.772595 0.582177 0.149355
0.773632 0.591424 0.146044
0.775021 0.599649 0.145617
0.127672 0.535927 0.158801
0.126375 0.535851 0.155779
0.125307 0.535439 0.151843
0.124773 0.535088 0.14696
0.12459 0.5346 0.140352
0.126574 0.535088 0.133852
0.127062 0.533684 0.131975
0.126116 0.53109 0.130953
0.131212 0.525948 0.127825
0.170962 0.5178 0.12723
0.239567 0.506172 0.133669
0.35227 0.506966 0.149935
0.440986 0.517342 0.119188
0.504952 0.528969 0.117891
0.59968 0.546044 0.133486
0.6766 0.570794 0.14284
0.736416 0.599802 0.148852
0.775097 0.626276 0.148836
0.780087 0.626429 0.148623
0.77937 0.623499 0.148287
0.779019 0.621515 0.148165
0.778805 0.619821 0.148043
0.778531 0.619928 0.147768
0.778393 0.621012 0.147372
0.778775 0.622477 0.147463
0.778592 0.623774 0.14699
0.778653 0.624735 0.146944
0.778958 0.625513 0.147402
0.779812 0.627451 0.147982
0.781964 0.632197 0.150851
0.784268 0.638254 0.153338
0.786175 0.643778 0.155398
0.789258 0.650126 0.158892
0.159762 0.609415 0.200992
0.159304 0.610178 0.198138
0.158877 0.610101 0.19266
0.158556 0.610224 0.186542
0.158923 0.610925 0.178119
0.161883 0.610574 0.168185
0.168246 0.611002 0.163546
0.167376 0.608545 0.162234
0.166049 0.60528 0.160311
0.187427 0.592035 0.149996
0.248447 0.578119 0.153613
0.338079 0.566232 0.166567
0.436866 0.57258 0.16759
0.52079 0.589746 0.138323
0.579416 0.608148 0.145785
0.662852 0.626627 0.168124
0.738659 0.654292 0.185824
0.785 0.683558 0.186618
0.802747 0.690501 0.190219
0.801892 0.686564 0.187228
0.800763 0.684962 0.185199
0.80058 0.684703 0.184939
0.800656 0.684764 0.184909
0.801602 0.685924 0.186007
0.802762 0.68716 0.187472
0.803037 0.688762 0.187976
0.802991 0.690288 0.188937
0.80293 0.69131 0.189899
0.80296 0.691829 0.190387
0.80296 0.691798 0.190356
0.803006 0.690776 0.189334
0.804593 0.694865 0.193668
0.805295 0.699596 0.198016
0.200259 0.682429 0.237537
0.199802 0.682841 0.234546
0.199252 0.683238 0.230716
0.199268 0.684382 0.223972
0.199466 0.684199 0.215152
0.205631 0.68455 0.207095
0.215473 0.686107 0.200259
0.21883 0.686137 0.197757
0.217655 0.683284 0.196963
0.21944 0.676143 0.191241
0.262455 0.653681 0.175448
0.343526 0.632776 0.186221
0.446281 0.628199 0.203632
0.526177 0.645212 0.190005
0.604807 0.669306 0.179477
0.66305 0.69865 0.193256
0.729534 0.716823 0.221256
0.781094 0.73666 0.231281
0.81117 0.744869 0.247471
0.813504 0.742336 0.243229
0.813321 0.74136 0.242283
0.81326 0.741238 0.242267
0.813458 0.741573 0.242969
0.813809 0.74287 0.244739
0.814527 0.744076 0.246723
0.814603 0.745602 0.247669
0.814679 0.74667 0.249012
0.814435 0.747433 0.250126
0.814252 0.747631 0.25037
0.814481 0.747387 0.250034
0.814786 0.746105 0.248356
0.814969 0.74403 0.246998
0.81413 0.74229 0.2448
0.240223 0.757855 0.271916
0.24062 0.758968 0.269306
0.240421 0.75964 0.265949
0.240543 0.761044 0.260227
0.242054 0.763592 0.251255
0.248173 0.767346 0.249134
0.257465 0.769406 0.24654
0.266102 0.773709 0.245884
0.265812 0.769741 0.242374
0.265812 0.766461 0.240299
0.300633 0.745403 0.227222
0.368154 0.712612 0.223178
0.458061 0.69099 0.230076
0.549187 0.703517 0.235645
0.630274 0.726909 0.226535
0.693339 0.755703 0.230396
0.740932 0.776638 0.247333
0.774182 0.778622 0.27599
0.804257 0.784909 0.285405
0.814817 0.786191 0.289906
0.815259 0.785183 0.28867
0.815198 0.785351 0.288853
0.814954 0.785931 0.289586
0.814649 0.786633 0.29041
0.814755 0.787549 0.291676
0.814755 0.788083 0.292287
0.814588 0.788525 0.292821
0.81442 0.788876 0.293324
0.814389 0.789075 0.293706
0.814374 0.788937 0.293446
0.814603 0.787945 0.291966
0.814923 0.785657 0.289036
0.814404 0.781064 0.283543
0.262074 0.811475 0.336599
0.261646 0.81178 0.335805
0.260884 0.812345 0.334157
0.260121 0.812818 0.332631
0.259525 0.813138 0.331777
0.259236 0.813001 0.328542
0.258991 0.812726 0.325963
0.258808 0.812039 0.321752
0.259083 0.811002 0.31693
0.259266 0.809995 0.312505
0.261845 0.807492 0.295109
0.348028 0.777737 0.256962
0.450095 0.74992 0.265034
0.552499 0.743267 0.2813
0.626749 0.758083 0.281132
0.700084 0.778424 0.284337
0.746197 0.799359 0.287465
0.778958 0.810773 0.303227
0.800153 0.809873 0.330236
0.81561 0.813107 0.335622
0.816037 0.812634 0.332097
0.816037 0.812741 0.332311
0.815976 0.813001 0.332906
0.815839 0.813306 0.333745
0.815869 0.813519 0.334447
0.815946 0.813764 0.335149
0.816083 0.814038 0.335546
0.816114 0.814206 0.335714
0.816114 0.814191 0.335714
0.81593 0.81384 0.335256
0.815839 0.813199 0.333288
0.815885 0.811841 0.330068
0.815534 0.809415 0.325841
0.26154 0.816754 0.36849
0.261006 0.817334 0.368719
0.259968 0.818265 0.369085
0.259205 0.819043 0.368856
0.258656 0.819455 0.367926
0.258335 0.819455 0.366918
0.258152 0.819486 0.365988
0.258183 0.818875 0.363409
0.258274 0.818387 0.361456
0.258335 0.818372 0.361456
0.258488 0.818021 0.360708
0.259297 0.809506 0.311009
0.35404 0.778332 0.259358
0.492622 0.75404 0.279194
0.595117 0.759075 0.293095
0.671763 0.776608 0.295354
0.735607 0.79913 0.30341
0.773297 0.81471 0.312856
0.796368 0.816876 0.338415
0.813611 0.819257 0.354421
0.816617 0.819852 0.358801
0.816571 0.819867 0.357946
0.816617 0.819852 0.358206
0.816602 0.819852 0.358312
0.816602 0.819867 0.358404
0.816602 0.819883 0.358541
0.816571 0.819883 0.358572
0.816541 0.819883 0.358633
0.81648 0.819867 0.358526
0.816434 0.819852 0.358389
0.816373 0.819837 0.357855
0.816297 0.819821 0.356817
0.81619 0.819852 0.355367
0.261295 0.817212 0.369833
0.260884 0.817624 0.369787
0.26006 0.818372 0.369787
0.259388 0.818998 0.369696
0.258762 0.819455 0.369085
0.258534 0.819471 0.367514
0.25832 0.819379 0.366171
0.258228 0.819028 0.364096
0.258289 0.818402 0.361456
0.258259 0.818402 0.361456
0.258335 0.818357 0.36144
0.258976 0.812757 0.327459
0.313649 0.788952 0.259068
0.436545 0.760922 0.270024
0.560815 0.753185 0.292561
0.642466 0.769375 0.294804
0.7149 0.790417 0.301472
0.762203 0.810468 0.308385
0.791226 0.818341 0.329915
0.811139 0.819242 0.348424
0.815961 0.81973 0.356909
0.816205 0.819699 0.360052
0.81622 0.819699 0.360052
0.816205 0.819699 0.360052
0.81619 0.819699 0.360021
0.816175 0.819715 0.360006
0.816144 0.819715 0.359991
0.816114 0.81973 0.359976
0.816083 0.81973 0.359991
0.816068 0.81973 0.360037
0.816083 0.819715 0.360113
0.816052 0.819699 0.360189
0.816068 0.819699 0.360296
0.260029 0.818616 0.371954
0.259861 0.818769 0.371695
0.259556 0.819059 0.371389
0.259129 0.819455 0.370703
0.258595 0.819806 0.36997
0.258396 0.819745 0.368338
0.258289 0.819455 0.366552
0.258244 0.81915 0.364599
0.258289 0.818433 0.361593
0.258289 0.818387 0.36144
0.25832 0.818372 0.36144
0.259113 0.814069 0.337514
0.302464 0.792477 0.261219
0.426841 0.762997 0.26862
0.547066 0.753567 0.291432
0.631388 0.766629 0.294194
0.706432 0.787076 0.300191
0.756664 0.808209 0.306188
0.788464 0.819074 0.323323
0.806729 0.818647 0.344915
0.815793 0.819867 0.355383
0.816007 0.819745 0.359289
0.816068 0.81976 0.359747
0.816068 0.81976 0.359762
0.816052 0.819745 0.359747
0.816037 0.81976 0.359731
0.816007 0.81976 0.359716
0.816007 0.819791 0.359716
0.815976 0.819791 0.359686
0.815976 0.819791 0.359686
0.815991 0.819776 0.359701
0.816007 0.819776 0.359731
0.816052 0.81976 0.359731
0.260563 0.818189 0.372168
0.260884 0.817807 0.371542
0.260853 0.817761 0.370871
0.260578 0.81799 0.370031
0.26006 0.81825 0.36936
0.259892 0.818158 0.367651
0.259815 0.817899 0.365347
0.259754 0.817594 0.363561
0.259739 0.816709 0.360265
0.25977 0.816678 0.36022
0.259831 0.816602 0.360128
0.260716 0.813428 0.34197
0.29369 0.793698 0.260502
0.422324 0.763012 0.267048
0.539223 0.751522 0.287602
0.626032 0.764874 0.292927
0.701579 0.785138 0.299626
0.753353 0.806592 0.304753
0.785794 0.818662 0.319905
0.804547 0.818326 0.343145
0.816144 0.819944 0.354101
0.816312 0.819821 0.358465
0.816434 0.819821 0.359579
0.816403 0.819821 0.359594
0.816388 0.819821 0.359594
0.816373 0.819821 0.359579
0.816327 0.819837 0.359564
0.816281 0.819852 0.359548
0.81619 0.819867 0.359518
0.816129 0.819867 0.359503
0.816068 0.819867 0.359487
0.816068 0.819867 0.359503
0.816098 0.819867 0.359503
0.259312 0.819669 0.373892
0.259693 0.819196 0.3729
0.260014 0.818753 0.371832
0.260044 0.818555 0.371038
0.259922 0.81854 0.369741
0.259739 0.818402 0.368231
0.259678 0.818097 0.36585
0.259632 0.817807 0.363851
0.259617 0.816953 0.360601
0.259617 0.816907 0.360433
0.259602 0.816922 0.360449
0.260105 0.814023 0.344472
0.284977 0.796674 0.264088
0.416785 0.764477 0.267216
0.533135 0.751247 0.286854
0.621607 0.764187 0.293141
0.697414 0.783917 0.299001
0.750042 0.805219 0.304219
0.7823 0.817517 0.318074
0.801938 0.81799 0.341253
0.814878 0.819776 0.352453
0.816312 0.819898 0.357504
0.816464 0.819883 0.359457
0.816464 0.819883 0.359457
0.816449 0.819883 0.359442
0.816434 0.819898 0.359442
0.816403 0.819898 0.359426
0.816312 0.819898 0.359396
0.816251 0.819913 0.359365
0.816175 0.819928 0.359335
0.816144 0.819928 0.359319
0.816159 0.819928 0.359335
0.81619 0.819928 0.35935
0.258961 0.820096 0.374746
0.259373 0.819623 0.373632
0.259693 0.819181 0.372473
0.259785 0.818921 0.371511
0.259739 0.81883 0.370153
0.259464 0.818784 0.368872
0.259403 0.818433 0.366369
0.259373 0.818143 0.364141
0.259403 0.817304 0.360937
0.259403 0.817166 0.360601
0.259403 0.817166 0.360616
0.259602 0.814496 0.34667
0.281346 0.798138 0.266484
0.411322 0.76582 0.266712
0.524926 0.752224 0.285893
0.617014 0.763546 0.293095
0.693538 0.782589 0.298085
0.747555 0.80441 0.303853
0.779889 0.816892 0.316594
0.799786 0.817655 0.340032
0.813916 0.819623 0.351675
0.816281 0.819913 0.356878
0.816464 0.819883 0.359457
0.816464 0.819883 0.359457
0.816449 0.819883 0.359442
0.816434 0.819883 0.359426
0.816403 0.819898 0.359426
0.816312 0.819898 0.359396
0.816251 0.819913 0.359365
0.816175 0.819928 0.359335
0.816159 0.819928 0.359335
0.816144 0.819928 0.359335
0.81619 0.819928 0.35935
0.258869 0.820218 0.375143
0.259266 0.81976 0.374075
0.259571 0.819379 0.372946
0.259648 0.81915 0.371817
0.259556 0.819059 0.370687
0.259281 0.818982 0.369284
0.259281 0.818601 0.366705
0.259297 0.818235 0.364218
0.259342 0.817365 0.361013
0.259373 0.817227 0.360632
0.259342 0.817258 0.360647
0.259266 0.814847 0.348806
0.2822 0.79823 0.270253
0.409308 0.766323 0.266499
0.522652 0.752743 0.285634
0.61384 0.762753 0.292866
0.689662 0.781857 0.29723
0.744762 0.803418 0.303746
0.777844 0.816266 0.315022
0.797696 0.817456 0.339361
0.813413 0.819516 0.350835
0.816205 0.819913 0.356466
0.816419 0.819867 0.35938
0.816449 0.819883 0.359442
0.816449 0.819883 0.359426
0.816434 0.819898 0.359426
0.816403 0.819898 0.359426
0.816327 0.819898 0.359396
0.816251 0.819913 0.359365
0.81619 0.819913 0.359335
0.816144 0.819928 0.35935
0.816114 0.819913 0.35938
0.816114 0.819898 0.359426
0.258564 0.820584 0.375875
0.258747 0.820279 0.375128
0.259052 0.819913 0.373922
0.259236 0.819608 0.372549
0.25922 0.819425 0.371313
0.259129 0.819226 0.369574
0.259174 0.818723 0.36701
0.259281 0.818265 0.364294
0.259312 0.817426 0.361059
0.259342 0.817258 0.360647
0.259342 0.817258 0.360632
0.259266 0.814893 0.34905
0.282032 0.798886 0.273838
0.406332 0.766949 0.265736
0.51899 0.753216 0.284749
0.609766 0.761837 0.292546
0.686625 0.781399 0.296407
0.742016 0.802365 0.303304
0.776272 0.816022 0.314137
0.796017 0.817044 0.338506
0.812573 0.819409 0.350256
0.815885 0.819867 0.356268
0.816098 0.819806 0.359258
0.816159 0.819806 0.359655
0.816159 0.819806 0.359655
0.816129 0.819791 0.359625
0.816098 0.819806 0.35964
0.816052 0.819821 0.359625
0.815976 0.819821 0.359579
0.815885 0.819852 0.359579
0.815839 0.819852 0.359579
0.815808 0.819852 0.359579
0.815808 0.819852 0.359594
0.257984 0.821057 0.376715
0.258167 0.820859 0.376089
0.258366 0.820584 0.375311
0.258534 0.820325 0.373816
0.258671 0.820066 0.371878
0.258717 0.819669 0.36994
0.258961 0.818998 0.367285
0.259144 0.818448 0.364584
0.259236 0.817533 0.361181
0.259281 0.817319 0.360678
0.259327 0.817273 0.360647
0.259281 0.815 0.350088
0.27985 0.799878 0.277638
0.401526 0.768154 0.265034
