bundles/resolve-cinematic-luts/Phantom Luts/Komodo Phantom FILM LUTs G2/Komodo Phantom FILM LUTs G2/33x/Standard (No WB Offset)/VisionTeal_Komodo_G2_33x.cube
TITLE "Generated by Resolve"
LUT_3D_SIZE 5
0.0221408 0.0355993 0.0336461
0.200458 0.0216831 0.0194095
0.637675 0.0246891 0.0784924
0.635508 0.0241855 0.0733043
0.652399 0.0250401 0.0620279
0.024506 0.221546 0.0441138
0.198001 0.223407 0.0374762
0.695888 0.0743267 0.059266
0.704005 0.0712291 0.0628061
0.78143 0.290272 0.129763
0.258259 0.775143 0.297032
0.2869 0.779065 0.252003
0.755856 0.782254 0.279026
0.813413 0.79234 0.314412
0.813077 0.78764 0.30605
0.263447 0.829938 0.41149
0.264851 0.827497 0.396414
0.712764 0.78677 0.323491
0.813199 0.816983 0.388174
0.812741 0.816968 0.388266
0.261814 0.832212 0.414679
0.265538 0.827237 0.399512
0.624796 0.765637 0.308431
0.81326 0.817014 0.387976
0.812543 0.81706 0.388022
0.0199283 0.063798 0.211994
0.236805 0.0270848 0.228428
0.677272 0.0618143 0.335821
0.672969 0.050721 0.305974
0.668559 0.0401312 0.23592
0.0189822 0.192554 0.145586
0.196765 0.218769 0.202106
0.647166 0.0260929 0.0814374
0.654887 0.0257725 0.060502
0.775174 0.235599 0.112398
0.174945 0.795941 0.431083
0.233234 0.760159 0.319234
0.746715 0.773739 0.268055
0.813489 0.782208 0.296559
0.813443 0.782071 0.29633
0.231785 0.860197 0.509209
0.262699 0.831556 0.415473
0.685267 0.779202 0.31725
0.81326 0.817029 0.388052
0.812802 0.816999 0.388159
0.227451 0.854673 0.483482
0.262943 0.831128 0.415488
0.590723 0.760632 0.306996
0.813275 0.817044 0.386908
0.812497 0.81706 0.388022
0.0193332 0.148653 0.595438
0.180575 0.116258 0.634256
0.739666 0.113497 0.767163
0.737102 0.11812 0.783734
0.736233 0.103914 0.725383
0.0193027 0.256031 0.611414
0.0192264 0.127581 0.586053
0.733608 0.109667 0.749798
0.739605 0.112871 0.762158
0.718166 0.098085 0.673152
0.0821241 0.763455 0.691356
0.0802625 0.753506 0.682292
0.742977 0.744549 0.718502
0.871183 0.720958 0.685557
0.850904 0.733379 0.592721
0.125216 0.923278 0.774289
0.126329 0.921538 0.749859
0.295171 0.849699 0.518288
0.812787 0.816983 0.383093
0.812482 0.816785 0.38677
0.127306 0.920913 0.745556
0.144411 0.913588 0.716655
0.23032 0.860121 0.505241
0.808545 0.816449 0.373449
0.812573 0.81709 0.386175
0.0209506 0.13962 0.635599
0.21004 0.0991684 0.670863
0.738354 0.118166 0.785672
0.738308 0.118181 0.785626
0.738277 0.118196 0.785428
0.0192874 0.251911 0.664973
0.0339971 0.140246 0.64152
0.737697 0.118029 0.785336
0.738293 0.118196 0.785611
0.738354 0.118166 0.785672
0.0213474 0.728481 0.770779
0.02121 0.717433 0.768261
0.631083 0.604212 0.86215
0.855955 0.598215 0.86421
0.846586 0.561059 0.857038
0.147433 0.926131 0.864561
0.145357 0.927184 0.865202
0.164843 0.934325 0.858946
0.916579 0.929564 0.908415
0.9252 0.919402 0.894499
0.145449 0.927123 0.865171
0.145357 0.927184 0.865202
0.14255 0.929595 0.83711
0.873671 0.932189 0.875349
0.929656 0.939559 0.87512
0.0300298 0.140002 0.639582
0.212757 0.0864118 0.669261
0.738354 0.118166 0.785672
0.738338 0.118166 0.785672
0.738308 0.118181 0.785626
0.0195621 0.245319 0.664347
0.0443122 0.139712 0.644312
0.738354 0.118166 0.785702
0.738293 0.118196 0.785611
0.738338 0.118166 0.785657
0.0209812 0.7234 0.769985
0.0211032 0.711727 0.767178
0.623377 0.585214 0.858442
0.850401 0.576211 0.8598
0.840726 0.540627 0.85185
0.146517 0.926574 0.864973
0.145357 0.927184 0.865202
0.137224 0.925353 0.868269
0.901122 0.911315 0.912566
0.925628 0.906493 0.916365
0.148775 0.925399 0.864118
0.145357 0.927184 0.865202
0.146441 0.928267 0.865507
0.620691 0.906401 0.859434
0.943633 0.952407 0.935042
