bundles/resolve-cinematic-luts/Phantom Luts/Komodo Phantom FILM LUTs G2/Komodo Phantom FILM LUTs G2/33x/Standard (No WB Offset)/Vision_Komodo_G2_33x.cube
TITLE "Generated by Resolve"
LUT_3D_SIZE 33
0.0242161 0.0345617 0.0253605
0.0242161 0.0345464 0.0253452
0.0243076 0.0345922 0.0253452
0.02916 0.0349432 0.0245823
0.0470436 0.0337224 0.0241245
0.0707408 0.0326238 0.0233005
0.101503 0.0325933 0.0213779
0.138766 0.0330205 0.0193027
0.189014 0.0316472 0.0176547
0.242222 0.0319066 0.0195621
0.299901 0.0298619 0.0218204
0.361044 0.0270848 0.0259709
0.423651 0.0240635 0.0282444
0.489723 0.0218967 0.0344091
0.55378 0.0230106 0.0469215
0.613199 0.0285801 0.0641642
0.647303 0.0327764 0.0738842
0.651606 0.0348974 0.0857099
0.654521 0.0364843 0.0948043
0.656001 0.0373083 0.100282
0.656886 0.0377966 0.103243
0.655985 0.0374151 0.101137
0.655711 0.0370947 0.0987869
0.653574 0.0360266 0.0920882
0.649744 0.0340429 0.0811475
0.646586 0.0323644 0.071397
0.64242 0.0326543 0.062211
0.640665 0.0401312 0.0594644
0.640848 0.0436713 0.0588846
0.640497 0.0467079 0.0578164
0.64538 0.0467231 0.05832
0.65153 0.0471504 0.0593118
0.658503 0.0488136 0.0607156
0.0242008 0.0345617 0.0252995
0.0242161 0.0345617 0.0253452
0.0242771 0.0345769 0.02533
0.0301366 0.0353399 0.0244602
0.0488441 0.0338903 0.024155
0.0735637 0.0328985 0.0230411
0.105669 0.03299 0.0215763
0.144106 0.0330816 0.0191806
0.196201 0.0321813 0.0177157
0.249821 0.0326696 0.020325
0.307607 0.0315862 0.0234226
0.36733 0.0277562 0.0263676
0.42916 0.0245518 0.028275
0.491554 0.0275425 0.0335088
0.554635 0.0280766 0.0424353
0.610147 0.032517 0.052903
0.64123 0.0340581 0.0605783
0.645151 0.0317082 0.0648051
0.64741 0.0322423 0.0715343
0.648981 0.0331426 0.0771191
0.649271 0.0332189 0.0775464
0.648875 0.033051 0.0764935
0.646448 0.0320439 0.0707103
0.644709 0.0315862 0.0632486
0.641566 0.0345464 0.060441
0.640345 0.0400244 0.0591897
0.640772 0.0435645 0.0588693
0.640467 0.0456397 0.0581979
0.642725 0.0469825 0.0583658
0.647135 0.0473487 0.0590677
0.652506 0.0480507 0.0599069
0.658427 0.0492561 0.060914
0.663798 0.0510262 0.0613413
0.0242313 0.034638 0.0252995
0.0242466 0.0346227 0.0253452
0.0242161 0.0345769 0.0253452
0.0268406 0.0355383 0.0254063
0.0455482 0.034699 0.0242313
0.0714122 0.0336309 0.0233921
0.104845 0.0336919 0.0217594
0.145144 0.033753 0.019501
0.199237 0.0331579 0.0180972
0.251865 0.034287 0.0201114
0.310857 0.0349889 0.0251926
0.370153 0.0301061 0.0267185
0.431769 0.0258793 0.0284581
0.495613 0.0281071 0.0337682
0.55668 0.0323796 0.0419776
0.610071 0.0391852 0.0516365
0.637125 0.0415656 0.0580453
0.639582 0.0388647 0.0588388
0.640497 0.0366674 0.0596017
0.641443 0.0358587 0.0598459
0.641505 0.0359045 0.0598764
0.641108 0.0371405 0.0597696
0.640406 0.0389258 0.0590372
0.638849 0.0428931 0.0583963
0.640223 0.0438849 0.0585336
0.641062 0.0454261 0.0582895
0.642374 0.0469673 0.0583352
0.645533 0.0472267 0.0587778
0.6495 0.0478218 0.0596323
0.654322 0.0491035 0.0608225
0.658701 0.049897 0.0610666
0.663813 0.0516518 0.0616617
0.6701 0.0532387 0.0619821
0.0247349 0.0429084 0.0276493
0.0247501 0.0424048 0.0276799
0.0253605 0.0411383 0.0275578
0.0276951 0.0400702 0.0273594
0.0367285 0.0416419 0.0257572
0.0629282 0.0373846 0.0247044
0.0997482 0.0354772 0.0226291
0.142168 0.0352178 0.0201724
0.196933 0.0345617 0.0182498
0.252872 0.035462 0.0204013
0.312795 0.0370031 0.0256809
0.373007 0.0331884 0.0279698
0.434363 0.0280003 0.0290684
0.497597 0.0288701 0.0338598
0.558602 0.033051 0.0417487
0.613947 0.0408637 0.0526284
0.637659 0.0463722 0.0573434
0.637507 0.0451514 0.0573892
0.637018 0.0450904 0.0573434
0.637781 0.0446174 0.0577096
0.639063 0.0442054 0.0581216
0.637537 0.0459602 0.0572976
0.639475 0.046128 0.0577401
0.642023 0.0462196 0.0584878
0.643473 0.046952 0.0584268
0.646387 0.047364 0.0589609
0.649485 0.0478981 0.0596628
0.653422 0.049012 0.0607004
0.656367 0.0501106 0.0612497
0.660609 0.0513313 0.0616159
0.665461 0.0529946 0.0623789
0.670787 0.05449 0.0626688
0.677333 0.0572366 0.0631418
0.0260929 0.0621653 0.0312352
0.0258488 0.0612192 0.0309453
0.0258488 0.0597848 0.0305638
0.0287633 0.0572976 0.0306859
0.0374456 0.0585031 0.0308232
0.066392 0.0571603 0.025803
0.100481 0.0509804 0.0291752
0.139956 0.0459449 0.0243839
0.194553 0.0393835 0.0194095
0.251286 0.0378424 0.0202487
0.312093 0.0390173 0.0254215
0.375448 0.0375525 0.0289616
0.4374 0.0324102 0.0306249
0.498085 0.0295262 0.033753
0.560784 0.0341039 0.0415961
0.617594 0.0415656 0.0525216
0.644602 0.0470741 0.0585946
0.644221 0.0469673 0.0585641
0.642924 0.0469368 0.0583658
0.643091 0.046952 0.0583963
0.643809 0.046952 0.0584726
0.645289 0.0470893 0.0587167
0.647181 0.0476081 0.0591897
0.6495 0.0479744 0.0596475
0.652522 0.0487678 0.0604715
0.655161 0.049897 0.0611734
0.657511 0.0505226 0.0612955
0.661234 0.0518959 0.0619669
0.664683 0.0534829 0.0627298
0.668772 0.0548867 0.0630961
0.673686 0.057084 0.063508
0.679149 0.0594797 0.0636301
0.685512 0.063447 0.0634318
0.0279393 0.0875257 0.0359655
0.0280766 0.0867018 0.0356909
0.0280613 0.0855116 0.0355383
0.0298619 0.0842298 0.035462
0.0361639 0.0814527 0.0361334
0.0541695 0.0854047 0.033814
0.104311 0.0793622 0.0302129
0.148318 0.0696574 0.0343175
0.202625 0.0604868 0.0298161
0.256016 0.0525521 0.0260624
0.312428 0.0453193 0.0254978
0.375921 0.0431983 0.0301671
0.440208 0.0386206 0.032105
0.49987 0.0321813 0.0343481
0.562692 0.0358282 0.0417182
0.621622 0.0435798 0.053315
0.653986 0.0492714 0.0608988
0.653712 0.0491493 0.0607919
0.652399 0.0487068 0.0604257
0.652995 0.0488899 0.0606241
0.654124 0.0493782 0.0609445
0.65536 0.0500038 0.0612039
0.656611 0.0503853 0.0612497
0.658854 0.0509651 0.0614481
0.661677 0.0520485 0.0620279
0.66424 0.0534829 0.0627909
0.667323 0.0544594 0.0628977
0.671016 0.0564431 0.0635538
0.674586 0.0586099 0.0637675
0.679316 0.0613413 0.0641642
0.68365 0.0639353 0.0637369
0.688884 0.0672007 0.0630808
0.695949 0.0721294 0.0633402
0.0307317 0.119966 0.0432288
0.0303807 0.118959 0.0411994
0.0306249 0.118227 0.0413672
0.0314183 0.117189 0.0417334
0.0368353 0.116335 0.0422217
0.0501564 0.116365 0.0433509
0.0824292 0.118959 0.0344854
0.154101 0.109407 0.0324559
0.21709 0.0964523 0.0400549
0.277592 0.0858015 0.0404822
0.333547 0.0759899 0.0375525
0.385153 0.0640574 0.0331273
0.445335 0.0536202 0.0336156
0.502449 0.0407874 0.035874
0.565026 0.0391852 0.0417639
0.625956 0.0482338 0.0540017
0.66247 0.052781 0.0624399
0.662379 0.0528267 0.0624399
0.663066 0.0532235 0.0626535
0.663386 0.0534371 0.0627756
0.663676 0.0535286 0.0628824
0.665034 0.0540475 0.0628519
0.667247 0.0548867 0.0632181
0.669871 0.0563211 0.0637675
0.672374 0.0578317 0.063798
0.675547 0.0598154 0.0641031
0.679301 0.0620127 0.0643168
0.6822 0.0645914 0.0639811
0.685649 0.0673991 0.0635233
0.690715 0.071046 0.0639963
0.694438 0.0750134 0.0632486
0.700465 0.0792401 0.062974
0.705592 0.0851453 0.0614633
0.0300603 0.161883 0.048188
0.0298619 0.160998 0.0463264
0.0300755 0.159808 0.0456397
0.0300145 0.158328 0.0451667
0.0328222 0.157671 0.0461585
0.0427405 0.157565 0.0476081
0.0660563 0.161105 0.0493477
0.119631 0.165499 0.0340276
0.223224 0.152956 0.035935
0.300969 0.1449 0.0562905
0.366613 0.135149 0.0641642
0.426688 0.123415 0.0634928
0.483116 0.111177 0.0594949
0.534752 0.092134 0.0499886
0.576562 0.0622873 0.0428016
0.629633 0.054612 0.052903
0.67219 0.0588083 0.0626993
0.675059 0.0585184 0.0637217
0.675608 0.0585946 0.0639048
0.676951 0.0600443 0.0638743
0.678599 0.0612802 0.0640574
0.68101 0.0624857 0.0644694
0.682094 0.0633249 0.0643626
0.684031 0.0650187 0.0635233
0.686397 0.0675822 0.0634775
0.690257 0.0703288 0.0638132
0.693431 0.0736095 0.063386
0.697215 0.0770581 0.0629435
0.701396 0.0817121 0.0628672
0.70457 0.0860456 0.0615244
0.708751 0.0910506 0.0606546
0.718318 0.102541 0.0632181
0.732341 0.124224 0.0695506
0.035996 0.222492 0.0636454
0.0348974 0.220264 0.0595865
0.0340124 0.218097 0.0561379
0.0336156 0.216052 0.0552682
0.033753 0.214481 0.0551766
0.041825 0.217334 0.0571908
0.060029 0.219272 0.0604562
0.0975357 0.228794 0.0633097
0.18854 0.23241 0.0392004
0.299748 0.219211 0.0412451
0.38265 0.213443 0.0749523
0.445594 0.206607 0.0910811
0.512993 0.192569 0.0939651
0.573709 0.175937 0.0930495
0.630289 0.154604 0.0861372
0.672358 0.120012 0.0656291
0.69955 0.092195 0.0570993
0.695399 0.0759289 0.0627604
0.692576 0.0715953 0.0639963
0.692699 0.0714885 0.0640726
0.693812 0.0733654 0.063447
0.695552 0.0754101 0.063035
0.69897 0.0782635 0.0627146
0.701701 0.0814374 0.0629435
0.704677 0.0860456 0.0614023
0.708553 0.0925765 0.0594797
0.710048 0.0945449 0.0568856
0.717098 0.101106 0.0592813
0.729122 0.121462 0.0678874
0.739895 0.139483 0.0757458
0.747799 0.156176 0.0821546
0.752117 0.182193 0.0946059
0.755627 0.212192 0.106554
0.0498817 0.294423 0.0893263
0.0493019 0.293614 0.0859998
0.0478218 0.290425 0.0806439
0.0472267 0.288212 0.077348
0.0473335 0.287251 0.0772564
0.048188 0.285863 0.076936
0.0648966 0.291005 0.0800336
0.0912947 0.29308 0.0814374
0.140688 0.304311 0.0835126
0.264317 0.305348 0.0478828
0.38146 0.293889 0.0484627
0.46421 0.292958 0.0966659
0.526131 0.291493 0.115984
0.58616 0.28423 0.132342
0.647715 0.264317 0.132143
0.698726 0.238392 0.121004
0.738949 0.205875 0.103288
0.750301 0.165637 0.0879072
0.741512 0.13875 0.0739605
0.734112 0.128374 0.067628
0.731899 0.123217 0.0686351
0.728069 0.115267 0.0626383
0.731075 0.117571 0.0636149
0.738567 0.133623 0.0714427
0.744945 0.151369 0.0802319
0.750393 0.168963 0.0886854
0.752422 0.184771 0.0957504
0.753552 0.205295 0.1037
0.757122 0.230472 0.115434
0.758343 0.254902 0.125353
0.758801 0.27779 0.133898
0.759991 0.302968 0.1449
0.762081 0.329503 0.158145
0.0666972 0.369879 0.119921
0.0665751 0.369131 0.116609
0.0657054 0.367315 0.11162
0.0641184 0.364614 0.104677
0.0635233 0.362249 0.101961
0.0632334 0.360418 0.101305
0.0706188 0.362005 0.102586
0.0938125 0.366888 0.106065
0.134966 0.372427 0.110262
0.205158 0.382086 0.105837
0.347234 0.385077 0.0620432
0.463905 0.374914 0.0540322
0.540566 0.378225 0.109178
0.600565 0.382605 0.147097
0.653773 0.379904 0.164431
0.698985 0.371252 0.174899
0.740063 0.351934 0.165972
0.760433 0.319738 0.154437
0.760128 0.300114 0.145312
0.760189 0.283406 0.139208
0.759762 0.270176 0.133837
0.759411 0.261463 0.13051
0.759426 0.260746 0.129976
0.76022 0.272511 0.134691
0.75903 0.286564 0.138705
0.759197 0.303944 0.1449
0.760647 0.325139 0.154986
0.760906 0.346029 0.165728
0.759731 0.364172 0.17438
0.759136 0.384695 0.183719
0.760174 0.404166 0.188144
0.763729 0.424109 0.186709
0.765621 0.44094 0.185702
0.0886702 0.447166 0.159991
0.0880751 0.446235 0.156527
0.0876631 0.445396 0.150637
0.0866712 0.443656 0.143084
0.0848859 0.441749 0.133455
0.0845655 0.440681 0.132494
0.0832227 0.437888 0.130907
0.102358 0.442039 0.135088
0.135805 0.444923 0.140124
0.200702 0.449714 0.147524
0.28101 0.46154 0.131868
0.430213 0.465812 0.0823377
0.541573 0.455787 0.0673991
0.608225 0.462089 0.103655
0.668223 0.464897 0.173541
0.71017 0.470222 0.19202
0.745678 0.471092 0.190784
0.765927 0.464469 0.187915
0.765805 0.451209 0.185794
0.764828 0.440208 0.183078
0.764141 0.43209 0.181964
0.763027 0.427161 0.181949
0.763027 0.425132 0.18352
0.762951 0.425666 0.184604
0.763241 0.427909 0.186023
0.764828 0.44152 0.18761
0.765576 0.453346 0.188098
0.766598 0.465202 0.18883
0.768063 0.47805 0.18967
0.770687 0.491539 0.191318
0.771939 0.501778 0.191104
0.773831 0.513344 0.191638
0.776089 0.524041 0.19205
0.117968 0.52369 0.212222
0.117556 0.52372 0.209064
0.116899 0.523125 0.2038
0.11577 0.521859 0.197024
0.114336 0.521385 0.186984
0.115709 0.521279 0.179812
0.114595 0.51928 0.178317
0.114137 0.517143 0.176379
0.145312 0.518975 0.178546
0.199908 0.518105 0.183932
0.275959 0.525139 0.19791
0.366278 0.537758 0.156329
0.504967 0.542062 0.105455
0.609598 0.532265 0.0847791
0.67219 0.536889 0.108614
0.721798 0.547829 0.145129
0.758419 0.554818 0.176455
0.780819 0.559655 0.176699
0.780514 0.552895 0.184466
0.779934 0.547646 0.188022
0.778988 0.543267 0.189334
0.778515 0.541527 0.190173
0.778485 0.541604 0.190539
0.778576 0.542458 0.19089
0.778607 0.543084 0.191257
0.778668 0.544625 0.191531
0.779065 0.546151 0.191333
0.780545 0.551751 0.188388
0.782238 0.560571 0.181155
0.784237 0.570596 0.167697
0.785183 0.580026 0.156573
0.78645 0.588754 0.146639
0.788403 0.596429 0.140703
0.152972 0.596399 0.262623
0.152239 0.596002 0.257862
0.15108 0.595407 0.252338
0.150225 0.595422 0.246494
0.149523 0.595376 0.238178
0.151736 0.596735 0.230198
0.152956 0.595956 0.227237
0.151385 0.592889 0.225254
0.159228 0.589807 0.221653
0.214771 0.588724 0.223499
0.273136 0.586648 0.231083
0.352468 0.596307 0.233707
0.449866 0.607172 0.186328
0.572671 0.614542 0.135729
0.667994 0.607217 0.121523
0.730755 0.613565 0.118914
0.770321 0.625681 0.123461
0.794842 0.639231 0.106874
0.796536 0.636759 0.107607
0.796201 0.633127 0.111238
0.795956 0.63061 0.113924
0.795254 0.629023 0.114519
0.795102 0.629282 0.113619
0.795392 0.630274 0.111818
0.795743 0.631815 0.110231
0.795758 0.633417 0.107851
0.795575 0.63447 0.105516
0.795651 0.635676 0.10515
0.79675 0.637781 0.105303
0.79826 0.641978 0.105196
0.799771 0.647349 0.105425
0.80174 0.65301 0.105928
0.803067 0.656153 0.105669
0.191302 0.661875 0.305074
0.191318 0.662181 0.302785
0.191287 0.662303 0.297429
0.190799 0.662318 0.291279
0.189792 0.663111 0.282628
0.191867 0.664042 0.274464
0.200549 0.66537 0.269413
0.199435 0.663645 0.268162
0.19826 0.660929 0.266667
0.223957 0.655268 0.257588
0.288258 0.652827 0.26479
0.35407 0.651179 0.275853
0.42884 0.663478 0.261982
0.527596 0.674922 0.22385
0.635142 0.687205 0.185626
0.719295 0.684901 0.173388
0.778439 0.693523 0.146746
0.807416 0.706508 0.123949
0.817548 0.706569 0.12546
0.817151 0.702678 0.123934
0.816358 0.701137 0.12253
0.816297 0.700969 0.122484
0.816373 0.701076 0.12256
0.817014 0.702068 0.12311
0.817304 0.702815 0.123354
0.817258 0.704295 0.122972
0.817548 0.706065 0.123461
0.818097 0.707622 0.124804
0.818326 0.708461 0.125597
0.818296 0.708415 0.125628
0.817823 0.706645 0.124498
0.819364 0.710262 0.128206
0.819425 0.712978 0.130175
0.228733 0.720668 0.344457
0.228428 0.720714 0.34139
0.227802 0.72076 0.336965
0.227344 0.721477 0.330877
0.226459 0.721828 0.321462
0.231739 0.723232 0.314199
0.242985 0.72578 0.310109
0.24744 0.726833 0.307897
0.244541 0.72433 0.305898
0.249058 0.720882 0.30396
0.299687 0.712749 0.29514
0.365103 0.707683 0.305333
0.437293 0.713146 0.312062
0.513985 0.729992 0.287678
0.613825 0.740719 0.266194
0.702312 0.75848 0.241978
0.765835 0.760876 0.2383
0.803693 0.764431 0.220203
0.824094 0.763333 0.220539
0.826703 0.759503 0.211612
0.826688 0.758846 0.210224
0.826749 0.758785 0.210391
0.826749 0.758984 0.211276
0.82707 0.759884 0.213581
0.827192 0.761105 0.215976
0.827054 0.762631 0.219074
0.827604 0.764035 0.221851
0.827893 0.76495 0.223362
0.827955 0.765225 0.223804
0.827924 0.764889 0.223102
0.82739 0.763394 0.220798
0.827527 0.761013 0.216464
0.827268 0.758648 0.211582
0.25893 0.771984 0.375204
0.258854 0.772534 0.371984
0.258396 0.772763 0.368963
0.257984 0.773404 0.363195
0.257939 0.774716 0.355184
0.262852 0.777661 0.352285
0.272114 0.779995 0.350011
0.280293 0.783581 0.35024
0.281193 0.781842 0.348043
0.281102 0.779675 0.345983
0.328939 0.773968 0.344671
0.390036 0.764233 0.346014
0.453941 0.75877 0.352941
0.52726 0.774929 0.341375
0.614969 0.789059 0.321874
0.699458 0.800626 0.304021
0.758755 0.811322 0.289311
0.793194 0.808621 0.298375
0.816083 0.806546 0.295384
0.824521 0.804593 0.296391
0.824765 0.80351 0.294896
0.824781 0.803662 0.29514
0.824582 0.804211 0.295735
0.824674 0.805051 0.297536
0.824369 0.805798 0.299535
0.824201 0.806638 0.300603
0.824201 0.807187 0.301564
0.824308 0.807584 0.302373
0.824323 0.807813 0.3028
0.824308 0.807691 0.302571
0.824155 0.806485 0.299931
0.824659 0.803983 0.295247
0.825116 0.799466 0.2869
0.271458 0.802823 0.426337
0.271199 0.802853 0.424826
0.270466 0.802945 0.422751
0.269612 0.803143 0.420493
0.268925 0.803281 0.418509
0.26833 0.803357 0.415625
0.267872 0.803159 0.413077
0.267185 0.802625 0.409125
0.266728 0.801984 0.405127
0.266407 0.801389 0.401038
0.265538 0.799588 0.385977
0.373495 0.798383 0.375631
0.457664 0.795254 0.391165
0.530999 0.801968 0.39704
0.607263 0.815564 0.383444
0.689021 0.822858 0.374273
0.747021 0.831464 0.353887
0.788327 0.836988 0.349416
0.811551 0.835096 0.367834
0.823606 0.833539 0.367086
0.82385 0.832975 0.361456
0.823819 0.833066 0.361776
0.823713 0.83328 0.362676
0.82359 0.833524 0.363622
0.823651 0.833829 0.364218
0.823682 0.834287 0.36495
0.823774 0.834623 0.365621
0.823789 0.834791 0.36611
0.823789 0.834806 0.366018
0.823743 0.834409 0.364889
0.823713 0.833448 0.362737
0.823972 0.832151 0.358999
0.823728 0.829206 0.351583
0.277668 0.807111 0.457465
0.277363 0.807202 0.457008
0.27686 0.80737 0.456428
0.276463 0.807492 0.455085
0.276066 0.807477 0.453437
0.275746 0.80734 0.45214
0.275517 0.807248 0.451423
0.275074 0.806821 0.448569
0.274739 0.8065 0.447044
0.274769 0.80647 0.447074
0.274693 0.806302 0.446616
0.265797 0.801129 0.4
0.378119 0.799115 0.377172
0.491341 0.80267 0.40763
0.572564 0.814801 0.403952
0.654673 0.825971 0.391012
0.730922 0.834577 0.380697
0.776364 0.842481 0.372137
0.808377 0.845197 0.375708
0.822202 0.843412 0.396246
0.825116 0.843824 0.402106
0.824887 0.843671 0.400687
0.824918 0.843687 0.400977
0.824948 0.843717 0.401266
0.824979 0.843732 0.401465
0.82504 0.843778 0.401663
0.825071 0.843778 0.401602
0.825101 0.843824 0.401602
0.825086 0.843809 0.401114
0.82501 0.843778 0.400748
0.824903 0.843687 0.399893
0.824674 0.843519 0.398596
0.824414 0.843305 0.395727
0.277607 0.807263 0.458534
0.277394 0.80734 0.457862
0.277058 0.807431 0.457069
0.27657 0.807523 0.456397
0.27631 0.807553 0.454749
0.275944 0.807431 0.452766
0.275624 0.807263 0.451743
0.275242 0.806943 0.449271
0.274723 0.8065 0.447028
0.274739 0.806485 0.447059
0.274784 0.80647 0.447074
0.268299 0.803281 0.415335
0.332418 0.799603 0.370855
0.449058 0.800595 0.39556
0.5402 0.809308 0.409674
0.623667 0.823224 0.394751
0.70309 0.830777 0.387304
0.763333 0.840177 0.371771
0.800793 0.845182 0.372992
0.819455 0.842908 0.385153
0.824735 0.843595 0.397131
0.82533 0.844007 0.402197
0.825345 0.844007 0.402197
0.82533 0.844007 0.402197
0.82533 0.844007 0.402152
0.82533 0.844022 0.40209
0.82533 0.844022 0.401999
0.825345 0.844038 0.401892
0.825376 0.844038 0.401816
0.82536 0.844053 0.401846
0.825376 0.844053 0.401953
0.825376 0.844068 0.40206
0.825406 0.844068 0.402213
0.27718 0.807584 0.459022
0.277104 0.807584 0.458518
0.276936 0.80763 0.457725
0.276585 0.80766 0.456931
0.276341 0.807645 0.455619
0.27602 0.807538 0.453574
0.275654 0.807309 0.451911
0.275349 0.80705 0.449973
0.274754 0.806531 0.44715
0.274739 0.806485 0.447059
0.274769 0.80647 0.447074
0.26981 0.803449 0.42327
0.315847 0.798962 0.36788
0.441535 0.800229 0.392935
0.528954 0.806928 0.41033
0.612863 0.821469 0.396704
0.693584 0.829496 0.389822
0.757229 0.838987 0.373007
0.795026 0.8448 0.371511
0.815991 0.84329 0.382559
0.824521 0.843442 0.394293
0.825269 0.843992 0.400702
0.825345 0.844022 0.40148
0.825345 0.844038 0.40145
0.825345 0.844038 0.401389
0.82536 0.844053 0.401266
0.825376 0.844068 0.401129
0.825376 0.844068 0.401022
0.825391 0.844068 0.400961
0.825391 0.844068 0.400961
0.825391 0.844068 0.401007
0.82536 0.844053 0.401129
0.825345 0.844038 0.401389
0.27744 0.807538 0.459785
0.277546 0.807431 0.459495
0.277501 0.80737 0.458961
0.277333 0.80737 0.457893
0.276967 0.80737 0.456825
0.2766 0.807294 0.454719
0.276204 0.80708 0.452399
0.275837 0.806775 0.45095
0.275273 0.806149 0.447486
0.275288 0.806134 0.447501
0.275319 0.806119 0.447501
0.271443 0.803464 0.429114
0.303929 0.79855 0.36643
0.437629 0.800305 0.392447
0.524132 0.805539 0.412131
0.605417 0.82005 0.397955
0.685054 0.828473 0.39118
0.752194 0.838407 0.375235
0.791577 0.844404 0.37174
0.814389 0.844373 0.379644
0.824292 0.843214 0.393973
0.82504 0.843809 0.400595
0.825284 0.843961 0.402258
0.825284 0.843961 0.402243
0.825299 0.843976 0.402213
0.825284 0.843976 0.402136
0.825299 0.843992 0.402029
0.825315 0.844007 0.401801
0.825345 0.844038 0.401465
0.825376 0.844068 0.401129
0.825391 0.844068 0.400961
0.825391 0.844068 0.401007
0.82536 0.844038 0.401236
0.277287 0.807691 0.460166
0.277409 0.807568 0.459815
0.277424 0.807492 0.459297
0.277287 0.807446 0.45832
0.276997 0.807431 0.456992
0.276616 0.80737 0.455161
0.276204 0.807126 0.452583
0.275822 0.806851 0.451225
0.275257 0.806226 0.447608
0.275227 0.80618 0.44741
0.275212 0.806195 0.44741
0.271885 0.803906 0.431769
0.293919 0.798566 0.367453
0.433433 0.800504 0.391638
0.520607 0.805112 0.412879
0.599222 0.81944 0.399008
0.680217 0.828351 0.390875
0.748028 0.837232 0.375448
0.787686 0.843854 0.371588
0.813184 0.845319 0.377356
0.823163 0.843107 0.391775
0.824887 0.843687 0.399207
0.825284 0.843961 0.402228
0.825299 0.843976 0.402213
0.825284 0.843976 0.402182
0.825284 0.843976 0.402121
0.825299 0.843992 0.402014
0.825315 0.844007 0.401801
0.825345 0.844022 0.401465
0.825376 0.844068 0.401129
0.825376 0.844068 0.400992
0.825376 0.844068 0.401068
0.825345 0.844053 0.401297
0.277302 0.807767 0.460426
0.277363 0.80763 0.460166
0.277363 0.807553 0.459556
0.277241 0.807507 0.45864
0.276982 0.807507 0.457099
0.27657 0.807462 0.45539
0.276143 0.807202 0.452659
0.275776 0.806912 0.451194
0.275227 0.806302 0.447715
0.275151 0.806226 0.447349
0.275135 0.806226 0.447349
0.272099 0.804166 0.433555
0.288685 0.798367 0.367559
0.42945 0.800549 0.390402
0.514778 0.80415 0.413443
0.596399 0.818799 0.399191
0.676722 0.827985 0.390539
0.745052 0.836942 0.37586
0.784268 0.843778 0.371847
0.811261 0.845426 0.376654
0.8224 0.843015 0.390341
0.824765 0.843595 0.398505
0.825284 0.843976 0.402197
0.825284 0.843976 0.402197
0.825284 0.843961 0.402167
0.825299 0.843976 0.402121
0.825299 0.843992 0.402014
0.825315 0.844007 0.401801
0.825345 0.844022 0.401465
0.825376 0.844068 0.401129
0.825376 0.844068 0.400992
0.825391 0.844068 0.401007
0.825376 0.844053 0.40116
0.27715 0.807858 0.460502
0.277241 0.807767 0.460288
0.277241 0.80766 0.459693
0.27715 0.807599 0.458854
0.276921 0.807568 0.457282
0.276539 0.807507 0.455558
0.276112 0.807248 0.45272
0.275761 0.806943 0.451164
0.275212 0.806332 0.447761
0.275135 0.806241 0.447333
0.27512 0.806241 0.447318
0.272206 0.804395 0.435615
0.290303 0.798779 0.371969
0.427665 0.800626 0.38996
0.513222 0.803952 0.413245
0.592706 0.818586 0.400259
0.672267 0.827893 0.390433
0.741527 0.836652 0.376745
0.782116 0.84358 0.371191
0.809827 0.845457 0.375692
0.821897 0.842908 0.389013
0.824704 0.843565 0.397253
0.825284 0.843961 0.402075
0.825284 0.843961 0.402167
0.825284 0.843976 0.402152
0.825284 0.843976 0.402121
0.825299 0.843992 0.402014
0.825315 0.844007 0.401801
0.825345 0.844022 0.40148
0.825376 0.844068 0.401129
0.825391 0.844068 0.400977
0.825376 0.844083 0.400931
0.825376 0.844068 0.400992
0.277028 0.807919 0.460594
0.277073 0.807874 0.460319
0.277073 0.807782 0.459724
0.276982 0.807706 0.458885
0.276783 0.80766 0.457343
0.276478 0.807568 0.455695
0.276112 0.807294 0.452842
0.275746 0.806958 0.451225
0.275212 0.806348 0.447761
0.27512 0.806241 0.447318
0.27512 0.806241 0.447318
0.272267 0.804425 0.435828
0.290364 0.799054 0.374746
0.424674 0.800412 0.38883
0.510292 0.803479 0.412207
0.589563 0.81799 0.401038
0.669993 0.827695 0.390402
0.738994 0.836042 0.376913
0.780118 0.84332 0.370871
0.808606 0.84535 0.37464
0.821241 0.842908 0.387289
0.824689 0.843565 0.395743
0.825269 0.843992 0.400839
0.82533 0.844022 0.401556
0.825345 0.844022 0.401526
0.825345 0.844022 0.401465
0.82536 0.844053 0.401266
0.825391 0.844068 0.401007
0.825391 0.844099 0.400732
0.825422 0.844114 0.400504
0.825437 0.844129 0.400336
0.825422 0.844129 0.400275
0.825422 0.844129 0.40029
0.276768 0.808057 0.460563
0.276783 0.808011 0.460258
0.276844 0.807965 0.459693
0.276722 0.807858 0.458824
0.27657 0.807782 0.457374
0.276371 0.80763 0.455711
0.276051 0.807355 0.452888
0.275715 0.807004 0.451255
0.275166 0.806378 0.447761
0.275105 0.806271 0.447318
0.27512 0.806256 0.447333
0.272511 0.804593 0.436423
0.287678 0.799023 0.376959
0.420523 0.8 0.387732
0.507073 0.803311 0.411368
0.585016 0.817411 0.401877
