bundles/resolve-cinematic-luts/Phantom Luts/Komodo Phantom FILM LUTs G2/Komodo Phantom FILM LUTs G2/33x/Standard (No WB Offset)/Vision_Komodo_Legacy_G2_33x.cube
TITLE "Generated by Resolve"
LUT_3D_SIZE 5
0.0361028 0.0486152 0.0394293
0.147875 0.0427253 0.0335088
0.622141 0.0676127 0.0683299
0.625025 0.0648661 0.0699779
0.629511 0.0812238 0.0637369
0.0404517 0.17702 0.0624094
0.132967 0.185397 0.047776
0.673564 0.10016 0.0593271
0.680842 0.101167 0.0634012
0.739757 0.188449 0.0968795
0.240009 0.755367 0.351843
0.260594 0.770642 0.336416
0.731929 0.80116 0.272175
0.82649 0.795972 0.262913
0.826551 0.787488 0.249699
0.265492 0.801251 0.43035
0.263554 0.799954 0.419699
0.635752 0.824537 0.371511
0.825223 0.842939 0.362203
0.825315 0.843061 0.360784
0.264881 0.801816 0.430686
0.264347 0.800153 0.42266
0.532265 0.804669 0.394308
0.825223 0.842954 0.362097
0.825391 0.843168 0.359701
0.0377356 0.0541238 0.162676
0.197467 0.0454261 0.148363
0.67216 0.0761578 0.246708
0.667155 0.0666972 0.219806
0.655589 0.0500038 0.152483
0.0295262 0.147097 0.129061
0.147829 0.166842 0.146563
0.63566 0.0720989 0.0691691
0.634226 0.0834516 0.0646067
0.715328 0.128115 0.0704204
0.225834 0.733837 0.425467
0.223423 0.72607 0.350439
0.720821 0.789181 0.258824
0.827878 0.776776 0.232227
0.827878 0.774121 0.229236
0.281559 0.810849 0.500481
0.265721 0.801648 0.432212
0.597971 0.817868 0.379843
0.825238 0.842939 0.362142
0.82533 0.843076 0.360693
0.277134 0.80734 0.48127
0.266087 0.80148 0.432425
0.501747 0.79794 0.398154
0.825162 0.842924 0.361028
0.825391 0.843183 0.359594
0.0783093 0.0914931 0.567681
0.199741 0.0695354 0.548043
0.736385 0.132235 0.664393
0.733852 0.136492 0.685603
0.734066 0.125002 0.621363
0.0801556 0.15024 0.60679
0.0929122 0.081178 0.541115
0.729381 0.12639 0.64535
0.735637 0.129732 0.657282
0.709926 0.122469 0.554528
0.0503853 0.662226 0.677668
0.0505379 0.652308 0.667613
0.683543 0.701839 0.680873
0.841413 0.669612 0.637156
0.812787 0.66154 0.547204
0.115175 0.846815 0.752712
0.148104 0.84509 0.717433
0.324834 0.810559 0.516808
0.824765 0.842634 0.356008
0.825055 0.842832 0.360281
0.154131 0.844907 0.711894
0.194934 0.840604 0.677394
0.280247 0.810193 0.496208
0.819532 0.843259 0.346227
0.825208 0.843107 0.358404
0.116426 0.0870832 0.583627
0.237552 0.0753185 0.585946
0.734737 0.13611 0.687144
0.734737 0.13611 0.687144
0.734737 0.13611 0.687144
0.090959 0.149264 0.666682
0.127504 0.0875868 0.5832
0.734035 0.136004 0.6869
0.734737 0.13611 0.687144
0.734737 0.13611 0.687144
0.0295109 0.596826 0.788693
0.0325628 0.583597 0.787884
0.597757 0.534157 0.834806
0.843122 0.559442 0.821714
0.835218 0.527062 0.812314
0.104616 0.838972 0.88011
0.104616 0.838972 0.88011
0.105653 0.857664 0.88069
0.895903 0.932708 0.915267
0.910414 0.926024 0.908583
0.104616 0.838972 0.88011
0.104616 0.838972 0.88011
0.0695506 0.849058 0.842542
0.852857 0.932189 0.8813
0.903227 0.941176 0.88687
0.123888 0.0870222 0.582803
0.245319 0.076112 0.586221
0.734737 0.13611 0.687144
0.734737 0.13611 0.687144
0.734737 0.13611 0.687144
0.0895705 0.145098 0.663539
0.135882 0.0884871 0.583795
0.734737 0.13611 0.687144
0.734737 0.13611 0.687144
0.734737 0.13611 0.687144
0.0309758 0.590768 0.788312
0.03505 0.5776 0.787579
0.589395 0.514687 0.82884
0.837644 0.536736 0.81503
0.827802 0.498787 0.803418
0.104616 0.838972 0.88011
0.104616 0.838972 0.88011
0.0990921 0.833555 0.882963
0.874083 0.909377 0.924392
0.905791 0.904616 0.92491
0.104616 0.838972 0.88011
0.104616 0.838972 0.88011
0.10518 0.840299 0.881148
0.556039 0.885618 0.892912
0.915068 0.950881 0.933501
