bundles/resolve-cinematic-luts/Phantom Luts/Komodo Phantom FILM LUTs G2/Komodo Phantom FILM LUTs G2/33x/Standard (No WB Offset)/Vision_Komodo_G2_33x.cube
TITLE "Generated by Resolve"
LUT_3D_SIZE 5
0.0242161 0.0345617 0.0253605
0.189014 0.0316472 0.0176547
0.647303 0.0327764 0.0738842
0.649744 0.0340429 0.0811475
0.658503 0.0488136 0.0607156
0.035996 0.222492 0.0636454
0.18854 0.23241 0.0392004
0.69955 0.092195 0.0570993
0.704677 0.0860456 0.0614023
0.755627 0.212192 0.106554
0.25893 0.771984 0.375204
0.281193 0.781842 0.348043
0.758755 0.811322 0.289311
0.824369 0.805798 0.299535
0.825116 0.799466 0.2869
0.27715 0.807858 0.460502
0.275212 0.806332 0.447761
0.672267 0.827893 0.390433
0.825284 0.843976 0.402152
0.825376 0.844068 0.400992
0.276478 0.808209 0.46067
0.276066 0.806745 0.451713
0.568795 0.81413 0.405768
0.825284 0.843976 0.402121
0.825483 0.84419 0.39968
0.0314031 0.0437629 0.2103
0.24184 0.0311284 0.187549
0.691722 0.0763409 0.310994
0.686458 0.065507 0.283101
0.684489 0.0526131 0.216876
0.0191196 0.183688 0.167071
0.199359 0.218448 0.195621
0.658122 0.0320134 0.0684367
0.662211 0.0509499 0.0612345
0.738994 0.132189 0.0721752
0.246708 0.763577 0.474815
0.244251 0.75169 0.382803
0.750759 0.802579 0.277852
0.826215 0.791196 0.270756
0.826078 0.789166 0.266865
0.298116 0.820172 0.541817
0.277195 0.80795 0.462364
0.637064 0.824582 0.392294
0.825299 0.843976 0.402136
0.825376 0.844068 0.400992
0.295201 0.817456 0.522118
0.27744 0.807813 0.462684
0.535622 0.807965 0.41088
0.825193 0.8439 0.401129
0.825483 0.84419 0.399573
0.0766003 0.0865187 0.605127
0.247074 0.0604257 0.575067
0.750713 0.131975 0.687175
0.750408 0.13109 0.705425
0.748028 0.112993 0.650507
0.0755322 0.186801 0.665415
0.102892 0.0711681 0.574334
0.746349 0.1234 0.672496
0.750835 0.130907 0.68217
0.723949 0.0959945 0.588815
0.0409094 0.707362 0.729122
0.0420233 0.698329 0.720317
0.728023 0.748302 0.728939
0.852232 0.720439 0.688075
0.829236 0.71281 0.600748
0.0835126 0.852689 0.792004
0.0959029 0.852354 0.762264
0.353536 0.82034 0.558556
0.824521 0.843458 0.393942
0.82501 0.843793 0.399237
0.0981918 0.852232 0.758175
0.130465 0.849714 0.725261
0.29662 0.819486 0.536843
0.820005 0.842969 0.382391
0.825238 0.844038 0.398169
0.138613 0.0787976 0.613504
0.290517 0.0684825 0.611261
0.750957 0.130938 0.706874
0.750957 0.130938 0.706874
0.750957 0.130938 0.706874
0.085771 0.176745 0.715694
0.153948 0.0783703 0.612375
0.750561 0.130861 0.706706
0.750957 0.130938 0.706874
0.750957 0.130938 0.706874
0.0212406 0.647456 0.818433
0.0208896 0.635935 0.816922
0.654658 0.595178 0.860609
0.861769 0.616541 0.844877
0.855085 0.585611 0.836316
0.0839551 0.847135 0.891783
0.0839551 0.847135 0.891783
0.0957961 0.861295 0.891768
0.896849 0.933913 0.916671
0.910552 0.928466 0.911513
0.0839551 0.847135 0.891783
0.0839551 0.847135 0.891783
0.0574655 0.855024 0.86186
0.864317 0.934829 0.890501
0.91133 0.946151 0.899458
0.149447 0.0785992 0.612726
0.298405 0.0689708 0.610956
0.750957 0.130938 0.706874
0.750957 0.130938 0.706874
0.750957 0.130938 0.706874
0.0855116 0.170367 0.712581
0.165545 0.0777142 0.61088
0.750957 0.130938 0.706874
0.750957 0.130938 0.706874
0.750957 0.130938 0.706874
0.0209812 0.641932 0.817639
0.0209964 0.630076 0.816617
0.648127 0.576806 0.856092
0.857069 0.594553 0.838285
0.849073 0.55874 0.828565
0.0839551 0.847135 0.891783
0.0839551 0.847135 0.891783
0.0787976 0.84416 0.893675
0.878447 0.915846 0.923217
0.903807 0.912383 0.924041
0.0839551 0.847135 0.891783
0.0839551 0.847135 0.891783
0.0849928 0.848539 0.892485
0.602167 0.889448 0.893278
0.926299 0.95552 0.941131
