bundles/resolve-cinematic-luts/Phantom Luts/Komodo Phantom FILM LUTs G2/Komodo Phantom FILM LUTs G2/33x/Standard (No WB Offset)/Vision_Komodo_Legacy_G2_33x.cube
TITLE "Generated by Resolve"
LUT_3D_SIZE 33
0.0361028 0.0486152 0.0394293
0.0360876 0.0486152 0.0394293
0.0362097 0.0486152 0.0394141
0.040177 0.049012 0.0398566
0.0476234 0.0491646 0.0366827
0.0615854 0.0471046 0.0361486
0.0829786 0.0453956 0.036286
0.111955 0.0431678 0.0346227
0.147875 0.0427253 0.0335088
0.19646 0.0415961 0.0316472
0.250629 0.0427405 0.0322118
0.312215 0.0436255 0.0343023
0.376974 0.0427405 0.0350652
0.446586 0.0419928 0.0386816
0.512139 0.0407874 0.0440833
0.584253 0.0608377 0.0608682
0.622141 0.0676127 0.0683299
0.626947 0.0631723 0.0712749
0.628 0.0585641 0.0726787
0.629267 0.0555734 0.074052
0.629618 0.0536507 0.0742962
0.629007 0.0548562 0.074052
0.629129 0.056611 0.0737163
0.627497 0.0594492 0.0720226
0.625025 0.0648661 0.0699779
0.622248 0.0690166 0.0681926
0.617533 0.072221 0.0660716
0.612818 0.075761 0.0632639
0.611994 0.0771344 0.0627298
0.610315 0.078645 0.0618296
0.616312 0.0798047 0.0625162
0.623178 0.0809949 0.0637217
0.629511 0.0812238 0.0637369
0.0360876 0.0486152 0.0393835
0.0360876 0.0486152 0.0394141
0.0362097 0.0486152 0.0394293
0.0406195 0.0491951 0.0400244
0.0492866 0.0493324 0.0366674
0.0633707 0.0473182 0.0362707
0.0858473 0.0454566 0.0363165
0.115938 0.043595 0.0347601
0.15404 0.0429694 0.0334478
0.203555 0.0421302 0.0317998
0.257115 0.0431678 0.0320745
0.317357 0.0435492 0.0338598
0.382361 0.0430762 0.0348363
0.446143 0.0435492 0.0369879
0.516304 0.0527962 0.0460059
0.580453 0.0670176 0.0579843
0.61529 0.0732891 0.0649119
0.620645 0.0707866 0.0671092
0.622446 0.0688182 0.0682383
0.623224 0.0662699 0.0688182
0.623774 0.0660868 0.0689708
0.622995 0.0666514 0.0687572
0.621546 0.0681773 0.0677195
0.619852 0.0714122 0.0665904
0.615885 0.0737316 0.0649424
0.61236 0.0755474 0.0631418
0.611734 0.0771191 0.0627604
0.610819 0.0784161 0.0621347
0.613352 0.0795605 0.0621653
0.618769 0.0807965 0.0632944
0.623682 0.0814069 0.0638132
0.629725 0.0817273 0.06392
0.6365 0.083299 0.0645914
0.0361028 0.048661 0.0394446
0.0361181 0.048661 0.0394903
0.0361028 0.0486152 0.0394293
0.038819 0.0495003 0.0401007
0.0452125 0.0501717 0.0378119
0.0619974 0.0481422 0.0361639
0.0856031 0.0464179 0.0367285
0.116564 0.0446021 0.0350958
0.156176 0.0438087 0.0336767
0.205203 0.0431525 0.0319524
0.259007 0.0440986 0.032166
0.320134 0.0445869 0.0340276
0.385077 0.0447547 0.0350042
0.450324 0.0445563 0.0373083
0.51838 0.0577554 0.0465095
0.577676 0.0701305 0.0562295
0.607706 0.0755932 0.0621347
0.611872 0.0749371 0.0630045
0.613764 0.0744793 0.0638285
0.614893 0.0741131 0.064271
0.614984 0.0741436 0.0642863
0.61413 0.0748455 0.0639353
0.612848 0.0751659 0.0631876
0.609293 0.0765087 0.0622416
0.61091 0.0773327 0.0623941
0.61178 0.0783246 0.0621805
0.61297 0.079469 0.0621347
0.616861 0.0805829 0.063035
0.62179 0.0815442 0.0637827
0.625574 0.0817884 0.063798
0.630594 0.082536 0.0643015
0.636866 0.0838941 0.0649577
0.644022 0.0859083 0.0663005
0.0361334 0.0542916 0.0400702
0.0360876 0.0539406 0.0399939
0.0367437 0.0534218 0.0400854
0.0385595 0.0527047 0.0402686
0.0424659 0.0535897 0.0404059
0.0585946 0.0521859 0.0360571
0.0812848 0.0485237 0.0370642
0.114397 0.0462501 0.0356451
0.154437 0.0453498 0.0341039
0.206378 0.0446174 0.0323949
0.261006 0.0454261 0.0326848
0.320821 0.0458228 0.0335088
0.3888 0.046479 0.0356298
0.452918 0.0465248 0.0382086
0.519432 0.0561227 0.0454566
0.582177 0.0718242 0.0570687
0.607172 0.0780957 0.0613565
0.607309 0.0774701 0.0616464
0.606699 0.0773632 0.0615702
0.607889 0.0772259 0.0617838
0.609476 0.0771954 0.0619974
0.60705 0.0778973 0.061387
0.609613 0.0782483 0.0618143
0.612879 0.0788891 0.0622568
0.614237 0.0797742 0.0623484
0.61796 0.0807507 0.0632181
0.621881 0.0815595 0.0637675
0.624399 0.0818647 0.0638285
0.628687 0.082475 0.0641642
0.633356 0.0836042 0.0648508
0.63856 0.0851606 0.0658427
0.644877 0.0867323 0.0665293
0.650782 0.0881666 0.0661631
0.0365606 0.0644694 0.0418708
0.0366217 0.0640726 0.0419165
0.0369421 0.0635386 0.0420233
0.0395819 0.062211 0.042298
0.0440833 0.0623484 0.0424964
0.0545663 0.0633097 0.0401465
0.0815442 0.0584573 0.0392615
0.111269 0.0538796 0.0372625
0.151705 0.0493782 0.0348669
0.205051 0.0464485 0.0327001
0.261311 0.0469062 0.0331579
0.322835 0.0472572 0.0337835
0.390433 0.0492256 0.0363928
0.454307 0.0486915 0.038468
0.517601 0.0492866 0.0417945
0.585977 0.0728313 0.057557
0.615869 0.0802167 0.0627756
0.615274 0.0800183 0.0626841
0.613748 0.0794537 0.062211
0.61387 0.0795605 0.0622263
0.614618 0.0798962 0.062501
0.616754 0.0803082 0.0629282
0.619257 0.0810254 0.063447
0.621973 0.0815595 0.0637675
0.623621 0.0818189 0.0638743
0.626459 0.0822309 0.0639506
0.630106 0.0828717 0.0644236
0.633936 0.0840925 0.0651102
0.6383 0.0857252 0.0661326
0.643015 0.0871748 0.0667887
0.647334 0.0882124 0.066392
0.653376 0.0898451 0.0664988
0.660685 0.0931106 0.0668956
0.0374609 0.0799268 0.045182
0.0372015 0.0794385 0.0445869
0.0372931 0.0789349 0.0445716
0.0395056 0.0779736 0.0450446
0.043061 0.0755627 0.0455177
0.0525673 0.0777752 0.0447242
0.0853132 0.0759289 0.0370184
0.11545 0.0695048 0.0425116
0.156252 0.0623178 0.0398718
0.207401 0.0557259 0.0352789
0.260609 0.0507515 0.033341
0.322011 0.0491493 0.0345617
0.390356 0.0509499 0.0361334
0.456443 0.0523842 0.0392157
0.521981 0.0546883 0.0439155
0.590723 0.074464 0.0582437
0.625223 0.0819104 0.063859
0.624842 0.0818952 0.0638285
0.623499 0.0818189 0.0638743
0.624109 0.0818341 0.063859
0.625437 0.0819715 0.063859
0.626932 0.0823529 0.0639506
0.629099 0.0827802 0.0642557
0.631174 0.0833143 0.0646525
0.634424 0.0842451 0.0652323
0.637949 0.0856489 0.0660868
0.64181 0.0870527 0.0668498
0.6448 0.0878309 0.066453
0.648722 0.0893873 0.0667582
0.653712 0.091249 0.0670787
0.658946 0.093904 0.0673838
0.66389 0.0955825 0.0666361
0.670619 0.0973983 0.0656748
0.0395209 0.102586 0.050309
0.0393072 0.101808 0.0489509
0.0392309 0.101061 0.0488746
0.0395056 0.100252 0.0488441
0.0432136 0.099321 0.0492561
0.051545 0.0985428 0.0504005
0.0690929 0.100755 0.0466621
0.119921 0.0957809 0.0388647
0.166567 0.0860456 0.0458076
0.220325 0.0764324 0.0433509
0.275593 0.067628 0.0400397
0.329076 0.0603799 0.035935
0.390021 0.0562142 0.03505
0.457618 0.0571908 0.0399329
0.524285 0.0575418 0.0439002
0.593637 0.0770275 0.0580911
0.635386 0.0848859 0.0656291
0.635401 0.0849165 0.0656596
0.636103 0.0852216 0.0658579
0.636576 0.0854505 0.0659342
0.637125 0.0856031 0.0660563
0.639094 0.0865644 0.0666056
0.641672 0.0873579 0.0669413
0.643565 0.0877852 0.0667124
0.646342 0.0887922 0.0667124
0.649744 0.0902724 0.0669108
0.65391 0.0922713 0.0674907
0.657603 0.0945602 0.0678111
0.661051 0.0959182 0.0669718
0.665293 0.0971847 0.066392
0.669978 0.0986038 0.0655985
0.675898 0.0999161 0.0649729
0.68162 0.100954 0.0633555
0.0409247 0.133761 0.0569924
0.0407874 0.132952 0.0556191
0.0408637 0.132021 0.0550698
0.0409094 0.131365 0.0550546
0.0429847 0.130694 0.055436
0.0489357 0.129351 0.05626
0.0627756 0.129747 0.0567788
0.0940261 0.133745 0.047013
0.171603 0.125353 0.0408637
0.235645 0.113695 0.0514229
0.294728 0.104723 0.0536812
0.356725 0.0952468 0.0512245
0.419059 0.0882277 0.0484474
0.477348 0.079942 0.0444953
0.533379 0.0708782 0.0443732
0.592844 0.0740368 0.0543526
0.645365 0.0890516 0.0659342
0.648737 0.0893873 0.0667887
0.649393 0.0894789 0.0668803
0.650431 0.0904097 0.0668193
0.652552 0.0912184 0.0670329
0.655055 0.0925307 0.0675212
0.656764 0.093492 0.067689
0.659205 0.094728 0.0675059
0.661753 0.095964 0.0668956
0.664637 0.0970016 0.0665141
0.668391 0.0979477 0.0657054
0.672465 0.0994736 0.0652934
0.676783 0.100557 0.0647135
0.680674 0.101228 0.0634012
0.684855 0.102083 0.0623178
0.691981 0.10959 0.0618906
0.708736 0.123339 0.0681315
0.0404517 0.17702 0.0624094
0.0402838 0.175906 0.0608225
0.0398871 0.174548 0.0585489
0.0399176 0.173663 0.0585336
0.0399481 0.171923 0.0585184
0.0451057 0.17258 0.0593576
0.0547799 0.171649 0.0612039
0.0787671 0.17702 0.0627451
0.132967 0.185397 0.047776
0.240085 0.175647 0.0450904
0.318837 0.168536 0.0680858
0.384909 0.163378 0.0798199
0.455055 0.153841 0.0802625
0.521035 0.142428 0.0791943
0.581476 0.129519 0.0722362
0.63209 0.11162 0.0619821
0.673564 0.10016 0.0593271
0.670512 0.0986801 0.065095
0.666957 0.0973068 0.0661479
0.667048 0.0973526 0.0662394
0.669047 0.0978866 0.0657664
0.670878 0.0988327 0.0655222
0.674418 0.0995956 0.0649424
0.677333 0.100542 0.0648203
0.680842 0.101167 0.0634012
0.684901 0.10219 0.0616617
0.688197 0.103395 0.060441
0.692287 0.108751 0.060441
0.704387 0.121401 0.0668498
0.71754 0.134066 0.0725414
0.726574 0.144762 0.0780194
0.734447 0.164904 0.0877394
0.739757 0.188449 0.0968795
0.051667 0.240375 0.0810864
0.0513161 0.240085 0.0800031
0.0509651 0.238514 0.0777142
0.0497597 0.236316 0.0749981
0.0496681 0.234958 0.0747082
0.0502632 0.233341 0.0741741
0.0597543 0.236179 0.0766918
0.0770886 0.237156 0.0788128
0.1131 0.246784 0.0809033
0.203128 0.251316 0.0551156
0.317418 0.239902 0.0497902
0.398978 0.237476 0.0818799
0.468055 0.23534 0.098024
0.533715 0.231205 0.105486
0.599161 0.216815 0.104906
0.662089 0.199115 0.102007
0.718196 0.178485 0.0933394
0.730266 0.153048 0.0819715
0.719997 0.134661 0.0722362
0.711543 0.126558 0.0679332
0.70901 0.12256 0.0675822
0.707774 0.118441 0.0641489
0.710414 0.121202 0.0652171
0.716503 0.129473 0.0701305
0.724117 0.142855 0.0767834
0.730709 0.15407 0.0821851
0.734737 0.166033 0.0879683
0.737789 0.182681 0.0950179
0.740856 0.202441 0.10251
0.742885 0.221469 0.10985
0.74345 0.240436 0.11545
0.746044 0.260746 0.12224
0.749477 0.282704 0.130022
0.0650645 0.311849 0.10457
0.0643778 0.311025 0.102892
0.0638437 0.309316 0.0996567
0.0628672 0.307561 0.0963607
0.0630503 0.306218 0.0957656
0.0627756 0.304265 0.0952163
0.0662089 0.304952 0.0958572
0.0800488 0.307118 0.0973983
0.108431 0.310674 0.0995346
0.159335 0.321416 0.10013
0.277211 0.32459 0.0634775
0.399405 0.314153 0.055024
0.481559 0.316869 0.0969863
0.546197 0.319951 0.118181
0.605844 0.318532 0.13286
0.661738 0.315694 0.140917
0.717739 0.299962 0.132586
0.747265 0.274144 0.127672
0.745953 0.258412 0.122286
0.744945 0.245243 0.118395
0.744671 0.234653 0.11574
0.743648 0.226291 0.112245
0.743908 0.225879 0.112215
0.745663 0.235309 0.116823
0.744823 0.247379 0.118334
0.745525 0.261402 0.122347
0.746899 0.279194 0.127581
0.749081 0.296208 0.134081
0.748394 0.312963 0.139757
0.748348 0.332326 0.14728
0.748104 0.351461 0.155001
0.74844 0.371374 0.163165
0.748226 0.387259 0.164309
0.0817731 0.388678 0.134447
0.0811933 0.388067 0.132204
0.0809491 0.3879 0.129702
0.0806897 0.38703 0.126192
0.0798657 0.385428 0.121874
0.0793774 0.383871 0.120806
0.0786145 0.38175 0.119692
0.0898756 0.384314 0.122454
0.110552 0.385092 0.124147
0.156786 0.390768 0.128222
0.226688 0.401114 0.121355
0.360098 0.40679 0.0793622
0.482444 0.396429 0.0619516
0.554345 0.403372 0.099382
0.618479 0.407065 0.141176
0.66894 0.412467 0.156298
0.716899 0.414816 0.158419
0.74786 0.40882 0.160739
0.748928 0.396658 0.163272
0.747585 0.386877 0.163394
0.747005 0.379705 0.164034
0.747387 0.375326 0.16318
0.747463 0.372915 0.162982
0.747784 0.373495 0.163897
0.747799 0.375296 0.164614
0.747585 0.387381 0.165179
0.748272 0.398154 0.163714
0.748974 0.40972 0.161456
0.749752 0.423148 0.161852
0.75079 0.437552 0.162753
0.751659 0.448722 0.16347
0.752224 0.461585 0.163973
0.753872 0.472892 0.165026
0.105959 0.469169 0.178729
0.105455 0.469184 0.176333
0.104616 0.468299 0.172183
0.10399 0.467811 0.167544
0.103563 0.467887 0.161578
0.104234 0.468162 0.158328
0.103487 0.466285 0.157168
0.102968 0.463478 0.155657
0.121904 0.464256 0.157015
0.159197 0.463951 0.159701
0.22707 0.470298 0.167819
0.305745 0.48217 0.144015
0.442176 0.487129 0.0985122
0.556878 0.477729 0.0720073
0.624491 0.482856 0.103746
0.680919 0.493172 0.139605
0.727596 0.50161 0.164508
0.757519 0.509575 0.163134
0.758556 0.504265 0.165148
0.757153 0.497978 0.165682
0.756573 0.493965 0.165728
0.756176 0.491493 0.165835
0.756176 0.491554 0.166186
0.7561 0.492638 0.166552
0.756176 0.493446 0.167254
0.756207 0.494957 0.167727
0.756436 0.496239 0.167727
0.758007 0.502724 0.167163
0.759869 0.51104 0.165347
0.762173 0.519722 0.163729
0.763897 0.528771 0.161532
0.765469 0.537591 0.159884
0.768078 0.545769 0.155901
0.13518 0.545907 0.22768
0.134539 0.54548 0.22443
0.133791 0.544961 0.220417
0.133211 0.545159 0.216022
0.132723 0.545541 0.21059
0.134295 0.547311 0.206378
0.134798 0.546593 0.204181
0.133913 0.543572 0.202625
0.13846 0.540352 0.199817
0.177981 0.539574 0.201205
0.229099 0.535866 0.204074
0.30396 0.544747 0.213947
0.392996 0.557656 0.166415
0.517189 0.564691 0.122805
0.623926 0.558267 0.0991684
0.692958 0.563775 0.113527
0.743267 0.577386 0.129519
0.775692 0.593164 0.132265
0.779263 0.590784 0.135607
0.778134 0.586557 0.137514
0.776944 0.583215 0.138979
0.776837 0.581872 0.14023
0.776699 0.582071 0.139788
0.776425 0.583032 0.138018
0.776883 0.584787 0.13666
0.777493 0.587076 0.135714
0.777661 0.588937 0.134264
0.778836 0.590463 0.134691
0.778912 0.591745 0.133654
0.780652 0.596063 0.133577
0.782986 0.602289 0.132677
0.785946 0.608057 0.132891
0.787655 0.61178 0.131853
0.167727 0.618479 0.272129
0.167666 0.619058 0.26952
0.167346 0.619165 0.265675
0.166781 0.61944 0.26128
0.166506 0.620706 0.255924
0.168215 0.621744 0.249592
0.174899 0.623453 0.247547
0.17406 0.621622 0.246204
0.172396 0.618112 0.24387
0.192554 0.611383 0.237278
0.246403 0.607843 0.240314
0.307256 0.606256 0.247807
0.379324 0.618112 0.242741
0.476677 0.631037 0.199054
0.588159 0.64506 0.160143
0.685542 0.642786 0.140627
0.75642 0.652796 0.130785
0.793729 0.668162 0.12874
0.808377 0.669367 0.13814
0.806073 0.663172 0.137011
0.805493 0.661814 0.136751
0.805463 0.661723 0.136751
0.805493 0.661738 0.13669
0.805829 0.662348 0.136431
0.806561 0.6636 0.136721
0.807294 0.665812 0.136294
0.808377 0.668513 0.137057
0.809079 0.670207 0.137743
0.809339 0.670787 0.137957
0.809323 0.670756 0.138003
0.808545 0.669306 0.137362
0.80943 0.672023 0.13817
0.8103 0.675837 0.139635
0.206409 0.68748 0.313893
0.206043 0.68777 0.311711
0.205524 0.688167 0.307698
0.205432 0.689067 0.303441
0.205097 0.689754 0.296529
0.208194 0.691432 0.291417
0.218158 0.69572 0.290272
0.221973 0.696513 0.288914
0.219348 0.693843 0.287312
0.222156 0.68864 0.283864
0.260822 0.678126 0.274617
0.32079 0.671229 0.280354
0.392721 0.675792 0.291234
0.464805 0.693599 0.270588
0.562478 0.709285 0.244877
0.660487 0.729885 0.218616
0.744244 0.735256 0.206455
0.795911 0.741634 0.18349
0.824735 0.74078 0.178775
0.826871 0.736431 0.173999
0.826566 0.735119 0.173907
0.82652 0.734966 0.174014
0.82681 0.735424 0.174411
0.827115 0.736797 0.175402
0.827451 0.73814 0.17792
0.827665 0.73994 0.179797
0.828275 0.741054 0.18146
0.828611 0.742199 0.181689
0.828687 0.742748 0.181598
0.828626 0.742077 0.181582
0.828367 0.740398 0.18117
0.827802 0.737865 0.179217
0.827298 0.734905 0.175677
0.240009 0.755367 0.351843
0.240162 0.756558 0.350439
0.239963 0.757046 0.347234
0.240024 0.758343 0.343389
0.240345 0.760998 0.337682
0.244327 0.764858 0.336736
0.254093 0.768475 0.337301
0.261036 0.77351 0.33901
0.260594 0.770642 0.336416
0.261448 0.7682 0.335592
0.29659 0.759594 0.330175
0.350271 0.74432 0.325429
0.412024 0.73611 0.328969
0.482841 0.751507 0.328435
0.570153 0.770626 0.303365
0.654002 0.788571 0.290929
0.731929 0.80116 0.272175
0.782315 0.800046 0.268025
0.815152 0.796994 0.262303
0.826627 0.794324 0.260212
0.82678 0.792752 0.258137
0.826749 0.793042 0.258579
0.826566 0.793942 0.2598
0.826581 0.794827 0.261082
0.82649 0.795972 0.262913
0.826444 0.797086 0.264256
0.826352 0.797665 0.265309
0.826139 0.798016 0.265888
0.826001 0.798321 0.2663
0.826078 0.798123 0.265965
0.826337 0.796811 0.263249
0.826566 0.79353 0.258686
0.826551 0.787488 0.249699
0.261112 0.797604 0.403357
0.2607 0.797696 0.402274
0.260029 0.797864 0.400488
0.259449 0.798016 0.399252
0.259113 0.798108 0.397681
0.258854 0.798169 0.395438
0.258595 0.798184 0.393194
0.257923 0.798077 0.39089
0.257679 0.797848 0.387808
0.257359 0.797543 0.384253
0.256046 0.796506 0.372259
0.339773 0.793042 0.36228
0.419959 0.786252 0.371588
0.495033 0.788937 0.383841
0.566751 0.805066 0.372427
0.650706 0.818021 0.35407
0.715328 0.828855 0.336873
0.772244 0.835309 0.324422
0.807736 0.833921 0.332799
0.824247 0.832319 0.330388
0.824125 0.831174 0.325444
0.824109 0.831327 0.325765
0.824094 0.831739 0.326558
0.824186 0.832319 0.327306
0.824186 0.832685 0.327825
0.824125 0.833097 0.328237
0.824231 0.833478 0.329046
0.824308 0.833677 0.329427
0.824323 0.833677 0.329335
0.824155 0.833204 0.32813
0.824201 0.832105 0.32665
0.824048 0.83006 0.322576
0.824079 0.826993 0.315633
0.265995 0.800259 0.427787
0.26566 0.800397 0.427192
0.265171 0.80061 0.426429
0.264622 0.800793 0.425422
0.264149 0.80087 0.424323
0.26389 0.800763 0.423194
0.263706 0.800702 0.422354
0.263447 0.800381 0.420294
0.263249 0.800137 0.419059
0.263249 0.800122 0.419059
0.263233 0.800015 0.418448
0.256977 0.797375 0.383276
0.345022 0.795056 0.364599
0.454505 0.794965 0.386511
0.535317 0.805493 0.393729
0.615839 0.821149 0.375799
0.694286 0.833249 0.362325
0.757015 0.841489 0.347906
0.80322 0.845533 0.342779
0.822309 0.842741 0.35787
0.825101 0.842786 0.362341
0.825025 0.842756 0.360891
0.825025 0.842756 0.361242
0.82504 0.842756 0.361456
0.825055 0.842786 0.361593
0.825055 0.842802 0.361761
0.825071 0.842817 0.361685
0.825101 0.842832 0.361669
0.825086 0.842847 0.361242
0.825071 0.842832 0.360861
0.82501 0.842771 0.360342
0.824918 0.842695 0.359274
0.82472 0.842512 0.35729
0.266133 0.800366 0.42855
0.265858 0.800458 0.428168
0.265415 0.80061 0.427497
0.264927 0.800793 0.42649
0.264408 0.800885 0.425162
0.264042 0.800824 0.42388
0.263783 0.800702 0.422629
0.263539 0.800473 0.420874
0.263249 0.800137 0.419059
0.263249 0.800137 0.419059
0.263264 0.800122 0.419059
0.258732 0.798077 0.394812
0.30663 0.795178 0.359564
0.412741 0.79469 0.377554
0.50605 0.799512 0.397925
0.583246 0.815213 0.382818
0.666178 0.828672 0.367712
0.738598 0.839002 0.350698
0.791867 0.845335 0.342412
0.818814 0.843107 0.349844
0.824918 0.842741 0.358618
0.825193 0.842893 0.362921
0.825208 0.842878 0.362982
0.825208 0.842878 0.362951
0.825223 0.842893 0.36286
0.825223 0.842908 0.362676
0.825238 0.842924 0.362463
0.825254 0.842954 0.36228
0.825254 0.842954 0.362203
0.825269 0.842969 0.362219
0.825269 0.842954 0.362356
0.825269 0.842939 0.36257
0.825284 0.842939 0.36286
0.265782 0.800748 0.428992
0.265614 0.800763 0.428595
0.265309 0.800839 0.428122
0.264927 0.800931 0.427146
0.264485 0.800992 0.426078
0.264118 0.800931 0.424399
0.263813 0.800732 0.422827
0.263584 0.800549 0.421393
0.263264 0.800153 0.41912
0.263249 0.800137 0.419059
0.263249 0.800122 0.419043
0.259327 0.798199 0.400671
0.293843 0.794781 0.358206
0.405493 0.794232 0.375341
0.494972 0.797498 0.39559
0.572564 0.813489 0.386191
0.657649 0.826932 0.368841
0.72903 0.838193 0.352682
0.783993 0.844816 0.342916
0.815183 0.844068 0.346471
0.824781 0.842664 0.356008
0.825208 0.842985 0.36083
0.825238 0.842985 0.361715
0.825238 0.842985 0.361715
0.825238 0.842985 0.361654
0.825254 0.843 0.361517
0.825269 0.843015 0.361334
0.825299 0.84303 0.361151
0.825299 0.84303 0.361028
0.825315 0.843046 0.361013
0.825284 0.84303 0.361089
0.825269 0.84303 0.361303
0.825254 0.843 0.361578
0.266056 0.800687 0.429633
0.266102 0.80058 0.429313
0.265965 0.800565 0.42884
0.265705 0.80058 0.428153
0.265309 0.80061 0.426795
0.264836 0.800565 0.425147
0.264317 0.800412 0.423514
0.264073 0.800244 0.42211
0.26363 0.799802 0.419394
0.26363 0.799786 0.419379
0.263645 0.799786 0.419409
0.261204 0.798184 0.405707
0.284566 0.794644 0.357275
0.400961 0.793683 0.374914
0.488121 0.796323 0.394018
0.565454 0.811261 0.387717
0.65066 0.826032 0.370703
0.723247 0.837095 0.355322
0.777966 0.843976 0.344579
0.813306 0.845991 0.343511
0.824643 0.842496 0.35555
0.825101 0.842863 0.360647
0.825208 0.842908 0.362493
0.825208 0.842908 0.362463
0.825223 0.842908 0.362371
0.825208 0.842939 0.362249
0.825238 0.842954 0.362036
0.825238 0.842969 0.36173
0.825269 0.84303 0.361273
0.825315 0.843061 0.360876
0.82533 0.843076 0.360693
0.82533 0.843076 0.360693
0.825315 0.843061 0.360876
0.265599 0.801053 0.429862
0.265736 0.800885 0.429511
0.265736 0.800778 0.429068
0.265599 0.800717 0.428367
0.265278 0.800687 0.427237
0.264866 0.800626 0.425528
0.264332 0.800488 0.423728
0.264042 0.80029 0.422263
0.2636 0.799863 0.419547
0.263569 0.799832 0.419333
0.263569 0.799847 0.419333
0.261372 0.798428 0.407385
0.2766 0.795285 0.358389
0.396887 0.793805 0.373968
0.484581 0.796078 0.393378
0.559915 0.810559 0.389166
0.644877 0.825437 0.370794
0.716945 0.836286 0.356237
0.772076 0.843275 0.34493
0.810712 0.845914 0.342901
0.823697 0.842573 0.353231
0.825025 0.842817 0.359716
0.825223 0.842924 0.36231
0.825223 0.842924 0.362295
0.825223 0.842924 0.362249
0.825238 0.842939 0.362142
0.825254 0.842954 0.361929
0.825254 0.842985 0.361624
0.825299 0.84303 0.361181
0.825315 0.843061 0.3608
0.82533 0.843076 0.360647
0.82533 0.843076 0.360678
0.825315 0.843061 0.360845
0.265476 0.80119 0.430121
0.265614 0.801038 0.429831
0.265644 0.8009 0.429297
0.265522 0.800824 0.42855
0.265202 0.800763 0.427512
0.264775 0.800717 0.425772
0.26424 0.80058 0.423789
0.263981 0.800381 0.422248
0.263554 0.799939 0.419654
0.263508 0.799893 0.419287
0.263508 0.799908 0.419287
0.261448 0.798566 0.408499
0.273182 0.795346 0.358434
0.393194 0.794049 0.372793
0.478431 0.796033 0.39202
0.556832 0.809964 0.389609
0.639368 0.82475 0.370855
0.712703 0.835889 0.356939
0.767895 0.843 0.345495
0.807858 0.845945 0.342672
0.822858 0.842664 0.352453
0.824979 0.842786 0.358862
0.825238 0.842924 0.36228
0.825208 0.842939 0.362249
0.825223 0.842939 0.362219
0.825238 0.842939 0.362112
0.825223 0.842969 0.361929
0.825269 0.842985 0.361624
0.825284 0.84303 0.361166
0.825315 0.843061 0.360815
0.82533 0.843076 0.360678
0.82533 0.843076 0.360693
0.825315 0.843061 0.360845
0.265492 0.801251 0.43035
0.265614 0.801083 0.430045
0.265629 0.800977 0.429496
0.265492 0.8009 0.428733
0.265171 0.800839 0.42771
0.264744 0.800778 0.425956
0.264225 0.80061 0.42385
0.263951 0.800412 0.422232
0.263554 0.799954 0.419699
0.263493 0.799908 0.419272
0.263478 0.799924 0.419272
0.261585 0.798672 0.409796
0.274769 0.795453 0.361105
0.391791 0.794079 0.372305
0.476738 0.796094 0.391669
0.552789 0.809613 0.390539
0.635752 0.824537 0.371511
0.708843 0.835004 0.357702
0.764508 0.842588 0.345708
0.805295 0.845945 0.342275
0.822003 0.842817 0.351797
0.824918 0.842756 0.358328
0.825208 0.842939 0.362127
0.825223 0.842924 0.362249
0.825223 0.842939 0.362203
0.825238 0.842939 0.362112
0.825254 0.842954 0.361929
0.825254 0.842985 0.361639
0.825284 0.84303 0.361196
0.825315 0.843061 0.36083
0.82533 0.843076 0.360678
0.82533 0.843076 0.360678
0.825315 0.843061 0.360784
0.265385 0.801358 0.430503
0.265446 0.801221 0.430106
0.265461 0.801099 0.429557
0.265324 0.801007 0.428794
0.265095 0.800916 0.427802
0.264714 0.800824 0.426078
0.26421 0.800641 0.423911
0.263951 0.800412 0.422263
0.263554 0.799969 0.419699
0.263478 0.799924 0.419272
0.263493 0.799924 0.419272
0.261646 0.798672 0.41001
0.274922 0.795575 0.363546
0.388922 0.794064 0.371786
0.47393 0.796185 0.391165
0.549752 0.808804 0.391333
0.632334 0.824125 0.371572
0.705257 0.834791 0.358633
0.761547 0.842435 0.346273
0.803494 0.845808 0.341222
0.821271 0.842954 0.350805
0.824918 0.842786 0.357
0.825223 0.842985 0.361013
0.825238 0.842985 0.361746
0.825254 0.842985 0.361746
0.825238 0.842985 0.361669
0.825269 0.843015 0.361456
0.825299 0.84303 0.361074
0.825315 0.843076 0.360708
0.82533 0.843091 0.360479
0.825345 0.843107 0.360357
0.825345 0.843107 0.360311
0.82533 0.843107 0.360342
0.265187 0.801541 0.430564
0.265156 0.801434 0.430045
0.265141 0.801312 0.429557
0.26508 0.801205 0.428763
0.264897 0.801068 0.427832
0.264576 0.800931 0.426139
0.264149 0.800717 0.423957
0.26392 0.800458 0.422293
0.263523 0.8 0.419699
0.263462 0.799924 0.419257
0.263478 0.799924 0.419257
0.261799 0.798688 0.410788
0.272877 0.795727 0.365255
0.385229 0.794507 0.371511
0.470756 0.795758 0.390463
