bundles/resolve-cinematic-luts/Phantom Luts/Komodo Phantom FILM LUTs G2/Komodo Phantom FILM LUTs G2/33x/Standard (No WB Offset)/VisionTeal_Komodo_Legacy_G2_33x.cube
TITLE "Generated by Resolve"
LUT_3D_SIZE 9
0.0293584 0.0500191 0.0484016
0.0474403 0.0479744 0.0475776
0.162173 0.0331884 0.0355535
0.385473 0.0302892 0.0318456
0.613642 0.0508736 0.0631723
0.618448 0.039292 0.0659495
0.612406 0.0527504 0.0623484
0.609216 0.0607462 0.059678
0.632029 0.0630961 0.0657054
0.0300755 0.0659648 0.0465553
0.0418708 0.0626535 0.0491493
0.160296 0.0457465 0.0386664
0.39678 0.0372473 0.0337987
0.612161 0.0607309 0.0605783
0.612696 0.0608377 0.0607004
0.623468 0.0642405 0.0627909
0.640208 0.0708171 0.0664988
0.6645 0.0805524 0.0701457
0.0324407 0.177325 0.0504158
0.0300298 0.172793 0.0473945
0.148165 0.178302 0.0499123
0.472801 0.161288 0.0743572
0.673548 0.092256 0.0627909
0.668391 0.0860609 0.0691234
0.68513 0.0944381 0.067155
0.725521 0.138354 0.0789654
0.76408 0.251316 0.11249
0.0988479 0.459648 0.123278
0.0951858 0.458198 0.109453
0.114473 0.449226 0.103883
0.432944 0.456016 0.0940871
0.733394 0.540719 0.152453
0.771893 0.539849 0.164492
0.771649 0.538842 0.166171
0.771847 0.559915 0.158419
0.775021 0.599649 0.145617
0.240223 0.757855 0.271916
0.242054 0.763592 0.251255
0.265812 0.769741 0.242374
0.458061 0.69099 0.230076
0.740932 0.776638 0.247333
0.815259 0.785183 0.28867
0.814755 0.787549 0.291676
0.814389 0.789075 0.293706
0.814404 0.781064 0.283543
0.260029 0.818616 0.371954
0.258595 0.819806 0.36997
0.258289 0.818433 0.361593
0.302464 0.792477 0.261219
0.706432 0.787076 0.300191
0.815793 0.819867 0.355383
0.816052 0.819745 0.359747
0.815976 0.819791 0.359686
0.816052 0.81976 0.359731
0.258869 0.820218 0.375143
0.259556 0.819059 0.370687
0.259342 0.817365 0.361013
0.2822 0.79823 0.270253
0.689662 0.781857 0.29723
0.813413 0.819516 0.350835
0.816449 0.819883 0.359426
0.816251 0.819913 0.359365
0.816114 0.819898 0.359426
0.257511 0.821347 0.377081
0.259785 0.818814 0.371252
0.261463 0.814954 0.359106
0.27039 0.802869 0.288502
0.671672 0.776318 0.294942
0.809461 0.819043 0.346456
0.816464 0.819837 0.359533
0.816358 0.819898 0.359396
0.81593 0.819974 0.359274
0.256672 0.821881 0.377707
0.257939 0.82092 0.374792
0.260365 0.81706 0.363561
0.261326 0.813962 0.353079
0.59234 0.757763 0.291905
0.7906 0.818586 0.327871
0.816434 0.819898 0.35938
0.816251 0.819867 0.359487
0.815778 0.819959 0.359335
0.0233768 0.0514229 0.0642863
0.0524758 0.0479744 0.0702983
0.187381 0.037995 0.0639658
0.431449 0.0299229 0.0637064
0.632334 0.043061 0.114214
0.635218 0.0436408 0.123079
0.631357 0.0429236 0.111589
0.613199 0.0413214 0.0643168
0.623743 0.0580453 0.0641947
0.0286564 0.0619974 0.0571145
0.0374609 0.0595254 0.0565347
0.161913 0.0356146 0.042359
0.390143 0.0278325 0.0344701
0.604623 0.0497292 0.0604257
0.607416 0.0519265 0.0610819
0.611917 0.0570077 0.0607919
0.632151 0.0633707 0.0656138
0.662654 0.0779431 0.070161
0.0257725 0.175143 0.0611429
0.0287175 0.16817 0.0531319
0.138979 0.169314 0.0517739
0.466682 0.140002 0.0700694
0.662257 0.0858167 0.0669108
0.660029 0.0789349 0.0696727
0.679026 0.090898 0.0686656
0.725811 0.132174 0.0767681
0.76643 0.260456 0.116335
0.0939651 0.460639 0.146212
0.0926375 0.454719 0.126207
0.101793 0.443565 0.102052
0.428489 0.451377 0.0935683
0.734142 0.533333 0.156039
0.772671 0.528557 0.168795
0.771817 0.52604 0.17026
0.772091 0.563455 0.155962
0.774441 0.604166 0.144106
0.228855 0.75198 0.296864
0.230793 0.752224 0.27483
0.265766 0.766201 0.240146
0.439414 0.688823 0.226184
0.737194 0.773404 0.243809
0.814404 0.782208 0.285206
0.814984 0.784283 0.287404
0.814862 0.785748 0.288808
0.814481 0.777157 0.279438
0.259419 0.819913 0.375967
0.25832 0.820615 0.374533
0.258183 0.81915 0.364416
0.280125 0.799664 0.272007
0.700694 0.785168 0.299992
0.815717 0.819898 0.354849
0.816022 0.819776 0.359701
0.815946 0.819821 0.359655
0.815946 0.819791 0.359686
0.257954 0.821363 0.379355
0.2589 0.82031 0.375738
0.259297 0.818219 0.364141
0.268254 0.805356 0.294743
0.680049 0.779812 0.295872
0.812329 0.81944 0.34934
0.816434 0.819898 0.359426
0.81622 0.819913 0.35935
0.816083 0.819898 0.359457
0.256947 0.821988 0.380423
0.258976 0.820325 0.376242
0.261357 0.815702 0.362142
0.26276 0.807172 0.312581
0.662623 0.773678 0.294728
0.806928 0.818586 0.344427
0.81648 0.819837 0.359533
0.816358 0.819898 0.359396
0.81593 0.819974 0.359274
0.256275 0.822354 0.380301
0.258045 0.821057 0.377142
0.260258 0.817502 0.366094
0.261357 0.81474 0.357259
0.582986 0.756237 0.292012
0.789197 0.818784 0.324895
0.816434 0.819898 0.359213
0.816251 0.819867 0.359472
0.815778 0.819944 0.359335
0.0202029 0.0682383 0.165499
0.0396429 0.0612802 0.1841
0.193042 0.0413672 0.186603
0.435111 0.0472725 0.207614
0.659098 0.0643778 0.265599
0.656489 0.0595712 0.25185
0.654063 0.0555428 0.237842
0.650095 0.0493782 0.214786
0.641825 0.0437934 0.172351
0.0205844 0.0728618 0.13576
0.0206607 0.064271 0.161852
0.174548 0.0426184 0.175937
0.431312 0.0467689 0.181659
0.654139 0.0548257 0.236378
0.652018 0.0520333 0.226032
0.648478 0.0472114 0.206867
0.640482 0.0413367 0.169528
0.614084 0.0424964 0.0640726
0.019379 0.151858 0.121386
0.0195163 0.148257 0.120943
0.142565 0.168307 0.154772
0.462135 0.0752575 0.0959945
0.62298 0.0512551 0.065919
0.622599 0.0573892 0.064271
0.63566 0.0659648 0.0663767
0.67921 0.0930953 0.0712444
0.755367 0.206058 0.101045
0.0632334 0.459815 0.216114
0.059556 0.455924 0.201266
0.0814221 0.430838 0.131502
0.412253 0.435981 0.0880446
0.736599 0.503304 0.166064
0.773678 0.481941 0.172732
0.773556 0.501244 0.17348
0.771618 0.546273 0.164263
0.773724 0.594537 0.145327
0.187213 0.754482 0.377462
0.191073 0.749828 0.361166
0.214542 0.731197 0.282734
0.370871 0.683436 0.209125
0.727749 0.763973 0.235355
0.814694 0.77322 0.275242
0.814649 0.773098 0.275105
0.814817 0.773816 0.275975
0.814588 0.772961 0.274907
0.251759 0.833341 0.432334
0.254871 0.829129 0.410407
0.257359 0.821439 0.376867
0.259037 0.813504 0.332403
0.681956 0.78027 0.29659
0.815641 0.819898 0.353597
0.816052 0.81976 0.359731
0.815946 0.819806 0.35967
0.81593 0.819806 0.35967
0.232807 0.844602 0.460594
0.249027 0.836408 0.437293
0.258198 0.821088 0.378027
0.259388 0.815427 0.35137
0.654627 0.772107 0.294865
0.807477 0.818662 0.344656
0.816434 0.819883 0.359426
0.816251 0.819913 0.359365
0.816114 0.819913 0.35938
0.218677 0.848173 0.464012
0.247471 0.838468 0.443122
0.259297 0.82031 0.378103
0.261753 0.814542 0.358175
0.635355 0.76643 0.292912
0.800412 0.817761 0.340536
0.81648 0.819837 0.359533
0.816327 0.819898 0.359396
0.815915 0.819959 0.359258
0.24741 0.8383 0.442084
0.252766 0.831022 0.417304
0.258762 0.820706 0.377951
0.261234 0.815015 0.358572
0.556939 0.7523 0.291707
0.783078 0.817899 0.318288
0.816419 0.819913 0.358694
0.816281 0.819883 0.359457
0.815747 0.819959 0.359335
0.0193637 0.100359 0.361746
0.0194095 0.0910964 0.370672
0.139391 0.0550851 0.399893
0.455451 0.0546883 0.434623
0.659861 0.0563058 0.502297
0.66125 0.0577401 0.504433
0.655772 0.0580606 0.45481
0.654704 0.0642405 0.419043
0.662989 0.0877852 0.377035
0.0193332 0.113924 0.351568
0.0194553 0.0980697 0.35967
0.112337 0.0607919 0.395392
0.446769 0.0537728 0.426581
0.660792 0.0594949 0.491554
0.656229 0.0550546 0.476951
0.653178 0.0592508 0.430838
0.657526 0.0700236 0.409445
0.665156 0.0947127 0.362707
0.0192416 0.146624 0.287739
0.0192874 0.141512 0.295491
0.0227359 0.100038 0.366918
0.40679 0.0480507 0.388785
0.652155 0.060914 0.437278
0.655055 0.06804 0.412558
0.660777 0.0825971 0.384222
0.66511 0.0934157 0.34435
0.655818 0.0590219 0.252445
0.0351873 0.420523 0.35378
0.0325322 0.416541 0.35259
0.0310826 0.403067 0.341451
0.436042 0.435492 0.403708
0.753017 0.371954 0.36965
0.77879 0.306279 0.297368
0.77995 0.308324 0.248203
0.780209 0.373709 0.234379
0.773632 0.500786 0.214435
0.140856 0.753552 0.507958
0.135241 0.751568 0.502159
0.134295 0.739361 0.470512
0.172381 0.689082 0.319219
0.660136 0.695033 0.234913
0.81355 0.74551 0.248554
0.81326 0.7411 0.244694
0.814359 0.743557 0.246479
0.814099 0.750469 0.254108
0.210101 0.867674 0.563622
0.207126 0.868589 0.559594
0.214023 0.862806 0.533486
0.256168 0.822354 0.381842
0.617761 0.764126 0.294331
0.810086 0.819089 0.347829
0.816419 0.819776 0.36051
0.816342 0.819791 0.360693
0.816007 0.819745 0.359884
0.205768 0.874174 0.584695
0.205188 0.87245 0.574746
0.209659 0.864851 0.544472
0.255863 0.823041 0.38883
0.578927 0.756451 0.293919
0.792248 0.817914 0.333257
0.816068 0.81973 0.359808
0.816114 0.819867 0.359503
0.816114 0.819913 0.35938
0.205142 0.875257 0.588037
0.204837 0.872816 0.576471
0.209766 0.864622 0.544274
0.256382 0.822904 0.391485
0.551827 0.752667 0.293645
0.784192 0.818204 0.320928
0.815503 0.819501 0.358862
0.815991 0.81973 0.359792
0.815839 0.819913 0.359411
0.2065 0.869368 0.561196
0.208057 0.866209 0.549004
0.217533 0.861784 0.524895
0.257877 0.821378 0.383154
0.435554 0.760586 0.270253
0.762951 0.810788 0.309697
0.815671 0.81973 0.356359
0.816144 0.819821 0.359609
0.815885 0.819944 0.35935
0.0194553 0.146487 0.557382
0.019379 0.132128 0.553124
0.123247 0.131792 0.592157
0.440909 0.0900587 0.637369
0.722103 0.11725 0.737408
0.720684 0.119524 0.752407
0.719127 0.120806 0.760723
0.720562 0.119203 0.750164
0.72047 0.119265 0.685954
0.0193637 0.164034 0.562387
0.0192416 0.142931 0.554467
0.0936751 0.132418 0.583307
0.426459 0.0859693 0.630579
0.722454 0.116793 0.734218
0.720989 0.118883 0.748516
0.72018 0.120043 0.756512
0.721263 0.117891 0.739452
0.715465 0.121279 0.66772
0.0194553 0.213352 0.564279
0.0191501 0.20618 0.570764
0.0193179 0.130816 0.542443
0.357 0.0717174 0.602152
0.716655 0.113527 0.717021
0.722332 0.116197 0.729412
0.722347 0.116457 0.731624
0.722866 0.113634 0.70631
0.710552 0.111437 0.636774
0.0198672 0.421515 0.555688
0.0202945 0.416068 0.558343
0.0199893 0.394263 0.562692
0.246067 0.297063 0.667124
0.715633 0.235676 0.699107
0.737713 0.177279 0.683207
0.725216 0.145022 0.646967
0.700786 0.109209 0.594186
0.68014 0.0829633 0.499901
0.0860304 0.70695 0.634195
0.0836652 0.704524 0.632517
0.0829023 0.69604 0.624994
0.0823529 0.674784 0.606104
0.69984 0.697597 0.669474
0.862531 0.677623 0.656504
0.855817 0.672541 0.635721
0.848386 0.681315 0.608759
0.836728 0.686763 0.542489
0.156634 0.906126 0.717159
0.157366 0.906538 0.712856
0.167712 0.902266 0.695933
0.191012 0.884688 0.650889
0.467247 0.814328 0.535897
0.807813 0.833783 0.566125
0.835676 0.831296 0.530694
0.838102 0.830121 0.536522
0.821775 0.816663 0.439918
0.146914 0.909743 0.738369
0.145434 0.910353 0.730449
0.159594 0.905516 0.708431
0.198627 0.889479 0.652888
0.279866 0.837385 0.473381
0.77229 0.814755 0.312413
0.815778 0.819852 0.355322
0.815869 0.819715 0.358236
0.815869 0.819654 0.358526
0.144625 0.911086 0.741131
0.145846 0.910246 0.730175
0.160754 0.905043 0.70634
0.200793 0.888563 0.649241
0.226993 0.847837 0.471077
0.753155 0.807095 0.305608
0.815396 0.82002 0.352163
0.815793 0.819852 0.358068
0.815869 0.819898 0.358175
0.163577 0.903685 0.70312
0.171771 0.900725 0.691722
0.185229 0.895262 0.670939
0.205035 0.882078 0.622934
0.237675 0.843565 0.458717
0.712535 0.789731 0.302876
0.8112 0.819562 0.34757
0.815518 0.819898 0.358206
0.815686 0.819959 0.358328
0.01944 0.142977 0.589075
0.0194858 0.140902 0.59556
0.143404 0.143893 0.635798
0.441581 0.0899367 0.67454
0.720088 0.120562 0.762844
0.720043 0.120592 0.762829
0.720043 0.120592 0.762814
0.720088 0.120577 0.762844
0.720134 0.120562 0.762844
0.0195163 0.154437 0.591211
0.0194553 0.142611 0.589334
0.111543 0.146563 0.629297
0.422721 0.0860456 0.668925
0.720165 0.120562 0.762875
0.720073 0.120577 0.762829
0.719966 0.120623 0.762783
0.719982 0.120623 0.762783
0.720195 0.120546 0.76286
0.0192569 0.223072 0.627665
0.0193637 0.209659 0.624109
0.0194705 0.141238 0.591287
0.345922 0.0806439 0.654749
0.715785 0.119982 0.761273
0.720134 0.120562 0.76286
0.720119 0.120562 0.76286
0.720104 0.120577 0.762844
0.72018 0.120546 0.762905
0.0198825 0.379278 0.6533
0.0199588 0.371374 0.652354
0.0196231 0.343038 0.648951
0.123644 0.209644 0.676005
0.639384 0.158633 0.748348
0.719158 0.121324 0.762081
0.718959 0.12134 0.761807
0.719799 0.122316 0.762417
0.719921 0.120836 0.762707
0.0209964 0.673976 0.717052
0.0211643 0.670604 0.71545
0.0208438 0.660746 0.710857
0.0209049 0.635996 0.720424
0.582284 0.580774 0.834958
0.853483 0.58735 0.84509
0.850889 0.579355 0.840238
0.849699 0.573236 0.829801
0.836713 0.525765 0.797772
0.159197 0.895979 0.824826
0.156161 0.892638 0.822003
0.147753 0.879011 0.809842
0.122362 0.833219 0.764172
0.283192 0.832029 0.776623
0.846189 0.855665 0.834089
0.909621 0.846006 0.827146
0.904341 0.836393 0.814588
0.881498 0.819135 0.771405
0.174411 0.912352 0.846601
0.169146 0.914122 0.842222
0.161471 0.915969 0.831922
0.139834 0.918639 0.806317
0.145586 0.925582 0.763821
0.763394 0.89041 0.773098
0.898497 0.914336 0.80351
0.901625 0.913191 0.804166
0.897414 0.908812 0.792615
0.17789 0.910857 0.847944
0.170809 0.913954 0.84387
0.161028 0.916106 0.831525
0.137087 0.91902 0.803967
0.146563 0.921294 0.747814
0.705562 0.876951 0.734752
0.851194 0.882307 0.711864
0.815213 0.819913 0.355398
0.815076 0.819776 0.356268
0.16199 0.915145 0.829511
0.154528 0.916518 0.822965
0.143969 0.917998 0.812573
0.137453 0.916686 0.782605
0.161151 0.906828 0.709377
0.614664 0.857633 0.668055
0.820798 0.86038 0.649424
0.816312 0.819684 0.371283
0.815869 0.820005 0.355703
0.0194705 0.140856 0.592004
0.033753 0.144137 0.603723
0.164935 0.140566 0.63798
0.460929 0.0941176 0.679622
0.72018 0.120546 0.76289
0.72015 0.120562 0.762875
0.720119 0.120562 0.762844
0.719997 0.120607 0.762798
0.720073 0.120592 0.762768
0.0193637 0.145525 0.588769
0.0194705 0.140612 0.592813
0.131243 0.144671 0.6327
0.441352 0.0899214 0.674372
0.720195 0.120546 0.762905
0.72018 0.120546 0.762905
0.72018 0.120546 0.762905
0.72018 0.120546 0.76289
0.720195 0.120546 0.762921
0.0195468 0.218662 0.627039
0.0196078 0.195666 0.615946
0.0195621 0.141176 0.596246
0.362631 0.0815747 0.658366
0.719326 0.1205 0.762737
0.720073 0.120577 0.762829
0.720073 0.120577 0.762829
0.720088 0.120577 0.762829
0.72018 0.120546 0.762875
0.0197452 0.357351 0.650538
0.0197452 0.347021 0.649241
0.0196231 0.315648 0.644038
0.106462 0.179248 0.652735
0.627283 0.138811 0.73611
0.719722 0.120974 0.762554
0.719692 0.120974 0.762539
0.719707 0.121019 0.762509
0.719936 0.120867 0.762692
0.0210269 0.667247 0.732815
0.0211948 0.662974 0.732189
0.0209506 0.653315 0.730205
0.0208743 0.620142 0.722652
0.567712 0.549096 0.834028
0.839536 0.551736 0.847608
0.834989 0.542 0.843229
0.833707 0.537438 0.842161
0.822858 0.502693 0.833677
0.13315 0.880751 0.84535
0.126925 0.874281 0.842283
0.106233 0.85095 0.828931
0.0548714 0.787488 0.790722
0.0882887 0.801572 0.819776
0.798444 0.802777 0.899733
0.906645 0.804166 0.901244
0.905531 0.798764 0.899397
0.90251 0.780529 0.889479
0.165957 0.912261 0.857771
0.164279 0.912993 0.858534
0.164279 0.912993 0.858534
0.164279 0.912993 0.858534
0.17734 0.92697 0.851759
0.68687 0.896162 0.852308
0.915587 0.928359 0.906859
0.93164 0.925887 0.90341
0.925566 0.916732 0.891356
0.166415 0.912077 0.857984
0.164355 0.912947 0.858534
0.164279 0.912993 0.858534
0.164279 0.912993 0.858534
0.166384 0.925124 0.838361
0.252354 0.93051 0.820844
0.894118 0.93817 0.890593
0.929397 0.940658 0.896147
0.929137 0.940551 0.895354
0.164309 0.912963 0.858534
0.164279 0.912993 0.858549
0.164279 0.912993 0.858534
0.165805 0.91284 0.856458
0.152117 0.919097 0.82208
0.159594 0.950408 0.814466
0.856992 0.929564 0.861677
0.923735 0.936263 0.875547
0.921996 0.93312 0.862409
0.0194705 0.140658 0.594156
0.0396124 0.14461 0.605722
0.176562 0.138766 0.638682
0.471153 0.0971695 0.683742
0.72018 0.120546 0.76289
0.72015 0.120562 0.762875
0.72015 0.120562 0.762875
0.720088 0.120577 0.762829
0.720165 0.120562 0.76289
0.0194095 0.143771 0.588907
0.0194705 0.14052 0.594614
0.140902 0.143999 0.634897
0.45127 0.0923171 0.677317
0.720195 0.120546 0.762905
0.720165 0.120562 0.762875
0.720165 0.120562 0.76289
0.72015 0.120562 0.762875
0.720165 0.120562 0.762829
0.0195468 0.217182 0.626749
0.0192569 0.18996 0.611811
0.0251011 0.141878 0.598444
0.369985 0.0815137 0.658854
0.720195 0.120546 0.762921
0.720073 0.120577 0.762829
0.720073 0.120577 0.762829
0.720073 0.120577 0.762829
0.720165 0.120546 0.76289
0.019852 0.349676 0.64979
0.0198367 0.339239 0.647791
0.0197147 0.307179 0.642557
0.101823 0.170306 0.645396
0.629114 0.136187 0.735576
0.71986 0.120867 0.762661
0.719799 0.120912 0.762615
0.719722 0.120958 0.762554
0.720027 0.120775 0.762768
0.0211948 0.664851 0.732509
0.0208286 0.660945 0.731441
0.0209354 0.65098 0.730282
0.0209964 0.614969 0.721599
0.565072 0.53904 0.831815
0.835935 0.541894 0.844495
0.831281 0.530694 0.840787
0.829618 0.525979 0.839368
0.821057 0.49575 0.832441
0.130343 0.87747 0.844205
0.123247 0.869383 0.839612
0.099855 0.839399 0.822156
0.0495308 0.780667 0.788083
0.088426 0.793194 0.815839
0.794598 0.792065 0.899489
0.903975 0.794278 0.900511
0.902678 0.787167 0.900145
0.898421 0.770306 0.897536
0.165118 0.912612 0.858427
0.164279 0.912993 0.858534
0.164279 0.912993 0.858534
0.164279 0.912993 0.858534
0.162478 0.917754 0.862913
0.615885 0.872145 0.859861
0.900191 0.912154 0.915572
0.929808 0.913649 0.920073
0.928283 0.905562 0.918181
0.16463 0.91281 0.858534
0.164294 0.912978 0.858534
0.164279 0.912993 0.858534
0.164279 0.912993 0.858534
0.169711 0.923415 0.861616
0.186725 0.945006 0.867704
0.845579 0.934508 0.90486
0.935073 0.946075 0.92842
0.93463 0.945846 0.928176
0.167117 0.911742 0.857053
0.16437 0.912947 0.858503
0.164279 0.912993 0.858534
0.164279 0.912993 0.858534
0.164981 0.915221 0.858869
0.187243 0.942031 0.857969
0.739361 0.920073 0.868101
0.931579 0.945464 0.92639
0.935149 0.946044 0.928237
0.0194705 0.140536 0.594614
0.0416571 0.144793 0.606165
0.177554 0.138613 0.638758
0.469261 0.0965744 0.683101
0.72018 0.120546 0.76289
0.72015 0.120562 0.762875
0.72015 0.120562 0.762875
0.720088 0.120577 0.762829
0.720165 0.120546 0.76289
0.01944 0.143282 0.589059
0.0194858 0.140917 0.595636
0.141329 0.143999 0.635096
0.449378 0.0918898 0.676905
0.720195 0.120546 0.762905
0.72015 0.120562 0.76289
0.72015 0.120562 0.76289
0.72015 0.120562 0.762875
0.720165 0.120562 0.762814
0.0193637 0.214191 0.626001
0.0195163 0.187213 0.610147
0.0268864 0.142229 0.59942
0.368521 0.0815442 0.658732
0.720195 0.120546 0.762921
0.720073 0.120577 0.762829
0.720104 0.120577 0.762844
0.720104 0.120577 0.762844
0.720165 0.120546 0.762905
0.0195926 0.341451 0.648386
0.0197147 0.330571 0.646632
0.0193179 0.299931 0.641474
0.0966659 0.164858 0.639475
0.627512 0.135332 0.7346
0.719921 0.12079 0.762707
0.71986 0.120851 0.762676
0.719814 0.120882 0.762631
0.720088 0.120714 0.762798
0.0208286 0.660807 0.731441
0.0210727 0.656977 0.731579
0.0210574 0.646464 0.729503
0.0209812 0.609369 0.71989
0.558511 0.529534 0.828992
0.831693 0.529351 0.841138
0.827207 0.517983 0.836713
0.825711 0.51194 0.835813
0.815595 0.480125 0.827619
0.125154 0.871611 0.840665
0.116716 0.862074 0.836118
0.0919509 0.826932 0.814054
0.0465858 0.776547 0.786923
0.0727245 0.788281 0.813382
0.789502 0.783581 0.898817
0.901991 0.785916 0.899825
0.899977 0.7785 0.89865
0.895933 0.761257 0.896452
0.164858 0.912718 0.858503
0.164279 0.912993 0.858534
0.164279 0.912993 0.858534
0.164279 0.912993 0.858534
0.155688 0.910277 0.86128
0.615106 0.867567 0.860182
0.895827 0.905241 0.913878
0.928588 0.907988 0.918349
0.926619 0.898466 0.917571
0.164584 0.91284 0.858534
0.164294 0.912978 0.858534
0.164279 0.912993 0.858534
0.164279 0.912993 0.858534
0.169024 0.922438 0.861158
0.184741 0.944579 0.868421
0.825376 0.92578 0.901411
0.933532 0.944152 0.928542
0.934798 0.943847 0.928496
0.167208 0.911711 0.857023
0.16437 0.912932 0.858518
0.164279 0.912993 0.858534
0.164279 0.912993 0.858534
0.164614 0.914748 0.858671
0.187381 0.947311 0.868452
0.574151 0.906126 0.85658
0.923903 0.946044 0.926635
0.934905 0.946105 0.928756
