bundles/resolve-cinematic-luts/Phantom Luts/Komodo Phantom FILM LUTs G2/Komodo Phantom FILM LUTs G2/33x/Standard (No WB Offset)/VisionTeal_Komodo_G2_33x.cube
TITLE "Generated by Resolve"
LUT_3D_SIZE 33
0.0221408 0.0355993 0.0336461
0.0221408 0.0355993 0.0336156
0.0221714 0.035523 0.0335393
0.0263828 0.0348974 0.0341039
0.0471046 0.033341 0.0332647
0.0764019 0.0301366 0.0302281
0.109621 0.0278477 0.0272984
0.149615 0.0260777 0.0241245
0.200458 0.0216831 0.0194095
0.252293 0.0183871 0.0181125
0.309667 0.0150454 0.0193027
0.366888 0.0125429 0.021088
0.427802 0.0120546 0.0250553
0.491264 0.0123598 0.0395514
0.551125 0.0162356 0.0575875
0.605127 0.0207218 0.0695506
0.637675 0.0246891 0.0784924
0.642069 0.0264439 0.088716
0.643992 0.0271611 0.095491
0.645258 0.0276341 0.0999924
0.645258 0.0276493 0.100252
0.644602 0.0274357 0.0975967
0.642618 0.0267796 0.0921492
0.639185 0.0254063 0.0826429
0.635508 0.0241855 0.0733043
0.631037 0.0234379 0.0638437
0.629862 0.0231022 0.057435
0.628992 0.0226291 0.0534829
0.631159 0.0230411 0.0530709
0.635828 0.0231479 0.0545357
0.640497 0.023682 0.0567483
0.646067 0.0242771 0.0601205
0.652399 0.0250401 0.0620279
0.0221561 0.0355383 0.0335088
0.0221561 0.035584 0.0335851
0.0221714 0.035523 0.0335088
0.0282444 0.0350042 0.0342718
0.0487068 0.0336156 0.0333715
0.0783398 0.0306401 0.0303807
0.113054 0.028748 0.0278325
0.154223 0.0265049 0.0243992
0.205905 0.0230411 0.0200046
0.259251 0.0204929 0.0190433
0.316136 0.0176394 0.0205081
0.374014 0.0145876 0.0224613
0.430945 0.0119631 0.0241703
0.491234 0.0122683 0.032166
0.54992 0.0157931 0.0463874
0.601968 0.0201267 0.0589456
0.630243 0.0234379 0.0661326
0.634104 0.0240177 0.0719158
0.636393 0.024506 0.076936
0.637598 0.0248722 0.0797284
0.637583 0.0247959 0.0790723
0.63537 0.0243229 0.0757916
0.633158 0.0237583 0.0699168
0.630182 0.0233616 0.0638437
0.628489 0.0229038 0.0571756
0.629602 0.0228885 0.0557565
0.629648 0.0226902 0.0526894
0.633234 0.0231022 0.0536507
0.637201 0.023331 0.0543526
0.641657 0.0237583 0.0559091
0.646326 0.0243229 0.0583352
0.651896 0.024979 0.0601358
0.65832 0.0258488 0.0608072
0.0221561 0.035584 0.033463
0.0221408 0.0356298 0.0335546
0.0221561 0.0355688 0.0335546
0.0223239 0.0361486 0.0340429
0.0438849 0.0348974 0.0339055
0.0753338 0.0324254 0.0311589
0.111482 0.0305638 0.0284886
0.154116 0.028397 0.0253605
0.208209 0.0249943 0.021622
0.26186 0.0232242 0.0201419
0.319326 0.0220493 0.0222324
0.376196 0.0172274 0.0237278
0.433646 0.0119326 0.02327
0.494347 0.0123751 0.0308232
0.549905 0.0153811 0.0396582
0.599756 0.0193637 0.0491951
0.625223 0.0222019 0.0559701
0.627192 0.0226902 0.0583352
0.629313 0.0230716 0.0617685
0.629526 0.0230869 0.0618601
0.629557 0.0230564 0.0611276
0.628946 0.0229343 0.0590219
0.625315 0.0220493 0.053666
0.628672 0.0225681 0.0544137
0.629969 0.0228428 0.0538796
0.632212 0.0230716 0.0537728
0.635538 0.0231479 0.0539712
0.638666 0.0235142 0.0544747
0.64303 0.0239261 0.0555734
0.647196 0.0245365 0.0566262
0.652079 0.0250858 0.0576333
0.657755 0.0258946 0.0586709
0.663737 0.026627 0.0587625
0.0221866 0.044419 0.0323796
0.0222019 0.0439002 0.0325933
0.0222171 0.0424353 0.0328069
0.0224002 0.0411078 0.0344091
0.0365301 0.0408484 0.0363775
0.0631571 0.0376135 0.0334325
0.10457 0.0339818 0.0295872
0.149783 0.0319524 0.0268406
0.206134 0.0291905 0.0235752
0.26276 0.0278172 0.0223392
0.321019 0.0250095 0.0234989
0.379538 0.0202335 0.0244755
0.43798 0.0135195 0.0247501
0.495552 0.0125124 0.0304112
0.552544 0.0157626 0.0394598
0.602869 0.019379 0.0485542
0.625498 0.0218204 0.0516823
0.626169 0.0219577 0.0524453
0.625101 0.0217746 0.0513008
0.627024 0.0220951 0.053254
0.627482 0.0221408 0.0530251
0.628565 0.0222782 0.0523842
0.630747 0.0228733 0.053727
0.633097 0.0229801 0.053727
0.635843 0.0230869 0.0539101
0.638148 0.0234379 0.0543374
0.642008 0.0237583 0.0547951
0.645396 0.0241093 0.0555581
0.649348 0.0246433 0.0556497
0.654002 0.0260319 0.0565499
0.659251 0.0278935 0.0576181
0.663859 0.0284886 0.0582284
0.672267 0.033341 0.0610819
0.0209354 0.0639353 0.0328527
0.0209049 0.0630808 0.0327459
0.0207828 0.0615702 0.0326238
0.0222934 0.0588083 0.0340887
0.0386358 0.0573587 0.0373541
0.062501 0.0572061 0.0366827
0.100816 0.0525216 0.0356756
0.146578 0.0467079 0.0297093
0.203021 0.0383154 0.0248875
0.261387 0.0329137 0.0241245
0.321782 0.0296788 0.0251011
0.381765 0.0247501 0.0256352
0.440757 0.0184634 0.0268101
0.496101 0.0125277 0.0293431
0.555291 0.0157015 0.0379797
0.60679 0.0198367 0.0483406
0.633951 0.0230106 0.0537728
0.632898 0.0229801 0.0537728
0.632868 0.0229801 0.0537423
0.633463 0.0229953 0.0537423
0.634318 0.0230411 0.0538796
0.636011 0.0231022 0.0539559
0.637766 0.0233768 0.0542458
0.64036 0.0235904 0.0545205
0.643183 0.0238804 0.0550698
0.645945 0.0242161 0.0555123
0.649729 0.0249027 0.0556039
0.653864 0.0269474 0.0565652
0.657862 0.0289616 0.0571908
0.662715 0.0309758 0.0585031
0.669245 0.0340887 0.060441
0.674479 0.0371252 0.0609903
0.682704 0.0418708 0.0626993
0.0200961 0.0902113 0.033051
0.0202792 0.0894179 0.0325933
0.0203098 0.0883497 0.0327459
0.02121 0.0864118 0.0340124
0.0328222 0.0821851 0.0378424
0.0620737 0.0826886 0.0398108
0.0995804 0.0818952 0.0379034
0.150042 0.0725719 0.0400244
0.212421 0.0623484 0.0323186
0.268315 0.0524605 0.0268711
0.324224 0.0415045 0.0272984
0.382467 0.031281 0.0279698
0.442481 0.0246738 0.0287633
0.498238 0.0153353 0.0294804
0.556695 0.0160372 0.0361486
0.610315 0.0201877 0.0471351
0.641886 0.023743 0.0548562
0.641886 0.0237278 0.0548104
0.640879 0.0236515 0.0546426
0.641871 0.0237278 0.0548867
0.643076 0.0238804 0.0551766
0.644419 0.0239719 0.0550698
0.646357 0.0242771 0.0554055
0.649027 0.0246433 0.0554971
0.65275 0.0265049 0.0563973
0.655863 0.0283055 0.0572366
0.659602 0.0301366 0.0574502
0.664561 0.0330053 0.0593729
0.669779 0.0362402 0.0604105
0.674281 0.0395056 0.0609598
0.680613 0.0439612 0.0621347
0.687602 0.0486 0.0632486
0.695674 0.0549783 0.0639048
0.0208591 0.122728 0.0373083
0.0214389 0.121675 0.0363928
0.0213779 0.121218 0.0366522
0.0222171 0.11989 0.0370794
0.0310979 0.117998 0.0383917
0.0506294 0.11574 0.0420386
0.095491 0.11577 0.0389715
0.147875 0.113252 0.0377966
0.224384 0.101228 0.0434424
0.293675 0.0885939 0.03888
0.351476 0.0771954 0.0353399
0.401038 0.0622263 0.032105
0.451499 0.0457008 0.0326085
0.502068 0.024033 0.0315251
0.559228 0.0197147 0.0363622
0.613947 0.0231785 0.0463722
0.650401 0.0255589 0.0559548
0.650904 0.0260777 0.0561074
0.65185 0.0268406 0.0563516
0.652644 0.0272679 0.0564736
0.653605 0.0278019 0.0565805
0.655665 0.0290532 0.0572824
0.657374 0.0296025 0.0570993
0.661295 0.0315251 0.0581521
0.664744 0.0340124 0.0593729
0.669337 0.0364691 0.0603952
0.672892 0.0395209 0.0608072
0.67744 0.0438697 0.0618601
0.683192 0.0486915 0.0627298
0.688716 0.0537881 0.0633707
0.695308 0.0599832 0.0639048
0.702037 0.0682994 0.0636759
0.71104 0.080827 0.0644236
0.0202487 0.164218 0.0373083
0.019852 0.1635 0.0355383
0.019028 0.161944 0.0343328
0.0194553 0.161074 0.0347906
0.0238499 0.159716 0.0358282
0.0385901 0.15761 0.0389715
0.0768902 0.158114 0.0448005
0.134234 0.160372 0.0353399
0.215335 0.159823 0.0394751
0.309712 0.154009 0.0577859
0.384634 0.141711 0.0613565
0.446311 0.12932 0.0597391
0.501503 0.115373 0.0572213
0.543893 0.0903487 0.0495613
0.571893 0.0429389 0.0389563
0.61857 0.0295872 0.0467079
0.659266 0.030396 0.0574044
0.662593 0.0307164 0.0587472
0.663569 0.0313115 0.0591135
0.665949 0.033341 0.060029
0.668482 0.0349737 0.0605478
0.670634 0.0361028 0.0610666
0.672389 0.037995 0.0608072
0.676188 0.0410315 0.0617227
0.679973 0.0447395 0.0624552
0.685054 0.0496529 0.0629282
0.690028 0.0542 0.0634775
0.695445 0.0602884 0.063798
0.700954 0.0680858 0.0636759
0.705486 0.0739605 0.0622721
0.723537 0.101579 0.0715496
0.74316 0.135103 0.0805219
0.759945 0.166171 0.0905776
0.024506 0.221546 0.0441138
0.0236515 0.219516 0.0415198
0.0235142 0.218662 0.0390173
0.0225986 0.21706 0.0383764
0.0219425 0.214649 0.0377356
0.0338445 0.215732 0.0399481
0.0570687 0.214603 0.0446174
0.119158 0.221256 0.0534218
0.198001 0.223407 0.0374762
0.291035 0.22565 0.0458991
0.389914 0.225284 0.0727703
0.462257 0.218143 0.0870222
0.530678 0.204593 0.0878767
0.58996 0.188891 0.0877241
0.644678 0.163561 0.08542
0.679362 0.120989 0.0698711
0.695888 0.0743267 0.059266
0.687648 0.0524605 0.0628519
0.683787 0.0472572 0.0630961
0.684047 0.0472267 0.0632029
0.687099 0.0514992 0.0630045
0.689509 0.0531624 0.0632944
0.693568 0.0570077 0.0639353
0.697032 0.0606394 0.0639506
0.704005 0.0712291 0.0628061
0.708873 0.0815442 0.0606241
0.7149 0.0885634 0.0610361
0.73463 0.118486 0.0755169
0.748928 0.145388 0.0834211
0.761257 0.172839 0.0926375
0.767514 0.208652 0.10222
0.775097 0.248203 0.115129
0.78143 0.290272 0.129763
0.0380407 0.292012 0.0628977
0.0374456 0.291585 0.060441
0.0368505 0.288685 0.0555428
0.0359045 0.285969 0.0520943
0.0352941 0.284535 0.0515908
0.0367132 0.282704 0.0511788
0.0578622 0.285206 0.0547799
0.0925154 0.284504 0.0598764
0.179141 0.287846 0.0659495
0.266636 0.291218 0.0433356
0.36878 0.297139 0.0567178
0.466575 0.310018 0.0897841
0.540688 0.310048 0.11426
0.60618 0.304204 0.127352
0.668437 0.285985 0.128237
0.718822 0.260945 0.11989
0.757137 0.22652 0.105165
0.761898 0.176883 0.0937362
0.75053 0.143954 0.0814221
0.741222 0.130938 0.0737926
0.738659 0.122103 0.0782025
0.735042 0.113039 0.0714275
0.741741 0.122942 0.0764172
0.751476 0.146929 0.0828565
0.76109 0.173968 0.0929732
0.765682 0.198123 0.0975204
0.76939 0.2224 0.105089
0.775006 0.250706 0.115969
0.780392 0.282734 0.127016
0.782315 0.312428 0.137972
0.78471 0.344076 0.152651
0.787091 0.376379 0.17116
0.78674 0.407874 0.185534
0.0563363 0.365087 0.0851911
0.0555428 0.364233 0.0825208
0.0545052 0.361929 0.0778668
0.0528115 0.359197 0.0709087
0.0518044 0.357214 0.0685435
0.0514992 0.354849 0.0682841
0.0614481 0.354849 0.0690471
0.0901808 0.355612 0.0723125
0.144991 0.355444 0.0804913
0.251255 0.357748 0.0818799
0.341253 0.362814 0.0584421
0.446921 0.374151 0.076173
0.534737 0.396796 0.101701
0.611841 0.40618 0.142306
0.672862 0.408042 0.166155
0.722591 0.403464 0.178073
0.765408 0.388479 0.171817
0.785367 0.356573 0.159518
0.784024 0.335439 0.149355
0.783246 0.316228 0.142
0.78201 0.300847 0.13608
0.781338 0.290974 0.132784
0.78146 0.291356 0.132815
0.783108 0.307546 0.139284
0.783383 0.326848 0.144671
0.784527 0.348867 0.153719
0.786282 0.374578 0.16643
0.786099 0.397772 0.179431
0.785336 0.420996 0.191073
0.786511 0.444221 0.197177
0.789059 0.469322 0.198001
0.790463 0.489433 0.198566
0.791897 0.509758 0.199466
0.080766 0.439948 0.111116
0.0796674 0.439597 0.108766
0.0785229 0.438361 0.103655
0.0777142 0.436011 0.0976577
0.0760204 0.432685 0.0884871
0.0758526 0.431434 0.0878004
0.074052 0.429206 0.0865797
0.0959793 0.429664 0.0895247
0.132021 0.426673 0.0938888
0.225406 0.423636 0.103517
0.330648 0.428412 0.0972152
0.415427 0.435203 0.084184
0.520546 0.450919 0.101793
0.596201 0.474418 0.112657
0.670207 0.493599 0.159731
0.724849 0.503059 0.189715
0.76614 0.510918 0.196826
0.790021 0.508827 0.198291
0.790784 0.495613 0.197162
0.789593 0.484718 0.194629
0.789212 0.476493 0.193118
0.788724 0.471687 0.193423
0.788708 0.469337 0.195331
0.788617 0.469749 0.196429
0.788876 0.471855 0.197513
0.789975 0.487556 0.199283
0.790738 0.501244 0.199405
0.791089 0.514977 0.198749
0.792096 0.530983 0.199191
0.792554 0.545556 0.197238
0.791638 0.558465 0.193759
0.790738 0.572763 0.190249
0.789929 0.585534 0.186572
0.111254 0.51577 0.147417
0.109957 0.515801 0.143984
0.108965 0.51426 0.138613
0.108614 0.512749 0.131151
0.107744 0.511193 0.12137
0.109438 0.509987 0.115557
0.108843 0.507897 0.114595
0.108156 0.504936 0.112856
0.139956 0.500389 0.112444
0.205524 0.491371 0.118288
0.318914 0.490028 0.135546
0.415991 0.49839 0.112596
0.485634 0.504723 0.109636
0.585397 0.523095 0.125795
0.657389 0.545907 0.132631
0.716548 0.57052 0.151873
0.76202 0.590967 0.170916
0.788312 0.605707 0.166033
0.789883 0.600504 0.173007
0.789563 0.594705 0.177661
0.790051 0.591073 0.180926
0.789609 0.588479 0.181369
0.789639 0.588479 0.18172
0.789563 0.589441 0.182101
0.789746 0.590433 0.182666
0.789868 0.591882 0.182895
0.789776 0.593225 0.182071
0.789731 0.599619 0.175616
0.789868 0.608408 0.166369
0.790661 0.618433 0.161669
0.78999 0.627482 0.155764
0.790677 0.635325 0.152438
0.791302 0.642176 0.150637
0.144213 0.588312 0.194278
0.143206 0.58764 0.189456
0.142367 0.586862 0.182147
0.142275 0.586206 0.173159
0.142718 0.58526 0.161379
0.145998 0.584512 0.149691
0.147082 0.582895 0.146441
0.145693 0.58024 0.145068
0.154162 0.574273 0.140352
0.211872 0.562509 0.139422
0.294591 0.550149 0.150271
0.409552 0.552865 0.163485
0.495247 0.565835 0.128786
0.553613 0.576059 0.13576
0.644831 0.594415 0.155138
0.713893 0.618173 0.162295
0.761685 0.644175 0.16199
0.791104 0.667475 0.150851
0.795178 0.667521 0.149966
0.795056 0.664195 0.1505
0.794934 0.662806 0.150729
0.794476 0.661662 0.150347
0.79443 0.661891 0.149828
0.794553 0.662715 0.149371
0.79472 0.663493 0.148943
0.794324 0.664591 0.147936
0.794446 0.665965 0.147509
0.79443 0.666789 0.147753
0.794858 0.668482 0.148531
0.796948 0.672541 0.152117
0.797406 0.677577 0.154894
0.799161 0.683162 0.159319
0.801556 0.688151 0.1635
0.182879 0.657191 0.234348
0.182666 0.657542 0.230976
0.182589 0.657282 0.224521
0.182467 0.656779 0.216724
0.182956 0.656184 0.20528
0.186847 0.654841 0.190936
0.196674 0.654063 0.180987
0.195865 0.651896 0.179339
0.194659 0.648692 0.177279
0.222568 0.634607 0.16228
0.299825 0.618067 0.172152
0.396551 0.606912 0.190509
0.48925 0.615991 0.183154
0.56936 0.634195 0.159335
0.62356 0.651148 0.174884
0.700221 0.668284 0.198459
0.759625 0.692012 0.209415
0.794965 0.715434 0.201709
0.808515 0.720989 0.202502
0.808438 0.718334 0.198947
0.807752 0.716991 0.196933
0.807721 0.716884 0.196872
0.807797 0.71696 0.196933
0.808255 0.717708 0.197665
0.808698 0.71873 0.19881
0.808835 0.719783 0.2
0.808743 0.720958 0.201221
0.808759 0.721752 0.202502
0.808865 0.722286 0.203265
0.808865 0.72224 0.203265
0.808804 0.721218 0.201938
0.809171 0.724712 0.206485
0.810376 0.728023 0.212421
0.222705 0.719432 0.269306
0.222599 0.719387 0.26482
0.222232 0.719356 0.259648
0.222599 0.719722 0.25214
0.222705 0.718868 0.2392
0.229404 0.717571 0.225986
0.242542 0.717754 0.217365
0.247288 0.717235 0.213611
0.245624 0.714336 0.212222
0.24889 0.708553 0.207492
0.308873 0.685206 0.192477
0.398978 0.665141 0.208453
0.497704 0.664256 0.221759
0.573449 0.681514 0.20827
0.645624 0.703441 0.20943
0.6963 0.725841 0.227588
0.752499 0.741405 0.248814
0.790051 0.756558 0.254383
0.81117 0.761654 0.266743
0.813367 0.759548 0.263386
0.813382 0.75906 0.262913
0.813397 0.759014 0.262989
0.813413 0.759167 0.263371
0.813474 0.759838 0.264607
0.813458 0.760739 0.266148
0.813519 0.762097 0.268177
0.813626 0.763012 0.270115
0.813886 0.763668 0.271305
0.813977 0.763897 0.271595
0.81387 0.763622 0.271229
0.813718 0.762661 0.269749
0.813672 0.760739 0.266804
0.813687 0.759503 0.26482
0.258259 0.775143 0.297032
0.258442 0.775723 0.293599
0.257984 0.776165 0.289601
0.258274 0.776745 0.282094
0.259922 0.777737 0.270436
0.265583 0.779583 0.263706
0.276677 0.779461 0.257298
0.285313 0.781628 0.25481
0.2869 0.779065 0.252003
0.287465 0.776013 0.249775
0.33724 0.756085 0.239887
0.418235 0.728283 0.242191
0.508782 0.713008 0.253742
0.590372 0.726772 0.249851
0.665919 0.747768 0.249836
0.721508 0.770672 0.258244
0.755856 0.782254 0.279026
0.783871 0.785824 0.300603
0.805295 0.790417 0.308324
0.813413 0.791257 0.312428
0.813413 0.790387 0.311498
0.813458 0.790539 0.311727
0.813458 0.791012 0.312245
0.813413 0.791592 0.312901
0.813413 0.79234 0.314412
0.81326 0.792844 0.31519
0.813046 0.793225 0.315602
0.812879 0.793576 0.316014
0.812772 0.793744 0.316365
0.812818 0.793652 0.316152
0.813184 0.792767 0.3149
0.813382 0.790845 0.311925
0.813077 0.78764 0.30605
0.269169 0.818708 0.365423
0.268406 0.819089 0.364034
0.26743 0.81944 0.362448
0.266606 0.819745 0.360449
0.265766 0.819959 0.358862
0.265293 0.819593 0.354849
0.265095 0.819104 0.351675
0.264973 0.818021 0.346563
0.265476 0.81651 0.3402
0.266361 0.815259 0.334264
0.269276 0.811734 0.312383
0.385367 0.776028 0.269368
0.494911 0.754391 0.284092
0.587579 0.754208 0.295293
0.660792 0.768734 0.301289
0.723293 0.78526 0.312245
0.760296 0.801694 0.31429
0.782177 0.806683 0.334539
0.801541 0.808652 0.35671
0.813153 0.811231 0.360647
0.813092 0.810803 0.356664
0.813199 0.810925 0.356985
0.813291 0.81117 0.357763
0.813321 0.811444 0.358541
0.813336 0.811673 0.358953
0.813352 0.811856 0.359747
0.813367 0.81207 0.36025
0.813367 0.812222 0.360571
0.813352 0.812222 0.360571
0.813306 0.811917 0.359915
0.81326 0.811322 0.358343
0.813031 0.810269 0.355123
0.813001 0.808164 0.350027
0.26659 0.826978 0.404746
0.265904 0.827344 0.404639
0.264866 0.828016 0.404974
0.263905 0.828656 0.404547
0.263355 0.828946 0.4038
0.263249 0.828779 0.402228
0.263218 0.828748 0.401419
0.263691 0.828275 0.398581
0.263981 0.828061 0.39675
0.264057 0.828016 0.396674
0.264332 0.827771 0.395636
0.266331 0.814664 0.332311
0.391394 0.776226 0.271214
0.534295 0.758068 0.300328
0.627649 0.76672 0.309499
0.699702 0.782712 0.320485
0.751095 0.800916 0.330831
0.781033 0.813642 0.341024
0.797864 0.814176 0.364218
0.811444 0.816587 0.38262
0.813291 0.816922 0.38735
0.813382 0.817014 0.385931
0.813397 0.817029 0.386114
0.813397 0.817029 0.386236
0.813397 0.817029 0.386404
0.813367 0.817014 0.386709
0.813336 0.816983 0.386786
0.813275 0.816968 0.386954
0.81323 0.816968 0.386755
0.813199 0.816953 0.386465
0.813153 0.816953 0.385885
0.813092 0.816938 0.385061
0.812985 0.816922 0.383352
0.265614 0.827741 0.407248
0.265263 0.82797 0.40705
0.264515 0.828443 0.406744
0.263951 0.828794 0.406149
0.263523 0.828992 0.404898
0.263264 0.828885 0.403388
0.263294 0.828687 0.401572
0.2636 0.828351 0.399313
0.263981 0.828061 0.39675
0.264027 0.828046 0.396719
0.264103 0.827985 0.396628
0.265354 0.819318 0.354086
0.338537 0.788373 0.267811
0.48069 0.762966 0.287816
0.594537 0.761578 0.307897
0.673884 0.776959 0.315755
0.733639 0.794034 0.32842
0.772015 0.810361 0.335958
0.790799 0.812909 0.35935
0.808484 0.816175 0.374746
0.812879 0.816953 0.384848
0.812894 0.816892 0.388724
0.812879 0.816876 0.388724
0.812879 0.816876 0.388724
0.812863 0.816892 0.388724
0.812833 0.816892 0.388708
0.812818 0.816907 0.388693
0.812787 0.816907 0.388678
0.812757 0.816907 0.388678
0.812757 0.816907 0.388708
0.812772 0.816907 0.388769
0.812787 0.816907 0.388876
0.812802 0.816907 0.38912
0.264317 0.828946 0.409155
0.264195 0.828977 0.408896
0.263966 0.829099 0.408484
0.263691 0.829252 0.407614
0.263416 0.829282 0.406378
0.263279 0.829099 0.404044
0.263249 0.828748 0.401846
0.263432 0.828489 0.399969
0.263951 0.828077 0.396902
0.264027 0.828046 0.396704
0.264073 0.828016 0.396658
0.265293 0.820996 0.366003
0.323293 0.792309 0.268666
0.470634 0.763729 0.285924
0.581979 0.759869 0.307317
0.663157 0.774731 0.313954
0.727184 0.79115 0.327977
0.767575 0.808408 0.334524
0.789075 0.813611 0.354314
0.8056 0.815824 0.37084
0.812924 0.81706 0.382971
0.812863 0.816953 0.38761
0.812863 0.816938 0.388327
0.812833 0.816938 0.388342
0.812833 0.816938 0.388327
0.812802 0.816953 0.388327
0.812802 0.816953 0.388312
0.812772 0.816968 0.388281
0.812772 0.816968 0.388266
0.812772 0.816968 0.388266
0.812772 0.816968 0.388266
0.812787 0.816968 0.388296
0.812848 0.816953 0.388312
0.264958 0.828626 0.40911
0.265446 0.828183 0.408423
0.265522 0.828 0.407706
0.265324 0.828016 0.406882
0.264958 0.828046 0.405478
0.264668 0.827909 0.403372
0.264561 0.827726 0.401205
0.264927 0.827558 0.399237
0.26566 0.826886 0.395499
0.265705 0.826856 0.395453
0.265782 0.826795 0.395392
0.26659 0.820706 0.37116
0.312108 0.794842 0.268101
0.465202 0.763394 0.283284
0.575799 0.758206 0.306462
0.658808 0.773281 0.31252
0.722957 0.789059 0.326421
0.765606 0.807263 0.333333
0.788037 0.813886 0.351156
0.80383 0.815381 0.368566
0.813245 0.817075 0.381964
0.813291 0.817044 0.386236
0.813275 0.816999 0.388128
0.81326 0.816999 0.388128
0.81326 0.816999 0.388128
0.813245 0.817014 0.388113
0.813199 0.817014 0.388098
0.813138 0.817014 0.388083
0.813046 0.817014 0.388067
0.81297 0.817029 0.388067
0.812909 0.817029 0.388052
0.812924 0.817029 0.388052
0.812985 0.817029 0.388067
0.264302 0.82916 0.410117
0.264851 0.828763 0.40914
0.265019 0.828473 0.408469
0.264912 0.828382 0.407568
0.264668 0.828336 0.406241
0.264546 0.828138 0.403906
0.264363 0.827848 0.401541
0.264637 0.82771 0.399649
0.265339 0.827146 0.395911
0.265354 0.827131 0.395697
0.265293 0.827161 0.395727
0.265797 0.821851 0.375494
0.301381 0.797803 0.272938
0.459205 0.764202 0.282521
0.571252 0.75819 0.307469
0.65362 0.771862 0.311879
0.718975 0.788205 0.325582
0.762982 0.805966 0.332296
0.78674 0.814099 0.348257
0.802152 0.814969 0.366918
0.812619 0.816907 0.379858
0.813291 0.81706 0.385428
0.813275 0.816999 0.388067
0.813275 0.817014 0.388067
0.81326 0.817014 0.388052
0.813245 0.817014 0.388052
0.813214 0.817029 0.388037
0.813153 0.817029 0.388037
0.813062 0.817029 0.388022
0.81297 0.817044 0.388022
0.81294 0.817044 0.388022
0.81297 0.817044 0.388022
0.813016 0.817029 0.388022
0.263996 0.829419 0.410834
0.2645 0.829038 0.409842
0.26479 0.828763 0.408957
0.264607 0.828672 0.408255
0.264378 0.828626 0.406912
0.264195 0.828443 0.404562
0.264118 0.828077 0.401862
0.264363 0.827878 0.399893
0.264942 0.827451 0.396307
0.265049 0.827329 0.395834
0.265019 0.827359 0.39588
0.265553 0.822553 0.377981
0.296223 0.799237 0.275196
0.454185 0.765103 0.281865
0.565148 0.758389 0.308049
0.649302 0.771389 0.311757
0.716487 0.787686 0.324559
0.760967 0.80531 0.331945
0.785275 0.814404 0.346105
0.800504 0.814801 0.365576
0.811887 0.816846 0.378531
0.813275 0.817075 0.384878
0.813275 0.817014 0.388052
0.813275 0.817014 0.388067
0.813275 0.817029 0.388052
0.813245 0.817014 0.388037
0.813214 0.817029 0.388037
0.813153 0.817029 0.388022
0.813062 0.817029 0.388022
0.81297 0.817044 0.388022
0.81294 0.817044 0.388022
0.81294 0.817044 0.388022
0.812985 0.817044 0.388022
0.263447 0.829938 0.41149
0.26392 0.82945 0.410697
0.264332 0.829114 0.409628
0.264302 0.828992 0.408881
0.264164 0.828885 0.407477
0.263981 0.828641 0.405142
0.263951 0.828199 0.402182
0.26424 0.827939 0.4
0.264851 0.827497 0.396414
0.264973 0.82739 0.39588
0.264942 0.82742 0.395911
0.265309 0.823423 0.380591
0.296269 0.799573 0.280903
0.451926 0.765499 0.281544
0.562768 0.758526 0.307973
0.646159 0.770794 0.311254
0.712764 0.78677 0.323491
0.758022 0.804364 0.331365
0.784024 0.814633 0.344045
0.799237 0.814588 0.36495
0.811307 0.81677 0.377722
0.813138 0.817044 0.384451
0.813153 0.816968 0.388128
0.813184 0.816983 0.38819
0.813199 0.816983 0.388174
0.813199 0.816983 0.388144
0.813153 0.816999 0.388128
0.813092 0.816999 0.388113
0.812985 0.817014 0.388113
0.812894 0.817014 0.388128
0.812802 0.816999 0.388144
0.812772 0.816983 0.388205
0.812741 0.816968 0.388266
0.262974 0.830503 0.412482
0.263249 0.83006 0.411566
0.263493 0.829648 0.410697
0.263706 0.829404 0.409674
0.263722 0.829252 0.408377
0.263752 0.828901 0.405753
0.263813 0.828336 0.402625
0.264164 0.827985 0.400107
0.264729 0.827558 0.396536
0.264912 0.82742 0.395911
0.264927 0.82742 0.395895
0.265339 0.823484 0.381033
0.295674 0.800168 0.285618
0.44828 0.765942 0.280446
0.558968 0.758419 0.307103
0.642191 0.769848 0.310964
0.710414 0.786007 0.322637
0.756664 0.803479 0.330983
0.783276 0.814527 0.342809
0.797635 0.814313 0.364157
0.810651 0.816754 0.376883
0.812879 0.817044 0.384039
0.812833 0.816938 0.387778
0.812848 0.816938 0.388342
0.812833 0.816938 0.388357
0.812818 0.816938 0.388342
0.812772 0.816938 0.388357
0.812726 0.816953 0.388327
0.812634 0.816968 0.388296
0.812589 0.816983 0.388266
0.812558 0.816999 0.388235
0.812543 0.816999 0.388235
0.812543 0.816999 0.388251
0.262379 0.831342 0.413596
0.262531 0.830945 0.412558
0.262806 0.830427 0.411399
0.263096 0.829938 0.410239
0.263264 0.829618 0.408972
0.263478 0.82919 0.406378
0.263539 0.828565 0.403052
0.263951 0.828107 0.400381
0.264622 0.827649 0.396719
0.264805 0.827497 0.395972
0.264881 0.827451 0.395911
0.2654 0.823713 0.382467
0.292576 0.801328 0.288655
0.442908 0.766873 0.279606
