bundles/resolve-cinematic-luts/Phantom Luts/Komodo Phantom FILM LUTs G2/Komodo Phantom FILM LUTs G2/33x/Standard (No WB Offset)/Vision_Komodo_Legacy_G2_33x.cube
TITLE "Generated by Resolve"
LUT_3D_SIZE 9
0.0361028 0.0486152 0.0394293
0.0476234 0.0491646 0.0366827
0.147875 0.0427253 0.0335088
0.376974 0.0427405 0.0350652
0.622141 0.0676127 0.0683299
0.629618 0.0536507 0.0742962
0.625025 0.0648661 0.0699779
0.611994 0.0771344 0.0627298
0.629511 0.0812238 0.0637369
0.0365606 0.0644694 0.0418708
0.0440833 0.0623484 0.0424964
0.151705 0.0493782 0.0348669
0.390433 0.0492256 0.0363928
0.615869 0.0802167 0.0627756
0.614618 0.0798962 0.062501
0.623621 0.0818189 0.0638743
0.6383 0.0857252 0.0661326
0.660685 0.0931106 0.0668956
0.0404517 0.17702 0.0624094
0.0399481 0.171923 0.0585184
0.132967 0.185397 0.047776
0.455055 0.153841 0.0802625
0.673564 0.10016 0.0593271
0.669047 0.0978866 0.0657664
0.680842 0.101167 0.0634012
0.704387 0.121401 0.0668498
0.739757 0.188449 0.0968795
0.105959 0.469169 0.178729
0.103563 0.467887 0.161578
0.121904 0.464256 0.157015
0.442176 0.487129 0.0985122
0.727596 0.50161 0.164508
0.756573 0.493965 0.165728
0.756176 0.493446 0.167254
0.759869 0.51104 0.165347
0.768078 0.545769 0.155901
0.240009 0.755367 0.351843
0.240345 0.760998 0.337682
0.260594 0.770642 0.336416
0.412024 0.73611 0.328969
0.731929 0.80116 0.272175
0.82678 0.792752 0.258137
0.82649 0.795972 0.262913
0.826001 0.798321 0.2663
0.826551 0.787488 0.249699
0.265782 0.800748 0.428992
0.264485 0.800992 0.426078
0.263264 0.800153 0.41912
0.293843 0.794781 0.358206
0.657649 0.826932 0.368841
0.824781 0.842664 0.356008
0.825238 0.842985 0.361654
0.825299 0.84303 0.361028
0.825254 0.843 0.361578
0.265492 0.801251 0.43035
0.265171 0.800839 0.42771
0.263554 0.799954 0.419699
0.274769 0.795453 0.361105
0.635752 0.824537 0.371511
0.822003 0.842817 0.351797
0.825223 0.842939 0.362203
0.825284 0.84303 0.361196
0.825315 0.843061 0.360784
0.26508 0.801663 0.430701
0.265538 0.800732 0.42829
0.264302 0.799466 0.420371
0.262989 0.795636 0.371756
0.614664 0.820783 0.376135
0.817105 0.843259 0.348943
0.825193 0.842893 0.362661
0.825238 0.842985 0.3617
0.82536 0.843137 0.360006
0.264881 0.801816 0.430686
0.264729 0.801419 0.428595
0.264347 0.800153 0.42266
0.263355 0.798749 0.415351
0.532265 0.804669 0.394308
0.789593 0.845258 0.342947
0.825223 0.842954 0.362097
0.825269 0.842985 0.361593
0.825391 0.843168 0.359701
0.0312047 0.0492409 0.053254
0.0552987 0.0489509 0.0534066
0.191058 0.0388342 0.0457618
0.433951 0.0350195 0.0515145
0.642618 0.0488289 0.0979171
0.647028 0.0510414 0.109865
0.644038 0.0495918 0.102373
0.633265 0.0495308 0.0744335
0.621592 0.0790417 0.062623
0.0357519 0.0606088 0.0485237
0.0443275 0.0580148 0.0484474
0.162203 0.0429236 0.0345159
0.396582 0.0411231 0.0370489
0.619989 0.071931 0.0646372
0.620859 0.0724041 0.0647898
0.613931 0.078172 0.0618143
0.631128 0.0820783 0.0640574
0.656443 0.090547 0.0662547
0.0408331 0.172305 0.0739605
0.0406043 0.166308 0.0637522
0.125368 0.175021 0.0468605
0.451118 0.133791 0.0727398
0.663905 0.0965438 0.0631113
0.662821 0.0946975 0.066865
0.675441 0.0994278 0.0644694
0.702541 0.117479 0.0664836
0.740368 0.183444 0.0946517
0.10454 0.464759 0.197879
0.102846 0.461311 0.177935
0.109407 0.455695 0.151812
0.436774 0.481636 0.0967117
0.726604 0.493355 0.164492
0.754986 0.482902 0.165682
0.754345 0.481102 0.167147
0.760037 0.510277 0.163821
0.768673 0.546319 0.155474
0.235157 0.74725 0.36733
0.23473 0.748501 0.350683
0.261433 0.76788 0.335378
0.397147 0.731975 0.323705
0.728313 0.798444 0.268925
0.826795 0.788922 0.251133
0.826612 0.791211 0.254795
0.826734 0.793561 0.25771
0.827039 0.781781 0.239948
0.266117 0.801205 0.431708
0.264912 0.801343 0.428916
0.263554 0.800519 0.421103
0.272816 0.795712 0.361257
0.650004 0.826276 0.369848
0.824765 0.842664 0.355001
0.825284 0.843015 0.361334
0.82533 0.843061 0.360754
0.825315 0.843046 0.360922
0.26598 0.80174 0.433387
0.26566 0.801282 0.430945
0.263951 0.800381 0.422171
0.262684 0.79646 0.373892
0.624857 0.822965 0.373541
0.820752 0.842908 0.350744
0.825238 0.842939 0.362127
0.825284 0.84303 0.361089
0.825315 0.843076 0.360708
0.265675 0.801999 0.433539
0.266102 0.801129 0.431464
0.264942 0.799802 0.423087
0.258961 0.796811 0.386862
0.604364 0.818372 0.378164
0.814893 0.844068 0.347005
0.825208 0.842893 0.362676
0.825238 0.842985 0.3617
0.825376 0.843137 0.360006
0.26537 0.80209 0.432959
0.265385 0.801602 0.431205
0.26479 0.800351 0.424201
0.26389 0.799252 0.418555
0.524178 0.803052 0.395636
0.785718 0.844953 0.343267
0.825193 0.842939 0.361929
0.825254 0.842985 0.361624
0.825391 0.843168 0.359716
0.0377356 0.0541238 0.162676
0.0628519 0.0511025 0.164401
0.197467 0.0454261 0.148363
0.441627 0.0581369 0.191897
0.67216 0.0761578 0.246708
0.669886 0.0712902 0.233051
0.667155 0.0666972 0.219806
0.662455 0.0599985 0.195361
0.655589 0.0500038 0.152483
0.0298161 0.0595407 0.136019
0.0415045 0.0520638 0.154314
0.180026 0.0456245 0.136538
0.43827 0.0548562 0.159808
0.665492 0.0622568 0.204379
0.664546 0.0611429 0.200397
0.661723 0.0573129 0.184939
0.653437 0.0500038 0.150286
0.63563 0.0545205 0.0734722
0.0295262 0.147097 0.129061
0.0297398 0.14342 0.12578
0.147829 0.166842 0.146563
0.47155 0.0910658 0.0930343
0.63566 0.0720989 0.0691691
0.630198 0.0776379 0.066331
0.634226 0.0834516 0.0646067
0.65977 0.0939498 0.0670787
0.715328 0.128115 0.0704204
0.0970626 0.453285 0.255451
0.099443 0.450019 0.242527
0.0947585 0.433387 0.176165
0.421958 0.463462 0.0908522
0.721874 0.464347 0.16611
0.750286 0.437537 0.162631
0.751308 0.451713 0.164736
0.755901 0.487205 0.165774
0.76434 0.526635 0.163058
0.225834 0.733837 0.425467
0.222675 0.73022 0.408682
0.223423 0.72607 0.350439
0.347982 0.720256 0.308934
0.720821 0.789181 0.258824
0.827771 0.776959 0.232578
0.827878 0.776776 0.232227
0.827482 0.777615 0.233616
0.827878 0.774121 0.229236
0.277272 0.806317 0.476539
0.268803 0.804211 0.455894
0.264988 0.801663 0.430365
0.25893 0.798108 0.397452
0.627619 0.823331 0.372854
0.824689 0.842588 0.35317
0.825269 0.842985 0.361593
0.825315 0.843061 0.36083
0.825299 0.843076 0.360815
0.281559 0.810849 0.500481
0.27689 0.80679 0.479072
0.265721 0.801648 0.432212
0.262257 0.798886 0.412009
0.597971 0.817868 0.379843
0.815366 0.843717 0.347326
0.825238 0.842939 0.362142
0.825284 0.84303 0.361089
0.82533 0.843076 0.360693
0.282353 0.811688 0.504738
0.277562 0.807446 0.482734
0.26659 0.801282 0.432975
0.264149 0.799283 0.419684
0.575067 0.813382 0.385855
0.808927 0.845884 0.343313
0.825193 0.842878 0.362783
0.825238 0.842985 0.3617
0.82536 0.843137 0.359991
0.277134 0.80734 0.48127
0.271504 0.805234 0.461784
0.266087 0.80148 0.432425
0.264073 0.799405 0.419821
0.501747 0.79794 0.398154
0.772931 0.843397 0.344594
0.825162 0.842924 0.361028
0.825238 0.842985 0.3617
0.825391 0.843183 0.359594
0.0538949 0.0673075 0.367575
0.0760967 0.0616312 0.363272
0.192615 0.0551614 0.353338
0.466957 0.0661784 0.3888
0.668574 0.0771954 0.449989
0.669306 0.0780652 0.452552
0.665492 0.08365 0.420172
0.667521 0.0911879 0.392538
0.681758 0.105959 0.354452
0.0451514 0.0807507 0.3673
0.0555428 0.0654459 0.364477
0.167254 0.0550088 0.353689
0.458244 0.0648814 0.381018
0.670039 0.080705 0.442634
0.665934 0.0795911 0.429114
0.666911 0.0885939 0.395346
0.671962 0.0982071 0.382879
0.684794 0.104463 0.332372
0.0392004 0.120623 0.321508
0.0403296 0.112978 0.325399
0.0784161 0.0718547 0.363134
0.416785 0.0581979 0.343206
0.663539 0.0865797 0.40441
0.672938 0.1019 0.378012
0.677684 0.107362 0.358144
0.682841 0.102876 0.317784
0.67068 0.069337 0.229099
0.0310674 0.402564 0.397971
0.0301061 0.398749 0.392935
0.0307774 0.386053 0.381338
0.422751 0.438819 0.410986
0.767102 0.371191 0.362493
0.796796 0.30428 0.29868
0.787213 0.289036 0.252613
0.769955 0.310628 0.226307
0.74583 0.412085 0.212482
0.161288 0.721523 0.532326
0.16202 0.718288 0.521904
0.172595 0.709148 0.495048
0.203784 0.678416 0.369772
0.660609 0.731334 0.267018
0.827436 0.740246 0.179446
0.827253 0.734966 0.176501
0.827543 0.735409 0.175143
0.827359 0.739864 0.17496
0.2607 0.822583 0.580987
0.263813 0.82211 0.574731
0.280858 0.818814 0.555337
0.265675 0.802121 0.434134
0.558297 0.810346 0.388952
0.817777 0.843244 0.349905
0.825269 0.842863 0.364294
0.825345 0.842924 0.36408
0.825269 0.842969 0.36199
0.250446 0.825711 0.595697
0.255467 0.824445 0.586938
0.273259 0.820142 0.562966
0.266804 0.802197 0.439689
0.521111 0.802625 0.395254
0.795697 0.845579 0.342184
0.825208 0.842939 0.362188
0.825284 0.843046 0.361105
0.82533 0.843061 0.360708
0.248798 0.826291 0.598093
0.254856 0.824552 0.588251
0.273106 0.820066 0.562921
0.267201 0.802121 0.442115
0.499046 0.797406 0.397482
0.777447 0.843885 0.344671
0.82504 0.842802 0.36054
0.825269 0.842969 0.361822
0.82536 0.843137 0.360021
0.263508 0.822248 0.575082
0.270741 0.820615 0.566552
0.287892 0.817975 0.549752
0.266835 0.80177 0.435981
0.411673 0.794202 0.377356
0.740307 0.839536 0.350881
0.824857 0.842695 0.357382
0.825238 0.842985 0.3617
0.825345 0.843137 0.360037
0.0783093 0.0914931 0.567681
0.0985885 0.0816663 0.549599
0.199741 0.0695354 0.548043
0.476646 0.108095 0.578592
0.736385 0.132235 0.664393
0.734417 0.13727 0.677134
0.733852 0.136492 0.685603
0.734096 0.13756 0.674296
0.734066 0.125002 0.621363
0.066804 0.10428 0.588556
0.0804456 0.0895247 0.563729
0.175128 0.0685283 0.546792
0.463096 0.103868 0.573327
0.736187 0.131151 0.661601
0.734447 0.137652 0.672663
0.734142 0.137011 0.680537
0.735882 0.132357 0.663325
0.725689 0.122225 0.598154
0.0801556 0.15024 0.60679
0.0802472 0.142992 0.611124
0.0929122 0.081178 0.541115
0.402762 0.0890211 0.549661
0.729381 0.12639 0.64535
0.735668 0.12987 0.657603
0.735637 0.129732 0.657282
0.73492 0.124437 0.628656
0.709926 0.122469 0.554528
0.0475624 0.380484 0.627314
0.0503395 0.374914 0.629282
0.0644999 0.351125 0.636027
0.323873 0.260243 0.670542
0.731319 0.251713 0.652094
0.75082 0.184512 0.629114
0.733013 0.170642 0.584146
0.710094 0.12639 0.521767
0.698512 0.110262 0.454047
0.0503853 0.662226 0.677668
0.049958 0.659678 0.674662
0.0505379 0.652308 0.667613
0.0531167 0.633982 0.64892
0.683543 0.701839 0.680873
0.854932 0.673655 0.65713
0.841413 0.669612 0.637156
0.826612 0.673854 0.613535
0.812787 0.66154 0.547204
0.136584 0.84567 0.727962
0.142092 0.845548 0.721935
0.163943 0.844526 0.703822
0.206744 0.831708 0.655665
0.516106 0.819715 0.605814
0.811322 0.864988 0.605127
0.84651 0.857542 0.556298
0.848814 0.854994 0.561059
0.837812 0.843427 0.474174
0.115175 0.846815 0.752712
0.121614 0.847166 0.742565
0.148104 0.84509 0.717433
0.215671 0.836667 0.657359
0.324834 0.810559 0.516808
0.755962 0.841856 0.34583
0.824765 0.842634 0.356008
0.825055 0.842832 0.35964
0.825055 0.842832 0.360281
0.113237 0.846983 0.75552
0.121706 0.847166 0.742626
0.150347 0.845121 0.715221
0.218875 0.836072 0.654414
0.292973 0.811582 0.511788
0.724376 0.837812 0.353124
0.824582 0.842557 0.350698
0.825101 0.842985 0.358679
0.825147 0.843015 0.358816
0.154131 0.844907 0.711894
0.16907 0.843778 0.69926
0.194934 0.840604 0.677394
0.235203 0.831601 0.628305
0.280247 0.810193 0.496208
0.665614 0.82826 0.367544
0.819532 0.843259 0.346227
0.825162 0.843076 0.358099
0.825208 0.843107 0.358404
0.103868 0.08748 0.586618
0.126452 0.08748 0.583093
0.221912 0.0743267 0.586313
0.483604 0.108537 0.615747
0.734722 0.136126 0.687129
0.734707 0.136126 0.687114
0.734707 0.136126 0.687129
0.734737 0.13611 0.687144
0.734737 0.13611 0.687144
0.0861372 0.0951095 0.60177
0.10573 0.0872358 0.586038
0.197848 0.0726635 0.585977
0.467536 0.10425 0.612314
0.734737 0.13611 0.687144
0.734737 0.13611 0.687144
0.734707 0.136126 0.687129
0.734707 0.136126 0.687114
0.734707 0.136126 0.687129
0.0911421 0.15317 0.668299
0.0878004 0.139956 0.660319
0.114412 0.0867933 0.583581
0.403784 0.0953689 0.601984
0.730144 0.134936 0.685466
0.734737 0.13611 0.687144
0.734737 0.13611 0.687144
0.734737 0.13611 0.687144
0.734737 0.13611 0.687144
0.0990311 0.313985 0.725917
0.0992752 0.305394 0.725093
0.0984054 0.274388 0.717281
0.247623 0.150759 0.664393
0.660945 0.165423 0.680888
0.734188 0.136797 0.686625
0.733898 0.136812 0.686412
0.734249 0.137774 0.686885
0.734371 0.136782 0.68545
0.0283207 0.60763 0.772946
0.0277867 0.604257 0.771939
0.0263371 0.594034 0.769863
0.0357214 0.568658 0.780392
0.607263 0.564279 0.838895
0.856779 0.605554 0.825757
0.854994 0.598077 0.821668
0.853574 0.598428 0.810529
0.839246 0.553735 0.772305
0.080827 0.827253 0.843717
0.0781415 0.822675 0.838849
0.0713664 0.810941 0.82623
0.0580301 0.771176 0.787259
0.2551 0.78967 0.800885
0.832975 0.859129 0.842206
0.888869 0.851514 0.834928
0.885344 0.847303 0.822522
0.880842 0.838819 0.793576
0.103136 0.842405 0.868559
0.0938735 0.844358 0.863432
0.0816052 0.846372 0.853513
0.0692912 0.846799 0.824506
0.117342 0.858763 0.779538
0.781521 0.894942 0.807416
0.876921 0.930236 0.825345
0.881834 0.930343 0.82417
0.880415 0.927092 0.813397
0.105989 0.841901 0.871443
0.0953536 0.844129 0.865431
0.0809949 0.846479 0.853178
0.069398 0.847044 0.821073
0.119509 0.856275 0.761578
0.739239 0.878264 0.778424
0.838804 0.908492 0.744747
0.824933 0.842939 0.35317
0.824994 0.842985 0.354269
0.0804913 0.846235 0.851514
0.0723735 0.846555 0.844144
0.0699931 0.846601 0.830488
0.087541 0.847349 0.799084
0.150927 0.84773 0.719158
0.65864 0.858289 0.722545
0.809934 0.890745 0.692439
0.826917 0.843687 0.375906
0.824918 0.842832 0.356069
0.116426 0.0870832 0.583627
0.144335 0.0897078 0.584741
0.237552 0.0753185 0.585946
0.499947 0.112932 0.620584
0.734737 0.13611 0.687144
0.734737 0.13611 0.687144
0.734737 0.13611 0.687144
0.734737 0.13611 0.687144
0.734737 0.13611 0.687144
0.0966812 0.0890516 0.590661
0.11899 0.0869459 0.583246
0.212787 0.0738689 0.586221
0.483345 0.108507 0.615579
0.734737 0.13611 0.687144
0.734737 0.13611 0.687144
0.734737 0.13611 0.687144
0.734737 0.13611 0.687144
0.734737 0.13611 0.687144
0.090959 0.149264 0.666682
0.08365 0.127077 0.646525
0.127504 0.0875868 0.5832
0.417578 0.0971695 0.603876
0.734035 0.136004 0.6869
0.734737 0.13611 0.687144
0.734737 0.13611 0.687144
0.734737 0.13611 0.687144
0.734737 0.13611 0.687144
0.0990158 0.288594 0.720836
0.0979782 0.278569 0.71754
0.0969558 0.247181 0.707973
0.223178 0.121996 0.630106
0.648508 0.145388 0.667277
0.734478 0.136492 0.6869
0.734493 0.136477 0.6869
0.734417 0.136553 0.686839
0.734554 0.1364 0.686976
0.0295109 0.596826 0.788693
0.0304112 0.592981 0.788464
0.0325628 0.583597 0.787884
0.0441291 0.555245 0.784787
0.597757 0.534157 0.834806
0.845808 0.569512 0.824979
0.843122 0.559442 0.821714
0.842283 0.55581 0.820951
0.835218 0.527062 0.812314
0.0835584 0.804044 0.863462
0.0798199 0.797024 0.860578
0.0648356 0.774762 0.851881
0.0425269 0.714199 0.82771
0.0824445 0.727871 0.853208
0.794217 0.800412 0.907805
0.893034 0.812787 0.8972
0.892653 0.807385 0.894118
0.891432 0.793835 0.882017
0.104616 0.838972 0.88011
0.104616 0.838972 0.88011
0.104616 0.838972 0.88011
0.104616 0.838972 0.88011
0.105653 0.857664 0.88069
0.671458 0.884916 0.877531
0.895903 0.932708 0.915267
0.913466 0.930098 0.915801
0.910414 0.926024 0.908583
0.104616 0.838972 0.88011
0.104616 0.838972 0.88011
0.104616 0.838972 0.88011
0.104616 0.838972 0.88011
0.0884718 0.855634 0.863706
0.211124 0.877913 0.857618
0.882353 0.941634 0.905608
0.915496 0.945159 0.914366
0.915053 0.944976 0.913481
0.104616 0.838972 0.88011
0.104616 0.838972 0.88011
0.104616 0.838972 0.88011
0.105348 0.839323 0.878279
0.0695506 0.849058 0.842542
0.100557 0.8851 0.85359
0.852857 0.932189 0.8813
0.907744 0.942519 0.899107
0.903227 0.941176 0.88687
0.122469 0.0868849 0.58291
0.151003 0.0903029 0.585168
0.24477 0.0760815 0.586191
0.509071 0.11574 0.622827
0.734737 0.13611 0.687144
0.734737 0.13611 0.687144
0.734737 0.13611 0.687144
0.734737 0.13611 0.687144
0.734737 0.13611 0.687144
0.100893 0.0879072 0.587915
0.123903 0.0870222 0.582803
0.219944 0.0740368 0.586053
0.491661 0.110857 0.618524
0.734737 0.13611 0.687144
0.734737 0.13611 0.687144
0.734737 0.13611 0.687144
0.734737 0.13611 0.687144
0.734737 0.13611 0.687144
0.0906691 0.147692 0.665888
0.0822309 0.122881 0.642252
0.133501 0.0882429 0.583597
0.424231 0.0979934 0.604929
0.734737 0.13611 0.687144
0.734737 0.13611 0.687144
0.734737 0.13611 0.687144
0.734737 0.13611 0.687144
0.734737 0.13611 0.687144
0.0992447 0.281651 0.719356
0.098497 0.27129 0.71635
0.0964523 0.238788 0.704097
0.213703 0.111208 0.618463
0.649195 0.142061 0.665125
0.734585 0.13637 0.687007
0.734524 0.136416 0.686946
0.734432 0.136477 0.686854
0.734615 0.136324 0.687037
0.0299535 0.594537 0.788556
0.0309606 0.590845 0.788327
0.0331731 0.581262 0.78764
0.0458534 0.550668 0.783963
0.594568 0.525093 0.831998
0.843107 0.559686 0.821775
0.840177 0.548974 0.818326
0.83949 0.544015 0.817197
0.831968 0.513939 0.808454
0.0823682 0.800641 0.862531
0.0780194 0.792859 0.859327
0.0612955 0.765042 0.846326
0.0408179 0.706813 0.825223
0.0881819 0.720562 0.851255
0.790845 0.789715 0.905913
0.891798 0.802502 0.894499
0.890898 0.795895 0.8925
0.888808 0.779751 0.888121
0.104616 0.838972 0.88011
0.104616 0.838972 0.88011
0.104616 0.838972 0.88011
0.104616 0.838972 0.88011
0.104433 0.842512 0.887144
0.606043 0.853712 0.888899
0.877821 0.916472 0.925383
0.907469 0.919478 0.928206
0.906569 0.911437 0.927016
0.104616 0.838972 0.88011
0.104616 0.838972 0.88011
0.104616 0.838972 0.88011
0.104616 0.838972 0.88011
0.109468 0.849668 0.888823
0.130465 0.876112 0.91104
0.826902 0.933989 0.917159
0.915068 0.950881 0.933501
0.914656 0.950698 0.933364
0.104616 0.838972 0.88011
0.104616 0.838972 0.88011
0.104616 0.838972 0.88011
0.104616 0.838972 0.88011
0.105287 0.840696 0.881437
0.118151 0.875929 0.899794
0.722698 0.912383 0.891478
0.910826 0.950439 0.93257
0.915068 0.950881 0.933501
0.123888 0.0870222 0.582803
0.153475 0.090547 0.585412
0.245319 0.076112 0.586221
0.507042 0.115465 0.622583
0.734737 0.13611 0.687144
0.734737 0.13611 0.687144
0.734737 0.13611 0.687144
0.734737 0.13611 0.687144
0.734737 0.13611 0.687144
0.102953 0.0875715 0.586923
0.12665 0.08748 0.583093
0.220279 0.0740673 0.586099
0.490333 0.110521 0.618173
0.734737 0.13611 0.687144
0.734737 0.13611 0.687144
0.734737 0.13611 0.687144
0.734737 0.13611 0.687144
0.734737 0.13611 0.687144
0.0895705 0.145098 0.663539
0.0808881 0.119722 0.638392
0.135882 0.0884871 0.583795
0.423301 0.0979019 0.604746
0.734737 0.13611 0.687144
0.734737 0.13611 0.687144
0.734737 0.13611 0.687144
0.734737 0.13611 0.687144
0.734737 0.13611 0.687144
0.0987564 0.273121 0.717235
0.0980087 0.262119 0.712932
0.0967575 0.232456 0.702235
0.20766 0.106355 0.611322
0.648066 0.141711 0.664439
0.734646 0.136309 0.687068
0.7346 0.136339 0.687022
0.734524 0.136385 0.686961
0.734661 0.136263 0.687083
0.0309758 0.590768 0.788312
0.0319524 0.587228 0.788449
0.03505 0.5776 0.787579
0.0475929 0.545922 0.782666
0.589395 0.514687 0.82884
0.840528 0.548348 0.818647
0.837644 0.536736 0.81503
0.835721 0.529717 0.812818
0.827802 0.498787 0.803418
0.0788739 0.794842 0.859968
0.0717937 0.785687 0.855863
0.0567178 0.75346 0.841489
0.0394751 0.701701 0.824369
0.0739452 0.713756 0.850278
0.786282 0.781155 0.903624
0.890211 0.794369 0.891905
0.889647 0.787228 0.890089
0.887861 0.770947 0.88542
0.104616 0.838972 0.88011
0.104616 0.838972 0.88011
0.104616 0.838972 0.88011
0.104616 0.838972 0.88011
0.0990921 0.833555 0.882963
0.605951 0.848951 0.887984
0.874083 0.909377 0.924392
0.906996 0.913741 0.927794
0.905791 0.904616 0.92491
0.104616 0.838972 0.88011
0.104616 0.838972 0.88011
0.104616 0.838972 0.88011
0.104616 0.838972 0.88011
0.109392 0.848554 0.887922
0.129152 0.874815 0.911147
0.808774 0.925063 0.91809
0.913237 0.949035 0.934844
0.914839 0.948699 0.934859
0.104616 0.838972 0.88011
0.104616 0.838972 0.88011
0.104616 0.838972 0.88011
0.104616 0.838972 0.88011
0.10518 0.840299 0.881148
0.134508 0.878645 0.913954
0.556039 0.885618 0.892912
0.901518 0.950378 0.932555
0.915068 0.950881 0.933501
