bundles/resolve-cinematic-luts/Phantom Luts/Komodo Phantom FILM LUTs G2/Komodo Phantom FILM LUTs G2/33x/Standard (No WB Offset)/Vision_Komodo_G2_33x.cube
TITLE "Generated by Resolve"
LUT_3D_SIZE 9
0.0242161 0.0345617 0.0253605
0.0470436 0.0337224 0.0241245
0.189014 0.0316472 0.0176547
0.423651 0.0240635 0.0282444
0.647303 0.0327764 0.0738842
0.656886 0.0377966 0.103243
0.649744 0.0340429 0.0811475
0.640848 0.0436713 0.0588846
0.658503 0.0488136 0.0607156
0.0260929 0.0621653 0.0312352
0.0374456 0.0585031 0.0308232
0.194553 0.0393835 0.0194095
0.4374 0.0324102 0.0306249
0.644602 0.0470741 0.0585946
0.643809 0.046952 0.0584726
0.652522 0.0487678 0.0604715
0.664683 0.0534829 0.0627298
0.685512 0.063447 0.0634318
0.035996 0.222492 0.0636454
0.033753 0.214481 0.0551766
0.18854 0.23241 0.0392004
0.512993 0.192569 0.0939651
0.69955 0.092195 0.0570993
0.693812 0.0733654 0.063447
0.704677 0.0860456 0.0614023
0.729122 0.121462 0.0678874
0.755627 0.212192 0.106554
0.117968 0.52369 0.212222
0.114336 0.521385 0.186984
0.145312 0.518975 0.178546
0.504967 0.542062 0.105455
0.758419 0.554818 0.176455
0.778988 0.543267 0.189334
0.778607 0.543084 0.191257
0.782238 0.560571 0.181155
0.788403 0.596429 0.140703
0.25893 0.771984 0.375204
0.257939 0.774716 0.355184
0.281193 0.781842 0.348043
0.453941 0.75877 0.352941
0.758755 0.811322 0.289311
0.824765 0.80351 0.294896
0.824369 0.805798 0.299535
0.824323 0.807813 0.3028
0.825116 0.799466 0.2869
0.27718 0.807584 0.459022
0.276341 0.807645 0.455619
0.274754 0.806531 0.44715
0.315847 0.798962 0.36788
0.693584 0.829496 0.389822
0.824521 0.843442 0.394293
0.825345 0.844038 0.401389
0.825391 0.844068 0.400961
0.825345 0.844038 0.401389
0.27715 0.807858 0.460502
0.276921 0.807568 0.457282
0.275212 0.806332 0.447761
0.290303 0.798779 0.371969
0.672267 0.827893 0.390433
0.821897 0.842908 0.389013
0.825284 0.843976 0.402152
0.825345 0.844022 0.40148
0.825376 0.844068 0.400992
0.276768 0.808057 0.4607
0.277317 0.807416 0.458244
0.276036 0.805844 0.448615
0.274098 0.798596 0.38439
0.653849 0.825727 0.391516
0.817761 0.843 0.384634
0.825284 0.843961 0.402319
0.825299 0.844007 0.401862
0.825422 0.844144 0.400183
0.276478 0.808209 0.46067
0.276539 0.807965 0.458717
0.276066 0.806745 0.451713
0.274586 0.804883 0.442329
0.568795 0.81413 0.405768
0.799374 0.844999 0.373068
0.825284 0.843976 0.402121
0.825315 0.844007 0.401679
0.825483 0.84419 0.39968
0.0220951 0.0347601 0.0540169
0.0593423 0.034699 0.0530404
0.232944 0.0282292 0.0535592
0.479454 0.0289311 0.0784009
0.669581 0.0436103 0.147295
0.672908 0.0457771 0.164462
0.670527 0.0441291 0.152941
0.661357 0.0373083 0.108034
0.650187 0.0457618 0.0579385
0.0241398 0.0538796 0.0404364
0.0373236 0.049546 0.0404212
0.205447 0.0320134 0.0221561
0.441169 0.0197452 0.0303197
0.645136 0.0327306 0.0601358
0.64567 0.0331884 0.06009
0.643839 0.0461128 0.0577249
0.659648 0.0493629 0.0607767
0.683207 0.0605325 0.0634623
0.0345006 0.219638 0.0846723
0.0330358 0.207767 0.0627146
0.178531 0.221805 0.0380102
0.511315 0.167117 0.0868391
0.690837 0.077409 0.0602579
0.687556 0.0657511 0.0631876
0.700511 0.0787671 0.0623636
0.729351 0.115175 0.0697185
0.757229 0.207492 0.104295
0.116899 0.521584 0.238865
0.114336 0.516655 0.212604
0.125933 0.51075 0.172229
0.501228 0.536492 0.102663
0.758083 0.546334 0.184253
0.777249 0.533349 0.191546
0.776852 0.532082 0.19411
0.782513 0.559899 0.1794
0.788708 0.596735 0.139986
0.254307 0.76669 0.397604
0.254978 0.767102 0.376318
0.281285 0.779461 0.345769
0.44036 0.756344 0.348089
0.756542 0.808942 0.285908
0.824826 0.80058 0.287739
0.824979 0.802533 0.291707
0.824765 0.803967 0.294499
0.825895 0.795148 0.27805
0.277378 0.807813 0.461585
0.276661 0.80795 0.459052
0.275288 0.807019 0.449561
0.287968 0.798871 0.37142
0.68452 0.828656 0.390478
0.82446 0.843397 0.393408
0.825376 0.844053 0.40116
0.825391 0.844083 0.400793
0.825376 0.844083 0.400946
0.277333 0.80795 0.463752
0.277226 0.807843 0.460945
0.275746 0.806912 0.451072
0.273335 0.799619 0.387732
0.662501 0.826658 0.390234
0.820768 0.842756 0.386984
0.825284 0.843976 0.402121
0.825345 0.844038 0.401389
0.825376 0.844083 0.400931
0.277028 0.808164 0.463874
0.277546 0.807721 0.461494
0.276646 0.806424 0.452064
0.268513 0.801007 0.404944
0.643397 0.82533 0.392737
0.815702 0.84332 0.382803
0.825284 0.843961 0.402319
0.825299 0.844007 0.401862
0.825422 0.844144 0.400137
0.276783 0.80824 0.463264
0.276951 0.807996 0.461219
0.276539 0.807065 0.4533
0.275532 0.805524 0.446571
0.559503 0.812329 0.407385
0.796353 0.844739 0.372778
0.825254 0.843961 0.401984
0.825315 0.844022 0.401694
0.825483 0.844175 0.39968
0.0314031 0.0437629 0.2103
0.0683146 0.0374609 0.208453
0.24184 0.0311284 0.187549
0.493904 0.0663462 0.253651
0.691722 0.0763409 0.310994
0.689036 0.0700542 0.295964
0.686458 0.065507 0.283101
0.686229 0.0607614 0.259632
0.684489 0.0526131 0.216876
0.0245823 0.053727 0.181109
0.0357214 0.0416114 0.203098
0.224079 0.0314488 0.173129
0.490929 0.061799 0.219745
0.687739 0.0623178 0.26833
0.687434 0.0615549 0.264149
0.686061 0.0585489 0.247791
0.682445 0.0525978 0.214038
0.662226 0.0357366 0.098085
0.0191196 0.183688 0.167071
0.0191653 0.178668 0.161044
0.199359 0.218448 0.195621
0.542504 0.108248 0.124559
0.658122 0.0320134 0.0684367
0.656275 0.0397192 0.0627604
0.662211 0.0509499 0.0612345
0.68481 0.0644846 0.0631571
0.738994 0.132189 0.0721752
0.10222 0.513191 0.311299
0.104906 0.510262 0.295659
0.103487 0.491463 0.215671
0.487602 0.519219 0.0959487
0.753079 0.517281 0.197726
0.770138 0.491371 0.191211
0.772519 0.504601 0.194522
0.778668 0.537942 0.191272
0.785428 0.577203 0.161166
0.246708 0.763577 0.474815
0.244373 0.760098 0.455695
0.244251 0.75169 0.382803
0.390188 0.746105 0.331044
0.750759 0.802579 0.277852
0.826185 0.791272 0.270954
0.826215 0.791196 0.270756
0.826337 0.792218 0.271809
0.826078 0.789166 0.266865
0.294636 0.815518 0.515801
0.287663 0.812116 0.493339
0.276631 0.808103 0.460472
0.26865 0.803418 0.418692
0.664302 0.827161 0.390539
0.824277 0.843244 0.391592
0.825345 0.844053 0.401297
0.825391 0.844083 0.400824
0.825391 0.844083 0.400854
0.298116 0.820172 0.541817
0.294942 0.816571 0.518898
0.277195 0.80795 0.462364
0.272908 0.804898 0.438636
0.637064 0.824582 0.392294
0.816114 0.843153 0.383093
0.825299 0.843976 0.402136
0.825345 0.844038 0.401389
0.825376 0.844068 0.400992
0.299321 0.821622 0.546853
0.295521 0.817502 0.523232
0.277836 0.80766 0.463371
0.275792 0.805661 0.447623
0.614923 0.821668 0.397391
0.811872 0.845396 0.377356
0.825269 0.843961 0.40238
0.825299 0.844007 0.401862
0.825437 0.844144 0.400137
0.295201 0.817456 0.522118
0.28835 0.81297 0.498787
0.27744 0.807813 0.462684
0.275792 0.805753 0.447791
0.535622 0.807965 0.41088
0.788373 0.844053 0.371405
0.825193 0.8439 0.401129
0.825315 0.844022 0.401724
0.825483 0.84419 0.399573
0.0489815 0.061677 0.419974
0.0880446 0.0527352 0.411261
0.238621 0.0457313 0.393454
0.517433 0.0645304 0.439551
0.697475 0.0801404 0.500664
0.698421 0.0813458 0.503502
0.685466 0.0679789 0.461769
0.684764 0.0735332 0.433097
0.705791 0.105516 0.410178
0.0385443 0.0873274 0.426291
0.0528115 0.0588083 0.415457
0.210941 0.0450446 0.393408
0.509071 0.0628824 0.431922
0.69485 0.0760052 0.488609
0.68986 0.0704356 0.472923
0.685206 0.0721752 0.437018
0.691341 0.084184 0.426246
0.70985 0.114214 0.398489
0.0308995 0.151446 0.388479
0.0329442 0.139971 0.392706
0.092958 0.0712596 0.418189
0.470268 0.0563211 0.397253
0.68246 0.0698405 0.44593
0.692836 0.0892805 0.422553
0.701732 0.104677 0.411841
0.708766 0.115053 0.386511
0.691081 0.0688487 0.29305
0.0280461 0.465034 0.469932
0.0269474 0.46157 0.465232
0.0261845 0.448875 0.452903
0.493111 0.508354 0.482322
0.802808 0.436759 0.43447
0.820356 0.353964 0.359167
0.805508 0.343679 0.312947
0.782696 0.368231 0.281621
0.767071 0.467384 0.249042
0.139956 0.758251 0.588525
0.147967 0.755901 0.578882
0.174578 0.746685 0.551034
0.228763 0.717876 0.417533
0.7019 0.761273 0.305608
0.826886 0.763058 0.219623
0.827237 0.758679 0.212345
0.827375 0.758953 0.211215
0.826749 0.762341 0.215488
0.250019 0.830472 0.620691
0.254765 0.829755 0.61416
0.276707 0.826261 0.593256
0.277028 0.80827 0.464591
0.597757 0.819181 0.398672
0.818433 0.842954 0.385534
0.82536 0.843992 0.404318
0.825452 0.844053 0.404044
0.82536 0.844038 0.401709
0.237156 0.83389 0.637446
0.243809 0.832471 0.627573
0.266163 0.827756 0.601511
0.282887 0.80885 0.473121
0.5561 0.811887 0.407111
0.802853 0.845197 0.373983
0.825284 0.843976 0.402136
0.825345 0.844038 0.401389
0.825376 0.844068 0.401022
0.235264 0.834485 0.639353
0.243015 0.832624 0.62916
0.265949 0.82768 0.601419
0.284199 0.809155 0.47628
0.533303 0.807157 0.411109
0.791257 0.84445 0.371649
0.824933 0.843717 0.400275
0.825299 0.844007 0.401892
0.825437 0.844144 0.400107
0.253864 0.83003 0.61471
0.262608 0.82829 0.605798
0.286412 0.825162 0.586603
0.279774 0.807996 0.467613
0.446983 0.800122 0.395209
0.764645 0.840421 0.372045
0.824582 0.843458 0.396323
0.825299 0.844007 0.401862
0.825452 0.844144 0.400137
0.0766003 0.0865187 0.605127
0.111864 0.0724498 0.582284
0.247074 0.0604257 0.575067
0.531731 0.112947 0.617792
0.750713 0.131975 0.687175
0.750668 0.131411 0.698894
0.750408 0.13109 0.705425
0.750454 0.131533 0.696864
0.748028 0.112993 0.650507
0.064271 0.109728 0.632273
0.0803845 0.0831922 0.599069
0.219745 0.0580148 0.574411
0.518334 0.108797 0.612207
0.750591 0.131991 0.685161
0.750744 0.131579 0.695506
0.750576 0.131258 0.701778
0.750179 0.132174 0.686442
0.737972 0.103395 0.627207
0.0755322 0.186801 0.665415
0.0768139 0.175952 0.669062
0.102892 0.0711681 0.574334
0.462684 0.0923781 0.588373
0.746349 0.1234 0.672496
0.750805 0.131365 0.682383
0.750835 0.130907 0.68217
0.749477 0.117144 0.657557
0.723949 0.0959945 0.588815
0.0280766 0.443473 0.683116
0.0303502 0.438148 0.684672
0.0424659 0.415229 0.692317
0.390204 0.311055 0.726925
0.768368 0.301198 0.702464
0.774609 0.203967 0.671962
0.759579 0.174289 0.632364
0.73814 0.14136 0.574548
0.728069 0.114778 0.504692
0.0409094 0.707362 0.729122
0.0413672 0.705165 0.727352
0.0420233 0.698329 0.720317
0.0458991 0.682857 0.70399
0.728023 0.748302 0.728939
0.864042 0.722652 0.706538
0.852232 0.720439 0.688075
0.841794 0.724346 0.664454
0.829236 0.71281 0.600748
0.0959487 0.851896 0.771511
0.0956893 0.852338 0.766278
0.102754 0.85214 0.750973
0.146197 0.844541 0.704601
0.567956 0.832731 0.649927
0.821118 0.873976 0.651545
0.850156 0.866575 0.605585
0.852003 0.864729 0.610727
0.838804 0.85066 0.52311
0.0835126 0.852689 0.792004
0.0903487 0.85243 0.782498
0.0959029 0.852354 0.762264
0.155642 0.848005 0.705745
0.353536 0.82034 0.558556
0.775876 0.842741 0.369497
0.824521 0.843458 0.393942
0.824994 0.843778 0.398825
0.82501 0.843793 0.399237
0.0809644 0.852979 0.794003
0.0904555 0.85243 0.782528
0.0961624 0.852399 0.76025
0.16025 0.847654 0.702266
0.312718 0.821591 0.553948
0.753201 0.838773 0.372885
0.824063 0.843061 0.388724
0.825101 0.843854 0.398413
0.825116 0.843885 0.398718
0.0981918 0.852232 0.758175
0.107378 0.851545 0.746075
0.130465 0.849714 0.725261
0.198474 0.841917 0.672358
0.29662 0.819486 0.536843
0.702983 0.830671 0.387564
0.820005 0.842969 0.382391
0.825208 0.843976 0.397498
0.825238 0.844038 0.398169
0.118044 0.0796979 0.6177
0.15285 0.0784314 0.612451
0.272068 0.0656596 0.6103
0.53782 0.112749 0.648127
0.750957 0.130938 0.706889
0.750942 0.130938 0.706874
0.750957 0.130938 0.706889
0.750957 0.130938 0.706874
0.750957 0.130938 0.706889
0.0863966 0.0881361 0.633661
0.121157 0.0797131 0.617121
0.245075 0.0626688 0.6103
0.522606 0.108293 0.644877
0.750957 0.130938 0.706874
0.750957 0.130938 0.706874
0.750957 0.130938 0.706889
0.750957 0.130938 0.706874
0.750927 0.130953 0.706874
0.0862135 0.18349 0.7178
0.0848402 0.163409 0.709194
0.135042 0.0790875 0.61384
0.458824 0.0917372 0.628992
0.74934 0.130526 0.706249
0.750957 0.130938 0.706874
0.750957 0.130938 0.706874
0.750957 0.130938 0.706874
0.750957 0.130938 0.706889
0.0935225 0.376959 0.774243
0.0931563 0.367376 0.772976
0.0922408 0.331945 0.766186
0.297337 0.155154 0.71194
0.702464 0.17496 0.712428
0.751263 0.132784 0.707332
0.750957 0.132723 0.707103
0.753597 0.136217 0.709895
0.751171 0.132311 0.705852
0.0211948 0.656992 0.805447
0.0208438 0.653483 0.803998
0.0209049 0.644617 0.802762
0.0208286 0.621729 0.81088
0.66096 0.622538 0.864195
0.871366 0.658167 0.846708
0.869627 0.650797 0.843305
0.870359 0.650645 0.835187
0.859022 0.611215 0.806668
0.0708934 0.839094 0.863432
0.0672618 0.836271 0.860059
0.0617533 0.827176 0.850721
0.0514229 0.797086 0.820203
0.304494 0.812467 0.825223
0.846708 0.876768 0.857542
0.891386 0.872419 0.852552
0.889876 0.868452 0.842634
0.886213 0.860487 0.818662
0.089662 0.851041 0.883589
0.082948 0.852064 0.879179
0.0680095 0.852552 0.869856
0.0469978 0.854139 0.848905
0.0787976 0.862852 0.81413
0.805005 0.904189 0.828275
0.885908 0.936751 0.851148
0.892576 0.937163 0.848569
0.88983 0.932662 0.837522
0.0903182 0.850599 0.885328
0.0857557 0.851957 0.880507
0.0675059 0.852659 0.869566
0.0495003 0.853666 0.845731
0.0872053 0.859922 0.798489
0.767346 0.888121 0.801404
0.848829 0.91635 0.781765
0.824659 0.843626 0.392386
0.824765 0.843702 0.393286
0.0665599 0.852674 0.868421
0.0594492 0.853727 0.863294
0.0506142 0.854505 0.854109
0.0502022 0.853803 0.829557
0.0967269 0.853254 0.763531
0.702037 0.867109 0.757061
0.824506 0.900313 0.735225
0.826719 0.845136 0.417868
0.824674 0.843595 0.394751
0.138613 0.0787976 0.613504
0.176654 0.0771344 0.609537
0.290517 0.0684825 0.611261
0.553277 0.117937 0.653132
0.750957 0.130938 0.706874
0.750957 0.130938 0.706874
0.750957 0.130938 0.706874
0.750957 0.130938 0.706874
0.750957 0.130938 0.706874
0.105348 0.0799268 0.62089
0.141878 0.078706 0.613199
0.262516 0.0646525 0.610254
0.537606 0.112688 0.64802
0.750957 0.130938 0.706874
0.750957 0.130938 0.706874
0.750957 0.130938 0.706874
0.750957 0.130938 0.706874
0.750957 0.130938 0.706874
0.085771 0.176745 0.715694
0.0797284 0.142626 0.693462
0.153948 0.0783703 0.612375
0.472129 0.0935531 0.63093
0.750561 0.130861 0.706706
0.750957 0.130938 0.706874
0.750957 0.130938 0.706874
0.750957 0.130938 0.706874
0.750957 0.130938 0.706874
0.0929274 0.349142 0.77023
0.0927596 0.336858 0.767742
0.0916304 0.299672 0.758755
0.265324 0.109865 0.669047
0.687709 0.142428 0.695247
0.75111 0.131868 0.707088
0.751095 0.131823 0.707073
0.75111 0.132021 0.707103
0.751064 0.131609 0.707042
0.0212406 0.647456 0.818433
0.0209812 0.644175 0.817823
0.0208896 0.635935 0.816922
0.0210117 0.609201 0.814939
0.654658 0.595178 0.860609
0.863615 0.62565 0.846967
0.861769 0.616541 0.844877
0.860182 0.612268 0.842756
0.855085 0.585611 0.836316
0.0703746 0.821775 0.879484
0.0686046 0.817075 0.877531
0.0620584 0.79968 0.869444
0.0368658 0.750607 0.848386
0.0898756 0.765103 0.869383
0.814801 0.82739 0.909026
0.893004 0.836973 0.90103
0.892668 0.832898 0.898421
0.891142 0.820829 0.887907
0.0839551 0.847135 0.891783
0.0839551 0.847135 0.891783
0.0839551 0.847135 0.891783
0.0839551 0.847135 0.891783
0.0957961 0.861295 0.891768
0.712352 0.891569 0.881682
0.896849 0.933913 0.916671
0.913207 0.93196 0.917144
0.910552 0.928466 0.911513
0.0839551 0.847135 0.891783
0.0839551 0.847135 0.891783
0.0839551 0.847135 0.891783
0.0839551 0.847135 0.891783
0.0756542 0.859709 0.878248
0.245304 0.876417 0.868086
0.88748 0.942641 0.90988
0.9196 0.949722 0.918563
0.920043 0.949645 0.917922
0.0839551 0.847135 0.891783
0.0839551 0.847135 0.891783
0.0839551 0.847135 0.891783
0.0860914 0.847608 0.890394
0.0574655 0.855024 0.86186
0.0935836 0.883818 0.869413
0.864317 0.934829 0.890501
0.911086 0.946471 0.907683
0.91133 0.946151 0.899458
0.147295 0.0786297 0.612848
0.182223 0.0721752 0.609354
0.297749 0.0689097 0.61091
0.561883 0.121141 0.65597
0.750957 0.130938 0.706874
0.750957 0.130938 0.706874
0.750957 0.130938 0.706874
0.750957 0.130938 0.706874
0.750957 0.130938 0.706874
0.113191 0.07953 0.618692
0.149447 0.0785992 0.612726
0.270161 0.0654917 0.610117
0.545556 0.115709 0.651209
0.750957 0.130938 0.706874
0.750957 0.130938 0.706874
0.750957 0.130938 0.706874
0.750957 0.130938 0.706874
0.750957 0.130938 0.706874
0.0862135 0.175021 0.715419
0.0777142 0.135698 0.686549
0.1626 0.0778058 0.611215
0.478676 0.0950179 0.632013
0.750957 0.130938 0.706874
0.750957 0.130938 0.706874
0.750957 0.130938 0.706874
0.750957 0.130938 0.706874
0.750957 0.130938 0.706874
0.0931411 0.340612 0.769039
0.0930495 0.328588 0.766323
0.0914626 0.289342 0.756603
0.254047 0.0976425 0.654063
0.688472 0.13753 0.693706
0.751034 0.131533 0.707027
0.751049 0.13164 0.707042
0.751034 0.131823 0.707027
0.750988 0.13138 0.70695
0.0212711 0.645655 0.818204
0.0209812 0.642115 0.817655
0.021088 0.633646 0.816968
0.0217136 0.604929 0.814176
0.65359 0.58616 0.858259
0.861646 0.61677 0.844816
0.859251 0.606058 0.841657
0.858122 0.600946 0.839948
0.85214 0.573129 0.832258
0.0689708 0.819013 0.877913
0.0677806 0.814191 0.876539
0.0573739 0.792035 0.865827
0.0336614 0.744274 0.846098
0.0970321 0.758419 0.867735
0.812329 0.818662 0.907958
0.891112 0.82855 0.897993
0.890623 0.822721 0.896498
0.889143 0.808682 0.892714
0.0839551 0.847135 0.891783
0.0839551 0.847135 0.891783
0.0839551 0.847135 0.891783
0.0839551 0.847135 0.891783
0.0826429 0.849805 0.896757
0.651789 0.866911 0.891249
0.880964 0.920012 0.924025
0.905974 0.923674 0.926665
0.904906 0.917906 0.925673
0.0839551 0.847135 0.891783
0.0839551 0.847135 0.891783
0.0839551 0.847135 0.891783
0.0839551 0.847135 0.891783
0.0888228 0.854856 0.898131
0.111513 0.875257 0.913527
0.843458 0.936248 0.918013
0.916045 0.951431 0.934234
0.918013 0.950317 0.935164
0.0839551 0.847135 0.891783
0.0839551 0.847135 0.891783
0.0839551 0.847135 0.891783
0.0839551 0.847135 0.891783
0.0853742 0.848829 0.892561
0.10985 0.875547 0.904799
0.756878 0.916869 0.894957
0.913542 0.953613 0.932906
0.925063 0.955062 0.936172
0.149447 0.0785992 0.612726
0.183581 0.0704356 0.609003
0.298405 0.0689708 0.610956
0.560189 0.120455 0.655344
0.750957 0.130938 0.706874
0.750957 0.130938 0.706874
0.750957 0.130938 0.706874
0.750957 0.130938 0.706874
0.750957 0.130938 0.706874
0.116136 0.0796674 0.618051
0.153094 0.0784009 0.612421
0.270512 0.0654917 0.610101
0.544121 0.11519 0.650568
0.750957 0.130938 0.706874
0.750957 0.130938 0.706874
0.750957 0.130938 0.706874
0.750957 0.130938 0.706874
0.750957 0.130938 0.706874
0.0855116 0.170367 0.712581
0.0755016 0.130449 0.682078
0.165545 0.0777142 0.61088
0.477577 0.0946365 0.631662
0.750957 0.130938 0.706874
0.750957 0.130938 0.706874
0.750957 0.130938 0.706874
0.750957 0.130938 0.706874
0.750957 0.130938 0.706874
0.0928054 0.330526 0.766293
0.0928054 0.318242 0.764523
0.0916457 0.281468 0.754696
0.243534 0.0881208 0.64332
0.687129 0.136233 0.692805
0.750988 0.13135 0.70695
0.751034 0.131472 0.706996
0.751019 0.131579 0.706996
0.750988 0.131243 0.706935
0.0209812 0.641932 0.817639
0.0209659 0.638468 0.817166
0.0209964 0.630076 0.816617
0.0235904 0.600717 0.814023
0.648127 0.576806 0.856092
0.859022 0.605447 0.841337
0.857069 0.594553 0.838285
0.854765 0.588251 0.835996
0.849073 0.55874 0.828565
0.0687419 0.815778 0.877516
0.0656138 0.808392 0.873915
0.0529641 0.782956 0.861357
0.0321355 0.740795 0.846174
0.0778668 0.751842 0.866758
0.808591 0.811627 0.906462
0.8907 0.821653 0.896437
0.889723 0.814939 0.894286
0.888029 0.801205 0.890288
0.0839551 0.847135 0.891783
0.0839551 0.847135 0.891783
0.0839551 0.847135 0.891783
0.0839551 0.847135 0.891783
0.0787976 0.84416 0.893675
0.651759 0.863554 0.890623
0.878447 0.915846 0.923217
0.904936 0.919448 0.925811
0.903807 0.912383 0.924041
0.0839551 0.847135 0.891783
0.0839551 0.847135 0.891783
0.0839551 0.847135 0.891783
0.0839551 0.847135 0.891783
0.0883497 0.854139 0.897154
0.109361 0.874022 0.913542
0.827649 0.929259 0.91841
0.912077 0.948852 0.936721
0.917098 0.948272 0.936934
0.0839551 0.847135 0.891783
0.0839551 0.847135 0.891783
0.0839551 0.847135 0.891783
0.0839551 0.847135 0.891783
0.0849928 0.848539 0.892485
0.114778 0.876799 0.915663
0.602167 0.889448 0.893278
0.902846 0.952377 0.934859
0.926299 0.95552 0.941131
