bundles/resolve-cinematic-luts/Gamut/Luxe/HTFW Luxe 02.cube
TITLE "HTFW Luxe 02 by Gamut"
# Version 1.0 - 08/23/2023 - Designed for Rec.709 Color Space. Copyright 2023 Gamut, LLC.
LUT_3D_SIZE 5
0.0276000000 0.0212920000 0.0228690000
0.2036642500 0.0468815000 0.0321347500
0.5308665000 0.0586620000 0.0252340000
0.8450192500 0.1397552500 0.0536200000
0.9703350000 0.2616470000 0.1350930000
0.0528252500 0.2011392500 0.0376547500
0.2147107500 0.2210257500 0.0376547500
0.5488287500 0.2775262500 0.0409852500
0.8100300000 0.3188895000 0.0698455000
0.9699090000 0.3578107500 0.1475200000
0.0633510000 0.4715245000 0.0694445000
0.1885862500 0.4659835000 0.1104817500
0.4891265000 0.4893385000 0.1189870000
0.7701555000 0.5144185000 0.1492090000
0.9711160000 0.5029360000 0.1987310000
0.0291770000 0.6751540000 0.1479137500
0.1401967500 0.6748032500 0.1834855000
0.4362372500 0.6983487500 0.2549485000
0.7090500000 0.6997815000 0.2583462500
0.9665057500 0.6733797500 0.2797452500
0.0409940000 0.8555340000 0.2120590000
0.0417590000 0.8507185000 0.2054260000
0.1269615000 0.8527905000 0.2240600000
0.4697390000 0.8902067500 0.3521980000
0.8612130000 0.8839590000 0.4412510000
0.0297687500 0.0577447500 0.2481992500
0.2057167500 0.0516860000 0.1892207500
0.5412965000 0.1040217500 0.2606625000
0.8582355000 0.2022405000 0.3132455000
0.9664217500 0.3147330000 0.3347032500
0.0171515000 0.2037025000 0.1985177500
0.2733910000 0.2828392500 0.2873127500
0.6308735000 0.3149072500 0.2919322500
0.8676667500 0.3551040000 0.3026640000
0.9746427500 0.3913030000 0.3202275000
0.0007890000 0.4812812500 0.2314722500
0.1609725000 0.5109157500 0.2638637500
0.5513035000 0.5467652500 0.3280755000
0.8153940000 0.5390517500 0.3224505000
0.9764865000 0.5273902500 0.3440745000
0.0037455000 0.6800525000 0.2507230000
0.1322537500 0.6911255000 0.2762922500
0.4493432500 0.7218370000 0.3648107500
0.7391212500 0.7251725000 0.3849727500
0.9707807500 0.6878027500 0.3958607500
0.0272062500 0.8455902500 0.2557397500
0.0301630000 0.8464432500 0.2504785000
0.1679835000 0.8618817500 0.2951770000
0.5212802500 0.8973512500 0.4337285000
0.8779545000 0.8945820000 0.5152655000
0.1142925000 0.0936330000 0.4720210000
0.2540527500 0.0997982500 0.4416960000
0.5434915000 0.1259300000 0.4608320000
0.8538162500 0.2818697500 0.5476082500
0.9469825000 0.3960490000 0.5416270000
0.1433812500 0.2783962500 0.4743540000
0.3395760000 0.3219690000 0.5692645000
0.6181327500 0.3597665000 0.5585485000
0.8542335000 0.4107820000 0.5472220000
0.9627557500 0.4616360000 0.5359352500
0.0118285000 0.4451785000 0.3945980000
0.1919395000 0.4912602500 0.4649905000
0.5757015000 0.5724660000 0.5787680000
0.8344177500 0.5710950000 0.5565240000
0.9799740000 0.5777605000 0.5557755000
0.0000000000 0.6499045000 0.3778792500
0.0911372500 0.6706485000 0.4092585000
0.4357167500 0.7319977500 0.5231197500
0.7723115000 0.7582672500 0.5966035000
0.9778077500 0.7150300000 0.5848532500
0.0043370000 0.8279460000 0.3421050000
0.0108430000 0.8366467500 0.3461775000
0.2037550000 0.8640180000 0.4191285000
0.5765337500 0.9049175000 0.5709430000
0.9071190000 0.9165030000 0.6521250000
0.2079625000 0.1543815000 0.6625492500
0.3432590000 0.1662320000 0.6539037500
0.5789317500 0.2156455000 0.6858710000
0.8149852500 0.3456042500 0.7215902500
0.9307285000 0.4774777500 0.7265710000
0.2845415000 0.3610327500 0.7455627500
0.4145885000 0.3753297500 0.7856355000
0.5969275000 0.4018437500 0.7649550000
0.8063770000 0.4596292500 0.7400317500
0.9451630000 0.5384377500 0.7232307500
0.2189067500 0.4876247500 0.6614362500
0.3602520000 0.5195190000 0.7152210000
0.5885602500 0.5763955000 0.7942872500
0.7982577500 0.6129085000 0.7717465000
0.9649250000 0.6523365000 0.7487987500
0.0449027500 0.6102812500 0.5536905000
0.1675242500 0.6366502500 0.5983785000
0.4419957500 0.6989487500 0.6983630000
0.7736332500 0.7665517500 0.7960805000
0.9747125000 0.7577187500 0.7679447500
0.0000000000 0.7994990000 0.4623152500
0.0013800000 0.8054262500 0.4630950000
0.1340242500 0.8344937500 0.5177345000
0.5546907500 0.9044040000 0.6873055000
0.9343847500 0.9396705000 0.8078720000
0.3175180000 0.2340930000 0.8429480000
0.4402512500 0.2505220000 0.8478042500
0.6253400000 0.3456035000 0.8958550000
0.7799787500 0.4603727500 0.9016102500
0.9148600000 0.5398010000 0.8768790000
0.4059607500 0.4344650000 0.9480920000
0.5109587500 0.4650722500 0.9568920000
0.6379985000 0.5042117500 0.9405227500
0.7607110000 0.5366325000 0.9109850000
0.9163300000 0.5812210000 0.8762715000
0.4372560000 0.5666165000 0.9117120000
0.5274722500 0.5940735000 0.9328340000
0.6583170000 0.6345860000 0.9515105000
0.7714280000 0.6554555000 0.9330035000
0.9303075000 0.6889730000 0.9009100000
0.3689850000 0.6444665000 0.8489250000
0.4596285000 0.6638235000 0.8708462500
0.6305887500 0.7184015000 0.9176972500
0.8011627500 0.7808885000 0.9551117500
0.9498172500 0.8086297500 0.9313400000
0.0149830000 0.7257480000 0.6610660000
0.0578630000 0.7329495000 0.6769835000
0.1996055000 0.7664335000 0.7283950000
0.5250100000 0.8441840000 0.8387267500
0.9727880000 0.9719240000 0.9811450000
