bundles/resolve-cinematic-luts/Gamut/Luxe/HTFW Luxe TOOL - Interior HSL.cube
TITLE "HTFW Luxe TOOL - Interior HSL by Gamut"
# Version 1.0 - 08/23/2023 - Designed for Rec.709 Color Space. Copyright 2023 Gamut, LLC.
LUT_3D_SIZE 33
0.0000000000 0.0000000000 0.0000000000
0.0085297900 0.0048981500 0.0048676300
0.0376745000 0.0054016900 0.0055390300
0.0696574000 0.0050507400 0.0053254000
0.1029070000 0.0042420100 0.0047303000
0.1369500000 0.0030670600 0.0038452700
0.1715270000 0.0016784900 0.0027771400
0.2064240000 0.0002441440 0.0016174600
0.2415960000 0.0000000000 0.0004272530
0.2769820000 0.0000000000 0.0000000000
0.3125660000 0.0000000000 0.0000000000
0.3483180000 0.0000000000 0.0000000000
0.3842220000 0.0000000000 0.0000000000
0.4202330000 0.0000000000 0.0000000000
0.4563820000 0.0000000000 0.0000000000
0.4925920000 0.0000000000 0.0000000000
0.5290300000 0.0000000000 0.0000000000
0.5655150000 0.0000000000 0.0000000000
0.6020750000 0.0000000000 0.0000000000
0.6387120000 0.0000000000 0.0000000000
0.6754100000 0.0000000000 0.0000000000
0.7121840000 0.0000000000 0.0000000000
0.7489890000 0.0000000000 0.0000000000
0.7858700000 0.0000000000 0.0000000000
0.8227820000 0.0000000000 0.0000000000
0.8597390000 0.0000000000 0.0000000000
0.8967570000 0.0000000000 0.0000000000
0.9337910000 0.0000000000 0.0000000000
0.9708710000 0.0000000000 0.0000000000
1.0000000000 0.0000000000 0.0000000000
1.0000000000 0.0000000000 0.0000000000
1.0000000000 0.0000000000 0.0000000000
1.0000000000 0.0000000000 0.0000000000
0.0187228000 0.0226749000 0.0187076000
0.0285191000 0.0285039000 0.0243534000
0.0461433000 0.0328985000 0.0199741000
0.0734264000 0.0347295000 0.0160983000
0.1046310000 0.0350652000 0.0128176000
0.1373460000 0.0348058000 0.0102388000
0.1709620000 0.0341955000 0.0080109900
0.2052030000 0.0333562000 0.0059662800
0.2398870000 0.0323644000 0.0040283800
0.2749220000 0.0312505000 0.0022125600
0.3102310000 0.0300450000 0.0004577710
0.3457540000 0.0288090000 0.0000000000
0.3814600000 0.0275273000 0.0000000000
0.4173190000 0.0261997000 0.0000000000
0.4533460000 0.0247349000 0.0000000000
0.4895090000 0.0232090000 0.0000000000
0.5257650000 0.0215915000 0.0000000000
0.5621420000 0.0199130000 0.0000000000
0.5986110000 0.0181888000 0.0000000000
0.6351420000 0.0164034000 0.0000000000
0.6717480000 0.0145724000 0.0000000000
0.7084310000 0.0126802000 0.0000000000
0.7451740000 0.0107576000 0.0000000000
0.7819640000 0.0087739400 0.0000000000
0.8188140000 0.0067597500 0.0000000000
0.8557110000 0.0046997800 0.0000000000
0.8926680000 0.0025787700 0.0000000000
0.9296410000 0.0004272530 0.0000000000
0.9666740000 0.0000000000 0.0000000000
1.0000000000 0.0000000000 0.0000000000
1.0000000000 0.0000000000 0.0000000000
1.0000000000 0.0000000000 0.0000000000
1.0000000000 0.0000000000 0.0000000000
0.0210727000 0.0530404000 0.0210727000
0.0417945000 0.0553445000 0.0283360000
0.0593576000 0.0593118000 0.0286107000
0.0816968000 0.0623941000 0.0249638000
0.1092390000 0.0642252000 0.0208133000
0.1395740000 0.0651102000 0.0178073000
0.1719840000 0.0651255000 0.0142519000
0.2053250000 0.0647746000 0.0112154000
0.2393220000 0.0641794000 0.0085297900
0.2738230000 0.0634012000 0.0060578300
0.3086750000 0.0624857000 0.0037842400
0.3438620000 0.0614633000 0.0015869400
0.3792940000 0.0603342000 0.0000000000
0.4149230000 0.0591135000 0.0000000000
0.4507360000 0.0578012000 0.0000000000
0.4867170000 0.0564126000 0.0000000000
0.5228050000 0.0549020000 0.0000000000
0.5590300000 0.0533303000 0.0000000000
0.5953610000 0.0516976000 0.0000000000
0.6317850000 0.0500038000 0.0000000000
0.6682840000 0.0482490000 0.0000000000
0.7048600000 0.0464332000 0.0000000000
0.7415120000 0.0445716000 0.0000000000
0.7782250000 0.0426490000 0.0000000000
0.8150000000 0.0406958000 0.0000000000
0.8518200000 0.0386664000 0.0000000000
0.8886850000 0.0366064000 0.0000000000
0.9256120000 0.0345006000 0.0000000000
0.9625850000 0.0323339000 0.0000000000
0.9995880000 0.0301366000 0.0000000000
1.0000000000 0.0278935000 0.0000000000
1.0000000000 0.0255894000 0.0000000000
1.0000000000 0.0232395000 0.0000000000
0.0206912000 0.0846265000 0.0206912000
0.0462654000 0.0856031000 0.0268864000
0.0684520000 0.0878157000 0.0302892000
0.0906539000 0.0905623000 0.0293431000
0.1157850000 0.0928054000 0.0263371000
0.1440760000 0.0943313000 0.0224613000
0.1744260000 0.0952316000 0.0194553000
0.2062260000 0.0957198000 0.0171817000
0.2394750000 0.0955367000 0.0135500000
0.2733500000 0.0951095000 0.0102846000
0.3077290000 0.0944839000 0.0072785500
0.3425040000 0.0937057000 0.0044708900
0.3775840000 0.0928054000 0.0018005600
0.4129240000 0.0917678000 0.0000000000
0.4484780000 0.0906386000 0.0000000000
0.4842300000 0.0894026000 0.0000000000
0.5201340000 0.0880293000 0.0000000000
0.5561910000 0.0865797000 0.0000000000
0.5923550000 0.0850538000 0.0000000000
0.6286260000 0.0834516000 0.0000000000
0.6650030000 0.0817731000 0.0000000000
0.7014730000 0.0797742000 0.0000000000
0.7380030000 0.0779736000 0.0000000000
0.7746240000 0.0763867000 0.0000000000
0.8113070000 0.0744945000 0.0000000000
0.8480510000 0.0725414000 0.0000000000
0.8848550000 0.0705425000 0.0000000000
0.9217060000 0.0684825000 0.0000000000
0.9586020000 0.0663767000 0.0000000000
0.9955440000 0.0642252000 0.0000000000
1.0000000000 0.0620127000 0.0000000000
1.0000000000 0.0597543000 0.0000000000
1.0000000000 0.0574502000 0.0000000000
0.0191806000 0.1166700000 0.0191806000
0.0472267000 0.1170980000 0.0241550000
0.0729229000 0.1182270000 0.0282902000
0.0972000000 0.1201040000 0.0294347000
0.1222250000 0.1220870000 0.0281987000
0.1490810000 0.1237350000 0.0258335000
0.1781190000 0.1249870000 0.0223850000
0.2087590000 0.1257950000 0.0192721000
0.2405740000 0.1262990000 0.0168002000
0.2732740000 0.1266040000 0.0148470000
0.3071640000 0.1262840000 0.0111238000
0.3414970000 0.1257500000 0.0076447700
0.3762110000 0.1250630000 0.0044098600
0.4112310000 0.1242390000 0.0013275300
0.4465100000 0.1232930000 0.0000000000
0.4820170000 0.1222100000 0.0000000000
0.5176930000 0.1210040000 0.0000000000
0.5535520000 0.1197380000 0.0000000000
0.5895480000 0.1183790000 0.0000000000
0.6256660000 0.1169450000 0.0000000000
0.6619060000 0.1154340000 0.0000000000
0.6982380000 0.1138630000 0.0000000000
0.7346760000 0.1122150000 0.0000000000
0.7711760000 0.1105210000 0.0000000000
0.8077670000 0.1087510000 0.0000000000
0.8444190000 0.1069200000 0.0000000000
0.8811320000 0.1050130000 0.0000000000
0.9179060000 0.1030750000 0.0000000000
0.9547260000 0.1010610000 0.0000000000
0.9916080000 0.0989853000 0.0000000000
1.0000000000 0.0968490000 0.0000000000
1.0000000000 0.0946365000 0.0000000000
1.0000000000 0.0923629000 0.0000000000
0.0169680000 0.1490040000 0.0169680000
0.0465553000 0.1490650000 0.0210880000
0.0744640000 0.1496300000 0.0250401000
0.1010300000 0.1507130000 0.0274510000
0.1270160000 0.1522390000 0.0274968000
0.1538410000 0.1537190000 0.0261540000
0.1819790000 0.1549710000 0.0240787000
0.2116430000 0.1559780000 0.0211948000
0.2426180000 0.1566800000 0.0180209000
0.2745860000 0.1571370000 0.0153658000
0.3073170000 0.1574270000 0.0131075000
0.3406730000 0.1576410000 0.0111849000
0.3750360000 0.1572290000 0.0070191500
0.4097350000 0.1564970000 0.0039520900
0.4447390000 0.1557030000 0.0008545050
0.4799880000 0.1547720000 0.0000000000
0.5154500000 0.1537500000 0.0000000000
0.5510950000 0.1526210000 0.0000000000
0.5869080000 0.1514150000 0.0000000000
0.6228580000 0.1501180000 0.0000000000
0.6589460000 0.1487600000 0.0000000000
0.6951550000 0.1473110000 0.0000000000
0.7314560000 0.1458150000 0.0000000000
0.7678490000 0.1442590000 0.0000000000
0.8043340000 0.1426410000 0.0000000000
0.8408790000 0.1409630000 0.0000000000
0.8775160000 0.1392390000 0.0000000000
0.9141990000 0.1374380000 0.0000000000
0.9509570000 0.1355920000 0.0000000000
0.9877470000 0.1336840000 0.0000000000
1.0000000000 0.1317160000 0.0000000000
1.0000000000 0.1297020000 0.0000000000
1.0000000000 0.1276420000 0.0000000000
0.0142519000 0.1815370000 0.0142519000
0.0449073000 0.1813690000 0.0177310000
0.0742962000 0.1815060000 0.0213169000
0.1025250000 0.1821160000 0.0239567000
0.1299920000 0.1830780000 0.0251774000
0.1573820000 0.1842370000 0.0248264000
0.1854890000 0.1853670000 0.0234379000
0.2145570000 0.1863580000 0.0215152000
0.2447550000 0.1871370000 0.0191806000
0.2760970000 0.1877930000 0.0155947000
0.3082480000 0.1881740000 0.0128786000
0.3410390000 0.1883880000 0.0110170000
0.3743950000 0.1885250000 0.0092164500
0.4082700000 0.1885860000 0.0075837300
0.4430300000 0.1879300000 0.0039826000
0.4780350000 0.1871670000 0.0006256200
0.5132830000 0.1862670000 0.0000000000
0.5487300000 0.1852900000 0.0000000000
0.5843600000 0.1842070000 0.0000000000
0.6201570000 0.1830620000 0.0000000000
0.6560920000 0.1818110000 0.0000000000
0.6921340000 0.1804990000 0.0000000000
0.7283130000 0.1791260000 0.0000000000
0.7645840000 0.1776910000 0.0000000000
0.8009610000 0.1761960000 0.0000000000
0.8374150000 0.1746400000 0.0000000000
0.8739450000 0.1730370000 0.0000000000
0.9105520000 0.1713740000 0.0000000000
0.9472190000 0.1696500000 0.0000000000
0.9839480000 0.1678800000 0.0000000000
1.0000000000 0.1660640000 0.0000000000
1.0000000000 0.1642020000 0.0000000000
1.0000000000 0.1622800000 0.0000000000
0.0111543000 0.2142060000 0.0111543000
0.0425879000 0.2138550000 0.0140841000
0.0731060000 0.2137480000 0.0173800000
0.1026020000 0.2140080000 0.0199893000
0.1314110000 0.2145420000 0.0218509000
0.1596860000 0.2154120000 0.0218357000
0.1881440000 0.2162360000 0.0217288000
0.2171970000 0.2170900000 0.0204318000
0.2469980000 0.2178530000 0.0187228000
0.2776380000 0.2184330000 0.0171359000
0.3093000000 0.2189360000 0.0140383000
0.3416340000 0.2192420000 0.0113985000
0.3745480000 0.2194250000 0.0091859300
0.4079650000 0.2195320000 0.0073701100
0.4418100000 0.2195930000 0.0059205000
0.4761120000 0.2194860000 0.0042420100
0.5111930000 0.2187380000 0.0006408790
0.5464560000 0.2178680000 0.0000000000
0.5819180000 0.2169220000 0.0000000000
0.6175480000 0.2158690000 0.0000000000
0.6533300000 0.2147550000 0.0000000000
0.6892650000 0.2135500000 0.0000000000
0.7252920000 0.2122990000 0.0000000000
0.7614560000 0.2109560000 0.0000000000
0.7977110000 0.2095670000 0.0000000000
0.8340580000 0.2081180000 0.0000000000
0.8704970000 0.2066220000 0.0000000000
0.9070120000 0.2050660000 0.0000000000
0.9435870000 0.2034640000 0.0000000000
0.9802400000 0.2018010000 0.0000000000
1.0000000000 0.2000920000 0.0000000000
1.0000000000 0.1983370000 0.0000000000
1.0000000000 0.1965360000 0.0000000000
0.0077821000 0.2469980000 0.0077821000
0.0398260000 0.2465090000 0.0103151000
0.0711681000 0.2462200000 0.0132601000
0.1016560000 0.2462200000 0.0157626000
0.1314560000 0.2464640000 0.0177615000
0.1608760000 0.2468450000 0.0192416000
0.1898220000 0.2475320000 0.0190890000
0.2191350000 0.2481730000 0.0187228000
0.2489200000 0.2488140000 0.0174868000
0.2793010000 0.2493780000 0.0159609000
0.3103230000 0.2498210000 0.0149844000
0.3422900000 0.2502170000 0.0120241000
0.3748230000 0.2504620000 0.0093995600
0.4078740000 0.2505990000 0.0071870000
0.4413520000 0.2506450000 0.0053711800
0.4752270000 0.2506600000 0.0039215700
0.5094380000 0.2506450000 0.0027924000
0.5441370000 0.2503700000 0.0009460590
0.5794770000 0.2495310000 0.0000000000
0.6149690000 0.2486000000 0.0000000000
0.6506140000 0.2475780000 0.0000000000
0.6864120000 0.2464940000 0.0000000000
0.7223320000 0.2453190000 0.0000000000
0.7583730000 0.2440830000 0.0000000000
0.7945070000 0.2427860000 0.0000000000
0.8307620000 0.2414430000 0.0000000000
0.8670940000 0.2400240000 0.0000000000
0.9035170000 0.2385750000 0.0000000000
0.9400170000 0.2370490000 0.0000000000
0.9765770000 0.2354920000 0.0000000000
1.0000000000 0.2338750000 0.0000000000
1.0000000000 0.2322120000 0.0000000000
1.0000000000 0.2305180000 0.0000000000
0.0041809700 0.2798960000 0.0041809700
0.0367285000 0.2792860000 0.0064240500
0.0686961000 0.2788430000 0.0090180800
0.0999619000 0.2786300000 0.0114290000
0.1305870000 0.2786450000 0.0134737000
0.1607840000 0.2788130000 0.0151064000
0.1906460000 0.2791330000 0.0160830000
0.2202790000 0.2796370000 0.0157931000
0.2502940000 0.2800790000 0.0155947000
0.2806440000 0.2805520000 0.0144045000
0.3115280000 0.2809800000 0.0130770000
0.3429310000 0.2812850000 0.0123751000
0.3750970000 0.2815750000 0.0099488800
0.4078430000 0.2817580000 0.0073090700
0.4410160000 0.2818340000 0.0050965100
0.4746010000 0.2818490000 0.0032959500
0.5085220000 0.2818040000 0.0018463400
0.5427480000 0.2817580000 0.0007324330
0.5772640000 0.2816820000 0.0000000000
0.6123140000 0.2812540000 0.0000000000
0.6478520000 0.2803240000 0.0000000000
0.6835580000 0.2793320000 0.0000000000
0.7193710000 0.2782480000 0.0000000000
0.7553060000 0.2771040000 0.0000000000
0.7913480000 0.2758980000 0.0000000000
0.8274970000 0.2746320000 0.0000000000
0.8637520000 0.2733040000 0.0000000000
0.9000840000 0.2719310000 0.0000000000
0.9364920000 0.2704970000 0.0000000000
0.9729920000 0.2690320000 0.0000000000
1.0000000000 0.2675060000 0.0000000000
1.0000000000 0.2659340000 0.0000000000
1.0000000000 0.2643170000 0.0000000000
0.0003967350 0.3128560000 0.0003967350
0.0333410000 0.3121540000 0.0023804100
0.0658122000 0.3116040000 0.0046692600
0.0977188000 0.3112230000 0.0069581100
0.1290300000 0.3110400000 0.0089875600
0.1599150000 0.3110250000 0.0107118000
0.1905390000 0.3111010000 0.0121920000
0.2207680000 0.3113450000 0.0126802000
0.2509960000 0.3117110000 0.0123903000
0.2815590000 0.3119710000 0.0124361000
0.3124130000 0.3123220000 0.0112917000
0.3436940000 0.3126120000 0.0101167000
0.3754330000 0.3128100000 0.0096131800
0.4077820000 0.3130080000 0.0078736600
0.4407110000 0.3131300000 0.0052033300
0.4740370000 0.3131610000 0.0029907700
0.5077130000 0.3131300000 0.0011902000
0.5416950000 0.3130390000 0.0000000000
0.5759670000 0.3129470000 0.0000000000
0.6104830000 0.3128400000 0.0000000000
0.6452430000 0.3127340000 0.0000000000
0.6806130000 0.3121080000 0.0000000000
0.7163500000 0.3111160000 0.0000000000
0.7522090000 0.3100630000 0.0000000000
0.7881740000 0.3089340000 0.0000000000
0.8242470000 0.3077440000 0.0000000000
0.8604100000 0.3065080000 0.0000000000
0.8966510000 0.3051960000 0.0000000000
0.9329980000 0.3038530000 0.0000000000
0.9694060000 0.3024490000 0.0000000000
1.0000000000 0.3009990000 0.0000000000
1.0000000000 0.2995040000 0.0000000000
1.0000000000 0.2979630000 0.0000000000
0.0000000000 0.3458920000 0.0000000000
0.0297398000 0.3451130000 0.0000000000
0.0626230000 0.3444570000 0.0002288850
0.0950332000 0.3439540000 0.0023804100
0.1269400000 0.3436180000 0.0043793400
0.1584040000 0.3434350000 0.0061341300
0.1895780000 0.3433590000 0.0076752900
0.2206300000 0.3433280000 0.0091401500
0.2511790000 0.3435260000 0.0091554100
0.2818950000 0.3437400000 0.0089570500
0.3129320000 0.3438620000 0.0092774900
0.3441980000 0.3441060000 0.0081635800
0.3758300000 0.3442890000 0.0071412200
0.4078580000 0.3443960000 0.0068360400
0.4403600000 0.3444880000 0.0058747200
0.4734720000 0.3445490000 0.0031586200
0.5069200000 0.3445330000 0.0009308000
0.5407030000 0.3444720000 0.0000000000
0.5747620000 0.3443500000 0.0000000000
0.6090790000 0.3442130000 0.0000000000
0.6436260000 0.3440600000 0.0000000000
0.6783860000 0.3439080000 0.0000000000
0.7133590000 0.3437860000 0.0000000000
0.7490350000 0.3429470000 0.0000000000
0.7849390000 0.3419090000 0.0000000000
0.8209350000 0.3407950000 0.0000000000
0.8570380000 0.3396200000 0.0000000000
0.8932170000 0.3383990000 0.0000000000
0.9294880000 0.3371180000 0.0000000000
0.9658350000 0.3357750000 0.0000000000
1.0000000000 0.3344010000 0.0000000000
1.0000000000 0.3329670000 0.0000000000
1.0000000000 0.3315020000 0.0000000000
0.0000000000 0.3789880000 0.0000000000
0.0259403000 0.3781340000 0.0000000000
0.0591592000 0.3774010000 0.0000000000
0.0920272000 0.3767910000 0.0000000000
0.1243920000 0.3763180000 0.0000000000
0.1563900000 0.3759820000 0.0013885700
0.1880520000 0.3757690000 0.0029907700
0.2195320000 0.3756160000 0.0044708900
0.2508740000 0.3755090000 0.0057831700
0.2817730000 0.3756470000 0.0055695400
0.3129320000 0.3757230000 0.0055237700
0.3443660000 0.3757230000 0.0061493900
0.3759670000 0.3758750000 0.0050354800
0.4079190000 0.3759820000 0.0041809700
0.4401920000 0.3760130000 0.0040436400
0.4728470000 0.3760130000 0.0039826000
0.5061110000 0.3760130000 0.0011902000
0.5396960000 0.3759670000 0.0000000000
0.5735710000 0.3758450000 0.0000000000
0.6077060000 0.3756920000 0.0000000000
0.6420690000 0.3755250000 0.0000000000
0.6766610000 0.3753410000 0.0000000000
0.7114520000 0.3751580000 0.0000000000
0.7464260000 0.3749750000 0.0000000000
0.7815670000 0.3748070000 0.0000000000
0.8175330000 0.3737700000 0.0000000000
0.8535740000 0.3726710000 0.0000000000
0.8897080000 0.3715110000 0.0000000000
0.9259330000 0.3702910000 0.0000000000
0.9622190000 0.3690240000 0.0000000000
0.9985810000 0.3677120000 0.0000000000
1.0000000000 0.3663390000 0.0000000000
1.0000000000 0.3649500000 0.0000000000
0.0000000000 0.4121000000 0.0000000000
0.0219730000 0.4112000000 0.0000000000
0.0554665000 0.4104070000 0.0000000000
0.0887160000 0.4097050000 0.0000000000
0.1215230000 0.4091400000 0.0000000000
0.1539480000 0.4086820000 0.0000000000
0.1860690000 0.4083310000 0.0000000000
0.2179750000 0.4080720000 0.0000000000
0.2497600000 0.4078280000 0.0012512400
0.2812540000 0.4077210000 0.0021515200
0.3125510000 0.4077520000 0.0019989300
0.3440910000 0.4077210000 0.0021667800
0.3758750000 0.4076140000 0.0031281000
0.4077670000 0.4076750000 0.0019836700
0.4399790000 0.4077060000 0.0012817600
0.4724960000 0.4076600000 0.0013122800
0.5052870000 0.4075840000 0.0019226400
0.5386890000 0.4075530000 0.0000000000
0.5723960000 0.4074460000 0.0000000000
0.6063630000 0.4072940000 0.0000000000
0.6405740000 0.4071110000 0.0000000000
0.6749980000 0.4068970000 0.0000000000
0.7096210000 0.4066830000 0.0000000000
0.7444420000 0.4064550000 0.0000000000
0.7794310000 0.4062410000 0.0000000000
0.8145880000 0.4060430000 0.0000000000
0.8500190000 0.4056920000 0.0000000000
0.8861220000 0.4045780000 0.0000000000
0.9223160000 0.4034330000 0.0000000000
0.9585560000 0.4022280000 0.0000000000
0.9948880000 0.4009770000 0.0000000000
1.0000000000 0.3996800000 0.0000000000
1.0000000000 0.3983220000 0.0000000000
0.0000000000 0.4452890000 0.0000000000
0.0178836000 0.4443270000 0.0000000000
0.0516060000 0.4434880000 0.0000000000
0.0851911000 0.4427100000 0.0000000000
0.1183490000 0.4420540000 0.0000000000
0.1511710000 0.4414890000 0.0000000000
0.1836880000 0.4410320000 0.0000000000
0.2159910000 0.4406650000 0.0000000000
0.2481270000 0.4403300000 0.0000000000
0.2802010000 0.4400240000 0.0000000000
0.3118490000 0.4398870000 0.0000000000
0.3434810000 0.4398110000 0.0000000000
0.3753410000 0.4397040000 0.0000000000
0.4074160000 0.4394900000 0.0002136260
0.4395820000 0.4395060000 0.0000000000
0.4720380000 0.4394450000 0.0000000000
0.5047530000 0.4393380000 0.0000000000
0.5376970000 0.4392000000 0.0000000000
0.5711910000 0.4391090000 0.0000000000
0.6050200000 0.4389720000 0.0000000000
0.6390780000 0.4387880000 0.0000000000
0.6733650000 0.4385600000 0.0000000000
0.7078510000 0.4383150000 0.0000000000
0.7425190000 0.4380710000 0.0000000000
0.7773710000 0.4378120000 0.0000000000
0.8123750000 0.4375680000 0.0000000000
0.8475470000 0.4373080000 0.0000000000
0.8828410000 0.4370950000 0.0000000000
0.9185470000 0.4365300000 0.0000000000
0.9547870000 0.4353860000 0.0000000000
0.9910890000 0.4341800000 0.0000000000
1.0000000000 0.4329290000 0.0000000000
1.0000000000 0.4316320000 0.0000000000
0.0000000000 0.4784770000 0.0000000000
0.0136721000 0.4774850000 0.0000000000
0.0476234000 0.4765850000 0.0000000000
0.0814527000 0.4757610000 0.0000000000
0.1149310000 0.4750130000 0.0000000000
0.1480890000 0.4743720000 0.0000000000
0.1809720000 0.4738230000 0.0000000000
0.2136110000 0.4733350000 0.0000000000
0.2460820000 0.4729380000 0.0000000000
0.2784470000 0.4725410000 0.0000000000
0.3107800000 0.4721600000 0.0000000000
0.3425650000 0.4720070000 0.0000000000
0.3745020000 0.4718550000 0.0000000000
0.4066530000 0.4716560000 0.0000000000
0.4390020000 0.4713660000 0.0000000000
0.4713970000 0.4713210000 0.0000000000
0.5040510000 0.4711990000 0.0000000000
0.5369650000 0.4710310000 0.0000000000
0.5700770000 0.4708480000 0.0000000000
0.6036320000 0.4706800000 0.0000000000
0.6375520000 0.4705120000 0.0000000000
0.6717170000 0.4702980000 0.0000000000
0.7060650000 0.4700390000 0.0000000000
0.7406120000 0.4697800000 0.0000000000
0.7753410000 0.4694900000 0.0000000000
0.8102240000 0.4692000000 0.0000000000
0.8452580000 0.4689100000 0.0000000000
0.8804460000 0.4686350000 0.0000000000
0.9157550000 0.4683910000 0.0000000000
0.9512020000 0.4681470000 0.0000000000
0.9871820000 0.4673530000 0.0000000000
1.0000000000 0.4661630000 0.0000000000
1.0000000000 0.4649270000 0.0000000000
0.0000000000 0.5117420000 0.0000000000
0.0093537800 0.5107040000 0.0000000000
0.0435187000 0.5097580000 0.0000000000
0.0775464000 0.5088730000 0.0000000000
0.1113150000 0.5080640000 0.0000000000
0.1447780000 0.5073320000 0.0000000000
0.1779810000 0.5067060000 0.0000000000
0.2109410000 0.5061420000 0.0000000000
0.2437170000 0.5056380000 0.0000000000
0.2763710000 0.5051800000 0.0000000000
0.3089800000 0.5047230000 0.0000000000
0.3414210000 0.5043260000 0.0000000000
0.3734340000 0.5041280000 0.0000000000
0.4056460000 0.5038990000 0.0000000000
0.4380410000 0.5036090000 0.0000000000
0.4706190000 0.5032580000 0.0000000000
0.5032270000 0.5031510000 0.0000000000
0.5360800000 0.5029680000 0.0000000000
0.5691460000 0.5027540000 0.0000000000
0.6024110000 0.5025100000 0.0000000000
0.6360110000 0.5022970000 0.0000000000
0.6700540000 0.5020980000 0.0000000000
0.7043110000 0.5018540000 0.0000000000
0.7387200000 0.5015640000 0.0000000000
0.7733270000 0.5012590000 0.0000000000
0.8081030000 0.5009540000 0.0000000000
0.8430300000 0.5006330000 0.0000000000
0.8780960000 0.5003280000 0.0000000000
0.9132980000 0.5000230000 0.0000000000
0.9486230000 0.4997180000 0.0000000000
0.9840700000 0.4994430000 0.0000000000
1.0000000000 0.4991840000 0.0000000000
1.0000000000 0.4981770000 0.0000000000
0.0000000000 0.5450220000 0.0000000000
0.0049439200 0.5439540000 0.0000000000
0.0393072000 0.5429620000 0.0000000000
0.0735027000 0.5420310000 0.0000000000
0.1075150000 0.5411610000 0.0000000000
0.1412530000 0.5403830000 0.0000000000
0.1747310000 0.5396660000 0.0000000000
0.2079800000 0.5390250000 0.0000000000
0.2410620000 0.5384450000 0.0000000000
0.2739760000 0.5379110000 0.0000000000
0.3068280000 0.5373920000 0.0000000000
0.3396510000 0.5368730000 0.0000000000
0.3721370000 0.5364770000 0.0000000000
0.4044100000 0.5362170000 0.0000000000
0.4368660000 0.5359270000 0.0000000000
0.4694900000 0.5355610000 0.0000000000
0.5022510000 0.5351640000 0.0000000000
0.5350580000 0.5349970000 0.0000000000
0.5680930000 0.5347680000 0.0000000000
0.6013120000 0.5345080000 0.0000000000
0.6347140000 0.5342030000 0.0000000000
0.6683450000 0.5339440000 0.0000000000
0.7024950000 0.5337000000 0.0000000000
0.7368280000 0.5334250000 0.0000000000
0.7713280000 0.5331200000 0.0000000000
0.8059970000 0.5327990000 0.0000000000
0.8408180000 0.5324480000 0.0000000000
0.8757760000 0.5321130000 0.0000000000
0.9108720000 0.5317620000 0.0000000000
0.9461050000 0.5314260000 0.0000000000
0.9814450000 0.5311060000 0.0000000000
1.0000000000 0.5307850000 0.0000000000
1.0000000000 0.5304950000 0.0000000000
0.0000000000 0.5783320000 0.0000000000
0.0004577710 0.5772340000 0.0000000000
0.0349889000 0.5761960000 0.0000000000
0.0693217000 0.5752350000 0.0000000000
0.1035780000 0.5743190000 0.0000000000
0.1375450000 0.5734650000 0.0000000000
0.1712830000 0.5727020000 0.0000000000
0.2047910000 0.5719840000 0.0000000000
0.2381320000 0.5713280000 0.0000000000
0.2713210000 0.5707330000 0.0000000000
0.3044020000 0.5701530000 0.0000000000
0.3374380000 0.5695890000 0.0000000000
0.3704590000 0.5689940000 0.0000000000
0.4029600000 0.5686270000 0.0000000000
0.4354620000 0.5682920000 0.0000000000
0.4681470000 0.5679260000 0.0000000000
0.5009840000 0.5675140000 0.0000000000
