bundles/resolve-cinematic-luts/Gamut/Luxe/HTFW Luxe BW.cube
TITLE "HTFW Luxe BW by Gamut"
# Version 1.0 - 08/23/2023 - Designed for Rec.709 Color Space. Copyright 2023 Gamut, LLC.
# 
LUT_3D_SIZE 5
0.0000000000 0.0000000000 0.0000000000
0.0317082000 0.0317082000 0.0317082000
0.0698863000 0.0698863000 0.0698863000
0.1140310000 0.1140310000 0.1140310000
0.1643400000 0.1643400000 0.1643400000
0.1460290000 0.1460290000 0.1460290000
0.1996950000 0.1996950000 0.1996950000
0.2574810000 0.2574810000 0.2574810000
0.3184560000 0.3184560000 0.3184560000
0.3806670000 0.3806670000 0.3806670000
0.3587700000 0.3587700000 0.3587700000
0.4205540000 0.4205540000 0.4205540000
0.4815750000 0.4815750000 0.4815750000
0.5374840000 0.5374840000 0.5374840000
0.5880830000 0.5880830000 0.5880830000
0.5705810000 0.5705810000 0.5705810000
0.6170290000 0.6170290000 0.6170290000
0.6589760000 0.6589760000 0.6589760000
0.6978560000 0.6978560000 0.6978560000
0.7336080000 0.7336080000 0.7336080000
0.7213250000 0.7213250000 0.7213250000
0.7554130000 0.7554130000 0.7554130000
0.7868920000 0.7868920000 0.7868920000
0.8156250000 0.8156250000 0.8156250000
0.8421450000 0.8421450000 0.8421450000
0.0401770000 0.0401770000 0.0401770000
0.0795758000 0.0795758000 0.0795758000
0.1254440000 0.1254440000 0.1254440000
0.1770660000 0.1770660000 0.1770660000
0.2330660000 0.2330660000 0.2330660000
0.2128020000 0.2128020000 0.2128020000
0.2716720000 0.2716720000 0.2716720000
0.3330890000 0.3330890000 0.3330890000
0.3952700000 0.3952700000 0.3952700000
0.4566570000 0.4566570000 0.4566570000
0.4350960000 0.4350960000 0.4350960000
0.4953080000 0.4953080000 0.4953080000
0.5498590000 0.5498590000 0.5498590000
0.5991000000 0.5991000000 0.5991000000
0.6419780000 0.6419780000 0.6419780000
0.6272070000 0.6272070000 0.6272070000
0.6684060000 0.6684060000 0.6684060000
0.7064010000 0.7064010000 0.7064010000
0.7417410000 0.7417410000 0.7417410000
0.7742270000 0.7742270000 0.7742270000
0.7631190000 0.7631190000 0.7631190000
0.7937740000 0.7937740000 0.7937740000
0.8220650000 0.8220650000 0.8220650000
0.8481270000 0.8481270000 0.8481270000
0.8720380000 0.8720380000 0.8720380000
0.0899214000 0.0899214000 0.0899214000
0.1372090000 0.1372090000 0.1372090000
0.1896240000 0.1896240000 0.1896240000
0.2469670000 0.2469670000 0.2469670000
0.3076070000 0.3076070000 0.3076070000
0.2859850000 0.2859850000 0.2859850000
0.3477990000 0.3477990000 0.3477990000
0.4096590000 0.4096590000 0.4096590000
0.4710770000 0.4710770000 0.4710770000
0.5280840000 0.5280840000 0.5280840000
0.5087660000 0.5087660000 0.5087660000
0.5617760000 0.5617760000 0.5617760000
0.6094610000 0.6094610000 0.6094610000
0.6518040000 0.6518040000 0.6518040000
0.6912640000 0.6912640000 0.6912640000
0.6774700000 0.6774700000 0.6774700000
0.7150530000 0.7150530000 0.7150530000
0.7496300000 0.7496300000 0.7496300000
0.7815060000 0.7815060000 0.7815060000
0.8107120000 0.8107120000 0.8107120000
0.8006410000 0.8006410000 0.8006410000
0.8284430000 0.8284430000 0.8284430000
0.8539710000 0.8539710000 0.8539710000
0.8772110000 0.8772110000 0.8772110000
0.8987110000 0.8987110000 0.8987110000
0.1489280000 0.1489280000 0.1489280000
0.2027770000 0.2027770000 0.2027770000
0.2611120000 0.2611120000 0.2611120000
0.3222100000 0.3222100000 0.3222100000
0.3842530000 0.3842530000 0.3842530000
0.3621730000 0.3621730000 0.3621730000
0.4242770000 0.4242770000 0.4242770000
0.4851300000 0.4851300000 0.4851300000
0.5405050000 0.5405050000 0.5405050000
0.5908900000 0.5908900000 0.5908900000
0.5736020000 0.5736020000 0.5736020000
0.6196380000 0.6196380000 0.6196380000
0.6614180000 0.6614180000 0.6614180000
0.6998860000 0.6998860000 0.6998860000
0.7357140000 0.7357140000 0.7357140000
0.7234450000 0.7234450000 0.7234450000
0.7573970000 0.7573970000 0.7573970000
0.7885400000 0.7885400000 0.7885400000
0.8172880000 0.8172880000 0.8172880000
0.8436710000 0.8436710000 0.8436710000
0.8346990000 0.8346990000 0.8346990000
0.8595100000 0.8595100000 0.8595100000
0.8824750000 0.8824750000 0.8824750000
0.9035320000 0.9035320000 0.9035320000
0.9227740000 0.9227740000 0.9227740000
0.2162970000 0.2162970000 0.2162970000
0.2753340000 0.2753340000 0.2753340000
0.3367670000 0.3367670000 0.3367670000
0.3987490000 0.3987490000 0.3987490000
0.4603950000 0.4603950000 0.4603950000
0.4387880000 0.4387880000 0.4387880000
0.4986650000 0.4986650000 0.4986650000
0.5527730000 0.5527730000 0.5527730000
0.6018010000 0.6018010000 0.6018010000
0.6445110000 0.6445110000 0.6445110000
0.6297860000 0.6297860000 0.6297860000
0.6705580000 0.6705580000 0.6705580000
0.7086290000 0.7086290000 0.7086290000
0.7437860000 0.7437860000 0.7437860000
0.7760280000 0.7760280000 0.7760280000
0.7648890000 0.7648890000 0.7648890000
0.7955440000 0.7955440000 0.7955440000
0.8236970000 0.8236970000 0.8236970000
0.8495770000 0.8495770000 0.8495770000
0.8732740000 0.8732740000 0.8732740000
0.8651250000 0.8651250000 0.8651250000
0.8876330000 0.8876330000 0.8876330000
0.9082170000 0.9082170000 0.9082170000
0.9269860000 0.9269860000 0.9269860000
0.9447620000 0.9447620000 0.9447620000
