bundles/resolve-cinematic-luts/Gamut/Luxe/HTFW Luxe 03.cube
TITLE "HTFW Luxe 03 by Gamut"
# Version 1.0 - 08/23/2023 - Designed for Rec.709 Color Space. Copyright 2023 Gamut, LLC.
LUT_3D_SIZE 5
0.0015770000 0.0070970000 0.0102510000
0.1614027500 0.0395992500 0.0287830000
0.5647455000 0.1142675000 0.0952775000
0.9326087500 0.2920105000 0.1864090000
0.9998120000 0.4159850000 0.3164790000
0.0459455000 0.1768217500 0.0394285000
0.2351512500 0.2177082500 0.0493062500
0.5999407500 0.2622722500 0.0955832500
0.9390697500 0.3856495000 0.1934082500
0.9987917500 0.4692817500 0.3357580000
0.1320930000 0.4382910000 0.0969145000
0.1878547500 0.4650287500 0.1169485000
0.5542485000 0.5096050000 0.1239640000
0.8935612500 0.5616140000 0.1926220000
0.9844935000 0.5740000000 0.3625595000
0.1760745000 0.6730022500 0.1853235000
0.2171145000 0.6909352500 0.2205272500
0.5080080000 0.7300715000 0.2610955000
0.8090827500 0.7820510000 0.2756155000
0.9619512500 0.7455570000 0.3816552500
0.2902030000 0.8067650000 0.2074120000
0.2880460000 0.8165867500 0.2442747500
0.3183010000 0.8302820000 0.2592445000
0.6255742500 0.8849107500 0.3535790000
0.9418890000 0.9535560000 0.4372950000
0.0000000000 0.0309515000 0.1674420000
0.0820772500 0.0183345000 0.0627057500
0.4941325000 0.0968232500 0.1292957500
0.9258642500 0.2869187500 0.2886245000
1.0000000000 0.4299455000 0.4081670000
0.0463260000 0.2170117500 0.2154242500
0.2646712500 0.2631432500 0.2506250000
0.6190500000 0.2804382500 0.2554400000
0.9453840000 0.3956840000 0.3412872500
0.9997182500 0.4877115000 0.4357277500
0.1042490000 0.4666997500 0.2183172500
0.1926842500 0.4937140000 0.2817307500
0.5792850000 0.5385325000 0.2736810000
0.9036010000 0.5815860000 0.3323755000
0.9887887500 0.5947535000 0.4681765000
0.1667035000 0.6902707500 0.2786112500
0.2117315000 0.7073457500 0.3464575000
0.5149445000 0.7413425000 0.3927310000
0.8192180000 0.7934060000 0.3974497500
0.9667442500 0.7553355000 0.4610147500
0.2879495000 0.8185552500 0.2543962500
0.2827512500 0.8236365000 0.2927280000
0.2996827500 0.8359840000 0.3444060000
0.6192580000 0.8883787500 0.4141797500
0.9442447500 0.9551905000 0.4511917500
0.0000000000 0.0874080000 0.5190070000
0.0005917500 0.0587835000 0.4279392500
0.3104670000 0.0952370000 0.2665660000
0.8528490000 0.2872787500 0.4011877500
0.9994230000 0.4435945000 0.5008570000
0.0855415000 0.2726122500 0.5778902500
0.1800132500 0.2780850000 0.5699457500
0.4848870000 0.2195862500 0.4185762500
0.9098477500 0.3765020000 0.5026937500
0.9970832500 0.4946575000 0.5464747500
0.1078775000 0.4992370000 0.5277075000
0.1646662500 0.5132370000 0.5361967500
0.5847760000 0.5676585000 0.5723215000
0.9000495000 0.5906207500 0.5760820000
0.9921515000 0.6114070000 0.5981245000
0.1653865000 0.7164025000 0.4622472500
0.1813800000 0.7246405000 0.4804197500
0.4715030000 0.7569795000 0.5408507500
0.8303270000 0.8099520000 0.6024510000
0.9763342500 0.7830087500 0.6332380000
0.2919910000 0.8397795000 0.3517325000
0.2898175000 0.8411972500 0.3732040000
0.3065525000 0.8471695000 0.4346050000
0.6260635000 0.8947807500 0.5242335000
0.9672140000 0.9706415000 0.6076265000
0.0807827500 0.1943645000 0.8284782500
0.0654742500 0.1467792500 0.7566035000
0.1901117500 0.1488080000 0.6371587500
0.6501200000 0.2500725000 0.5468647500
0.9712052500 0.4867317500 0.6314065000
0.1439912500 0.3330120000 0.8746245000
0.2020862500 0.3267532500 0.8523562500
0.3281005000 0.2432292500 0.7171832500
0.7355360000 0.3213357500 0.6343807500
0.9626772500 0.5520382500 0.6829105000
0.2238765000 0.5408480000 0.8324895000
0.2767240000 0.5491082500 0.8311647500
0.4897260000 0.5619292500 0.8113102500
0.8003725000 0.5472880000 0.7443790000
0.9619362500 0.6707227500 0.7543152500
0.2037990000 0.7334445000 0.7550442500
0.2181080000 0.7367327500 0.7551520000
0.4244417500 0.7644037500 0.7669840000
0.8268282500 0.8277137500 0.8254412500
0.9834390000 0.8320822500 0.8311215000
0.3346427500 0.8802597500 0.5702325000
0.3341007500 0.8797357500 0.5688075000
0.3291257500 0.8758475000 0.5682510000
0.5735672500 0.9037117500 0.6564772500
0.9829447500 0.9714085000 0.8311657500
0.3777390000 0.5171140000 0.9770610000
0.3509122500 0.4819207500 0.9706762500
0.2941450000 0.3685240000 0.9391505000
0.4446302500 0.2931652500 0.8013240000
0.8870470000 0.3935870000 0.7428650000
0.4059145000 0.5517012500 0.9798502500
0.4171140000 0.5447637500 0.9756555000
0.4148812500 0.4788570000 0.9549617500
0.5296440000 0.3820115000 0.8706500000
0.9049877500 0.4450437500 0.7918837500
0.5358035000 0.6828295000 0.9613715000
0.5408770000 0.6798995000 0.9605795000
0.5813285000 0.6701935000 0.9521830000
0.6456800000 0.5767365000 0.9211155000
0.9033855000 0.5496140000 0.8364585000
0.5265992500 0.7641270000 0.9441002500
0.5397142500 0.7672252500 0.9438540000
0.6337525000 0.7941032500 0.9434995000
0.8188325000 0.8548682500 0.9465355000
0.9359590000 0.8138270000 0.9054657500
0.2329390000 0.8204310000 0.9166080000
0.2340520000 0.8207967500 0.9168790000
0.2400850000 0.8232810000 0.9169095000
0.5158110000 0.8799670000 0.9245780000
0.9776690000 0.9812000000 0.9766740000
