bundles/resolve-cinematic-luts/Gamut/Luxe/HTFW Luxe 02.cube
TITLE "HTFW Luxe 02 by Gamut"
# Version 1.0 - 08/23/2023 - Designed for Rec.709 Color Space. Copyright 2023 Gamut, LLC.
LUT_3D_SIZE 33
0.0276000000 0.0212920000 0.0228690000
0.0451019375 0.0205030000 0.0205276562
0.0742117500 0.0204536875 0.0189260000
0.0938271875 0.0227211562 0.0204290313
0.1100361250 0.0258258750 0.0219815000
0.1261273750 0.0310501875 0.0256533125
0.1465623125 0.0381963750 0.0280933125
0.1728457500 0.0414216875 0.0304090313
0.2036642500 0.0468815000 0.0321347500
0.2403588438 0.0517847812 0.0331200000
0.2802704375 0.0534481875 0.0331200000
0.3221215312 0.0551304062 0.0323320000
0.3652686250 0.0561960000 0.0305573750
0.4050541875 0.0551915625 0.0279205312
0.4492072500 0.0552906250 0.0263681875
0.4923948437 0.0574750313 0.0256038438
0.5308665000 0.0586620000 0.0252340000
0.5662466250 0.0580530000 0.0252340000
0.6017257500 0.0588470625 0.0255791875
0.6446580625 0.0659765312 0.0263435312
0.6885085000 0.0778860000 0.0278958750
0.7306303125 0.0923313437 0.0299903125
0.7716836250 0.1053369375 0.0351411875
0.8109713750 0.1212991563 0.0439447500
0.8450192500 0.1397552500 0.0536200000
0.8737701562 0.1572219687 0.0633378125
0.8986204375 0.1726436250 0.0729586250
0.9200492500 0.1867557813 0.0822683438
0.9375516250 0.2008365000 0.0919435000
0.9507060313 0.2153128438 0.1019765313
0.9596880625 0.2304263750 0.1125596250
0.9657419063 0.2458829687 0.1235666563
0.9703350000 0.2616470000 0.1350930000
0.0283643437 0.0313458438 0.0228690000
0.0422223750 0.0344012812 0.0228443437
0.0665707813 0.0328982187 0.0205030000
0.0857316875 0.0343766875 0.0226718438
0.1052268750 0.0396009687 0.0257765938
0.1254928750 0.0420567813 0.0274275625
0.1497310313 0.0481360625 0.0304336875
0.1797065312 0.0528791563 0.0321101250
0.2109210313 0.0588825312 0.0336871250
0.2486263437 0.0628292500 0.0338843438
0.2906129687 0.0627809375 0.0333419062
0.3338339687 0.0626382813 0.0318142187
0.3778559062 0.0632345000 0.0297683750
0.4194286250 0.0632154687 0.0274526562
0.4632864375 0.0637686250 0.0263681875
0.5055365312 0.0652200000 0.0252586562
0.5462137188 0.0671442187 0.0252340000
0.5858688438 0.0702345937 0.0256038438
0.6273110625 0.0769931562 0.0259983437
0.6698778125 0.0879884375 0.0271074687
0.7102630625 0.0985160938 0.0286598438
0.7488640625 0.1089568438 0.0315426875
0.7857264375 0.1227062500 0.0366935312
0.8199574063 0.1399147500 0.0444590000
0.8507285000 0.1572250625 0.0536200000
0.8775065625 0.1730457187 0.0633378125
0.9010188437 0.1870957500 0.0725523750
0.9212861250 0.2003120625 0.0821983437
0.9378533437 0.2134184063 0.0915190000
0.9504789687 0.2270094375 0.1015892188
0.9592755312 0.2409821562 0.1122056250
0.9655765312 0.2552717500 0.1232436563
0.9703087188 0.2696015625 0.1345102813
0.0314444375 0.0516852500 0.0266641250
0.0392811250 0.0517325625 0.0274275000
0.0576134375 0.0517325625 0.0251354375
0.0823048125 0.0529143125 0.0265162500
0.1036643750 0.0566184375 0.0289306250
0.1251533125 0.0618078125 0.0312719063
0.1512250625 0.0666987500 0.0328736250
0.1818515937 0.0732952500 0.0344260625
0.2155075625 0.0782906875 0.0353874375
0.2561155625 0.0813986875 0.0346970000
0.2986858750 0.0825574375 0.0339090000
0.3432111875 0.0828023125 0.0318142188
0.3875138125 0.0814802500 0.0287338125
0.4334700938 0.0818549062 0.0271321250
0.4784777500 0.0840448750 0.0263188750
0.5215718125 0.0851445625 0.0260230000
0.5632726875 0.0871410000 0.0260230000
0.6040642188 0.0919288750 0.0267626875
0.6456050000 0.1011304375 0.0271567500
0.6854687187 0.1096496875 0.0286598125
0.7240965625 0.1184188750 0.0312471875
0.7606229687 0.1301113125 0.0346234063
0.7950803125 0.1451813125 0.0395161250
0.8260115000 0.1611927813 0.0463624375
0.8537370625 0.1762779375 0.0541112500
0.8789314375 0.1899439062 0.0637539688
0.9013369375 0.2027026875 0.0729261250
0.9208337187 0.2149063750 0.0821689062
0.9371008750 0.2270841875 0.0915190000
0.9496163750 0.2394857500 0.1015892187
0.9586266250 0.2522270625 0.1122056250
0.9651669062 0.2652717187 0.1232335313
0.9701950000 0.2782379375 0.1345010000
0.0338350313 0.0677060625 0.0321101875
0.0385167812 0.0686811875 0.0328981875
0.0544263750 0.0691642188 0.0350423750
0.0762828437 0.0696995625 0.0328243125
0.0998276250 0.0740902813 0.0328981875
0.1257415625 0.0805718125 0.0337611563
0.1529556250 0.0871709688 0.0346231250
0.1834446875 0.0934473438 0.0354120312
0.2207855313 0.0983288750 0.0356091250
0.2635627500 0.1022559688 0.0349189062
0.3065480000 0.1049916562 0.0319374063
0.3542351563 0.1061736250 0.0303108438
0.4002122813 0.1068817500 0.0291770000
0.4452475000 0.1081144375 0.0283150313
0.4898662812 0.1089847812 0.0278712188
0.5334492187 0.1108120625 0.0275261250
0.5754618438 0.1154759375 0.0282411563
0.6158291250 0.1214494063 0.0286844063
0.6564225313 0.1282051875 0.0294483125
0.6952112500 0.1357303125 0.0313211875
0.7318414375 0.1450393750 0.0343525312
0.7662310625 0.1571475312 0.0377284688
0.7976604063 0.1710133750 0.0425453750
0.8260417187 0.1844168750 0.0484263438
0.8523473437 0.1970595938 0.0557457187
0.8767390625 0.2088508437 0.0643058125
0.8988773750 0.2201538125 0.0734233750
0.9182918750 0.2311888125 0.0826200937
0.9347500313 0.2422567812 0.0919034688
0.9478346875 0.2534008750 0.1019400625
0.9574285000 0.2648300312 0.1128785312
0.9645516250 0.2764144687 0.1238492813
0.9700856250 0.2880418125 0.1350375000
0.0360768750 0.0857387500 0.0360768750
0.0385414375 0.0870668437 0.0360768750
0.0519529375 0.0887257500 0.0391825625
0.0765210000 0.0887855000 0.0378026875
0.0970751250 0.0908321250 0.0354860000
0.1235649375 0.0970890937 0.0346970000
0.1529378125 0.1055848125 0.0346970000
0.1855984375 0.1138779688 0.0354860000
0.2228968750 0.1202502500 0.0334157500
0.2684965938 0.1259126250 0.0326522500
0.3141390000 0.1297025000 0.0317895625
0.3608736875 0.1321364687 0.0309265938
0.4073905000 0.1343748750 0.0301630000
0.4532468125 0.1366171875 0.0298673750
0.4983590000 0.1393083125 0.0298673750
0.5413396563 0.1433248125 0.0297688750
0.5820185000 0.1486956250 0.0302613750
0.6216649062 0.1543326563 0.0313458750
0.6605190625 0.1601173750 0.0328246875
0.6975295313 0.1674415000 0.0351405313
0.7319243750 0.1768247500 0.0374572500
0.7634940000 0.1876717500 0.0415786875
0.7928353125 0.1988185000 0.0458546875
0.8204848750 0.2096261250 0.0511065937
0.8466708750 0.2199122500 0.0575745000
0.8713288437 0.2298198125 0.0654153437
0.8938222500 0.2397145625 0.0739180625
0.9139807500 0.2493515000 0.0831379063
0.9311882500 0.2592552500 0.0927852500
0.9451692812 0.2690431250 0.1030677188
0.9558327500 0.2791056875 0.1138741250
0.9636955625 0.2890384375 0.1250397188
0.9699745000 0.2991342500 0.1361598750
0.0391825938 0.1050224063 0.0369397188
0.0407001875 0.1068643125 0.0362740000
0.0488645312 0.1100170312 0.0372108437
0.0684581250 0.1103538437 0.0386400000
0.0953714063 0.1107492500 0.0364712500
0.1199118125 0.1159063125 0.0340321250
0.1482214688 0.1246815937 0.0332432812
0.1835215938 0.1352430000 0.0332432812
0.2259259687 0.1436455000 0.0332432812
0.2724178125 0.1498459688 0.0325536250
0.3199211875 0.1547697187 0.0317895625
0.3666126875 0.1586485938 0.0315430000
0.4124760312 0.1625932187 0.0307540000
0.4573240000 0.1668170313 0.0307540000
0.5007577187 0.1714685938 0.0314197187
0.5421740000 0.1767131563 0.0318388750
0.5816174375 0.1825333438 0.0332680938
0.6190767812 0.1883928125 0.0348204375
0.6558966250 0.1946729062 0.0363727812
0.6909079688 0.2020271250 0.0382460938
0.7236382188 0.2101260625 0.0413202187
0.7543126562 0.2187975625 0.0445203437
0.7837097187 0.2274340938 0.0487168125
0.8117431875 0.2357581250 0.0536946875
0.8383621250 0.2440635000 0.0599620625
0.8636793437 0.2524507188 0.0669748750
0.8871433125 0.2607390000 0.0754170625
0.9083525625 0.2692088125 0.0845008125
0.9268480312 0.2776845000 0.0943755313
0.9419534062 0.2862425000 0.1048824687
0.9537975937 0.2948559375 0.1158734687
0.9627430625 0.3033804375 0.1268604688
0.9698731250 0.3118100313 0.1378354375
0.0441794375 0.1338968125 0.0362740000
0.0442977187 0.1335853438 0.0355106250
0.0480259375 0.1364062500 0.0362247500
0.0633777500 0.1381044375 0.0372848125
0.0912650625 0.1378052500 0.0378520000
0.1188637812 0.1409531875 0.0362247188
0.1456838125 0.1475220625 0.0346970000
0.1807680625 0.1576065938 0.0339336250
0.2253520625 0.1679629375 0.0337610625
0.2740225000 0.1760692188 0.0331200000
0.3215715000 0.1824824375 0.0329722500
0.3679410000 0.1876620937 0.0323320000
0.4115729375 0.1930116250 0.0321840625
0.4544826562 0.1983465625 0.0328243125
0.4959071875 0.2036730000 0.0334160625
0.5355290937 0.2094959687 0.0341796875
0.5730916250 0.2155248750 0.0355843125
0.6096201250 0.2217659687 0.0371371562
0.6451256250 0.2280435625 0.0394780625
0.6793222812 0.2346148437 0.0417774062
0.7119403750 0.2415726250 0.0448625000
0.7430557500 0.2484527500 0.0480432813
0.7728560625 0.2553628750 0.0519218750
0.8014264375 0.2621428437 0.0566529375
0.8288130625 0.2690258750 0.0622824375
0.8549796875 0.2759694687 0.0694353125
0.8796641250 0.2830383750 0.0773793750
0.9023283438 0.2902634063 0.0870167187
0.9220962500 0.2975213750 0.0967789375
0.9385523438 0.3047603125 0.1073844688
0.9515560000 0.3119754375 0.1184499375
0.9616820000 0.3189876562 0.1293223750
0.9699055000 0.3259663125 0.1403294375
0.0478317812 0.1641859375 0.0376794062
0.0478317812 0.1633284688 0.0362740000
0.0493885625 0.1658328125 0.0347463125
0.0599726562 0.1693564062 0.0362987500
0.0813185312 0.1712593750 0.0379258750
0.1139298750 0.1719851875 0.0384183125
0.1457172812 0.1759516250 0.0368657813
0.1779124375 0.1833100000 0.0361016250
0.2205800625 0.1931702812 0.0353134062
0.2691753437 0.2030780000 0.0339582500
0.3162283750 0.2108771562 0.0337364063
0.3614868438 0.2177986875 0.0337364063
0.4040004688 0.2238837812 0.0337364063
0.4451307187 0.2299353750 0.0343520312
0.4851735000 0.2356491563 0.0351410312
0.5236723437 0.2414492187 0.0365207812
0.5610782813 0.2473949687 0.0379008125
0.5974066875 0.2532141250 0.0402362500
0.6327611875 0.2590922187 0.0425103125
0.6667896875 0.2649538125 0.0450017812
0.6995280313 0.2708631875 0.0480638438
0.7310895625 0.2767077500 0.0514057813
0.7613667187 0.2825129375 0.0554361562
0.7906831250 0.2882463438 0.0601344375
0.8190733750 0.2940907500 0.0655397188
0.8463163438 0.2999230625 0.0725331875
0.8722886875 0.3059344063 0.0809005937
0.8962032187 0.3120750625 0.0900105313
0.9174133750 0.3182210938 0.1002414375
0.9352129687 0.3243152187 0.1109208125
0.9494525312 0.3302078438 0.1219686875
0.9606906562 0.3359121875 0.1328049375
0.9699317500 0.3414588750 0.1435978125
0.0528252500 0.2011392500 0.0376547500
0.0528252500 0.1999353750 0.0368904063
0.0529512500 0.2001407500 0.0353380625
0.0588008750 0.2036209063 0.0356091250
0.0754341250 0.2061570000 0.0377533750
0.1026225313 0.2075738437 0.0398967188
0.1379773750 0.2086075000 0.0411765000
0.1764274062 0.2138970313 0.0392071250
0.2147107500 0.2210257500 0.0376547500
0.2591759062 0.2302891875 0.0368904063
0.3060380625 0.2396834375 0.0358797500
0.3509693125 0.2474956563 0.0358797500
0.3926217500 0.2542873750 0.0358797500
0.4330694375 0.2603510000 0.0366687500
0.4727863125 0.2661451875 0.0379007500
0.5113733437 0.2719785937 0.0394533750
0.5488287500 0.2775262500 0.0409852500
0.5851592812 0.2829249687 0.0435786875
0.6203243750 0.2882602500 0.0457236875
0.6544341563 0.2934742812 0.0487779375
0.6874810000 0.2986062500 0.0519186250
0.7194927187 0.3037324375 0.0550993125
0.7505737500 0.3087816250 0.0593977500
0.7806915625 0.3138436875 0.0641638438
0.8100300000 0.3188895000 0.0698455000
0.8383840000 0.3238955000 0.0768834375
0.8655175625 0.3291586875 0.0853121250
0.8906478750 0.3344120312 0.0948677500
0.9131180000 0.3396336250 0.1049416250
0.9321391250 0.3445252188 0.1155960312
0.9474695000 0.3492064375 0.1262616250
0.9597552500 0.3536316875 0.1370375937
0.9699090000 0.3578107500 0.1475200000
0.0590107500 0.2422322188 0.0411036875
0.0590107500 0.2401173437 0.0397981250
0.0584032812 0.2392204062 0.0382457812
0.0604941563 0.2407729375 0.0355598750
0.0724392188 0.2422825937 0.0383442500
0.0963745625 0.2435025937 0.0420621562
0.1334141250 0.2441419063 0.0454300625
0.1763086250 0.2486936250 0.0447504688
0.2137288437 0.2529031875 0.0420636562
0.2523908125 0.2589077188 0.0405538437
0.2961902813 0.2674178125 0.0397734687
0.3397089688 0.2757135312 0.0389854688
0.3810930625 0.2828235312 0.0389854688
0.4213928125 0.2892626563 0.0395518438
0.4609607500 0.2950579375 0.0409841563
0.4995003750 0.3006562500 0.0424853125
0.5369446562 0.3059188125 0.0444755625
0.5734945312 0.3109995313 0.0469433750
0.6087716562 0.3158420625 0.0496770313
0.6432489688 0.3206783125 0.0527808438
0.6767095938 0.3252374063 0.0561765938
0.7092229375 0.3298679688 0.0599957500
0.7409267500 0.3343822813 0.0641792500
0.7719025625 0.3389014062 0.0692916875
0.8020645937 0.3433324375 0.0752897500
0.8314670000 0.3478655625 0.0828465312
0.8596496563 0.3524879375 0.0912040625
0.8858650937 0.3570022187 0.1008623750
0.9093547500 0.3613136875 0.1108868750
0.9294576875 0.3652490313 0.1212825000
0.9457641250 0.3688042812 0.1316653750
0.9588803750 0.3719539687 0.1420358438
0.9700191250 0.3749102500 0.1521692813
0.0647585000 0.2844248750 0.0447758125
0.0642099687 0.2816919688 0.0433267813
0.0641918750 0.2798228125 0.0413256875
0.0644445312 0.2798264688 0.0375068125
0.0718195000 0.2790395000 0.0403078125
0.0928045000 0.2790776875 0.0441580000
0.1261935000 0.2801930000 0.0488431250
0.1698847188 0.2827288750 0.0517466875
0.2124570000 0.2861639375 0.0493995625
0.2521802187 0.2904330625 0.0461959688
0.2905194375 0.2956350625 0.0447758125
0.3306057813 0.3028610000 0.0438070625
0.3712055625 0.3100911875 0.0433031250
0.4110909688 0.3166810937 0.0438070625
0.4503867500 0.3224465000 0.0451796875
0.4889020937 0.3278109375 0.0469636875
0.5265317500 0.3329382500 0.0490124375
0.5631567813 0.3377252500 0.0514588125
0.5988426875 0.3423177500 0.0546776875
0.6335553125 0.3467859688 0.0578156562
0.6673837500 0.3511405625 0.0613635625
0.7003572188 0.3553341875 0.0655168125
0.7326250000 0.3595677500 0.0703380000
0.7643178125 0.3636709375 0.0758846563
0.7953746875 0.3678273750 0.0822554375
0.8257178125 0.3719396875 0.0901524063
0.8547530625 0.3759566250 0.0986660625
0.8818212812 0.3796790000 0.1078798750
0.9061672500 0.3831748125 0.1178626250
0.9270245625 0.3861835000 0.1278320313
0.9442250000 0.3886891250 0.1379113125
0.9581916250 0.3907174688 0.1478336250
0.9701302500 0.3924412500 0.1573418750
0.0692635937 0.3203895000 0.0496419375
0.0690926562 0.3173116250 0.0482875313
0.0690755625 0.3154166250 0.0450529375
0.0686743125 0.3149294687 0.0406027500
0.0726116250 0.3133451250 0.0425539062
0.0899465313 0.3128529375 0.0473609687
0.1223388125 0.3134313750 0.0528917188
0.1663479375 0.3150914062 0.0587988125
0.2139867812 0.3185311250 0.0580930313
0.2545445937 0.3216385625 0.0546036875
0.2900969063 0.3251681250 0.0520470938
0.3251393125 0.3297279375 0.0505200000
0.3630209062 0.3359869062 0.0498430000
0.4019660000 0.3424104375 0.0498430000
0.4408925313 0.3482447500 0.0508918125
0.4796108438 0.3538195000 0.0525431875
0.5173635625 0.3588844062 0.0550867813
0.5542121875 0.3636277500 0.0575499063
0.5899985000 0.3681099375 0.0607893437
0.6250444375 0.3724137812 0.0642378750
0.6591965000 0.3765311250 0.0682562812
0.6927057813 0.3805953125 0.0727468437
0.7256209375 0.3846402813 0.0779799063
0.7579990312 0.3884856562 0.0839975938
0.7898705938 0.3922629687 0.0907645625
0.8209708438 0.3959695938 0.0985319062
0.8506777187 0.3993981562 0.1072254687
0.8784354688 0.4025114062 0.1162488437
0.9033689375 0.4051307813 0.1257381250
0.9248621875 0.4071917813 0.1353742813
0.9427300938 0.4086859375 0.1446805312
0.9574647188 0.4096630000 0.1540007188
0.9703238437 0.4103396563 0.1631304375
0.0733877500 0.3514450000 0.0516860000
0.0730696250 0.3486601250 0.0497112187
0.0732638750 0.3471740000 0.0449166250
0.0714366250 0.3457171875 0.0427705938
0.0724896250 0.3450005000 0.0453621250
0.0886620000 0.3444313750 0.0511673750
0.1200215625 0.3446466250 0.0581308125
0.1670150938 0.3453909688 0.0653250625
0.2141156250 0.3477376250 0.0657618750
0.2543197500 0.3504095625 0.0632753437
0.2893220625 0.3533938125 0.0608136875
0.3231244688 0.3571266875 0.0588438750
0.3575948750 0.3617243750 0.0576421250
0.3945206250 0.3675086875 0.0576232188
0.4325651250 0.3734320625 0.0579801875
0.4711573125 0.3790323125 0.0600895937
0.5091031250 0.3841516250 0.0621815000
0.5460564688 0.3889589688 0.0650094063
0.5821792500 0.3934154375 0.0685212500
0.6174770312 0.3977294687 0.0723859687
0.6521101250 0.4018016250 0.0766672500
0.6861617500 0.4058093437 0.0815739375
0.7196975000 0.4096566250 0.0873817500
0.7527842500 0.4133621562 0.0936876875
0.7852983750 0.4168153750 0.1007355000
0.8169108125 0.4200240312 0.1083389375
0.8472051875 0.4229336250 0.1166120625
0.8754699062 0.4252867500 0.1254704062
0.9008115000 0.4271032500 0.1342821250
0.9228130000 0.4282518438 0.1433481250
0.9413037500 0.4287635000 0.1521461250
0.9567313750 0.4286994687 0.1607909063
0.9704810000 0.4284100000 0.1693128750
0.0754654688 0.3820217812 0.0496690000
0.0746797500 0.3792216250 0.0487258750
0.0733768125 0.3771499375 0.0474800312
0.0708449688 0.3758149063 0.0473682812
0.0712215000 0.3749215000 0.0499316562
0.0859166563 0.3743607500 0.0559138437
0.1165105000 0.3743335313 0.0637152500
0.1631457500 0.3748487500 0.0724981250
0.2100112188 0.3762091875 0.0745990625
0.2503238750 0.3786001875 0.0733670000
0.2865245938 0.3812560312 0.0711080625
0.3208331875 0.3846629375 0.0690166250
0.3548234062 0.3885526250 0.0677581875
0.3892573437 0.3930569063 0.0672287187
0.4260629687 0.3985451875 0.0680740625
0.4639595000 0.4040642813 0.0694479375
0.5017550000 0.4092950000 0.0718014687
0.5388843438 0.4141993438 0.0748620937
0.5752990625 0.4187910000 0.0784891875
0.6110202812 0.4231650625 0.0828866562
0.6460760313 0.4272531875 0.0873245000
0.6806117812 0.4312033438 0.0925775625
0.7146565938 0.4348551563 0.0984203750
0.7482577812 0.4382982500 0.1047454688
0.7813723125 0.4414500000 0.1116501875
0.8134280938 0.4441364062 0.1192696250
0.8441031250 0.4463833125 0.1271663437
0.8725885313 0.4479655000 0.1353080312
0.8982678750 0.4489548750 0.1436445000
0.9206581875 0.4492156563 0.1516546250
0.9397588125 0.4488561875 0.1598387500
0.9560114375 0.4479163438 0.1679753438
0.9706472500 0.4467338750 0.1760064688
0.0743135625 0.4118975000 0.0538021875
0.0733098125 0.4088633750 0.0528830000
0.0712848750 0.4064520000 0.0524999375
0.0689644062 0.4047070000 0.0528621875
0.0692005625 0.4036051875 0.0552705625
0.0826577812 0.4031528125 0.0610443750
0.1106805625 0.4030523125 0.0694906875
0.1522373750 0.4031868750 0.0795168437
0.2005625000 0.4043570000 0.0845359375
0.2435329375 0.4067235312 0.0851960312
0.2823935625 0.4094533125 0.0837827500
0.3183062187 0.4126390000 0.0822127187
0.3528414375 0.4163390000 0.0811213125
0.3868816875 0.4205035000 0.0807198750
0.4217576250 0.4249545000 0.0811929375
0.4586041563 0.4300891562 0.0826095625
0.4958982500 0.4352245625 0.0848538125
0.5329452813 0.4400587188 0.0877064062
0.5695749375 0.4446170625 0.0913640625
0.6054139375 0.4488591250 0.0955950313
0.6407250000 0.4528778125 0.0999766875
0.6756147188 0.4566162500 0.1050390625
0.7100950000 0.4600868750 0.1106915000
0.7442078125 0.4632558438 0.1168225625
0.7776665625 0.4659535625 0.1236138750
0.8101258437 0.4681084063 0.1307935000
0.8410323125 0.4696770625 0.1380586250
0.8696622813 0.4705491563 0.1455439062
0.8955868750 0.4706823125 0.1530650625
0.9183470312 0.4700713750 0.1605928125
0.9381037500 0.4689005000 0.1682138125
0.9552420625 0.4671446563 0.1756061250
0.9707967500 0.4651416875 0.1829780625
0.0707046875 0.4411055313 0.0602704375
0.0696600625 0.4380935000 0.0593797187
0.0678437500 0.4356922500 0.0590703750
0.0659710313 0.4337240313 0.0593025000
0.0662857813 0.4324731562 0.0615079375
0.0786857500 0.4322073438 0.0676906562
0.1053792500 0.4323736250 0.0766438750
0.1440068125 0.4328470313 0.0867392500
0.1922083750 0.4339900000 0.0955251250
0.2383864062 0.4363794062 0.0992730313
0.2794512812 0.4391458750 0.0996433750
0.3168539375 0.4423639375 0.0988110937
0.3521387812 0.4458929375 0.0981248125
0.3865839375 0.4498951562 0.0981248125
0.4208482500 0.4537979063 0.0985377813
0.4559357187 0.4577715937 0.0995219063
0.4921151250 0.4622044375 0.1010700937
0.5284752500 0.4665176562 0.1035122500
0.5645822500 0.4707104375 0.1064810312
0.6003532812 0.4747249375 0.1098779062
0.6357921250 0.4785621250 0.1141542500
0.6709530000 0.4821346562 0.1188133125
0.7058372188 0.4853665938 0.1242516250
0.7403042188 0.4881285938 0.1300558437
0.7740292813 0.4903100938 0.1363360625
0.8066935625 0.4919083750 0.1426030000
0.8377176250 0.4927665000 0.1493420313
0.8665503438 0.4928923438 0.1559820625
0.8927176250 0.4922712813 0.1628687188
0.9158602500 0.4909358125 0.1698303438
0.9362550000 0.4889498125 0.1766046875
0.9543283125 0.4865152812 0.1836456563
0.9709799688 0.4838524063 0.1905856563
0.0633510000 0.4715245000 0.0694445000
0.0627745000 0.4686203750 0.0683848125
0.0616961875 0.4663407500 0.0681242500
0.0602615312 0.4646865312 0.0685788750
0.0614162500 0.4632166250 0.0705607500
0.0750430938 0.4623464687 0.0769721250
0.1010976875 0.4624651875 0.0864116875
0.1394893750 0.4635600000 0.0977951250
0.1885862500 0.4659835000 0.1104817500
0.2362349375 0.4685126562 0.1169919062
0.2784218125 0.4710362500 0.1190522500
0.3164934688 0.4736413125 0.1189870000
0.3519436250 0.4763872500 0.1182711250
0.3861356250 0.4793650625 0.1179775000
0.4200580625 0.4824660000 0.1176615000
0.4542479687 0.4857855937 0.1179884688
0.4891265000 0.4893385000 0.1189870000
0.5246396562 0.4930902187 0.1206206250
0.5601446875 0.4968482500 0.1230212500
0.5956280312 0.5006255313 0.1259935625
0.6310895000 0.5041920000 0.1294983750
0.6663775625 0.5074777500 0.1337934062
0.7014871875 0.5103838125 0.1385157500
0.7361618125 0.5127409375 0.1437655938
0.7701555000 0.5144185000 0.1492090000
0.8029496250 0.5154011250 0.1550168437
0.8341267500 0.5156137500 0.1607293750
0.8631018750 0.5150450313 0.1668716875
0.8894995000 0.5137712500 0.1728825000
0.9131480938 0.5117448125 0.1792199687
0.9342306875 0.5091643750 0.1856298750
0.9533102500 0.5061982500 0.1922187187
0.9711160000 0.5029360000 0.1987310000
0.0531211250 0.4998414375 0.0777272813
0.0531211250 0.4969726562 0.0767600625
0.0527843125 0.4947552500 0.0764755000
0.0534115000 0.4932155313 0.0778561875
0.0574118125 0.4923177500 0.0810190625
0.0722617500 0.4918527188 0.0879184062
0.0986252187 0.4921366250 0.0976803437
0.1371098750 0.4933990312 0.1098627812
0.1867659375 0.4961840313 0.1240679375
0.2342499063 0.4990404375 0.1331703125
0.2762209688 0.5013525938 0.1370106563
0.3145502813 0.5034735000 0.1381268438
0.3504176562 0.5056886250 0.1380240938
0.3847899062 0.5080647812 0.1376219687
0.4185636562 0.5106404375 0.1373030625
0.4524107813 0.5134203750 0.1371901875
0.4865888125 0.5164265313 0.1377620937
0.5212151250 0.5196831562 0.1387505313
0.5561568437 0.5231356250 0.1405621563
0.5912682188 0.5264718125 0.1430475313
0.6264380000 0.5297042813 0.1460216562
0.6616901562 0.5326475937 0.1495745000
0.6968399375 0.5351640000 0.1536897812
0.7316910937 0.5370509063 0.1579313750
0.7658153438 0.5382583438 0.1625320937
0.7987007812 0.5386477188 0.1674109375
0.8299771563 0.5382438750 0.1724152812
0.8591141250 0.5370544063 0.1777017812
0.8858341563 0.5351951875 0.1831264062
0.9100210000 0.5326885000 0.1889203438
0.9319837187 0.5296458125 0.1949864688
0.9521641563 0.5262827813 0.2013324062
0.9712669063 0.5226316250 0.2077208437
0.0427600625 0.5273547500 0.0872308750
0.0434851563 0.5247336250 0.0866110625
0.0445326875 0.5227778125 0.0870138125
0.0469240000 0.5214374687 0.0888644375
0.0540811875 0.5206375000 0.0928743750
0.0709977813 0.5204185000 0.0999536562
0.0982751875 0.5208415000 0.1100066875
0.1366041562 0.5221579687 0.1227311875
0.1850871250 0.5249305000 0.1370069375
0.2312507188 0.5279185625 0.1474878750
0.2727628750 0.5301337500 0.1530136250
0.3112106875 0.5320455625 0.1555679688
0.3474111250 0.5339859375 0.1565657500
0.3822128750 0.5360726563 0.1567805625
0.4163046875 0.5383685000 0.1567478125
0.4500663125 0.5407948438 0.1567403750
0.4839066250 0.5434935625 0.1570112500
