bundles/resolve-cinematic-luts/Gamut/Luxe/HTFW Luxe BW.cube
TITLE "HTFW Luxe BW by Gamut"
# Version 1.0 - 08/23/2023 - Designed for Rec.709 Color Space. Copyright 2023 Gamut, LLC.
# 
LUT_3D_SIZE 33
0.0000000000 0.0000000000 0.0000000000
0.0030212900 0.0030212900 0.0030212900
0.0070649300 0.0070649300 0.0070649300
0.0109255000 0.0109255000 0.0109255000
0.0148013000 0.0148013000 0.0148013000
0.0189212000 0.0189212000 0.0189212000
0.0229648000 0.0229648000 0.0229648000
0.0272679000 0.0272679000 0.0272679000
0.0317082000 0.0317082000 0.0317082000
0.0361334000 0.0361334000 0.0361334000
0.0405890000 0.0405890000 0.0405890000
0.0452735000 0.0452735000 0.0452735000
0.0498665000 0.0498665000 0.0498665000
0.0548257000 0.0548257000 0.0548257000
0.0597696000 0.0597696000 0.0597696000
0.0647440000 0.0647440000 0.0647440000
0.0698863000 0.0698863000 0.0698863000
0.0750591000 0.0750591000 0.0750591000
0.0802319000 0.0802319000 0.0802319000
0.0858015000 0.0858015000 0.0858015000
0.0912795000 0.0912795000 0.0912795000
0.0968338000 0.0968338000 0.0968338000
0.1026630000 0.1026630000 0.1026630000
0.1083090000 0.1083090000 0.1083090000
0.1140310000 0.1140310000 0.1140310000
0.1201800000 0.1201800000 0.1201800000
0.1261920000 0.1261920000 0.1261920000
0.1322960000 0.1322960000 0.1322960000
0.1387200000 0.1387200000 0.1387200000
0.1448840000 0.1448840000 0.1448840000
0.1511410000 0.1511410000 0.1511410000
0.1578240000 0.1578240000 0.1578240000
0.1643400000 0.1643400000 0.1643400000
0.0135500000 0.0135500000 0.0135500000
0.0174411000 0.0174411000 0.0174411000
0.0214542000 0.0214542000 0.0214542000
0.0257877000 0.0257877000 0.0257877000
0.0300908000 0.0300908000 0.0300908000
0.0344854000 0.0344854000 0.0344854000
0.0391241000 0.0391241000 0.0391241000
0.0435798000 0.0435798000 0.0435798000
0.0481422000 0.0481422000 0.0481422000
0.0530709000 0.0530709000 0.0530709000
0.0579232000 0.0579232000 0.0579232000
0.0628824000 0.0628824000 0.0628824000
0.0681315000 0.0681315000 0.0681315000
0.0731670000 0.0731670000 0.0731670000
0.0782788000 0.0782788000 0.0782788000
0.0838178000 0.0838178000 0.0838178000
0.0892348000 0.0892348000 0.0892348000
0.0948348000 0.0948348000 0.0948348000
0.1006030000 0.1006030000 0.1006030000
0.1062030000 0.1062030000 0.1062030000
0.1118790000 0.1118790000 0.1118790000
0.1179830000 0.1179830000 0.1179830000
0.1239490000 0.1239490000 0.1239490000
0.1302200000 0.1302200000 0.1302200000
0.1364460000 0.1364460000 0.1364460000
0.1425800000 0.1425800000 0.1425800000
0.1489130000 0.1489130000 0.1489130000
0.1554440000 0.1554440000 0.1554440000
0.1618980000 0.1618980000 0.1618980000
0.1687950000 0.1687950000 0.1687950000
0.1754180000 0.1754180000 0.1754180000
0.1820550000 0.1820550000 0.1820550000
0.1889980000 0.1889980000 0.1889980000
0.0284886000 0.0284886000 0.0284886000
0.0330663000 0.0330663000 0.0330663000
0.0374914000 0.0374914000 0.0374914000
0.0419318000 0.0419318000 0.0419318000
0.0466621000 0.0466621000 0.0466621000
0.0513161000 0.0513161000 0.0513161000
0.0561227000 0.0561227000 0.0561227000
0.0612802000 0.0612802000 0.0612802000
0.0662852000 0.0662852000 0.0662852000
0.0712902000 0.0712902000 0.0712902000
0.0766308000 0.0766308000 0.0766308000
0.0818341000 0.0818341000 0.0818341000
0.0872053000 0.0872053000 0.0872053000
0.0929732000 0.0929732000 0.0929732000
0.0985428000 0.0985428000 0.0985428000
0.1041280000 0.1041280000 0.1041280000
0.1100480000 0.1100480000 0.1100480000
0.1158160000 0.1158160000 0.1158160000
0.1217360000 0.1217360000 0.1217360000
0.1280690000 0.1280690000 0.1280690000
0.1341730000 0.1341730000 0.1341730000
0.1403070000 0.1403070000 0.1403070000
0.1467920000 0.1467920000 0.1467920000
0.1530790000 0.1530790000 0.1530790000
0.1596400000 0.1596400000 0.1596400000
0.1663540000 0.1663540000 0.1663540000
0.1729610000 0.1729610000 0.1729610000
0.1796440000 0.1796440000 0.1796440000
0.1865870000 0.1865870000 0.1865870000
0.1933470000 0.1933470000 0.1933470000
0.2004880000 0.2004880000 0.2004880000
0.2075070000 0.2075070000 0.2075070000
0.2145420000 0.2145420000 0.2145420000
0.0449836000 0.0449836000 0.0449836000
0.0495766000 0.0495766000 0.0495766000
0.0545510000 0.0545510000 0.0545510000
0.0594492000 0.0594492000 0.0594492000
0.0644388000 0.0644388000 0.0644388000
0.0696574000 0.0696574000 0.0696574000
0.0747387000 0.0747387000 0.0747387000
0.0798962000 0.0798962000 0.0798962000
0.0854658000 0.0854658000 0.0854658000
0.0909285000 0.0909285000 0.0909285000
0.0964675000 0.0964675000 0.0964675000
0.1023270000 0.1023270000 0.1023270000
0.1079420000 0.1079420000 0.1079420000
0.1136640000 0.1136640000 0.1136640000
0.1198140000 0.1198140000 0.1198140000
0.1258110000 0.1258110000 0.1258110000
0.1319140000 0.1319140000 0.1319140000
0.1383230000 0.1383230000 0.1383230000
0.1444880000 0.1444880000 0.1444880000
0.1507290000 0.1507290000 0.1507290000
0.1574120000 0.1574120000 0.1574120000
0.1639280000 0.1639280000 0.1639280000
0.1705200000 0.1705200000 0.1705200000
0.1774620000 0.1774620000 0.1774620000
0.1841150000 0.1841150000 0.1841150000
0.1908290000 0.1908290000 0.1908290000
0.1979860000 0.1979860000 0.1979860000
0.2049130000 0.2049130000 0.2049130000
0.2119480000 0.2119480000 0.2119480000
0.2193180000 0.2193180000 0.2193180000
0.2263830000 0.2263830000 0.2263830000
0.2334940000 0.2334940000 0.2334940000
0.2410320000 0.2410320000 0.2410320000
0.0626383000 0.0626383000 0.0626383000
0.0678264000 0.0678264000 0.0678264000
0.0728618000 0.0728618000 0.0728618000
0.0779736000 0.0779736000 0.0779736000
0.0834821000 0.0834821000 0.0834821000
0.0888838000 0.0888838000 0.0888838000
0.0945754000 0.0945754000 0.0945754000
0.1002670000 0.1002670000 0.1002670000
0.1058520000 0.1058520000 0.1058520000
0.1116200000 0.1116200000 0.1116200000
0.1176170000 0.1176170000 0.1176170000
0.1235830000 0.1235830000 0.1235830000
0.1299460000 0.1299460000 0.1299460000
0.1360650000 0.1360650000 0.1360650000
0.1422140000 0.1422140000 0.1422140000
0.1486230000 0.1486230000 0.1486230000
0.1550470000 0.1550470000 0.1550470000
0.1615010000 0.1615010000 0.1615010000
0.1683990000 0.1683990000 0.1683990000
0.1750060000 0.1750060000 0.1750060000
0.1816430000 0.1816430000 0.1816430000
0.1886630000 0.1886630000 0.1886630000
0.1954530000 0.1954530000 0.1954530000
0.2023350000 0.2023350000 0.2023350000
0.2096740000 0.2096740000 0.2096740000
0.2167090000 0.2167090000 0.2167090000
0.2237740000 0.2237740000 0.2237740000
0.2312050000 0.2312050000 0.2312050000
0.2383610000 0.2383610000 0.2383610000
0.2456090000 0.2456090000 0.2456090000
0.2533000000 0.2533000000 0.2533000000
0.2606550000 0.2606550000 0.2606550000
0.2680250000 0.2680250000 0.2680250000
0.0815137000 0.0815137000 0.0815137000
0.0868696000 0.0868696000 0.0868696000
0.0926223000 0.0926223000 0.0926223000
0.0981918000 0.0981918000 0.0981918000
0.1037770000 0.1037770000 0.1037770000
0.1096970000 0.1096970000 0.1096970000
0.1154500000 0.1154500000 0.1154500000
0.1214620000 0.1214620000 0.1214620000
0.1276870000 0.1276870000 0.1276870000
0.1337910000 0.1337910000 0.1337910000
0.1399560000 0.1399560000 0.1399560000
0.1464100000 0.1464100000 0.1464100000
0.1526820000 0.1526820000 0.1526820000
0.1593350000 0.1593350000 0.1593350000
0.1659570000 0.1659570000 0.1659570000
0.1725640000 0.1725640000 0.1725640000
0.1793390000 0.1793390000 0.1793390000
0.1861750000 0.1861750000 0.1861750000
0.1929200000 0.1929200000 0.1929200000
0.2001070000 0.2001070000 0.2001070000
0.2070800000 0.2070800000 0.2070800000
0.2141150000 0.2141150000 0.2141150000
0.2214390000 0.2214390000 0.2214390000
0.2285800000 0.2285800000 0.2285800000
0.2357060000 0.2357060000 0.2357060000
0.2432750000 0.2432750000 0.2432750000
0.2505680000 0.2505680000 0.2505680000
0.2579390000 0.2579390000 0.2579390000
0.2656600000 0.2656600000 0.2656600000
0.2730450000 0.2730450000 0.2730450000
0.2804610000 0.2804610000 0.2804610000
0.2883040000 0.2883040000 0.2883040000
0.2958270000 0.2958270000 0.2958270000
0.1019760000 0.1019760000 0.1019760000
0.1075910000 0.1075910000 0.1075910000
0.1132980000 0.1132980000 0.1132980000
0.1194480000 0.1194480000 0.1194480000
0.1254440000 0.1254440000 0.1254440000
0.1315330000 0.1315330000 0.1315330000
0.1379570000 0.1379570000 0.1379570000
0.1441060000 0.1441060000 0.1441060000
0.1503470000 0.1503470000 0.1503470000
0.1570150000 0.1570150000 0.1570150000
0.1635160000 0.1635160000 0.1635160000
0.1701080000 0.1701080000 0.1701080000
0.1770500000 0.1770500000 0.1770500000
0.1837030000 0.1837030000 0.1837030000
0.1904170000 0.1904170000 0.1904170000
0.1975590000 0.1975590000 0.1975590000
0.2045010000 0.2045010000 0.2045010000
0.2115660000 0.2115660000 0.2115660000
0.2188910000 0.2188910000 0.2188910000
0.2259560000 0.2259560000 0.2259560000
0.2330510000 0.2330510000 0.2330510000
0.2405890000 0.2405890000 0.2405890000
0.2478680000 0.2478680000 0.2478680000
0.2554210000 0.2554210000 0.2554210000
0.2629280000 0.2629280000 0.2629280000
0.2702980000 0.2702980000 0.2702980000
0.2778210000 0.2778210000 0.2778210000
0.2855270000 0.2855270000 0.2855270000
0.2930340000 0.2930340000 0.2930340000
0.3009540000 0.3009540000 0.3009540000
0.3085370000 0.3085370000 0.3085370000
0.3161210000 0.3161210000 0.3161210000
0.3239490000 0.3239490000 0.3239490000
0.1232170000 0.1232170000 0.1232170000
0.1295640000 0.1295640000 0.1295640000
0.1356830000 0.1356830000 0.1356830000
0.1418330000 0.1418330000 0.1418330000
0.1483330000 0.1483330000 0.1483330000
0.1546500000 0.1546500000 0.1546500000
0.1611050000 0.1611050000 0.1611050000
0.1679870000 0.1679870000 0.1679870000
0.1746090000 0.1746090000 0.1746090000
0.1812310000 0.1812310000 0.1812310000
0.1882510000 0.1882510000 0.1882510000
0.1950260000 0.1950260000 0.1950260000
0.2019230000 0.2019230000 0.2019230000
0.2092470000 0.2092470000 0.2092470000
0.2162810000 0.2162810000 0.2162810000
0.2233310000 0.2233310000 0.2233310000
0.2307620000 0.2307620000 0.2307620000
0.2379190000 0.2379190000 0.2379190000
0.2451670000 0.2451670000 0.2451670000
0.2528420000 0.2528420000 0.2528420000
0.2601970000 0.2601970000 0.2601970000
0.2675670000 0.2675670000 0.2675670000
0.2753340000 0.2753340000 0.2753340000
0.2827650000 0.2827650000 0.2827650000
0.2903790000 0.2903790000 0.2903790000
0.2981610000 0.2981610000 0.2981610000
0.3057300000 0.3057300000 0.3057300000
0.3133130000 0.3133130000 0.3133130000
0.3212630000 0.3212630000 0.3212630000
0.3288620000 0.3288620000 0.3288620000
0.3367510000 0.3367510000 0.3367510000
0.3445030000 0.3445030000 0.3445030000
0.3521630000 0.3521630000 0.3521630000
0.1460290000 0.1460290000 0.1460290000
0.1523000000 0.1523000000 0.1523000000
0.1590140000 0.1590140000 0.1590140000
0.1655450000 0.1655450000 0.1655450000
0.1721520000 0.1721520000 0.1721520000
0.1790340000 0.1790340000 0.1790340000
0.1857630000 0.1857630000 0.1857630000
0.1925080000 0.1925080000 0.1925080000
0.1996950000 0.1996950000 0.1996950000
0.2066530000 0.2066530000 0.2066530000
0.2136720000 0.2136720000 0.2136720000
0.2210570000 0.2210570000 0.2210570000
0.2281380000 0.2281380000 0.2281380000
0.2352640000 0.2352640000 0.2352640000
0.2428320000 0.2428320000 0.2428320000
0.2501260000 0.2501260000 0.2501260000
0.2574810000 0.2574810000 0.2574810000
0.2652020000 0.2652020000 0.2652020000
0.2725870000 0.2725870000 0.2725870000
0.2800030000 0.2800030000 0.2800030000
0.2878460000 0.2878460000 0.2878460000
0.2953690000 0.2953690000 0.2953690000
0.3029370000 0.3029370000 0.3029370000
0.3108720000 0.3108720000 0.3108720000
0.3184560000 0.3184560000 0.3184560000
0.3260550000 0.3260550000 0.3260550000
0.3340350000 0.3340350000 0.3340350000
0.3416650000 0.3416650000 0.3416650000
0.3493250000 0.3493250000 0.3493250000
0.3573510000 0.3573510000 0.3573510000
0.3650110000 0.3650110000 0.3650110000
0.3726560000 0.3726560000 0.3726560000
0.3806670000 0.3806670000 0.3806670000
0.1697410000 0.1697410000 0.1697410000
0.1766540000 0.1766540000 0.1766540000
0.1832910000 0.1832910000 0.1832910000
0.1899900000 0.1899900000 0.1899900000
0.1971310000 0.1971310000 0.1971310000
0.2040590000 0.2040590000 0.2040590000
0.2112460000 0.2112460000 0.2112460000
0.2184480000 0.2184480000 0.2184480000
0.2255130000 0.2255130000 0.2255130000
0.2326850000 0.2326850000 0.2326850000
0.2401460000 0.2401460000 0.2401460000
0.2474250000 0.2474250000 0.2474250000
0.2550700000 0.2550700000 0.2550700000
0.2624700000 0.2624700000 0.2624700000
0.2698560000 0.2698560000 0.2698560000
0.2774700000 0.2774700000 0.2774700000
0.2850690000 0.2850690000 0.2850690000
0.2925760000 0.2925760000 0.2925760000
0.3004960000 0.3004960000 0.3004960000
0.3080640000 0.3080640000 0.3080640000
0.3156480000 0.3156480000 0.3156480000
0.3235980000 0.3235980000 0.3235980000
0.3312120000 0.3312120000 0.3312120000
0.3388420000 0.3388420000 0.3388420000
0.3468530000 0.3468530000 0.3468530000
0.3545130000 0.3545130000 0.3545130000
0.3621730000 0.3621730000 0.3621730000
0.3701990000 0.3701990000 0.3701990000
0.3778440000 0.3778440000 0.3778440000
0.3854730000 0.3854730000 0.3854730000
0.3934690000 0.3934690000 0.3934690000
0.4010990000 0.4010990000 0.4010990000
0.4087280000 0.4087280000 0.4087280000
0.1946140000 0.1946140000 0.1946140000
0.2014950000 0.2014950000 0.2014950000
0.2088040000 0.2088040000 0.2088040000
0.2158390000 0.2158390000 0.2158390000
0.2229040000 0.2229040000 0.2229040000
0.2303200000 0.2303200000 0.2303200000
0.2374760000 0.2374760000 0.2374760000
0.2448160000 0.2448160000 0.2448160000
0.2523840000 0.2523840000 0.2523840000
0.2597540000 0.2597540000 0.2597540000
0.2671240000 0.2671240000 0.2671240000
0.2748760000 0.2748760000 0.2748760000
0.2823070000 0.2823070000 0.2823070000
0.2900280000 0.2900280000 0.2900280000
0.2977040000 0.2977040000 0.2977040000
0.3052720000 0.3052720000 0.3052720000
0.3129630000 0.3129630000 0.3129630000
0.3207900000 0.3207900000 0.3207900000
0.3283890000 0.3283890000 0.3283890000
0.3363850000 0.3363850000 0.3363850000
0.3440300000 0.3440300000 0.3440300000
0.3516900000 0.3516900000 0.3516900000
0.3596090000 0.3596090000 0.3596090000
0.3673610000 0.3673610000 0.3673610000
0.3750210000 0.3750210000 0.3750210000
0.3830170000 0.3830170000 0.3830170000
0.3906460000 0.3906460000 0.3906460000
0.3982760000 0.3982760000 0.3982760000
0.4062710000 0.4062710000 0.4062710000
0.4138860000 0.4138860000 0.4138860000
0.4214850000 0.4214850000 0.4214850000
0.4294190000 0.4294190000 0.4294190000
0.4369420000 0.4369420000 0.4369420000
0.2206300000 0.2206300000 0.2206300000
0.2276950000 0.2276950000 0.2276950000
0.2348210000 0.2348210000 0.2348210000
0.2423740000 0.2423740000 0.2423740000
0.2496680000 0.2496680000 0.2496680000
0.2570230000 0.2570230000 0.2570230000
0.2647440000 0.2647440000 0.2647440000
0.2721290000 0.2721290000 0.2721290000
0.2795450000 0.2795450000 0.2795450000
0.2873730000 0.2873730000 0.2873730000
0.2948960000 0.2948960000 0.2948960000
0.3024640000 0.3024640000 0.3024640000
0.3103990000 0.3103990000 0.3103990000
0.3179830000 0.3179830000 0.3179830000
0.3255820000 0.3255820000 0.3255820000
0.3335620000 0.3335620000 0.3335620000
0.3411920000 0.3411920000 0.3411920000
0.3488820000 0.3488820000 0.3488820000
0.3568780000 0.3568780000 0.3568780000
0.3645380000 0.3645380000 0.3645380000
0.3721830000 0.3721830000 0.3721830000
0.3801940000 0.3801940000 0.3801940000
0.3878230000 0.3878230000 0.3878230000
0.3956360000 0.3956360000 0.3956360000
0.4034490000 0.4034490000 0.4034490000
0.4110780000 0.4110780000 0.4110780000
0.4187380000 0.4187380000 0.4187380000
0.4266270000 0.4266270000 0.4266270000
0.4341650000 0.4341650000 0.4341650000
0.4419930000 0.4419930000 0.4419930000
0.4495770000 0.4495770000 0.4495770000
0.4571300000 0.4571300000 0.4571300000
0.4648660000 0.4648660000 0.4648660000
0.2469670000 0.2469670000 0.2469670000
0.2546580000 0.2546580000 0.2546580000
0.2620130000 0.2620130000 0.2620130000
0.2693980000 0.2693980000 0.2693980000
0.2771190000 0.2771190000 0.2771190000
0.2846110000 0.2846110000 0.2846110000
0.2921190000 0.2921190000 0.2921190000
0.3000230000 0.3000230000 0.3000230000
0.3076070000 0.3076070000 0.3076070000
0.3151750000 0.3151750000 0.3151750000
0.3231400000 0.3231400000 0.3231400000
0.3307390000 0.3307390000 0.3307390000
0.3383690000 0.3383690000 0.3383690000
0.3463950000 0.3463950000 0.3463950000
0.3540400000 0.3540400000 0.3540400000
0.3617000000 0.3617000000 0.3617000000
0.3697260000 0.3697260000 0.3697260000
0.3773710000 0.3773710000 0.3773710000
0.3850000000 0.3850000000 0.3850000000
0.3929960000 0.3929960000 0.3929960000
0.4006260000 0.4006260000 0.4006260000
0.4082550000 0.4082550000 0.4082550000
0.4162360000 0.4162360000 0.4162360000
0.4238190000 0.4238190000 0.4238190000
0.4314640000 0.4314640000 0.4314640000
0.4392610000 0.4392610000 0.4392610000
0.4467840000 0.4467840000 0.4467840000
0.4543370000 0.4543370000 0.4543370000
0.4622420000 0.4622420000 0.4622420000
0.4697180000 0.4697180000 0.4697180000
0.4773020000 0.4773020000 0.4773020000
0.4846880000 0.4846880000 0.4846880000
0.4918290000 0.4918290000 0.4918290000
0.2744180000 0.2744180000 0.2744180000
0.2818490000 0.2818490000 0.2818490000
0.2896770000 0.2896770000 0.2896770000
0.2972300000 0.2972300000 0.2972300000
0.3047990000 0.3047990000 0.3047990000
0.3126120000 0.3126120000 0.3126120000
0.3203330000 0.3203330000 0.3203330000
0.3279160000 0.3279160000 0.3279160000
0.3359120000 0.3359120000 0.3359120000
0.3435570000 0.3435570000 0.3435570000
0.3512170000 0.3512170000 0.3512170000
0.3592430000 0.3592430000 0.3592430000
0.3669030000 0.3669030000 0.3669030000
0.3745480000 0.3745480000 0.3745480000
0.3825590000 0.3825590000 0.3825590000
0.3901730000 0.3901730000 0.3901730000
0.3978030000 0.3978030000 0.3978030000
0.4057980000 0.4057980000 0.4057980000
0.4134130000 0.4134130000 0.4134130000
0.4210270000 0.4210270000 0.4210270000
0.4289460000 0.4289460000 0.4289460000
0.4364840000 0.4364840000 0.4364840000
0.4440070000 0.4440070000 0.4440070000
0.4519110000 0.4519110000 0.4519110000
0.4594490000 0.4594490000 0.4594490000
0.4669570000 0.4669570000 0.4669570000
0.4747390000 0.4747390000 0.4747390000
0.4820170000 0.4820170000 0.4820170000
0.4892040000 0.4892040000 0.4892040000
0.4966350000 0.4966350000 0.4966350000
0.5036390000 0.5036390000 0.5036390000
0.5105670000 0.5105670000 0.5105670000
0.5177080000 0.5177080000 0.5177080000
0.3020070000 0.3020070000 0.3020070000
0.3099410000 0.3099410000 0.3099410000
0.3175250000 0.3175250000 0.3175250000
0.3251090000 0.3251090000 0.3251090000
0.3330890000 0.3330890000 0.3330890000
0.3407340000 0.3407340000 0.3407340000
0.3485310000 0.3485310000 0.3485310000
0.3564050000 0.3564050000 0.3564050000
0.3640650000 0.3640650000 0.3640650000
0.3717560000 0.3717560000 0.3717560000
0.3797210000 0.3797210000 0.3797210000
0.3873500000 0.3873500000 0.3873500000
0.3952850000 0.3952850000 0.3952850000
0.4029750000 0.4029750000 0.4029750000
0.4106050000 0.4106050000 0.4106050000
0.4184020000 0.4184020000 0.4184020000
0.4261540000 0.4261540000 0.4261540000
0.4336920000 0.4336920000 0.4336920000
0.4415810000 0.4415810000 0.4415810000
0.4491190000 0.4491190000 0.4491190000
0.4566720000 0.4566720000 0.4566720000
0.4645150000 0.4645150000 0.4645150000
0.4720070000 0.4720070000 0.4720070000
0.4793470000 0.4793470000 0.4793470000
0.4869000000 0.4869000000 0.4869000000
0.4940110000 0.4940110000 0.4940110000
0.5010600000 0.5010600000 0.5010600000
0.5083540000 0.5083540000 0.5083540000
0.5152060000 0.5152060000 0.5152060000
0.5219350000 0.5219350000 0.5219350000
0.5288930000 0.5288930000 0.5288930000
0.5354700000 0.5354700000 0.5354700000
0.5420000000 0.5420000000 0.5420000000
0.3302820000 0.3302820000 0.3302820000
0.3378960000 0.3378960000 0.3378960000
0.3459220000 0.3459220000 0.3459220000
0.3535670000 0.3535670000 0.3535670000
0.3612270000 0.3612270000 0.3612270000
0.3692530000 0.3692530000 0.3692530000
0.3768980000 0.3768980000 0.3768980000
0.3845880000 0.3845880000 0.3845880000
0.3925230000 0.3925230000 0.3925230000
0.4001530000 0.4001530000 0.4001530000
0.4077820000 0.4077820000 0.4077820000
0.4157630000 0.4157630000 0.4157630000
0.4233620000 0.4233620000 0.4233620000
0.4311130000 0.4311130000 0.4311130000
0.4387880000 0.4387880000 0.4387880000
0.4463260000 0.4463260000 0.4463260000
0.4539560000 0.4539560000 0.4539560000
0.4617840000 0.4617840000 0.4617840000
0.4692610000 0.4692610000 0.4692610000
0.4769670000 0.4769670000 0.4769670000
0.4842450000 0.4842450000 0.4842450000
0.4914020000 0.4914020000 0.4914020000
0.4986800000 0.4986800000 0.4986800000
0.5057910000 0.5057910000 0.5057910000
0.5126730000 0.5126730000 0.5126730000
0.5197830000 0.5197830000 0.5197830000
0.5264520000 0.5264520000 0.5264520000
0.5330430000 0.5330430000 0.5330430000
0.5398950000 0.5398950000 0.5398950000
0.5463800000 0.5463800000 0.5463800000
0.5527730000 0.5527730000 0.5527730000
0.5593800000 0.5593800000 0.5593800000
0.5655910000 0.5655910000 0.5655910000
0.3587700000 0.3587700000 0.3587700000
0.3664300000 0.3664300000 0.3664300000
0.3740750000 0.3740750000 0.3740750000
0.3820860000 0.3820860000 0.3820860000
0.3897150000 0.3897150000 0.3897150000
0.3973300000 0.3973300000 0.3973300000
0.4053250000 0.4053250000 0.4053250000
0.4129550000 0.4129550000 0.4129550000
0.4205540000 0.4205540000 0.4205540000
0.4284890000 0.4284890000 0.4284890000
0.4360110000 0.4360110000 0.4360110000
0.4435340000 0.4435340000 0.4435340000
0.4514380000 0.4514380000 0.4514380000
0.4589910000 0.4589910000 0.4589910000
0.4664990000 0.4664990000 0.4664990000
0.4742810000 0.4742810000 0.4742810000
0.4815750000 0.4815750000 0.4815750000
0.4887620000 0.4887620000 0.4887620000
0.4961930000 0.4961930000 0.4961930000
0.5032120000 0.5032120000 0.5032120000
0.5101400000 0.5101400000 0.5101400000
0.5172960000 0.5172960000 0.5172960000
0.5239950000 0.5239950000 0.5239950000
0.5307240000 0.5307240000 0.5307240000
0.5374840000 0.5374840000 0.5374840000
0.5439840000 0.5439840000 0.5439840000
0.5504540000 0.5504540000 0.5504540000
0.5570610000 0.5570610000 0.5570610000
0.5633020000 0.5633020000 0.5633020000
0.5696800000 0.5696800000 0.5696800000
0.5758600000 0.5758600000 0.5758600000
0.5819330000 0.5819330000 0.5819330000
0.5880830000 0.5880830000 0.5880830000
0.3868920000 0.3868920000 0.3868920000
0.3948730000 0.3948730000 0.3948730000
0.4025020000 0.4025020000 0.4025020000
0.4101320000 0.4101320000 0.4101320000
0.4180360000 0.4180360000 0.4180360000
0.4256960000 0.4256960000 0.4256960000
0.4332340000 0.4332340000 0.4332340000
0.4411230000 0.4411230000 0.4411230000
0.4486460000 0.4486460000 0.4486460000
0.4561990000 0.4561990000 0.4561990000
0.4640880000 0.4640880000 0.4640880000
0.4715500000 0.4715500000 0.4715500000
0.4788890000 0.4788890000 0.4788890000
0.4864580000 0.4864580000 0.4864580000
0.4935840000 0.4935840000 0.4935840000
0.5006180000 0.5006180000 0.5006180000
0.5079270000 0.5079270000 0.5079270000
0.5147780000 0.5147780000 0.5147780000
0.5215230000 0.5215230000 0.5215230000
0.5284960000 0.5284960000 0.5284960000
0.5350580000 0.5350580000 0.5350580000
0.5415880000 0.5415880000 0.5415880000
0.5483630000 0.5483630000 0.5483630000
0.5547260000 0.5547260000 0.5547260000
0.5610440000 0.5610440000 0.5610440000
0.5674830000 0.5674830000 0.5674830000
0.5736020000 0.5736020000 0.5736020000
0.5796900000 0.5796900000 0.5796900000
0.5860230000 0.5860230000 0.5860230000
0.5919890000 0.5919890000 0.5919890000
0.5978640000 0.5978640000 0.5978640000
0.6034790000 0.6034790000 0.6034790000
0.6088040000 0.6088040000 0.6088040000
0.4153050000 0.4153050000 0.4153050000
0.4228890000 0.4228890000 0.4228890000
0.4307620000 0.4307620000 0.4307620000
0.4383310000 0.4383310000 0.4383310000
0.4458530000 0.4458530000 0.4458530000
0.4536050000 0.4536050000 0.4536050000
0.4613110000 0.4613110000 0.4613110000
0.4688030000 0.4688030000 0.4688030000
0.4765390000 0.4765390000 0.4765390000
0.4838030000 0.4838030000 0.4838030000
0.4909590000 0.4909590000 0.4909590000
0.4983440000 0.4983440000 0.4983440000
0.5053640000 0.5053640000 0.5053640000
0.5122610000 0.5122610000 0.5122610000
0.5193710000 0.5193710000 0.5193710000
0.5260400000 0.5260400000 0.5260400000
0.5326310000 0.5326310000 0.5326310000
