bundles/resolve-cinematic-luts/Gamut/Luxe/HTFW Luxe TOOL - Interior HSL.cube
TITLE "HTFW Luxe TOOL - Interior HSL by Gamut"
# Version 1.0 - 08/23/2023 - Designed for Rec.709 Color Space. Copyright 2023 Gamut, LLC.
LUT_3D_SIZE 5
0.0000000000 0.0000000000 0.0000000000
0.2415960000 0.0000000000 0.0004272530
0.5290300000 0.0000000000 0.0000000000
0.8227820000 0.0000000000 0.0000000000
1.0000000000 0.0000000000 0.0000000000
0.0077821000 0.2469980000 0.0077821000
0.2489200000 0.2488140000 0.0174868000
0.5094380000 0.2506450000 0.0027924000
0.7945070000 0.2427860000 0.0000000000
1.0000000000 0.2305180000 0.0000000000
0.0000000000 0.5117420000 0.0000000000
0.2437170000 0.5056380000 0.0000000000
0.5032270000 0.5031510000 0.0000000000
0.7733270000 0.5012590000 0.0000000000
1.0000000000 0.4981770000 0.0000000000
0.0000000000 0.7786530000 0.0000000000
0.2165560000 0.7698480000 0.0000000000
0.4893110000 0.7630270000 0.0000000000
0.7580530000 0.7580220000 0.0000000000
1.0000000000 0.7540860000 0.0000000000
0.0000000000 1.0000000000 0.0000000000
0.1812160000 1.0000000000 0.0000000000
0.4618600000 1.0000000000 0.0000000000
0.7387200000 1.0000000000 0.0000000000
1.0000000000 1.0000000000 0.0000000000
0.0000000000 0.0000000000 0.2381170000
0.2405890000 0.0013733100 0.2405890000
0.5197220000 0.0000000000 0.2539560000
0.8134740000 0.0000000000 0.2512090000
1.0000000000 0.0000000000 0.2472570000
0.0075989900 0.2468300000 0.2468150000
0.2492870000 0.2492870000 0.2492870000
0.4963610000 0.2461590000 0.2464790000
0.7799800000 0.2376900000 0.2418860000
1.0000000000 0.2232390000 0.2301370000
0.0000000000 0.5067830000 0.2434730000
0.2579690000 0.4972000000 0.2579690000
0.4993210000 0.4989090000 0.2659950000
0.7556730000 0.5014420000 0.2582280000
1.0000000000 0.4967420000 0.2408330000
0.0000000000 0.7725640000 0.2182350000
0.2251160000 0.7619590000 0.2251160000
0.4952010000 0.7547880000 0.2427860000
0.7523160000 0.7523610000 0.2512700000
1.0000000000 0.7512930000 0.2440680000
0.0000000000 1.0000000000 0.1843440000
0.1869380000 1.0000000000 0.1869380000
0.4676580000 1.0000000000 0.1994510000
0.7401690000 1.0000000000 0.2204010000
1.0000000000 1.0000000000 0.2335850000
0.0000000000 0.0000000000 0.5310750000
0.2557110000 0.0000000000 0.5190200000
0.5236590000 0.0000000000 0.5236590000
0.8077670000 0.0000000000 0.5305260000
1.0000000000 0.0000000000 0.5281910000
0.0000000000 0.2498970000 0.5132070000
0.2491040000 0.2491040000 0.4883340000
0.4908220000 0.2515910000 0.4908220000
0.7704280000 0.2379340000 0.5044790000
1.0000000000 0.2056920000 0.5003280000
0.0000000000 0.5069350000 0.5069200000
0.2577860000 0.4970170000 0.4970170000
0.4995040000 0.4995040000 0.4995040000
0.7628290000 0.4892190000 0.4853130000
1.0000000000 0.4821700000 0.4844740000
0.0000000000 0.7694970000 0.4923170000
0.2303500000 0.7570000000 0.4936750000
0.5081860000 0.7474170000 0.5081860000
0.7512020000 0.7498130000 0.5087210000
1.0000000000 0.7481190000 0.4860300000
0.0000000000 1.0000000000 0.4668960000
0.1912870000 1.0000000000 0.4684520000
0.4753340000 1.0000000000 0.4753340000
0.7451130000 1.0000000000 0.4884870000
1.0000000000 1.0000000000 0.4851910000
0.0000000000 0.0000000000 0.8309300000
0.2614180000 0.0000000000 0.8157470000
0.5330280000 0.0000000000 0.8101930000
0.8120550000 0.0000000000 0.8120550000
1.0000000000 0.0000000000 0.8146490000
0.0000000000 0.2486920000 0.8030210000
0.2444650000 0.2444650000 0.7812920000
0.5059280000 0.2426180000 0.7692530000
0.7738920000 0.2370490000 0.7738920000
1.0000000000 0.2264290000 0.7807580000
0.0000000000 0.5075610000 0.7847260000
0.2367740000 0.5000990000 0.7634090000
0.4993210000 0.4993210000 0.7385520000
0.7410390000 0.5018080000 0.7410390000
1.0000000000 0.4904710000 0.7551080000
0.0000000000 0.7686270000 0.7686120000
0.2202950000 0.7571370000 0.7571370000
0.5034100000 0.7479060000 0.7479060000
0.7497220000 0.7497220000 0.7497220000
1.0000000000 0.7327690000 0.7280230000
0.0000000000 1.0000000000 0.7474940000
0.1882050000 1.0000000000 0.7425350000
0.4805830000 1.0000000000 0.7438930000
0.7513390000 1.0000000000 0.7512630000
1.0000000000 1.0000000000 0.7490810000
0.0000000000 0.0000000000 1.0000000000
0.2622570000 0.0000000000 1.0000000000
0.5390250000 0.0000000000 1.0000000000
0.8182500000 0.0000000000 1.0000000000
1.0000000000 0.0000000000 1.0000000000
0.0000000000 0.2454720000 1.0000000000
0.2392460000 0.2392460000 1.0000000000
0.5116500000 0.2344850000 1.0000000000
0.7832460000 0.2289160000 1.0000000000
1.0000000000 0.2203400000 1.0000000000
0.0000000000 0.5064160000 1.0000000000
0.2217290000 0.4988940000 1.0000000000
0.4946670000 0.4946670000 1.0000000000
0.7561760000 0.4928510000 1.0000000000
1.0000000000 0.4872660000 1.0000000000
0.0000000000 0.7679100000 1.0000000000
0.2034490000 0.7577780000 1.0000000000
0.4870220000 0.7503470000 1.0000000000
0.7492490000 0.7492490000 0.9894710000
0.9970860000 0.7445790000 0.9970400000
0.0000000000 1.0000000000 1.0000000000
0.1769130000 1.0000000000 1.0000000000
0.4705270000 1.0000000000 1.0000000000
0.7380030000 1.0000000000 1.0000000000
0.9999690000 0.9999690000 0.9999690000
