bundles/resolve-cinematic-luts/Gamut/Luxe/HTFW Luxe 03.cube
TITLE "HTFW Luxe 03 by Gamut"
# Version 1.0 - 08/23/2023 - Designed for Rec.709 Color Space. Copyright 2023 Gamut, LLC.
LUT_3D_SIZE 33
0.0015770000 0.0070970000 0.0102510000
0.0046324375 0.0070970000 0.0110400000
0.0230655625 0.0063582500 0.0079845625
0.0358304688 0.0063090000 0.0078860000
0.0454355000 0.0063090000 0.0085755000
0.0602928437 0.0077627188 0.0107935938
0.0840106875 0.0120256250 0.0145393750
0.1161013750 0.0222771250 0.0198130625
0.1614027500 0.0395992500 0.0287830000
0.2095100625 0.0558859688 0.0367430313
0.2560941875 0.0675549375 0.0450356875
0.3089461250 0.0724230312 0.0533575625
0.3573651250 0.0764098750 0.0618388750
0.4063355625 0.0812646875 0.0712101562
0.4562289375 0.0881473125 0.0795883750
0.5119538750 0.1014426250 0.0877353125
0.5647455000 0.1142675000 0.0952775000
0.6157200000 0.1300509062 0.1017593125
0.6682196250 0.1506186250 0.1080149375
0.7213004375 0.1718202187 0.1155691875
0.7741525000 0.1945028750 0.1261568750
0.8246074063 0.2200132500 0.1397753125
0.8684594375 0.2456198125 0.1550393125
0.9041060312 0.2696744375 0.1707019375
0.9326087500 0.2920105000 0.1864090000
0.9543274688 0.3126463437 0.2022260000
0.9699829375 0.3313705625 0.2179649375
0.9808377187 0.3483620937 0.2340410313
0.9881515000 0.3639342500 0.2501845000
0.9929745000 0.3781934375 0.2665886875
0.9961723750 0.3914045000 0.2830561875
0.9982555625 0.4039466562 0.2998122187
0.9998120000 0.4159850000 0.3164790000
0.0108921562 0.0179398750 0.0063582813
0.0216610625 0.0194675937 0.0048295937
0.0371126875 0.0179645312 0.0055446250
0.0508893750 0.0171518437 0.0070477500
0.0613209063 0.0178905625 0.0085755000
0.0781905000 0.0221296250 0.0115578125
0.1060060938 0.0303355625 0.0160917500
0.1420859375 0.0408055625 0.0227451875
0.1877669063 0.0556616250 0.0318879687
0.2363263438 0.0710511875 0.0398391250
0.2851350000 0.0793940312 0.0483090625
0.3369098437 0.0834315000 0.0564990625
0.3838806875 0.0882431250 0.0655631875
0.4336042500 0.0952233750 0.0745496562
0.4839895312 0.1043945313 0.0832903750
0.5361430000 0.1169595312 0.0900845000
0.5868204375 0.1308521562 0.0978735000
0.6368090937 0.1482954687 0.1047376563
0.6880975000 0.1683391250 0.1127200000
0.7390595312 0.1889502812 0.1216366563
0.7893161562 0.2115562188 0.1327111250
0.8357290937 0.2354955313 0.1457292500
0.8759383125 0.2590150000 0.1598580313
0.9097848750 0.2815433438 0.1747000938
0.9371124375 0.3027450312 0.1900601875
0.9578054688 0.3222688750 0.2056980000
0.9726167813 0.3402389688 0.2214348437
0.9827627812 0.3566309062 0.2374523438
0.9895345000 0.3716935312 0.2537802188
0.9939145625 0.3854281875 0.2702127187
0.9966953438 0.3982619688 0.2870491562
0.9985431563 0.4103836563 0.3039000625
0.9998643125 0.4219625000 0.3205395000
0.0164121250 0.0348945625 0.0077874375
0.0280193438 0.0364715938 0.0077627813
0.0447901250 0.0387882500 0.0085261875
0.0595764062 0.0387636250 0.0092904687
0.0766010000 0.0393791875 0.0115331875
0.0967644062 0.0448732187 0.0145147500
0.1289168750 0.0565879375 0.0198130000
0.1699831250 0.0678292500 0.0266389062
0.2151747500 0.0797980000 0.0344016875
0.2602800625 0.0888660625 0.0426686875
0.3109930625 0.0929897500 0.0503638750
0.3587627500 0.0961708438 0.0583502500
0.4040952500 0.1008219375 0.0672079375
0.4521157188 0.1082414063 0.0762477813
0.5019040625 0.1184669375 0.0844433750
0.5512222812 0.1304888750 0.0907801563
0.6010250625 0.1459203125 0.0996728125
0.6504852812 0.1639932813 0.1071250313
0.7006653750 0.1840324375 0.1158278125
0.7509254687 0.2046083750 0.1254435937
0.7992331250 0.2266767500 0.1369669375
0.8433253438 0.2495746875 0.1496761250
0.8817989375 0.2717834375 0.1633726250
0.9145206250 0.2930566875 0.1778923750
0.9409288750 0.3132375625 0.1931146875
0.9608507813 0.3319953438 0.2086779687
0.9749795000 0.3491725625 0.2244231250
0.9845203750 0.3648383125 0.2406562500
0.9907991875 0.3793765000 0.2571548750
0.9947516250 0.3927015625 0.2736447188
0.9972444375 0.4050903750 0.2906259375
0.9988045312 0.4168110938 0.3076020000
0.9999410000 0.4280930000 0.3243363125
0.0211440625 0.0496137500 0.0101031563
0.0349191875 0.0528607188 0.0116071875
0.0489642188 0.0565596250 0.0123951875
0.0667592500 0.0605840938 0.0138983125
0.0824363750 0.0617010625 0.0147611875
0.1068081563 0.0643191250 0.0176687813
0.1434489688 0.0764714687 0.0229177813
0.1866790313 0.0863475312 0.0297437500
0.2307859063 0.0960728437 0.0367922812
0.2757625625 0.1032265000 0.0443495313
0.3262571562 0.1052309062 0.0512315937
0.3723762812 0.1093211250 0.0589968750
0.4177152813 0.1154430938 0.0677727500
0.4648515625 0.1230649375 0.0763119688
0.5134130625 0.1333754688 0.0847680937
0.5616235938 0.1457187812 0.0915933750
0.6104575937 0.1610314687 0.1000915000
0.6591295937 0.1791691563 0.1084313750
0.7083107813 0.1988120625 0.1178433437
0.7574724063 0.2188386875 0.1277849375
0.8046517187 0.2407097812 0.1392805625
0.8477413438 0.2627591562 0.1519236875
0.8856223437 0.2840389375 0.1657891562
0.9178810938 0.3043805937 0.1801024375
0.9437213750 0.3235950312 0.1952498438
0.9630973438 0.3414756250 0.2107680937
0.9767888437 0.3579151875 0.2266715625
0.9859480000 0.3731033437 0.2430410000
0.9918037500 0.3870439063 0.2596677500
0.9954595000 0.3998966562 0.2765110000
0.9976433437 0.4118577500 0.2935519375
0.9989655625 0.4231836250 0.3106722500
0.9999460000 0.4341872500 0.3276580312
0.0212920000 0.0636357500 0.0132088750
0.0410734062 0.0718078125 0.0154507187
0.0547351250 0.0757160625 0.0169546250
0.0709859375 0.0790850938 0.0177673750
0.0889218750 0.0831403750 0.0193197500
0.1121858750 0.0861329687 0.0208729687
0.1515206875 0.0938708750 0.0253822500
0.1963593750 0.1015286562 0.0315433438
0.2415898750 0.1101856250 0.0384431250
0.2878298437 0.1161849687 0.0451502187
0.3383874375 0.1184284375 0.0518749375
0.3826221250 0.1225078750 0.0589968750
0.4269511250 0.1288816250 0.0667996250
0.4735393438 0.1373641563 0.0753778438
0.5207831875 0.1484568125 0.0834675000
0.5676249062 0.1613350313 0.0912081875
0.6150988750 0.1762190000 0.0996980000
0.6625566875 0.1941262187 0.1086335937
0.7110418125 0.2132501250 0.1182452500
0.7596601250 0.2332535625 0.1284970000
0.8063483750 0.2545010000 0.1401340000
0.8493490625 0.2758744687 0.1530982188
0.8873330000 0.2963520625 0.1668478125
0.9195819687 0.3157604375 0.1812519375
0.9452957500 0.3340851250 0.1964301250
0.9645108750 0.3510608125 0.2119541563
0.9779581250 0.3668423125 0.2280322500
0.9868614062 0.3813577813 0.2443654063
0.9925271250 0.3947837500 0.2613383750
0.9959352812 0.4072397813 0.2785332187
0.9978913125 0.4187894375 0.2957075625
0.9990955000 0.4298698750 0.3131447813
0.9998760000 0.4404001250 0.3304126250
0.0234105937 0.0838307500 0.0184330312
0.0449866563 0.0935095000 0.0208730313
0.0613883437 0.1004074688 0.0223760312
0.0786721875 0.1047609063 0.0245440937
0.0929023750 0.1064305313 0.0239531875
0.1162948750 0.1101543437 0.0254069062
0.1518359375 0.1165313125 0.0285116250
0.1993508438 0.1221868125 0.0331450312
0.2462471562 0.1284416250 0.0393052188
0.2935150625 0.1343059375 0.0459642500
0.3442582188 0.1373167812 0.0526188125
0.3882046875 0.1418650000 0.0592113750
0.4314259375 0.1481923750 0.0659230937
0.4770653125 0.1567540625 0.0736622500
0.5231333437 0.1675074375 0.0820310000
0.5695428438 0.1800593125 0.0902815937
0.6162126562 0.1942702188 0.0989687812
0.6627119062 0.2109579062 0.1079600937
0.7103753437 0.2292844375 0.1177681875
0.7587787188 0.2487315625 0.1283587500
0.8054182812 0.2693096250 0.1402155312
0.8485400000 0.2896858125 0.1531727500
0.8869395937 0.3092126250 0.1669083125
0.9195417500 0.3276795625 0.1814977500
0.9455461562 0.3450640313 0.1965290000
0.9648933437 0.3612250000 0.2121847813
0.9783798125 0.3762660625 0.2283272500
0.9872663437 0.3901410312 0.2450249688
0.9927931875 0.4029733125 0.2621074063
0.9960736562 0.4149146563 0.2794303438
0.9979730625 0.4260397813 0.2971182813
0.9991004375 0.4366786875 0.3148121875
0.9998204375 0.4469322812 0.3325055937
0.0263683750 0.1121060000 0.0246426250
0.0381457812 0.1199190937 0.0269839688
0.0590485625 0.1278896250 0.0292760000
0.0814055625 0.1337723125 0.0308776562
0.0981571875 0.1386729375 0.0329232500
0.1205982500 0.1409139688 0.0315926875
0.1527702500 0.1437344375 0.0331696875
0.1948321562 0.1483140625 0.0362744062
0.2435647500 0.1530666875 0.0415963125
0.2920324687 0.1577688437 0.0473618438
0.3434766250 0.1605205000 0.0532715625
0.3893399062 0.1658942187 0.0594241562
0.4323028125 0.1728901875 0.0659409375
0.4767379375 0.1803061875 0.0726853437
0.5218464375 0.1901246875 0.0803714375
0.5676307187 0.2017765313 0.0892361563
0.6137170000 0.2150250625 0.0980570000
0.6596236562 0.2303577500 0.1072362188
0.7066581250 0.2475612500 0.1168260625
0.7549765000 0.2660122812 0.1274918750
0.8020089375 0.2855155000 0.1394215000
0.8456785625 0.3047518125 0.1524476250
0.8847270000 0.3231914375 0.1662833750
0.9179546875 0.3406546875 0.1807070625
0.9444855000 0.3570396250 0.1958902500
0.9643070000 0.3723793125 0.2117023750
0.9780813125 0.3865593125 0.2279592500
0.9871241250 0.3996883438 0.2448140000
0.9926919375 0.4119024375 0.2621703750
0.9959200937 0.4232204063 0.2798825937
0.9978019375 0.4338648750 0.2977993750
0.9988803750 0.4440045938 0.3158103125
0.9996391875 0.4537524375 0.3338247500
0.0342785000 0.1437405312 0.0322574687
0.0401588125 0.1504884687 0.0345741875
0.0545841250 0.1575697812 0.0361512187
0.0775211250 0.1641869375 0.0384186250
0.0975707187 0.1705524687 0.0400354687
0.1278155000 0.1771808125 0.0413231562
0.1566096563 0.1780650313 0.0395024062
0.1926365625 0.1796542188 0.0409043437
0.2358847813 0.1828692813 0.0445840313
0.2831216563 0.1869223750 0.0492644687
0.3358173125 0.1896762187 0.0544168437
0.3845840938 0.1936752812 0.0598894062
0.4284484375 0.1997723750 0.0661367500
0.4728974062 0.2070338750 0.0730845937
0.5169494688 0.2154010625 0.0802805000
0.5619637813 0.2255798438 0.0881757500
0.6075924062 0.2376730312 0.0966761875
0.6533882813 0.2517561563 0.1056734687
0.7006624688 0.2678440938 0.1154781562
0.7492129062 0.2852780000 0.1263750000
0.7966729688 0.3034175313 0.1383531250
0.8410520625 0.3213880312 0.1513262812
0.8808968438 0.3386870625 0.1650791250
0.9149688750 0.3550870313 0.1796726250
0.9422876250 0.3705235937 0.1948554063
0.9627633750 0.3848590937 0.2106475937
0.9770302188 0.3981624375 0.2270823750
0.9863664375 0.4104500000 0.2441694375
0.9920996250 0.4218875313 0.2618174375
0.9954274375 0.4324821563 0.2798271875
0.9973648125 0.4424222500 0.2979933125
0.9985235625 0.4519550313 0.3165010000
0.9993161250 0.4610980000 0.3347421250
0.0459455000 0.1768217500 0.0394285000
0.0496957187 0.1846049063 0.0428117187
0.0577970000 0.1914788125 0.0448356875
0.0734652188 0.1977371562 0.0464428750
0.0989672500 0.2037340000 0.0478316250
0.1308385625 0.2111499688 0.0486848125
0.1649751875 0.2174880000 0.0492613750
0.1977334375 0.2171599063 0.0486175000
0.2351512500 0.2177082500 0.0493062500
0.2767216875 0.2206307813 0.0530776250
0.3247814375 0.2227338125 0.0569974375
0.3764835938 0.2244390000 0.0620796875
0.4223236250 0.2290157500 0.0670822500
0.4666698750 0.2349939375 0.0732817500
0.5107130000 0.2424586250 0.0800166875
0.5548266250 0.2513809375 0.0874053438
0.5999407500 0.2622722500 0.0955832500
0.6458692500 0.2752540000 0.1044738438
0.6934088125 0.2901580625 0.1142258125
0.7421857188 0.3063528750 0.1251965312
0.7900061250 0.3232032500 0.1370411250
0.8350752500 0.3398794063 0.1499301875
0.8758220000 0.3559375000 0.1636503750
0.9108615625 0.3712609062 0.1782016875
0.9390697500 0.3856495000 0.1934082500
0.9603283125 0.3989666875 0.2093653437
0.9752466875 0.4112625000 0.2261061875
0.9850096563 0.4226090313 0.2433433125
0.9910426250 0.4331303750 0.2612637500
0.9945730000 0.4429163750 0.2797097188
0.9966048750 0.4520330625 0.2982254375
0.9979086563 0.4608340312 0.3170719375
0.9987917500 0.4692817500 0.3357580000
0.0601758437 0.2132240625 0.0477905312
0.0583005937 0.2225057188 0.0522732812
0.0622945625 0.2290842813 0.0546982500
0.0758495312 0.2345762812 0.0548651250
0.1061774062 0.2409353125 0.0561092187
0.1367680000 0.2476039063 0.0567135312
0.1702889375 0.2547179063 0.0579285312
0.2056787500 0.2588200937 0.0584403750
0.2417208750 0.2578643438 0.0574337813
0.2773276250 0.2583209063 0.0580483437
0.3199118750 0.2598019375 0.0614145313
0.3683516250 0.2599288750 0.0653425313
0.4156435313 0.2623984375 0.0701320937
0.4602550313 0.2664238750 0.0751491250
0.5042511875 0.2719467500 0.0808302812
0.5480812500 0.2793312500 0.0873770937
0.5925517500 0.2889580312 0.0950685000
0.6383061563 0.3008795000 0.1039988750
0.6858428125 0.3145121875 0.1135393125
0.7345505937 0.3294300937 0.1242572500
0.7826140000 0.3449158125 0.1357816875
0.8281983438 0.3602266250 0.1484186250
0.8697731875 0.3750645938 0.1621343125
0.9057387188 0.3892450625 0.1766067813
0.9349535313 0.4025203125 0.1920489062
0.9571656875 0.4148160313 0.2082069062
0.9728151563 0.4260747813 0.2252170000
0.9831526250 0.4363875313 0.2428364688
0.9895465000 0.4458551562 0.2611861875
0.9933215312 0.4546864688 0.2798461250
0.9955869375 0.4628806562 0.2988602188
0.9969827813 0.4707083125 0.3179279375
0.9980522188 0.4783039375 0.3369707812
0.0749200000 0.2550088750 0.0575120000
0.0724152187 0.2629160938 0.0618299375
0.0732862500 0.2690022500 0.0654246875
0.0793747188 0.2730492813 0.0664120625
0.0977713125 0.2769616875 0.0660941875
0.1257135938 0.2826375625 0.0662751250
0.1616291875 0.2896389375 0.0672703750
0.1995103125 0.2956571562 0.0679234375
0.2424471250 0.2997893125 0.0675194375
0.2818937500 0.2974943750 0.0660790625
0.3207933125 0.2979738125 0.0670061875
0.3644092812 0.2981350937 0.0701974062
0.4088185000 0.2986612500 0.0737573125
0.4530057500 0.3002343438 0.0781316563
0.4972047500 0.3037283125 0.0830645625
0.5414554375 0.3095382500 0.0889815312
0.5857138750 0.3176263125 0.0958356875
0.6308491875 0.3281250937 0.1037032500
0.6778366875 0.3405517500 0.1129382500
0.7264091250 0.3541979687 0.1234039063
0.7746970000 0.3683125625 0.1347131875
0.8208094688 0.3823820000 0.1470933750
0.8631148125 0.3960140000 0.1606784375
0.8999683438 0.4089929063 0.1752132500
0.9301287500 0.4211401250 0.1906783750
0.9532835312 0.4322942188 0.2072318437
0.9697735625 0.4424336875 0.2246020000
0.9807467188 0.4516588125 0.2427898437
0.9875907500 0.4600743750 0.2616059375
0.9917009375 0.4678003438 0.2807589062
0.9941756250 0.4749866875 0.3001098750
0.9957672187 0.4818534375 0.3196049375
0.9969583125 0.4884003125 0.3388454375
0.0880482187 0.2944697813 0.0674170312
0.0851236250 0.3005027812 0.0719428437
0.0847584063 0.3055023750 0.0770984688
0.0859517500 0.3091378750 0.0790018125
0.0960763750 0.3114672188 0.0765439063
0.1201112187 0.3157438125 0.0752732500
0.1613256875 0.3219703437 0.0756772500
0.2003997188 0.3281268750 0.0761600313
0.2398491875 0.3327118125 0.0765922813
0.2829998125 0.3331055000 0.0752408750
0.3215208750 0.3316909375 0.0739360000
0.3618467500 0.3315167500 0.0744435313
0.4028959375 0.3325039062 0.0773869687
0.4449254687 0.3337607500 0.0814354063
0.4886711250 0.3362255937 0.0858014063
0.5336507812 0.3410395937 0.0911666875
0.5783801875 0.3481682812 0.0974967188
0.6236152500 0.3574906250 0.1046952812
0.6704318125 0.3686160938 0.1131664063
0.7185830000 0.3807797500 0.1229770938
0.7668066562 0.3935762500 0.1339157500
0.8132330625 0.4062289062 0.1460217813
0.8561099063 0.4186033437 0.1593715313
0.8937541562 0.4303851875 0.1739346562
0.9249210313 0.4413682813 0.1897986250
0.9489585625 0.4513544375 0.2065925625
0.9662830000 0.4603510000 0.2245558125
0.9779607500 0.4684586562 0.2432969688
0.9852710625 0.4756528125 0.2626268125
0.9897297188 0.4822564062 0.2824131250
0.9924513125 0.4884084687 0.3023013438
0.9942093750 0.4942028750 0.3221603125
0.9956215938 0.4998266250 0.3418074063
0.0985955000 0.3271191250 0.0745263750
0.0949076250 0.3331988750 0.0801331875
0.0937980625 0.3380058750 0.0844475625
0.0942669062 0.3415110312 0.0863567500
0.0986086250 0.3437243750 0.0849906250
0.1159751250 0.3465240000 0.0834737500
0.1488371875 0.3513846250 0.0830418750
0.1889640625 0.3569581563 0.0836835937
0.2275016250 0.3620193750 0.0845262500
0.2736656562 0.3654263750 0.0844822812
0.3172784375 0.3663226875 0.0828045000
0.3571808438 0.3644825938 0.0806857187
0.3973837500 0.3652903750 0.0807008750
0.4384594375 0.3676436563 0.0844553437
0.4815130625 0.3706198125 0.0893575000
0.5262128125 0.3747752187 0.0943697813
0.5713515000 0.3806613750 0.1000906250
0.6167992187 0.3886150938 0.1066011250
0.6634198750 0.3982463750 0.1142698125
0.7112848438 0.4089610000 0.1232447813
0.7592306250 0.4202647500 0.1336170000
0.8057409063 0.4316071875 0.1452860313
0.8490328125 0.4427110625 0.1584645625
0.8872937812 0.4531999688 0.1729552500
0.9192865000 0.4629801250 0.1891088750
0.9442048750 0.4717605312 0.2064175000
0.9623952500 0.4795442500 0.2248970000
0.9747296562 0.4864559687 0.2442909375
0.9826080000 0.4925435000 0.2644397500
0.9874452500 0.4980082188 0.2847778437
0.9904158125 0.5030415625 0.3052675625
0.9924099375 0.5078659062 0.3256650312
0.9939320000 0.5123973750 0.3456435000
0.1088621250 0.3600830938 0.0807930000
0.1050041563 0.3649715625 0.0846232500
0.1028711562 0.3685937812 0.0874871563
0.1029445312 0.3712753750 0.0885897500
0.1046813750 0.3732579375 0.0887099062
0.1130150000 0.3753289375 0.0892223125
0.1355881875 0.3785530625 0.0898272500
0.1691000313 0.3830641875 0.0906750938
0.2108969687 0.3887897813 0.0917647188
0.2616720625 0.3943655313 0.0922965625
0.3097963125 0.3978230938 0.0927488750
0.3543082187 0.3985359375 0.0910383750
0.3944286563 0.3977646875 0.0891018750
0.4352403750 0.4002262187 0.0893694063
0.4774118438 0.4039021250 0.0936185000
0.5210072812 0.4082334375 0.0986051250
0.5653743125 0.4134481562 0.1035605313
0.6105658750 0.4203402500 0.1093935938
0.6569514687 0.4287430937 0.1160828750
0.7043820938 0.4382325938 0.1244505625
0.7519800937 0.4481623125 0.1340478750
0.7984100937 0.4582033125 0.1452860313
0.8419302500 0.4680714062 0.1581173750
0.8807697812 0.4773397187 0.1726462813
0.9134427500 0.4858556875 0.1889217500
0.9391828438 0.4934098750 0.2066083438
0.9581753125 0.4999963750 0.2257720625
0.9711458750 0.5057048750 0.2459293438
0.9795830938 0.5106503125 0.2667607188
0.9848187812 0.5149356875 0.2877429375
0.9881014688 0.5189655937 0.3088632188
0.9903122187 0.5226310000 0.3296384687
0.9920004375 0.5262269375 0.3500962187
0.1173038750 0.3878118125 0.0862312500
0.1126950312 0.3922395625 0.0899389063
0.1101294375 0.3956639375 0.0924728750
0.1093207500 0.3982069062 0.0939620938
0.1093891250 0.4003061875 0.0948609375
0.1125587813 0.4024783438 0.0960780937
0.1289136875 0.4048902500 0.0966537500
0.1579261563 0.4088135625 0.0977615000
0.1994926250 0.4144608750 0.0991530000
0.2548996562 0.4211328125 0.1002489063
0.3036641875 0.4261017500 0.1014973750
0.3483512500 0.4299355938 0.1031520625
0.3917753750 0.4309255000 0.1004767500
0.4328755313 0.4324290312 0.0988228750
0.4747836250 0.4361675625 0.1002259375
0.5173517813 0.4407866563 0.1040149375
0.5608746250 0.4461363750 0.1084146250
0.6053900000 0.4524416250 0.1133240312
0.6511121875 0.4599173125 0.1191703750
0.6978481250 0.4682529375 0.1263790938
0.7449403750 0.4770108750 0.1352719375
0.7911338750 0.4858934063 0.1458345625
0.8347828750 0.4945948125 0.1583973750
0.8739584375 0.5026264687 0.1729089375
0.9073208125 0.5099198125 0.1893623750
0.9337586562 0.5162343125 0.2074182188
0.9535080000 0.5216412500 0.2271017500
0.9672219688 0.5260863125 0.2479118750
0.9762328750 0.5298676875 0.2693992500
0.9819006563 0.5330373438 0.2910886250
0.9854380000 0.5358987500 0.3126676250
0.9878753125 0.5385439375 0.3338541875
0.9897564375 0.5411385625 0.3548536250
0.1250706875 0.4142008437 0.0916145938
0.1201050000 0.4181077812 0.0954896875
0.1159025000 0.4212004062 0.0985320625
0.1142638750 0.4237747500 0.1012128438
0.1141867500 0.4258991875 0.1030088437
0.1159006250 0.4277796875 0.1033065000
0.1274306875 0.4300313125 0.1041940625
0.1528099687 0.4339918437 0.1056202187
0.1914745938 0.4394680000 0.1072762813
0.2428342813 0.4464087813 0.1092720625
0.2932775625 0.4526190000 0.1109342188
0.3410380000 0.4579930937 0.1127998438
0.3867732500 0.4619750938 0.1124585938
0.4310948125 0.4645916250 0.1105165938
0.4726864688 0.4677969687 0.1098687188
0.5146388125 0.4724938125 0.1116479375
0.5572246250 0.4779702188 0.1147627187
0.6008160000 0.4842311250 0.1187676250
0.6456415937 0.4911246875 0.1234237187
0.6915260000 0.4986907813 0.1296978750
0.7379349063 0.5065792188 0.1376449375
0.7838052812 0.5144653437 0.1475836875
0.8274064688 0.5220711250 0.1597642500
0.8668756250 0.5290839063 0.1740553125
0.9007073750 0.5351818437 0.1904461562
0.9279390313 0.5403143437 0.2089490937
0.9484387188 0.5444787500 0.2289488437
0.9628603437 0.5476949687 0.2501724375
0.9724594375 0.5502191875 0.2721041875
0.9785771563 0.5522285625 0.2943006250
0.9825360937 0.5539530000 0.3162955938
0.9851593750 0.5555388438 0.3379441563
0.9872547188 0.5570538750 0.3591141250
0.1320930000 0.4382910000 0.0969145000
0.1278709375 0.4414880000 0.1000539062
0.1242695000 0.4441491875 0.1031071250
0.1225938750 0.4463496875 0.1050279688
0.1215575000 0.4485717500 0.1068697500
0.1217333750 0.4510318750 0.1088577187
0.1294960625 0.4545829375 0.1120963125
0.1518329063 0.4592856875 0.1146755937
0.1878547500 0.4650287500 0.1169485000
0.2343905313 0.4716786875 0.1189411562
0.2873210625 0.4789768125 0.1213923125
0.3376979063 0.4855750000 0.1227820937
0.3843987500 0.4911106250 0.1239720000
0.4293735625 0.4954744062 0.1229406563
0.4715997500 0.4995095625 0.1221860000
0.5126866562 0.5041146875 0.1223658437
0.5542485000 0.5096050000 0.1239640000
0.5966712188 0.5156383438 0.1263197813
0.6402864375 0.5222851250 0.1296734375
0.6851711563 0.5292979688 0.1346358750
0.7307960000 0.5365708750 0.1414818750
0.7760980625 0.5437189375 0.1506622813
0.8195456250 0.5504273125 0.1622555000
0.8592112500 0.5564963437 0.1762882188
0.8935612500 0.5616140000 0.1926220000
0.9215243438 0.5656386875 0.2110901250
0.9428315000 0.5686221875 0.2313737500
0.9580767188 0.5706504375 0.2528810000
0.9683062500 0.5718842500 0.2751121250
0.9749718437 0.5726417188 0.2974557187
0.9792669375 0.5731384375 0.3195252500
0.9821900937 0.5735574375 0.3412407500
0.9844935000 0.5740000000 0.3625595000
0.1384974688 0.4640717187 0.1032677500
0.1341990000 0.4674016875 0.1069367187
0.1309049063 0.4699193437 0.1099910937
0.1291896563 0.4721588438 0.1124466875
0.1278005625 0.4745105312 0.1148309063
0.1277675625 0.4772832500 0.1177665625
0.1340220938 0.4809805625 0.1219060937
0.1551683125 0.4859444375 0.1249603750
0.1902790625 0.4918718125 0.1268480938
0.2369789375 0.4989893125 0.1290554375
0.2908675625 0.5070487188 0.1316174688
0.3401006875 0.5141214687 0.1335337812
0.3852600312 0.5202845312 0.1353759375
0.4286894062 0.5255636563 0.1361274687
0.4704433437 0.5304397500 0.1356829063
0.5109806562 0.5354445625 0.1354355937
0.5515175000 0.5409089063 0.1357300312
0.5926407500 0.5468786563 0.1367505000
0.6349842812 0.5532420312 0.1387359687
0.6786607813 0.5599162813 0.1421826562
0.7233008437 0.5667499062 0.1476013750
0.7679273750 0.5734210937 0.1556737187
0.8110455313 0.5795522500 0.1663948125
0.8508686875 0.5849075000 0.1799386875
0.8857072188 0.5892410313 0.1959835625
0.9143836250 0.5923052187 0.2144461250
0.9366210625 0.5941887187 0.2347243438
0.9527561875 0.5949973438 0.2561786563
0.9638076563 0.5949527813 0.2782628437
0.9710199687 0.5943690000 0.3004040625
0.9757412187 0.5935917813 0.3223910625
0.9789854062 0.5927310000 0.3437237813
0.9815221250 0.5919041875 0.3648351562
0.1429007500 0.4931645625 0.1120298750
0.1381590313 0.4963105000 0.1170537500
0.1339415000 0.4989416875 0.1218996875
0.1320847500 0.5011211562 0.1255027813
0.1315525000 0.5033098750 0.1287256250
0.1330935000 0.5058035938 0.1316152187
0.1403075000 0.5091027500 0.1342485000
0.1619655313 0.5140981562 0.1361379062
0.1980158750 0.5201391875 0.1370618750
0.2482711563 0.5283983750 0.1393130000
0.2969115625 0.5361650000 0.1421452500
0.3425727500 0.5432116563 0.1451179375
0.3860536250 0.5496148125 0.1478640625
0.4282266875 0.5553465937 0.1496232813
0.4692005000 0.5607951250 0.1502176250
0.5090535312 0.5661320625 0.1501837500
0.5485505000 0.5716650625 0.1500708750
