bundles/resolve-cinematic-luts/Phantom Luts/Fx6 Phntm ARRI LUTs-G5/ATOMOS Monitoring LUTs/IceBlue Fx6 AML.cube
TITLE "Generated by Resolve"
LUT_3D_SIZE 9
0.0802777 0.0916152 0.0904555
0.0973831 0.0937362 0.09308
0.166537 0.0984512 0.0998856
0.32813 0.103929 0.115129
0.531197 0.115618 0.164065
0.672038 0.150439 0.259434
0.70959 0.163348 0.306813
0.708843 0.159548 0.31783
0.709773 0.155978 0.342626
0.0848249 0.107225 0.0998245
0.0918898 0.102678 0.0960555
0.14963 0.103334 0.100206
0.33257 0.101228 0.101061
0.535912 0.121355 0.145403
0.67895 0.158892 0.247578
0.711437 0.169375 0.293385
0.710735 0.165148 0.304051
0.712306 0.161273 0.32842
0.0898604 0.190631 0.123217
0.0947127 0.186297 0.110216
0.16202 0.179706 0.108919
0.345342 0.149325 0.106813
0.542443 0.127687 0.127642
0.654917 0.155215 0.204166
0.705715 0.175067 0.264012
0.710475 0.174121 0.277684
0.712062 0.172427 0.288396
0.0876326 0.363958 0.175204
0.0856031 0.366094 0.15668
0.117662 0.357183 0.113725
0.331029 0.35465 0.113527
0.592401 0.326894 0.15581
0.755047 0.313161 0.233097
0.705715 0.18378 0.210849
0.68806 0.166842 0.20824
0.715496 0.202335 0.225757
0.130419 0.584619 0.299718
0.132326 0.588968 0.291508
0.130983 0.587869 0.274846
0.238773 0.572915 0.176318
0.572213 0.590555 0.193591
0.814282 0.595773 0.295232
0.87895 0.587213 0.332219
0.877317 0.579492 0.330571
0.881392 0.604547 0.337392
0.296834 0.801129 0.485222
0.301045 0.805402 0.485328
0.300923 0.804318 0.476844
0.292012 0.793851 0.436225
0.535286 0.787549 0.34197
0.804227 0.819883 0.384604
0.927367 0.835035 0.454017
0.927443 0.832609 0.454932
0.931075 0.846128 0.465171
0.354788 0.850278 0.553597
0.352071 0.850187 0.546471
0.350332 0.848249 0.535073
0.338491 0.838956 0.50106
0.430564 0.83386 0.400885
0.772259 0.865538 0.443824
0.929427 0.902358 0.506798
0.944854 0.90837 0.533791
0.943114 0.908568 0.53547
0.35697 0.852262 0.569421
0.354437 0.851484 0.559609
0.353048 0.849622 0.545892
0.342031 0.840742 0.507866
0.418082 0.831464 0.399145
0.772091 0.864866 0.443351
0.92752 0.899611 0.503899
0.947524 0.907423 0.532891
0.942931 0.908751 0.536034
0.357229 0.853056 0.574075
0.354635 0.852384 0.564767
0.351522 0.849348 0.541344
0.335866 0.834836 0.484321
0.584176 0.842802 0.405859
0.845731 0.879911 0.463249
0.943572 0.906081 0.51986
0.94612 0.908125 0.531228
0.941512 0.909453 0.533745
0.0796979 0.0930648 0.0987411
0.0949722 0.0936141 0.106355
0.162875 0.0973831 0.125978
0.335485 0.100725 0.156558
0.539986 0.112383 0.200305
0.673411 0.143923 0.288853
0.708995 0.156909 0.33341
0.707317 0.153201 0.34345
0.706905 0.150591 0.361654
0.0829938 0.101686 0.101472
0.0856489 0.0975662 0.0983139
0.153826 0.098558 0.103487
0.33106 0.102922 0.123445
0.541497 0.115099 0.178393
0.683558 0.15285 0.279774
0.710689 0.161181 0.321248
0.709697 0.157916 0.331609
0.710018 0.15523 0.350134
0.0899977 0.18584 0.148943
0.0896925 0.181628 0.124453
0.15201 0.173083 0.110475
0.355444 0.138415 0.107469
0.535363 0.115892 0.127901
0.671153 0.157046 0.235523
0.712154 0.171786 0.289525
0.712795 0.168933 0.300084
0.714199 0.167391 0.311376
0.0882582 0.367056 0.201343
0.0872053 0.366476 0.177752
0.0915694 0.356939 0.12784
0.325338 0.35314 0.115251
0.593545 0.319448 0.15584
0.753887 0.301656 0.233051
0.697337 0.174578 0.20972
0.684108 0.167102 0.21088
0.710857 0.196185 0.224353
0.132311 0.588525 0.318807
0.134478 0.592432 0.3075
0.133028 0.590265 0.288334
0.206668 0.573999 0.173129
0.570825 0.591058 0.194583
0.818509 0.595117 0.297688
0.878508 0.585168 0.33167
0.876829 0.577447 0.329854
0.881117 0.603037 0.336706
0.298848 0.802701 0.495506
0.303334 0.807965 0.494301
0.302953 0.80737 0.485801
0.293523 0.796979 0.448753
0.529152 0.788006 0.341451
0.8047 0.820768 0.385763
0.927398 0.835477 0.454551
0.926787 0.832807 0.45658
0.930724 0.845914 0.465904
0.355505 0.851621 0.562982
0.353582 0.85124 0.556008
0.352804 0.849317 0.544274
0.341299 0.841276 0.508598
0.419287 0.832822 0.402152
0.770871 0.865476 0.44361
0.929183 0.902419 0.508125
0.94493 0.908446 0.534356
0.943297 0.908721 0.53547
0.358358 0.853239 0.578347
0.355612 0.852857 0.569772
0.354147 0.850782 0.555184
0.344274 0.843061 0.51577
0.411139 0.831586 0.401663
0.769619 0.8645 0.442847
0.926879 0.89955 0.504799
0.947463 0.907485 0.534234
0.943023 0.908858 0.536446
0.359716 0.853834 0.584466
0.357153 0.8533 0.575448
0.353063 0.85066 0.55172
0.338674 0.837476 0.493294
0.572885 0.841718 0.404089
0.842725 0.878599 0.46273
0.942473 0.905699 0.518517
0.946044 0.908156 0.533135
0.940414 0.9093 0.540413
0.0760052 0.103197 0.155505
0.101976 0.0982681 0.167544
0.160555 0.0983749 0.17731
0.335973 0.100786 0.198657
0.541253 0.107683 0.244175
0.671778 0.137667 0.31252
0.704875 0.150118 0.349294
0.703182 0.147601 0.356847
0.702739 0.145495 0.376165
0.0775006 0.105928 0.137346
0.0779278 0.101961 0.15433
0.149294 0.0983444 0.172473
0.333669 0.0999924 0.184665
0.548775 0.110521 0.22768
0.680919 0.144167 0.307362
0.707149 0.153201 0.34226
0.704997 0.150118 0.350454
0.704097 0.147189 0.370352
0.0885328 0.17641 0.17847
0.0877699 0.173678 0.176883
0.145418 0.166888 0.179919
0.363012 0.145037 0.169543
0.542672 0.119219 0.179065
0.679774 0.151812 0.27396
0.710399 0.161685 0.317205
0.709468 0.158633 0.325628
0.709743 0.156222 0.341039
0.0900587 0.364569 0.246372
0.0885634 0.368246 0.231785
0.0886244 0.360662 0.18938
0.315465 0.353017 0.142565
0.6056 0.300923 0.166125
0.73344 0.254292 0.22504
0.681102 0.162814 0.209812
0.68835 0.173861 0.222248
0.696757 0.174594 0.224964
0.132555 0.588922 0.350942
0.135225 0.595071 0.341817
0.134661 0.593072 0.315618
0.145556 0.572076 0.204501
0.563378 0.587793 0.195468
0.823316 0.5888 0.299855
0.876524 0.575845 0.329198
0.874708 0.567163 0.327199
0.879088 0.593301 0.333822
0.298283 0.802365 0.512032
0.304234 0.807599 0.51107
0.306233 0.80795 0.500389
0.295048 0.797711 0.460853
0.509728 0.78648 0.338216
0.801434 0.818265 0.384268
0.92639 0.832547 0.452918
0.925414 0.829358 0.454353
0.929061 0.84126 0.461906
0.359701 0.852842 0.579187
0.356573 0.853254 0.573602
0.355428 0.851392 0.561608
0.346639 0.845365 0.5243
0.395239 0.831144 0.408423
0.762615 0.864988 0.445106
0.927428 0.902037 0.509834
0.944671 0.908354 0.539437
0.942962 0.908644 0.541161
0.362341 0.85507 0.59585
0.358785 0.854978 0.588708
0.357977 0.852964 0.575448
0.350317 0.847288 0.532509
0.384527 0.830869 0.411109
0.759014 0.863478 0.443137
0.923095 0.898894 0.505302
0.94728 0.907607 0.53782
0.942275 0.908751 0.544015
0.365743 0.857237 0.610712
0.361578 0.857359 0.604105
0.357824 0.854398 0.583261
0.348287 0.844633 0.519524
0.5234 0.839246 0.403677
0.826185 0.87538 0.463462
0.938964 0.904982 0.520043
0.94612 0.908431 0.535744
0.939834 0.90959 0.544656
0.0742504 0.120684 0.299779
0.106996 0.107149 0.313802
0.174624 0.104555 0.32398
0.332235 0.10309 0.333104
0.555505 0.114092 0.337911
0.67425 0.133013 0.361242
0.702739 0.144533 0.385458
0.703105 0.144259 0.393469
0.702159 0.143236 0.417884
0.0643168 0.134615 0.279026
0.0736706 0.12192 0.304585
0.145403 0.106081 0.333608
0.334173 0.103426 0.343328
0.561669 0.114107 0.337179
0.677775 0.134173 0.360235
0.702602 0.144594 0.38381
0.702892 0.144289 0.391684
0.702113 0.143252 0.416678
0.0687419 0.181384 0.266773
0.0657359 0.173831 0.280293
0.0873121 0.144778 0.324315
0.317082 0.10692 0.342214
0.555322 0.114168 0.314778
0.673213 0.133288 0.340993
0.701549 0.1449 0.367239
0.702327 0.14493 0.374121
0.702419 0.143893 0.394491
0.0882429 0.352087 0.330449
0.0869459 0.356405 0.334783
0.0871595 0.35227 0.332845
0.309148 0.35053 0.353597
0.62948 0.302693 0.325841
0.710765 0.17882 0.296895
0.711467 0.161227 0.32108
0.710201 0.158053 0.329717
0.710781 0.156512 0.340826
0.134676 0.590753 0.43241
0.137301 0.598215 0.433783
0.137194 0.598383 0.421637
0.134051 0.584131 0.342138
0.541863 0.589242 0.277256
0.841596 0.580621 0.345846
0.887098 0.544091 0.355184
0.882856 0.529442 0.350805
0.893629 0.560525 0.367468
0.297246 0.801083 0.560998
0.304417 0.805753 0.562661
0.30631 0.8065 0.554681
0.296513 0.800092 0.510704
0.366857 0.780789 0.353292
0.786954 0.80943 0.380316
0.924849 0.821271 0.450263
0.923033 0.814557 0.44889
0.92639 0.82678 0.458457
0.36762 0.858625 0.622354
0.365728 0.8589 0.620066
0.366033 0.857328 0.612131
0.359487 0.852567 0.577035
0.34847 0.835065 0.46978
0.7308 0.863203 0.451987
0.920806 0.900191 0.513848
0.94551 0.908431 0.545373
0.943938 0.908888 0.547677
0.372442 0.861662 0.641413
0.370016 0.861769 0.637903
0.367529 0.860014 0.627741
0.361074 0.854459 0.590723
0.345983 0.836378 0.479545
0.72105 0.861128 0.449897
0.914229 0.899504 0.509514
0.947051 0.907988 0.545876
0.942061 0.909133 0.552331
0.38175 0.867521 0.677104
0.378866 0.86804 0.674479
0.374044 0.865797 0.659434
0.365209 0.857221 0.607202
0.400748 0.844846 0.474067
0.780728 0.871672 0.480323
0.925292 0.902296 0.524956
0.94612 0.90901 0.544366
0.940078 0.909957 0.553521
0.0768597 0.167452 0.497169
0.109468 0.141787 0.512825
0.171557 0.127749 0.528069
0.338613 0.122499 0.548684
0.533898 0.121752 0.536782
0.704021 0.150805 0.489403
0.729305 0.160983 0.500313
0.730816 0.162921 0.512047
0.729488 0.165606 0.541161
0.0617075 0.197528 0.481117
0.076463 0.1729 0.507088
0.136446 0.135927 0.532586
0.328115 0.125856 0.564004
0.540078 0.124285 0.550057
0.710811 0.154162 0.498146
0.730892 0.162799 0.509239
0.731746 0.164141 0.519921
0.730419 0.167544 0.550286
0.0620279 0.218921 0.467292
0.0615244 0.215396 0.48098
0.0741283 0.177066 0.505455
0.285084 0.127855 0.563394
0.534615 0.126787 0.555566
0.709575 0.153002 0.489433
0.73077 0.161563 0.497734
0.732433 0.163348 0.507988
0.732006 0.166064 0.535256
0.0668956 0.350042 0.459922
0.0665293 0.350576 0.471519
0.0661936 0.339696 0.479576
0.160296 0.291508 0.573678
0.555932 0.199542 0.598825
0.700023 0.148669 0.458015
0.72636 0.157427 0.458701
0.728542 0.158663 0.46627
0.729198 0.160388 0.490364
0.138659 0.57818 0.550423
0.142336 0.586221 0.558572
0.143023 0.58764 0.560815
0.140063 0.579751 0.556115
0.524895 0.578775 0.58526
0.880537 0.552605 0.575219
0.933837 0.473747 0.550622
0.926848 0.454032 0.548653
0.939986 0.488228 0.579232
0.308583 0.801556 0.666194
0.31751 0.807126 0.671733
0.317693 0.808621 0.669673
0.305715 0.804044 0.648875
0.363943 0.800275 0.565911
0.75285 0.808988 0.557076
0.934524 0.811414 0.589181
0.934798 0.807294 0.588266
0.931975 0.820523 0.620401
0.401251 0.874968 0.723644
0.40676 0.87393 0.726848
0.405081 0.873121 0.722545
0.391928 0.870588 0.699626
0.379355 0.861341 0.612757
0.664302 0.874998 0.589105
0.919799 0.911604 0.630137
0.948409 0.915557 0.661921
0.944945 0.917906 0.697383
0.406546 0.880446 0.746395
0.411673 0.879606 0.748547
0.409003 0.878538 0.742962
0.395651 0.875074 0.718257
0.38436 0.863249 0.629221
0.640604 0.871595 0.593668
0.903655 0.908522 0.627848
0.948898 0.918212 0.668437
0.942596 0.920012 0.69192
0.440467 0.891218 0.799649
0.44744 0.889677 0.800931
0.442878 0.887449 0.792782
0.4177 0.882322 0.760082
0.452232 0.874739 0.668757
0.734218 0.889479 0.673671
0.919066 0.916701 0.686595
0.948272 0.922377 0.706676
0.941619 0.921965 0.709758
0.0852064 0.257893 0.62298
0.110704 0.23743 0.64303
0.1617 0.205631 0.65977
0.30956 0.187594 0.699947
0.512306 0.184329 0.718303
0.673579 0.175265 0.673289
0.719646 0.193881 0.687816
0.717449 0.196216 0.697704
0.71133 0.199512 0.71313
0.0786908 0.283711 0.62237
0.0838941 0.267445 0.629068
0.128283 0.233829 0.657816
0.295476 0.194232 0.704723
0.516716 0.192081 0.730022
0.680797 0.180819 0.683528
0.717861 0.195819 0.695994
0.715038 0.198184 0.705592
0.707668 0.201328 0.721386
0.0802167 0.299474 0.622431
0.0798962 0.295903 0.627207
0.083238 0.27158 0.629709
0.251865 0.196902 0.694697
0.504585 0.194842 0.734478
0.677775 0.180117 0.68426
0.721309 0.195087 0.690959
0.718471 0.197147 0.699992
0.710704 0.200351 0.716197
0.0799878 0.336751 0.60473
0.080354 0.336019 0.61091
0.0806439 0.325521 0.616602
0.0917067 0.276143 0.638682
0.450034 0.196994 0.733455
0.66067 0.17409 0.679973
0.726848 0.192523 0.673899
0.724773 0.193896 0.681559
0.718441 0.196597 0.696529
0.128801 0.568276 0.644175
0.132998 0.575555 0.652064
0.133486 0.575616 0.656306
0.131762 0.565057 0.663127
0.410574 0.550454 0.831235
0.811704 0.488075 0.854719
0.886717 0.380377 0.759304
0.87686 0.363912 0.748379
0.895613 0.409735 0.795071
0.315129 0.784588 0.760128
0.324392 0.790494 0.76614
0.327794 0.791959 0.768292
0.323705 0.788647 0.765667
0.36936 0.79411 0.776623
0.745098 0.791836 0.79968
0.938384 0.776989 0.796277
0.942199 0.761288 0.790906
0.930571 0.779309 0.80911
0.471916 0.897826 0.839887
0.483177 0.895735 0.842496
0.485222 0.894926 0.841459
0.480537 0.894728 0.835737
0.470726 0.89276 0.806943
0.702739 0.903716 0.808927
0.904372 0.916136 0.816739
0.944152 0.917662 0.84271
0.941619 0.920531 0.862013
0.480644 0.899245 0.853819
0.491737 0.896391 0.854398
0.492683 0.89575 0.852934
0.484092 0.896361 0.846128
0.478614 0.894514 0.815976
0.69926 0.904753 0.813092
0.889784 0.922835 0.827176
0.948959 0.933822 0.848005
0.948425 0.935012 0.868223
0.4916 0.900984 0.87686
0.506004 0.896941 0.874678
0.507576 0.89601 0.871778
0.49688 0.897276 0.863905
0.540978 0.902495 0.847257
0.777737 0.915587 0.861341
0.906813 0.928573 0.864134
0.945571 0.935882 0.867201
0.944915 0.936629 0.875181
0.101442 0.368414 0.708614
0.100206 0.363851 0.709819
0.128008 0.350576 0.728862
0.283589 0.291051 0.779812
0.508019 0.29041 0.833768
0.687907 0.242145 0.780591
0.703716 0.208362 0.741955
0.704723 0.208179 0.740932
0.703304 0.208408 0.742809
0.101472 0.371221 0.705699
0.100893 0.368383 0.708476
0.103761 0.360906 0.713344
0.271183 0.300572 0.780468
0.515236 0.293507 0.836545
0.691203 0.234684 0.772305
0.703975 0.208316 0.741726
0.703731 0.208362 0.741985
0.702296 0.208591 0.743801
0.101823 0.377005 0.702235
0.101472 0.375723 0.704005
0.100984 0.369146 0.708186
0.222858 0.319402 0.769421
0.498741 0.294255 0.835004
0.691615 0.240101 0.777798
0.705089 0.208103 0.74052
0.704982 0.208118 0.740673
0.702953 0.208469 0.743175
0.104036 0.394522 0.697292
0.103868 0.394156 0.69958
0.103426 0.389471 0.701137
0.101274 0.371481 0.707546
0.425971 0.293141 0.822003
0.683696 0.258824 0.798199
0.706142 0.208865 0.740703
0.706554 0.208682 0.740185
0.704494 0.209201 0.743114
0.153597 0.578805 0.726146
0.157488 0.58584 0.731121
0.158679 0.586389 0.735348
0.158801 0.580041 0.744442
0.323888 0.564553 0.861692
0.745144 0.500862 0.946303
0.842741 0.380774 0.857893
0.831739 0.364385 0.846021
0.864012 0.419745 0.883909
0.310948 0.77171 0.808225
0.320668 0.77734 0.81178
0.322347 0.778515 0.813458
0.315297 0.772931 0.811536
0.322835 0.76614 0.824414
0.683345 0.781353 0.901762
0.911681 0.754238 0.922835
0.934524 0.736614 0.915373
0.922499 0.759045 0.913359
0.490364 0.897932 0.88333
0.506386 0.897704 0.884245
0.508751 0.897337 0.883955
0.506172 0.897032 0.882368
0.492485 0.890333 0.874098
0.71931 0.899535 0.895476
0.894728 0.909255 0.914473
0.943572 0.90724 0.911574
0.939223 0.910903 0.91722
0.452354 0.892699 0.881849
0.447639 0.887266 0.876387
0.449546 0.888273 0.877058
0.500282 0.899336 0.888533
0.520317 0.901701 0.882673
0.740963 0.915404 0.90135
0.89572 0.934768 0.924132
0.942977 0.93962 0.925048
0.947097 0.9402 0.93138
0.423728 0.884504 0.874067
0.431586 0.882795 0.87216
0.432792 0.882506 0.872007
0.430549 0.883909 0.87306
0.556466 0.905394 0.892317
0.796628 0.920211 0.913436
0.90985 0.936858 0.931533
0.939651 0.940505 0.930755
0.945541 0.941375 0.932525
0.101045 0.366979 0.709728
0.102541 0.361944 0.712657
0.143374 0.349584 0.739528
0.293355 0.295415 0.785641
0.516258 0.294301 0.837263
0.689174 0.236149 0.774304
0.703731 0.208362 0.74197
0.704082 0.208286 0.74165
0.703532 0.208362 0.742565
0.101381 0.369848 0.707195
0.100801 0.367391 0.709804
0.11429 0.358175 0.721386
0.281819 0.298848 0.783459
0.52256 0.293996 0.837751
0.691646 0.229175 0.7664
0.703944 0.208316 0.741787
0.703746 0.208347 0.742031
0.702663 0.208499 0.743511
0.102113 0.376394 0.703136
0.10103 0.373114 0.70486
0.100923 0.367849 0.709529
0.235508 0.314473 0.772702
0.50547 0.294133 0.835843
0.692042 0.235676 0.773144
0.70489 0.208255 0.740871
0.704814 0.208148 0.740887
0.702953 0.208469 0.743175
0.107744 0.406226 0.707744
0.106188 0.400778 0.705882
0.103227 0.388357 0.701488
0.101091 0.369787 0.708019
0.432197 0.293339 0.823346
0.683879 0.25594 0.795605
0.70605 0.208942 0.740963
0.706416 0.208759 0.740429
0.704509 0.209216 0.743175
0.166812 0.593011 0.756329
0.168688 0.597681 0.757031
0.16788 0.595728 0.756313
0.161288 0.580865 0.752987
0.312688 0.552743 0.855421
0.73521 0.487861 0.943389
0.83151 0.369924 0.853437
0.821805 0.353475 0.840772
0.852842 0.402823 0.874342
0.29723 0.770108 0.817365
0.304921 0.775616 0.819364
0.306966 0.776837 0.819684
0.298833 0.770153 0.816037
0.309895 0.759655 0.825727
0.66865 0.780743 0.912032
0.897276 0.758114 0.931228
0.930404 0.73901 0.925063
0.917235 0.761288 0.920882
0.426825 0.883711 0.874449
0.43064 0.883085 0.872312
0.431159 0.88278 0.872114
0.432532 0.881834 0.872816
0.437186 0.878401 0.875196
0.605524 0.898009 0.907881
0.860578 0.898726 0.925231
0.937545 0.902922 0.932082
0.936233 0.907423 0.931563
0.424338 0.884276 0.87396
0.43154 0.882826 0.87216
0.4309 0.88304 0.872236
0.428 0.883818 0.872999
0.435676 0.887648 0.876783
0.670695 0.916777 0.912734
0.887114 0.932357 0.934203
0.93959 0.938186 0.940795
0.948699 0.938201 0.93872
0.424292 0.884138 0.874022
0.431464 0.882841 0.872175
0.433036 0.882429 0.871977
0.429862 0.883726 0.872908
0.455421 0.893965 0.883604
0.717174 0.918624 0.916182
0.899855 0.934188 0.936553
0.939223 0.941878 0.944457
0.948882 0.94078 0.940642
0.100984 0.366567 0.710048
0.103777 0.361044 0.71368
0.150256 0.347585 0.74342
0.302129 0.293889 0.787701
0.526238 0.293523 0.837736
0.689906 0.228916 0.766705
0.703731 0.208362 0.74197
0.7037 0.208362 0.742077
0.703365 0.208392 0.742748
0.10135 0.369604 0.70753
0.100664 0.36701 0.710002
0.119371 0.35671 0.724743
0.291783 0.296391 0.785733
0.533074 0.293446 0.838254
0.693111 0.222126 0.758663
0.703975 0.208301 0.741772
0.703761 0.208347 0.742016
0.702342 0.208576 0.743786
0.102083 0.376257 0.703227
0.100999 0.372763 0.704921
0.100847 0.367559 0.709697
0.245655 0.310445 0.775326
0.516335 0.294194 0.83711
0.693721 0.230472 0.767483
0.704967 0.20827 0.740841
0.704814 0.208164 0.740902
0.702968 0.208453 0.743206
0.108156 0.40766 0.708202
0.106355 0.402441 0.706218
0.103777 0.390051 0.702281
0.101015 0.369436 0.707973
0.441276 0.293889 0.825544
0.685924 0.251881 0.791318
0.706142 0.209003 0.740963
0.706477 0.20885 0.74049
0.70457 0.209277 0.743191
0.169482 0.598749 0.757809
0.171313 0.602991 0.757946
0.170932 0.601373 0.757519
0.163851 0.586191 0.75404
0.33164 0.559091 0.865919
0.744823 0.497978 0.944228
0.844282 0.387304 0.863813
0.835996 0.372717 0.85301
0.860899 0.416052 0.881758
0.302968 0.776364 0.820859
0.312306 0.78172 0.822477
0.314977 0.782589 0.822446
0.306508 0.775311 0.818433
0.321767 0.76585 0.830716
0.680003 0.785962 0.909453
0.897139 0.765316 0.92813
0.930312 0.746227 0.926772
0.917128 0.768521 0.920165
0.424033 0.884581 0.873945
0.431815 0.88275 0.872145
0.433753 0.881422 0.871077
0.438163 0.880827 0.871962
0.439979 0.877028 0.87396
0.619837 0.897322 0.907027
0.863981 0.899443 0.924895
0.937896 0.904433 0.933059
0.936065 0.908629 0.932464
0.424018 0.884321 0.874052
0.43183 0.88275 0.87216
0.435355 0.881788 0.871443
0.435828 0.881651 0.871321
0.445579 0.885435 0.875212
0.680049 0.914015 0.91104
0.862623 0.929091 0.932067
0.926802 0.933974 0.940169
0.948714 0.937835 0.93959
0.418631 0.885908 0.874922
0.430411 0.883131 0.872343
0.435325 0.881804 0.871473
0.436805 0.881941 0.871702
0.470466 0.892042 0.882322
0.731975 0.915663 0.914122
0.888365 0.932357 0.935424
0.935164 0.941329 0.945357
0.948287 0.941466 0.942412
