bundles/resolve-cinematic-luts/Phantom Luts/Fx6 Phntm ARRI LUTs-G5/ATOMOS Monitoring LUTs/IceBlue Fx6 AML.cube
TITLE "Generated by Resolve"
LUT_3D_SIZE 33
0.0802777 0.0916152 0.0904555
0.080293 0.0916152 0.0904402
0.0816968 0.0917678 0.0906691
0.0872663 0.0928054 0.0923934
0.0973831 0.0937362 0.09308
0.109712 0.0948806 0.0943313
0.124575 0.0959335 0.0955215
0.14255 0.0972 0.0973068
0.166537 0.0984512 0.0998856
0.198016 0.099733 0.102647
0.234775 0.101122 0.106188
0.276905 0.102678 0.109743
0.32813 0.103929 0.115129
0.382681 0.105455 0.124041
0.436408 0.108354 0.136507
0.487465 0.111604 0.149538
0.531197 0.115618 0.164065
0.568093 0.120211 0.179934
0.602014 0.127123 0.201068
0.635264 0.136446 0.228061
0.672038 0.150439 0.259434
0.702632 0.164355 0.286931
0.710796 0.166934 0.298695
0.710201 0.164904 0.30312
0.70959 0.163348 0.306813
0.709224 0.161975 0.309957
0.70901 0.160983 0.312749
0.708888 0.160204 0.315358
0.708843 0.159548 0.31783
0.708919 0.15877 0.322011
0.70901 0.158007 0.326635
0.709361 0.156985 0.334462
0.709773 0.155978 0.342626
0.0803845 0.0915236 0.0902419
0.0803235 0.0915847 0.0903487
0.080293 0.0916152 0.0904097
0.0852216 0.0928359 0.0918135
0.0939956 0.0941634 0.0934157
0.10573 0.095201 0.0940871
0.120592 0.0961776 0.0952163
0.139422 0.0971084 0.0962081
0.164462 0.0977188 0.0974746
0.198001 0.098497 0.0997635
0.237232 0.0994888 0.102495
0.282414 0.101091 0.106645
0.332921 0.102937 0.110903
0.38584 0.105913 0.118914
0.439292 0.109331 0.131579
0.491234 0.112688 0.145434
0.534401 0.116716 0.160616
0.571405 0.121477 0.177264
0.605798 0.128862 0.199878
0.639139 0.13872 0.227726
0.678157 0.154162 0.260838
0.705409 0.166522 0.286534
0.711086 0.167987 0.296376
0.710582 0.165881 0.301183
0.709941 0.164324 0.30454
0.709545 0.162982 0.307774
0.709285 0.162005 0.310018
0.709148 0.161135 0.312642
0.709102 0.160464 0.315282
0.709285 0.159731 0.319295
0.709529 0.158984 0.324224
0.709941 0.158022 0.33167
0.710338 0.157046 0.339712
0.0803845 0.0915236 0.0902419
0.0803082 0.0915847 0.0903487
0.080293 0.0916152 0.0904097
0.0829328 0.0927138 0.0912795
0.0896925 0.0947433 0.0930953
0.0992752 0.0960098 0.0943008
0.11397 0.0969253 0.0957656
0.132967 0.0979477 0.0969558
0.158572 0.0983444 0.0975052
0.193942 0.0986801 0.0988632
0.234943 0.0989853 0.0999619
0.281697 0.0995804 0.102266
0.334157 0.100694 0.105745
0.388647 0.103548 0.112245
0.440635 0.109377 0.124681
0.4907 0.114549 0.139712
0.534249 0.118395 0.155474
0.571069 0.122286 0.172305
0.605753 0.129854 0.194781
0.639277 0.139849 0.223056
0.679515 0.15613 0.257649
0.70631 0.168414 0.283268
0.711299 0.16939 0.29305
0.711025 0.167498 0.297658
0.710582 0.165728 0.301671
0.710063 0.164492 0.30425
0.709728 0.16347 0.306737
0.709514 0.162524 0.309285
0.709468 0.161807 0.311696
0.709621 0.160983 0.31577
0.709926 0.160235 0.320348
0.710491 0.159152 0.328283
0.710948 0.158145 0.336217
0.0817121 0.0970016 0.0930953
0.0816358 0.0965744 0.0924392
0.0833906 0.0958419 0.0922255
0.0844434 0.0954452 0.0922408
0.0882887 0.0964523 0.093431
0.0945449 0.0978561 0.0952621
0.1066 0.098146 0.0962081
0.125566 0.0989395 0.0977951
0.151919 0.0996719 0.0988327
0.188113 0.0998398 0.0995651
0.23154 0.0996872 0.0996719
0.280018 0.0998093 0.100618
0.332937 0.100237 0.101884
0.388937 0.101472 0.105638
0.443351 0.105638 0.11548
0.493263 0.114275 0.133486
0.533989 0.121767 0.150683
0.570825 0.124575 0.167254
0.604288 0.130571 0.188418
0.6383 0.140841 0.217288
0.679911 0.157839 0.253269
0.706859 0.17026 0.279515
0.711208 0.170871 0.288563
0.71133 0.169192 0.293675
0.711116 0.167559 0.297627
0.71075 0.166155 0.300832
0.710445 0.165072 0.303136
0.710109 0.164202 0.30547
0.709987 0.163439 0.307973
0.710185 0.162631 0.311833
0.71046 0.161791 0.316686
0.71104 0.160647 0.324437
0.71162 0.159564 0.332464
0.0848249 0.107225 0.0998245
0.0843977 0.10663 0.0991989
0.0859236 0.104646 0.0970779
0.0885481 0.102953 0.0960403
0.0918898 0.102678 0.0960555
0.0971084 0.102953 0.097673
0.106538 0.103349 0.0986801
0.123201 0.102953 0.0992142
0.14963 0.103334 0.100206
0.185611 0.10277 0.100816
0.228702 0.101518 0.100801
0.277821 0.100954 0.100725
0.33257 0.101228 0.101061
0.388861 0.101884 0.102296
0.44329 0.103822 0.107469
0.493919 0.109758 0.122744
0.535912 0.121355 0.145403
0.569909 0.128374 0.162371
0.602701 0.131991 0.182208
0.635843 0.141329 0.21004
0.67895 0.158892 0.247578
0.706874 0.171923 0.274891
0.710887 0.172107 0.283818
0.711299 0.170809 0.288869
0.711437 0.169375 0.293385
0.711269 0.168032 0.296635
0.711025 0.166903 0.29926
0.710857 0.165942 0.301839
0.710735 0.165148 0.304051
0.710796 0.164385 0.307958
0.711131 0.163561 0.312535
0.711711 0.162387 0.320272
0.712306 0.161273 0.32842
0.0873732 0.120851 0.105653
0.0867323 0.119844 0.104433
0.0879835 0.11809 0.103593
0.0912184 0.114321 0.101472
0.0948043 0.112245 0.101274
0.101595 0.113054 0.101686
0.111727 0.11368 0.102235
0.127291 0.112596 0.102861
0.151415 0.111055 0.102541
0.18645 0.110414 0.102129
0.233112 0.108812 0.103349
0.279896 0.105562 0.102419
0.333425 0.103777 0.101976
0.389731 0.104051 0.102403
0.444343 0.105486 0.105913
0.492897 0.108248 0.114366
0.534981 0.11664 0.135378
0.572091 0.129351 0.159838
0.601068 0.133532 0.17734
0.632898 0.141344 0.203632
0.676112 0.158801 0.241154
0.705608 0.172732 0.270008
0.710796 0.17348 0.279713
0.71104 0.171984 0.284581
0.711421 0.17084 0.289143
0.711635 0.169741 0.293034
0.711559 0.168658 0.295766
0.711513 0.167712 0.298543
0.711421 0.166934 0.300816
0.711589 0.16611 0.304356
0.711879 0.165301 0.308812
0.712322 0.164233 0.316045
0.712993 0.163119 0.324086
0.0892653 0.138277 0.11107
0.0883803 0.137469 0.108919
0.0883497 0.135943 0.107225
0.0919814 0.132494 0.106203
0.0968185 0.128588 0.106279
0.104021 0.127642 0.107088
0.115999 0.129152 0.105547
0.133379 0.129519 0.105882
0.156741 0.12639 0.105806
0.187289 0.122591 0.104204
0.232654 0.119677 0.102998
0.284733 0.117052 0.102052
0.342306 0.112947 0.102632
0.393622 0.108736 0.103883
0.445563 0.108812 0.106844
0.494255 0.110948 0.112993
0.532891 0.114702 0.124865
0.570535 0.124605 0.149737
0.602533 0.137285 0.174243
0.630762 0.141833 0.197589
0.67245 0.158343 0.234577
0.703166 0.172732 0.26479
0.709468 0.174212 0.275135
0.711192 0.173312 0.281453
0.711437 0.17203 0.28603
0.711681 0.171038 0.289601
0.711925 0.17023 0.292897
0.712108 0.169574 0.295384
0.712108 0.168933 0.297185
0.7122 0.168322 0.299519
0.712383 0.167727 0.302327
0.712871 0.166964 0.306996
0.713405 0.166323 0.311543
0.0899825 0.160433 0.116381
0.0890059 0.160037 0.113848
0.0886854 0.159274 0.111543
0.0912795 0.157229 0.109468
0.0967727 0.152682 0.108614
0.104128 0.149615 0.110063
0.11664 0.148714 0.111147
0.136004 0.150835 0.107301
0.161975 0.150927 0.10782
0.194842 0.145632 0.107225
0.23386 0.138155 0.105898
0.286656 0.131716 0.104372
0.344396 0.128801 0.104387
0.406043 0.125597 0.105135
0.453147 0.118013 0.109529
0.497673 0.116106 0.114809
0.53576 0.118578 0.124208
0.568734 0.12285 0.138338
0.599161 0.131914 0.161944
0.627344 0.143694 0.187228
0.666499 0.157824 0.222751
0.699168 0.172869 0.254459
0.705943 0.174792 0.265446
0.708598 0.174487 0.272648
0.710369 0.173877 0.278279
0.711421 0.173175 0.282582
0.711589 0.172442 0.285451
0.711696 0.17174 0.287861
0.711772 0.171237 0.289311
0.711986 0.17084 0.291264
0.712306 0.170397 0.293889
0.712886 0.169757 0.298131
0.713436 0.169223 0.302159
0.0898604 0.190631 0.123217
0.0885634 0.190448 0.119554
0.0876631 0.190173 0.115175
0.0888228 0.189487 0.111971
0.0947127 0.186297 0.110216
0.102586 0.181582 0.110964
0.115328 0.178622 0.114885
0.135363 0.177417 0.115328
0.16202 0.179706 0.108919
0.199512 0.178515 0.107683
0.24062 0.171374 0.107103
0.290684 0.157687 0.107088
0.345342 0.149325 0.106813
0.407324 0.147112 0.109255
0.464897 0.144488 0.112169
0.51342 0.137667 0.117449
0.542443 0.127687 0.127642
0.572274 0.127993 0.137713
0.599985 0.132479 0.153567
0.622751 0.138323 0.173037
0.654917 0.155215 0.204166
0.692119 0.172473 0.239109
0.699687 0.174838 0.250263
0.70312 0.175219 0.257969
0.705715 0.175067 0.264012
0.707759 0.174899 0.269154
0.708919 0.174609 0.272877
0.709819 0.174365 0.275502
0.710475 0.174121 0.277684
0.71104 0.173892 0.279896
0.711513 0.173602 0.281987
0.712123 0.173037 0.285832
0.712062 0.172427 0.288396
0.0891585 0.227008 0.13286
0.0877394 0.227146 0.128389
0.0864271 0.226963 0.122362
0.0861524 0.226612 0.11606
0.0897536 0.225422 0.111803
0.0985275 0.221942 0.110643
0.110323 0.2177 0.113512
0.130648 0.215228 0.118593
0.157961 0.213291 0.118105
0.194827 0.214984 0.108751
0.243259 0.21297 0.106828
0.292561 0.205234 0.106813
0.352865 0.186862 0.110063
0.405661 0.176898 0.112444
0.468544 0.174365 0.117739
0.523125 0.173602 0.12401
0.570336 0.170871 0.135836
0.592432 0.153048 0.147524
0.60592 0.139879 0.153475
0.626902 0.141726 0.168643
0.643763 0.14612 0.186587
0.681102 0.170352 0.219501
0.689357 0.173419 0.229999
0.693385 0.174105 0.237049
0.696727 0.174807 0.243626
0.699519 0.175189 0.248814
0.701366 0.175494 0.25304
0.702922 0.175677 0.256138
0.703944 0.175692 0.258473
0.70457 0.175525 0.260212
0.704982 0.17528 0.262089
0.70518 0.17467 0.2645
0.704768 0.173861 0.265904
0.0881208 0.268452 0.145129
0.0873274 0.269337 0.140795
0.0860304 0.269306 0.135012
0.0849622 0.268269 0.126268
0.0850538 0.267155 0.116884
0.0901656 0.265934 0.111269
0.102464 0.26305 0.111284
0.121431 0.259236 0.115038
0.148974 0.256519 0.121889
0.186908 0.254139 0.121859
0.234058 0.25565 0.108888
0.293263 0.253346 0.105867
0.35079 0.246448 0.107729
0.414282 0.227863 0.115419
0.465827 0.215656 0.121309
0.52668 0.213184 0.130541
0.580743 0.214374 0.143847
0.623285 0.214984 0.158587
0.645106 0.197803 0.16968
0.646006 0.16376 0.174304
0.649241 0.149569 0.182483
0.673274 0.16492 0.20798
0.683009 0.172732 0.216724
0.684291 0.173129 0.219074
0.684947 0.173129 0.22063
0.685954 0.173114 0.22295
0.68716 0.173297 0.225299
0.689311 0.173754 0.228824
0.69041 0.174044 0.23061
0.691188 0.174151 0.231983
0.691508 0.173846 0.233341
0.691539 0.172732 0.235737
0.691173 0.171405 0.237308
0.0873121 0.315053 0.159243
0.0867781 0.316487 0.155184
0.0860609 0.316915 0.150866
0.0855268 0.315862 0.144076
0.0847334 0.314336 0.133577
0.0851759 0.313283 0.121752
0.0908827 0.311788 0.112779
0.108522 0.308949 0.112016
0.135302 0.305318 0.117556
0.172519 0.303151 0.127031
0.221866 0.300832 0.126787
0.27982 0.302892 0.110552
0.349111 0.301305 0.106416
0.410956 0.295705 0.111223
0.47454 0.277501 0.124437
0.527031 0.266682 0.135698
0.584009 0.260594 0.149172
0.638468 0.263813 0.169375
0.675441 0.265354 0.185626
0.702571 0.253391 0.201373
0.699382 0.210575 0.204776
0.682368 0.166659 0.199634
0.676204 0.160235 0.204608
0.677394 0.164523 0.20882
0.678248 0.16556 0.209888
0.67866 0.166278 0.210605
0.678965 0.166842 0.211292
0.679408 0.16733 0.212192
0.679606 0.167559 0.212604
0.67982 0.167437 0.213275
0.680201 0.166903 0.214084
0.680537 0.165331 0.21593
0.680858 0.163363 0.217884
0.0876326 0.363958 0.175204
0.0873426 0.365698 0.172168
0.0869154 0.36669 0.167926
0.0864118 0.366522 0.163882
0.0856031 0.366094 0.15668
0.0852216 0.36463 0.146685
0.0855573 0.36286 0.131731
0.0928969 0.360311 0.115496
0.117662 0.357183 0.113725
0.152621 0.354711 0.121233
0.202899 0.353292 0.133898
0.263127 0.35172 0.133867
0.331029 0.35465 0.113527
0.40795 0.355062 0.110399
0.471672 0.351492 0.11931
0.535698 0.337194 0.137911
0.592401 0.326894 0.15581
0.641794 0.321492 0.173022
0.693339 0.319722 0.198032
0.731502 0.32224 0.218799
0.755047 0.313161 0.233097
0.753124 0.271275 0.234058
0.734249 0.224033 0.226978
0.719036 0.202106 0.218402
0.705715 0.18378 0.210849
0.698268 0.174945 0.208988
0.693004 0.169528 0.208133
0.689418 0.16669 0.207767
0.68806 0.166842 0.20824
0.689387 0.16965 0.209766
0.694087 0.176318 0.213199
0.702861 0.186969 0.218158
0.715496 0.202335 0.225757
0.0898604 0.415015 0.194995
0.0896315 0.417105 0.19237
0.0892653 0.418082 0.188479
0.0888533 0.41854 0.185092
0.0883497 0.418585 0.181109
0.0876478 0.417716 0.174624
0.0874342 0.416373 0.164813
0.08748 0.413825 0.145937
0.0985275 0.410834 0.122667
0.129931 0.407324 0.11809
0.176638 0.405417 0.128878
0.24094 0.405035 0.145754
0.31162 0.404746 0.144823
0.386969 0.409201 0.120348
0.468864 0.412528 0.121065
0.53373 0.410712 0.136324
0.595941 0.400656 0.156283
0.657481 0.391302 0.183795
0.699626 0.38912 0.203433
0.746151 0.378653 0.230411
0.783368 0.379889 0.253208
0.799191 0.371542 0.261906
0.804639 0.352331 0.265522
0.797421 0.336217 0.260884
0.789532 0.320638 0.256153
0.782391 0.307988 0.251713
0.776944 0.29778 0.248631
0.772793 0.290654 0.246128
0.771206 0.287633 0.245396
0.771115 0.287938 0.245457
0.774105 0.294469 0.247303
0.780591 0.306233 0.251804
0.789654 0.323171 0.258915
0.0955978 0.469062 0.221393
0.0958724 0.471077 0.219394
0.0957656 0.472786 0.216159
0.0953994 0.473091 0.212253
0.0948196 0.473304 0.208927
0.0942245 0.473243 0.205585
0.0935988 0.47219 0.199313
0.0932479 0.470237 0.186892
0.0937057 0.46743 0.163928
0.107576 0.463401 0.135744
0.14966 0.460044 0.128374
0.21181 0.4589 0.143343
0.289479 0.460548 0.163867
0.368521 0.461936 0.160952
0.447379 0.467658 0.136889
0.528923 0.473152 0.140917
0.594644 0.473396 0.16199
0.653925 0.468727 0.185016
0.716716 0.460136 0.217853
0.756741 0.457954 0.23975
0.795132 0.45275 0.263264
0.824857 0.439872 0.283665
0.836591 0.429694 0.289982
0.833631 0.421897 0.287434
0.830945 0.415473 0.285008
0.828336 0.409613 0.282628
0.826429 0.405112 0.281163
0.824918 0.402075 0.280232
0.824537 0.400748 0.280079
0.825147 0.402121 0.280552
0.827253 0.40589 0.28249
0.830533 0.412757 0.285908
0.83537 0.422827 0.290944
0.108202 0.526436 0.256306
0.108659 0.528389 0.254963
0.108751 0.529564 0.252049
0.108598 0.529854 0.2486
0.108309 0.530053 0.244984
0.107958 0.530297 0.242405
0.107591 0.530663 0.239963
0.107149 0.52958 0.233051
0.106661 0.526299 0.216495
0.108095 0.522744 0.189197
0.124163 0.518013 0.153658
0.185153 0.515602 0.148058
0.261921 0.516182 0.166781
0.348394 0.518685 0.185428
0.431037 0.521218 0.179675
0.509316 0.52813 0.161044
0.588144 0.535683 0.171481
0.65568 0.538445 0.199023
0.710063 0.537881 0.222568
0.770199 0.528695 0.256275
0.808545 0.525933 0.279088
0.838102 0.524483 0.296696
0.860853 0.516869 0.312337
0.862654 0.507134 0.313115
0.86041 0.499763 0.311116
0.858686 0.49366 0.309483
0.857328 0.489143 0.308476
0.856413 0.486305 0.307729
0.85626 0.486229 0.307637
0.856519 0.488075 0.30782
0.858106 0.493706 0.309178
0.860975 0.50396 0.311986
0.864729 0.518395 0.315877
0.130419 0.584619 0.299718
0.131487 0.586694 0.298924
0.132204 0.588312 0.297292
0.132357 0.58883 0.294682
0.132326 0.588968 0.291508
0.132418 0.589517 0.288716
0.132128 0.589502 0.286168
0.131518 0.589059 0.282506
0.130983 0.587869 0.274846
0.130358 0.583978 0.254887
0.133257 0.579599 0.221866
0.154986 0.57377 0.178988
0.238773 0.572915 0.176318
0.326925 0.574762 0.197147
0.417227 0.578439 0.213855
0.496437 0.582879 0.203586
0.572213 0.590555 0.193591
0.648783 0.599374 0.212512
0.713817 0.601938 0.242954
0.764996 0.603937 0.267887
0.814282 0.595773 0.295232
0.852674 0.593881 0.31873
0.871946 0.594842 0.329778
0.880125 0.592065 0.333837
0.87895 0.587213 0.332219
0.878187 0.583413 0.331319
0.877699 0.581155 0.330816
0.877379 0.579721 0.330526
0.877317 0.579492 0.330571
0.877653 0.581323 0.33106
0.87837 0.585382 0.331914
0.880003 0.593378 0.334356
0.881392 0.604547 0.337392
0.163684 0.643183 0.348547
0.165316 0.645869 0.348699
0.166934 0.648051 0.348257
0.16791 0.649287 0.347036
0.168322 0.649714 0.344869
0.168475 0.649836 0.342077
0.168414 0.64976 0.338949
0.16791 0.649378 0.335592
0.166903 0.648539 0.331182
0.165743 0.646769 0.321782
0.16524 0.641993 0.297139
0.169833 0.635416 0.257099
0.206058 0.629587 0.211063
0.307729 0.630533 0.212039
0.401038 0.634577 0.233341
0.485863 0.639231 0.245014
0.561044 0.64419 0.235798
0.634623 0.652583 0.236301
0.706065 0.662379 0.259388
0.769451 0.664546 0.291783
0.812955 0.667674 0.315022
0.851102 0.664012 0.334707
0.881636 0.660899 0.352865
0.893568 0.661845 0.359243
0.892912 0.65864 0.357931
0.892027 0.656001 0.356558
0.891615 0.654582 0.356207
0.891386 0.653498 0.3561
0.891264 0.653696 0.356283
0.891279 0.65539 0.356847
0.892088 0.65919 0.358633
0.89337 0.666758 0.361456
0.894789 0.676616 0.365301
0.208148 0.70219 0.39791
0.209796 0.704692 0.398428
0.211597 0.706889 0.398764
0.212436 0.70782 0.397803
0.212924 0.708232 0.396262
0.213199 0.708537 0.394522
0.213779 0.708339 0.392279
0.213443 0.708003 0.388602
0.212985 0.70779 0.384253
0.211414 0.706691 0.37908
0.209384 0.7037 0.367315
0.208682 0.697383 0.33785
0.215915 0.688121 0.290105
0.274571 0.685573 0.247257
0.387762 0.689082 0.254627
0.474723 0.693904 0.273289
0.55079 0.69897 0.27982
0.623835 0.703593 0.276478
0.693812 0.713481 0.284596
0.761288 0.724453 0.309895
0.81915 0.725902 0.341711
0.854551 0.729335 0.361822
0.881376 0.728344 0.375036
0.899992 0.726024 0.384878
0.902556 0.722698 0.386069
0.902083 0.720317 0.384924
0.901762 0.718456 0.384329
0.901488 0.717449 0.384222
0.901396 0.717632 0.384604
0.90161 0.719448 0.385626
0.902113 0.723018 0.387396
0.90312 0.728939 0.390036
0.904524 0.737118 0.394156
0.254108 0.755901 0.443656
0.255695 0.758129 0.444327
0.257511 0.760082 0.44506
0.258305 0.760922 0.444465
0.258946 0.76144 0.443381
0.259419 0.761669 0.442344
0.259907 0.76202 0.441016
0.259831 0.7617 0.43798
0.259159 0.760678 0.433188
0.257664 0.758984 0.427131
0.255528 0.757656 0.421515
0.253025 0.753674 0.406561
0.25272 0.746288 0.372274
0.266102 0.736446 0.318639
0.356863 0.738033 0.288121
0.465003 0.742809 0.299565
0.543389 0.747692 0.314916
0.613306 0.752941 0.318456
0.684657 0.758022 0.32137
0.75172 0.769955 0.335225
0.811994 0.781109 0.361364
0.861006 0.783017 0.389914
0.888701 0.786374 0.406317
0.907729 0.786877 0.416327
0.915145 0.783215 0.419944
0.914534 0.780713 0.418677
0.913848 0.779141 0.417914
0.913527 0.778592 0.417777
0.913725 0.77911 0.418265
0.914488 0.781399 0.419928
0.915007 0.784894 0.421729
0.916594 0.791104 0.425406
0.918608 0.798474 0.430228
0.296834 0.801129 0.485222
0.298482 0.802747 0.485832
0.299977 0.804425 0.486473
0.300649 0.805142 0.486244
0.301045 0.805402 0.485328
0.301595 0.8056 0.484413
0.302037 0.805646 0.483146
0.301778 0.805264 0.481132
0.300923 0.804318 0.476844
0.299489 0.802838 0.470924
0.2972 0.801022 0.463783
0.294835 0.798825 0.456092
0.292012 0.793851 0.436225
0.295201 0.785183 0.397086
0.318471 0.777127 0.344671
0.442451 0.78265 0.32871
0.535286 0.787549 0.34197
0.608301 0.793042 0.354665
0.672114 0.798459 0.358282
0.742748 0.804517 0.366339
0.804227 0.819883 0.384604
0.855314 0.830106 0.410712
0.895033 0.83183 0.433921
0.916167 0.834501 0.446952
0.927367 0.835035 0.454017
0.928038 0.833341 0.454215
0.92784 0.83238 0.454002
0.927626 0.832349 0.454353
0.927443 0.832609 0.454932
0.927443 0.834043 0.456291
0.928161 0.836942 0.458686
0.928939 0.84094 0.461372
0.931075 0.846128 0.465171
0.334447 0.834684 0.520272
0.335119 0.835615 0.519997
0.335851 0.836622 0.520043
0.336049 0.836957 0.519661
0.336431 0.837171 0.518914
0.336645 0.83714 0.517998
0.33695 0.836912 0.516732
0.33669 0.836393 0.514656
0.335882 0.835584 0.511482
0.334264 0.834363 0.506539
0.331899 0.83241 0.499168
0.32903 0.830228 0.490028
0.325322 0.827436 0.480217
0.325933 0.822919 0.456443
0.338018 0.815839 0.415686
0.383429 0.811261 0.371725
0.517693 0.817914 0.367529
0.600214 0.822934 0.381094
0.6692 0.829145 0.390158
0.730449 0.83505 0.396872
0.800168 0.844877 0.411032
0.85069 0.860594 0.431403
0.890837 0.866621 0.453727
0.92285 0.86833 0.471992
0.936019 0.871336 0.481209
0.939178 0.871046 0.48426
0.939055 0.870481 0.484291
0.938689 0.870161 0.484459
0.938247 0.870451 0.485191
0.937682 0.871519 0.48629
0.937423 0.873182 0.487648
0.937865 0.875471 0.48983
0.939162 0.879393 0.492897
0.352514 0.848615 0.539986
0.351827 0.84863 0.538659
0.351141 0.8486 0.537438
0.350591 0.848417 0.535973
0.350179 0.848127 0.534447
0.34992 0.847669 0.533425
0.349813 0.847074 0.531762
0.349264 0.846311 0.529274
0.348013 0.845212 0.525582
0.346288 0.843946 0.520912
0.343709 0.841993 0.514046
0.33962 0.838972 0.504082
0.33547 0.836011 0.492683
0.332753 0.832105 0.475898
0.345464 0.829801 0.445411
0.376822 0.829175 0.412512
0.465782 0.834134 0.394278
0.585458 0.841199 0.403647
0.661891 0.849363 0.420462
0.726375 0.857633 0.431022
0.786572 0.863645 0.439414
0.849821 0.877241 0.455436
0.888563 0.890135 0.47303
0.917739 0.89102 0.488518
0.939284 0.895964 0.504005
0.945266 0.896971 0.509896
0.945068 0.896376 0.509575
0.94464 0.896178 0.509224
0.944137 0.896269 0.509789
0.943557 0.896574 0.510933
0.943328 0.897307 0.512444
0.943404 0.898314 0.514611
0.944076 0.900084 0.517876
0.353643 0.849592 0.546975
0.353094 0.849515 0.545495
0.352346 0.849531 0.544091
0.351705 0.849393 0.54226
0.351247 0.849287 0.540719
0.350973 0.849058 0.539223
0.350652 0.848646 0.53695
0.349981 0.848066 0.534188
0.348791 0.847211 0.530449
0.346868 0.845869 0.525643
0.344381 0.844144 0.518944
0.340597 0.84123 0.509224
0.336782 0.837705 0.496971
0.332357 0.833295 0.481315
0.341131 0.830579 0.453788
0.369757 0.830152 0.419409
0.445365 0.835096 0.399741
0.566003 0.841657 0.403784
0.652689 0.850217 0.421851
0.717983 0.859007 0.433585
0.778668 0.866163 0.445121
0.840116 0.878065 0.46154
0.882506 0.893339 0.480079
0.911269 0.896956 0.495399
0.934234 0.90309 0.511437
0.946593 0.907027 0.526558
0.947463 0.907515 0.532906
0.947173 0.907378 0.532631
0.946654 0.907332 0.532769
0.946044 0.907362 0.533379
0.945556 0.907454 0.533974
0.945281 0.907546 0.534142
0.945174 0.907622 0.533974
0.354788 0.850278 0.553597
0.353902 0.850294 0.55198
0.353307 0.850278 0.550134
0.352697 0.850233 0.548196
0.352071 0.850187 0.546471
0.351492 0.849943 0.544457
0.351095 0.849592 0.541772
0.350576 0.849241 0.539101
0.350332 0.848249 0.535073
0.348608 0.84715 0.529946
0.346014 0.845289 0.523095
0.342489 0.842847 0.514305
0.338491 0.838956 0.50106
0.333761 0.83476 0.486259
0.339223 0.83122 0.460227
0.363073 0.829923 0.423804
0.430564 0.83386 0.400885
0.554788 0.841093 0.402319
0.644678 0.849149 0.420493
0.710735 0.857954 0.43241
0.772259 0.865538 0.443824
0.832761 0.87631 0.45919
0.877958 0.892348 0.477211
0.907759 0.898116 0.492729
0.929427 0.902358 0.506798
0.943313 0.907012 0.522087
0.945495 0.908293 0.531899
0.945327 0.908309 0.532967
0.944854 0.90837 0.533791
0.944106 0.908446 0.534401
0.943526 0.908476 0.535058
0.943191 0.908507 0.535424
0.943114 0.908568 0.53547
0.355535 0.850965 0.559335
0.354894 0.850904 0.557717
0.354177 0.850874 0.555734
0.353536 0.850813 0.553307
0.352972 0.850614 0.551141
0.352468 0.850462 0.548867
0.352087 0.850248 0.546777
0.351659 0.849683 0.543435
0.35108 0.849058 0.53933
0.349737 0.84799 0.533776
0.347219 0.846296 0.527031
0.343893 0.843778 0.517678
0.339773 0.839918 0.504601
0.334951 0.835813 0.489998
0.337957 0.831739 0.464973
0.359304 0.829877 0.427085
0.42002 0.832898 0.401556
0.545678 0.84033 0.401083
0.638407 0.848539 0.419196
0.705303 0.857481 0.431662
0.766995 0.865293 0.443091
0.827344 0.875319 0.457633
0.874922 0.891173 0.475563
0.905608 0.898787 0.491295
0.926604 0.901381 0.504387
0.941894 0.906844 0.520775
0.944945 0.908461 0.53109
0.944701 0.908537 0.531975
0.944244 0.908675 0.53286
0.943557 0.908858 0.533791
0.943114 0.908995 0.534218
0.942885 0.909041 0.534264
0.942916 0.909041 0.534051
0.355001 0.851896 0.563104
0.354406 0.851759 0.56112
0.353902 0.851637 0.559136
0.353536 0.851438 0.557229
0.353185 0.851255 0.55494
0.352911 0.850996 0.552758
0.352575 0.850614 0.550088
0.35227 0.850217 0.546975
0.351614 0.849439 0.542229
0.350515 0.8486 0.536553
0.348287 0.847013 0.529244
0.344854 0.844495 0.52015
0.340673 0.840757 0.506981
0.335988 0.836622 0.492042
0.337026 0.832029 0.467628
0.357794 0.829969 0.429114
0.413916 0.832273 0.402243
0.541497 0.839887 0.400244
0.63566 0.848356 0.418601
0.702541 0.857221 0.431327
0.764508 0.865309 0.442695
0.82327 0.874693 0.456336
0.872709 0.890501 0.474601
0.904372 0.899199 0.490532
0.925017 0.900633 0.502724
0.94081 0.906447 0.519295
0.944976 0.908385 0.529503
0.944808 0.908553 0.5308
0.94435 0.90869 0.53164
0.943648 0.908873 0.532647
0.94313 0.908949 0.533715
0.942794 0.908995 0.534707
