bundles/resolve-cinematic-luts/Phantom Luts/Fx6 Phntm ARRI LUTs-G5/ATOMOS Monitoring LUTs/IceBlue Fx6 AML.cube
TITLE "Generated by Resolve"
LUT_3D_SIZE 5
0.0802777 0.0916152 0.0904555
0.166537 0.0984512 0.0998856
0.531197 0.115618 0.164065
0.70959 0.163348 0.306813
0.709773 0.155978 0.342626
0.0898604 0.190631 0.123217
0.16202 0.179706 0.108919
0.542443 0.127687 0.127642
0.705715 0.175067 0.264012
0.712062 0.172427 0.288396
0.130419 0.584619 0.299718
0.130983 0.587869 0.274846
0.572213 0.590555 0.193591
0.87895 0.587213 0.332219
0.881392 0.604547 0.337392
0.354788 0.850278 0.553597
0.350332 0.848249 0.535073
0.430564 0.83386 0.400885
0.929427 0.902358 0.506798
0.943114 0.908568 0.53547
0.357229 0.853056 0.574075
0.351522 0.849348 0.541344
0.584176 0.842802 0.405859
0.943572 0.906081 0.51986
0.941512 0.909453 0.533745
0.0760052 0.103197 0.155505
0.160555 0.0983749 0.17731
0.541253 0.107683 0.244175
0.704875 0.150118 0.349294
0.702739 0.145495 0.376165
0.0885328 0.17641 0.17847
0.145418 0.166888 0.179919
0.542672 0.119219 0.179065
0.710399 0.161685 0.317205
0.709743 0.156222 0.341039
0.132555 0.588922 0.350942
0.134661 0.593072 0.315618
0.563378 0.587793 0.195468
0.876524 0.575845 0.329198
0.879088 0.593301 0.333822
0.359701 0.852842 0.579187
0.355428 0.851392 0.561608
0.395239 0.831144 0.408423
0.927428 0.902037 0.509834
0.942962 0.908644 0.541161
0.365743 0.857237 0.610712
0.357824 0.854398 0.583261
0.5234 0.839246 0.403677
0.938964 0.904982 0.520043
0.939834 0.90959 0.544656
0.0768597 0.167452 0.497169
0.171557 0.127749 0.528069
0.533898 0.121752 0.536782
0.729305 0.160983 0.500313
0.729488 0.165606 0.541161
0.0620279 0.218921 0.467292
0.0741283 0.177066 0.505455
0.534615 0.126787 0.555566
0.73077 0.161563 0.497734
0.732006 0.166064 0.535256
0.138659 0.57818 0.550423
0.143023 0.58764 0.560815
0.524895 0.578775 0.58526
0.933837 0.473747 0.550622
0.939986 0.488228 0.579232
0.401251 0.874968 0.723644
0.405081 0.873121 0.722545
0.379355 0.861341 0.612757
0.919799 0.911604 0.630137
0.944945 0.917906 0.697383
0.440467 0.891218 0.799649
0.442878 0.887449 0.792782
0.452232 0.874739 0.668757
0.919066 0.916701 0.686595
0.941619 0.921965 0.709758
0.101442 0.368414 0.708614
0.128008 0.350576 0.728862
0.508019 0.29041 0.833768
0.703716 0.208362 0.741955
0.703304 0.208408 0.742809
0.101823 0.377005 0.702235
0.100984 0.369146 0.708186
0.498741 0.294255 0.835004
0.705089 0.208103 0.74052
0.702953 0.208469 0.743175
0.153597 0.578805 0.726146
0.158679 0.586389 0.735348
0.323888 0.564553 0.861692
0.842741 0.380774 0.857893
0.864012 0.419745 0.883909
0.490364 0.897932 0.88333
0.508751 0.897337 0.883955
0.492485 0.890333 0.874098
0.894728 0.909255 0.914473
0.939223 0.910903 0.91722
0.423728 0.884504 0.874067
0.432792 0.882506 0.872007
0.556466 0.905394 0.892317
0.90985 0.936858 0.931533
0.945541 0.941375 0.932525
0.100984 0.366567 0.710048
0.150256 0.347585 0.74342
0.526238 0.293523 0.837736
0.703731 0.208362 0.74197
0.703365 0.208392 0.742748
0.102083 0.376257 0.703227
0.100847 0.367559 0.709697
0.516335 0.294194 0.83711
0.704967 0.20827 0.740841
0.702968 0.208453 0.743206
0.169482 0.598749 0.757809
0.170932 0.601373 0.757519
0.33164 0.559091 0.865919
0.844282 0.387304 0.863813
0.860899 0.416052 0.881758
0.424033 0.884581 0.873945
0.433753 0.881422 0.871077
0.439979 0.877028 0.87396
0.863981 0.899443 0.924895
0.936065 0.908629 0.932464
0.418631 0.885908 0.874922
0.435325 0.881804 0.871473
0.470466 0.892042 0.882322
0.888365 0.932357 0.935424
0.948287 0.941466 0.942412
