bundles/resolve-cinematic-luts/Phantom Luts/Fx6 Phntm ARRI LUTs-G5/ATOMOS Monitoring LUTs/Jamaica Fx6 AML.cube
TITLE "Generated by Resolve"
LUT_3D_SIZE 5
0.0648814 0.081651 0.0648661
0.197589 0.0895552 0.0816052
0.572229 0.106722 0.175296
0.701411 0.160128 0.334096
0.699672 0.154559 0.346792
0.0696727 0.214954 0.0989548
0.179538 0.191943 0.0832837
0.569665 0.122896 0.123323
0.694087 0.174914 0.270176
0.701183 0.174228 0.293431
0.169253 0.676158 0.350668
0.159609 0.664805 0.297887
0.615793 0.621256 0.195346
0.901701 0.584649 0.346471
0.894972 0.556954 0.340475
0.457893 0.948837 0.678889
0.451072 0.948959 0.6551
0.548821 0.948882 0.536095
0.949767 0.945068 0.550408
0.94992 0.948928 0.576761
0.463157 0.948943 0.701411
0.454566 0.948837 0.673548
0.495186 0.948974 0.532921
0.945998 0.942336 0.541085
0.94992 0.948943 0.578073
0.0617227 0.0920119 0.142245
0.19173 0.0881514 0.185046
0.584924 0.0965591 0.260227
0.695567 0.145724 0.369696
0.693431 0.142321 0.376806
0.0803998 0.191363 0.176577
0.161685 0.177279 0.157626
0.5608 0.112673 0.166369
0.701625 0.162188 0.327779
0.700572 0.156954 0.341588
0.1664 0.669276 0.401251
0.157351 0.659617 0.337545
0.606806 0.612787 0.192676
0.897307 0.564157 0.342718
0.888853 0.533898 0.33695
0.458701 0.948867 0.699062
0.45362 0.948821 0.674632
0.512551 0.948913 0.542351
0.949722 0.945022 0.552972
0.949935 0.948943 0.578271
0.463508 0.948974 0.71986
0.455589 0.948882 0.694377
0.472099 0.948867 0.551812
0.941665 0.941619 0.543557
0.949935 0.948943 0.580026
0.0772869 0.136706 0.471443
0.207736 0.106249 0.494575
0.571618 0.107591 0.555749
0.69926 0.155367 0.514015
0.699901 0.157183 0.521233
0.0528878 0.177295 0.429999
0.0817121 0.1308 0.457755
0.563165 0.107454 0.539651
0.696941 0.149691 0.490379
0.698116 0.151476 0.496956
0.154543 0.610666 0.575494
0.148104 0.604456 0.561563
0.568399 0.580133 0.528359
0.941344 0.469673 0.501915
0.921767 0.423713 0.482307
0.465812 0.948913 0.789639
0.461707 0.948821 0.773373
0.46595 0.948837 0.663706
0.94728 0.943221 0.601755
0.949813 0.942946 0.601038
0.46894 0.948943 0.803815
0.463218 0.948898 0.78706
0.463905 0.948882 0.68072
0.920501 0.940917 0.584802
0.949981 0.948989 0.606806
0.133165 0.300572 0.674678
0.186496 0.265812 0.69987
0.541619 0.241413 0.796841
0.672251 0.204593 0.719036
0.671641 0.204837 0.718257
0.131533 0.31046 0.674098
0.129091 0.29276 0.669291
0.513024 0.235737 0.791318
0.67303 0.203555 0.717479
0.671717 0.204791 0.718242
0.171511 0.533883 0.717479
0.169894 0.521721 0.717876
0.383551 0.463523 0.847883
0.761013 0.289937 0.779812
0.719966 0.24567 0.736919
0.494514 0.92665 0.91841
0.486488 0.926223 0.912444
0.466972 0.918212 0.893919
0.900221 0.909834 0.883192
0.9467 0.902464 0.88603
0.502647 0.926177 0.924483
0.501305 0.928542 0.921675
0.511696 0.942428 0.911757
0.872465 0.947066 0.893767
0.949218 0.942535 0.897551
0.13962 0.313298 0.684627
0.199496 0.294408 0.718318
0.556664 0.266499 0.821851
0.672267 0.204593 0.718975
0.672236 0.204593 0.718914
0.138521 0.323003 0.683375
0.139437 0.313695 0.684413
0.524346 0.266316 0.820066
0.672435 0.204761 0.719295
0.672221 0.204578 0.718837
0.202167 0.539803 0.755596
0.197024 0.526192 0.751034
0.330755 0.453407 0.848951
0.741115 0.280873 0.780377
0.702251 0.240467 0.745632
0.446967 0.892012 0.910338
0.442664 0.88838 0.907073
0.41767 0.862272 0.893645
0.855711 0.881559 0.926131
0.937163 0.880674 0.94107
0.449607 0.896208 0.909102
0.449287 0.896696 0.907607
0.452552 0.899794 0.91043
0.846342 0.938796 0.941695
0.946609 0.943221 0.94641
