bundles/resolve-cinematic-luts/Phantom Luts/Fx6 Phntm ARRI LUTs-G5/ATOMOS Monitoring LUTs/Jamaica Fx6 AML.cube
TITLE "Generated by Resolve"
LUT_3D_SIZE 9
0.0648814 0.081651 0.0648661
0.0973831 0.0849928 0.0681926
0.197589 0.0895552 0.0816052
0.371237 0.0956436 0.109697
0.572229 0.106722 0.175296
0.6916 0.157824 0.298421
0.701411 0.160128 0.334096
0.700343 0.156085 0.344259
0.699672 0.154559 0.346792
0.0699626 0.108232 0.0777295
0.0869001 0.0986648 0.0717479
0.172976 0.0981613 0.0790112
0.365179 0.0938735 0.086656
0.565774 0.114336 0.145418
0.685557 0.161471 0.269123
0.702586 0.16817 0.313436
0.701976 0.16376 0.324437
0.701534 0.162188 0.327367
0.0696727 0.214954 0.0989548
0.0819715 0.205631 0.0758984
0.179538 0.191943 0.0832837
0.371191 0.154925 0.0970626
0.569665 0.122896 0.123323
0.658427 0.15349 0.207218
0.694087 0.174914 0.270176
0.699947 0.174746 0.287984
0.701183 0.174228 0.293431
0.0766155 0.415198 0.175814
0.0713207 0.410101 0.147066
0.132647 0.397421 0.094377
0.359152 0.37499 0.0988937
0.625742 0.333013 0.163546
0.762295 0.317708 0.251911
0.685557 0.192218 0.215885
0.666987 0.168383 0.209705
0.663233 0.163104 0.209979
0.169253 0.676158 0.350668
0.163821 0.671321 0.329885
0.159609 0.664805 0.297887
0.308919 0.650324 0.205493
0.615793 0.621256 0.195346
0.856138 0.595575 0.307317
0.901701 0.584649 0.346471
0.897734 0.565957 0.343053
0.894972 0.556954 0.340475
0.38117 0.90573 0.591073
0.376516 0.902571 0.579416
0.371908 0.8981 0.563241
0.366842 0.884291 0.497093
0.629084 0.873854 0.413321
0.844633 0.851698 0.412985
0.94641 0.851621 0.471839
0.944686 0.841703 0.465415
0.94461 0.836454 0.462013
0.457893 0.948837 0.678889
0.453101 0.948989 0.666331
0.451072 0.948959 0.6551
0.44094 0.948837 0.621561
0.548821 0.948882 0.536095
0.823972 0.929915 0.519219
0.949767 0.945068 0.550408
0.94992 0.948928 0.57792
0.94992 0.948928 0.576761
0.461631 0.948867 0.695247
0.455177 0.948837 0.681086
0.45359 0.948943 0.667918
0.445212 0.948852 0.634531
0.499992 0.948928 0.533379
0.806729 0.932784 0.520623
0.949111 0.943572 0.542382
0.949935 0.948943 0.579446
0.949935 0.948943 0.5794
0.463157 0.948943 0.701411
0.45684 0.948852 0.686732
0.454566 0.948837 0.673548
0.446433 0.948882 0.638498
0.495186 0.948974 0.532921
0.804166 0.933074 0.520775
0.945998 0.942336 0.541085
0.949935 0.948943 0.578271
0.94992 0.948943 0.578073
0.0643015 0.0830701 0.0788891
0.0947585 0.0842298 0.0918898
0.195514 0.0878767 0.117433
0.38027 0.0922866 0.155215
0.581216 0.102831 0.208774
0.690867 0.150332 0.317266
0.699397 0.15346 0.349874
0.697414 0.149615 0.358984
0.696941 0.148394 0.361517
0.070985 0.0981155 0.0872663
0.0768597 0.0923476 0.0778821
0.175341 0.0903792 0.0801404
0.35668 0.0950637 0.106065
0.566964 0.107256 0.172625
0.688289 0.155123 0.292729
0.701457 0.16051 0.332265
0.700481 0.156588 0.342412
0.699947 0.155016 0.345556
0.0731823 0.205859 0.137163
0.0700999 0.197589 0.0965896
0.169131 0.18349 0.0843519
0.380514 0.140871 0.0963149
0.559594 0.109071 0.118242
0.673106 0.156786 0.240558
0.701717 0.172763 0.298695
0.70251 0.168933 0.310994
0.702449 0.167315 0.315145
0.0780041 0.413382 0.207919
0.0738079 0.405127 0.172381
0.0861067 0.394873 0.0994278
0.352712 0.369192 0.099443
0.621027 0.321965 0.160555
0.752789 0.300786 0.249073
0.674617 0.177951 0.212451
0.662928 0.162051 0.210727
0.664622 0.163592 0.212482
0.169009 0.675334 0.370306
0.163439 0.670039 0.345357
0.157733 0.662013 0.316274
0.28098 0.648585 0.198322
0.611841 0.617578 0.193927
0.858442 0.590036 0.30837
0.899718 0.576364 0.344686
0.895796 0.556939 0.341421
0.892454 0.547585 0.338781
0.37882 0.904128 0.59852
0.375662 0.902327 0.586435
0.370535 0.897734 0.570489
0.361837 0.884764 0.513344
0.620874 0.874601 0.411948
0.842664 0.84976 0.4112
0.945754 0.847974 0.469413
0.943542 0.837278 0.462226
0.943267 0.833127 0.459388
0.458183 0.948852 0.687831
0.453758 0.948821 0.674846
0.452689 0.948974 0.663249
0.443641 0.948852 0.629633
0.531838 0.948882 0.538231
0.820523 0.930449 0.519341
0.949752 0.945037 0.551476
0.949935 0.948943 0.578775
0.94992 0.948928 0.577279
0.461112 0.948898 0.703105
0.455467 0.948867 0.68986
0.454215 0.948806 0.677165
0.447578 0.948928 0.643839
0.488716 0.948928 0.538674
0.802747 0.933745 0.521141
0.947402 0.943023 0.543481
0.949935 0.948943 0.580407
0.949935 0.948943 0.580331
0.463096 0.948959 0.709224
0.455375 0.948882 0.694408
0.455222 0.948837 0.682673
0.448707 0.948943 0.647395
0.4851 0.948928 0.540749
0.799847 0.933989 0.521126
0.944106 0.941924 0.541527
0.949935 0.948943 0.579309
0.949935 0.948943 0.578943
0.0617227 0.0920119 0.142245
0.106813 0.0882734 0.157931
0.19173 0.0881514 0.185046
0.380163 0.0905318 0.209689
0.584924 0.0965591 0.260227
0.68748 0.139879 0.342321
0.695567 0.145724 0.369696
0.693858 0.143236 0.375601
0.693431 0.142321 0.376806
0.0661936 0.097734 0.122683
0.0670939 0.0906233 0.13547
0.171328 0.0881819 0.162966
0.365225 0.0903182 0.176761
0.579049 0.100267 0.225574
0.687099 0.143938 0.32166
0.698375 0.151125 0.355474
0.69662 0.147799 0.363973
0.696162 0.146746 0.366537
0.0803998 0.191363 0.176577
0.0794995 0.183322 0.165225
0.161685 0.177279 0.157626
0.388083 0.146853 0.14818
0.5608 0.112673 0.166369
0.682887 0.151568 0.280903
0.701625 0.162188 0.327779
0.701137 0.158434 0.338659
0.700572 0.156954 0.341588
0.0817884 0.403296 0.254688
0.0775464 0.399985 0.22739
0.0741283 0.389166 0.166842
0.345663 0.363836 0.114046
0.628763 0.300465 0.166644
0.727199 0.261234 0.235721
0.664042 0.163928 0.210605
0.67422 0.171298 0.223789
0.676661 0.172259 0.228153
0.1664 0.669276 0.401251
0.162539 0.667796 0.377234
0.157351 0.659617 0.337545
0.227314 0.643442 0.196933
0.606806 0.612787 0.192676
0.861082 0.581247 0.309499
0.897307 0.564157 0.342718
0.892195 0.542748 0.339086
0.888853 0.533898 0.33695
0.373922 0.900557 0.609964
0.372274 0.89987 0.59823
0.368902 0.897063 0.580499
0.355673 0.883177 0.529198
0.606775 0.87538 0.409735
0.839689 0.84715 0.408667
0.944961 0.843244 0.466392
0.942718 0.831937 0.458915
0.941573 0.826841 0.454704
0.458701 0.948867 0.699062
0.454307 0.948837 0.686549
0.45362 0.948821 0.674632
0.446754 0.948867 0.641001
0.512551 0.948913 0.542351
0.815885 0.931563 0.521004
0.949722 0.945022 0.552972
0.949935 0.948943 0.580224
0.949935 0.948943 0.578271
0.461509 0.948913 0.713481
0.455039 0.948882 0.699886
0.454963 0.948852 0.689143
0.450919 0.948959 0.654734
0.476432 0.948913 0.550774
0.797177 0.935119 0.521752
0.945418 0.942382 0.545357
0.949935 0.948943 0.581811
0.949935 0.948943 0.581613
0.463508 0.948974 0.71986
0.455314 0.948898 0.704631
0.455589 0.948882 0.694377
0.451957 0.948974 0.658351
0.472099 0.948867 0.551812
0.79379 0.935302 0.521675
0.941665 0.941619 0.543557
0.949935 0.948943 0.580758
0.949935 0.948943 0.580026
0.0691844 0.104479 0.281956
0.121889 0.09337 0.296284
0.200015 0.0930343 0.319173
0.375082 0.0920424 0.360098
0.592569 0.0991989 0.371023
0.680964 0.128038 0.387854
0.691539 0.138491 0.410208
0.691585 0.138567 0.416892
0.691676 0.138506 0.418326
0.0542 0.115755 0.254841
0.0688182 0.103075 0.272419
0.166155 0.0930953 0.304631
0.362264 0.0915694 0.343664
0.585397 0.0975967 0.349416
0.679011 0.126574 0.374685
0.691325 0.138582 0.39855
0.691432 0.138506 0.405356
0.691508 0.138415 0.406683
0.0635386 0.179339 0.256474
0.0606241 0.16669 0.259281
0.115923 0.140017 0.291539
0.350805 0.101335 0.322957
0.576196 0.0971389 0.312139
0.677165 0.126024 0.354681
0.692592 0.140978 0.383398
0.69192 0.139864 0.38883
0.691676 0.139483 0.389578
0.088716 0.374426 0.342
0.0876631 0.369741 0.333089
0.0886244 0.362005 0.319844
0.340871 0.360174 0.317372
0.653284 0.307729 0.294743
0.708263 0.190188 0.278965
0.702708 0.168658 0.312535
0.702434 0.164599 0.32372
0.702144 0.163119 0.327138
0.1626 0.652811 0.474189
0.158968 0.652232 0.459174
0.155215 0.648707 0.434058
0.154314 0.639246 0.315847
0.596445 0.605631 0.240131
0.870054 0.568719 0.330236
0.898802 0.523461 0.351553
0.887388 0.497154 0.343908
0.881605 0.486244 0.340047
0.363577 0.891096 0.643473
0.360784 0.890288 0.631968
0.35787 0.888594 0.616236
0.348867 0.881071 0.55996
0.535378 0.880095 0.405966
0.831113 0.839185 0.400992
0.942992 0.828031 0.460151
0.940764 0.815763 0.451637
0.939757 0.810071 0.447303
0.460487 0.948943 0.727596
0.456474 0.948928 0.716655
0.455451 0.948898 0.706157
0.45333 0.948898 0.671641
0.469215 0.948898 0.574075
0.801572 0.937041 0.532876
0.949722 0.944961 0.557458
0.949935 0.948363 0.578317
0.94992 0.947478 0.573861
0.462486 0.948959 0.73933
0.457527 0.948943 0.728435
0.456626 0.948928 0.718029
0.454749 0.948852 0.686046
0.450675 0.948806 0.589456
0.780575 0.941482 0.533791
0.939971 0.942153 0.550698
0.94995 0.948959 0.585245
0.949935 0.948943 0.584863
0.46453 0.948806 0.745968
0.457954 0.948959 0.733288
0.457115 0.948943 0.722942
0.454994 0.948852 0.691066
0.450828 0.948821 0.592935
0.77583 0.941665 0.533211
0.937346 0.943206 0.548943
0.949935 0.948943 0.583688
0.949935 0.948943 0.583658
0.0772869 0.136706 0.471443
0.134432 0.112902 0.476738
0.207736 0.106249 0.494575
0.3682 0.104662 0.53814
0.571618 0.107591 0.555749
0.691707 0.14757 0.504326
0.69926 0.155367 0.514015
0.699916 0.157061 0.521248
0.699901 0.157183 0.521233
0.0528267 0.161288 0.453742
0.0781567 0.134401 0.465736
0.168597 0.106661 0.481468
0.34966 0.104494 0.531685
0.568185 0.106981 0.549477
0.690105 0.144839 0.497383
0.698756 0.153353 0.505058
0.699077 0.154665 0.51136
0.699184 0.154879 0.511391
0.0528878 0.177295 0.429999
0.0529641 0.168521 0.437324
0.0817121 0.1308 0.457755
0.31223 0.104402 0.518166
0.563165 0.107454 0.539651
0.686915 0.139956 0.484596
0.696941 0.149691 0.490379
0.697887 0.151202 0.496574
0.698116 0.151476 0.496956
0.0567178 0.336629 0.454459
0.0530251 0.328511 0.453452
0.052842 0.312703 0.454139
0.250278 0.275624 0.507149
0.599847 0.210437 0.550774
0.684627 0.131991 0.443168
0.694789 0.142992 0.444007
0.695644 0.144045 0.450156
0.695842 0.144244 0.45127
0.154543 0.610666 0.575494
0.150729 0.608469 0.56846
0.148104 0.604456 0.561563
0.145769 0.592569 0.538003
0.568399 0.580133 0.528359
0.907362 0.560265 0.530312
0.941344 0.469673 0.501915
0.92932 0.438575 0.489754
0.921767 0.423713 0.482307
0.349569 0.869261 0.714794
0.34638 0.868879 0.705989
0.342885 0.867491 0.69633
0.332769 0.862669 0.664057
0.439979 0.88867 0.57644
0.811215 0.830045 0.515724
0.949828 0.814069 0.545876
0.949828 0.801175 0.534432
0.949996 0.795712 0.530343
0.465812 0.948913 0.789639
0.46273 0.948898 0.781613
0.461707 0.948821 0.773373
0.459281 0.948913 0.749752
0.46595 0.948837 0.663706
0.770123 0.948928 0.606287
0.94728 0.943221 0.601755
0.949813 0.944427 0.606241
0.949813 0.942946 0.601038
0.466407 0.948928 0.797528
0.463569 0.948913 0.789792
0.462638 0.948898 0.782132
0.460151 0.948791 0.75874
0.463584 0.948882 0.676204
0.725216 0.948837 0.594339
0.928573 0.942061 0.588663
0.949996 0.949004 0.611826
0.949996 0.949004 0.609659
0.46894 0.948943 0.803815
0.46424 0.948928 0.795209
0.463218 0.948898 0.78706
0.460731 0.948791 0.763516
0.463905 0.948882 0.68072
0.711727 0.948959 0.591363
0.920501 0.940917 0.584802
0.949996 0.949004 0.612131
0.949981 0.948989 0.606806
0.0935988 0.201236 0.616144
0.140932 0.176715 0.628946
0.207355 0.149584 0.637644
0.356329 0.149935 0.678553
0.536614 0.151186 0.689036
0.668269 0.177951 0.652308
0.684718 0.188266 0.665248
0.683162 0.189715 0.672847
0.681804 0.190082 0.672465
0.0760815 0.220478 0.610162
0.0942092 0.19881 0.614801
0.167651 0.162325 0.630701
0.335027 0.148928 0.672114
0.530221 0.150103 0.688792
0.665797 0.175723 0.648798
0.686107 0.186755 0.659815
0.684169 0.188602 0.666087
0.683085 0.189044 0.665919
0.0736553 0.235203 0.608301
0.0739757 0.228046 0.60882
0.0912184 0.196887 0.61088
0.294987 0.146334 0.659022
0.519951 0.148684 0.688411
0.661891 0.171923 0.642786
0.689128 0.184482 0.651133
0.687282 0.18613 0.657206
0.686549 0.186328 0.65742
0.0712139 0.308125 0.60116
0.0707561 0.298207 0.601862
0.0711223 0.282017 0.605051
0.14107 0.216495 0.639857
0.483757 0.152239 0.690959
0.654276 0.162188 0.626841
0.697307 0.179294 0.61976
0.696712 0.180316 0.624857
0.696498 0.180438 0.624826
0.132815 0.548287 0.656031
0.12871 0.545098 0.651789
0.124269 0.538155 0.649561
0.115129 0.516152 0.646967
0.477882 0.498894 0.731319
0.862287 0.453269 0.782361
0.882979 0.34078 0.720439
0.850462 0.307668 0.692714
0.836484 0.294087 0.678706
0.331182 0.818265 0.787808
0.327916 0.817792 0.78201
0.324102 0.81532 0.777371
0.315999 0.809491 0.767346
0.411017 0.826413 0.765057
0.776608 0.786526 0.736614
0.948928 0.773007 0.743008
0.949981 0.753628 0.734173
0.949798 0.746746 0.729366
0.48571 0.948974 0.877531
0.483024 0.948959 0.872389
0.48098 0.948959 0.867796
0.476097 0.948898 0.855055
0.481209 0.948837 0.813397
0.720989 0.948882 0.783078
0.926146 0.929854 0.749249
0.949844 0.925566 0.768551
0.949889 0.922835 0.764691
0.489876 0.948287 0.885435
0.485954 0.948928 0.879255
0.483604 0.949004 0.874464
0.478416 0.948943 0.861219
0.479591 0.948837 0.817884
0.692943 0.948775 0.77821
0.902312 0.937713 0.747723
0.949752 0.945647 0.775967
0.949859 0.94641 0.775448
0.490822 0.948455 0.887968
0.487999 0.948821 0.883879
0.485725 0.948943 0.878981
0.48014 0.948943 0.86569
0.480034 0.948852 0.821424
0.686259 0.949004 0.778027
0.894926 0.937606 0.746395
0.949737 0.945266 0.768429
0.94992 0.946975 0.772946
0.133165 0.300572 0.674678
0.134066 0.289418 0.672633
0.186496 0.265812 0.69987
0.336568 0.227375 0.752438
0.541619 0.241413 0.796841
0.65153 0.200565 0.714855
0.672251 0.204593 0.719036
0.671901 0.204791 0.718822
0.671641 0.204837 0.718257
0.132601 0.305364 0.67451
0.131365 0.297261 0.672374
0.149432 0.278416 0.679164
0.314107 0.22533 0.743786
0.5308 0.238956 0.794705
0.648981 0.200458 0.715206
0.672465 0.204334 0.718746
0.671214 0.205066 0.717723
0.671031 0.205051 0.717235
0.131533 0.31046 0.674098
0.130831 0.306203 0.672801
0.129091 0.29276 0.669291
0.273747 0.227375 0.729641
0.513024 0.235737 0.791318
0.643503 0.1991 0.714794
0.67303 0.203555 0.717479
0.672206 0.2047 0.719326
0.671717 0.204791 0.718242
0.121065 0.319371 0.667185
0.121675 0.314549 0.66659
0.123064 0.307881 0.666255
0.126772 0.279316 0.663493
0.453925 0.226108 0.777752
0.637415 0.206714 0.72462
0.674876 0.201968 0.712673
0.674449 0.202762 0.714717
0.674037 0.202884 0.714427
0.171511 0.533883 0.717479
0.170321 0.529091 0.717006
0.169894 0.521721 0.717876
0.171008 0.502312 0.721935
0.383551 0.463523 0.847883
0.769238 0.421225 0.911269
0.761013 0.289937 0.779812
0.730907 0.258274 0.748775
0.719966 0.24567 0.736919
0.313939 0.757168 0.822003
0.310658 0.754681 0.81857
0.307271 0.750011 0.816526
0.297963 0.737057 0.810925
0.324025 0.731197 0.84155
0.713008 0.730938 0.862745
0.935683 0.708721 0.901915
0.941894 0.683116 0.900343
0.941238 0.675929 0.89752
0.494514 0.92665 0.91841
0.490318 0.927275 0.914626
0.486488 0.926223 0.912444
0.477119 0.923323 0.907134
0.466972 0.918212 0.893919
0.714321 0.924666 0.896651
0.900221 0.909834 0.883192
0.948653 0.905425 0.890517
0.9467 0.902464 0.88603
0.503563 0.927321 0.924102
0.501305 0.929107 0.921187
0.500725 0.930022 0.919936
0.499886 0.932219 0.917235
0.511894 0.943236 0.911131
0.708858 0.949004 0.9084
0.878035 0.946319 0.894865
0.947662 0.941085 0.894514
0.949813 0.940978 0.899901
0.502647 0.926177 0.924483
0.501793 0.927382 0.922911
0.501305 0.928542 0.921675
0.500252 0.930999 0.918471
0.511696 0.942428 0.911757
0.701442 0.948943 0.907881
0.872465 0.947066 0.893767
0.942641 0.942565 0.889555
0.949218 0.942535 0.897551
0.13962 0.314061 0.684413
0.140932 0.309346 0.685008
0.190723 0.297322 0.713588
0.338888 0.254231 0.771344
0.553811 0.266545 0.821866
0.662837 0.212451 0.727199
0.672267 0.204593 0.718975
0.672145 0.204639 0.718914
0.672236 0.204593 0.71899
0.138888 0.316838 0.683314
0.139361 0.314153 0.684291
0.15436 0.306386 0.692546
0.315572 0.255741 0.763668
0.54226 0.266957 0.821958
0.665034 0.219287 0.73373
0.672267 0.204593 0.71902
0.67216 0.204623 0.718883
0.671366 0.204929 0.7178
0.138293 0.323201 0.68307
0.138903 0.321279 0.683742
0.1393 0.314488 0.684215
0.272282 0.265904 0.74995
0.521553 0.266392 0.819898
0.667247 0.228382 0.743557
0.672374 0.204654 0.719234
0.672312 0.204608 0.719173
0.671885 0.204715 0.718425
0.146532 0.35668 0.695048
0.14374 0.347829 0.691341
0.139422 0.333867 0.685496
0.139406 0.314 0.684367
0.452949 0.262867 0.807523
0.66598 0.24596 0.768719
0.67306 0.205447 0.719814
0.672953 0.205325 0.719783
0.672801 0.205249 0.719326
0.199161 0.539773 0.75111
0.198566 0.536355 0.751019
0.19736 0.530098 0.750683
0.19115 0.508614 0.745647
0.339101 0.464393 0.85417
0.734218 0.421927 0.920501
0.759884 0.298894 0.797253
0.730373 0.270436 0.770932
0.719341 0.25893 0.760494
0.311437 0.740124 0.827237
0.307927 0.736522 0.824353
0.303349 0.731029 0.821836
0.290608 0.715908 0.814633
0.3075 0.704509 0.843107
0.662318 0.714153 0.897749
0.907317 0.706813 0.938964
0.930007 0.676768 0.947127
0.927565 0.669047 0.945403
0.453086 0.897139 0.914275
0.452811 0.897826 0.912902
0.451057 0.8963 0.911788
0.4477 0.892348 0.910201
0.430793 0.875853 0.90071
0.660624 0.889265 0.921599
0.878752 0.891951 0.923995
0.942901 0.886992 0.937865
0.941939 0.882292 0.936416
0.449928 0.896117 0.909819
0.449653 0.897078 0.908019
0.450904 0.898299 0.909102
0.454734 0.902113 0.912551
0.510994 0.924407 0.929808
0.701671 0.937087 0.936004
0.886229 0.940047 0.93669
0.94052 0.939116 0.936446
0.949737 0.937148 0.939452
0.449516 0.896132 0.909483
0.449287 0.896666 0.907668
0.449287 0.896696 0.907607
0.450675 0.89807 0.908904
0.510033 0.924147 0.930022
0.694224 0.937774 0.935531
0.881987 0.941802 0.936904
0.935637 0.942611 0.936385
0.949584 0.941939 0.940047
0.13962 0.313298 0.684627
0.145937 0.308049 0.687663
0.199496 0.294408 0.718318
0.343221 0.254261 0.772686
0.556664 0.266499 0.821851
0.66096 0.208179 0.723125
0.672267 0.204593 0.718975
0.672267 0.204593 0.718975
0.672236 0.204593 0.718914
0.138979 0.316381 0.683604
0.139452 0.313359 0.684459
0.162585 0.304494 0.697169
0.320134 0.255329 0.76527
0.545388 0.266987 0.822126
0.664179 0.216068 0.730541
0.672251 0.204593 0.719005
0.672251 0.204593 0.718959
0.672206 0.204578 0.718761
0.138521 0.323003 0.683375
0.138933 0.319524 0.68365
0.139437 0.313695 0.684413
0.277516 0.264118 0.751644
0.524346 0.266316 0.820066
0.666651 0.22623 0.741146
0.672435 0.204761 0.719295
0.672312 0.204608 0.719173
0.672221 0.204578 0.718837
0.145708 0.354391 0.694087
0.142992 0.345647 0.690333
0.139132 0.33196 0.684916
0.139315 0.312749 0.684199
0.455467 0.263218 0.808301
0.666056 0.245365 0.767742
0.673091 0.205493 0.719829
0.672984 0.205356 0.719799
0.672816 0.205264 0.719341
0.202167 0.539803 0.755596
0.200351 0.534676 0.75375
0.197024 0.526192 0.751034
0.188632 0.501091 0.743526
0.330755 0.453407 0.848951
0.724254 0.405631 0.915038
0.741115 0.280873 0.780377
0.711803 0.25095 0.754147
0.702251 0.240467 0.745632
0.306676 0.734051 0.827085
0.303334 0.730495 0.824735
0.298894 0.725521 0.821958
0.284794 0.710109 0.813199
0.300832 0.695949 0.837369
0.656352 0.705165 0.897108
0.903914 0.697826 0.938872
0.927871 0.667918 0.946136
0.926925 0.659403 0.945907
0.446967 0.892012 0.910338
0.445182 0.890776 0.908644
0.442664 0.88838 0.907073
0.435676 0.881315 0.90309
0.41767 0.862272 0.893645
0.606851 0.882078 0.925887
0.855711 0.881559 0.926131
0.93695 0.885801 0.941176
0.937163 0.880674 0.94107
0.449516 0.896315 0.908782
0.449302 0.896681 0.907637
0.449287 0.896696 0.907607
0.449287 0.896696 0.907607
0.452659 0.89987 0.910491
0.601526 0.934951 0.943145
0.797269 0.933379 0.940444
0.932189 0.934096 0.942473
0.947173 0.935561 0.946853
0.449607 0.896208 0.909102
0.449287 0.896666 0.907683
0.449287 0.896696 0.907607
0.449287 0.896696 0.907607
0.452552 0.899794 0.91043
0.592859 0.934478 0.942794
0.846342 0.938796 0.941695
0.9364 0.942885 0.94435
0.946609 0.943221 0.94641
