bundles/resolve-cinematic-luts/Phantom Luts/Fx6 Phntm ARRI LUTs-G5/ATOMOS Monitoring LUTs/Jamaica Fx6 AML.cube
TITLE "Generated by Resolve"
LUT_3D_SIZE 33
0.0648814 0.081651 0.0648661
0.0648508 0.0816052 0.0648508
0.0674449 0.0817578 0.0647288
0.0793622 0.0834516 0.06598
0.0973831 0.0849928 0.0681926
0.119615 0.0863661 0.0710613
0.142168 0.0873121 0.0740368
0.167391 0.0882887 0.0775158
0.197589 0.0895552 0.0816052
0.232609 0.0912032 0.0864881
0.271931 0.0925612 0.0920272
0.319036 0.0941176 0.099321
0.371237 0.0956436 0.109697
0.423865 0.0984054 0.12459
0.478355 0.100938 0.141024
0.528298 0.103914 0.157595
0.572229 0.106722 0.175296
0.609247 0.111635 0.197024
0.6392 0.120531 0.225422
0.663905 0.133165 0.258778
0.6916 0.157824 0.298421
0.702358 0.165942 0.318685
0.701793 0.1635 0.324514
0.701518 0.161532 0.329793
0.701411 0.160128 0.334096
0.701198 0.158846 0.337697
0.700816 0.157687 0.340414
0.700557 0.156863 0.342428
0.700343 0.156085 0.344259
0.70016 0.155581 0.345464
0.699962 0.155108 0.346349
0.699794 0.154757 0.346716
0.699672 0.154559 0.346792
0.0648508 0.0816052 0.0648508
0.0648661 0.0816205 0.0648508
0.0648508 0.0816052 0.0648508
0.0744182 0.0832837 0.0656748
0.0894179 0.0857557 0.0681773
0.109163 0.0867933 0.0706035
0.132555 0.0875868 0.0721752
0.159411 0.0881056 0.0746166
0.19089 0.0886854 0.0774701
0.228214 0.0895552 0.0814374
0.269917 0.0907759 0.0861982
0.316732 0.0919814 0.091783
0.368582 0.0938735 0.0997024
0.417823 0.0995193 0.112871
0.472587 0.101961 0.130831
0.524376 0.105028 0.148867
0.569024 0.107912 0.167269
0.606256 0.112413 0.188342
0.63714 0.121569 0.217624
0.662745 0.134539 0.251743
0.69073 0.158923 0.292393
0.702434 0.167803 0.313909
0.702312 0.165499 0.319905
0.701808 0.163378 0.324834
0.701564 0.1617 0.329381
0.701488 0.160525 0.332921
0.701396 0.159564 0.33608
0.701183 0.158633 0.338338
0.700938 0.157916 0.339925
0.700725 0.157458 0.340963
0.700603 0.157092 0.341665
0.700481 0.156725 0.342214
0.700389 0.156497 0.342397
0.0652476 0.0829938 0.0664988
0.0651255 0.0825818 0.0649882
0.0665141 0.0823224 0.0651713
0.0713359 0.0834669 0.0654612
0.0819562 0.0864271 0.0678416
0.0975814 0.0878614 0.0705119
0.121065 0.0886244 0.0724956
0.14963 0.0894942 0.0749828
0.183078 0.090013 0.0776379
0.22237 0.0903029 0.0800641
0.265827 0.0906539 0.0833906
0.313527 0.0909285 0.0863508
0.367864 0.0919356 0.0915999
0.423682 0.0942245 0.102159
0.473121 0.102724 0.12079
0.519188 0.108904 0.139956
0.565164 0.110369 0.158968
0.602655 0.113069 0.179675
0.634607 0.122515 0.208804
0.660853 0.135714 0.24361
0.689433 0.160082 0.285222
0.702251 0.16968 0.308339
0.702495 0.167605 0.314687
0.702358 0.16556 0.319905
0.7019 0.163775 0.324178
0.70164 0.16231 0.327657
0.701579 0.161273 0.330968
0.701503 0.16051 0.33315
0.701457 0.15993 0.335042
0.701381 0.159396 0.336583
0.701228 0.158968 0.337407
0.701091 0.158572 0.337972
0.700999 0.158328 0.338155
0.0673228 0.0942855 0.0722515
0.066743 0.0928511 0.0700847
0.0725719 0.0908064 0.067628
0.0764935 0.0895705 0.0677348
0.0816052 0.0896162 0.0693065
0.0914626 0.0907454 0.0709544
0.110735 0.0905928 0.0729534
0.14023 0.0911574 0.0756542
0.173571 0.0920882 0.0774853
0.216205 0.0923476 0.0800183
0.261646 0.0919203 0.082536
0.311727 0.0919203 0.0851911
0.366369 0.0923629 0.0877852
0.420523 0.0920272 0.0903944
0.475731 0.0958877 0.10544
0.5234 0.107134 0.131884
0.563516 0.116838 0.15288
0.600595 0.116426 0.172625
0.631601 0.123659 0.199557
0.658396 0.136461 0.234821
0.6878 0.161013 0.277867
0.701885 0.171542 0.302449
0.702327 0.169558 0.308949
0.702571 0.167758 0.314488
0.702464 0.166033 0.318883
0.702098 0.164553 0.322499
0.7019 0.163348 0.325338
0.701671 0.162325 0.327794
0.701625 0.161639 0.3299
0.701579 0.161151 0.331319
0.701503 0.160769 0.332097
0.701442 0.160525 0.332586
0.701381 0.160388 0.332708
0.0699626 0.108232 0.0777295
0.0687724 0.105943 0.075288
0.0733196 0.102602 0.0721599
0.0787213 0.0994125 0.0710613
0.0869001 0.0986648 0.0717479
0.097734 0.0993515 0.0749676
0.114183 0.0991684 0.0766003
0.142168 0.0983291 0.0781567
0.172976 0.0981613 0.0790112
0.214755 0.096849 0.0809339
0.256001 0.0950332 0.0819867
0.310124 0.0945144 0.0850538
0.365179 0.0938735 0.086656
0.420951 0.094255 0.0902266
0.472801 0.0950332 0.0943008
0.522591 0.0999924 0.114199
0.565774 0.114336 0.145418
0.597742 0.121523 0.164904
0.628092 0.124514 0.18999
0.653727 0.135653 0.223514
0.685557 0.161471 0.269123
0.701503 0.173358 0.296422
0.701991 0.171511 0.3028
0.702358 0.169696 0.30869
0.702586 0.16817 0.313436
0.702602 0.166735 0.317479
0.702449 0.165499 0.320424
0.702129 0.164523 0.322652
0.701976 0.16376 0.324437
0.701869 0.163256 0.325567
0.701762 0.162768 0.326589
0.70161 0.162387 0.327184
0.701534 0.162188 0.327367
0.0708629 0.127337 0.0806134
0.0694285 0.12459 0.0772869
0.071519 0.121324 0.0748608
0.0796521 0.115953 0.0744335
0.0884565 0.112795 0.0756237
0.102602 0.112642 0.0764935
0.120882 0.113405 0.0781415
0.146227 0.110811 0.0806287
0.175448 0.108843 0.0815442
0.214786 0.107561 0.0833448
0.261036 0.105486 0.0844282
0.310109 0.100832 0.0852064
0.365087 0.0982986 0.0876173
0.420203 0.0979324 0.0911879
0.474342 0.0991531 0.0977188
0.520699 0.0999161 0.103517
0.563195 0.106767 0.128557
0.60032 0.123156 0.160922
0.624323 0.125139 0.180789
0.649882 0.135607 0.213993
0.682063 0.160861 0.259602
0.699763 0.174014 0.288792
0.701625 0.173251 0.297078
0.702022 0.171588 0.302724
0.702358 0.170062 0.307805
0.702586 0.168795 0.311772
0.702663 0.167681 0.315129
0.702663 0.166812 0.31751
0.702556 0.166018 0.31928
0.702434 0.165347 0.32076
0.702251 0.164889 0.321645
0.702022 0.164538 0.322057
0.701869 0.164309 0.322179
0.0707713 0.150866 0.084596
0.0692454 0.148775 0.079469
0.0703746 0.1458 0.0767987
0.0781262 0.140063 0.0746777
0.087953 0.134752 0.0767681
0.103029 0.132189 0.0792096
0.125124 0.133822 0.0790265
0.149752 0.133974 0.0807965
0.179995 0.129046 0.0834669
0.213504 0.123522 0.084535
0.26302 0.117433 0.0865339
0.311818 0.114672 0.0876783
0.376013 0.110307 0.0896773
0.419959 0.10341 0.0925612
0.475456 0.103822 0.0987564
0.522637 0.104921 0.107195
0.561288 0.1066 0.117433
0.595117 0.114656 0.144076
0.626627 0.133532 0.175891
0.647196 0.137438 0.203708
0.677623 0.160006 0.247593
0.69633 0.174075 0.278325
0.699626 0.17435 0.287877
0.701396 0.173785 0.295293
0.701869 0.172473 0.300191
0.702205 0.171206 0.30425
0.702403 0.170077 0.307866
0.702571 0.169284 0.310323
0.702647 0.168582 0.312551
0.702663 0.168032 0.314107
0.702663 0.167559 0.315389
0.702602 0.167208 0.316152
0.702525 0.166995 0.316411
0.0704814 0.179995 0.0903487
0.0682689 0.177859 0.0843824
0.0680552 0.175982 0.0788128
0.074815 0.172641 0.0759289
0.0861372 0.166629 0.0760357
0.100282 0.162356 0.0801556
0.123384 0.159319 0.0839399
0.150637 0.160616 0.0812543
0.181842 0.159686 0.0828107
0.219883 0.153017 0.0858015
0.262104 0.14139 0.0879988
0.315663 0.132662 0.0911421
0.374472 0.129488 0.0940719
0.432654 0.125063 0.0968032
0.481117 0.115572 0.100298
0.524559 0.111101 0.108766
0.564858 0.112917 0.120699
0.594705 0.116197 0.13579
0.617243 0.122988 0.158328
0.640162 0.137652 0.186847
0.670726 0.158312 0.231052
0.691737 0.174243 0.264256
0.694865 0.174517 0.273259
0.697658 0.174472 0.281392
0.700114 0.174548 0.288746
0.701259 0.174075 0.294224
0.701793 0.17322 0.297673
0.701915 0.172473 0.300313
0.702113 0.171862 0.302449
0.70222 0.171389 0.303853
0.702281 0.170916 0.305226
0.702266 0.170535 0.306172
0.702235 0.170306 0.3066
0.0696727 0.214954 0.0989548
0.0669108 0.212528 0.0916915
0.0656443 0.211322 0.0832685
0.0687114 0.210193 0.0770428
0.0819715 0.205631 0.0758984
0.0962997 0.199329 0.0786755
0.118654 0.194965 0.0859388
0.147234 0.190967 0.0883955
0.179538 0.191943 0.0832837
0.220523 0.189975 0.0843977
0.265354 0.181827 0.0877394
0.321111 0.163104 0.0933242
0.371191 0.154925 0.0970626
0.435981 0.151232 0.103166
0.490974 0.147845 0.107607
0.544121 0.139712 0.11606
0.569665 0.122896 0.123323
0.599039 0.123613 0.136492
0.619623 0.128222 0.154986
0.631113 0.131853 0.172702
0.658427 0.15349 0.207218
0.68484 0.173907 0.245777
0.688197 0.174212 0.254673
0.691524 0.17464 0.262974
0.694087 0.174914 0.270176
0.696086 0.174884 0.27602
0.697475 0.174685 0.280583
0.698878 0.174777 0.28455
0.699947 0.174746 0.287984
0.700664 0.174746 0.290135
0.701015 0.17464 0.29192
0.701152 0.17438 0.293019
0.701183 0.174228 0.293431
0.0689708 0.256382 0.112993
0.0666972 0.253834 0.104952
0.0643015 0.252186 0.0949874
0.063798 0.251453 0.0835737
0.0724498 0.249958 0.0770428
0.0906996 0.245106 0.0781415
0.110506 0.238865 0.0831311
0.138735 0.233707 0.0902571
0.174487 0.228489 0.0930495
0.214343 0.228931 0.0852216
0.264652 0.225803 0.0861067
0.317693 0.216602 0.0918593
0.381796 0.19379 0.100771
0.429786 0.183627 0.105791
0.49778 0.181781 0.115908
0.550896 0.179507 0.124514
0.601785 0.176654 0.13872
0.620722 0.157366 0.145892
0.624353 0.136934 0.154116
0.635889 0.140047 0.172702
0.644968 0.143374 0.190494
0.674723 0.171313 0.224384
0.678233 0.172519 0.231113
0.68217 0.173816 0.239216
0.685206 0.17435 0.246098
0.687251 0.174533 0.251713
0.689311 0.174853 0.256703
0.690944 0.175082 0.260594
0.692134 0.175158 0.263859
0.693111 0.175189 0.266453
0.693751 0.175357 0.268116
0.694118 0.175448 0.269352
0.694377 0.175402 0.270146
0.0695048 0.303395 0.130632
0.0675669 0.301854 0.122957
0.0657054 0.299992 0.114946
0.0637369 0.298146 0.100511
0.0642252 0.297139 0.0859693
0.0755169 0.295308 0.0780957
0.100664 0.290517 0.0814069
0.12752 0.283864 0.0874647
0.162432 0.277836 0.0970321
0.206348 0.270191 0.0998703
0.254902 0.270939 0.0882277
0.317067 0.267353 0.0904555
0.37557 0.25803 0.0976272
0.44184 0.234287 0.110414
0.491676 0.223926 0.118471
0.557061 0.219318 0.133944
0.61326 0.219425 0.149615
0.65391 0.218952 0.164492
0.670283 0.203632 0.178531
0.655344 0.169574 0.180514
0.645747 0.148516 0.187304
0.667582 0.165698 0.215457
0.674723 0.172793 0.222629
0.675761 0.173281 0.224063
0.67509 0.172793 0.223163
0.674464 0.172076 0.222827
0.675624 0.172122 0.225544
0.678218 0.1729 0.230549
0.679667 0.17351 0.233616
0.680888 0.173861 0.236194
0.681712 0.174136 0.237736
0.682322 0.174334 0.238849
0.682719 0.174441 0.239658
0.0712596 0.357397 0.151034
0.0702678 0.3561 0.14435
0.0688792 0.354986 0.138582
0.0671092 0.352865 0.128313
0.0657511 0.351095 0.112474
0.0664073 0.350301 0.0947585
0.0811322 0.348592 0.0826734
0.114885 0.342596 0.086305
0.148409 0.335637 0.0944076
0.191226 0.32813 0.106935
0.244816 0.31841 0.109316
0.303059 0.320089 0.0929427
0.374868 0.316396 0.0964523
0.436515 0.308171 0.105715
0.504372 0.282979 0.124483
0.556085 0.274342 0.137881
0.614237 0.264134 0.154849
0.672786 0.267964 0.177661
0.704814 0.268925 0.195544
0.718349 0.260456 0.216922
0.695338 0.218082 0.215106
0.667613 0.17229 0.206485
0.661204 0.160418 0.208972
0.664744 0.163546 0.212955
0.665675 0.164462 0.214008
0.666758 0.165209 0.215198
0.667582 0.165972 0.215869
0.668437 0.166659 0.21677
0.669108 0.167208 0.217517
0.669581 0.16759 0.218082
0.669932 0.167865 0.218479
0.670222 0.168124 0.218753
0.670466 0.168322 0.218997
0.0766155 0.415198 0.175814
0.075288 0.414115 0.169574
0.0740063 0.413245 0.163714
0.0724193 0.411948 0.157855
0.0713207 0.410101 0.147066
0.0710307 0.408377 0.132769
0.0715038 0.406836 0.109697
0.0933547 0.404166 0.0914931
0.132647 0.397421 0.094377
0.174853 0.390585 0.105241
0.228458 0.382193 0.122469
0.29099 0.370581 0.121462
0.359152 0.37499 0.0988937
0.436469 0.371756 0.106874
0.500114 0.364614 0.119661
0.567819 0.342855 0.143206
0.625742 0.333013 0.163546
0.674754 0.326223 0.180804
0.727657 0.321065 0.209735
0.75639 0.32604 0.23534
0.762295 0.317708 0.251911
0.743191 0.277638 0.250416
0.716487 0.234058 0.236454
0.700359 0.211887 0.225574
0.685557 0.192218 0.215885
0.678233 0.182437 0.213123
0.673457 0.176471 0.211948
0.66952 0.171481 0.21033
0.666987 0.168383 0.209705
0.664439 0.165209 0.208484
0.662531 0.163104 0.207782
0.66212 0.162371 0.208408
0.663233 0.163104 0.209979
0.0865949 0.476829 0.206424
0.0851301 0.475715 0.20029
0.0836042 0.474311 0.193622
0.0821546 0.473487 0.188937
0.0807202 0.472129 0.183124
0.0800946 0.470451 0.173342
0.0793164 0.468467 0.157427
0.0810864 0.466804 0.128801
0.110658 0.463325 0.104601
0.155688 0.456626 0.107256
0.209949 0.449378 0.122438
0.274205 0.438025 0.14406
0.344915 0.425666 0.134844
0.41912 0.432822 0.108553
0.50071 0.430274 0.124285
0.565164 0.425422 0.141863
0.632288 0.40827 0.166293
0.695567 0.395621 0.194858
0.734493 0.39324 0.212055
0.778439 0.376791 0.245762
0.802716 0.382635 0.274678
0.804105 0.374075 0.283925
0.798169 0.354757 0.287495
0.78732 0.337804 0.280812
0.775937 0.320867 0.273701
0.765972 0.306355 0.267369
0.757671 0.294301 0.261799
0.751003 0.284382 0.25771
0.745098 0.276112 0.25388
0.740322 0.269368 0.250706
0.736736 0.264424 0.248325
0.734188 0.260624 0.246647
0.732128 0.258244 0.245197
0.104265 0.541421 0.245396
0.102571 0.540322 0.239673
0.101289 0.539544 0.233524
0.0998703 0.538094 0.227771
0.0982376 0.536995 0.222965
0.0972 0.53576 0.217868
0.0960708 0.533684 0.206668
0.0958572 0.531304 0.186679
0.0997635 0.529351 0.153292
0.136843 0.52578 0.124254
0.191135 0.519036 0.130022
0.256611 0.510872 0.148898
0.33077 0.496895 0.16849
0.406363 0.485649 0.153094
0.483833 0.494789 0.129091
0.565988 0.493584 0.14995
0.629847 0.490105 0.170596
0.694224 0.478096 0.195346
0.760159 0.461799 0.230854
0.792691 0.462013 0.249226
0.826703 0.452323 0.280201
0.842191 0.436896 0.305791
0.843275 0.428061 0.313085
0.837858 0.419364 0.309697
0.832761 0.411505 0.306783
0.828733 0.405051 0.304128
0.82446 0.398581 0.301686
0.821134 0.393194 0.29955
0.818372 0.388754 0.298085
0.81593 0.384649 0.296437
0.814298 0.381933 0.295735
0.813214 0.380301 0.295216
0.811536 0.377859 0.294087
0.132692 0.608804 0.294469
0.131182 0.60795 0.289448
0.129595 0.606775 0.283207
0.128466 0.605325 0.277501
0.127123 0.604044 0.272358
0.125856 0.60325 0.268666
0.124651 0.602502 0.263432
0.123705 0.600061 0.250004
0.123888 0.596445 0.22385
0.129763 0.592264 0.181918
0.177127 0.589303 0.153521
0.242008 0.584253 0.16408
0.318044 0.575006 0.183902
0.397147 0.558663 0.193942
0.472724 0.54789 0.174929
0.549798 0.5579 0.158236
0.631251 0.557885 0.183291
0.69247 0.555047 0.205524
0.752346 0.548791 0.230426
0.815351 0.52842 0.269566
0.844694 0.52932 0.29073
0.865736 0.525261 0.310628
0.881636 0.513939 0.331807
0.879652 0.50161 0.332631
0.875761 0.491829 0.330907
0.872328 0.483375 0.329046
0.869108 0.47628 0.327428
0.86627 0.469963 0.325826
0.864179 0.465461 0.324804
0.862196 0.461677 0.324102
0.860624 0.458198 0.323568
0.859388 0.455695 0.322805
0.858228 0.454292 0.321798
0.169253 0.676158 0.350668
0.167819 0.675258 0.346212
0.166384 0.674098 0.34078
0.16527 0.672862 0.335592
0.163821 0.671321 0.329885
0.162997 0.670573 0.325597
0.161913 0.669413 0.321553
0.160525 0.668055 0.315114
0.159609 0.664805 0.297887
0.161181 0.660471 0.266407
0.171313 0.654124 0.215946
0.233616 0.654261 0.195087
0.308919 0.650324 0.205493
0.391913 0.637613 0.223255
0.46804 0.619699 0.221653
0.542184 0.611505 0.202762
0.615793 0.621256 0.195346
0.694362 0.621576 0.224887
0.751995 0.619745 0.249882
0.806958 0.614755 0.276036
0.856138 0.595575 0.307317
0.886961 0.59617 0.33283
0.896345 0.597482 0.341115
0.903166 0.591516 0.347997
0.901701 0.584649 0.346471
0.900465 0.578454 0.345434
0.899367 0.573526 0.344411
0.898177 0.569009 0.343359
0.897734 0.565957 0.343053
0.896834 0.563027 0.342275
0.896193 0.560479 0.341619
0.895689 0.558419 0.341161
0.894972 0.556954 0.340475
0.214038 0.741299 0.412177
0.212818 0.740459 0.40827
0.211383 0.739528 0.403861
0.210178 0.73843 0.399237
0.209094 0.737362 0.394583
0.208148 0.736019 0.389288
0.207004 0.734585 0.384314
0.205646 0.733135 0.37966
0.204059 0.731167 0.371542
0.203326 0.727077 0.349142
0.206622 0.721782 0.312108
0.225605 0.7149 0.258442
0.301228 0.717601 0.240696
0.38822 0.714321 0.252552
0.469703 0.698039 0.265934
0.540749 0.680507 0.254734
0.611124 0.674403 0.239796
0.678889 0.683467 0.241581
0.75317 0.682795 0.274113
0.806897 0.682368 0.301259
0.850721 0.678813 0.324178
0.887968 0.668208 0.346517
0.913054 0.664408 0.366857
0.918669 0.665324 0.370886
0.917357 0.660014 0.36846
0.916243 0.655314 0.366735
0.915328 0.65156 0.36527
0.914916 0.648905 0.364401
0.914046 0.646006 0.363119
0.913558 0.643565 0.362203
0.913085 0.641596 0.361379
0.912779 0.640543 0.360815
0.912108 0.639796 0.360189
0.267964 0.803616 0.475135
0.26685 0.802899 0.47187
0.265812 0.801984 0.468238
0.264927 0.801419 0.46479
0.26363 0.800198 0.460624
0.262318 0.798795 0.456382
0.261021 0.797223 0.451347
0.259907 0.795773 0.445838
0.2589 0.794583 0.440558
0.256626 0.791623 0.429969
0.256016 0.786496 0.403021
0.260716 0.779065 0.359274
0.295445 0.775708 0.306203
0.386954 0.781521 0.295781
0.47454 0.775814 0.306233
0.54609 0.756725 0.308736
0.609781 0.739712 0.295796
0.675578 0.734874 0.286259
0.739147 0.744945 0.295491
0.807645 0.741787 0.327901
0.851896 0.742901 0.353429
0.885893 0.740642 0.372503
0.910307 0.734264 0.385763
0.927581 0.732113 0.398566
0.927291 0.729625 0.39733
0.926833 0.726253 0.395758
0.926787 0.723583 0.394614
0.926375 0.720256 0.392905
0.926146 0.717571 0.391699
0.926177 0.715694 0.390936
0.925948 0.714244 0.390005
0.925734 0.713222 0.38941
0.925353 0.712184 0.388632
0.325124 0.859693 0.534997
0.324865 0.859586 0.532723
0.323781 0.858717 0.52961
0.32256 0.857679 0.526314
0.321324 0.856596 0.522896
0.320241 0.855436 0.519493
0.318898 0.854109 0.515221
0.318227 0.853193 0.510552
0.316564 0.851255 0.503838
0.314565 0.849042 0.497459
0.312978 0.846159 0.484901
0.313008 0.840452 0.454444
0.321645 0.831678 0.403479
0.373678 0.835218 0.359487
0.475639 0.841215 0.354604
0.556069 0.830884 0.360693
0.616678 0.811368 0.355474
0.675151 0.794903 0.342855
0.736278 0.791257 0.338735
0.795148 0.803143 0.355703
0.853803 0.799771 0.386435
0.888975 0.80238 0.409659
0.912825 0.802029 0.423102
0.929152 0.797833 0.43061
0.935149 0.789471 0.432029
0.934157 0.785534 0.429114
0.93373 0.782086 0.427131
0.933608 0.780087 0.425879
0.933318 0.778042 0.424857
0.933059 0.776593 0.423758
0.932937 0.775479 0.422934
0.93283 0.774304 0.42208
0.932692 0.773434 0.421393
0.38117 0.90573 0.591073
0.38027 0.905119 0.588464
0.378958 0.904219 0.585336
0.377707 0.90338 0.582498
0.376516 0.902571 0.579416
0.375708 0.901869 0.576898
0.375174 0.901244 0.574136
0.373709 0.899886 0.569696
0.371908 0.8981 0.563241
0.369619 0.895933 0.55552
0.367651 0.893935 0.548486
0.365972 0.890517 0.532647
0.366842 0.884291 0.497093
0.383246 0.879133 0.446998
0.458091 0.887739 0.412955
0.5608 0.888273 0.412146
0.629084 0.873854 0.413321
0.6804 0.854795 0.402762
0.734737 0.840452 0.392004
0.792264 0.839902 0.393942
0.844633 0.851698 0.412985
0.892851 0.850874 0.439323
0.918853 0.853147 0.456291
0.935531 0.85507 0.466896
0.94641 0.851621 0.471839
0.945876 0.847883 0.469581
0.945327 0.84535 0.467964
0.945113 0.843442 0.466651
0.944686 0.841703 0.465415
0.944488 0.840314 0.464439
0.944488 0.838804 0.463462
0.944518 0.837507 0.462501
0.94461 0.836454 0.462013
0.428489 0.941161 0.637751
0.427817 0.940841 0.63563
0.427008 0.94049 0.633494
0.425818 0.939773 0.630762
0.424796 0.939162 0.628321
0.423545 0.938293 0.625696
0.422187 0.937194 0.622675
0.42034 0.935714 0.619089
0.41857 0.934157 0.613962
0.41648 0.932143 0.606851
0.414557 0.930083 0.598596
0.412711 0.928038 0.590372
0.410925 0.924056 0.570169
0.417472 0.919738 0.531991
0.44094 0.916747 0.48365
0.535927 0.926558 0.46009
0.634516 0.922103 0.460533
0.691936 0.905013 0.455741
0.737255 0.888258 0.444465
0.789059 0.877272 0.437339
0.843381 0.882551 0.443732
0.886885 0.892134 0.461921
0.924239 0.89308 0.48307
0.943862 0.894652 0.495659
0.949813 0.895582 0.503273
0.949813 0.894148 0.504875
0.949813 0.892302 0.503563
0.949813 0.890974 0.502464
0.949889 0.889815 0.501442
0.950042 0.888991 0.500542
0.949905 0.888243 0.499397
0.949874 0.887449 0.498634
0.949874 0.886687 0.498253
0.454871 0.948959 0.665431
0.453635 0.948974 0.662333
0.452445 0.948974 0.65948
0.45185 0.948974 0.657374
0.451194 0.948959 0.655619
0.450645 0.948959 0.653544
0.449928 0.948959 0.651347
0.44889 0.948943 0.648508
0.447364 0.948913 0.644739
0.445808 0.948867 0.639261
0.443641 0.948852 0.631495
0.441291 0.948837 0.62208
0.439948 0.948913 0.612634
0.444358 0.948119 0.591531
0.459541 0.947845 0.556222
0.502312 0.948974 0.518425
0.609186 0.948989 0.503182
0.696513 0.945235 0.501091
0.744396 0.927367 0.490791
0.786969 0.913344 0.481239
0.838758 0.907927 0.478248
0.885649 0.915969 0.486702
0.919554 0.92221 0.502022
0.94667 0.922942 0.517449
0.949844 0.924987 0.526833
0.949859 0.925048 0.531914
0.949844 0.923949 0.531365
0.949844 0.922835 0.530282
0.949844 0.922026 0.529381
0.949844 0.921401 0.528435
0.949844 0.92079 0.527657
0.949844 0.920165 0.527001
0.949828 0.919783 0.526741
0.456886 0.948821 0.672908
0.454536 0.948913 0.668772
0.45333 0.948989 0.665736
0.452995 0.948974 0.663233
0.452522 0.948974 0.661112
0.452079 0.948974 0.658824
0.451484 0.948959 0.656962
0.450797 0.948959 0.654108
0.449531 0.948959 0.650217
0.447562 0.948928 0.64535
0.445457 0.948867 0.637858
0.442725 0.948852 0.628031
0.440131 0.948837 0.61735
0.440894 0.94789 0.600488
0.456138 0.948821 0.573861
0.491676 0.949004 0.54818
0.572198 0.948821 0.53373
0.679759 0.948852 0.532128
0.746105 0.948837 0.529381
0.789624 0.937301 0.521828
0.832258 0.927413 0.515419
0.881788 0.928252 0.514931
0.920333 0.93753 0.522957
0.943053 0.939162 0.53286
0.94992 0.941741 0.545693
0.949935 0.94316 0.555444
0.94995 0.94258 0.556451
0.949935 0.941924 0.554757
0.949935 0.941543 0.553368
0.949935 0.941268 0.552193
0.949935 0.94107 0.551476
0.949935 0.940841 0.550668
0.949935 0.94052 0.550164
0.457893 0.948837 0.678889
0.455268 0.948821 0.67425
0.453742 0.948882 0.67071
0.453437 0.948943 0.668452
0.453101 0.948989 0.666331
0.452888 0.948974 0.663951
0.452567 0.948974 0.661753
0.451972 0.948974 0.658778
0.451072 0.948959 0.6551
0.449454 0.948943 0.65005
0.447044 0.948898 0.643153
0.444068 0.948852 0.633555
0.44094 0.948837 0.621561
0.439582 0.94786 0.606455
0.450111 0.948959 0.58201
0.481575 0.948913 0.553643
0.548821 0.948882 0.536095
0.657755 0.948943 0.532265
0.735821 0.948974 0.530251
0.781277 0.940414 0.524193
0.823972 0.929915 0.519219
0.871763 0.928618 0.520684
0.9131 0.937484 0.529458
0.938323 0.941619 0.539452
0.949767 0.945068 0.550408
0.949905 0.948547 0.564538
0.94992 0.948928 0.577646
0.949935 0.948943 0.578973
0.94992 0.948928 0.57792
0.94992 0.948928 0.576944
0.94992 0.948928 0.576593
0.94992 0.948928 0.576623
0.94992 0.948928 0.576761
0.458579 0.948837 0.684092
0.455863 0.948837 0.679301
0.454139 0.948806 0.675471
0.453727 0.948867 0.672724
0.453544 0.948898 0.670359
0.453208 0.948959 0.668467
0.45301 0.948989 0.665949
0.452705 0.948974 0.663172
0.451987 0.948974 0.659052
0.450752 0.948959 0.654231
0.448463 0.948943 0.647623
0.445548 0.948882 0.63859
0.442115 0.948837 0.625635
0.439719 0.948608 0.611383
0.44683 0.948959 0.589029
0.472465 0.948882 0.558114
0.531334 0.948928 0.537804
0.638239 0.948837 0.532052
0.726055 0.948928 0.530434
0.773922 0.942611 0.5252
0.816632 0.931289 0.519402
0.863355 0.928328 0.520058
0.906432 0.935607 0.527092
0.935027 0.942 0.536812
0.949874 0.9449 0.546853
0.949889 0.947921 0.559045
0.94992 0.948928 0.574548
0.949935 0.948943 0.57937
0.949935 0.948943 0.5794
0.949935 0.948943 0.578729
0.94992 0.948943 0.578119
0.94992 0.948928 0.577768
0.94992 0.948928 0.577462
0.458427 0.948852 0.687175
0.456321 0.948837 0.683436
0.454597 0.948837 0.679805
0.454078 0.948791 0.676829
0.453666 0.948837 0.674327
0.45359 0.948882 0.671702
0.45333 0.948928 0.669413
0.453071 0.948989 0.666407
0.452659 0.948974 0.662562
0.451606 0.948974 0.657511
0.449607 0.948959 0.651026
0.446616 0.948867 0.641855
0.443214 0.948852 0.629297
0.439765 0.948898 0.614435
0.444327 0.948425 0.593606
0.466011 0.948837 0.561593
0.517845 0.948898 0.538094
0.621973 0.948928 0.531243
0.717754 0.948867 0.53077
0.768277 0.944564 0.525917
0.810788 0.932494 0.519677
0.856718 0.92813 0.519478
0.901045 0.934462 0.525612
0.932433 0.942061 0.535119
0.94992 0.944869 0.544503
0.949889 0.947417 0.556832
0.94992 0.948928 0.573312
