bundles/resolve-cinematic-luts/Phantom Luts/Fx6 Phntm ARRI LUTs-G5/ATOMOS Monitoring LUTs/Neutral Fx6 AML.cube
TITLE "Generated by Resolve"
LUT_3D_SIZE 33
0.0652781 0.0652781 0.0652781
0.0652781 0.0652781 0.0652781
0.0693523 0.0658427 0.0651255
0.0850996 0.069398 0.0667887
0.104372 0.0713054 0.069688
0.127657 0.0735485 0.0734264
0.149477 0.0753796 0.0777447
0.174868 0.0774243 0.082475
0.204456 0.0796063 0.0879072
0.238453 0.082063 0.0940108
0.276539 0.0847028 0.101137
0.322545 0.0862287 0.110185
0.373098 0.0873732 0.124071
0.423697 0.0903792 0.141573
0.476555 0.0933547 0.158541
0.529778 0.0952316 0.176455
0.583352 0.0951095 0.194812
0.636698 0.0959029 0.218067
0.689342 0.0990463 0.248432
0.745357 0.101823 0.28455
0.824979 0.109651 0.329335
0.854032 0.111498 0.353826
0.852628 0.109285 0.361959
0.851453 0.107424 0.36878
0.850355 0.106004 0.37438
0.849454 0.104723 0.37908
0.848692 0.1037 0.382773
0.848173 0.102922 0.385672
0.847623 0.10222 0.388174
0.847242 0.101762 0.389761
0.846952 0.101381 0.391302
0.846738 0.101106 0.392508
0.846571 0.100908 0.393408
0.0652781 0.0652781 0.0652781
0.0652781 0.0652781 0.0652781
0.0652781 0.0652781 0.0652781
0.0790417 0.0694438 0.0661936
0.0949111 0.0729076 0.068925
0.116655 0.0741894 0.0714427
0.140047 0.075288 0.07393
0.166888 0.0758831 0.0770123
0.198016 0.0768597 0.0811627
0.234607 0.0784466 0.0869917
0.275303 0.0802167 0.0936446
0.320562 0.0830091 0.102037
0.368368 0.0863355 0.112139
0.416953 0.0922713 0.127886
0.470787 0.0944686 0.147509
0.525872 0.0967422 0.16643
0.579843 0.0966964 0.185718
0.633951 0.0966812 0.208179
0.687221 0.100038 0.238819
0.744091 0.10309 0.275349
0.823529 0.110979 0.320668
0.855024 0.113222 0.346716
0.853925 0.111192 0.355047
0.852689 0.109255 0.362127
0.851743 0.107668 0.367941
0.850706 0.106416 0.372839
0.850126 0.105486 0.376379
0.84947 0.104585 0.379736
0.848966 0.103883 0.382239
0.84863 0.10341 0.383886
0.848402 0.103075 0.385214
0.848157 0.102754 0.386404
0.847959 0.10251 0.387304
0.0652781 0.0652781 0.0652781
0.0652781 0.0652781 0.0652781
0.0652781 0.0652781 0.0652781
0.0739757 0.0690929 0.0657664
0.0848402 0.074876 0.0678569
0.102647 0.0757458 0.0708324
0.128969 0.0772412 0.074052
0.157656 0.0784466 0.077348
0.190997 0.0787518 0.0805982
0.229679 0.0791028 0.0847639
0.271275 0.0797894 0.0895399
0.316945 0.0800641 0.0940871
0.369039 0.0814069 0.102037
0.421012 0.0866102 0.116503
0.470527 0.0959487 0.136324
0.520211 0.101152 0.156283
0.576577 0.0997177 0.176577
0.63064 0.0973373 0.197803
0.685069 0.10103 0.22855
0.742657 0.104448 0.265507
0.822217 0.112398 0.311177
0.855772 0.114855 0.338796
0.8551 0.113039 0.347662
0.854093 0.111254 0.354925
0.852949 0.109575 0.361135
0.852247 0.108248 0.366003
0.851514 0.107179 0.370001
0.850782 0.106325 0.373297
0.850446 0.105745 0.375494
0.850095 0.105241 0.377432
0.849775 0.104799 0.379034
0.849531 0.104463 0.380316
0.849332 0.104204 0.381262
0.0675975 0.0825666 0.0711528
0.0677195 0.0806897 0.0690013
0.0734417 0.0780957 0.0671397
0.0764019 0.0770428 0.0669871
0.0828107 0.0780804 0.0695659
0.0935531 0.0798047 0.0709087
0.116762 0.079057 0.0734722
0.148074 0.0806592 0.0771038
0.182956 0.0816052 0.0801862
0.223255 0.0813764 0.0836042
0.268193 0.0810864 0.0876631
0.315602 0.0813001 0.0924697
0.367468 0.0816052 0.0963302
0.420127 0.0823072 0.103487
0.474784 0.0879988 0.121492
0.524437 0.100465 0.147646
0.572808 0.106813 0.168078
0.627955 0.101183 0.189044
0.682673 0.102174 0.217426
0.740429 0.105791 0.255116
0.820279 0.113725 0.301747
0.856321 0.116472 0.330785
0.855848 0.114733 0.339544
0.855299 0.113146 0.347387
0.85452 0.11162 0.353674
0.853559 0.110201 0.359014
0.852888 0.109117 0.362982
0.852369 0.108186 0.366339
0.851926 0.107469 0.368963
0.85153 0.106981 0.370886
0.851148 0.106584 0.372488
0.850919 0.106264 0.373724
0.850843 0.106081 0.374472
0.071107 0.101045 0.0764172
0.0702678 0.0982528 0.074815
0.0759136 0.0932784 0.0712902
0.0798199 0.0897688 0.0707256
0.0883192 0.0908217 0.0712291
0.0996414 0.0919203 0.0750896
0.11812 0.0914168 0.0759289
0.148562 0.0899519 0.0778363
0.180957 0.0902724 0.0796979
0.222431 0.0874189 0.083711
0.263249 0.0839857 0.0867628
0.313588 0.0838026 0.0907607
0.366751 0.0834821 0.0939345
0.419944 0.0839857 0.0994278
0.473854 0.0851759 0.107485
0.528328 0.0916152 0.130556
0.576989 0.105959 0.160403
0.62298 0.107576 0.180026
0.67953 0.103304 0.206317
0.734386 0.106386 0.242924
0.816373 0.114839 0.290532
0.856703 0.118288 0.322118
0.85655 0.116396 0.331304
0.856046 0.114824 0.339223
0.855589 0.113497 0.346105
0.854978 0.1122 0.351614
0.854337 0.111086 0.355795
0.853712 0.110155 0.359274
0.853178 0.109407 0.361929
0.852918 0.108934 0.36379
0.852674 0.108492 0.365423
0.852476 0.108125 0.366751
0.852338 0.107881 0.367636
0.0729839 0.123308 0.0788128
0.0716411 0.120409 0.0764935
0.0755474 0.116213 0.0746471
0.0825818 0.109804 0.0747082
0.0907301 0.107622 0.075761
0.104753 0.109758 0.0751965
0.124437 0.110277 0.0770581
0.151705 0.105699 0.0795758
0.180957 0.102831 0.0802167
0.222431 0.102129 0.0831769
0.267964 0.100145 0.086183
0.315679 0.0922866 0.0902724
0.365377 0.0885786 0.0937209
0.419303 0.0888685 0.0992447
0.474479 0.0890822 0.106569
0.528801 0.0891585 0.116472
0.581964 0.0967269 0.144244
0.626276 0.109957 0.173663
0.675425 0.104341 0.1953
0.728206 0.106767 0.230732
0.810193 0.115465 0.278599
0.853651 0.119539 0.311696
0.856901 0.118166 0.322896
0.856718 0.116472 0.331121
0.856275 0.115038 0.338109
0.85594 0.114031 0.343587
0.855573 0.112993 0.348272
0.855161 0.112154 0.351873
0.854765 0.111467 0.354421
0.854368 0.110857 0.356741
0.854078 0.11043 0.358343
0.853819 0.110063 0.359701
0.853635 0.109789 0.360616
0.0742809 0.147204 0.0820478
0.0726482 0.144503 0.0779278
0.0742809 0.141787 0.0755474
0.0828412 0.135836 0.0744793
0.0919051 0.131136 0.0776532
0.106371 0.131136 0.079469
0.127718 0.134524 0.0761883
0.153719 0.133913 0.0785992
0.185031 0.127306 0.0813764
0.217945 0.120577 0.0825666
0.268711 0.114595 0.086183
0.316503 0.111574 0.089128
0.3776 0.105196 0.0938125
0.41857 0.0950179 0.0991836
0.474296 0.0950332 0.106462
0.529381 0.094255 0.115587
0.583719 0.0935531 0.12874
0.6327 0.10016 0.157549
0.673686 0.113054 0.186526
0.725719 0.108614 0.217319
0.802625 0.116426 0.263798
0.849302 0.120974 0.298466
0.853697 0.119844 0.310002
0.857206 0.118746 0.320226
0.857053 0.117266 0.327504
0.856855 0.116091 0.333165
0.856458 0.115038 0.338277
0.856245 0.114397 0.341772
0.856107 0.113802 0.3449
0.85594 0.113298 0.347158
0.855741 0.112856 0.349111
0.855558 0.112505 0.350576
0.855436 0.112276 0.351492
0.0746929 0.175158 0.0865034
0.0729686 0.172839 0.0816663
0.0736095 0.171084 0.0783246
0.0819562 0.167544 0.0753033
0.0914473 0.162066 0.0762036
0.105928 0.159121 0.0817578
0.127626 0.158404 0.0833753
0.15346 0.162417 0.0767224
0.186435 0.159991 0.0793774
0.224186 0.151888 0.0831159
0.266316 0.138582 0.0861677
0.317021 0.131884 0.0898451
0.375189 0.128878 0.094667
0.430518 0.123018 0.0997024
0.480507 0.108995 0.106966
0.529244 0.10222 0.115465
0.584955 0.100099 0.127153
0.636973 0.0979782 0.142
0.682002 0.10103 0.167529
0.717449 0.110124 0.196612
0.790341 0.116701 0.242649
0.842695 0.122606 0.279728
0.847547 0.121859 0.291524
0.85153 0.120714 0.3019
0.854948 0.119921 0.311086
0.857404 0.119036 0.318761
0.857496 0.11812 0.323613
0.857374 0.117327 0.327489
0.857191 0.116625 0.330831
0.857191 0.116243 0.332753
0.857038 0.115816 0.334813
0.856901 0.115465 0.336385
0.856825 0.115206 0.337575
0.0751659 0.208453 0.0936294
0.0728161 0.205936 0.0879072
0.0723583 0.20473 0.0797589
0.0768139 0.203189 0.0754711
0.0903639 0.19823 0.0755016
0.10277 0.193576 0.0799268
0.125414 0.191272 0.088014
0.151415 0.190036 0.0871138
0.182055 0.194018 0.0773938
0.225071 0.190219 0.0797436
0.26775 0.180865 0.0843214
0.323049 0.159594 0.0916915
0.367895 0.154955 0.0946975
0.432807 0.151705 0.10248
0.486137 0.146883 0.107469
0.54818 0.134722 0.118441
0.58558 0.111696 0.127413
0.639689 0.106111 0.139162
0.68957 0.102647 0.156725
0.727275 0.100084 0.176913
0.766674 0.116091 0.212955
0.832105 0.124041 0.254597
0.837949 0.123507 0.266484
0.842847 0.123003 0.277333
0.846571 0.122438 0.286824
0.849668 0.121675 0.294423
0.851957 0.12105 0.300465
0.853788 0.120638 0.305699
0.855436 0.120272 0.309667
0.856718 0.119951 0.312932
0.857679 0.119722 0.31548
0.857877 0.119448 0.317189
0.857877 0.119219 0.318227
0.0754406 0.247196 0.105898
0.0730297 0.244602 0.0984665
0.0718395 0.242588 0.0882887
0.0725567 0.241535 0.0799115
0.0842451 0.239612 0.0760052
0.0993515 0.235294 0.0777142
0.119066 0.230869 0.0843061
0.147433 0.229038 0.0929122
0.178439 0.226688 0.0911879
0.215961 0.230838 0.0780194
0.268101 0.226032 0.0809339
0.31696 0.2159 0.0869764
0.379049 0.190707 0.0982681
0.421469 0.183856 0.102296
0.490166 0.181643 0.112642
0.546456 0.177813 0.119768
0.61326 0.16907 0.132891
0.656413 0.140169 0.143542
0.693812 0.111116 0.151202
0.738476 0.105196 0.170397
0.765606 0.103182 0.192859
0.816571 0.124575 0.226337
0.822278 0.124437 0.234638
0.828229 0.124437 0.244648
0.833234 0.124361 0.253971
0.837095 0.12398 0.261601
0.839963 0.123781 0.26807
0.842466 0.123522 0.273365
0.844343 0.123308 0.27747
0.845579 0.123095 0.280827
0.846494 0.122957 0.283238
0.847318 0.122774 0.28513
0.847898 0.122606 0.286702
0.0760204 0.290806 0.120867
0.0750286 0.288502 0.113817
0.0732433 0.286534 0.105089
0.0717479 0.284657 0.0912642
0.0750134 0.28307 0.079942
0.0896315 0.281422 0.0772412
0.111452 0.277043 0.080705
0.138369 0.272725 0.0890059
0.171542 0.270802 0.100267
0.209796 0.267796 0.0974594
0.255604 0.272862 0.079408
0.317678 0.267353 0.0841535
0.370367 0.25745 0.0914626
0.43331 0.231617 0.106661
0.477699 0.223789 0.112566
0.546868 0.218677 0.126009
0.612512 0.216007 0.137774
0.674983 0.208347 0.146715
0.731563 0.179446 0.158206
0.763165 0.132067 0.165423
0.783825 0.105104 0.182513
0.810483 0.118318 0.213535
0.818509 0.124956 0.220417
0.818143 0.125719 0.221851
0.81796 0.125582 0.222721
0.817685 0.1252 0.223468
0.818036 0.125017 0.225589
0.822263 0.124758 0.231815
0.824704 0.124834 0.235798
0.826688 0.124865 0.238758
0.828138 0.124849 0.241215
0.829236 0.124849 0.242985
0.829969 0.124819 0.244434
0.0775311 0.339864 0.137392
0.0768292 0.338186 0.130922
0.076173 0.336965 0.125994
0.0755169 0.334417 0.114763
0.0741588 0.332753 0.0998703
0.0764172 0.330953 0.0834974
0.0965591 0.329198 0.079118
0.12694 0.324208 0.0847639
0.16054 0.320745 0.095613
0.200626 0.318273 0.110689
0.247181 0.314992 0.105653
0.301183 0.321386 0.0823987
0.371252 0.315496 0.0888228
0.425498 0.307515 0.0970321
0.489967 0.281025 0.117998
0.538674 0.27422 0.128359
0.603845 0.261936 0.14078
0.679301 0.261158 0.15465
0.740703 0.253147 0.161089
0.812482 0.227512 0.172213
0.843763 0.172107 0.179706
0.856504 0.113756 0.189914
0.833463 0.104784 0.20322
0.822141 0.112596 0.209644
0.821561 0.114046 0.21088
0.821332 0.115129 0.211978
0.820935 0.116182 0.212924
0.820523 0.116991 0.213611
0.820142 0.117586 0.214099
0.819974 0.118135 0.214557
0.819867 0.118486 0.214862
0.819745 0.118807 0.215137
0.819684 0.119066 0.215351
0.0806744 0.391974 0.157305
0.0801404 0.390372 0.151141
0.0793011 0.389288 0.146151
0.0784161 0.387854 0.139895
0.0780957 0.385733 0.129061
0.0777752 0.384009 0.115236
0.0786297 0.381415 0.0904707
0.109636 0.378988 0.0830701
0.144549 0.373785 0.0903944
0.186816 0.371084 0.105348
0.236271 0.368444 0.125673
0.290333 0.365682 0.115587
0.353262 0.375158 0.0860456
0.42681 0.369818 0.0971847
0.483375 0.363348 0.107271
0.548821 0.340429 0.131197
0.605951 0.330861 0.146365
0.663096 0.321584 0.156252
0.744701 0.309468 0.171542
0.814466 0.302708 0.178225
0.871626 0.28043 0.183551
0.912978 0.225315 0.190631
0.918029 0.171923 0.191485
0.907454 0.148257 0.189822
0.896834 0.127504 0.188022
0.886076 0.11783 0.190936
0.875441 0.112917 0.193774
0.866987 0.108858 0.195514
0.858457 0.10695 0.197055
0.851225 0.105791 0.198444
0.84509 0.104662 0.199481
0.839887 0.103273 0.199252
0.837934 0.105241 0.202823
0.0859998 0.446494 0.180392
0.0855879 0.445182 0.175021
0.0848707 0.443732 0.16936
0.0839704 0.442802 0.165438
0.083299 0.441489 0.158999
0.0824292 0.439475 0.148867
0.0821546 0.437507 0.132769
0.0843366 0.434546 0.101152
0.125902 0.430869 0.0890669
0.166171 0.425071 0.0996109
0.220996 0.423178 0.12137
0.27953 0.420233 0.146197
0.340749 0.418891 0.126986
0.408453 0.431296 0.0928969
0.4851 0.426413 0.111955
0.542535 0.421271 0.123491
0.608713 0.403311 0.144671
0.676432 0.389517 0.16669
0.724407 0.385061 0.172793
0.807736 0.358785 0.188174
0.877653 0.351827 0.195651
0.918044 0.33431 0.194903
0.949813 0.30634 0.198093
0.949264 0.288563 0.197208
0.946258 0.270939 0.196048
0.942977 0.255314 0.19527
0.939986 0.242115 0.194766
0.937636 0.231159 0.194278
0.935378 0.222629 0.194003
0.933684 0.2159 0.194018
0.932204 0.210575 0.193774
0.930999 0.206546 0.193668
0.929793 0.203235 0.193454
0.0959487 0.504128 0.21062
0.095201 0.502785 0.205432
0.0945144 0.50135 0.199435
0.0935836 0.500328 0.194781
0.092607 0.499504 0.19086
0.0917983 0.49839 0.184817
0.0907607 0.496132 0.172671
0.0904402 0.493309 0.150942
0.0941024 0.490043 0.113893
0.147189 0.485145 0.0999924
0.198215 0.479713 0.116915
0.265248 0.477623 0.145663
0.33164 0.475242 0.16875
0.396277 0.475319 0.142412
0.465293 0.488869 0.109087
0.543938 0.485603 0.130983
0.602548 0.481743 0.143709
0.66807 0.468925 0.161166
0.743938 0.450355 0.186908
0.78793 0.447501 0.190417
0.856779 0.42945 0.201724
0.918837 0.402747 0.211902
0.949828 0.387243 0.210315
0.949874 0.378531 0.207736
0.949935 0.370687 0.205371
0.949187 0.363714 0.203326
0.94876 0.358053 0.202045
0.948425 0.353231 0.201358
0.948531 0.349279 0.200824
0.948196 0.345998 0.200076
0.948486 0.343587 0.200015
0.948745 0.341741 0.2
0.948653 0.340154 0.199771
0.112398 0.564309 0.247807
0.111513 0.563088 0.24303
0.110765 0.561791 0.2374
0.109926 0.56054 0.232166
0.109071 0.559792 0.22797
0.108003 0.559182 0.224735
0.106783 0.557763 0.217731
0.105409 0.55462 0.201648
0.105669 0.551553 0.173465
0.111437 0.547143 0.126467
0.1785 0.540978 0.119127
0.244144 0.536202 0.145052
0.319341 0.533883 0.176257
0.389364 0.532509 0.188464
0.454566 0.5337 0.160784
0.523888 0.547875 0.132189
0.603098 0.54583 0.154482
0.662577 0.542641 0.167422
0.726452 0.534508 0.179492
0.803418 0.511299 0.206943
0.848493 0.508766 0.211429
0.895628 0.499062 0.214221
0.942565 0.48043 0.224704
0.949828 0.466041 0.224826
0.949889 0.456413 0.224048
0.94995 0.447837 0.223087
0.950011 0.440864 0.222599
0.949844 0.434684 0.221714
0.949905 0.430152 0.221393
0.949905 0.42623 0.22089
0.949752 0.423087 0.220508
0.949966 0.420813 0.220493
0.949966 0.419684 0.220264
0.133196 0.626688 0.290623
0.132387 0.625574 0.286366
0.131609 0.624414 0.281163
0.130831 0.623194 0.276371
0.129976 0.622065 0.271427
0.129152 0.621256 0.267262
0.127947 0.620386 0.263233
0.126177 0.618769 0.254749
0.125246 0.614969 0.234043
0.125719 0.611505 0.198306
0.1355 0.605432 0.139574
0.225162 0.597513 0.14873
0.302571 0.593637 0.179339
0.383688 0.591363 0.210971
0.450004 0.591287 0.209705
0.515755 0.594003 0.182239
0.583215 0.607553 0.159152
0.661799 0.605783 0.182391
0.72076 0.603342 0.195697
0.783093 0.596475 0.206622
0.847639 0.574365 0.225986
0.898192 0.570108 0.236316
0.922423 0.568383 0.231388
0.939742 0.560601 0.233433
0.940688 0.554406 0.232639
0.94107 0.54873 0.231479
0.942 0.54432 0.23125
0.942199 0.540368 0.230655
0.94255 0.537087 0.230488
0.94287 0.534508 0.230274
0.943023 0.532906 0.229953
0.943267 0.531395 0.229877
0.943511 0.530282 0.229877
0.157122 0.689693 0.336751
0.156512 0.688884 0.332692
0.155856 0.688029 0.328817
0.155169 0.686992 0.324514
0.154314 0.685908 0.319509
0.153414 0.684886 0.314733
0.1523 0.683742 0.30988
0.150591 0.682277 0.304387
0.148669 0.680354 0.294255
0.147616 0.675746 0.266896
0.149233 0.670909 0.222873
0.172946 0.663111 0.161364
0.28336 0.653819 0.184604
0.371786 0.651499 0.218967
0.448936 0.649409 0.246403
0.512123 0.650187 0.23357
0.576577 0.654246 0.208011
0.64126 0.667567 0.189624
0.718181 0.664424 0.214588
0.776303 0.663127 0.229419
0.82945 0.657557 0.238117
0.881422 0.643153 0.246387
0.923903 0.635493 0.258
0.93695 0.635737 0.25185
0.936843 0.631067 0.250202
0.93637 0.626825 0.248142
0.936492 0.623331 0.247288
0.936431 0.620661 0.246326
0.936217 0.618326 0.245441
0.936172 0.616388 0.244953
0.936355 0.615091 0.244816
0.936294 0.613993 0.24448
0.936217 0.613138 0.24416
0.185092 0.753445 0.381338
0.18439 0.752483 0.377905
0.18352 0.751507 0.374594
0.182635 0.750591 0.370718
0.181811 0.749569 0.366735
0.181003 0.748562 0.362722
0.180179 0.747509 0.357778
0.178714 0.746181 0.351583
0.176211 0.744411 0.345083
0.173358 0.741604 0.331182
0.17258 0.735821 0.297047
0.177035 0.728542 0.243259
0.231342 0.719524 0.192065
0.357946 0.71104 0.229328
0.442084 0.709285 0.260685
0.511955 0.70782 0.276646
0.572427 0.708507 0.262043
0.635035 0.71339 0.238636
0.697292 0.728099 0.223163
0.772534 0.721691 0.248829
0.822339 0.721202 0.263996
0.866331 0.716884 0.270588
0.905226 0.707576 0.272572
0.932723 0.703197 0.279973
0.932754 0.701442 0.2795
0.932708 0.698192 0.277378
0.932891 0.695354 0.276051
0.933135 0.692912 0.275196
0.933272 0.6907 0.274525
0.933379 0.689006 0.274098
0.933364 0.687755 0.273564
0.933379 0.686748 0.273198
0.933394 0.685969 0.272877
0.215579 0.811963 0.421439
0.215152 0.811414 0.418769
0.214282 0.81059 0.415961
0.213458 0.809766 0.412589
0.212589 0.808927 0.409247
0.21178 0.808087 0.406149
0.210651 0.807019 0.401587
0.209354 0.805783 0.395361
0.207279 0.803845 0.388251
0.204105 0.801923 0.380926
0.201312 0.798398 0.362554
0.200549 0.792416 0.322148
0.210895 0.781933 0.25594
0.307393 0.772488 0.235035
0.433204 0.766751 0.276112
0.509224 0.764874 0.301991
0.570886 0.763943 0.307408
0.630442 0.764096 0.292515
0.691142 0.770062 0.272084
0.751492 0.78648 0.258457
0.820127 0.778851 0.285252
0.861204 0.780026 0.301213
0.895293 0.777462 0.304829
0.922591 0.770901 0.304509
0.932021 0.761273 0.308949
0.931746 0.757565 0.306615
0.931823 0.754482 0.305074
0.932143 0.75259 0.304295
0.932006 0.751003 0.303563
0.931914 0.749737 0.302831
0.931884 0.748699 0.302419
0.931884 0.74789 0.302205
0.931884 0.74725 0.301976
0.246693 0.861326 0.458854
0.245991 0.860716 0.45594
0.245274 0.860151 0.453544
0.24445 0.859449 0.450416
0.243717 0.858793 0.4477
0.243122 0.858213 0.445243
0.24213 0.857359 0.441337
0.240757 0.856046 0.436393
0.239094 0.854505 0.429007
0.236194 0.852216 0.420142
0.23209 0.849714 0.411063
0.229618 0.845441 0.387533
0.231159 0.837278 0.339773
0.256229 0.828107 0.275593
0.397528 0.817243 0.286351
0.5028 0.813886 0.320134
0.571984 0.811521 0.340597
0.626505 0.8112 0.33698
0.686122 0.812009 0.322774
0.746044 0.820493 0.304509
0.801801 0.835981 0.298085
0.860807 0.830045 0.323644
0.893568 0.831113 0.336172
0.917479 0.830549 0.340688
0.933074 0.825849 0.344793
0.932784 0.822217 0.343359
0.932967 0.820066 0.342092
0.932891 0.818189 0.340688
0.932738 0.81651 0.33962
0.932631 0.815167 0.338766
0.932601 0.814099 0.338247
0.93257 0.813275 0.337774
0.932555 0.812634 0.337362
0.282445 0.900481 0.494636
0.281163 0.900099 0.491981
0.279957 0.899382 0.489555
0.278782 0.898878 0.486717
0.277516 0.898421 0.484154
0.276143 0.897749 0.481529
0.274678 0.896803 0.478202
0.272206 0.895598 0.473198
0.269261 0.893965 0.466438
0.267231 0.892103 0.457755
0.263951 0.889662 0.447486
0.259586 0.887205 0.435996
0.256901 0.88188 0.404456
0.271351 0.872923 0.354574
0.312459 0.863172 0.298863
0.483268 0.854414 0.336248
0.565515 0.851514 0.360616
0.628519 0.850065 0.372641
0.679896 0.851347 0.366598
0.74023 0.852872 0.353017
0.796735 0.866896 0.337041
0.844846 0.878004 0.339879
0.893477 0.873747 0.360296
0.918746 0.873884 0.368719
0.934417 0.874022 0.374914
0.936919 0.871992 0.377798
0.936675 0.870222 0.376593
0.936477 0.868727 0.37557
0.936233 0.867506 0.374914
0.935943 0.866606 0.374228
0.935897 0.866026 0.373724
0.935882 0.865492 0.373373
0.935805 0.865049 0.373053
0.310521 0.921279 0.521584
0.309667 0.921157 0.519326
0.308934 0.920989 0.516976
0.308003 0.920851 0.514427
0.306798 0.920714 0.512154
0.305821 0.920439 0.509819
0.30457 0.920043 0.506767
0.302861 0.919539 0.503456
0.300496 0.918517 0.498024
0.297108 0.917205 0.490517
0.292973 0.915434 0.479438
0.287617 0.913344 0.466758
0.282338 0.911254 0.452262
0.292775 0.907042 0.419913
0.317845 0.898466 0.373358
0.399756 0.887938 0.346365
0.554803 0.882643 0.380621
0.62417 0.88098 0.398871
0.68098 0.880888 0.400641
0.731563 0.882628 0.394965
0.793988 0.888334 0.381826
0.840269 0.903731 0.371481
0.880156 0.908324 0.381155
0.919982 0.905547 0.394171
0.936126 0.907805 0.398978
0.941253 0.90695 0.406546
0.9411 0.905562 0.405249
0.940963 0.904402 0.404456
0.94078 0.903471 0.403677
0.940612 0.90277 0.402884
0.940673 0.902296 0.402441
0.940688 0.90193 0.40209
0.940612 0.901595 0.401694
0.312749 0.921492 0.529702
0.312062 0.921431 0.527169
0.31133 0.921355 0.524468
0.310521 0.921279 0.52163
0.309651 0.921141 0.519249
0.308888 0.920974 0.516823
0.307637 0.920806 0.513787
0.30576 0.920439 0.509651
0.303426 0.919692 0.50486
0.300343 0.918456 0.497642
0.295796 0.916686 0.487144
0.290883 0.914473 0.473365
0.283986 0.912276 0.459098
0.287282 0.909194 0.431922
0.318303 0.907164 0.398184
0.375143 0.903517 0.376257
0.509667 0.899702 0.397253
0.618677 0.898314 0.422415
0.67921 0.89987 0.437491
0.732723 0.902602 0.4392
0.784253 0.904677 0.432395
0.842435 0.915618 0.417502
0.880095 0.929473 0.409827
0.909865 0.926619 0.418097
0.935851 0.930343 0.429435
0.943984 0.930495 0.438727
0.943816 0.929351 0.437537
0.943877 0.928771 0.434852
0.943954 0.928389 0.433402
0.943893 0.927901 0.432013
0.943832 0.92752 0.430808
0.943801 0.92723 0.429862
0.943755 0.926986 0.429419
0.314336 0.921691 0.536446
0.313741 0.921614 0.533928
0.313115 0.921523 0.531518
0.312474 0.921477 0.528511
0.311742 0.921386 0.525994
0.310979 0.921324 0.523079
0.30988 0.921187 0.519951
0.308476 0.920897 0.515618
0.305974 0.920501 0.510201
0.302937 0.91957 0.503685
0.298589 0.917754 0.493477
0.29308 0.915465 0.479713
0.287373 0.913024 0.463996
0.282216 0.909865 0.439628
0.312016 0.907485 0.405325
0.361807 0.904585 0.376928
0.48304 0.900175 0.392187
0.607721 0.898131 0.419028
0.671626 0.899474 0.436866
0.725673 0.902556 0.440146
0.777951 0.90547 0.439597
0.833906 0.914382 0.433051
0.875105 0.929427 0.428885
0.904005 0.929961 0.435264
0.929595 0.93492 0.443183
0.944854 0.938521 0.462425
0.945571 0.938842 0.479377
0.945556 0.938766 0.476982
0.945525 0.938659 0.475151
0.945525 0.938598 0.473808
0.945525 0.938598 0.473808
0.945525 0.938598 0.473808
0.945525 0.938598 0.473808
0.315419 0.921736 0.542687
0.314961 0.921721 0.540047
0.314427 0.921691 0.537041
0.313848 0.921645 0.534264
0.313207 0.921538 0.531884
0.312551 0.921477 0.528878
0.31165 0.921386 0.525628
0.310201 0.921233 0.520882
0.308309 0.920882 0.51516
0.305104 0.920226 0.507988
0.300893 0.91873 0.498833
0.295247 0.916365 0.485222
0.290059 0.91368 0.468193
0.282795 0.91078 0.44741
0.306706 0.907988 0.412863
0.350118 0.905394 0.377401
0.460883 0.900496 0.387915
0.597528 0.898131 0.416388
0.665263 0.899245 0.436301
0.719539 0.902312 0.440085
0.771939 0.905058 0.439765
0.826535 0.912703 0.433982
0.870237 0.927871 0.427405
0.901152 0.931853 0.431418
0.925277 0.933822 0.438865
0.943008 0.937972 0.453193
0.945571 0.938827 0.478614
0.945586 0.938842 0.479438
0.945586 0.938842 0.479316
0.945556 0.938811 0.477928
0.945541 0.93875 0.476677
0.945541 0.938704 0.475898
0.945525 0.938659 0.475196
0.316106 0.92163 0.547784
0.31574 0.921691 0.54493
0.315328 0.921736 0.542184
0.314839 0.921721 0.539345
0.314275 0.921691 0.536263
0.31368 0.921599 0.53373
0.312886 0.921508 0.530358
0.31165 0.921386 0.525628
0.309728 0.921172 0.519524
0.306828 0.920729 0.512184
0.302785 0.919493 0.503182
0.297002 0.917189 0.490288
0.292195 0.914427 0.472084
0.283543 0.911467 0.453315
0.302464 0.908354 0.418631
0.339681 0.90602 0.377661
0.443168 0.90071 0.384253
0.588022 0.898253 0.413931
0.659449 0.899046 0.43505
0.714427 0.9019 0.43978
0.766598 0.904784 0.440009
0.820508 0.911391 0.434943
0.866209 0.92636 0.426917
0.898924 0.933425 0.428962
0.921843 0.932845 0.435721
0.941299 0.937697 0.451331
