bundles/resolve-cinematic-luts/Phantom Luts/Fx6 Phntm ARRI LUTs-G5/ATOMOS Monitoring LUTs/Neutral Fx6-Legacy AML.cube
TITLE "Generated by Resolve"
LUT_3D_SIZE 33
0.0814832 0.0814069 0.0814984
0.0814832 0.0814069 0.0814984
0.0823835 0.08159 0.0813458
0.0907149 0.0829633 0.0822766
0.101198 0.0841993 0.0832074
0.116442 0.0855879 0.0848402
0.132998 0.0861067 0.0861982
0.151598 0.0864881 0.0880903
0.172213 0.0881514 0.091722
0.197208 0.0901503 0.0961776
0.227375 0.0917067 0.101259
0.263981 0.0928817 0.107561
0.306355 0.0943923 0.115434
0.353811 0.0957961 0.128573
0.403723 0.0979324 0.141924
0.455192 0.0997787 0.156268
0.508019 0.10016 0.17142
0.561379 0.101595 0.189578
0.613672 0.104509 0.211856
0.671031 0.107912 0.239673
0.756619 0.115496 0.276951
0.794965 0.118196 0.298665
0.794141 0.116823 0.304646
0.793332 0.115663 0.31014
0.792752 0.114763 0.315328
0.792065 0.113878 0.31957
0.79147 0.113054 0.323262
0.791074 0.112459 0.325826
0.790646 0.11191 0.328222
0.790326 0.111513 0.329931
0.790051 0.111223 0.331212
0.789853 0.110994 0.332021
0.7897 0.110811 0.332799
0.0814832 0.0814069 0.0814984
0.0814832 0.0814069 0.0814984
0.0814832 0.0814069 0.0814984
0.0863966 0.0827039 0.0818952
0.0960708 0.0840925 0.0827802
0.109026 0.0856794 0.0840009
0.125032 0.0868696 0.0851301
0.145083 0.0873732 0.0865187
0.167605 0.0876326 0.0881208
0.194476 0.0876936 0.0903334
0.226841 0.0888533 0.0950637
0.262791 0.0911879 0.101946
0.301793 0.0935683 0.108721
0.346716 0.0961166 0.118227
0.39791 0.0987869 0.133455
0.451209 0.100664 0.149142
0.504479 0.101076 0.164706
0.558297 0.102052 0.182391
0.611154 0.105074 0.204669
0.669337 0.108614 0.232715
0.75404 0.116213 0.270176
0.795499 0.119295 0.293111
0.794965 0.118029 0.29958
0.794263 0.116823 0.304784
0.793561 0.115801 0.309514
0.793027 0.115007 0.31397
0.79263 0.114427 0.317266
0.792142 0.113771 0.320195
0.79173 0.113222 0.322652
0.79147 0.11284 0.324285
0.791348 0.112596 0.325383
0.791135 0.112337 0.326528
0.790982 0.112139 0.327398
0.0814832 0.0814069 0.0814984
0.0814832 0.0814069 0.0814984
0.0814832 0.0814069 0.0814984
0.0835737 0.0823835 0.0816052
0.0905776 0.0841993 0.0823682
0.100313 0.0858625 0.0834363
0.117266 0.0878157 0.0846876
0.139147 0.0889143 0.0861982
0.162661 0.089128 0.0878462
0.190219 0.0894942 0.0897993
0.223041 0.0890822 0.0921798
0.259815 0.0888991 0.0953994
0.302419 0.0903029 0.102266
0.350576 0.0928054 0.111666
0.397345 0.0975814 0.124376
0.445289 0.103624 0.1411
0.500648 0.10309 0.157778
0.555001 0.102312 0.175357
0.608377 0.105547 0.198215
0.667216 0.109316 0.225895
0.75169 0.116884 0.263203
0.795758 0.120439 0.286824
0.795682 0.119203 0.293873
0.795163 0.118074 0.299504
0.794491 0.117021 0.304036
0.794018 0.116197 0.307729
0.793591 0.115496 0.311284
0.793164 0.114946 0.314382
0.792935 0.114595 0.316487
0.792706 0.11429 0.318044
0.792477 0.113939 0.319554
0.792279 0.113695 0.320729
0.792111 0.113481 0.32163
0.0823072 0.0890364 0.0830549
0.0822309 0.0876631 0.0824445
0.0836347 0.0860914 0.0821546
0.084947 0.0853437 0.0820783
0.0893568 0.0858167 0.0827649
0.0957961 0.0872816 0.0832837
0.108675 0.0892042 0.0839246
0.130892 0.0906691 0.0856947
0.157031 0.0906386 0.0875868
0.185245 0.0910964 0.0894179
0.219562 0.0908675 0.0920272
0.258076 0.0899519 0.0946517
0.300435 0.0898299 0.0987259
0.348959 0.0897383 0.10341
0.400626 0.0930953 0.115953
0.448631 0.0996109 0.133165
0.496544 0.10692 0.150851
0.551629 0.104662 0.168231
0.605844 0.106081 0.19057
0.664622 0.109895 0.218479
0.748745 0.11751 0.25594
0.795819 0.121584 0.279942
0.795956 0.120348 0.287495
0.795911 0.119249 0.293675
0.79556 0.118318 0.298543
0.794934 0.117449 0.302464
0.794583 0.116777 0.30547
0.794217 0.116182 0.308019
0.793896 0.115679 0.310307
0.793729 0.115358 0.312123
0.793515 0.115099 0.313649
0.793362 0.1149 0.314733
0.793347 0.114794 0.315419
0.083238 0.0996872 0.085008
0.0829023 0.0979019 0.0839857
0.0848249 0.0957504 0.0831769
0.0873121 0.0939956 0.0831922
0.0928969 0.094377 0.0833448
0.0992142 0.0948348 0.0844587
0.110765 0.0956436 0.0848859
0.130663 0.0963912 0.0856336
0.155352 0.094667 0.0873732
0.184344 0.0941787 0.089662
0.215 0.0926375 0.0916915
0.255436 0.0920272 0.0944686
0.299016 0.0912642 0.0975662
0.347936 0.0902876 0.100496
0.398978 0.0910506 0.107591
0.451835 0.0944839 0.122988
0.499916 0.102541 0.143847
0.546105 0.108644 0.161563
0.602502 0.106691 0.182773
0.657923 0.110002 0.209567
0.743374 0.118044 0.246265
0.795636 0.12253 0.27364
0.79617 0.121553 0.2804
0.79617 0.120439 0.287221
0.79617 0.119509 0.292515
0.795972 0.1187 0.296803
0.79556 0.117998 0.30016
0.795148 0.117449 0.302632
0.794797 0.11696 0.304692
0.794705 0.11667 0.306096
0.794537 0.116396 0.307317
0.7944 0.116167 0.3084
0.794293 0.115953 0.309255
0.0838483 0.114641 0.0867628
0.0834058 0.112444 0.0851911
0.0845655 0.109728 0.0839704
0.0889754 0.105852 0.0836652
0.093492 0.104479 0.0838483
0.101396 0.105516 0.0843366
0.115236 0.105776 0.0857862
0.133959 0.104906 0.0865797
0.155184 0.102312 0.0876326
0.183734 0.102602 0.0890364
0.218051 0.101701 0.0911727
0.256596 0.0963455 0.0941634
0.297169 0.093904 0.0972305
0.346899 0.0931716 0.100313
0.398947 0.0922866 0.10573
0.450996 0.0930648 0.114778
0.504021 0.0965744 0.133242
0.548852 0.104967 0.154864
0.598337 0.107225 0.174472
0.651286 0.109895 0.201724
0.736217 0.118227 0.237781
0.790921 0.122927 0.265888
0.795972 0.122499 0.274113
0.796384 0.121614 0.280262
0.796368 0.120653 0.286122
0.796429 0.119875 0.290608
0.796368 0.119203 0.294408
0.796201 0.118685 0.297032
0.795987 0.118242 0.299168
0.795697 0.117876 0.300877
0.795514 0.117617 0.302083
0.795346 0.117418 0.302892
0.795224 0.117235 0.303685
0.0840772 0.131624 0.0890211
0.0835737 0.129244 0.0859693
0.0838941 0.12723 0.0845502
0.0897688 0.122789 0.0842145
0.0942092 0.12018 0.0848096
0.102098 0.1205 0.0852064
0.117021 0.121965 0.0849317
0.135927 0.121599 0.0863508
0.157839 0.117494 0.0883497
0.180209 0.114229 0.0886091
0.217975 0.111604 0.0907607
0.255619 0.109575 0.0927443
0.307088 0.104265 0.0966049
0.345586 0.0970932 0.0999619
0.398489 0.0961929 0.105623
0.451652 0.0947738 0.112596
0.504448 0.0949416 0.123186
0.554223 0.0978866 0.14342
0.595941 0.107042 0.165728
0.648432 0.110948 0.192035
0.727001 0.118181 0.227039
0.78436 0.123568 0.255009
0.790845 0.123095 0.264652
0.796109 0.122805 0.272419
0.796567 0.122042 0.277562
0.796704 0.121386 0.281971
0.796643 0.120653 0.28632
0.796735 0.120165 0.289235
0.796765 0.119753 0.29163
0.796735 0.119402 0.293553
0.796674 0.119112 0.295094
0.796597 0.118898 0.29604
0.796536 0.118776 0.296742
0.0840772 0.151278 0.0918898
0.0834363 0.149523 0.0883497
0.0834821 0.148089 0.0859388
0.0882582 0.145418 0.0838941
0.0939956 0.141604 0.084596
0.101503 0.139712 0.0862898
0.115877 0.139132 0.0868544
0.135958 0.141009 0.0849622
0.15816 0.140139 0.0865187
0.184375 0.135531 0.0883955
0.215579 0.127428 0.0902876
0.255497 0.121935 0.0927749
0.303792 0.118776 0.0962692
0.355993 0.11458 0.0998093
0.403937 0.104738 0.105715
0.451041 0.0997482 0.112154
0.505745 0.0971237 0.12015
0.557473 0.0965896 0.133242
0.602441 0.0977798 0.151598
0.64007 0.108003 0.175921
0.713603 0.117876 0.212528
0.774304 0.12398 0.240833
0.781521 0.124041 0.249439
0.787335 0.123445 0.257984
0.792538 0.123217 0.265538
0.796231 0.122988 0.271366
0.796796 0.12253 0.274678
0.796979 0.122087 0.277592
0.796979 0.121706 0.280079
0.797101 0.121477 0.281651
0.79707 0.121202 0.28336
0.797055 0.120989 0.284703
0.79704 0.120806 0.28571
0.084123 0.173266 0.0953078
0.083299 0.171405 0.092195
0.082948 0.170489 0.0865797
0.0845655 0.169207 0.083772
0.092958 0.165408 0.0835279
0.0995804 0.162692 0.08542
0.113848 0.160998 0.0896773
0.132723 0.160388 0.089128
0.15584 0.163043 0.0847486
0.184741 0.160586 0.0862135
0.216999 0.154452 0.0888838
0.260487 0.139818 0.0935378
0.297505 0.135958 0.0957656
0.358953 0.133028 0.101686
0.409979 0.128954 0.106035
0.47013 0.119432 0.114214
0.506401 0.104082 0.120089
0.56025 0.0994736 0.129107
0.609308 0.0987411 0.144381
0.648264 0.0971237 0.160067
0.689174 0.115282 0.190433
0.760067 0.124056 0.222934
0.767468 0.124086 0.231098
0.77435 0.124178 0.239246
0.779965 0.124193 0.245899
0.784512 0.124056 0.25156
0.787686 0.123705 0.256809
0.7906 0.123537 0.261311
0.793057 0.123445 0.264515
0.794858 0.123445 0.266911
0.796277 0.123369 0.268833
0.796689 0.123247 0.27013
0.79678 0.123125 0.271015
0.0838941 0.200412 0.101442
0.0832227 0.19855 0.0972915
0.0829175 0.197299 0.0920119
0.083238 0.196704 0.0863661
0.0894942 0.195056 0.0838026
0.0974594 0.191989 0.0842451
0.1093 0.188678 0.0881819
0.128573 0.187167 0.0936446
0.151064 0.185763 0.0920424
0.178302 0.188617 0.08542
0.217548 0.185428 0.0870069
0.256077 0.177462 0.0910658
0.309468 0.157473 0.0983749
0.349752 0.155383 0.101442
0.416327 0.153079 0.109209
0.471931 0.150072 0.115114
0.538262 0.142885 0.125597
0.578485 0.121263 0.132738
0.614252 0.102663 0.139803
0.658717 0.0998398 0.155993
0.687648 0.0995804 0.173068
0.740612 0.120119 0.201877
0.747204 0.123537 0.208774
0.754864 0.123964 0.216297
0.761273 0.124178 0.222614
0.766171 0.124269 0.227481
0.770306 0.124331 0.232517
0.773587 0.124407 0.236637
0.776226 0.124437 0.239475
0.778088 0.124422 0.241901
0.779629 0.124437 0.243671
0.780774 0.124498 0.244938
0.781613 0.124483 0.246067
0.0841688 0.234897 0.111406
0.0837415 0.233173 0.106752
0.0833143 0.231571 0.100984
0.082826 0.230365 0.09337
0.0834974 0.229313 0.0860761
0.0924392 0.227771 0.0842298
0.104158 0.22446 0.0859236
0.122454 0.221363 0.0914015
0.146044 0.219989 0.0977951
0.172686 0.218067 0.0965591
0.207462 0.221515 0.0866255
0.258106 0.21799 0.0897078
0.303899 0.209827 0.0955215
0.364462 0.18558 0.104921
0.408392 0.182757 0.109377
0.477577 0.183673 0.120317
0.543862 0.1823 0.131319
0.607034 0.176761 0.1402
0.66186 0.151751 0.149157
0.687419 0.11458 0.152239
0.704387 0.0994888 0.166415
0.733928 0.108522 0.1897
0.742718 0.112535 0.194736
0.74229 0.114092 0.196201
0.74226 0.115251 0.197543
0.741939 0.116457 0.198672
0.742321 0.11902 0.20119
0.747066 0.123705 0.206973
0.750408 0.123934 0.209751
0.752743 0.124086 0.212253
0.754589 0.124178 0.214099
0.755993 0.124239 0.215412
0.756954 0.124269 0.216266
0.0852979 0.275395 0.12285
0.0850385 0.274022 0.11873
0.0844587 0.27303 0.115114
0.0840009 0.270954 0.107393
0.0835889 0.269612 0.0981765
0.0842756 0.268208 0.0888075
0.0962692 0.267063 0.085832
0.114931 0.263355 0.0886702
0.139773 0.261051 0.0959487
0.16817 0.260258 0.105287
0.20235 0.258381 0.103655
0.247272 0.26363 0.0901503
0.309056 0.260533 0.0948653
0.362203 0.252811 0.101793
0.424643 0.229023 0.115328
0.474159 0.221073 0.123659
0.540566 0.222736 0.134752
0.616785 0.22179 0.14757
0.680034 0.215152 0.15436
0.755123 0.192004 0.164828
0.786496 0.144961 0.169924
0.789502 0.10486 0.177188
0.759609 0.099443 0.183688
0.746441 0.104799 0.187564
0.7458 0.10573 0.188418
0.745449 0.106462 0.189075
0.745098 0.107073 0.189807
0.744823 0.107622 0.190372
0.744549 0.108049 0.190784
0.744381 0.1084 0.191089
0.744274 0.108629 0.191287
0.744167 0.108797 0.191455
0.744106 0.108965 0.191623
0.0887007 0.326452 0.139437
0.0881971 0.324926 0.135576
0.0874952 0.323919 0.131487
0.0869612 0.322591 0.126513
0.0863661 0.320363 0.1187
0.0860456 0.31873 0.109224
0.0864881 0.316701 0.0939651
0.105592 0.315755 0.0896773
0.129366 0.311879 0.093904
0.161059 0.310857 0.10399
0.197177 0.310262 0.117021
0.241672 0.308324 0.114748
0.29575 0.315236 0.0959182
0.366873 0.312032 0.101762
0.421698 0.305913 0.110079
0.487068 0.282734 0.128985
0.545464 0.272038 0.140917
0.603769 0.265995 0.149218
0.689158 0.266484 0.163287
0.765347 0.25919 0.171298
0.837552 0.237034 0.178698
0.888487 0.187533 0.185672
0.88838 0.141558 0.184253
0.868742 0.122148 0.180865
0.849104 0.113008 0.180331
0.830594 0.107805 0.18114
0.814633 0.103853 0.181323
0.801755 0.100999 0.181216
0.789914 0.0995346 0.181186
0.780865 0.0990463 0.181842
0.773083 0.0985428 0.181872
0.766842 0.0977798 0.18117
0.764828 0.0993668 0.183627
0.0943465 0.383642 0.159487
0.0939345 0.382452 0.155718
0.09337 0.381125 0.151415
0.0929732 0.380209 0.148562
0.0925917 0.378836 0.143465
0.0919814 0.376928 0.1364
0.0914931 0.375097 0.123568
0.0927291 0.372519 0.102129
0.119554 0.370672 0.0953078
0.148089 0.365927 0.101122
0.188571 0.365499 0.115297
0.23508 0.364294 0.133654
0.287251 0.36257 0.126909
0.351293 0.372442 0.101259
0.425513 0.36939 0.11368
0.483009 0.36527 0.122072
0.550256 0.345541 0.141787
0.619715 0.3308 0.159518
0.670832 0.324163 0.165225
0.763241 0.314199 0.178515
0.853361 0.307378 0.188205
0.909117 0.288289 0.19118
0.949798 0.258854 0.196353
0.949569 0.242603 0.195331
0.943267 0.22591 0.194049
0.936904 0.212818 0.193088
0.930846 0.201709 0.191745
0.925643 0.192004 0.190707
0.921431 0.183932 0.189975
0.917891 0.178622 0.189471
0.915099 0.174258 0.188922
0.912612 0.170993 0.18851
0.910445 0.168231 0.188006
0.1019 0.442924 0.184009
0.101381 0.441657 0.180117
0.100801 0.440284 0.175158
0.100099 0.439292 0.17145
0.0994736 0.438483 0.168093
0.0990311 0.437583 0.164477
0.0982681 0.435401 0.156252
0.0977646 0.432898 0.139757
0.100038 0.430076 0.113146
0.137545 0.426932 0.1037
0.172549 0.422232 0.112993
0.226169 0.421973 0.134157
0.282185 0.420432 0.156298
0.341329 0.419821 0.141161
0.409827 0.43238 0.112963
0.486549 0.428885 0.128756
0.545983 0.425544 0.139696
0.613245 0.409979 0.156268
0.693751 0.38999 0.178134
0.742824 0.384771 0.182284
0.831388 0.362081 0.193668
0.919387 0.356847 0.204242
0.949966 0.34107 0.205646
0.949905 0.332326 0.203449
0.949722 0.324056 0.20148
0.949752 0.316884 0.200198
0.949981 0.310948 0.19939
0.949813 0.305806 0.198428
0.949874 0.302144 0.198093
0.949889 0.298848 0.197574
0.949874 0.296254 0.197421
0.949722 0.294438 0.197284
0.949752 0.292836 0.197162
0.114839 0.504952 0.215442
0.114336 0.503731 0.211276
0.113832 0.502419 0.206424
0.113207 0.501167 0.201755
0.112612 0.500465 0.198428
0.111864 0.499947 0.196139
0.110765 0.498711 0.191073
0.10956 0.495933 0.179507
0.109636 0.493446 0.158724
0.113268 0.489464 0.123247
0.160632 0.485115 0.116548
0.209491 0.481498 0.13431
0.273426 0.480705 0.159411
0.337514 0.479118 0.179599
0.400504 0.479881 0.1579
0.469947 0.494163 0.129976
0.54847 0.490959 0.148074
0.609155 0.488182 0.158877
0.677607 0.476356 0.172961
0.765148 0.449912 0.194614
0.82414 0.442649 0.201312
0.889342 0.424964 0.206714
0.949874 0.407034 0.216556
0.949935 0.399893 0.216175
0.949767 0.394293 0.215274
0.94992 0.389517 0.214618
0.949828 0.385534 0.213947
0.949935 0.382315 0.213474
0.949889 0.37966 0.213107
0.949889 0.377386 0.212757
0.949874 0.375601 0.212558
0.949722 0.374258 0.212238
0.949722 0.373159 0.2121
0.13164 0.569314 0.252384
0.130938 0.568246 0.248798
0.130251 0.567132 0.244404
0.129595 0.565942 0.239918
0.128923 0.564874 0.23563
0.128237 0.56405 0.232456
0.127275 0.563333 0.229587
0.125795 0.561944 0.222843
0.124773 0.558419 0.205768
0.124849 0.555871 0.17908
0.13286 0.55082 0.135805
0.196368 0.544549 0.138979
0.260777 0.541909 0.163012
0.331151 0.540658 0.189929
0.397559 0.539864 0.199954
0.460746 0.541161 0.176303
0.530938 0.556329 0.151797
0.609949 0.553429 0.169924
0.672435 0.550469 0.181079
0.742245 0.541955 0.191836
0.826185 0.511681 0.213458
0.897459 0.501442 0.223713
0.932082 0.495659 0.22269
0.949859 0.48455 0.225208
0.94992 0.477623 0.224735
0.949996 0.471519 0.22414
0.949828 0.466316 0.223682
0.949935 0.462089 0.223453
0.949889 0.458396 0.223255
0.949889 0.455451 0.223072
0.949722 0.453361 0.222705
0.949844 0.451759 0.222751
0.94995 0.45066 0.222843
0.150607 0.635493 0.292103
0.150164 0.634699 0.288441
0.149523 0.633738 0.28484
0.149126 0.632868 0.281086
0.148486 0.631785 0.276921
0.147814 0.630777 0.273152
0.146929 0.62974 0.269459
0.145418 0.628382 0.26537
0.143786 0.626749 0.25713
0.143038 0.622293 0.23386
0.143801 0.618616 0.198444
0.161608 0.612329 0.153109
0.245197 0.604822 0.167483
0.321996 0.60354 0.196368
0.395438 0.601999 0.223285
0.459541 0.601801 0.22237
0.521798 0.603723 0.198322
0.591104 0.619501 0.174884
0.670787 0.615076 0.195544
0.73518 0.61236 0.207401
0.802792 0.605661 0.215702
0.87602 0.579583 0.23386
0.937087 0.566522 0.244709
0.949859 0.56643 0.239918
0.94992 0.561379 0.238148
0.94992 0.556588 0.236652
0.949798 0.552605 0.235492
0.949981 0.549905 0.234852
0.949813 0.547539 0.23386
0.949813 0.545495 0.233448
0.949813 0.543893 0.233082
0.94992 0.542779 0.232914
0.950042 0.541955 0.232837
0.171389 0.704143 0.333516
0.170871 0.703212 0.330404
0.170367 0.702327 0.327459
0.169772 0.701335 0.324208
0.169085 0.70042 0.320287
0.168536 0.699382 0.316869
0.16788 0.698192 0.312245
0.166857 0.697002 0.307057
0.165362 0.695338 0.301503
0.16347 0.692317 0.288365
0.163043 0.687282 0.260822
0.165408 0.6813 0.216876
0.207889 0.674571 0.177295
0.310292 0.667323 0.204211
0.390021 0.666285 0.234409
0.4598 0.664515 0.258595
0.520775 0.664561 0.247837
0.581781 0.666712 0.22475
0.650538 0.684504 0.201663
0.730312 0.676524 0.223774
0.794507 0.674357 0.236454
0.853468 0.668605 0.242191
0.910628 0.65304 0.248951
0.946441 0.640238 0.262028
0.946563 0.637934 0.261967
0.946624 0.633646 0.260716
0.947066 0.630655 0.259968
0.947112 0.627741 0.25919
0.947234 0.62536 0.258671
0.947341 0.623468 0.258366
0.947494 0.622126 0.257939
0.947692 0.62121 0.257725
0.947662 0.620371 0.257404
0.195209 0.775525 0.372534
0.194766 0.774777 0.370047
0.194141 0.773892 0.367468
0.193896 0.773175 0.364782
0.193301 0.772274 0.361563
0.192691 0.771282 0.358999
0.191913 0.770138 0.354498
0.190799 0.768582 0.34844
0.18941 0.766629 0.341817
0.187015 0.764401 0.334295
0.185275 0.760601 0.317556
0.184619 0.755001 0.281468
0.191913 0.745815 0.227665
0.26656 0.737865 0.206973
0.382574 0.733089 0.245594
0.45568 0.731884 0.272267
0.521828 0.729641 0.291264
0.580957 0.728893 0.277226
0.640192 0.730785 0.255604
0.707225 0.748409 0.232914
0.789746 0.740154 0.253544
0.845777 0.739544 0.266957
0.894514 0.735164 0.270665
0.932555 0.72578 0.270817
0.942214 0.714122 0.273808
0.942535 0.71017 0.272648
0.942443 0.706783 0.271336
0.942504 0.704448 0.270604
0.942733 0.702724 0.270314
0.942855 0.701106 0.270085
0.942794 0.699779 0.26981
0.942855 0.69868 0.269795
0.942901 0.697841 0.26978
0.220813 0.840009 0.40795
0.220203 0.839231 0.405188
0.219486 0.838483 0.402777
0.218738 0.837751 0.399969
0.218219 0.836988 0.397436
0.217762 0.836347 0.395071
0.21709 0.835462 0.391424
0.21619 0.834134 0.386831
0.214939 0.832151 0.379675
0.212268 0.829587 0.37145
0.208972 0.826947 0.363485
0.206775 0.822583 0.34139
0.208713 0.814801 0.298268
0.228305 0.807614 0.24445
0.348074 0.797574 0.251194
0.450233 0.794873 0.286122
0.519768 0.792416 0.309346
0.580056 0.789944 0.320928
0.639399 0.789319 0.306859
0.698772 0.792493 0.286046
0.766003 0.811963 0.265187
0.842512 0.803998 0.283711
0.888609 0.805447 0.294469
0.924437 0.802335 0.298589
0.940963 0.795636 0.302434
0.940963 0.791058 0.301442
0.9411 0.78819 0.300374
0.940963 0.785641 0.298909
0.940993 0.783383 0.2981
0.941115 0.781704 0.29752
0.941146 0.780499 0.296971
0.941115 0.779431 0.296483
0.941131 0.778592 0.296147
0.249165 0.894377 0.44123
0.247974 0.893568 0.438697
0.246937 0.892927 0.436316
0.246006 0.892454 0.433692
0.2448 0.891661 0.43122
0.243687 0.890822 0.428412
0.24242 0.889662 0.425345
0.240177 0.888319 0.420768
0.237781 0.886671 0.414694
0.236286 0.884382 0.406577
0.233707 0.881697 0.397086
0.230549 0.878798 0.38613
0.228702 0.873808 0.357275
0.240772 0.865415 0.310979
0.274128 0.858091 0.263371
0.431556 0.849393 0.297444
0.513436 0.846113 0.324666
0.580819 0.843488 0.346746
0.635966 0.842634 0.349004
0.697032 0.842725 0.334173
0.758404 0.848585 0.313939
0.821515 0.868742 0.296956
0.886824 0.861067 0.315847
0.922148 0.861708 0.322881
0.940993 0.861189 0.327688
0.940902 0.857771 0.330785
0.940871 0.8551 0.329824
0.940856 0.852903 0.328954
0.940688 0.851179 0.328161
0.940673 0.84976 0.327703
0.940734 0.848783 0.327214
0.940887 0.848081 0.327031
0.940887 0.847379 0.326757
0.271 0.923766 0.467369
0.270436 0.923491 0.465003
0.269825 0.923156 0.462699
0.269062 0.922667 0.460349
0.268132 0.922286 0.457954
0.267414 0.921981 0.455604
0.266575 0.921553 0.452903
0.265248 0.920836 0.449256
0.26334 0.919738 0.444007
0.260868 0.918334 0.436866
0.257542 0.916533 0.426093
0.253117 0.914336 0.414374
0.249271 0.912566 0.401266
0.257939 0.909499 0.370794
0.278447 0.902632 0.327504
0.350668 0.892958 0.30103
0.502586 0.888075 0.33901
0.573907 0.885847 0.361685
0.639017 0.882872 0.382055
0.689906 0.883558 0.37528
0.753338 0.884718 0.359487
0.815152 0.895232 0.339422
0.869276 0.91397 0.328771
0.920546 0.905165 0.344991
0.942946 0.907576 0.348623
0.943969 0.905394 0.356252
0.943847 0.903548 0.355062
0.943679 0.902007 0.354208
0.943618 0.900725 0.353521
0.943542 0.899687 0.353048
0.943511 0.898863 0.35256
0.943481 0.898238 0.352178
0.943465 0.897795 0.351812
0.272923 0.925078 0.475731
0.272312 0.924666 0.472984
0.271702 0.924239 0.470085
0.271015 0.923766 0.467399
0.27042 0.923491 0.464927
0.269795 0.923125 0.462593
0.268788 0.92256 0.459693
0.267384 0.921981 0.455451
0.265751 0.921096 0.450706
0.263233 0.919661 0.44361
0.260029 0.917922 0.433783
0.255833 0.91545 0.420356
0.250645 0.913497 0.407553
0.253361 0.911284 0.382025
0.278431 0.911894 0.351568
0.329671 0.910414 0.330526
0.45742 0.907469 0.350515
0.568063 0.902937 0.380713
0.631662 0.901305 0.40499
0.689265 0.901335 0.412177
0.740795 0.902586 0.403876
0.806943 0.907912 0.382803
0.857877 0.924849 0.361288
0.902419 0.928206 0.367559
0.940032 0.935973 0.375311
0.944625 0.935561 0.383764
0.944656 0.934142 0.382834
0.944793 0.93341 0.380667
0.944793 0.932815 0.379187
0.944671 0.93225 0.377707
0.944625 0.931807 0.376577
0.94461 0.931426 0.375753
0.94461 0.931136 0.375463
0.27422 0.926238 0.482887
0.273777 0.925811 0.480064
0.273289 0.925368 0.47744
0.272663 0.92491 0.474479
0.272038 0.924468 0.471641
0.271397 0.92401 0.468849
0.270588 0.923568 0.465644
0.269444 0.922881 0.461555
0.267536 0.922026 0.45597
0.265339 0.920882 0.449485
0.26186 0.918898 0.439765
0.257664 0.916594 0.426368
0.252964 0.914122 0.411856
0.249256 0.911254 0.389242
0.273182 0.911879 0.358175
0.317311 0.911055 0.33109
0.430503 0.907866 0.344564
0.556924 0.903273 0.376654
0.622553 0.901442 0.40177
0.681987 0.901198 0.41326
0.733608 0.902724 0.409995
0.79472 0.905669 0.396857
0.851591 0.92192 0.380819
0.896315 0.933501 0.377935
0.930404 0.934203 0.387808
0.94464 0.936812 0.405234
0.94464 0.936919 0.421042
0.94464 0.936904 0.418845
0.94464 0.936873 0.417166
0.94464 0.936873 0.415915
0.94464 0.936873 0.415915
0.94464 0.936873 0.415915
0.94464 0.936873 0.415915
0.275242 0.92726 0.48954
0.274815 0.926802 0.486488
0.274327 0.926345 0.483391
0.273838 0.925856 0.480522
0.273365 0.925414 0.477836
0.27274 0.924956 0.474861
0.271977 0.924422 0.47129
0.270802 0.923659 0.466682
0.269322 0.922805 0.461097
0.266896 0.921752 0.454047
0.263645 0.919951 0.444953
0.25951 0.917586 0.432074
0.255222 0.914748 0.415671
0.249668 0.9122 0.396658
0.269017 0.911955 0.364858
0.306905 0.911589 0.331456
0.408988 0.907927 0.33959
0.546395 0.903563 0.373373
0.614984 0.901534 0.398627
0.675624 0.900984 0.413184
0.727764 0.902663 0.410742
0.786938 0.905058 0.399649
0.845747 0.919478 0.382437
0.890959 0.934615 0.375051
0.923781 0.932647 0.383963
0.94464 0.936751 0.396216
0.94464 0.936904 0.420325
0.94464 0.936919 0.421088
0.94464 0.936919 0.420981
0.94464 0.936904 0.419699
0.94464 0.936904 0.418585
0.944625 0.936889 0.417899
0.94464 0.936873 0.417212
0.276051 0.9281 0.494896
0.275624 0.927642 0.491768
0.275166 0.927184 0.489006
0.274693 0.926696 0.48574
0.274189 0.926207 0.482689
0.273747 0.92575 0.479805
0.273075 0.925185 0.47628
0.271977 0.924422 0.47129
0.270481 0.923522 0.465187
0.268147 0.922286 0.457984
0.265141 0.92079 0.448951
0.260807 0.918318 0.436667
0.256916 0.915557 0.419196
0.25034 0.912856 0.402243
0.265904 0.911894 0.36997
0.297688 0.911925 0.331609
0.391653 0.908263 0.335973
0.536812 0.904097 0.37055
0.608865 0.901595 0.396109
0.670436 0.900877 0.413138
0.722591 0.902449 0.411154
0.77998 0.904677 0.401465
0.841001 0.917311 0.38439
0.884596 0.932891 0.374945
0.918379 0.93138 0.381567
0.944625 0.936736 0.394339
0.94464 0.936904 0.41973
0.94464 0.936904 0.420325
