bundles/resolve-cinematic-luts/Phantom Luts/Fx6 Phntm ARRI LUTs-G5/ATOMOS Monitoring LUTs/Neutral Fx6-Legacy AML.cube
TITLE "Generated by Resolve"
LUT_3D_SIZE 9
0.0814832 0.0814069 0.0814984
0.101198 0.0841993 0.0832074
0.172213 0.0881514 0.091722
0.306355 0.0943923 0.115434
0.508019 0.10016 0.17142
0.756619 0.115496 0.276951
0.792752 0.114763 0.315328
0.790646 0.11191 0.328222
0.7897 0.110811 0.332799
0.083238 0.0996872 0.085008
0.0928969 0.094377 0.0833448
0.155352 0.094667 0.0873732
0.299016 0.0912642 0.0975662
0.499916 0.102541 0.143847
0.743374 0.118044 0.246265
0.79617 0.119509 0.292515
0.794797 0.11696 0.304692
0.794293 0.115953 0.309255
0.084123 0.173266 0.0953078
0.092958 0.165408 0.0835279
0.15584 0.163043 0.0847486
0.297505 0.135958 0.0957656
0.506401 0.104082 0.120089
0.689174 0.115282 0.190433
0.779965 0.124193 0.245899
0.793057 0.123445 0.264515
0.79678 0.123125 0.271015
0.0887007 0.326452 0.139437
0.0863661 0.320363 0.1187
0.129366 0.311879 0.093904
0.29575 0.315236 0.0959182
0.545464 0.272038 0.140917
0.837552 0.237034 0.178698
0.849104 0.113008 0.180331
0.789914 0.0995346 0.181186
0.764828 0.0993668 0.183627
0.13164 0.569314 0.252384
0.128923 0.564874 0.23563
0.124773 0.558419 0.205768
0.260777 0.541909 0.163012
0.530938 0.556329 0.151797
0.826185 0.511681 0.213458
0.94992 0.477623 0.224735
0.949889 0.458396 0.223255
0.94995 0.45066 0.222843
0.220813 0.840009 0.40795
0.218219 0.836988 0.397436
0.214939 0.832151 0.379675
0.208713 0.814801 0.298268
0.519768 0.792416 0.309346
0.766003 0.811963 0.265187
0.940963 0.795636 0.302434
0.940993 0.783383 0.2981
0.941131 0.778592 0.296147
0.27422 0.926238 0.482887
0.272038 0.924468 0.471641
0.267536 0.922026 0.45597
0.252964 0.914122 0.411856
0.430503 0.907866 0.344564
0.733608 0.902724 0.409995
0.930404 0.934203 0.387808
0.94464 0.936873 0.417166
0.94464 0.936873 0.415915
0.27686 0.929122 0.502098
0.27541 0.927413 0.490486
0.272114 0.924514 0.471946
0.258991 0.916625 0.425238
0.367681 0.908263 0.331167
0.715099 0.90219 0.411765
0.91133 0.929458 0.37937
0.94464 0.936904 0.419928
0.94464 0.936919 0.421149
0.277714 0.929152 0.509163
0.276402 0.92845 0.497581
0.27361 0.925628 0.479164
0.260471 0.917754 0.431876
0.357092 0.909072 0.331441
0.708003 0.901915 0.412222
0.903807 0.928435 0.379156
0.94464 0.936904 0.418952
0.94464 0.936904 0.420142
0.0812695 0.081651 0.0895857
0.0996719 0.0831922 0.0965438
0.168276 0.0858778 0.117037
0.310246 0.0906844 0.149462
0.512932 0.0980545 0.196216
0.750881 0.110857 0.297597
0.789181 0.110109 0.335805
0.786664 0.107301 0.346716
0.785336 0.106279 0.350851
0.0834821 0.0928969 0.091783
0.088365 0.0879377 0.0879377
0.15729 0.0877089 0.0901808
0.293416 0.0940871 0.113512
0.50103 0.100511 0.169894
0.743679 0.114305 0.271687
0.79292 0.114885 0.314717
0.790967 0.112123 0.327413
0.790036 0.111009 0.332082
0.0849622 0.167529 0.119921
0.0843977 0.162097 0.0953689
0.150332 0.156741 0.0858015
0.309957 0.125933 0.0970321
0.498512 0.0953231 0.120912
0.71574 0.117021 0.221546
0.79678 0.122194 0.276677
0.796979 0.119921 0.290837
0.796826 0.118929 0.296086
0.0894331 0.324727 0.161898
0.0879377 0.316869 0.13843
0.0968948 0.307012 0.0888685
0.290303 0.309422 0.0958877
0.540093 0.261616 0.138247
0.845243 0.219516 0.179721
0.816861 0.104448 0.181598
0.754406 0.100832 0.184833
0.746715 0.104387 0.187198
0.131914 0.568093 0.269322
0.129625 0.562951 0.250782
0.125582 0.556451 0.226078
0.239567 0.539635 0.15433
0.52755 0.553109 0.15169
0.831983 0.505074 0.214298
0.949828 0.468177 0.223789
0.949935 0.447654 0.222644
0.949844 0.439033 0.221759
0.220798 0.838392 0.418494
0.218799 0.835248 0.406439
0.21532 0.830274 0.389578
0.204852 0.814603 0.319493
0.510338 0.790311 0.305653
0.762768 0.80882 0.264347
0.94107 0.790478 0.300542
0.941146 0.777569 0.295766
0.941146 0.772702 0.294087
0.276173 0.928206 0.495506
0.274372 0.926375 0.483574
0.270726 0.923629 0.466346
0.257572 0.915801 0.420356
0.407401 0.907927 0.339239
0.729381 0.902693 0.41062
0.927977 0.9337 0.390097
0.94464 0.936904 0.418708
0.94464 0.936873 0.415915
0.27834 0.929168 0.513039
0.276951 0.929198 0.502953
0.274464 0.926482 0.484245
0.261631 0.918425 0.436866
0.351873 0.90927 0.331182
0.710384 0.901976 0.41207
0.90808 0.928679 0.383001
0.94464 0.936919 0.421424
0.94464 0.936919 0.42266
0.279362 0.929244 0.520119
0.27779 0.929152 0.509941
0.275639 0.927672 0.491981
0.263096 0.919539 0.442863
0.339071 0.909819 0.330556
0.702831 0.901701 0.412421
0.901106 0.929808 0.380911
0.94464 0.936904 0.420478
0.94464 0.936919 0.421698
0.0812238 0.0854505 0.139757
0.110994 0.0847944 0.149874
0.168612 0.0859541 0.163439
0.308873 0.0903182 0.185473
0.513191 0.0928054 0.237964
0.740963 0.103441 0.328466
0.78233 0.103441 0.362402
0.780682 0.101823 0.368765
0.780133 0.101213 0.371008
0.0816358 0.0903944 0.121324
0.0822461 0.0843519 0.135485
0.155428 0.0858778 0.150683
0.295079 0.0890364 0.165225
0.506905 0.0959487 0.212497
0.735378 0.106905 0.305119
0.786892 0.1075 0.346075
0.783963 0.104921 0.355993
0.782864 0.103975 0.359915
0.0871901 0.158495 0.151217
0.0868086 0.153338 0.146365
0.149645 0.148745 0.149508
0.312093 0.130541 0.144579
0.495552 0.104479 0.169619
0.726955 0.112627 0.264622
0.793439 0.115114 0.31342
0.791531 0.11249 0.32607
0.790585 0.11133 0.331106
0.090547 0.3187 0.199084
0.0892805 0.314672 0.182116
0.08925 0.304097 0.13843
0.289723 0.306111 0.113085
0.556893 0.244602 0.146304
0.828946 0.172625 0.180285
0.759274 0.100008 0.184543
0.743069 0.11487 0.197223
0.748974 0.123964 0.20734
0.131365 0.565576 0.30277
0.129702 0.562142 0.281804
0.127077 0.553079 0.247639
0.190524 0.534874 0.138003
0.522683 0.547524 0.151766
0.84065 0.493767 0.214969
0.949783 0.452003 0.222705
0.949905 0.429603 0.221088
0.949981 0.421836 0.220462
0.220554 0.836316 0.43975
0.218967 0.832776 0.425666
0.215915 0.827329 0.404562
0.204089 0.812345 0.350835
0.494041 0.787625 0.300313
0.758877 0.804547 0.263874
0.941024 0.782132 0.297215
0.941329 0.768582 0.292561
0.941268 0.763012 0.29015
0.278294 0.929183 0.512749
0.276951 0.929198 0.503044
0.274586 0.926589 0.484901
0.262211 0.918608 0.437751
0.370886 0.908019 0.33109
0.722316 0.902785 0.414847
0.924514 0.93286 0.393973
0.94464 0.936919 0.421241
0.94464 0.936873 0.416648
0.280842 0.929442 0.530297
0.279393 0.929244 0.520272
0.277089 0.929229 0.504112
0.266545 0.921553 0.452796
0.322362 0.910765 0.330861
0.702144 0.901839 0.414054
0.903075 0.928695 0.38941
0.944625 0.936919 0.423941
0.944625 0.936934 0.424994
0.281865 0.929534 0.537011
0.280415 0.929381 0.526848
0.277943 0.929137 0.510857
0.268421 0.922393 0.458686
0.309361 0.911345 0.331289
0.69453 0.901686 0.413611
0.897581 0.932784 0.384283
0.94464 0.936919 0.423163
0.944625 0.936919 0.424201
0.0866102 0.0999619 0.258061
0.123842 0.0903792 0.267857
0.183444 0.0902571 0.281422
0.313542 0.090547 0.303807
0.521035 0.0950027 0.323262
0.732799 0.0919509 0.380987
0.774151 0.0924239 0.406683
0.774166 0.0913405 0.412757
0.774533 0.0912795 0.415869
0.0763714 0.107027 0.234516
0.086305 0.0988937 0.251041
0.158724 0.0901198 0.272694
0.302129 0.0902571 0.292256
0.510582 0.0942092 0.306813
0.722332 0.0928969 0.367453
0.775296 0.0946365 0.397589
0.774624 0.0931563 0.403662
0.774289 0.0926528 0.405692
0.0779431 0.15111 0.223606
0.0768444 0.141329 0.230228
0.11519 0.119097 0.263386
0.284749 0.0920882 0.275517
0.497139 0.0944381 0.278752
0.710216 0.0957351 0.345037
0.777829 0.0984207 0.382223
0.776669 0.0968948 0.388342
0.776242 0.0963302 0.390524
0.0946059 0.295903 0.277043
0.0942397 0.291218 0.273091
0.0949264 0.283467 0.267063
0.296178 0.29546 0.296757
0.565118 0.253986 0.277302
0.763378 0.12726 0.269215
0.797009 0.115923 0.311696
0.794858 0.113222 0.324819
0.794186 0.112123 0.329763
0.131533 0.554757 0.385
0.130434 0.552209 0.373877
0.128328 0.548135 0.352941
0.136538 0.535454 0.248737
0.517754 0.538949 0.232242
0.840543 0.481621 0.269261
0.949828 0.421134 0.253178
0.949767 0.403342 0.244511
0.949844 0.396094 0.24152
0.218555 0.823636 0.492988
0.21735 0.821347 0.482383
0.215488 0.818265 0.46511
0.207904 0.805097 0.398779
0.426764 0.780468 0.282902
0.747433 0.792248 0.262303
0.941192 0.757488 0.30222
0.941436 0.741512 0.295735
0.941543 0.73521 0.293599
0.284932 0.929778 0.557824
0.283818 0.929747 0.54934
0.281621 0.929519 0.535332
0.274891 0.926909 0.487144
0.292073 0.914397 0.364019
0.700313 0.903181 0.428367
0.915938 0.930724 0.404242
0.94464 0.936873 0.414435
0.94464 0.936828 0.408423
0.286671 0.930007 0.573404
0.285878 0.929915 0.565286
0.284108 0.929793 0.551766
0.277363 0.929213 0.50602
0.270787 0.91368 0.381598
0.675883 0.902602 0.427298
0.893202 0.935058 0.399558
0.944625 0.936965 0.430442
0.944625 0.93698 0.430823
0.287251 0.930236 0.579614
0.286427 0.929946 0.571344
0.284916 0.929763 0.557733
0.278248 0.929168 0.512444
0.265782 0.913771 0.389563
0.666316 0.902327 0.426505
0.88127 0.931899 0.399771
0.944625 0.936965 0.430213
0.944625 0.936965 0.430625
0.0935531 0.1308 0.446845
0.134127 0.112276 0.450996
0.192538 0.101976 0.463951
0.332036 0.0999313 0.489219
0.530922 0.0947433 0.514946
0.806683 0.0959945 0.525841
0.849928 0.0962234 0.548012
0.855375 0.0967269 0.559258
0.85745 0.0969406 0.563592
0.0637064 0.144488 0.428962
0.0937667 0.129427 0.442039
0.162509 0.103914 0.454597
0.313252 0.0998398 0.482734
0.523247 0.0949722 0.507424
0.794507 0.0955062 0.514473
0.843641 0.0959182 0.535531
0.849088 0.0962081 0.546288
0.85095 0.0962997 0.550103
0.054902 0.161364 0.402472
0.0548409 0.153124 0.411444
0.0991073 0.125856 0.436698
0.278431 0.0999466 0.472465
0.511727 0.0962997 0.496452
0.775769 0.0949874 0.496712
0.832303 0.0949569 0.515633
0.838224 0.0953994 0.525734
0.840223 0.0956283 0.529274
0.0635233 0.274601 0.399878
0.0600595 0.267048 0.402029
0.0540322 0.25391 0.407813
0.213825 0.221332 0.474006
0.517937 0.165576 0.501244
0.728862 0.0939803 0.447196
0.808988 0.0937514 0.465965
0.812696 0.0938582 0.47306
0.814328 0.0939498 0.475929
0.126467 0.522927 0.497673
0.125643 0.519738 0.494972
0.124529 0.51548 0.491096
0.12546 0.501503 0.477653
0.507744 0.50753 0.508705
0.854337 0.473945 0.495033
0.949874 0.374624 0.479042
0.949905 0.340108 0.473808
0.949798 0.32697 0.471519
0.202762 0.804501 0.597025
0.202319 0.802029 0.590875
0.201678 0.798825 0.581476
0.199969 0.787594 0.548348
0.373571 0.78439 0.476707
0.733104 0.767452 0.472267
0.94168 0.742336 0.476951
0.941772 0.727825 0.471046
0.941833 0.722026 0.469444
0.290028 0.934539 0.654505
0.289952 0.934096 0.648081
0.289677 0.933379 0.637964
0.288914 0.931762 0.606714
0.305104 0.931304 0.49781
0.665614 0.913603 0.513481
0.910109 0.930343 0.508858
0.944274 0.930053 0.511681
0.944228 0.927214 0.507744
0.290349 0.935607 0.669505
0.290272 0.935149 0.662669
0.290044 0.934386 0.651987
0.289509 0.932326 0.619318
0.297047 0.932464 0.512428
0.617975 0.913619 0.494743
0.873732 0.928466 0.503838
0.944366 0.937423 0.522911
0.944366 0.937407 0.521401
0.290242 0.936095 0.67512
0.290349 0.935531 0.668376
0.290089 0.934752 0.657633
0.289677 0.932631 0.624765
0.296559 0.932235 0.519493
0.59353 0.913909 0.488457
0.859693 0.92311 0.49958
0.944366 0.937407 0.520958
0.944366 0.937362 0.515816
0.0800641 0.191043 0.669444
0.123384 0.171344 0.668971
0.188128 0.144686 0.665248
0.338552 0.133242 0.690944
0.553094 0.122652 0.728908
0.823194 0.10399 0.774685
0.886809 0.106828 0.81828
0.884947 0.1075 0.835752
0.884459 0.107851 0.841321
0.0529183 0.205844 0.658213
0.0815137 0.18912 0.664561
0.149935 0.158709 0.661967
0.314641 0.132708 0.683162
0.542397 0.122698 0.724178
0.81294 0.103471 0.765515
0.88806 0.106126 0.806653
0.886091 0.107012 0.823972
0.885618 0.107179 0.829633
0.0529488 0.217762 0.635462
0.0530556 0.21004 0.646601
0.0834211 0.186084 0.656413
0.273732 0.131304 0.670558
0.525643 0.123171 0.716686
0.79704 0.102632 0.751736
0.890089 0.105272 0.787015
0.888319 0.106004 0.804028
0.887709 0.106294 0.809842
0.0529183 0.259968 0.587503
0.0530098 0.252369 0.594217
0.0529183 0.241474 0.60618
0.119799 0.185885 0.662577
0.46978 0.128481 0.698283
0.75552 0.100954 0.715328
0.896834 0.104051 0.724117
0.896559 0.104372 0.737453
0.8963 0.104524 0.742901
0.0656138 0.500038 0.628275
0.0612497 0.496727 0.628962
0.0558022 0.490013 0.629709
0.0528115 0.467658 0.639887
0.428885 0.440467 0.722393
0.793088 0.387396 0.754818
0.941787 0.263493 0.702022
0.941619 0.226886 0.692912
0.941741 0.215183 0.688151
0.183276 0.758495 0.721584
0.182071 0.755627 0.719432
0.180514 0.751919 0.715892
0.17879 0.740871 0.706203
0.348226 0.730556 0.702266
0.71574 0.715572 0.716731
0.949813 0.688075 0.703426
0.949828 0.662181 0.695705
0.949889 0.65478 0.69366
0.319234 0.938643 0.799481
0.317372 0.938659 0.795758
0.314687 0.93872 0.788861
0.307027 0.938857 0.769039
0.315358 0.927962 0.705882
0.643458 0.921492 0.7028
0.896712 0.915175 0.703349
0.941222 0.901274 0.715831
0.941131 0.897658 0.710826
0.326284 0.938308 0.817639
0.324575 0.938506 0.81294
0.321798 0.938537 0.805707
0.312291 0.938857 0.782879
0.329366 0.936919 0.713664
0.612329 0.941649 0.698177
0.854063 0.925673 0.702739
0.943481 0.938842 0.725948
0.943465 0.938857 0.726604
0.329137 0.938277 0.824018
0.327031 0.938293 0.819577
0.324193 0.938537 0.811597
0.314321 0.93872 0.787732
0.327886 0.937072 0.716335
0.596231 0.941756 0.691417
0.83798 0.924849 0.697017
0.943511 0.938674 0.708171
0.943481 0.938781 0.721004
0.052903 0.293843 0.891798
0.0529793 0.283665 0.899184
0.104921 0.26096 0.905257
0.318639 0.201144 0.888502
0.558907 0.204456 0.927428
0.826413 0.133837 0.933349
0.878996 0.113878 0.93196
0.878996 0.113893 0.93196
0.878996 0.113893 0.93196
0.0530251 0.296498 0.879515
0.0528878 0.290211 0.887221
0.0640574 0.271412 0.895964
0.292592 0.202853 0.887358
0.545754 0.202426 0.924163
0.819318 0.137636 0.933318
0.878996 0.113878 0.93196
0.878996 0.113893 0.93196
0.878996 0.113893 0.93196
0.0529946 0.298161 0.863615
0.0529793 0.29572 0.868437
0.0529335 0.284474 0.878798
0.242084 0.213443 0.887816
0.5243 0.199863 0.917174
0.80502 0.139437 0.929717
0.878996 0.113878 0.93196
0.878996 0.113893 0.93196
0.878996 0.113893 0.93196
0.0528725 0.293568 0.786755
0.0529183 0.290959 0.797192
0.0527962 0.288045 0.813794
0.0528267 0.2701 0.869551
0.454582 0.193561 0.894789
0.764248 0.147173 0.918074
0.881437 0.113664 0.926009
0.879393 0.114519 0.931853
0.879362 0.114488 0.931868
0.0528267 0.503471 0.785657
0.0528725 0.499535 0.790677
0.0529183 0.494057 0.800183
0.052903 0.476661 0.83125
0.338033 0.435447 0.912322
0.733898 0.372992 0.936172
0.932769 0.20557 0.932998
0.921599 0.172396 0.920165
0.915938 0.160464 0.913954
0.150027 0.722347 0.832517
0.147295 0.719829 0.832883
0.143069 0.715694 0.833158
0.127047 0.703471 0.833921
0.221088 0.686809 0.867323
0.654505 0.668666 0.878508
0.931105 0.638132 0.903914
0.941604 0.611048 0.894575
0.941665 0.604654 0.893385
0.324575 0.914656 0.888884
0.319661 0.913558 0.887755
0.311513 0.911223 0.885603
0.28983 0.906004 0.879225
0.2869 0.88896 0.860197
0.635813 0.884337 0.869566
0.882765 0.882658 0.883482
0.945632 0.871153 0.876371
0.944488 0.863005 0.874037
0.357168 0.918303 0.903212
0.357122 0.918929 0.901991
0.355886 0.91986 0.899306
0.353414 0.922454 0.8916
0.373541 0.930602 0.868681
0.633295 0.940108 0.874067
0.848859 0.941726 0.877943
0.942626 0.94023 0.876173
0.942519 0.940459 0.882673
0.352728 0.917418 0.908019
0.35581 0.917098 0.905257
0.357229 0.918349 0.903136
0.354513 0.92134 0.894972
0.372137 0.930404 0.869276
0.617792 0.940307 0.868788
0.834058 0.941711 0.87216
0.934325 0.940017 0.871412
0.94255 0.940337 0.879774
0.0529183 0.290867 0.897978
0.0529946 0.283482 0.909178
0.117479 0.266682 0.92166
0.326467 0.21091 0.900298
0.567178 0.210468 0.929183
0.836088 0.122957 0.930953
0.878996 0.113893 0.93196
0.878996 0.113893 0.93196
0.878996 0.113893 0.93196
0.0528878 0.295094 0.885054
0.0529183 0.291005 0.897734
0.0725567 0.278218 0.914214
0.298375 0.214954 0.902296
0.552377 0.212177 0.927092
0.828534 0.131975 0.933074
0.878996 0.113893 0.93196
0.878996 0.113893 0.93196
0.878996 0.113893 0.93196
0.0530098 0.298726 0.868818
0.0530251 0.297108 0.87866
0.0529183 0.291173 0.897383
0.244694 0.229435 0.909621
0.528283 0.213779 0.923705
0.815473 0.142779 0.936065
0.879042 0.113985 0.931945
0.878996 0.113893 0.93196
0.878996 0.113893 0.93196
0.0529641 0.324773 0.860838
0.052903 0.317296 0.857755
0.0529183 0.304463 0.853025
0.052903 0.288746 0.902403
0.452155 0.214694 0.91339
0.77171 0.166705 0.941405
0.879484 0.114641 0.931853
0.879393 0.114534 0.931868
0.879393 0.114504 0.931853
0.0528573 0.522057 0.887343
0.0529183 0.519158 0.892302
0.052781 0.511498 0.894713
0.0528115 0.481941 0.892332
0.296513 0.432197 0.938186
0.707683 0.367498 0.941741
0.922789 0.207004 0.941558
0.911482 0.176562 0.941772
0.906081 0.164645 0.94168
0.0820478 0.726574 0.896376
0.0775464 0.724056 0.897734
0.0707713 0.720821 0.900267
0.0530404 0.70901 0.907378
0.158587 0.68043 0.923964
0.618448 0.662776 0.917754
0.910658 0.64094 0.941711
0.937987 0.612787 0.94168
0.937942 0.6065 0.941527
0.238087 0.905196 0.925429
0.234501 0.903059 0.925063
0.228641 0.899809 0.924681
0.215427 0.891112 0.9234
0.205951 0.866926 0.920699
0.570871 0.862394 0.923247
0.844633 0.859602 0.932845
0.941634 0.849378 0.941634
0.941695 0.843763 0.941695
0.202533 0.920363 0.925338
0.202533 0.920363 0.925338
0.202533 0.920363 0.925338
0.202533 0.920363 0.925338
0.340734 0.9196 0.919249
0.620508 0.927749 0.921767
0.845884 0.936309 0.934707
0.940734 0.940719 0.940871
0.941634 0.937942 0.939834
0.202533 0.920363 0.925338
0.202533 0.920363 0.925338
0.202533 0.920363 0.925338
0.202533 0.920363 0.925338
0.341405 0.919493 0.919158
0.615518 0.926452 0.918273
0.837156 0.936126 0.932479
0.932662 0.941634 0.938415
0.943496 0.94052 0.940291
0.0529183 0.289677 0.90071
0.0586709 0.281392 0.910842
0.127062 0.263996 0.922835
0.331456 0.210513 0.900114
0.57055 0.209995 0.929625
0.838956 0.119341 0.929824
0.878996 0.113893 0.93196
0.878996 0.113893 0.93196
0.878996 0.113893 0.93196
0.0528878 0.294728 0.887678
0.0529183 0.289738 0.900389
0.0807507 0.276112 0.91577
0.303029 0.21416 0.901976
0.55581 0.211841 0.927581
0.831479 0.128511 0.93228
0.878996 0.113893 0.93196
0.878996 0.113893 0.93196
0.878996 0.113893 0.93196
0.0530098 0.298802 0.870741
0.0530251 0.296071 0.880796
0.0529183 0.289921 0.900053
0.250111 0.227634 0.908721
0.531502 0.213581 0.924163
0.818372 0.140734 0.935485
0.879088 0.114061 0.931945
0.878996 0.113893 0.93196
0.878996 0.113893 0.93196
0.0527962 0.323323 0.859953
0.0528573 0.315709 0.857023
0.0528725 0.302586 0.852277
0.0527657 0.287236 0.903517
0.454582 0.214893 0.913832
0.773602 0.165988 0.941421
0.879499 0.114672 0.931853
0.879423 0.114549 0.931868
0.879393 0.114519 0.931853
0.0528573 0.520195 0.895796
0.0529335 0.514611 0.89543
0.0529335 0.50518 0.89453
0.0528725 0.474754 0.891554
0.288914 0.423285 0.939208
0.702342 0.354253 0.941711
0.917006 0.190845 0.941649
0.904051 0.160342 0.941848
0.898512 0.149523 0.941711
0.0670939 0.726207 0.910124
0.0643473 0.723613 0.910094
0.0597238 0.719249 0.909377
0.0528878 0.704616 0.907942
0.148516 0.674388 0.923506
0.614221 0.655695 0.917601
0.908003 0.633661 0.941741
0.937926 0.604578 0.941741
0.937621 0.598016 0.941573
0.23299 0.902281 0.924971
0.229068 0.900023 0.924681
0.223087 0.897063 0.924697
0.207584 0.887541 0.923354
0.190402 0.860731 0.922515
0.550057 0.854719 0.923461
0.831052 0.851331 0.931853
0.941833 0.845853 0.941833
0.941695 0.840177 0.941695
0.202533 0.920363 0.925338
0.202533 0.920363 0.925338
0.202533 0.920363 0.925338
0.202533 0.920363 0.925338
0.217777 0.922133 0.925963
0.523873 0.926558 0.9252
0.706249 0.925536 0.929061
0.93109 0.933364 0.940703
0.941772 0.934676 0.941772
0.202533 0.920363 0.925338
0.202533 0.920363 0.925338
0.202533 0.920363 0.925338
0.202533 0.920363 0.925338
0.217029 0.922087 0.925994
0.505837 0.926085 0.925307
0.778897 0.933272 0.932525
0.924788 0.940597 0.940719
0.941695 0.941695 0.941711
