bundles/resolve-cinematic-luts/Phantom Luts/Fx6 Phntm ARRI LUTs-G5/ATOMOS Monitoring LUTs/Neutral Fx6-Legacy AML.cube
TITLE "Generated by Resolve"
LUT_3D_SIZE 5
0.0814832 0.0814069 0.0814984
0.172213 0.0881514 0.091722
0.508019 0.10016 0.17142
0.792752 0.114763 0.315328
0.7897 0.110811 0.332799
0.084123 0.173266 0.0953078
0.15584 0.163043 0.0847486
0.506401 0.104082 0.120089
0.779965 0.124193 0.245899
0.79678 0.123125 0.271015
0.13164 0.569314 0.252384
0.124773 0.558419 0.205768
0.530938 0.556329 0.151797
0.94992 0.477623 0.224735
0.94995 0.45066 0.222843
0.27422 0.926238 0.482887
0.267536 0.922026 0.45597
0.430503 0.907866 0.344564
0.930404 0.934203 0.387808
0.94464 0.936873 0.415915
0.277714 0.929152 0.509163
0.27361 0.925628 0.479164
0.357092 0.909072 0.331441
0.903807 0.928435 0.379156
0.94464 0.936904 0.420142
0.0812238 0.0854505 0.139757
0.168612 0.0859541 0.163439
0.513191 0.0928054 0.237964
0.78233 0.103441 0.362402
0.780133 0.101213 0.371008
0.0871901 0.158495 0.151217
0.149645 0.148745 0.149508
0.495552 0.104479 0.169619
0.793439 0.115114 0.31342
0.790585 0.11133 0.331106
0.131365 0.565576 0.30277
0.127077 0.553079 0.247639
0.522683 0.547524 0.151766
0.949783 0.452003 0.222705
0.949981 0.421836 0.220462
0.278294 0.929183 0.512749
0.274586 0.926589 0.484901
0.370886 0.908019 0.33109
0.924514 0.93286 0.393973
0.94464 0.936873 0.416648
0.281865 0.929534 0.537011
0.277943 0.929137 0.510857
0.309361 0.911345 0.331289
0.897581 0.932784 0.384283
0.944625 0.936919 0.424201
0.0935531 0.1308 0.446845
0.192538 0.101976 0.463951
0.530922 0.0947433 0.514946
0.849928 0.0962234 0.548012
0.85745 0.0969406 0.563592
0.054902 0.161364 0.402472
0.0991073 0.125856 0.436698
0.511727 0.0962997 0.496452
0.832303 0.0949569 0.515633
0.840223 0.0956283 0.529274
0.126467 0.522927 0.497673
0.124529 0.51548 0.491096
0.507744 0.50753 0.508705
0.949874 0.374624 0.479042
0.949798 0.32697 0.471519
0.290028 0.934539 0.654505
0.289677 0.933379 0.637964
0.305104 0.931304 0.49781
0.910109 0.930343 0.508858
0.944228 0.927214 0.507744
0.290242 0.936095 0.67512
0.290089 0.934752 0.657633
0.296559 0.932235 0.519493
0.859693 0.92311 0.49958
0.944366 0.937362 0.515816
0.052903 0.293843 0.891798
0.104921 0.26096 0.905257
0.558907 0.204456 0.927428
0.878996 0.113878 0.93196
0.878996 0.113893 0.93196
0.0529946 0.298161 0.863615
0.0529335 0.284474 0.878798
0.5243 0.199863 0.917174
0.878996 0.113878 0.93196
0.878996 0.113893 0.93196
0.0528267 0.503471 0.785657
0.0529183 0.494057 0.800183
0.338033 0.435447 0.912322
0.932769 0.20557 0.932998
0.915938 0.160464 0.913954
0.324575 0.914656 0.888884
0.311513 0.911223 0.885603
0.2869 0.88896 0.860197
0.882765 0.882658 0.883482
0.944488 0.863005 0.874037
0.352728 0.917418 0.908019
0.357229 0.918349 0.903136
0.372137 0.930404 0.869276
0.834058 0.941711 0.87216
0.94255 0.940337 0.879774
0.0529183 0.289677 0.90071
0.127062 0.263996 0.922835
0.57055 0.209995 0.929625
0.878996 0.113893 0.93196
0.878996 0.113893 0.93196
0.0530098 0.298802 0.870741
0.0529183 0.289921 0.900053
0.531502 0.213581 0.924163
0.879088 0.114061 0.931945
0.878996 0.113893 0.93196
0.0528573 0.520195 0.895796
0.0529335 0.50518 0.89453
0.288914 0.423285 0.939208
0.917006 0.190845 0.941649
0.898512 0.149523 0.941711
0.23299 0.902281 0.924971
0.223087 0.897063 0.924697
0.190402 0.860731 0.922515
0.831052 0.851331 0.931853
0.941695 0.840177 0.941695
0.202533 0.920363 0.925338
0.202533 0.920363 0.925338
0.217029 0.922087 0.925994
0.778897 0.933272 0.932525
0.941695 0.941695 0.941711
