bundles/resolve-cinematic-luts/Phantom Luts/Fx6 Phntm ARRI LUTs-G5/ATOMOS Monitoring LUTs/Neutral Fx6 AML.cube
TITLE "Generated by Resolve"
LUT_3D_SIZE 5
0.0652781 0.0652781 0.0652781
0.204456 0.0796063 0.0879072
0.583352 0.0951095 0.194812
0.850355 0.106004 0.37438
0.846571 0.100908 0.393408
0.0751659 0.208453 0.0936294
0.182055 0.194018 0.0773938
0.58558 0.111696 0.127413
0.846571 0.122438 0.286824
0.857877 0.119219 0.318227
0.133196 0.626688 0.290623
0.125246 0.614969 0.234043
0.583215 0.607553 0.159152
0.940688 0.554406 0.232639
0.943511 0.530282 0.229877
0.314336 0.921691 0.536446
0.305974 0.920501 0.510201
0.48304 0.900175 0.392187
0.929595 0.93492 0.443183
0.945525 0.938598 0.473808
0.317983 0.921782 0.561746
0.313512 0.921584 0.53312
0.403464 0.901549 0.377035
0.911528 0.929747 0.431571
0.945571 0.938811 0.478401
0.0656596 0.0822003 0.158373
0.199878 0.0768139 0.19147
0.584543 0.0832685 0.286397
0.838071 0.0921035 0.423865
0.835554 0.0897688 0.432868
0.0798199 0.186526 0.175708
0.174517 0.173266 0.174319
0.571359 0.102022 0.193713
0.851102 0.106615 0.372244
0.847333 0.101488 0.391104
0.132937 0.621607 0.349752
0.128115 0.611109 0.285725
0.575418 0.599084 0.159533
0.943221 0.53167 0.229862
0.946792 0.503334 0.227878
0.318654 0.921798 0.565316
0.314702 0.921706 0.538552
0.422553 0.900877 0.380041
0.925582 0.933989 0.44921
0.945495 0.938308 0.47451
0.322301 0.922316 0.589258
0.318273 0.921798 0.563256
0.353002 0.905104 0.377157
0.905089 0.929534 0.441733
0.945602 0.938888 0.482765
0.0939803 0.142763 0.520195
0.235813 0.105745 0.536156
0.606348 0.0933242 0.590326
0.889128 0.0949111 0.621363
0.893629 0.0958267 0.636851
0.0528573 0.188815 0.475837
0.102113 0.135653 0.509255
0.587045 0.0966201 0.57174
0.877623 0.0926528 0.589212
0.88278 0.0935378 0.602625
0.121538 0.579492 0.553857
0.119646 0.57232 0.547631
0.56141 0.561196 0.562371
0.949981 0.42005 0.527214
0.949966 0.370687 0.51989
0.332158 0.927459 0.70489
0.330739 0.926574 0.688853
0.349676 0.926375 0.552148
0.914977 0.928145 0.565698
0.943618 0.924987 0.565957
0.334112 0.928496 0.724941
0.332464 0.927611 0.707973
0.33933 0.924636 0.571939
0.88101 0.930312 0.556313
0.946258 0.940261 0.57702
0.0530404 0.332143 0.930083
0.147982 0.293584 0.931838
0.626383 0.240345 0.933349
0.903044 0.118639 0.935988
0.903044 0.118639 0.935988
0.0529335 0.341741 0.908644
0.0529335 0.322774 0.92369
0.591257 0.235325 0.925048
0.903044 0.118639 0.935988
0.903044 0.118639 0.935988
0.0528725 0.560128 0.830839
0.0529488 0.550637 0.843824
0.398306 0.47686 0.903807
0.930709 0.237339 0.930877
0.922103 0.178973 0.920806
0.381445 0.905837 0.888853
0.367712 0.903502 0.886458
0.340154 0.887373 0.86772
0.892927 0.892851 0.893416
0.941649 0.880003 0.88751
0.412589 0.908949 0.902876
0.416312 0.909133 0.899184
0.430655 0.917662 0.876234
0.864408 0.94284 0.8907
0.946151 0.94464 0.900649
0.052903 0.329412 0.936477
0.179522 0.295613 0.938811
0.637659 0.246174 0.934951
0.903044 0.118639 0.935988
0.903044 0.118639 0.935988
0.0529488 0.341375 0.912627
0.052903 0.32961 0.936065
0.597711 0.250492 0.929381
0.903075 0.118868 0.935973
0.903044 0.118639 0.935988
0.052903 0.571694 0.908492
0.052903 0.558434 0.908873
0.353017 0.461799 0.922744
0.920775 0.218753 0.939895
0.912047 0.164813 0.93962
0.302037 0.89546 0.913893
0.291875 0.891615 0.913405
0.249042 0.866361 0.91078
0.855329 0.869093 0.930663
0.937682 0.86305 0.939025
0.268681 0.909911 0.914687
0.268681 0.909911 0.914687
0.284474 0.910918 0.915572
0.821607 0.934951 0.935286
0.945724 0.945724 0.945724
