bundles/resolve-cinematic-luts/Phantom Luts/Fx6 Phntm ARRI LUTs-G5/ATOMOS Monitoring LUTs/Neutral Fx6 AML.cube
TITLE "Generated by Resolve"
LUT_3D_SIZE 9
0.0652781 0.0652781 0.0652781
0.104372 0.0713054 0.069688
0.204456 0.0796063 0.0879072
0.373098 0.0873732 0.124071
0.583352 0.0951095 0.194812
0.824979 0.109651 0.329335
0.850355 0.106004 0.37438
0.847623 0.10222 0.388174
0.846571 0.100908 0.393408
0.071107 0.101045 0.0764172
0.0883192 0.0908217 0.0712291
0.180957 0.0902724 0.0796979
0.366751 0.0834821 0.0939345
0.576989 0.105959 0.160403
0.816373 0.114839 0.290532
0.855589 0.113497 0.346105
0.853178 0.109407 0.361929
0.852338 0.107881 0.367636
0.0751659 0.208453 0.0936294
0.0903639 0.19823 0.0755016
0.182055 0.194018 0.0773938
0.367895 0.154955 0.0946975
0.58558 0.111696 0.127413
0.766674 0.116091 0.212955
0.846571 0.122438 0.286824
0.855436 0.120272 0.309667
0.857877 0.119219 0.318227
0.0806744 0.391974 0.157305
0.0780957 0.385733 0.129061
0.144549 0.373785 0.0903944
0.353262 0.375158 0.0860456
0.605951 0.330861 0.146365
0.871626 0.28043 0.183551
0.896834 0.127504 0.188022
0.858457 0.10695 0.197055
0.837934 0.105241 0.202823
0.133196 0.626688 0.290623
0.129976 0.622065 0.271427
0.125246 0.614969 0.234043
0.302571 0.593637 0.179339
0.583215 0.607553 0.159152
0.847639 0.574365 0.225986
0.940688 0.554406 0.232639
0.94255 0.537087 0.230488
0.943511 0.530282 0.229877
0.246693 0.861326 0.458854
0.243717 0.858793 0.4477
0.239094 0.854505 0.429007
0.231159 0.837278 0.339773
0.571984 0.811521 0.340597
0.801801 0.835981 0.298085
0.933074 0.825849 0.344793
0.932738 0.81651 0.33962
0.932555 0.812634 0.337362
0.314336 0.921691 0.536446
0.311742 0.921386 0.525994
0.305974 0.920501 0.510201
0.287373 0.913024 0.463996
0.48304 0.900175 0.392187
0.777951 0.90547 0.439597
0.929595 0.93492 0.443183
0.945525 0.938659 0.475151
0.945525 0.938598 0.473808
0.317143 0.921782 0.554665
0.315572 0.921721 0.543542
0.311818 0.921386 0.526268
0.294682 0.915312 0.478355
0.418036 0.900832 0.378988
0.759258 0.904372 0.440299
0.916548 0.931258 0.432151
0.945571 0.938811 0.478172
0.945586 0.938842 0.4795
0.317983 0.921782 0.561746
0.31664 0.921706 0.550179
0.313512 0.921584 0.53312
0.296407 0.916426 0.484962
0.403464 0.901549 0.377035
0.752117 0.904158 0.440558
0.911528 0.929747 0.431571
0.945556 0.938766 0.477119
0.945571 0.938811 0.478401
0.0647898 0.0680705 0.0833295
0.100801 0.070573 0.0954604
0.199374 0.076585 0.126299
0.376165 0.0836805 0.170977
0.58703 0.09131 0.231327
0.818479 0.102983 0.355489
0.845914 0.10013 0.396628
0.842786 0.0966506 0.408515
0.841489 0.0953689 0.412818
0.0708782 0.0881361 0.0861067
0.0813458 0.0807507 0.0808423
0.181964 0.0791333 0.0854658
0.359213 0.0871595 0.120882
0.576349 0.0958114 0.193118
0.81471 0.108278 0.323568
0.850568 0.106203 0.373678
0.847959 0.10251 0.387335
0.846845 0.101122 0.392538
0.0764477 0.200519 0.132372
0.0753948 0.191485 0.0934768
0.17438 0.184573 0.0784466
0.381521 0.140139 0.0959182
0.577905 0.0944076 0.125292
0.792096 0.115038 0.256947
0.857298 0.117556 0.326207
0.856306 0.114015 0.343816
0.855726 0.11252 0.350622
0.0812238 0.390814 0.188617
0.0802472 0.382544 0.156573
0.0962692 0.370855 0.0824903
0.34789 0.369299 0.0865492
0.601038 0.320378 0.143664
0.879072 0.260884 0.185016
0.877043 0.11368 0.193622
0.828931 0.106706 0.20502
0.822416 0.111925 0.209064
0.133349 0.626062 0.311971
0.130938 0.620615 0.28867
0.125811 0.613733 0.259174
0.278096 0.591821 0.168765
0.579797 0.604273 0.158953
0.852232 0.568353 0.226841
0.941558 0.545754 0.231205
0.943816 0.527581 0.229664
0.944671 0.519936 0.228809
0.246571 0.859358 0.469596
0.24448 0.85803 0.457404
0.239811 0.853635 0.439872
0.227161 0.838483 0.364401
0.562768 0.809888 0.337285
0.799542 0.833783 0.297032
0.932754 0.821714 0.342229
0.932525 0.811856 0.336858
0.932525 0.808438 0.334737
0.316228 0.92163 0.548333
0.314473 0.921691 0.537255
0.310079 0.921218 0.520531
0.293019 0.914626 0.473335
0.45922 0.900526 0.387594
0.773449 0.905241 0.439826
0.927977 0.934554 0.445609
0.945556 0.938766 0.47686
0.945525 0.938598 0.473808
0.3187 0.921813 0.565606
0.317205 0.921782 0.555489
0.31458 0.921706 0.537926
0.298146 0.917281 0.490593
0.397589 0.901961 0.376791
0.754421 0.904128 0.440375
0.914244 0.930587 0.435904
0.945586 0.938842 0.479789
0.945586 0.938857 0.481117
0.319829 0.921889 0.572549
0.318074 0.921782 0.562524
0.31577 0.921691 0.545113
0.300175 0.918318 0.496895
0.384421 0.9028 0.376211
0.746899 0.903868 0.440604
0.909102 0.929335 0.435126
0.945586 0.938827 0.478767
0.945586 0.938842 0.480079
0.0656596 0.0822003 0.158373
0.118135 0.0757305 0.172656
0.199878 0.0768139 0.19147
0.37467 0.0834669 0.223133
0.584543 0.0832685 0.286397
0.80763 0.0931716 0.390112
0.838071 0.0921035 0.423865
0.83621 0.0903487 0.430472
0.835554 0.0897688 0.432868
0.0643015 0.0887007 0.132586
0.0703593 0.0789197 0.152071
0.179629 0.0766461 0.1729
0.359426 0.0812238 0.194217
0.579797 0.088014 0.254185
0.804334 0.0976577 0.36524
0.843061 0.09691 0.407614
0.839963 0.0938582 0.418006
0.838727 0.0928206 0.421439
0.0798199 0.186526 0.175708
0.0798962 0.178668 0.168994
0.174517 0.173266 0.174319
0.382788 0.147601 0.16669
0.571359 0.102022 0.193713
0.800076 0.106905 0.314839
0.851102 0.106615 0.372244
0.848508 0.102937 0.385916
0.847333 0.101488 0.391104
0.0836347 0.383764 0.241199
0.0816815 0.380041 0.217594
0.0824445 0.369284 0.157153
0.347433 0.36527 0.114855
0.61825 0.294347 0.155444
0.872343 0.205585 0.189212
0.833005 0.105608 0.204242
0.818769 0.125765 0.222599
0.823697 0.125063 0.232151
0.132937 0.621607 0.349752
0.131167 0.619028 0.327321
0.128115 0.611109 0.285725
0.217044 0.588129 0.147082
0.575418 0.599084 0.159533
0.858961 0.558068 0.227649
0.943221 0.53167 0.229862
0.94583 0.511559 0.228244
0.946792 0.503334 0.227878
0.245853 0.855467 0.490272
0.244312 0.854154 0.476738
0.240696 0.852186 0.455283
0.226642 0.838437 0.397177
0.546319 0.808072 0.332341
0.79617 0.830503 0.296178
0.932631 0.815564 0.338582
0.932448 0.805127 0.332692
0.932113 0.800961 0.329961
0.318654 0.921798 0.565316
0.31722 0.921798 0.555581
0.314702 0.921706 0.538552
0.298939 0.917449 0.491386
0.422553 0.900877 0.380041
0.766552 0.90518 0.444526
0.925582 0.933989 0.44921
0.945586 0.938842 0.479576
0.945495 0.938308 0.47451
0.321431 0.922133 0.582666
0.319875 0.921904 0.572763
0.317372 0.921828 0.556451
0.304509 0.920027 0.506661
0.367422 0.904036 0.376593
0.746349 0.904036 0.442512
0.910933 0.929656 0.442985
0.945602 0.938888 0.482475
0.945617 0.938918 0.483421
0.322301 0.922316 0.589258
0.320943 0.922072 0.57911
0.318273 0.921798 0.563256
0.307164 0.920775 0.512779
0.353002 0.905104 0.377157
0.738277 0.903426 0.441169
0.905089 0.929534 0.441733
0.945586 0.938872 0.481651
0.945602 0.938888 0.482765
0.077821 0.100908 0.315709
0.137682 0.0840467 0.328054
0.220188 0.083238 0.344411
0.380453 0.0841535 0.369589
0.596445 0.0939498 0.393805
0.801495 0.0848249 0.450568
0.834791 0.0866407 0.47805
0.835645 0.0866102 0.485832
0.83595 0.0865949 0.489143
0.0529335 0.117556 0.284977
0.0771954 0.099382 0.306294
0.185229 0.0832227 0.333486
0.367483 0.0835279 0.357259
0.585275 0.0920272 0.375204
0.791287 0.084062 0.433768
0.834119 0.087068 0.466346
0.834531 0.0867933 0.473854
0.834699 0.0866865 0.476692
0.0583658 0.178378 0.273732
0.0568551 0.164813 0.281239
0.124849 0.131548 0.323857
0.349142 0.0863203 0.338598
0.571664 0.0923018 0.3449
0.7785 0.0842908 0.407813
0.833432 0.0872663 0.445838
0.83357 0.0871748 0.454063
0.833646 0.0871595 0.457038
0.0867323 0.35874 0.338109
0.0866407 0.354101 0.333822
0.0880446 0.346487 0.327001
0.352956 0.352163 0.353521
0.630014 0.299336 0.325261
0.831693 0.130114 0.318929
0.8542 0.107637 0.370367
0.851347 0.103761 0.384497
0.850278 0.102388 0.389502
0.129366 0.612085 0.437324
0.128847 0.609506 0.425483
0.127428 0.605325 0.403342
0.140536 0.593988 0.287633
0.570016 0.591409 0.263355
0.858244 0.548791 0.295872
0.949508 0.486168 0.27538
0.949889 0.458473 0.264637
0.949874 0.446708 0.260838
0.240635 0.846647 0.543252
0.239551 0.844907 0.532738
0.237858 0.842176 0.51519
0.231174 0.834653 0.448768
0.478096 0.803601 0.317845
0.786908 0.821027 0.294408
0.932403 0.796323 0.343374
0.93196 0.783825 0.335897
0.931884 0.778866 0.33312
0.324346 0.922957 0.609674
0.323751 0.922789 0.601389
0.322118 0.922286 0.587594
0.315053 0.921736 0.540673
0.334005 0.909682 0.412146
0.744839 0.905211 0.459388
0.920089 0.932662 0.459419
0.944915 0.935378 0.471458
0.944839 0.934142 0.464988
0.325689 0.923522 0.625132
0.325048 0.923308 0.617136
0.323873 0.92285 0.603738
0.317617 0.921843 0.558602
0.30956 0.910369 0.431449
0.72015 0.903716 0.457084
0.902892 0.932433 0.457496
0.945678 0.93901 0.489464
0.945678 0.93901 0.48986
0.326238 0.923812 0.631296
0.325475 0.923461 0.623087
0.324331 0.922942 0.609567
0.318624 0.921813 0.565026
0.302922 0.910948 0.440131
0.710689 0.903349 0.455894
0.898589 0.93547 0.454154
0.945678 0.938994 0.489219
0.945678 0.93901 0.489662
0.0939803 0.142763 0.520195
0.154482 0.115663 0.522759
0.235813 0.105745 0.536156
0.403677 0.102586 0.565072
0.606348 0.0933242 0.590326
0.859205 0.0946365 0.599344
0.889128 0.0949111 0.621363
0.892378 0.0954604 0.632502
0.893629 0.0958267 0.636851
0.0528878 0.16968 0.503166
0.094255 0.140978 0.515221
0.194018 0.106218 0.525689
0.383902 0.102296 0.559792
0.598749 0.0938888 0.58294
0.850217 0.0939193 0.588418
0.885039 0.0940108 0.608835
0.88864 0.0948043 0.619776
0.889754 0.0950027 0.623667
0.0528573 0.188815 0.475837
0.0529488 0.180255 0.48542
0.102113 0.135653 0.509255
0.345388 0.102358 0.548653
0.587045 0.0966201 0.57174
0.836316 0.09308 0.570764
0.877623 0.0926528 0.589212
0.881453 0.0932174 0.599023
0.88278 0.0935378 0.602625
0.0529183 0.335637 0.47155
0.0529793 0.326528 0.474479
0.052903 0.310872 0.481315
0.26099 0.265827 0.544411
0.587961 0.19379 0.571267
0.799802 0.0916762 0.521065
0.861265 0.0906996 0.539544
0.864149 0.0910658 0.546883
0.865171 0.0910964 0.549477
0.121538 0.579492 0.553857
0.120668 0.57641 0.551232
0.119646 0.57232 0.547631
0.121569 0.558831 0.534478
0.56141 0.561196 0.562371
0.875273 0.524132 0.546075
0.949981 0.42005 0.527214
0.949859 0.385183 0.521798
0.949966 0.370687 0.51989
0.223102 0.833585 0.647974
0.222309 0.831632 0.641855
0.220737 0.829221 0.632456
0.21828 0.820523 0.599191
0.421485 0.817105 0.528923
0.774853 0.803922 0.523507
0.933013 0.783734 0.528435
0.932891 0.77116 0.522438
0.932906 0.765866 0.52079
0.332158 0.927459 0.70489
0.33164 0.927138 0.698634
0.330739 0.926574 0.688853
0.328557 0.925292 0.658045
0.349676 0.926375 0.552148
0.71783 0.91281 0.568689
0.914977 0.928145 0.565698
0.943862 0.926986 0.570031
0.943618 0.924987 0.565957
0.3337 0.928191 0.719585
0.333059 0.927901 0.712886
0.33196 0.927352 0.702464
0.329686 0.925826 0.670848
0.339803 0.924849 0.565057
0.671855 0.912306 0.549233
0.891951 0.933806 0.564019
0.946319 0.940398 0.584146
0.946319 0.940368 0.58262
0.334112 0.928496 0.724941
0.333623 0.928145 0.718517
0.332464 0.927611 0.707973
0.329976 0.926009 0.676005
0.33933 0.924636 0.571939
0.647791 0.911803 0.542351
0.88101 0.930312 0.556313
0.946151 0.940322 0.582177
0.946258 0.940261 0.57702
0.081117 0.216907 0.755566
0.14844 0.1897 0.74963
0.236744 0.156024 0.738643
0.409812 0.151827 0.767102
0.626871 0.136187 0.798199
0.867887 0.106584 0.831312
0.909316 0.109133 0.862562
0.907973 0.110307 0.874952
0.907576 0.11075 0.878889
0.0530251 0.239658 0.749203
0.0825513 0.21445 0.750027
0.186969 0.171862 0.738552
0.385092 0.151125 0.759564
0.616297 0.136461 0.794766
0.860517 0.105821 0.824369
0.910246 0.108232 0.854032
0.908797 0.109468 0.866896
0.908461 0.109895 0.870802
0.052842 0.255131 0.726848
0.0529488 0.246967 0.738491
0.0855573 0.21091 0.741573
0.340078 0.14934 0.746563
0.599359 0.137362 0.788434
0.849363 0.105043 0.814466
0.911971 0.107362 0.839414
0.91043 0.108064 0.852277
0.910033 0.108415 0.856504
0.0528878 0.315862 0.67332
0.0529793 0.306218 0.681041
0.052903 0.289708 0.694316
0.142702 0.211643 0.744472
0.545174 0.145022 0.773968
0.818402 0.102663 0.785534
0.916655 0.105882 0.790234
0.916442 0.106416 0.801251
0.916243 0.10663 0.805447
0.0529946 0.557412 0.688701
0.052842 0.554314 0.68986
0.0529335 0.54876 0.691142
0.0530556 0.527749 0.702983
0.483131 0.493462 0.767346
0.826352 0.438865 0.796796
0.939086 0.30518 0.755062
0.939239 0.262531 0.748363
0.939529 0.248127 0.744717
0.201831 0.79321 0.762783
0.200763 0.791196 0.761227
0.198642 0.788235 0.758404
0.19588 0.779721 0.74966
0.392157 0.769757 0.745037
0.759258 0.759136 0.760189
0.944045 0.732036 0.746777
0.940734 0.70695 0.738674
0.939956 0.699947 0.736553
0.37615 0.928634 0.830655
0.37438 0.928588 0.827924
0.371496 0.928679 0.822766
0.362997 0.928985 0.80763
0.365255 0.92163 0.754055
0.697414 0.919661 0.753857
0.902892 0.916411 0.755505
0.940002 0.907134 0.767529
0.939895 0.904463 0.762737
0.38323 0.927428 0.843687
0.381796 0.92845 0.840818
0.378714 0.928557 0.835477
0.368826 0.928756 0.81799
0.379705 0.928618 0.761608
0.667414 0.936248 0.749462
0.878294 0.93109 0.75787
0.945861 0.943389 0.783902
0.946624 0.943511 0.784543
0.385977 0.926284 0.847333
0.383948 0.927077 0.844816
0.381308 0.928542 0.839872
0.371115 0.928695 0.821897
0.37847 0.928679 0.764309
0.65124 0.935393 0.742565
0.866712 0.929686 0.751736
0.940688 0.942031 0.767422
0.946731 0.943542 0.779736
0.0530404 0.332143 0.930083
0.0527352 0.323537 0.935454
0.147982 0.293584 0.931838
0.380774 0.236622 0.896803
0.626383 0.240345 0.933349
0.86537 0.144701 0.935851
0.903044 0.118639 0.935988
0.903044 0.118639 0.935988
0.903044 0.118639 0.935988
0.0527962 0.336797 0.919692
0.0528878 0.32845 0.927626
0.0789349 0.3093 0.931762
0.354345 0.234623 0.896086
0.61294 0.238087 0.930556
0.859541 0.149844 0.935485
0.903044 0.118639 0.935988
0.903044 0.118639 0.935988
0.903044 0.118639 0.935988
0.0529335 0.341741 0.908644
0.052781 0.337285 0.911315
0.0529335 0.322774 0.92369
0.303197 0.239063 0.900877
0.591257 0.235325 0.925048
0.848814 0.152285 0.932784
0.903044 0.118639 0.935988
0.903044 0.118639 0.935988
0.903044 0.118639 0.935988
0.0528267 0.345632 0.859541
0.052842 0.341543 0.867216
0.0529335 0.335378 0.878706
0.052842 0.308385 0.918639
0.52108 0.228092 0.908812
0.816968 0.163104 0.925689
0.90454 0.118318 0.93228
0.903181 0.119524 0.935866
0.903166 0.119478 0.935866
0.0528725 0.560128 0.830839
0.0529183 0.556115 0.835386
0.0529488 0.550637 0.843824
0.0529183 0.534859 0.870039
0.398306 0.47686 0.903807
0.780194 0.423789 0.929397
0.930709 0.237339 0.930877
0.925231 0.195743 0.924331
0.922103 0.178973 0.920806
0.178393 0.761303 0.852186
0.174655 0.759411 0.852583
0.16846 0.756298 0.852705
0.149523 0.74551 0.854032
0.265064 0.726482 0.87335
0.703014 0.715816 0.881437
0.922225 0.687282 0.9028
0.932464 0.661677 0.896468
0.932326 0.655238 0.895567
0.381445 0.905837 0.888853
0.376181 0.905089 0.88809
0.367712 0.903502 0.886458
0.346136 0.899458 0.881575
0.340154 0.887373 0.86772
0.687953 0.88925 0.879438
0.892927 0.892851 0.893416
0.942794 0.885832 0.889387
0.941649 0.880003 0.88751
0.416251 0.909087 0.899229
0.416205 0.909575 0.898314
0.414984 0.910201 0.896437
0.412329 0.911925 0.891127
0.432044 0.917815 0.875853
0.688701 0.932357 0.886748
0.875319 0.943282 0.895155
0.941024 0.943099 0.896895
0.946029 0.941436 0.901106
0.412589 0.908949 0.902876
0.413993 0.909056 0.901503
0.416312 0.909133 0.899184
0.413596 0.911177 0.893416
0.430655 0.917662 0.876234
0.673915 0.932158 0.882994
0.864408 0.94284 0.8907
0.935073 0.944472 0.892729
0.946151 0.94464 0.900649
0.052903 0.330236 0.934661
0.0605478 0.323171 0.940322
0.166125 0.299657 0.939559
0.387655 0.246647 0.902953
0.634073 0.246571 0.934371
0.873365 0.131533 0.934691
0.903044 0.118639 0.935988
0.903044 0.118639 0.935988
0.903044 0.118639 0.935988
0.0530251 0.3337 0.92488
0.052903 0.330327 0.934508
0.0949569 0.316442 0.941512
0.359915 0.247089 0.903899
0.618906 0.248508 0.93225
0.866819 0.142412 0.9355
0.903044 0.118639 0.935988
0.903044 0.118639 0.935988
0.903044 0.118639 0.935988
0.0529488 0.341619 0.911513
0.0527962 0.337758 0.918761
0.052903 0.330419 0.934249
0.305913 0.256306 0.913191
0.594415 0.250736 0.928923
0.85594 0.157076 0.936889
0.903075 0.118761 0.935988
0.903044 0.118639 0.935988
0.903044 0.118639 0.935988
0.0530251 0.376898 0.905272
0.0527962 0.367102 0.903975
0.0528573 0.351415 0.902358
0.052903 0.328664 0.937499
0.516762 0.252491 0.918776
0.82034 0.188769 0.93901
0.903212 0.119707 0.935836
0.903181 0.119554 0.935866
0.903197 0.119509 0.935866
0.052903 0.573739 0.903136
0.052903 0.570626 0.906401
0.0529793 0.563989 0.908644
0.0528878 0.538735 0.9093
0.360678 0.470634 0.921645
0.757458 0.418082 0.93756
0.923827 0.238926 0.939773
0.917998 0.200443 0.939818
0.915755 0.184909 0.939834
0.115801 0.76347 0.898161
0.111086 0.760952 0.899168
0.103182 0.757641 0.900908
0.079118 0.746288 0.906325
0.216587 0.71754 0.911818
0.66952 0.709422 0.910445
0.907347 0.68986 0.932418
0.9281 0.663188 0.932387
0.928389 0.657282 0.932708
0.306966 0.897337 0.914244
0.303349 0.896056 0.914046
0.297383 0.89369 0.913573
0.282658 0.887358 0.912093
0.266682 0.870665 0.909728
0.629801 0.870741 0.915816
0.865644 0.875257 0.929442
0.93901 0.870146 0.937362
0.938888 0.865858 0.936706
0.268681 0.909911 0.914687
0.268681 0.909911 0.914687
0.268681 0.909911 0.914687
0.268681 0.909911 0.914687
0.405768 0.909377 0.91046
0.678294 0.921843 0.918257
0.872999 0.935058 0.932647
0.938247 0.938231 0.938308
0.945754 0.937041 0.937743
0.268681 0.909911 0.914687
0.268681 0.909911 0.914687
0.268681 0.909911 0.914687
0.268681 0.909911 0.914687
0.406378 0.909316 0.910414
0.672358 0.920958 0.916091
0.868147 0.939483 0.932616
0.933974 0.945663 0.938033
0.945724 0.945724 0.939284
0.052903 0.329412 0.936477
0.0727703 0.320729 0.940856
0.179522 0.295613 0.938811
0.391913 0.246616 0.902892
0.637659 0.246174 0.934951
0.875807 0.126421 0.934234
0.903044 0.118639 0.935988
0.903044 0.118639 0.935988
0.903044 0.118639 0.935988
0.0530404 0.333364 0.926726
0.052903 0.329458 0.936294
0.109468 0.313344 0.941466
0.364721 0.246891 0.903563
0.622278 0.248173 0.932692
0.869612 0.138552 0.935424
0.903044 0.118639 0.935988
0.903044 0.118639 0.935988
0.903044 0.118639 0.935988
0.0529488 0.341375 0.912627
0.0528115 0.335882 0.920897
0.052903 0.32961 0.936065
0.311864 0.254704 0.911849
0.597711 0.250492 0.929381
0.858564 0.154131 0.936767
0.903075 0.118868 0.935973
0.903044 0.118639 0.935988
0.903044 0.118639 0.935988
0.0529335 0.375067 0.904921
0.0529641 0.365332 0.903914
0.0528573 0.34931 0.901869
0.052903 0.327474 0.938354
0.519417 0.252644 0.919142
0.822003 0.18761 0.939025
0.903212 0.119768 0.935821
0.903197 0.119585 0.935851
0.903181 0.119524 0.935866
0.052903 0.571694 0.908492
0.0529641 0.566781 0.908751
0.052903 0.558434 0.908873
0.052842 0.532311 0.909346
0.353017 0.461799 0.922744
0.75317 0.404486 0.937896
0.920775 0.218753 0.939895
0.914626 0.178592 0.939666
0.912047 0.164813 0.93962
0.101472 0.762387 0.907637
0.0983902 0.759548 0.90753
0.0927138 0.755779 0.907378
0.0724804 0.742763 0.906905
0.205921 0.712261 0.911482
0.665644 0.702861 0.910323
0.905318 0.683009 0.932448
0.928069 0.655207 0.932464
0.928038 0.649058 0.932525
0.302037 0.89546 0.913893
0.297841 0.893874 0.913603
0.291875 0.891615 0.913405
0.274891 0.884962 0.912352
0.249042 0.866361 0.91078
0.609888 0.864668 0.916793
0.855329 0.869093 0.930663
0.938155 0.867475 0.939315
0.937682 0.86305 0.939025
0.268681 0.909911 0.914687
0.268681 0.909911 0.914687
0.268681 0.909911 0.914687
0.268681 0.909911 0.914687
0.285313 0.910994 0.915602
0.586816 0.918364 0.920516
0.759579 0.922316 0.930098
0.93019 0.931746 0.942794
0.944595 0.933867 0.944991
0.268681 0.909911 0.914687
0.268681 0.909911 0.914687
0.268681 0.909911 0.914687
0.268681 0.909911 0.914687
0.284474 0.910918 0.915572
0.569741 0.917525 0.9196
0.821607 0.934951 0.935286
0.928817 0.944488 0.944595
0.945724 0.945724 0.945724
