bundles/resolve-cinematic-luts/Phantom Luts/Fx6 Phntm ARRI LUTs-G5/ATOMOS Monitoring LUTs/Tungsten Fx6-Legacy AML.cube
TITLE "Generated by Resolve"
LUT_3D_SIZE 33
0.0802625 0.0806134 0.0864271
0.0802777 0.0805371 0.0862745
0.0803082 0.0803388 0.0859541
0.0816968 0.0803082 0.085481
0.0894789 0.0816358 0.0863813
0.10042 0.0829175 0.0878309
0.115496 0.0845045 0.0898604
0.132967 0.0857862 0.0927291
0.153033 0.0874037 0.096376
0.177768 0.089662 0.101076
0.20824 0.092195 0.107195
0.246113 0.0945602 0.115023
0.290211 0.0970474 0.124697
0.338979 0.100175 0.138003
0.390188 0.104173 0.152499
0.443961 0.108034 0.16849
0.498665 0.111116 0.18555
0.553368 0.115633 0.205982
0.605295 0.12166 0.23061
0.662974 0.131731 0.262486
0.71574 0.146624 0.295583
0.72961 0.150927 0.309529
0.728435 0.149554 0.31426
0.727474 0.148531 0.318593
0.726528 0.147555 0.322469
0.725597 0.146685 0.325277
0.724804 0.145998 0.327718
0.724163 0.145449 0.329809
0.72372 0.145113 0.331197
0.723491 0.144915 0.332555
0.72343 0.144854 0.333806
0.723613 0.14493 0.33547
0.723873 0.145098 0.33695
0.0803082 0.080354 0.0859846
0.080293 0.0804456 0.0861219
0.0803082 0.0803388 0.0859541
0.0807507 0.0801404 0.0853437
0.0859236 0.0814374 0.0857557
0.0952773 0.0830243 0.0868086
0.109941 0.085069 0.0890364
0.128237 0.0862287 0.0909133
0.149447 0.0871901 0.0935378
0.174487 0.0886702 0.0973526
0.206363 0.0903792 0.102403
0.244465 0.0932937 0.110414
0.286915 0.0964523 0.118975
0.334325 0.0999771 0.130404
0.386557 0.104402 0.146197
0.441291 0.108568 0.163073
0.496483 0.111528 0.180056
0.551598 0.115785 0.200595
0.604456 0.12192 0.225483
0.66331 0.132403 0.257542
0.715541 0.14728 0.290929
0.730297 0.15201 0.305653
0.729412 0.150668 0.310445
0.72842 0.149508 0.314641
0.727611 0.148638 0.318227
0.726848 0.147845 0.321477
0.726192 0.147204 0.323934
0.725628 0.146654 0.325658
0.7252 0.146273 0.327199
0.725017 0.146075 0.328756
0.725002 0.146014 0.330175
0.7252 0.146136 0.331563
0.72549 0.146273 0.333043
0.0810559 0.082536 0.0870985
0.0810101 0.0826734 0.0874342
0.0808118 0.0820783 0.0868544
0.0810712 0.0814069 0.086183
0.0836805 0.0817731 0.0859083
0.0905928 0.0832685 0.0865034
0.102525 0.0853132 0.0883345
0.121645 0.0873579 0.0906386
0.144106 0.0882124 0.0927138
0.171267 0.0889754 0.0955367
0.203754 0.090013 0.0997787
0.242176 0.0915084 0.105699
0.285939 0.0941176 0.113878
0.334447 0.0983291 0.124514
0.384848 0.103731 0.139269
0.437629 0.110201 0.157046
0.494179 0.112581 0.174701
0.549584 0.11577 0.194675
0.603204 0.122179 0.22031
0.662425 0.13286 0.252064
0.715129 0.147875 0.285832
0.730968 0.153109 0.301518
0.730297 0.151843 0.306523
0.729488 0.150698 0.310552
0.728634 0.149691 0.314061
0.728069 0.148989 0.317021
0.727474 0.148409 0.319478
0.727001 0.147921 0.321584
0.72668 0.147585 0.323186
0.726558 0.147433 0.324437
0.726513 0.147341 0.32578
0.726757 0.147433 0.327489
0.727031 0.147555 0.329076
0.0831311 0.0893416 0.0904097
0.0830854 0.0895094 0.0907301
0.0824598 0.087953 0.0892348
0.0831617 0.0863813 0.0881514
0.0855116 0.0856641 0.0876326
0.0903029 0.0861677 0.0879683
0.0992294 0.0878309 0.0888533
0.116335 0.0897231 0.0905013
0.140383 0.0905318 0.0930037
0.166629 0.0908064 0.0952316
0.200229 0.0911574 0.0991379
0.239689 0.091371 0.10312
0.285039 0.093019 0.109926
0.334722 0.0952926 0.118563
0.38616 0.100923 0.132525
0.437232 0.109285 0.150774
0.492012 0.114855 0.169909
0.547646 0.116472 0.189151
0.60177 0.122377 0.214694
0.661128 0.133288 0.246647
0.714473 0.148363 0.280552
0.731365 0.154208 0.296864
0.731014 0.152987 0.302373
0.730419 0.151904 0.306584
0.729809 0.150973 0.30985
0.729061 0.150179 0.312627
0.728573 0.149508 0.314946
0.728222 0.149081 0.316991
0.727962 0.148791 0.318395
0.727901 0.148623 0.320104
0.727916 0.148562 0.321675
0.728206 0.148669 0.323354
0.728603 0.148913 0.324529
0.0857862 0.0996872 0.0941634
0.0857862 0.0998703 0.0945602
0.0848707 0.0978408 0.0926528
0.0852979 0.095613 0.0910353
0.0881666 0.0939345 0.0905928
0.0945907 0.0941787 0.0908675
0.10248 0.0949264 0.0915541
0.117205 0.0956893 0.0920577
0.14078 0.0955825 0.0941939
0.166079 0.0949722 0.0963302
0.200031 0.0943465 0.0994278
0.237766 0.09308 0.103319
0.283314 0.0935836 0.108461
0.333074 0.0942092 0.114275
0.38613 0.0978561 0.125658
0.439628 0.105058 0.143542
0.491432 0.114839 0.164584
0.545113 0.118746 0.184085
0.599603 0.122866 0.208606
0.657893 0.133135 0.240009
0.71284 0.148714 0.27422
0.731533 0.155169 0.292363
0.731487 0.154147 0.297642
0.731197 0.153094 0.302358
0.730739 0.152193 0.305791
0.730205 0.151385 0.308904
0.729732 0.15079 0.310735
0.729259 0.150301 0.312535
0.729046 0.149935 0.314107
0.729046 0.149767 0.315541
0.729076 0.149691 0.316884
0.729397 0.149844 0.318227
0.729717 0.150057 0.319814
0.0880446 0.113115 0.0986496
0.087953 0.113313 0.0989853
0.0874189 0.111299 0.0962387
0.0873732 0.108644 0.0943008
0.0906691 0.104829 0.0928511
0.0959793 0.104158 0.0927443
0.107485 0.104982 0.0940719
0.120897 0.105348 0.0940871
0.14258 0.103578 0.0958267
0.167086 0.102617 0.0971389
0.203632 0.102022 0.10045
0.238804 0.0987106 0.10312
0.283696 0.0964981 0.108248
0.332891 0.0960861 0.113558
0.385702 0.0975662 0.121645
0.440238 0.101793 0.135958
0.49369 0.110033 0.157321
0.54342 0.119371 0.17879
0.596155 0.122896 0.201801
0.654002 0.132799 0.233173
0.710643 0.148821 0.268269
0.730297 0.155627 0.286702
0.731685 0.155138 0.292897
0.73164 0.154223 0.297612
0.731411 0.153338 0.301579
0.731106 0.152621 0.304524
0.730755 0.15201 0.306828
0.730419 0.151507 0.308812
0.73022 0.151232 0.309972
0.730144 0.15108 0.311238
0.73019 0.151034 0.312505
0.73051 0.151141 0.314214
0.730892 0.151278 0.31577
0.090074 0.128969 0.102953
0.090074 0.129335 0.103471
0.0892653 0.126879 0.100069
0.0889448 0.124453 0.0969253
0.0926528 0.121294 0.0954604
0.0983444 0.118791 0.0952163
0.108888 0.119127 0.0946365
0.128313 0.120027 0.0964675
0.145495 0.118471 0.0965286
0.16907 0.114794 0.098085
0.20209 0.112871 0.10016
0.243732 0.110765 0.10338
0.291463 0.106462 0.108186
0.335012 0.10135 0.114046
0.386664 0.100786 0.12134
0.440375 0.101915 0.130877
0.495048 0.105638 0.147066
0.544945 0.114473 0.170596
0.593133 0.123247 0.194659
0.650111 0.132738 0.225406
0.705821 0.14789 0.26006
0.728573 0.155901 0.279774
0.730617 0.155886 0.286412
0.731929 0.155489 0.29189
0.731914 0.154711 0.295811
0.731807 0.154086 0.299001
0.731655 0.15349 0.301778
0.731563 0.153063 0.303593
0.731441 0.152758 0.305013
0.731395 0.152544 0.306355
0.731441 0.152438 0.307561
0.73164 0.152468 0.308827
0.731914 0.15259 0.309728
0.0915847 0.146624 0.106767
0.0914626 0.147097 0.107332
0.0906844 0.14522 0.104189
0.090135 0.143404 0.100496
0.0929122 0.141375 0.0975204
0.0996719 0.137942 0.0969711
0.109178 0.136721 0.0982681
0.128634 0.137072 0.0975204
0.15201 0.137407 0.0991989
0.173022 0.135607 0.0989395
0.201984 0.129534 0.100664
0.245197 0.12369 0.104326
0.292744 0.121172 0.108629
0.349783 0.117723 0.114946
0.392996 0.109483 0.122545
0.441932 0.106294 0.130785
0.497002 0.106401 0.141985
0.548012 0.109987 0.159594
0.592325 0.118547 0.183764
0.642847 0.131273 0.213413
0.69868 0.146761 0.248646
0.723201 0.155352 0.268849
0.727428 0.156008 0.276524
0.730358 0.156497 0.28304
0.731716 0.156298 0.287709
0.732326 0.155901 0.291279
0.732357 0.155413 0.293873
0.732357 0.155001 0.295949
0.732311 0.154681 0.297612
0.732387 0.154543 0.298894
0.732464 0.154467 0.299748
0.732738 0.154543 0.300877
0.733028 0.15465 0.301793
0.0923476 0.166583 0.111711
0.0921798 0.167117 0.112566
0.09131 0.165133 0.108705
0.0906386 0.163714 0.104631
0.0918898 0.162753 0.0999619
0.0988327 0.160128 0.0981918
0.108156 0.157656 0.0995956
0.125368 0.156756 0.101732
0.150744 0.156954 0.0991989
0.17969 0.156832 0.100694
0.206973 0.153506 0.100099
0.24744 0.142687 0.104494
0.2925 0.137072 0.109239
0.352697 0.135653 0.116564
0.407034 0.133196 0.12369
0.463813 0.124651 0.133379
0.500023 0.111925 0.141939
0.551766 0.111208 0.155077
0.594781 0.114549 0.173068
0.635767 0.124849 0.198367
0.68632 0.14403 0.23238
0.715007 0.153826 0.254429
0.719814 0.154849 0.26183
0.723812 0.155795 0.268727
0.726787 0.15613 0.274342
0.729351 0.156603 0.279316
0.730785 0.156863 0.282612
0.731487 0.156741 0.2851
0.731899 0.156634 0.286595
0.732204 0.156558 0.287846
0.732525 0.156558 0.288716
0.732845 0.156634 0.289616
0.733166 0.156802 0.290181
0.0918288 0.191073 0.118517
0.0914931 0.191623 0.11931
0.090898 0.189853 0.114733
0.0903639 0.188327 0.109987
0.0904402 0.187274 0.103975
0.0948653 0.186007 0.0987716
0.104845 0.183322 0.0990921
0.121416 0.181125 0.103487
0.144778 0.180438 0.104677
0.176806 0.180652 0.100298
0.214496 0.179782 0.10222
0.248478 0.175586 0.102251
0.303227 0.158404 0.111437
0.347555 0.156619 0.116167
0.416709 0.156374 0.127184
0.475578 0.154986 0.136202
0.5402 0.14725 0.149737
0.569955 0.126574 0.158679
0.600931 0.11667 0.1691
0.632914 0.119234 0.186709
0.671946 0.1355 0.213794
0.701961 0.150134 0.236332
0.708125 0.152453 0.243885
0.712734 0.153429 0.250095
0.716335 0.154253 0.255543
0.719402 0.155016 0.259892
0.72163 0.155505 0.26363
0.723201 0.155917 0.26656
0.724376 0.15613 0.26833
0.72517 0.156268 0.269749
0.725719 0.15642 0.270695
0.726085 0.156603 0.271382
0.726314 0.156786 0.271748
0.0899977 0.221164 0.126329
0.0895399 0.22182 0.127123
0.0891432 0.22031 0.122713
0.0882734 0.218524 0.116945
0.0878462 0.216831 0.110079
0.0881666 0.215366 0.101457
0.0963912 0.21387 0.0970016
0.113954 0.211917 0.0998856
0.138201 0.211048 0.106111
0.167865 0.209964 0.106737
0.208713 0.2103 0.100114
0.258686 0.209766 0.104051
0.300053 0.20531 0.105379
0.36463 0.184756 0.118975
0.411383 0.184298 0.125856
0.487327 0.187411 0.140856
0.556268 0.187564 0.155627
0.615122 0.178393 0.168902
0.643702 0.1505 0.179416
0.649882 0.127275 0.185565
0.668559 0.129137 0.204105
0.688869 0.140505 0.2206
0.693233 0.14374 0.224598
0.694789 0.145037 0.226856
0.699672 0.148928 0.232181
0.702388 0.150149 0.235691
0.70602 0.151751 0.239796
0.708034 0.152621 0.242725
0.709484 0.152911 0.244602
0.710475 0.153124 0.245624
0.711009 0.153338 0.246311
0.71133 0.153552 0.246769
0.711254 0.153658 0.246754
0.085832 0.255238 0.133501
0.0855268 0.25597 0.134478
0.0849775 0.254734 0.129931
0.084535 0.253498 0.125658
0.0839704 0.251881 0.120119
0.08336 0.249851 0.109819
0.0852827 0.248524 0.0988479
0.100084 0.24686 0.0944381
0.12639 0.245701 0.0996872
0.157534 0.24625 0.107958
0.197284 0.24538 0.108705
0.252003 0.247654 0.0991226
0.315358 0.248569 0.105913
0.362356 0.246006 0.108614
0.430549 0.226169 0.128954
0.485161 0.222553 0.141451
0.561578 0.227329 0.158053
0.638193 0.227466 0.176593
0.693202 0.217014 0.191592
0.717281 0.187579 0.206775
0.704158 0.151064 0.208759
0.692226 0.135515 0.212177
0.688411 0.135241 0.215351
0.688182 0.136522 0.216709
0.688563 0.137285 0.217533
0.68896 0.137972 0.21828
0.689555 0.138842 0.219089
0.690684 0.139864 0.220218
0.691035 0.139956 0.220584
0.691173 0.13994 0.220874
0.69102 0.139727 0.220829
0.690684 0.139361 0.2206
0.689952 0.138705 0.220142
0.0795605 0.296117 0.140856
0.0790875 0.296941 0.141848
0.0787366 0.295995 0.138277
0.0783093 0.294942 0.13463
0.0776532 0.293767 0.129259
0.0768292 0.291798 0.122011
0.076585 0.289403 0.110201
0.0818494 0.287373 0.0940566
0.10602 0.286061 0.0901198
0.140826 0.287037 0.0982681
0.18146 0.289433 0.111009
0.236408 0.289128 0.110903
0.304967 0.292699 0.0970779
0.378759 0.294865 0.108858
0.425589 0.295628 0.113588
0.498436 0.277653 0.140536
0.564462 0.273259 0.15903
0.637552 0.272038 0.177371
0.715511 0.273594 0.199802
0.767071 0.266056 0.221485
0.779171 0.236927 0.236667
0.760067 0.194095 0.236851
0.737301 0.167086 0.227008
0.724208 0.15523 0.222263
0.714946 0.147662 0.219135
0.707439 0.142046 0.216358
0.701671 0.138201 0.214847
0.697551 0.135805 0.213809
0.694179 0.134218 0.213031
0.692836 0.133654 0.213306
0.691081 0.132784 0.212894
0.690211 0.132082 0.212619
0.693065 0.134096 0.214038
0.0720073 0.340414 0.149294
0.0715648 0.341314 0.150225
0.0711528 0.340566 0.147066
0.0706645 0.339605 0.142901
0.0700389 0.338628 0.138781
0.0693523 0.337682 0.133974
0.0689097 0.335653 0.126146
0.0688029 0.33286 0.109407
0.0803235 0.330266 0.0867933
0.114107 0.329244 0.0843214
0.157992 0.331579 0.0968948
0.212253 0.335744 0.115908
0.280919 0.335348 0.112947
0.361639 0.341711 0.0943313
0.442145 0.345998 0.116777
0.491753 0.350835 0.123003
0.567071 0.33785 0.151431
0.643687 0.330587 0.179248
0.712306 0.327367 0.198825
0.788739 0.32668 0.229236
0.82829 0.323232 0.254902
0.837964 0.303487 0.269429
0.829175 0.28011 0.268711
0.816419 0.261189 0.262943
0.805035 0.246372 0.257633
0.797162 0.234485 0.256291
0.790051 0.225559 0.252872
0.785046 0.219379 0.250584
0.782071 0.215747 0.249378
0.78085 0.214176 0.248768
0.782055 0.215 0.249378
0.785931 0.218463 0.251179
0.791531 0.226429 0.253666
0.0644999 0.384619 0.160113
0.0642557 0.385687 0.161563
0.0635538 0.385153 0.157794
0.0630198 0.384298 0.153903
0.0623178 0.383413 0.149371
0.061677 0.382483 0.144976
0.0606699 0.38143 0.140673
0.0598917 0.379248 0.129809
0.0601511 0.375769 0.10663
0.0819867 0.372808 0.0796216
0.126192 0.372137 0.0802777
0.183886 0.376654 0.100664
0.252979 0.382727 0.126162
0.333791 0.383505 0.117235
0.420096 0.393164 0.0981765
0.50753 0.399588 0.129122
0.559716 0.406683 0.139834
0.636271 0.398749 0.167132
0.719387 0.389838 0.201617
0.783597 0.385351 0.224979
0.848096 0.382513 0.262165
0.87425 0.379583 0.284276
0.875441 0.368612 0.287938
0.871015 0.359152 0.285603
0.866972 0.350607 0.283589
0.86389 0.344594 0.282231
0.861494 0.339895 0.281117
0.860014 0.337163 0.280552
0.859709 0.336248 0.280476
0.860487 0.337469 0.280797
0.862364 0.34052 0.281514
0.864302 0.344244 0.282795
0.867002 0.349386 0.284245
0.0622721 0.430854 0.177447
0.062089 0.432303 0.178988
0.0611887 0.431556 0.175448
0.0607462 0.430808 0.171298
0.0599069 0.429831 0.165957
0.0591745 0.429252 0.162005
0.0582132 0.428946 0.158602
0.0569619 0.427558 0.152499
0.0559701 0.424292 0.135973
0.0571756 0.420066 0.10602
0.0897078 0.416464 0.0757
0.147143 0.417487 0.0844892
0.220935 0.424643 0.112291
0.300816 0.431739 0.13724
0.389181 0.4336 0.124208
0.479454 0.446418 0.108263
0.572763 0.455528 0.146304
0.629114 0.465126 0.161273
0.705745 0.461799 0.187732
0.790951 0.451301 0.227344
0.846754 0.447868 0.255619
0.88867 0.44126 0.287373
0.900771 0.433967 0.299733
0.899168 0.42855 0.29926
0.897246 0.42359 0.298268
0.896208 0.420005 0.297749
0.895369 0.417578 0.297383
0.894987 0.416068 0.297246
0.895003 0.416022 0.297337
0.895399 0.417487 0.29749
0.896223 0.419715 0.297856
0.897261 0.423453 0.298421
0.899458 0.429145 0.299611
0.0647288 0.48011 0.201328
0.0647746 0.481498 0.203189
0.0639506 0.480934 0.200031
0.0631418 0.480262 0.196002
0.0623026 0.4795 0.191699
0.0615549 0.479118 0.187289
0.0609445 0.478492 0.183459
0.0599527 0.477943 0.179721
0.0583352 0.476265 0.170642
0.0574807 0.472053 0.147326
0.0610666 0.467216 0.107118
0.107301 0.463218 0.0790417
0.183246 0.465476 0.0968643
0.2663 0.473503 0.127581
0.353063 0.481178 0.144335
0.445457 0.484993 0.134096
0.540551 0.502098 0.126131
0.638407 0.513695 0.169604
0.698436 0.52578 0.189487
0.769085 0.526314 0.215
0.850889 0.515282 0.259968
0.895613 0.515724 0.288075
0.91252 0.512795 0.300755
0.916457 0.506325 0.30457
0.915496 0.500847 0.304326
0.915022 0.497017 0.304387
0.914687 0.494316 0.304433
0.914611 0.492958 0.304585
0.914687 0.493339 0.304646
0.914778 0.494469 0.304631
0.915404 0.496971 0.304906
0.915908 0.501228 0.305013
0.916991 0.507225 0.305531
0.0728161 0.532586 0.230274
0.0730602 0.534096 0.2327
0.0723888 0.533913 0.229831
0.0716716 0.5337 0.226596
0.0711223 0.533654 0.223026
0.0706798 0.533135 0.219455
0.0702678 0.532738 0.215412
0.069749 0.532189 0.211429
0.0682841 0.531228 0.206332
0.0667124 0.528862 0.193652
0.0667124 0.524819 0.163561
0.0759442 0.519081 0.113985
0.138659 0.512581 0.0920729
0.228504 0.515389 0.11429
0.317845 0.524742 0.145388
0.408225 0.532631 0.156405
0.504234 0.539712 0.150134
0.600885 0.560174 0.14966
0.70248 0.573434 0.200763
0.764492 0.587259 0.226062
0.823636 0.592187 0.249683
0.888319 0.584863 0.288182
0.919905 0.584207 0.309346
0.922713 0.582574 0.309941
0.922454 0.578958 0.309514
0.922057 0.576242 0.308949
0.92195 0.575189 0.308766
0.921874 0.574426 0.30869
0.921965 0.574594 0.308843
0.922103 0.575769 0.309133
0.922393 0.578119 0.30956
0.922713 0.581888 0.310246
0.923171 0.587503 0.311543
0.0884108 0.590173 0.26627
0.0889296 0.591913 0.268742
0.0884565 0.591821 0.266194
0.0881819 0.592081 0.263645
0.0877089 0.591943 0.260884
0.0872511 0.591714 0.257832
0.0868696 0.59144 0.254429
0.0862593 0.590784 0.249973
0.0856031 0.590311 0.244358
0.0842298 0.588952 0.237461
0.0828412 0.585534 0.219852
0.0841688 0.579828 0.182437
0.104997 0.572427 0.128939
0.185702 0.566598 0.112505
0.284123 0.569329 0.138109
0.372793 0.578408 0.167407
0.465888 0.586587 0.174838
0.562905 0.596613 0.173831
0.661906 0.622049 0.182025
0.764981 0.635431 0.238544
0.824781 0.649958 0.269368
0.869062 0.65861 0.288914
0.907332 0.657145 0.310353
0.921736 0.652598 0.32047
0.92166 0.650065 0.319722
0.921508 0.648249 0.319066
0.921736 0.647059 0.318944
0.921675 0.646403 0.31873
0.921675 0.646616 0.318746
0.921477 0.647623 0.31873
0.921309 0.649866 0.31899
0.921096 0.653788 0.319631
0.920928 0.658717 0.320531
0.110582 0.648707 0.300664
0.111788 0.650752 0.3037
0.111467 0.650858 0.301839
0.111269 0.650889 0.299977
0.111055 0.650858 0.297673
0.110842 0.650767 0.295216
0.110658 0.650813 0.293034
0.110369 0.650813 0.289357
0.109361 0.64976 0.283314
0.107729 0.648112 0.275822
0.106279 0.64625 0.267063
0.104845 0.641917 0.24448
0.108675 0.634302 0.197726
0.145739 0.627237 0.146746
0.246113 0.623056 0.141451
0.342947 0.625635 0.166339
0.430365 0.63357 0.191196
0.524163 0.642313 0.198535
0.623362 0.656352 0.205814
0.720638 0.684428 0.222568
0.822583 0.698314 0.280903
0.875074 0.711818 0.313176
0.908385 0.720211 0.331075
0.924056 0.72018 0.33901
0.92546 0.717128 0.339376
0.925124 0.71519 0.338476
0.924712 0.714107 0.337774
0.924651 0.71371 0.337621
0.924758 0.714015 0.33785
0.925246 0.715587 0.33875
0.925521 0.71751 0.339666
0.926101 0.720516 0.341283
0.927199 0.724681 0.343694
0.137957 0.700221 0.334005
0.139345 0.701732 0.33695
0.138994 0.701854 0.334798
0.138781 0.701976 0.333272
0.138598 0.702068 0.331456
0.138476 0.702113 0.329381
0.138689 0.702647 0.327749
0.138354 0.70248 0.32491
0.13753 0.701686 0.320516
0.136202 0.700282 0.313481
0.134478 0.698116 0.305211
0.132631 0.696269 0.295308
0.132158 0.690486 0.265965
0.143282 0.682185 0.215702
0.195773 0.676616 0.170626
0.317601 0.674876 0.176913
0.405188 0.677455 0.198734
0.490974 0.684871 0.219333
0.587045 0.695979 0.228702
0.687495 0.714321 0.244205
0.779782 0.743374 0.268284
0.869535 0.756893 0.324025
0.912459 0.768032 0.352651
0.936126 0.773648 0.368521
0.939818 0.77229 0.37142
0.939437 0.770443 0.370428
0.939361 0.769482 0.36997
0.939361 0.769009 0.369848
0.939376 0.76939 0.370031
0.939391 0.770016 0.370321
0.939666 0.771557 0.371252
0.940307 0.773877 0.372717
0.940566 0.776913 0.374182
0.167208 0.740627 0.364538
0.167758 0.741329 0.366567
0.167559 0.74139 0.364904
0.167193 0.74136 0.363241
0.167071 0.741558 0.361761
0.166873 0.741497 0.360189
0.166567 0.741436 0.358541
0.166278 0.741146 0.355993
0.165347 0.740536 0.352773
0.164065 0.739254 0.346929
0.162692 0.737575 0.338949
0.160632 0.735286 0.328801
0.158251 0.732326 0.315465
0.162692 0.726467 0.2813
0.182254 0.719356 0.232685
0.258625 0.71458 0.197192
0.387152 0.715908 0.212634
0.46949 0.719875 0.233097
0.554498 0.728389 0.250355
0.653269 0.743069 0.263401
0.753262 0.765377 0.285756
0.832685 0.793194 0.315282
0.905196 0.804303 0.363012
0.9355 0.812573 0.383932
0.942214 0.81326 0.390478
0.942626 0.812085 0.390692
0.942779 0.811231 0.390463
0.942824 0.811078 0.390448
0.942855 0.811124 0.390524
0.942824 0.811719 0.390845
0.94258 0.812665 0.391119
0.94229 0.814206 0.391516
0.942489 0.816999 0.39295
0.184237 0.75964 0.384604
0.18468 0.76022 0.38706
0.184115 0.759762 0.38471
0.183581 0.759319 0.382895
0.183062 0.758923 0.381079
0.182361 0.758434 0.378683
0.181674 0.757961 0.376562
0.180926 0.757305 0.374014
0.179934 0.75639 0.370214
0.178439 0.754849 0.36466
0.175982 0.75259 0.356985
0.173098 0.749874 0.345403
0.169818 0.74667 0.333288
0.170123 0.742977 0.311498
0.186557 0.740047 0.274037
0.227817 0.737118 0.235248
0.345769 0.737408 0.228367
0.453391 0.739864 0.248829
0.534951 0.746929 0.272465
0.620768 0.758801 0.285817
0.723507 0.778637 0.30547
0.811124 0.803891 0.32726
0.874739 0.824109 0.358526
0.92639 0.837339 0.393835
0.938689 0.840528 0.404257
0.939116 0.83975 0.40502
0.939116 0.83917 0.404196
0.939223 0.838972 0.403906
0.939239 0.838987 0.403769
0.939101 0.839277 0.403723
0.939055 0.840009 0.404135
0.93872 0.84126 0.404517
0.93817 0.842802 0.40502
0.186191 0.76173 0.393118
0.186587 0.762325 0.395758
0.186084 0.761776 0.392981
0.185473 0.761288 0.390707
0.184787 0.760723 0.388556
0.184161 0.760113 0.385794
0.183612 0.759503 0.383398
0.182895 0.758831 0.380423
0.181445 0.757748 0.375875
0.180041 0.756527 0.370596
0.177859 0.754284 0.362799
0.174609 0.751339 0.351537
0.171527 0.747799 0.337697
0.168917 0.744106 0.319768
0.18291 0.742077 0.285695
0.216907 0.740917 0.247166
0.314809 0.741405 0.232532
0.440909 0.743175 0.251408
0.521385 0.749508 0.275776
0.607538 0.761151 0.29427
0.700267 0.777752 0.312993
0.794537 0.803159 0.337087
0.861494 0.826825 0.362264
0.909911 0.839063 0.392477
0.934691 0.847883 0.414649
0.936126 0.849241 0.42388
0.936233 0.848951 0.423041
0.936263 0.848829 0.4224
0.936278 0.848859 0.422171
0.936217 0.849012 0.422705
0.936095 0.849287 0.423697
0.935927 0.849638 0.424887
0.935866 0.84979 0.425422
0.187381 0.76347 0.400595
0.187823 0.764019 0.402853
0.187213 0.763439 0.400137
0.186755 0.762921 0.397635
0.186404 0.762402 0.395392
0.185794 0.761746 0.392386
0.185138 0.761135 0.389776
0.184253 0.76022 0.386236
0.183139 0.759014 0.381415
0.181216 0.757549 0.375189
0.179294 0.755688 0.367575
0.175982 0.75259 0.356863
0.172869 0.749035 0.341299
0.169116 0.745159 0.325765
0.179797 0.742397 0.292607
0.2094 0.740887 0.250462
0.295796 0.741039 0.231693
0.431235 0.742962 0.249241
0.513176 0.748699 0.273411
0.598657 0.759899 0.29305
0.689082 0.775525 0.311147
0.783475 0.799878 0.335225
0.853925 0.824933 0.360372
0.902174 0.837873 0.38822
0.931838 0.846799 0.411383
0.935866 0.84979 0.425925
0.935714 0.849989 0.428351
0.935729 0.849973 0.428199
0.93576 0.849958 0.427512
0.935775 0.850004 0.427085
0.935775 0.850019 0.426841
0.93576 0.850034 0.426703
0.935744 0.850034 0.426673
0.188754 0.765194 0.407279
0.189166 0.765606 0.409079
0.188525 0.765042 0.4065
0.1879 0.764385 0.403906
0.187259 0.763699 0.401007
0.18674 0.763043 0.398077
0.186389 0.762432 0.395407
0.185534 0.761517 0.39144
0.184192 0.760143 0.385916
0.182574 0.758587 0.379187
0.180224 0.756756 0.37142
0.177142 0.753643 0.360449
0.173877 0.750042 0.345052
0.169726 0.745998 0.329625
0.177783 0.742855 0.29807
0.204303 0.741009 0.253498
0.283482 0.740871 0.231922
0.422324 0.742611 0.247333
0.506828 0.748012 0.27129
0.591653 0.758892 0.292058
0.681056 0.77409 0.309545
0.776211 0.797574 0.333364
0.847562 0.822675 0.357565
0.896345 0.836072 0.384161
0.930373 0.846265 0.409827
0.935821 0.849973 0.425437
0.935622 0.850248 0.428351
0.935592 0.850309 0.428656
0.935561 0.850385 0.428962
0.935515 0.850477 0.429297
0.935515 0.850492 0.429068
0.935531 0.850492 0.428824
0.935546 0.850477 0.428733
0.189792 0.766522 0.412924
0.190051 0.766903 0.41474
0.189609 0.766232 0.411673
0.188983 0.765591 0.40885
0.188312 0.764935 0.405814
0.18761 0.764157 0.402869
0.186954 0.763394 0.399558
0.186465 0.762554 0.395911
0.185183 0.761166 0.389868
0.183444 0.759319 0.382635
0.180941 0.757305 0.374044
0.178027 0.754421 0.363272
0.174517 0.750652 0.347326
0.170306 0.746609 0.331884
0.176257 0.743114 0.301549
0.20238 0.741115 0.256428
0.275517 0.740505 0.231662
0.415747 0.742367 0.245747
0.503243 0.747524 0.270039
0.587121 0.758358 0.291356
0.676005 0.773098 0.308537
0.772107 0.796567 0.332952
0.84358 0.821057 0.355779
0.892119 0.834226 0.381415
0.928603 0.845655 0.407797
0.935714 0.849836 0.424247
0.935622 0.850278 0.428
0.935592 0.85034 0.428473
