bundles/resolve-cinematic-luts/Phantom Luts/Fx6 Phntm ARRI LUTs-G5/ATOMOS Monitoring LUTs/Tungsten Fx6-Legacy AML.cube
TITLE "Generated by Resolve"
LUT_3D_SIZE 9
0.0802625 0.0806134 0.0864271
0.0894789 0.0816358 0.0863813
0.153033 0.0874037 0.096376
0.290211 0.0970474 0.124697
0.498665 0.111116 0.18555
0.71574 0.146624 0.295583
0.726528 0.147555 0.322469
0.72372 0.145113 0.331197
0.723873 0.145098 0.33695
0.0857862 0.0996872 0.0941634
0.0881666 0.0939345 0.0905928
0.14078 0.0955825 0.0941939
0.283314 0.0935836 0.108461
0.491432 0.114839 0.164584
0.71284 0.148714 0.27422
0.730739 0.152193 0.305791
0.729046 0.149935 0.314107
0.729717 0.150057 0.319814
0.0923476 0.166583 0.111711
0.0918898 0.162753 0.0999619
0.150744 0.156954 0.0991989
0.2925 0.137072 0.109239
0.500023 0.111925 0.141939
0.68632 0.14403 0.23238
0.726787 0.15613 0.274342
0.731899 0.156634 0.286595
0.733166 0.156802 0.290181
0.0795605 0.296117 0.140856
0.0776532 0.293767 0.129259
0.10602 0.286061 0.0901198
0.304967 0.292699 0.0970779
0.564462 0.273259 0.15903
0.779171 0.236927 0.236667
0.714946 0.147662 0.219135
0.694179 0.134218 0.213031
0.693065 0.134096 0.214038
0.0647288 0.48011 0.201328
0.0623026 0.4795 0.191699
0.0583352 0.476265 0.170642
0.183246 0.465476 0.0968643
0.540551 0.502098 0.126131
0.850889 0.515282 0.259968
0.915496 0.500847 0.304326
0.914687 0.493339 0.304646
0.916991 0.507225 0.305531
0.137957 0.700221 0.334005
0.138598 0.702068 0.331456
0.13753 0.701686 0.320516
0.132158 0.690486 0.265965
0.405188 0.677455 0.198734
0.779782 0.743374 0.268284
0.939818 0.77229 0.37142
0.939376 0.76939 0.370031
0.940566 0.776913 0.374182
0.187381 0.76347 0.400595
0.186404 0.762402 0.395392
0.183139 0.759014 0.381415
0.172869 0.749035 0.341299
0.295796 0.741039 0.231693
0.689082 0.775525 0.311147
0.931838 0.846799 0.411383
0.93576 0.849958 0.427512
0.935744 0.850034 0.426673
0.191119 0.767895 0.419806
0.18967 0.766094 0.411566
0.186404 0.762066 0.394476
0.175067 0.750942 0.349508
0.278569 0.740536 0.232776
0.672938 0.772198 0.307134
0.925704 0.844434 0.404334
0.93579 0.849897 0.427665
0.935515 0.850523 0.428916
0.192416 0.76907 0.428214
0.190524 0.767529 0.417243
0.186542 0.762417 0.395666
0.173968 0.749371 0.342138
0.346914 0.7411 0.234638
0.711254 0.780285 0.316655
0.929671 0.845899 0.408804
0.935683 0.850126 0.427893
0.935439 0.85066 0.428855
0.0791333 0.0816052 0.0943008
0.0888685 0.0827344 0.0973068
0.146166 0.0877699 0.115312
0.289265 0.0960403 0.15169
0.500587 0.110521 0.206729
0.711879 0.143069 0.311818
0.722316 0.143847 0.338354
0.718791 0.141772 0.346242
0.718349 0.141466 0.350683
0.0848707 0.0937362 0.0987106
0.0836652 0.0895247 0.0952163
0.142138 0.0900587 0.0993515
0.279454 0.0974746 0.124056
0.49395 0.11165 0.185443
0.71281 0.145892 0.294255
0.727672 0.148333 0.323537
0.724971 0.145937 0.332036
0.724727 0.145647 0.336904
0.0932021 0.162631 0.132921
0.092195 0.159777 0.118242
0.141314 0.153155 0.101793
0.301946 0.128939 0.111284
0.491402 0.106188 0.144472
0.702434 0.147219 0.257374
0.732601 0.155337 0.295735
0.732052 0.153277 0.305043
0.732647 0.153246 0.308812
0.0816358 0.297093 0.164431
0.0803693 0.292897 0.147326
0.0808881 0.281666 0.102266
0.300832 0.289158 0.0982223
0.562692 0.264591 0.158083
0.76791 0.216648 0.235508
0.702937 0.139208 0.215625
0.687617 0.134936 0.215152
0.693156 0.137881 0.216831
0.0668498 0.482033 0.219486
0.0644694 0.480735 0.207156
0.0610056 0.476341 0.183444
0.160723 0.463188 0.0901045
0.538781 0.500832 0.126619
0.854658 0.513054 0.262211
0.915053 0.496666 0.304524
0.913924 0.489082 0.304479
0.916457 0.50367 0.305455
0.139284 0.701289 0.344793
0.140032 0.703212 0.340536
0.138933 0.703075 0.329442
0.131548 0.692714 0.281071
0.398978 0.677531 0.197177
0.779553 0.743404 0.268605
0.939574 0.771298 0.370855
0.939178 0.767849 0.369268
0.940352 0.77612 0.373907
0.189776 0.766201 0.412055
0.188418 0.765042 0.406287
0.185489 0.761456 0.391241
0.174838 0.751019 0.349111
0.282399 0.740871 0.231937
0.685634 0.774884 0.310704
0.931853 0.846983 0.413108
0.935714 0.850034 0.428305
0.935714 0.850111 0.427573
0.192889 0.769299 0.430014
0.191623 0.768231 0.422934
0.188403 0.764675 0.405219
0.177081 0.752956 0.35816
0.268605 0.740688 0.234348
0.667399 0.771084 0.305837
0.92401 0.843915 0.404196
0.935714 0.849973 0.428489
0.935424 0.850584 0.429755
0.194507 0.770779 0.438758
0.192233 0.768734 0.426581
0.188602 0.765042 0.406638
0.176257 0.751278 0.34966
0.330861 0.741314 0.233783
0.704219 0.778836 0.315084
0.927443 0.845335 0.407645
0.935622 0.850233 0.428656
0.935347 0.850721 0.429709
0.0737469 0.0881666 0.135729
0.0916152 0.0870832 0.14667
0.145388 0.0893568 0.155184
0.279576 0.0984817 0.180377
0.491157 0.108232 0.240742
0.700801 0.136294 0.334432
0.713039 0.13817 0.356771
0.710552 0.136873 0.361578
0.710369 0.136843 0.365148
0.0780957 0.093431 0.122011
0.074815 0.0886244 0.128374
0.1337 0.0886549 0.147295
0.270283 0.0960861 0.165194
0.492561 0.109438 0.220752
0.704082 0.139178 0.31902
0.718868 0.141848 0.345647
0.715465 0.139712 0.352255
0.714778 0.13933 0.357046
0.093843 0.156069 0.156039
0.0931716 0.152911 0.153872
0.135744 0.150118 0.155291
0.302907 0.135637 0.157259
0.489982 0.114885 0.184787
0.707774 0.144106 0.290135
0.727916 0.148562 0.321782
0.725231 0.146105 0.330373
0.724926 0.145769 0.334874
0.0867933 0.295399 0.201556
0.0849622 0.293431 0.190417
0.0835584 0.28481 0.154086
0.299733 0.289998 0.121019
0.581964 0.251789 0.170947
0.737636 0.177752 0.226184
0.691218 0.136706 0.219364
0.698329 0.14638 0.230732
0.706294 0.151461 0.235065
0.0706798 0.484535 0.254383
0.0679026 0.484565 0.241901
0.0643931 0.478004 0.210636
0.112169 0.458778 0.0902876
0.535668 0.498207 0.127794
0.859449 0.507195 0.264759
0.913497 0.486656 0.304356
0.911849 0.477165 0.304082
0.914839 0.493706 0.304921
0.141009 0.703136 0.363455
0.142016 0.705318 0.358907
0.141024 0.704494 0.343893
0.131823 0.693523 0.297948
0.384649 0.676341 0.193866
0.777584 0.741848 0.267948
0.939239 0.768246 0.369451
0.938262 0.764401 0.367239
0.939895 0.772595 0.371984
0.192615 0.768765 0.427787
0.191638 0.768429 0.423514
0.188983 0.765637 0.408957
0.178424 0.754665 0.36379
0.26154 0.740688 0.234577
0.673884 0.772946 0.311025
0.931594 0.847196 0.415579
0.935592 0.850141 0.429572
0.935576 0.850263 0.429053
0.196231 0.772076 0.446448
0.194873 0.771038 0.440299
0.191928 0.768322 0.424201
0.180972 0.756924 0.372564
0.24416 0.740978 0.238987
0.654734 0.769009 0.305303
0.919448 0.842771 0.403891
0.935576 0.850111 0.429969
0.935241 0.850675 0.431235
0.198962 0.7738 0.457328
0.196536 0.772427 0.447959
0.192691 0.768933 0.428626
0.180484 0.755993 0.3682
0.291722 0.741009 0.232853
0.687282 0.775433 0.314046
0.923217 0.844358 0.407691
0.93547 0.850385 0.430396
0.935149 0.850843 0.431434
0.0657054 0.109743 0.237949
0.0919203 0.100633 0.250187
0.153658 0.0981155 0.270344
0.28246 0.0996719 0.279271
0.482124 0.11252 0.305501
0.68014 0.126131 0.369162
0.698619 0.12929 0.386084
0.697398 0.128573 0.38999
0.697429 0.128557 0.394995
0.0621042 0.114611 0.216663
0.0633707 0.109545 0.22826
0.128496 0.0985275 0.261646
0.273136 0.0993515 0.270283
0.474601 0.111162 0.292439
0.679667 0.127077 0.361227
0.701045 0.131151 0.38024
0.699641 0.130068 0.383993
0.699336 0.129809 0.38883
0.0730755 0.157244 0.209537
0.069398 0.151812 0.214847
0.0882124 0.135698 0.246342
0.260456 0.10454 0.258793
0.467002 0.110613 0.27013
0.681102 0.128771 0.347967
0.705638 0.134035 0.369802
0.703746 0.132845 0.373297
0.703243 0.132616 0.377523
0.0961776 0.287404 0.273335
0.0958877 0.285893 0.272572
0.0967117 0.279759 0.267018
0.29221 0.296147 0.295262
0.590066 0.260182 0.291615
0.721736 0.153735 0.289982
0.730358 0.150362 0.316594
0.728405 0.148028 0.325063
0.72903 0.14818 0.328771
0.0857862 0.491646 0.341299
0.0836347 0.492485 0.335988
0.0795148 0.488807 0.316716
0.0741894 0.466484 0.206104
0.528801 0.501472 0.198169
0.885542 0.496941 0.311055
0.919783 0.464485 0.324544
0.916625 0.456733 0.321065
0.922591 0.469902 0.327901
0.145098 0.702892 0.411505
0.146426 0.706249 0.409323
0.145571 0.70724 0.39733
0.135058 0.69485 0.339254
0.301167 0.671046 0.18027
0.768444 0.733776 0.263539
0.936706 0.757336 0.367132
0.935515 0.752392 0.36408
0.937713 0.760311 0.368902
0.201602 0.775402 0.467735
0.200855 0.775189 0.465278
0.198108 0.773266 0.454215
0.188754 0.765438 0.408118
0.20238 0.744106 0.2804
0.63856 0.76791 0.313573
0.925155 0.845548 0.417105
0.935271 0.850401 0.433127
0.93518 0.850553 0.43328
0.206073 0.77908 0.487221
0.205112 0.778515 0.483238
0.201953 0.77615 0.470329
0.191714 0.768154 0.422934
0.193713 0.744244 0.292165
0.616266 0.764157 0.308736
0.903883 0.838346 0.40116
0.935225 0.850431 0.433463
0.934936 0.850919 0.434562
0.210788 0.7832 0.505974
0.208789 0.781415 0.498146
0.204913 0.778363 0.482689
0.192248 0.768475 0.425925
0.205493 0.744503 0.279789
0.640101 0.768078 0.315938
0.907561 0.839597 0.406149
0.935073 0.85066 0.434272
0.934829 0.851072 0.43505
0.0577859 0.160739 0.425559
0.0898756 0.143145 0.434775
0.147997 0.127077 0.454566
0.295613 0.116106 0.48159
0.491371 0.112932 0.478416
0.717037 0.135531 0.47628
0.733379 0.140291 0.488411
0.735759 0.141451 0.49453
0.738155 0.142947 0.503136
0.0529183 0.172442 0.404395
0.0530251 0.162371 0.419394
0.11783 0.132052 0.442847
0.279072 0.117342 0.479576
0.486046 0.112657 0.473518
0.712642 0.134035 0.469902
0.730678 0.139116 0.481636
0.733181 0.14023 0.487617
0.736477 0.142107 0.497093
0.0529335 0.185611 0.378698
0.0529488 0.18056 0.387259
0.0567941 0.158556 0.413336
0.244541 0.119539 0.472618
0.477195 0.113664 0.465751
0.705287 0.13193 0.457938
0.72607 0.137118 0.469032
0.728573 0.138033 0.474937
0.731991 0.139818 0.484215
0.0563516 0.294179 0.38703
0.052903 0.291081 0.390951
0.0529641 0.281285 0.395865
0.19028 0.253452 0.485756
0.49987 0.176623 0.482994
0.681163 0.126925 0.422629
0.714748 0.133104 0.433371
0.717144 0.133974 0.439536
0.720821 0.135378 0.44773
0.113603 0.507836 0.480552
0.113405 0.510048 0.48333
0.112902 0.509529 0.482704
0.113603 0.497993 0.469627
0.513664 0.518044 0.507301
0.928161 0.506767 0.531655
0.949767 0.422934 0.510597
0.949798 0.40441 0.507912
0.949859 0.421546 0.521523
0.162463 0.715114 0.527672
0.164401 0.719066 0.52987
0.164431 0.720287 0.525414
0.155566 0.709682 0.493248
0.246281 0.681575 0.374151
0.742916 0.733516 0.422599
0.937896 0.760662 0.489433
0.938308 0.755123 0.486213
0.937728 0.763134 0.496025
0.228153 0.798169 0.568414
0.228229 0.798611 0.569772
0.226032 0.796719 0.562905
0.217029 0.788739 0.53019
0.209216 0.767849 0.407156
0.581231 0.775448 0.392721
0.905425 0.848173 0.486992
0.929 0.856413 0.504509
0.928679 0.85742 0.510781
0.236088 0.805417 0.594125
0.235523 0.804898 0.592462
0.232547 0.802396 0.583993
0.221698 0.79266 0.546746
0.2094 0.77052 0.421057
0.544182 0.768338 0.379171
0.8748 0.839506 0.464073
0.929229 0.855848 0.499977
0.928695 0.856992 0.505302
0.247059 0.814923 0.627588
0.245258 0.813535 0.622385
0.241184 0.809995 0.610315
0.226902 0.797406 0.565423
0.218723 0.772076 0.428077
0.574609 0.777249 0.407019
0.876493 0.842435 0.479835
0.92871 0.857313 0.510155
0.928527 0.85745 0.50837
0.052903 0.250462 0.624323
0.0714885 0.23595 0.636744
0.129412 0.206424 0.651362
0.286915 0.180148 0.701183
0.498253 0.154543 0.71519
0.710155 0.159167 0.679973
0.729793 0.170611 0.697246
0.726711 0.171954 0.705455
0.724117 0.174319 0.715434
0.0529793 0.263081 0.614038
0.0529641 0.251591 0.620157
0.0944228 0.222446 0.641413
0.264286 0.181125 0.69366
0.491081 0.155398 0.715984
0.708537 0.15816 0.677958
0.731228 0.169757 0.692805
0.728099 0.171435 0.702083
0.725673 0.173709 0.712016
0.0529641 0.273503 0.604837
0.052903 0.27039 0.610513
0.0528878 0.249012 0.616068
0.222934 0.181415 0.676966
0.47808 0.156481 0.715175
0.705821 0.155856 0.672023
0.734279 0.167788 0.682383
0.730999 0.169528 0.692561
0.728115 0.171939 0.703548
0.0529488 0.306096 0.576272
0.0529183 0.302556 0.58175
0.0528878 0.293568 0.589746
0.0743114 0.242863 0.635187
0.430625 0.161959 0.710735
0.68867 0.147906 0.65687
0.74583 0.164172 0.64773
0.743587 0.165499 0.658091
0.740291 0.167666 0.671534
0.0814527 0.527947 0.620706
0.0802319 0.530022 0.624964
0.078584 0.528786 0.62855
0.0750286 0.515953 0.637568
0.436408 0.517418 0.799359
0.811688 0.401358 0.765209
0.875074 0.304448 0.694789
0.867277 0.289036 0.687221
0.876234 0.30959 0.707362
0.208927 0.737621 0.699763
0.212894 0.743191 0.706127
0.215228 0.746105 0.709133
0.212528 0.742504 0.704814
0.318914 0.737011 0.699886
0.743694 0.749706 0.73669
0.94992 0.742657 0.746288
0.949859 0.729534 0.74667
0.949889 0.73695 0.755703
0.313954 0.85478 0.752453
0.316075 0.856275 0.756725
0.314672 0.855619 0.754772
0.302693 0.848966 0.735546
0.290028 0.823987 0.660014
0.585199 0.835645 0.650248
0.905028 0.887846 0.708263
0.941909 0.89456 0.74229
0.942306 0.896345 0.751003
0.33225 0.864973 0.781903
0.332937 0.865766 0.783749
0.33051 0.864485 0.779446
0.315297 0.855863 0.755627
0.290181 0.826856 0.668894
0.553674 0.82977 0.637781
0.863584 0.881712 0.69427
0.939055 0.903639 0.7393
0.93933 0.905257 0.745647
0.353002 0.875746 0.814847
0.351553 0.875257 0.812665
0.347723 0.873869 0.806668
0.329992 0.863966 0.778759
0.304051 0.832197 0.686046
0.586252 0.841138 0.669612
0.866667 0.886427 0.712779
0.939406 0.90547 0.746639
0.939193 0.905501 0.746059
0.081178 0.357458 0.723415
0.0808576 0.352056 0.723842
0.100496 0.339742 0.738033
0.265431 0.282979 0.816022
0.495949 0.267124 0.881697
0.687907 0.195621 0.788708
0.70399 0.188449 0.771801
0.704005 0.188327 0.771511
0.70399 0.188479 0.771847
0.0798962 0.35964 0.720745
0.0804608 0.357 0.722347
0.0809949 0.34551 0.723217
0.242237 0.28835 0.807233
0.486397 0.267979 0.880827
0.687251 0.196674 0.790295
0.704005 0.188403 0.771695
0.704005 0.188434 0.771756
0.70399 0.188586 0.772091
0.0779278 0.361135 0.716426
0.0787823 0.360845 0.718334
0.0796216 0.3552 0.720851
0.198749 0.303807 0.7906
0.469245 0.26949 0.87834
0.682628 0.196094 0.791119
0.704005 0.188296 0.771435
0.704005 0.188312 0.771496
0.70399 0.188525 0.771939
0.0690318 0.363806 0.699992
0.0705119 0.363455 0.702602
0.0731212 0.362402 0.707713
0.0780652 0.348013 0.718608
0.407233 0.273976 0.865599
0.667628 0.20351 0.80531
0.705303 0.188449 0.770565
0.704707 0.188708 0.771557
0.704768 0.189014 0.772168
0.117876 0.551339 0.734813
0.120394 0.553445 0.738552
0.123323 0.553384 0.744564
0.129 0.544503 0.759701
0.337438 0.549142 0.933516
0.744366 0.408911 0.949935
0.812772 0.285664 0.84361
0.799359 0.272648 0.833936
0.817319 0.295552 0.853284
0.241672 0.746059 0.807935
0.246036 0.751141 0.81236
0.248676 0.753857 0.816007
0.243534 0.748684 0.815518
0.289235 0.760433 0.860044
0.700267 0.762844 0.935073
0.92575 0.684245 0.911086
0.927687 0.671077 0.908248
0.927825 0.681498 0.913329
0.380102 0.887068 0.867231
0.383108 0.888624 0.870085
0.385153 0.889204 0.870542
0.384482 0.889097 0.866941
0.371542 0.877058 0.850431
0.66041 0.888701 0.872541
0.901991 0.905409 0.899138
0.940978 0.900404 0.896742
0.940154 0.900282 0.899702
0.391501 0.894774 0.884749
0.391714 0.895247 0.885832
0.391959 0.895094 0.884962
0.391501 0.891997 0.876997
0.393759 0.887053 0.851499
0.645335 0.899092 0.860533
0.874311 0.929534 0.894163
0.944091 0.935515 0.898299
0.944045 0.936767 0.905348
0.362509 0.88867 0.88394
0.367239 0.890196 0.885664
0.365515 0.889342 0.884138
0.391959 0.894759 0.884489
0.399558 0.888518 0.856199
0.668177 0.904021 0.871382
0.876692 0.930663 0.899184
0.944091 0.936156 0.900313
0.943938 0.936889 0.904128
0.081651 0.355169 0.724544
0.0811475 0.349447 0.724788
0.112871 0.340337 0.748501
0.273518 0.2878 0.82298
0.503075 0.269306 0.884337
0.687541 0.190051 0.781048
0.70399 0.188449 0.771801
0.704005 0.188403 0.771695
0.70399 0.188479 0.771847
0.0803235 0.358526 0.721874
0.0815595 0.356374 0.72433
0.087541 0.346212 0.729931
0.250553 0.293095 0.814618
0.493294 0.271885 0.884749
0.688807 0.194125 0.78648
0.704005 0.188418 0.771725
0.70399 0.188449 0.771786
0.70399 0.18851 0.771908
0.0787213 0.361669 0.718105
0.079881 0.361089 0.720424
0.0813764 0.356313 0.723995
0.206867 0.3084 0.798215
0.475517 0.275212 0.884077
0.688426 0.198093 0.792004
0.704051 0.188373 0.771603
0.704005 0.188357 0.771603
0.70399 0.188495 0.771862
0.0832685 0.385641 0.722957
0.0813611 0.380194 0.720546
0.0777295 0.368154 0.715114
0.0814984 0.353246 0.724773
0.411765 0.283024 0.874022
0.670146 0.207202 0.810575
0.704845 0.188846 0.771756
0.704738 0.188754 0.771649
0.704799 0.189029 0.772183
0.149508 0.573205 0.78468
0.150286 0.57406 0.785809
0.149554 0.57084 0.785946
0.140475 0.54847 0.779767
0.31693 0.536355 0.924956
0.726528 0.399039 0.949859
0.801907 0.280385 0.843961
0.789548 0.268925 0.836393
0.807904 0.289601 0.852216
0.239002 0.747875 0.830472
0.242603 0.752377 0.833432
0.244511 0.755047 0.835584
0.240024 0.748623 0.834531
0.278508 0.753353 0.870848
0.680598 0.776608 0.949859
0.916533 0.686763 0.939605
0.925429 0.67274 0.937804
0.92546 0.682979 0.938369
0.34345 0.877653 0.877379
0.342138 0.877714 0.8766
0.340993 0.87776 0.875746
0.341863 0.876814 0.87686
0.352972 0.875486 0.886168
0.564431 0.904067 0.928206
0.870253 0.895979 0.933318
0.933394 0.885618 0.932815
0.933104 0.886931 0.934066
0.339773 0.877943 0.874296
0.340246 0.878294 0.874891
0.340246 0.878309 0.874907
0.340246 0.878309 0.874907
0.35198 0.884901 0.880568
0.636866 0.919326 0.914336
0.880217 0.935149 0.934218
0.940719 0.940444 0.939696
0.941085 0.94078 0.940352
0.339666 0.877852 0.874174
0.34023 0.878294 0.874861
0.340246 0.878309 0.874907
0.340246 0.878309 0.874907
0.355169 0.886442 0.881895
0.651621 0.919905 0.914855
0.881636 0.935485 0.934798
0.940108 0.940841 0.940703
0.941573 0.940002 0.939284
0.0816968 0.354299 0.724819
0.081239 0.348424 0.725032
0.118608 0.338964 0.752377
0.279042 0.286702 0.824781
0.507622 0.268193 0.884123
0.688655 0.188205 0.778195
0.70399 0.188449 0.771801
0.70399 0.188434 0.771756
0.70399 0.188479 0.771847
0.0805982 0.358312 0.722377
0.0816205 0.355428 0.724514
0.0912795 0.345205 0.732738
0.256199 0.291371 0.816556
0.498116 0.270787 0.884703
0.689891 0.19234 0.783276
0.704005 0.188418 0.77174
0.70399 0.188449 0.771786
0.70399 0.188525 0.771984
0.078996 0.361776 0.718563
0.0799115 0.36054 0.720607
0.081651 0.355764 0.724498
0.212619 0.306111 0.800595
0.480385 0.274205 0.884337
0.69015 0.196658 0.789303
0.704112 0.188434 0.771618
0.704005 0.188357 0.771603
0.70399 0.188525 0.771939
0.0830701 0.385122 0.722744
0.0811475 0.37966 0.720256
0.077348 0.3673 0.714656
0.0811933 0.351965 0.724544
0.41648 0.282368 0.874739
0.67155 0.204791 0.807157
0.70489 0.188891 0.771771
0.704784 0.188785 0.771664
0.704829 0.189059 0.772213
0.150546 0.573892 0.78648
0.150561 0.573907 0.786542
0.149111 0.570031 0.785611
0.140093 0.547585 0.779461
0.320409 0.535134 0.92665
0.728191 0.396277 0.949767
0.800855 0.280339 0.844541
0.789273 0.269657 0.837476
0.808423 0.290227 0.852552
0.240558 0.750515 0.834623
0.244129 0.75465 0.836652
0.246082 0.757122 0.837964
0.241657 0.749584 0.835904
0.279957 0.753719 0.871794
0.682872 0.775677 0.949859
0.916701 0.686152 0.939529
0.92546 0.672679 0.937972
0.925399 0.682979 0.938354
0.341955 0.877073 0.876432
0.341085 0.877516 0.875853
0.338918 0.876875 0.87454
0.343847 0.877485 0.878172
0.347967 0.872541 0.884031
0.558938 0.90312 0.929335
0.863783 0.892851 0.933349
0.932891 0.884962 0.93402
0.932937 0.885924 0.934218
0.339818 0.877974 0.874342
0.340246 0.878294 0.874891
0.340246 0.878309 0.874907
0.340246 0.878309 0.874907
0.347036 0.882399 0.878553
0.571496 0.917281 0.911604
0.797101 0.929259 0.927169
0.936645 0.939574 0.939834
0.941054 0.940917 0.940459
0.339925 0.87805 0.874479
0.34023 0.878294 0.874861
0.340246 0.878309 0.874907
0.340246 0.878309 0.874907
0.348226 0.883131 0.879194
0.585824 0.917601 0.911711
0.84213 0.932342 0.93109
0.936233 0.940551 0.940307
0.941115 0.940734 0.940154
