bundles/resolve-cinematic-luts/Phantom Luts/Fx6 Phntm ARRI LUTs-G5/ATOMOS Monitoring LUTs/Tungsten Fx6-Legacy AML.cube
TITLE "Generated by Resolve"
LUT_3D_SIZE 5
0.0802625 0.0806134 0.0864271
0.153033 0.0874037 0.096376
0.498665 0.111116 0.18555
0.726528 0.147555 0.322469
0.723873 0.145098 0.33695
0.0923476 0.166583 0.111711
0.150744 0.156954 0.0991989
0.500023 0.111925 0.141939
0.726787 0.15613 0.274342
0.733166 0.156802 0.290181
0.0647288 0.48011 0.201328
0.0583352 0.476265 0.170642
0.540551 0.502098 0.126131
0.915496 0.500847 0.304326
0.916991 0.507225 0.305531
0.187381 0.76347 0.400595
0.183139 0.759014 0.381415
0.295796 0.741039 0.231693
0.931838 0.846799 0.411383
0.935744 0.850034 0.426673
0.192416 0.76907 0.428214
0.186542 0.762417 0.395666
0.346914 0.7411 0.234638
0.929671 0.845899 0.408804
0.935439 0.85066 0.428855
0.0737469 0.0881666 0.135729
0.145388 0.0893568 0.155184
0.491157 0.108232 0.240742
0.713039 0.13817 0.356771
0.710369 0.136843 0.365148
0.093843 0.156069 0.156039
0.135744 0.150118 0.155291
0.489982 0.114885 0.184787
0.727916 0.148562 0.321782
0.724926 0.145769 0.334874
0.0706798 0.484535 0.254383
0.0643931 0.478004 0.210636
0.535668 0.498207 0.127794
0.913497 0.486656 0.304356
0.914839 0.493706 0.304921
0.192615 0.768765 0.427787
0.188983 0.765637 0.408957
0.26154 0.740688 0.234577
0.931594 0.847196 0.415579
0.935576 0.850263 0.429053
0.198962 0.7738 0.457328
0.192691 0.768933 0.428626
0.291722 0.741009 0.232853
0.923217 0.844358 0.407691
0.935149 0.850843 0.431434
0.0577859 0.160739 0.425559
0.147997 0.127077 0.454566
0.491371 0.112932 0.478416
0.733379 0.140291 0.488411
0.738155 0.142947 0.503136
0.0529335 0.185611 0.378698
0.0567941 0.158556 0.413336
0.477195 0.113664 0.465751
0.72607 0.137118 0.469032
0.731991 0.139818 0.484215
0.113603 0.507836 0.480552
0.112902 0.509529 0.482704
0.513664 0.518044 0.507301
0.949767 0.422934 0.510597
0.949859 0.421546 0.521523
0.228153 0.798169 0.568414
0.226032 0.796719 0.562905
0.209216 0.767849 0.407156
0.905425 0.848173 0.486992
0.928679 0.85742 0.510781
0.247059 0.814923 0.627588
0.241184 0.809995 0.610315
0.218723 0.772076 0.428077
0.876493 0.842435 0.479835
0.928527 0.85745 0.50837
0.081178 0.357458 0.723415
0.100496 0.339742 0.738033
0.495949 0.267124 0.881697
0.70399 0.188449 0.771801
0.70399 0.188479 0.771847
0.0779278 0.361135 0.716426
0.0796216 0.3552 0.720851
0.469245 0.26949 0.87834
0.704005 0.188296 0.771435
0.70399 0.188525 0.771939
0.117876 0.551339 0.734813
0.123323 0.553384 0.744564
0.337438 0.549142 0.933516
0.812772 0.285664 0.84361
0.817319 0.295552 0.853284
0.380102 0.887068 0.867231
0.385153 0.889204 0.870542
0.371542 0.877058 0.850431
0.901991 0.905409 0.899138
0.940154 0.900282 0.899702
0.362509 0.88867 0.88394
0.365515 0.889342 0.884138
0.399558 0.888518 0.856199
0.876692 0.930663 0.899184
0.943938 0.936889 0.904128
0.0816968 0.354299 0.724819
0.118608 0.338964 0.752377
0.507622 0.268193 0.884123
0.70399 0.188449 0.771801
0.70399 0.188479 0.771847
0.078996 0.361776 0.718563
0.081651 0.355764 0.724498
0.480385 0.274205 0.884337
0.704112 0.188434 0.771618
0.70399 0.188525 0.771939
0.150546 0.573892 0.78648
0.149111 0.570031 0.785611
0.320409 0.535134 0.92665
0.800855 0.280339 0.844541
0.808423 0.290227 0.852552
0.341955 0.877073 0.876432
0.338918 0.876875 0.87454
0.347967 0.872541 0.884031
0.863783 0.892851 0.933349
0.932937 0.885924 0.934218
0.339925 0.87805 0.874479
0.340246 0.878309 0.874907
0.348226 0.883131 0.879194
0.84213 0.932342 0.93109
0.941115 0.940734 0.940154
