bundles/resolve-cinematic-luts/Phantom Luts/Fx6 Phntm ARRI LUTs-G5/ATOMOS Monitoring LUTs/Utopia Fx6 AML.cube
TITLE "Generated by Resolve"
LUT_3D_SIZE 33
0.0556039 0.0793622 0.0868086
0.0555734 0.0793317 0.0867475
0.0587778 0.0793622 0.0863203
0.0695201 0.0805066 0.0869154
0.0835584 0.0810559 0.090135
0.10161 0.08159 0.0910811
0.121248 0.0822003 0.0928511
0.144198 0.0828717 0.0941634
0.17203 0.0834058 0.0957656
0.2047 0.0842756 0.097673
0.242329 0.0851911 0.10016
0.28751 0.0851606 0.103273
0.338384 0.0853437 0.110491
0.389807 0.0868238 0.121691
0.441825 0.0891737 0.133806
0.49398 0.0912184 0.147143
0.54081 0.0935378 0.162295
0.58497 0.0971084 0.181521
0.627527 0.103075 0.208026
0.669871 0.110307 0.240482
0.725155 0.123049 0.280232
0.757809 0.131441 0.309026
0.762951 0.13225 0.321218
0.76054 0.130617 0.327504
0.758587 0.12932 0.332494
0.756741 0.128298 0.336492
0.755215 0.127398 0.339971
0.754192 0.126635 0.342672
0.753429 0.125963 0.345098
0.753384 0.125261 0.346777
0.75375 0.124559 0.34847
0.755154 0.12369 0.350057
0.756725 0.122881 0.351507
0.0555734 0.0793469 0.0867628
0.0555886 0.0793622 0.0867781
0.0555734 0.0793317 0.0867475
0.0659953 0.0808118 0.0867323
0.0762646 0.0824598 0.0889754
0.0932937 0.0825055 0.0906691
0.112978 0.0823835 0.0909133
0.136721 0.0819715 0.0907454
0.165469 0.08159 0.0910964
0.200565 0.0813306 0.0919509
0.240787 0.0817884 0.0938582
0.286061 0.0824445 0.0966049
0.33431 0.0838331 0.100862
0.384375 0.0877394 0.110567
0.43711 0.0900435 0.123812
0.490791 0.0923781 0.13817
0.538735 0.0948501 0.153887
0.583642 0.0979477 0.1729
0.626566 0.103914 0.199527
0.669947 0.111147 0.232288
0.725872 0.124071 0.272953
0.759121 0.13283 0.302602
0.764858 0.133577 0.315099
0.762844 0.132158 0.321798
0.760754 0.130739 0.327245
0.758984 0.12961 0.331563
0.757656 0.128756 0.334844
0.756558 0.128008 0.337636
0.755764 0.127306 0.339971
0.755764 0.126574 0.342016
0.756298 0.125902 0.34345
0.757748 0.124987 0.345052
0.75906 0.124178 0.346288
0.0555734 0.0793469 0.0867628
0.0555886 0.0793622 0.0867781
0.0555734 0.0793317 0.0867475
0.0632181 0.0807813 0.086717
0.0703288 0.08365 0.0879988
0.0822003 0.0840009 0.0911116
0.103517 0.0840314 0.0918593
0.128695 0.0841077 0.0920119
0.159091 0.0833448 0.0915847
0.195926 0.0822003 0.0909743
0.237095 0.0813458 0.0908827
0.282307 0.0802167 0.0906081
0.3346 0.0802625 0.0928054
0.387732 0.0834058 0.100496
0.438346 0.0899519 0.114397
0.488563 0.0958114 0.129976
0.536416 0.0976272 0.146258
0.581827 0.0989853 0.16437
0.625544 0.104738 0.190448
0.669734 0.112169 0.223255
0.726406 0.125231 0.264714
0.760571 0.134218 0.295674
0.766613 0.135027 0.308766
0.764904 0.133562 0.315419
0.763165 0.132326 0.321202
0.76144 0.131136 0.325765
0.759991 0.13019 0.329625
0.758907 0.129381 0.332479
0.758267 0.12874 0.334646
0.758297 0.128069 0.336553
0.758694 0.127367 0.338216
0.760098 0.126421 0.33962
0.761624 0.125505 0.3411
0.0571756 0.089128 0.0920119
0.0576028 0.0879377 0.0903182
0.0630961 0.0858473 0.0886091
0.0651102 0.0851759 0.0883803
0.0690929 0.0858625 0.0898299
0.0760967 0.0869917 0.0906539
0.0938582 0.0857862 0.0924849
0.120592 0.0860609 0.0928664
0.152132 0.0857404 0.0923476
0.190372 0.0841535 0.0909438
0.234119 0.0825818 0.0901503
0.281376 0.0811933 0.0895399
0.333745 0.0801709 0.0887617
0.386572 0.0797436 0.0903639
0.440864 0.0840009 0.100801
0.491691 0.0941024 0.121294
0.536934 0.102586 0.140276
0.580697 0.102617 0.157397
0.624475 0.106157 0.181033
0.668833 0.113085 0.214038
0.726329 0.126284 0.256565
0.761761 0.135561 0.288563
0.767895 0.136049 0.301579
0.766705 0.135042 0.308919
0.76527 0.133776 0.314626
0.763851 0.132753 0.319646
0.762478 0.131777 0.323659
0.76144 0.130938 0.326665
0.760739 0.130205 0.329259
0.760784 0.129458 0.331273
0.76109 0.128801 0.332677
0.762402 0.127871 0.334142
0.764218 0.12694 0.33547
0.0578164 0.103105 0.0940871
0.0575113 0.100862 0.0931868
0.0627298 0.0968643 0.0906233
0.0662242 0.0941176 0.0907912
0.0720684 0.0950332 0.09131
0.0803082 0.0960403 0.0944686
0.0962081 0.0949416 0.0948196
0.122011 0.093431 0.0943923
0.151812 0.0926223 0.0932326
0.190509 0.0893416 0.0923323
0.231067 0.0855879 0.0908064
0.280369 0.0833143 0.089128
0.334051 0.0818189 0.087541
0.387427 0.0809186 0.0874647
0.440497 0.0815442 0.090959
0.493416 0.0878309 0.106691
0.539773 0.100847 0.131701
0.579782 0.106615 0.150546
0.622583 0.107851 0.172274
0.665553 0.113497 0.203662
0.72401 0.126848 0.24654
0.762432 0.136843 0.28072
0.769345 0.13753 0.294316
0.768048 0.13608 0.30164
0.766964 0.135195 0.307881
0.765774 0.134234 0.313146
0.764691 0.133272 0.317266
0.763897 0.132555 0.320409
0.763165 0.131777 0.323308
0.763333 0.131014 0.325109
0.763882 0.130266 0.326848
0.765301 0.12929 0.328389
0.766659 0.12845 0.329595
0.0563058 0.122011 0.0917983
0.0557565 0.119646 0.0902571
0.0594034 0.115953 0.0891127
0.0654002 0.110857 0.0907607
0.0715343 0.109133 0.0923781
0.0824598 0.111055 0.0907759
0.101518 0.110307 0.0931411
0.125673 0.105913 0.0972457
0.153475 0.102907 0.0962081
0.192844 0.101274 0.0947738
0.238117 0.0983139 0.0933547
0.284382 0.0908217 0.0905776
0.3346 0.0862135 0.0884718
0.388235 0.0850996 0.0884718
0.442344 0.0848554 0.0905776
0.493507 0.0860456 0.0966812
0.541207 0.0946822 0.117708
0.582834 0.107164 0.143648
0.621195 0.10901 0.163989
0.66215 0.113817 0.193332
0.72076 0.126711 0.235782
0.760952 0.137255 0.271443
0.770031 0.138643 0.28629
0.769741 0.137484 0.294392
0.768688 0.136202 0.300755
0.767666 0.135409 0.30602
0.766918 0.134737 0.310552
0.766094 0.13402 0.313802
0.765576 0.133272 0.316625
0.765728 0.132601 0.318669
0.766094 0.131945 0.320516
0.767727 0.130938 0.322194
0.769528 0.129931 0.323583
0.0547494 0.14432 0.0885634
0.0536202 0.141878 0.0852064
0.0561074 0.139193 0.0834211
0.0627756 0.133989 0.0836652
0.0700999 0.13022 0.0880598
0.082002 0.130434 0.0900893
0.104158 0.132342 0.0877852
0.130617 0.130053 0.0965591
0.158526 0.123949 0.098085
0.191455 0.116747 0.0979477
0.240558 0.110704 0.096376
0.28893 0.10695 0.0939345
0.348791 0.100175 0.0923018
0.39147 0.0918593 0.0905165
0.443931 0.0898604 0.0920119
0.495995 0.0904707 0.0969406
0.541894 0.092546 0.106432
0.584924 0.100954 0.129015
0.621897 0.112612 0.155047
0.661128 0.116381 0.182528
0.716945 0.127153 0.222599
0.758465 0.13753 0.258885
0.768704 0.139178 0.274617
0.770779 0.138888 0.284276
0.770825 0.137987 0.291508
0.770047 0.136934 0.296895
0.769192 0.136034 0.301366
0.768505 0.135439 0.304738
0.768185 0.134997 0.307683
0.76817 0.134508 0.310048
0.76846 0.134005 0.31191
0.769406 0.133242 0.313375
0.770535 0.132509 0.31458
0.052842 0.171176 0.0854658
0.052842 0.168963 0.0808881
0.0528725 0.167254 0.0782177
0.0595712 0.164309 0.0762493
0.0676432 0.159442 0.0788586
0.0793164 0.157168 0.0853285
0.101152 0.155703 0.0880598
0.130983 0.157168 0.0884413
0.163546 0.15349 0.0971389
0.198474 0.146029 0.0985733
0.24126 0.132677 0.100298
0.292714 0.125048 0.0994125
0.350637 0.12137 0.0984207
0.406744 0.11603 0.0971389
0.454353 0.104128 0.096788
0.499626 0.0986496 0.0995499
0.545098 0.0979324 0.106294
0.587442 0.099794 0.117845
0.624582 0.105684 0.138598
0.657176 0.114885 0.164904
0.709102 0.127031 0.204089
0.753124 0.137667 0.241154
0.765362 0.140215 0.257969
0.767773 0.139727 0.267369
0.770016 0.139269 0.275883
0.77145 0.139071 0.283101
0.771695 0.138491 0.288243
0.771359 0.13785 0.291966
0.770932 0.137255 0.295048
0.770947 0.136736 0.297261
0.771282 0.136217 0.298985
0.772229 0.135531 0.300374
0.773266 0.13489 0.301717
0.0529793 0.20502 0.0848554
0.0529793 0.202441 0.079118
0.0527962 0.201175 0.0713664
0.0536202 0.199695 0.0676585
0.064332 0.195361 0.0696422
0.0747234 0.191211 0.0757305
0.0966049 0.188861 0.0850843
0.125521 0.186038 0.0879377
0.162005 0.186725 0.0898299
0.204135 0.18201 0.0975204
0.244541 0.173266 0.0989853
0.301274 0.15172 0.104158
0.349294 0.145556 0.104524
0.412299 0.142092 0.106432
0.466545 0.138155 0.106844
0.520974 0.128817 0.108446
0.553155 0.112184 0.11133
0.592462 0.107591 0.118166
0.630762 0.108064 0.13138
0.660594 0.109346 0.148135
0.696162 0.12311 0.179629
0.74374 0.137652 0.217853
0.758129 0.140688 0.234958
0.761944 0.140841 0.244846
0.764889 0.140642 0.253513
0.766674 0.140246 0.260609
0.768429 0.140063 0.266575
0.769833 0.139879 0.271672
0.770809 0.139757 0.275319
0.771649 0.139406 0.278309
0.772793 0.139315 0.280629
0.774273 0.13875 0.282475
0.775723 0.138094 0.283787
0.0530251 0.245853 0.0886549
0.0528725 0.243046 0.0810407
0.0528573 0.240986 0.0710613
0.0528267 0.239796 0.0635233
0.0579843 0.238239 0.0609445
0.0701305 0.234485 0.0643931
0.0886397 0.230182 0.0726177
0.118959 0.227527 0.0839094
0.155489 0.222522 0.0895857
0.200122 0.222644 0.0915999
0.251148 0.216907 0.0987716
0.297032 0.207767 0.100496
0.362631 0.181415 0.110109
0.407736 0.17319 0.112627
0.473655 0.170779 0.117723
0.529534 0.168521 0.12166
0.58497 0.164172 0.128954
0.61709 0.142977 0.131868
0.640131 0.120684 0.131853
0.670497 0.115114 0.14406
0.692576 0.115282 0.162036
0.733089 0.134508 0.193957
0.745846 0.139864 0.207294
0.750317 0.140246 0.215488
0.754223 0.140749 0.223362
0.757488 0.140978 0.230686
0.759869 0.141161 0.236912
0.761761 0.141253 0.241733
0.763165 0.141146 0.245319
0.764523 0.141024 0.248753
0.765728 0.140749 0.251148
0.767452 0.140307 0.252522
0.769329 0.139727 0.253941
0.0529183 0.293309 0.0957809
0.0528878 0.290776 0.0885634
0.052842 0.288533 0.0791485
0.0529183 0.286564 0.0656138
0.0528725 0.284718 0.0556954
0.0613718 0.283558 0.0544137
0.0803082 0.279866 0.0603647
0.108248 0.27512 0.0711223
0.14435 0.271458 0.0855421
0.192081 0.264179 0.094667
0.245502 0.264271 0.0941329
0.305821 0.25835 0.101595
0.355108 0.249516 0.104128
0.421744 0.222385 0.117815
0.46836 0.212573 0.123491
0.534585 0.208774 0.13373
0.5935 0.208194 0.143664
0.645792 0.205463 0.151888
0.683787 0.185214 0.154208
0.700923 0.148363 0.151553
0.709621 0.124346 0.157641
0.731289 0.130709 0.182071
0.741405 0.137987 0.193668
0.743099 0.140139 0.196384
0.743008 0.140215 0.197299
0.743435 0.140032 0.198886
0.744045 0.140017 0.201099
0.745922 0.139971 0.204746
0.747951 0.13994 0.208347
0.749813 0.140185 0.210971
0.751522 0.140215 0.213062
0.753475 0.139986 0.21474
0.755352 0.139666 0.215793
0.0528725 0.347738 0.105623
0.0530098 0.346471 0.0988937
0.052903 0.344915 0.093019
0.0528878 0.342046 0.081178
0.0530404 0.340169 0.0663462
0.052842 0.337881 0.052842
0.0672007 0.336919 0.0530404
0.0965286 0.331914 0.0576028
0.13225 0.327276 0.0712139
0.177707 0.322179 0.0912337
0.236561 0.312535 0.102892
0.298741 0.313588 0.0983597
0.366445 0.306844 0.106767
0.416114 0.300862 0.109834
0.481483 0.273487 0.128527
0.531929 0.265003 0.139193
0.593423 0.25452 0.151965
0.65742 0.256001 0.166949
0.708247 0.253162 0.175845
0.757473 0.236683 0.182055
0.7729 0.19411 0.178088
0.766751 0.145434 0.171771
0.751308 0.127794 0.176196
0.744854 0.129503 0.182452
0.743786 0.131029 0.184695
0.74374 0.131807 0.185977
0.743435 0.132235 0.186694
0.743023 0.132616 0.187198
0.742641 0.132967 0.187701
0.742626 0.133181 0.188006
0.742962 0.133318 0.188342
0.743801 0.133181 0.188418
0.745083 0.132982 0.188418
0.0528267 0.406867 0.120211
0.0529793 0.405371 0.113664
0.0529793 0.404318 0.108019
0.0528573 0.403006 0.101228
0.052842 0.400412 0.0892958
0.0530251 0.398474 0.0744488
0.0544137 0.395621 0.0528725
0.080293 0.393591 0.0530098
0.116838 0.387808 0.0572519
0.163592 0.383017 0.0764782
0.220951 0.376303 0.103914
0.289204 0.365423 0.115175
0.360159 0.367971 0.104128
0.43032 0.362173 0.115892
0.47924 0.358709 0.120836
0.542306 0.336339 0.141161
0.59997 0.325429 0.158068
0.652873 0.317082 0.172183
0.71989 0.309346 0.190967
0.775891 0.306249 0.202045
0.817655 0.291859 0.207874
0.836042 0.250523 0.203433
0.828153 0.203983 0.193057
0.813458 0.177661 0.183825
0.799954 0.158297 0.176699
0.789685 0.147509 0.174762
0.78172 0.141253 0.174884
0.774716 0.136355 0.174456
0.769146 0.133745 0.174762
0.764324 0.131579 0.174777
0.760647 0.130327 0.175586
0.758709 0.129 0.175326
0.758801 0.128817 0.176211
0.0528725 0.468986 0.140826
0.0528115 0.467842 0.13492
0.0527962 0.46656 0.128679
0.0529488 0.465675 0.124086
0.0529946 0.46421 0.116655
0.0528878 0.462074 0.10486
0.0528878 0.460014 0.0865492
0.0615244 0.456367 0.0567483
0.0997635 0.452628 0.052903
0.143908 0.445594 0.0630808
0.205264 0.440314 0.0901198
0.273823 0.431205 0.124849
0.349981 0.419394 0.129946
0.424842 0.424979 0.113252
0.495628 0.419699 0.131151
0.543542 0.418067 0.137667
0.60293 0.401923 0.155093
0.666758 0.388357 0.180819
0.712474 0.383444 0.193515
0.778561 0.363134 0.214206
0.834592 0.358312 0.227329
0.865782 0.34612 0.230121
0.884138 0.325078 0.231296
0.88249 0.307836 0.227619
0.876097 0.291905 0.22269
0.869703 0.277882 0.217975
0.86392 0.265766 0.213626
0.859022 0.255802 0.209964
0.855009 0.248066 0.207202
0.852018 0.241947 0.20499
0.849287 0.237232 0.203067
0.848295 0.233738 0.201678
0.848325 0.230747 0.20032
0.0528878 0.534188 0.171145
0.0528878 0.53312 0.164965
0.0534218 0.531991 0.158465
0.0538033 0.531319 0.153414
0.0537575 0.530541 0.14873
0.0542153 0.529274 0.141146
0.0559243 0.526711 0.126436
0.0608988 0.523827 0.101503
0.0731975 0.51957 0.0656291
0.126329 0.513893 0.0564431
0.183429 0.50605 0.0781872
0.259953 0.498482 0.115007
0.339315 0.487327 0.152911
0.416281 0.475746 0.149722
0.489662 0.482338 0.130282
0.560372 0.478676 0.150652
0.607202 0.478355 0.16054
0.661433 0.468925 0.176104
0.729793 0.451759 0.204623
0.771847 0.447623 0.215854
0.827436 0.433829 0.233326
0.876158 0.41265 0.248386
0.900786 0.399039 0.251667
0.902937 0.390555 0.249592
0.901091 0.383078 0.24683
0.89926 0.376761 0.244602
0.8981 0.371664 0.243198
0.896559 0.366918 0.24155
0.896239 0.363622 0.24094
0.895552 0.360571 0.240131
0.894789 0.358282 0.239353
0.894942 0.356573 0.238666
0.895949 0.355627 0.238209
0.0677348 0.599237 0.213016
0.0678416 0.598444 0.20763
0.0682689 0.597452 0.201541
0.068513 0.59649 0.195468
0.0684672 0.595789 0.190631
0.0684977 0.595361 0.186618
0.0688487 0.594003 0.177691
0.0712291 0.59118 0.158373
0.0782635 0.587457 0.125399
0.0968032 0.581704 0.0803235
0.165606 0.57496 0.0750134
0.239384 0.566293 0.106401
0.327306 0.556008 0.149157
0.410864 0.543008 0.180301
0.483177 0.532723 0.171954
0.554513 0.54049 0.155138
0.622965 0.537682 0.178058
0.669123 0.537987 0.189593
0.719783 0.533501 0.201099
0.786099 0.513619 0.229709
0.827558 0.509712 0.241688
0.867567 0.50193 0.251286
0.905043 0.486717 0.264942
0.914321 0.473533 0.267308
0.914214 0.464347 0.266667
0.913359 0.456672 0.265934
0.912154 0.449882 0.264637
0.911742 0.44477 0.264271
0.910948 0.440284 0.263584
0.91075 0.437415 0.26334
0.91046 0.434745 0.262974
0.910323 0.433005 0.262226
0.910491 0.432181 0.261311
0.0888838 0.663691 0.262165
0.0889601 0.663111 0.257389
0.0891432 0.662547 0.251926
0.0892042 0.661738 0.246387
0.0893568 0.66096 0.240589
0.0893416 0.660258 0.235904
0.089128 0.659434 0.230503
0.0895705 0.657923 0.219486
0.0935683 0.654963 0.194003
0.103349 0.65069 0.152132
0.12961 0.642634 0.0971695
0.223209 0.633494 0.106554
0.310918 0.624262 0.143435
0.405524 0.610971 0.190295
0.482261 0.598337 0.208881
0.551003 0.590387 0.196216
0.617502 0.59762 0.186404
0.683635 0.595315 0.210468
0.728695 0.596078 0.223133
0.776547 0.593072 0.23389
0.829557 0.575525 0.253391
0.874647 0.570245 0.269459
0.897429 0.56878 0.27126
0.912306 0.562554 0.274723
0.91487 0.556619 0.274891
0.914794 0.551507 0.274098
0.914839 0.547494 0.273686
0.91519 0.543999 0.273686
0.91487 0.54107 0.273213
0.914794 0.538766 0.272892
0.915053 0.537316 0.272953
0.915282 0.536324 0.272633
0.915541 0.535698 0.272023
0.114504 0.727153 0.315145
0.114519 0.726696 0.310369
0.114137 0.726085 0.305867
0.114046 0.725399 0.300954
0.114061 0.724727 0.295537
0.114366 0.724208 0.289937
0.114565 0.723735 0.284733
0.114015 0.722637 0.277638
0.114504 0.720836 0.263188
0.120439 0.717174 0.23061
0.133669 0.711803 0.178637
0.176028 0.701549 0.120897
0.294713 0.689662 0.146227
0.394675 0.67921 0.189136
0.482567 0.664775 0.233524
0.551614 0.652918 0.238666
0.616007 0.647089 0.226795
0.677882 0.654444 0.221485
0.741634 0.651438 0.247623
0.785183 0.652369 0.261433
0.825147 0.650401 0.270283
0.866026 0.639948 0.279744
0.902663 0.633295 0.292973
0.916335 0.633005 0.292332
0.917388 0.629618 0.290791
0.916808 0.625895 0.289128
0.916625 0.622919 0.288411
0.916182 0.620401 0.287541
0.915846 0.618326 0.28687
0.915694 0.616907 0.286564
0.915587 0.615656 0.286336
0.91548 0.614755 0.285924
0.915389 0.614176 0.285283
0.145068 0.789242 0.36408
0.144701 0.788846 0.360525
0.144366 0.788632 0.357107
0.144015 0.788159 0.353323
0.143771 0.787686 0.348455
0.143572 0.787121 0.344015
0.143557 0.786435 0.337865
0.143389 0.785504 0.330327
0.142535 0.784283 0.322316
0.143496 0.781888 0.303975
0.151049 0.777249 0.262821
0.172137 0.769467 0.201892
0.245045 0.757733 0.154467
0.382834 0.743587 0.195956
0.477089 0.732174 0.238361
0.553689 0.718334 0.271061
0.616388 0.707134 0.272084
0.676783 0.70251 0.262638
0.735653 0.711788 0.259754
0.796063 0.705425 0.285725
0.834287 0.706737 0.300587
0.866529 0.70544 0.30724
0.8963 0.699428 0.310399
0.918944 0.696391 0.317571
0.921492 0.694759 0.31809
0.921111 0.692409 0.316823
0.920821 0.689738 0.31548
0.920607 0.687449 0.314519
0.920607 0.685878 0.314015
0.920378 0.684565 0.31342
0.920409 0.68368 0.313146
0.920302 0.682918 0.312718
0.920211 0.682353 0.312337
0.179644 0.847059 0.407156
0.179156 0.846754 0.40412
0.178256 0.846326 0.401129
0.178042 0.846265 0.397635
0.177661 0.846021 0.394507
0.177279 0.845609 0.390707
0.176944 0.845014 0.385443
0.176699 0.844099 0.378058
0.17586 0.842741 0.369665
0.174578 0.841398 0.36054
0.176287 0.838514 0.337087
0.186618 0.833249 0.288167
0.218967 0.822034 0.218112
0.331624 0.808865 0.199634
0.469444 0.794614 0.249058
0.552468 0.782773 0.287373
0.618097 0.770092 0.308156
0.676844 0.758755 0.308385
0.734005 0.7561 0.300923
0.790661 0.767117 0.299519
0.846281 0.759869 0.32639
0.878676 0.761654 0.341894
0.903426 0.761242 0.346502
0.923049 0.757412 0.346777
0.929549 0.749706 0.348821
0.929808 0.746242 0.347539
0.929122 0.743694 0.345983
0.928725 0.741894 0.344869
0.928634 0.740764 0.344381
0.928649 0.740017 0.344045
0.928466 0.739361 0.343618
0.928328 0.738842 0.343328
0.928252 0.738476 0.343145
0.214511 0.896391 0.445548
0.213825 0.896147 0.442283
0.21265 0.895857 0.439689
0.21181 0.895613 0.436484
0.2112 0.895369 0.433555
0.211109 0.895186 0.430991
0.210986 0.89482 0.426535
0.210681 0.894133 0.420829
0.210132 0.892943 0.41236
0.208789 0.891081 0.402914
0.207263 0.889082 0.390921
0.210544 0.885985 0.361532
0.226307 0.878553 0.305531
0.278492 0.867109 0.24152
0.432914 0.850385 0.254948
0.547021 0.837446 0.300252
0.619928 0.824811 0.333562
0.676417 0.81355 0.344747
0.732921 0.803067 0.343969
0.788968 0.803616 0.338262
0.841047 0.81474 0.341787
0.888792 0.808713 0.366964
0.915709 0.81001 0.380056
0.93402 0.810483 0.385275
0.944381 0.80766 0.38854
0.944411 0.804501 0.387274
0.944015 0.802441 0.385855
0.943786 0.801251 0.384741
0.943435 0.799893 0.38378
0.94316 0.798795 0.383001
0.942946 0.798001 0.382498
0.942901 0.797421 0.382315
0.942855 0.797024 0.382162
0.254124 0.936217 0.481147
0.252979 0.936172 0.478355
0.251423 0.935805 0.47599
0.250095 0.935607 0.473014
0.248798 0.935271 0.470161
0.247669 0.934813 0.46746
0.246586 0.934173 0.463645
0.24509 0.93344 0.458717
0.244068 0.932418 0.45127
0.243137 0.930846 0.441276
0.241489 0.929213 0.430259
0.24004 0.926772 0.414923
0.246174 0.922454 0.377569
0.276387 0.913909 0.319997
0.346868 0.900999 0.267796
0.527169 0.883497 0.311299
0.615045 0.871214 0.347982
0.679789 0.858976 0.373312
0.730861 0.84947 0.380087
0.786755 0.840543 0.378866
0.840284 0.847562 0.375143
0.884245 0.855451 0.384634
0.924086 0.850752 0.404883
0.944595 0.850858 0.414359
0.949767 0.851698 0.420569
0.949767 0.850248 0.423011
0.949767 0.848692 0.422248
0.949874 0.847486 0.421363
0.949996 0.84654 0.420752
0.94995 0.845792 0.419928
0.949844 0.845243 0.419242
0.949828 0.844877 0.418982
0.949828 0.844633 0.418921
0.284474 0.949844 0.508324
0.28368 0.949844 0.505943
0.282353 0.949813 0.503731
0.2813 0.949828 0.500999
0.280217 0.949767 0.498848
0.279744 0.949752 0.496391
0.278843 0.949752 0.492973
0.277333 0.949737 0.488991
0.275669 0.949813 0.482902
0.273991 0.949828 0.474601
0.271901 0.949599 0.462745
0.26865 0.949172 0.449088
0.268635 0.948608 0.430365
0.28925 0.946807 0.391394
0.334127 0.939483 0.339803
0.440497 0.92491 0.316335
0.60296 0.908125 0.362234
0.675685 0.896483 0.392905
0.732906 0.8851 0.408362
0.781476 0.87686 0.413672
0.838422 0.87277 0.412039
0.883009 0.883085 0.411383
0.918288 0.885649 0.424384
0.948379 0.881971 0.438529
0.94995 0.883833 0.444648
0.949966 0.883589 0.45069
0.949966 0.882399 0.450355
0.949859 0.881422 0.449409
0.949798 0.880613 0.448478
0.949798 0.879988 0.447715
0.949798 0.879499 0.447333
0.949798 0.879225 0.44715
0.949783 0.879011 0.447074
0.28838 0.949874 0.51931
0.287861 0.949859 0.516426
0.286717 0.949859 0.513634
0.285649 0.949844 0.510826
0.284749 0.949844 0.507973
0.28394 0.949844 0.505486
0.282979 0.949828 0.502129
0.281697 0.949813 0.497719
0.280446 0.949783 0.491844
0.278126 0.949737 0.483818
0.275502 0.949935 0.472511
0.272618 0.949722 0.457771
0.269398 0.949355 0.440665
0.282658 0.948867 0.409201
0.328573 0.94789 0.369757
0.405249 0.944335 0.346303
0.553567 0.933577 0.372137
0.668025 0.919829 0.411261
0.729961 0.91104 0.437903
0.782116 0.902846 0.450523
0.829877 0.895186 0.453285
0.883986 0.897871 0.449409
0.920256 0.908202 0.449134
0.94519 0.904082 0.458686
0.949813 0.9066 0.470481
0.949828 0.907042 0.478187
0.949828 0.906065 0.47805
0.949828 0.90544 0.47628
0.949813 0.905119 0.475074
0.949813 0.904707 0.473915
0.949813 0.904356 0.473014
0.949813 0.904067 0.472496
0.949813 0.903868 0.472267
0.287663 0.949874 0.526711
0.287572 0.949874 0.523766
0.286885 0.949874 0.521263
0.286275 0.949859 0.518273
0.285496 0.949859 0.515297
0.284977 0.949859 0.512337
0.284459 0.949844 0.508537
0.283467 0.949828 0.504005
0.281773 0.949813 0.498054
0.280034 0.949737 0.490532
0.276921 0.949813 0.479179
0.274006 0.949874 0.464393
0.271214 0.949493 0.446372
0.276188 0.948974 0.418128
0.319814 0.948318 0.378439
0.38941 0.9458 0.348486
0.525826 0.937148 0.366522
0.657038 0.922133 0.407446
0.722713 0.913237 0.436805
0.776104 0.905364 0.452033
0.824353 0.898528 0.460151
0.875731 0.899184 0.461952
0.915175 0.910002 0.464515
0.940063 0.908934 0.472511
0.949767 0.912154 0.481727
0.949798 0.915862 0.497795
0.949828 0.917021 0.511604
0.949844 0.916976 0.510948
0.949828 0.916884 0.509407
0.949844 0.916854 0.508354
0.949828 0.916854 0.508125
0.949828 0.916869 0.508141
0.949828 0.916854 0.508141
0.286259 0.949889 0.53341
0.286519 0.949889 0.530617
0.286534 0.949889 0.527443
0.286305 0.949874 0.524514
0.285725 0.949874 0.52195
0.28542 0.949859 0.518761
0.285039 0.949859 0.514702
0.284581 0.949844 0.509514
0.283299 0.949828 0.503273
0.281056 0.949813 0.495384
0.278386 0.949737 0.484794
0.275303 0.949935 0.469764
0.27306 0.94963 0.450965
0.274113 0.949142 0.426108
0.311742 0.948669 0.385809
0.376547 0.946517 0.349599
0.503655 0.938521 0.361089
0.647135 0.923598 0.40354
0.716442 0.914061 0.434806
0.770382 0.906294 0.450645
0.819257 0.899214 0.459663
0.869154 0.898482 0.462165
0.910735 0.90898 0.463004
0.938582 0.910811 0.469841
0.949905 0.911528 0.478279
0.949798 0.915251 0.491188
0.949844 0.917128 0.511116
0.949889 0.917296 0.512886
0.949889 0.917311 0.512825
0.949874 0.91725 0.511955
0.949859 0.917189 0.511009
0.949844 0.917113 0.510185
0.949844 0.917052 0.50956
0.285054 0.949905 0.538918
0.285405 0.949905 0.535943
0.285725 0.949889 0.53315
0.285924 0.949889 0.530129
0.285817 0.949874 0.527001
0.285634 0.949874 0.523827
0.285328 0.949859 0.520073
0.285008 0.949859 0.514519
0.284321 0.949844 0.507576
0.282307 0.949828 0.499489
0.279713 0.949737 0.489494
0.276249 0.94992 0.474907
0.274052 0.949783 0.45539
0.273365 0.949233 0.432471
0.305699 0.948852 0.391501
0.366003 0.947005 0.350759
0.486671 0.939666 0.357519
0.637964 0.924819 0.399817
0.711177 0.915053 0.432914
0.765896 0.907027 0.4495
0.814878 0.899779 0.459037
0.863996 0.898238 0.462287
0.907256 0.907774 0.461982
0.937285 0.912459 0.468101
