bundles/resolve-cinematic-luts/Phantom Luts/Fx6 Phntm ARRI LUTs-G5/ATOMOS Monitoring LUTs/Utopia Fx6 AML.cube
TITLE "Generated by Resolve"
LUT_3D_SIZE 9
0.0556039 0.0793622 0.0868086
0.0835584 0.0810559 0.090135
0.17203 0.0834058 0.0957656
0.338384 0.0853437 0.110491
0.54081 0.0935378 0.162295
0.725155 0.123049 0.280232
0.758587 0.12932 0.332494
0.753429 0.125963 0.345098
0.756725 0.122881 0.351507
0.0578164 0.103105 0.0940871
0.0720684 0.0950332 0.09131
0.151812 0.0926223 0.0932326
0.334051 0.0818189 0.087541
0.539773 0.100847 0.131701
0.72401 0.126848 0.24654
0.766964 0.135195 0.307881
0.763165 0.131777 0.323308
0.766659 0.12845 0.329595
0.0529793 0.20502 0.0848554
0.064332 0.195361 0.0696422
0.162005 0.186725 0.0898299
0.349294 0.145556 0.104524
0.553155 0.112184 0.11133
0.696162 0.12311 0.179629
0.764889 0.140642 0.253513
0.770809 0.139757 0.275319
0.775723 0.138094 0.283787
0.0528267 0.406867 0.120211
0.052842 0.400412 0.0892958
0.116838 0.387808 0.0572519
0.360159 0.367971 0.104128
0.59997 0.325429 0.158068
0.817655 0.291859 0.207874
0.799954 0.158297 0.176699
0.769146 0.133745 0.174762
0.758801 0.128817 0.176211
0.0888838 0.663691 0.262165
0.0893568 0.66096 0.240589
0.0935683 0.654963 0.194003
0.310918 0.624262 0.143435
0.617502 0.59762 0.186404
0.829557 0.575525 0.253391
0.91487 0.556619 0.274891
0.91487 0.54107 0.273213
0.915541 0.535698 0.272023
0.214511 0.896391 0.445548
0.2112 0.895369 0.433555
0.210132 0.892943 0.41236
0.226307 0.878553 0.305531
0.619928 0.824811 0.333562
0.841047 0.81474 0.341787
0.944381 0.80766 0.38854
0.943435 0.799893 0.38378
0.942855 0.797024 0.382162
0.287663 0.949874 0.526711
0.285496 0.949859 0.515297
0.281773 0.949813 0.498054
0.271214 0.949493 0.446372
0.525826 0.937148 0.366522
0.824353 0.898528 0.460151
0.949767 0.912154 0.481727
0.949828 0.916884 0.509407
0.949828 0.916854 0.508141
0.285176 0.94992 0.54667
0.287083 0.949905 0.534859
0.287404 0.949859 0.514824
0.278202 0.949859 0.462165
0.46511 0.94052 0.352789
0.810208 0.900282 0.458228
0.948928 0.909178 0.472465
0.949844 0.917006 0.511986
0.949905 0.917342 0.513024
0.283009 0.949935 0.55465
0.284779 0.94992 0.542382
0.286763 0.949874 0.522255
0.278813 0.949874 0.467964
0.456184 0.941253 0.351797
0.805707 0.900771 0.457328
0.94725 0.908202 0.471534
0.949828 0.917067 0.511269
0.949905 0.917388 0.512245
0.0529793 0.0821393 0.0978408
0.075227 0.0820325 0.109834
0.162417 0.0825818 0.12842
0.338781 0.0830091 0.154086
0.54197 0.0910506 0.197406
0.718791 0.117357 0.304936
0.753765 0.123537 0.352209
0.748501 0.120958 0.36289
0.749859 0.118471 0.368109
0.0573434 0.0935683 0.101946
0.065507 0.088716 0.0970626
0.15227 0.0844739 0.096437
0.326329 0.0854047 0.10901
0.53695 0.0943923 0.162051
0.723018 0.121218 0.277317
0.762219 0.128374 0.332357
0.757473 0.125017 0.345159
0.758801 0.12256 0.351019
0.0529183 0.196902 0.131579
0.0528878 0.188663 0.088716
0.153796 0.178256 0.0909438
0.359808 0.132311 0.102068
0.541482 0.0955367 0.105379
0.712123 0.125826 0.216922
0.772717 0.137789 0.289357
0.77026 0.134798 0.30573
0.772427 0.132647 0.312612
0.0529335 0.4056 0.159182
0.052903 0.397589 0.121645
0.0704814 0.385153 0.0530404
0.354131 0.362921 0.104387
0.59646 0.314427 0.155871
0.818235 0.275563 0.205035
0.783597 0.142641 0.174685
0.75169 0.129671 0.179461
0.750927 0.132082 0.182422
0.0843214 0.662303 0.288853
0.0860456 0.659175 0.262348
0.0876783 0.654002 0.225391
0.284001 0.625208 0.130648
0.614572 0.595117 0.186007
0.833661 0.57026 0.254871
0.914763 0.549218 0.273823
0.915221 0.532967 0.272572
0.915618 0.526894 0.271168
0.211704 0.893797 0.457938
0.209796 0.894148 0.444877
0.208591 0.891707 0.424735
0.215137 0.879881 0.333257
0.611337 0.82504 0.329015
0.839292 0.813291 0.341161
0.943511 0.804303 0.386023
0.942275 0.796048 0.381216
0.941405 0.793393 0.379156
0.286824 0.949905 0.538979
0.285893 0.949889 0.527428
0.284443 0.949844 0.508568
0.274693 0.949798 0.456611
0.502037 0.938735 0.360784
0.821027 0.898878 0.459678
0.949783 0.912077 0.483345
0.949844 0.917098 0.511131
0.949844 0.916854 0.508202
0.283803 0.949935 0.558373
0.286259 0.94992 0.547356
0.28777 0.949889 0.527352
0.27985 0.949737 0.473655
0.444694 0.942153 0.350362
0.806226 0.900725 0.457496
0.94818 0.908782 0.475181
0.949859 0.917113 0.513115
0.94992 0.917433 0.514183
0.282506 0.949905 0.566049
0.284382 0.949935 0.555276
0.286595 0.949905 0.534798
0.280827 0.949767 0.479377
0.435828 0.943069 0.350561
0.801419 0.901305 0.456596
0.945998 0.908156 0.47425
0.949859 0.917174 0.512413
0.94992 0.917479 0.513527
0.0529641 0.0948501 0.156664
0.0725567 0.0888075 0.176883
0.155962 0.0841535 0.189364
0.329656 0.0847486 0.202243
0.532586 0.0864576 0.249851
0.705364 0.110643 0.336263
0.7411 0.117708 0.374517
0.737362 0.115938 0.381018
0.739879 0.114336 0.384329
0.0529183 0.0983139 0.134279
0.0528115 0.0921035 0.153567
0.138994 0.0846723 0.174121
0.319661 0.0823682 0.176944
0.535836 0.0888991 0.219852
0.709987 0.113603 0.315877
0.749065 0.121584 0.361105
0.743999 0.118776 0.370581
0.745357 0.116579 0.375204
0.0529488 0.183093 0.182467
0.0529946 0.176089 0.176257
0.142123 0.171786 0.17969
0.36231 0.143313 0.157855
0.538079 0.100862 0.163561
0.715953 0.120424 0.270573
0.762478 0.12932 0.330297
0.757153 0.126207 0.342428
0.758175 0.123888 0.347921
0.0527504 0.395224 0.226078
0.0529183 0.393225 0.197498
0.0530404 0.384573 0.122789
0.352102 0.360433 0.127611
0.611536 0.289784 0.167895
0.80383 0.229557 0.194049
0.754528 0.128679 0.178424
0.748562 0.141207 0.195315
0.753536 0.139513 0.201602
0.075227 0.654521 0.335988
0.0770275 0.654658 0.310201
0.0828565 0.650599 0.259007
0.216266 0.625452 0.105898
0.610056 0.590661 0.185809
0.839124 0.560739 0.256413
0.915175 0.536263 0.272892
0.915633 0.517937 0.271443
0.916243 0.511421 0.270054
0.205554 0.887999 0.481804
0.204791 0.888914 0.467765
0.20589 0.88925 0.443351
0.203952 0.879164 0.373999
0.594003 0.82594 0.32137
0.836255 0.810178 0.339727
0.942321 0.799069 0.382528
0.940719 0.790356 0.376822
0.939529 0.787152 0.374517
0.285466 0.94992 0.557824
0.284199 0.94992 0.547448
0.285481 0.949889 0.528405
0.278401 0.949783 0.475563
0.462715 0.940856 0.352819
0.814435 0.900511 0.462821
0.949783 0.911879 0.486427
0.949874 0.91722 0.513115
0.949844 0.916472 0.508705
0.282994 0.949569 0.576852
0.283162 0.949844 0.566781
0.286305 0.94992 0.548119
0.283619 0.949813 0.492073
0.408713 0.944839 0.349676
0.798352 0.902419 0.458579
0.946395 0.90837 0.480537
0.949889 0.91725 0.515358
0.94995 0.917586 0.516411
0.281666 0.949477 0.584558
0.28217 0.949706 0.574197
0.285237 0.949935 0.555673
0.285008 0.949813 0.498268
0.396857 0.945739 0.351141
0.793378 0.902953 0.456809
0.943099 0.909026 0.479164
0.949905 0.917327 0.514794
0.949966 0.917662 0.515831
0.0528725 0.117754 0.300191
0.054078 0.103365 0.321706
0.144167 0.0971847 0.338277
0.324117 0.0898146 0.345235
0.531563 0.10042 0.351827
0.693538 0.107652 0.390631
0.728878 0.115145 0.417548
0.728771 0.115434 0.425132
0.731823 0.114549 0.430045
0.052903 0.130694 0.266468
0.0528725 0.116243 0.294408
0.107195 0.0995956 0.331609
0.313909 0.0894179 0.33518
0.525979 0.0979934 0.335775
0.68893 0.105837 0.3776
0.729763 0.11487 0.408362
0.729366 0.114977 0.415778
0.732174 0.113939 0.420203
0.0528725 0.185519 0.258213
0.0529641 0.175784 0.264225
0.0529488 0.150652 0.321294
0.303838 0.0971847 0.32282
0.519997 0.0961624 0.307515
0.68423 0.104356 0.355444
0.73167 0.114961 0.391485
0.730205 0.115023 0.398489
0.732296 0.114076 0.402808
0.0528267 0.366598 0.345342
0.0530098 0.362722 0.341268
0.0528725 0.355627 0.333227
0.333089 0.357671 0.35816
0.619898 0.305699 0.313954
0.764935 0.160723 0.286351
0.767483 0.131868 0.3243
0.761349 0.128466 0.336843
0.761868 0.126452 0.34197
0.0627146 0.63679 0.439902
0.0617685 0.635706 0.427741
0.0618448 0.634089 0.401114
0.0964523 0.635645 0.259236
0.59678 0.587976 0.275456
0.845289 0.550362 0.315236
0.921172 0.494697 0.309972
0.918486 0.470375 0.301106
0.917418 0.460731 0.297078
0.189822 0.873182 0.540734
0.18822 0.873198 0.530068
0.189075 0.87303 0.510765
0.194888 0.872709 0.434806
0.521202 0.831739 0.295644
0.827024 0.801923 0.336904
0.937514 0.78323 0.383352
0.935027 0.772366 0.375845
0.933898 0.768154 0.373327
0.282933 0.949111 0.603952
0.281437 0.949325 0.595682
0.282261 0.949554 0.580484
0.285512 0.949889 0.528252
0.352041 0.948943 0.386542
0.793561 0.905852 0.472175
0.949172 0.911437 0.493828
0.949828 0.913375 0.506233
0.949813 0.912062 0.501396
0.280385 0.948684 0.621515
0.280308 0.948898 0.613565
0.281498 0.949279 0.598596
0.286244 0.94992 0.54786
0.321111 0.94931 0.40618
0.772686 0.908949 0.466743
0.940505 0.912505 0.491722
0.949981 0.917647 0.52105
0.949996 0.917906 0.521569
0.279286 0.948516 0.628977
0.27953 0.948714 0.620874
0.280705 0.949081 0.605676
0.285908 0.949935 0.555047
0.311757 0.949401 0.413397
0.765591 0.90988 0.464393
0.93698 0.914839 0.489555
0.949996 0.917754 0.52108
0.949996 0.917983 0.521599
0.0528573 0.168566 0.48867
0.0529183 0.142092 0.504555
0.120989 0.128634 0.523934
0.315862 0.116442 0.5393
0.524758 0.111315 0.531792
0.726223 0.127947 0.512779
0.756893 0.133303 0.52874
0.759747 0.134981 0.539315
0.766354 0.133669 0.547036
0.0529946 0.194324 0.463004
0.0528573 0.167666 0.48748
0.0735943 0.13225 0.514763
0.296361 0.117708 0.539025
0.52105 0.110979 0.527596
0.722332 0.126467 0.505989
0.754406 0.13164 0.520546
0.757961 0.13344 0.530678
0.764187 0.131991 0.537804
0.0528115 0.211688 0.438514
0.052903 0.204379 0.449271
0.0529183 0.163088 0.487953
0.254765 0.119509 0.535027
0.515511 0.112764 0.521401
0.7131 0.124102 0.492378
0.748348 0.129854 0.505348
0.751324 0.131548 0.514122
0.756756 0.130236 0.520058
0.0529183 0.355108 0.459495
0.0529946 0.348974 0.459983
0.0528878 0.337041 0.460273
0.174044 0.302022 0.545281
0.551415 0.217746 0.548867
0.69836 0.124163 0.457755
0.73962 0.124193 0.463798
0.74139 0.125261 0.470542
0.745663 0.124544 0.475502
0.0578622 0.602914 0.568719
0.0569772 0.600839 0.567605
0.0558175 0.597604 0.5635
0.0623636 0.586389 0.549737
0.555993 0.572335 0.562844
0.860716 0.536934 0.532464
0.924865 0.445167 0.503807
0.92015 0.415274 0.498405
0.917891 0.403464 0.497078
0.166888 0.851606 0.650126
0.16347 0.851087 0.645258
0.162219 0.849729 0.635889
0.161273 0.843702 0.599649
0.401083 0.857877 0.508034
0.79733 0.796551 0.533883
0.931395 0.776074 0.535729
0.931441 0.76524 0.528389
0.931319 0.761166 0.527886
0.281331 0.946868 0.700664
0.279133 0.947112 0.695094
0.27834 0.947265 0.684871
0.279194 0.948119 0.650828
0.334798 0.949798 0.537392
0.755108 0.928664 0.559991
0.942885 0.911696 0.583444
0.949859 0.909529 0.588586
0.949859 0.907423 0.58555
0.280659 0.946609 0.7178
0.279805 0.9467 0.711269
0.279026 0.947021 0.700587
0.279377 0.947799 0.665339
0.319478 0.94995 0.550057
0.712917 0.935576 0.537118
0.924529 0.919326 0.583703
0.949752 0.922683 0.603723
0.949767 0.922988 0.603677
0.280919 0.946563 0.725185
0.280125 0.946593 0.719097
0.279271 0.946807 0.707637
0.279042 0.94754 0.672007
0.315007 0.94992 0.556069
0.691539 0.938247 0.530114
0.915022 0.917464 0.57879
0.949752 0.922789 0.60444
0.949752 0.922881 0.601251
0.0529183 0.252186 0.660075
0.0529946 0.224994 0.674464
0.0917983 0.189441 0.684382
0.293065 0.177768 0.714855
0.518837 0.162249 0.721035
0.720378 0.153338 0.702922
0.762539 0.16437 0.718578
0.759121 0.166384 0.730922
0.765286 0.16437 0.743923
0.0529183 0.276524 0.646906
0.0528573 0.251545 0.66009
0.0529335 0.207202 0.678676
0.267094 0.179049 0.712474
0.511681 0.162799 0.721645
0.718151 0.15198 0.700725
0.763394 0.1635 0.712795
0.761471 0.164858 0.726574
0.768292 0.162509 0.740001
0.052781 0.293767 0.630854
0.052842 0.286305 0.642176
0.0529488 0.249821 0.65771
0.216373 0.180011 0.704662
0.498299 0.163638 0.72108
0.711376 0.150591 0.693462
0.760464 0.163516 0.697032
0.759411 0.16527 0.710536
0.766552 0.162524 0.72369
0.0528573 0.36025 0.596399
0.0528573 0.352422 0.602853
0.052781 0.337652 0.612955
0.052903 0.265431 0.683391
0.451118 0.175265 0.721019
0.693767 0.143984 0.675303
0.76759 0.15845 0.658122
0.766705 0.159777 0.667216
0.772931 0.157839 0.677333
0.0529946 0.580285 0.674754
0.0529946 0.578668 0.677073
0.052842 0.574517 0.677562
0.0529793 0.55906 0.681819
0.42472 0.540719 0.762814
0.797482 0.472999 0.762737
0.873228 0.353933 0.700069
0.862303 0.317815 0.687297
0.859678 0.305425 0.684291
0.151324 0.812345 0.76846
0.147417 0.811826 0.768765
0.145235 0.809827 0.766262
0.143236 0.802563 0.757961
0.348882 0.792615 0.750835
0.757824 0.765011 0.750881
0.93753 0.738567 0.729122
0.936507 0.716518 0.720287
0.935088 0.710674 0.718242
0.318166 0.943114 0.827222
0.3149 0.943587 0.825818
0.312383 0.943908 0.820661
0.303487 0.944289 0.80325
0.322438 0.940993 0.74696
0.687373 0.942138 0.731212
0.917464 0.909834 0.752575
0.946227 0.901137 0.764797
0.94583 0.898619 0.761288
0.329061 0.942489 0.842924
0.325216 0.943374 0.841123
0.321645 0.943542 0.835157
0.310979 0.94435 0.816266
0.33106 0.946334 0.753338
0.660883 0.949905 0.729854
0.897093 0.927764 0.754665
0.949813 0.934432 0.783078
0.949813 0.934752 0.784863
0.331121 0.941527 0.849348
0.328618 0.942229 0.847044
0.325216 0.94342 0.841672
0.314122 0.944152 0.821454
0.327199 0.946319 0.756374
0.647745 0.949798 0.725795
0.886946 0.927855 0.749859
0.949615 0.933135 0.771267
0.949813 0.935012 0.783047
0.052781 0.378775 0.786664
0.0529335 0.365911 0.793912
0.0530251 0.333242 0.821973
0.248035 0.269581 0.843626
0.515267 0.266529 0.874128
0.717678 0.191089 0.820844
0.749493 0.180728 0.808637
0.747814 0.181582 0.806928
0.75198 0.179644 0.812833
0.0529488 0.384649 0.78085
0.0530251 0.377081 0.787839
0.0530251 0.353902 0.802731
0.217609 0.270451 0.83978
0.50457 0.266361 0.872969
0.715328 0.192782 0.82182
0.749386 0.180575 0.80705
0.749615 0.180774 0.809354
0.753719 0.178851 0.815061
0.0528725 0.392416 0.773693
0.0529335 0.388418 0.779004
0.052842 0.372564 0.785153
0.157992 0.277684 0.835828
0.484398 0.265553 0.870054
0.709041 0.192996 0.821683
0.746517 0.181704 0.801205
0.746197 0.182284 0.80441
0.75169 0.179828 0.811994
0.0529488 0.397589 0.737148
0.0527962 0.394614 0.745556
0.0529488 0.389242 0.755016
0.0529793 0.358312 0.783352
0.411399 0.261295 0.857939
0.691218 0.202853 0.828321
0.747829 0.181048 0.792828
0.746242 0.182345 0.796277
0.752285 0.179706 0.80557
0.0530251 0.600015 0.772076
0.052903 0.598672 0.775692
0.0528725 0.595209 0.77911
0.0529641 0.585428 0.790326
0.298619 0.542412 0.878096
0.729671 0.467872 0.912566
0.829664 0.299428 0.843351
0.811261 0.264073 0.824735
0.807828 0.2495 0.823316
0.133669 0.783062 0.84686
0.127611 0.782391 0.848661
0.123049 0.779904 0.848692
0.107652 0.770626 0.848264
0.231174 0.76231 0.866682
0.667323 0.744839 0.88014
0.907057 0.704906 0.880552
0.915679 0.681849 0.870985
0.914397 0.676799 0.870558
0.32932 0.92134 0.89247
0.323079 0.920989 0.892699
0.315511 0.919646 0.891218
0.294789 0.91603 0.886168
0.302556 0.905394 0.872724
0.664424 0.900191 0.880232
0.893507 0.893599 0.886183
0.944854 0.886702 0.880003
0.943343 0.881987 0.878141
0.365255 0.9252 0.9037
0.363058 0.925628 0.903914
0.361578 0.926238 0.902251
0.358297 0.928008 0.89601
0.380957 0.934127 0.878828
0.661433 0.941772 0.882261
0.868086 0.945769 0.880842
0.945998 0.939391 0.890867
0.94757 0.938384 0.895888
0.363714 0.924651 0.907622
0.362387 0.924956 0.907454
0.363577 0.9252 0.905318
0.360006 0.927138 0.898802
0.378759 0.933928 0.879301
0.648753 0.941619 0.879774
0.857191 0.94612 0.877882
0.940505 0.941009 0.888167
0.947265 0.941222 0.897108
0.0530556 0.397192 0.800336
0.0529335 0.390967 0.805951
0.052842 0.372854 0.840513
0.245304 0.300389 0.864576
0.522591 0.294774 0.891035
0.729183 0.20174 0.832471
0.749493 0.180819 0.809216
0.749004 0.181079 0.808301
0.751461 0.179934 0.811597
0.0528267 0.399847 0.793286
0.0529946 0.397375 0.801923
0.0528115 0.386831 0.818235
0.213428 0.303136 0.862684
0.510781 0.296361 0.891249
0.728573 0.207736 0.836774
0.749371 0.180865 0.809094
0.749889 0.180652 0.809644
0.752453 0.179431 0.813519
0.0529793 0.407202 0.784176
0.0529641 0.404471 0.792752
0.0529793 0.397436 0.801831
0.14757 0.317754 0.861555
0.487938 0.29807 0.889876
0.725582 0.217182 0.844816
0.746853 0.182223 0.805539
0.747051 0.181933 0.805905
0.75169 0.179812 0.812085
0.0528878 0.442832 0.783291
0.0529488 0.433768 0.785412
0.0529183 0.417685 0.783139
0.0529335 0.395987 0.803632
0.404059 0.300481 0.883299
0.704784 0.241993 0.863539
0.746654 0.18352 0.804501
0.745983 0.183642 0.803723
0.751232 0.181186 0.810788
0.052842 0.620645 0.823499
0.0528115 0.620523 0.82829
0.052903 0.616678 0.829221
0.052842 0.597818 0.823606
0.240467 0.546014 0.886015
0.698192 0.469947 0.929381
0.824659 0.307256 0.862272
0.807095 0.275807 0.849989
0.802991 0.262104 0.850416
0.0856489 0.784634 0.880827
0.0783398 0.783963 0.883314
0.072755 0.780804 0.883375
0.0578317 0.769192 0.882246
0.169558 0.759762 0.897124
0.619043 0.749203 0.912718
0.887617 0.71136 0.927016
0.910704 0.686 0.920089
0.908705 0.681117 0.921187
0.266026 0.911406 0.917494
0.259052 0.911147 0.918669
0.252613 0.90956 0.918303
0.239261 0.903639 0.916564
0.234623 0.889433 0.913924
0.609735 0.886381 0.922042
0.852171 0.882826 0.92668
0.936172 0.872709 0.928573
0.935866 0.869093 0.928466
0.229847 0.923705 0.917922
0.223255 0.924987 0.920348
0.222965 0.925032 0.920501
0.226978 0.925124 0.92047
0.374533 0.924956 0.916945
0.656992 0.93193 0.922408
0.864546 0.93727 0.931579
0.939605 0.93669 0.933089
0.947295 0.935012 0.93193
0.228031 0.924056 0.918578
0.223285 0.924987 0.920333
0.222965 0.925032 0.920501
0.222965 0.925032 0.920501
0.374273 0.92491 0.916548
0.649927 0.931395 0.920317
0.859556 0.941756 0.931487
0.932342 0.94374 0.932097
0.946105 0.943221 0.934752
0.0529793 0.396323 0.801419
0.0528267 0.389013 0.811139
0.0529488 0.367575 0.845548
0.253025 0.300038 0.865232
0.527565 0.294286 0.891264
0.730007 0.196963 0.829007
0.749493 0.180819 0.809232
0.749538 0.180804 0.809277
0.751766 0.179751 0.81239
0.0528573 0.399603 0.795026
0.0530556 0.396628 0.80322
0.0530404 0.384771 0.823896
0.221317 0.302068 0.86273
0.515496 0.29572 0.89131
0.728817 0.203967 0.832258
0.749416 0.180865 0.809125
0.74992 0.180652 0.809659
0.752651 0.179339 0.813809
0.0529793 0.407004 0.785031
0.052842 0.402457 0.794049
0.0530861 0.396765 0.803113
0.156939 0.31487 0.861387
0.492424 0.297856 0.890272
0.727153 0.214069 0.842359
0.746899 0.182284 0.805539
0.747066 0.181949 0.80592
0.75169 0.179812 0.812085
0.0528878 0.44065 0.782986
0.052781 0.431769 0.78497
0.0529183 0.415412 0.782681
0.0529335 0.394568 0.804013
0.408087 0.300664 0.883772
0.706264 0.240574 0.86276
0.746746 0.183474 0.80473
0.746136 0.183627 0.8038
0.751232 0.181201 0.810803
0.0529488 0.622477 0.83006
0.0528115 0.620218 0.831846
0.052903 0.613718 0.829725
0.0528878 0.591882 0.821607
0.230838 0.53727 0.885603
0.691524 0.456306 0.92723
0.814832 0.288441 0.855863
0.795102 0.254917 0.8421
0.791897 0.242618 0.843076
0.0748608 0.783597 0.888441
0.0689403 0.782483 0.890166
0.0650187 0.779293 0.889021
0.052903 0.765774 0.883436
0.15877 0.754894 0.895323
0.614527 0.743191 0.913252
0.88426 0.704616 0.926772
0.908965 0.678676 0.919982
0.907713 0.674281 0.920958
0.253666 0.91014 0.918944
0.247562 0.909468 0.91986
0.242115 0.907637 0.919722
0.225635 0.901305 0.918044
0.210437 0.885542 0.916579
0.575219 0.882155 0.925612
0.83505 0.878492 0.929412
0.933379 0.870726 0.934218
0.933135 0.867353 0.934157
0.228946 0.923888 0.918257
0.223255 0.924987 0.920348
0.222965 0.925032 0.920501
0.222965 0.925032 0.920501
0.240726 0.926528 0.922164
0.550774 0.93135 0.928939
0.737438 0.92932 0.934722
0.927199 0.931151 0.940032
0.945052 0.932525 0.94052
0.227527 0.924147 0.918761
0.223285 0.924987 0.920333
0.222965 0.925032 0.920501
0.222965 0.925032 0.920501
0.239872 0.926482 0.922133
0.538415 0.931121 0.928344
0.809476 0.939315 0.93817
0.92694 0.943358 0.94316
0.94548 0.94345 0.942489
