bundles/resolve-cinematic-luts/Phantom Luts/Fx6 Phntm ARRI LUTs-G5/ATOMOS Monitoring LUTs/Utopia Fx6-Legacy AML.cube
TITLE "Generated by Resolve"
LUT_3D_SIZE 9
0.0654002 0.0891432 0.0977646
0.0784161 0.0908064 0.0994888
0.142412 0.0913252 0.1028
0.271778 0.0927596 0.110872
0.472969 0.0959182 0.145006
0.675013 0.12134 0.234531
0.722942 0.129488 0.280278
0.720165 0.127108 0.293034
0.720958 0.125032 0.298878
0.0671244 0.101991 0.102098
0.0742657 0.0981765 0.100801
0.128252 0.0973068 0.101518
0.266621 0.0905165 0.0971847
0.468986 0.0967727 0.120836
0.669184 0.122881 0.208225
0.727535 0.133516 0.259541
0.725643 0.131014 0.271901
0.727657 0.129015 0.276936
0.0584421 0.170169 0.096025
0.0673686 0.163165 0.0855421
0.133013 0.158129 0.0950484
0.273747 0.129198 0.105806
0.481727 0.101152 0.104295
0.635721 0.115358 0.159167
0.71545 0.135653 0.216403
0.725933 0.136004 0.233768
0.730739 0.135592 0.240024
0.0530098 0.333165 0.111299
0.0529488 0.327016 0.0888838
0.0977798 0.318379 0.0681621
0.291249 0.30782 0.108614
0.537652 0.2636 0.15082
0.779797 0.247837 0.191424
0.76286 0.138323 0.164263
0.71957 0.119127 0.157809
0.704784 0.115206 0.157351
0.0861067 0.605066 0.217716
0.0865339 0.601892 0.199115
0.0896162 0.596002 0.163073
0.257542 0.571801 0.12549
0.561074 0.549081 0.171878
0.805936 0.514717 0.238331
0.916381 0.483452 0.267872
0.914702 0.466407 0.266499
0.914092 0.459861 0.264652
0.19469 0.87538 0.390448
0.192309 0.874296 0.379217
0.19205 0.871 0.358495
0.20676 0.854704 0.261463
0.565606 0.810575 0.29543
0.807019 0.791226 0.30927
0.943862 0.780011 0.350271
0.942687 0.769741 0.345907
0.94226 0.766278 0.344701
0.257771 0.949798 0.470924
0.254566 0.949752 0.458732
0.252659 0.94995 0.441077
0.246235 0.94966 0.391058
0.476219 0.943679 0.317754
0.785901 0.900771 0.427771
0.949737 0.909529 0.439063
0.949874 0.912917 0.464118
0.949905 0.912947 0.462852
0.254307 0.949844 0.49221
0.256443 0.949813 0.480003
0.256962 0.949767 0.458732
0.252125 0.949874 0.406424
0.419364 0.945556 0.305913
0.771679 0.903349 0.426154
0.94847 0.90544 0.431388
0.949828 0.912947 0.466499
0.949767 0.913146 0.466758
0.251453 0.949813 0.500114
0.25362 0.949828 0.487633
0.256046 0.949783 0.466133
0.252705 0.949889 0.412161
0.413321 0.946227 0.306859
0.767147 0.904128 0.425513
0.945327 0.905165 0.430091
0.949828 0.913008 0.465522
0.949767 0.913252 0.465721
0.0631876 0.090013 0.102754
0.0743877 0.0910353 0.109957
0.135698 0.0905623 0.124422
0.273579 0.0902266 0.141283
0.476448 0.0945754 0.169451
0.670085 0.117113 0.254582
0.719509 0.125216 0.29958
0.715206 0.122728 0.310185
0.7149 0.121096 0.314961
0.0659495 0.0976425 0.106325
0.0694285 0.0940261 0.102708
0.129213 0.0919509 0.103243
0.260807 0.0929427 0.110414
0.468391 0.0966506 0.145022
0.670237 0.119814 0.231815
0.724926 0.128969 0.280003
0.722225 0.12668 0.292775
0.722469 0.124865 0.298283
0.0580148 0.164462 0.125185
0.059678 0.159838 0.0995041
0.126986 0.153002 0.0958267
0.284016 0.120577 0.103716
0.471199 0.0925154 0.102617
0.652873 0.121065 0.18677
0.72958 0.135241 0.244419
0.729625 0.133532 0.258106
0.730892 0.132052 0.263508
0.0530098 0.331563 0.138811
0.0529183 0.324041 0.112551
0.0675059 0.313649 0.0619364
0.285634 0.302434 0.108507
0.533455 0.252766 0.148577
0.780255 0.233402 0.187503
0.740093 0.126711 0.160311
0.696529 0.116014 0.15903
0.693706 0.117494 0.161227
0.0822614 0.603586 0.238865
0.0835431 0.59997 0.217777
0.0850538 0.594583 0.187259
0.233936 0.571481 0.115038
0.55787 0.546609 0.171511
0.811322 0.508965 0.240116
0.915587 0.475486 0.267033
0.913481 0.457206 0.265492
0.912978 0.450095 0.263554
0.192126 0.873625 0.402853
0.190478 0.872648 0.389639
0.189944 0.8692 0.370123
0.197086 0.854948 0.284993
0.556344 0.81001 0.290471
0.804654 0.78912 0.308675
0.943099 0.775921 0.348257
0.941772 0.765362 0.34342
0.941024 0.761776 0.341772
0.256901 0.949828 0.484398
0.254932 0.949798 0.471397
0.253803 0.949783 0.45185
0.248707 0.949813 0.40061
0.453788 0.944549 0.312337
0.782345 0.901442 0.42742
0.949752 0.909346 0.440589
0.949844 0.912978 0.465568
0.949905 0.912932 0.462928
0.252171 0.949859 0.504158
0.255589 0.949844 0.493141
0.257099 0.949798 0.471702
0.2533 0.949889 0.418051
0.402564 0.946456 0.305272
0.767544 0.904051 0.425635
0.947066 0.905119 0.433616
0.949798 0.912993 0.46743
0.949737 0.913222 0.467704
0.250889 0.949828 0.511803
0.252949 0.949859 0.501106
0.255909 0.949813 0.479805
0.253895 0.949905 0.423407
0.394049 0.946899 0.305303
0.762661 0.90483 0.424811
0.943816 0.906889 0.431449
0.949798 0.913039 0.466621
0.949737 0.913314 0.466773
0.0529335 0.0954604 0.142641
0.0718242 0.0948653 0.156207
0.129534 0.0921798 0.16733
0.267369 0.0916152 0.174289
0.472374 0.0913863 0.20853
0.661509 0.112169 0.284001
0.708782 0.119844 0.322911
0.706065 0.118608 0.330373
0.706355 0.117494 0.333227
0.0559091 0.0984817 0.126864
0.0529335 0.0946365 0.14023
0.11902 0.0923323 0.156649
0.257557 0.090013 0.157229
0.471763 0.0932174 0.185199
0.662638 0.114397 0.264271
0.71577 0.123171 0.308431
0.711254 0.12079 0.318212
0.711131 0.11928 0.322896
0.0601053 0.155993 0.159869
0.0605478 0.151522 0.155627
0.118196 0.148226 0.156939
0.287419 0.127245 0.141161
0.467536 0.100313 0.145205
0.662074 0.118593 0.226596
0.725017 0.129442 0.277958
0.722408 0.12755 0.290303
0.722469 0.125872 0.295552
0.0528725 0.324102 0.186526
0.0528115 0.321096 0.166125
0.0529793 0.311406 0.11368
0.283803 0.300328 0.12282
0.548592 0.236973 0.15465
0.762707 0.192905 0.177951
0.700603 0.115343 0.158755
0.689342 0.124147 0.170459
0.696315 0.130556 0.178958
0.0738384 0.598993 0.280995
0.0759594 0.597772 0.257191
0.0803693 0.590845 0.214389
0.178241 0.570138 0.094667
0.553109 0.541772 0.171588
0.818708 0.498253 0.242405
0.913725 0.460655 0.265644
0.911269 0.44062 0.263584
0.91133 0.434669 0.261967
0.186633 0.870329 0.427558
0.185672 0.869245 0.412558
0.186496 0.865888 0.388174
0.186465 0.853223 0.322652
0.538796 0.810071 0.282582
0.800809 0.785382 0.307378
0.941405 0.76878 0.344549
0.939834 0.75729 0.33904
0.93933 0.753307 0.337499
0.254673 0.949859 0.504036
0.252613 0.949844 0.492775
0.254398 0.949798 0.472389
0.251057 0.949859 0.41912
0.415396 0.945861 0.304173
0.775631 0.903532 0.430091
0.949752 0.908827 0.443214
0.949783 0.913039 0.467292
0.949889 0.912947 0.463493
0.251377 0.949859 0.523156
0.251408 0.949844 0.512535
0.255573 0.949844 0.493904
0.255329 0.949935 0.436149
0.367681 0.947997 0.304295
0.759121 0.905974 0.425757
0.943984 0.905974 0.438117
0.949752 0.913069 0.469337
0.949752 0.913359 0.469505
0.250172 0.949874 0.530922
0.250294 0.949844 0.520165
0.254185 0.949859 0.501549
0.256031 0.949844 0.441932
0.356786 0.948196 0.305013
0.753887 0.906691 0.424277
0.940993 0.909895 0.433799
0.949737 0.913115 0.468696
0.949737 0.913436 0.468818
0.0528267 0.113695 0.2477
0.055848 0.105867 0.263951
0.118456 0.101747 0.279454
0.262242 0.0948501 0.28751
0.468223 0.0973526 0.288319
0.64828 0.105623 0.333227
0.692378 0.112398 0.35996
0.690608 0.111437 0.365698
0.691844 0.110842 0.369696
0.0529488 0.117937 0.223957
0.0528115 0.112673 0.24358
0.0930343 0.103273 0.273182
0.253529 0.0948043 0.278492
0.462257 0.0957504 0.274174
0.644724 0.10573 0.32314
0.695201 0.113832 0.353048
0.693141 0.112642 0.358526
0.693706 0.11165 0.36173
0.0528115 0.156634 0.213123
0.0528878 0.149722 0.219455
0.0528878 0.133562 0.261372
0.242527 0.0992752 0.2663
0.456275 0.0949264 0.249485
0.641367 0.106294 0.303181
0.700679 0.11667 0.340063
0.698131 0.115434 0.345663
0.698283 0.114534 0.348318
0.0528115 0.299046 0.282948
0.0528725 0.295003 0.279225
0.0529183 0.287892 0.272725
0.271046 0.297749 0.300618
0.55436 0.255589 0.265202
0.710658 0.147066 0.23949
0.729793 0.131868 0.273198
0.725414 0.128908 0.284916
0.726101 0.127626 0.289982
0.0619211 0.579904 0.382162
0.061387 0.57911 0.370672
0.0609445 0.577447 0.343969
0.0912032 0.574639 0.215152
0.541146 0.537255 0.243427
0.824567 0.484565 0.289937
0.913176 0.432593 0.288823
0.910155 0.416831 0.280888
0.909483 0.410788 0.277241
0.171542 0.852247 0.487724
0.169818 0.852247 0.477104
0.170748 0.852186 0.457557
0.176059 0.845014 0.380453
0.465232 0.811597 0.256138
0.78941 0.774609 0.303975
0.936858 0.747997 0.345022
0.935271 0.734218 0.338445
0.934432 0.729427 0.336233
0.251926 0.949844 0.551492
0.249546 0.949905 0.54255
0.250431 0.949859 0.526925
0.254414 0.949798 0.472297
0.315465 0.949767 0.33724
0.753292 0.910018 0.436683
0.948928 0.907378 0.450187
0.949935 0.91284 0.462348
0.94995 0.912657 0.458
0.248524 0.949737 0.569284
0.248432 0.949844 0.560922
0.249744 0.949905 0.545678
0.255482 0.949844 0.493507
0.288838 0.949645 0.355489
0.731899 0.913985 0.4309
0.935866 0.912474 0.445609
0.949752 0.913375 0.474495
0.949752 0.913619 0.474296
0.247501 0.949752 0.576715
0.247578 0.949752 0.568383
0.248966 0.94992 0.552987
0.254871 0.949859 0.501045
0.281559 0.949874 0.362188
0.724315 0.915251 0.42858
0.92517 0.910216 0.444312
0.949752 0.913451 0.47425
0.949752 0.913725 0.474083
0.0528573 0.15285 0.422782
0.0528573 0.1355 0.435691
0.0859388 0.124285 0.454414
0.245899 0.11371 0.472313
0.463798 0.105592 0.472099
0.686976 0.120806 0.454093
0.731594 0.127016 0.470832
0.736339 0.128603 0.481376
0.741192 0.127626 0.487694
0.0528878 0.164721 0.399619
0.0530098 0.1523 0.421576
0.0534676 0.127871 0.446113
0.22771 0.1149 0.470832
0.459815 0.105241 0.467765
0.681498 0.11931 0.447074
0.728099 0.12546 0.462516
0.732662 0.127077 0.472389
0.737728 0.12639 0.478676
0.0527504 0.178912 0.372534
0.0528573 0.17229 0.383688
0.052903 0.149203 0.421271
0.189715 0.116945 0.466178
0.453025 0.10573 0.460044
0.670924 0.117403 0.43357
0.720134 0.123644 0.447089
0.723934 0.12491 0.455817
0.728847 0.124483 0.461524
0.0528878 0.289067 0.384283
0.0529488 0.283925 0.384771
0.0529183 0.273442 0.385885
0.125673 0.250843 0.474983
0.481941 0.182742 0.481559
0.649088 0.115419 0.39707
0.707668 0.11812 0.404929
0.710201 0.119249 0.411749
0.713268 0.118868 0.415778
0.0583352 0.545632 0.512444
0.0573281 0.543252 0.511299
0.0563058 0.539773 0.507088
0.0614328 0.527672 0.492531
0.500359 0.519219 0.511025
0.838453 0.487419 0.482536
0.916091 0.400381 0.456977
0.910506 0.371221 0.451148
0.908721 0.36054 0.449775
0.146029 0.824125 0.599451
0.143526 0.823407 0.594369
0.142809 0.821378 0.584878
0.142504 0.813535 0.54815
0.350149 0.828153 0.454063
0.757626 0.761501 0.483619
0.93814 0.735622 0.485908
0.938903 0.723461 0.48011
0.938231 0.718547 0.478996
0.244465 0.949874 0.649973
0.241901 0.949859 0.643702
0.242206 0.949828 0.633234
0.245777 0.949798 0.598825
0.297658 0.949874 0.481422
0.70779 0.93608 0.500771
0.942443 0.911742 0.532219
0.949737 0.909911 0.537301
0.949737 0.907256 0.534859
0.24184 0.949905 0.667216
0.240925 0.949889 0.660792
0.241154 0.949859 0.6495
0.244785 0.949813 0.613367
0.284688 0.949813 0.495872
0.662989 0.942809 0.477943
0.911772 0.913176 0.527245
0.949783 0.917342 0.549249
0.949813 0.917525 0.549035
0.24097 0.949935 0.674922
0.240497 0.949905 0.668528
0.240681 0.949889 0.656886
0.244129 0.949798 0.62002
0.280491 0.949798 0.501762
0.640711 0.945174 0.471153
0.899702 0.910048 0.524742
0.949798 0.917403 0.549676
0.949783 0.917433 0.546654
0.0528725 0.221851 0.596643
0.0530404 0.203052 0.608301
0.0528573 0.175692 0.620371
0.218769 0.158145 0.651347
0.451621 0.143938 0.663706
0.686778 0.14258 0.656977
0.751919 0.15584 0.67863
0.748058 0.158724 0.69575
0.75288 0.156939 0.70959
0.052842 0.237049 0.58027
0.0528725 0.221347 0.59646
0.0529335 0.191211 0.613123
0.193225 0.159442 0.648127
0.444251 0.144259 0.663828
0.683406 0.141329 0.654032
0.753002 0.154726 0.671382
0.750973 0.156893 0.689174
0.75642 0.155047 0.702998
0.052781 0.25034 0.563882
0.0528573 0.242817 0.574243
0.0528725 0.219608 0.593774
0.146639 0.161196 0.639643
0.430289 0.144976 0.662654
0.674571 0.139544 0.646006
0.751537 0.154498 0.653666
0.749554 0.156298 0.669856
0.755261 0.154314 0.682963
0.0529183 0.296986 0.52987
0.0530098 0.290669 0.536156
0.0529793 0.280537 0.54641
0.0530251 0.231556 0.61532
0.378958 0.153323 0.659236
0.647898 0.133013 0.622507
0.759106 0.149905 0.606348
0.758877 0.1514 0.617334
0.763607 0.150042 0.626154
0.0529335 0.523384 0.618982
0.0529335 0.521187 0.620035
0.0529641 0.516075 0.619715
0.0529183 0.49929 0.621592
0.364004 0.487205 0.716487
0.763302 0.420661 0.719341
0.86656 0.310887 0.64538
0.855955 0.280293 0.631601
0.854047 0.269215 0.627878
0.130694 0.779065 0.728511
0.127275 0.777829 0.728191
0.125521 0.775128 0.725521
0.123461 0.765347 0.715694
0.300038 0.755917 0.709255
0.713909 0.723491 0.708095
0.942794 0.695369 0.685588
0.943603 0.672709 0.675166
0.943099 0.66685 0.67335
0.264347 0.949035 0.79379
0.259983 0.949264 0.791211
0.257633 0.949294 0.78436
0.250492 0.949508 0.762631
0.275669 0.947585 0.698268
0.6374 0.948379 0.677852
0.91545 0.90695 0.703487
0.947799 0.893309 0.71545
0.947372 0.890059 0.711971
0.274113 0.948882 0.814572
0.269474 0.949142 0.811017
0.266209 0.94931 0.803342
0.256336 0.949447 0.778561
0.28397 0.949828 0.704448
0.609857 0.949889 0.675715
0.878996 0.922774 0.701534
0.949752 0.927337 0.728527
0.949767 0.927611 0.730175
0.275532 0.948928 0.823789
0.272953 0.948928 0.81976
0.269368 0.949142 0.811643
0.259052 0.949416 0.785473
0.280293 0.949783 0.707607
0.597009 0.949783 0.671748
0.8654 0.924727 0.696834
0.94995 0.926818 0.715633
0.949752 0.927672 0.727993
0.0528878 0.335134 0.751842
0.0527962 0.323049 0.759594
0.0528115 0.300282 0.781491
0.168673 0.237247 0.81387
0.436149 0.234333 0.855451
0.675898 0.178866 0.816358
0.729824 0.1738 0.808972
0.728237 0.174563 0.807385
0.731594 0.173007 0.812284
0.0530251 0.340642 0.745266
0.0528878 0.333181 0.752087
0.0528878 0.312169 0.765896
0.140032 0.240482 0.810254
0.425086 0.233814 0.853559
0.67219 0.179995 0.8168
0.729702 0.1738 0.806775
0.729656 0.173892 0.809537
0.733257 0.172213 0.814893
0.0527657 0.344823 0.735348
0.0528725 0.342397 0.740917
0.0529335 0.329152 0.74786
0.0846723 0.253071 0.803861
0.404898 0.232761 0.849622
0.663172 0.179477 0.815915
0.727794 0.174594 0.800092
0.726818 0.175219 0.804822
0.731472 0.173068 0.812085
0.0529335 0.337987 0.678614
0.0529641 0.336782 0.688106
0.0529946 0.33521 0.70161
0.0528267 0.315816 0.744778
0.331182 0.228367 0.831876
0.636164 0.186069 0.817975
0.73077 0.173419 0.78793
0.728496 0.174868 0.793729
0.733669 0.17261 0.803021
0.0529641 0.545037 0.721828
0.0529793 0.543404 0.725307
0.0528267 0.540124 0.729366
0.0529335 0.529686 0.744671
0.222675 0.502632 0.865766
0.671672 0.42031 0.910689
0.819989 0.269291 0.831296
0.800717 0.240452 0.810101
0.796918 0.228626 0.808164
0.106706 0.745525 0.823407
0.101534 0.744701 0.825193
0.0977493 0.74168 0.82504
0.0836805 0.730892 0.823331
0.181155 0.72781 0.850965
0.611795 0.705394 0.875486
0.910521 0.659678 0.873686
0.919799 0.635538 0.861295
0.918395 0.630076 0.860288
0.275456 0.929702 0.889677
0.26833 0.929564 0.889906
0.260929 0.927626 0.888197
0.240757 0.922805 0.881285
0.250172 0.908202 0.862867
0.60763 0.89781 0.869093
0.88336 0.88426 0.87361
0.946456 0.872999 0.864149
0.944656 0.866468 0.861601
0.309133 0.934234 0.905348
0.305806 0.935134 0.90518
0.304219 0.936049 0.902846
0.301289 0.93875 0.894133
0.32401 0.946075 0.86862
0.599573 0.948241 0.866514
0.839109 0.946303 0.860655
0.947173 0.935439 0.868864
0.946593 0.93608 0.876448
0.307256 0.932723 0.910613
0.306157 0.93312 0.910002
0.306355 0.934417 0.907439
0.302785 0.937438 0.89807
0.322057 0.945953 0.869291
0.586664 0.948531 0.862882
0.824933 0.947143 0.857176
0.941131 0.935699 0.866407
0.945891 0.936217 0.875685
0.0529641 0.354116 0.775311
0.0530404 0.347463 0.783597
0.0529335 0.335058 0.810849
0.165759 0.267659 0.848569
0.44271 0.25861 0.878614
0.689555 0.187961 0.833127
0.729778 0.173846 0.809705
0.729183 0.174121 0.808835
0.731029 0.173281 0.811383
0.0529488 0.357305 0.766537
0.0529641 0.35436 0.777005
0.052903 0.342947 0.792874
0.134615 0.273671 0.845945
0.430747 0.259754 0.87805
0.687022 0.192996 0.83714
0.72958 0.173938 0.809415
0.729961 0.173754 0.809979
0.731991 0.172793 0.813184
0.0529183 0.360021 0.755245
0.0529335 0.359609 0.764721
0.0529641 0.354513 0.776852
0.0724193 0.2925 0.841443
0.407919 0.261524 0.876768
0.680781 0.200092 0.845258
0.727794 0.174945 0.806622
0.72784 0.174731 0.806821
0.731533 0.173022 0.812192
0.0528573 0.386328 0.750546
0.0529335 0.379248 0.751019
0.052842 0.365545 0.747204
0.0527962 0.352148 0.77998
0.323018 0.263325 0.868345
0.648661 0.218936 0.863813
0.727382 0.175906 0.805188
0.726604 0.17615 0.804166
0.731029 0.17406 0.810803
0.0528878 0.574182 0.794827
0.0528878 0.573739 0.800183
0.0527962 0.569451 0.80209
0.0529183 0.546349 0.797055
0.159014 0.51104 0.881483
0.635401 0.422293 0.926345
0.813733 0.276661 0.854246
0.792126 0.250858 0.84271
0.78764 0.239399 0.844877
0.0578775 0.749645 0.867857
0.0528573 0.748608 0.870329
0.0528725 0.745434 0.870848
0.0527657 0.734676 0.870665
0.107607 0.728939 0.892805
0.557412 0.712093 0.920272
0.884733 0.667552 0.933684
0.914992 0.640528 0.925368
0.912642 0.635645 0.926452
0.206149 0.916533 0.924788
0.197772 0.916518 0.926406
0.19202 0.913832 0.925872
0.181109 0.905425 0.923766
0.180392 0.885298 0.920241
0.547204 0.88217 0.929854
0.826566 0.871458 0.931014
0.937926 0.854063 0.932647
0.936797 0.849454 0.93344
0.177874 0.930602 0.924178
0.16846 0.932647 0.927077
0.168002 0.932738 0.927245
0.171267 0.933104 0.927382
0.313008 0.934066 0.923537
0.593454 0.939361 0.926162
0.833875 0.939437 0.933547
0.941573 0.938949 0.93521
0.944274 0.936522 0.933227
0.17789 0.930602 0.924178
0.168612 0.932601 0.927047
0.168002 0.932738 0.927245
0.168002 0.932738 0.927245
0.312917 0.933989 0.92311
0.586984 0.93843 0.923079
0.825208 0.939818 0.932403
0.931014 0.9402 0.933349
0.944915 0.938308 0.933974
0.0527962 0.352743 0.777035
0.0528878 0.345342 0.786358
0.0530098 0.332128 0.816114
0.173526 0.266331 0.848798
0.447898 0.258152 0.878935
0.692119 0.184222 0.829511
0.729778 0.173846 0.809705
0.729732 0.173877 0.809613
0.731212 0.17319 0.811643
0.0529488 0.357031 0.768765
0.052842 0.353063 0.778897
0.0529183 0.341146 0.797116
0.142214 0.271962 0.846494
0.435447 0.259495 0.878477
0.689021 0.189746 0.83267
0.729641 0.173922 0.809491
0.730007 0.173739 0.810025
0.732418 0.172595 0.81384
0.0529488 0.360189 0.756298
0.0529488 0.358465 0.766018
0.0528725 0.353231 0.778714
0.0806897 0.289494 0.842313
0.412268 0.261311 0.87718
0.683894 0.197772 0.843137
0.727825 0.175006 0.806607
0.727855 0.174746 0.806821
0.731533 0.173022 0.812192
0.0528725 0.384573 0.750103
0.0529335 0.377356 0.750546
0.052842 0.36347 0.746807
0.0528115 0.350378 0.780758
0.327001 0.263493 0.86894
0.650614 0.218006 0.863188
0.727337 0.175937 0.805127
0.726604 0.176181 0.804181
0.731044 0.174075 0.810819
0.052903 0.577371 0.805661
0.052903 0.573999 0.806943
0.0529641 0.566247 0.804105
0.052903 0.539117 0.794522
0.14931 0.501717 0.880812
0.627634 0.408835 0.923552
0.8009 0.260914 0.847196
0.778759 0.234653 0.837003
0.774578 0.224308 0.83949
0.0528725 0.749523 0.878706
0.0528725 0.748562 0.880507
0.0528878 0.744823 0.878782
0.0529946 0.73257 0.874159
0.0978561 0.722927 0.889937
0.552728 0.705531 0.92079
0.881163 0.660807 0.933867
0.913359 0.633326 0.92546
0.911284 0.628305 0.926055
0.193881 0.914382 0.926055
0.186297 0.914 0.927718
0.180789 0.911452 0.927367
0.166766 0.902144 0.925078
0.157504 0.880034 0.923339
0.509606 0.876631 0.933013
0.805783 0.864942 0.930648
0.936004 0.851209 0.935302
0.935714 0.846784 0.935744
0.177188 0.930755 0.924453
0.169482 0.932418 0.926802
0.169024 0.932509 0.926925
0.169024 0.932509 0.926925
0.182742 0.935103 0.928588
0.482231 0.941222 0.933791
0.679347 0.934707 0.93492
0.930175 0.932296 0.937606
0.943404 0.933211 0.937407
0.174899 0.931258 0.92517
0.168612 0.932601 0.927047
0.168002 0.932738 0.927245
0.168002 0.932738 0.927245
0.18114 0.935149 0.928817
0.469749 0.941024 0.933776
0.763638 0.939345 0.936538
0.924483 0.939849 0.939712
0.942351 0.939437 0.938491
