bundles/resolve-cinematic-luts/Phantom Luts/Fx6 Phntm ARRI LUTs-G5/ATOMOS Monitoring LUTs/Utopia Fx6-Legacy AML.cube
TITLE "Generated by Resolve"
LUT_3D_SIZE 33
0.0654002 0.0891432 0.0977646
0.0653849 0.0891127 0.0977188
0.0660258 0.0891585 0.0975814
0.0711833 0.0899519 0.0981918
0.0784161 0.0908064 0.0994888
0.0924392 0.0911116 0.101991
0.106691 0.0909438 0.101625
0.123507 0.090959 0.102052
0.142412 0.0913252 0.1028
0.165423 0.0920882 0.104402
0.194278 0.0926223 0.10605
0.230213 0.0927596 0.108064
0.271778 0.0927596 0.110872
0.31989 0.0932631 0.117693
0.37026 0.0941329 0.125734
0.421439 0.0951553 0.134585
0.472969 0.0959182 0.145006
0.522606 0.0981155 0.158999
0.567819 0.102846 0.177874
0.613825 0.109224 0.201785
0.675013 0.12134 0.234531
0.716869 0.130297 0.260014
0.725093 0.131228 0.270375
0.723827 0.130144 0.275425
0.722942 0.129488 0.280278
0.722286 0.128939 0.284657
0.721462 0.128252 0.288029
0.720714 0.127642 0.290867
0.720165 0.127108 0.293034
0.719951 0.126558 0.294957
0.719966 0.126085 0.296345
0.720348 0.125551 0.297749
0.720958 0.125032 0.298878
0.0653849 0.0891127 0.0977188
0.0653849 0.089128 0.0977493
0.0653849 0.0891127 0.0977188
0.0686961 0.0897993 0.0979934
0.0749218 0.0907607 0.0987869
0.0854047 0.0916609 0.100816
0.10016 0.0915541 0.101427
0.117739 0.0917372 0.101289
0.137957 0.0911421 0.100526
0.163272 0.090425 0.0997787
0.193835 0.0903792 0.100526
0.229557 0.0912337 0.103197
0.268055 0.0918746 0.105409
0.313771 0.0933394 0.109987
0.365011 0.0946059 0.118273
0.417777 0.0958877 0.12842
0.470283 0.0967575 0.139361
0.520577 0.0988022 0.152895
0.566522 0.103304 0.171618
0.613169 0.109728 0.195483
0.674434 0.121889 0.228809
0.717327 0.131151 0.254994
0.726238 0.13228 0.2654
0.725093 0.131182 0.270863
0.724025 0.13022 0.27509
0.723156 0.12961 0.279393
0.722637 0.129198 0.282673
0.72224 0.128786 0.285725
0.721767 0.128252 0.28806
0.721569 0.127733 0.289906
0.721721 0.12726 0.291417
0.722316 0.126696 0.292668
0.722866 0.126177 0.293751
0.0653849 0.0891127 0.0977188
0.0653849 0.089128 0.0977493
0.0653849 0.0891127 0.0977188
0.0670024 0.089662 0.0978866
0.0714427 0.0908064 0.0984054
0.0781262 0.0920882 0.0994888
0.0930343 0.0925612 0.10161
0.112428 0.09308 0.101625
0.133669 0.0924392 0.10074
0.159167 0.0919356 0.0998398
0.190646 0.0907149 0.0988632
0.226627 0.0895857 0.0983444
0.268925 0.0896773 0.100221
0.316777 0.0901656 0.103563
0.36524 0.0929885 0.110628
0.41413 0.097673 0.121813
0.467277 0.0986343 0.133516
0.518395 0.0994125 0.146929
0.564858 0.103853 0.165911
0.61207 0.110292 0.189685
0.673838 0.122438 0.222629
0.717662 0.132036 0.249424
0.727123 0.133303 0.260029
0.726375 0.13228 0.265675
0.725368 0.131319 0.270405
0.724498 0.130526 0.273777
0.72372 0.12987 0.277348
0.723201 0.129503 0.280186
0.722911 0.129198 0.28246
0.722957 0.128847 0.284443
0.723201 0.128481 0.286015
0.723949 0.127886 0.287358
0.724743 0.127275 0.288518
0.0667124 0.093904 0.100008
0.0666209 0.093019 0.0995041
0.0673533 0.0919966 0.0988632
0.0681773 0.0914778 0.0986038
0.0708934 0.0919203 0.0989395
0.0754864 0.0930343 0.0995346
0.0856184 0.0944076 0.100404
0.105745 0.0945602 0.101854
0.128923 0.0937514 0.101366
0.155108 0.0932631 0.100175
0.187366 0.0923018 0.0993668
0.225086 0.0905318 0.0981155
0.267369 0.0892195 0.0976577
0.315511 0.0876936 0.0973831
0.367758 0.0896773 0.103288
0.417411 0.0942092 0.114443
0.465858 0.100252 0.128054
0.516442 0.101335 0.141253
0.563149 0.104738 0.159457
0.610681 0.110826 0.1832
0.672618 0.122911 0.21619
0.717723 0.132937 0.243397
0.727657 0.13431 0.254261
0.727291 0.133333 0.260197
0.726696 0.132448 0.265156
0.725887 0.13164 0.269078
0.725155 0.130983 0.272221
0.724636 0.130434 0.274495
0.724208 0.129915 0.276936
0.724224 0.129503 0.278813
0.724483 0.129152 0.280308
0.725216 0.128695 0.281544
0.726162 0.128222 0.282689
0.0671244 0.101991 0.102098
0.0671244 0.100587 0.101366
0.0685893 0.0991836 0.100679
0.0705882 0.0979324 0.100725
0.0742657 0.0981765 0.100801
0.0787671 0.0986343 0.101671
0.0882887 0.0992142 0.101762
0.105943 0.0988632 0.101793
0.128252 0.0973068 0.101518
0.154421 0.0959487 0.100572
0.18436 0.0940414 0.099855
0.222995 0.0923171 0.0985122
0.266621 0.0905165 0.0971847
0.315114 0.0880903 0.0952621
0.367071 0.087953 0.097322
0.419409 0.0902266 0.105547
0.468986 0.0967727 0.120836
0.513924 0.103029 0.135744
0.560952 0.10576 0.152911
0.607095 0.111131 0.176043
0.669184 0.122881 0.208225
0.717052 0.133654 0.237003
0.727977 0.135271 0.248249
0.727855 0.134356 0.254337
0.727535 0.133516 0.259541
0.727062 0.132738 0.264073
0.726528 0.132113 0.267033
0.726024 0.131533 0.269825
0.725643 0.131014 0.271901
0.725734 0.130541 0.273365
0.72607 0.130129 0.274601
0.726802 0.129549 0.275853
0.727657 0.129015 0.276936
0.0655222 0.114641 0.101823
0.0655375 0.11281 0.100603
0.0667277 0.110536 0.0999008
0.0708629 0.107515 0.100633
0.0741436 0.106538 0.101015
0.079942 0.107256 0.10135
0.0921645 0.107195 0.102449
0.109453 0.105852 0.103243
0.128695 0.103258 0.102495
0.155154 0.102892 0.10164
0.188403 0.101289 0.100618
0.225086 0.0960708 0.0989395
0.265873 0.092607 0.0972
0.314916 0.0905165 0.0956588
0.367697 0.0892348 0.0960555
0.41944 0.0889754 0.0995956
0.471397 0.0921492 0.110948
0.516014 0.100099 0.128847
0.558679 0.105333 0.145983
0.602655 0.11078 0.168795
0.664729 0.122667 0.200992
0.713726 0.133471 0.229816
0.727001 0.135546 0.242298
0.728176 0.135317 0.248264
0.728084 0.134539 0.253498
0.72781 0.133806 0.258274
0.727565 0.133211 0.261738
0.727275 0.132662 0.264729
0.727108 0.132219 0.26656
0.727199 0.131701 0.26833
0.727489 0.131228 0.26978
0.728344 0.130632 0.271
0.729183 0.130098 0.272053
0.0634012 0.130053 0.100237
0.0632029 0.127962 0.0977646
0.0639963 0.126192 0.0969253
0.0685893 0.122332 0.097322
0.0721904 0.120104 0.0985885
0.0783246 0.120684 0.0988937
0.0925307 0.121782 0.0973068
0.112291 0.120241 0.100816
0.131807 0.116121 0.104097
0.15375 0.112657 0.103746
0.189258 0.109697 0.102327
0.226719 0.10695 0.100237
0.276493 0.101244 0.0987564
0.317113 0.0949416 0.0968643
0.36788 0.0921187 0.0962387
0.42089 0.0906539 0.0981155
0.47277 0.0906691 0.103593
0.518334 0.0948196 0.118212
0.557366 0.103548 0.137453
0.600214 0.111284 0.160555
0.659419 0.122667 0.191669
0.708461 0.133104 0.219791
0.723262 0.135668 0.232898
0.727275 0.135912 0.240635
0.728664 0.135653 0.245853
0.728557 0.135073 0.250431
0.728435 0.134493 0.253986
0.728313 0.133959 0.257404
0.728344 0.133562 0.259449
0.728527 0.13312 0.261372
0.728817 0.132708 0.262989
0.729381 0.13225 0.264332
0.729824 0.131914 0.265126
0.0607309 0.148638 0.098024
0.0608225 0.146944 0.0948806
0.0611582 0.145678 0.0927749
0.0651408 0.143511 0.0912032
0.0702068 0.140108 0.0930037
0.076112 0.138582 0.0950332
0.0898756 0.137835 0.0954147
0.111482 0.138399 0.0949569
0.134691 0.136019 0.102266
0.158083 0.131945 0.103685
0.188678 0.12369 0.104616
0.228641 0.117891 0.103471
0.275914 0.114199 0.10164
0.329274 0.109636 0.0991836
0.376333 0.100542 0.0987564
0.423239 0.0953231 0.0992599
0.475196 0.0928359 0.10164
0.520958 0.0937819 0.110231
0.560357 0.0978408 0.125216
0.5953 0.107134 0.146212
0.649729 0.12076 0.177783
0.701152 0.132555 0.207034
0.716579 0.135683 0.219516
0.720958 0.135576 0.227008
0.725032 0.13579 0.234043
0.727916 0.135988 0.23975
0.729107 0.135805 0.243931
0.729335 0.135576 0.246296
0.729305 0.135225 0.248753
0.729473 0.13489 0.250751
0.729809 0.134615 0.25185
0.730388 0.134173 0.253269
0.730983 0.133776 0.254414
0.0584421 0.170169 0.096025
0.0583963 0.168322 0.09308
0.058793 0.167422 0.0876173
0.0606851 0.166232 0.0847334
0.0673686 0.163165 0.0855421
0.0730602 0.160678 0.088304
0.0861067 0.159045 0.0927596
0.106172 0.157824 0.0934005
0.133013 0.158129 0.0950484
0.161822 0.154437 0.102434
0.190997 0.149065 0.103105
0.234928 0.134401 0.106371
0.273747 0.129198 0.105806
0.333669 0.125917 0.105486
0.386923 0.121996 0.104433
0.443976 0.113512 0.10515
0.481727 0.101152 0.104295
0.524926 0.097322 0.108537
0.565682 0.0985733 0.119326
0.598291 0.100282 0.132555
0.635721 0.115358 0.159167
0.688014 0.130388 0.189441
0.705242 0.134081 0.202258
0.710842 0.134981 0.209735
0.71545 0.135653 0.216403
0.719371 0.135912 0.222049
0.721782 0.135729 0.226261
0.724086 0.135882 0.230579
0.725933 0.136004 0.233768
0.727382 0.136095 0.236378
0.728832 0.13608 0.237903
0.729931 0.135897 0.239139
0.730739 0.135592 0.240024
0.0558328 0.19736 0.0958419
0.055787 0.195605 0.0914321
0.056733 0.194781 0.086305
0.0576028 0.19408 0.080766
0.0630808 0.19263 0.0784161
0.0699016 0.189822 0.0802167
0.0802014 0.186908 0.0852979
0.0992599 0.184924 0.0914015
0.125093 0.182177 0.0932479
0.157321 0.182177 0.0960555
0.196124 0.177905 0.10341
0.232105 0.170642 0.104555
0.287465 0.150179 0.109987
0.329992 0.146502 0.110613
0.395117 0.143679 0.112261
0.451713 0.141482 0.113619
0.513863 0.136034 0.115877
0.548424 0.120119 0.117556
0.574823 0.105943 0.118944
0.607126 0.103349 0.129305
0.631296 0.105165 0.143694
0.674357 0.123568 0.170764
0.689097 0.130861 0.182208
0.69514 0.132509 0.188876
0.700481 0.133669 0.194812
0.704067 0.134096 0.199359
0.707713 0.134661 0.203754
0.710384 0.135134 0.207782
0.712718 0.135424 0.210529
0.714488 0.135637 0.212848
0.715892 0.135744 0.214771
0.717494 0.135668 0.215976
0.718959 0.1355 0.216815
0.0530861 0.233692 0.0986648
0.0533455 0.231754 0.0935378
0.0536812 0.230182 0.0876173
0.054612 0.228824 0.0799878
0.0565194 0.227665 0.0730602
0.0636149 0.226459 0.0715038
0.0738994 0.223545 0.0749981
0.0920272 0.220417 0.0818647
0.116808 0.218158 0.0897231
0.148257 0.214267 0.0942855
0.189929 0.214115 0.0982071
0.23946 0.209567 0.105577
0.283146 0.202014 0.107774
0.346914 0.176715 0.115816
0.393362 0.17232 0.118364
0.461158 0.172824 0.1243
0.52575 0.172732 0.130266
0.581384 0.170932 0.136172
0.622721 0.153445 0.13904
0.638376 0.125017 0.134554
0.648493 0.109819 0.140368
0.671183 0.115282 0.158968
0.681163 0.120714 0.167788
0.682628 0.122469 0.170031
0.682918 0.123644 0.17145
0.684321 0.125658 0.173709
0.68571 0.127367 0.176165
0.688746 0.129992 0.179965
0.692027 0.131777 0.183612
0.694118 0.132097 0.185702
0.695811 0.132311 0.187259
0.697444 0.132296 0.188418
0.698817 0.132174 0.189136
0.0528267 0.277089 0.102373
0.0529946 0.275669 0.0979629
0.0530404 0.274586 0.0941787
0.0528573 0.272511 0.0860304
0.0534981 0.271031 0.076524
0.056199 0.269657 0.0677043
0.0657664 0.26862 0.0657054
0.0832685 0.265278 0.0704204
0.108675 0.262577 0.0796216
0.140185 0.260349 0.0915694
0.182269 0.254917 0.0997024
0.234989 0.255512 0.101793
0.295552 0.251957 0.110323
0.346395 0.245136 0.1131
0.41207 0.219562 0.125536
0.463813 0.210727 0.133135
0.528328 0.212055 0.141314
0.597131 0.213931 0.15201
0.651087 0.212421 0.159319
0.703151 0.198276 0.163653
0.722103 0.162341 0.159594
0.716197 0.127138 0.155032
0.697475 0.114488 0.157061
0.687694 0.115084 0.160418
0.685603 0.116228 0.161898
0.685191 0.116609 0.16257
0.684779 0.116884 0.163134
0.684352 0.117174 0.163684
0.683894 0.117372 0.164096
0.683604 0.117525 0.164401
0.68365 0.117678 0.164645
0.68397 0.117601 0.164706
0.684611 0.117494 0.164752
0.0530098 0.333165 0.111299
0.0530098 0.331899 0.107088
0.0528267 0.330861 0.10277
0.0528115 0.329274 0.0970932
0.0529488 0.327016 0.0888838
0.0539406 0.325246 0.0790265
0.057496 0.323125 0.0645914
0.0736248 0.322423 0.0615854
0.0977798 0.318379 0.0681621
0.131594 0.316487 0.080354
0.172747 0.313664 0.0977188
0.22858 0.306249 0.109865
0.291249 0.30782 0.108614
0.360601 0.303929 0.117311
0.411261 0.299626 0.120867
0.478508 0.275441 0.138399
0.537652 0.2636 0.15082
0.594614 0.258335 0.159716
0.666117 0.261982 0.175326
0.727718 0.260746 0.185931
0.779797 0.247837 0.191424
0.805798 0.211551 0.18912
0.796338 0.17203 0.177539
0.778241 0.149432 0.168124
0.76286 0.138323 0.164263
0.749325 0.131029 0.161807
0.737453 0.125826 0.16022
0.727275 0.121386 0.158053
0.71957 0.119127 0.157809
0.713069 0.117266 0.157397
0.708461 0.116243 0.157366
0.705547 0.115251 0.156817
0.704784 0.115206 0.157351
0.0532235 0.397848 0.125017
0.053727 0.396902 0.121294
0.0538949 0.395651 0.116487
0.0542 0.394797 0.113237
0.0547494 0.393332 0.107347
0.0555276 0.391226 0.0998245
0.0575723 0.38938 0.085771
0.0634928 0.386465 0.0652781
0.0886549 0.38436 0.0604562
0.119158 0.379095 0.068986
0.163943 0.376944 0.0865492
0.217548 0.371954 0.111238
0.28368 0.362661 0.123507
0.356451 0.366125 0.116167
0.42797 0.362417 0.129412
0.478447 0.360922 0.133532
0.543984 0.341741 0.150958
0.612451 0.325887 0.170535
0.661097 0.319692 0.181277
0.735042 0.31487 0.198657
0.805661 0.31342 0.213367
0.847532 0.302068 0.218189
0.870085 0.281437 0.219303
0.868086 0.265354 0.214679
0.859724 0.250721 0.208911
0.851545 0.237995 0.203632
0.843839 0.227832 0.198154
0.838911 0.218143 0.198108
0.833631 0.210712 0.194812
0.829847 0.205264 0.192599
0.826856 0.201328 0.190677
0.825757 0.198138 0.189044
0.825422 0.195132 0.187167
0.0585184 0.465415 0.146319
0.0585336 0.464271 0.142
0.0592203 0.463294 0.136919
0.059556 0.462531 0.132937
0.0594492 0.46183 0.129107
0.059678 0.460685 0.124315
0.0606241 0.458274 0.114794
0.063798 0.455665 0.0962081
0.072282 0.452415 0.0703288
0.110124 0.44831 0.0638132
0.149233 0.442527 0.0764477
0.209293 0.438926 0.102586
0.275502 0.43151 0.1346
0.349386 0.421332 0.14229
0.425345 0.426932 0.129946
0.496269 0.422843 0.145617
0.546242 0.422568 0.151904
0.607431 0.408865 0.165637
0.682399 0.389334 0.192599
0.729046 0.383642 0.203525
0.798108 0.36733 0.221546
0.866194 0.36527 0.237675
0.892195 0.355215 0.242329
0.893339 0.346349 0.23978
0.891539 0.339086 0.237461
0.890013 0.332769 0.235401
0.888579 0.327352 0.233494
0.887297 0.322972 0.231891
0.886305 0.319234 0.2309
0.885664 0.31693 0.230365
0.885054 0.314672 0.229786
0.885206 0.312886 0.229068
0.886015 0.311437 0.228077
0.0693217 0.53547 0.177554
0.06981 0.534707 0.173175
0.0700084 0.533623 0.167666
0.0702831 0.532555 0.162478
0.0701305 0.531853 0.158526
0.0697337 0.531395 0.155596
0.0696269 0.530159 0.149233
0.071397 0.527749 0.135683
0.0756085 0.524605 0.110857
0.0887922 0.520165 0.077348
0.139712 0.514214 0.0739605
0.194369 0.507774 0.095613
0.268086 0.501595 0.128969
0.344823 0.491295 0.163394
0.419562 0.48101 0.163668
0.493797 0.488609 0.14876
0.56405 0.484489 0.166278
0.613336 0.485008 0.173709
0.670649 0.476524 0.187137
0.748638 0.452369 0.214496
0.80209 0.444266 0.229572
0.854871 0.430518 0.2421
0.900984 0.417273 0.25626
0.906706 0.41001 0.257603
0.905684 0.4047 0.256382
0.905043 0.400687 0.255558
0.904326 0.396918 0.254749
0.903471 0.39382 0.253712
0.903487 0.391806 0.253559
0.903258 0.389914 0.253208
0.902739 0.388449 0.252628
0.902815 0.387289 0.252003
0.903319 0.386481 0.251423
0.0861067 0.605066 0.217716
0.0860304 0.604242 0.213611
0.0863203 0.603616 0.208988
0.0864729 0.602716 0.203861
0.0865339 0.601892 0.199115
0.0865339 0.601251 0.195239
0.0863508 0.600671 0.191791
0.0865339 0.599207 0.183337
0.0896162 0.596002 0.163073
0.0963302 0.592538 0.131456
0.116197 0.586145 0.090837
0.183764 0.578973 0.0949874
0.257542 0.571801 0.12549
0.339666 0.562249 0.163363
0.419059 0.550347 0.191928
0.489006 0.540734 0.186389
0.561074 0.549081 0.171878
0.629465 0.54551 0.191806
0.678096 0.545876 0.20177
0.733806 0.540948 0.212879
0.805936 0.514717 0.238331
0.867552 0.5037 0.257755
0.899519 0.498817 0.263706
0.914641 0.489937 0.267475
0.916381 0.483452 0.267872
0.915831 0.477897 0.267231
0.915297 0.473228 0.266789
0.914702 0.469184 0.266392
0.914702 0.466407 0.266499
0.91426 0.463828 0.266178
0.913939 0.461997 0.265904
0.913924 0.460685 0.26537
0.914092 0.459861 0.264652
0.1084 0.673686 0.263203
0.108415 0.673121 0.259236
0.108385 0.672419 0.254917
0.108248 0.671656 0.250706
0.108339 0.67097 0.245624
0.108492 0.670481 0.241428
0.108629 0.669963 0.237354
0.108034 0.668833 0.232013
0.108461 0.666911 0.220844
0.113237 0.663142 0.193256
0.123095 0.658289 0.15227
0.15465 0.650248 0.10956
0.244923 0.641032 0.12607
0.332387 0.633188 0.162356
0.418723 0.621302 0.203662
0.492073 0.608835 0.221744
0.557092 0.600519 0.211627
0.625513 0.609491 0.200702
0.692302 0.604593 0.222782
0.740948 0.604913 0.234028
0.794034 0.60209 0.243763
0.854276 0.580713 0.263996
0.9075 0.567987 0.281773
0.922454 0.566674 0.282277
0.923506 0.56289 0.280919
0.923156 0.558602 0.279911
0.922621 0.55523 0.278828
0.922652 0.552743 0.27837
0.922454 0.550622 0.277806
0.922026 0.548943 0.277119
0.921798 0.547616 0.276783
0.921859 0.546807 0.276341
0.922026 0.54641 0.275624
0.133104 0.742046 0.309545
0.132921 0.741405 0.30576
0.132326 0.740734 0.302693
0.132235 0.740169 0.298985
0.132403 0.739773 0.295308
0.132708 0.739269 0.291096
0.133028 0.738537 0.286122
0.133013 0.737636 0.279591
0.132448 0.736126 0.272129
0.134157 0.733471 0.255634
0.140246 0.728756 0.222126
0.155734 0.722057 0.173648
0.212039 0.713039 0.136629
0.324498 0.702144 0.167117
0.41503 0.69308 0.206012
0.494026 0.680003 0.245686
0.560845 0.667582 0.252171
0.621286 0.659922 0.241932
0.688045 0.670802 0.233371
0.753002 0.662791 0.256947
0.801358 0.663401 0.269749
0.84596 0.661189 0.276799
0.891447 0.649836 0.28574
0.923476 0.63859 0.299886
0.92697 0.635477 0.301488
0.92697 0.632181 0.300877
0.926802 0.629084 0.300084
0.926909 0.626856 0.299535
0.926787 0.624765 0.299016
0.926802 0.623453 0.298726
0.926787 0.622293 0.298421
0.926757 0.621469 0.297917
0.926604 0.620966 0.297185
0.163348 0.811841 0.352956
0.162753 0.81146 0.350072
0.16199 0.811002 0.347051
0.161593 0.810468 0.344152
0.161532 0.809979 0.340642
0.161547 0.809613 0.337606
0.161471 0.808972 0.332296
0.161776 0.80798 0.325475
0.161578 0.806317 0.317769
0.161273 0.804486 0.308476
0.163409 0.800946 0.286488
0.172366 0.795468 0.244404
0.196551 0.785275 0.188083
0.284749 0.775113 0.170031
0.411383 0.764019 0.214267
0.492943 0.754269 0.250813
0.564584 0.741161 0.284199
0.626032 0.728222 0.286336
0.682811 0.720439 0.278111
0.746761 0.731167 0.270527
0.813947 0.722789 0.29395
0.856794 0.72398 0.307637
0.8925 0.722927 0.312444
0.921813 0.716564 0.314092
0.930282 0.70724 0.315892
0.930816 0.703227 0.314946
0.930465 0.700587 0.313832
0.930037 0.698604 0.312886
0.929854 0.697017 0.312474
0.929763 0.69572 0.312245
0.92987 0.694926 0.312322
0.929824 0.69424 0.312261
0.929686 0.693736 0.312078
0.19469 0.87538 0.390448
0.194293 0.875105 0.387564
0.193484 0.874739 0.384619
0.192721 0.874449 0.38201
0.192309 0.874296 0.379217
0.192187 0.874052 0.376287
0.19202 0.873426 0.372091
0.191897 0.872343 0.366369
0.19205 0.871 0.358495
0.191073 0.868727 0.349477
0.189456 0.866423 0.338308
0.193194 0.862409 0.310994
0.20676 0.854704 0.261463
0.248371 0.845548 0.209033
0.379019 0.831571 0.217792
0.490517 0.821561 0.260685
0.565606 0.810575 0.29543
0.628595 0.797543 0.320455
0.687541 0.784726 0.322087
0.743404 0.778653 0.314748
0.807019 0.791226 0.30927
0.869352 0.782727 0.330892
0.906279 0.785031 0.343328
0.932387 0.78439 0.347799
0.943862 0.780011 0.350271
0.943969 0.775906 0.349065
0.943816 0.773724 0.348287
0.943084 0.771618 0.346685
0.942687 0.769741 0.345907
0.942397 0.768322 0.345251
0.942214 0.767285 0.344808
0.942245 0.76669 0.344732
0.94226 0.766278 0.344701
0.229648 0.929534 0.424765
0.22858 0.929259 0.422034
0.227207 0.92903 0.419394
0.22591 0.928817 0.416495
0.22443 0.92842 0.413809
0.223499 0.927886 0.410941
0.222904 0.92726 0.407416
0.221836 0.926055 0.402594
0.220493 0.924666 0.395605
0.220188 0.922881 0.386389
0.219699 0.920684 0.376013
0.219211 0.917861 0.361532
0.225299 0.912917 0.32723
0.250599 0.904402 0.275395
0.309194 0.894484 0.231983
0.47422 0.87953 0.269627
0.562463 0.869383 0.30634
0.632624 0.857877 0.340063
0.689036 0.84622 0.355993
0.747433 0.834104 0.356161
0.804471 0.831098 0.349966
0.864469 0.845579 0.34815
0.917327 0.837263 0.368505
0.945693 0.837995 0.377752
0.949889 0.838514 0.383047
0.949813 0.836042 0.385046
0.949813 0.833677 0.384268
0.949813 0.831769 0.383169
0.949828 0.830457 0.382361
0.949859 0.829404 0.381689
0.949859 0.828519 0.381155
0.949859 0.827909 0.380865
0.949859 0.827527 0.380865
0.255253 0.949737 0.452354
0.25452 0.949783 0.449851
0.253269 0.949905 0.447288
0.25211 0.94995 0.444602
0.251179 0.949905 0.441932
0.250584 0.949889 0.439384
0.249973 0.949889 0.436286
0.249165 0.949874 0.432181
0.24828 0.949874 0.426154
0.247303 0.949828 0.418006
0.245808 0.949676 0.406332
0.244205 0.949279 0.393866
0.244572 0.948913 0.376486
0.262898 0.947478 0.340505
0.299687 0.941344 0.293873
0.393988 0.928283 0.271656
0.552102 0.91519 0.317372
0.627863 0.905608 0.350561
0.693446 0.893568 0.382513
0.744366 0.882979 0.389334
0.80354 0.872358 0.388144
0.861173 0.874754 0.382589
0.912596 0.888594 0.383978
0.94905 0.879866 0.401022
0.949844 0.881758 0.407355
0.949722 0.880323 0.412467
0.949722 0.878721 0.411902
0.94992 0.877516 0.411322
0.949935 0.876387 0.410605
0.949935 0.875486 0.409842
0.94992 0.874815 0.409308
0.949828 0.874357 0.408942
0.949767 0.874022 0.408835
0.257939 0.949783 0.463081
0.25745 0.949752 0.460197
0.25626 0.949767 0.457099
0.255192 0.949752 0.453941
0.2542 0.949783 0.451408
0.253773 0.949859 0.448692
0.253208 0.949935 0.445304
0.252674 0.94995 0.440681
0.251698 0.949905 0.435203
0.250309 0.949874 0.427192
0.248966 0.949844 0.415976
0.24683 0.949798 0.401709
0.245182 0.949584 0.386145
0.256962 0.949203 0.356695
0.294759 0.949218 0.321935
0.363546 0.947601 0.300221
0.504479 0.940993 0.323964
0.62005 0.928023 0.365362
0.685084 0.918242 0.399298
0.743099 0.907683 0.419104
0.792554 0.897856 0.422934
0.853559 0.891951 0.416785
0.903059 0.902678 0.408698
0.94229 0.903807 0.419242
0.949722 0.909804 0.431067
0.949737 0.909743 0.437736
0.949737 0.908522 0.437675
0.949737 0.907912 0.435966
0.949737 0.907423 0.434516
0.949737 0.906859 0.433295
0.949828 0.906462 0.43267
0.949905 0.906157 0.432303
0.94995 0.905913 0.432258
0.257771 0.949798 0.470924
0.257343 0.949767 0.468132
0.256428 0.949783 0.465095
0.255543 0.949767 0.461723
0.254566 0.949752 0.458732
0.254154 0.949752 0.455299
0.253803 0.949798 0.451835
0.253452 0.949889 0.447135
0.252659 0.94995 0.441077
0.251469 0.949889 0.433509
0.249638 0.949859 0.42237
0.247868 0.949828 0.407858
0.246235 0.94966 0.391058
0.251438 0.94931 0.365179
0.287327 0.949401 0.329778
0.348775 0.948363 0.302312
0.476219 0.943679 0.317754
0.608804 0.930388 0.360922
0.676371 0.920638 0.395636
0.736355 0.910063 0.419654
0.785901 0.900771 0.427771
0.842145 0.892714 0.426871
0.896056 0.901991 0.423087
0.937423 0.910246 0.42739
0.949737 0.909529 0.439063
0.949935 0.912245 0.453925
0.949828 0.912947 0.466056
0.949844 0.912917 0.465492
0.949874 0.912917 0.464118
0.949905 0.912917 0.463096
0.949905 0.912947 0.462852
0.949905 0.912932 0.462821
0.949905 0.912947 0.462852
0.256474 0.949813 0.478111
0.256367 0.949798 0.475227
0.255955 0.949798 0.471687
0.255528 0.949783 0.468559
0.254765 0.949783 0.465537
0.254414 0.949767 0.461967
0.254078 0.949767 0.457923
0.253849 0.949767 0.452552
0.253391 0.949905 0.446448
0.252308 0.949935 0.438544
0.250523 0.949874 0.427924
0.24889 0.949844 0.413275
0.247333 0.949752 0.395499
0.249577 0.949401 0.372839
0.280995 0.949493 0.336294
0.337804 0.948852 0.302937
0.455146 0.944457 0.312673
0.598291 0.93164 0.356603
0.669337 0.921843 0.391684
0.730159 0.911131 0.418418
0.780743 0.901884 0.427451
0.835248 0.893462 0.428107
0.890761 0.900191 0.423606
0.93312 0.911421 0.425391
0.949737 0.908354 0.435203
0.94992 0.911955 0.447517
0.949828 0.913024 0.465263
0.949783 0.913085 0.466819
0.949783 0.9131 0.466743
0.949798 0.9131 0.465858
0.949828 0.913085 0.464973
0.949844 0.913085 0.464271
0.949859 0.913069 0.463752
0.254612 0.949828 0.484047
0.25481 0.949813 0.480903
0.254902 0.949813 0.477546
0.254978 0.949798 0.474403
0.254887 0.949798 0.470771
0.254566 0.949767 0.46772
0.254276 0.949783 0.463279
0.254078 0.949752 0.457694
0.253773 0.949813 0.450996
0.252796 0.94995 0.442924
0.251286 0.949874 0.432563
0.249653 0.949844 0.418341
0.248203 0.949813 0.399496
0.248722 0.949508 0.37847
0.27602 0.949508 0.341253
0.328023 0.948943 0.303532
0.438392 0.945022 0.309056
0.589181 0.932631 0.352941
0.663691 0.92256 0.388632
0.725109 0.912001 0.417121
0.776287 0.902708 0.426871
0.829389 0.894286 0.428443
0.886442 0.89865 0.423987
0.927657 0.910262 0.42417
0.949554 0.907179 0.432868
0.94992 0.91191 0.446128
