bundles/resolve-cinematic-luts/Phantom Luts/Fx6 Phntm ARRI LUTs-G5/ATOMOS Monitoring LUTs/Utopia Fx6 AML.cube
TITLE "Generated by Resolve"
LUT_3D_SIZE 5
0.0556039 0.0793622 0.0868086
0.17203 0.0834058 0.0957656
0.54081 0.0935378 0.162295
0.758587 0.12932 0.332494
0.756725 0.122881 0.351507
0.0529793 0.20502 0.0848554
0.162005 0.186725 0.0898299
0.553155 0.112184 0.11133
0.764889 0.140642 0.253513
0.775723 0.138094 0.283787
0.0888838 0.663691 0.262165
0.0935683 0.654963 0.194003
0.617502 0.59762 0.186404
0.91487 0.556619 0.274891
0.915541 0.535698 0.272023
0.287663 0.949874 0.526711
0.281773 0.949813 0.498054
0.525826 0.937148 0.366522
0.949767 0.912154 0.481727
0.949828 0.916854 0.508141
0.283009 0.949935 0.55465
0.286763 0.949874 0.522255
0.456184 0.941253 0.351797
0.94725 0.908202 0.471534
0.949905 0.917388 0.512245
0.0529641 0.0948501 0.156664
0.155962 0.0841535 0.189364
0.532586 0.0864576 0.249851
0.7411 0.117708 0.374517
0.739879 0.114336 0.384329
0.0529488 0.183093 0.182467
0.142123 0.171786 0.17969
0.538079 0.100862 0.163561
0.762478 0.12932 0.330297
0.758175 0.123888 0.347921
0.075227 0.654521 0.335988
0.0828565 0.650599 0.259007
0.610056 0.590661 0.185809
0.915175 0.536263 0.272892
0.916243 0.511421 0.270054
0.285466 0.94992 0.557824
0.285481 0.949889 0.528405
0.462715 0.940856 0.352819
0.949783 0.911879 0.486427
0.949844 0.916472 0.508705
0.281666 0.949477 0.584558
0.285237 0.949935 0.555673
0.396857 0.945739 0.351141
0.943099 0.909026 0.479164
0.949966 0.917662 0.515831
0.0528573 0.168566 0.48867
0.120989 0.128634 0.523934
0.524758 0.111315 0.531792
0.756893 0.133303 0.52874
0.766354 0.133669 0.547036
0.0528115 0.211688 0.438514
0.0529183 0.163088 0.487953
0.515511 0.112764 0.521401
0.748348 0.129854 0.505348
0.756756 0.130236 0.520058
0.0578622 0.602914 0.568719
0.0558175 0.597604 0.5635
0.555993 0.572335 0.562844
0.924865 0.445167 0.503807
0.917891 0.403464 0.497078
0.281331 0.946868 0.700664
0.27834 0.947265 0.684871
0.334798 0.949798 0.537392
0.942885 0.911696 0.583444
0.949859 0.907423 0.58555
0.280919 0.946563 0.725185
0.279271 0.946807 0.707637
0.315007 0.94992 0.556069
0.915022 0.917464 0.57879
0.949752 0.922881 0.601251
0.052781 0.378775 0.786664
0.0530251 0.333242 0.821973
0.515267 0.266529 0.874128
0.749493 0.180728 0.808637
0.75198 0.179644 0.812833
0.0528725 0.392416 0.773693
0.052842 0.372564 0.785153
0.484398 0.265553 0.870054
0.746517 0.181704 0.801205
0.75169 0.179828 0.811994
0.0530251 0.600015 0.772076
0.0528725 0.595209 0.77911
0.298619 0.542412 0.878096
0.829664 0.299428 0.843351
0.807828 0.2495 0.823316
0.32932 0.92134 0.89247
0.315511 0.919646 0.891218
0.302556 0.905394 0.872724
0.893507 0.893599 0.886183
0.943343 0.881987 0.878141
0.363714 0.924651 0.907622
0.363577 0.9252 0.905318
0.378759 0.933928 0.879301
0.857191 0.94612 0.877882
0.947265 0.941222 0.897108
0.0529793 0.396323 0.801419
0.0529488 0.367575 0.845548
0.527565 0.294286 0.891264
0.749493 0.180819 0.809232
0.751766 0.179751 0.81239
0.0529793 0.407004 0.785031
0.0530861 0.396765 0.803113
0.492424 0.297856 0.890272
0.746899 0.182284 0.805539
0.75169 0.179812 0.812085
0.0529488 0.622477 0.83006
0.052903 0.613718 0.829725
0.230838 0.53727 0.885603
0.814832 0.288441 0.855863
0.791897 0.242618 0.843076
0.253666 0.91014 0.918944
0.242115 0.907637 0.919722
0.210437 0.885542 0.916579
0.83505 0.878492 0.929412
0.933135 0.867353 0.934157
0.227527 0.924147 0.918761
0.222965 0.925032 0.920501
0.239872 0.926482 0.922133
0.809476 0.939315 0.93817
0.94548 0.94345 0.942489
