bundles/resolve-cinematic-luts/Phantom Luts/Fx6 Phntm ARRI LUTs-G5/ATOMOS Monitoring LUTs/Utopia Fx6-Legacy AML.cube
TITLE "Generated by Resolve"
LUT_3D_SIZE 5
0.0654002 0.0891432 0.0977646
0.142412 0.0913252 0.1028
0.472969 0.0959182 0.145006
0.722942 0.129488 0.280278
0.720958 0.125032 0.298878
0.0584421 0.170169 0.096025
0.133013 0.158129 0.0950484
0.481727 0.101152 0.104295
0.71545 0.135653 0.216403
0.730739 0.135592 0.240024
0.0861067 0.605066 0.217716
0.0896162 0.596002 0.163073
0.561074 0.549081 0.171878
0.916381 0.483452 0.267872
0.914092 0.459861 0.264652
0.257771 0.949798 0.470924
0.252659 0.94995 0.441077
0.476219 0.943679 0.317754
0.949737 0.909529 0.439063
0.949905 0.912947 0.462852
0.251453 0.949813 0.500114
0.256046 0.949783 0.466133
0.413321 0.946227 0.306859
0.945327 0.905165 0.430091
0.949767 0.913252 0.465721
0.0529335 0.0954604 0.142641
0.129534 0.0921798 0.16733
0.472374 0.0913863 0.20853
0.708782 0.119844 0.322911
0.706355 0.117494 0.333227
0.0601053 0.155993 0.159869
0.118196 0.148226 0.156939
0.467536 0.100313 0.145205
0.725017 0.129442 0.277958
0.722469 0.125872 0.295552
0.0738384 0.598993 0.280995
0.0803693 0.590845 0.214389
0.553109 0.541772 0.171588
0.913725 0.460655 0.265644
0.91133 0.434669 0.261967
0.254673 0.949859 0.504036
0.254398 0.949798 0.472389
0.415396 0.945861 0.304173
0.949752 0.908827 0.443214
0.949889 0.912947 0.463493
0.250172 0.949874 0.530922
0.254185 0.949859 0.501549
0.356786 0.948196 0.305013
0.940993 0.909895 0.433799
0.949737 0.913436 0.468818
0.0528573 0.15285 0.422782
0.0859388 0.124285 0.454414
0.463798 0.105592 0.472099
0.731594 0.127016 0.470832
0.741192 0.127626 0.487694
0.0527504 0.178912 0.372534
0.052903 0.149203 0.421271
0.453025 0.10573 0.460044
0.720134 0.123644 0.447089
0.728847 0.124483 0.461524
0.0583352 0.545632 0.512444
0.0563058 0.539773 0.507088
0.500359 0.519219 0.511025
0.916091 0.400381 0.456977
0.908721 0.36054 0.449775
0.244465 0.949874 0.649973
0.242206 0.949828 0.633234
0.297658 0.949874 0.481422
0.942443 0.911742 0.532219
0.949737 0.907256 0.534859
0.24097 0.949935 0.674922
0.240681 0.949889 0.656886
0.280491 0.949798 0.501762
0.899702 0.910048 0.524742
0.949783 0.917433 0.546654
0.0528878 0.335134 0.751842
0.0528115 0.300282 0.781491
0.436149 0.234333 0.855451
0.729824 0.1738 0.808972
0.731594 0.173007 0.812284
0.0527657 0.344823 0.735348
0.0529335 0.329152 0.74786
0.404898 0.232761 0.849622
0.727794 0.174594 0.800092
0.731472 0.173068 0.812085
0.0529641 0.545037 0.721828
0.0528267 0.540124 0.729366
0.222675 0.502632 0.865766
0.819989 0.269291 0.831296
0.796918 0.228626 0.808164
0.275456 0.929702 0.889677
0.260929 0.927626 0.888197
0.250172 0.908202 0.862867
0.88336 0.88426 0.87361
0.944656 0.866468 0.861601
0.307256 0.932723 0.910613
0.306355 0.934417 0.907439
0.322057 0.945953 0.869291
0.824933 0.947143 0.857176
0.945891 0.936217 0.875685
0.0527962 0.352743 0.777035
0.0530098 0.332128 0.816114
0.447898 0.258152 0.878935
0.729778 0.173846 0.809705
0.731212 0.17319 0.811643
0.0529488 0.360189 0.756298
0.0528725 0.353231 0.778714
0.412268 0.261311 0.87718
0.727825 0.175006 0.806607
0.731533 0.173022 0.812192
0.052903 0.577371 0.805661
0.0529641 0.566247 0.804105
0.14931 0.501717 0.880812
0.8009 0.260914 0.847196
0.774578 0.224308 0.83949
0.193881 0.914382 0.926055
0.180789 0.911452 0.927367
0.157504 0.880034 0.923339
0.805783 0.864942 0.930648
0.935714 0.846784 0.935744
0.174899 0.931258 0.92517
0.168002 0.932738 0.927245
0.18114 0.935149 0.928817
0.763638 0.939345 0.936538
0.942351 0.939437 0.938491
