bundles/resolve-cinematic-luts/Phantom Luts/A7s3 Phntm Film LUTs - G6/ATOMOS Monitor LUTs/Slog3/Bleach A7s3 AML.cube
TITLE "Generated by Resolve"
LUT_3D_SIZE 5
0.0729839 0.0838483 0.0742046
0.086305 0.0864881 0.0781109
0.256321 0.0926528 0.091249
0.576593 0.101396 0.156786
0.820279 0.178927 0.350805
0.0844739 0.143252 0.0910201
0.144793 0.161715 0.0924392
0.408743 0.11931 0.0996567
0.698039 0.126818 0.178088
0.859815 0.25977 0.398627
0.0587167 0.405814 0.118395
0.071458 0.42829 0.0804913
0.567025 0.580118 0.143221
0.864378 0.632593 0.314977
0.903731 0.599756 0.360113
0.177264 0.729946 0.338735
0.201587 0.731304 0.302571
0.588235 0.766232 0.312139
0.84329 0.839628 0.487739
0.910857 0.855055 0.615183
0.533318 0.78822 0.577844
0.536782 0.786801 0.560342
0.700664 0.830686 0.626749
0.864775 0.878447 0.692973
0.91458 0.893278 0.74522
0.0729381 0.0847791 0.0852674
0.0881056 0.0866255 0.0869612
0.270542 0.0915389 0.1308
0.591211 0.102449 0.203555
0.826871 0.183444 0.405249
0.0824598 0.144717 0.125689
0.150805 0.160876 0.149371
0.454322 0.121813 0.135805
0.702068 0.122759 0.232456
0.877943 0.286305 0.510674
0.054963 0.414984 0.162036
0.0623941 0.433921 0.126757
0.570047 0.582422 0.154696
0.871916 0.622766 0.357244
0.906264 0.561669 0.440238
0.176806 0.728756 0.375952
0.18706 0.733104 0.344228
0.548837 0.759503 0.317342
0.843259 0.839506 0.490272
0.914275 0.854353 0.636225
0.531716 0.790478 0.595468
0.529091 0.787442 0.575113
0.674861 0.823484 0.616266
0.85922 0.876921 0.689677
0.91371 0.892302 0.739559
0.0731518 0.0871901 0.16434
0.112917 0.0878309 0.188754
0.298802 0.0928511 0.2486
0.624887 0.110979 0.403464
0.821042 0.152087 0.560098
0.0670787 0.117479 0.248707
0.0981308 0.108019 0.330724
0.489418 0.100847 0.385245
0.722866 0.12607 0.51426
0.858991 0.210147 0.632242
0.055787 0.413916 0.355383
0.0617227 0.436698 0.373602
0.605432 0.592111 0.574578
0.876997 0.581765 0.586007
0.906645 0.506142 0.628763
0.166552 0.72398 0.530358
0.175509 0.725765 0.512383
0.474205 0.753582 0.51339
0.851362 0.842344 0.63444
0.91606 0.851911 0.698222
0.54139 0.799741 0.656031
0.546319 0.798779 0.643458
0.588891 0.803418 0.613245
0.848646 0.876143 0.704768
0.913405 0.892256 0.739559
0.0761883 0.0892195 0.30161
0.119463 0.0894484 0.35668
0.335775 0.0950484 0.462226
0.657511 0.118608 0.571786
0.840742 0.162966 0.690898
0.0622721 0.110262 0.435172
0.0942092 0.0936294 0.518547
0.49987 0.0993057 0.613886
0.760433 0.139361 0.662776
0.854261 0.17911 0.731502
0.0583352 0.409827 0.573373
0.0585641 0.427329 0.59762
0.544244 0.550454 0.768124
0.90544 0.5514 0.822232
0.919829 0.404196 0.838346
0.168872 0.720455 0.673945
0.176181 0.722332 0.675547
0.462119 0.754116 0.71075
0.864149 0.842649 0.811276
0.916014 0.839124 0.820768
0.496101 0.798581 0.720943
0.505058 0.799588 0.717281
0.58967 0.818738 0.728832
0.868162 0.894026 0.826459
0.91635 0.901457 0.834806
0.0865339 0.0922713 0.459007
0.132525 0.093492 0.533669
0.368002 0.100008 0.615274
0.663462 0.111727 0.658442
0.853773 0.170489 0.763867
0.0623331 0.12192 0.579858
0.0895399 0.104768 0.627756
0.491066 0.10425 0.713603
0.778286 0.142046 0.744747
0.861631 0.18114 0.788296
0.0627909 0.42472 0.656962
0.0633555 0.440513 0.673762
0.498589 0.547814 0.820829
0.907759 0.568566 0.871595
0.920806 0.385367 0.867826
0.145068 0.720745 0.724849
0.166461 0.721401 0.730526
0.446921 0.743954 0.77145
0.859098 0.837049 0.856291
0.915923 0.833143 0.863188
0.470909 0.794079 0.751507
0.486976 0.794965 0.752728
0.584222 0.815625 0.772824
0.872694 0.895979 0.859174
0.916426 0.900557 0.864073
