bundles/resolve-cinematic-luts/Phantom Luts/A7s3 Phntm Film LUTs - G6/ATOMOS Monitor LUTs/Slog3/Bleach A7s3 AML.cube
TITLE "Generated by Resolve"
LUT_3D_SIZE 9
0.0729839 0.0838483 0.0742046
0.0729839 0.0838483 0.0742046
0.086305 0.0864881 0.0781109
0.144472 0.0890211 0.0834516
0.256321 0.0926528 0.091249
0.401434 0.0941634 0.115633
0.576593 0.101396 0.156786
0.709285 0.124941 0.237507
0.820279 0.178927 0.350805
0.0729686 0.0840772 0.0742351
0.0737011 0.0842451 0.0743877
0.102953 0.0901961 0.0789349
0.19588 0.0925154 0.0848554
0.333852 0.0946059 0.0955215
0.506325 0.0969863 0.124498
0.647181 0.112612 0.180011
0.765927 0.14609 0.272648
0.844038 0.213596 0.388235
0.0844739 0.143252 0.0910201
0.0908827 0.152605 0.0872969
0.144793 0.161715 0.0924392
0.280293 0.150088 0.0971695
0.408743 0.11931 0.0996567
0.548867 0.100938 0.102007
0.698039 0.126818 0.178088
0.80206 0.175113 0.27216
0.859815 0.25977 0.398627
0.0783398 0.263127 0.106798
0.078233 0.275853 0.095613
0.134691 0.288182 0.0791791
0.30042 0.32137 0.090959
0.570489 0.315984 0.132265
0.700389 0.299153 0.192996
0.777447 0.238865 0.194781
0.802182 0.169375 0.174548
0.877134 0.32694 0.365789
0.0587167 0.405814 0.118395
0.0586404 0.421134 0.111086
0.071458 0.42829 0.0804913
0.258671 0.489372 0.0914931
0.567025 0.580118 0.143221
0.758587 0.618219 0.23122
0.864378 0.632593 0.314977
0.899763 0.627222 0.349767
0.903731 0.599756 0.360113
0.0891127 0.598444 0.213138
0.0992752 0.613214 0.216068
0.120195 0.617426 0.181262
0.270527 0.653071 0.159121
0.576165 0.705821 0.220508
0.740734 0.749508 0.271839
0.865324 0.770855 0.368505
0.902007 0.776654 0.467155
0.902602 0.77998 0.471366
0.177264 0.729946 0.338735
0.182422 0.732158 0.331609
0.201587 0.731304 0.302571
0.293614 0.743084 0.266255
0.588235 0.766232 0.312139
0.721721 0.808392 0.395499
0.84329 0.839628 0.487739
0.902022 0.852293 0.576852
0.910857 0.855055 0.615183
0.271138 0.761105 0.406424
0.27361 0.760983 0.396094
0.305364 0.761318 0.384298
0.439643 0.770077 0.405066
0.62446 0.793881 0.485527
0.756939 0.836179 0.56939
0.842664 0.863142 0.603677
0.894514 0.876753 0.647425
0.911467 0.883513 0.689723
0.533318 0.78822 0.577844
0.522606 0.785519 0.565377
0.536782 0.786801 0.560342
0.60528 0.802228 0.584039
0.700664 0.830686 0.626749
0.803571 0.861021 0.672236
0.864775 0.878447 0.692973
0.895644 0.886732 0.711101
0.91458 0.893278 0.74522
0.0729381 0.0838483 0.0741894
0.0729839 0.0838483 0.0742046
0.0877089 0.0862135 0.0817578
0.146456 0.0887312 0.0879988
0.256641 0.0909438 0.102327
0.40502 0.0932326 0.128939
0.582437 0.100847 0.172412
0.715389 0.12575 0.256535
0.823575 0.18172 0.36994
0.0729229 0.0840772 0.0742504
0.0753338 0.0862898 0.0767376
0.12079 0.0909743 0.0831464
0.20827 0.0906996 0.0865797
0.345525 0.094789 0.105684
0.522591 0.0972915 0.137835
0.661799 0.113725 0.202899
0.78291 0.153048 0.303868
0.855131 0.233616 0.438941
0.0846265 0.147341 0.100404
0.0859846 0.157763 0.0941176
0.148089 0.164797 0.0946212
0.292988 0.144793 0.10103
0.434211 0.11458 0.0996567
0.581796 0.110811 0.125307
0.707591 0.127291 0.200031
0.813245 0.181689 0.301595
0.870878 0.27921 0.451041
0.0771801 0.268284 0.119722
0.0766613 0.282795 0.109438
0.111757 0.289509 0.077821
0.305013 0.326329 0.0907912
0.58378 0.316106 0.143694
0.709255 0.29218 0.203235
0.782681 0.231708 0.194644
0.811414 0.184756 0.202899
0.886137 0.345342 0.42295
0.0574807 0.411048 0.128588
0.056611 0.426993 0.121126
0.0687877 0.433646 0.0902724
0.246113 0.491295 0.0910353
0.572869 0.585916 0.145892
0.767361 0.621927 0.242954
0.868421 0.633616 0.325734
0.901747 0.621942 0.361807
0.904555 0.585748 0.37351
0.0910811 0.603845 0.230701
0.0993668 0.618479 0.231662
0.118059 0.623194 0.198795
0.244938 0.652735 0.158022
0.57557 0.707805 0.22266
0.743145 0.751934 0.273884
0.869154 0.771817 0.385931
0.903426 0.776455 0.486122
0.903593 0.77911 0.487648
0.177081 0.730205 0.349966
0.182467 0.733242 0.342931
0.197147 0.732738 0.315648
0.283207 0.742687 0.273823
0.581079 0.765469 0.315435
0.721523 0.808743 0.400839
0.844266 0.840269 0.49099
0.902892 0.852415 0.582559
0.911711 0.854917 0.620935
0.270649 0.761303 0.417868
0.274754 0.761166 0.407568
0.292287 0.761074 0.389776
0.421653 0.769635 0.406195
0.614725 0.791638 0.483833
0.754894 0.835584 0.569894
0.841856 0.862943 0.603937
0.894163 0.876539 0.64654
0.91162 0.883436 0.690639
0.530922 0.788571 0.582757
0.524193 0.78648 0.572183
0.526589 0.785397 0.559762
0.594461 0.799771 0.580728
0.693431 0.828687 0.62324
0.800061 0.859861 0.670771
0.863066 0.877958 0.691737
0.894957 0.886473 0.709667
0.914321 0.893019 0.743893
0.0729381 0.0847791 0.0852674
0.0776837 0.0852216 0.0840467
0.0881056 0.0866255 0.0869612
0.153597 0.0885023 0.114366
0.270542 0.0915389 0.1308
0.420996 0.0934157 0.155428
0.591211 0.102449 0.203555
0.719692 0.125048 0.288106
0.826871 0.183444 0.405249
0.0724346 0.0851911 0.0847028
0.0742351 0.0877394 0.0998856
0.121096 0.0886702 0.110903
0.210971 0.0896315 0.124361
0.346273 0.0930648 0.140658
0.523461 0.0957198 0.172244
0.66128 0.11075 0.239612
0.785336 0.153597 0.340734
0.858763 0.234211 0.482399
0.0824598 0.144717 0.125689
0.0836652 0.155612 0.135058
0.150805 0.160876 0.149371
0.301381 0.150408 0.144228
0.454322 0.121813 0.135805
0.572122 0.103349 0.15584
0.702068 0.122759 0.232456
0.81973 0.180331 0.348028
0.877943 0.286305 0.510674
0.074403 0.272023 0.155978
0.0734112 0.286915 0.151019
0.0936446 0.29395 0.125368
0.3205 0.337041 0.149966
0.584634 0.309422 0.178027
0.709743 0.263813 0.215442
0.806882 0.241856 0.234638
0.836713 0.226413 0.303441
0.893889 0.355825 0.487251
0.054963 0.414984 0.162036
0.0545815 0.430686 0.155901
0.0623941 0.433921 0.126757
0.180346 0.473899 0.0939193
0.570047 0.582422 0.154696
0.777539 0.616678 0.27393
0.871916 0.622766 0.357244
0.904692 0.601328 0.409018
0.906264 0.561669 0.440238
0.0908217 0.604898 0.262501
0.0988937 0.61976 0.266743
0.107073 0.625925 0.240635
0.158785 0.637598 0.160662
0.557702 0.703197 0.222248
0.742275 0.751308 0.274159
0.874403 0.76762 0.42916
0.906386 0.773312 0.52134
0.907683 0.774075 0.531868
0.176806 0.728756 0.375952
0.181308 0.731746 0.371252
0.18706 0.733104 0.344228
0.249104 0.737484 0.288624
0.548837 0.759503 0.317342
0.715114 0.806241 0.404669
0.843259 0.839506 0.490272
0.905135 0.851637 0.593408
0.914275 0.854353 0.636225
0.270359 0.760967 0.444236
0.27364 0.761227 0.434165
0.283207 0.760983 0.411475
0.375586 0.766613 0.407706
0.589548 0.786816 0.476799
0.747189 0.833036 0.568978
0.838743 0.862333 0.604089
0.893385 0.87599 0.64387
0.912032 0.883268 0.69308
0.531716 0.790478 0.595468
0.524834 0.788083 0.585931
0.529091 0.787442 0.575113
0.570687 0.7944 0.57586
0.674861 0.823484 0.616266
0.79234 0.857633 0.668269
0.85922 0.876921 0.689677
0.893599 0.885954 0.7066
0.91371 0.892302 0.739559
0.0724804 0.086183 0.115206
0.0796521 0.0867475 0.114809
0.10544 0.0873732 0.123278
0.159533 0.0889601 0.139849
0.284047 0.0912337 0.185046
0.445701 0.0942702 0.230518
0.611353 0.108003 0.284672
0.732311 0.127947 0.364263
0.826902 0.173114 0.481071
0.0706798 0.0863661 0.123262
0.0730449 0.0868544 0.146227
0.121263 0.0877089 0.173098
0.227359 0.0905776 0.19057
0.367468 0.0935683 0.231586
0.547982 0.099443 0.280461
0.681682 0.118486 0.343191
0.785489 0.141833 0.425879
0.857801 0.220264 0.550317
0.0746624 0.13817 0.175006
0.073167 0.142733 0.2038
0.127138 0.141985 0.244175
0.309392 0.126543 0.260761
0.455833 0.102251 0.259342
0.587472 0.105058 0.274525
0.710475 0.123217 0.338247
0.813916 0.160037 0.434531
0.876081 0.264317 0.576699
0.0710002 0.264958 0.231235
0.0690318 0.280095 0.244953
0.083299 0.287083 0.253117
0.339727 0.341497 0.328038
0.590707 0.309636 0.311192
0.715877 0.276768 0.303075
0.806119 0.229572 0.334462
0.837278 0.19498 0.388998
0.898634 0.342992 0.580804
0.0529793 0.418936 0.241199
0.0528573 0.435279 0.242451
0.0596475 0.441138 0.222309
0.184054 0.499626 0.23566
0.593179 0.597818 0.339544
0.778241 0.604135 0.41268
0.881727 0.589212 0.463645
0.905638 0.571847 0.5084
0.8981 0.549035 0.520516
0.0912337 0.608911 0.331807
0.0991684 0.622553 0.339147
0.106386 0.626642 0.317342
0.144259 0.628977 0.261967
0.510399 0.694575 0.326238
0.741497 0.746136 0.39379
0.881498 0.760616 0.510842
0.908995 0.769039 0.56759
0.912093 0.761654 0.591165
0.17467 0.726543 0.432319
0.179706 0.729259 0.426459
0.185245 0.729809 0.401022
0.20676 0.732296 0.350027
0.463218 0.752255 0.351263
0.705867 0.800824 0.452338
0.843427 0.838895 0.507897
0.909529 0.850889 0.61857
0.91603 0.853803 0.6589
0.271595 0.759976 0.492973
0.276295 0.760571 0.485481
0.283421 0.761135 0.466819
0.314046 0.762417 0.426932
0.53431 0.778393 0.468864
0.734035 0.829602 0.571649
0.83566 0.862013 0.609552
0.892943 0.875807 0.643549
0.913527 0.883818 0.70222
0.540581 0.794827 0.621149
0.533013 0.792569 0.61236
0.533318 0.791516 0.601831
0.547967 0.791653 0.585916
0.640146 0.814435 0.608652
0.776654 0.854002 0.667964
0.85536 0.876387 0.693462
0.892409 0.885985 0.707546
0.913436 0.892088 0.738186
0.0731518 0.0871901 0.16434
0.0801556 0.0877241 0.167025
0.112917 0.0878309 0.188754
0.177737 0.0877852 0.213001
0.298802 0.0928511 0.2486
0.473503 0.0954452 0.307942
0.624887 0.110979 0.403464
0.743053 0.129763 0.498543
0.821042 0.152087 0.560098
0.0712444 0.0875868 0.190951
0.0738537 0.0876631 0.222965
0.121431 0.0882887 0.265354
0.237446 0.0892348 0.293431
0.391638 0.0957046 0.319234
0.568719 0.102861 0.386618
0.693553 0.121202 0.491203
0.793851 0.142199 0.553216
0.840986 0.176745 0.60441
0.0670787 0.117479 0.248707
0.065568 0.118074 0.281407
0.0981308 0.108019 0.330724
0.277455 0.0992447 0.381003
0.489418 0.100847 0.385245
0.610788 0.109499 0.433478
0.722866 0.12607 0.51426
0.815869 0.148516 0.566445
0.858991 0.210147 0.632242
0.0693828 0.248386 0.32604
0.0684825 0.259983 0.353994
0.0677653 0.255833 0.381796
0.286671 0.291936 0.512688
0.604425 0.26775 0.536629
0.7196 0.214786 0.547784
0.789029 0.170871 0.535134
0.824964 0.155062 0.557977
0.885328 0.273274 0.65861
0.055787 0.413916 0.355383
0.0563363 0.4309 0.367773
0.0617227 0.436698 0.373602
0.16054 0.490578 0.436576
0.605432 0.592111 0.574578
0.77055 0.59115 0.581888
0.876997 0.581765 0.586007
0.900801 0.550561 0.592157
0.906645 0.506142 0.628763
0.0910964 0.609293 0.448157
0.0979477 0.621958 0.461387
0.103365 0.626337 0.451423
0.136034 0.627817 0.40911
0.53228 0.704311 0.540261
0.750942 0.74641 0.597375
0.877668 0.749874 0.635187
0.915602 0.751888 0.645029
0.915908 0.738659 0.663447
0.166552 0.72398 0.530358
0.170535 0.725933 0.528572
0.175509 0.725765 0.512383
0.198657 0.726055 0.469108
0.474205 0.753582 0.51339
0.710399 0.804852 0.599756
0.851362 0.842344 0.63444
0.913924 0.850324 0.676219
0.91606 0.851911 0.698222
0.256046 0.760052 0.564309
0.26305 0.759976 0.559701
0.276555 0.760311 0.548043
0.31809 0.763638 0.529137
0.514199 0.781353 0.551186
0.715038 0.832364 0.628504
0.83917 0.867475 0.667109
0.895979 0.879377 0.682948
0.916365 0.885206 0.724132
0.54139 0.799741 0.656031
0.538354 0.797925 0.649393
0.546319 0.798779 0.643458
0.562112 0.800641 0.634226
0.588891 0.803418 0.613245
0.739406 0.847028 0.668238
0.848646 0.876143 0.704768
0.891539 0.886793 0.714458
0.913405 0.892256 0.739559
0.0738384 0.0879225 0.231571
0.0838026 0.0884413 0.243412
0.116274 0.088365 0.274235
0.189242 0.0883803 0.311009
0.321187 0.0923171 0.343282
0.49688 0.0976577 0.393881
0.643275 0.114488 0.501488
0.757916 0.1346 0.580362
0.8318 0.15729 0.64065
0.0735943 0.0892958 0.274937
0.0772412 0.0892805 0.307637
0.123476 0.0895552 0.354879
0.244892 0.0922255 0.412619
0.412146 0.0946975 0.436027
0.584421 0.106065 0.495689
0.71342 0.126513 0.572427
0.808408 0.148379 0.63006
0.841642 0.168521 0.672145
0.0633555 0.107424 0.329519
0.0625162 0.107637 0.367071
0.0890364 0.0910201 0.410285
0.258671 0.0939956 0.510674
0.498589 0.0977951 0.525414
0.633997 0.115709 0.548821
0.743984 0.132448 0.598169
0.828504 0.15494 0.650065
0.847547 0.176761 0.686931
0.0664836 0.220966 0.442832
0.0659648 0.231922 0.48159
0.0653544 0.223972 0.510918
0.232074 0.234531 0.606806
0.585107 0.205921 0.643259
0.715038 0.17026 0.627832
0.786252 0.149279 0.630457
0.835554 0.160235 0.666087
0.862394 0.204242 0.707271
0.0547341 0.407828 0.483421
0.0534524 0.423575 0.498802
0.0537728 0.427329 0.51458
0.106691 0.442756 0.56083
0.576486 0.570306 0.692699
0.790143 0.577798 0.723995
0.893996 0.555901 0.741238
0.91722 0.509209 0.755291
0.918456 0.450782 0.77966
0.0965744 0.606058 0.556817
0.102983 0.618204 0.56936
0.108659 0.621561 0.573175
0.13051 0.620661 0.572519
0.526543 0.703258 0.666819
0.756954 0.738338 0.718669
0.87274 0.738308 0.726192
0.914351 0.734081 0.73135
0.915496 0.716533 0.725231
0.164935 0.721996 0.615305
0.16875 0.724147 0.616892
0.172473 0.723644 0.611078
0.184695 0.722591 0.596933
0.478477 0.758556 0.629816
0.730877 0.821149 0.710689
0.861448 0.847074 0.73846
0.910307 0.848524 0.758404
0.916167 0.846296 0.760708
0.239246 0.762341 0.634241
0.244038 0.761959 0.630945
0.258427 0.761471 0.624308
0.288579 0.763287 0.615427
0.527611 0.7906 0.641993
0.730953 0.848997 0.717418
0.851987 0.87718 0.758938
0.9019 0.886336 0.768124
0.916365 0.888701 0.786328
0.519692 0.800061 0.690745
0.517205 0.799435 0.686549
0.529137 0.801129 0.684428
0.556588 0.806516 0.683574
0.606409 0.818158 0.684062
0.755337 0.864561 0.743465
0.859541 0.887877 0.781933
0.899458 0.89662 0.785351
0.916548 0.899168 0.794385
0.0761883 0.0892195 0.30161
0.0897688 0.088777 0.32192
0.119463 0.0894484 0.35668
0.195926 0.091249 0.414847
0.335775 0.0950484 0.462226
0.514992 0.095613 0.500191
0.657511 0.118608 0.571786
0.776715 0.140917 0.640879
0.840742 0.162966 0.690898
0.076997 0.0909133 0.356802
0.0845655 0.0910964 0.396292
0.128069 0.0914321 0.459007
0.250172 0.0944991 0.529717
0.431449 0.09691 0.548653
0.589822 0.102434 0.570352
0.727367 0.132082 0.634394
0.825162 0.155383 0.688106
0.849928 0.173098 0.718883
0.0622721 0.110262 0.435172
0.061265 0.10927 0.478523
0.0942092 0.0936294 0.518547
0.251423 0.0978103 0.592599
0.49987 0.0993057 0.613886
0.649744 0.115969 0.629068
0.760433 0.139361 0.662776
0.842023 0.162264 0.70808
0.854261 0.17911 0.731502
0.0647898 0.200244 0.534951
0.0654459 0.2121 0.565103
0.0653849 0.204547 0.585229
0.192386 0.196033 0.669093
0.539422 0.164187 0.702586
0.695018 0.137713 0.6822
0.80708 0.158724 0.702861
0.848493 0.168582 0.724743
0.858824 0.185565 0.743893
0.0583352 0.409827 0.573373
0.0579232 0.426917 0.585168
0.0585641 0.427329 0.59762
0.0948043 0.435874 0.638621
0.544244 0.550454 0.768124
0.803937 0.572885 0.816327
0.90544 0.5514 0.822232
0.917556 0.489372 0.831083
0.919829 0.404196 0.838346
0.0811475 0.602396 0.620554
0.0849928 0.612985 0.631632
0.0916152 0.615045 0.638788
0.126421 0.621515 0.657679
0.491066 0.684459 0.73846
0.745235 0.728893 0.795468
0.878981 0.731258 0.81088
0.915648 0.72549 0.820462
0.91545 0.706096 0.828519
0.168872 0.720455 0.673945
0.172564 0.722789 0.67599
0.176181 0.722332 0.675547
0.189197 0.721843 0.675196
0.462119 0.754116 0.71075
0.737377 0.82565 0.787442
0.864149 0.842649 0.811276
0.909316 0.842863 0.81796
0.916014 0.839124 0.820768
0.236973 0.762997 0.687572
0.238712 0.762951 0.686305
0.249027 0.762417 0.683864
0.279438 0.763073 0.681163
0.5037 0.7888 0.705577
0.741405 0.856641 0.780652
0.862593 0.881819 0.819287
0.904921 0.887114 0.82237
0.916167 0.887343 0.828244
0.496101 0.798581 0.720943
0.492851 0.797848 0.717983
0.505058 0.799588 0.717281
0.534615 0.804807 0.719631
0.58967 0.818738 0.728832
0.768658 0.873472 0.7935
0.868162 0.894026 0.826459
0.902968 0.900282 0.830488
0.91635 0.901457 0.834806
0.0812238 0.0906233 0.372351
0.0957198 0.0904402 0.402731
0.12575 0.0912337 0.451011
0.204471 0.0937514 0.516197
0.349859 0.0971695 0.55082
0.529595 0.0977646 0.572091
0.663813 0.118456 0.622126
0.792157 0.147265 0.690364
0.849027 0.16759 0.732921
0.0821241 0.0926833 0.448981
0.0902876 0.0930648 0.492882
0.135195 0.0938888 0.544091
0.255329 0.098146 0.599863
0.449989 0.0994888 0.620142
0.594736 0.102998 0.625849
0.729076 0.133074 0.678004
0.838254 0.160998 0.732616
0.856153 0.175921 0.757198
0.0617838 0.115007 0.523369
0.0614481 0.113375 0.552117
0.0965744 0.0986496 0.585672
0.242618 0.10103 0.646845
0.498054 0.101961 0.674083
0.659251 0.112551 0.686854
0.7664 0.142504 0.708583
0.849683 0.166537 0.750591
0.859968 0.181552 0.769039
0.0650339 0.192172 0.58909
0.0660716 0.204913 0.615549
0.0661173 0.196384 0.63154
0.156313 0.174823 0.694713
0.50164 0.154025 0.73875
0.691493 0.140642 0.73257
0.816251 0.165454 0.750668
0.856825 0.175387 0.768429
0.863966 0.1879 0.779614
0.0616617 0.414511 0.627665
0.0611276 0.431556 0.63592
0.0617227 0.430747 0.646036
0.0949874 0.435554 0.683955
0.521157 0.544961 0.805508
0.794537 0.57261 0.857206
0.9093 0.553841 0.856428
0.917678 0.481453 0.860151
0.920394 0.387045 0.857023
0.0804608 0.609522 0.664897
0.0829023 0.618173 0.673167
0.0836957 0.617304 0.677653
0.102388 0.620508 0.693767
0.447333 0.677165 0.770748
0.734844 0.724208 0.833814
0.886091 0.735042 0.850736
0.915709 0.731075 0.859525
0.915724 0.711192 0.86511
0.163073 0.719936 0.706493
0.168246 0.722011 0.708873
0.178424 0.721126 0.710597
0.20827 0.721813 0.716213
0.470344 0.748302 0.754574
0.731517 0.817182 0.821714
0.859342 0.838132 0.841016
0.906462 0.837903 0.841367
0.91606 0.833967 0.84477
0.234806 0.762966 0.717433
0.237873 0.763027 0.717464
0.245075 0.763302 0.717708
0.282414 0.763073 0.71783
0.504417 0.786252 0.74226
0.736278 0.855116 0.812314
0.866682 0.882322 0.846403
0.904677 0.884901 0.849149
0.916304 0.884749 0.851606
0.48333 0.796063 0.740703
0.481971 0.795743 0.739193
0.492149 0.797055 0.739406
0.523842 0.801831 0.743572
0.580423 0.816052 0.756436
0.758968 0.872801 0.816495
0.872633 0.895979 0.848188
0.904295 0.900587 0.852277
0.916426 0.90135 0.854627
0.0865339 0.0922713 0.459007
0.0995193 0.0919661 0.49099
0.132525 0.093492 0.533669
0.211551 0.0968948 0.583215
0.368002 0.100008 0.615274
0.537682 0.100221 0.622065
0.663462 0.111727 0.658442
0.794263 0.149508 0.721233
0.853773 0.170489 0.763867
0.0851148 0.095552 0.526482
0.0912184 0.0968643 0.557626
0.136934 0.096788 0.598672
0.254032 0.101442 0.650446
0.463279 0.102083 0.674815
0.606241 0.106477 0.676799
0.718761 0.123522 0.702174
0.840848 0.1626 0.758618
0.858946 0.177157 0.782498
0.0623331 0.12192 0.579858
0.0624247 0.122789 0.604105
0.0895399 0.104768 0.627756
0.225345 0.103319 0.680278
0.491066 0.10425 0.713603
0.665858 0.114 0.726619
0.778286 0.142046 0.744747
0.850706 0.167987 0.774289
0.861631 0.18114 0.788296
0.0657969 0.192386 0.626337
0.0664988 0.207248 0.649042
0.066804 0.199115 0.662745
0.118669 0.171695 0.704997
0.466453 0.153445 0.762478
0.687922 0.147005 0.765499
0.819821 0.16762 0.77731
0.861509 0.18088 0.78851
0.864271 0.186572 0.793179
0.0627909 0.42472 0.656962
0.0625925 0.442405 0.664073
0.0633555 0.440513 0.673762
0.0866407 0.438087 0.70489
0.498589 0.547814 0.820829
0.779141 0.57995 0.871656
0.907759 0.568566 0.871595
0.917235 0.512367 0.8692
0.920806 0.385367 0.867826
0.0847486 0.619257 0.692042
0.0863508 0.6262 0.697856
0.0866255 0.624247 0.701396
0.0968643 0.623713 0.713222
0.443473 0.677531 0.78854
0.726223 0.725017 0.849638
0.886839 0.740246 0.87042
0.915846 0.738018 0.875776
0.915801 0.717037 0.878035
0.145068 0.720745 0.724849
0.150713 0.721767 0.726879
0.166461 0.721401 0.730526
0.207691 0.721157 0.737728
0.446921 0.743954 0.77145
0.71841 0.811307 0.832547
0.859098 0.837049 0.856291
0.906981 0.837049 0.861463
0.915923 0.833143 0.863188
0.238987 0.763012 0.734691
0.244892 0.76321 0.73547
0.265034 0.763088 0.736553
0.337545 0.766278 0.742107
0.5308 0.787869 0.766613
0.737606 0.85272 0.829648
0.865538 0.880705 0.858625
0.903075 0.883436 0.860853
0.916197 0.883101 0.862165
0.470909 0.794079 0.751507
0.471122 0.793912 0.751415
0.486976 0.794965 0.752728
0.52163 0.800305 0.757839
0.584222 0.815625 0.772824
0.758114 0.871931 0.829725
0.872694 0.895979 0.859174
0.904921 0.899886 0.862501
0.916426 0.900557 0.864073
