bundles/resolve-cinematic-luts/Phantom Luts/A7s3 Phntm Film LUTs - G6/ATOMOS Monitor LUTs/Slog3/Bleach A7s3 AML.cube
TITLE "Generated by Resolve"
LUT_3D_SIZE 33
0.0729839 0.0838483 0.0742046
0.0729839 0.0838483 0.0742046
0.0729839 0.0838483 0.0742046
0.0729839 0.0838483 0.0742046
0.0729839 0.0838483 0.0742046
0.073228 0.0838788 0.0742657
0.0761273 0.0846113 0.0753796
0.0816205 0.0855879 0.0771801
0.086305 0.0864881 0.0781109
0.0977035 0.0872816 0.0794995
0.110079 0.0879072 0.080827
0.125765 0.0884565 0.0822614
0.144472 0.0890211 0.0834516
0.167193 0.0901808 0.0848096
0.19353 0.0907149 0.0859541
0.223331 0.0912184 0.0882429
0.256321 0.0926528 0.091249
0.289769 0.0942092 0.094728
0.323766 0.0944076 0.100832
0.359365 0.0941482 0.107973
0.401434 0.0941634 0.115633
0.449821 0.094377 0.122377
0.496529 0.0952468 0.130571
0.53904 0.0978408 0.142641
0.576593 0.101396 0.156786
0.610544 0.104845 0.172396
0.644633 0.110246 0.192477
0.676921 0.116686 0.213245
0.709285 0.124941 0.237507
0.740322 0.13521 0.263722
0.770291 0.1467 0.291218
0.798245 0.161898 0.320302
0.820279 0.178927 0.350805
0.0729839 0.0838483 0.0742046
0.0729839 0.0838483 0.0742046
0.0729839 0.0838483 0.0742046
0.0729839 0.0838483 0.0742046
0.0730602 0.0838483 0.0742199
0.0736858 0.0839857 0.0744182
0.0793317 0.0850843 0.0762341
0.0846265 0.086183 0.0780041
0.0949111 0.0870985 0.0790417
0.108553 0.0877852 0.0805982
0.124681 0.088426 0.0821851
0.143374 0.0889754 0.0833448
0.166522 0.090135 0.0847639
0.193469 0.0907149 0.0859236
0.223255 0.091249 0.0881514
0.256947 0.0927749 0.0912337
0.290806 0.0939498 0.0950637
0.325261 0.0943923 0.100847
0.361395 0.0942855 0.108293
0.404196 0.094255 0.115648
0.45275 0.0944686 0.122408
0.49868 0.0955062 0.130739
0.540429 0.098085 0.142504
0.577554 0.101625 0.156619
0.610391 0.104906 0.171466
0.644007 0.110231 0.190829
0.675349 0.116457 0.210681
0.70692 0.124346 0.233906
0.737057 0.134188 0.259236
0.765835 0.144793 0.284947
0.791516 0.15845 0.311437
0.815473 0.174166 0.340673
0.831937 0.193561 0.372747
0.0729839 0.0838483 0.0742046
0.0729839 0.0838483 0.0742046
0.0729839 0.0838483 0.0742046
0.0729839 0.0838483 0.0742046
0.0731365 0.0838636 0.0742504
0.0759747 0.0845502 0.0752575
0.0820935 0.0856947 0.0773175
0.0891585 0.0865644 0.0779736
0.10135 0.0875715 0.0799115
0.116365 0.0881361 0.0812238
0.133883 0.0888838 0.0827192
0.155322 0.0895399 0.0839246
0.181186 0.0902876 0.0848096
0.210315 0.0910658 0.0867323
0.242329 0.0919509 0.0897231
0.27599 0.092958 0.0930648
0.311482 0.0944076 0.0979019
0.347784 0.0950179 0.104555
0.386831 0.0947585 0.111376
0.432258 0.0942702 0.117708
0.481147 0.0954299 0.125612
0.523674 0.0972457 0.135683
0.561227 0.100145 0.147387
0.595376 0.103609 0.161761
0.627741 0.107668 0.17818
0.658885 0.112947 0.196857
0.691493 0.120729 0.219028
0.722087 0.12932 0.243107
0.750912 0.139528 0.268101
0.777707 0.1514 0.293797
0.802594 0.165011 0.32047
0.821881 0.181506 0.348562
0.837949 0.201419 0.381445
0.0729839 0.0838483 0.0742046
0.0729839 0.0838483 0.0742046
0.0729839 0.0838483 0.0742046
0.0729839 0.0838483 0.0742046
0.073167 0.0838788 0.0742657
0.0771191 0.0847181 0.075288
0.0818647 0.0856336 0.0768292
0.0883803 0.0865797 0.0774853
0.100984 0.0876478 0.0792859
0.116762 0.0883497 0.0809339
0.135744 0.089128 0.0826429
0.157855 0.0898146 0.0838483
0.184771 0.0905623 0.0848859
0.215366 0.0912032 0.0866255
0.247913 0.0917983 0.0897383
0.282948 0.0932326 0.0933394
0.319142 0.0939193 0.0981003
0.356161 0.0944839 0.104707
0.398062 0.0956283 0.110536
0.446998 0.0956741 0.117037
0.494545 0.0968185 0.124041
0.53518 0.0987869 0.134722
0.572183 0.1019 0.147509
0.604974 0.105226 0.161517
0.637858 0.110033 0.17966
0.669062 0.115953 0.199115
0.700526 0.123857 0.221378
0.729915 0.132784 0.245274
0.758312 0.14287 0.270375
0.783886 0.155169 0.29604
0.809766 0.169986 0.324788
0.825803 0.18674 0.353002
0.840894 0.206928 0.384192
0.0729686 0.0840772 0.0742351
0.0729534 0.0842298 0.0742504
0.0729381 0.0843061 0.0742657
0.0731365 0.084184 0.0742657
0.0737011 0.0842451 0.0743877
0.078172 0.0867933 0.0759136
0.0820783 0.0878309 0.0771496
0.088365 0.089601 0.0779736
0.102953 0.0901961 0.0789349
0.121294 0.0912795 0.081178
0.142153 0.0914473 0.0823682
0.167102 0.0919814 0.0837873
0.19588 0.0925154 0.0848554
0.226398 0.0935683 0.0860761
0.26247 0.0937362 0.0877546
0.29752 0.0943618 0.0912795
0.333852 0.0946059 0.0955215
0.369039 0.0946212 0.101915
0.413535 0.0952163 0.108888
0.462196 0.0954604 0.115526
0.506325 0.0969863 0.124498
0.546746 0.10045 0.133715
0.581445 0.103304 0.146624
0.613962 0.107057 0.161196
0.647181 0.112612 0.180011
0.678279 0.118868 0.200595
0.709255 0.12694 0.223056
0.738064 0.136049 0.247608
0.765927 0.14609 0.272648
0.790524 0.159365 0.298863
0.815259 0.174029 0.32697
0.829648 0.192691 0.355215
0.844038 0.213596 0.388235
0.0747845 0.0904707 0.0775311
0.0759747 0.0933547 0.0788586
0.0764935 0.0951705 0.0789502
0.0779431 0.0955215 0.0783856
0.081651 0.0964828 0.0794537
0.0854658 0.0976425 0.0799573
0.0907301 0.0985122 0.0817273
0.0990005 0.100252 0.0823682
0.114382 0.0997635 0.0816663
0.132021 0.0994583 0.0824292
0.152041 0.0987716 0.0831159
0.179477 0.0974746 0.0849165
0.209201 0.0961013 0.0857557
0.241245 0.094728 0.0854658
0.27364 0.0953689 0.086305
0.305837 0.0961166 0.088838
0.339635 0.0963912 0.0921187
0.381964 0.0965286 0.0969558
0.428672 0.095964 0.104295
0.480262 0.0961318 0.114626
0.521416 0.0979324 0.1234
0.557794 0.100618 0.134615
0.592081 0.104585 0.147539
0.625238 0.109606 0.161807
0.65713 0.115526 0.179919
0.688579 0.122667 0.201068
0.718959 0.130739 0.223407
0.746502 0.140169 0.248417
0.774578 0.15111 0.274662
0.79884 0.164981 0.30161
0.820111 0.180575 0.328771
0.834028 0.200168 0.358618
0.847074 0.222705 0.392996
0.0787518 0.103548 0.0827649
0.0796368 0.106538 0.0838483
0.0801251 0.107836 0.0834821
0.0819257 0.107912 0.0825055
0.0863355 0.109743 0.0832837
0.0920119 0.112337 0.0848707
0.0997482 0.112902 0.0856489
0.11046 0.114443 0.085481
0.126802 0.114977 0.0844282
0.146777 0.11371 0.0853132
0.167544 0.11284 0.0862745
0.194583 0.109606 0.0881361
0.22356 0.105943 0.0890822
0.253727 0.101961 0.0890516
0.285939 0.0987259 0.0866712
0.318654 0.0981918 0.0875257
0.352407 0.0970932 0.0894484
0.388815 0.0960861 0.0923629
0.439292 0.0970169 0.0979782
0.489784 0.0981918 0.10695
0.533806 0.0992294 0.119585
0.571984 0.10193 0.133623
0.603967 0.104921 0.149187
0.636652 0.110445 0.164691
0.669627 0.118532 0.180468
0.700847 0.127581 0.201266
0.730327 0.135836 0.224155
0.757519 0.145586 0.249042
0.783032 0.157275 0.274784
0.808133 0.172259 0.303227
0.825467 0.189288 0.330877
0.838437 0.208896 0.360723
0.851637 0.232898 0.396597
0.0821241 0.121248 0.087068
0.0832074 0.125673 0.0883955
0.0837262 0.127886 0.0881056
0.0853132 0.127489 0.086305
0.090013 0.12958 0.0859388
0.0966201 0.132876 0.0876173
0.106813 0.13521 0.0895552
0.120455 0.135225 0.0905013
0.137621 0.13666 0.0872358
0.164431 0.135103 0.0869001
0.190448 0.133837 0.0886702
0.2168 0.132692 0.0907607
0.249088 0.124666 0.0935836
0.279942 0.117693 0.0953689
0.309834 0.112627 0.0949111
0.338537 0.108751 0.0930648
0.370962 0.104143 0.0909743
0.407752 0.0999466 0.090074
0.452964 0.0972152 0.0928969
0.497902 0.0968948 0.0988937
0.53875 0.100572 0.110292
0.580682 0.104936 0.12607
0.620615 0.108736 0.145174
0.651148 0.113436 0.164141
0.682277 0.118807 0.185306
0.713054 0.129519 0.203311
0.74139 0.141268 0.222736
0.768872 0.151995 0.247532
0.793484 0.165408 0.274601
0.817273 0.180896 0.302892
0.830564 0.199237 0.330953
0.843 0.219013 0.361624
0.85536 0.244724 0.397955
0.0844739 0.143252 0.0910201
0.0844892 0.14815 0.0915236
0.0854505 0.150607 0.0914321
0.0863813 0.150561 0.0895552
0.0908827 0.152605 0.0872969
0.0988022 0.155886 0.0882887
0.110079 0.159304 0.0905623
0.126543 0.162249 0.0927596
0.144793 0.161715 0.0924392
0.169314 0.163104 0.0874342
0.207904 0.160266 0.0884871
0.242969 0.157427 0.092256
0.280293 0.150088 0.0971695
0.312322 0.140932 0.100618
0.343496 0.13283 0.102434
0.376043 0.125795 0.102022
0.408743 0.11931 0.0996567
0.44332 0.111986 0.0952926
0.474327 0.104585 0.0920882
0.512291 0.101839 0.0946517
0.548867 0.100938 0.102007
0.584054 0.104097 0.114443
0.619257 0.107866 0.130022
0.663386 0.118486 0.15436
0.698039 0.126818 0.178088
0.726055 0.133196 0.201892
0.752132 0.142596 0.226642
0.77998 0.156024 0.248478
0.80206 0.175113 0.27216
0.823423 0.191409 0.29897
0.835218 0.210452 0.327886
0.847547 0.233036 0.360433
0.859815 0.25977 0.398627
0.0842756 0.167788 0.0945754
0.084123 0.174044 0.0949569
0.0846418 0.176471 0.0940261
0.0857404 0.177081 0.0911879
0.0882124 0.178119 0.0864576
0.0974441 0.181048 0.0865644
0.110307 0.185565 0.0886091
0.129198 0.190219 0.0907912
0.148623 0.193637 0.0931106
0.174624 0.193484 0.0923629
0.208042 0.194995 0.0875715
0.257939 0.190829 0.0900435
0.303593 0.184604 0.0967422
0.34966 0.173068 0.104356
0.385321 0.163516 0.108492
0.423239 0.153674 0.110704
0.462394 0.143496 0.11043
0.49395 0.134264 0.108629
0.520256 0.126558 0.105226
0.542626 0.119142 0.101274
0.570077 0.114778 0.103655
0.595605 0.109468 0.107973
0.626108 0.111223 0.119448
0.656184 0.111437 0.133089
0.696254 0.12311 0.158846
0.738994 0.141405 0.189761
0.765515 0.152193 0.217182
0.789303 0.161776 0.247013
0.808331 0.177462 0.272725
0.826108 0.199176 0.297078
0.839017 0.224231 0.3234
0.851637 0.24889 0.356634
0.864713 0.275257 0.396796
0.0823377 0.196826 0.0984054
0.0822156 0.203616 0.0988937
0.0823682 0.206973 0.0971389
0.0830091 0.207645 0.0934157
0.0848402 0.208362 0.0897993
0.0904555 0.209049 0.083238
0.105608 0.213565 0.0843824
0.128145 0.219867 0.0872969
0.150713 0.22562 0.090486
0.174456 0.229694 0.0928359
0.21059 0.231266 0.0910964
0.253132 0.233417 0.0868086
0.312139 0.228351 0.0914931
0.369665 0.220478 0.101335
0.428595 0.205478 0.110094
0.472923 0.194751 0.11574
0.509285 0.184833 0.120943
0.541161 0.173541 0.125063
0.567987 0.164172 0.127169
0.591455 0.157488 0.126818
0.608728 0.147936 0.122469
0.626032 0.139742 0.118853
0.646632 0.130297 0.120851
0.667887 0.122606 0.125093
0.69514 0.120867 0.138567
0.726589 0.12697 0.159335
0.766064 0.150317 0.191943
0.797986 0.177783 0.228855
0.814404 0.190738 0.257923
0.828061 0.206226 0.292607
0.840467 0.230793 0.321279
0.853086 0.251972 0.360647
0.866316 0.277119 0.405921
0.0803235 0.229084 0.102007
0.0802625 0.236271 0.102831
0.0801404 0.239551 0.100755
0.0804913 0.240818 0.0967727
0.0813001 0.241367 0.0923629
0.0849165 0.242222 0.0865339
0.0942855 0.243717 0.0786297
0.118685 0.250095 0.0820325
0.147967 0.257282 0.0856794
0.17409 0.263783 0.088426
0.205341 0.269703 0.0923781
0.252918 0.273548 0.0909895
0.302358 0.276768 0.0858778
0.371725 0.272236 0.0922866
0.445914 0.26247 0.104189
0.506569 0.250584 0.117861
0.54728 0.242893 0.128801
0.580804 0.236149 0.139834
0.609216 0.224643 0.148638
0.63476 0.216129 0.155535
0.657008 0.207202 0.157809
0.675166 0.196017 0.157
0.692103 0.184558 0.151934
0.705379 0.168475 0.145037
0.716762 0.150866 0.137896
0.736538 0.142794 0.146441
0.754803 0.13254 0.156527
0.782788 0.157366 0.185794
0.815167 0.195743 0.225299
0.83125 0.229175 0.265583
0.843046 0.247837 0.30042
0.857328 0.271015 0.349157
0.871244 0.298222 0.395575
0.0783398 0.263127 0.106798
0.0777295 0.269947 0.106859
0.0779431 0.274037 0.105455
0.0780652 0.275151 0.100771
0.078233 0.275853 0.095613
0.0783856 0.276204 0.0898756
0.0831769 0.276951 0.0807965
0.102144 0.280232 0.0754406
0.134691 0.288182 0.0791791
0.168856 0.296132 0.0837415
0.201801 0.304524 0.0882887
0.241382 0.313649 0.0927291
0.30042 0.32137 0.090959
0.356588 0.326101 0.0855573
0.438071 0.322087 0.0919966
0.517494 0.318425 0.111666
0.570489 0.315984 0.132265
0.611139 0.313451 0.150698
0.646693 0.310704 0.168841
0.674357 0.304097 0.181811
0.700389 0.299153 0.192996
0.725216 0.285389 0.201709
0.747143 0.268421 0.205722
0.764401 0.255619 0.203082
0.777447 0.238865 0.194781
0.784573 0.21912 0.183154
0.793744 0.201831 0.177493
0.797024 0.179217 0.17171
0.802182 0.169375 0.174548
0.82324 0.213626 0.215305
0.845563 0.265171 0.266209
0.861906 0.296422 0.311772
0.877134 0.32694 0.365789
0.0754253 0.297566 0.11017
0.0740673 0.304189 0.109957
0.0738994 0.3084 0.108659
0.0738689 0.309651 0.104646
0.0742046 0.309819 0.0995346
0.0745251 0.310521 0.0932784
0.0751049 0.310887 0.0853895
0.0857862 0.311711 0.0754711
0.113313 0.317571 0.0737926
0.151522 0.328206 0.078233
0.19379 0.337881 0.0835126
0.234379 0.349279 0.0893416
0.281743 0.362295 0.0929122
0.352041 0.374273 0.0918746
0.42208 0.381262 0.0857099
0.505806 0.384924 0.0952773
0.580179 0.392828 0.128801
0.632258 0.401007 0.158709
0.676158 0.408591 0.187289
0.714946 0.410971 0.214038
0.746563 0.411902 0.234043
0.772641 0.414328 0.249332
0.803433 0.394202 0.264607
0.829969 0.379324 0.277592
0.847791 0.364706 0.279835
0.859922 0.345342 0.277577
0.864286 0.323995 0.26688
0.866835 0.307759 0.256504
0.856901 0.279255 0.235676
0.84419 0.255207 0.217563
0.84828 0.263966 0.232639
0.867323 0.308522 0.280644
0.88333 0.349004 0.328771
0.0707408 0.330953 0.112581
0.0697948 0.337652 0.112703
0.0690318 0.342412 0.111147
0.0690318 0.343847 0.107698
0.0693217 0.343954 0.103059
0.0698405 0.344198 0.0972763
0.0710613 0.345434 0.0913252
0.0744182 0.346059 0.079408
0.0944228 0.34995 0.0728008
0.127794 0.358587 0.0736706
0.173159 0.371221 0.0789502
0.226307 0.384726 0.0846265
0.271687 0.402228 0.0897688
0.327459 0.423301 0.0941787
0.416693 0.440772 0.0958114
0.493217 0.455528 0.0923171
0.565042 0.470253 0.108568
0.633707 0.484443 0.151141
0.679088 0.494697 0.181842
0.718761 0.502815 0.210224
0.757809 0.504997 0.238361
0.787686 0.506874 0.257542
0.810254 0.509071 0.270069
0.838346 0.500206 0.287251
0.863645 0.490608 0.304662
0.882963 0.476341 0.317693
0.897017 0.45742 0.331487
0.906416 0.441962 0.338201
0.905074 0.425177 0.335225
0.902907 0.406928 0.330739
0.898466 0.386831 0.320745
0.893278 0.367224 0.308339
0.897444 0.386633 0.333043
0.0652628 0.3664 0.115099
0.06392 0.374121 0.114931
0.0637064 0.378531 0.114046
0.0637675 0.379568 0.111589
0.0640269 0.379828 0.107301
0.0648508 0.380453 0.101534
0.0672465 0.382452 0.0948959
0.0708782 0.384237 0.0868086
0.0777447 0.385153 0.0735485
0.105272 0.392233 0.0711833
0.148531 0.405844 0.0741436
0.203998 0.423804 0.0796979
0.265187 0.44477 0.0865034
0.319265 0.470481 0.0970626
0.396399 0.498161 0.109606
0.498726 0.517067 0.115785
0.560616 0.53225 0.113481
0.619348 0.545083 0.130297
0.677089 0.556222 0.171542
0.719203 0.564172 0.204013
0.756588 0.571054 0.234455
0.79353 0.57348 0.259968
0.822782 0.575235 0.279973
0.841245 0.578592 0.290211
0.858366 0.578286 0.301259
0.877119 0.572198 0.315496
0.889052 0.567102 0.326818
0.898543 0.555749 0.336095
0.902708 0.549813 0.342412
0.902693 0.538064 0.34342
0.903166 0.524926 0.348135
0.904265 0.507576 0.351186
0.905547 0.482963 0.353094
0.0587167 0.405814 0.118395
0.0579232 0.41445 0.119158
0.057023 0.419226 0.117266
0.057145 0.420249 0.114763
0.0586404 0.421134 0.111086
0.0619211 0.422507 0.10573
0.065156 0.423957 0.0991379
0.0677501 0.425971 0.0919966
0.071458 0.42829 0.0804913
0.0827039 0.431113 0.0683299
0.123369 0.443244 0.0701762
0.183062 0.463462 0.0784161
0.258671 0.489372 0.0914931
0.330861 0.519005 0.10663
0.399207 0.546166 0.124056
0.488518 0.565209 0.135729
0.567025 0.580118 0.143221
0.617899 0.593286 0.1411
0.666209 0.603861 0.157107
0.717678 0.611749 0.196475
0.758587 0.618219 0.23122
0.793423 0.62475 0.262425
0.825422 0.627588 0.286351
0.852094 0.62916 0.307301
0.864378 0.632593 0.314977
0.875105 0.635386 0.32253
0.887831 0.632578 0.33434
0.895842 0.631983 0.343008
0.899763 0.627222 0.349767
0.901915 0.623285 0.353552
0.9019 0.616495 0.355413
0.90248 0.607477 0.357626
0.903731 0.599756 0.360113
0.0567941 0.449989 0.12488
0.057145 0.459098 0.12694
0.0579232 0.464485 0.126787
0.0585946 0.465904 0.1243
0.0597696 0.466438 0.12105
0.061677 0.466804 0.115221
0.0642557 0.467735 0.108873
0.0675364 0.469566 0.101305
0.0717327 0.472419 0.092546
0.0813306 0.475685 0.0802625
0.105119 0.482795 0.0719615
0.1682 0.503548 0.082948
0.259098 0.534524 0.103273
0.343557 0.564248 0.123293
0.414145 0.586526 0.138018
0.490791 0.604639 0.15201
0.559335 0.619471 0.16321
0.62092 0.631296 0.172137
0.664576 0.642557 0.172503
0.708461 0.652293 0.189075
0.756008 0.658427 0.227436
0.795895 0.66453 0.262547
0.826032 0.669322 0.290715
0.85153 0.671534 0.313542
0.870268 0.673503 0.3337
0.880751 0.67628 0.343114
0.888823 0.679759 0.350835
0.894133 0.680293 0.357244
0.899397 0.679545 0.364096
0.900038 0.67892 0.366598
0.900511 0.675059 0.36965
0.900816 0.671794 0.371756
0.901717 0.664042 0.374914
0.0604105 0.496101 0.141619
0.0621653 0.505302 0.146075
0.0630503 0.510475 0.146914
0.0635843 0.51136 0.144289
0.0647288 0.511513 0.140612
0.0673991 0.512261 0.135668
0.0707866 0.513207 0.129
0.0746471 0.514992 0.121096
0.0795605 0.518135 0.112978
0.0875105 0.52163 0.100252
0.109895 0.528908 0.0903639
0.163363 0.54667 0.0944991
0.261967 0.577432 0.119326
0.359411 0.605173 0.141604
0.437903 0.622705 0.156161
0.500664 0.636744 0.167147
0.560327 0.652415 0.181933
0.615305 0.665187 0.193576
0.66598 0.675196 0.203891
0.706966 0.685832 0.208927
0.748211 0.69427 0.226032
0.791028 0.699825 0.261219
0.825406 0.703929 0.291981
0.850248 0.707012 0.318013
0.870222 0.709484 0.341436
0.883238 0.711772 0.361349
0.891905 0.714046 0.374838
0.895125 0.71696 0.3785
0.897948 0.718791 0.382406
0.898512 0.718425 0.385657
0.898924 0.718303 0.388128
0.899321 0.71606 0.390677
0.900313 0.7122 0.394293
0.070634 0.544991 0.170779
0.0733501 0.555535 0.17763
0.0756847 0.560616 0.17998
0.0770123 0.562081 0.17821
0.0786145 0.562127 0.173846
0.0812695 0.562341 0.168261
0.0855726 0.563378 0.161517
0.0908675 0.565896 0.15285
0.0970626 0.568414 0.143526
0.104784 0.57174 0.132708
0.116197 0.576196 0.114641
0.173037 0.593133 0.117433
0.266224 0.616892 0.137652
0.364981 0.640055 0.160876
0.455573 0.654582 0.173785
0.518654 0.666941 0.185473
0.565591 0.680232 0.199405
0.613565 0.694209 0.214893
0.659846 0.705699 0.227741
0.705791 0.714626 0.238666
0.744732 0.72401 0.246555
0.781048 0.730938 0.261204
0.819181 0.735698 0.292714
0.847837 0.738659 0.324941
0.868482 0.741833 0.352743
0.882551 0.744228 0.379599
0.892134 0.745663 0.401083
0.898421 0.747311 0.418433
0.899992 0.749691 0.421881
0.899535 0.751202 0.421881
0.89958 0.751141 0.42208
0.899397 0.751385 0.419608
0.899825 0.750393 0.420447
0.0891127 0.598444 0.213138
0.0937972 0.608133 0.221485
0.0964828 0.612711 0.223362
0.0977493 0.613306 0.220905
0.0992752 0.613214 0.216068
0.102846 0.61384 0.210819
0.107195 0.614618 0.203281
0.112917 0.61561 0.193484
0.120195 0.617426 0.181262
0.128389 0.62063 0.170352
0.139788 0.624048 0.152514
0.175433 0.634165 0.140978
0.270527 0.653071 0.159121
0.365087 0.670695 0.179538
0.462455 0.682261 0.19353
0.532845 0.693523 0.205753
0.576165 0.705821 0.220508
0.614374 0.718502 0.235355
0.655665 0.7308 0.249622
0.69749 0.74081 0.261158
0.740734 0.749508 0.271839
0.775113 0.757656 0.280629
0.80943 0.76405 0.297124
0.841382 0.767895 0.333257
0.865324 0.770855 0.368505
0.881102 0.7729 0.399329
0.89131 0.774624 0.429038
0.898817 0.775876 0.451469
0.902007 0.776654 0.467155
0.902602 0.778042 0.471214
0.902586 0.779187 0.471885
0.902724 0.779843 0.472511
0.902602 0.77998 0.471366
0.112764 0.647028 0.256947
0.116869 0.653635 0.262745
0.118791 0.656107 0.263172
0.119982 0.656672 0.260182
0.121904 0.656947 0.256199
0.125185 0.656977 0.251118
0.129473 0.657053 0.243778
0.135637 0.657877 0.23328
0.142962 0.658824 0.219745
0.151858 0.660349 0.20473
0.163119 0.663081 0.190936
0.189914 0.669581 0.173373
0.268605 0.682979 0.180362
0.365759 0.6972 0.201114
0.46302 0.706081 0.21416
0.538415 0.715236 0.226276
0.58526 0.72694 0.240726
0.619348 0.738445 0.255528
0.653788 0.749828 0.270222
0.691249 0.761334 0.283192
0.731136 0.770703 0.294072
0.771328 0.778881 0.306981
0.803693 0.786175 0.324392
0.835004 0.791791 0.352468
0.86009 0.795422 0.389136
0.880461 0.797757 0.429679
0.890135 0.79968 0.456779
0.899275 0.801846 0.48426
0.903105 0.801953 0.498802
0.905837 0.802502 0.511757
0.906508 0.803403 0.518364
0.906798 0.804211 0.519966
0.906905 0.805203 0.521538
0.135256 0.68278 0.290089
0.139086 0.688151 0.294911
0.140948 0.69015 0.294789
0.141756 0.690364 0.291371
0.142992 0.69012 0.287175
0.146365 0.690135 0.282139
0.150546 0.690135 0.275685
0.156268 0.690242 0.266819
0.164233 0.690745 0.254047
0.17322 0.691341 0.237293
0.186419 0.693401 0.221073
0.206088 0.697307 0.207477
0.273396 0.708019 0.206439
0.357488 0.718532 0.220356
0.45687 0.725628 0.233738
0.540612 0.733242 0.245853
0.588479 0.743847 0.26067
0.624949 0.754818 0.275944
0.654383 0.765377 0.290517
0.687449 0.776349 0.306416
0.72401 0.787823 0.320897
0.762722 0.796963 0.335012
0.79826 0.803433 0.355596
0.828916 0.809873 0.383062
0.85304 0.814649 0.413764
0.874128 0.817533 0.45507
0.889143 0.819898 0.490166
0.898421 0.821958 0.512581
0.90573 0.823743 0.531182
0.90956 0.824506 0.543465
0.91043 0.825071 0.552758
0.910887 0.825269 0.560433
0.910643 0.825605 0.56112
0.156863 0.709728 0.316869
0.160204 0.713817 0.320027
0.161837 0.714961 0.319371
0.162615 0.714961 0.316869
0.163592 0.714687 0.311925
0.16614 0.714305 0.307256
0.170886 0.714122 0.301045
0.176516 0.714183 0.292454
0.183352 0.713954 0.280568
0.192065 0.713832 0.264881
0.209354 0.716915 0.250675
0.230594 0.720974 0.237476
0.270573 0.727489 0.230015
0.356298 0.736339 0.243
0.447501 0.741497 0.253773
0.53344 0.746838 0.264759
0.589975 0.757427 0.280186
0.626917 0.767651 0.297002
0.657923 0.778485 0.314336
0.686534 0.788388 0.332631
0.719982 0.799817 0.351888
0.756252 0.810864 0.369406
0.790127 0.818128 0.392813
0.822217 0.823636 0.419516
0.847532 0.828672 0.451637
0.867658 0.832776 0.482658
0.884016 0.83534 0.512428
0.895918 0.837705 0.537118
0.904158 0.839445 0.555245
0.907973 0.84062 0.568185
0.910018 0.841703 0.578363
0.910719 0.841901 0.586069
0.911513 0.842008 0.59295
0.177264 0.729946 0.338735
0.180224 0.732113 0.340795
0.181277 0.732555 0.339025
0.181643 0.732219 0.335668
0.182422 0.732158 0.331609
0.184985 0.731731 0.326787
0.189181 0.731517 0.320821
0.194354 0.731365 0.313252
0.201587 0.731304 0.302571
0.212146 0.731731 0.288777
0.231891 0.734447 0.276921
0.26009 0.738369 0.269398
0.293614 0.743084 0.266255
0.363119 0.748867 0.275898
0.446052 0.752178 0.284947
0.530053 0.756741 0.295903
0.588235 0.766232 0.312139
0.631708 0.777539 0.33257
0.663615 0.787778 0.353338
0.692668 0.797986 0.373419
0.721721 0.808392 0.395499
0.753979 0.819303 0.417609
0.786175 0.829053 0.434958
0.815763 0.835004 0.462211
0.84329 0.839628 0.487739
0.862379 0.843671 0.512322
0.879469 0.847364 0.535546
0.891112 0.849973 0.556512
0.902022 0.852293 0.576852
0.906035 0.853391 0.590143
0.909056 0.854276 0.600336
0.910094 0.855146 0.608804
0.910857 0.855055 0.615183
0.196689 0.744152 0.356298
0.199298 0.745418 0.357671
0.200244 0.745663 0.355627
0.200443 0.745373 0.352285
0.200977 0.745235 0.348272
0.203143 0.745052 0.343999
0.206912 0.744793 0.338308
0.212696 0.744564 0.330938
0.221805 0.744854 0.322164
0.234409 0.745678 0.312047
0.257496 0.748684 0.302724
0.289113 0.751812 0.298436
0.327749 0.755108 0.3019
0.372946 0.757763 0.309621
0.455695 0.760632 0.318074
0.532006 0.764843 0.329854
0.592096 0.77435 0.349386
0.636545 0.785687 0.371359
0.67068 0.796139 0.396078
0.70045 0.806683 0.421332
0.729549 0.816846 0.447608
0.756024 0.826139 0.468177
0.787564 0.835767 0.48629
0.813169 0.843153 0.498436
0.83975 0.848157 0.519921
0.859449 0.85153 0.538705
0.87599 0.855604 0.559533
0.888319 0.858671 0.57705
0.897917 0.861158 0.594491
0.903807 0.862989 0.608469
0.908278 0.864378 0.620813
0.909224 0.865232 0.628244
0.910201 0.865934 0.635981
0.215656 0.754498 0.372335
0.217868 0.755398 0.372702
0.218112 0.755367 0.370138
0.218601 0.755138 0.366995
0.219242 0.754925 0.362753
0.220813 0.754696 0.35816
0.224765 0.754635 0.35317
0.231662 0.754665 0.347311
0.245121 0.75581 0.342107
0.260731 0.756954 0.334035
0.286427 0.75877 0.32958
0.32369 0.76083 0.329946
0.361303 0.762921 0.335531
0.406943 0.765225 0.343481
0.470771 0.767208 0.353048
0.543847 0.772717 0.368261
0.599313 0.782116 0.390585
0.644388 0.793393 0.417746
0.679149 0.803876 0.446906
