bundles/resolve-cinematic-luts/Phantom Luts/A7s3 Phntm Film LUTs - G6/ATOMOS Monitor LUTs/Slog3/EastmanRM A7s3 AML.cube
TITLE "Generated by Resolve"
LUT_3D_SIZE 5
0.0916609 0.0855879 0.0881208
0.164584 0.0814221 0.0851453
0.415564 0.0749981 0.0943465
0.630289 0.115541 0.200824
0.875303 0.389639 0.563821
0.0991684 0.164691 0.100511
0.172091 0.169894 0.0977493
0.451942 0.0821088 0.0907454
0.671504 0.145312 0.237201
0.875502 0.421775 0.580224
0.0954452 0.465858 0.124788
0.0975509 0.478553 0.116457
0.612863 0.59588 0.163699
0.843183 0.494926 0.281422
0.875257 0.526024 0.617685
0.317983 0.718379 0.419333
0.314427 0.723888 0.430732
0.525811 0.76109 0.450278
0.857084 0.877943 0.665553
0.882078 0.864881 0.699397
0.757137 0.868864 0.78056
0.77586 0.872709 0.786313
0.80737 0.881086 0.803738
0.857771 0.897673 0.841428
0.868742 0.905653 0.865263
0.090425 0.0893721 0.106096
0.137346 0.0869764 0.107256
0.386557 0.0810559 0.123064
0.615366 0.126055 0.240803
0.854109 0.409033 0.602274
0.0973678 0.163699 0.134676
0.158572 0.173938 0.157946
0.461769 0.0835584 0.116594
0.693385 0.166613 0.28484
0.878309 0.529656 0.673594
0.0957809 0.477714 0.179187
0.094728 0.489265 0.164401
0.614618 0.598291 0.166995
0.84979 0.465171 0.300664
0.87715 0.5944 0.675196
0.315969 0.726513 0.449271
0.316091 0.729717 0.451423
0.507118 0.757198 0.450721
0.858549 0.878355 0.667796
0.881849 0.863508 0.705592
0.761273 0.87013 0.784421
0.789212 0.877119 0.799191
0.809873 0.882017 0.807324
0.857313 0.897475 0.840543
0.868284 0.905684 0.865278
0.0886702 0.106691 0.215
0.106981 0.0925154 0.269444
0.3823 0.090135 0.280278
0.628962 0.154955 0.36553
0.861982 0.422873 0.664057
0.0898146 0.13753 0.253071
0.0900893 0.121691 0.310384
0.438621 0.100053 0.350973
0.67895 0.172198 0.386084
0.885237 0.548638 0.732052
0.101228 0.49662 0.401679
0.100084 0.514809 0.442298
0.583078 0.593729 0.567269
0.875898 0.404242 0.518898
0.881331 0.653147 0.758251
0.33164 0.745983 0.536568
0.328374 0.754116 0.554604
0.443519 0.759808 0.511681
0.859434 0.878141 0.685664
0.881498 0.856214 0.747799
0.766125 0.873045 0.796048
0.789136 0.880888 0.81593
0.812406 0.884672 0.817868
0.856962 0.897383 0.841306
0.869932 0.905318 0.863813
0.0904402 0.133074 0.381476
0.0969711 0.133822 0.418845
0.330251 0.108003 0.484642
0.624735 0.194934 0.556481
0.766964 0.314733 0.707668
0.090425 0.154971 0.392416
0.0906081 0.144625 0.41413
0.356588 0.126177 0.521065
0.661982 0.216083 0.602411
0.875257 0.505165 0.845243
0.0927443 0.462318 0.551522
0.0932784 0.473533 0.570626
0.366262 0.486824 0.71722
0.81265 0.369802 0.770153
0.883436 0.642573 0.860441
0.334386 0.748562 0.681849
0.332677 0.755047 0.69395
0.447395 0.787533 0.728496
0.837507 0.869032 0.83975
0.87425 0.839338 0.832212
0.763378 0.878004 0.823758
0.793225 0.885206 0.837476
0.815396 0.890532 0.846296
0.8486 0.898909 0.854887
0.869841 0.906249 0.868376
0.0907149 0.151186 0.433951
0.0907301 0.151843 0.434913
0.245747 0.125231 0.526787
0.54902 0.170596 0.571969
0.67921 0.244663 0.662043
0.0907454 0.170779 0.43473
0.0909285 0.183368 0.450996
0.204456 0.124071 0.523293
0.608667 0.195453 0.603952
0.699794 0.264012 0.683787
0.0950027 0.473487 0.589548
0.0992905 0.506706 0.609506
0.130114 0.503868 0.657481
0.8645 0.48513 0.856916
0.846128 0.449592 0.836789
0.293996 0.73022 0.698695
0.301854 0.737621 0.707835
0.402136 0.770077 0.746639
0.827893 0.867155 0.862272
0.869764 0.827237 0.858976
0.754162 0.877623 0.833875
0.781018 0.88513 0.848447
0.808255 0.891173 0.85658
0.849378 0.901244 0.868666
0.872084 0.907622 0.875303
