bundles/resolve-cinematic-luts/Phantom Luts/A7s3 Phntm Film LUTs - G6/ATOMOS Monitor LUTs/Slog3/Eastman A7s3 AML.cube
TITLE "Generated by Resolve"
LUT_3D_SIZE 9
0.0875105 0.0875105 0.0875105
0.0922255 0.0875105 0.0875105
0.14168 0.0876173 0.0876173
0.244907 0.0876478 0.0876478
0.35848 0.08748 0.090959
0.458366 0.0874952 0.0996872
0.553704 0.101122 0.190082
0.678721 0.185946 0.345876
0.759838 0.286091 0.470527
0.090135 0.0875105 0.08925
0.096788 0.0875563 0.0886854
0.140719 0.0876173 0.0914778
0.250263 0.0914015 0.0874342
0.369268 0.0930648 0.0905165
0.468879 0.101335 0.0986496
0.565835 0.108202 0.186313
0.68687 0.193088 0.348486
0.754543 0.297566 0.469368
0.105928 0.152041 0.109621
0.112703 0.152621 0.104601
0.171572 0.159304 0.10721
0.310399 0.137194 0.102296
0.393393 0.128939 0.0901045
0.478584 0.125978 0.094255
0.595407 0.123735 0.191104
0.713405 0.212436 0.354086
0.769543 0.322545 0.480949
0.127825 0.30425 0.153948
0.125002 0.304936 0.141863
0.175708 0.327199 0.139544
0.361883 0.351629 0.137026
0.555779 0.329458 0.172686
0.653132 0.290333 0.185779
0.661021 0.243473 0.183978
0.733135 0.236805 0.297826
0.780819 0.356664 0.466163
0.168688 0.518212 0.252003
0.16849 0.519234 0.244709
0.176654 0.521035 0.215717
0.353994 0.543648 0.186786
0.550668 0.551156 0.178134
0.712215 0.547997 0.233845
0.793408 0.532372 0.282948
0.809857 0.471199 0.292958
0.792584 0.417578 0.403723
0.24181 0.700191 0.405921
0.24155 0.697688 0.401511
0.247532 0.689738 0.366949
0.336522 0.69163 0.290044
0.546883 0.709575 0.26833
0.683177 0.702754 0.284199
0.785489 0.694865 0.359594
0.808759 0.684627 0.381338
0.80885 0.639719 0.356786
0.319997 0.796719 0.496544
0.317723 0.79292 0.492973
0.322271 0.785107 0.470237
0.386603 0.779767 0.425361
0.555215 0.787228 0.421851
0.67303 0.79202 0.421118
0.76762 0.783307 0.447745
0.821073 0.779706 0.511116
0.821851 0.770413 0.50901
0.447318 0.817914 0.560449
0.43856 0.815106 0.550332
0.439292 0.811032 0.537377
0.485695 0.80914 0.534157
0.578531 0.817288 0.548074
0.694041 0.827939 0.561028
0.766629 0.831266 0.566461
0.83003 0.833341 0.609583
0.854688 0.847578 0.669444
0.624033 0.851606 0.699733
0.615183 0.848783 0.686885
0.610758 0.846174 0.675441
0.619806 0.845106 0.669779
0.666636 0.852613 0.684642
0.743984 0.86392 0.708812
0.804486 0.87306 0.724132
0.843137 0.877409 0.739193
0.871 0.884169 0.775326
0.0875105 0.0875105 0.0875105
0.0903944 0.0875105 0.0875105
0.136019 0.0876173 0.099321
0.232776 0.0875868 0.0973068
0.343801 0.0876173 0.0968338
0.442893 0.0875563 0.110369
0.540352 0.10576 0.20737
0.66743 0.191363 0.352972
0.74696 0.292165 0.473365
0.0893416 0.0875105 0.0911116
0.0960098 0.0875563 0.0927901
0.150118 0.0874495 0.0930343
0.249027 0.0877394 0.0874952
0.360922 0.0881666 0.0910964
0.459892 0.0875105 0.101396
0.566278 0.120836 0.22179
0.69192 0.212787 0.377752
0.763531 0.335607 0.506539
0.105653 0.154345 0.121767
0.10547 0.154803 0.111818
0.169696 0.160037 0.109545
0.309285 0.13341 0.100999
0.40415 0.122118 0.0914015
0.494728 0.1187 0.100084
0.609583 0.138827 0.220371
0.721035 0.228367 0.384802
0.778073 0.359365 0.519966
0.128557 0.308629 0.167452
0.127031 0.31284 0.158343
0.14551 0.320363 0.135958
0.362051 0.351659 0.137102
0.560967 0.318441 0.180194
0.650629 0.278584 0.186481
0.65214 0.223621 0.177722
0.741588 0.246113 0.345586
0.787228 0.383612 0.507012
0.168795 0.521431 0.268864
0.168582 0.523674 0.26154
0.174716 0.52369 0.228595
0.333455 0.54342 0.191897
0.5505 0.550759 0.178058
0.716167 0.544015 0.239902
0.795117 0.525689 0.287556
0.80705 0.452293 0.294179
0.794308 0.413031 0.445579
0.243534 0.703548 0.418494
0.242344 0.701259 0.413687
0.246006 0.694575 0.385229
0.301427 0.689906 0.295064
0.541588 0.708476 0.268284
0.682322 0.701381 0.282979
0.786068 0.69189 0.36141
0.806806 0.681956 0.381613
0.805234 0.626017 0.361898
0.321202 0.798795 0.508782
0.319051 0.795132 0.501381
0.318471 0.787625 0.479927
0.372473 0.778439 0.426673
0.545113 0.785611 0.421454
0.668666 0.790707 0.417975
0.765621 0.781735 0.443656
0.820813 0.777462 0.508751
0.821332 0.766506 0.505058
0.445274 0.818677 0.572671
0.439597 0.817182 0.556878
0.434928 0.812238 0.540291
0.476173 0.808667 0.533501
0.569619 0.816144 0.54435
0.688075 0.826749 0.558328
0.76321 0.830045 0.562387
0.82826 0.831891 0.604807
0.850309 0.847349 0.670924
0.62118 0.851453 0.699153
0.618982 0.849928 0.68954
0.613703 0.847303 0.679683
0.617304 0.845014 0.6701
0.662104 0.851591 0.682902
0.73994 0.863233 0.706004
0.801221 0.872053 0.721309
0.841443 0.876677 0.735744
0.868635 0.883375 0.772824
0.087541 0.087541 0.104021
0.0945449 0.087602 0.110475
0.133989 0.0876326 0.116258
0.232929 0.0876478 0.129809
0.346471 0.0874952 0.128801
0.444358 0.087541 0.160662
0.538949 0.107195 0.234974
0.668101 0.1935 0.368582
0.746426 0.29163 0.483528
0.087541 0.087541 0.106462
0.0875715 0.0875715 0.119158
0.144884 0.0875257 0.126543
0.244465 0.0874647 0.120836
0.357198 0.0875257 0.114061
0.455253 0.087602 0.146746
0.562753 0.121202 0.249256
0.691646 0.214145 0.394186
0.764309 0.33727 0.517876
0.101854 0.151751 0.137774
0.101686 0.154299 0.140414
0.170291 0.164096 0.165515
0.319524 0.125994 0.134295
0.409613 0.101076 0.0984054
0.481636 0.08748 0.110964
0.605035 0.138598 0.260227
0.725277 0.234897 0.411643
0.782727 0.374823 0.543877
0.131975 0.315862 0.199115
0.130877 0.32108 0.192508
0.139254 0.324254 0.173785
0.368658 0.363973 0.181704
0.555611 0.307439 0.195621
0.649104 0.262562 0.201587
0.692988 0.206058 0.226917
0.751171 0.256947 0.372534
0.790616 0.395834 0.535698
0.174487 0.535332 0.313481
0.17229 0.534173 0.303609
0.172915 0.529595 0.270604
0.27248 0.540566 0.206882
0.547768 0.54815 0.179568
0.723522 0.533669 0.263203
0.802136 0.504326 0.311055
0.80322 0.428153 0.315709
0.793683 0.417243 0.484245
0.249149 0.711162 0.443915
0.247547 0.708705 0.440696
0.245884 0.703822 0.417975
0.268528 0.687648 0.324086
0.529747 0.707668 0.272251
0.681071 0.700114 0.282521
0.789792 0.687419 0.378897
0.810239 0.678355 0.400534
0.808621 0.60763 0.389944
0.326162 0.804532 0.529091
0.323461 0.800763 0.52517
0.319509 0.794079 0.501305
0.349187 0.779431 0.446052
0.526452 0.784695 0.428168
0.663218 0.790341 0.420935
0.764446 0.780789 0.441199
0.823514 0.776944 0.51873
0.824491 0.765148 0.516548
0.447288 0.823377 0.585214
0.440253 0.820615 0.578744
0.437842 0.816648 0.557504
0.460288 0.809216 0.535958
0.555276 0.815381 0.543465
0.682017 0.826886 0.559762
0.761105 0.830243 0.56286
0.827451 0.831205 0.602533
0.851469 0.848005 0.67451
0.620432 0.852354 0.702098
0.616602 0.850874 0.697566
0.615702 0.849165 0.687236
0.615091 0.845716 0.672877
0.656565 0.850935 0.682963
0.735744 0.86247 0.705165
0.799329 0.871839 0.721065
0.840742 0.87657 0.7346
0.867948 0.882719 0.77084
0.0876326 0.0876326 0.148714
0.092256 0.0874495 0.160891
0.138659 0.0875868 0.178653
0.227726 0.0875105 0.180652
0.343511 0.0876478 0.204013
0.444648 0.0875105 0.245212
0.543069 0.116075 0.293721
0.653941 0.184024 0.393698
0.747448 0.291493 0.509071
0.0876478 0.0876478 0.151644
0.08748 0.08748 0.175525
0.126345 0.0875563 0.207889
0.243549 0.0876326 0.194598
0.354818 0.0875257 0.209186
0.459586 0.0891127 0.249226
0.560189 0.12401 0.303395
0.68069 0.20647 0.42414
0.7664 0.339376 0.542306
0.0875105 0.143236 0.191714
0.0875563 0.140078 0.210895
0.114611 0.138338 0.253925
0.292302 0.102205 0.244724
0.388663 0.0875257 0.223148
0.480812 0.0907912 0.24271
0.584588 0.131258 0.306981
0.71339 0.224689 0.44622
0.784527 0.375891 0.566918
0.121675 0.318151 0.263035
0.121965 0.327291 0.271839
0.131456 0.334127 0.280735
0.38146 0.387503 0.380819
0.553216 0.304906 0.341939
0.651698 0.220462 0.296513
0.665721 0.179889 0.31931
0.744518 0.252659 0.437766
0.795941 0.413993 0.578225
0.185687 0.56144 0.391699
0.186587 0.563607 0.392889
0.189197 0.562158 0.379614
0.261555 0.558297 0.355734
0.553307 0.567254 0.355886
0.723201 0.513634 0.35996
0.805341 0.451637 0.36466
0.797147 0.4038 0.389731
0.796872 0.433845 0.531701
0.26154 0.730175 0.500557
0.261387 0.728161 0.499382
0.260441 0.722957 0.483116
0.261692 0.702327 0.425635
0.489158 0.709773 0.383429
0.675242 0.699153 0.354376
0.797757 0.680705 0.424048
0.819608 0.665507 0.448798
0.813855 0.563745 0.452125
0.338186 0.817868 0.568994
0.335714 0.81355 0.565347
0.331563 0.807065 0.549477
0.32575 0.792508 0.502266
0.470375 0.784344 0.447181
0.650446 0.790936 0.433738
0.763317 0.779568 0.440253
0.829969 0.777401 0.54168
0.832761 0.76611 0.549645
0.457664 0.83386 0.613733
0.449912 0.831388 0.608118
0.445792 0.826841 0.596353
0.44715 0.816907 0.565026
0.526925 0.814084 0.547875
0.669444 0.827512 0.568063
0.758602 0.831418 0.567895
0.827115 0.830945 0.601068
0.854398 0.851301 0.687831
0.622477 0.856138 0.713527
0.619684 0.854643 0.709178
0.61735 0.852811 0.703655
0.620478 0.850278 0.692699
0.644984 0.850217 0.685023
0.725856 0.862043 0.707027
0.79585 0.872435 0.723903
0.839994 0.876768 0.735271
0.867811 0.882307 0.769451
0.0875868 0.0897231 0.228977
0.0874037 0.0901503 0.243839
0.1178 0.0894026 0.273243
0.236469 0.087541 0.277684
0.339406 0.0875868 0.280156
0.448997 0.08748 0.315526
0.54876 0.119814 0.370138
0.615244 0.15433 0.415061
0.736355 0.266133 0.543908
0.0873884 0.0920119 0.238712
0.0874342 0.0921187 0.258656
0.105241 0.0920729 0.295308
0.247517 0.0874495 0.300526
0.353933 0.08748 0.293935
0.465415 0.092195 0.328542
0.566354 0.127733 0.384649
0.638254 0.171756 0.444389
0.766506 0.327184 0.583276
0.0874342 0.120821 0.267872
0.0874647 0.117144 0.284291
0.0874342 0.104387 0.317296
0.262287 0.0876173 0.348852
0.392523 0.0875715 0.328008
0.483513 0.0975814 0.340963
0.585794 0.133394 0.397192
0.668284 0.186481 0.472984
0.787594 0.369039 0.609903
0.102358 0.30164 0.339788
0.100984 0.305257 0.353704
0.0983291 0.300175 0.368612
0.287114 0.325673 0.476265
0.527535 0.259571 0.469963
0.592233 0.176364 0.425422
0.607874 0.148379 0.392859
0.700664 0.209506 0.488518
0.799222 0.408179 0.62089
0.175753 0.566094 0.471336
0.177188 0.569787 0.477821
0.181552 0.574502 0.483375
0.253117 0.589624 0.50985
0.567224 0.586831 0.570275
0.714992 0.508247 0.526329
0.795087 0.430182 0.478584
0.78735 0.356771 0.490715
0.79884 0.427268 0.591409
0.261707 0.743877 0.567971
0.26389 0.743862 0.570443
0.268055 0.745205 0.567437
0.284413 0.738994 0.547906
0.499519 0.719707 0.554818
0.690761 0.721706 0.551675
0.803891 0.679164 0.544228
0.829847 0.631647 0.524834
0.814649 0.539254 0.537331
0.347143 0.839567 0.633082
0.346532 0.836408 0.631296
0.347646 0.833005 0.622873
0.351415 0.822339 0.597467
0.475349 0.792767 0.563195
0.650568 0.806271 0.578134
0.774411 0.79585 0.557168
0.842817 0.781643 0.591989
0.844572 0.766537 0.605219
0.476066 0.861173 0.669627
0.469459 0.856962 0.66273
0.467887 0.850706 0.651804
0.470527 0.838727 0.631159
0.48661 0.821088 0.590509
0.635752 0.831144 0.601053
0.758709 0.838804 0.596277
0.829114 0.833585 0.609735
0.859998 0.857923 0.714778
0.632105 0.864652 0.736019
0.629816 0.86302 0.732967
0.629252 0.861646 0.729671
0.631388 0.859113 0.723384
0.637095 0.854231 0.708019
0.70045 0.861799 0.714076
0.791318 0.874418 0.734783
0.840345 0.878309 0.741909
0.868376 0.883009 0.771695
0.0874647 0.095613 0.298817
0.0874952 0.0959182 0.315068
0.10724 0.0961624 0.34345
0.229969 0.0874647 0.361608
0.346303 0.087541 0.354025
0.44802 0.095964 0.378256
0.551064 0.129183 0.421927
0.611124 0.15935 0.471839
0.698772 0.232105 0.561151
0.0874952 0.0981308 0.309728
0.0875257 0.098497 0.327291
0.0979171 0.0991836 0.360235
0.239048 0.087602 0.388998
0.35903 0.0874342 0.368658
0.467002 0.102174 0.394965
0.570733 0.138064 0.440116
0.617166 0.16585 0.48838
0.752667 0.296239 0.619196
0.0875868 0.116182 0.333867
0.0874647 0.114549 0.347738
0.0875563 0.103502 0.370718
0.230701 0.0877699 0.42771
0.393729 0.0875257 0.408255
0.490578 0.110597 0.414786
0.585199 0.145037 0.455146
0.623621 0.170047 0.50074
0.777981 0.346716 0.649592
0.0885939 0.264988 0.399359
0.0880751 0.2654 0.411154
0.0874495 0.254612 0.420981
0.206592 0.256962 0.519539
0.481071 0.189425 0.538354
0.545357 0.143847 0.463966
0.601358 0.154681 0.468452
0.628229 0.172412 0.504067
0.793851 0.391089 0.666178
0.156771 0.55761 0.539605
0.157504 0.559853 0.546044
0.157382 0.560388 0.554208
0.183169 0.562493 0.585
0.503502 0.554559 0.677394
0.716304 0.493751 0.655436
0.788388 0.41178 0.626993
0.769253 0.31696 0.604379
0.795377 0.40322 0.652567
0.251942 0.739162 0.630213
0.253346 0.739239 0.632181
0.256855 0.741146 0.634958
0.269978 0.740932 0.636774
0.515694 0.746975 0.683619
0.705028 0.730343 0.708186
0.805463 0.679133 0.679255
0.825849 0.609018 0.63595
0.808835 0.513542 0.629297
0.341573 0.846937 0.69456
0.341848 0.845182 0.693568
0.343496 0.844053 0.689921
0.349325 0.842237 0.681025
0.514183 0.835752 0.690867
0.67042 0.818173 0.706493
0.793256 0.821744 0.707027
0.853788 0.795331 0.696574
0.854322 0.758068 0.685176
0.474434 0.894087 0.732677
0.470176 0.891173 0.728435
0.474617 0.88838 0.722911
0.49221 0.882948 0.715267
0.528252 0.862623 0.694545
0.652018 0.852705 0.708156
0.777249 0.86833 0.728237
0.845426 0.865583 0.724056
0.866453 0.867079 0.752514
0.643351 0.883268 0.771252
0.643503 0.881025 0.768566
0.644663 0.878355 0.764889
0.650828 0.874632 0.761349
0.659709 0.868879 0.753521
0.674296 0.863035 0.736187
0.777066 0.877272 0.756909
0.839643 0.882841 0.758526
0.869337 0.884459 0.775784
0.0875257 0.102251 0.35494
0.0875715 0.10248 0.369146
0.10222 0.101961 0.393652
0.220493 0.0883497 0.425086
0.346822 0.08748 0.415183
0.442237 0.0947127 0.422599
0.556435 0.139528 0.475074
0.611337 0.166339 0.512337
0.639185 0.188251 0.544152
0.087541 0.10428 0.362539
0.0875868 0.10518 0.378103
0.0945449 0.105348 0.40766
0.223041 0.0917372 0.448295
0.362676 0.0876326 0.436286
0.459754 0.101656 0.44033
0.576959 0.149706 0.494621
0.617319 0.172183 0.527474
0.719829 0.256535 0.629374
0.0876173 0.123705 0.381476
0.087541 0.121828 0.389868
0.0875868 0.110597 0.408789
0.202304 0.0993668 0.473075
0.388067 0.0937972 0.473625
0.496498 0.118502 0.473899
0.590906 0.156573 0.509346
0.622187 0.176593 0.538277
0.758801 0.308568 0.672663
0.0876173 0.240421 0.437201
0.0874342 0.240665 0.44741
0.0874037 0.230091 0.452918
0.146654 0.215839 0.52578
0.419364 0.161975 0.565087
0.539467 0.149004 0.520531
0.609949 0.168353 0.528939
0.625376 0.179385 0.544274
0.783825 0.357763 0.700008
0.15407 0.551171 0.591745
0.154772 0.552773 0.598505
0.153948 0.550149 0.603525
0.16701 0.543404 0.628656
0.456291 0.536416 0.74226
0.708812 0.471305 0.749844
0.791547 0.402197 0.701274
0.748638 0.290059 0.653452
0.78735 0.367315 0.698634
0.227283 0.722698 0.664073
0.227176 0.722271 0.665446
0.229343 0.722087 0.669596
0.246113 0.725917 0.685817
0.476143 0.738872 0.759487
0.666941 0.7122 0.783307
0.806912 0.671916 0.764477
0.830716 0.599359 0.736065
0.815244 0.493187 0.712795
0.333593 0.84184 0.735958
0.333028 0.839994 0.734676
0.333974 0.838865 0.734081
0.338293 0.837934 0.733379
0.507027 0.853178 0.772259
0.682033 0.832349 0.786252
0.802045 0.827329 0.802045
0.862104 0.799573 0.787991
0.857206 0.746654 0.760037
0.455879 0.900923 0.775555
0.451255 0.899092 0.772732
0.451743 0.898848 0.770153
0.47689 0.901152 0.772427
0.534188 0.900603 0.776883
0.67895 0.876661 0.787091
0.787366 0.877943 0.807507
0.856367 0.880705 0.809018
0.874891 0.874601 0.805417
0.643839 0.904372 0.807935
0.646708 0.902876 0.805737
0.650553 0.901259 0.804517
0.660761 0.898619 0.803449
0.676356 0.893782 0.800717
0.702602 0.883665 0.794919
0.787594 0.890364 0.81622
0.854627 0.898283 0.825025
0.877531 0.897963 0.826078
0.0875563 0.1084 0.398566
0.0875868 0.1084 0.406912
0.0976425 0.108476 0.432715
0.202243 0.099382 0.473091
0.34052 0.0907454 0.473121
0.432532 0.0980087 0.463981
0.543694 0.138628 0.503105
0.612772 0.171633 0.547387
0.631998 0.186252 0.565606
0.0875563 0.110857 0.401633
0.087541 0.112413 0.410391
0.0881819 0.111635 0.437171
0.197971 0.103319 0.487022
0.357717 0.0959182 0.494026
0.445899 0.10309 0.47808
0.561517 0.147021 0.519112
0.616739 0.176074 0.559213
0.656809 0.206012 0.592371
0.0874037 0.134539 0.414466
0.0874189 0.135134 0.421042
0.0875715 0.119142 0.427344
0.164797 0.109697 0.491234
0.369589 0.102785 0.515709
0.497215 0.121981 0.512245
0.581476 0.156741 0.534371
0.620157 0.178897 0.56495
0.703731 0.244343 0.640391
0.0875105 0.232212 0.461952
0.087541 0.235752 0.470588
0.087602 0.22594 0.474052
0.0946975 0.193545 0.496986
0.362753 0.155184 0.577493
0.525216 0.15082 0.553079
0.61471 0.176959 0.562921
0.622751 0.18117 0.568627
0.750576 0.296223 0.687449
0.154025 0.546685 0.62388
0.154589 0.548333 0.629068
0.153429 0.54464 0.633143
0.152132 0.52668 0.641917
0.421164 0.534859 0.772503
0.682246 0.476097 0.807324
0.792569 0.411002 0.747494
0.733135 0.272923 0.671794
0.756481 0.305577 0.693904
0.220523 0.7178 0.689403
0.220386 0.717037 0.69102
0.218967 0.713954 0.692058
0.221759 0.709972 0.699687
0.440085 0.734966 0.791363
0.635523 0.701213 0.82118
0.801358 0.660517 0.816403
0.834287 0.594781 0.783032
0.817716 0.474983 0.758801
0.318669 0.832288 0.75462
0.316854 0.830091 0.753979
0.32018 0.829114 0.756039
0.339254 0.830686 0.765835
0.487877 0.844648 0.813336
0.660395 0.827619 0.830579
0.78381 0.817761 0.844083
0.860426 0.794232 0.83473
0.857435 0.733227 0.815946
0.429267 0.895338 0.798032
0.427268 0.894163 0.796948
0.430137 0.894224 0.797269
0.452537 0.897734 0.803815
0.523659 0.903319 0.819532
0.677928 0.891035 0.835904
0.791806 0.880888 0.847715
0.860197 0.883162 0.856779
0.882445 0.875502 0.8551
0.633982 0.916579 0.836301
0.637736 0.91574 0.835889
0.643076 0.91519 0.836027
0.655253 0.91371 0.836606
0.674067 0.911147 0.837415
0.70692 0.906645 0.838849
0.797955 0.897642 0.851041
0.859831 0.904631 0.864134
0.881102 0.905653 0.86421
0.0875715 0.11545 0.431998
0.0875715 0.115679 0.432288
0.0875257 0.114885 0.445472
0.170565 0.109422 0.493294
0.331212 0.100893 0.514733
0.42977 0.105821 0.50106
0.511406 0.122759 0.504677
0.60795 0.170275 0.555016
0.6262 0.18378 0.572625
0.0875563 0.117159 0.430213
0.0875715 0.118883 0.433539
0.087602 0.118669 0.441154
0.152728 0.112673 0.493248
0.341054 0.104494 0.525246
0.460731 0.115526 0.519432
0.529488 0.131945 0.519722
0.608942 0.170886 0.556039
0.632685 0.188785 0.578851
0.0873884 0.143053 0.435889
0.0875715 0.148272 0.442206
0.0874495 0.150835 0.446738
0.0937819 0.118471 0.469261
0.33257 0.105547 0.528893
0.492393 0.123079 0.523278
0.57612 0.153414 0.539788
0.610254 0.17171 0.55729
0.636698 0.19202 0.582635
0.0874952 0.239628 0.4804
0.0876173 0.254994 0.491737
0.089189 0.261997 0.500404
0.0874037 0.228336 0.490791
0.321538 0.194797 0.609186
0.517617 0.163088 0.57763
0.609308 0.175082 0.564065
0.613931 0.174472 0.56083
0.641108 0.195071 0.586587
0.157473 0.554788 0.642466
0.160418 0.561105 0.648768
0.158984 0.557046 0.651621
0.152804 0.538674 0.652705
0.361395 0.5411 0.757092
0.634653 0.500069 0.822644
0.785702 0.435065 0.761776
0.756634 0.306127 0.695796
0.642649 0.196277 0.587991
0.223316 0.72166 0.704265
0.223713 0.721996 0.70631
0.222629 0.719051 0.707378
0.218814 0.70956 0.70837
0.402701 0.731991 0.792569
0.612879 0.70457 0.826474
0.786618 0.671519 0.837079
0.838087 0.607355 0.797024
0.820249 0.466224 0.765377
0.292958 0.820371 0.752453
0.29131 0.818021 0.752224
0.292332 0.81648 0.753872
0.310323 0.819699 0.766735
0.456123 0.838987 0.821759
0.641764 0.82652 0.844495
0.76585 0.813703 0.85742
0.858259 0.79205 0.85275
0.858244 0.731975 0.831296
0.402564 0.891035 0.799298
0.400946 0.88896 0.798764
0.411902 0.890105 0.802853
0.454353 0.895781 0.816754
0.558541 0.898054 0.838941
0.665812 0.888365 0.851545
0.779553 0.878965 0.86154
0.857969 0.88069 0.874815
0.882612 0.874128 0.873457
0.618357 0.92018 0.851423
0.623194 0.920104 0.852537
0.629267 0.919219 0.852888
0.643381 0.918029 0.854261
0.665675 0.915877 0.855711
0.703761 0.911864 0.859113
0.796078 0.903105 0.867536
0.859464 0.903639 0.878676
0.883375 0.905486 0.87805
