bundles/resolve-cinematic-luts/Phantom Luts/A7s3 Phntm Film LUTs - G6/ATOMOS Monitor LUTs/Slog3/EastmanRM A7s3 AML.cube
TITLE "Generated by Resolve"
LUT_3D_SIZE 33
0.0916609 0.0855879 0.0881208
0.0917525 0.0854658 0.0878157
0.0920272 0.0851911 0.0872053
0.0928817 0.0846418 0.0862898
0.0971389 0.084062 0.0858015
0.106477 0.0832685 0.0854047
0.119936 0.0825055 0.0851606
0.140856 0.0819104 0.084947
0.164584 0.0814221 0.0851453
0.187076 0.0806744 0.0852674
0.214923 0.0798962 0.0854963
0.243473 0.0792859 0.0861982
0.273594 0.0782177 0.0872663
0.310201 0.0769818 0.0884413
0.348363 0.076112 0.0896315
0.382864 0.0753338 0.0915847
0.415564 0.0749981 0.0943465
0.447074 0.0755932 0.097673
0.478416 0.0762951 0.102678
0.506386 0.0770581 0.108721
0.531365 0.0787366 0.117601
0.552804 0.0818494 0.12871
0.573526 0.087129 0.144839
0.598672 0.0971084 0.168856
0.630289 0.115541 0.200824
0.671901 0.143435 0.241505
0.714733 0.172 0.284886
0.757198 0.200443 0.330373
0.795529 0.229892 0.379767
0.825254 0.263172 0.431434
0.848081 0.300908 0.480888
0.865583 0.345922 0.525872
0.875303 0.389639 0.563821
0.0916609 0.0855879 0.0881056
0.0917525 0.0854353 0.0877546
0.0920272 0.0851911 0.0872053
0.0927596 0.0847334 0.0863966
0.0967269 0.0844739 0.0861677
0.103532 0.0839704 0.0859846
0.114717 0.0832227 0.0858473
0.135393 0.0822919 0.08542
0.161044 0.0816205 0.085359
0.183841 0.0809339 0.0853895
0.210117 0.0803082 0.0857404
0.239841 0.0796826 0.0865492
0.272816 0.0783551 0.0873426
0.311406 0.0767224 0.0884108
0.34992 0.0758373 0.0894026
0.385901 0.0754559 0.0911879
0.418067 0.0755474 0.0939193
0.450263 0.0756695 0.0974136
0.481514 0.0763867 0.10248
0.509194 0.0771191 0.108522
0.533181 0.0788891 0.117464
0.55436 0.0820783 0.128466
0.575174 0.087602 0.145068
0.60029 0.097673 0.169314
0.632197 0.116533 0.20119
0.672862 0.143816 0.241764
0.715007 0.172091 0.284443
0.756817 0.200061 0.328939
0.794812 0.228916 0.377111
0.823682 0.261143 0.427985
0.84538 0.297307 0.476188
0.861723 0.340612 0.52105
0.870848 0.381979 0.557885
0.0916762 0.0855879 0.0880903
0.0917525 0.0854353 0.0877546
0.0920272 0.0851911 0.0872053
0.0927596 0.0847181 0.0863966
0.0965896 0.084535 0.0861067
0.10132 0.0842145 0.0860609
0.109209 0.083711 0.0861067
0.12546 0.0834363 0.0862745
0.152956 0.0822156 0.0857557
0.178851 0.0813306 0.0854963
0.206287 0.0806592 0.0858167
0.235569 0.0800641 0.0869154
0.268559 0.0787671 0.0880446
0.309071 0.0769055 0.0887617
0.349767 0.0753185 0.0897078
0.387686 0.0754559 0.0911421
0.420539 0.0757458 0.0938582
0.452232 0.0757458 0.0974441
0.483619 0.0763714 0.102449
0.511055 0.0773175 0.108766
0.535225 0.0790265 0.118151
0.555901 0.0824445 0.128969
0.57705 0.0882277 0.145937
0.601923 0.0983139 0.16997
0.633982 0.118074 0.202152
0.673899 0.144137 0.242161
0.715663 0.172412 0.284703
0.756374 0.199573 0.327794
0.79379 0.227756 0.374456
0.820874 0.258137 0.423346
0.841856 0.293751 0.470939
0.856336 0.334234 0.515343
0.865461 0.373709 0.552285
0.0914931 0.0863966 0.0889296
0.0915541 0.0863355 0.0887617
0.0918441 0.0857862 0.0881971
0.0926223 0.0849622 0.0867475
0.0962234 0.0854505 0.0862593
0.10016 0.0853437 0.0861219
0.106096 0.0851148 0.0862287
0.120302 0.0844739 0.0866102
0.14522 0.0834516 0.0863355
0.174411 0.0822309 0.0858473
0.204166 0.0814374 0.0858015
0.236072 0.0806592 0.0868086
0.268208 0.0792859 0.0879988
0.309743 0.0774548 0.089128
0.351522 0.0756237 0.0902571
0.389471 0.0747845 0.0917067
0.424384 0.0753338 0.0937514
0.456779 0.0756847 0.0974289
0.488075 0.0763867 0.102464
0.514961 0.0775158 0.109041
0.538277 0.0792706 0.118273
0.558511 0.082887 0.129793
0.580194 0.0893873 0.147753
0.60592 0.10045 0.173022
0.638697 0.12105 0.206043
0.678904 0.147845 0.246128
0.72105 0.175799 0.288975
0.761776 0.20293 0.332341
0.7991 0.231708 0.379721
0.825055 0.262852 0.428153
0.845716 0.299702 0.476188
0.858579 0.341009 0.520699
0.866255 0.381201 0.557412
0.0922713 0.0952926 0.0916915
0.0921645 0.0953689 0.091371
0.0925307 0.0954757 0.091249
0.0935836 0.0958572 0.0913863
0.0961471 0.0958572 0.0906233
0.101656 0.0944991 0.090013
0.110704 0.0937972 0.0890822
0.126207 0.0917067 0.0880598
0.150256 0.0899214 0.0878462
0.178347 0.0873884 0.0872206
0.209705 0.0850385 0.0862745
0.243183 0.0821851 0.0861067
0.278462 0.0802014 0.087068
0.319631 0.0779126 0.088365
0.358572 0.0762798 0.0899367
0.396674 0.075349 0.0914931
0.43061 0.0755779 0.0940108
0.462608 0.0759136 0.0978408
0.494377 0.0766003 0.102693
0.51986 0.0776837 0.109026
0.542336 0.0798199 0.118517
0.562112 0.0836957 0.130968
0.584268 0.0906539 0.149798
0.610727 0.102556 0.176593
0.645548 0.125475 0.211673
0.685786 0.152087 0.252064
0.727474 0.179934 0.295125
0.7682 0.207248 0.338674
0.804852 0.235966 0.384985
0.830564 0.268254 0.434562
0.849332 0.306203 0.482078
0.860288 0.348745 0.526726
0.866819 0.389029 0.563577
0.0929274 0.107027 0.0941329
0.0927596 0.106645 0.0934157
0.0932174 0.106096 0.0928817
0.0943923 0.106645 0.0931411
0.0966201 0.108385 0.0936294
0.10132 0.107378 0.0924086
0.115557 0.104555 0.0920729
0.133623 0.102464 0.0909895
0.155581 0.099733 0.090074
0.179019 0.0968032 0.0899214
0.207599 0.0929274 0.0891737
0.2448 0.087129 0.0880293
0.286442 0.0816968 0.0871443
0.328313 0.0783856 0.0874189
0.363592 0.0766766 0.0889448
0.398337 0.0759442 0.0908064
0.434333 0.0761883 0.0936446
0.468803 0.0762493 0.0985733
0.49749 0.0767681 0.103746
0.52459 0.0779583 0.109468
0.546578 0.0804456 0.11902
0.566842 0.0848096 0.132357
0.589303 0.0922255 0.1523
0.616297 0.105776 0.179934
0.652277 0.129519 0.216846
0.69276 0.156588 0.258045
0.734462 0.184497 0.301411
0.774594 0.21178 0.344869
0.810407 0.240742 0.391165
0.835676 0.273762 0.439933
0.852979 0.313573 0.488182
0.861967 0.356863 0.532723
0.866926 0.39704 0.569894
0.0936904 0.124712 0.0965896
0.0936446 0.124285 0.0961166
0.09514 0.122774 0.0943465
0.0970779 0.123201 0.0940871
0.10045 0.125734 0.0947127
0.106218 0.126665 0.094316
0.12192 0.124712 0.0927443
0.149996 0.11957 0.0919203
0.174212 0.116457 0.0917983
0.195209 0.113512 0.0907301
0.219684 0.109163 0.090837
0.25005 0.100771 0.0908064
0.289555 0.0898451 0.0884871
0.33315 0.0820783 0.0878309
0.372503 0.0781109 0.0884871
0.404013 0.0760357 0.0893416
0.436255 0.0760967 0.0918746
0.469154 0.0765698 0.0967727
0.501595 0.0773785 0.104387
0.525002 0.0782635 0.112261
0.548363 0.0814527 0.121798
0.569909 0.0864576 0.135027
0.593591 0.0944381 0.155169
0.621668 0.108476 0.183246
0.659098 0.133867 0.221393
0.700221 0.1617 0.264149
0.741161 0.188891 0.307103
0.78143 0.21648 0.351492
0.817197 0.246311 0.397452
0.841703 0.279469 0.444541
0.859754 0.320638 0.491417
0.868498 0.363928 0.534371
0.87422 0.40293 0.569329
0.0972305 0.143786 0.0974441
0.0963455 0.143755 0.0974289
0.0961471 0.142992 0.0965744
0.0984817 0.143725 0.0960708
0.102632 0.146136 0.0963302
0.109957 0.148028 0.0968185
0.12163 0.149676 0.0970321
0.146441 0.146761 0.0950637
0.177218 0.141772 0.0952773
0.207202 0.137118 0.0951095
0.233875 0.132326 0.0940871
0.264729 0.123079 0.0931563
0.301778 0.108995 0.093019
0.342092 0.0956283 0.0910201
0.37908 0.0862135 0.08925
0.412177 0.0797894 0.0890822
0.441444 0.0766308 0.0899519
0.470115 0.0764935 0.0933089
0.497856 0.0771038 0.100038
0.52871 0.0799115 0.112596
0.54876 0.082002 0.124285
0.568399 0.0869459 0.13933
0.593194 0.0962234 0.160784
0.62533 0.113695 0.190188
0.664973 0.139208 0.228962
0.706783 0.166415 0.270405
0.748974 0.193851 0.313619
0.788693 0.221744 0.358221
0.823682 0.252049 0.403708
0.847395 0.287068 0.449958
0.864012 0.32961 0.497078
0.871138 0.37319 0.54023
0.874617 0.412009 0.575341
0.0991684 0.164691 0.100511
0.0982223 0.16492 0.100404
0.0977646 0.164279 0.0994888
0.0996262 0.164599 0.0975052
0.104829 0.16669 0.0974136
0.112947 0.168719 0.0977951
0.12575 0.172 0.0990921
0.143084 0.17464 0.0995956
0.172091 0.169894 0.0977493
0.208988 0.164752 0.0988327
0.24683 0.157488 0.098436
0.28748 0.146319 0.097261
0.324956 0.132631 0.0960861
0.35697 0.119127 0.0954299
0.39115 0.105089 0.094316
0.424994 0.0900282 0.0911574
0.451942 0.0821088 0.0907454
0.47657 0.0781109 0.0918441
0.498421 0.0771038 0.0960555
0.520974 0.0779431 0.104723
0.552605 0.0844892 0.123003
0.573236 0.0887922 0.140383
0.59527 0.0975509 0.164508
0.627558 0.116014 0.194827
0.671504 0.145312 0.237201
0.712169 0.172702 0.279255
0.75375 0.199374 0.321813
0.794476 0.227665 0.366278
0.829328 0.258869 0.410468
0.85304 0.295262 0.455802
0.868299 0.339025 0.502663
0.873091 0.382879 0.545312
0.875502 0.421775 0.580224
0.100465 0.187655 0.104723
0.0986343 0.188373 0.104524
0.0979171 0.188327 0.103822
0.0984054 0.188617 0.101091
0.102403 0.189563 0.0988174
0.112398 0.191394 0.0988785
0.127916 0.194507 0.100084
0.147875 0.199252 0.102007
0.165957 0.202716 0.101991
0.202289 0.197024 0.100633
0.252323 0.18967 0.101747
0.302388 0.17911 0.100832
0.348226 0.164279 0.100099
0.382986 0.15021 0.0984512
0.411063 0.135973 0.0988022
0.440223 0.120134 0.0986343
0.468864 0.10193 0.0961013
0.492287 0.0870985 0.0942855
0.509453 0.081239 0.0959029
0.522347 0.0787823 0.10042
0.541253 0.0812238 0.112169
0.57763 0.0913863 0.135775
0.604028 0.101183 0.16408
0.631769 0.118639 0.198062
0.676341 0.14847 0.241093
0.719295 0.178256 0.284962
0.759106 0.20557 0.329427
0.798596 0.234318 0.37525
0.833875 0.267124 0.42005
0.857603 0.305257 0.463462
0.871153 0.349432 0.507225
0.875227 0.393149 0.549447
0.876173 0.43212 0.585077
0.101289 0.213382 0.108827
0.0990158 0.214176 0.108248
0.0977035 0.214343 0.107012
0.0974594 0.215061 0.104616
0.0976883 0.215778 0.101472
0.103395 0.2168 0.0988632
0.115221 0.2206 0.099733
0.137865 0.226078 0.101106
0.161715 0.232593 0.102342
0.188006 0.237934 0.102449
0.241352 0.232776 0.102617
0.31133 0.223606 0.10425
0.3691 0.212146 0.106203
0.415229 0.194324 0.107759
0.447059 0.179156 0.10602
0.472465 0.161196 0.106538
0.494469 0.143816 0.106828
0.516304 0.127428 0.105928
0.532937 0.100328 0.101366
0.540215 0.08925 0.103517
0.543755 0.0840467 0.108248
0.560739 0.086183 0.121569
0.607797 0.103609 0.154788
0.643336 0.124956 0.197162
0.680049 0.150668 0.242695
0.723552 0.181094 0.286854
0.76817 0.211582 0.333516
0.806546 0.241352 0.381338
0.84004 0.27602 0.426978
0.862333 0.316213 0.471046
0.874952 0.360647 0.512657
0.877363 0.404196 0.554131
0.876524 0.443214 0.589212
0.0999619 0.244984 0.110033
0.0975357 0.245777 0.109224
0.0960708 0.245869 0.107424
0.0956436 0.247089 0.104707
0.0953384 0.248249 0.101671
0.0955367 0.248203 0.0969406
0.103166 0.250706 0.0949569
0.120775 0.257679 0.0967422
0.150958 0.267704 0.0997635
0.181277 0.278798 0.102068
0.220203 0.290074 0.104601
0.29807 0.28542 0.10602
0.378439 0.275929 0.107637
0.440208 0.263325 0.112673
0.487449 0.242893 0.119905
0.521645 0.225177 0.121523
0.546532 0.205188 0.124743
0.564446 0.185336 0.12723
0.580514 0.168246 0.126253
0.585077 0.138827 0.12047
0.576791 0.108431 0.117739
0.570779 0.0945754 0.120928
0.585397 0.0936904 0.133379
0.646281 0.126482 0.181216
0.69102 0.156847 0.23743
0.726986 0.183062 0.286687
0.773022 0.215137 0.33521
0.815885 0.248829 0.383108
0.847745 0.285405 0.430335
0.867964 0.328679 0.476204
0.87805 0.373175 0.518914
0.879484 0.416388 0.557595
0.877287 0.454871 0.593057
0.098909 0.28455 0.11078
0.0966354 0.285695 0.110826
0.0949722 0.286183 0.109529
0.0943923 0.287236 0.106661
0.094255 0.288121 0.103502
0.0944686 0.28925 0.0999924
0.094728 0.288197 0.0931563
0.106767 0.29456 0.0929122
0.133608 0.305882 0.0957198
0.168902 0.31899 0.0995193
0.208713 0.334386 0.102724
0.26685 0.349493 0.10605
0.363775 0.346731 0.107332
0.448707 0.338384 0.108949
0.511437 0.326146 0.118639
0.556146 0.305745 0.127108
0.594797 0.284825 0.135561
0.624582 0.268772 0.142779
0.646342 0.254047 0.150134
0.662409 0.223941 0.160159
0.663417 0.19939 0.162722
0.640574 0.158129 0.149416
0.614115 0.125002 0.145373
0.615366 0.111589 0.152605
0.683024 0.154482 0.210819
0.737255 0.189975 0.277867
0.777462 0.218051 0.335164
0.821332 0.253376 0.384588
0.856306 0.296284 0.430945
0.873426 0.341482 0.479103
0.881437 0.386511 0.523415
0.880751 0.429038 0.562707
0.876875 0.467475 0.596735
0.0986648 0.328908 0.112108
0.0964065 0.330297 0.113191
0.0949569 0.331212 0.112566
0.0944228 0.33254 0.110155
0.0940719 0.333776 0.107897
0.0937972 0.334737 0.104295
0.0936904 0.335164 0.0994888
0.0959029 0.334615 0.0923934
0.112428 0.343404 0.0919356
0.144991 0.356695 0.0946975
0.185397 0.371984 0.0982071
0.246433 0.392233 0.102556
0.325307 0.412482 0.106294
0.431968 0.410422 0.109453
0.516564 0.403433 0.111513
0.576379 0.392172 0.126528
0.620874 0.373114 0.137835
0.660105 0.350866 0.15053
0.692424 0.335744 0.158312
0.713436 0.32665 0.165118
0.735775 0.290913 0.186755
0.741115 0.26421 0.200671
0.725841 0.227039 0.201541
0.68658 0.178988 0.188342
0.667506 0.155612 0.186847
0.712322 0.182345 0.237949
0.783642 0.226719 0.319036
0.822736 0.258976 0.384985
0.859693 0.304692 0.4318
0.878111 0.355001 0.477516
0.883925 0.400214 0.524788
0.882216 0.443824 0.566934
0.876982 0.48217 0.601892
0.0964675 0.373785 0.112642
0.0948196 0.375708 0.11487
0.0937514 0.377157 0.115877
0.0932326 0.378424 0.114443
0.0929732 0.379538 0.112062
0.0929732 0.380575 0.108965
0.0931411 0.381781 0.104677
0.0943618 0.382528 0.0980392
0.0973373 0.382269 0.0909895
0.118791 0.393118 0.0910811
0.159243 0.407721 0.0937057
0.217258 0.427039 0.0979324
0.300664 0.455085 0.103334
0.390173 0.477699 0.109957
0.497627 0.475349 0.116884
0.57583 0.470741 0.122011
0.634134 0.460853 0.145708
0.675013 0.444114 0.158831
0.712642 0.420645 0.170275
0.746624 0.403052 0.182635
0.766491 0.397253 0.19028
0.78732 0.372488 0.209674
0.79585 0.336202 0.233997
0.790707 0.301595 0.245487
0.767071 0.251423 0.234302
0.743435 0.22121 0.231052
0.761501 0.2262 0.272374
0.829084 0.2766 0.359976
0.857328 0.3149 0.429831
0.87602 0.363378 0.484916
0.883604 0.409445 0.532998
0.882643 0.458228 0.568002
0.876677 0.497292 0.605905
0.0948196 0.419303 0.114305
0.0935378 0.421271 0.117998
0.0929427 0.423194 0.120546
0.0926833 0.42472 0.120821
0.0927291 0.426184 0.120211
0.0927901 0.427359 0.116838
0.0932326 0.428885 0.112169
0.0942245 0.430289 0.10634
0.0959487 0.430762 0.0982528
0.101183 0.431571 0.0906996
0.132265 0.444007 0.0914778
0.19176 0.460914 0.095491
0.2748 0.488167 0.103105
0.369497 0.521279 0.113359
0.460014 0.541802 0.124727
0.557656 0.538598 0.135668
0.629999 0.533547 0.144427
0.683833 0.525093 0.17229
0.721218 0.510735 0.1906
0.753689 0.488701 0.20174
0.784085 0.470222 0.220554
0.801724 0.463661 0.228061
0.818143 0.448264 0.242237
0.829755 0.41796 0.260746
0.826825 0.378866 0.267964
0.812696 0.333593 0.265034
0.80058 0.299474 0.270085
0.816388 0.291066 0.301823
0.8598 0.343221 0.390875
0.873716 0.377935 0.474632
0.880323 0.422675 0.538231
0.87985 0.469749 0.577615
0.875547 0.513161 0.608347
0.0954452 0.465858 0.124788
0.0947738 0.468055 0.131106
0.0940871 0.470207 0.13579
0.0938125 0.472053 0.137072
0.0938277 0.473838 0.137438
0.0943008 0.47512 0.134905
0.0950942 0.476219 0.129763
0.0961471 0.47744 0.124102
0.0975509 0.478553 0.116457
0.100893 0.478706 0.104494
0.114672 0.481102 0.0950179
0.168231 0.495094 0.0972152
0.254673 0.518196 0.106218
0.351827 0.553597 0.121599
0.441657 0.583932 0.135958
0.526635 0.600656 0.149798
0.612863 0.59588 0.163699
0.678752 0.591165 0.1776
0.729458 0.583337 0.212772
0.762356 0.570611 0.239139
0.787961 0.551232 0.249546
0.810987 0.533059 0.260548
0.824781 0.526452 0.268223
0.837125 0.513222 0.27863
0.843183 0.494926 0.281422
0.842863 0.46453 0.280278
0.838727 0.41915 0.279011
0.835081 0.377157 0.289662
0.849195 0.368795 0.332418
0.875441 0.408453 0.422965
0.881453 0.43946 0.514565
0.879164 0.48307 0.578912
0.875257 0.526024 0.617685
0.10219 0.511971 0.154696
0.100359 0.514748 0.162478
0.0991379 0.517311 0.169039
0.0988632 0.519265 0.172244
0.098909 0.521096 0.173617
0.0991073 0.522225 0.170916
0.0999313 0.522972 0.164828
0.101396 0.523583 0.1561
0.1037 0.524437 0.146151
0.10724 0.524804 0.133227
0.116548 0.524742 0.116594
0.15198 0.530404 0.106676
0.23592 0.547326 0.112779
0.335729 0.579629 0.132113
0.432029 0.616861 0.15465
0.508293 0.641779 0.16965
0.585061 0.656077 0.184527
0.662928 0.650462 0.201678
0.722698 0.645518 0.225849
0.769268 0.638315 0.269947
0.797086 0.62707 0.29723
0.815503 0.611353 0.306249
0.831785 0.596139 0.309941
0.842664 0.587457 0.310567
0.849287 0.575174 0.311162
0.850202 0.557855 0.308873
0.84889 0.533578 0.30338
0.847684 0.499031 0.29395
0.850202 0.460227 0.301564
0.864775 0.434897 0.354559
0.881086 0.468071 0.457527
0.881971 0.498848 0.552468
0.875761 0.539727 0.618311
0.115023 0.555383 0.199786
0.111711 0.55819 0.209384
0.109545 0.561288 0.218143
0.109255 0.563653 0.222416
0.10901 0.565423 0.224414
0.109514 0.566567 0.222522
0.110796 0.567071 0.217319
0.113161 0.567025 0.207416
0.116457 0.567041 0.195163
0.121218 0.567193 0.180987
0.129732 0.566445 0.161639
0.150195 0.56524 0.134768
0.224842 0.576501 0.127947
0.321569 0.602914 0.146365
0.42179 0.642115 0.176638
0.500053 0.673487 0.199771
0.566033 0.695079 0.219562
0.63682 0.707515 0.237064
0.706493 0.701946 0.258381
0.761746 0.696452 0.287922
0.80267 0.689494 0.329427
0.825269 0.680095 0.35523
0.839429 0.668193 0.366903
0.848325 0.656687 0.369879
0.853544 0.651499 0.366598
0.854383 0.643198 0.357839
0.853529 0.624567 0.345006
0.853178 0.596811 0.332601
0.852232 0.561852 0.323278
0.853712 0.525841 0.321202
0.867628 0.492653 0.373083
0.876631 0.52961 0.497795
0.879759 0.555444 0.590799
0.139467 0.594873 0.249378
0.135027 0.598306 0.260929
0.132433 0.602136 0.271305
0.131975 0.604608 0.275746
0.131548 0.606134 0.278279
0.132387 0.607034 0.277104
0.134432 0.607477 0.273075
0.13727 0.607187 0.264485
0.141344 0.606073 0.251713
0.147753 0.604639 0.237186
0.156634 0.603082 0.219486
0.17145 0.600916 0.194781
0.215518 0.603403 0.167468
0.312047 0.624964 0.174136
0.407401 0.658961 0.204562
0.49189 0.695125 0.237018
0.555688 0.721904 0.262364
0.616724 0.741894 0.284153
0.682826 0.75317 0.301762
0.745434 0.748379 0.320333
0.794598 0.743038 0.348882
0.830259 0.736858 0.389136
0.849928 0.729854 0.417639
0.860075 0.720882 0.432944
0.864851 0.712566 0.437644
0.864225 0.708995 0.43212
0.86334 0.703502 0.42089
0.861006 0.688533 0.405936
0.857893 0.664622 0.386343
0.854658 0.628 0.36231
0.854948 0.583841 0.35787
0.861021 0.556176 0.399359
0.870268 0.58999 0.538552
0.177829 0.630777 0.297124
0.173144 0.634318 0.309422
0.170016 0.637751 0.319982
0.1691 0.640131 0.324605
0.169085 0.641901 0.328145
0.170916 0.642634 0.327489
0.173175 0.642741 0.324163
0.176455 0.641657 0.316808
0.18027 0.640253 0.305974
0.186206 0.637995 0.29073
0.193698 0.635691 0.273457
0.204959 0.633127 0.252918
0.23061 0.633295 0.229969
0.299672 0.644419 0.215671
0.395865 0.67274 0.236332
0.479118 0.707149 0.269551
0.548394 0.738628 0.300526
0.604578 0.762142 0.326482
0.661158 0.780545 0.348592
0.722683 0.79176 0.366064
0.779248 0.787991 0.384222
0.821332 0.7832 0.416266
0.852934 0.776852 0.45713
0.868513 0.770809 0.484199
0.874388 0.764843 0.497993
0.874891 0.760021 0.501961
0.874372 0.757168 0.498909
0.873823 0.754025 0.488258
0.872526 0.742489 0.475196
0.869307 0.72282 0.45449
0.865431 0.6925 0.424674
0.85861 0.649332 0.40708
0.857191 0.611261 0.441733
0.227329 0.656809 0.325551
0.221866 0.660365 0.337713
0.217197 0.664073 0.3505
0.215824 0.666453 0.356405
0.214908 0.668116 0.360388
0.215442 0.668894 0.360449
0.216999 0.669093 0.358022
0.220264 0.668208 0.351873
0.223682 0.667094 0.343862
0.228763 0.665309 0.331975
0.235431 0.662409 0.31458
0.244541 0.659922 0.294911
0.26392 0.660014 0.277226
0.305257 0.665583 0.259815
0.388724 0.685924 0.26453
0.473808 0.717845 0.293782
0.545571 0.750042 0.326757
0.604898 0.776898 0.356497
0.654398 0.796704 0.382345
0.706233 0.813062 0.405005
0.762844 0.823133 0.425574
0.809461 0.819944 0.448295
0.84535 0.814878 0.481407
0.871977 0.80911 0.517372
0.882414 0.803967 0.539879
0.885664 0.79881 0.550973
0.885618 0.795514 0.554482
0.884611 0.793103 0.552483
0.883497 0.791333 0.543832
0.881575 0.783139 0.535073
0.879286 0.768902 0.520211
0.874815 0.745602 0.497734
0.865873 0.711635 0.481605
0.26186 0.682918 0.367819
0.259068 0.684916 0.373983
0.255558 0.688334 0.384421
0.253605 0.690471 0.390738
0.25301 0.692134 0.395209
0.253254 0.692699 0.395026
0.254231 0.69279 0.392844
0.256962 0.692058 0.388128
0.259358 0.690959 0.381125
0.263233 0.689174 0.371206
0.268971 0.687129 0.358144
0.277897 0.684474 0.339422
0.296818 0.685191 0.323857
0.325444 0.688945 0.310796
0.378927 0.699367 0.307942
0.455406 0.721584 0.326543
0.529213 0.750866 0.359609
0.592996 0.780056 0.394171
0.647181 0.804288 0.426017
0.695033 0.823178 0.455375
0.746197 0.839002 0.483085
0.792889 0.847761 0.505531
0.830579 0.845533 0.528603
0.859632 0.84065 0.555291
0.879973 0.835508 0.582818
0.88661 0.831983 0.60061
0.887434 0.829023 0.609415
0.887343 0.826444 0.613504
0.887297 0.824735 0.612985
0.886076 0.822934 0.604517
0.885695 0.815656 0.59527
0.88484 0.803693 0.581781
0.882567 0.785824 0.560967
0.292027 0.703334 0.399176
0.290852 0.704753 0.402731
0.287526 0.707347 0.410544
0.286 0.709239 0.4168
0.284596 0.710491 0.420356
0.284413 0.710933 0.420325
0.285237 0.710979 0.418753
0.287068 0.710399 0.415076
0.28925 0.709453 0.409537
0.293507 0.708324 0.402167
0.299107 0.707195 0.392218
0.308675 0.706325 0.379385
0.328267 0.7075 0.365866
0.358221 0.711696 0.358282
0.398627 0.719295 0.361868
0.452323 0.731655 0.375479
0.520272 0.753048 0.403616
0.585702 0.779644 0.438727
0.643305 0.805859 0.47364
0.693538 0.827863 0.505501
0.740108 0.846159 0.53547
0.78088 0.859022 0.559426
0.816602 0.866056 0.579736
0.846128 0.864347 0.601083
0.868559 0.860822 0.62388
0.881468 0.85716 0.643641
0.885801 0.854841 0.656123
0.885878 0.853605 0.66334
0.885283 0.852003 0.667918
0.88484 0.851011 0.668391
0.884657 0.84892 0.66006
0.885771 0.843061 0.650706
0.886992 0.832822 0.636713
0.317983 0.718379 0.419333
0.31696 0.719295 0.422538
0.313985 0.721553 0.430335
0.311269 0.723339 0.435569
0.309621 0.724681 0.439368
0.309789 0.725231 0.439887
0.310628 0.725277 0.438636
0.312215 0.724758 0.435294
0.314427 0.723888 0.430732
0.318761 0.723247 0.424918
0.32723 0.723568 0.41828
0.3411 0.724361 0.411795
0.359609 0.725628 0.403204
0.395392 0.730907 0.403952
0.430854 0.737209 0.411734
0.472572 0.74667 0.426642
0.525811 0.76109 0.450278
0.58761 0.782467 0.482399
0.646036 0.807218 0.517479
0.694453 0.829587 0.548898
0.739864 0.848585 0.57937
0.778164 0.862516 0.604929
0.808484 0.872145 0.624338
0.834699 0.878325 0.64535
0.857084 0.877943 0.665553
0.870832 0.876341 0.684932
0.877958 0.874647 0.699809
0.879637 0.873671 0.708171
0.88011 0.872877 0.714153
0.880064 0.872068 0.717235
0.88011 0.871366 0.715068
0.880842 0.86952 0.707668
0.882078 0.864881 0.699397
0.33846 0.730556 0.440208
0.338766 0.730968 0.440665
0.336629 0.732464 0.445762
0.334539 0.733715 0.449851
0.333165 0.734966 0.453696
0.33344 0.735256 0.453986
0.334386 0.735027 0.452735
0.336065 0.734554 0.450217
0.339834 0.734462 0.447257
0.346288 0.734508 0.444373
0.358236 0.735119 0.441337
0.377188 0.737499 0.44123
0.403769 0.741314 0.44448
0.434897 0.746746 0.450797
0.469215 0.753658 0.461006
0.504952 0.762036 0.47628
0.548302 0.773693 0.498405
0.597787 0.789364 0.525933
0.651255 0.809613 0.557687
0.699565 0.830579 0.588846
0.740612 0.848753 0.616785
0.777478 0.863554 0.641367
0.805737 0.873869 0.659632
0.828443 0.880858 0.677607
0.84654 0.883772 0.69485
0.863096 0.88574 0.716045
0.871473 0.887449 0.734401
0.874113 0.887526 0.746899
0.874357 0.887449 0.754986
0.874205 0.887312 0.760571
0.874632 0.886976 0.762417
0.87538 0.886336 0.758434
0.876509 0.884642 0.749966
0.376104 0.742245 0.462562
0.37734 0.742977 0.464652
0.377234 0.744198 0.468925
0.37734 0.745296 0.472557
0.377874 0.746242 0.475853
0.37937 0.746807 0.476677
0.381933 0.747066 0.476844
0.385534 0.747295 0.47657
0.389227 0.747311 0.475257
0.400931 0.748638 0.47715
0.416983 0.751675 0.481819
0.435554 0.755093 0.487388
0.458274 0.759411 0.495354
0.483436 0.765026 0.504402
0.513817 0.771893 0.516365
0.546807 0.779995 0.530648
0.582162 0.789593 0.549249
0.621988 0.801663 0.572641
0.664637 0.816342 0.598993
0.708125 0.833738 0.627466
0.744198 0.849836 0.651453
0.776806 0.863615 0.673625
0.804395 0.874296 0.691112
