bundles/resolve-cinematic-luts/Phantom Luts/A7s3 Phntm Film LUTs - G6/ATOMOS Monitor LUTs/Slog3/EastmanRM A7s3 AML.cube
TITLE "Generated by Resolve"
LUT_3D_SIZE 9
0.0916609 0.0855879 0.0881208
0.0971389 0.084062 0.0858015
0.164584 0.0814221 0.0851453
0.273594 0.0782177 0.0872663
0.415564 0.0749981 0.0943465
0.531365 0.0787366 0.117601
0.630289 0.115541 0.200824
0.795529 0.229892 0.379767
0.875303 0.389639 0.563821
0.0922713 0.0952926 0.0916915
0.0961471 0.0958572 0.0906233
0.150256 0.0899214 0.0878462
0.278462 0.0802014 0.087068
0.43061 0.0755779 0.0940108
0.542336 0.0798199 0.118517
0.645548 0.125475 0.211673
0.804852 0.235966 0.384985
0.866819 0.389029 0.563577
0.0991684 0.164691 0.100511
0.104829 0.16669 0.0974136
0.172091 0.169894 0.0977493
0.324956 0.132631 0.0960861
0.451942 0.0821088 0.0907454
0.552605 0.0844892 0.123003
0.671504 0.145312 0.237201
0.829328 0.258869 0.410468
0.875502 0.421775 0.580224
0.098909 0.28455 0.11078
0.094255 0.288121 0.103502
0.133608 0.305882 0.0957198
0.363775 0.346731 0.107332
0.594797 0.284825 0.135561
0.663417 0.19939 0.162722
0.683024 0.154482 0.210819
0.856306 0.296284 0.430945
0.876875 0.467475 0.596735
0.0954452 0.465858 0.124788
0.0938277 0.473838 0.137438
0.0975509 0.478553 0.116457
0.254673 0.518196 0.106218
0.612863 0.59588 0.163699
0.787961 0.551232 0.249546
0.843183 0.494926 0.281422
0.849195 0.368795 0.332418
0.875257 0.526024 0.617685
0.177829 0.630777 0.297124
0.169085 0.641901 0.328145
0.18027 0.640253 0.305974
0.23061 0.633295 0.229969
0.548394 0.738628 0.300526
0.779248 0.787991 0.384222
0.874388 0.764843 0.497993
0.872526 0.742489 0.475196
0.857191 0.611261 0.441733
0.317983 0.718379 0.419333
0.309621 0.724681 0.439368
0.314427 0.723888 0.430732
0.359609 0.725628 0.403204
0.525811 0.76109 0.450278
0.739864 0.848585 0.57937
0.857084 0.877943 0.665553
0.88011 0.872877 0.714153
0.882078 0.864881 0.699397
0.524712 0.785657 0.570672
0.540673 0.78941 0.57702
0.557214 0.792859 0.583169
0.592447 0.802045 0.600336
0.670909 0.824292 0.64387
0.775814 0.861387 0.71603
0.847044 0.889555 0.768597
0.871733 0.897444 0.807401
0.867964 0.90074 0.836866
0.757137 0.868864 0.78056
0.765927 0.870359 0.782635
0.77586 0.872709 0.786313
0.787869 0.875105 0.790494
0.80737 0.881086 0.803738
0.835813 0.889769 0.823819
0.857771 0.897673 0.841428
0.869108 0.902602 0.853208
0.868742 0.905653 0.865263
0.0913558 0.0862745 0.0907301
0.0946822 0.0857404 0.0896315
0.14342 0.0850843 0.0927443
0.240238 0.0820172 0.0991073
0.38146 0.0776532 0.110307
0.507301 0.0810101 0.139559
0.612818 0.123003 0.229755
0.776028 0.240589 0.413504
0.853361 0.406012 0.594354
0.0924392 0.0953841 0.0937819
0.0958572 0.0962997 0.0955062
0.155306 0.0890211 0.0936751
0.261585 0.0805219 0.0973068
0.409537 0.0776226 0.108278
0.524285 0.0825208 0.142962
0.64152 0.141558 0.254139
0.804425 0.266499 0.446235
0.860288 0.452827 0.626566
0.0988022 0.167575 0.114061
0.0973068 0.170535 0.105287
0.16788 0.171527 0.101167
0.324376 0.124605 0.0991226
0.461799 0.0819409 0.0995956
0.549111 0.0849775 0.138811
0.681941 0.15903 0.267918
0.845182 0.290959 0.457053
0.87512 0.48539 0.636027
0.0975814 0.289921 0.125643
0.0941939 0.296437 0.118318
0.106966 0.300618 0.093904
0.366461 0.34818 0.107332
0.596872 0.279591 0.13959
0.647898 0.170733 0.152956
0.717708 0.176974 0.255787
0.870863 0.329549 0.469459
0.879988 0.523415 0.643259
0.095491 0.469184 0.138918
0.0937057 0.479179 0.15285
0.0965438 0.482902 0.127092
0.229374 0.51284 0.102708
0.615122 0.598459 0.165148
0.790967 0.547921 0.252872
0.844419 0.485496 0.283833
0.867597 0.385534 0.381109
0.87602 0.568093 0.648341
0.179782 0.634531 0.310811
0.171496 0.646586 0.342306
0.181155 0.646143 0.324819
0.220676 0.634775 0.241382
0.54313 0.737362 0.300587
0.780545 0.789471 0.385779
0.874495 0.765042 0.502403
0.871031 0.737819 0.474739
0.863111 0.632166 0.537255
0.316274 0.722087 0.432944
0.311879 0.727092 0.446174
0.31487 0.726223 0.437736
0.354849 0.726589 0.410147
0.519982 0.759762 0.450767
0.738766 0.848142 0.580545
0.857466 0.878172 0.66688
0.880247 0.873045 0.714672
0.882048 0.864027 0.698543
0.527001 0.789075 0.582803
0.550591 0.793118 0.587747
0.567575 0.796826 0.593774
0.59527 0.80354 0.60528
0.671305 0.825086 0.647318
0.775372 0.861158 0.716625
0.846967 0.889494 0.7682
0.871733 0.897368 0.806699
0.866346 0.90074 0.838102
0.759365 0.869581 0.782681
0.775357 0.873777 0.790707
0.784268 0.875257 0.793347
0.794141 0.877165 0.796445
0.809171 0.881682 0.805737
0.835172 0.88957 0.823499
0.857374 0.89749 0.840558
0.868925 0.90248 0.852476
0.868315 0.905669 0.865217
0.090425 0.0893721 0.106096
0.0954299 0.0883192 0.110597
0.137346 0.0869764 0.107256
0.241749 0.0857252 0.11574
0.386557 0.0810559 0.123064
0.511391 0.0838178 0.152438
0.615366 0.126055 0.240803
0.777783 0.243641 0.42591
0.854109 0.409033 0.602274
0.090898 0.0963302 0.105303
0.0907301 0.094255 0.119203
0.142382 0.0901808 0.12224
0.249928 0.0848554 0.114305
0.402716 0.0792554 0.120058
0.522942 0.08365 0.151781
0.644465 0.144732 0.264637
0.805859 0.270085 0.460227
0.861326 0.456977 0.635721
0.0973678 0.163699 0.134676
0.0965133 0.168109 0.14284
0.158572 0.173938 0.157946
0.336324 0.124163 0.129229
0.461769 0.0835584 0.116594
0.546365 0.0847639 0.146532
0.693385 0.166613 0.28484
0.857725 0.313375 0.491829
0.878309 0.529656 0.673594
0.0979324 0.296056 0.156268
0.0947433 0.304006 0.154314
0.100023 0.307164 0.131243
0.368734 0.355642 0.147295
0.594476 0.265568 0.153918
0.656626 0.161746 0.178515
0.721767 0.180575 0.286015
0.877195 0.350225 0.497536
0.882109 0.558755 0.678462
0.0957809 0.477714 0.179187
0.0937209 0.486473 0.191821
0.094728 0.489265 0.164401
0.158511 0.499046 0.100649
0.614618 0.598291 0.166995
0.793133 0.538109 0.259754
0.84979 0.465171 0.300664
0.874952 0.393729 0.440192
0.87715 0.5944 0.675196
0.181582 0.640558 0.334539
0.173526 0.652659 0.367529
0.18027 0.65391 0.354406
0.20853 0.639902 0.271458
0.524071 0.729534 0.295933
0.781735 0.790646 0.387457
0.874144 0.762921 0.516381
0.871046 0.728298 0.482734
0.870146 0.64329 0.588754
0.315969 0.726513 0.449271
0.309651 0.731197 0.464332
0.316091 0.729717 0.451423
0.344427 0.728389 0.424445
0.507118 0.757198 0.450721
0.736248 0.846998 0.583185
0.858549 0.878355 0.667796
0.880751 0.873335 0.71931
0.881849 0.863508 0.705592
0.535515 0.79237 0.591134
0.548455 0.799054 0.610971
0.575067 0.801755 0.608392
0.595315 0.804791 0.610697
0.669032 0.825254 0.65005
0.774304 0.860868 0.717784
0.84715 0.889525 0.76878
0.871702 0.897414 0.807095
0.866484 0.900816 0.838621
0.761273 0.87013 0.784421
0.77406 0.875151 0.797436
0.789212 0.877119 0.799191
0.798321 0.87895 0.801236
0.809873 0.882017 0.807324
0.834684 0.889555 0.823636
0.857313 0.897475 0.840543
0.868971 0.90248 0.852369
0.868284 0.905684 0.865278
0.0891585 0.095964 0.147189
0.09337 0.0957504 0.157092
0.129671 0.0906539 0.171878
0.234501 0.0893568 0.161151
0.391073 0.0860914 0.176989
0.520989 0.0923171 0.215702
0.614664 0.12932 0.271839
0.780591 0.250065 0.457694
0.856443 0.413397 0.620768
0.0885939 0.0988174 0.147982
0.0888228 0.0993668 0.16614
0.119463 0.0915847 0.19324
0.248737 0.0908064 0.181857
0.41207 0.0864424 0.18587
0.537453 0.0948348 0.220645
0.641627 0.147295 0.294987
0.808606 0.277836 0.493599
0.863172 0.463554 0.655039
0.0906691 0.157473 0.176837
0.0899214 0.155932 0.197101
0.110246 0.152255 0.237369
0.299031 0.117327 0.239872
0.454459 0.0877394 0.185168
0.558648 0.0944839 0.205158
0.691508 0.166949 0.307637
0.85922 0.321416 0.526329
0.880247 0.536187 0.692378
0.0965133 0.290944 0.226001
0.0937667 0.300938 0.243198
0.0989548 0.307897 0.253208
0.357458 0.367163 0.344793
0.607706 0.265278 0.300175
0.676692 0.164218 0.253056
0.723766 0.183993 0.30927
0.88423 0.375418 0.543969
0.884077 0.597543 0.721538
0.0986496 0.496681 0.280598
0.0962387 0.507988 0.307729
0.0979477 0.512627 0.291508
0.139147 0.512978 0.233219
0.598779 0.596963 0.312459
0.79292 0.509117 0.311589
0.867491 0.436759 0.371344
0.878004 0.40763 0.531121
0.878782 0.628519 0.714855
0.188159 0.652537 0.392691
0.180591 0.664439 0.423957
0.185382 0.66656 0.414816
0.193622 0.658869 0.360647
0.449699 0.694224 0.30602
0.780407 0.79118 0.413474
0.872236 0.754742 0.5364
0.864836 0.701579 0.500893
0.880613 0.654398 0.667124
0.319188 0.732357 0.475608
0.314061 0.739071 0.495048
0.318395 0.739132 0.488579
0.328542 0.73373 0.456001
0.475624 0.751568 0.449577
0.726772 0.842786 0.586069
0.860487 0.878264 0.665766
0.880995 0.873579 0.72987
0.882307 0.860746 0.719173
0.548028 0.797436 0.605203
0.556405 0.804761 0.630838
0.574319 0.809323 0.639811
0.604608 0.811841 0.633326
0.657938 0.823835 0.651499
0.770336 0.859419 0.718242
0.847288 0.889479 0.769528
0.871687 0.897429 0.807294
0.867399 0.900999 0.839796
0.763394 0.871305 0.788281
0.776547 0.876081 0.801602
0.786404 0.879057 0.808667
0.803586 0.881559 0.809277
0.810712 0.882628 0.809842
0.833341 0.889372 0.823682
0.857038 0.897398 0.840543
0.869291 0.902419 0.852155
0.869276 0.905379 0.863966
0.0886702 0.106691 0.215
0.0915999 0.10576 0.231708
0.106981 0.0925154 0.269444
0.216678 0.0915084 0.288457
0.3823 0.090135 0.280278
0.526543 0.106249 0.311955
0.628962 0.154955 0.36553
0.756313 0.242969 0.498711
0.861982 0.422873 0.664057
0.0889296 0.108598 0.223651
0.0892195 0.109346 0.246921
0.102449 0.106447 0.287297
0.226734 0.0927138 0.321263
0.403937 0.0920424 0.305699
0.545098 0.113893 0.329747
0.647257 0.165835 0.384146
0.791165 0.277058 0.545907
0.867399 0.478294 0.700664
0.0898146 0.13753 0.253071
0.0898909 0.134508 0.276448
0.0900893 0.121691 0.310384
0.237552 0.0962692 0.375494
0.438621 0.100053 0.350973
0.573709 0.11902 0.330098
0.67895 0.172198 0.386084
0.84828 0.323919 0.590768
0.885237 0.548638 0.732052
0.0906081 0.266896 0.313848
0.0908064 0.269001 0.337118
0.0911574 0.264881 0.354467
0.222339 0.286503 0.457969
0.565057 0.244282 0.503197
0.63621 0.161715 0.377783
0.685832 0.173999 0.381918
0.880079 0.376455 0.619974
0.888655 0.607004 0.753124
0.101228 0.49662 0.401679
0.0983291 0.50573 0.430457
0.100084 0.514809 0.442298
0.137713 0.528267 0.462699
0.583078 0.593729 0.567269
0.811353 0.504875 0.532082
0.875898 0.404242 0.518898
0.886549 0.41445 0.584009
0.881331 0.653147 0.758251
0.198611 0.664988 0.48481
0.189075 0.675547 0.512291
0.195117 0.680827 0.514199
0.206271 0.682994 0.494713
0.444007 0.70515 0.491798
0.759579 0.783642 0.581292
0.863249 0.728023 0.565896
0.866072 0.674083 0.568185
0.875563 0.671519 0.726268
0.33164 0.745983 0.536568
0.323308 0.752636 0.556313
0.328374 0.754116 0.554604
0.34078 0.753124 0.53518
0.443519 0.759808 0.511681
0.709484 0.831464 0.622782
0.859434 0.878141 0.685664
0.88101 0.873274 0.749783
0.881498 0.856214 0.747799
0.567498 0.807935 0.640009
0.574258 0.814817 0.664973
0.590295 0.819501 0.675746
0.611826 0.824201 0.682216
0.643519 0.825864 0.668971
0.756985 0.854719 0.715526
0.845472 0.889158 0.774212
0.872099 0.897566 0.808484
0.870756 0.901778 0.842817
0.766125 0.873045 0.796048
0.779644 0.877592 0.808301
0.789136 0.880888 0.81593
0.801007 0.884153 0.822217
0.812406 0.884672 0.817868
0.830365 0.88864 0.823362
0.856962 0.897383 0.841306
0.87129 0.902419 0.851774
0.869932 0.905318 0.863813
0.0899672 0.118486 0.309438
0.0910201 0.117693 0.328649
0.10161 0.118059 0.356161
0.186618 0.0964675 0.400687
0.357748 0.0965591 0.409583
0.516228 0.117433 0.409873
0.641215 0.175189 0.456184
0.701595 0.209903 0.519936
0.846174 0.385458 0.714809
0.0899062 0.12163 0.319585
0.0901808 0.122377 0.338613
0.0961013 0.12282 0.370947
0.188998 0.098024 0.427817
0.372488 0.0988937 0.430533
0.532143 0.129885 0.437903
0.659922 0.18645 0.482048
0.718914 0.230488 0.560754
0.868223 0.454841 0.762875
0.0902876 0.145037 0.343465
0.0902724 0.143465 0.361028
0.0903029 0.131075 0.382025
0.169894 0.101045 0.460212
0.40116 0.106691 0.468986
0.551827 0.142168 0.457801
0.689616 0.193576 0.497444
0.788663 0.274235 0.623819
0.893706 0.540459 0.794507
0.0908522 0.224521 0.393362
0.0907607 0.225238 0.41239
0.0908217 0.220005 0.422339
0.122072 0.210636 0.499687
0.444923 0.160983 0.55053
0.592462 0.173251 0.509804
0.696803 0.199405 0.515785
0.840162 0.329168 0.686473
0.896681 0.608331 0.806088
0.0939345 0.48011 0.490944
0.0935683 0.487999 0.514107
0.0940261 0.491707 0.52546
0.0949111 0.492454 0.548119
0.467185 0.526101 0.677546
0.804135 0.520424 0.744457
0.87718 0.389242 0.70782
0.870832 0.373022 0.714824
0.88893 0.65507 0.807233
0.199924 0.656718 0.572076
0.191165 0.665476 0.594751
0.197513 0.671412 0.602365
0.209613 0.677287 0.60827
0.453407 0.722835 0.666026
0.747753 0.767681 0.738506
0.87158 0.719554 0.720638
0.878599 0.656046 0.705562
0.879973 0.67245 0.772427
0.344717 0.75584 0.61912
0.328862 0.75993 0.636728
0.332937 0.762982 0.63978
0.34551 0.768307 0.638697
0.467109 0.790631 0.650492
0.717388 0.840818 0.730175
0.845685 0.873976 0.774548
0.877531 0.869093 0.783795
0.874739 0.851881 0.794629
0.574685 0.823331 0.697475
0.5832 0.82884 0.716655
0.601328 0.833082 0.725704
0.628534 0.839323 0.735485
0.661616 0.844724 0.740337
0.740551 0.860197 0.753994
0.840909 0.889326 0.803861
0.875715 0.899168 0.818738
0.873365 0.902449 0.847547
0.769116 0.875303 0.807538
0.782727 0.879637 0.818036
0.793469 0.883085 0.825559
0.80499 0.886336 0.832059
0.812802 0.888319 0.834073
0.823957 0.88896 0.829419
0.854612 0.897063 0.842695
0.870512 0.90277 0.853788
0.869947 0.90544 0.86453
0.0904402 0.133074 0.381476
0.0906386 0.132189 0.395026
0.0969711 0.133822 0.418845
0.151537 0.110536 0.465385
0.330251 0.108003 0.484642
0.45922 0.121263 0.48455
0.624735 0.194934 0.556481
0.684581 0.223728 0.597604
0.766964 0.314733 0.707668
0.0903334 0.135653 0.384894
0.0905165 0.136461 0.395193
0.0935988 0.136751 0.421576
0.150851 0.12134 0.472969
0.343755 0.11429 0.499947
0.471946 0.129046 0.497993
0.643793 0.20705 0.581231
0.683375 0.232639 0.61886
0.816617 0.39115 0.779858
0.090425 0.154971 0.392416
0.090547 0.152651 0.395499
0.0906081 0.144625 0.41413
0.138933 0.143389 0.47013
0.356588 0.126177 0.521065
0.504555 0.14902 0.529076
0.661982 0.216083 0.602411
0.696559 0.238849 0.631601
0.875257 0.505165 0.845243
0.0907759 0.201999 0.431632
0.0908675 0.203387 0.439826
0.0908217 0.197086 0.441245
0.0915541 0.174151 0.461051
0.332097 0.147234 0.551141
0.561975 0.188388 0.586847
0.666926 0.222309 0.619043
0.720073 0.260212 0.662562
0.886534 0.589685 0.861067
0.0927443 0.462318 0.551522
0.0929732 0.470558 0.563851
0.0932784 0.473533 0.570626
0.0941482 0.465171 0.581308
0.366262 0.486824 0.71722
0.775982 0.503639 0.849882
0.81265 0.369802 0.770153
0.756954 0.295476 0.704021
0.883436 0.642573 0.860441
0.171084 0.636835 0.624201
0.169497 0.643046 0.634852
0.171313 0.646723 0.639612
0.183337 0.652613 0.651087
0.354345 0.687297 0.715114
0.69604 0.736721 0.806836
0.864424 0.729442 0.830289
0.886992 0.662181 0.845533
0.881956 0.656138 0.855375
0.334386 0.748562 0.681849
0.328649 0.752026 0.690623
0.332677 0.755047 0.69395
0.341726 0.759228 0.698344
0.447395 0.787533 0.728496
0.720226 0.848432 0.808286
0.837507 0.869032 0.83975
0.875837 0.861067 0.834455
0.87425 0.839338 0.832212
0.551995 0.827268 0.74435
0.566384 0.831998 0.756085
0.588266 0.837629 0.764828
0.618936 0.845121 0.774945
0.65716 0.85417 0.787274
0.749249 0.873838 0.813733
0.843976 0.895384 0.846464
0.871733 0.901915 0.855482
0.872358 0.902464 0.857954
0.763378 0.878004 0.823758
0.781415 0.88246 0.83238
0.793225 0.885206 0.837476
0.806821 0.888563 0.843381
0.815396 0.890532 0.846296
0.826368 0.893004 0.84828
0.8486 0.898909 0.854887
0.868055 0.904875 0.864713
0.869841 0.906249 0.868376
0.0905623 0.143786 0.41619
0.0906386 0.144167 0.417502
0.0924392 0.142885 0.431571
0.130632 0.144915 0.469291
0.286351 0.121736 0.517006
0.431754 0.130007 0.521584
0.58468 0.188647 0.578866
0.667399 0.230961 0.642313
0.687526 0.24976 0.661097
0.0906233 0.145647 0.41593
0.0906539 0.147036 0.420005
0.0908064 0.146609 0.428946
0.125093 0.147265 0.471321
0.300328 0.126818 0.526528
0.452323 0.139208 0.535958
0.60473 0.198703 0.596551
0.67068 0.235737 0.650675
0.727596 0.293126 0.709606
0.0905776 0.163531 0.417227
0.0907607 0.166293 0.424994
0.0907301 0.164538 0.428199
0.0992905 0.149798 0.461143
0.299855 0.130175 0.534539
0.506065 0.159274 0.566506
0.627955 0.209995 0.61677
0.677806 0.239689 0.655833
0.826581 0.419455 0.816953
0.0907607 0.200351 0.445304
0.090959 0.204044 0.451606
0.0909438 0.205554 0.456748
0.090959 0.186954 0.452125
0.244282 0.144839 0.54905
0.538659 0.186374 0.600763
0.661555 0.228733 0.642832
0.683116 0.244175 0.661006
0.876234 0.534768 0.869261
0.0935988 0.460121 0.575631
0.0943313 0.471427 0.585611
0.0949416 0.476036 0.592035
0.0946059 0.466331 0.595178
0.285176 0.483055 0.713115
0.723522 0.504753 0.854643
0.823865 0.409201 0.81001
0.688991 0.247837 0.665064
0.882567 0.600626 0.876844
0.160357 0.636164 0.647791
0.16231 0.642496 0.654002
0.165347 0.646097 0.65745
0.165331 0.645762 0.661051
0.313481 0.677577 0.725551
0.662745 0.725246 0.818708
0.85034 0.734264 0.866316
0.880507 0.663722 0.874342
0.8822 0.61799 0.87689
0.320821 0.738674 0.701869
0.319997 0.742245 0.707805
0.327474 0.745876 0.712245
0.345006 0.753597 0.721736
0.473198 0.785595 0.761975
0.698543 0.838544 0.827237
0.833677 0.866575 0.859678
0.876585 0.858 0.855619
0.870207 0.825666 0.856382
0.516732 0.81767 0.761791
0.539773 0.824109 0.770611
0.564935 0.830808 0.778851
0.60116 0.840238 0.790326
0.646464 0.85156 0.804196
0.744167 0.874784 0.833677
0.841154 0.895537 0.861418
0.868421 0.90251 0.868574
0.871641 0.903944 0.87155
0.760571 0.878798 0.831388
0.774868 0.883192 0.841779
0.787686 0.885985 0.846098
0.802747 0.889265 0.851621
0.812131 0.891539 0.8542
0.82388 0.893858 0.857343
0.850263 0.900862 0.865751
0.868345 0.906691 0.873564
0.87071 0.907134 0.875074
0.0907149 0.151186 0.433951
0.0907149 0.151339 0.434592
0.0907301 0.151843 0.434913
0.103731 0.149523 0.464897
0.245747 0.125231 0.526787
0.435401 0.142199 0.550286
0.54902 0.170596 0.571969
0.658427 0.225483 0.638926
0.67921 0.244663 0.662043
0.0906844 0.152361 0.432319
0.0907454 0.154147 0.435447
0.0908522 0.154788 0.434958
0.096788 0.150439 0.460105
0.252018 0.126513 0.529686
0.467948 0.150561 0.561273
0.567361 0.176638 0.582101
0.658885 0.226215 0.639887
0.683421 0.249851 0.668116
0.0907454 0.170779 0.43473
0.0909133 0.174548 0.442237
0.0909285 0.183368 0.450996
0.0909285 0.169467 0.443015
0.204456 0.124071 0.523293
0.49369 0.156771 0.566781
0.608667 0.195453 0.603952
0.660426 0.226123 0.63946
0.699794 0.264012 0.683787
0.0909895 0.207462 0.456764
0.0910811 0.215869 0.4645
0.0913405 0.245701 0.482109
0.0915236 0.260731 0.49308
0.147799 0.211612 0.539834
0.510063 0.187747 0.607828
0.662684 0.230549 0.645319
0.661982 0.227054 0.640543
0.777569 0.35227 0.76437
0.0950027 0.473487 0.589548
0.0965591 0.490166 0.600473
0.0992905 0.506706 0.609506
0.099794 0.507622 0.61471
0.130114 0.503868 0.657481
0.609567 0.510719 0.813687
0.8645 0.48513 0.856916
0.686854 0.246281 0.663554
0.846128 0.449592 0.836789
0.165759 0.642832 0.657694
0.170611 0.65156 0.66421
0.175051 0.656413 0.667765
0.175998 0.657359 0.670192
0.234043 0.667277 0.69752
0.627939 0.727199 0.809445
0.83415 0.748379 0.864042
0.876783 0.693889 0.870588
0.869993 0.505302 0.861616
0.293996 0.73022 0.698695
0.294102 0.73492 0.704829
0.301854 0.737621 0.707835
0.323079 0.744076 0.715648
0.402136 0.770077 0.746639
0.69131 0.835981 0.828336
0.827893 0.867155 0.862272
0.873289 0.862791 0.861769
0.869764 0.827237 0.858976
0.49659 0.810712 0.762753
0.513237 0.815824 0.768902
0.542138 0.823468 0.777356
0.591699 0.836271 0.791821
0.66569 0.854688 0.813535
0.762783 0.877333 0.842145
0.838056 0.893904 0.86331
0.868849 0.901656 0.869917
0.871397 0.90132 0.87097
0.754162 0.877623 0.833875
0.766201 0.881651 0.844053
0.781018 0.88513 0.848447
0.79762 0.888945 0.853559
0.808255 0.891173 0.85658
0.821714 0.894041 0.860548
0.849378 0.901244 0.868666
0.867994 0.907042 0.875456
0.872084 0.907622 0.875303
