bundles/resolve-cinematic-luts/Phantom Luts/A7s3 Phntm Film LUTs - G6/ATOMOS Monitor LUTs/Slog3/Eastman A7s3 AML.cube
TITLE "Generated by Resolve"
LUT_3D_SIZE 5
0.0875105 0.0875105 0.0875105
0.14168 0.0876173 0.0876173
0.35848 0.08748 0.090959
0.553704 0.101122 0.190082
0.759838 0.286091 0.470527
0.105928 0.152041 0.109621
0.171572 0.159304 0.10721
0.393393 0.128939 0.0901045
0.595407 0.123735 0.191104
0.769543 0.322545 0.480949
0.168688 0.518212 0.252003
0.176654 0.521035 0.215717
0.550668 0.551156 0.178134
0.793408 0.532372 0.282948
0.792584 0.417578 0.403723
0.319997 0.796719 0.496544
0.322271 0.785107 0.470237
0.555215 0.787228 0.421851
0.76762 0.783307 0.447745
0.821851 0.770413 0.50901
0.624033 0.851606 0.699733
0.610758 0.846174 0.675441
0.666636 0.852613 0.684642
0.804486 0.87306 0.724132
0.871 0.884169 0.775326
0.087541 0.087541 0.104021
0.133989 0.0876326 0.116258
0.346471 0.0874952 0.128801
0.538949 0.107195 0.234974
0.746426 0.29163 0.483528
0.101854 0.151751 0.137774
0.170291 0.164096 0.165515
0.409613 0.101076 0.0984054
0.605035 0.138598 0.260227
0.782727 0.374823 0.543877
0.174487 0.535332 0.313481
0.172915 0.529595 0.270604
0.547768 0.54815 0.179568
0.802136 0.504326 0.311055
0.793683 0.417243 0.484245
0.326162 0.804532 0.529091
0.319509 0.794079 0.501305
0.526452 0.784695 0.428168
0.764446 0.780789 0.441199
0.824491 0.765148 0.516548
0.620432 0.852354 0.702098
0.615702 0.849165 0.687236
0.656565 0.850935 0.682963
0.799329 0.871839 0.721065
0.867948 0.882719 0.77084
0.0875868 0.0897231 0.228977
0.1178 0.0894026 0.273243
0.339406 0.0875868 0.280156
0.54876 0.119814 0.370138
0.736355 0.266133 0.543908
0.0874342 0.120821 0.267872
0.0874342 0.104387 0.317296
0.392523 0.0875715 0.328008
0.585794 0.133394 0.397192
0.787594 0.369039 0.609903
0.175753 0.566094 0.471336
0.181552 0.574502 0.483375
0.567224 0.586831 0.570275
0.795087 0.430182 0.478584
0.79884 0.427268 0.591409
0.347143 0.839567 0.633082
0.347646 0.833005 0.622873
0.475349 0.792767 0.563195
0.774411 0.79585 0.557168
0.844572 0.766537 0.605219
0.632105 0.864652 0.736019
0.629252 0.861646 0.729671
0.637095 0.854231 0.708019
0.791318 0.874418 0.734783
0.868376 0.883009 0.771695
0.0875257 0.102251 0.35494
0.10222 0.101961 0.393652
0.346822 0.08748 0.415183
0.556435 0.139528 0.475074
0.639185 0.188251 0.544152
0.0876173 0.123705 0.381476
0.0875868 0.110597 0.408789
0.388067 0.0937972 0.473625
0.590906 0.156573 0.509346
0.758801 0.308568 0.672663
0.15407 0.551171 0.591745
0.153948 0.550149 0.603525
0.456291 0.536416 0.74226
0.791547 0.402197 0.701274
0.78735 0.367315 0.698634
0.333593 0.84184 0.735958
0.333974 0.838865 0.734081
0.507027 0.853178 0.772259
0.802045 0.827329 0.802045
0.857206 0.746654 0.760037
0.643839 0.904372 0.807935
0.650553 0.901259 0.804517
0.676356 0.893782 0.800717
0.787594 0.890364 0.81622
0.877531 0.897963 0.826078
0.0875715 0.11545 0.431998
0.0875257 0.114885 0.445472
0.331212 0.100893 0.514733
0.511406 0.122759 0.504677
0.6262 0.18378 0.572625
0.0873884 0.143053 0.435889
0.0874495 0.150835 0.446738
0.33257 0.105547 0.528893
0.57612 0.153414 0.539788
0.636698 0.19202 0.582635
0.157473 0.554788 0.642466
0.158984 0.557046 0.651621
0.361395 0.5411 0.757092
0.785702 0.435065 0.761776
0.642649 0.196277 0.587991
0.292958 0.820371 0.752453
0.292332 0.81648 0.753872
0.456123 0.838987 0.821759
0.76585 0.813703 0.85742
0.858244 0.731975 0.831296
0.618357 0.92018 0.851423
0.629267 0.919219 0.852888
0.665675 0.915877 0.855711
0.796078 0.903105 0.867536
0.883375 0.905486 0.87805
