bundles/resolve-cinematic-luts/Phantom Luts/A7s3 Phntm Film LUTs - G6/ATOMOS Monitor LUTs/Slog3/Eastman A7s3 AML.cube
TITLE "Generated by Resolve"
LUT_3D_SIZE 33
0.0875105 0.0875105 0.0875105
0.0875105 0.0875105 0.0875105
0.0875105 0.0875105 0.0875105
0.0875105 0.0875105 0.0875105
0.0922255 0.0875105 0.0875105
0.0982681 0.0875563 0.0875563
0.109697 0.0876478 0.0876478
0.124315 0.0875257 0.0875257
0.14168 0.0876173 0.0876173
0.160845 0.087541 0.087541
0.185199 0.0874495 0.0874495
0.214725 0.087602 0.087602
0.244907 0.0876478 0.0876478
0.275441 0.0876326 0.0876326
0.304265 0.0878004 0.0877089
0.331807 0.0875563 0.0897078
0.35848 0.08748 0.090959
0.38439 0.0874952 0.0927291
0.410086 0.087602 0.0946517
0.434974 0.0876173 0.096788
0.458366 0.0874952 0.0996872
0.481209 0.0875868 0.105989
0.502861 0.0876173 0.122911
0.52639 0.087602 0.154086
0.553704 0.101122 0.190082
0.585031 0.119463 0.228656
0.619699 0.1411 0.269062
0.650629 0.163333 0.308812
0.678721 0.185946 0.345876
0.702312 0.209506 0.380423
0.722942 0.234485 0.411597
0.742184 0.259266 0.441444
0.759838 0.286091 0.470527
0.0875105 0.0875105 0.0875105
0.0875105 0.0875105 0.0875105
0.0875105 0.0875105 0.0875105
0.0875105 0.0875105 0.0875105
0.0914321 0.0875105 0.0875105
0.0959182 0.0875563 0.0875563
0.106172 0.087602 0.087602
0.120577 0.08748 0.08748
0.138216 0.0876173 0.0876173
0.157656 0.0874952 0.0874952
0.181064 0.0874495 0.0874495
0.211002 0.0876478 0.0876478
0.242634 0.0876173 0.0876173
0.273671 0.087602 0.087602
0.302907 0.0893873 0.0875868
0.331472 0.0887922 0.0893416
0.358175 0.08748 0.0906233
0.384329 0.0874952 0.0926223
0.40943 0.0894026 0.0940108
0.433997 0.0910658 0.0959793
0.457481 0.0901045 0.0990158
0.480125 0.0876478 0.102754
0.502007 0.087602 0.11574
0.525246 0.0875868 0.146029
0.552682 0.100633 0.183337
0.582895 0.117845 0.221607
0.616907 0.139345 0.262943
0.648005 0.160876 0.302312
0.675135 0.182879 0.338628
0.698466 0.206424 0.373892
0.719722 0.230915 0.405264
0.738094 0.254612 0.434379
0.756725 0.280324 0.462989
0.0875105 0.0875105 0.0875105
0.0875105 0.0875105 0.0875105
0.0875105 0.0875105 0.0875105
0.0875105 0.0875105 0.0875105
0.0907301 0.0875105 0.0875105
0.0935836 0.0875563 0.0875563
0.101442 0.087602 0.087602
0.116014 0.08748 0.08748
0.133928 0.0875715 0.0875715
0.15404 0.0874952 0.0874952
0.178195 0.0875563 0.0875563
0.20853 0.087602 0.087602
0.240681 0.0876173 0.0876173
0.272709 0.0875715 0.0875715
0.30219 0.0880598 0.087541
0.33167 0.0895399 0.0891737
0.35877 0.0885328 0.0905165
0.384817 0.0881514 0.0925307
0.410178 0.0906233 0.0937819
0.435126 0.0924544 0.0957198
0.458671 0.0918898 0.0986801
0.481819 0.0877699 0.102785
0.503868 0.0875868 0.114305
0.527871 0.0879072 0.145815
0.555123 0.101884 0.182773
0.585824 0.120119 0.222034
0.619959 0.141115 0.26331
0.650584 0.163317 0.303059
0.678187 0.18558 0.341009
0.701274 0.208774 0.375738
0.722622 0.23415 0.407416
0.740536 0.258091 0.436927
0.758511 0.284367 0.46566
0.0875105 0.0875105 0.0875105
0.0875105 0.0875105 0.0875105
0.0880293 0.0875105 0.0875105
0.0888838 0.0875105 0.0875105
0.092546 0.0875105 0.0875105
0.0960403 0.0875563 0.0875563
0.102632 0.087602 0.087602
0.116274 0.08748 0.08748
0.134844 0.0875715 0.0879835
0.155917 0.08748 0.0883345
0.181308 0.0874495 0.0876326
0.211383 0.0876478 0.0876478
0.244221 0.087892 0.0876173
0.27689 0.0907301 0.0874037
0.307912 0.091722 0.0873732
0.336431 0.0906691 0.0890669
0.362982 0.0896468 0.0904402
0.389715 0.0907454 0.0925154
0.415991 0.0949111 0.0938277
0.439628 0.0965591 0.0955673
0.463157 0.0965133 0.0985122
0.486259 0.0926833 0.102434
0.508309 0.0876326 0.113283
0.532998 0.0904555 0.145678
0.560128 0.105074 0.184527
0.591699 0.123522 0.224948
0.625589 0.144503 0.26685
0.655695 0.166354 0.307057
0.682353 0.188754 0.344411
0.705318 0.212741 0.379278
0.725567 0.237644 0.410346
0.741024 0.262882 0.439643
0.753017 0.291905 0.466743
0.090135 0.0875105 0.08925
0.0898909 0.0875105 0.0885634
0.090898 0.0875105 0.0883345
0.0927901 0.0875257 0.0887617
0.096788 0.0875563 0.0886854
0.102632 0.087602 0.0888685
0.11133 0.0875868 0.0896468
0.124025 0.0875257 0.0903334
0.140719 0.0876173 0.0914778
0.159747 0.088426 0.0916915
0.186206 0.0895705 0.0896773
0.218952 0.0903182 0.0874647
0.250263 0.0914015 0.0874342
0.280766 0.0942397 0.0875868
0.311025 0.0960708 0.0875715
0.341283 0.0959945 0.0886702
0.369268 0.0930648 0.0905165
0.394736 0.0929427 0.0924086
0.419684 0.0958724 0.0939193
0.445304 0.100771 0.0958419
0.468879 0.101335 0.0986496
0.491585 0.0976883 0.102617
0.513466 0.0876936 0.113527
0.538354 0.0933242 0.145769
0.565835 0.108202 0.186313
0.597879 0.127962 0.228016
0.631556 0.148623 0.269886
0.66009 0.170214 0.30985
0.68687 0.193088 0.348486
0.710033 0.216587 0.382956
0.729213 0.241718 0.413169
0.743847 0.267674 0.442237
0.754543 0.297566 0.469368
0.0947585 0.0990463 0.0951247
0.094377 0.0981308 0.0941939
0.0952468 0.0974441 0.0933547
0.0978256 0.09897 0.0941329
0.101427 0.100908 0.0952773
0.10779 0.100603 0.0943465
0.120409 0.099855 0.0947585
0.134951 0.0991073 0.0956283
0.150469 0.0971847 0.0957198
0.167605 0.0981155 0.0958572
0.192264 0.0970626 0.0927901
0.220676 0.0965744 0.0877394
0.254017 0.09514 0.0876478
0.285496 0.0973526 0.0873884
0.31371 0.0992294 0.0874037
0.341634 0.100069 0.0878767
0.370871 0.100252 0.0897231
0.400305 0.0998398 0.0918746
0.425528 0.100511 0.0937209
0.448936 0.101808 0.0957961
0.473426 0.105333 0.0981308
0.497673 0.103502 0.102632
0.52015 0.0953384 0.115099
0.545693 0.0973983 0.145174
0.57319 0.112856 0.187839
0.605127 0.132219 0.231006
0.638422 0.153445 0.274098
0.66627 0.174792 0.314092
0.691737 0.197101 0.351385
0.714305 0.22121 0.385428
0.73283 0.246632 0.416114
0.746609 0.273518 0.445014
0.756695 0.303944 0.473213
0.0998093 0.116426 0.101366
0.099443 0.115251 0.100298
0.102647 0.113497 0.0982834
0.105959 0.115358 0.0990768
0.110231 0.117937 0.100282
0.116884 0.119417 0.100816
0.129168 0.117784 0.0991073
0.146151 0.115557 0.0987259
0.163699 0.112734 0.0991989
0.18352 0.110689 0.0994125
0.208072 0.108171 0.0968338
0.235264 0.104616 0.090837
0.263981 0.104463 0.0874037
0.291188 0.103655 0.0875868
0.320363 0.103227 0.0875563
0.346731 0.104051 0.0875257
0.374319 0.10396 0.0888991
0.399649 0.104723 0.0907454
0.429908 0.107103 0.0930953
0.457053 0.109377 0.0953994
0.479866 0.108171 0.098436
0.504616 0.107576 0.10309
0.526848 0.0994125 0.116564
0.552773 0.0998856 0.146654
0.584405 0.117601 0.188495
0.616388 0.137087 0.233677
0.648371 0.157946 0.27628
0.675761 0.178866 0.316945
0.700053 0.200778 0.354314
0.722789 0.225055 0.389166
0.74165 0.250645 0.419699
0.754955 0.278874 0.449256
0.764614 0.308751 0.477378
0.103716 0.133181 0.105516
0.103716 0.13193 0.104112
0.104723 0.130739 0.102617
0.107485 0.132128 0.102205
0.112505 0.133898 0.102724
0.120485 0.136995 0.104341
0.131945 0.138796 0.104631
0.147585 0.135866 0.102327
0.169238 0.133593 0.102083
0.196551 0.129137 0.103044
0.226474 0.123827 0.101534
0.25835 0.1196 0.0976577
0.28304 0.116457 0.0924697
0.308461 0.114595 0.0881666
0.331044 0.114137 0.0876631
0.354345 0.11165 0.0879225
0.376913 0.110765 0.0885786
0.401831 0.11078 0.0899062
0.426337 0.111849 0.0916915
0.455802 0.116045 0.0937819
0.486854 0.121569 0.0972305
0.510552 0.11545 0.102739
0.533394 0.103929 0.118837
0.558419 0.102678 0.149798
0.591562 0.121965 0.189441
0.626612 0.143664 0.233585
0.656275 0.163851 0.276753
0.682551 0.1841 0.317311
0.706737 0.206287 0.356085
0.728695 0.230564 0.390341
0.746807 0.256764 0.421485
0.758465 0.285756 0.450752
0.7673 0.315602 0.479881
0.105928 0.152041 0.109621
0.106554 0.15111 0.108293
0.10692 0.149737 0.106401
0.109087 0.150729 0.105119
0.112703 0.152621 0.104601
0.121462 0.15581 0.106188
0.135988 0.160296 0.108598
0.150805 0.163745 0.109224
0.171572 0.159304 0.10721
0.202197 0.156741 0.106996
0.242267 0.149096 0.107774
0.280674 0.141802 0.106157
0.310399 0.137194 0.102296
0.33257 0.134234 0.098085
0.354589 0.131228 0.0925917
0.375601 0.130068 0.090425
0.393393 0.128939 0.0901045
0.411353 0.123323 0.090486
0.43006 0.121355 0.0910201
0.452461 0.12163 0.0923934
0.478584 0.125978 0.094255
0.512963 0.131991 0.100008
0.544259 0.128145 0.11928
0.568765 0.110445 0.144427
0.595407 0.123735 0.191104
0.633219 0.14818 0.233112
0.663767 0.169894 0.274464
0.689448 0.190066 0.315114
0.713405 0.212436 0.354086
0.733745 0.236072 0.389242
0.751537 0.263172 0.421164
0.761624 0.293324 0.45153
0.769543 0.322545 0.480949
0.106477 0.177325 0.114473
0.106798 0.176181 0.112474
0.107408 0.175235 0.110231
0.108278 0.17586 0.108095
0.112001 0.176989 0.106935
0.119249 0.180148 0.107088
0.135973 0.186099 0.110307
0.154452 0.192264 0.112871
0.172488 0.197192 0.114183
0.203449 0.193164 0.112413
0.245365 0.189319 0.111864
0.2934 0.181003 0.115297
0.335332 0.170657 0.116075
0.365682 0.16463 0.113756
0.388083 0.159686 0.10956
0.407828 0.155764 0.104234
0.426169 0.153506 0.0996872
0.441108 0.150637 0.0949111
0.453422 0.1467 0.0929427
0.464469 0.138705 0.0925765
0.480797 0.135622 0.0934157
0.500175 0.135454 0.0950179
0.535363 0.14168 0.104707
0.578714 0.144213 0.14078
0.607797 0.132403 0.175937
0.636698 0.151019 0.228794
0.660853 0.168597 0.277089
0.693523 0.194415 0.312917
0.719799 0.218692 0.347127
0.739269 0.242451 0.383505
0.756191 0.270191 0.41799
0.76524 0.300649 0.449973
0.772152 0.330297 0.480369
0.108202 0.210651 0.121431
0.1066 0.208957 0.118074
0.10544 0.208438 0.115114
0.105287 0.209522 0.113558
0.105455 0.210208 0.110124
0.111009 0.212055 0.109361
0.126253 0.21825 0.111788
0.15227 0.227131 0.117144
0.177493 0.236423 0.121324
0.204211 0.243458 0.122637
0.248493 0.238712 0.120165
0.297826 0.236362 0.120195
0.349599 0.230381 0.126482
0.394858 0.21648 0.134661
0.428458 0.208621 0.133822
0.454597 0.2009 0.132372
0.472831 0.193561 0.128618
0.49012 0.188586 0.123232
0.504036 0.184878 0.118303
0.512825 0.179797 0.112398
0.515236 0.171099 0.105501
0.51664 0.158419 0.097734
0.530251 0.152758 0.0993057
0.555764 0.153628 0.111299
0.610056 0.162875 0.158053
0.645731 0.158358 0.201343
0.670314 0.177478 0.261311
0.692134 0.195193 0.310887
0.721325 0.221546 0.344488
0.746181 0.250492 0.373556
0.760555 0.278676 0.410773
0.768627 0.309255 0.446265
0.774655 0.338521 0.477729
0.115557 0.253239 0.13489
0.113802 0.252003 0.131197
0.111971 0.251133 0.127489
0.111681 0.252064 0.124498
0.111635 0.253483 0.122469
0.111833 0.253666 0.118425
0.120851 0.257771 0.117876
0.14667 0.268879 0.123461
0.179873 0.281392 0.131365
0.212818 0.291707 0.135637
0.251362 0.298756 0.134203
0.304631 0.294697 0.130236
0.356893 0.292744 0.12932
0.408331 0.288289 0.135851
0.456031 0.27718 0.148745
0.49366 0.265049 0.15671
0.523339 0.256199 0.157778
0.543709 0.248753 0.157549
0.562936 0.242939 0.156527
0.579705 0.233036 0.1561
0.589273 0.225162 0.151858
0.591806 0.21651 0.147326
0.586847 0.204547 0.139376
0.584146 0.1879 0.12929
0.577691 0.171893 0.120012
0.635843 0.186328 0.170855
0.67277 0.181018 0.213962
0.703197 0.205814 0.285985
0.723049 0.224857 0.335729
0.74667 0.252903 0.371496
0.76556 0.289097 0.400122
0.772519 0.318441 0.43859
0.777417 0.347204 0.473213
0.127825 0.30425 0.153948
0.126192 0.303548 0.151217
0.124559 0.303517 0.148684
0.123476 0.304143 0.145129
0.125002 0.304936 0.141863
0.125078 0.306294 0.137743
0.125719 0.306371 0.131411
0.142794 0.313466 0.132509
0.175708 0.327199 0.139544
0.21297 0.338827 0.145495
0.256825 0.348669 0.145205
0.304112 0.355703 0.139879
0.361883 0.351629 0.137026
0.414755 0.349279 0.13344
0.466575 0.346792 0.141634
0.515251 0.339223 0.15874
0.555779 0.329458 0.172686
0.589593 0.316869 0.180148
0.613458 0.311345 0.181842
0.634073 0.305837 0.183017
0.653132 0.290333 0.185779
0.666819 0.280644 0.186587
0.675746 0.273045 0.187564
0.671809 0.259449 0.185962
0.661021 0.243473 0.183978
0.634958 0.21207 0.159045
0.668345 0.22092 0.192981
0.699321 0.217212 0.230396
0.733135 0.236805 0.297826
0.75201 0.260731 0.355291
0.766537 0.291707 0.398291
0.776745 0.328328 0.428305
0.780819 0.356664 0.466163
0.139513 0.357641 0.173938
0.137926 0.357092 0.172061
0.136812 0.357656 0.169726
0.136614 0.358404 0.166903
0.136431 0.359609 0.163714
0.136782 0.360678 0.159594
0.137652 0.361654 0.153857
0.141039 0.361547 0.145602
0.165316 0.371969 0.148089
0.203662 0.385718 0.154788
0.252049 0.39675 0.157321
0.304402 0.404883 0.149569
0.355627 0.410468 0.141115
0.414527 0.405646 0.139757
0.466087 0.402823 0.135592
0.516213 0.40148 0.145434
0.565087 0.398795 0.166796
0.605737 0.393362 0.183536
0.642374 0.378515 0.198108
0.668833 0.370581 0.206577
0.689647 0.368643 0.209567
0.712749 0.35494 0.213062
0.730831 0.343618 0.217227
0.740276 0.328283 0.219776
0.741314 0.315068 0.218738
0.733608 0.300145 0.215625
0.70721 0.276295 0.208621
0.707027 0.269154 0.22295
0.727047 0.263874 0.249714
0.76025 0.275196 0.309422
0.770687 0.30312 0.37615
0.777264 0.331273 0.42678
0.782971 0.36437 0.462028
0.148516 0.410941 0.194385
0.147005 0.410681 0.192966
0.146014 0.411307 0.191211
0.146044 0.412512 0.189258
0.146273 0.413443 0.186511
0.147433 0.414633 0.182437
0.14934 0.41619 0.177523
0.152026 0.417365 0.16965
0.157961 0.418067 0.159716
0.192508 0.431678 0.163836
0.240345 0.443061 0.166827
0.299779 0.450263 0.159899
0.352987 0.457664 0.150011
0.404639 0.462959 0.143877
0.46363 0.457176 0.148043
0.512306 0.454444 0.144137
0.560098 0.454063 0.156985
0.606485 0.453071 0.178973
0.645396 0.450019 0.197375
0.682918 0.439551 0.214847
0.712764 0.431052 0.22884
0.731029 0.427283 0.23653
0.751553 0.416876 0.24213
0.769604 0.406806 0.246571
0.780636 0.389425 0.25095
0.781064 0.371496 0.251743
0.77052 0.351415 0.246357
0.755718 0.328557 0.235401
0.746838 0.314961 0.24184
0.754345 0.319158 0.278645
0.777783 0.33373 0.339757
0.781155 0.345357 0.402655
0.783276 0.367498 0.462119
0.157 0.465248 0.220188
0.15584 0.465049 0.218265
0.155032 0.465766 0.216861
0.155291 0.466468 0.215
0.156588 0.46714 0.211444
0.158511 0.467842 0.206851
0.160586 0.469215 0.202228
0.162051 0.470634 0.19527
0.165743 0.471 0.183688
0.181659 0.474907 0.174182
0.22858 0.487465 0.177539
0.292805 0.495094 0.175982
0.353216 0.50164 0.164797
0.403403 0.508553 0.158434
0.452506 0.512398 0.155138
0.509148 0.505592 0.16199
0.554955 0.502953 0.158709
0.600336 0.503044 0.171633
0.644388 0.502632 0.193576
0.681666 0.501289 0.213825
0.717113 0.494026 0.233402
0.74403 0.487251 0.249683
0.760143 0.484642 0.255894
0.778103 0.476677 0.264103
0.794003 0.466331 0.27303
0.802762 0.451255 0.274769
0.803372 0.435767 0.274968
0.796063 0.412451 0.271778
0.783398 0.381537 0.26421
0.774426 0.361501 0.271183
0.776761 0.360571 0.304295
0.785321 0.380118 0.374899
0.78851 0.387152 0.431968
0.168688 0.518212 0.252003
0.168185 0.51809 0.250507
0.167987 0.518608 0.249485
0.16817 0.518944 0.247562
0.16849 0.519234 0.244709
0.169177 0.51931 0.239384
0.170901 0.519646 0.232547
0.173129 0.520546 0.226215
0.176654 0.521035 0.215717
0.186816 0.522118 0.200824
0.215991 0.528496 0.193179
0.283879 0.537423 0.194858
0.353994 0.543648 0.186786
0.404501 0.550469 0.176776
0.452079 0.555886 0.171801
0.497108 0.558846 0.169955
0.550668 0.551156 0.178134
0.595346 0.549157 0.178271
0.637903 0.548791 0.190906
0.679042 0.548394 0.212741
0.712215 0.547997 0.233845
0.742107 0.543206 0.253864
0.765652 0.538491 0.270558
0.780468 0.536095 0.277195
0.793408 0.532372 0.282948
0.804715 0.52433 0.288441
0.811139 0.51136 0.292378
0.810971 0.495796 0.293721
0.809857 0.471199 0.292958
0.801892 0.438697 0.285405
0.794003 0.412848 0.292531
0.789929 0.397833 0.32932
0.792584 0.417578 0.403723
0.184466 0.5682 0.292439
0.18381 0.567468 0.290333
0.18378 0.567788 0.28957
0.18407 0.567849 0.287648
0.184695 0.567926 0.28481
0.185702 0.567819 0.279377
0.187152 0.567269 0.27097
0.190005 0.566934 0.260746
0.193454 0.56759 0.25156
0.198672 0.567086 0.234745
0.219379 0.570962 0.220813
0.272465 0.578439 0.215686
0.348913 0.584283 0.210697
0.414618 0.589853 0.196887
0.453346 0.596368 0.191806
0.499077 0.600809 0.188235
0.538979 0.602625 0.189212
0.589303 0.594675 0.198138
0.631098 0.592538 0.20145
0.670848 0.591775 0.214328
0.707942 0.590372 0.236484
0.736599 0.589944 0.257069
0.759747 0.587823 0.275624
0.780362 0.584146 0.291554
0.793637 0.581674 0.299672
0.800656 0.580362 0.302724
0.806989 0.57467 0.304967
0.808026 0.565057 0.304967
0.809216 0.550744 0.305898
0.809644 0.52607 0.305913
0.808377 0.48806 0.306401
0.804334 0.461189 0.313146
0.798032 0.433127 0.355322
0.201312 0.615656 0.332952
0.200793 0.614664 0.331472
0.200671 0.61471 0.331075
0.201053 0.61471 0.329259
0.201724 0.614511 0.32639
0.202823 0.613962 0.32105
0.204807 0.613199 0.312612
0.207553 0.611765 0.300969
0.210773 0.610483 0.287297
0.215427 0.61088 0.273884
0.222446 0.608667 0.248508
0.264118 0.61709 0.240101
0.346395 0.622522 0.234272
0.413535 0.628748 0.224948
0.464363 0.634638 0.214466
0.499199 0.640772 0.213001
0.540825 0.643839 0.210346
0.577127 0.64361 0.213443
0.623713 0.635248 0.222416
0.663661 0.632303 0.228672
0.698634 0.631113 0.241764
0.730617 0.629526 0.264134
0.754452 0.628534 0.284016
0.774166 0.627008 0.302235
0.791074 0.62443 0.316503
0.799954 0.623011 0.324361
0.802731 0.621546 0.325307
0.803357 0.616968 0.324132
0.804288 0.607904 0.321798
0.805142 0.594476 0.320821
0.806699 0.572763 0.320699
0.807538 0.539055 0.319982
0.806546 0.498543 0.337041
0.220752 0.660609 0.371389
0.220142 0.659464 0.370138
0.220127 0.659663 0.370199
0.220249 0.659281 0.368582
0.22092 0.65861 0.366217
0.222171 0.657694 0.361166
0.223377 0.656245 0.353491
0.225971 0.654688 0.342458
0.229465 0.652674 0.328206
0.233433 0.650584 0.310582
0.239078 0.649027 0.289448
0.260884 0.651987 0.268208
0.342824 0.659083 0.261051
0.413901 0.664805 0.254795
0.468528 0.670146 0.243793
0.508034 0.675349 0.238941
0.540551 0.679866 0.238972
0.577234 0.682109 0.237995
0.612406 0.680354 0.243488
0.655955 0.671778 0.251484
0.690913 0.668986 0.258564
0.721477 0.667247 0.273274
0.749096 0.665934 0.298985
0.769818 0.665064 0.318975
0.786923 0.663142 0.336568
0.799084 0.66041 0.348714
0.803403 0.658259 0.353323
0.803265 0.655894 0.35169
0.802838 0.65182 0.346136
0.802441 0.643885 0.341497
0.802304 0.630701 0.338811
0.802457 0.611444 0.338293
0.804059 0.57908 0.335576
0.24181 0.700191 0.405921
0.241459 0.699321 0.405432
0.241154 0.698817 0.405142
0.241215 0.698451 0.404135
0.24155 0.697688 0.401511
0.2421 0.696452 0.397208
0.243565 0.694972 0.391073
0.24506 0.692729 0.381537
0.247532 0.689738 0.366949
0.251438 0.686519 0.348653
0.256855 0.684092 0.32784
0.274662 0.685832 0.305898
0.336522 0.69163 0.290044
0.414679 0.696529 0.28484
0.471595 0.701076 0.276051
0.513466 0.705669 0.269291
0.546883 0.709575 0.26833
0.576593 0.712764 0.269734
0.609918 0.713359 0.269734
0.643137 0.710369 0.275395
0.683177 0.702754 0.284199
0.714717 0.699962 0.29659
0.743206 0.698466 0.319051
0.766644 0.69659 0.340902
0.785489 0.694865 0.359594
0.798901 0.693263 0.373877
0.805142 0.690623 0.382315
0.808209 0.687922 0.385321
0.808759 0.684627 0.381338
0.80975 0.680049 0.372061
0.809934 0.671061 0.364904
0.809735 0.657755 0.360372
0.80885 0.639719 0.356786
0.263813 0.734096 0.432273
0.263172 0.732769 0.431617
0.262608 0.731884 0.431373
0.262303 0.731151 0.430304
0.262577 0.730465 0.428382
0.263325 0.729549 0.425193
0.263996 0.727718 0.419257
0.2654 0.725322 0.410666
0.266972 0.722026 0.398154
0.270115 0.717861 0.380209
0.276356 0.714946 0.359854
0.288457 0.714565 0.337972
0.33576 0.7196 0.318776
0.411231 0.723339 0.312047
0.472099 0.727382 0.307179
0.519631 0.731243 0.299275
0.55375 0.734829 0.2963
0.583062 0.73695 0.297444
0.612863 0.738674 0.299397
0.642985 0.738643 0.299718
0.674601 0.735439 0.308476
0.710826 0.728511 0.320897
0.74052 0.725704 0.339544
0.764355 0.723125 0.358724
0.785153 0.720562 0.379278
0.801419 0.719219 0.396017
0.812589 0.716747 0.408469
0.816373 0.713954 0.415702
0.817044 0.710964 0.416403
0.817105 0.707378 0.411643
0.815564 0.70341 0.40061
0.814557 0.694316 0.394461
0.812497 0.680873 0.388922
0.283726 0.761288 0.458366
0.283253 0.76025 0.45771
0.282628 0.759289 0.457588
0.282506 0.75874 0.457008
0.282338 0.7579 0.454795
0.282734 0.756619 0.451972
0.283223 0.754711 0.446708
0.284108 0.752361 0.438651
0.285771 0.748913 0.427237
0.288594 0.744671 0.410849
0.295247 0.741176 0.391379
0.309819 0.740688 0.372564
0.333028 0.742977 0.352071
0.405295 0.747158 0.345052
0.467552 0.749996 0.341665
0.516396 0.753307 0.336385
0.555245 0.756146 0.331533
0.584863 0.758618 0.331655
0.613443 0.75996 0.333654
0.641672 0.760952 0.336599
0.671733 0.760815 0.340551
0.699336 0.757382 0.352575
0.731945 0.750927 0.365591
0.757961 0.74725 0.382544
0.779446 0.744991 0.400519
0.798993 0.742718 0.420142
0.811978 0.740612 0.434211
0.818616 0.738567 0.444526
0.821241 0.735851 0.450935
0.822049 0.732906 0.449348
0.821744 0.729229 0.442603
0.819638 0.724834 0.431037
0.817868 0.715892 0.424521
0.302312 0.78146 0.479408
0.301686 0.78056 0.478965
0.301167 0.779812 0.478813
0.300664 0.778637 0.477516
0.300114 0.777462 0.475639
0.300237 0.776074 0.472679
0.300923 0.774395 0.468025
0.302098 0.772519 0.461112
0.303243 0.7691 0.450935
0.306432 0.765148 0.43624
0.316213 0.762356 0.419715
0.334112 0.761624 0.403174
0.360815 0.763699 0.390005
0.407904 0.767544 0.388937
0.466239 0.76875 0.386297
0.513985 0.770916 0.383185
0.554223 0.773907 0.379461
0.587228 0.776287 0.377142
0.616205 0.777173 0.377127
0.644556 0.777813 0.379507
0.670527 0.778195 0.381537
0.695994 0.778073 0.384512
0.722789 0.774945 0.395529
0.751553 0.768719 0.408209
0.773526 0.766018 0.42417
0.793317 0.763775 0.441199
0.809491 0.762249 0.459144
0.817411 0.761166 0.471672
0.821042 0.75964 0.481117
0.823774 0.757168 0.486763
0.82443 0.753979 0.483482
0.823743 0.749828 0.474281
0.822507 0.744076 0.463142
0.319997 0.796719 0.496544
0.319387 0.795773 0.496071
0.318715 0.79472 0.495583
0.31812 0.794003 0.494789
0.317723 0.79292 0.492973
0.317449 0.791623 0.489677
0.317952 0.789746 0.485145
0.318746 0.787549 0.478676
0.322271 0.785107 0.470237
0.328267 0.781826 0.459236
0.337499 0.779034 0.444358
0.360342 0.7785 0.433356
0.386603 0.779767 0.425361
0.421454 0.782361 0.42475
0.467918 0.783246 0.424109
0.513939 0.784649 0.423377
0.555215 0.787228 0.421851
0.589609 0.789807 0.419699
0.618372 0.791089 0.418692
0.646662 0.791394 0.418723
0.67303 0.79202 0.421118
0.694987 0.792294 0.422614
0.718212 0.79173 0.425391
0.744289 0.788876 0.435447
0.76762 0.783307 0.447745
0.78851 0.781384 0.464286
0.805737 0.77995 0.481468
0.817426 0.779614 0.498421
0.821073 0.779706 0.511116
0.822843 0.779293 0.519799
0.823804 0.777981 0.525032
0.823148 0.774655 0.52105
0.821851 0.770413 0.50901
0.338842 0.805966 0.513405
0.337987 0.805173 0.510552
0.337392 0.804486 0.509255
0.336812 0.803571 0.50779
0.336461 0.80235 0.505928
0.335882 0.801251 0.502663
0.335927 0.799985 0.49865
0.337301 0.798154 0.493553
0.342092 0.796155 0.487022
0.350439 0.793881 0.47805
0.362692 0.791608 0.468116
0.383627 0.790448 0.460182
0.411948 0.791287 0.456397
0.439261 0.793057 0.456123
0.474815 0.794339 0.458228
0.516213 0.795621 0.459403
0.556466 0.797787 0.460533
0.592447 0.800092 0.4589
0.621042 0.802365 0.458991
0.64863 0.803494 0.459342
0.675868 0.803723 0.459648
0.697795 0.80415 0.460807
0.71722 0.804486 0.462028
0.738766 0.803571 0.46421
0.761852 0.802136 0.475212
0.783413 0.796948 0.487938
0.802686 0.796139 0.504967
0.815213 0.796155 0.521248
0.823758 0.797375 0.538949
0.825788 0.798306 0.550057
0.82742 0.798093 0.55761
0.828611 0.796796 0.560403
0.827619 0.794125 0.55584
0.363592 0.810773 0.527398
0.362249 0.810208 0.525139
0.361044 0.809827 0.522835
0.360357 0.809293 0.5205
0.359503 0.808331 0.518257
0.358236 0.80734 0.515358
0.357885 0.805798 0.511391
0.360098 0.804349 0.507317
0.364279 0.802274 0.502083
0.373922 0.800061 0.495857
0.391714 0.798535 0.492149
0.411734 0.797543 0.488075
0.435142 0.797223 0.484581
0.46006 0.798581 0.484306
0.485771 0.800809 0.486748
0.520088 0.802579 0.490791
0.55816 0.804639 0.49337
0.593851 0.807126 0.494759
0.626688 0.809918 0.494957
0.652873 0.812009 0.497307
0.678691 0.812726 0.498009
0.702617 0.813245 0.499031
0.721294 0.814023 0.49865
0.738979 0.814435 0.499428
0.756924 0.814862 0.503578
0.779034 0.814038 0.514305
0.799313 0.810071 0.529152
0.813535 0.811063 0.546075
