bundles/resolve-cinematic-luts/Phantom Luts/A7s3 Phntm Film LUTs - G6/ATOMOS Monitor LUTs/Slog3/Eterna A7s3-Legacy AML.cube
TITLE "Generated by Resolve"
LUT_3D_SIZE 5
0.0800031 0.103838 0.103929
0.124041 0.104402 0.0992447
0.336294 0.122438 0.151583
0.719951 0.188174 0.328923
0.906584 0.401373 0.601968
0.09514 0.157397 0.12076
0.144625 0.161318 0.118074
0.383078 0.120119 0.137087
0.77258 0.219272 0.356573
0.913725 0.45211 0.640818
0.12929 0.575372 0.261616
0.12256 0.620203 0.253666
0.568078 0.610788 0.19266
0.901503 0.523293 0.329931
0.919097 0.534615 0.648936
0.40415 0.903639 0.543725
0.407416 0.907805 0.541344
0.518517 0.908843 0.529595
0.903716 0.907515 0.66212
0.919921 0.859052 0.614298
0.84126 0.912108 0.866896
0.839399 0.911116 0.861631
0.849012 0.910292 0.860807
0.89688 0.911665 0.880796
0.92105 0.9178 0.907347
0.0816815 0.104295 0.121569
0.127962 0.106294 0.121965
0.322408 0.120119 0.169665
0.702419 0.169116 0.329519
0.905837 0.38349 0.60827
0.0951553 0.152102 0.140337
0.143526 0.156497 0.154849
0.382635 0.122927 0.171984
0.785763 0.21915 0.389471
0.919676 0.54696 0.74377
0.120882 0.548119 0.287617
0.109758 0.59057 0.277821
0.55555 0.599817 0.18735
0.90367 0.511284 0.34548
0.921569 0.591546 0.723903
0.375494 0.902876 0.557214
0.381231 0.906645 0.551675
0.506889 0.908354 0.52134
0.902419 0.907164 0.654932
0.919631 0.847242 0.610712
0.821958 0.911391 0.855573
0.848341 0.911254 0.868925
0.864881 0.910643 0.871962
0.895842 0.911574 0.880446
0.920897 0.91783 0.906874
0.0921645 0.106905 0.257252
0.141268 0.109773 0.287663
0.366735 0.126986 0.262577
0.702602 0.165484 0.374228
0.902251 0.365576 0.631724
0.0898299 0.130282 0.228916
0.0844129 0.111894 0.310567
0.401953 0.130556 0.316548
0.728634 0.176577 0.43151
0.91754 0.501106 0.757061
0.119921 0.501549 0.401328
0.108522 0.537118 0.458183
0.519463 0.541634 0.506218
0.910613 0.443671 0.516426
0.921721 0.606821 0.787732
0.350866 0.888716 0.635019
0.327947 0.898253 0.646738
0.446693 0.90692 0.597253
0.898222 0.900984 0.66305
0.919173 0.834577 0.702358
0.801297 0.910002 0.852628
0.825315 0.912673 0.87303
0.87512 0.910689 0.883253
0.895827 0.911421 0.881849
0.924254 0.916579 0.904891
0.115282 0.113893 0.448951
0.138445 0.114931 0.502266
0.400702 0.122484 0.503288
0.734493 0.176638 0.545953
0.891371 0.340215 0.722728
0.0873121 0.123384 0.438804
0.0871138 0.127123 0.50396
0.39559 0.125872 0.605951
0.735668 0.185534 0.595224
0.913725 0.473869 0.834241
0.105562 0.482078 0.584649
0.0882429 0.491188 0.640208
0.251698 0.482307 0.791669
0.87155 0.318791 0.740215
0.914427 0.48275 0.839277
0.330037 0.857511 0.753094
0.297032 0.858671 0.769162
0.34464 0.866896 0.784741
0.863127 0.865812 0.842573
0.921843 0.795727 0.84416
0.784161 0.906813 0.864652
0.793561 0.912108 0.883055
0.842649 0.913146 0.896345
0.888853 0.911986 0.895811
0.925307 0.916228 0.904311
0.136217 0.130343 0.620859
0.133227 0.136034 0.640452
0.330541 0.130892 0.692348
0.731929 0.180209 0.726696
0.820539 0.264851 0.801892
0.0918746 0.146715 0.60882
0.0951247 0.153231 0.633112
0.13373 0.142275 0.652552
0.723217 0.177783 0.736263
0.901335 0.416739 0.90132
0.128496 0.497124 0.746777
0.13846 0.499916 0.767208
0.150973 0.461769 0.793378
0.809094 0.340124 0.883406
0.903746 0.428244 0.903746
0.31429 0.840208 0.864012
0.304677 0.828458 0.867033
0.30103 0.806821 0.873823
0.718029 0.841535 0.911604
0.914565 0.714107 0.914565
0.729763 0.911223 0.901579
0.736629 0.911315 0.905043
0.752529 0.911345 0.907301
0.842908 0.913283 0.91342
0.919951 0.919951 0.919951
