bundles/resolve-cinematic-luts/Phantom Luts/A7s3 Phntm Film LUTs - G6/ATOMOS Monitor LUTs/Slog3/Eterna A7s3 AML.cube
TITLE "Generated by Resolve"
LUT_3D_SIZE 33
0.0632639 0.0882124 0.0883955
0.0632639 0.0882124 0.0883955
0.0633555 0.0881666 0.0882124
0.0639963 0.0880598 0.0878767
0.072755 0.0889296 0.0896162
0.0848249 0.0893416 0.0895705
0.0978561 0.0895705 0.0882887
0.113481 0.0905318 0.0885634
0.130358 0.0917983 0.0896773
0.149203 0.09337 0.0926833
0.172442 0.0955367 0.0969863
0.198459 0.0977646 0.102235
0.229145 0.100023 0.109865
0.263676 0.102251 0.120989
0.29984 0.104753 0.13341
0.336645 0.106996 0.147601
0.376547 0.111238 0.163653
0.41912 0.118181 0.181918
0.463539 0.125154 0.201938
0.509224 0.131228 0.223713
0.55845 0.139498 0.248646
0.611917 0.151171 0.276265
0.663691 0.1664 0.306676
0.710735 0.185031 0.337972
0.752697 0.206104 0.369482
0.787793 0.228534 0.402823
0.817807 0.251987 0.437308
0.845075 0.276692 0.47425
0.869184 0.305348 0.514351
0.886671 0.340475 0.554971
0.897887 0.378241 0.592142
0.904997 0.415076 0.624964
0.909697 0.448173 0.653941
0.0632639 0.0882124 0.0883955
0.0632639 0.0882124 0.0883955
0.0633097 0.0881971 0.0883192
0.0638895 0.0881514 0.0881208
0.0731975 0.0892653 0.0891585
0.0850538 0.0898909 0.0895247
0.100038 0.0904555 0.0895399
0.116884 0.091249 0.089189
0.134539 0.0924849 0.0898604
0.154055 0.0941787 0.0926986
0.178454 0.0963302 0.0972305
0.205615 0.098146 0.102922
0.236164 0.0999771 0.11014
0.271748 0.103822 0.119158
0.307485 0.106081 0.132357
0.344106 0.108248 0.14696
0.383352 0.11284 0.16286
0.426215 0.119326 0.181399
0.471092 0.126513 0.202274
0.517433 0.132967 0.224857
0.567239 0.14107 0.249882
0.621241 0.153689 0.278859
0.671717 0.169238 0.309377
0.718318 0.188556 0.340963
0.758892 0.210101 0.37351
0.792859 0.232547 0.406302
0.822309 0.255955 0.44097
0.849805 0.281605 0.478614
0.872236 0.310414 0.5196
0.888823 0.347082 0.560403
0.899397 0.384695 0.597269
0.905959 0.420401 0.629313
0.91014 0.452674 0.657786
0.0632639 0.0882124 0.0883955
0.0632639 0.0882124 0.0883955
0.0632792 0.0881971 0.0883345
0.0637675 0.0881666 0.0882277
0.0723125 0.0893721 0.0891585
0.0825971 0.0898909 0.089601
0.0971847 0.0905776 0.0901961
0.115007 0.0915541 0.0904707
0.133394 0.092668 0.0910048
0.153872 0.0943313 0.0931563
0.178836 0.0965591 0.0973678
0.207218 0.0983749 0.102983
0.239277 0.0999771 0.110948
0.27541 0.103258 0.12018
0.312673 0.1066 0.132448
0.350469 0.109102 0.147326
0.390539 0.114153 0.163714
0.433051 0.120806 0.181842
0.477333 0.127565 0.202457
0.5234 0.133837 0.22472
0.574716 0.143297 0.251057
0.628321 0.155703 0.279911
0.679103 0.172137 0.311772
0.724926 0.191897 0.343832
0.763821 0.213352 0.375586
0.797131 0.235996 0.409567
0.827253 0.260166 0.445762
0.853712 0.286473 0.483238
0.874968 0.316396 0.524254
0.890867 0.353765 0.565454
0.900893 0.391302 0.602884
0.907088 0.426856 0.635096
0.910613 0.457893 0.66276
0.0632639 0.0883803 0.0884718
0.0632792 0.088426 0.0884871
0.0635386 0.0881971 0.0883955
0.0637827 0.0882124 0.0883192
0.0709087 0.0897383 0.0889448
0.0786755 0.0901198 0.0890211
0.0912947 0.0905776 0.0894636
0.110765 0.0919051 0.0910811
0.130831 0.0931106 0.092134
0.152743 0.0947127 0.0939651
0.178775 0.0967727 0.0977188
0.208301 0.098558 0.103059
0.241398 0.100298 0.110964
0.277317 0.101946 0.121202
0.316197 0.106508 0.132769
0.35581 0.109346 0.148501
0.396963 0.114519 0.165316
0.440055 0.121141 0.183658
0.483528 0.127443 0.203616
0.529625 0.134646 0.225971
0.579965 0.144366 0.251682
0.633722 0.15761 0.280812
0.683192 0.173495 0.312093
0.728588 0.1935 0.344579
0.766674 0.215244 0.37644
0.7991 0.237613 0.409964
0.828244 0.261448 0.44535
0.854215 0.287022 0.482918
0.875074 0.31667 0.522438
0.890318 0.352361 0.562722
0.900282 0.388205 0.599176
0.906432 0.422156 0.631006
0.910231 0.45275 0.658564
0.0646983 0.0926833 0.0915541
0.065095 0.0935225 0.0911879
0.0663462 0.0938277 0.0908827
0.0675059 0.0925917 0.090425
0.0716411 0.0936904 0.0906844
0.0783856 0.0941787 0.0909285
0.08925 0.0942855 0.0904402
0.108171 0.0944381 0.0911879
0.130083 0.0957809 0.093019
0.154131 0.0969406 0.0949874
0.181643 0.0982071 0.0983291
0.2121 0.0999008 0.103319
0.246677 0.101228 0.110674
0.283024 0.102739 0.121004
0.320333 0.105135 0.1337
0.360281 0.108431 0.149233
0.4047 0.115511 0.16643
0.449027 0.121126 0.185306
0.494804 0.127398 0.206317
0.542214 0.135348 0.230045
0.593881 0.146242 0.256641
0.645029 0.160021 0.285344
0.692317 0.177356 0.316167
0.736355 0.197543 0.348455
0.773938 0.219883 0.38114
0.80557 0.243061 0.415717
0.83534 0.267735 0.452491
0.860258 0.294286 0.491218
0.880552 0.327459 0.532647
0.893935 0.363745 0.572305
0.902632 0.399878 0.608804
0.908125 0.433707 0.640757
0.911147 0.463767 0.667948
0.0700084 0.107774 0.0991073
0.070222 0.108705 0.0983902
0.0707561 0.108659 0.0967727
0.0745556 0.108003 0.0959029
0.079942 0.107836 0.0965133
0.087068 0.107851 0.0967422
0.0986954 0.10753 0.096376
0.11632 0.106554 0.095491
0.138262 0.105867 0.0963302
0.1626 0.105516 0.0977951
0.191226 0.104143 0.0996719
0.222705 0.103273 0.102968
0.257725 0.103944 0.109224
0.292912 0.10515 0.118227
0.330282 0.106905 0.131182
0.369482 0.108446 0.148714
0.413123 0.115343 0.166873
0.460273 0.123308 0.185809
0.506889 0.129442 0.207599
0.557061 0.137224 0.232654
0.610025 0.148409 0.260624
0.661021 0.163058 0.291264
0.7066 0.181231 0.322927
0.747723 0.202502 0.354986
0.782498 0.225177 0.387457
0.81326 0.249134 0.422812
0.842618 0.27509 0.460578
0.866407 0.302754 0.500313
0.884443 0.338048 0.541405
0.896803 0.375433 0.58172
0.90454 0.411215 0.6177
0.909392 0.444862 0.649363
0.91194 0.474403 0.6766
0.0742351 0.124987 0.10544
0.0744335 0.126986 0.104631
0.0751812 0.127291 0.103822
0.0767834 0.126558 0.100572
0.0840314 0.12607 0.101228
0.09308 0.126894 0.102419
0.107286 0.12517 0.10222
0.127275 0.123522 0.101671
0.149065 0.121187 0.10135
0.17142 0.119478 0.101503
0.199939 0.11548 0.102663
0.230823 0.110674 0.103975
0.264851 0.107424 0.107439
0.298802 0.107042 0.114626
0.335775 0.108446 0.125887
0.376989 0.112734 0.143511
0.422171 0.117662 0.165499
0.467048 0.124193 0.185748
0.515999 0.132525 0.206561
0.566812 0.141268 0.23238
0.620478 0.153017 0.261631
0.671305 0.167865 0.293568
0.716655 0.186664 0.326345
0.757046 0.208133 0.35993
0.790814 0.231022 0.393118
0.821118 0.25568 0.429419
0.849165 0.282445 0.467567
0.871687 0.31223 0.508049
0.888121 0.349035 0.548867
0.898909 0.38645 0.587503
0.906004 0.423148 0.623331
0.910277 0.455497 0.653651
0.912703 0.484001 0.678981
0.0800793 0.147295 0.110948
0.079057 0.150515 0.110628
0.079469 0.151659 0.110048
0.0804456 0.151705 0.107637
0.0850385 0.150973 0.106111
0.0966201 0.153353 0.107546
0.112184 0.153918 0.10901
0.134691 0.150179 0.108064
0.161563 0.147555 0.108461
0.187655 0.144533 0.109743
0.21593 0.139178 0.111376
0.244282 0.129213 0.111574
0.27631 0.120119 0.11136
0.310628 0.114412 0.115053
0.34403 0.110063 0.121004
0.384924 0.112947 0.136034
0.430396 0.117952 0.15758
0.480186 0.126085 0.183963
0.527977 0.133074 0.208194
0.579416 0.143435 0.234241
0.635309 0.157977 0.262852
0.683528 0.173068 0.295216
0.728084 0.192538 0.329244
0.766674 0.21416 0.363577
0.79913 0.237263 0.397894
0.828977 0.262425 0.435309
0.856291 0.290364 0.474357
0.876799 0.322087 0.514595
0.891279 0.359396 0.555703
0.901106 0.397009 0.594232
0.907515 0.433173 0.62948
0.911025 0.465263 0.6598
0.913283 0.492821 0.685145
0.0847334 0.173556 0.119753
0.0830854 0.177188 0.118486
0.0829633 0.179492 0.117235
0.0842298 0.180163 0.115389
0.085893 0.180041 0.112535
0.0955978 0.181689 0.110079
0.111971 0.184039 0.112413
0.135714 0.185382 0.114519
0.166461 0.180362 0.1149
0.200153 0.177615 0.115938
0.236301 0.172473 0.12015
0.271046 0.159136 0.123079
0.300923 0.147463 0.123629
0.329931 0.13579 0.12282
0.360052 0.124071 0.122652
0.394949 0.11635 0.129305
0.43473 0.115038 0.144121
0.483803 0.122072 0.16994
0.543313 0.136858 0.20415
0.595438 0.144991 0.234913
0.641566 0.155856 0.266041
0.693156 0.177218 0.295003
0.739528 0.199756 0.329244
0.775128 0.220813 0.363714
0.806394 0.243809 0.399466
0.835782 0.268757 0.437919
0.862242 0.298299 0.478187
0.881224 0.331624 0.519203
0.894453 0.369268 0.560601
0.903014 0.406775 0.59881
0.90869 0.441794 0.63357
0.911635 0.473472 0.663523
0.91371 0.50071 0.689418
0.0880598 0.204974 0.13109
0.0858625 0.20882 0.128695
0.0848707 0.21236 0.126329
0.0852216 0.213809 0.123583
0.0859693 0.214481 0.120317
0.0891127 0.215946 0.113909
0.106126 0.217853 0.112886
0.132189 0.220478 0.115434
0.164401 0.22295 0.118624
0.203861 0.216693 0.120912
0.246403 0.213886 0.122728
0.296666 0.203418 0.131304
0.334951 0.188006 0.137209
0.364965 0.173648 0.138613
0.393942 0.158923 0.138094
0.42092 0.142962 0.136767
0.451637 0.129152 0.140658
0.486305 0.121218 0.152377
0.536141 0.12636 0.178607
0.609735 0.151675 0.222736
0.661448 0.164462 0.260014
0.700145 0.178393 0.295262
0.744686 0.201953 0.328374
0.782025 0.228153 0.359548
0.812619 0.250935 0.396201
0.841352 0.275746 0.4365
0.867063 0.305821 0.477897
0.884535 0.340642 0.520836
0.896529 0.378271 0.562646
0.904372 0.415091 0.600565
0.90959 0.449943 0.635721
0.912337 0.481163 0.666224
0.914153 0.5075 0.692134
0.0918135 0.242832 0.144945
0.0892653 0.247517 0.142596
0.0868391 0.251942 0.138979
0.0858625 0.254307 0.134676
0.0849317 0.255985 0.129534
0.086183 0.258778 0.125917
0.090013 0.259709 0.114061
0.117327 0.260807 0.113115
0.15787 0.26421 0.116548
0.197253 0.266789 0.120256
0.247959 0.261326 0.124819
0.301274 0.258473 0.126299
0.363958 0.246387 0.141314
0.409567 0.228656 0.152728
0.443595 0.211307 0.158343
0.473823 0.19559 0.159731
0.502205 0.178866 0.159991
0.527321 0.159274 0.161563
0.54902 0.137774 0.16495
0.583551 0.128908 0.185748
0.659922 0.162036 0.235019
0.714565 0.186648 0.280583
0.753765 0.206577 0.322881
0.782544 0.226703 0.358587
0.818753 0.258671 0.388449
0.846738 0.284016 0.429923
0.871382 0.315053 0.47393
0.887724 0.349966 0.518151
0.898528 0.387137 0.561273
0.905562 0.423545 0.600687
0.910201 0.457649 0.636027
0.912902 0.48864 0.667353
0.914656 0.514855 0.694102
0.0970016 0.288609 0.160647
0.0928817 0.295048 0.158404
0.0902266 0.300847 0.154894
0.0884565 0.304967 0.150912
0.0872816 0.307927 0.144762
0.0873884 0.311711 0.139437
0.0878614 0.314824 0.133623
0.0912184 0.31458 0.11899
0.127062 0.315206 0.111986
0.184421 0.318563 0.115618
0.234302 0.32105 0.118486
0.298985 0.316915 0.12398
0.36611 0.314382 0.122332
0.435676 0.302663 0.145953
0.494423 0.284184 0.165972
0.538582 0.265629 0.1794
0.573144 0.252781 0.185443
0.606027 0.233692 0.190066
0.631159 0.213535 0.19202
0.639307 0.18352 0.19202
0.649912 0.161227 0.20473
0.692683 0.174746 0.239857
0.754376 0.21088 0.291463
0.792004 0.237354 0.342199
0.817746 0.255253 0.387808
0.851713 0.291463 0.42153
0.875883 0.326192 0.464454
0.890379 0.361074 0.510872
0.900435 0.397009 0.556146
0.906661 0.432288 0.597086
0.910842 0.466239 0.634379
0.913329 0.496193 0.666545
0.914855 0.522469 0.694759
0.0993668 0.344717 0.176532
0.0933394 0.352255 0.174151
0.0893721 0.359472 0.171359
0.086656 0.364996 0.167803
0.0851301 0.369451 0.163516
0.0844434 0.373953 0.157778
0.084535 0.377951 0.152163
0.0851301 0.380484 0.144518
0.0913405 0.379126 0.125536
0.139101 0.378668 0.111833
0.20882 0.382284 0.113054
0.276127 0.384237 0.114488
0.358465 0.381826 0.118898
0.43386 0.381125 0.11043
0.510307 0.370764 0.147356
0.576974 0.356924 0.175311
0.633646 0.34049 0.196277
0.671046 0.330266 0.205997
0.712932 0.302556 0.221118
0.73817 0.281407 0.226535
0.743465 0.254887 0.230274
0.733608 0.222492 0.232166
0.729122 0.199496 0.239841
0.770809 0.227665 0.285405
0.822751 0.270878 0.350866
0.851804 0.293599 0.409506
0.87715 0.331151 0.454337
0.893263 0.373419 0.4981
0.901961 0.408789 0.546639
0.907927 0.442969 0.590692
0.911574 0.475792 0.630121
0.913954 0.505119 0.664668
0.915129 0.530694 0.693233
0.098024 0.408835 0.192828
0.0916609 0.417502 0.191089
0.0872663 0.42533 0.188708
0.0839399 0.4318 0.185916
0.0806439 0.437995 0.182544
0.0780346 0.44358 0.178683
0.0769818 0.44892 0.173922
0.0771649 0.452216 0.167025
0.0817884 0.453819 0.157366
0.0970626 0.451743 0.132342
0.155734 0.450462 0.114733
0.245029 0.452293 0.113313
0.329122 0.454368 0.11136
0.422675 0.453101 0.121172
0.502556 0.453056 0.113725
0.579522 0.445792 0.160266
0.645014 0.438071 0.193484
0.709575 0.421698 0.221042
0.745998 0.414923 0.232425
0.788098 0.390234 0.249393
0.815427 0.362066 0.262531
0.824414 0.332937 0.270253
0.820523 0.303273 0.268269
0.792401 0.264179 0.258137
0.802808 0.264698 0.286824
0.849973 0.308385 0.356146
0.879484 0.344228 0.43151
0.893095 0.372427 0.493385
0.902159 0.408804 0.545556
0.909483 0.455924 0.581796
0.912306 0.487724 0.62417
0.914534 0.516213 0.661189
0.915663 0.541299 0.692103
0.0924544 0.482429 0.21619
0.086244 0.491203 0.215488
0.0816968 0.498634 0.213794
0.078294 0.505699 0.211963
0.0747539 0.51165 0.209293
0.0725261 0.518013 0.20737
0.0741283 0.522881 0.203952
0.078645 0.526543 0.198108
0.0865797 0.528481 0.18793
0.0932784 0.529274 0.175113
0.109255 0.525811 0.141497
0.191272 0.52369 0.122179
0.303685 0.523003 0.121645
0.394339 0.526574 0.124605
0.48954 0.525521 0.141909
0.567468 0.524605 0.137041
0.641321 0.51986 0.179812
0.705104 0.514595 0.218143
0.767056 0.501762 0.247013
0.805219 0.493858 0.261906
0.839078 0.47866 0.277317
0.865827 0.454459 0.293263
0.877058 0.423713 0.304799
0.865232 0.382818 0.301732
0.846693 0.342885 0.289281
0.846082 0.327428 0.306065
0.8757 0.35906 0.367376
0.896391 0.398367 0.455772
0.903685 0.420523 0.532067
0.909529 0.458503 0.58172
0.913359 0.501503 0.616526
0.915129 0.529961 0.656703
0.91635 0.554894 0.690471
0.100908 0.555444 0.25185
0.0982376 0.56379 0.25211
0.095201 0.571694 0.25185
0.0932326 0.578866 0.251225
0.0915236 0.585245 0.24979
0.0918593 0.591546 0.249195
0.0927138 0.595728 0.246983
0.0959335 0.598947 0.243397
0.100282 0.600855 0.234806
0.106905 0.60116 0.220722
0.116014 0.599847 0.201968
0.143771 0.594751 0.157015
0.255177 0.592996 0.143877
0.381308 0.59118 0.143633
0.467323 0.597009 0.153216
0.557275 0.594293 0.172503
0.631022 0.591943 0.173251
0.700114 0.588022 0.208591
0.760616 0.582986 0.248066
0.814221 0.573022 0.27718
0.849271 0.565759 0.293706
0.874235 0.556924 0.305547
0.891737 0.540719 0.316899
0.899199 0.516045 0.324376
0.893858 0.478706 0.322652
0.880858 0.423163 0.316197
0.877607 0.393118 0.329397
0.895293 0.413367 0.392294
0.906691 0.449928 0.491554
0.910628 0.472267 0.570809
0.913695 0.508827 0.617533
0.915679 0.545464 0.652308
0.916747 0.570291 0.68925
0.12607 0.62533 0.29778
0.122866 0.633204 0.298558
0.119722 0.640574 0.298787
0.11693 0.647898 0.298833
0.114534 0.654154 0.29836
0.114931 0.660273 0.298772
0.115938 0.663905 0.297032
0.119509 0.666499 0.294041
0.123903 0.668315 0.287526
0.130419 0.668711 0.27509
0.139895 0.667033 0.256016
0.151629 0.66363 0.228672
0.200641 0.658717 0.178103
0.3402 0.65922 0.173922
0.459663 0.659007 0.173175
0.535714 0.663981 0.1879
0.61912 0.658946 0.207874
0.687984 0.654719 0.215946
0.752087 0.650553 0.246357
0.807065 0.644709 0.283116
0.850416 0.637003 0.31075
0.877913 0.630243 0.326955
0.893568 0.62298 0.3346
0.902678 0.611475 0.33901
0.903502 0.591608 0.338521
0.903929 0.55906 0.337575
0.900267 0.507836 0.333898
0.898375 0.462348 0.350454
0.907744 0.471763 0.430823
0.912551 0.499199 0.53724
0.914549 0.521691 0.613901
0.915816 0.553689 0.659739
0.917037 0.583658 0.695506
0.157763 0.690684 0.347616
0.155947 0.698085 0.348989
0.152667 0.705013 0.349569
0.150072 0.711589 0.349477
0.148074 0.717693 0.349508
0.148455 0.723003 0.34966
0.149706 0.726894 0.348547
0.152651 0.728771 0.345892
0.156847 0.730083 0.340169
0.162631 0.730678 0.331228
0.170275 0.728801 0.313649
0.180438 0.725216 0.288075
0.196414 0.719692 0.248356
0.287922 0.720729 0.208988
0.434897 0.721294 0.209155
0.52874 0.722713 0.21294
0.599405 0.725902 0.230854
0.675227 0.718425 0.250324
0.740108 0.71223 0.263035
0.797574 0.707652 0.290257
0.844373 0.700587 0.323323
0.876646 0.693233 0.347341
0.895048 0.686213 0.361791
0.902281 0.680369 0.365499
0.902327 0.67068 0.361151
0.90338 0.65098 0.358343
0.904875 0.619928 0.354711
0.905791 0.57113 0.349966
0.907942 0.514366 0.371496
0.913603 0.527123 0.482994
0.915511 0.547601 0.588129
0.916609 0.569512 0.659297
0.917174 0.591821 0.710338
0.199893 0.75053 0.397116
0.198413 0.757397 0.398764
0.195148 0.763668 0.399451
0.192187 0.769284 0.399298
0.189532 0.774487 0.399207
0.189502 0.778943 0.399268
0.190051 0.78172 0.397986
0.192493 0.783581 0.395773
0.195483 0.78471 0.391241
0.19968 0.785046 0.383581
0.204791 0.783581 0.370184
0.213123 0.780301 0.347448
0.225711 0.77554 0.315221
0.26125 0.7729 0.270497
0.393286 0.77847 0.249943
0.515602 0.777798 0.251835
0.590417 0.779706 0.260792
0.656153 0.780148 0.27892
0.726696 0.771908 0.2981
0.786511 0.764355 0.312551
0.836164 0.758648 0.339223
0.873899 0.751568 0.37464
0.895338 0.744183 0.399054
0.905715 0.736904 0.410803
0.905287 0.730022 0.405432
0.904372 0.720546 0.392935
0.904082 0.70042 0.384924
0.904387 0.669856 0.378073
0.90695 0.621317 0.368887
0.911711 0.560235 0.395987
0.915755 0.579538 0.54815
0.917403 0.595834 0.639017
0.917494 0.615183 0.70367
0.243992 0.799863 0.442618
0.241886 0.805035 0.44329
0.238575 0.810636 0.443793
0.234928 0.81532 0.44332
0.231708 0.820371 0.44332
0.23061 0.82388 0.442878
0.230442 0.826261 0.441505
0.23154 0.82771 0.439506
0.233631 0.828504 0.435904
0.236652 0.828794 0.43003
0.240116 0.827863 0.419257
0.245975 0.825513 0.401923
0.256184 0.821698 0.373236
0.274876 0.818067 0.336629
0.34757 0.822919 0.29984
0.485161 0.825223 0.295613
0.581918 0.824094 0.299947
0.645365 0.826062 0.312581
0.70634 0.824704 0.330159
0.771221 0.815671 0.347967
0.82594 0.808026 0.369085
0.868528 0.802029 0.40705
0.895201 0.794751 0.441093
0.908339 0.787823 0.461158
0.910521 0.780301 0.464561
0.910002 0.772946 0.45507
0.908217 0.763287 0.437934
0.906874 0.742565 0.424399
0.906508 0.709209 0.41004
0.907805 0.660334 0.401572
0.913146 0.618357 0.458244
0.917205 0.629694 0.60531
0.917708 0.64268 0.686809
0.28394 0.838987 0.480369
0.28098 0.843397 0.480552
0.276692 0.847715 0.480262
0.272114 0.851789 0.479332
0.268513 0.856153 0.479011
0.266819 0.858976 0.478187
0.266484 0.860624 0.476814
0.26714 0.861738 0.474983
0.268116 0.862303 0.471656
0.270283 0.862501 0.467094
0.273228 0.862013 0.459083
0.277531 0.860639 0.446204
0.284932 0.858473 0.424979
0.299397 0.85565 0.391989
0.336751 0.858488 0.36022
0.437675 0.863005 0.339223
0.558328 0.860883 0.344076
0.637079 0.860624 0.35288
0.693278 0.861326 0.369116
0.750683 0.859358 0.388739
0.811307 0.851759 0.412543
0.858274 0.844068 0.446708
0.890501 0.837964 0.48307
0.908522 0.830976 0.511528
0.915877 0.823636 0.525032
0.915908 0.81619 0.524819
0.914595 0.809461 0.512001
0.912764 0.799649 0.491157
0.910582 0.778134 0.471427
0.909026 0.744503 0.450065
0.90927 0.693065 0.435447
0.914412 0.668971 0.538155
0.917464 0.675181 0.662379
0.321126 0.866484 0.510292
0.319097 0.869444 0.510262
0.316167 0.872023 0.509636
0.314 0.87451 0.508843
0.311772 0.876738 0.508186
0.310796 0.87837 0.507362
0.310491 0.879576 0.505898
0.311437 0.880156 0.504158
0.312642 0.880522 0.501549
0.313817 0.880583 0.497704
0.315648 0.880247 0.49131
0.318456 0.879561 0.482002
0.324804 0.878691 0.467552
0.339193 0.878569 0.446036
0.371923 0.881239 0.420752
0.43473 0.883879 0.40972
0.539696 0.883284 0.41268
0.631846 0.881346 0.419821
0.697993 0.881331 0.432776
0.749752 0.881407 0.451316
0.803708 0.88011 0.473899
0.852125 0.875288 0.499275
0.885679 0.869093 0.529152
0.906584 0.863981 0.559518
0.918624 0.85771 0.582361
0.921538 0.850446 0.590082
0.921141 0.843244 0.586816
0.920043 0.838056 0.571694
0.917937 0.827787 0.548287
0.91545 0.807797 0.523384
0.912108 0.775311 0.493202
0.909575 0.725063 0.477974
0.915328 0.713878 0.624842
0.348974 0.885191 0.533669
0.347402 0.88716 0.533669
0.345113 0.888945 0.532921
0.343297 0.890654 0.532357
0.341329 0.892302 0.531762
0.3402 0.893477 0.530877
0.33994 0.89427 0.529519
0.340642 0.894621 0.527733
0.341848 0.894835 0.525704
0.342672 0.89485 0.522255
0.343603 0.894682 0.51725
0.34583 0.894408 0.510109
0.354452 0.895048 0.501564
0.371191 0.896422 0.490089
0.398901 0.897765 0.47245
0.458656 0.898741 0.470008
0.526543 0.898024 0.476036
0.614801 0.896223 0.484688
0.692561 0.895277 0.497292
0.749538 0.895232 0.513802
0.798596 0.894942 0.534386
0.843076 0.894865 0.554696
0.878538 0.891829 0.57673
0.900298 0.8869 0.601907
0.914427 0.883528 0.627741
0.920501 0.879118 0.644205
0.921508 0.87364 0.64889
0.921721 0.867689 0.644099
0.921538 0.863478 0.626337
0.920714 0.852384 0.602487
0.91899 0.832715 0.57406
0.915358 0.800763 0.538201
0.912795 0.757214 0.546914
0.379294 0.896117 0.555032
0.379324 0.897063 0.555001
0.378058 0.898329 0.554574
0.376135 0.899596 0.55404
0.375952 0.900694 0.554192
0.375753 0.901457 0.553887
0.376211 0.901854 0.553109
0.377386 0.902068 0.551797
0.37908 0.902098 0.549874
0.379828 0.902037 0.547082
0.379583 0.901915 0.542443
0.381964 0.9019 0.537514
0.388342 0.901884 0.531334
0.407782 0.902464 0.526421
0.442863 0.903334 0.525231
0.489601 0.903746 0.523461
0.540444 0.904112 0.528359
0.602304 0.903181 0.538796
0.67863 0.902037 0.551019
0.745342 0.901762 0.567102
0.795529 0.902113 0.587015
0.838254 0.902403 0.607324
0.872724 0.903197 0.626047
0.896132 0.90164 0.646754
0.910552 0.898405 0.669245
0.918593 0.896391 0.690471
0.921141 0.893721 0.701579
0.921004 0.890043 0.703471
0.920989 0.885756 0.696269
0.920775 0.881697 0.676005
0.920714 0.871687 0.652415
0.919478 0.851804 0.620981
0.917937 0.818555 0.585565
0.438636 0.900893 0.586252
0.439857 0.901457 0.586786
0.439063 0.902312 0.586648
0.437751 0.903227 0.586221
0.438468 0.904158 0.587015
0.439368 0.904814 0.587457
0.440558 0.90518 0.587488
0.442832 0.905318 0.587182
0.444862 0.905241 0.58587
0.44596 0.905226 0.583932
0.44625 0.905211 0.581003
0.446677 0.90515 0.576944
0.454124 0.905211 0.574655
0.469062 0.905211 0.573709
0.491447 0.905409 0.573526
0.524346 0.905547 0.575036
0.566033 0.905669 0.577401
0.609979 0.905684 0.584726
0.664805 0.904723 0.596155
0.731655 0.903929 0.609659
0.788235 0.90425 0.627161
0.831373 0.904875 0.647837
0.867338 0.905943 0.667216
0.891585 0.907897 0.685893
0.907973 0.907622 0.707469
0.917128 0.90544 0.727459
0.921126 0.904356 0.743999
0.921553 0.902602 0.751675
0.920958 0.900191 0.751858
0.92076 0.897719 0.743954
0.920607 0.894408 0.722957
0.920592 0.885466 0.699107
0.920317 0.868376 0.665522
0.517998 0.903243 0.6309
0.520577 0.903639 0.6327
0.521019 0.904433 0.633463
0.520562 0.905287 0.634028
0.521935 0.906142 0.635538
0.523857 0.906706 0.636774
0.525307 0.906981 0.637278
0.527459 0.906996 0.637766
0.529015 0.906905 0.637217
0.530159 0.906813 0.63595
0.529793 0.906737 0.633433
0.529427 0.906783 0.630045
0.527321 0.906767 0.624811
0.534066 0.906691 0.622705
0.54876 0.906538 0.62327
0.56907 0.906569 0.624765
0.597086 0.906584 0.626673
0.631891 0.906722 0.630472
0.671717 0.906355 0.639124
0.720043 0.905547 0.650233
0.777188 0.905104 0.662867
0.823178 0.905821 0.6795
0.858976 0.906538 0.697398
0.885283 0.907912 0.714244
0.901839 0.909209 0.730327
0.912993 0.908721 0.749432
0.920317 0.909392 0.773602
0.92224 0.909209 0.789532
0.921904 0.908278 0.79585
0.921416 0.907134 0.797101
0.921126 0.905577 0.787289
0.920913 0.902617 0.767285
0.92076 0.895674 0.74313
0.594018 0.905028 0.679957
0.596323 0.905119 0.681392
0.596567 0.905501 0.682277
0.595651 0.906188 0.682811
0.596338 0.906966 0.684459
0.597681 0.907561 0.686122
0.599207 0.907912 0.68748
0.600687 0.907973 0.687846
0.602213 0.907866 0.687526
0.603464 0.907698 0.686595
0.603601 0.907546 0.684779
0.603281 0.907485 0.682506
0.601694 0.907408 0.678553
0.600031 0.907393 0.673732
0.60679 0.907408 0.672602
0.619074 0.907347 0.673228
0.636088 0.907286 0.674952
0.660029 0.907347 0.677455
0.690547 0.907332 0.682033
0.726146 0.906844 0.690272
0.767712 0.906661 0.701396
0.816434 0.907012 0.714015
0.852415 0.907713 0.728725
0.879499 0.908583 0.744564
0.8981 0.910079 0.758801
0.909636 0.910826 0.772839
0.917144 0.910262 0.788769
0.922057 0.91165 0.812177
0.922789 0.912459 0.828412
0.922332 0.912474 0.83621
0.922133 0.911711 0.836637
0.922423 0.910399 0.824796
