bundles/resolve-cinematic-luts/Phantom Luts/A7s3 Phntm Film LUTs - G6/ATOMOS Monitor LUTs/Slog3/Eterna A7s3-Legacy AML.cube
TITLE "Generated by Resolve"
LUT_3D_SIZE 33
0.0800031 0.103838 0.103929
0.0800031 0.103838 0.103929
0.0800488 0.103822 0.103868
0.0803998 0.103716 0.103517
0.0842603 0.10396 0.10338
0.0905165 0.104051 0.102403
0.099321 0.104036 0.100816
0.11043 0.103929 0.0996414
0.124041 0.104402 0.0992447
0.13901 0.105364 0.0999313
0.156008 0.106889 0.10161
0.175662 0.108843 0.104723
0.200443 0.111192 0.109056
0.229068 0.113527 0.116732
0.263478 0.116457 0.127123
0.299321 0.119417 0.139055
0.336294 0.122438 0.151583
0.374151 0.125734 0.165209
0.415763 0.129427 0.181338
0.458167 0.133989 0.198459
0.50454 0.139162 0.218051
0.556664 0.145953 0.24065
0.615351 0.156039 0.267323
0.672633 0.170108 0.297704
0.719951 0.188174 0.328923
0.754818 0.206912 0.357824
0.784817 0.227283 0.387945
0.815473 0.250004 0.421332
0.846433 0.275761 0.459083
0.872694 0.305516 0.498726
0.889082 0.337758 0.536538
0.900038 0.370733 0.571298
0.906584 0.401373 0.601968
0.0800031 0.103838 0.103929
0.0800031 0.103838 0.103929
0.0800031 0.103838 0.103929
0.0802319 0.103807 0.103807
0.084062 0.104189 0.103822
0.0903487 0.104463 0.10338
0.100206 0.104494 0.101778
0.113191 0.104479 0.100145
0.127306 0.104921 0.0993057
0.14255 0.105928 0.0998703
0.159838 0.107393 0.1019
0.180453 0.109224 0.105409
0.206027 0.111513 0.109789
0.235721 0.114153 0.115404
0.269856 0.117067 0.126192
0.305028 0.119692 0.137774
0.342397 0.123247 0.151476
0.381247 0.126619 0.165606
0.4224 0.130098 0.181445
0.465232 0.134478 0.198795
0.512322 0.140108 0.21886
0.5664 0.147494 0.242878
0.62562 0.158099 0.270222
0.682475 0.173236 0.301885
0.725612 0.19144 0.332021
0.760037 0.210742 0.361547
0.789624 0.230915 0.391348
0.820722 0.254246 0.42594
0.850782 0.28011 0.463569
0.876036 0.310826 0.504204
0.891676 0.343694 0.54226
0.901289 0.375723 0.576181
0.907774 0.405707 0.606607
0.0800031 0.103838 0.103929
0.0800031 0.103838 0.103929
0.0800031 0.103838 0.103929
0.0801404 0.103838 0.103929
0.0832227 0.104265 0.104097
0.0887312 0.104601 0.10399
0.0979934 0.104753 0.103044
0.111147 0.104921 0.101534
0.125765 0.105226 0.100298
0.141894 0.106111 0.100359
0.160021 0.107546 0.10222
0.181979 0.109392 0.105715
0.20827 0.111528 0.11046
0.238773 0.114275 0.116518
0.273548 0.117144 0.125902
0.309392 0.120043 0.137636
0.347036 0.123491 0.151308
0.386709 0.127184 0.165835
0.427893 0.130968 0.181537
0.471565 0.135531 0.199313
0.519936 0.14136 0.220035
0.573587 0.14847 0.244053
0.635081 0.16022 0.272969
0.690196 0.175967 0.304723
0.731029 0.194293 0.335042
0.764309 0.213733 0.364446
0.795087 0.235279 0.39617
0.825315 0.258396 0.430442
0.855207 0.285054 0.468681
0.878889 0.31632 0.509194
0.89366 0.348989 0.547585
0.902739 0.381521 0.58172
0.908507 0.410529 0.611093
0.0800336 0.103868 0.10396
0.0800336 0.103899 0.10396
0.0800946 0.103838 0.103914
0.0801404 0.103853 0.103944
0.0822766 0.104356 0.104128
0.0863813 0.104601 0.104067
0.0937819 0.104997 0.103777
0.107485 0.105226 0.102632
0.123507 0.105623 0.101427
0.140734 0.106416 0.101137
0.159991 0.107698 0.102708
0.183047 0.109606 0.105989
0.209949 0.111757 0.110811
0.24123 0.114137 0.118029
0.276997 0.117144 0.126665
0.313619 0.120073 0.138613
0.351034 0.123171 0.151812
0.39089 0.127413 0.16669
0.432395 0.131411 0.182162
0.47631 0.136278 0.2
0.525307 0.142199 0.220706
0.580514 0.150225 0.24567
0.640406 0.161547 0.274083
0.694636 0.177829 0.306004
0.733974 0.195697 0.335744
0.766049 0.215198 0.365179
0.795697 0.235904 0.395636
0.825406 0.258366 0.42974
0.854582 0.28452 0.467063
0.878019 0.314885 0.506279
0.892821 0.346563 0.544015
0.902052 0.377356 0.577493
0.908125 0.405432 0.606958
0.0807507 0.105653 0.104921
0.0809186 0.106065 0.104921
0.0812085 0.106126 0.104845
0.0814679 0.105608 0.104646
0.0828565 0.105943 0.104723
0.0860914 0.106279 0.104814
0.0923629 0.106447 0.10428
0.105516 0.106844 0.103563
0.122164 0.106966 0.102708
0.140963 0.1075 0.102541
0.161639 0.108461 0.10341
0.185489 0.109743 0.105592
0.214176 0.112261 0.110597
0.246479 0.114626 0.118364
0.281483 0.116777 0.127535
0.318639 0.120012 0.140154
0.357916 0.12343 0.152972
0.398459 0.127245 0.167712
0.440497 0.13196 0.184161
0.484703 0.137011 0.202014
0.534859 0.143572 0.223438
0.591379 0.152102 0.249012
0.650767 0.16466 0.27837
0.703075 0.181262 0.31017
0.741802 0.200046 0.340368
0.772183 0.219501 0.36965
0.80325 0.241413 0.402594
0.833158 0.26482 0.437858
0.862318 0.293492 0.476509
0.883207 0.325048 0.516701
0.896239 0.357183 0.554101
0.904479 0.387976 0.587259
0.909667 0.416052 0.616541
0.0838941 0.113268 0.108141
0.0838941 0.113741 0.107836
0.0839704 0.113664 0.1075
0.0848707 0.113283 0.107393
0.0874037 0.11313 0.107485
0.0915847 0.113252 0.107424
0.0983749 0.112947 0.106798
0.110536 0.113405 0.10576
0.12697 0.112734 0.104723
0.144717 0.111803 0.104341
0.166293 0.111986 0.104982
0.192355 0.111971 0.106325
0.221805 0.112566 0.10956
0.254078 0.114519 0.11632
0.290639 0.117525 0.126574
0.327688 0.120195 0.140078
0.367407 0.123659 0.15433
0.410422 0.127871 0.168994
0.453696 0.132265 0.186206
0.500435 0.137392 0.205585
0.551873 0.144427 0.228199
0.608865 0.154192 0.254307
0.66598 0.167941 0.284642
0.712734 0.18555 0.315557
0.749569 0.204761 0.345815
0.779553 0.224735 0.37557
0.811276 0.24773 0.409903
0.841382 0.272419 0.446281
0.86894 0.302586 0.485634
0.8878 0.335149 0.525948
0.899504 0.367727 0.563516
0.906538 0.398123 0.596811
0.911131 0.426291 0.626123
0.0865644 0.123522 0.112215
0.0864576 0.124712 0.111589
0.0865492 0.124926 0.111025
0.0869612 0.124514 0.110124
0.0902571 0.124147 0.110307
0.0957656 0.124743 0.110811
0.104189 0.12343 0.110246
0.118135 0.122499 0.109239
0.133715 0.121431 0.107591
0.149691 0.119554 0.106386
0.171405 0.118486 0.106676
0.197238 0.117586 0.107454
0.226764 0.115084 0.10898
0.258061 0.114092 0.113069
0.294331 0.116487 0.122087
0.332708 0.120607 0.135393
0.375525 0.124666 0.153216
0.418097 0.12874 0.169802
0.463813 0.134554 0.186526
0.510765 0.139406 0.205936
0.565667 0.147265 0.230655
0.624811 0.157305 0.258717
0.680201 0.171786 0.289937
0.723293 0.189792 0.320775
0.757519 0.209537 0.350866
0.787488 0.230732 0.381552
0.818814 0.254154 0.416266
0.848936 0.280598 0.453605
0.874662 0.312337 0.493324
0.890669 0.345342 0.532631
0.901137 0.378302 0.569558
0.907774 0.408728 0.601617
0.91191 0.435813 0.629282
0.0915541 0.138552 0.114931
0.0908064 0.141054 0.115328
0.0902571 0.142 0.115114
0.0903334 0.142092 0.11426
0.0916915 0.141573 0.113619
0.0983291 0.142855 0.114244
0.106935 0.142916 0.114763
0.122744 0.140475 0.114122
0.142535 0.137591 0.112825
0.16025 0.135286 0.111635
0.18085 0.132158 0.111299
0.204837 0.129198 0.112001
0.233341 0.125368 0.113085
0.265782 0.119692 0.114626
0.299275 0.11603 0.119249
0.33817 0.118639 0.13022
0.382254 0.1234 0.147265
0.430243 0.129641 0.168383
0.475547 0.134646 0.187503
0.523766 0.140764 0.207874
0.581994 0.150561 0.232151
0.64181 0.161395 0.261921
0.694301 0.176425 0.294102
0.734127 0.194568 0.325216
0.765896 0.214374 0.35523
0.796063 0.236561 0.387198
0.827146 0.260975 0.422477
0.855833 0.288441 0.459922
0.879515 0.321309 0.500237
0.89398 0.354513 0.539483
0.903349 0.387396 0.576089
0.909346 0.417899 0.608484
0.912902 0.44445 0.635966
0.09514 0.157397 0.12076
0.093843 0.15996 0.120745
0.0933089 0.161471 0.120302
0.0933547 0.162036 0.118914
0.0937209 0.161913 0.117205
0.0979171 0.163165 0.116762
0.106737 0.164508 0.1178
0.121996 0.164614 0.11873
0.144625 0.161318 0.118074
0.169406 0.158129 0.117449
0.194568 0.154437 0.117891
0.222477 0.148501 0.11931
0.249042 0.143572 0.120516
0.278111 0.134859 0.120775
0.3093 0.125841 0.120989
0.343771 0.120485 0.125856
0.383078 0.120119 0.137087
0.431754 0.125719 0.157488
0.487724 0.136355 0.184512
0.539742 0.141772 0.209308
0.592035 0.148913 0.235676
0.655604 0.164843 0.2636
0.707774 0.18262 0.295888
0.742596 0.200092 0.326162
0.77258 0.219272 0.356573
0.803403 0.241749 0.389929
0.834485 0.267323 0.426535
0.862654 0.296544 0.464973
0.883421 0.330159 0.505333
0.896376 0.363348 0.544381
0.904891 0.395346 0.580545
0.910399 0.42562 0.613031
0.913725 0.45211 0.640818
0.0985428 0.178683 0.127352
0.0970321 0.181476 0.127047
0.0960098 0.184131 0.126253
0.0959487 0.185336 0.124727
0.0964218 0.185763 0.122362
0.0976425 0.186709 0.120317
0.103685 0.187915 0.120394
0.118151 0.189853 0.121279
0.141451 0.190921 0.122515
0.169635 0.186023 0.122118
0.202045 0.183124 0.122728
0.240665 0.176379 0.126192
0.27274 0.167773 0.129244
0.302388 0.158114 0.130495
0.333288 0.148074 0.131212
0.362066 0.137163 0.131334
0.394385 0.128588 0.134844
0.430625 0.123354 0.144366
0.479744 0.126909 0.165347
0.551308 0.145266 0.200855
0.615335 0.155276 0.233524
0.665797 0.166201 0.265385
0.714672 0.185245 0.296498
0.749966 0.206592 0.323842
0.779187 0.225498 0.355169
0.809232 0.247028 0.389242
0.839918 0.273167 0.427039
0.867948 0.303944 0.467506
0.886946 0.337835 0.507988
0.898497 0.370855 0.546746
0.906264 0.403128 0.58323
0.911315 0.433097 0.615854
0.914519 0.458732 0.643641
0.101381 0.205936 0.13666
0.09897 0.209293 0.135744
0.0971847 0.212802 0.13431
0.0971389 0.214771 0.132555
0.0976272 0.216068 0.129915
0.0986038 0.218189 0.12752
0.100023 0.219196 0.122591
0.111284 0.219959 0.122011
0.134691 0.222827 0.124743
0.164584 0.224537 0.126894
0.202152 0.219272 0.127855
0.244968 0.216129 0.129412
0.296864 0.207172 0.137346
0.338476 0.193515 0.144076
0.370977 0.181842 0.147173
0.400977 0.172137 0.14789
0.431968 0.159838 0.149126
0.462165 0.146822 0.151568
0.490852 0.1337 0.156359
0.531533 0.127535 0.172839
0.613367 0.150668 0.214923
0.679683 0.17258 0.256611
0.722438 0.189517 0.292988
0.749065 0.205585 0.322011
0.785595 0.232609 0.349538
0.814725 0.253651 0.384604
0.845685 0.28043 0.424445
0.872129 0.311284 0.465919
0.889525 0.34551 0.507347
0.90042 0.378927 0.547402
0.907622 0.41059 0.584115
0.912139 0.440131 0.617151
0.914992 0.465721 0.64567
0.104555 0.24033 0.148608
0.101244 0.245441 0.148104
0.0986496 0.249699 0.146227
0.0984512 0.252735 0.144015
0.0987716 0.255543 0.141085
0.0994736 0.258488 0.138155
0.101045 0.261341 0.135103
0.104311 0.26157 0.128313
0.121202 0.262089 0.125261
0.156298 0.265934 0.12871
0.195361 0.268605 0.131228
0.246494 0.265339 0.133593
0.303593 0.263996 0.135653
0.367956 0.255451 0.150454
0.421256 0.239887 0.163928
0.46128 0.226246 0.171969
0.494591 0.217304 0.175265
0.528603 0.2038 0.177111
0.558145 0.186648 0.178347
0.576425 0.159976 0.177676
0.605768 0.144869 0.191791
0.660517 0.157382 0.226627
0.720378 0.186587 0.270558
0.75903 0.214618 0.311543
0.782773 0.229007 0.347402
0.819699 0.260136 0.377874
0.851423 0.289631 0.416861
0.875715 0.320073 0.459678
0.891981 0.353567 0.503136
0.902113 0.386999 0.544305
0.908766 0.418387 0.582528
0.912902 0.44741 0.616587
0.915602 0.473365 0.646647
0.108125 0.285725 0.163104
0.103578 0.292165 0.162051
0.100542 0.298878 0.160891
0.0998703 0.30425 0.159503
0.0998245 0.308446 0.15697
0.101564 0.3131 0.153796
0.103227 0.317082 0.1505
0.105486 0.319677 0.146181
0.11075 0.318944 0.135943
0.133364 0.319097 0.130343
0.181994 0.32488 0.132525
0.234104 0.328695 0.132815
0.303426 0.327153 0.135851
0.373404 0.326894 0.1337
0.44596 0.31899 0.157366
0.51017 0.305516 0.177417
0.563531 0.288945 0.19292
0.600366 0.279271 0.199725
0.640482 0.259922 0.206165
0.672862 0.241352 0.209415
0.685664 0.213199 0.21117
0.687739 0.187121 0.218097
0.6972 0.17258 0.233494
0.737911 0.199237 0.269474
0.791516 0.241856 0.322103
0.820584 0.261738 0.368994
0.853346 0.293904 0.40853
0.879454 0.331121 0.448478
0.89453 0.36379 0.49427
0.903914 0.396445 0.538293
0.910079 0.427863 0.578363
0.913863 0.456291 0.614908
0.916304 0.481834 0.645518
0.114061 0.347204 0.17995
0.109346 0.355337 0.179568
0.106401 0.362753 0.178729
0.104509 0.368994 0.176928
0.103105 0.374762 0.174411
0.103044 0.38056 0.171939
0.103807 0.385504 0.168521
0.105211 0.388968 0.164096
0.10724 0.391073 0.157412
0.113268 0.388785 0.141802
0.149218 0.38883 0.132555
0.213886 0.393622 0.131624
0.283162 0.396933 0.129305
0.367971 0.396689 0.133974
0.445151 0.396796 0.129168
0.522347 0.391165 0.163577
0.591089 0.382269 0.18854
0.658381 0.364462 0.211292
0.69839 0.355413 0.221271
0.743847 0.328756 0.235233
0.773816 0.305455 0.244648
0.784039 0.282277 0.250324
0.780301 0.253025 0.251316
0.739071 0.208927 0.238956
0.763516 0.223651 0.269947
0.81854 0.269947 0.3299
0.857282 0.304433 0.39115
0.879057 0.33022 0.444526
0.894759 0.363684 0.492927
0.905638 0.408469 0.529229
0.911086 0.439582 0.572869
0.914656 0.467384 0.611673
0.917006 0.492256 0.644327
0.115373 0.420935 0.198901
0.11075 0.430472 0.198779
0.106737 0.438178 0.197543
0.104051 0.445151 0.195666
0.101732 0.45182 0.193973
0.100526 0.457984 0.191989
0.100542 0.463432 0.18996
0.101198 0.466773 0.185855
0.103685 0.468803 0.178668
0.107424 0.470039 0.169314
0.117159 0.466529 0.145113
0.174334 0.465766 0.132845
0.261128 0.468421 0.131975
0.343801 0.47187 0.131167
0.435309 0.471427 0.142535
0.513832 0.470665 0.138979
0.590143 0.466087 0.175814
0.658961 0.459007 0.208255
0.730129 0.442557 0.235691
0.775952 0.430915 0.251179
0.817548 0.408453 0.267338
0.843793 0.382864 0.282445
0.850278 0.353841 0.288289
0.836561 0.325978 0.280858
0.812192 0.287877 0.268696
0.803601 0.268864 0.279515
0.845762 0.307591 0.337774
0.883879 0.353506 0.415351
0.896788 0.374975 0.481498
0.906142 0.410758 0.529274
0.912444 0.452476 0.565209
0.91577 0.480888 0.607126
0.917723 0.505684 0.642939
0.118441 0.499733 0.22504
0.114153 0.50869 0.22536
0.110307 0.516945 0.225193
0.106798 0.523964 0.223987
0.10396 0.530831 0.222705
0.102876 0.537087 0.221698
0.10309 0.541573 0.220264
0.104662 0.544945 0.217227
0.106966 0.547219 0.211124
0.111208 0.547936 0.200092
0.116884 0.5467 0.186358
0.137346 0.541543 0.152178
0.222263 0.540825 0.143938
0.328878 0.540841 0.145815
0.415961 0.545434 0.150927
0.504509 0.542992 0.165591
0.580331 0.540978 0.164645
0.653834 0.536477 0.19678
0.723369 0.529747 0.234043
0.791409 0.515984 0.263691
0.838605 0.504097 0.283467
0.87097 0.489387 0.299367
0.888151 0.467948 0.312886
0.883101 0.435248 0.314595
0.872206 0.398611 0.308919
0.854322 0.356725 0.296574
0.846754 0.331548 0.303258
0.874571 0.358144 0.35668
0.90013 0.400351 0.443397
0.908141 0.423941 0.519478
0.913375 0.459846 0.566491
0.916838 0.496254 0.603159
0.918517 0.521553 0.642176
0.12929 0.575372 0.261616
0.126329 0.583368 0.262425
0.122728 0.591226 0.262989
0.119738 0.598306 0.26247
0.116869 0.605005 0.26186
0.116503 0.61149 0.261891
0.117052 0.615305 0.26067
0.119448 0.618173 0.258625
0.12256 0.620203 0.253666
0.127459 0.620798 0.244144
0.134096 0.619135 0.227863
0.142855 0.615671 0.206226
0.180591 0.610559 0.168093
0.295323 0.611414 0.168139
0.407813 0.61117 0.167712
0.484627 0.615488 0.177234
0.568078 0.610788 0.19266
0.641016 0.606973 0.196658
0.712535 0.602136 0.225895
0.780285 0.595193 0.26482
0.840955 0.584131 0.295674
0.880781 0.572564 0.315373
0.899351 0.562417 0.326833
0.903868 0.546853 0.331151
0.901503 0.523293 0.329931
0.896178 0.485328 0.327016
0.883833 0.429969 0.320378
0.87689 0.391974 0.327291
0.897551 0.416205 0.390951
0.910643 0.450294 0.488136
0.914611 0.47245 0.563119
0.917388 0.504494 0.611307
0.919097 0.534615 0.648936
0.15198 0.647059 0.304387
0.149737 0.654978 0.305257
0.146456 0.662303 0.305486
0.143664 0.669444 0.30547
0.141176 0.675929 0.305348
0.141039 0.681804 0.305623
0.142031 0.685893 0.305028
0.14432 0.68835 0.30309
0.147677 0.689754 0.298924
0.151781 0.690471 0.291112
0.157778 0.688319 0.275929
0.166232 0.684337 0.255192
0.178363 0.67866 0.222797
0.252567 0.678614 0.194522
0.381003 0.679515 0.196262
0.478874 0.679133 0.196109
0.54902 0.682307 0.209171
0.62681 0.675151 0.225711
0.696941 0.668528 0.23415
0.765606 0.663371 0.261494
0.828138 0.65536 0.299321
0.875547 0.645594 0.327138
0.901091 0.635096 0.34403
0.908125 0.626612 0.347997
0.908095 0.614923 0.346059
0.908721 0.593515 0.344823
0.907256 0.558419 0.342107
0.900664 0.502113 0.336431
0.895888 0.450752 0.347219
0.911116 0.474311 0.439689
0.916579 0.498283 0.538643
0.918395 0.520104 0.61091
0.9196 0.542794 0.664851
0.185748 0.715419 0.34963
0.184298 0.723095 0.351095
0.181338 0.730129 0.351919
0.178836 0.736736 0.352255
0.176379 0.742702 0.352285
0.176455 0.747982 0.352651
0.177218 0.7514 0.351965
0.179675 0.75375 0.350362
0.182559 0.75491 0.346609
0.18584 0.755169 0.33962
0.189899 0.753094 0.327779
0.196124 0.749126 0.309041
0.206668 0.743358 0.280781
0.234623 0.740337 0.245411
0.346395 0.745754 0.230488
0.464256 0.745235 0.230793
0.54493 0.744991 0.234531
0.609522 0.745571 0.249363
0.683146 0.737011 0.265965
0.750423 0.728191 0.277073
0.812634 0.72079 0.304799
0.865354 0.712016 0.342733
0.896925 0.702419 0.368277
0.909148 0.693111 0.380072
0.908995 0.685115 0.376287
0.908537 0.674296 0.367559
0.909422 0.650767 0.361883
0.910201 0.615244 0.357214
0.909072 0.560693 0.3514
0.906905 0.498726 0.369436
0.91754 0.525246 0.499382
0.919646 0.547036 0.590219
0.920592 0.566384 0.657557
0.229755 0.77789 0.396506
0.228107 0.78378 0.397604
0.225208 0.789944 0.398413
0.22237 0.795499 0.398749
0.219821 0.801007 0.398917
0.218997 0.805173 0.398749
0.219425 0.808026 0.398001
0.221073 0.809857 0.396475
0.222644 0.810651 0.393225
0.225208 0.810788 0.387717
0.228031 0.809461 0.378363
0.231662 0.806195 0.362921
0.240131 0.801129 0.337697
0.25594 0.796902 0.308019
0.315419 0.801678 0.278767
0.437934 0.805783 0.27155
0.535286 0.803174 0.272282
0.603159 0.803281 0.279164
0.663264 0.801755 0.294179
0.733486 0.791821 0.310155
0.79855 0.782315 0.328099
0.853483 0.773999 0.363561
0.892027 0.764889 0.3991
0.909636 0.75613 0.419303
0.911742 0.746532 0.423301
0.911192 0.737423 0.415915
0.910292 0.725231 0.401297
0.91046 0.699916 0.391028
0.910948 0.661051 0.380789
0.912093 0.605188 0.37435
0.915923 0.560693 0.421912
0.920073 0.57557 0.555718
0.921599 0.593942 0.639979
0.272999 0.827909 0.439628
0.270573 0.832624 0.440116
0.266377 0.837552 0.439979
0.262623 0.842359 0.439597
0.259602 0.847028 0.439597
0.258061 0.850217 0.438804
0.258076 0.85243 0.438193
0.259083 0.853803 0.436652
0.260227 0.854765 0.433814
0.262257 0.855024 0.429892
0.264424 0.853971 0.422477
0.266957 0.851865 0.410407
0.27274 0.848508 0.390387
0.285374 0.844648 0.362554
0.317372 0.847791 0.33753
0.402502 0.85449 0.317418
0.514015 0.853346 0.315526
0.596841 0.850324 0.318837
0.654856 0.850019 0.32932
0.713008 0.847791 0.347082
0.78143 0.838804 0.369207
0.840696 0.829328 0.399008
0.884398 0.8206 0.434775
0.908934 0.81149 0.462608
0.915419 0.801892 0.475425
0.915373 0.79202 0.475029
0.914519 0.783093 0.463798
0.913115 0.770062 0.445487
0.912032 0.743572 0.43006
0.912032 0.702113 0.411231
0.914275 0.642802 0.400351
0.918746 0.612161 0.492271
0.921859 0.624353 0.613657
0.312276 0.864256 0.474311
0.309468 0.867643 0.474281
0.306065 0.87097 0.473823
0.303456 0.873533 0.473091
0.302388 0.87602 0.472984
0.302312 0.877562 0.472358
0.302754 0.878401 0.471122
0.304173 0.87895 0.469566
0.305638 0.879332 0.467491
0.306905 0.879362 0.464042
0.30837 0.878874 0.458366
0.310658 0.878004 0.449516
0.315923 0.876951 0.436255
0.327276 0.876371 0.417548
0.35581 0.879316 0.395041
0.405676 0.882856 0.382071
0.499367 0.883635 0.37911
0.589837 0.881071 0.38204
0.659831 0.879957 0.389227
0.713619 0.880034 0.403616
0.769909 0.878035 0.425971
0.83151 0.871656 0.454017
0.87776 0.86302 0.481971
0.906218 0.855207 0.511254
0.91928 0.846784 0.532723
0.920714 0.837415 0.538918
0.920104 0.827985 0.534646
0.918914 0.82089 0.519585
0.91751 0.807721 0.497276
0.915557 0.781323 0.474388
0.913176 0.739956 0.448814
0.914366 0.676555 0.434928
0.920577 0.666209 0.576547
0.339101 0.886656 0.499641
0.337133 0.889036 0.499779
0.333867 0.890883 0.498756
0.331411 0.892592 0.497887
0.329778 0.89395 0.497047
0.329076 0.894728 0.496132
0.32932 0.895232 0.495109
0.330053 0.895491 0.493523
0.331182 0.895659 0.491508
0.331991 0.895644 0.48867
0.333028 0.89543 0.483726
0.334997 0.895155 0.477272
0.342428 0.896132 0.469642
0.355596 0.898207 0.460014
0.377997 0.899626 0.442527
0.426413 0.901579 0.435645
0.486427 0.9019 0.437415
0.570916 0.900053 0.442283
0.649744 0.898543 0.451896
0.71339 0.898268 0.464958
0.764233 0.898222 0.48397
0.817304 0.897093 0.508217
0.866712 0.892851 0.532753
0.898451 0.886503 0.558846
0.916869 0.881224 0.584665
0.922606 0.874647 0.598581
0.922438 0.866926 0.600336
0.921859 0.858595 0.593698
0.921309 0.853025 0.574594
0.920455 0.839658 0.549935
0.918364 0.814084 0.521187
0.91548 0.772519 0.487922
0.91516 0.717159 0.499001
0.359503 0.897627 0.518318
0.358343 0.898772 0.517906
0.356313 0.900114 0.517235
0.354345 0.901274 0.516472
0.353613 0.902174 0.515938
0.353536 0.902846 0.51548
0.354086 0.903212 0.514733
0.355138 0.903288 0.513405
0.356527 0.903258 0.511772
0.35729 0.903181 0.509133
0.357427 0.903044 0.505089
0.359243 0.903014 0.500374
0.364172 0.903029 0.494224
0.379324 0.90399 0.488533
0.40911 0.905577 0.484916
0.44979 0.906905 0.481468
0.496193 0.907378 0.48397
0.555352 0.906844 0.491997
0.631373 0.905791 0.502403
0.702739 0.905241 0.51632
0.759777 0.905394 0.534295
0.808133 0.905608 0.556374
0.854307 0.906035 0.580697
0.889357 0.903914 0.6047
0.910292 0.900298 0.629694
0.920165 0.897642 0.651087
0.921874 0.892989 0.658732
0.921981 0.887922 0.658701
0.921843 0.881926 0.649973
0.921294 0.877653 0.628305
0.920577 0.864668 0.602136
0.919188 0.838026 0.568322
0.91783 0.795377 0.533318
0.40415 0.903639 0.543725
0.403998 0.904402 0.543801
0.402655 0.905394 0.543526
0.400748 0.906279 0.542794
0.401114 0.906996 0.542992
0.402182 0.907485 0.54316
0.403418 0.907759 0.542992
0.405386 0.907897 0.542596
0.407416 0.907805 0.541344
0.408621 0.90779 0.539452
0.409155 0.907713 0.536522
0.40972 0.907637 0.532677
0.41622 0.90782 0.530282
0.429313 0.908095 0.528817
0.448768 0.90837 0.527794
0.47924 0.908598 0.528145
0.518517 0.908843 0.529595
0.560815 0.908598 0.535271
0.615747 0.907515 0.545586
0.684047 0.906233 0.557351
0.74699 0.905715 0.572839
0.796506 0.905715 0.591943
0.841474 0.906325 0.613947
0.878126 0.907454 0.635859
0.903716 0.907515 0.66212
0.917571 0.906462 0.688579
0.922133 0.905791 0.70753
0.921538 0.903212 0.712413
0.921248 0.899931 0.710872
0.921279 0.896727 0.701534
0.92108 0.893095 0.679362
0.92076 0.881636 0.651682
0.919921 0.859052 0.614298
0.47361 0.906432 0.584421
0.474647 0.907073 0.585443
0.474113 0.908019 0.58587
0.473091 0.908919 0.586038
0.474311 0.909636 0.587381
0.476219 0.909972 0.588602
0.477882 0.910033 0.588998
0.480461 0.910033 0.589471
0.481819 0.909987 0.588983
0.482872 0.909911 0.58761
0.482628 0.90985 0.584848
0.482383 0.909773 0.58172
0.480949 0.909789 0.576364
0.487129 0.909697 0.574456
0.501076 0.909712 0.574807
0.520119 0.90956 0.575692
0.547402 0.909575 0.57702
0.581323 0.909468 0.579843
0.620478 0.908827 0.587427
0.670024 0.907866 0.598138
0.730953 0.906706 0.610071
0.786328 0.906264 0.626078
0.829862 0.906462 0.64564
0.867964 0.907057 0.66537
0.893339 0.908171 0.682094
0.911299 0.907927 0.70425
0.920913 0.907652 0.730266
0.92195 0.908156 0.747677
0.921599 0.908125 0.756939
0.92134 0.9075 0.759884
0.921263 0.90605 0.749828
0.921294 0.902846 0.728099
0.920851 0.89427 0.699779
0.544823 0.907652 0.631739
0.545907 0.908064 0.633036
0.545296 0.908827 0.633768
0.543969 0.909651 0.634058
0.544488 0.91017 0.635508
0.54638 0.910552 0.63714
0.54818 0.91078 0.638453
0.549661 0.910811 0.638834
0.551202 0.910689 0.638498
0.552422 0.910536 0.637507
0.552514 0.91043 0.635615
0.552209 0.910369 0.633249
0.550774 0.910369 0.629023
0.54931 0.910307 0.624277
0.555856 0.910323 0.622934
0.567834 0.910155 0.623316
0.584619 0.909957 0.624582
0.608454 0.909789 0.626581
0.638941 0.909529 0.630396
0.675746 0.908904 0.638346
0.719768 0.907958 0.64921
0.774105 0.90721 0.661479
0.821347 0.907317 0.676997
0.858625 0.90753 0.694713
0.887068 0.908736 0.710857
0.904616 0.909789 0.726574
0.916777 0.908141 0.744549
0.922286 0.909316 0.768246
0.921813 0.910079 0.784695
0.921614 0.910674 0.795987
0.921706 0.910826 0.80032
0.922133 0.909865 0.787884
0.923018 0.907408 0.770535
0.611963 0.907423 0.678676
0.613657 0.907439 0.67982
0.612589 0.908125 0.680644
0.61091 0.908888 0.681239
0.611704 0.909377 0.68275
