bundles/resolve-cinematic-luts/Phantom Luts/A7s3 Phntm Film LUTs - G6/ATOMOS Monitor LUTs/Slog3/Eterna A7s3 AML.cube
TITLE "Generated by Resolve"
LUT_3D_SIZE 5
0.0632639 0.0882124 0.0883955
0.130358 0.0917983 0.0896773
0.376547 0.111238 0.163653
0.752697 0.206104 0.369482
0.909697 0.448173 0.653941
0.0847334 0.173556 0.119753
0.166461 0.180362 0.1149
0.43473 0.115038 0.144121
0.806394 0.243809 0.399466
0.91371 0.50071 0.689418
0.12607 0.62533 0.29778
0.123903 0.668315 0.287526
0.61912 0.658946 0.207874
0.903502 0.591608 0.338521
0.917037 0.583658 0.695506
0.438636 0.900893 0.586252
0.444862 0.905241 0.58587
0.566033 0.905669 0.577401
0.907973 0.907622 0.707469
0.920317 0.868376 0.665522
0.870573 0.913466 0.88452
0.870558 0.91223 0.880781
0.877989 0.911452 0.880064
0.907561 0.91339 0.893278
0.922423 0.919356 0.913039
0.0661631 0.0890364 0.122408
0.137087 0.0928511 0.124392
0.365469 0.1075 0.187457
0.738262 0.185885 0.373983
0.908782 0.429679 0.662333
0.0857099 0.166552 0.151034
0.165545 0.174548 0.17293
0.432883 0.114061 0.189944
0.817304 0.243778 0.439185
0.916808 0.595972 0.780682
0.113313 0.599435 0.32932
0.105119 0.64126 0.317327
0.606714 0.648295 0.201068
0.907958 0.576776 0.361501
0.917388 0.640024 0.763485
0.405203 0.900374 0.599573
0.413565 0.904387 0.594873
0.553872 0.905577 0.568887
0.906569 0.906889 0.699886
0.919829 0.859846 0.662577
0.856641 0.912337 0.876844
0.876402 0.912566 0.885176
0.887587 0.91194 0.8869
0.906966 0.913344 0.893095
0.922133 0.919432 0.912856
0.0824445 0.0889906 0.294072
0.154665 0.0908217 0.328878
0.41471 0.115694 0.304524
0.725414 0.17203 0.424735
0.906081 0.409674 0.685771
0.0738384 0.134173 0.266133
0.065507 0.106706 0.351049
0.45333 0.120394 0.363455
0.738933 0.179843 0.481514
0.915419 0.550301 0.791531
0.108309 0.555947 0.454566
0.10309 0.590082 0.511849
0.570718 0.592935 0.557626
0.912245 0.492149 0.567514
0.91751 0.655039 0.813336
0.371145 0.88571 0.675746
0.351629 0.89543 0.689128
0.48957 0.901915 0.643168
0.903944 0.900175 0.70515
0.917967 0.852781 0.748898
0.842405 0.910552 0.873732
0.858976 0.91371 0.888014
0.894575 0.912245 0.89366
0.907301 0.913161 0.893782
0.925551 0.918135 0.910857
0.11577 0.0960555 0.494026
0.148043 0.0966659 0.54165
0.452842 0.112047 0.555093
0.7393 0.178653 0.594446
0.898009 0.380621 0.769223
0.0733196 0.123201 0.4869
0.0741436 0.121965 0.542245
0.444648 0.116396 0.644327
0.739498 0.18645 0.639719
0.912444 0.522454 0.851301
0.108705 0.536233 0.63653
0.106111 0.543572 0.683909
0.281682 0.537408 0.819791
0.883421 0.351598 0.784772
0.912627 0.531792 0.856062
0.344869 0.862898 0.785092
0.316304 0.864195 0.798032
0.376211 0.872282 0.812543
0.876249 0.875807 0.861616
0.918151 0.825376 0.859464
0.826856 0.907652 0.878126
0.834684 0.912871 0.892683
0.870817 0.914382 0.902083
0.899641 0.914626 0.903243
0.926253 0.9178 0.910445
0.142504 0.111009 0.626337
0.137667 0.115572 0.636423
0.375799 0.120287 0.695003
0.735363 0.178744 0.732204
0.832792 0.286885 0.819333
0.0864271 0.148394 0.623545
0.0905623 0.153994 0.638071
0.135775 0.12282 0.644633
0.727642 0.173739 0.73492
0.90544 0.461784 0.90544
0.140063 0.549325 0.76582
0.145876 0.55256 0.780682
0.147448 0.517845 0.798138
0.839796 0.378592 0.893156
0.906737 0.474052 0.906737
0.328023 0.850919 0.867445
0.31696 0.84094 0.867994
0.316838 0.82594 0.874189
0.764126 0.857359 0.908263
0.908873 0.75877 0.908873
0.77763 0.911025 0.901915
0.78352 0.911254 0.90425
0.799039 0.911788 0.906401
0.871458 0.914839 0.91313
0.921187 0.921187 0.921233
