bundles/resolve-cinematic-luts/Phantom Luts/A7s3 Phntm Film LUTs - G6/ATOMOS Monitor LUTs/Slog3/Eterna A7s3-Legacy AML.cube
TITLE "Generated by Resolve"
LUT_3D_SIZE 9
0.0800031 0.103838 0.103929
0.0842603 0.10396 0.10338
0.124041 0.104402 0.0992447
0.200443 0.111192 0.109056
0.336294 0.122438 0.151583
0.50454 0.139162 0.218051
0.719951 0.188174 0.328923
0.846433 0.275761 0.459083
0.906584 0.401373 0.601968
0.0807507 0.105653 0.104921
0.0828565 0.105943 0.104723
0.122164 0.106966 0.102708
0.214176 0.112261 0.110597
0.357916 0.12343 0.152972
0.534859 0.143572 0.223438
0.741802 0.200046 0.340368
0.862318 0.293492 0.476509
0.909667 0.416052 0.616541
0.09514 0.157397 0.12076
0.0937209 0.161913 0.117205
0.144625 0.161318 0.118074
0.249042 0.143572 0.120516
0.383078 0.120119 0.137087
0.592035 0.148913 0.235676
0.77258 0.219272 0.356573
0.883421 0.330159 0.505333
0.913725 0.45211 0.640818
0.108125 0.285725 0.163104
0.0998245 0.308446 0.15697
0.11075 0.318944 0.135943
0.303426 0.327153 0.135851
0.563531 0.288945 0.19292
0.685664 0.213199 0.21117
0.791516 0.241856 0.322103
0.89453 0.36379 0.49427
0.916304 0.481834 0.645518
0.12929 0.575372 0.261616
0.116869 0.605005 0.26186
0.12256 0.620203 0.253666
0.180591 0.610559 0.168093
0.568078 0.610788 0.19266
0.840955 0.584131 0.295674
0.901503 0.523293 0.329931
0.897551 0.416205 0.390951
0.919097 0.534615 0.648936
0.272999 0.827909 0.439628
0.259602 0.847028 0.439597
0.260227 0.854765 0.433814
0.27274 0.848508 0.390387
0.514015 0.853346 0.315526
0.78143 0.838804 0.369207
0.915419 0.801892 0.475425
0.912032 0.743572 0.43006
0.921859 0.624353 0.613657
0.40415 0.903639 0.543725
0.401114 0.906996 0.542992
0.407416 0.907805 0.541344
0.41622 0.90782 0.530282
0.518517 0.908843 0.529595
0.74699 0.905715 0.572839
0.903716 0.907515 0.66212
0.921248 0.899931 0.710872
0.919921 0.859052 0.614298
0.665675 0.908583 0.724224
0.667094 0.909743 0.727901
0.68188 0.90808 0.732952
0.683299 0.907591 0.728618
0.686564 0.907423 0.718364
0.752194 0.907393 0.730678
0.880598 0.90811 0.772274
0.925643 0.910002 0.821744
0.922469 0.913664 0.862654
0.84126 0.912108 0.866896
0.832898 0.911818 0.860655
0.839399 0.911116 0.861631
0.84448 0.910155 0.859571
0.849012 0.910292 0.860807
0.863783 0.910323 0.865476
0.89688 0.911665 0.880796
0.92015 0.915343 0.895308
0.92105 0.9178 0.907347
0.0804608 0.103761 0.104402
0.0852827 0.104097 0.105104
0.121492 0.105715 0.110109
0.19237 0.110765 0.125872
0.326421 0.119661 0.162417
0.500893 0.132204 0.224918
0.724315 0.178164 0.335042
0.846448 0.267781 0.464652
0.907973 0.396368 0.613642
0.0813001 0.105455 0.104646
0.0842298 0.105867 0.106447
0.132387 0.107347 0.108873
0.218997 0.112551 0.119814
0.358404 0.120317 0.162158
0.547433 0.137346 0.236225
0.760021 0.198077 0.359686
0.877104 0.306096 0.508354
0.91429 0.446571 0.659098
0.0955673 0.155657 0.128817
0.0932174 0.162539 0.1234
0.146715 0.161425 0.118776
0.258701 0.13753 0.122621
0.403876 0.126284 0.155306
0.605539 0.150622 0.242817
0.788663 0.223758 0.377783
0.897093 0.360845 0.550225
0.918715 0.52314 0.715679
0.105928 0.281788 0.173114
0.0979171 0.302663 0.166735
0.106264 0.323323 0.150271
0.304295 0.327291 0.135866
0.555215 0.289677 0.193545
0.692134 0.213916 0.217746
0.799695 0.244572 0.338689
0.901183 0.385153 0.527276
0.919387 0.536568 0.70692
0.124575 0.563333 0.265736
0.109712 0.588205 0.265339
0.115877 0.607523 0.254704
0.164492 0.606699 0.175906
0.562127 0.606943 0.189929
0.839017 0.580728 0.295811
0.902022 0.522133 0.332311
0.903502 0.428916 0.422934
0.920562 0.56968 0.688762
0.263325 0.818494 0.440848
0.249271 0.83798 0.441199
0.250874 0.845472 0.431373
0.266148 0.841764 0.384833
0.499962 0.851148 0.312474
0.77908 0.837079 0.365301
0.914855 0.79968 0.474296
0.911971 0.740276 0.430915
0.922469 0.642969 0.664836
0.389517 0.903471 0.544091
0.389044 0.906783 0.543481
0.397024 0.907439 0.540581
0.407218 0.907195 0.525139
0.516945 0.908766 0.528161
0.741817 0.905699 0.570764
0.903319 0.9075 0.660029
0.921157 0.899199 0.708751
0.919661 0.852247 0.60679
0.655497 0.907835 0.716594
0.656794 0.909331 0.721004
0.675776 0.908003 0.729534
0.679728 0.907561 0.72604
0.688579 0.907423 0.719509
0.752102 0.907362 0.732906
0.879332 0.908125 0.772305
0.925582 0.910033 0.821469
0.923018 0.913344 0.861204
0.833371 0.911788 0.861891
0.832273 0.911696 0.860243
0.84683 0.911177 0.866346
0.855177 0.910536 0.86746
0.858427 0.910552 0.867658
0.869368 0.910506 0.869947
0.896361 0.91162 0.880583
0.920027 0.915267 0.895201
0.921248 0.917723 0.907042
0.0816815 0.104295 0.121569
0.0919356 0.105455 0.124285
0.127962 0.106294 0.121965
0.197726 0.111498 0.137972
0.322408 0.120119 0.169665
0.484504 0.131228 0.228305
0.702419 0.169116 0.329519
0.835508 0.256092 0.457267
0.905837 0.38349 0.60827
0.0822156 0.106996 0.111559
0.0816815 0.105699 0.129061
0.134813 0.107591 0.129961
0.211017 0.11252 0.138491
0.336477 0.120104 0.171359
0.510399 0.132616 0.234592
0.743816 0.187213 0.357046
0.868147 0.291112 0.503853
0.913344 0.436255 0.65803
0.0951553 0.152102 0.140337
0.0934157 0.158068 0.146807
0.143526 0.156497 0.154849
0.272053 0.13518 0.15172
0.382635 0.122927 0.171984
0.569406 0.141787 0.248402
0.785763 0.21915 0.389471
0.898589 0.365301 0.568582
0.919676 0.54696 0.74377
0.105989 0.274464 0.189288
0.0989853 0.296498 0.19176
0.107195 0.313283 0.176211
0.302586 0.323476 0.14374
0.547524 0.273671 0.203571
0.70428 0.210452 0.238331
0.793164 0.234379 0.352895
0.902266 0.387747 0.546242
0.920974 0.568276 0.743908
0.120882 0.548119 0.287617
0.106706 0.572076 0.291569
0.109758 0.59057 0.277821
0.142718 0.600061 0.199557
0.55555 0.599817 0.18735
0.82742 0.569894 0.299748
0.90367 0.511284 0.34548
0.905943 0.432334 0.445457
0.921569 0.591546 0.723903
0.249561 0.804227 0.453407
0.232853 0.821378 0.455634
0.231266 0.825437 0.4421
0.248081 0.826368 0.390494
0.467521 0.842756 0.309667
0.770596 0.828321 0.353506
0.914626 0.791699 0.480873
0.912917 0.73698 0.450065
0.922545 0.645106 0.698909
0.375494 0.902876 0.557214
0.374258 0.906172 0.557504
0.381231 0.906645 0.551675
0.386435 0.906157 0.524666
0.506889 0.908354 0.52134
0.73167 0.905684 0.565545
0.902419 0.907164 0.654932
0.921553 0.897154 0.707424
0.919631 0.847242 0.610712
0.640009 0.907835 0.713359
0.640208 0.910048 0.718944
0.661448 0.908003 0.72462
0.670771 0.907561 0.72253
0.68333 0.907256 0.714931
0.75053 0.907164 0.731167
0.876799 0.907881 0.768872
0.925536 0.90985 0.818463
0.923018 0.913237 0.859648
0.821958 0.911391 0.855573
0.825666 0.912016 0.859693
0.848341 0.911254 0.868925
0.860334 0.910552 0.871687
0.864881 0.910643 0.871962
0.872786 0.910597 0.872221
0.895842 0.911574 0.880446
0.919676 0.91519 0.895033
0.920897 0.91783 0.906874
0.0844587 0.105745 0.167681
0.0935378 0.106874 0.181247
0.137057 0.109224 0.170626
0.214267 0.113359 0.167391
0.339651 0.123735 0.196979
0.496147 0.134997 0.251164
0.69366 0.163973 0.339773
0.829068 0.248569 0.464759
0.903243 0.369162 0.610483
0.0817273 0.106126 0.151766
0.0830701 0.106386 0.175647
0.127413 0.109087 0.198367
0.223819 0.114199 0.180041
0.345357 0.123781 0.203403
0.508583 0.136767 0.26392
0.720455 0.171603 0.363226
0.853758 0.270558 0.508156
0.910887 0.414801 0.659083
0.0934462 0.148226 0.16556
0.0901808 0.148501 0.190753
0.0987564 0.134051 0.239139
0.273304 0.120882 0.222583
0.376974 0.127962 0.22446
0.540093 0.142123 0.286305
0.753399 0.193256 0.395972
0.889342 0.333867 0.57406
0.918791 0.52665 0.744442
0.106645 0.262623 0.218845
0.100511 0.27985 0.237232
0.108431 0.296529 0.255451
0.307027 0.316762 0.298085
0.547326 0.26482 0.298543
0.708263 0.215808 0.320439
0.767575 0.208774 0.376928
0.901534 0.379431 0.581582
0.921584 0.597543 0.782605
0.120043 0.525353 0.333532
0.104646 0.550118 0.355962
0.109804 0.568963 0.362554
0.136294 0.574014 0.2934
0.537316 0.580545 0.257755
0.814298 0.538628 0.342901
0.908141 0.478798 0.396841
0.904601 0.405127 0.49839
0.922057 0.618357 0.766476
0.234455 0.782055 0.492683
0.215534 0.796506 0.503807
0.213336 0.799741 0.49604
0.220569 0.806851 0.445472
0.376486 0.831876 0.342809
0.759731 0.816358 0.358038
0.914488 0.771466 0.505455
0.917342 0.709606 0.501991
0.92253 0.652277 0.737789
0.364385 0.901167 0.58822
0.353338 0.906233 0.591669
0.359533 0.906188 0.58645
0.365408 0.90518 0.558968
0.456153 0.907683 0.520058
0.703441 0.905608 0.560037
0.90013 0.905333 0.643931
0.923079 0.89218 0.714412
0.920195 0.841703 0.638315
0.625895 0.907286 0.720287
0.621668 0.91104 0.727626
0.642603 0.909148 0.732509
0.658961 0.907576 0.729213
0.67155 0.90724 0.715099
0.740001 0.907179 0.72697
0.872236 0.907073 0.763897
0.925429 0.90959 0.815335
0.923323 0.913237 0.861692
0.811902 0.910491 0.851881
0.816617 0.911864 0.858869
0.835523 0.912505 0.870665
0.861708 0.910521 0.874861
0.872465 0.910643 0.877897
0.875608 0.910643 0.874922
0.895644 0.911467 0.880644
0.919234 0.915175 0.894987
0.922118 0.917372 0.905867
0.0921645 0.106905 0.257252
0.0986038 0.107362 0.280018
0.141268 0.109773 0.287663
0.232746 0.115221 0.25481
0.366735 0.126986 0.262577
0.523049 0.141909 0.315343
0.702602 0.165484 0.374228
0.825284 0.242283 0.493797
0.902251 0.365576 0.631724
0.0857404 0.1066 0.233661
0.0878614 0.106798 0.256916
0.113375 0.108339 0.290867
0.225849 0.113588 0.279377
0.366384 0.12665 0.273533
0.528618 0.141772 0.332189
0.72224 0.17026 0.403555
0.837461 0.251759 0.535439
0.90985 0.404547 0.685039
0.0898299 0.130282 0.228916
0.0856947 0.125429 0.257816
0.0844129 0.111894 0.310567
0.23917 0.113954 0.362432
0.401953 0.130556 0.316548
0.551888 0.145754 0.360693
0.728634 0.176577 0.43151
0.861173 0.28249 0.5888
0.91754 0.501106 0.757061
0.102037 0.248783 0.270008
0.0930495 0.260243 0.302907
0.0919509 0.272648 0.353033
0.177691 0.263874 0.441672
0.522591 0.210346 0.433082
0.637873 0.177676 0.404639
0.729137 0.177707 0.431388
0.873823 0.302403 0.598917
0.920653 0.563531 0.785061
0.119921 0.501549 0.401328
0.105791 0.519615 0.430686
0.108522 0.537118 0.458183
0.13051 0.539605 0.463722
0.519463 0.541634 0.506218
0.798581 0.49865 0.515221
0.910613 0.443671 0.516426
0.889998 0.337224 0.549355
0.921721 0.606821 0.787732
0.218936 0.754055 0.545342
0.198779 0.76463 0.562066
0.198001 0.767422 0.571069
0.207889 0.77261 0.554543
0.40557 0.794247 0.519371
0.727153 0.777584 0.512795
0.909575 0.739406 0.562341
0.920684 0.671611 0.577813
0.922332 0.635538 0.74612
0.350866 0.888716 0.635019
0.329564 0.896681 0.644816
0.327947 0.898253 0.646738
0.349035 0.897932 0.628321
0.446693 0.90692 0.597253
0.656779 0.905699 0.60798
0.898222 0.900984 0.66305
0.923079 0.885161 0.730022
0.919173 0.834577 0.702358
0.617426 0.905013 0.738262
0.608713 0.910094 0.74818
0.616831 0.911665 0.75523
0.638621 0.909422 0.751553
0.662791 0.907134 0.738048
0.713329 0.906523 0.723095
0.862486 0.906249 0.761166
0.925124 0.909346 0.812222
0.925338 0.913176 0.870436
0.801297 0.910002 0.852628
0.807584 0.911376 0.86096
0.825315 0.912673 0.87303
0.850172 0.912154 0.880293
0.87512 0.910689 0.883253
0.877867 0.91075 0.879149
0.895827 0.911421 0.881849
0.91986 0.914763 0.895003
0.924254 0.916579 0.904891
0.104311 0.108614 0.355047
0.108003 0.109667 0.379965
0.141634 0.111208 0.40032
0.242863 0.114168 0.392767
0.391608 0.129381 0.377234
0.560281 0.14464 0.408835
0.720821 0.169757 0.459602
0.808759 0.228443 0.534234
0.900343 0.36054 0.667948
0.0964675 0.107973 0.336614
0.0988785 0.108827 0.35877
0.116899 0.10988 0.389181
0.214878 0.113832 0.411566
0.388113 0.126619 0.397604
0.566323 0.145602 0.4271
0.72842 0.172473 0.485756
0.817517 0.235538 0.575814
0.907332 0.392477 0.728069
0.0869764 0.116258 0.326192
0.0850233 0.117937 0.358495
0.0859693 0.1178 0.405066
0.181567 0.114 0.46099
0.416907 0.126177 0.458991
0.587335 0.149203 0.455039
0.731273 0.178988 0.5066
0.837385 0.261418 0.626551
0.915892 0.48043 0.790478
0.100984 0.23267 0.36379
0.0957198 0.233722 0.396765
0.0982986 0.238743 0.445487
0.107561 0.21944 0.501427
0.431846 0.155505 0.568276
0.632197 0.156802 0.499687
0.730968 0.17969 0.51014
0.822309 0.250706 0.61677
0.917952 0.514931 0.801541
0.123857 0.484031 0.488228
0.107088 0.493629 0.515419
0.105516 0.508019 0.547189
0.101625 0.512947 0.587442
0.390478 0.512169 0.687114
0.787579 0.449332 0.669367
0.903059 0.386664 0.645106
0.835447 0.259739 0.608362
0.919036 0.538064 0.799466
0.21181 0.726513 0.61033
0.189487 0.730495 0.625666
0.187488 0.730541 0.637339
0.196063 0.732616 0.645289
0.376699 0.749401 0.661738
0.70132 0.72694 0.687373
0.906615 0.692973 0.694789
0.922637 0.628183 0.68603
0.921172 0.581842 0.763348
0.338308 0.872923 0.687663
0.310307 0.880415 0.699367
0.304524 0.88011 0.705989
0.313741 0.88101 0.704601
0.441291 0.891157 0.703807
0.670329 0.892592 0.720958
0.883207 0.888182 0.738903
0.922286 0.871397 0.759625
0.920592 0.825879 0.779095
0.594812 0.904265 0.768826
0.579843 0.90956 0.779599
0.586465 0.911025 0.788388
0.605127 0.910964 0.791806
0.649378 0.908034 0.78677
0.708293 0.907271 0.77348
0.83978 0.907027 0.786587
0.927489 0.908278 0.822431
0.928466 0.912505 0.878309
0.790005 0.909804 0.857984
0.796292 0.911131 0.866224
0.815 0.912413 0.876997
0.838361 0.913191 0.885817
0.863645 0.912077 0.889387
0.881209 0.910811 0.888029
0.892851 0.910979 0.883253
0.920958 0.913771 0.89482
0.924865 0.916442 0.904845
0.115282 0.113893 0.448951
0.117449 0.115373 0.476738
0.138445 0.114931 0.502266
0.226703 0.116808 0.520867
0.400702 0.122484 0.503288
0.588647 0.146578 0.529213
0.734493 0.176638 0.545953
0.766827 0.199695 0.579965
0.891371 0.340215 0.722728
0.108141 0.11371 0.433433
0.109941 0.114611 0.459693
0.118242 0.116228 0.491127
0.189227 0.11548 0.525414
0.383795 0.122545 0.519036
0.5935 0.147555 0.554467
0.740536 0.179751 0.572122
0.774212 0.204517 0.621378
0.89987 0.371954 0.781003
0.0873121 0.123384 0.438804
0.0865034 0.125414 0.467613
0.0871138 0.127123 0.50396
0.146212 0.119814 0.559777
0.39559 0.125872 0.605951
0.612985 0.149416 0.596628
0.735668 0.185534 0.595224
0.799176 0.236866 0.673136
0.913725 0.473869 0.834241
0.102968 0.21474 0.458
0.0966812 0.214527 0.489632
0.0957961 0.211841 0.523568
0.0947738 0.202914 0.566567
0.30399 0.150393 0.64477
0.634546 0.157946 0.655192
0.731517 0.186313 0.597772
0.781659 0.225971 0.6542
0.915785 0.502297 0.842878
0.105562 0.482078 0.584649
0.0890516 0.486671 0.612497
0.0882429 0.491188 0.640208
0.0970626 0.490166 0.672816
0.251698 0.482307 0.791669
0.70454 0.417594 0.860105
0.87155 0.318791 0.740215
0.785473 0.226337 0.65481
0.914427 0.48275 0.839277
0.213703 0.707057 0.686336
0.190555 0.707744 0.701595
0.187839 0.701396 0.708675
0.193103 0.698222 0.722377
0.254032 0.704509 0.772396
0.612192 0.704265 0.838285
0.900938 0.655894 0.820615
0.921477 0.590158 0.806226
0.914534 0.479316 0.827039
0.330037 0.857511 0.753094
0.304463 0.861555 0.764401
0.297032 0.858671 0.769162
0.296452 0.854566 0.770779
0.34464 0.866896 0.784741
0.646189 0.872465 0.816938
0.863127 0.865812 0.842573
0.924743 0.843305 0.842588
0.921843 0.795727 0.84416
0.564034 0.904173 0.807507
0.540185 0.909361 0.816815
0.538628 0.910689 0.823468
0.549462 0.910811 0.827008
0.598627 0.910414 0.836774
0.711833 0.907835 0.846372
0.857343 0.909743 0.864668
0.927932 0.91162 0.880125
0.928374 0.913268 0.891569
0.784161 0.906813 0.864652
0.775113 0.91078 0.874235
0.793561 0.912108 0.883055
0.817823 0.912612 0.889876
0.842649 0.913146 0.896345
0.870436 0.912077 0.897108
0.888853 0.911986 0.895811
0.915846 0.914412 0.897917
0.925307 0.916228 0.904311
0.129458 0.120714 0.548562
0.133104 0.123049 0.57055
0.134478 0.12546 0.590921
0.185214 0.120745 0.613672
0.388434 0.126665 0.625742
0.56817 0.137743 0.628214
0.748043 0.180606 0.669917
0.7608 0.191821 0.669017
0.861418 0.307576 0.784649
0.118471 0.120699 0.534035
0.121813 0.122179 0.554498
0.129839 0.125109 0.584558
0.1514 0.125246 0.608148
0.361807 0.127382 0.648875
0.55613 0.135805 0.64181
0.747936 0.182666 0.699962
0.762295 0.193912 0.697749
0.871672 0.33196 0.829633
0.0892958 0.13463 0.533349
0.0888533 0.137377 0.557748
0.0903487 0.140688 0.587427
0.0987106 0.145861 0.627878
0.309529 0.128985 0.68249
0.567086 0.141985 0.689662
0.745571 0.186206 0.73077
0.769314 0.206729 0.726741
0.908705 0.450614 0.891676
0.0963149 0.212696 0.55465
0.0964828 0.214496 0.572976
0.0964523 0.212573 0.595621
0.0975662 0.20528 0.627771
0.155261 0.157382 0.663554
0.55256 0.154513 0.72987
0.745037 0.186069 0.737285
0.767498 0.206775 0.730922
0.911849 0.480949 0.896208
0.105119 0.487892 0.686152
0.108156 0.489052 0.703044
0.116365 0.484703 0.722362
0.125185 0.475532 0.739651
0.152361 0.442557 0.777203
0.562387 0.434867 0.904753
0.837308 0.297704 0.837186
0.758831 0.197375 0.723949
0.910369 0.463142 0.894957
0.192111 0.694514 0.756359
0.185367 0.689052 0.762768
0.177386 0.679316 0.765988
0.170489 0.667887 0.770657
0.191287 0.661997 0.800061
0.517739 0.690211 0.90016
0.851194 0.64329 0.914458
0.916228 0.542168 0.894987
0.906142 0.437751 0.894438
0.312306 0.849989 0.821302
0.305684 0.846189 0.826047
0.302647 0.84062 0.828855
0.299519 0.832013 0.829877
0.315999 0.833112 0.845396
0.570397 0.850858 0.887694
0.794049 0.85304 0.903502
0.916472 0.822934 0.897017
0.916182 0.754849 0.896544
0.518502 0.908278 0.857954
0.500816 0.909346 0.862593
0.497902 0.909117 0.865812
0.490242 0.908644 0.865858
0.531106 0.908766 0.872175
0.647898 0.909529 0.886275
0.834928 0.912444 0.9019
0.917189 0.916106 0.913222
0.919997 0.915053 0.914763
0.755932 0.908949 0.882872
0.745174 0.911467 0.888579
0.763363 0.911742 0.893156
0.776257 0.911879 0.896147
0.801068 0.912474 0.900816
0.836881 0.913283 0.906538
0.873152 0.91458 0.910414
0.912352 0.9178 0.915328
0.925566 0.917174 0.913848
0.136217 0.130343 0.620859
0.135637 0.133532 0.633021
0.133227 0.136034 0.640452
0.129641 0.137697 0.642863
0.330541 0.130892 0.692348
0.52781 0.138705 0.690913
0.731929 0.180209 0.726696
0.755123 0.193988 0.747234
0.820539 0.264851 0.801892
0.126741 0.130144 0.610361
0.127214 0.132418 0.622431
0.128985 0.135973 0.6365
0.124926 0.13962 0.644419
0.274296 0.128328 0.681865
0.524971 0.141527 0.7075
0.722545 0.178668 0.729564
0.754803 0.19527 0.754803
0.829099 0.282246 0.827634
0.0918746 0.146715 0.60882
0.0931868 0.149645 0.620844
0.0951247 0.153231 0.633112
0.0987106 0.166506 0.650507
0.13373 0.142275 0.652552
0.54078 0.146029 0.721004
0.723217 0.177783 0.736263
0.756893 0.197528 0.756909
0.901335 0.416739 0.90132
0.0986343 0.223056 0.619181
0.099794 0.228504 0.63154
0.101091 0.229343 0.646983
0.106905 0.242924 0.674601
0.110414 0.233768 0.686397
0.417182 0.154604 0.72668
0.743282 0.185016 0.743297
0.754498 0.195026 0.754498
0.907546 0.450141 0.907546
0.128496 0.497124 0.746777
0.13257 0.499992 0.755032
0.13846 0.499916 0.767208
0.144442 0.495247 0.780362
0.150973 0.461769 0.793378
0.373938 0.441779 0.890593
0.809094 0.340124 0.883406
0.753292 0.193927 0.753292
0.903746 0.428244 0.903746
0.184039 0.692164 0.799954
0.184207 0.689403 0.804593
0.182147 0.683864 0.809201
0.179675 0.672908 0.812512
0.176684 0.651957 0.817914
0.372534 0.668544 0.903868
0.727886 0.65832 0.915816
0.915114 0.541466 0.915114
0.88893 0.378805 0.88893
0.31429 0.840208 0.864012
0.309789 0.835004 0.865461
0.304677 0.828458 0.867033
0.296849 0.818418 0.867399
0.30103 0.806821 0.873823
0.457465 0.830808 0.910155
0.718029 0.841535 0.911604
0.905653 0.821668 0.911574
0.914565 0.714107 0.914565
0.494514 0.907729 0.89305
0.47924 0.906477 0.894484
0.470069 0.905531 0.896284
0.460227 0.903731 0.897307
0.487999 0.902602 0.899916
0.608118 0.90396 0.905989
0.777859 0.907317 0.911696
0.901595 0.912947 0.915801
0.915404 0.909133 0.915404
0.729763 0.911223 0.901579
0.725338 0.91107 0.902922
0.736629 0.911315 0.905043
0.742184 0.911238 0.905928
0.752529 0.911345 0.907301
0.785824 0.911894 0.910369
0.842908 0.913283 0.91342
0.909621 0.917754 0.917754
0.919951 0.919951 0.919951
