bundles/resolve-cinematic-luts/Phantom Luts/A7s3 Phntm Film LUTs - G6/ATOMOS Monitor LUTs/Slog3/Eterna A7s3 AML.cube
TITLE "Generated by Resolve"
LUT_3D_SIZE 9
0.0632639 0.0882124 0.0883955
0.072755 0.0889296 0.0896162
0.130358 0.0917983 0.0896773
0.229145 0.100023 0.109865
0.376547 0.111238 0.163653
0.55845 0.139498 0.248646
0.752697 0.206104 0.369482
0.869184 0.305348 0.514351
0.909697 0.448173 0.653941
0.0646983 0.0926833 0.0915541
0.0716411 0.0936904 0.0906844
0.130083 0.0957809 0.093019
0.246677 0.101228 0.110674
0.4047 0.115511 0.16643
0.593881 0.146242 0.256641
0.773938 0.219883 0.38114
0.880552 0.327459 0.532647
0.911147 0.463767 0.667948
0.0847334 0.173556 0.119753
0.085893 0.180041 0.112535
0.166461 0.180362 0.1149
0.300923 0.147463 0.123629
0.43473 0.115038 0.144121
0.641566 0.155856 0.266041
0.806394 0.243809 0.399466
0.894453 0.369268 0.560601
0.91371 0.50071 0.689418
0.0993668 0.344717 0.176532
0.0851301 0.369451 0.163516
0.0913405 0.379126 0.125536
0.358465 0.381826 0.118898
0.633646 0.34049 0.196277
0.743465 0.254887 0.230274
0.822751 0.270878 0.350866
0.901961 0.408789 0.546639
0.915129 0.530694 0.693233
0.12607 0.62533 0.29778
0.114534 0.654154 0.29836
0.123903 0.668315 0.287526
0.200641 0.658717 0.178103
0.61912 0.658946 0.207874
0.850416 0.637003 0.31075
0.903502 0.591608 0.338521
0.907744 0.471763 0.430823
0.917037 0.583658 0.695506
0.28394 0.838987 0.480369
0.268513 0.856153 0.479011
0.268116 0.862303 0.471656
0.284932 0.858473 0.424979
0.558328 0.860883 0.344076
0.811307 0.851759 0.412543
0.915877 0.823636 0.525032
0.910582 0.778134 0.471427
0.917464 0.675181 0.662379
0.438636 0.900893 0.586252
0.438468 0.904158 0.587015
0.444862 0.905241 0.58587
0.454124 0.905211 0.574655
0.566033 0.905669 0.577401
0.788235 0.90425 0.627161
0.907973 0.907622 0.707469
0.920958 0.900191 0.751858
0.920317 0.868376 0.665522
0.717327 0.90692 0.77026
0.721126 0.907362 0.773281
0.73312 0.906386 0.777935
0.734279 0.905974 0.773709
0.737346 0.905791 0.764721
0.799435 0.906722 0.778164
0.895323 0.909987 0.815976
0.923751 0.913039 0.857527
0.92398 0.916274 0.887129
0.870573 0.913466 0.88452
0.866529 0.91249 0.879988
0.870558 0.91223 0.880781
0.875059 0.911238 0.879072
0.877989 0.911452 0.880064
0.886931 0.911696 0.88307
0.907561 0.91339 0.893278
0.921843 0.91693 0.903868
0.922423 0.919356 0.913039
0.0635843 0.0882582 0.0915999
0.0753185 0.089128 0.0939345
0.128573 0.0918288 0.104997
0.2215 0.0979324 0.129915
0.369177 0.106783 0.176699
0.55668 0.130739 0.258122
0.756146 0.195239 0.377539
0.868925 0.296117 0.521263
0.909987 0.443366 0.666499
0.0650797 0.092546 0.0916915
0.0733654 0.0932174 0.0948959
0.144213 0.0954147 0.101549
0.254795 0.100252 0.121721
0.406012 0.108186 0.176898
0.6065 0.13872 0.271809
0.790402 0.219104 0.404074
0.88983 0.341726 0.565377
0.913252 0.495628 0.708171
0.0857099 0.171435 0.134188
0.0831464 0.18088 0.12253
0.169238 0.180652 0.115724
0.311406 0.137987 0.1252
0.457862 0.122927 0.169162
0.656825 0.159319 0.274296
0.820844 0.249378 0.424109
0.903029 0.403754 0.604898
0.916442 0.57232 0.757351
0.0955825 0.339681 0.191287
0.0850538 0.363546 0.179232
0.087129 0.383505 0.150668
0.359274 0.381888 0.118929
0.624857 0.340887 0.198062
0.745663 0.251804 0.235554
0.832288 0.275502 0.372229
0.906157 0.430945 0.580606
0.917174 0.585367 0.749264
0.118959 0.614359 0.303319
0.104311 0.638804 0.3019
0.114778 0.656809 0.289464
0.179355 0.655222 0.18819
0.613245 0.6551 0.204334
0.849195 0.634241 0.311757
0.904128 0.590326 0.342306
0.910384 0.48069 0.465858
0.917311 0.618509 0.732341
0.275135 0.832166 0.483604
0.259419 0.849515 0.482811
0.259541 0.855497 0.470817
0.278843 0.853574 0.419699
0.544869 0.859663 0.340963
0.809339 0.85034 0.40856
0.915038 0.821866 0.523674
0.910414 0.775876 0.473075
0.917693 0.690028 0.709728
0.421744 0.900938 0.586114
0.423789 0.903914 0.586603
0.431937 0.904753 0.584024
0.443534 0.904784 0.568444
0.564492 0.905699 0.576242
0.784527 0.904219 0.625345
0.907546 0.907515 0.705531
0.920836 0.899611 0.75021
0.919829 0.863355 0.658335
0.705547 0.906264 0.762844
0.711727 0.906844 0.766934
0.727504 0.906462 0.774731
0.730922 0.906157 0.771618
0.739437 0.905791 0.765606
0.79942 0.906676 0.779919
0.894591 0.909926 0.815946
0.923858 0.913024 0.857404
0.924376 0.916045 0.886198
0.864912 0.913024 0.881331
0.865919 0.912383 0.879652
0.875303 0.91252 0.883635
0.881834 0.911696 0.883741
0.883726 0.911742 0.884031
0.890394 0.912016 0.885924
0.90724 0.913359 0.893172
0.921813 0.916899 0.903792
0.922499 0.919295 0.912856
0.0661631 0.0890364 0.122408
0.0866255 0.0907454 0.126864
0.137087 0.0928511 0.124392
0.228275 0.0987106 0.146654
0.365469 0.1075 0.187457
0.540169 0.129076 0.26244
0.738262 0.185885 0.373983
0.859327 0.281788 0.514046
0.908782 0.429679 0.662333
0.0660868 0.0958572 0.106279
0.0657816 0.0929427 0.133425
0.14725 0.0941329 0.13521
0.244663 0.0990921 0.145846
0.382071 0.107195 0.189471
0.567987 0.130999 0.271092
0.774578 0.206409 0.402365
0.883238 0.322805 0.5617
0.912902 0.484993 0.707912
0.0857099 0.166552 0.151034
0.0844739 0.174701 0.15935
0.165545 0.174548 0.17293
0.324605 0.141436 0.16994
0.432883 0.114061 0.189944
0.624353 0.146044 0.285344
0.817304 0.243778 0.439185
0.904234 0.408515 0.623392
0.916808 0.595972 0.780682
0.0951858 0.331044 0.216861
0.085069 0.356771 0.215824
0.0855421 0.373571 0.190387
0.357824 0.378027 0.132174
0.620752 0.321614 0.21445
0.758556 0.250431 0.261601
0.826352 0.261723 0.392538
0.907088 0.433509 0.599481
0.917586 0.617151 0.779721
0.113313 0.599435 0.32932
0.0997177 0.623362 0.333257
0.105119 0.64126 0.317327
0.148089 0.650019 0.219226
0.606714 0.648295 0.201068
0.841489 0.623789 0.319768
0.907958 0.576776 0.361501
0.910048 0.481529 0.4934
0.917388 0.640024 0.763485
0.264881 0.82034 0.49955
0.246845 0.835935 0.501656
0.243458 0.840177 0.486656
0.261067 0.841474 0.429557
0.512001 0.853651 0.338338
0.802563 0.843641 0.396017
0.914717 0.815854 0.530846
0.911528 0.773098 0.494179
0.917693 0.692302 0.740475
0.405203 0.900374 0.599573
0.405753 0.903777 0.600763
0.413565 0.904387 0.594873
0.418296 0.904158 0.566491
0.553872 0.905577 0.568887
0.77583 0.903929 0.61973
0.906569 0.906889 0.699886
0.92108 0.898039 0.749294
0.919829 0.859846 0.662577
0.690486 0.906172 0.759594
0.692912 0.90811 0.765484
0.713298 0.906172 0.770306
0.722438 0.905898 0.768307
0.734676 0.905821 0.76202
0.798093 0.906615 0.778622
0.892912 0.909697 0.813046
0.924269 0.912642 0.855009
0.924926 0.915831 0.885069
0.856641 0.912337 0.876844
0.859709 0.912856 0.879622
0.876402 0.912566 0.885176
0.885008 0.911788 0.886519
0.887587 0.91194 0.8869
0.892729 0.912077 0.887404
0.906966 0.913344 0.893095
0.921614 0.916854 0.90367
0.922133 0.919432 0.912856
0.0722515 0.0894026 0.186908
0.0876783 0.0905165 0.204578
0.150134 0.0938582 0.189929
0.248768 0.100374 0.187198
0.384634 0.112322 0.224292
0.554788 0.135775 0.29308
0.730678 0.179873 0.387808
0.851148 0.270802 0.522667
0.906859 0.41384 0.664836
0.0644846 0.0927596 0.163912
0.0666056 0.0907912 0.196429
0.136004 0.0925612 0.225956
0.260899 0.100389 0.203174
0.391455 0.112001 0.232517
0.567956 0.138003 0.308721
0.752148 0.188083 0.413779
0.872099 0.298054 0.567315
0.911681 0.462943 0.710155
0.0813611 0.161746 0.186633
0.0767529 0.161837 0.219104
0.0970932 0.140627 0.280629
0.320165 0.112932 0.258396
0.425483 0.118502 0.259617
0.599039 0.143465 0.334905
0.778317 0.207401 0.449912
0.897307 0.37348 0.629908
0.91632 0.57583 0.781292
0.0951095 0.317021 0.259709
0.0859388 0.338277 0.28188
0.0874952 0.355383 0.303441
0.361471 0.369345 0.34789
0.621897 0.302983 0.346822
0.764935 0.242252 0.366094
0.800595 0.230762 0.426841
0.906203 0.424491 0.63505
0.917494 0.646189 0.809262
0.109331 0.578607 0.381491
0.0955215 0.603067 0.405676
0.104723 0.620844 0.412009
0.139925 0.626795 0.333806
0.588968 0.630442 0.288075
0.835889 0.592187 0.378393
0.914443 0.530114 0.4336
0.908507 0.452781 0.54876
0.917632 0.666102 0.79707
0.25182 0.803311 0.541543
0.232242 0.816617 0.552956
0.230121 0.819867 0.54493
0.237842 0.826291 0.493248
0.415839 0.847929 0.378759
0.794644 0.833921 0.403693
0.91368 0.799756 0.556298
0.913451 0.752758 0.551476
0.917891 0.698863 0.774411
0.390234 0.897063 0.629984
0.383398 0.902266 0.635325
0.391272 0.902708 0.630442
0.395499 0.902678 0.601404
0.498558 0.904784 0.565423
0.749508 0.903197 0.612879
0.904219 0.905074 0.687907
0.922591 0.894453 0.756634
0.920256 0.85713 0.689845
0.67837 0.904845 0.765682
0.676692 0.908263 0.773404
0.695842 0.906859 0.778195
0.711086 0.905577 0.774014
0.723003 0.905623 0.761975
0.788251 0.906416 0.774426
0.8907 0.908827 0.80853
0.92517 0.912139 0.85214
0.925017 0.915801 0.886076
0.849867 0.911437 0.874022
0.852964 0.912551 0.87863
0.866636 0.913634 0.886595
0.88571 0.911772 0.888319
0.892653 0.912184 0.890333
0.895125 0.912077 0.888747
0.907057 0.913222 0.89308
0.921294 0.916793 0.903593
0.923049 0.919036 0.912169
0.0824445 0.0889906 0.294072
0.0936751 0.0889143 0.317922
0.154665 0.0908217 0.328878
0.273091 0.0991073 0.295216
0.41471 0.115694 0.304524
0.580316 0.140291 0.365896
0.725414 0.17203 0.424735
0.845319 0.263111 0.552819
0.906081 0.409674 0.685771
0.0707866 0.090013 0.266804
0.0759899 0.0893721 0.292882
0.115785 0.0896468 0.329793
0.265843 0.0973983 0.32221
0.414755 0.115129 0.316518
0.586038 0.140063 0.384268
0.737774 0.17464 0.454902
0.855604 0.274678 0.595575
0.910567 0.452216 0.734661
0.0738384 0.134173 0.266133
0.0685283 0.127672 0.298375
0.065507 0.106706 0.351049
0.281529 0.0999924 0.410681
0.45333 0.120394 0.363455
0.60911 0.14464 0.415961
0.738933 0.179843 0.481514
0.874769 0.311788 0.646464
0.915419 0.550301 0.791531
0.098024 0.299916 0.327382
0.0882887 0.313848 0.364828
0.087129 0.327321 0.420859
0.200366 0.313344 0.518441
0.597879 0.234409 0.504112
0.696071 0.188617 0.466239
0.737911 0.181018 0.480766
0.885252 0.33695 0.655619
0.91722 0.61236 0.811017
0.108309 0.555947 0.454566
0.0968338 0.573602 0.484337
0.10309 0.590082 0.511849
0.133104 0.593072 0.517739
0.570718 0.592935 0.557626
0.830198 0.549233 0.56643
0.912245 0.492149 0.567514
0.898558 0.37734 0.605768
0.91751 0.655039 0.813336
0.237736 0.78114 0.594171
0.217334 0.791653 0.611353
0.216464 0.794263 0.62005
0.228336 0.799786 0.604059
0.454215 0.819898 0.569772
0.768032 0.805936 0.567452
0.906416 0.774929 0.612085
0.916945 0.721477 0.62858
0.917769 0.682368 0.780392
0.371145 0.88571 0.675746
0.350561 0.893355 0.686122
0.351629 0.89543 0.689128
0.375753 0.894606 0.671214
0.48957 0.901915 0.643168
0.705608 0.902617 0.658015
0.903944 0.900175 0.70515
0.923522 0.889433 0.7729
0.917967 0.852781 0.748898
0.669398 0.902846 0.780041
0.662776 0.907439 0.789807
0.670939 0.909148 0.79617
0.691707 0.907149 0.793393
0.71519 0.905257 0.781735
0.763165 0.905318 0.769772
0.885512 0.907469 0.805508
0.925078 0.911971 0.849699
0.92639 0.915328 0.889937
0.842405 0.910552 0.873732
0.846143 0.912245 0.879759
0.858976 0.91371 0.888014
0.87628 0.913466 0.892241
0.894575 0.912245 0.89366
0.896559 0.912245 0.891142
0.907301 0.913161 0.893782
0.921492 0.916548 0.903609
0.925551 0.918135 0.910857
0.100221 0.0909895 0.397345
0.106096 0.0915541 0.423621
0.15407 0.0935836 0.447395
0.286 0.100816 0.442756
0.444755 0.118181 0.430762
0.614847 0.14374 0.464347
0.731914 0.173785 0.508141
0.823499 0.244938 0.591684
0.904494 0.403693 0.720424
0.0871901 0.0910811 0.377096
0.092195 0.0918441 0.400961
0.119615 0.0912032 0.433722
0.25153 0.0996109 0.460517
0.441154 0.114443 0.452186
0.620081 0.144701 0.482872
0.735882 0.175906 0.533227
0.831022 0.254582 0.632303
0.909087 0.438819 0.772549
0.0697948 0.115328 0.36878
0.0679484 0.116228 0.403922
0.0697642 0.110369 0.452216
0.209644 0.0987716 0.50985
0.469017 0.113451 0.511208
0.636637 0.149523 0.509255
0.735897 0.182727 0.553079
0.851072 0.286122 0.681636
0.914015 0.529915 0.817151
0.0974594 0.279225 0.432273
0.090074 0.282063 0.468833
0.0912642 0.286854 0.520928
0.101427 0.25948 0.57644
0.495705 0.162264 0.63328
0.672923 0.161059 0.551614
0.734295 0.18291 0.555261
0.835355 0.271931 0.669993
0.91548 0.564065 0.824002
0.103731 0.538476 0.541939
0.0844282 0.548028 0.568902
0.0913863 0.561196 0.598947
0.0993057 0.564675 0.636118
0.440406 0.564324 0.735119
0.820859 0.499397 0.717433
0.906401 0.431708 0.696895
0.849439 0.28307 0.663661
0.916136 0.587198 0.822583
0.234012 0.758953 0.656779
0.210727 0.763867 0.671382
0.20885 0.76434 0.68246
0.218112 0.766812 0.690028
0.424048 0.784894 0.707042
0.744823 0.766278 0.732189
0.903731 0.736706 0.738201
0.918196 0.675807 0.729671
0.917479 0.630411 0.794186
0.357748 0.872526 0.726238
0.330098 0.880156 0.738735
0.324697 0.88043 0.74548
0.336919 0.881315 0.744335
0.485344 0.889113 0.745541
0.7196 0.891127 0.765087
0.892851 0.889967 0.780118
0.920729 0.8804 0.799573
0.918593 0.847959 0.813428
0.644846 0.901884 0.802976
0.631815 0.907149 0.813809
0.638682 0.908812 0.82121
0.656947 0.908827 0.823835
0.700221 0.90663 0.820859
0.759335 0.905852 0.812299
0.871214 0.908019 0.826185
0.927367 0.910979 0.856718
0.92961 0.913756 0.892592
0.833219 0.910246 0.876295
0.837446 0.911757 0.882109
0.851133 0.913252 0.889555
0.86807 0.914412 0.895888
0.885267 0.913695 0.897902
0.898314 0.91249 0.896452
0.905791 0.912932 0.89456
0.923369 0.915312 0.9028
0.926146 0.917876 0.910643
0.11577 0.0960555 0.494026
0.118517 0.097322 0.518074
0.148043 0.0966659 0.54165
0.266026 0.104219 0.567544
0.452842 0.112047 0.555093
0.639368 0.146456 0.585397
0.7393 0.178653 0.594446
0.773007 0.208255 0.630335
0.898009 0.380621 0.769223
0.105318 0.0959487 0.479011
0.108293 0.0972 0.502785
0.12018 0.098436 0.530404
0.218128 0.10161 0.568765
0.435248 0.111971 0.56968
0.642237 0.147982 0.60853
0.743557 0.18085 0.620935
0.780606 0.213947 0.669581
0.903853 0.415976 0.81648
0.0733196 0.123201 0.4869
0.0733501 0.125109 0.513161
0.0741436 0.121965 0.542245
0.157931 0.101122 0.589303
0.444648 0.116396 0.644327
0.652445 0.151873 0.641672
0.739498 0.18645 0.639719
0.809537 0.252094 0.716777
0.912444 0.522454 0.851301
0.097734 0.255451 0.535332
0.0928359 0.254551 0.56434
0.0941176 0.250446 0.595376
0.0963302 0.23563 0.628061
0.35935 0.155734 0.688655
0.667659 0.163836 0.683787
0.73579 0.186404 0.641032
0.792615 0.238224 0.69894
0.913436 0.551095 0.857343
0.108705 0.536233 0.63653
0.100145 0.539864 0.660761
0.106111 0.543572 0.683909
0.116213 0.541833 0.710369
0.281682 0.537408 0.819791
0.751781 0.467063 0.872435
0.883421 0.351598 0.784772
0.795392 0.238941 0.699718
0.912627 0.531792 0.856062
0.233341 0.743984 0.726635
0.21323 0.743999 0.738521
0.209796 0.738323 0.744045
0.215747 0.736095 0.756207
0.28629 0.745769 0.801923
0.660868 0.74638 0.852491
0.897597 0.702586 0.839078
0.917174 0.638788 0.828809
0.913039 0.527993 0.846357
0.344869 0.862898 0.785092
0.322774 0.866209 0.794339
0.316304 0.864195 0.798032
0.317113 0.861601 0.799634
0.376211 0.872282 0.812543
0.693645 0.877714 0.840192
0.876249 0.875807 0.861616
0.922789 0.861387 0.860258
0.918151 0.825376 0.859464
0.609689 0.902861 0.833021
0.589685 0.907088 0.841398
0.588968 0.908095 0.84593
0.600214 0.908324 0.848981
0.649058 0.90837 0.85713
0.756481 0.908263 0.866606
0.880491 0.911208 0.882506
0.927199 0.913008 0.892271
0.927687 0.913329 0.899031
0.826856 0.907652 0.878126
0.819013 0.911269 0.886183
0.834684 0.912871 0.892683
0.853468 0.913664 0.897475
0.870817 0.914382 0.902083
0.887739 0.914443 0.903471
0.899641 0.914626 0.903243
0.917815 0.91664 0.905592
0.926253 0.9178 0.910445
0.135241 0.10277 0.579522
0.138674 0.104707 0.595148
0.140871 0.107118 0.608621
0.210941 0.105928 0.632639
0.436805 0.117327 0.658061
0.606012 0.13373 0.657343
0.748226 0.180423 0.699245
0.763867 0.196231 0.703624
0.876066 0.339406 0.819974
0.119799 0.103075 0.567086
0.12491 0.104875 0.583246
0.135286 0.107088 0.604196
0.164187 0.105516 0.621363
0.409171 0.117769 0.671946
0.592172 0.129778 0.663691
0.747967 0.18233 0.719387
0.764874 0.198489 0.724071
0.885924 0.366491 0.855467
0.0794537 0.136797 0.574273
0.0804913 0.139544 0.590555
0.0827039 0.140047 0.608087
0.0861982 0.137652 0.626551
0.354009 0.118181 0.688182
0.599893 0.136614 0.6925
0.746731 0.185321 0.738613
0.774945 0.213443 0.748547
0.909438 0.497856 0.895033
0.0964981 0.249561 0.622507
0.0980392 0.250767 0.636835
0.0998703 0.247135 0.652583
0.103059 0.235599 0.668772
0.172625 0.154833 0.673793
0.597513 0.154025 0.729015
0.745708 0.184894 0.741619
0.77348 0.21326 0.750881
0.910719 0.52961 0.897231
0.122301 0.540185 0.721141
0.126207 0.541131 0.733104
0.130678 0.53724 0.747127
0.134676 0.528862 0.759762
0.149401 0.498604 0.787594
0.616709 0.485023 0.906096
0.853574 0.324437 0.853544
0.762768 0.201343 0.740963
0.910063 0.511086 0.896254
0.206867 0.730983 0.779858
0.201007 0.726238 0.784817
0.193622 0.717952 0.787198
0.186496 0.707317 0.790066
0.214252 0.704067 0.815946
0.569162 0.733501 0.894453
0.860899 0.690593 0.906477
0.9122 0.591409 0.892912
0.9084 0.48423 0.896727
0.3299 0.857435 0.836927
0.322759 0.855482 0.841047
0.3196 0.850965 0.842771
0.316808 0.844862 0.843259
0.337407 0.847593 0.85655
0.619654 0.86215 0.886732
0.825193 0.866865 0.899748
0.914565 0.846448 0.894789
0.912657 0.792172 0.891768
0.564462 0.905089 0.869032
0.547402 0.905547 0.872099
0.54435 0.905135 0.874128
0.535332 0.904112 0.873854
0.578134 0.904204 0.878233
0.695827 0.90605 0.88925
0.85922 0.910567 0.903349
0.914992 0.914397 0.912139
0.920256 0.913741 0.913314
0.802853 0.909087 0.889296
0.792691 0.91133 0.894102
0.808606 0.91194 0.897444
0.819821 0.912352 0.899855
0.84004 0.913146 0.903319
0.867185 0.914397 0.907927
0.890517 0.916259 0.911559
0.914687 0.919112 0.916548
0.925383 0.919097 0.916625
0.142504 0.111009 0.626337
0.140963 0.113497 0.632654
0.137667 0.115572 0.636423
0.132937 0.116976 0.637064
0.375799 0.120287 0.695003
0.56553 0.132952 0.694835
0.735363 0.178744 0.732204
0.757229 0.196078 0.752499
0.832792 0.286885 0.819333
0.129366 0.111376 0.618585
0.130068 0.113451 0.625589
0.131899 0.115862 0.633585
0.12517 0.119249 0.636835
0.317647 0.11696 0.685527
0.563058 0.134707 0.704662
0.728695 0.176547 0.733196
0.757473 0.197375 0.757473
0.844099 0.307195 0.842069
0.0864271 0.148394 0.623545
0.088304 0.151064 0.630625
0.0905623 0.153994 0.638071
0.0966964 0.172122 0.65536
0.135775 0.12282 0.644633
0.57908 0.138308 0.712459
0.727642 0.173739 0.73492
0.76054 0.200641 0.76054
0.90544 0.461784 0.90544
0.103883 0.260395 0.671672
0.106157 0.266896 0.680797
0.108858 0.267781 0.690059
0.115038 0.282643 0.708827
0.116732 0.266316 0.710933
0.472374 0.156878 0.737926
0.743313 0.182803 0.743328
0.757168 0.19707 0.757168
0.90869 0.497612 0.90869
0.140063 0.549325 0.76582
0.142794 0.552529 0.772107
0.145876 0.55256 0.780682
0.148791 0.54847 0.789792
0.147448 0.517845 0.798138
0.420768 0.494881 0.895598
0.839796 0.378592 0.893156
0.755932 0.195468 0.755932
0.906737 0.474052 0.906737
0.199435 0.728603 0.812589
0.198947 0.726223 0.815641
0.196002 0.721309 0.818433
0.191699 0.711528 0.81973
0.187381 0.692699 0.822858
0.414603 0.714855 0.900435
0.767407 0.704662 0.909545
0.910948 0.590829 0.910948
0.898878 0.419333 0.898894
0.328023 0.850919 0.867445
0.322911 0.846281 0.867765
0.31696 0.84094 0.867994
0.309148 0.833173 0.867613
0.316838 0.82594 0.874189
0.511147 0.845121 0.905318
0.764126 0.857359 0.908263
0.901823 0.846571 0.909041
0.908873 0.75877 0.908873
0.538293 0.902708 0.891554
0.522087 0.901823 0.892607
0.51133 0.900832 0.893736
0.501259 0.899428 0.894667
0.532479 0.898299 0.896437
0.654154 0.900175 0.901976
0.814588 0.905135 0.909453
0.904265 0.911604 0.915633
0.915785 0.909651 0.915343
0.77763 0.911025 0.901915
0.77322 0.911101 0.902831
0.78352 0.911254 0.90425
0.789319 0.911421 0.90515
0.799039 0.911788 0.906401
0.82829 0.912856 0.909438
0.871458 0.914839 0.91313
0.913451 0.919127 0.918654
0.921187 0.921187 0.921233
