bundles/resolve-cinematic-luts/Phantom Luts/A7s3 Phntm Film LUTs - G6/ATOMOS Monitor LUTs/Slog3/VisionTeal A7s3 AML.cube
TITLE "Generated by Resolve"
LUT_3D_SIZE 33
0.0725261 0.0807507 0.0793164
0.0725261 0.0807507 0.0793164
0.0725261 0.0807507 0.0793011
0.0725261 0.080705 0.0793774
0.0724651 0.0804303 0.0798352
0.0779431 0.0803388 0.0812085
0.0884413 0.0798657 0.0816358
0.107393 0.078645 0.0814984
0.130648 0.0767681 0.0786755
0.155856 0.0755474 0.0766613
0.190555 0.0745403 0.0746624
0.23267 0.0710765 0.0725567
0.273823 0.0665904 0.0728313
0.314534 0.0645151 0.0773632
0.353826 0.0650797 0.0826429
0.393805 0.0642557 0.0913558
0.437705 0.0654765 0.104372
0.48217 0.0681621 0.121736
0.52697 0.0731212 0.146807
0.57557 0.0811933 0.183078
0.63064 0.097612 0.234913
0.682445 0.120256 0.28716
0.72549 0.147341 0.336889
0.753796 0.175784 0.381811
0.765591 0.205051 0.417105
0.767025 0.236072 0.443976
0.76968 0.267521 0.473304
0.774884 0.29897 0.502922
0.782025 0.336217 0.531197
0.789044 0.374731 0.558892
0.796597 0.4103 0.585184
0.805081 0.442084 0.611429
0.813046 0.471107 0.635447
0.0725261 0.0807507 0.0793164
0.0725261 0.0807507 0.0793164
0.0725261 0.0807507 0.0793164
0.0725261 0.080705 0.0794232
0.0725261 0.0807965 0.0803235
0.0780346 0.0804913 0.0812695
0.0885786 0.0801099 0.0818341
0.108263 0.0788128 0.081651
0.132006 0.0767529 0.079057
0.15877 0.075761 0.0767529
0.193744 0.0744335 0.0746319
0.235523 0.0709392 0.0727398
0.276905 0.0664683 0.0726329
0.315755 0.0642405 0.0782788
0.357473 0.0646525 0.0824292
0.396719 0.0638285 0.0915541
0.442634 0.0661173 0.102602
0.487831 0.0689097 0.121263
0.532158 0.0735637 0.146044
0.581079 0.0825971 0.184298
0.635416 0.0992142 0.235904
0.684657 0.120821 0.284611
0.726162 0.146944 0.333822
0.755138 0.177981 0.382696
0.76585 0.206882 0.41709
0.767025 0.237659 0.443671
0.769894 0.269047 0.473564
0.775189 0.301518 0.50312
0.782238 0.338415 0.531548
0.789319 0.376028 0.559472
0.797162 0.41146 0.585855
0.805539 0.443565 0.612177
0.813672 0.472633 0.636652
0.0725261 0.080766 0.0793011
0.0725261 0.080766 0.0793164
0.0725261 0.0807355 0.0792859
0.0725261 0.0807507 0.0794537
0.0725261 0.080766 0.0798047
0.0770275 0.0807507 0.0808576
0.0870375 0.0805066 0.0814527
0.106752 0.0792401 0.0814374
0.131014 0.0770733 0.0792401
0.157717 0.0763104 0.0771649
0.192767 0.0748913 0.0750134
0.235492 0.0724041 0.072755
0.279438 0.0685893 0.0715496
0.3234 0.0645609 0.075227
0.361852 0.0643168 0.0808423
0.400015 0.0636301 0.090898
0.446586 0.066041 0.10164
0.491081 0.0690776 0.119982
0.535988 0.0741588 0.145281
0.585946 0.0840162 0.184726
0.640269 0.101076 0.237263
0.688228 0.122576 0.285039
0.72784 0.148592 0.333852
0.755688 0.177203 0.379065
0.7664 0.208392 0.416724
0.767605 0.239582 0.443748
0.77026 0.270481 0.472862
0.775021 0.303151 0.50251
0.782269 0.339666 0.531411
0.789441 0.377951 0.559625
0.797803 0.412772 0.586389
0.806088 0.444892 0.612665
0.814389 0.47393 0.637781
0.0726787 0.0818036 0.0795758
0.0726787 0.0818189 0.0794385
0.0725567 0.0811475 0.0791333
0.0725414 0.0810864 0.079057
0.072694 0.0821241 0.0795758
0.0757458 0.0822766 0.0808423
0.0855421 0.0813458 0.0809491
0.105974 0.0802167 0.0806287
0.132097 0.0787671 0.079057
0.159579 0.0796826 0.0778668
0.197559 0.0788739 0.0750439
0.239811 0.0769818 0.073106
0.285649 0.0731212 0.0719158
0.329091 0.0650034 0.0718547
0.366155 0.0643473 0.0786145
0.405081 0.0636912 0.0874342
0.44889 0.0652934 0.102419
0.495552 0.0695506 0.118791
0.536782 0.0729992 0.150301
0.590234 0.0851148 0.183886
0.644465 0.102861 0.236835
0.691905 0.124529 0.285512
0.73106 0.150362 0.334127
0.756848 0.179049 0.379187
0.766674 0.207172 0.412695
0.767926 0.240742 0.442939
0.770611 0.271931 0.472358
0.77499 0.304677 0.501976
0.78233 0.341741 0.530877
0.789746 0.379904 0.559869
0.79852 0.414679 0.587259
0.806165 0.445808 0.612634
0.814939 0.475288 0.639078
0.0723125 0.0917372 0.0813764
0.0723125 0.0910811 0.0801251
0.0723888 0.090486 0.0796521
0.0724041 0.0903487 0.0805982
0.0746777 0.0906539 0.0815747
0.0810101 0.0902419 0.0834974
0.0887617 0.0900435 0.0829328
0.107561 0.0873732 0.0821546
0.135576 0.0853285 0.0806287
0.165423 0.0844587 0.0784772
0.204013 0.0825971 0.0758068
0.246143 0.0799268 0.0733349
0.289311 0.0762188 0.0719005
0.327626 0.0700236 0.0711223
0.369985 0.0653239 0.0742962
0.411627 0.0638895 0.0845045
0.454368 0.0652781 0.101015
0.498741 0.0693828 0.118624
0.539345 0.0723278 0.151858
0.595132 0.0859998 0.181689
0.64831 0.103838 0.235142
0.69575 0.125811 0.284184
0.733471 0.151995 0.333532
0.757565 0.180423 0.377447
0.767391 0.209094 0.411429
0.767758 0.239155 0.438331
0.770764 0.27364 0.471107
0.775372 0.306874 0.501671
0.782834 0.344457 0.531029
0.790112 0.382116 0.559823
0.798962 0.416205 0.587396
0.807126 0.447349 0.613825
0.815778 0.476585 0.639811
0.0717174 0.103456 0.0833753
0.0715648 0.102342 0.0827497
0.0717632 0.100206 0.0807202
0.0719005 0.100298 0.0824903
0.0771496 0.101778 0.0843061
0.0849622 0.100954 0.0850538
0.0960708 0.0995804 0.0848859
0.113359 0.0983444 0.0841077
0.136614 0.0949264 0.0830243
0.166613 0.0919509 0.0806439
0.206989 0.0876173 0.0774243
0.252552 0.0832074 0.0742657
0.294148 0.0793927 0.0719921
0.331853 0.0746929 0.0717174
0.371817 0.0689097 0.0730449
0.415091 0.065095 0.0780194
0.461692 0.066453 0.0963455
0.501106 0.0679179 0.12285
0.546548 0.0737774 0.147143
0.598901 0.0855726 0.183978
0.654169 0.105928 0.231815
0.699992 0.12752 0.281392
0.737911 0.154711 0.332799
0.76025 0.182727 0.376303
0.768338 0.211292 0.410285
0.768612 0.241199 0.436484
0.770947 0.270161 0.464866
0.775814 0.310369 0.501091
0.783444 0.347478 0.530953
0.790661 0.384268 0.559625
0.79942 0.418692 0.587655
0.808179 0.449851 0.614618
0.816129 0.47837 0.64007
0.0709544 0.120882 0.0848707
0.0711681 0.119554 0.0843671
0.0711223 0.116823 0.0819562
0.0715496 0.116884 0.082826
0.0775464 0.119142 0.0849165
0.0862898 0.119829 0.0877241
0.101625 0.117693 0.0882277
0.120714 0.115267 0.0841688
0.144244 0.1122 0.0846723
0.172381 0.108339 0.0836652
0.216403 0.0998245 0.0793927
0.256077 0.0921645 0.0758831
0.297108 0.0861982 0.0739452
0.340078 0.0793011 0.0722362
0.375845 0.0730144 0.0716869
0.416938 0.0686809 0.0741741
0.462272 0.065507 0.0849775
0.510857 0.0703441 0.111971
0.555642 0.0749981 0.142855
0.602899 0.0847334 0.188312
0.661921 0.108034 0.23389
0.707301 0.130861 0.280613
0.741863 0.157763 0.330022
0.76199 0.185809 0.37351
0.768704 0.21442 0.406821
0.768978 0.243839 0.432944
0.771954 0.273793 0.462638
0.775616 0.305867 0.491585
0.783123 0.351049 0.528908
0.790341 0.387808 0.557488
0.798901 0.421286 0.585046
0.807797 0.453162 0.612833
0.815518 0.481407 0.638376
0.070634 0.14226 0.0872511
0.0706035 0.140841 0.0860609
0.0706188 0.13846 0.0838178
0.0705577 0.137331 0.0824445
0.0785077 0.139742 0.0860151
0.0877546 0.141787 0.0885634
0.101869 0.142412 0.0909133
0.124025 0.139513 0.0885328
0.146487 0.13637 0.0847334
0.18233 0.130068 0.0852979
0.227344 0.120531 0.0835584
0.268879 0.109895 0.0809949
0.309514 0.0998093 0.0780957
0.344366 0.0924392 0.0756542
0.379995 0.0853895 0.0742046
0.420554 0.074052 0.0731212
0.460243 0.0661631 0.0756237
0.512154 0.069276 0.098146
0.563333 0.0772869 0.133989
0.617945 0.0894789 0.182773
0.666621 0.107088 0.23856
0.713527 0.133211 0.27837
0.74757 0.16112 0.326909
0.764782 0.18909 0.369314
0.769131 0.217456 0.40235
0.769924 0.247959 0.430549
0.77322 0.277546 0.460624
0.776577 0.310323 0.489784
0.782666 0.347219 0.519982
0.791714 0.391852 0.557092
0.800351 0.425666 0.585565
0.808392 0.455802 0.612741
0.816846 0.484718 0.639551
0.0700542 0.16672 0.0893721
0.0699321 0.16466 0.0877394
0.0700847 0.162737 0.085832
0.070222 0.160769 0.0833906
0.0772412 0.161517 0.085069
0.0861982 0.164294 0.0876173
0.10042 0.166796 0.0904707
0.123201 0.167529 0.0925307
0.148165 0.164065 0.0868544
0.179461 0.159091 0.0841688
0.23473 0.149416 0.0856641
0.288319 0.134829 0.0865797
0.326177 0.124239 0.0846723
0.364294 0.112047 0.0822309
0.396399 0.102892 0.0798962
0.426535 0.0928054 0.07776
0.464256 0.0812238 0.076173
0.505959 0.0658274 0.0788281
0.567468 0.0772564 0.117189
0.628244 0.0931868 0.168811
0.679454 0.111299 0.231968
0.718029 0.13283 0.28249
0.753613 0.165164 0.323171
0.767651 0.193439 0.363729
0.770092 0.223026 0.395895
0.771099 0.252354 0.425071
0.774212 0.281971 0.456016
0.777569 0.316182 0.487098
0.782986 0.353033 0.518059
0.789548 0.385931 0.545632
0.800855 0.429618 0.584924
0.809628 0.460426 0.613428
0.817212 0.488304 0.639414
0.0697642 0.198108 0.0907912
0.0695048 0.195651 0.0876631
0.0694591 0.192844 0.08542
0.06981 0.190616 0.0857862
0.0708782 0.188708 0.0814527
0.0794842 0.191577 0.0826276
0.0930648 0.1944 0.0861372
0.120104 0.198138 0.0900893
0.145052 0.201953 0.0906386
0.178241 0.196872 0.0837415
0.227832 0.190463 0.0834669
0.292714 0.181521 0.090486
0.351156 0.164324 0.0954604
0.390906 0.150393 0.0944991
0.424063 0.135515 0.0914473
0.45539 0.12401 0.0887922
0.485206 0.108507 0.0859083
0.514534 0.0923171 0.0833448
0.553658 0.0715038 0.0853437
0.627756 0.0914778 0.140627
0.68925 0.114336 0.21091
0.730129 0.137423 0.275227
0.757321 0.165057 0.326146
0.769711 0.199008 0.355901
0.771313 0.228031 0.387549
0.772534 0.257877 0.418708
0.775021 0.288487 0.450278
0.779568 0.323491 0.483207
0.784573 0.360342 0.515557
0.79115 0.393332 0.545815
0.798627 0.422126 0.571923
0.809995 0.464637 0.612848
0.818891 0.493339 0.640345
0.0694285 0.238193 0.0945602
0.0691539 0.23473 0.0903792
0.0694743 0.231357 0.0895247
0.0693675 0.229068 0.0882887
0.0692454 0.227405 0.0843671
0.0706493 0.225116 0.0785077
0.0837568 0.229603 0.0812848
0.110933 0.236851 0.0883192
0.143389 0.240787 0.0930037
0.17705 0.246799 0.0944228
0.224491 0.242023 0.0843824
0.278431 0.235782 0.0843977
0.349081 0.227588 0.0963455
0.406714 0.210468 0.109056
0.457893 0.191836 0.112337
0.490166 0.176776 0.111376
0.525368 0.162158 0.110018
0.554757 0.143542 0.106981
0.578149 0.119066 0.102312
0.606439 0.0827497 0.0990158
0.681178 0.103609 0.158968
0.738186 0.137789 0.24593
0.765225 0.170871 0.314595
0.770413 0.198779 0.35639
0.77351 0.235172 0.3785
0.774426 0.265095 0.411307
0.777432 0.297215 0.445258
0.782177 0.333806 0.479561
0.78735 0.369848 0.513222
0.793515 0.403418 0.546059
0.800443 0.431998 0.573816
0.812009 0.472099 0.614588
0.820447 0.500084 0.642649
0.0696117 0.288716 0.11194
0.069398 0.286793 0.110185
0.069276 0.282383 0.105257
0.0694591 0.278859 0.100511
0.0692302 0.27779 0.0969253
0.0690623 0.274693 0.0900893
0.0792859 0.272953 0.0841382
0.101869 0.279683 0.088838
0.1364 0.285435 0.0952621
0.176074 0.28838 0.100038
0.217792 0.291249 0.0963912
0.270527 0.284825 0.0868696
0.332677 0.282506 0.0867323
0.402304 0.279103 0.103243
0.458457 0.266239 0.11986
0.512291 0.246479 0.130449
0.546517 0.233341 0.131594
0.587045 0.210788 0.133852
0.621729 0.188907 0.134218
0.649088 0.159197 0.131197
0.675608 0.12285 0.130632
0.725994 0.118151 0.170275
0.768353 0.162493 0.259785
0.774624 0.204913 0.330312
0.773541 0.236149 0.377142
0.775387 0.268421 0.412451
0.780072 0.306432 0.441062
0.784283 0.345327 0.473732
0.789273 0.381491 0.51014
0.796002 0.414649 0.545403
0.803494 0.444892 0.576791
0.811521 0.471092 0.604547
0.822309 0.508324 0.644831
0.0738079 0.339178 0.130205
0.0738994 0.337804 0.127199
0.0742199 0.334737 0.12282
0.0739757 0.331029 0.116915
0.0745861 0.329992 0.113176
0.0754253 0.328923 0.10869
0.0760357 0.325338 0.100984
0.0902266 0.323293 0.092668
0.121111 0.328252 0.0962234
0.161913 0.333288 0.104662
0.21735 0.3337 0.107256
0.26244 0.338262 0.101366
0.318593 0.329885 0.0936904
0.385916 0.333028 0.0905165
0.455024 0.334752 0.113649
0.510674 0.329 0.135454
0.563561 0.313115 0.157153
0.597894 0.30428 0.159213
0.642252 0.276158 0.162524
0.677867 0.251682 0.160281
0.711223 0.217441 0.160113
0.736843 0.176776 0.161975
0.765957 0.148241 0.179904
0.77908 0.187915 0.25539
0.777111 0.246494 0.33257
0.776638 0.271229 0.40087
0.778958 0.30544 0.451575
0.787762 0.358419 0.46894
0.793881 0.395605 0.506722
0.800656 0.42945 0.546075
0.806271 0.458732 0.579522
0.814328 0.484718 0.609033
0.821408 0.505745 0.631952
0.0835584 0.391684 0.151308
0.0830701 0.390005 0.14847
0.0820172 0.387152 0.143343
0.0829633 0.384573 0.138994
0.0836194 0.382971 0.135027
0.0840162 0.382528 0.131716
0.0849317 0.381079 0.1252
0.0882277 0.375799 0.114183
0.10515 0.37319 0.105119
0.143343 0.378363 0.10985
0.197925 0.380743 0.117052
0.263951 0.379339 0.11725
0.313863 0.385763 0.107012
0.375036 0.37966 0.103563
0.439673 0.385077 0.0997787
0.507744 0.390066 0.128923
0.563638 0.391379 0.156191
0.616724 0.38114 0.182132
0.646464 0.37435 0.195529
0.689632 0.351995 0.201709
0.72668 0.324758 0.201205
0.75523 0.292897 0.199237
0.774975 0.251179 0.192248
0.782437 0.228611 0.210895
0.783825 0.23299 0.252995
0.783047 0.293645 0.334722
0.782986 0.319646 0.415839
0.786679 0.355337 0.477531
0.798672 0.412009 0.5019
0.80473 0.445701 0.545663
0.811307 0.47512 0.582544
0.818021 0.500908 0.614664
0.824781 0.520348 0.637995
0.0938125 0.445777 0.179324
0.093492 0.44506 0.176226
0.0932479 0.442176 0.172244
0.0936141 0.439841 0.167208
0.0947433 0.438987 0.162478
0.0957809 0.43714 0.157748
0.0982986 0.435737 0.153216
0.102693 0.434043 0.145815
0.108232 0.428443 0.130144
0.129992 0.424842 0.122606
0.175463 0.428565 0.128298
0.251942 0.425711 0.132342
0.317464 0.42652 0.129366
0.36936 0.435492 0.116747
0.43154 0.431739 0.121157
0.493767 0.437766 0.116258
0.561807 0.446128 0.151049
0.614435 0.451987 0.181949
0.665385 0.445975 0.216251
0.696757 0.441001 0.233097
0.728542 0.426673 0.250538
0.761151 0.398123 0.252796
0.78233 0.373007 0.247761
0.784466 0.330053 0.236088
0.784573 0.293156 0.230655
0.783719 0.296696 0.263798
0.788861 0.362051 0.354467
0.793469 0.37731 0.436896
0.796963 0.4103 0.50753
0.809247 0.457984 0.540063
0.81677 0.492882 0.584085
0.823163 0.520272 0.620966
0.829053 0.538537 0.643748
0.109407 0.501259 0.221592
0.109331 0.50045 0.217899
0.109407 0.499046 0.214038
0.109987 0.497063 0.20856
0.112795 0.495445 0.202502
0.115511 0.493202 0.195956
0.119234 0.491539 0.188891
0.122774 0.489647 0.18114
0.126726 0.487663 0.170977
0.131594 0.480583 0.14963
0.160586 0.475639 0.139574
0.229953 0.47393 0.145022
0.316167 0.471656 0.151492
0.372061 0.47599 0.143664
0.427787 0.486992 0.132906
0.487541 0.484123 0.143069
0.549584 0.491142 0.13962
0.615152 0.501122 0.177798
0.66453 0.509071 0.214862
0.711482 0.50753 0.249943
0.738857 0.505913 0.267582
0.762127 0.498329 0.282597
0.781842 0.480354 0.296803
0.788342 0.450141 0.291875
0.786511 0.414954 0.27776
0.785718 0.372717 0.266026
0.786679 0.354345 0.280766
0.795422 0.415488 0.379248
0.805844 0.432914 0.462196
0.809522 0.461402 0.540475
0.816144 0.494652 0.595972
0.828946 0.538399 0.621881
0.834485 0.557229 0.650462
0.133333 0.560006 0.269047
0.133806 0.559411 0.266423
0.133791 0.558267 0.263066
0.134508 0.556008 0.258946
0.135851 0.554696 0.254368
0.137118 0.552773 0.248905
0.140169 0.550225 0.241459
0.143923 0.547967 0.232227
0.147509 0.545037 0.2206
0.151949 0.540825 0.201419
0.158175 0.532998 0.171191
0.205158 0.526696 0.16289
0.295186 0.521157 0.171267
0.382391 0.519783 0.177325
0.42649 0.527855 0.163439
0.482094 0.539651 0.15317
0.539315 0.537392 0.166369
0.601068 0.545785 0.165225
0.663172 0.555657 0.210498
0.710613 0.565087 0.250095
0.746654 0.56733 0.282445
0.768811 0.567956 0.300984
0.785962 0.565423 0.313848
0.79678 0.55491 0.322225
0.796628 0.534585 0.322835
0.793469 0.503639 0.320256
0.790951 0.459205 0.307378
0.788022 0.41323 0.299611
0.802899 0.466438 0.409689
0.817807 0.494957 0.496468
0.823407 0.51191 0.576944
0.830869 0.546136 0.627771
0.838514 0.574044 0.655772
0.145953 0.619562 0.315038
0.149981 0.618585 0.313619
0.15198 0.617639 0.312016
0.152605 0.615808 0.308888
0.153826 0.614618 0.30515
0.155947 0.612528 0.300771
0.158389 0.610391 0.294759
0.163439 0.606683 0.284596
0.168582 0.60235 0.272129
0.173632 0.598337 0.258793
0.18056 0.592538 0.235615
0.193362 0.583413 0.194614
0.273045 0.57409 0.192065
0.367117 0.56849 0.20267
0.440452 0.570459 0.197742
0.480995 0.581399 0.186984
0.535409 0.592584 0.179751
0.588418 0.590158 0.199542
0.647532 0.5991 0.203876
0.70454 0.608515 0.249104
0.743481 0.616724 0.285618
0.771954 0.622141 0.314824
0.788586 0.623087 0.332158
0.798367 0.622065 0.340215
0.799573 0.614252 0.339635
0.800626 0.599512 0.340749
0.800992 0.57612 0.341299
0.799603 0.539727 0.338659
0.794476 0.480934 0.328695
0.812039 0.51342 0.44622
0.829877 0.545708 0.539864
0.836362 0.559731 0.618662
0.841443 0.580591 0.674311
0.157061 0.678126 0.359091
0.15555 0.677516 0.356283
0.158145 0.676768 0.354452
0.161624 0.675349 0.353368
0.168292 0.674403 0.352697
0.175845 0.672465 0.351537
0.179049 0.669383 0.345556
0.184512 0.66601 0.337407
0.191608 0.661524 0.326009
0.198795 0.655528 0.309743
0.206775 0.650446 0.291493
0.216999 0.6421 0.261067
0.252781 0.630289 0.226658
0.353201 0.618997 0.231617
0.43946 0.616785 0.239902
0.494926 0.622492 0.230716
0.535607 0.633463 0.22565
0.585504 0.64358 0.221668
0.633036 0.64036 0.242054
0.688914 0.648295 0.250401
0.73637 0.656748 0.289342
0.766934 0.663432 0.325429
0.78793 0.667628 0.352346
0.799222 0.668757 0.366476
0.800717 0.6663 0.366064
0.800519 0.660349 0.359976
0.80119 0.648142 0.359731
0.801495 0.629099 0.360433
0.802182 0.597116 0.358175
0.802701 0.549172 0.360479
0.821607 0.561379 0.490806
0.84477 0.591562 0.590219
0.848936 0.603998 0.665934
0.186389 0.731746 0.407645
0.184466 0.731182 0.404532
0.182467 0.730922 0.402106
0.181552 0.730617 0.399298
0.181476 0.729961 0.396521
0.185992 0.728542 0.394736
0.196689 0.725887 0.392676
0.210071 0.722179 0.388281
0.218326 0.717632 0.377813
0.228367 0.711269 0.36202
0.237812 0.703792 0.342092
0.246586 0.696986 0.318883
0.264775 0.686671 0.284749
0.337011 0.67364 0.267231
0.432471 0.663432 0.273655
0.502022 0.663218 0.278462
0.544854 0.670665 0.270008
0.58323 0.679683 0.267674
0.62977 0.688136 0.267155
0.673793 0.684749 0.285649
0.72221 0.691646 0.298543
0.760128 0.701228 0.341115
0.784421 0.705394 0.376272
0.799558 0.708141 0.398917
0.803677 0.706462 0.407126
0.803479 0.703151 0.403128
0.802411 0.697444 0.391699
0.802365 0.686885 0.387274
0.803021 0.669703 0.383444
0.803418 0.639658 0.379751
0.807736 0.598337 0.405158
0.8336 0.615488 0.551263
0.857527 0.628901 0.64622
0.227726 0.773541 0.453101
0.225238 0.773709 0.451331
0.222873 0.773602 0.448875
0.220615 0.773709 0.447211
0.219638 0.773678 0.444938
0.219867 0.773022 0.442115
0.221118 0.771481 0.437705
0.23061 0.768856 0.433433
0.24979 0.763912 0.428122
0.259632 0.758114 0.415274
0.269764 0.750164 0.396002
0.279637 0.741512 0.371435
0.293919 0.733532 0.345129
0.330205 0.72401 0.315999
0.420356 0.707149 0.310826
0.495827 0.700557 0.315648
0.54934 0.702586 0.315602
0.587442 0.709117 0.313115
0.624735 0.716548 0.314565
0.667506 0.722942 0.316381
0.707774 0.720897 0.335805
0.747692 0.728405 0.36495
0.780133 0.73698 0.403616
0.798352 0.740627 0.431189
0.80856 0.740795 0.448539
0.810864 0.739071 0.455253
0.80972 0.73608 0.450599
0.807568 0.730587 0.43624
0.806958 0.720409 0.428016
0.806531 0.70341 0.418494
0.806561 0.673594 0.406943
0.819669 0.646876 0.482811
0.85243 0.667674 0.627131
0.272541 0.802808 0.491188
0.270863 0.803265 0.489693
0.268406 0.803037 0.487785
0.267048 0.802518 0.48513
0.266072 0.802396 0.483009
0.265339 0.802182 0.480751
0.266239 0.801205 0.47689
0.26717 0.798993 0.471183
0.278843 0.795178 0.465827
0.291646 0.790143 0.457511
0.302434 0.783017 0.441306
0.316609 0.774609 0.419852
0.331899 0.765942 0.395438
0.360967 0.757321 0.374823
0.414557 0.743648 0.356786
0.490822 0.731777 0.355383
0.551522 0.729641 0.360647
0.592126 0.732479 0.360403
0.625971 0.738247 0.363973
0.660746 0.74374 0.370138
0.702892 0.750195 0.377234
0.737453 0.750332 0.402396
0.769879 0.756664 0.429862
0.794827 0.762921 0.462409
0.812192 0.766323 0.485924
0.818723 0.765927 0.499626
0.819715 0.76379 0.504509
0.818372 0.760708 0.498634
0.815641 0.756161 0.483436
0.81413 0.746532 0.472313
0.811505 0.730236 0.45716
0.810208 0.698024 0.439078
0.841489 0.693385 0.587945
0.310658 0.821881 0.520455
0.309148 0.822049 0.518898
0.30663 0.822202 0.517327
0.304723 0.822141 0.515999
0.303716 0.822141 0.513909
0.303227 0.821942 0.511986
0.303166 0.821363 0.509209
0.304082 0.820111 0.504631
0.305257 0.817197 0.497276
0.318639 0.812314 0.491386
0.330068 0.806729 0.479271
0.34609 0.799313 0.463035
0.369574 0.789609 0.443336
0.399786 0.779919 0.426917
0.442191 0.769055 0.419776
0.495171 0.75874 0.416281
0.550225 0.754635 0.418143
0.594553 0.755306 0.422751
0.629267 0.758358 0.425711
0.662028 0.7617 0.431281
0.69691 0.766293 0.435843
0.732357 0.772107 0.440772
0.76112 0.773053 0.464607
0.786847 0.778119 0.488884
0.807431 0.782727 0.516121
0.817914 0.78555 0.535393
0.822721 0.785657 0.54612
0.824582 0.784497 0.55021
0.823972 0.781186 0.542702
0.822034 0.775952 0.527718
0.821622 0.766033 0.514107
0.818952 0.747936 0.494011
0.824369 0.720897 0.511406
0.347433 0.831327 0.542931
0.345998 0.831739 0.541436
0.343328 0.832105 0.5402
0.341573 0.83212 0.538979
0.340108 0.832059 0.537484
0.339086 0.831754 0.534981
0.338231 0.831098 0.532036
0.337743 0.830396 0.528069
0.338445 0.828702 0.522728
0.341787 0.826062 0.515877
0.359045 0.820737 0.509041
0.377188 0.813916 0.4981
0.402243 0.805173 0.48368
0.437156 0.794415 0.473259
0.472282 0.785718 0.468864
0.510353 0.779538 0.468986
0.554086 0.774563 0.470268
0.598276 0.773724 0.475441
0.63563 0.77496 0.478813
0.668101 0.777264 0.481621
0.702495 0.781537 0.486213
0.730678 0.785534 0.489937
0.758114 0.789899 0.497795
0.780362 0.791012 0.519722
0.801755 0.796201 0.543282
0.816938 0.799893 0.565484
0.823529 0.801068 0.580728
0.82768 0.801755 0.590066
0.82887 0.800443 0.591684
0.827848 0.797116 0.582605
0.825513 0.791424 0.566644
0.825803 0.780789 0.549661
0.823682 0.755978 0.521706
0.394202 0.830381 0.562554
0.390646 0.83093 0.560861
0.387442 0.831662 0.559564
0.385412 0.832212 0.55848
0.383841 0.832654 0.557122
0.382086 0.832395 0.555337
0.380346 0.832303 0.552789
0.379065 0.83151 0.548669
0.379095 0.829892 0.54377
0.382452 0.827512 0.538781
0.392126 0.823667 0.532952
0.411551 0.817533 0.526238
0.439124 0.809857 0.519677
0.469505 0.80209 0.514366
0.500038 0.795407 0.509972
0.530297 0.791653 0.510735
0.562524 0.788617 0.512932
0.602396 0.786847 0.517418
0.641871 0.787671 0.523308
0.675517 0.789364 0.526085
0.707164 0.792935 0.530846
0.73463 0.79646 0.534646
0.756237 0.800381 0.538323
0.777234 0.804898 0.548913
0.796521 0.80708 0.570214
0.81387 0.810575 0.591531
0.825055 0.813916 0.611048
0.83003 0.815564 0.623667
0.83331 0.816266 0.631312
0.834287 0.814786 0.631128
0.830869 0.810483 0.61619
0.830304 0.803479 0.600809
0.830503 0.78909 0.576074
0.460502 0.827451 0.590799
0.455451 0.827726 0.588952
0.450309 0.82829 0.585702
0.447837 0.82855 0.58407
0.444968 0.828779 0.582712
0.442237 0.828534 0.580499
0.440604 0.82826 0.577752
0.43946 0.82768 0.574701
0.43801 0.826551 0.570306
0.439124 0.824796 0.566293
0.448249 0.822324 0.562249
0.463127 0.818738 0.560388
0.481651 0.814725 0.55726
0.503243 0.809979 0.554559
0.527169 0.805417 0.551019
0.553643 0.801953 0.549538
0.580545 0.800305 0.553338
0.611856 0.799146 0.55726
0.65008 0.799298 0.562051
0.684138 0.800381 0.564782
0.712886 0.802823 0.568841
0.738369 0.805997 0.572259
0.758328 0.809232 0.575647
0.776043 0.81297 0.582528
0.79266 0.815412 0.596048
0.812345 0.81915 0.617777
0.826062 0.824125 0.63827
0.834592 0.827741 0.654597
0.839185 0.830152 0.667109
0.84184 0.830884 0.673136
0.841154 0.828946 0.668925
0.836576 0.822065 0.64828
0.834623 0.811826 0.626856
0.53315 0.829679 0.626825
0.52784 0.829679 0.624643
0.522866 0.829297 0.62118
0.519646 0.829282 0.619532
0.51693 0.829145 0.617746
0.515099 0.82887 0.616526
0.512749 0.82887 0.614099
0.510369 0.828153 0.610773
0.506188 0.827924 0.605966
0.502098 0.826749 0.600671
0.504738 0.825132 0.597375
0.513375 0.823529 0.596292
0.524987 0.821149 0.594659
0.539757 0.818921 0.59353
0.557168 0.815991 0.59144
0.577615 0.813077 0.589578
0.60238 0.811582 0.590509
0.627146 0.810956 0.595346
0.658274 0.810849 0.599802
0.692866 0.811627 0.603128
0.72079 0.813077 0.604822
0.74403 0.815808 0.610712
0.764874 0.818296 0.616098
0.779934 0.820859 0.618967
