bundles/resolve-cinematic-luts/Phantom Luts/A7s3 Phntm Film LUTs - G6/ATOMOS Monitor LUTs/Slog3/Vision A7s3-Legacy AML.cube
TITLE "Generated by Resolve"
LUT_3D_SIZE 5
0.079881 0.0900893 0.0820783
0.112825 0.0898604 0.0813611
0.386282 0.0778363 0.0881208
0.774014 0.180331 0.361624
0.821897 0.429709 0.595346
0.0836347 0.144808 0.0966964
0.119707 0.146288 0.0882887
0.402853 0.0928664 0.0795148
0.780591 0.189425 0.347753
0.825116 0.44506 0.598154
0.144686 0.50663 0.272877
0.148821 0.499565 0.240223
0.510399 0.520073 0.153903
0.770169 0.440299 0.30016
0.843122 0.526589 0.613794
0.410147 0.812787 0.575708
0.398978 0.810773 0.558694
0.545907 0.813535 0.566217
0.795926 0.826825 0.553872
0.829175 0.784833 0.537789
0.762478 0.873793 0.80441
0.744625 0.865934 0.788464
0.752956 0.866514 0.78854
0.823407 0.885344 0.823407
0.865385 0.896986 0.855283
0.0791028 0.0902113 0.118486
0.125856 0.0903487 0.115129
0.4094 0.0820478 0.137758
0.782422 0.212543 0.419898
0.832517 0.484703 0.645701
0.0780804 0.142245 0.125597
0.133577 0.146044 0.135866
0.435966 0.079057 0.103395
0.784466 0.221836 0.409369
0.850782 0.580545 0.719463
0.146487 0.510079 0.304601
0.144015 0.504631 0.271626
0.507515 0.517449 0.152743
0.77406 0.403998 0.296513
0.859831 0.625193 0.731563
0.410986 0.814969 0.587671
0.397757 0.813184 0.569375
0.526207 0.812879 0.562005
0.792416 0.824948 0.545922
0.82591 0.761471 0.522942
0.76434 0.874586 0.806668
0.758587 0.871717 0.801083
0.760693 0.870024 0.796643
0.820218 0.884169 0.821408
0.863706 0.896696 0.851469
0.0958724 0.099794 0.346014
0.143008 0.0940261 0.355032
0.407034 0.0912642 0.341772
0.754086 0.167437 0.516793
0.828641 0.474434 0.666468
0.0901198 0.109804 0.369238
0.108263 0.10663 0.412619
0.430213 0.0945754 0.363149
0.763012 0.186358 0.520592
0.852415 0.598581 0.74696
0.0829328 0.494591 0.48838
0.0837568 0.495583 0.489036
0.523919 0.535058 0.515465
0.812436 0.362295 0.478462
0.868376 0.712551 0.801572
0.389258 0.818204 0.647379
0.383978 0.818753 0.633341
0.458732 0.813916 0.592309
0.788205 0.82417 0.551873
0.834684 0.755093 0.636088
0.753109 0.872724 0.803967
0.751431 0.871214 0.801038
0.761059 0.873045 0.803098
0.814343 0.882322 0.818677
0.862898 0.896544 0.848951
0.140124 0.138659 0.599054
0.17734 0.137331 0.61091
0.427283 0.124041 0.571038
0.764599 0.188556 0.709819
0.807797 0.358907 0.778058
0.119997 0.156268 0.635111
0.142824 0.163699 0.684596
0.46949 0.139818 0.659541
0.76733 0.188815 0.726131
0.849668 0.552926 0.825498
0.112215 0.474876 0.747158
0.130022 0.470512 0.766979
0.456672 0.460807 0.835492
0.787778 0.263615 0.746563
0.869398 0.691829 0.848264
0.265309 0.818998 0.829343
0.25832 0.815854 0.824857
0.32665 0.81355 0.818723
0.811368 0.838758 0.822003
0.869932 0.715969 0.801678
0.721187 0.876234 0.824048
0.727321 0.876722 0.821103
0.746899 0.880201 0.824338
0.787228 0.882445 0.824521
0.866667 0.897307 0.857176
0.163821 0.186435 0.751842
0.162829 0.186572 0.751888
0.442802 0.146059 0.712734
0.754665 0.177462 0.731151
0.775631 0.201221 0.747692
0.145876 0.200153 0.757519
0.145586 0.218433 0.763241
0.319936 0.136416 0.721325
0.759319 0.175326 0.73048
0.799893 0.307988 0.777829
0.155795 0.493843 0.817319
0.155657 0.516716 0.837034
0.162188 0.525322 0.853956
0.817685 0.439857 0.806271
0.841779 0.51754 0.824964
0.184771 0.80943 0.888594
0.167193 0.806149 0.888823
0.216342 0.796094 0.886213
0.769299 0.816724 0.895018
0.866484 0.665812 0.860121
0.679683 0.872648 0.873075
0.688563 0.874235 0.872679
0.714458 0.878172 0.874311
0.764569 0.887404 0.877897
0.872755 0.904891 0.889448
