bundles/resolve-cinematic-luts/Phantom Luts/A7s3 Phntm Film LUTs - G6/ATOMOS Monitor LUTs/Slog3/VisionTeal A7s3 AML.cube
TITLE "Generated by Resolve"
LUT_3D_SIZE 5
0.0725261 0.0807507 0.0793164
0.130648 0.0767681 0.0786755
0.437705 0.0654765 0.104372
0.765591 0.205051 0.417105
0.813046 0.471107 0.635447
0.0700542 0.16672 0.0893721
0.148165 0.164065 0.0868544
0.464256 0.0812238 0.076173
0.770092 0.223026 0.395895
0.817212 0.488304 0.639414
0.133333 0.560006 0.269047
0.147509 0.545037 0.2206
0.539315 0.537392 0.166369
0.796628 0.534585 0.322835
0.838514 0.574044 0.655772
0.394202 0.830381 0.562554
0.379095 0.829892 0.54377
0.562524 0.788617 0.512932
0.796521 0.80708 0.570214
0.830503 0.78909 0.576074
0.787793 0.881117 0.806882
0.767788 0.874708 0.789487
0.773053 0.874067 0.787808
0.842451 0.885985 0.820081
0.886366 0.895918 0.849577
0.0717021 0.0883345 0.139773
0.136324 0.0771954 0.145159
0.454276 0.0698253 0.189944
0.766522 0.241321 0.477745
0.833509 0.536889 0.703944
0.0705119 0.164111 0.139315
0.150149 0.170382 0.163378
0.483894 0.0703441 0.13196
0.769253 0.250278 0.454383
0.855024 0.618723 0.757671
0.109819 0.568338 0.308293
0.128496 0.559899 0.271229
0.536004 0.535241 0.166094
0.794476 0.492424 0.332647
0.864378 0.66125 0.760861
0.396567 0.832792 0.577691
0.376837 0.834882 0.560906
0.542519 0.789487 0.510369
0.794141 0.803464 0.561044
0.830396 0.774304 0.561334
0.790158 0.882033 0.80975
0.78291 0.879866 0.803128
0.782834 0.877836 0.797406
0.838804 0.885008 0.817777
0.885374 0.895094 0.846006
0.0697948 0.12459 0.393362
0.121492 0.113207 0.428367
0.446723 0.076997 0.438514
0.75378 0.158572 0.617884
0.827176 0.515801 0.719799
0.0697948 0.153109 0.405707
0.0697185 0.13753 0.46154
0.472282 0.0831617 0.463386
0.761288 0.179202 0.614237
0.855146 0.624308 0.77673
0.0982528 0.572351 0.502983
0.0978103 0.574258 0.506188
0.58941 0.582681 0.558785
0.794186 0.404166 0.523049
0.873503 0.736065 0.813886
0.396857 0.84181 0.657313
0.384726 0.843458 0.646922
0.44828 0.82504 0.578073
0.791394 0.803067 0.567636
0.858198 0.779599 0.674266
0.782895 0.880781 0.808515
0.779934 0.880034 0.804898
0.78555 0.880522 0.805005
0.832944 0.884184 0.816434
0.885084 0.894789 0.844953
0.0701152 0.192355 0.634882
0.086183 0.1944 0.666773
0.442786 0.105364 0.669123
0.761746 0.176425 0.795209
0.797604 0.387976 0.820508
0.0702678 0.234897 0.648264
0.0701457 0.226352 0.686702
0.475547 0.11606 0.733104
0.762005 0.179934 0.804135
0.843565 0.578882 0.855329
0.0710613 0.584665 0.714473
0.0710002 0.581033 0.729061
0.451637 0.546059 0.824567
0.780346 0.274083 0.809018
0.869337 0.715572 0.86038
0.326345 0.863279 0.805997
0.320607 0.862409 0.804562
0.386816 0.853147 0.79942
0.836362 0.846464 0.826154
0.874052 0.728191 0.816175
0.770474 0.88452 0.825025
0.775235 0.885466 0.82562
0.789853 0.887388 0.830076
0.812345 0.888258 0.825315
0.886763 0.8963 0.851637
0.0704662 0.245716 0.730236
0.0704662 0.245914 0.729671
0.434134 0.123934 0.762478
0.751003 0.166827 0.805219
0.769512 0.201221 0.817533
0.0701457 0.279759 0.728847
0.0700847 0.309468 0.736477
0.295064 0.176349 0.768368
0.753307 0.163592 0.804761
0.788434 0.330846 0.826047
0.0713207 0.607599 0.765301
0.0714122 0.631601 0.779034
0.071519 0.641779 0.789654
0.809079 0.46891 0.844739
0.833432 0.54435 0.859648
0.227237 0.879408 0.849332
0.206073 0.881468 0.852232
0.274708 0.860533 0.847807
0.795621 0.834043 0.87509
0.862516 0.690867 0.876707
0.735103 0.886198 0.851667
0.742611 0.886748 0.853101
0.764599 0.889479 0.858808
0.806104 0.89546 0.868925
0.893675 0.902754 0.88777
