bundles/resolve-cinematic-luts/Phantom Luts/A7s3 Phntm Film LUTs - G6/ATOMOS Monitor LUTs/Slog3/VisionTeal A7s3-Legacy AML.cube
TITLE "Generated by Resolve"
LUT_3D_SIZE 9
0.0734875 0.0914168 0.0897688
0.0759747 0.0914778 0.0900587
0.117662 0.0874495 0.0864424
0.232547 0.0810254 0.0798657
0.391669 0.0725414 0.092546
0.576547 0.0864271 0.174594
0.762905 0.176577 0.370352
0.778714 0.294286 0.483314
0.803784 0.424689 0.588113
0.0738384 0.0970626 0.0899977
0.0789654 0.0965286 0.0903487
0.118547 0.0915694 0.0878767
0.244251 0.0847028 0.0785687
0.408499 0.0715343 0.0887007
0.594354 0.0907301 0.175326
0.764584 0.17908 0.365499
0.780316 0.300542 0.483116
0.8056 0.429313 0.5906
0.07393 0.147143 0.0946975
0.0775464 0.14432 0.0900587
0.127764 0.143465 0.0946365
0.260884 0.115831 0.085069
0.41146 0.0833295 0.0774853
0.632349 0.0978714 0.179141
0.769619 0.189258 0.355322
0.781643 0.305119 0.468818
0.808209 0.441169 0.591119
0.0705882 0.279835 0.114488
0.0751812 0.272709 0.105135
0.10277 0.276722 0.0993668
0.270649 0.28661 0.0943008
0.519814 0.254414 0.139376
0.669276 0.175189 0.143328
0.778164 0.207507 0.305867
0.789593 0.345693 0.458488
0.810773 0.45832 0.582422
0.132418 0.508385 0.231128
0.13167 0.503685 0.218433
0.138521 0.496651 0.19086
0.249882 0.48452 0.161257
0.496117 0.496025 0.156191
0.734508 0.520226 0.271489
0.791409 0.468574 0.304997
0.795911 0.413626 0.364981
0.830472 0.525231 0.606424
0.235813 0.74641 0.412192
0.232715 0.745434 0.405203
0.244938 0.738064 0.386954
0.274342 0.715846 0.317586
0.519615 0.688121 0.298116
0.68481 0.705272 0.30309
0.808118 0.721889 0.413123
0.808927 0.696284 0.397955
0.848066 0.622599 0.581689
0.365942 0.83241 0.528161
0.359258 0.83386 0.523507
0.360952 0.830915 0.512291
0.41445 0.811185 0.489128
0.528588 0.784466 0.475929
0.673243 0.782971 0.487953
0.787747 0.797406 0.521279
0.820859 0.805875 0.580102
0.822232 0.776379 0.52813
0.595651 0.836835 0.657801
0.577523 0.835645 0.646647
0.571557 0.832349 0.63682
0.569436 0.828214 0.623865
0.610651 0.822995 0.622263
0.703548 0.821149 0.637552
0.786877 0.829175 0.650782
0.843549 0.841169 0.693355
0.852064 0.853681 0.729503
0.758099 0.872877 0.784649
0.737682 0.867247 0.768994
0.733364 0.865309 0.764858
0.732265 0.863935 0.761563
0.739345 0.864271 0.761273
0.775051 0.869429 0.778119
0.824781 0.877302 0.798367
0.865919 0.88394 0.809277
0.881361 0.890974 0.833707
0.0727245 0.0919661 0.0927443
0.0776837 0.0916609 0.0937667
0.128099 0.0869001 0.101442
0.246082 0.0782025 0.0963302
0.414801 0.0733654 0.113939
0.599725 0.0927443 0.2121
0.766293 0.186618 0.392813
0.782025 0.312535 0.507164
0.811246 0.446204 0.614252
0.0732128 0.0965133 0.0934157
0.0779431 0.0961776 0.0945449
0.133913 0.0884413 0.0893263
0.252735 0.0796368 0.08159
0.410468 0.0734264 0.100496
0.603983 0.0940108 0.203906
0.768078 0.190097 0.392798
0.785534 0.329854 0.516701
0.81825 0.467033 0.632288
0.0733349 0.148379 0.106279
0.0736553 0.147433 0.0950179
0.126619 0.142885 0.0950637
0.271122 0.110124 0.0857862
0.432715 0.0757458 0.081239
0.63711 0.100237 0.202213
0.771054 0.200824 0.382513
0.788083 0.346853 0.51371
0.821851 0.483833 0.63888
0.069398 0.284825 0.124361
0.0692454 0.280461 0.113588
0.0823682 0.271901 0.0952468
0.26949 0.285969 0.0941024
0.519722 0.246662 0.139452
0.676905 0.154055 0.144503
0.776608 0.216419 0.356023
0.7944 0.381323 0.50309
0.830396 0.520211 0.655253
0.127413 0.511452 0.244785
0.127565 0.509163 0.2336
0.135927 0.501976 0.20679
0.221759 0.48629 0.158221
0.494697 0.495689 0.156649
0.740108 0.515755 0.277562
0.790143 0.449226 0.299565
0.806729 0.439414 0.429786
0.845731 0.574884 0.677089
0.217227 0.750164 0.418265
0.223804 0.750225 0.414939
0.239322 0.74374 0.399603
0.270039 0.718318 0.328389
0.510857 0.687037 0.297475
0.681926 0.702815 0.299062
0.808667 0.719234 0.414588
0.810071 0.688945 0.398672
0.862226 0.625895 0.650065
0.363149 0.83415 0.531746
0.352789 0.83621 0.526314
0.35758 0.833143 0.517693
0.402304 0.814878 0.4916
0.520775 0.785229 0.475151
0.66894 0.782437 0.485054
0.786435 0.796414 0.517235
0.820798 0.80441 0.577066
0.823926 0.767697 0.521157
0.595804 0.837171 0.659358
0.582025 0.83711 0.652354
0.575463 0.834073 0.641718
0.568963 0.828733 0.625544
0.608301 0.823529 0.62385
0.698436 0.821027 0.636011
0.783825 0.827878 0.646906
0.842893 0.840009 0.689662
0.851484 0.852888 0.726696
0.76379 0.874861 0.789288
0.751827 0.871199 0.780392
0.746197 0.869291 0.774792
0.744106 0.867872 0.771252
0.748165 0.867399 0.769268
0.778531 0.871351 0.782361
0.824414 0.877607 0.799374
0.865629 0.884047 0.80972
0.881437 0.891081 0.834302
0.0716716 0.0957198 0.126329
0.0793317 0.094667 0.129152
0.123827 0.0884108 0.133852
0.239841 0.0806744 0.146853
0.410758 0.0755627 0.15021
0.617517 0.100893 0.260349
0.768154 0.207584 0.431815
0.789258 0.347601 0.544457
0.823911 0.489372 0.658656
0.071931 0.0966354 0.116991
0.0716869 0.0976272 0.135348
0.126894 0.0885481 0.137575
0.242023 0.0814679 0.131762
0.418387 0.0742046 0.134615
0.635218 0.104936 0.260365
0.769787 0.216785 0.43508
0.795544 0.382452 0.566033
0.84036 0.540597 0.704326
0.0708171 0.144579 0.127916
0.0708934 0.145678 0.128893
0.127123 0.147509 0.142702
0.295766 0.0975814 0.106889
0.435355 0.0740826 0.111925
0.64358 0.10602 0.230259
0.770901 0.213977 0.4112
0.794858 0.38703 0.554421
0.848295 0.57116 0.725216
0.0697795 0.28603 0.147173
0.0696117 0.28542 0.137835
0.0774243 0.278187 0.120272
0.268406 0.287999 0.109285
0.518776 0.226947 0.14258
0.712352 0.133776 0.172763
0.776303 0.22594 0.374456
0.798962 0.409613 0.541802
0.852567 0.589273 0.730098
0.108858 0.516136 0.260487
0.106935 0.512016 0.245975
0.127169 0.507988 0.233249
0.17438 0.487083 0.15697
0.492363 0.49369 0.156298
0.739269 0.509178 0.284657
0.789014 0.428016 0.298863
0.8094 0.431968 0.482063
0.859083 0.615946 0.730678
0.211398 0.752209 0.432792
0.204822 0.753735 0.427115
0.222354 0.749416 0.414572
0.260349 0.722362 0.347616
0.496437 0.685634 0.297124
0.680232 0.700832 0.296407
0.809781 0.71574 0.420859
0.811582 0.679179 0.405188
0.867689 0.663066 0.722454
0.363348 0.837186 0.54165
0.351873 0.840223 0.538933
0.345678 0.837629 0.524681
0.381613 0.8215 0.498512
0.510063 0.786465 0.474647
0.663905 0.781399 0.482216
0.784176 0.795254 0.51223
0.821027 0.802502 0.575296
0.824292 0.75877 0.516075
0.59292 0.837812 0.66067
0.578271 0.838148 0.653712
0.574487 0.836088 0.646845
0.569009 0.830091 0.629587
0.601923 0.823651 0.622431
0.690867 0.820203 0.631983
0.780423 0.826123 0.641764
0.840803 0.838178 0.683085
0.850278 0.850736 0.720241
0.760525 0.874022 0.787305
0.748806 0.870726 0.778714
0.75285 0.871443 0.781018
0.750378 0.869856 0.776638
0.750896 0.868391 0.77232
0.775387 0.870756 0.780682
0.820874 0.876249 0.796216
0.864057 0.88304 0.806424
0.880461 0.889723 0.829419
0.0708476 0.105669 0.211902
0.0758679 0.104555 0.221149
0.11487 0.0918135 0.229435
0.232868 0.0823377 0.225376
0.4047 0.0773175 0.263279
0.609415 0.115663 0.349004
0.763851 0.210361 0.469947
0.789624 0.346593 0.562097
0.818265 0.468833 0.648798
0.0708629 0.106447 0.205539
0.0708629 0.107912 0.229023
0.107927 0.10042 0.247791
0.236072 0.0822156 0.230304
0.407202 0.0780957 0.259724
0.618357 0.114656 0.338704
0.766461 0.220844 0.469978
0.79472 0.371923 0.575265
0.831495 0.511299 0.686671
0.0704051 0.142779 0.214328
0.0704814 0.141924 0.237079
0.0804303 0.134997 0.280217
0.26685 0.0853437 0.256001
0.412589 0.0796674 0.243412
0.646326 0.112062 0.323003
0.768078 0.239933 0.472007
0.804044 0.423758 0.602548
0.852155 0.584115 0.742138
0.0697337 0.277058 0.221988
0.0697185 0.278614 0.224445
0.0697642 0.277684 0.225849
0.30106 0.313985 0.294514
0.54023 0.207294 0.240772
0.694636 0.141588 0.274357
0.773098 0.240757 0.426566
0.804608 0.433646 0.585931
0.862806 0.630777 0.764279
0.115633 0.520943 0.335149
0.110216 0.52018 0.327459
0.110323 0.519265 0.311086
0.147311 0.502113 0.248844
0.494987 0.498039 0.23566
0.733959 0.490394 0.319661
0.792325 0.417441 0.342336
0.811078 0.449836 0.525643
0.869459 0.657435 0.767712
0.217777 0.750957 0.475166
0.209232 0.75407 0.471122
0.205692 0.753918 0.457008
0.223957 0.743221 0.411902
0.443961 0.687099 0.304387
0.674723 0.695399 0.295613
0.815213 0.711742 0.447379
0.819181 0.661341 0.447013
0.872908 0.680201 0.755764
0.365972 0.84181 0.567468
0.353017 0.846326 0.565789
0.346166 0.846387 0.55613
0.348013 0.835889 0.523583
0.485466 0.792401 0.479713
0.654734 0.781231 0.484398
0.78201 0.793973 0.508125
0.824948 0.80293 0.586404
0.829831 0.751141 0.5337
0.594491 0.838773 0.669734
0.580133 0.83975 0.664393
0.57438 0.838483 0.657618
0.569696 0.835492 0.643183
0.589685 0.825711 0.624933
0.680323 0.819898 0.630243
0.777386 0.825147 0.639979
0.83949 0.836469 0.678767
0.850019 0.850324 0.719356
0.757092 0.873121 0.786084
0.745052 0.870192 0.777417
0.749813 0.871504 0.780835
0.753277 0.871336 0.781018
0.7523 0.869764 0.775067
0.772152 0.870298 0.779355
0.817533 0.875303 0.793881
0.862562 0.882506 0.804257
0.879881 0.889235 0.82797
0.0699626 0.127138 0.345953
0.0700389 0.125139 0.356985
0.103136 0.121324 0.378332
0.220523 0.0873579 0.371115
0.39939 0.0836652 0.383764
0.614435 0.110674 0.476341
0.745632 0.151644 0.554208
0.787793 0.311925 0.625467
0.819242 0.465736 0.676112
0.0700084 0.128405 0.3467
0.0700999 0.130434 0.363348
0.0874495 0.126131 0.388998
0.214817 0.0877699 0.382193
0.405966 0.0842298 0.389441
0.618952 0.110262 0.476555
0.747463 0.154314 0.552758
0.793957 0.347326 0.632395
0.82771 0.493568 0.695705
0.070161 0.141024 0.360479
0.0698405 0.143145 0.378317
0.0698558 0.139406 0.412833
0.215167 0.0912642 0.432319
0.422171 0.0861372 0.405646
0.62649 0.111498 0.47718
0.75494 0.170626 0.553658
0.805203 0.416129 0.650187
0.849104 0.57673 0.750607
0.0695659 0.264729 0.370001
0.0694133 0.264881 0.385489
0.0694438 0.262226 0.404547
0.173175 0.260578 0.497337
0.501884 0.15819 0.478248
0.635828 0.116686 0.465385
0.765133 0.202533 0.539101
0.815 0.462898 0.660044
0.863874 0.636408 0.780499
0.0960555 0.516518 0.446387
0.0929732 0.517311 0.448402
0.0943923 0.518471 0.450019
0.108873 0.51046 0.445258
0.53846 0.531792 0.506188
0.760388 0.457389 0.475837
0.790097 0.354543 0.471458
0.812085 0.46334 0.60856
0.875303 0.701564 0.804257
0.20383 0.748943 0.559045
0.200061 0.750759 0.55761
0.203922 0.749172 0.551156
0.221134 0.743267 0.529274
0.40795 0.71957 0.482261
0.680171 0.702968 0.463462
0.824979 0.699626 0.513298
0.831342 0.625406 0.531746
0.877882 0.714778 0.780682
0.370535 0.844755 0.624994
0.356802 0.848783 0.622385
0.353033 0.849683 0.614511
0.356146 0.846204 0.594797
0.413672 0.824247 0.539162
0.635554 0.788388 0.523278
0.780789 0.794736 0.518547
0.834363 0.804669 0.613855
0.853727 0.757229 0.632074
0.596292 0.844144 0.693889
0.581872 0.844785 0.687556
0.576104 0.843824 0.681895
0.574548 0.841886 0.673014
0.574807 0.835706 0.646342
0.659815 0.822171 0.633722
0.772763 0.826062 0.646128
0.838804 0.835737 0.676661
0.852018 0.853697 0.729488
0.752636 0.872831 0.787274
0.741894 0.870359 0.780224
0.748257 0.872068 0.783276
0.751446 0.872282 0.783948
0.755825 0.872404 0.783047
0.766171 0.871443 0.780499
0.813153 0.875029 0.793423
0.86157 0.882536 0.804547
0.87953 0.889036 0.826658
0.0698711 0.15436 0.475013
0.0697948 0.152743 0.48571
0.0872969 0.152682 0.507042
0.19559 0.0987716 0.518273
0.396048 0.101091 0.514138
0.617685 0.126207 0.598962
0.76347 0.192615 0.688518
0.773205 0.250935 0.728725
0.811383 0.428519 0.761532
0.0698405 0.157031 0.477317
0.0700999 0.158297 0.489601
0.0751049 0.15642 0.514717
0.19089 0.112917 0.536416
0.396002 0.101122 0.520912
0.625757 0.128084 0.607034
0.76437 0.195071 0.691585
0.779767 0.271321 0.739055
0.823438 0.47396 0.772763
0.0699321 0.175204 0.501366
0.0698558 0.178851 0.515404
0.0698558 0.17554 0.550668
0.19176 0.1579 0.590723
0.431891 0.112047 0.574548
0.639536 0.132418 0.619654
0.764614 0.19675 0.697948
0.790127 0.335302 0.754055
0.849165 0.574639 0.798535
0.0698863 0.260868 0.5131
0.0698405 0.2598 0.525261
0.0701305 0.255863 0.545998
0.078294 0.24036 0.623209
0.424872 0.126101 0.61857
0.664042 0.143297 0.64033
0.763409 0.19881 0.69369
0.797391 0.382895 0.75494
0.864622 0.635767 0.812924
0.070985 0.521141 0.570108
0.071046 0.521447 0.579477
0.0709239 0.519738 0.588281
0.0709544 0.510063 0.60885
0.450431 0.49044 0.719478
0.744808 0.416876 0.707958
0.784024 0.300114 0.695781
0.805097 0.424903 0.727031
0.874922 0.692164 0.824292
0.180468 0.743236 0.672068
0.176974 0.743709 0.672251
0.177783 0.742763 0.671443
0.181842 0.739055 0.668421
0.379568 0.727855 0.669093
0.717205 0.718212 0.696147
0.863447 0.668421 0.680232
0.842115 0.568841 0.664408
0.876158 0.712306 0.809277
0.311879 0.86186 0.721706
0.302373 0.862928 0.717006
0.300801 0.861585 0.710979
0.316716 0.85716 0.70013
0.400015 0.84332 0.677485
0.644236 0.823957 0.676188
0.800366 0.817365 0.67483
0.857084 0.806806 0.678889
0.877623 0.75877 0.741558
0.582406 0.857481 0.741009
0.572625 0.857206 0.735546
0.57351 0.856123 0.731472
0.577905 0.854215 0.725933
0.59263 0.85005 0.714092
0.631037 0.84329 0.68426
0.771099 0.838361 0.692241
0.843488 0.841474 0.695109
0.85951 0.864576 0.759503
0.74609 0.874907 0.794873
0.737926 0.87335 0.789288
0.7458 0.874571 0.792309
0.751842 0.87538 0.794583
0.759365 0.876204 0.796124
0.763516 0.874952 0.789105
0.805676 0.876371 0.79646
0.86183 0.884321 0.8103
0.880583 0.889982 0.830411
0.0699168 0.19115 0.59324
0.0698863 0.19086 0.594903
0.0700236 0.191821 0.622049
0.207492 0.181079 0.656916
0.381277 0.105226 0.621805
0.592523 0.146746 0.681239
0.75935 0.174868 0.782025
0.766217 0.189059 0.783429
0.794583 0.348898 0.819867
0.0699626 0.192844 0.591928
0.070222 0.198184 0.605692
0.0700542 0.198093 0.626062
0.186999 0.191928 0.673106
0.389197 0.110872 0.646479
0.596033 0.149279 0.688777
0.759869 0.176562 0.787427
0.770077 0.197696 0.789151
0.803555 0.3991 0.828443
0.0703136 0.218448 0.609323
0.0700847 0.223819 0.623026
0.070222 0.230869 0.665309
0.135546 0.217441 0.707774
0.41561 0.124834 0.714549
0.615991 0.158816 0.71548
0.759716 0.178683 0.796307
0.77969 0.250309 0.80708
0.837827 0.53547 0.854856
0.0697948 0.272099 0.606607
0.0698863 0.272221 0.617929
0.0702983 0.274174 0.646021
0.0701762 0.261646 0.699687
0.358236 0.137636 0.736843
0.674449 0.185657 0.771771
0.760571 0.180346 0.800412
0.786999 0.296864 0.817761
0.857313 0.617914 0.867384
0.0710307 0.525902 0.681407
0.0709087 0.525505 0.690745
0.0708934 0.525338 0.70219
0.0709392 0.51548 0.724361
0.38529 0.507271 0.816724
0.70663 0.413397 0.820417
0.779065 0.253391 0.803388
0.786892 0.297581 0.813367
0.869535 0.678157 0.866911
0.0953078 0.747692 0.758877
0.0905776 0.746853 0.76051
0.0860456 0.745586 0.760967
0.0838788 0.741253 0.765286
0.265599 0.73901 0.79913
0.668681 0.694041 0.841932
0.85893 0.649775 0.836027
0.844892 0.549523 0.82855
0.87451 0.679316 0.849775
0.302388 0.864897 0.80206
0.297902 0.8645 0.80148
0.296223 0.863142 0.800595
0.297459 0.859953 0.797406
0.352346 0.853697 0.794568
0.639811 0.836728 0.796124
0.824964 0.835172 0.815747
0.888579 0.800656 0.802029
0.875151 0.693034 0.807767
0.547219 0.871946 0.789487
0.537514 0.872129 0.786252
0.53872 0.871611 0.783795
0.544289 0.870649 0.781018
0.561013 0.869093 0.776745
0.632273 0.86836 0.773678
0.787976 0.878782 0.798978
0.871839 0.882719 0.805386
0.874449 0.878004 0.803983
0.736187 0.879622 0.810544
0.728328 0.878431 0.806653
0.741375 0.880125 0.809674
0.749004 0.880598 0.810849
0.760311 0.881926 0.814664
0.769665 0.882017 0.814588
0.787564 0.881468 0.807736
0.85919 0.886976 0.822095
0.881651 0.891539 0.836728
0.0701457 0.236423 0.692287
0.0701152 0.235798 0.690822
0.0702068 0.236622 0.696727
0.145281 0.22797 0.735592
0.388327 0.129625 0.738384
0.571466 0.153841 0.740001
0.758297 0.176349 0.807568
0.764813 0.188968 0.813382
0.77998 0.249866 0.824735
0.0699321 0.234958 0.685649
0.0700999 0.242832 0.700893
0.0701305 0.244602 0.702739
0.112093 0.233967 0.738003
0.387701 0.132647 0.751583
0.574029 0.155093 0.749142
0.758114 0.176242 0.807462
0.765545 0.190082 0.81387
0.787518 0.299718 0.828885
0.0702525 0.257893 0.693034
0.0700084 0.263859 0.704677
0.0704509 0.277394 0.722255
0.0703441 0.252308 0.737179
0.366613 0.134524 0.760647
0.649653 0.186862 0.787884
0.756542 0.176043 0.806546
0.766995 0.193591 0.815076
0.821515 0.477043 0.852476
0.0702678 0.292927 0.66566
0.0701915 0.298634 0.677317
0.0703136 0.312444 0.694469
0.0704356 0.306355 0.725368
0.303273 0.223468 0.772183
0.650706 0.195636 0.791684
0.759243 0.178531 0.808347
0.767636 0.195697 0.815625
0.845502 0.57583 0.872389
0.0710155 0.544762 0.734295
0.0712139 0.547494 0.742611
0.0710002 0.550866 0.75404
0.0712444 0.541543 0.771756
0.277073 0.525032 0.820386
0.662638 0.425498 0.834913
0.785153 0.288075 0.827176
0.76817 0.196231 0.816236
0.860044 0.645609 0.881468
0.0713207 0.766415 0.801785
0.0714122 0.766842 0.804211
0.0713207 0.765743 0.806622
0.0715038 0.759091 0.809323
0.204166 0.744121 0.835157
0.632822 0.705242 0.881361
0.836301 0.650538 0.88246
0.835065 0.538964 0.863478
0.856703 0.626001 0.880247
0.270604 0.867933 0.843534
0.266575 0.866682 0.844144
0.264164 0.86511 0.845365
0.268864 0.859022 0.845228
0.363546 0.847608 0.847181
0.604578 0.832425 0.859358
0.799481 0.820905 0.881926
0.880735 0.787259 0.879698
0.863249 0.658076 0.880552
0.529503 0.877272 0.823804
0.518318 0.877882 0.82324
0.519402 0.877882 0.823362
0.525872 0.877684 0.823362
0.546517 0.877546 0.823941
0.618143 0.878035 0.82884
0.780972 0.888441 0.856428
0.884016 0.895674 0.877165
0.890806 0.888685 0.877714
0.716518 0.883711 0.837171
0.710948 0.882704 0.833585
0.725734 0.883818 0.836347
0.735988 0.884855 0.837781
0.749035 0.886168 0.839979
0.76112 0.887861 0.842847
0.789731 0.891249 0.849149
0.870497 0.897856 0.871504
0.889967 0.900008 0.876982
0.0701915 0.260044 0.729656
0.0701457 0.259861 0.729763
0.0702068 0.26038 0.729274
0.0705882 0.245472 0.743801
0.364416 0.134798 0.76083
0.573754 0.155047 0.772976
0.745342 0.173083 0.801541
0.760922 0.181201 0.809934
0.767666 0.195911 0.815671
0.0700999 0.259663 0.72842
0.0702068 0.263172 0.727916
0.0702068 0.264408 0.727535
0.0702525 0.251545 0.737942
0.342733 0.133928 0.760372
0.602792 0.165682 0.778866
0.74905 0.170977 0.802182
0.760555 0.180468 0.809552
0.768887 0.198566 0.816831
0.0704967 0.276799 0.724437
0.0703441 0.279026 0.724361
0.0701457 0.293873 0.725017
0.0702983 0.294942 0.725231
0.229068 0.224018 0.762219
0.628138 0.17821 0.78378
0.751003 0.169802 0.802182
0.758755 0.17763 0.808011
0.787762 0.300389 0.828992
0.0703746 0.309178 0.697551
0.0706035 0.319829 0.708049
0.0705882 0.366445 0.732235
0.0708171 0.412192 0.749996
0.0703593 0.352285 0.750561
0.555276 0.182712 0.788556
0.763073 0.184924 0.811994
0.758801 0.177752 0.808042
0.808103 0.422095 0.841138
0.0712749 0.557458 0.755703
0.0713512 0.564706 0.764309
0.0714275 0.583535 0.774304
0.0712902 0.600244 0.780316
0.0713359 0.59498 0.788586
0.569406 0.520897 0.860548
0.801877 0.427268 0.840879
0.764767 0.188907 0.813336
0.827405 0.501122 0.856947
0.0715038 0.779004 0.818296
0.0715496 0.783856 0.822721
0.0714275 0.79089 0.828
0.0716106 0.78941 0.829664
0.0716716 0.768872 0.826658
0.531685 0.719966 0.858869
0.798993 0.676463 0.887816
0.847791 0.588891 0.874235
0.822995 0.483177 0.853361
0.214282 0.879194 0.859052
0.203296 0.879438 0.860029
0.198901 0.87921 0.860487
0.201648 0.875288 0.860761
0.237705 0.860899 0.85864
0.563775 0.829679 0.857755
0.774289 0.82211 0.879744
0.880995 0.793103 0.881376
0.861326 0.651087 0.881773
0.481895 0.878889 0.831388
0.459739 0.880507 0.832197
0.445212 0.881086 0.832563
0.453529 0.880232 0.832837
0.514 0.875883 0.833494
0.626871 0.874647 0.840253
0.766064 0.883375 0.861967
0.878706 0.891936 0.882567
0.888441 0.871794 0.881361
0.693858 0.883177 0.845884
0.688853 0.883391 0.845609
0.703777 0.884062 0.847501
0.713893 0.88481 0.849714
0.728832 0.885893 0.851682
0.743969 0.887404 0.854597
0.778744 0.891859 0.863264
0.867857 0.899245 0.881453
0.890288 0.900649 0.884382
