bundles/resolve-cinematic-luts/Phantom Luts/A7s3 Phntm Film LUTs - G6/ATOMOS Monitor LUTs/Slog3/Vision A7s3 AML.cube
TITLE "Generated by Resolve"
LUT_3D_SIZE 9
0.0725414 0.0793622 0.0725414
0.0744793 0.0802167 0.0724498
0.12285 0.0810712 0.0734264
0.264973 0.079469 0.0737621
0.433814 0.0721294 0.100374
0.641642 0.108827 0.229404
0.778622 0.212467 0.412863
0.798688 0.345617 0.539391
0.825193 0.481559 0.640955
0.0732433 0.0901198 0.0768902
0.0778821 0.0902724 0.0752575
0.131304 0.086305 0.0745251
0.27895 0.0843366 0.0711986
0.451316 0.0719005 0.0961166
0.658793 0.113725 0.227924
0.779873 0.21532 0.407965
0.800229 0.353124 0.540612
0.827237 0.485618 0.642817
0.0777142 0.162768 0.0964523
0.0834669 0.15996 0.0893568
0.139406 0.166735 0.0830243
0.310613 0.122423 0.0866407
0.459525 0.0925917 0.0793164
0.688533 0.117617 0.219455
0.783703 0.225788 0.394919
0.801419 0.358419 0.529961
0.828687 0.497078 0.644648
0.0902113 0.337499 0.153933
0.0895705 0.330053 0.137423
0.12224 0.336645 0.120775
0.332158 0.34548 0.0914626
0.546731 0.296132 0.158892
0.706279 0.213245 0.157961
0.791516 0.241245 0.33164
0.812177 0.39498 0.519356
0.833524 0.523766 0.650187
0.150042 0.553811 0.310918
0.150698 0.549859 0.295735
0.157198 0.545632 0.269108
0.275669 0.551965 0.237522
0.555261 0.562554 0.163943
0.733074 0.539681 0.288182
0.771939 0.502892 0.314046
0.804654 0.454978 0.411307
0.843336 0.579324 0.662562
0.287999 0.746212 0.494423
0.284016 0.744564 0.482979
0.288594 0.740841 0.467491
0.30428 0.732586 0.407889
0.507118 0.747417 0.405158
0.722683 0.754635 0.357076
0.814588 0.742199 0.452155
0.807431 0.7178 0.430732
0.840131 0.660441 0.631525
0.440803 0.812985 0.607507
0.432044 0.812772 0.599603
0.428092 0.81091 0.589364
0.477134 0.809644 0.584436
0.586862 0.815961 0.599603
0.699519 0.828595 0.60087
0.801923 0.833646 0.60145
0.836759 0.833585 0.65005
0.836057 0.796994 0.587137
0.672694 0.842603 0.738857
0.660731 0.839963 0.730083
0.655116 0.837949 0.723766
0.653696 0.836866 0.716625
0.687694 0.840635 0.722622
0.752026 0.851499 0.739773
0.794812 0.868437 0.739071
0.84184 0.87805 0.759899
0.846372 0.885557 0.785779
0.787579 0.882307 0.82446
0.77438 0.876814 0.812177
0.771511 0.875227 0.8094
0.771389 0.874693 0.807675
0.778622 0.875975 0.809995
0.804639 0.883238 0.824964
0.83743 0.891066 0.841871
0.859983 0.897353 0.853422
0.872374 0.90045 0.868711
0.0725567 0.07953 0.0764019
0.0779431 0.0804456 0.0780041
0.143847 0.0780194 0.0885481
0.287572 0.0704509 0.088365
0.463157 0.0740826 0.123583
0.668879 0.118273 0.262287
0.781735 0.224414 0.429374
0.804257 0.361288 0.554879
0.830457 0.494224 0.653147
0.0726482 0.089662 0.0796216
0.0799725 0.0899214 0.0820478
0.151095 0.0848249 0.0762493
0.297276 0.0783398 0.0745556
0.462806 0.07393 0.104936
0.671824 0.117968 0.251057
0.783566 0.22945 0.428534
0.808286 0.377874 0.563561
0.834653 0.512688 0.665965
0.075639 0.16553 0.110536
0.0781415 0.16318 0.0973373
0.138033 0.165591 0.0834974
0.322972 0.112749 0.0849928
0.485252 0.0843824 0.0856947
0.696605 0.12343 0.241993
0.784894 0.241581 0.420966
0.81059 0.396445 0.567315
0.836255 0.530877 0.674327
0.0892348 0.341421 0.169619
0.0898756 0.337865 0.15436
0.0931563 0.329259 0.1187
0.331655 0.344549 0.0912184
0.547921 0.290379 0.161852
0.718639 0.190234 0.154589
0.790478 0.254002 0.39118
0.818509 0.431281 0.567071
0.843275 0.568826 0.694804
0.149889 0.555367 0.325154
0.148333 0.552972 0.30956
0.154543 0.549432 0.283909
0.255726 0.55108 0.235172
0.554574 0.562005 0.163607
0.735943 0.536599 0.292088
0.770367 0.486275 0.317159
0.831998 0.470466 0.477562
0.853605 0.62884 0.721981
0.288716 0.747189 0.503166
0.28574 0.746609 0.49276
0.28777 0.743862 0.477455
0.299992 0.733089 0.416602
0.501701 0.745357 0.405447
0.720897 0.753353 0.353353
0.813611 0.739208 0.451865
0.804929 0.710399 0.429877
0.864332 0.67097 0.699916
0.442344 0.81323 0.611399
0.433448 0.813092 0.603861
0.427207 0.811856 0.593454
0.464622 0.808988 0.582956
0.578729 0.815457 0.597482
0.695796 0.827588 0.598672
0.801526 0.832456 0.597452
0.836728 0.831525 0.646906
0.834348 0.788403 0.57612
0.672251 0.842893 0.739544
0.663859 0.840497 0.732967
0.658351 0.839002 0.72694
0.65333 0.837049 0.717708
0.685756 0.84062 0.722896
0.749508 0.850935 0.739101
0.792721 0.867445 0.73669
0.841627 0.877394 0.758038
0.846281 0.884749 0.783383
0.7906 0.884108 0.828244
0.782132 0.880491 0.819471
0.779431 0.879194 0.81648
0.779019 0.878386 0.815091
0.783078 0.878691 0.815183
0.806561 0.884337 0.827634
0.837156 0.891096 0.842466
0.860029 0.897383 0.853697
0.872496 0.900481 0.86894
0.0750744 0.0813764 0.130709
0.089189 0.081117 0.126757
0.1393 0.0794842 0.122728
0.279026 0.0764477 0.15024
0.455756 0.0788586 0.170779
0.678187 0.129915 0.31078
0.782712 0.249805 0.469993
0.81239 0.403738 0.593057
0.837705 0.536004 0.689754
0.0723888 0.0874647 0.117845
0.0772869 0.0829175 0.142992
0.144808 0.0791943 0.127169
0.286397 0.0752422 0.126772
0.463676 0.076173 0.146365
0.693904 0.133883 0.307927
0.785733 0.259739 0.473884
0.819257 0.434974 0.612787
0.847257 0.583505 0.724575
0.0704051 0.158953 0.140948
0.0711681 0.160494 0.143221
0.155673 0.168933 0.156634
0.361486 0.110948 0.111955
0.486824 0.0767987 0.123018
0.703914 0.134813 0.282795
0.786068 0.261036 0.458503
0.819791 0.446448 0.61297
0.853559 0.628534 0.752575
0.0812238 0.341543 0.203189
0.0854047 0.341329 0.186007
0.0927138 0.335454 0.157916
0.331716 0.348745 0.110643
0.553185 0.272084 0.168414
0.753765 0.173358 0.188556
0.791028 0.267842 0.41709
0.822934 0.465385 0.605936
0.855528 0.646097 0.75816
0.146639 0.556985 0.347982
0.149264 0.554757 0.333318
0.149355 0.552193 0.309529
0.204471 0.546929 0.233539
0.552438 0.559899 0.162585
0.734325 0.53257 0.30045
0.772686 0.467689 0.327031
0.832776 0.476967 0.545159
0.860365 0.670466 0.760678
0.286976 0.746166 0.513985
0.287251 0.746777 0.506447
0.28629 0.745876 0.491783
0.293797 0.733898 0.433204
0.494209 0.743374 0.410101
0.718502 0.751522 0.348455
0.81268 0.736278 0.459358
0.802731 0.701793 0.438209
0.862516 0.708293 0.755444
0.437858 0.814054 0.617517
0.431067 0.813657 0.610254
0.426841 0.81297 0.600687
0.444923 0.809339 0.582803
0.566659 0.814527 0.595407
0.691066 0.826307 0.597116
0.799893 0.830869 0.592355
0.837339 0.829129 0.644633
0.830686 0.7794 0.569284
0.668574 0.842664 0.739544
0.659449 0.840726 0.732509
0.656825 0.839521 0.728847
0.65333 0.837232 0.719783
0.679866 0.83946 0.720088
0.744244 0.848997 0.735882
0.789761 0.865904 0.732387
0.840131 0.876219 0.753323
0.84651 0.883497 0.77911
0.78912 0.883375 0.826383
0.780087 0.879637 0.817639
0.783017 0.880842 0.820554
0.781964 0.879622 0.817609
0.78436 0.879423 0.816648
0.804227 0.883864 0.826246
0.834791 0.890318 0.839826
0.858579 0.897047 0.851469
0.871534 0.899977 0.867079
0.0825513 0.0841382 0.248615
0.0999619 0.0830549 0.249531
0.153704 0.0814221 0.233234
0.278676 0.0730755 0.227573
0.448432 0.0826886 0.28835
0.665019 0.141451 0.397284
0.77911 0.240269 0.500725
0.811078 0.398703 0.603555
0.835889 0.530663 0.691035
0.0778515 0.0859083 0.242344
0.0833295 0.0839246 0.26746
0.142306 0.081117 0.259205
0.283665 0.0730602 0.231434
0.451789 0.0837262 0.285496
0.673213 0.143679 0.3879
0.783459 0.25481 0.502693
0.817487 0.430426 0.621897
0.844358 0.568276 0.717861
0.0747082 0.141878 0.279469
0.0777295 0.135515 0.3028
0.12665 0.128084 0.338552
0.323735 0.0844434 0.267048
0.459815 0.0872969 0.274861
0.702602 0.1458 0.370092
0.787442 0.279133 0.512413
0.824872 0.481834 0.652201
0.855009 0.642298 0.764248
0.0697948 0.327489 0.308797
0.0698253 0.328634 0.309957
0.0698405 0.329168 0.310903
0.360601 0.37499 0.352255
0.609888 0.262272 0.293996
0.739223 0.173922 0.323018
0.790143 0.287922 0.479347
0.825925 0.495323 0.647456
0.859815 0.683574 0.782025
0.123507 0.556817 0.415122
0.129229 0.555871 0.405402
0.13637 0.555642 0.389761
0.186847 0.548226 0.329198
0.549523 0.566644 0.278523
0.7299 0.524651 0.347173
0.792905 0.457725 0.385306
0.832029 0.501183 0.590021
0.862455 0.707378 0.785092
0.27274 0.743709 0.544961
0.273701 0.743908 0.537453
0.279164 0.743358 0.526192
0.290303 0.742138 0.490837
0.465965 0.740963 0.421668
0.715908 0.748348 0.35024
0.813901 0.733272 0.491112
0.802518 0.691646 0.486107
0.864286 0.725185 0.779156
0.432883 0.815778 0.634699
0.424826 0.815595 0.627573
0.421393 0.81474 0.618952
0.428443 0.812116 0.599496
0.544656 0.813458 0.594675
0.685054 0.825208 0.602243
0.797543 0.829267 0.588495
0.839582 0.82826 0.652903
0.831098 0.771862 0.585565
0.661326 0.843091 0.74255
0.652964 0.841642 0.735973
0.649866 0.840421 0.731533
0.65275 0.838331 0.725368
0.671916 0.83856 0.720439
0.738384 0.847929 0.734264
0.787701 0.865248 0.731731
0.8392 0.875257 0.749569
0.846693 0.883345 0.778714
0.785672 0.882185 0.824521
0.777874 0.879393 0.816892
0.780667 0.880293 0.819059
0.783169 0.880827 0.820569
0.784665 0.880018 0.817884
0.801587 0.88333 0.824979
0.833112 0.890181 0.838895
0.85742 0.896742 0.850187
0.871199 0.899916 0.866331
0.0948653 0.0912795 0.390219
0.117891 0.0906233 0.392599
0.164645 0.0836194 0.393744
0.294408 0.0847486 0.362341
0.456153 0.0865034 0.390143
0.671824 0.14023 0.496376
0.760967 0.171588 0.562646
0.799969 0.370184 0.645914
0.831556 0.526543 0.707668
0.0899977 0.092256 0.393622
0.0986038 0.0927596 0.406973
0.146014 0.0838941 0.412726
0.292302 0.0847181 0.373495
0.464302 0.0887312 0.397543
0.675593 0.140322 0.49691
0.761929 0.172854 0.560647
0.809796 0.419638 0.66276
0.845716 0.588388 0.743435
0.0856794 0.114382 0.419562
0.0864881 0.114092 0.437079
0.1122 0.0982223 0.456031
0.303365 0.0866102 0.421454
0.483604 0.0946822 0.416129
0.680323 0.139956 0.497597
0.76875 0.192096 0.565209
0.820554 0.478325 0.683055
0.854047 0.644709 0.772122
0.0726787 0.300496 0.487007
0.0778821 0.298161 0.502434
0.0867933 0.289555 0.523888
0.298344 0.278843 0.570977
0.574899 0.201511 0.506752
0.686259 0.14023 0.488579
0.778073 0.238956 0.556435
0.829801 0.528984 0.700725
0.859968 0.691814 0.792355
0.0810712 0.544671 0.545998
0.0806439 0.544442 0.545678
0.0816052 0.545205 0.546166
0.102876 0.541222 0.539101
0.573236 0.586755 0.567452
0.793088 0.507591 0.535363
0.816571 0.410666 0.528847
0.830945 0.519219 0.661112
0.863172 0.744854 0.812528
0.200534 0.74641 0.626688
0.20267 0.746319 0.62121
0.211505 0.7449 0.612451
0.243198 0.740459 0.588937
0.501244 0.747875 0.581933
0.717037 0.756634 0.545922
0.813901 0.727153 0.558831
0.814404 0.671595 0.579034
0.86511 0.754833 0.798444
0.401129 0.817975 0.677836
0.396216 0.817395 0.670359
0.399558 0.816526 0.662715
0.414633 0.815106 0.647639
0.49601 0.815076 0.624796
0.68365 0.82475 0.640055
0.796445 0.829648 0.597299
0.845792 0.829664 0.676188
0.842481 0.780072 0.679866
0.652293 0.845945 0.753811
0.642939 0.844358 0.747555
0.641276 0.843626 0.744045
0.643015 0.842084 0.738552
0.658717 0.83946 0.727977
0.725948 0.846494 0.734264
0.785824 0.865156 0.736248
0.838499 0.874708 0.747646
0.846754 0.884138 0.785504
0.779522 0.881361 0.823148
0.772793 0.878981 0.816953
0.777127 0.880079 0.819821
0.78056 0.880934 0.821332
0.785916 0.881727 0.822904
0.796902 0.88304 0.824475
0.830762 0.889815 0.838651
0.85687 0.89662 0.850034
0.87097 0.89984 0.865888
0.121279 0.108583 0.521309
0.141482 0.10782 0.524269
0.182376 0.0985733 0.527825
0.313329 0.0940566 0.504967
0.475776 0.118105 0.512062
0.676173 0.142885 0.595804
0.769375 0.188174 0.665278
0.7879 0.26894 0.708095
0.827375 0.488624 0.760937
0.116243 0.110597 0.526513
0.124895 0.110628 0.534371
0.17409 0.110704 0.541405
0.309758 0.0957351 0.52314
0.476997 0.119371 0.518822
0.683528 0.145342 0.603357
0.769528 0.188556 0.66685
0.793835 0.299474 0.718837
0.842924 0.557717 0.779934
0.101762 0.137865 0.569009
0.102754 0.136522 0.580163
0.139437 0.122393 0.590524
0.303838 0.101152 0.574304
0.514107 0.130816 0.567758
0.692668 0.148302 0.612833
0.769726 0.189517 0.671336
0.808545 0.384207 0.74342
0.857557 0.641169 0.801312
0.115114 0.259297 0.63357
0.11722 0.254215 0.643519
0.122026 0.244602 0.66038
0.241306 0.214313 0.694789
0.52311 0.157244 0.620813
0.711131 0.158053 0.631174
0.768917 0.19173 0.669383
0.816297 0.439155 0.752071
0.862928 0.69514 0.811734
0.0710765 0.5252 0.680323
0.070985 0.524346 0.687572
0.0711376 0.522911 0.69659
0.0756695 0.514504 0.7178
0.536522 0.52134 0.765621
0.776669 0.484184 0.725002
0.79472 0.342824 0.693828
0.820844 0.485939 0.736217
0.864759 0.739116 0.822446
0.157244 0.735088 0.743038
0.155077 0.734554 0.742229
0.157107 0.733852 0.741299
0.165057 0.732204 0.738705
0.42295 0.740246 0.732341
0.737102 0.755383 0.740124
0.85948 0.708751 0.722103
0.85481 0.632776 0.710399
0.863996 0.753033 0.814282
0.317189 0.823621 0.767178
0.30959 0.82324 0.761761
0.305837 0.822202 0.75613
0.319631 0.821698 0.746258
0.418723 0.822126 0.72575
0.715541 0.832303 0.751247
0.803265 0.846311 0.741924
0.857114 0.830076 0.726513
0.857298 0.786725 0.772656
0.610819 0.853391 0.778897
0.603693 0.852613 0.774243
0.606439 0.851759 0.77116
0.614298 0.850629 0.767269
0.63801 0.848844 0.760769
0.706172 0.849561 0.756954
0.792859 0.87013 0.772183
0.839323 0.878248 0.760555
0.850828 0.88835 0.807767
0.769497 0.881544 0.82536
0.764279 0.879744 0.820722
0.771328 0.881315 0.824231
0.776364 0.882429 0.826871
0.783154 0.884016 0.829206
0.79115 0.884016 0.827588
0.825086 0.889357 0.839155
0.858045 0.897078 0.852674
0.871672 0.900038 0.867308
0.14931 0.13228 0.631708
0.151476 0.131991 0.631968
0.207385 0.130694 0.639078
0.326848 0.110201 0.630152
0.483436 0.126467 0.610544
0.655924 0.147509 0.653178
0.767559 0.186618 0.723003
0.775036 0.205966 0.728985
0.812985 0.400259 0.785443
0.142977 0.1337 0.633555
0.147143 0.136156 0.644541
0.184833 0.133623 0.648814
0.316793 0.111177 0.644297
0.492592 0.128954 0.627878
0.658854 0.148226 0.657847
0.768536 0.187106 0.727367
0.777325 0.216373 0.73344
0.824445 0.454978 0.799725
0.121859 0.165377 0.676966
0.123995 0.16846 0.688151
0.142977 0.155367 0.700313
0.284566 0.114031 0.67982
0.521294 0.136248 0.674403
0.676036 0.153475 0.677363
0.769833 0.188052 0.733745
0.790112 0.278767 0.756573
0.853269 0.596414 0.830579
0.132174 0.2495 0.712291
0.134432 0.246494 0.720455
0.137087 0.238697 0.736294
0.163409 0.19913 0.748302
0.487526 0.14696 0.699413
0.721172 0.179019 0.720485
0.770687 0.188937 0.736751
0.800809 0.335119 0.773068
0.862516 0.674205 0.844434
0.0973831 0.526513 0.773831
0.102327 0.524804 0.780392
0.108751 0.522652 0.78854
0.128954 0.508415 0.803922
0.504417 0.508171 0.843214
0.758877 0.464942 0.796429
0.790051 0.283223 0.755642
0.80061 0.336309 0.770764
0.864973 0.726787 0.846983
0.0929274 0.714778 0.808911
0.0915694 0.713558 0.81088
0.0902113 0.711055 0.811292
0.0952621 0.706401 0.815427
0.329793 0.716625 0.832853
0.713481 0.72224 0.85037
0.852964 0.702708 0.825986
0.855955 0.611337 0.817044
0.865904 0.728328 0.836378
0.295918 0.819394 0.833478
0.291173 0.818509 0.832349
0.288762 0.817395 0.830884
0.291417 0.815167 0.827695
0.367422 0.815686 0.824598
0.66865 0.834394 0.822156
0.821042 0.850294 0.832929
0.869932 0.826566 0.823957
0.864622 0.746944 0.812512
0.575952 0.856687 0.823178
0.568383 0.855665 0.821042
0.569787 0.855879 0.818189
0.575219 0.856245 0.815274
0.592157 0.857221 0.810056
0.662165 0.864836 0.803815
0.810575 0.887266 0.837201
0.858946 0.893523 0.847333
0.861555 0.889952 0.841947
0.755947 0.883406 0.836759
0.750423 0.881758 0.831754
0.760571 0.884001 0.834531
0.767803 0.885756 0.836957
0.777356 0.887236 0.839384
0.786572 0.888258 0.840574
0.807233 0.889357 0.841154
0.859022 0.897673 0.859403
0.872984 0.900664 0.869261
0.169772 0.156024 0.711696
0.169116 0.155612 0.710735
0.178912 0.15494 0.711574
0.303731 0.119051 0.700389
0.505104 0.137072 0.690944
0.649607 0.171527 0.697993
0.767605 0.179553 0.737758
0.775021 0.196567 0.746715
0.790372 0.275715 0.766781
0.162554 0.155291 0.708583
0.164324 0.159289 0.719738
0.162387 0.160204 0.721447
0.278523 0.120043 0.707546
0.507866 0.13901 0.700786
0.653574 0.173373 0.705089
0.767376 0.179324 0.73753
0.775586 0.198123 0.747494
0.802045 0.339208 0.781231
0.138201 0.189059 0.740932
0.140536 0.193378 0.749157
0.143587 0.205173 0.763256
0.212146 0.158709 0.733074
0.494957 0.138811 0.707256
0.702251 0.172702 0.724758
0.766033 0.178531 0.736858
0.777005 0.202609 0.748943
0.841932 0.537011 0.825208
0.141985 0.259525 0.755169
0.143725 0.262821 0.76257
0.147051 0.275731 0.776135
0.148898 0.251835 0.78407
0.438529 0.16173 0.737285
0.711025 0.197452 0.73666
0.769207 0.183062 0.739925
0.778134 0.205997 0.7505
0.857374 0.635508 0.84802
0.116716 0.535714 0.809781
0.120134 0.536767 0.815579
0.125704 0.537453 0.823972
0.143572 0.523919 0.838254
0.428443 0.507362 0.854582
0.732235 0.47686 0.814343
0.798291 0.320363 0.776669
0.77821 0.206424 0.750698
0.862119 0.697749 0.85864
0.0782788 0.71545 0.839902
0.0776074 0.714778 0.842359
0.0757763 0.712245 0.844511
0.0724346 0.704158 0.846799
0.266743 0.709133 0.86714
0.694255 0.718624 0.887892
0.841627 0.700206 0.860105
0.852964 0.59884 0.840116
0.86183 0.680842 0.856336
0.265171 0.814603 0.866087
0.259693 0.81326 0.865995
0.257954 0.811399 0.866651
0.269276 0.807904 0.866133
0.398657 0.808499 0.86833
0.644327 0.819883 0.878202
0.803998 0.834623 0.883619
0.866911 0.816098 0.871183
0.862913 0.708492 0.857527
0.551675 0.854307 0.857862
0.542657 0.853498 0.85745
0.543801 0.853452 0.857221
0.550271 0.853727 0.856992
0.571313 0.855421 0.857008
0.64448 0.863844 0.859388
0.790463 0.88748 0.87097
0.86421 0.896834 0.881819
0.873884 0.891844 0.881895
0.739895 0.881666 0.858396
0.735485 0.880629 0.855695
0.749172 0.883558 0.858183
0.756634 0.885359 0.859052
0.767666 0.887831 0.860304
0.777539 0.88986 0.861708
0.799481 0.894957 0.864439
0.857771 0.903319 0.880064
0.878141 0.903731 0.88658
0.161532 0.169451 0.742473
0.162417 0.169268 0.74229
0.159625 0.169833 0.74284
0.258686 0.155932 0.728252
0.49337 0.138628 0.707286
0.657069 0.175525 0.720684
0.759335 0.171923 0.732738
0.770489 0.186542 0.741512
0.778164 0.206119 0.750576
0.160403 0.169574 0.742
0.1523 0.173281 0.745602
0.149645 0.175219 0.746578
0.217548 0.158923 0.73315
0.479057 0.137728 0.708141
0.677104 0.181582 0.724086
0.761181 0.170703 0.732464
0.770367 0.185901 0.741222
0.778042 0.208881 0.750851
0.143816 0.202365 0.763394
0.14432 0.207355 0.766247
0.146395 0.231891 0.776303
0.146899 0.233585 0.777249
0.371374 0.128603 0.712764
0.69395 0.183658 0.727718
0.761181 0.169314 0.731517
0.768399 0.18172 0.739147
0.801984 0.339651 0.781201
0.147005 0.269886 0.775738
0.148363 0.280415 0.78407
0.15523 0.334279 0.810483
0.158297 0.382742 0.825635
0.190845 0.315251 0.811917
0.645869 0.221103 0.743496
0.772671 0.191073 0.743969
0.768536 0.181872 0.7393
0.829496 0.479179 0.812253
0.122545 0.544106 0.824399
0.123568 0.548486 0.830396
0.118853 0.565148 0.838544
0.111971 0.580255 0.842054
0.121767 0.572839 0.850614
0.650492 0.553063 0.860777
0.824491 0.483986 0.813352
0.774975 0.196475 0.74667
0.846662 0.561349 0.830839
0.0772106 0.721462 0.852399
0.0780194 0.725109 0.854627
0.0791943 0.731029 0.857984
0.0764477 0.728389 0.858518
0.0715953 0.70985 0.859831
0.598535 0.726101 0.88191
0.811261 0.72047 0.869444
0.859281 0.647303 0.850919
0.843519 0.542794 0.827039
0.194903 0.813993 0.880507
0.179538 0.812009 0.880842
0.173648 0.811475 0.881743
0.179416 0.809476 0.881102
0.249561 0.802808 0.876738
0.607401 0.812955 0.88159
0.786389 0.832242 0.889723
0.864515 0.821302 0.879057
0.862287 0.702556 0.859617
0.510414 0.846632 0.868894
0.487709 0.844572 0.869154
0.47219 0.843824 0.869596
0.482399 0.84387 0.86923
0.545281 0.847196 0.869322
0.658671 0.859174 0.87248
0.778546 0.881468 0.883375
0.854002 0.894041 0.890059
0.868772 0.881132 0.888395
0.72108 0.87866 0.87219
0.71606 0.877409 0.871275
0.729335 0.879957 0.873442
0.738735 0.882063 0.875242
0.751354 0.884871 0.876188
0.763546 0.887572 0.877745
0.791287 0.894224 0.882383
0.852674 0.904906 0.889113
0.875441 0.907073 0.892088
