bundles/resolve-cinematic-luts/Phantom Luts/A7s3 Phntm Film LUTs - G6/ATOMOS Monitor LUTs/Slog3/Vision A7s3 AML.cube
TITLE "Generated by Resolve"
LUT_3D_SIZE 33
0.0725414 0.0793622 0.0725414
0.0725414 0.0793622 0.0725414
0.0725414 0.0793622 0.0725414
0.0725414 0.0794232 0.0725414
0.0744793 0.0802167 0.0724498
0.0808118 0.0805982 0.0726329
0.0892805 0.080415 0.0733654
0.102998 0.0809644 0.0741436
0.12285 0.0810712 0.0734264
0.146822 0.0821851 0.0733043
0.179278 0.0830091 0.0728923
0.221714 0.0827649 0.0730907
0.264973 0.079469 0.0737621
0.307256 0.0753796 0.0748455
0.34789 0.071046 0.0788739
0.389197 0.0705425 0.0872663
0.433814 0.0721294 0.100374
0.481651 0.0754711 0.117922
0.530831 0.0814832 0.143099
0.584375 0.0922866 0.179126
0.641642 0.108827 0.229404
0.693141 0.129549 0.27776
0.735668 0.153338 0.326513
0.764599 0.179828 0.371267
0.778622 0.212467 0.412863
0.781537 0.244343 0.444236
0.786908 0.276417 0.477516
0.791211 0.30959 0.510613
0.798688 0.345617 0.539391
0.806394 0.382528 0.567178
0.814038 0.417395 0.592828
0.819806 0.450034 0.617899
0.825193 0.481559 0.640955
0.0725414 0.0793622 0.0725414
0.0725414 0.0793622 0.0725414
0.0725414 0.0793622 0.0725414
0.0725567 0.0794385 0.0725567
0.0753948 0.0805829 0.0725414
0.081117 0.0806287 0.0726482
0.0897383 0.0804608 0.0733501
0.104326 0.081117 0.0741741
0.12462 0.0813001 0.073518
0.149371 0.0823529 0.0731518
0.182239 0.082948 0.0728313
0.224338 0.0828412 0.0730755
0.267002 0.0793164 0.0735027
0.3093 0.0726329 0.0742809
0.349844 0.0708019 0.0788739
0.392126 0.0703441 0.08748
0.439277 0.0724804 0.0979019
0.487053 0.0760662 0.116899
0.535912 0.0818799 0.14229
0.589578 0.0937667 0.179538
0.646326 0.11046 0.230579
0.697154 0.13164 0.279286
0.738903 0.155184 0.327382
0.766949 0.181689 0.37258
0.779034 0.213779 0.412848
0.782162 0.246067 0.444877
0.787442 0.278553 0.478386
0.791638 0.311299 0.510872
0.799268 0.347417 0.540093
0.807279 0.384619 0.568124
0.814908 0.418997 0.593805
0.820294 0.451423 0.617914
0.82591 0.482826 0.641962
0.0725567 0.0793622 0.0725567
0.0725567 0.0793774 0.0725567
0.0725567 0.0793622 0.0725567
0.0725567 0.0795911 0.0725567
0.0750134 0.0805982 0.0725261
0.0800336 0.0807202 0.0726177
0.0887007 0.0805829 0.0728618
0.103166 0.081117 0.0739757
0.124041 0.0813611 0.0734569
0.148455 0.082414 0.073106
0.181262 0.0830549 0.0727092
0.224872 0.0830549 0.0725567
0.268818 0.0814984 0.0742046
0.314229 0.075349 0.0744945
0.354635 0.0704051 0.0775158
0.395346 0.0695048 0.0873121
0.443702 0.0730602 0.0963149
0.491936 0.0766155 0.115801
0.540124 0.0822614 0.140215
0.594797 0.094789 0.179843
0.651057 0.112047 0.230915
0.700832 0.132998 0.279515
0.740642 0.156207 0.327108
0.767941 0.182986 0.372885
0.779156 0.21178 0.409888
0.782376 0.247272 0.44509
0.78735 0.2795 0.478035
0.792172 0.313115 0.511147
0.799619 0.349294 0.540307
0.807431 0.385931 0.568048
0.815503 0.420111 0.59411
0.821027 0.453086 0.618494
0.826047 0.483452 0.642069
0.0724498 0.0802472 0.0724498
0.0724498 0.0802625 0.0724498
0.0724804 0.0800793 0.0724804
0.0724651 0.0801099 0.0724651
0.0746471 0.0818036 0.0727245
0.0778058 0.0823987 0.0726635
0.0871595 0.0813916 0.0724956
0.102586 0.081651 0.0737774
0.124926 0.0822461 0.0733654
0.151232 0.0832685 0.0727245
0.187243 0.0841077 0.0713207
0.228626 0.0837568 0.070634
0.275517 0.0845045 0.0744182
0.320317 0.079118 0.0747082
0.359625 0.0723583 0.0773175
0.400153 0.0695201 0.0846571
0.446815 0.0722667 0.0962539
0.495552 0.0767834 0.113619
0.545037 0.0830091 0.139055
0.599573 0.0956283 0.179049
0.653651 0.112703 0.229236
0.703639 0.13402 0.278614
0.743221 0.157336 0.327108
0.768948 0.184222 0.372656
0.779538 0.213718 0.409644
0.782452 0.24831 0.444495
0.787732 0.28098 0.477516
0.793011 0.314687 0.511269
0.800092 0.351064 0.54081
0.80798 0.387488 0.568368
0.815595 0.421332 0.593973
0.822019 0.45452 0.61941
0.826505 0.484367 0.642527
0.0732433 0.0901198 0.0768902
0.0732891 0.0897688 0.0756542
0.0744945 0.0894484 0.0753033
0.0759289 0.0896162 0.0754864
0.0778821 0.0902724 0.0752575
0.0816052 0.0905165 0.0756542
0.0908064 0.0902724 0.0732586
0.107881 0.0869306 0.0743725
0.131304 0.086305 0.0745251
0.157748 0.0861219 0.0731365
0.193896 0.0851606 0.0700847
0.235447 0.0843671 0.0694743
0.27895 0.0843366 0.0711986
0.319524 0.0824598 0.0745098
0.362554 0.0768749 0.0771191
0.40734 0.070222 0.0812543
0.451316 0.0719005 0.0961166
0.499565 0.0765545 0.112673
0.544106 0.0813153 0.145281
0.604105 0.0961776 0.176013
0.658793 0.113725 0.227924
0.707057 0.134997 0.27715
0.746227 0.158541 0.326375
0.770428 0.186572 0.372824
0.779873 0.21532 0.407965
0.782712 0.246464 0.439673
0.787915 0.281971 0.476722
0.793194 0.316411 0.510521
0.800229 0.353124 0.540612
0.808133 0.389075 0.567987
0.816403 0.42269 0.594461
0.822477 0.45568 0.61941
0.827237 0.485618 0.642817
0.0743114 0.101198 0.0804913
0.0742504 0.100252 0.0795911
0.0746471 0.0987564 0.0777142
0.0773938 0.0990158 0.0783551
0.0806134 0.101106 0.0795148
0.0846723 0.10164 0.0790265
0.097612 0.100145 0.0751354
0.115755 0.0966354 0.0766461
0.135042 0.0940871 0.0771496
0.160418 0.0923781 0.0764324
0.196643 0.0892958 0.0735332
0.243046 0.0856031 0.0695048
0.283757 0.0850233 0.0700084
0.322805 0.085481 0.0742199
0.36492 0.0806744 0.0767987
0.41062 0.0752728 0.079469
0.459785 0.0724498 0.0906691
0.502312 0.0752117 0.116869
0.550805 0.082063 0.142763
0.608743 0.096437 0.176516
0.664881 0.115068 0.224552
0.711345 0.13611 0.274586
0.749081 0.15964 0.324773
0.772061 0.187396 0.370459
0.780423 0.217166 0.406394
0.783093 0.247944 0.438361
0.788571 0.283833 0.476219
0.793667 0.318318 0.509606
0.800671 0.355138 0.540063
0.808957 0.391058 0.568292
0.816373 0.424506 0.594202
0.822889 0.457481 0.619379
0.827863 0.4878 0.642985
0.0757305 0.118029 0.0848859
0.0756542 0.116945 0.0838788
0.075761 0.114641 0.0814374
0.0785992 0.115175 0.0821393
0.0826734 0.117937 0.0836805
0.0876326 0.119615 0.0843214
0.0962692 0.119692 0.0821241
0.124224 0.115816 0.0747082
0.145464 0.109346 0.0786755
0.167483 0.106462 0.0796674
0.204761 0.10013 0.0783703
0.243351 0.0940108 0.0749828
0.284474 0.0890669 0.0712291
0.328634 0.0863355 0.0715801
0.36791 0.0839094 0.0753796
0.411093 0.0807202 0.0779736
0.461479 0.0743877 0.0835889
0.512215 0.0769207 0.106355
0.560662 0.0830243 0.13724
0.612497 0.0955062 0.180621
0.672404 0.117082 0.223957
0.717723 0.137987 0.272786
0.754238 0.162173 0.322621
0.773816 0.189197 0.367575
0.781994 0.219745 0.405173
0.783825 0.250782 0.436896
0.788785 0.281483 0.469123
0.794446 0.321324 0.508721
0.801266 0.358801 0.539956
0.809308 0.394125 0.568231
0.816434 0.427558 0.594156
0.822156 0.460227 0.61944
0.827771 0.491005 0.644068
0.0769818 0.138979 0.0897993
0.0773327 0.137911 0.0890364
0.0775616 0.135561 0.0870985
0.0789197 0.135073 0.0854353
0.0835737 0.138552 0.0871748
0.0898451 0.141558 0.0885023
0.0993057 0.143374 0.0895552
0.115068 0.141863 0.0828717
0.150057 0.135958 0.0763256
0.18294 0.126131 0.0812238
0.218631 0.11783 0.0827497
0.2551 0.108812 0.0812543
0.294652 0.101061 0.0787823
0.330465 0.0953078 0.075761
0.368536 0.0905165 0.0746471
0.414267 0.0852216 0.0765087
0.457023 0.0798047 0.0797589
0.513909 0.0762188 0.0921798
0.56994 0.0846876 0.127764
0.626154 0.0981613 0.173404
0.677073 0.115999 0.227726
0.724849 0.140063 0.26807
0.759274 0.16405 0.318578
0.776608 0.19205 0.36376
0.782208 0.22237 0.400137
0.784772 0.253803 0.433585
0.789487 0.284627 0.467674
0.794751 0.317876 0.499535
0.801938 0.362509 0.539666
0.809857 0.397726 0.567941
0.817288 0.431159 0.595148
0.823163 0.463813 0.620172
0.827832 0.493294 0.6439
0.0777142 0.162768 0.0964523
0.0779431 0.161196 0.0949569
0.0781109 0.159075 0.0929122
0.0790723 0.157595 0.0905318
0.0834669 0.15996 0.0893568
0.0896925 0.163684 0.0914931
0.100328 0.167452 0.0934462
0.111513 0.170123 0.092607
0.139406 0.166735 0.0830243
0.185107 0.157336 0.0779583
0.232853 0.143114 0.0829633
0.275868 0.131075 0.0870222
0.310613 0.122423 0.0866407
0.347295 0.112795 0.0836194
0.381964 0.105226 0.0807965
0.415839 0.0982834 0.0780957
0.459525 0.0925917 0.0793164
0.5066 0.0809949 0.0836652
0.572381 0.0834821 0.108446
0.636576 0.100038 0.159304
0.688533 0.117617 0.219455
0.729854 0.13933 0.271504
0.76437 0.165774 0.311635
0.779644 0.195605 0.359182
0.783703 0.225788 0.394919
0.786252 0.257435 0.42916
0.790661 0.28867 0.463905
0.795911 0.322606 0.497597
0.801419 0.358419 0.529961
0.810529 0.401892 0.567452
0.817685 0.434363 0.593957
0.823453 0.467247 0.620142
0.828687 0.497078 0.644648
0.0757153 0.193515 0.102602
0.0761273 0.191333 0.10013
0.0766766 0.188403 0.0973526
0.0777905 0.18703 0.0961318
0.0798352 0.186603 0.0912642
0.0856794 0.19115 0.0914321
0.0951247 0.195666 0.0931258
0.110582 0.200732 0.094789
0.12488 0.206851 0.0928511
0.171664 0.201038 0.0811627
0.23447 0.186694 0.0782635
0.288746 0.171557 0.0890211
0.335592 0.157687 0.0968795
0.373037 0.145998 0.0966354
0.405692 0.13402 0.0940108
0.440421 0.124727 0.0906081
0.475761 0.114168 0.0867323
0.512627 0.105669 0.0865339
0.55726 0.0881819 0.0902419
0.634699 0.0968795 0.129809
0.698741 0.118807 0.194644
0.73904 0.141268 0.260899
0.768231 0.165545 0.312642
0.781765 0.198154 0.34876
0.784848 0.230243 0.387076
0.788418 0.261936 0.424628
0.792126 0.293584 0.459266
0.797055 0.328939 0.494575
0.802915 0.364202 0.527199
0.809827 0.396689 0.556756
0.818738 0.439521 0.594125
0.824537 0.471534 0.620523
0.829953 0.501427 0.645685
0.0757 0.234455 0.112108
0.075227 0.231281 0.10779
0.0750439 0.22739 0.103822
0.0751202 0.225406 0.100984
0.0752422 0.224445 0.0964218
0.0790723 0.22446 0.0914473
0.0892348 0.231785 0.0943923
0.108476 0.239994 0.0980392
0.128573 0.246021 0.101427
0.149401 0.255116 0.099733
0.223545 0.248234 0.0823529
0.287663 0.231571 0.0798962
0.348013 0.215641 0.0988022
0.394598 0.201175 0.111223
0.440116 0.184497 0.116396
0.473365 0.171145 0.11577
0.510613 0.158862 0.112642
0.546471 0.145571 0.10753
0.577813 0.128679 0.102739
0.614847 0.104631 0.105119
0.687709 0.106523 0.143282
0.746136 0.13875 0.227665
0.775128 0.168292 0.299855
0.782818 0.197436 0.347051
0.787427 0.23476 0.376593
0.790524 0.26743 0.416175
0.795224 0.301839 0.45452
0.799847 0.337514 0.490318
0.805615 0.372534 0.52517
0.811536 0.405142 0.557443
0.818021 0.433112 0.582406
0.825544 0.478218 0.622156
0.830884 0.507607 0.646845
0.0829938 0.285771 0.13257
0.0831159 0.283513 0.128801
0.0833753 0.280949 0.124407
0.0825208 0.277119 0.119234
0.0821851 0.276143 0.115496
0.0813001 0.27396 0.108629
0.0881971 0.275135 0.103349
0.105455 0.284566 0.107393
0.129137 0.292393 0.110384
0.15201 0.29723 0.112535
0.179843 0.305303 0.108797
0.278599 0.29662 0.0848402
0.343755 0.279469 0.0805982
0.403037 0.263416 0.108232
0.447379 0.252308 0.122423
0.494469 0.234882 0.134813
0.529747 0.221912 0.136751
0.573861 0.202075 0.137514
0.612711 0.18584 0.134829
0.646036 0.164141 0.127367
0.680476 0.137255 0.12845
0.731868 0.122499 0.15378
0.776303 0.157504 0.239887
0.786221 0.200595 0.320226
0.787778 0.235477 0.374762
0.791241 0.270146 0.416846
0.797757 0.310842 0.449638
0.803052 0.347539 0.485817
0.808682 0.382513 0.522499
0.815 0.415167 0.556786
0.820279 0.444953 0.584726
0.826917 0.486763 0.624155
0.832044 0.514778 0.648371
0.0902113 0.337499 0.153933
0.0899825 0.335973 0.150362
0.089662 0.332876 0.146029
0.0898299 0.330907 0.141527
0.0895705 0.330053 0.137423
0.0894789 0.328832 0.132799
0.0883803 0.325567 0.124804
0.0983902 0.327779 0.117876
0.12224 0.336645 0.120775
0.150469 0.345037 0.124941
0.181567 0.349569 0.126864
0.22211 0.356435 0.118059
0.332158 0.34548 0.0914626
0.399664 0.332815 0.0805829
0.458381 0.317174 0.122042
0.501579 0.31107 0.138567
0.546731 0.296132 0.158892
0.578943 0.287541 0.163928
0.626535 0.260975 0.166171
0.666972 0.239719 0.161975
0.706279 0.213245 0.157961
0.738811 0.183108 0.155215
0.771908 0.160906 0.173022
0.788128 0.177661 0.236164
0.791516 0.241245 0.33164
0.79266 0.271855 0.404166
0.79707 0.309667 0.459724
0.806165 0.359335 0.480705
0.812177 0.39498 0.519356
0.818311 0.428077 0.556481
0.822843 0.46006 0.589471
0.827131 0.4869 0.615183
0.833524 0.523766 0.650187
0.0992599 0.389425 0.180438
0.0984512 0.387869 0.176577
0.0989395 0.385901 0.172946
0.0986496 0.383902 0.16791
0.0984054 0.382666 0.163546
0.0986191 0.382559 0.159945
0.0986038 0.38146 0.153658
0.100313 0.378973 0.143679
0.113115 0.381125 0.13666
0.144488 0.3906 0.140368
0.179751 0.397421 0.14432
0.222507 0.401938 0.142489
0.272862 0.41001 0.129168
0.387854 0.395743 0.10103
0.456443 0.387488 0.0810712
0.514168 0.375036 0.135286
0.557137 0.370779 0.161715
0.599207 0.359091 0.182376
0.627771 0.353292 0.198123
0.670466 0.330861 0.204288
0.711849 0.3037 0.202152
0.746334 0.276219 0.19472
0.77261 0.239765 0.180835
0.786618 0.22388 0.195544
0.794125 0.224079 0.241382
0.799313 0.288914 0.340459
0.801709 0.320623 0.426596
0.804746 0.356725 0.488777
0.817029 0.409644 0.514809
0.823133 0.444083 0.556893
0.826459 0.477623 0.59382
0.830167 0.504631 0.621866
0.833234 0.52311 0.640024
0.109697 0.441978 0.218067
0.109636 0.441566 0.214664
0.109941 0.439979 0.209644
0.109743 0.437812 0.204074
0.11017 0.437232 0.19939
0.110658 0.436316 0.193927
0.112551 0.436088 0.189502
0.115221 0.436469 0.183124
0.117998 0.433677 0.167575
0.136843 0.436683 0.161959
0.175357 0.445792 0.164981
0.225376 0.450263 0.167544
0.269062 0.454978 0.158846
0.328847 0.465034 0.143908
0.445884 0.450904 0.116197
0.514214 0.443244 0.0819562
0.569986 0.433005 0.151217
0.610956 0.428962 0.190738
0.648783 0.42092 0.214832
0.676509 0.414694 0.23032
0.707027 0.400488 0.24802
0.742626 0.371725 0.250202
0.767742 0.347509 0.24593
0.775753 0.310552 0.230915
0.782773 0.279698 0.219486
0.790784 0.28925 0.258717
0.806043 0.350683 0.355886
0.812345 0.373297 0.448646
0.817075 0.408591 0.52018
0.825956 0.455406 0.551507
0.830259 0.495216 0.595987
0.832288 0.5243 0.628397
0.83711 0.541741 0.647883
0.125063 0.497215 0.26183
0.124681 0.496284 0.258
0.124086 0.49398 0.252979
0.124575 0.492775 0.248432
0.126635 0.491829 0.244694
0.128847 0.491341 0.239841
0.131243 0.491005 0.235248
0.133043 0.490837 0.229496
0.135592 0.4907 0.219959
0.138399 0.488457 0.198184
0.16643 0.491814 0.18912
0.222217 0.498482 0.194507
0.277577 0.502251 0.199817
0.320943 0.510155 0.185183
0.388479 0.520165 0.165164
0.502266 0.506584 0.137346
0.570153 0.498207 0.0944839
0.624277 0.489601 0.172168
0.661585 0.485588 0.228595
0.695918 0.480568 0.249973
0.718013 0.476799 0.263142
0.739178 0.467399 0.275441
0.758801 0.450446 0.290791
0.768124 0.421241 0.286656
0.769711 0.388449 0.274708
0.774456 0.350423 0.263691
0.784573 0.340749 0.28072
0.806287 0.407095 0.381964
0.825116 0.423743 0.47219
0.827329 0.459266 0.551949
0.828977 0.497902 0.606271
0.838026 0.542046 0.631647
0.840909 0.561913 0.656458
0.150042 0.553811 0.310918
0.149813 0.553323 0.307088
0.149752 0.552209 0.303532
0.149889 0.550439 0.298528
0.150698 0.549859 0.295735
0.151263 0.549203 0.290501
0.152285 0.547494 0.284352
0.154513 0.546532 0.277058
0.157198 0.545632 0.269108
0.159747 0.544762 0.257481
0.164752 0.542596 0.234684
0.2103 0.54667 0.230579
0.275669 0.551965 0.237522
0.332677 0.556207 0.237308
0.374395 0.566476 0.219348
0.443641 0.575372 0.195575
0.555261 0.562554 0.163943
0.622522 0.554345 0.126772
0.672435 0.546639 0.197986
0.707607 0.543404 0.258167
0.733074 0.539681 0.288182
0.750179 0.53904 0.29929
0.763485 0.534188 0.307317
0.772671 0.522789 0.313405
0.771939 0.502892 0.314046
0.768917 0.475059 0.314839
0.771572 0.432868 0.303105
0.776654 0.392523 0.300114
0.804654 0.454978 0.411307
0.836378 0.478187 0.497505
0.836423 0.511269 0.587549
0.839536 0.550134 0.636744
0.843336 0.579324 0.662562
0.177386 0.609445 0.361059
0.176822 0.60853 0.357275
0.176226 0.607599 0.353796
0.176287 0.606302 0.349737
0.176486 0.60531 0.346227
0.177188 0.604105 0.341695
0.178225 0.603265 0.336553
0.179492 0.601236 0.328191
0.182513 0.599695 0.318486
0.18677 0.598795 0.309194
0.190616 0.597253 0.292988
0.199573 0.595087 0.268086
0.271748 0.599924 0.270375
0.336172 0.605539 0.277012
0.386725 0.611627 0.267216
0.427588 0.622461 0.253666
0.49749 0.629374 0.235782
0.603418 0.617884 0.2009
0.66772 0.609735 0.171939
0.714809 0.603265 0.233906
0.743465 0.600565 0.288151
0.762066 0.59823 0.324041
0.773205 0.596246 0.338613
0.779599 0.593652 0.342077
0.77966 0.585626 0.33962
0.777462 0.569772 0.336583
0.77615 0.546426 0.333547
0.773877 0.510445 0.330419
0.773861 0.456535 0.324697
0.807019 0.499077 0.446632
0.843992 0.531289 0.538949
0.8448 0.560708 0.627863
0.845685 0.587045 0.679606
0.210849 0.661112 0.408743
0.209949 0.660334 0.404959
0.209461 0.659876 0.401923
0.209003 0.658595 0.39791
0.209155 0.65771 0.395102
0.209476 0.656519 0.390814
0.210391 0.655161 0.386236
0.212757 0.653696 0.379919
0.2159 0.65182 0.370138
0.217441 0.649729 0.357229
0.221637 0.648035 0.344076
0.227115 0.64567 0.324254
0.258686 0.646326 0.304967
0.339742 0.652888 0.313161
0.397574 0.657633 0.318639
0.439658 0.666026 0.305653
0.482734 0.676875 0.295018
0.549462 0.680583 0.278645
0.646128 0.671016 0.249088
0.707271 0.661494 0.232685
0.747982 0.655879 0.273701
0.76965 0.653773 0.322667
0.783719 0.653086 0.35523
0.789929 0.65095 0.371649
0.790433 0.64715 0.372488
0.789273 0.639887 0.367208
0.785321 0.624308 0.367025
0.782223 0.60415 0.361303
0.778241 0.569848 0.352758
0.776608 0.523247 0.352697
0.809552 0.547585 0.492058
0.854093 0.578637 0.589044
0.851637 0.607553 0.672175
0.249622 0.707576 0.45243
0.248524 0.706584 0.449393
0.24802 0.706203 0.446357
0.247181 0.705684 0.44358
0.247547 0.705425 0.440848
0.247623 0.704555 0.437522
0.24744 0.703304 0.433097
0.249012 0.701747 0.427649
0.25124 0.699702 0.419501
0.253178 0.697856 0.408042
0.254276 0.695872 0.392264
0.259403 0.693355 0.375753
0.272786 0.692363 0.355261
0.338567 0.697368 0.352941
0.407996 0.702388 0.360632
0.454459 0.706691 0.362081
0.491463 0.715419 0.34992
0.533867 0.723751 0.338796
0.596994 0.725063 0.324666
0.688136 0.719356 0.296941
0.737865 0.708888 0.295476
0.774182 0.705303 0.330846
0.790539 0.703822 0.374166
0.800748 0.703273 0.400305
0.802396 0.700175 0.409827
0.801266 0.695628 0.405035
0.799496 0.688197 0.3944
0.796353 0.674861 0.39144
0.792004 0.653529 0.390173
0.784329 0.618418 0.382254
0.782193 0.579141 0.399664
0.818586 0.604334 0.554009
0.860502 0.625284 0.651255
0.287999 0.746212 0.494423
0.286748 0.745861 0.491142
0.285298 0.745159 0.488365
0.284291 0.744701 0.485664
0.284016 0.744564 0.482979
0.284047 0.743877 0.480827
0.28484 0.742779 0.477043
0.286854 0.741985 0.473198
0.288594 0.740841 0.467491
0.290013 0.738872 0.457542
0.28925 0.736248 0.44184
0.294148 0.733455 0.424582
0.30428 0.732586 0.407889
0.336187 0.735042 0.395422
0.416297 0.739147 0.402625
0.468971 0.742077 0.408804
0.507118 0.747417 0.405158
0.540917 0.754406 0.396216
0.582086 0.760891 0.387274
0.641703 0.760571 0.37438
0.722683 0.754635 0.357076
0.762615 0.748394 0.377172
0.792859 0.744991 0.406394
0.808072 0.743816 0.432898
0.814588 0.742199 0.452155
0.814984 0.739345 0.459739
0.813443 0.735592 0.454032
0.810498 0.729717 0.438621
0.807431 0.7178 0.430732
0.801801 0.697002 0.422782
0.793072 0.659968 0.412726
0.794018 0.634043 0.480293
0.840131 0.660441 0.631525
0.325231 0.774685 0.530663
0.324849 0.774517 0.528481
0.323888 0.773907 0.52578
0.323095 0.773754 0.52372
0.32253 0.773663 0.521324
0.322042 0.773373 0.519112
0.322683 0.7729 0.516487
0.323964 0.771847 0.512139
0.325429 0.77023 0.507286
0.327428 0.768093 0.499245
0.330022 0.766186 0.488167
0.331426 0.76408 0.471717
0.343679 0.763241 0.457191
0.369177 0.764889 0.449287
0.418921 0.767361 0.447257
0.482383 0.769375 0.453483
0.526604 0.771832 0.458152
0.55816 0.777752 0.452598
0.589853 0.783475 0.446616
0.628687 0.788434 0.440681
0.687816 0.786572 0.43267
0.749844 0.782788 0.434043
0.782177 0.777829 0.452842
0.806516 0.775418 0.477668
0.821607 0.773465 0.495506
0.825086 0.77145 0.508461
0.82504 0.768521 0.512871
0.823896 0.765164 0.506874
0.821759 0.759747 0.490929
0.817975 0.748562 0.478584
0.811414 0.728649 0.462547
0.800732 0.691051 0.443976
0.81648 0.684718 0.589227
0.361013 0.79498 0.560479
0.360281 0.794751 0.558083
0.358724 0.794263 0.555337
0.357488 0.793759 0.553536
0.356817 0.793515 0.551568
0.356481 0.793271 0.549126
0.356359 0.79295 0.547112
0.357183 0.792233 0.543862
0.358862 0.791135 0.539528
0.360464 0.789349 0.532708
0.36492 0.787793 0.525231
0.373159 0.786191 0.515129
0.384268 0.786542 0.50309
0.411414 0.787396 0.498833
0.452949 0.789792 0.504646
0.503639 0.791577 0.510277
0.548852 0.793606 0.514839
0.583947 0.796201 0.518196
0.611078 0.800855 0.512779
0.642725 0.8056 0.506752
0.678889 0.808118 0.500954
0.726787 0.806958 0.493675
0.771313 0.803281 0.498558
0.797147 0.800916 0.516304
0.816052 0.799054 0.5364
0.825727 0.798154 0.553262
0.83003 0.796277 0.561212
0.830549 0.793927 0.563088
0.830381 0.790326 0.555077
0.828641 0.784192 0.537774
0.826535 0.771664 0.522835
0.82002 0.748775 0.500557
0.812467 0.71606 0.517739
0.395544 0.807309 0.583703
0.394049 0.807355 0.582284
0.392264 0.80708 0.579904
0.391272 0.806989 0.577844
0.39057 0.806699 0.575998
0.390234 0.806317 0.574624
0.389532 0.80592 0.571832
0.389059 0.805005 0.568582
0.389395 0.803845 0.564584
0.391989 0.802945 0.560616
0.399649 0.802258 0.555917
0.412558 0.801923 0.55201
0.426078 0.802365 0.544442
0.457267 0.802915 0.545144
0.49131 0.804959 0.551125
0.527291 0.807294 0.557885
0.569375 0.807919 0.562203
0.605478 0.809445 0.566644
0.633753 0.81323 0.565698
0.659602 0.817472 0.561227
0.689113 0.821149 0.5552
0.719814 0.822141 0.549462
0.757321 0.822492 0.545357
0.788083 0.819928 0.554208
0.809598 0.818662 0.569894
0.82385 0.817182 0.58706
0.830793 0.816495 0.599619
0.833509 0.815534 0.60737
0.834882 0.81294 0.608103
0.83357 0.80943 0.597009
0.832135 0.80209 0.581064
0.831113 0.789319 0.560006
0.823713 0.757961 0.528954
0.440803 0.812985 0.607507
0.438025 0.812741 0.605005
0.435325 0.812818 0.603159
0.433265 0.812787 0.601251
0.432044 0.812772 0.599603
0.430488 0.812772 0.597528
0.42916 0.812146 0.59556
0.427955 0.811627 0.592309
0.428092 0.81091 0.589364
0.431418 0.810224 0.586404
0.437293 0.809659 0.583185
0.453178 0.809201 0.582345
0.477134 0.809644 0.584436
0.499397 0.81091 0.584131
0.527245 0.812497 0.588495
0.554696 0.814694 0.594049
0.586862 0.815961 0.599603
0.621454 0.81738 0.603937
0.65243 0.819455 0.606867
0.675029 0.82414 0.604318
0.699519 0.828595 0.60087
0.724514 0.831449 0.596155
0.74815 0.833204 0.590585
0.776837 0.835874 0.590173
0.801923 0.833646 0.60145
0.818936 0.834241 0.617609
0.82948 0.833585 0.632425
0.834226 0.834134 0.643748
0.836759 0.833585 0.65005
0.837812 0.830869 0.648737
0.836027 0.826383 0.633967
0.835843 0.816876 0.616419
0.836057 0.796994 0.587137
0.505547 0.818219 0.639078
0.501183 0.817868 0.635859
0.496727 0.817868 0.632685
0.494438 0.817594 0.631266
0.491569 0.817288 0.628885
0.489387 0.817105 0.626749
0.487968 0.81677 0.624857
0.486671 0.816449 0.622583
0.485054 0.815839 0.618982
0.486549 0.815274 0.61706
0.49659 0.815152 0.617441
0.509209 0.815671 0.618082
0.524804 0.815686 0.619043
0.540352 0.817395 0.619898
0.561761 0.81854 0.623011
0.583474 0.820462 0.62591
0.608377 0.822034 0.632136
0.637491 0.823194 0.637537
0.666926 0.825162 0.641901
0.689815 0.829053 0.641291
0.709651 0.833677 0.639521
0.729961 0.837736 0.634501
0.749187 0.84033 0.629831
0.76997 0.84332 0.627497
0.792645 0.844327 0.631449
0.814466 0.845289 0.64419
0.827512 0.848127 0.660563
0.834546 0.849928 0.675685
0.838209 0.850996 0.686152
0.83975 0.850828 0.691188
0.839872 0.848386 0.68777
0.837522 0.840681 0.667185
0.838392 0.827161 0.643427
0.574105 0.825635 0.675608
0.569589 0.825391 0.673152
0.565652 0.82501 0.669764
0.562753 0.825025 0.668101
0.560372 0.824475 0.665858
0.559335 0.824201 0.664363
0.556848 0.824277 0.662074
0.554543 0.823453 0.659388
0.553399 0.823163 0.656855
0.55108 0.82266 0.653773
0.55314 0.822217 0.652247
0.560265 0.822171 0.65243
0.570214 0.822889 0.653605
0.582895 0.823346 0.654948
0.595834 0.824704 0.655909
0.613611 0.826032 0.658854
0.633082 0.828107 0.662074
0.655497 0.829618 0.668421
0.680629 0.831235 0.673472
0.704036 0.833738 0.675669
0.721309 0.838361 0.673457
0.738247 0.843763 0.671916
0.754925 0.847333 0.668696
0.769192 0.849867 0.665034
