bundles/resolve-cinematic-luts/Phantom Luts/A7s3 Phntm Film LUTs - G6/ATOMOS Monitor LUTs/Slog3/Vision A7s3-Legacy AML.cube
TITLE "Generated by Resolve"
LUT_3D_SIZE 9
0.079881 0.0900893 0.0820783
0.0814832 0.0904555 0.0823682
0.112825 0.0898604 0.0813611
0.219501 0.0890822 0.0797589
0.386282 0.0778363 0.0881208
0.585214 0.096849 0.170977
0.774014 0.180331 0.361624
0.796536 0.302708 0.490578
0.821897 0.429709 0.595346
0.0802319 0.0956436 0.0837873
0.0833143 0.0956588 0.083772
0.116701 0.0924239 0.0807202
0.231754 0.0893111 0.0767834
0.403571 0.0790265 0.0866407
0.603922 0.100282 0.170687
0.776242 0.182803 0.358526
0.797559 0.308659 0.491203
0.823621 0.433906 0.596368
0.0836347 0.144808 0.0966964
0.085771 0.142733 0.0931563
0.119707 0.146288 0.0882887
0.24892 0.11548 0.085893
0.402853 0.0928664 0.0795148
0.639948 0.104494 0.169696
0.780591 0.189425 0.347753
0.798993 0.310948 0.478691
0.825116 0.44506 0.598154
0.0872511 0.278599 0.134783
0.0885786 0.272053 0.123156
0.10811 0.27985 0.116609
0.276646 0.298589 0.0928206
0.503014 0.244511 0.144671
0.666911 0.177462 0.139605
0.789685 0.200305 0.295583
0.808743 0.346441 0.469612
0.830472 0.472374 0.604517
0.144686 0.50663 0.272877
0.144976 0.503136 0.259953
0.148821 0.499565 0.240223
0.241245 0.509621 0.217731
0.510399 0.520073 0.153903
0.716442 0.493065 0.268803
0.770169 0.440299 0.30016
0.80264 0.405066 0.36762
0.843122 0.526589 0.613794
0.271962 0.726696 0.456306
0.267918 0.724834 0.445853
0.270512 0.721141 0.430976
0.283085 0.715816 0.382452
0.475486 0.731472 0.387182
0.697704 0.740688 0.321584
0.810193 0.718395 0.413993
0.802792 0.685023 0.402197
0.840116 0.613245 0.583551
0.410147 0.812787 0.575708
0.403174 0.812436 0.568124
0.398978 0.810773 0.558694
0.436469 0.8094 0.550332
0.545907 0.813535 0.566217
0.664027 0.823041 0.567117
0.795926 0.826825 0.553872
0.828824 0.824582 0.60206
0.829175 0.784833 0.537789
0.633997 0.836774 0.70901
0.619058 0.835019 0.697749
0.612558 0.832746 0.690867
0.610925 0.831006 0.682109
0.644526 0.834226 0.68716
0.717189 0.840848 0.704387
0.774853 0.856397 0.696361
0.838743 0.863584 0.713237
0.842512 0.873442 0.746502
0.762478 0.873793 0.80441
0.747799 0.867643 0.791836
0.744625 0.865934 0.788464
0.744854 0.865125 0.787427
0.752956 0.866514 0.78854
0.782498 0.874357 0.803555
0.823407 0.885344 0.823407
0.850202 0.892927 0.831861
0.865385 0.896986 0.855283
0.0796216 0.0900893 0.0838636
0.0834669 0.0904097 0.0849317
0.130007 0.0880293 0.0881819
0.244572 0.0813306 0.084184
0.415259 0.078172 0.104158
0.616022 0.103258 0.2009
0.779553 0.190082 0.380423
0.801221 0.317311 0.506706
0.827008 0.442329 0.607095
0.0800641 0.0951247 0.0857404
0.0840467 0.0948959 0.0864729
0.132967 0.0906081 0.0827955
0.24918 0.0893111 0.0800793
0.41323 0.0780957 0.0910811
0.619684 0.103914 0.191852
0.781369 0.193835 0.380179
0.804379 0.333272 0.516777
0.830915 0.46125 0.620844
0.0828717 0.14583 0.106035
0.0840314 0.144945 0.0972152
0.118868 0.145693 0.0885634
0.260777 0.109697 0.0849775
0.430701 0.0884565 0.0842451
0.650355 0.1084 0.186633
0.78471 0.202976 0.375402
0.806607 0.349844 0.518959
0.83212 0.480018 0.630625
0.0866102 0.281117 0.143938
0.0872511 0.27892 0.135012
0.0920119 0.273304 0.114061
0.274968 0.297429 0.0927138
0.503563 0.237522 0.144183
0.680522 0.163516 0.1411
0.789914 0.213519 0.34905
0.813306 0.38175 0.514992
0.838132 0.518837 0.65066
0.144549 0.507362 0.283711
0.143816 0.505669 0.27187
0.147616 0.502602 0.252003
0.221881 0.508019 0.216114
0.509819 0.519478 0.153628
0.720775 0.488151 0.273426
0.771221 0.422141 0.294743
0.82652 0.423392 0.428534
0.850614 0.582345 0.681315
0.272938 0.726802 0.463767
0.26981 0.726665 0.454475
0.27042 0.724697 0.44094
0.28014 0.715679 0.389242
0.46894 0.729809 0.386694
0.695842 0.738384 0.31725
0.809293 0.714519 0.414633
0.800656 0.675288 0.402975
0.8654 0.623499 0.654643
0.411154 0.813367 0.580133
0.403723 0.813321 0.57261
0.39826 0.81149 0.562387
0.425956 0.809705 0.550072
0.538201 0.813443 0.564202
0.659907 0.822171 0.565621
0.79469 0.826078 0.550057
0.82855 0.822766 0.598062
0.828611 0.772869 0.528984
0.634485 0.836896 0.71017
0.623941 0.835645 0.701701
0.617166 0.833783 0.694972
0.610681 0.831266 0.683207
0.642206 0.834073 0.687358
0.713573 0.840162 0.703212
0.772457 0.85539 0.693919
0.838422 0.862654 0.709865
0.842329 0.872694 0.744442
0.766308 0.875105 0.808362
0.757427 0.871244 0.800183
0.754025 0.869795 0.796582
0.753689 0.86891 0.794614
0.759182 0.869215 0.794705
0.78555 0.8757 0.807797
0.823224 0.885374 0.824125
0.850217 0.892943 0.832609
0.865705 0.897047 0.855787
0.0791028 0.0902113 0.118486
0.0890516 0.0905623 0.117266
0.125856 0.0903487 0.115129
0.2374 0.0868849 0.134035
0.4094 0.0820478 0.137758
0.628138 0.111192 0.244709
0.782422 0.212543 0.419898
0.807553 0.357519 0.548455
0.832517 0.484703 0.645701
0.0772717 0.0936294 0.108461
0.0803998 0.0907607 0.12755
0.130144 0.0901503 0.117983
0.243305 0.0844434 0.115099
0.416724 0.0799725 0.120836
0.646723 0.114549 0.243931
0.784436 0.221485 0.423026
0.813703 0.386786 0.567727
0.843534 0.534264 0.685069
0.0780804 0.142245 0.125597
0.0782788 0.143069 0.12668
0.133577 0.146044 0.135866
0.294881 0.107256 0.100786
0.435966 0.079057 0.103395
0.659632 0.115511 0.22414
0.784466 0.221836 0.409369
0.814343 0.397604 0.56759
0.850782 0.580545 0.719463
0.0820172 0.281331 0.162127
0.0847791 0.280568 0.153719
0.0931716 0.276921 0.137606
0.271946 0.297108 0.106691
0.505425 0.220844 0.147524
0.719982 0.14287 0.164355
0.789837 0.226703 0.371572
0.818235 0.414435 0.558145
0.853803 0.599298 0.728099
0.146487 0.510079 0.304601
0.143984 0.505867 0.289189
0.144015 0.504631 0.271626
0.18146 0.503029 0.214176
0.507515 0.517449 0.152743
0.719539 0.483009 0.280446
0.77406 0.403998 0.296513
0.829282 0.424689 0.491249
0.859831 0.625193 0.731563
0.27335 0.726482 0.475166
0.270787 0.726375 0.467063
0.27013 0.725582 0.453849
0.274632 0.715358 0.402167
0.459648 0.727947 0.386847
0.693049 0.73579 0.312673
0.808316 0.710353 0.422721
0.798108 0.664454 0.411063
0.864652 0.668086 0.727153
0.410986 0.814969 0.587671
0.402701 0.814588 0.579126
0.397757 0.813184 0.569375
0.41323 0.809094 0.552636
0.526207 0.812879 0.562005
0.654505 0.821469 0.564233
0.792416 0.824948 0.545922
0.828748 0.819913 0.595865
0.82591 0.761471 0.522942
0.632212 0.836591 0.710338
0.620615 0.835813 0.701823
0.617441 0.834424 0.697078
0.610971 0.831693 0.686183
0.636896 0.833539 0.685832
0.707698 0.839307 0.699992
0.769177 0.853773 0.689921
0.838346 0.860929 0.704158
0.842191 0.870817 0.73875
0.76434 0.874586 0.806668
0.755184 0.870558 0.798825
0.758587 0.871717 0.801083
0.757443 0.870436 0.798581
0.760693 0.870024 0.796643
0.782696 0.874952 0.805676
0.820218 0.884169 0.821408
0.847364 0.89218 0.829023
0.863706 0.896696 0.851469
0.085359 0.0935225 0.206317
0.0983444 0.0942092 0.206683
0.135882 0.0927291 0.195956
0.236225 0.0859388 0.190387
0.403555 0.0909438 0.242527
0.620737 0.130404 0.332311
0.777798 0.215991 0.451637
0.806058 0.351995 0.558526
0.831891 0.479896 0.648203
0.0834516 0.0939956 0.199954
0.0864271 0.0937057 0.223758
0.128084 0.0919356 0.220554
0.240955 0.0860456 0.194888
0.40679 0.09131 0.239139
0.628626 0.126818 0.317662
0.781659 0.226078 0.452415
0.812497 0.382803 0.577279
0.839429 0.517433 0.6766
0.0804913 0.129519 0.225437
0.0829633 0.124529 0.246464
0.112596 0.118807 0.277653
0.271962 0.0884871 0.220462
0.413855 0.0935683 0.22797
0.66186 0.125032 0.303136
0.783551 0.246052 0.462104
0.821012 0.43006 0.605982
0.85301 0.595499 0.735836
0.0694743 0.266865 0.245014
0.0695506 0.268101 0.246006
0.073106 0.268727 0.246891
0.299031 0.314778 0.292485
0.5523 0.215106 0.237201
0.706889 0.146563 0.263645
0.788052 0.247013 0.428794
0.822797 0.443473 0.602472
0.860502 0.640635 0.76083
0.129824 0.509087 0.36321
0.130999 0.508202 0.353689
0.136339 0.50808 0.339544
0.168887 0.499153 0.286198
0.5028 0.520821 0.242039
0.711742 0.471824 0.316762
0.791653 0.405386 0.345876
0.830213 0.446296 0.536339
0.865629 0.66714 0.765759
0.265644 0.724224 0.505287
0.266773 0.724636 0.497963
0.271092 0.724498 0.488121
0.272587 0.720226 0.452171
0.429221 0.724987 0.394583
0.688991 0.731853 0.313878
0.808057 0.705852 0.452796
0.795026 0.649638 0.446281
0.868223 0.687251 0.758267
0.411749 0.81738 0.605829
0.404776 0.817731 0.599222
0.398215 0.817151 0.590585
0.3991 0.812177 0.568368
0.504997 0.812329 0.562112
0.649104 0.820645 0.568399
0.790036 0.823941 0.541619
0.83183 0.81799 0.604334
0.82472 0.750988 0.541192
0.626322 0.837049 0.713954
0.616999 0.836088 0.705699
0.614267 0.83505 0.701656
0.612543 0.833722 0.69424
0.627695 0.832731 0.685817
0.700572 0.838651 0.698238
0.766049 0.853071 0.689296
0.837446 0.859648 0.69955
0.842161 0.87071 0.738293
0.760189 0.873716 0.804776
0.751675 0.870069 0.797391
0.755428 0.871153 0.800137
0.758831 0.871733 0.801144
0.760876 0.870665 0.798642
0.779873 0.874296 0.804074
0.817777 0.883101 0.819394
0.846311 0.891814 0.827237
0.863325 0.896605 0.85008
0.0958724 0.099794 0.346014
0.110811 0.100496 0.350439
0.143008 0.0940261 0.355032
0.246784 0.0918898 0.324742
0.407034 0.0912642 0.341772
0.622248 0.128344 0.435233
0.754086 0.167437 0.516793
0.798321 0.320562 0.602472
0.828641 0.474434 0.666468
0.0926833 0.0998398 0.348501
0.0980545 0.101106 0.362387
0.13669 0.101961 0.371923
0.244862 0.0917372 0.336446
0.413306 0.0922713 0.347555
0.627436 0.128695 0.436606
0.755825 0.170626 0.516365
0.807385 0.368109 0.620157
0.842557 0.539788 0.709468
0.0901198 0.109804 0.369238
0.0911269 0.109651 0.385824
0.108263 0.10663 0.412619
0.254917 0.0941329 0.386053
0.430213 0.0945754 0.363149
0.634882 0.129961 0.439414
0.763012 0.186358 0.520592
0.817273 0.425772 0.640085
0.852415 0.598581 0.74696
0.0760662 0.239841 0.417105
0.0814221 0.236942 0.432914
0.0891432 0.229862 0.453651
0.239216 0.229999 0.503624
0.511284 0.168933 0.4421
0.645838 0.137102 0.433692
0.77612 0.221378 0.514412
0.825818 0.477485 0.658854
0.860731 0.650431 0.774472
0.0829328 0.494591 0.48838
0.0825666 0.494209 0.487999
0.0837568 0.495583 0.489036
0.100526 0.490028 0.481849
0.523919 0.535058 0.515465
0.773693 0.453941 0.479698
0.812436 0.362295 0.478462
0.826535 0.46772 0.61561
0.868376 0.712551 0.801572
0.206577 0.719371 0.580697
0.209247 0.719142 0.574945
0.217365 0.718044 0.567239
0.244419 0.713603 0.545312
0.453361 0.721035 0.537133
0.681956 0.729412 0.497124
0.804623 0.691737 0.517098
0.807706 0.612711 0.532418
0.870253 0.722957 0.782849
0.389258 0.818204 0.647379
0.383642 0.818448 0.640284
0.383978 0.818753 0.633341
0.395926 0.816709 0.61828
0.458732 0.813916 0.592309
0.64712 0.819745 0.606073
0.788205 0.82417 0.551873
0.838529 0.817197 0.628901
0.834684 0.755093 0.636088
0.616098 0.8392 0.726299
0.606546 0.838331 0.718868
0.60444 0.837781 0.715145
0.606775 0.8365 0.709346
0.617746 0.834257 0.696208
0.685191 0.83801 0.69865
0.762539 0.85304 0.695552
0.837201 0.859052 0.69781
0.842298 0.873655 0.747967
0.753109 0.872724 0.803967
0.745571 0.870024 0.798215
0.751431 0.871214 0.801038
0.754849 0.872099 0.80206
0.761059 0.873045 0.803098
0.774289 0.874037 0.803174
0.814343 0.882322 0.818677
0.845747 0.891737 0.827451
0.862898 0.896544 0.848951
0.116197 0.115846 0.477424
0.130724 0.114885 0.48159
0.161822 0.115541 0.488823
0.263188 0.100404 0.470893
0.41796 0.114794 0.461128
0.630442 0.13492 0.543297
0.766293 0.202884 0.628092
0.78323 0.255879 0.677638
0.819516 0.444984 0.7346
0.112703 0.117113 0.481926
0.11899 0.117708 0.491218
0.151949 0.117983 0.501884
0.259159 0.101686 0.488701
0.419989 0.116457 0.468971
0.639628 0.13698 0.551415
0.766583 0.204273 0.630488
0.789624 0.279423 0.690349
0.835096 0.512856 0.758419
0.10248 0.130129 0.51696
0.104402 0.131746 0.531838
0.131182 0.12874 0.553094
0.252964 0.106538 0.542123
0.458915 0.12871 0.519677
0.65301 0.140963 0.563027
0.766278 0.20589 0.6365
0.801373 0.348135 0.716182
0.853803 0.598733 0.785199
0.110033 0.208911 0.560815
0.111223 0.205936 0.571283
0.114229 0.198947 0.590249
0.19559 0.186221 0.635401
0.459937 0.142809 0.568231
0.676814 0.1505 0.583322
0.765042 0.208331 0.63389
0.808194 0.398581 0.724956
0.864256 0.656275 0.799863
0.0706035 0.471992 0.628595
0.0706493 0.470451 0.637049
0.0707408 0.468559 0.64654
0.081239 0.461738 0.672618
0.483207 0.470146 0.731106
0.753246 0.433585 0.684794
0.790127 0.31284 0.655848
0.813062 0.441993 0.70193
0.869322 0.705943 0.814755
0.144747 0.703044 0.705379
0.143206 0.702205 0.704387
0.144198 0.701167 0.703624
0.151598 0.698695 0.69987
0.373724 0.70605 0.695537
0.703502 0.721782 0.704646
0.863066 0.666178 0.682689
0.850553 0.586023 0.668009
0.8692 0.721675 0.803494
0.290715 0.824674 0.740841
0.286442 0.823987 0.734539
0.286687 0.822538 0.727382
0.306493 0.820493 0.715846
0.40087 0.818006 0.693812
0.679011 0.825315 0.722713
0.793256 0.835203 0.701122
0.852995 0.811444 0.6851
0.862516 0.759213 0.745998
0.575479 0.847974 0.760311
0.569757 0.846555 0.754284
0.572976 0.845563 0.750729
0.581949 0.844099 0.745083
0.605005 0.842161 0.736568
0.667124 0.842237 0.727153
0.767987 0.859022 0.73843
0.838758 0.863554 0.713512
0.845182 0.881849 0.777447
0.73994 0.873625 0.808103
0.734493 0.871489 0.803189
0.742321 0.873243 0.806561
0.747875 0.874327 0.808179
0.757183 0.875639 0.810544
0.766979 0.875013 0.807813
0.807599 0.881926 0.819593
0.846983 0.892393 0.832456
0.863905 0.896757 0.851957
0.140124 0.138659 0.599054
0.142657 0.138338 0.59939
0.17734 0.137331 0.61091
0.274174 0.114931 0.604547
0.427283 0.124041 0.571038
0.611154 0.151202 0.616342
0.764599 0.188556 0.709819
0.771511 0.202777 0.713634
0.807797 0.358907 0.778058
0.136233 0.139452 0.600519
0.139528 0.142443 0.613169
0.165042 0.142016 0.623087
0.265141 0.116335 0.623041
0.437964 0.128435 0.594263
0.615091 0.154589 0.623957
0.765652 0.188785 0.715572
0.775051 0.210788 0.719814
0.818708 0.411109 0.793347
0.119997 0.156268 0.635111
0.122377 0.159792 0.649943
0.142824 0.163699 0.684596
0.261372 0.152316 0.677363
0.46949 0.139818 0.659541
0.635462 0.164324 0.649638
0.76733 0.188815 0.726131
0.787167 0.259327 0.74786
0.849668 0.552926 0.825498
0.124498 0.210163 0.652155
0.126665 0.209339 0.663035
0.131655 0.208377 0.689632
0.157458 0.191913 0.727703
0.430976 0.147845 0.6878
0.691478 0.187564 0.706661
0.768399 0.18909 0.730831
0.797436 0.304768 0.766735
0.863935 0.633906 0.843824
0.112215 0.474876 0.747158
0.120027 0.472847 0.755901
0.130022 0.470512 0.766979
0.156619 0.454368 0.787961
0.456672 0.460807 0.835492
0.730129 0.417762 0.790188
0.787778 0.263615 0.746563
0.797498 0.30631 0.763073
0.869398 0.691829 0.848264
0.0891127 0.680842 0.792798
0.0865339 0.67921 0.794888
0.0848402 0.6766 0.796521
0.0852827 0.670848 0.801648
0.277806 0.683024 0.832044
0.679591 0.682033 0.848066
0.85687 0.664424 0.819821
0.853223 0.568292 0.80766
0.870375 0.694423 0.832471
0.265309 0.818998 0.829343
0.260426 0.817594 0.82707
0.25832 0.815854 0.824857
0.259876 0.813123 0.821485
0.32665 0.81355 0.818723
0.628199 0.826398 0.815412
0.811368 0.838758 0.822003
0.875608 0.805249 0.809232
0.869932 0.715969 0.801678
0.531929 0.854963 0.816602
0.524041 0.854185 0.813642
0.525643 0.854032 0.810086
0.532219 0.854032 0.806058
0.549157 0.854185 0.799207
0.618433 0.859709 0.789425
0.791943 0.881346 0.81944
0.852949 0.89276 0.825513
0.853025 0.888182 0.820752
0.721187 0.876234 0.824048
0.714351 0.875029 0.818372
0.727321 0.876722 0.821103
0.735973 0.878721 0.822446
0.746899 0.880201 0.824338
0.759091 0.881437 0.824842
0.787228 0.882445 0.824521
0.849897 0.893568 0.844678
0.866667 0.897307 0.857176
0.164324 0.168826 0.705531
0.163729 0.168261 0.70396
0.170779 0.168643 0.707607
0.27982 0.159716 0.707622
0.453544 0.142855 0.686656
0.600015 0.169421 0.676936
0.766186 0.182147 0.736568
0.772702 0.194476 0.744152
0.789212 0.254673 0.76437
0.158129 0.167132 0.700481
0.161593 0.17261 0.716747
0.160372 0.173907 0.719432
0.260365 0.163699 0.7178
0.456474 0.145037 0.701106
0.603723 0.17142 0.686931
0.765957 0.182086 0.736355
0.772946 0.19527 0.744427
0.799817 0.307362 0.777813
0.138628 0.184939 0.724254
0.141772 0.189624 0.736629
0.145312 0.201068 0.755489
0.196246 0.180148 0.74612
0.444022 0.146075 0.712413
0.670359 0.193652 0.723003
0.764553 0.181888 0.73579
0.77499 0.198535 0.746761
0.836271 0.492683 0.819059
0.134951 0.225223 0.712093
0.136156 0.228992 0.722988
0.140536 0.241062 0.741253
0.145434 0.230808 0.766033
0.378714 0.158556 0.73521
0.672465 0.203082 0.72958
0.76759 0.184375 0.738109
0.775601 0.201007 0.747646
0.857069 0.593561 0.844724
0.144152 0.484764 0.795895
0.1505 0.485893 0.803754
0.158892 0.486595 0.816068
0.175586 0.471717 0.834257
0.383337 0.460639 0.852979
0.694057 0.426734 0.811856
0.796109 0.294362 0.773678
0.775814 0.201511 0.74786
0.865858 0.660029 0.859144
0.0714122 0.682673 0.835996
0.0714122 0.68217 0.838621
0.0713817 0.680446 0.842222
0.0712902 0.671809 0.846906
0.239292 0.674601 0.874739
0.656931 0.68101 0.891112
0.842634 0.662409 0.860624
0.851087 0.556085 0.835676
0.864012 0.641291 0.855741
0.243946 0.81033 0.873869
0.237797 0.80856 0.873518
0.234592 0.806287 0.874266
0.241154 0.801709 0.874357
0.354086 0.801282 0.87834
0.602258 0.807935 0.886503
0.792599 0.818006 0.893294
0.869535 0.794797 0.875837
0.867216 0.671839 0.859068
0.50985 0.855268 0.863645
0.501625 0.854475 0.863188
0.502678 0.85452 0.863249
0.508522 0.855131 0.862913
0.528908 0.856779 0.861708
0.601923 0.863279 0.861433
0.76672 0.886229 0.871092
0.866941 0.899321 0.884535
0.871321 0.893492 0.885618
0.702266 0.875669 0.858335
0.695888 0.874571 0.854917
0.712322 0.876783 0.856397
0.722499 0.87866 0.856901
0.735515 0.881041 0.858122
0.7476 0.883589 0.85922
0.775311 0.889128 0.860655
0.852567 0.901625 0.878447
0.876173 0.903334 0.886275
0.163821 0.186435 0.751842
0.16434 0.186343 0.751797
0.162829 0.186572 0.751888
0.231037 0.173709 0.739788
0.442802 0.146059 0.712734
0.606897 0.171939 0.712993
0.754665 0.177462 0.731151
0.768673 0.186786 0.739528
0.775631 0.201221 0.747692
0.162936 0.186099 0.750622
0.157244 0.18851 0.752987
0.155657 0.18938 0.753765
0.199893 0.17937 0.745266
0.427115 0.144213 0.712871
0.631922 0.181445 0.717662
0.758022 0.176242 0.730755
0.768475 0.186404 0.739239
0.77705 0.203342 0.74902
0.145876 0.200153 0.757519
0.145922 0.202716 0.759075
0.145586 0.218433 0.763241
0.145357 0.219409 0.763287
0.319936 0.136416 0.721325
0.653468 0.189242 0.721508
0.759319 0.175326 0.73048
0.766842 0.183169 0.737102
0.799893 0.307988 0.777829
0.139666 0.236896 0.742214
0.142763 0.246098 0.754391
0.150988 0.290303 0.785046
0.159762 0.334768 0.80737
0.182666 0.277989 0.792157
0.594629 0.196338 0.73843
0.770947 0.190234 0.742123
0.767163 0.183688 0.737469
0.824201 0.435508 0.806287
0.155795 0.493843 0.817319
0.158877 0.49897 0.82536
0.155657 0.516716 0.837034
0.148302 0.533822 0.842939
0.162188 0.525322 0.853956
0.603769 0.503426 0.857572
0.817685 0.439857 0.806271
0.772686 0.19443 0.744121
0.841779 0.51754 0.824964
0.0713512 0.690532 0.852552
0.071397 0.696086 0.856657
0.0714122 0.70277 0.859892
0.0714122 0.699733 0.861402
0.071458 0.678294 0.865202
0.56022 0.687694 0.885267
0.803143 0.682811 0.871168
0.859174 0.605066 0.847288
0.837736 0.499016 0.820935
0.184771 0.80943 0.888594
0.173083 0.807889 0.889067
0.167193 0.806149 0.888823
0.170108 0.803372 0.888838
0.216342 0.796094 0.886213
0.563104 0.801785 0.88748
0.769299 0.816724 0.895018
0.869322 0.800717 0.878904
0.866484 0.665812 0.860121
0.468147 0.849729 0.873228
0.447089 0.848371 0.874662
0.432364 0.84744 0.875044
0.440803 0.847364 0.875059
0.502235 0.849195 0.87306
0.616617 0.857847 0.872602
0.752529 0.87953 0.880415
0.856291 0.896391 0.889052
0.869017 0.877012 0.888548
0.679683 0.872648 0.873075
0.674372 0.871809 0.872877
0.688563 0.874235 0.872679
0.699733 0.87602 0.874083
0.714458 0.878172 0.874311
0.730205 0.880583 0.874815
0.764569 0.887404 0.877897
0.847211 0.902464 0.888029
0.872755 0.904891 0.889448
