bundles/resolve-cinematic-luts/Phantom Luts/A7s3 Phntm Film LUTs - G6/ATOMOS Monitor LUTs/Slog3/VisionTeal A7s3 AML.cube
TITLE "Generated by Resolve"
LUT_3D_SIZE 9
0.0725261 0.0807507 0.0793164
0.0724651 0.0804303 0.0798352
0.130648 0.0767681 0.0786755
0.273823 0.0665904 0.0728313
0.437705 0.0654765 0.104372
0.63064 0.097612 0.234913
0.765591 0.205051 0.417105
0.782025 0.336217 0.531197
0.813046 0.471107 0.635447
0.0723125 0.0917372 0.0813764
0.0746777 0.0906539 0.0815747
0.135576 0.0853285 0.0806287
0.289311 0.0762188 0.0719005
0.454368 0.0652781 0.101015
0.64831 0.103838 0.235142
0.767391 0.209094 0.411429
0.782834 0.344457 0.531029
0.815778 0.476585 0.639811
0.0700542 0.16672 0.0893721
0.0772412 0.161517 0.085069
0.148165 0.164065 0.0868544
0.326177 0.124239 0.0846723
0.464256 0.0812238 0.076173
0.679454 0.111299 0.231968
0.770092 0.223026 0.395895
0.782986 0.353033 0.518059
0.817212 0.488304 0.639414
0.0738079 0.339178 0.130205
0.0745861 0.329992 0.113176
0.121111 0.328252 0.0962234
0.318593 0.329885 0.0936904
0.563561 0.313115 0.157153
0.711223 0.217441 0.160113
0.777111 0.246494 0.33257
0.793881 0.395605 0.506722
0.821408 0.505745 0.631952
0.133333 0.560006 0.269047
0.135851 0.554696 0.254368
0.147509 0.545037 0.2206
0.295186 0.521157 0.171267
0.539315 0.537392 0.166369
0.746654 0.56733 0.282445
0.796628 0.534585 0.322835
0.802899 0.466438 0.409689
0.838514 0.574044 0.655772
0.227726 0.773541 0.453101
0.219638 0.773678 0.444938
0.24979 0.763912 0.428122
0.293919 0.733532 0.345129
0.54934 0.702586 0.315602
0.707774 0.720897 0.335805
0.80856 0.740795 0.448539
0.806958 0.720409 0.428016
0.85243 0.667674 0.627131
0.394202 0.830381 0.562554
0.383841 0.832654 0.557122
0.379095 0.829892 0.54377
0.439124 0.809857 0.519677
0.562524 0.788617 0.512932
0.707164 0.792935 0.530846
0.796521 0.80708 0.570214
0.83331 0.816266 0.631312
0.830503 0.78909 0.576074
0.643748 0.843549 0.70103
0.627573 0.841627 0.689128
0.618204 0.839506 0.678859
0.617685 0.835935 0.66717
0.660075 0.831846 0.668849
0.743648 0.833783 0.685969
0.807248 0.84567 0.702464
0.853315 0.858976 0.740383
0.863523 0.869322 0.767605
0.787793 0.881117 0.806882
0.77171 0.875654 0.793469
0.767788 0.874708 0.789487
0.766278 0.873777 0.786908
0.773053 0.874067 0.787808
0.802167 0.87982 0.802625
0.842451 0.885985 0.820081
0.871687 0.890883 0.830365
0.886366 0.895918 0.849577
0.0726787 0.08159 0.0870985
0.0727092 0.0817578 0.088777
0.142473 0.0767071 0.103853
0.289189 0.0663615 0.099321
0.461189 0.0669108 0.132235
0.653574 0.107637 0.274357
0.76762 0.217578 0.439033
0.787015 0.354971 0.553017
0.821317 0.493385 0.662043
0.0723888 0.0909438 0.0874495
0.0736706 0.0912337 0.0897536
0.15462 0.0805219 0.0818036
0.29836 0.0674144 0.0779889
0.458289 0.0679789 0.115297
0.656168 0.108263 0.263676
0.768185 0.223163 0.437583
0.790417 0.37377 0.562341
0.828138 0.514168 0.679301
0.070222 0.169146 0.108125
0.0701152 0.166995 0.0903487
0.146914 0.163256 0.0879683
0.335958 0.112581 0.084062
0.483467 0.0693675 0.082063
0.68275 0.114733 0.258305
0.769635 0.236515 0.423636
0.792889 0.392813 0.560632
0.830976 0.531411 0.684581
0.0698405 0.34551 0.141024
0.0724041 0.339849 0.13138
0.0839094 0.325734 0.0933394
0.317449 0.329564 0.0937667
0.564736 0.305959 0.157824
0.719036 0.185534 0.162112
0.775174 0.253803 0.391028
0.800137 0.4309 0.554803
0.840238 0.567025 0.700557
0.109728 0.564126 0.277409
0.12813 0.560906 0.271305
0.14229 0.550988 0.240024
0.263142 0.523827 0.167941
0.537789 0.537026 0.166903
0.751888 0.563592 0.289693
0.795041 0.515862 0.324666
0.814404 0.48661 0.479423
0.854078 0.620996 0.71989
0.229053 0.775845 0.465904
0.220645 0.776959 0.458091
0.223896 0.772015 0.437354
0.28806 0.737514 0.358206
0.543328 0.701442 0.316609
0.705653 0.719326 0.332387
0.808576 0.738643 0.448875
0.807263 0.714458 0.426627
0.866468 0.671427 0.694072
0.395895 0.831159 0.568139
0.38436 0.833448 0.562615
0.378729 0.831937 0.550225
0.425055 0.813581 0.522972
0.554482 0.788678 0.51162
0.702647 0.791638 0.527245
0.795575 0.805539 0.566903
0.832807 0.814878 0.628229
0.830701 0.781582 0.567651
0.644587 0.844053 0.702373
0.631983 0.843214 0.695216
0.622522 0.84062 0.683421
0.617411 0.836698 0.668925
0.657359 0.832334 0.66949
0.739879 0.833371 0.684535
0.804044 0.844175 0.698528
0.852506 0.857832 0.737865
0.863081 0.86862 0.765866
0.793225 0.882719 0.811322
0.782605 0.879683 0.802609
0.778439 0.877867 0.798474
0.776547 0.8766 0.795041
0.780926 0.876448 0.794781
0.804959 0.881193 0.806607
0.842023 0.886229 0.820798
0.871626 0.890959 0.830839
0.886473 0.89601 0.849882
0.0717021 0.0883345 0.139773
0.0783551 0.0865339 0.142397
0.136324 0.0771954 0.145159
0.283528 0.0673381 0.168673
0.454276 0.0698253 0.189944
0.665583 0.119127 0.329381
0.766522 0.241321 0.477745
0.795071 0.393744 0.590249
0.833509 0.536889 0.703944
0.0717937 0.0948959 0.12491
0.0715038 0.0911269 0.152071
0.140932 0.0775311 0.151034
0.286625 0.0694743 0.144137
0.463752 0.068574 0.164736
0.680598 0.1243 0.326299
0.768673 0.252094 0.481376
0.803586 0.429328 0.613214
0.848264 0.587869 0.742123
0.0705119 0.164111 0.139315
0.0704814 0.165606 0.141161
0.150149 0.170382 0.163378
0.358495 0.101488 0.118914
0.483894 0.0703441 0.13196
0.68867 0.124666 0.289876
0.769253 0.250278 0.454383
0.802991 0.433219 0.601587
0.855024 0.618723 0.757671
0.0698253 0.349004 0.179797
0.0697642 0.34696 0.161669
0.0758373 0.337819 0.135851
0.320684 0.334539 0.115496
0.56817 0.282429 0.163958
0.744976 0.171969 0.200061
0.774945 0.264363 0.412375
0.806348 0.457145 0.591394
0.858824 0.636591 0.760861
0.109819 0.568338 0.308293
0.104784 0.565545 0.291005
0.128496 0.559899 0.271229
0.198199 0.528634 0.165606
0.536004 0.535241 0.166094
0.752468 0.558556 0.301198
0.794476 0.492424 0.332647
0.816098 0.481239 0.534752
0.864378 0.66125 0.760861
0.232029 0.775402 0.481834
0.222721 0.779049 0.476997
0.221317 0.776211 0.458335
0.276219 0.74461 0.383337
0.532036 0.699489 0.318868
0.703975 0.71725 0.328893
0.809537 0.736568 0.455467
0.80914 0.707607 0.433295
0.869596 0.70396 0.751934
0.396567 0.832792 0.577691
0.382666 0.836118 0.573404
0.376837 0.834882 0.560906
0.401633 0.820539 0.529625
0.542519 0.789487 0.510369
0.697536 0.790478 0.524819
0.794141 0.803464 0.561044
0.833127 0.813275 0.625925
0.830396 0.774304 0.561334
0.642344 0.844099 0.703182
0.62829 0.843793 0.69659
0.624353 0.841688 0.689357
0.617227 0.837949 0.672862
0.650965 0.832319 0.668421
0.73373 0.83183 0.680598
0.801022 0.842206 0.693431
0.850843 0.856168 0.732815
0.861082 0.866636 0.760601
0.790158 0.882033 0.80975
0.780362 0.879286 0.801297
0.78291 0.879866 0.803128
0.781476 0.878798 0.799786
0.782834 0.877836 0.797406
0.802258 0.880842 0.804685
0.838804 0.885008 0.817777
0.870649 0.890455 0.82826
0.885374 0.895094 0.846006
0.0703441 0.0995499 0.255589
0.0730449 0.0969863 0.267109
0.129015 0.0791485 0.272663
0.273777 0.068864 0.265904
0.447471 0.0664225 0.318486
0.653544 0.11725 0.416007
0.767895 0.228321 0.516854
0.795682 0.393088 0.608255
0.82826 0.517082 0.695872
0.0706951 0.102693 0.246281
0.0704204 0.102373 0.274235
0.107744 0.082063 0.295613
0.278569 0.0689097 0.270604
0.451453 0.0670329 0.314855
0.661585 0.122103 0.405722
0.769696 0.242069 0.514885
0.801648 0.417945 0.621622
0.841154 0.560021 0.728038
0.0702678 0.162341 0.259953
0.0702373 0.160113 0.28307
0.0849165 0.148196 0.340108
0.317571 0.0793927 0.305745
0.456886 0.0702983 0.300145
0.68394 0.133181 0.394491
0.77229 0.267384 0.518746
0.813718 0.4701 0.650492
0.857404 0.630961 0.769497
0.0699626 0.342275 0.275349
0.0698711 0.343404 0.277928
0.0699779 0.342702 0.279774
0.367758 0.373266 0.348013
0.593835 0.256916 0.294713
0.725719 0.170703 0.33373
0.772732 0.278447 0.471336
0.814038 0.480369 0.633463
0.866117 0.674876 0.785718
0.113741 0.573861 0.38735
0.11368 0.573236 0.38146
0.115679 0.571481 0.362951
0.152331 0.55407 0.288014
0.541192 0.54258 0.269184
0.752209 0.541604 0.351797
0.800961 0.471748 0.384237
0.819257 0.499535 0.578393
0.869795 0.698772 0.786786
0.241459 0.77232 0.521904
0.23267 0.775326 0.518257
0.230579 0.774975 0.505013
0.227939 0.770489 0.455192
0.481666 0.70106 0.329931
0.700343 0.713695 0.329656
0.81532 0.734707 0.484306
0.817945 0.698955 0.479896
0.872572 0.718471 0.776425
0.402289 0.835187 0.602609
0.38761 0.838926 0.599603
0.379705 0.839368 0.590265
0.378759 0.83357 0.560174
0.51838 0.793927 0.514031
0.68867 0.789761 0.526619
0.792309 0.802136 0.556176
0.837385 0.814115 0.636378
0.836255 0.768902 0.577585
0.64033 0.845808 0.710002
0.626352 0.845548 0.703792
0.621332 0.844327 0.697871
0.619028 0.841001 0.686305
0.638605 0.834318 0.669749
0.725139 0.831281 0.678309
0.798901 0.841413 0.691325
0.850233 0.854749 0.729824
0.860838 0.866102 0.759594
0.787182 0.881086 0.807828
0.77763 0.878462 0.800031
0.781338 0.879896 0.803052
0.783032 0.879835 0.803174
0.783475 0.878813 0.799664
0.799985 0.880308 0.803265
0.836683 0.884062 0.816068
0.869902 0.890196 0.827207
0.885161 0.894911 0.845396
0.0697948 0.12459 0.393362
0.0698558 0.119753 0.405966
0.121492 0.113207 0.428367
0.271611 0.0766918 0.414725
0.446723 0.076997 0.438514
0.663371 0.123369 0.548714
0.75378 0.158572 0.617884
0.790906 0.360861 0.668849
0.827176 0.515801 0.719799
0.0700236 0.127626 0.393805
0.0699168 0.128206 0.410544
0.0959029 0.121172 0.440558
0.265751 0.0771649 0.425757
0.453193 0.0780499 0.444221
0.667872 0.123507 0.549004
0.755566 0.160662 0.615976
0.798474 0.397452 0.676097
0.836149 0.542626 0.735363
0.0697948 0.153109 0.405707
0.0699931 0.155032 0.424094
0.0697185 0.13753 0.46154
0.267277 0.0791028 0.474006
0.472282 0.0831617 0.463386
0.67335 0.124315 0.549462
0.761288 0.179202 0.614237
0.812116 0.465751 0.696513
0.855146 0.624308 0.77673
0.0696269 0.329397 0.430594
0.0694896 0.328603 0.444694
0.0700389 0.324697 0.464942
0.237217 0.308049 0.562341
0.564172 0.188754 0.545724
0.678431 0.124346 0.537087
0.769207 0.220386 0.592966
0.823163 0.51194 0.705287
0.866117 0.67921 0.797909
0.0982528 0.572351 0.502983
0.096376 0.572869 0.504509
0.0978103 0.574258 0.506188
0.120806 0.566278 0.501747
0.58941 0.582681 0.558785
0.783062 0.509544 0.531792
0.794186 0.404166 0.523049
0.822248 0.510735 0.657603
0.873503 0.736065 0.813886
0.209323 0.78085 0.607279
0.2056 0.782422 0.605951
0.210636 0.780713 0.598688
0.231403 0.773007 0.575128
0.453742 0.747738 0.528634
0.714748 0.733516 0.514168
0.827893 0.73106 0.552239
0.839521 0.6813 0.577966
0.875349 0.747738 0.795117
0.396857 0.84181 0.657313
0.385092 0.844205 0.653956
0.384726 0.843458 0.646922
0.391409 0.839872 0.628214
0.44828 0.82504 0.578073
0.6748 0.797391 0.564126
0.791394 0.803067 0.567636
0.84625 0.817746 0.6636
0.858198 0.779599 0.674266
0.642725 0.850217 0.73019
0.629129 0.850141 0.724559
0.624842 0.849226 0.719768
0.621958 0.847089 0.71107
0.624537 0.841733 0.68893
0.706828 0.832593 0.681544
0.795575 0.842435 0.697383
0.849454 0.854261 0.729076
0.863737 0.868406 0.767239
0.782895 0.880781 0.808515
0.77435 0.878325 0.801587
0.779934 0.880034 0.804898
0.782177 0.880156 0.805173
0.78555 0.880522 0.805005
0.794415 0.880903 0.804105
0.832944 0.884184 0.816434
0.869398 0.89015 0.827604
0.885084 0.894789 0.844953
0.0700084 0.155093 0.524758
0.0699474 0.153124 0.537392
0.104799 0.151644 0.561196
0.255146 0.0877699 0.558984
0.454017 0.105135 0.572366
0.664149 0.132723 0.659586
0.760586 0.18735 0.727733
0.776883 0.259464 0.759823
0.820691 0.470665 0.785565
0.0698711 0.158083 0.526558
0.0698405 0.158709 0.53875
0.085069 0.157198 0.567666
0.244678 0.0896468 0.576699
0.454109 0.105394 0.578866
0.670939 0.134966 0.666972
0.761044 0.18761 0.729458
0.783642 0.288975 0.76614
0.833661 0.517449 0.794949
0.0700389 0.191409 0.54667
0.0701762 0.191867 0.558892
0.0700084 0.176562 0.595499
0.226047 0.112535 0.628779
0.488945 0.116091 0.630304
0.681636 0.138277 0.678431
0.7608 0.187533 0.733959
0.795926 0.37055 0.775937
0.858106 0.617975 0.815778
0.0698253 0.31696 0.574136
0.069749 0.314 0.585977
0.0700389 0.306172 0.605203
0.104265 0.274739 0.686885
0.489097 0.139788 0.676555
0.700114 0.147906 0.696513
0.760555 0.189899 0.732143
0.805493 0.422248 0.779385
0.86772 0.677378 0.823514
0.0711986 0.580316 0.623377
0.0710765 0.580941 0.631128
0.0710155 0.580362 0.639063
0.0711376 0.571252 0.658076
0.509331 0.539162 0.757259
0.770428 0.467018 0.746578
0.787137 0.328695 0.732738
0.813993 0.465629 0.759472
0.87303 0.727687 0.829053
0.1991 0.779492 0.715831
0.195132 0.780148 0.715984
0.195773 0.779049 0.7149
0.202228 0.775601 0.711604
0.432105 0.761318 0.710048
0.74876 0.752285 0.731624
0.865339 0.709606 0.719539
0.851774 0.614801 0.708431
0.874434 0.74519 0.816602
0.334981 0.859724 0.744991
0.324956 0.861204 0.742397
0.321752 0.859922 0.73698
0.336446 0.856718 0.727642
0.427298 0.844236 0.707576
0.688792 0.833021 0.716533
0.815091 0.830869 0.719844
0.863005 0.822278 0.720348
0.875486 0.784207 0.767178
0.623087 0.861494 0.761776
0.612604 0.861234 0.757687
0.613046 0.860182 0.754192
0.617975 0.858595 0.750515
0.633509 0.85568 0.743145
0.677592 0.850996 0.723842
0.796109 0.853834 0.736904
0.851789 0.859159 0.741558
0.871 0.875563 0.790616
0.778119 0.881559 0.81416
0.771267 0.880293 0.808804
0.778256 0.881437 0.812039
0.783307 0.882292 0.814572
0.789258 0.88336 0.816022
0.792752 0.882826 0.811139
0.826658 0.885283 0.818235
0.869062 0.890852 0.830747
0.885481 0.895247 0.846571
0.0701152 0.192355 0.634882
0.0701305 0.192004 0.636347
0.086183 0.1944 0.666773
0.252354 0.142321 0.689006
0.442786 0.105364 0.669123
0.639017 0.143587 0.723903
0.761746 0.176425 0.795209
0.768261 0.195453 0.796918
0.797604 0.387976 0.820508
0.0702831 0.194293 0.632166
0.0699321 0.197986 0.642954
0.0700236 0.196048 0.664805
0.252857 0.171344 0.70573
0.449409 0.10782 0.686915
0.642527 0.145556 0.729625
0.76173 0.177462 0.798383
0.771923 0.205554 0.800443
0.809522 0.440116 0.830152
0.0702678 0.234897 0.648264
0.0700236 0.2383 0.658518
0.0701457 0.226352 0.686702
0.197772 0.206043 0.734081
0.475547 0.11606 0.733104
0.659022 0.152514 0.747524
0.762005 0.179934 0.804135
0.780591 0.270283 0.811322
0.843565 0.578882 0.855329
0.0699016 0.316503 0.658549
0.0703136 0.314855 0.668284
0.0705425 0.310353 0.688914
0.0699474 0.271168 0.720256
0.428611 0.13283 0.752056
0.7075 0.180453 0.788815
0.763104 0.181735 0.806699
0.788128 0.325841 0.818021
0.860655 0.660334 0.863752
0.0710613 0.584665 0.714473
0.071046 0.582895 0.72076
0.0710002 0.581033 0.729061
0.0712596 0.56936 0.743343
0.451637 0.546059 0.824567
0.741207 0.457755 0.825132
0.780346 0.274083 0.809018
0.787732 0.326696 0.815152
0.869337 0.715572 0.86038
0.113939 0.782849 0.782025
0.109819 0.782788 0.783093
0.106493 0.781689 0.784009
0.107179 0.776593 0.786969
0.330037 0.764935 0.804074
0.709667 0.729351 0.843458
0.858717 0.690608 0.839399
0.850172 0.594476 0.836439
0.872328 0.716472 0.84741
0.326345 0.863279 0.805997
0.321889 0.863111 0.805234
0.320607 0.862409 0.804562
0.322408 0.859632 0.802213
0.386816 0.853147 0.79942
0.680705 0.841596 0.803449
0.836362 0.846464 0.826154
0.885588 0.821469 0.816846
0.874052 0.728191 0.816175
0.592752 0.870802 0.798642
0.582727 0.8701 0.795102
0.583505 0.870039 0.793393
0.589181 0.869947 0.791501
0.605692 0.869856 0.789288
0.676295 0.871839 0.789624
0.813275 0.884352 0.819135
0.874922 0.887572 0.826291
0.880934 0.88191 0.82356
0.770474 0.88452 0.825025
0.764416 0.883162 0.821469
0.775235 0.885466 0.82562
0.782254 0.88632 0.827985
0.789853 0.887388 0.830076
0.797757 0.887968 0.830304
0.812345 0.888258 0.825315
0.868177 0.892866 0.840177
0.886763 0.8963 0.851637
0.0704662 0.228046 0.708965
0.0703899 0.227726 0.707912
0.0703746 0.227176 0.713466
0.21886 0.210559 0.752789
0.452293 0.120195 0.748333
0.628489 0.163455 0.766842
0.759823 0.173816 0.809522
0.767376 0.191485 0.815656
0.780224 0.269657 0.822553
0.0702831 0.227237 0.703609
0.070161 0.232441 0.713024
0.0701762 0.233875 0.713893
0.174426 0.221729 0.754314
0.453559 0.122087 0.756756
0.631388 0.164721 0.772488
0.75964 0.173648 0.8094
0.767605 0.193256 0.815793
0.788327 0.330419 0.82591
0.0700694 0.264576 0.708171
0.0702525 0.269886 0.715984
0.0703136 0.281926 0.728405
0.0704356 0.234684 0.740963
0.436103 0.123751 0.762234
0.685817 0.171618 0.793576
0.758602 0.173083 0.808911
0.768948 0.197696 0.816999
0.828885 0.520592 0.856321
0.0703288 0.332311 0.705257
0.0703136 0.336461 0.712886
0.0700694 0.351019 0.724315
0.0700389 0.329519 0.739773
0.352255 0.155062 0.780682
0.694057 0.196109 0.801938
0.76112 0.177325 0.810803
0.769711 0.201083 0.8177
0.850538 0.620142 0.87248
0.0714885 0.597238 0.751369
0.0712596 0.598825 0.756313
0.0712139 0.600916 0.764065
0.0712596 0.590509 0.774472
0.346532 0.562066 0.821607
0.709148 0.472419 0.838972
0.785992 0.312642 0.825681
0.76997 0.201526 0.817899
0.861769 0.685786 0.876173
0.0879683 0.796307 0.81326
0.0860609 0.796475 0.815579
0.0837873 0.79556 0.816495
0.0761273 0.789136 0.816968
0.259113 0.772183 0.833173
0.679118 0.736507 0.877638
0.84094 0.690913 0.877516
0.84152 0.582544 0.865675
0.859144 0.66775 0.875502
0.294636 0.866484 0.835477
0.289555 0.865614 0.835874
0.287541 0.86453 0.836835
0.296818 0.859968 0.837171
0.413809 0.845518 0.836378
0.649195 0.837552 0.851637
0.815854 0.833936 0.871885
0.881071 0.808942 0.870588
0.864317 0.697063 0.874449
0.572885 0.871946 0.82298
0.561685 0.872557 0.82269
0.562478 0.87248 0.82266
0.568597 0.872084 0.82269
0.589639 0.872465 0.823682
0.662486 0.874693 0.831098
0.80676 0.887068 0.858869
0.881575 0.892821 0.874891
0.891524 0.88748 0.874144
0.753826 0.886336 0.841047
0.749508 0.88571 0.838697
0.762631 0.887938 0.842664
0.770871 0.888518 0.844297
0.782467 0.890486 0.847807
0.791531 0.8916 0.85005
0.814908 0.894362 0.856291
0.874739 0.899535 0.87216
0.891005 0.900771 0.876738
0.0704662 0.245716 0.730236
0.0704662 0.245518 0.730465
0.0704662 0.245914 0.729671
0.104829 0.2327 0.753384
0.434134 0.123934 0.762478
0.632975 0.165209 0.786862
0.751003 0.166827 0.805219
0.762844 0.181308 0.812238
0.769512 0.201221 0.817533
0.0704356 0.245396 0.729412
0.0701152 0.249699 0.72755
0.0702068 0.251911 0.726864
0.0704509 0.234714 0.742306
0.415549 0.123369 0.762081
0.658091 0.176379 0.792187
0.752636 0.164965 0.804929
0.76231 0.180484 0.811841
0.770703 0.203616 0.818418
0.0701457 0.279759 0.728847
0.0703441 0.28423 0.730236
0.0700847 0.309468 0.736477
0.0703593 0.311254 0.736873
0.295064 0.176349 0.768368
0.676204 0.180499 0.795132
0.753307 0.163592 0.804761
0.761028 0.176333 0.810773
0.788434 0.330846 0.826047
0.0704662 0.34551 0.726055
0.0706951 0.35758 0.733806
0.0708324 0.41352 0.751629
0.071046 0.462867 0.762325
0.0707866 0.391974 0.765362
0.617517 0.208881 0.79913
0.764614 0.185916 0.81355
0.760998 0.176532 0.810742
0.814817 0.464164 0.845212
0.0713207 0.607599 0.765301
0.071397 0.613306 0.771405
0.0714122 0.631601 0.779034
0.0713664 0.64979 0.784192
0.071519 0.641779 0.789654
0.623758 0.562448 0.867491
0.809079 0.46891 0.844739
0.767361 0.19144 0.815641
0.833432 0.54435 0.859648
0.0865949 0.805478 0.82504
0.0896468 0.810452 0.829007
0.0918746 0.816159 0.832319
0.0882429 0.814527 0.833204
0.0758068 0.798001 0.830411
0.584436 0.750851 0.858549
0.811582 0.715206 0.881148
0.852369 0.632258 0.873533
0.829297 0.525902 0.856504
0.227237 0.879408 0.849332
0.211948 0.881193 0.85124
0.206073 0.881468 0.852232
0.212619 0.877684 0.852354
0.274708 0.860533 0.847807
0.611048 0.835355 0.853834
0.795621 0.834043 0.87509
0.879454 0.814115 0.877028
0.862516 0.690867 0.876707
0.525078 0.871153 0.831525
0.50135 0.871809 0.830808
0.485985 0.87274 0.830777
0.496406 0.871855 0.831083
0.556756 0.8692 0.833265
0.671 0.872053 0.84538
0.792996 0.882368 0.868086
0.876738 0.889738 0.88249
0.888899 0.875883 0.881544
0.735103 0.886198 0.851667
0.7299 0.885191 0.850233
0.742611 0.886748 0.853101
0.752132 0.88806 0.85565
0.764599 0.889479 0.858808
0.778195 0.891997 0.862943
0.806104 0.89546 0.868925
0.873549 0.901839 0.883375
0.893675 0.902754 0.88777
