bundles/resolve-cinematic-luts/Phantom Luts/A7s3 Phntm Film LUTs - G6/ATOMOS Monitor LUTs/Slog3/VisionTeal A7s3-Legacy AML.cube
TITLE "Generated by Resolve"
LUT_3D_SIZE 5
0.0734875 0.0914168 0.0897688
0.117662 0.0874495 0.0864424
0.391669 0.0725414 0.092546
0.762905 0.176577 0.370352
0.803784 0.424689 0.588113
0.07393 0.147143 0.0946975
0.127764 0.143465 0.0946365
0.41146 0.0833295 0.0774853
0.769619 0.189258 0.355322
0.808209 0.441169 0.591119
0.132418 0.508385 0.231128
0.138521 0.496651 0.19086
0.496117 0.496025 0.156191
0.791409 0.468574 0.304997
0.830472 0.525231 0.606424
0.365942 0.83241 0.528161
0.360952 0.830915 0.512291
0.528588 0.784466 0.475929
0.787747 0.797406 0.521279
0.822232 0.776379 0.52813
0.758099 0.872877 0.784649
0.733364 0.865309 0.764858
0.739345 0.864271 0.761273
0.824781 0.877302 0.798367
0.881361 0.890974 0.833707
0.0716716 0.0957198 0.126329
0.123827 0.0884108 0.133852
0.410758 0.0755627 0.15021
0.768154 0.207584 0.431815
0.823911 0.489372 0.658656
0.0708171 0.144579 0.127916
0.127123 0.147509 0.142702
0.435355 0.0740826 0.111925
0.770901 0.213977 0.4112
0.848295 0.57116 0.725216
0.108858 0.516136 0.260487
0.127169 0.507988 0.233249
0.492363 0.49369 0.156298
0.789014 0.428016 0.298863
0.859083 0.615946 0.730678
0.363348 0.837186 0.54165
0.345678 0.837629 0.524681
0.510063 0.786465 0.474647
0.784176 0.795254 0.51223
0.824292 0.75877 0.516075
0.760525 0.874022 0.787305
0.75285 0.871443 0.781018
0.750896 0.868391 0.77232
0.820874 0.876249 0.796216
0.880461 0.889723 0.829419
0.0699626 0.127138 0.345953
0.103136 0.121324 0.378332
0.39939 0.0836652 0.383764
0.745632 0.151644 0.554208
0.819242 0.465736 0.676112
0.070161 0.141024 0.360479
0.0698558 0.139406 0.412833
0.422171 0.0861372 0.405646
0.75494 0.170626 0.553658
0.849104 0.57673 0.750607
0.0960555 0.516518 0.446387
0.0943923 0.518471 0.450019
0.53846 0.531792 0.506188
0.790097 0.354543 0.471458
0.875303 0.701564 0.804257
0.370535 0.844755 0.624994
0.353033 0.849683 0.614511
0.413672 0.824247 0.539162
0.780789 0.794736 0.518547
0.853727 0.757229 0.632074
0.752636 0.872831 0.787274
0.748257 0.872068 0.783276
0.755825 0.872404 0.783047
0.813153 0.875029 0.793423
0.87953 0.889036 0.826658
0.0699168 0.19115 0.59324
0.0700236 0.191821 0.622049
0.381277 0.105226 0.621805
0.75935 0.174868 0.782025
0.794583 0.348898 0.819867
0.0703136 0.218448 0.609323
0.070222 0.230869 0.665309
0.41561 0.124834 0.714549
0.759716 0.178683 0.796307
0.837827 0.53547 0.854856
0.0710307 0.525902 0.681407
0.0708934 0.525338 0.70219
0.38529 0.507271 0.816724
0.779065 0.253391 0.803388
0.869535 0.678157 0.866911
0.302388 0.864897 0.80206
0.296223 0.863142 0.800595
0.352346 0.853697 0.794568
0.824964 0.835172 0.815747
0.875151 0.693034 0.807767
0.736187 0.879622 0.810544
0.741375 0.880125 0.809674
0.760311 0.881926 0.814664
0.787564 0.881468 0.807736
0.881651 0.891539 0.836728
0.0701915 0.260044 0.729656
0.0702068 0.26038 0.729274
0.364416 0.134798 0.76083
0.745342 0.173083 0.801541
0.767666 0.195911 0.815671
0.0704967 0.276799 0.724437
0.0701457 0.293873 0.725017
0.229068 0.224018 0.762219
0.751003 0.169802 0.802182
0.787762 0.300389 0.828992
0.0712749 0.557458 0.755703
0.0714275 0.583535 0.774304
0.0713359 0.59498 0.788586
0.801877 0.427268 0.840879
0.827405 0.501122 0.856947
0.214282 0.879194 0.859052
0.198901 0.87921 0.860487
0.237705 0.860899 0.85864
0.774289 0.82211 0.879744
0.861326 0.651087 0.881773
0.693858 0.883177 0.845884
0.703777 0.884062 0.847501
0.728832 0.885893 0.851682
0.778744 0.891859 0.863264
0.890288 0.900649 0.884382
