bundles/resolve-cinematic-luts/Phantom Luts/A7s3 Phntm Film LUTs - G6/ATOMOS Monitor LUTs/Slog3/Vision A7s3 AML.cube
TITLE "Generated by Resolve"
LUT_3D_SIZE 5
0.0725414 0.0793622 0.0725414
0.12285 0.0810712 0.0734264
0.433814 0.0721294 0.100374
0.778622 0.212467 0.412863
0.825193 0.481559 0.640955
0.0777142 0.162768 0.0964523
0.139406 0.166735 0.0830243
0.459525 0.0925917 0.0793164
0.783703 0.225788 0.394919
0.828687 0.497078 0.644648
0.150042 0.553811 0.310918
0.157198 0.545632 0.269108
0.555261 0.562554 0.163943
0.771939 0.502892 0.314046
0.843336 0.579324 0.662562
0.440803 0.812985 0.607507
0.428092 0.81091 0.589364
0.586862 0.815961 0.599603
0.801923 0.833646 0.60145
0.836057 0.796994 0.587137
0.787579 0.882307 0.82446
0.771511 0.875227 0.8094
0.778622 0.875975 0.809995
0.83743 0.891066 0.841871
0.872374 0.90045 0.868711
0.0750744 0.0813764 0.130709
0.1393 0.0794842 0.122728
0.455756 0.0788586 0.170779
0.782712 0.249805 0.469993
0.837705 0.536004 0.689754
0.0704051 0.158953 0.140948
0.155673 0.168933 0.156634
0.486824 0.0767987 0.123018
0.786068 0.261036 0.458503
0.853559 0.628534 0.752575
0.146639 0.556985 0.347982
0.149355 0.552193 0.309529
0.552438 0.559899 0.162585
0.772686 0.467689 0.327031
0.860365 0.670466 0.760678
0.437858 0.814054 0.617517
0.426841 0.81297 0.600687
0.566659 0.814527 0.595407
0.799893 0.830869 0.592355
0.830686 0.7794 0.569284
0.78912 0.883375 0.826383
0.783017 0.880842 0.820554
0.78436 0.879423 0.816648
0.834791 0.890318 0.839826
0.871534 0.899977 0.867079
0.0948653 0.0912795 0.390219
0.164645 0.0836194 0.393744
0.456153 0.0865034 0.390143
0.760967 0.171588 0.562646
0.831556 0.526543 0.707668
0.0856794 0.114382 0.419562
0.1122 0.0982223 0.456031
0.483604 0.0946822 0.416129
0.76875 0.192096 0.565209
0.854047 0.644709 0.772122
0.0810712 0.544671 0.545998
0.0816052 0.545205 0.546166
0.573236 0.586755 0.567452
0.816571 0.410666 0.528847
0.863172 0.744854 0.812528
0.401129 0.817975 0.677836
0.399558 0.816526 0.662715
0.49601 0.815076 0.624796
0.796445 0.829648 0.597299
0.842481 0.780072 0.679866
0.779522 0.881361 0.823148
0.777127 0.880079 0.819821
0.785916 0.881727 0.822904
0.830762 0.889815 0.838651
0.87097 0.89984 0.865888
0.14931 0.13228 0.631708
0.207385 0.130694 0.639078
0.483436 0.126467 0.610544
0.767559 0.186618 0.723003
0.812985 0.400259 0.785443
0.121859 0.165377 0.676966
0.142977 0.155367 0.700313
0.521294 0.136248 0.674403
0.769833 0.188052 0.733745
0.853269 0.596414 0.830579
0.0973831 0.526513 0.773831
0.108751 0.522652 0.78854
0.504417 0.508171 0.843214
0.790051 0.283223 0.755642
0.864973 0.726787 0.846983
0.295918 0.819394 0.833478
0.288762 0.817395 0.830884
0.367422 0.815686 0.824598
0.821042 0.850294 0.832929
0.864622 0.746944 0.812512
0.755947 0.883406 0.836759
0.760571 0.884001 0.834531
0.777356 0.887236 0.839384
0.807233 0.889357 0.841154
0.872984 0.900664 0.869261
0.161532 0.169451 0.742473
0.159625 0.169833 0.74284
0.49337 0.138628 0.707286
0.759335 0.171923 0.732738
0.778164 0.206119 0.750576
0.143816 0.202365 0.763394
0.146395 0.231891 0.776303
0.371374 0.128603 0.712764
0.761181 0.169314 0.731517
0.801984 0.339651 0.781201
0.122545 0.544106 0.824399
0.118853 0.565148 0.838544
0.121767 0.572839 0.850614
0.824491 0.483986 0.813352
0.846662 0.561349 0.830839
0.194903 0.813993 0.880507
0.173648 0.811475 0.881743
0.249561 0.802808 0.876738
0.786389 0.832242 0.889723
0.862287 0.702556 0.859617
0.72108 0.87866 0.87219
0.729335 0.879957 0.873442
0.751354 0.884871 0.876188
0.791287 0.894224 0.882383
0.875441 0.907073 0.892088
