bundles/resolve-cinematic-luts/Phantom Luts/A7s3 Phntm Film LUTs - G6/ATOMOS Monitor LUTs/Slog3/Vision A7s3-Legacy AML.cube
TITLE "Generated by Resolve"
LUT_3D_SIZE 33
0.079881 0.0900893 0.0820783
0.079881 0.0900893 0.0820783
0.079881 0.0900893 0.0820783
0.0799573 0.0900893 0.0820935
0.0814832 0.0904555 0.0823682
0.0838331 0.0906691 0.0823224
0.0880903 0.0912642 0.0808881
0.0990311 0.0902266 0.0806592
0.112825 0.0898604 0.0813611
0.130297 0.0889754 0.0806744
0.152071 0.0895399 0.0806592
0.181064 0.0900435 0.0805371
0.219501 0.0890822 0.0797589
0.259281 0.0890364 0.0803845
0.302007 0.0866865 0.082002
0.34287 0.0810864 0.0843519
0.386282 0.0778363 0.0881208
0.432151 0.0783703 0.0994278
0.478981 0.081117 0.115801
0.52845 0.0861219 0.137133
0.585214 0.096849 0.170977
0.647028 0.112688 0.218723
0.706874 0.132448 0.267857
0.752331 0.154772 0.31725
0.774014 0.180331 0.361624
0.780941 0.206943 0.396185
0.784436 0.236576 0.426551
0.789517 0.267948 0.45922
0.796536 0.302708 0.490578
0.802213 0.337819 0.520409
0.808454 0.37055 0.548104
0.815579 0.40116 0.572702
0.821897 0.429709 0.595346
0.079881 0.0900893 0.0820783
0.079881 0.0900893 0.0820783
0.079881 0.0900893 0.0820783
0.0799725 0.0900893 0.0821088
0.0817731 0.090547 0.0824445
0.0838941 0.0906996 0.0823072
0.0883192 0.0912795 0.0809644
0.0997177 0.0901656 0.0809033
0.113939 0.0898756 0.0815137
0.131884 0.0890516 0.0807965
0.153994 0.0897078 0.0807202
0.183352 0.090013 0.0803388
0.222065 0.0891432 0.0796521
0.260807 0.088777 0.0806134
0.304158 0.0866255 0.0820935
0.346685 0.0809186 0.0838941
0.390936 0.0777447 0.0865339
0.436805 0.0785077 0.098085
0.483604 0.081178 0.115007
0.533165 0.0865797 0.137102
0.590555 0.0979324 0.172183
0.652399 0.113756 0.220462
0.710735 0.133913 0.269429
0.754665 0.156329 0.318547
0.774746 0.181445 0.36199
0.781216 0.208545 0.396628
0.784085 0.238209 0.427039
0.789837 0.26949 0.459937
0.797116 0.304677 0.491234
0.803082 0.339696 0.521675
0.80914 0.372061 0.548898
0.816037 0.402686 0.573159
0.822248 0.430838 0.595926
0.079881 0.0900893 0.0820783
0.079881 0.0900893 0.0820783
0.0799115 0.090074 0.082063
0.0800488 0.0901198 0.0821546
0.0815595 0.0905165 0.0823377
0.0836652 0.0906691 0.0822919
0.0867323 0.0913252 0.0813458
0.0992294 0.0902419 0.080766
0.113634 0.0899214 0.0815137
0.131548 0.0890516 0.0806744
0.15349 0.0896773 0.0805829
0.183673 0.0900893 0.0801709
0.223499 0.0892805 0.0790417
0.266163 0.0890059 0.0800946
0.309911 0.0866102 0.082002
0.349798 0.0808728 0.0840162
0.394903 0.0789349 0.0865797
0.441382 0.0787518 0.0970474
0.487526 0.0815442 0.114473
0.537652 0.0870222 0.137209
0.594766 0.0983139 0.172274
0.655818 0.114473 0.220111
0.714046 0.134585 0.269551
0.755352 0.156741 0.317968
0.773953 0.179492 0.358129
0.782116 0.210239 0.39736
0.784268 0.239261 0.427268
0.790356 0.270649 0.459953
0.797406 0.305821 0.49131
0.80354 0.34107 0.521889
0.809522 0.373373 0.549081
0.816541 0.40383 0.573404
0.822751 0.431785 0.596094
0.0800336 0.0906233 0.0823529
0.0800336 0.0906386 0.0823377
0.0801556 0.0905165 0.0822156
0.0802625 0.0905623 0.0822003
0.0812543 0.0910353 0.082475
0.0830701 0.0910506 0.0824903
0.0860761 0.0916152 0.0816968
0.0986801 0.0906386 0.080415
0.11397 0.0903487 0.0812848
0.133242 0.0899214 0.0808423
0.15639 0.0899519 0.0800488
0.187106 0.0899519 0.0786755
0.228733 0.0896162 0.0779126
0.271763 0.0897688 0.0793164
0.313237 0.0876478 0.0819409
0.3552 0.0822309 0.0838178
0.398444 0.0788281 0.0866865
0.444587 0.0788128 0.0958419
0.492409 0.0818494 0.113588
0.54136 0.0871595 0.136156
0.59823 0.0991226 0.171588
0.659724 0.114992 0.220066
0.717083 0.135378 0.269947
0.756848 0.157351 0.31754
0.775341 0.181628 0.359197
0.782483 0.210864 0.397162
0.784787 0.24036 0.426978
0.790845 0.272099 0.459998
0.797665 0.307073 0.491463
0.803601 0.342626 0.521904
0.809873 0.374792 0.549218
0.817014 0.405112 0.5738
0.823163 0.432563 0.596094
0.0802319 0.0956436 0.0837873
0.0802167 0.0954147 0.0835431
0.0806134 0.0950942 0.0834211
0.0815595 0.0950179 0.0835584
0.0833143 0.0956588 0.083772
0.0852674 0.0956436 0.0837873
0.0878767 0.0961013 0.0825208
0.102007 0.0951095 0.0798047
0.116701 0.0924239 0.0807202
0.13637 0.0911727 0.0806897
0.159594 0.0910964 0.0794995
0.191699 0.0905928 0.0780499
0.231754 0.0893111 0.0767834
0.270863 0.0893263 0.0780194
0.315969 0.0891432 0.0811322
0.360006 0.0845197 0.0834821
0.403571 0.0790265 0.0866407
0.449042 0.0784619 0.0949722
0.492882 0.0810559 0.117739
0.546227 0.0878309 0.134829
0.603922 0.100282 0.170687
0.664775 0.116228 0.219455
0.721462 0.13666 0.270024
0.759228 0.158755 0.3178
0.776242 0.182803 0.358526
0.782025 0.208576 0.391882
0.785245 0.241764 0.42623
0.79057 0.27303 0.458686
0.797559 0.308659 0.491203
0.803677 0.343603 0.521309
0.810666 0.376333 0.549615
0.816907 0.406149 0.573587
0.823621 0.433906 0.596368
0.0809186 0.102235 0.0856336
0.0810712 0.101976 0.085481
0.0812848 0.101213 0.0848707
0.082475 0.101213 0.0852216
0.0845045 0.101961 0.0854047
0.0872053 0.102403 0.0855879
0.0916304 0.101839 0.0836347
0.106828 0.10074 0.0793622
0.11989 0.097734 0.0816205
0.136355 0.0949569 0.0815747
0.160372 0.0939956 0.0805524
0.195468 0.0924544 0.0784009
0.235752 0.0893568 0.0757916
0.273335 0.0890211 0.0764477
0.316991 0.0888838 0.079408
0.360952 0.0864118 0.0822766
0.410513 0.0813611 0.0859236
0.452644 0.0776837 0.0980545
0.498802 0.0811933 0.11603
0.551125 0.0880598 0.135485
0.610758 0.101564 0.169467
0.671626 0.117937 0.218875
0.726925 0.138506 0.270726
0.761761 0.160052 0.316976
0.776776 0.184009 0.357046
0.782834 0.209979 0.390921
0.785931 0.243503 0.42562
0.791028 0.274632 0.458244
0.798001 0.310201 0.490547
0.803906 0.345632 0.521004
0.810895 0.378103 0.549554
0.817639 0.407965 0.574182
0.824491 0.43595 0.596841
0.0817731 0.114107 0.0885176
0.0817121 0.113252 0.0880446
0.0813764 0.111696 0.0865797
0.082826 0.111437 0.0867628
0.0859236 0.113481 0.0881361
0.0885328 0.114443 0.0883192
0.0938582 0.114366 0.0872053
0.112215 0.110979 0.0808118
0.128252 0.10695 0.0822766
0.141161 0.103944 0.082063
0.163958 0.100755 0.0827192
0.192569 0.0979934 0.0803388
0.232563 0.0937819 0.0777905
0.277562 0.0902113 0.0753643
0.317464 0.0889754 0.0769055
0.360174 0.0882734 0.0805066
0.410895 0.0847028 0.0843977
0.460746 0.0798962 0.0915236
0.507744 0.081651 0.111696
0.556115 0.0880446 0.13814
0.618738 0.102861 0.169238
0.678874 0.119707 0.216754
0.732799 0.140002 0.269368
0.764385 0.161746 0.315267
0.777829 0.185779 0.355596
0.783795 0.211872 0.38996
0.785992 0.240146 0.419089
0.792432 0.277226 0.458335
0.798505 0.3131 0.49015
0.80441 0.347921 0.520684
0.810269 0.380804 0.549157
0.817166 0.410849 0.574212
0.823835 0.438819 0.597345
0.0824445 0.128801 0.092134
0.0824292 0.128069 0.0910201
0.082536 0.126711 0.0899977
0.0829938 0.126101 0.0893721
0.0856947 0.128023 0.0901045
0.0894636 0.129427 0.0911574
0.095613 0.130358 0.091783
0.105501 0.130007 0.0883192
0.131624 0.124895 0.0800488
0.151034 0.117861 0.0838331
0.171862 0.113237 0.0841382
0.200366 0.108064 0.0833448
0.237705 0.102968 0.0815595
0.274571 0.0973526 0.0788739
0.314 0.091783 0.0762493
0.361288 0.0895094 0.0787671
0.405707 0.0862287 0.0810559
0.461524 0.0845655 0.0885481
0.514458 0.0820325 0.103914
0.567651 0.0888685 0.134478
0.624857 0.102144 0.172366
0.688853 0.122316 0.216037
0.739925 0.142519 0.267948
0.767575 0.163104 0.312398
0.778836 0.187411 0.35201
0.784054 0.214496 0.386694
0.78732 0.243671 0.417975
0.791714 0.273518 0.448768
0.799588 0.316014 0.489586
0.80531 0.351278 0.519875
0.81146 0.384115 0.549432
0.818173 0.413993 0.57467
0.824369 0.441367 0.597528
0.0836347 0.144808 0.0966964
0.0837568 0.143877 0.0957961
0.0836194 0.142367 0.0941634
0.0832227 0.141054 0.0925765
0.085771 0.142733 0.0931563
0.0893416 0.144533 0.0940719
0.0958877 0.146197 0.0949722
0.10425 0.14789 0.095201
0.119707 0.146288 0.0882887
0.153109 0.139635 0.0796979
0.182345 0.129656 0.0850996
0.218036 0.120775 0.0860304
0.24892 0.11548 0.085893
0.285328 0.107637 0.083299
0.32311 0.101259 0.0810864
0.358236 0.0959487 0.0789807
0.402853 0.0928664 0.0795148
0.452766 0.0852674 0.0821241
0.51693 0.0867781 0.097322
0.577844 0.0894636 0.125826
0.639948 0.104494 0.169696
0.696239 0.122057 0.220478
0.748272 0.144839 0.265675
0.770504 0.16527 0.309468
0.780591 0.189425 0.347753
0.785275 0.217624 0.382803
0.788632 0.247044 0.414771
0.793759 0.277607 0.447807
0.798993 0.310948 0.478691
0.806271 0.354391 0.518669
0.812253 0.387427 0.548592
0.818372 0.416892 0.574319
0.825116 0.44506 0.598154
0.0836347 0.164385 0.10219
0.0838788 0.16347 0.101015
0.084062 0.161593 0.0991836
0.0843824 0.160449 0.0974746
0.0848859 0.160403 0.0955367
0.0885481 0.162921 0.0962081
0.0935378 0.164828 0.097322
0.103685 0.167514 0.0985885
0.114504 0.169787 0.0973526
0.137499 0.166842 0.0879835
0.182452 0.157534 0.081178
0.227924 0.143542 0.0865187
0.268101 0.133196 0.0899214
0.305379 0.124743 0.0892958
0.339574 0.117525 0.0878462
0.375814 0.110475 0.0852827
0.413077 0.10425 0.0828565
0.452583 0.0990616 0.0829633
0.500999 0.0880598 0.0861982
0.574456 0.0894026 0.108339
0.652125 0.10518 0.157366
0.71107 0.124849 0.215885
0.75552 0.145281 0.268681
0.774334 0.167544 0.300832
0.782696 0.192767 0.341894
0.78703 0.222019 0.378607
0.78967 0.25156 0.410513
0.795071 0.282887 0.444617
0.800946 0.316335 0.476631
0.80592 0.348226 0.505226
0.813703 0.391104 0.547372
0.820417 0.421271 0.574853
0.826123 0.448966 0.598703
0.0814984 0.190967 0.10721
0.0817578 0.189166 0.105364
0.0821088 0.186725 0.103258
0.0825818 0.185931 0.101793
0.0831159 0.185809 0.0996719
0.0849775 0.185458 0.0969711
0.0895552 0.189151 0.0980545
0.0988937 0.1935 0.099794
0.112261 0.197269 0.10103
0.125734 0.201953 0.0995346
0.165011 0.198276 0.0875105
0.228275 0.18378 0.0819257
0.280674 0.168566 0.092546
0.328893 0.158114 0.100633
0.372686 0.144289 0.100435
0.40351 0.138964 0.0995346
0.441489 0.131579 0.096788
0.480186 0.122423 0.0939345
0.515023 0.113588 0.0928206
0.557321 0.097261 0.0946517
0.637736 0.0940566 0.122286
0.721447 0.123079 0.191272
0.763943 0.147784 0.259861
0.775402 0.166964 0.299687
0.786053 0.196475 0.333852
0.789136 0.225742 0.370596
0.792035 0.258183 0.406394
0.797787 0.29099 0.441566
0.802762 0.323568 0.474998
0.80763 0.355993 0.505211
0.813291 0.384863 0.532921
0.821912 0.427131 0.575723
0.827695 0.455436 0.600397
0.079469 0.226566 0.113985
0.0802167 0.225177 0.111818
0.0807507 0.223178 0.108995
0.0809644 0.221073 0.106783
0.0813001 0.220981 0.104738
0.0814832 0.220417 0.102174
0.0842756 0.22031 0.0986343
0.0931563 0.226658 0.101579
0.109529 0.235599 0.106065
0.12781 0.241917 0.109041
0.148043 0.249592 0.107271
0.217624 0.24567 0.0893111
0.284504 0.230152 0.0847486
0.345159 0.21619 0.104585
0.392554 0.204196 0.117235
0.445426 0.186755 0.12369
0.477852 0.179019 0.123903
0.517845 0.168597 0.12163
0.556497 0.156573 0.117342
0.592462 0.141192 0.114061
0.629038 0.118532 0.114916
0.699748 0.102892 0.138643
0.765026 0.138094 0.21416
0.778805 0.168948 0.278981
0.786389 0.196628 0.331945
0.789868 0.228611 0.371298
0.794827 0.265461 0.402701
0.800809 0.300969 0.438987
0.805188 0.333806 0.473213
0.810285 0.36585 0.505074
0.816449 0.395499 0.5346
0.823407 0.434806 0.576593
0.828962 0.462959 0.602564
0.0872511 0.278599 0.134783
0.0873579 0.277424 0.131884
0.08748 0.274357 0.128588
0.0881361 0.272068 0.125078
0.0885786 0.272053 0.123156
0.0889448 0.271733 0.12105
0.0894026 0.2701 0.116426
0.0933242 0.270436 0.112596
0.10811 0.27985 0.116609
0.130007 0.289387 0.121218
0.150744 0.295109 0.122881
0.180179 0.304128 0.118822
0.276646 0.298589 0.0928206
0.345541 0.282139 0.0872206
0.404288 0.268803 0.11722
0.450141 0.260639 0.131029
0.503014 0.244511 0.144671
0.538567 0.23331 0.146639
0.58265 0.215305 0.146426
0.626917 0.19968 0.14551
0.666911 0.177462 0.139605
0.704845 0.154574 0.141863
0.7523 0.124315 0.1561
0.776242 0.150668 0.213199
0.789685 0.200305 0.295583
0.790768 0.229328 0.360281
0.794324 0.265126 0.411322
0.803418 0.311574 0.434226
0.808743 0.346441 0.469612
0.813901 0.378851 0.505409
0.819608 0.408194 0.537774
0.824704 0.433478 0.56524
0.830472 0.472374 0.604517
0.0964675 0.333684 0.157244
0.0964218 0.332311 0.154543
0.0966812 0.330526 0.15053
0.0977188 0.329244 0.148684
0.0983444 0.328725 0.145815
0.0990616 0.328908 0.143496
0.0998245 0.328634 0.140063
0.100191 0.326101 0.133425
0.106523 0.327443 0.130999
0.127581 0.33724 0.13434
0.15375 0.345708 0.136568
0.183948 0.351675 0.139315
0.227253 0.359365 0.12932
0.335515 0.351324 0.100816
0.404746 0.33875 0.088014
0.463432 0.325292 0.133394
0.509071 0.321065 0.150134
0.5579 0.307942 0.171984
0.593698 0.299184 0.177966
0.640604 0.274861 0.179202
0.688029 0.253956 0.175586
0.732006 0.229068 0.169055
0.767895 0.198642 0.16968
0.778164 0.169558 0.174273
0.788678 0.167452 0.207599
0.796643 0.241901 0.305669
0.798352 0.273716 0.383108
0.802686 0.309514 0.440742
0.81181 0.360357 0.464286
0.817945 0.393912 0.505241
0.823819 0.42356 0.540658
0.828473 0.450248 0.570977
0.831144 0.470603 0.592065
0.109941 0.390707 0.186999
0.110124 0.390494 0.18468
0.11014 0.388891 0.181231
0.110719 0.386816 0.177768
0.111437 0.386526 0.174975
0.11165 0.385458 0.171633
0.112032 0.385122 0.167971
0.112779 0.385138 0.163958
0.113634 0.383215 0.153826
0.124666 0.384695 0.150515
0.152621 0.394705 0.154406
0.187564 0.402457 0.157626
0.230045 0.406577 0.15552
0.279805 0.416526 0.141268
0.393683 0.404868 0.115343
0.464942 0.396017 0.0895705
0.52369 0.384024 0.149615
0.566964 0.380316 0.173999
0.614069 0.369299 0.198642
0.646616 0.361929 0.216724
0.693843 0.338735 0.221775
0.736339 0.317876 0.220752
0.772503 0.293019 0.214389
0.78088 0.256931 0.196017
0.787076 0.231098 0.195819
0.792523 0.226642 0.224628
0.804776 0.292012 0.316396
0.808133 0.325536 0.404547
0.811231 0.359518 0.469413
0.821988 0.404623 0.499443
0.828626 0.440269 0.541863
0.831968 0.469566 0.576852
0.834806 0.489235 0.599069
0.124971 0.447974 0.22829
0.125124 0.447379 0.22472
0.12488 0.44564 0.220874
0.125536 0.444572 0.218006
0.126131 0.443778 0.215137
0.126619 0.442924 0.210788
0.127428 0.442329 0.206226
0.128344 0.441978 0.2009
0.129625 0.442329 0.193729
0.130907 0.440177 0.179568
0.150546 0.442985 0.17496
0.1879 0.452735 0.180102
0.238056 0.457282 0.184131
0.279484 0.464012 0.177707
0.338674 0.475074 0.159991
0.452522 0.462181 0.131991
0.524407 0.452949 0.0984207
0.581827 0.443534 0.167742
0.623758 0.439078 0.20795
0.667918 0.43061 0.233875
0.700511 0.423178 0.252033
0.734813 0.409308 0.265995
0.765881 0.385275 0.267033
0.771176 0.359731 0.259922
0.775677 0.328573 0.246738
0.780728 0.295064 0.22945
0.788174 0.282475 0.24123
0.805325 0.354208 0.342489
0.818753 0.37644 0.42417
0.823148 0.407736 0.498817
0.828092 0.443259 0.553689
0.836286 0.487785 0.578653
0.839033 0.509697 0.607553
0.144686 0.50663 0.272877
0.144533 0.506249 0.269932
0.144396 0.505043 0.26659
0.144671 0.503807 0.263386
0.144976 0.503136 0.259953
0.14551 0.502159 0.256703
0.146044 0.501106 0.252277
0.147143 0.500114 0.246006
0.148821 0.499565 0.240223
0.15082 0.498909 0.231083
0.153521 0.497642 0.213016
0.185641 0.503227 0.211414
0.241245 0.509621 0.217731
0.292653 0.514702 0.222736
0.333211 0.523033 0.208881
0.396674 0.5337 0.185718
0.510399 0.520073 0.153903
0.581582 0.511467 0.115953
0.63621 0.502617 0.1897
0.678111 0.498222 0.246204
0.716442 0.493065 0.268803
0.743358 0.487251 0.285939
0.76379 0.479393 0.300008
0.76878 0.464149 0.306447
0.770169 0.440299 0.30016
0.770489 0.409216 0.288563
0.773861 0.367361 0.273869
0.780865 0.333669 0.263752
0.80264 0.405066 0.36762
0.831144 0.427008 0.443687
0.833432 0.456748 0.53341
0.837568 0.496025 0.584161
0.843122 0.526589 0.613794
0.16875 0.564599 0.320516
0.16817 0.563867 0.317449
0.167727 0.56286 0.313985
0.167651 0.561532 0.310735
0.167819 0.560861 0.307927
0.168032 0.559701 0.304662
0.168597 0.558984 0.300298
0.170474 0.557412 0.294072
0.172274 0.555734 0.285496
0.174685 0.55555 0.278737
0.177646 0.554559 0.266987
0.184009 0.553689 0.247807
0.240131 0.559945 0.251545
0.297337 0.566735 0.257725
0.349676 0.572 0.256001
0.386938 0.582284 0.242313
0.453162 0.590234 0.219623
0.562829 0.578653 0.183032
0.633158 0.569726 0.151705
0.686534 0.56054 0.221103
0.725612 0.557473 0.280705
0.752544 0.553201 0.305882
0.77174 0.550423 0.319875
0.778058 0.545495 0.324254
0.778134 0.535302 0.323674
0.775921 0.517281 0.322789
0.773281 0.490532 0.321782
0.77232 0.448264 0.311955
0.775036 0.390982 0.293309
0.803388 0.453269 0.401556
0.839033 0.483299 0.488487
0.843 0.507485 0.575555
0.842542 0.538018 0.634653
0.197559 0.620905 0.366278
0.197009 0.620371 0.363668
0.195941 0.619654 0.360616
0.195758 0.618585 0.357702
0.196002 0.617899 0.35555
0.196597 0.617258 0.352514
0.197299 0.615732 0.348516
0.19678 0.614252 0.341772
0.199771 0.61294 0.333806
0.201923 0.611368 0.324895
0.205585 0.610651 0.314473
0.209049 0.608927 0.298726
0.234272 0.610086 0.284199
0.304875 0.618494 0.292088
0.359548 0.624842 0.2981
0.403647 0.631296 0.289189
0.443534 0.641733 0.278294
0.507637 0.646784 0.258
0.611154 0.638178 0.222248
0.679622 0.625696 0.195117
0.729839 0.617533 0.25507
0.76022 0.614633 0.310597
0.778622 0.610239 0.345037
0.786419 0.607523 0.35433
0.786618 0.603479 0.353521
0.785107 0.59585 0.347143
0.782925 0.579522 0.34345
0.78175 0.556298 0.33994
0.777234 0.517174 0.334249
0.774853 0.463111 0.330663
0.809277 0.499062 0.444343
0.849683 0.528344 0.538109
0.850599 0.556664 0.624186
0.234272 0.675303 0.411414
0.233188 0.674708 0.408255
0.232197 0.674296 0.405478
0.23151 0.674022 0.403754
0.231632 0.673411 0.401297
0.23212 0.672145 0.398245
0.232425 0.670832 0.394675
0.232868 0.669444 0.388876
0.232013 0.668528 0.381643
0.235111 0.666957 0.372427
0.238819 0.66511 0.3608
0.24181 0.663752 0.347677
0.252064 0.663951 0.331624
0.305058 0.671016 0.331472
0.371695 0.677699 0.338872
0.419699 0.682017 0.342779
0.457694 0.688914 0.331151
0.495811 0.697322 0.318776
0.555703 0.700618 0.301427
0.655711 0.694041 0.265614
0.719585 0.67895 0.253223
0.762997 0.672984 0.300175
0.785687 0.670222 0.350225
0.796811 0.668284 0.377462
0.798215 0.66424 0.386145
0.796765 0.658976 0.383505
0.795361 0.650355 0.375296
0.791928 0.633234 0.374548
0.787274 0.609064 0.366751
0.783123 0.570413 0.355337
0.780606 0.528359 0.374228
0.818173 0.551934 0.503838
0.859586 0.576135 0.603128
0.271962 0.726696 0.456306
0.270771 0.726131 0.453559
0.26952 0.725551 0.450843
0.268315 0.725093 0.448264
0.267918 0.724834 0.445853
0.267948 0.724224 0.443763
0.26833 0.723232 0.440482
0.269718 0.722744 0.436606
0.270512 0.721141 0.430976
0.269703 0.720027 0.422019
0.271839 0.717433 0.409812
0.274754 0.714916 0.394659
0.283085 0.715816 0.382452
0.310033 0.720317 0.373892
0.379522 0.724956 0.379614
0.433326 0.728099 0.385306
0.475486 0.731472 0.387182
0.506996 0.737377 0.375219
0.545388 0.744381 0.364004
0.602502 0.74609 0.348623
0.697704 0.740688 0.321584
0.749371 0.729015 0.329534
0.787991 0.723552 0.358999
0.804944 0.721294 0.394598
0.810193 0.718395 0.413993
0.80975 0.714443 0.42153
0.808789 0.70927 0.418173
0.806668 0.701595 0.405921
0.802792 0.685023 0.402197
0.796628 0.658808 0.397223
0.788296 0.614694 0.383642
0.791501 0.578515 0.44303
0.840116 0.613245 0.583551
0.30869 0.76556 0.496132
0.307881 0.765438 0.493736
0.306569 0.76466 0.491066
0.306081 0.764446 0.489357
0.305669 0.76437 0.487511
0.30544 0.764294 0.485603
0.306279 0.764065 0.483452
0.307439 0.763363 0.480583
0.308125 0.761791 0.4757
0.308705 0.759823 0.468071
0.306416 0.758206 0.45565
0.31136 0.756649 0.443687
0.321309 0.756237 0.430732
0.342519 0.759564 0.425086
0.386374 0.763409 0.424964
0.449683 0.764614 0.429908
0.493584 0.765454 0.432944
0.527703 0.769329 0.43151
0.556069 0.774792 0.423316
0.593393 0.780392 0.415076
0.648875 0.780545 0.405707
0.731197 0.77612 0.395987
0.774639 0.766232 0.405112
0.805158 0.761028 0.426505
0.818708 0.758297 0.44625
0.820981 0.755199 0.460304
0.819928 0.751049 0.465385
0.819181 0.746731 0.460761
0.816831 0.740688 0.44567
0.813458 0.726223 0.43679
0.806271 0.699763 0.42678
0.794064 0.648524 0.414282
0.809491 0.630411 0.543572
0.343465 0.793225 0.52929
0.342153 0.792935 0.527138
0.340459 0.792309 0.525139
0.339742 0.791775 0.522805
0.339483 0.791638 0.520638
0.339055 0.791501 0.519326
0.33904 0.791318 0.517479
0.339651 0.790692 0.514305
0.340337 0.789731 0.510689
0.341573 0.788083 0.504433
0.342992 0.786984 0.496544
0.346487 0.786328 0.486473
0.360357 0.78703 0.477562
0.383261 0.788251 0.474113
0.419471 0.790204 0.47866
0.468727 0.791608 0.483803
0.514855 0.791791 0.48719
0.5514 0.793256 0.490822
0.580758 0.797589 0.488106
0.608057 0.802213 0.481407
0.643381 0.806241 0.472343
0.695384 0.80441 0.463569
0.758221 0.800473 0.457984
0.792126 0.79379 0.468925
0.815976 0.789364 0.486915
0.823316 0.787015 0.502144
0.824872 0.784115 0.510735
0.826596 0.780667 0.512535
0.826459 0.77586 0.504677
0.825147 0.7691 0.487922
0.822324 0.753765 0.475135
0.814755 0.725902 0.457954
0.802152 0.678798 0.476585
0.373022 0.807752 0.553719
0.371893 0.807813 0.551934
0.370413 0.807568 0.549126
0.369558 0.807477 0.548211
0.369085 0.807416 0.546471
0.368597 0.80708 0.544823
0.368078 0.80676 0.542016
0.367712 0.806195 0.539574
0.368002 0.80531 0.536019
0.370077 0.804364 0.532647
0.376501 0.804181 0.528664
0.38201 0.8047 0.522316
0.397192 0.804974 0.517586
0.425055 0.805402 0.517678
0.45597 0.806348 0.522591
0.490364 0.808042 0.528267
0.533318 0.808637 0.532555
0.568704 0.809033 0.534447
0.600183 0.810376 0.537392
0.624811 0.814664 0.531655
0.653864 0.819242 0.525765
0.687922 0.821576 0.517647
0.734096 0.820462 0.509102
0.778134 0.817044 0.510781
0.804715 0.813458 0.522377
0.819013 0.811368 0.5393
0.82388 0.809339 0.551156
0.825772 0.807324 0.558923
0.827771 0.803372 0.560174
0.826642 0.799969 0.548684
0.825803 0.791791 0.531518
0.826642 0.774609 0.510811
0.818372 0.735805 0.484718
0.410147 0.812787 0.575708
0.407828 0.812757 0.57406
0.405386 0.812833 0.571313
0.403922 0.812528 0.56939
0.403174 0.812436 0.568124
0.401801 0.812345 0.566812
0.400504 0.811917 0.563882
0.399069 0.811322 0.561395
0.398978 0.810773 0.558694
0.402029 0.810132 0.555688
0.406821 0.809384 0.552972
0.420172 0.809003 0.552102
0.436469 0.8094 0.550332
0.462181 0.809888 0.553201
0.488594 0.811063 0.555901
0.514397 0.81265 0.560967
0.545907 0.813535 0.566217
0.581552 0.814191 0.56875
0.613046 0.815641 0.572992
0.639841 0.818936 0.57203
0.664027 0.823041 0.567117
0.69337 0.827008 0.560632
0.724041 0.827878 0.553475
0.762615 0.829099 0.547097
0.795926 0.826825 0.553872
0.81593 0.826596 0.568521
0.823178 0.826856 0.584344
0.826093 0.826154 0.595972
0.828824 0.824582 0.60206
0.829313 0.821866 0.600137
0.827771 0.817472 0.584939
0.827604 0.80763 0.567498
0.829175 0.784833 0.537789
0.467231 0.81677 0.605631
0.462577 0.816419 0.602869
0.458564 0.816312 0.599664
0.457023 0.816175 0.597833
0.454536 0.816098 0.596124
0.452735 0.815717 0.594156
0.451438 0.815488 0.59202
0.45069 0.814847 0.58941
0.448798 0.814252 0.586419
0.450492 0.813733 0.583658
0.45951 0.813962 0.584848
0.470802 0.813764 0.585367
0.48159 0.814527 0.584695
0.49897 0.815106 0.586664
0.519677 0.816159 0.589075
0.541436 0.817197 0.591791
0.566384 0.818723 0.597147
0.595529 0.819272 0.602228
0.625483 0.820569 0.604974
0.653971 0.822629 0.60763
0.675883 0.826642 0.604181
0.700191 0.830655 0.599222
0.725628 0.833188 0.592935
0.751812 0.834836 0.585489
0.783154 0.835691 0.583154
0.811063 0.834012 0.592889
0.823377 0.835767 0.610162
0.826932 0.838972 0.625925
0.828855 0.839918 0.636271
0.83035 0.839963 0.641535
0.830243 0.838376 0.638422
0.829145 0.831937 0.618509
0.829892 0.817075 0.5953
0.532204 0.822858 0.641199
0.527337 0.822324 0.638666
0.523491 0.821866 0.63505
0.520821 0.821775 0.633005
0.518715 0.821591 0.631418
0.517296 0.821225 0.629648
0.514977 0.820844 0.627161
0.513085 0.820432 0.624842
0.511757 0.819791 0.622629
0.510185 0.819409 0.619333
0.511849 0.819089 0.617975
0.519051 0.819089 0.618235
0.528923 0.819577 0.619303
0.537285 0.820478 0.618189
0.553262 0.821241 0.620584
0.570077 0.82211 0.623117
0.590707 0.823713 0.626596
0.613687 0.82472 0.632242
0.64004 0.825666 0.636667
0.666484 0.827115 0.639582
0.689128 0.830579 0.638895
0.70869 0.834775 0.63537
0.729976 0.83827 0.630198
0.749874 0.840177 0.622934
