bundles/resolve-cinematic-luts/Phantom Luts/A7s3 Phntm Film LUTs - G6/ATOMOS Monitor LUTs/Slog3/VisionTeal A7s3-Legacy AML.cube
TITLE "Generated by Resolve"
LUT_3D_SIZE 33
0.0734875 0.0914168 0.0897688
0.0734875 0.0914168 0.0897688
0.0734875 0.0914168 0.0897688
0.0736095 0.0914015 0.0897841
0.0759747 0.0914778 0.0900587
0.0806897 0.0909133 0.090013
0.0881514 0.090074 0.0897993
0.100496 0.0888228 0.0885176
0.117662 0.0874495 0.0864424
0.137987 0.0854353 0.0846418
0.16286 0.0847181 0.0832837
0.194446 0.0836957 0.0816358
0.232547 0.0810254 0.0798657
0.27068 0.0776989 0.0786603
0.31017 0.0741283 0.0792248
0.349325 0.0732738 0.0849317
0.391669 0.0725414 0.092546
0.434363 0.0723125 0.103273
0.47866 0.0743572 0.120012
0.524514 0.0782025 0.140887
0.576547 0.0864271 0.174594
0.639384 0.103426 0.228305
0.697765 0.125109 0.27982
0.740627 0.150164 0.327794
0.762905 0.176577 0.370352
0.768444 0.201389 0.400137
0.770184 0.229908 0.426963
0.77351 0.25977 0.454627
0.778714 0.294286 0.483314
0.783993 0.330907 0.512474
0.790387 0.36437 0.539834
0.796338 0.395621 0.563577
0.803784 0.424689 0.588113
0.0734875 0.0914168 0.0897688
0.0734875 0.0914168 0.0897688
0.0734875 0.0914321 0.0897688
0.073579 0.0914168 0.0897993
0.0766155 0.0914778 0.0900893
0.080827 0.0909285 0.0900587
0.0878004 0.0903639 0.090074
0.100771 0.0889906 0.088716
0.118288 0.0876936 0.0870985
0.139635 0.0855421 0.0848402
0.164157 0.0848096 0.0834516
0.196567 0.0834363 0.0815137
0.234836 0.0808728 0.0795605
0.272435 0.076936 0.0789044
0.313954 0.0737011 0.0788739
0.35404 0.0730449 0.0848707
0.396597 0.0724498 0.0907607
0.439979 0.0724651 0.102449
0.483131 0.074464 0.119142
0.528923 0.0789502 0.141512
0.581491 0.0876936 0.175952
0.64181 0.104112 0.227131
0.698726 0.125048 0.276585
0.743343 0.15172 0.329519
0.763287 0.177996 0.37052
0.769345 0.202914 0.401282
0.770657 0.231708 0.42768
0.774014 0.261173 0.455055
0.778698 0.295689 0.483284
0.78436 0.332326 0.512917
0.790311 0.365698 0.540124
0.797177 0.397192 0.564935
0.804273 0.426032 0.589166
0.0734875 0.0914168 0.0897536
0.0734875 0.0914168 0.0897536
0.0735332 0.0914015 0.0897536
0.0736706 0.0914473 0.0898299
0.0759289 0.0914778 0.0899519
0.0801099 0.0910964 0.090074
0.0863661 0.0906386 0.0901656
0.0994888 0.0892958 0.0889601
0.117311 0.088014 0.0874952
0.138445 0.0860151 0.0851911
0.16318 0.0851301 0.08365
0.196506 0.0840314 0.08159
0.237018 0.0819409 0.0797131
0.279454 0.078706 0.0786297
0.319387 0.0746777 0.0793469
0.357519 0.0727855 0.0847944
0.399908 0.0720989 0.0898146
0.443168 0.0726482 0.101534
0.486458 0.0746166 0.118273
0.532692 0.0791333 0.141085
0.585794 0.088426 0.176547
0.645045 0.104997 0.22681
0.701778 0.126101 0.277119
0.743984 0.15079 0.325658
0.763531 0.178744 0.369909
0.769558 0.204334 0.401495
0.77113 0.232746 0.427512
0.774426 0.262776 0.454963
0.779431 0.297078 0.483711
0.784558 0.333959 0.513039
0.790265 0.366812 0.540093
0.797925 0.398581 0.565911
0.804639 0.426993 0.589654
0.0736095 0.0919814 0.0899519
0.0736095 0.0919814 0.0899214
0.0738994 0.0918135 0.0898604
0.0738231 0.0915389 0.0895857
0.0749218 0.0916609 0.0894789
0.0789349 0.0915694 0.0900435
0.0857099 0.0910964 0.0901198
0.0979934 0.0899825 0.0891585
0.11725 0.0890516 0.0879988
0.139162 0.0874189 0.0853437
0.16585 0.0862898 0.083299
0.199771 0.0855726 0.0809033
0.240787 0.0838483 0.078996
0.283345 0.0805676 0.0783093
0.323201 0.0755779 0.079057
0.3626 0.0726482 0.0824598
0.403494 0.0717174 0.0898909
0.447471 0.0729076 0.100572
0.488518 0.0737621 0.121889
0.536583 0.0798352 0.14023
0.589761 0.0893263 0.176196
0.649027 0.106172 0.226947
0.704402 0.127123 0.277241
0.746517 0.15288 0.327184
0.763867 0.178012 0.366552
0.76936 0.205386 0.400061
0.771206 0.233845 0.426627
0.774578 0.264118 0.454551
0.779919 0.298589 0.483391
0.785092 0.335744 0.513497
0.791241 0.368414 0.540917
0.798352 0.399847 0.566598
0.80499 0.428183 0.590021
0.0738384 0.0970626 0.0899977
0.0739605 0.096788 0.0896773
0.0745861 0.0964675 0.0895552
0.0757916 0.0962387 0.0897536
0.0789654 0.0965286 0.0903487
0.0828412 0.0959335 0.0903182
0.088838 0.0954757 0.0905318
0.10042 0.0945907 0.0895094
0.118547 0.0915694 0.0878767
0.141955 0.0891737 0.0855573
0.1682 0.088365 0.0831159
0.20412 0.0870222 0.0800488
0.244251 0.0847028 0.0785687
0.282246 0.0816205 0.0776379
0.325505 0.0783551 0.0785534
0.367956 0.0729686 0.0802777
0.408499 0.0715343 0.0887007
0.451133 0.0725261 0.100114
0.491157 0.07364 0.1234
0.541115 0.0803082 0.138628
0.594354 0.0907301 0.175326
0.653452 0.107378 0.226719
0.710231 0.129519 0.27895
0.748028 0.15436 0.326879
0.764584 0.17908 0.365499
0.770153 0.203952 0.396735
0.77145 0.235569 0.425788
0.774899 0.265797 0.454002
0.780316 0.300542 0.483116
0.785672 0.337484 0.513527
0.791608 0.369955 0.540963
0.798764 0.401205 0.567056
0.8056 0.429313 0.5906
0.073579 0.104051 0.0899062
0.0740063 0.10367 0.0897993
0.0746319 0.102846 0.0894026
0.076997 0.10251 0.0899519
0.0801404 0.102861 0.0905928
0.0850538 0.102663 0.0912642
0.0931716 0.101106 0.0914473
0.103639 0.10042 0.090074
0.11899 0.0980392 0.0891127
0.139879 0.0941024 0.0866255
0.167269 0.0918898 0.0841535
0.207095 0.0889906 0.0812695
0.247272 0.0856489 0.0780194
0.284321 0.0824292 0.0767376
0.325887 0.0785687 0.0773785
0.368032 0.0747234 0.0788891
0.415579 0.0717021 0.0856947
0.454322 0.071397 0.103365
0.498146 0.0746166 0.120439
0.544808 0.0800031 0.140032
0.601816 0.0929122 0.174945
0.66067 0.110002 0.227497
0.715404 0.131411 0.279118
0.751644 0.156573 0.326558
0.764706 0.180117 0.363119
0.770001 0.205478 0.394873
0.771786 0.23209 0.420493
0.775418 0.267918 0.453513
0.780667 0.302831 0.482612
0.786023 0.339467 0.512795
0.792203 0.372854 0.5411
0.798856 0.403067 0.566934
0.80676 0.431647 0.591638
0.074052 0.116136 0.0915389
0.0741894 0.115114 0.0906844
0.0743114 0.113375 0.0895399
0.076524 0.11284 0.0899672
0.0810254 0.114641 0.0912795
0.0854047 0.115007 0.0923629
0.0957809 0.113222 0.0929885
0.10927 0.110491 0.0908217
0.125963 0.1084 0.0899214
0.142992 0.104891 0.0886091
0.17084 0.0997787 0.0851301
0.205768 0.0958572 0.0822309
0.245823 0.0909133 0.0788128
0.290944 0.0858778 0.0768902
0.329274 0.0806592 0.0762036
0.368887 0.0770428 0.0775464
0.415595 0.0717632 0.0802777
0.462364 0.0727703 0.0944839
0.505623 0.0750744 0.11667
0.54995 0.0798199 0.142916
0.609567 0.0937667 0.17612
0.668406 0.112062 0.225864
0.721492 0.133654 0.278126
0.753323 0.158221 0.324681
0.766415 0.18262 0.362341
0.770321 0.207904 0.391714
0.772442 0.235233 0.418448
0.775631 0.264073 0.446036
0.780819 0.305226 0.480613
0.785779 0.34197 0.510307
0.792096 0.375875 0.539605
0.79913 0.406531 0.565377
0.806638 0.434882 0.590234
0.0740826 0.130861 0.0927443
0.0740826 0.130022 0.0918288
0.0741741 0.12874 0.0900587
0.0749676 0.127932 0.0895247
0.0796674 0.129259 0.0909285
0.0857252 0.130175 0.0931716
0.0950942 0.130037 0.0950942
0.11075 0.127962 0.0947127
0.127398 0.124361 0.0900435
0.149004 0.120974 0.0892653
0.175906 0.114366 0.0882124
0.212421 0.10808 0.0844587
0.251301 0.101244 0.0813764
0.289036 0.0948043 0.0790265
0.327535 0.0872816 0.0768292
0.371206 0.0803388 0.0767834
0.411872 0.0749676 0.0775769
0.462959 0.0716106 0.085832
0.512474 0.076051 0.109957
0.562325 0.0812848 0.139666
0.615976 0.0933547 0.180499
0.678843 0.115175 0.22768
0.73051 0.137331 0.27837
0.756924 0.161471 0.322515
0.76788 0.185794 0.359716
0.772213 0.211414 0.390036
0.772778 0.238972 0.416602
0.776486 0.267857 0.44387
0.780865 0.299657 0.470176
0.786862 0.345342 0.509102
0.79234 0.379675 0.538979
0.799435 0.409949 0.565377
0.807065 0.437201 0.590402
0.07393 0.147143 0.0946975
0.0737774 0.146304 0.0933089
0.0738231 0.144503 0.0911574
0.0742962 0.143313 0.0898451
0.0775464 0.14432 0.0900587
0.0843214 0.145586 0.0931258
0.0940414 0.146334 0.0950942
0.107149 0.146487 0.0965133
0.127764 0.143465 0.0946365
0.148714 0.138979 0.089601
0.181888 0.134096 0.0894484
0.227558 0.122881 0.0879225
0.260884 0.115831 0.085069
0.300267 0.106432 0.0823072
0.337865 0.0987106 0.0806134
0.371496 0.0910048 0.0789807
0.41146 0.0833295 0.0774853
0.456626 0.0722515 0.078584
0.514534 0.0750591 0.0979934
0.571405 0.0831617 0.132845
0.632349 0.0978714 0.179141
0.68545 0.114611 0.232151
0.738262 0.141131 0.277058
0.760906 0.164782 0.319249
0.769619 0.189258 0.355322
0.772946 0.215503 0.385458
0.774136 0.243503 0.412619
0.77702 0.272984 0.441169
0.781643 0.305119 0.468818
0.786542 0.338704 0.495979
0.793561 0.383825 0.538445
0.800122 0.413367 0.565118
0.808209 0.441169 0.591119
0.0717327 0.167193 0.0962692
0.0717937 0.166079 0.0943618
0.072343 0.16437 0.0927138
0.0732586 0.163043 0.0910964
0.076585 0.162402 0.0907759
0.0823529 0.163882 0.0925765
0.0889296 0.165438 0.0937819
0.103639 0.167269 0.0964523
0.123903 0.167224 0.0976425
0.147539 0.163561 0.0924697
0.177859 0.158282 0.0889143
0.230488 0.148806 0.0893721
0.280095 0.136202 0.0897688
0.32018 0.125566 0.0878157
0.356023 0.116548 0.0856336
0.390585 0.107729 0.0837415
0.424399 0.0987716 0.0819409
0.459037 0.0894484 0.081239
0.500633 0.0740826 0.0816663
0.569299 0.0800793 0.113588
0.643854 0.0994888 0.168597
0.701686 0.119799 0.230533
0.745357 0.142031 0.282475
0.763958 0.169558 0.313863
0.770886 0.193469 0.349371
0.77406 0.219806 0.37998
0.775677 0.249058 0.408499
0.778393 0.278645 0.437629
0.782956 0.311467 0.466682
0.787549 0.344808 0.494911
0.792538 0.375631 0.52401
0.801526 0.418418 0.565301
0.809262 0.445838 0.591821
0.0697032 0.19382 0.0961013
0.0697185 0.191791 0.0942092
0.0699321 0.190234 0.0928664
0.0698863 0.188907 0.091371
0.0730755 0.188312 0.0915541
0.0768902 0.18706 0.0888991
0.0834058 0.189502 0.0900587
0.0959029 0.192706 0.0929427
0.117449 0.195361 0.0966049
0.142443 0.197086 0.0981155
0.174395 0.193729 0.0903029
0.221332 0.185946 0.0880903
0.285664 0.176486 0.0940719
0.343252 0.16318 0.098558
0.389013 0.146426 0.0970474
0.420279 0.140688 0.096437
0.456062 0.130892 0.0954452
0.487922 0.117769 0.0922103
0.516884 0.101579 0.0905623
0.553689 0.0805219 0.0905165
0.631632 0.0886854 0.134432
0.712413 0.119875 0.209308
0.755611 0.146685 0.27689
0.765576 0.169192 0.314809
0.774151 0.198978 0.342168
0.775509 0.226474 0.373602
0.776928 0.256382 0.403235
0.780606 0.287907 0.433646
0.784649 0.320302 0.464836
0.789181 0.353628 0.494804
0.794705 0.384878 0.524376
0.80296 0.425513 0.566781
0.81062 0.452979 0.594461
0.0695659 0.229984 0.0985122
0.0695354 0.228229 0.0959335
0.0693675 0.225803 0.0951553
0.0694438 0.223636 0.094728
0.0694133 0.223011 0.092607
0.0704204 0.22179 0.089662
0.0759289 0.220478 0.0864576
0.0870832 0.225345 0.0894179
0.107515 0.231785 0.0946975
0.136965 0.237491 0.100755
0.17171 0.241917 0.102235
0.220066 0.238819 0.090425
0.275624 0.233326 0.0903487
0.346716 0.227085 0.102831
0.404776 0.212711 0.114809
0.461128 0.192523 0.11809
0.493645 0.183581 0.119249
0.531518 0.17116 0.1187
0.564416 0.155352 0.116594
0.592447 0.132677 0.113619
0.621851 0.098558 0.11165
0.693767 0.100496 0.155642
0.758083 0.138994 0.2374
0.769467 0.173892 0.296117
0.774441 0.19942 0.341878
0.77583 0.229694 0.37409
0.778866 0.263798 0.400381
0.7832 0.297978 0.429694
0.787167 0.331807 0.462257
0.791485 0.365072 0.494453
0.79649 0.396124 0.525277
0.802197 0.422751 0.55436
0.813077 0.461326 0.597101
0.0705882 0.279835 0.114488
0.0722667 0.27863 0.114061
0.0733043 0.275746 0.110643
0.0740826 0.273121 0.107073
0.0751812 0.272709 0.105135
0.0762341 0.272099 0.102892
0.0781415 0.270085 0.0983749
0.0846265 0.268986 0.0944991
0.10277 0.276722 0.0993668
0.1308 0.282948 0.104845
0.167239 0.287358 0.109865
0.215549 0.289937 0.106676
0.270649 0.28661 0.0943008
0.334829 0.284138 0.0951553
0.404364 0.282368 0.111925
0.461769 0.27303 0.128679
0.519814 0.254414 0.139376
0.554498 0.243015 0.141131
0.595254 0.223514 0.142428
0.636286 0.203998 0.145373
0.669276 0.175189 0.143328
0.700084 0.143008 0.144656
0.746868 0.119005 0.172656
0.769696 0.154849 0.237736
0.778164 0.207507 0.305867
0.776974 0.23151 0.363699
0.778317 0.26334 0.409323
0.784787 0.309377 0.42414
0.789593 0.345693 0.458488
0.79498 0.379583 0.494408
0.800259 0.409751 0.527367
0.806348 0.437034 0.55848
0.810773 0.45832 0.582422
0.0821851 0.334874 0.134066
0.0822461 0.334234 0.132174
0.0827497 0.331594 0.12874
0.08336 0.329091 0.125063
0.084596 0.327688 0.122515
0.0856947 0.327626 0.120317
0.0868544 0.32665 0.116594
0.0886549 0.32401 0.109575
0.0969253 0.323384 0.106661
0.123491 0.329976 0.109911
0.159442 0.334905 0.115602
0.212512 0.336965 0.119371
0.265904 0.340505 0.112993
0.323857 0.334768 0.104662
0.390753 0.338186 0.101213
0.460899 0.341161 0.124483
0.519188 0.337758 0.146792
0.574578 0.323659 0.168048
0.611414 0.314733 0.172519
0.65565 0.290074 0.17464
0.698695 0.267933 0.174853
0.735302 0.23714 0.174395
0.766659 0.197131 0.181048
0.7738 0.160159 0.183246
0.780285 0.178393 0.233219
0.782971 0.24976 0.308583
0.782513 0.274922 0.378866
0.784665 0.306889 0.432212
0.793881 0.361929 0.453254
0.798703 0.396185 0.493645
0.803922 0.425406 0.529778
0.810498 0.452918 0.563851
0.81529 0.472831 0.589029
0.0958114 0.390524 0.156207
0.0954757 0.390234 0.154086
0.0958572 0.38883 0.151522
0.0965896 0.386648 0.148882
0.097612 0.385855 0.146044
0.0982376 0.384405 0.142916
0.0989853 0.383246 0.138827
0.100084 0.382376 0.133715
0.103044 0.378454 0.123522
0.117174 0.376791 0.119478
0.150439 0.383017 0.124147
0.202411 0.385061 0.129717
0.267781 0.384817 0.130449
0.320134 0.391959 0.119799
0.38201 0.387564 0.116899
0.448005 0.392111 0.114626
0.518837 0.398795 0.143267
0.575036 0.400015 0.169635
0.631006 0.389883 0.196689
0.667262 0.3832 0.215152
0.711955 0.360647 0.220203
0.749996 0.339529 0.220783
0.780255 0.310903 0.22118
0.783001 0.269215 0.208652
0.783322 0.237919 0.210758
0.784314 0.236728 0.240269
0.788495 0.30486 0.317174
0.789807 0.327901 0.394186
0.792752 0.360311 0.45832
0.802243 0.408438 0.487831
0.809354 0.443427 0.53106
0.815839 0.471092 0.568811
0.820386 0.490059 0.59498
0.113497 0.448615 0.186862
0.112978 0.447822 0.184024
0.112032 0.446189 0.180774
0.112245 0.444709 0.177844
0.112871 0.443534 0.175555
0.113985 0.442481 0.171756
0.114763 0.441032 0.166979
0.115999 0.439536 0.161151
0.118578 0.438087 0.154406
0.122774 0.433234 0.140368
0.143618 0.430625 0.134142
0.187762 0.43473 0.139895
0.263249 0.433051 0.14464
0.325811 0.434958 0.143603
0.37966 0.444816 0.131853
0.440131 0.440955 0.134829
0.50634 0.447272 0.133715
0.574777 0.456275 0.165637
0.63064 0.461204 0.200153
0.685847 0.455344 0.236454
0.722179 0.449653 0.255512
0.754955 0.435782 0.268162
0.783856 0.413199 0.270893
0.78526 0.384756 0.262409
0.784588 0.348638 0.248234
0.784268 0.310246 0.23653
0.784741 0.292073 0.24921
0.789532 0.35938 0.335164
0.800031 0.383337 0.413504
0.802945 0.411841 0.488045
0.809384 0.445655 0.543496
0.821347 0.488975 0.569879
0.825269 0.5084 0.601114
0.132418 0.508385 0.231128
0.131945 0.50811 0.229343
0.131456 0.506249 0.224948
0.13109 0.50425 0.221515
0.13167 0.503685 0.218433
0.132586 0.502602 0.214267
0.133898 0.500816 0.208423
0.136553 0.498726 0.199359
0.138521 0.496651 0.19086
0.141955 0.493874 0.1794
0.146761 0.488106 0.158511
0.179095 0.485908 0.154147
0.249882 0.48452 0.161257
0.329473 0.483284 0.168841
0.382513 0.488182 0.160861
0.438254 0.499077 0.149416
0.496117 0.496025 0.156191
0.560723 0.503471 0.154696
0.628244 0.513436 0.193881
0.683909 0.52195 0.236194
0.734508 0.520226 0.271489
0.765881 0.517388 0.292638
0.787991 0.510704 0.307698
0.792523 0.493889 0.312551
0.791409 0.468574 0.304997
0.788556 0.436057 0.292607
0.786557 0.390143 0.275029
0.78645 0.35053 0.266209
0.795911 0.413626 0.364981
0.809918 0.44889 0.447608
0.815259 0.461997 0.524315
0.823209 0.496757 0.575784
0.830472 0.525231 0.606424
0.151492 0.568246 0.275746
0.15082 0.567285 0.273823
0.150454 0.566064 0.270619
0.150149 0.564614 0.267826
0.150652 0.563836 0.266224
0.151492 0.562844 0.262348
0.153841 0.561395 0.257984
0.156268 0.558022 0.24918
0.159167 0.554467 0.23827
0.163302 0.552743 0.228443
0.167147 0.547997 0.208606
0.17705 0.541787 0.181796
0.235645 0.537774 0.180285
0.318212 0.534768 0.189914
0.398047 0.534401 0.194491
0.439307 0.542992 0.181659
0.493095 0.553567 0.169665
0.548775 0.551247 0.181796
0.611933 0.559625 0.182879
0.678599 0.569329 0.230137
0.730892 0.579995 0.270481
0.769985 0.582162 0.305119
0.794293 0.58117 0.32491
0.803113 0.577478 0.332311
0.803174 0.567727 0.332021
0.801694 0.548684 0.331609
0.798077 0.519783 0.328771
0.793042 0.474754 0.317189
0.788159 0.41352 0.29427
0.804089 0.465324 0.400229
0.821195 0.499153 0.487663
0.828382 0.510552 0.567529
0.831678 0.533654 0.628061
0.172793 0.62887 0.320882
0.172457 0.628138 0.318807
0.171939 0.627527 0.317052
0.17142 0.626322 0.314351
0.171984 0.625559 0.312291
0.172534 0.624231 0.309514
0.174884 0.622461 0.304967
0.17821 0.619364 0.297826
0.182208 0.61561 0.287266
0.187045 0.611521 0.274815
0.192142 0.607858 0.260136
0.197971 0.601999 0.237079
0.227054 0.594797 0.210132
0.309972 0.589136 0.215564
0.391379 0.586252 0.224186
0.455085 0.588785 0.219165
0.495537 0.598489 0.209751
0.547356 0.608988 0.199969
0.596521 0.604837 0.216617
0.660014 0.613825 0.222446
0.721294 0.623255 0.26659
0.763516 0.632776 0.306477
0.792477 0.63621 0.337087
0.804593 0.634806 0.351263
0.805417 0.630869 0.351354
0.805478 0.624537 0.347158
0.806287 0.609155 0.346822
0.806607 0.585946 0.346868
0.803037 0.546624 0.343465
0.795361 0.486824 0.334035
0.815854 0.514122 0.445075
0.835477 0.543725 0.540261
0.841443 0.556085 0.617655
0.199786 0.690059 0.366949
0.198871 0.689464 0.364614
0.197818 0.689189 0.362737
0.197192 0.688975 0.3608
0.197864 0.688334 0.359258
0.199649 0.686625 0.356268
0.201678 0.684581 0.351965
0.204456 0.681773 0.345296
0.209842 0.678203 0.33637
0.215991 0.674037 0.324361
0.222614 0.667979 0.306844
0.229603 0.662699 0.28838
0.243488 0.656626 0.261189
0.300526 0.6495 0.248753
0.38883 0.641779 0.254276
0.460624 0.639979 0.259937
0.51107 0.644602 0.25185
0.54818 0.65333 0.246677
0.596521 0.661616 0.241566
0.642313 0.65803 0.255421
0.702266 0.66482 0.266392
0.752499 0.674006 0.312581
0.785199 0.680659 0.351064
0.803479 0.68333 0.374624
0.807279 0.6804 0.381323
0.807538 0.676265 0.377813
0.806699 0.670329 0.368429
0.807385 0.65687 0.36733
0.808209 0.634546 0.366232
0.808255 0.597543 0.362081
0.807874 0.550973 0.380926
0.828595 0.564935 0.503639
0.851102 0.581155 0.597177
0.235813 0.74641 0.412192
0.234623 0.74638 0.411002
0.233692 0.746029 0.409155
0.2327 0.74551 0.406989
0.232715 0.745434 0.405203
0.234333 0.744457 0.402731
0.237354 0.743023 0.399588
0.241245 0.741192 0.394675
0.244938 0.738064 0.386954
0.249546 0.732967 0.375387
0.256199 0.726986 0.359258
0.263188 0.720333 0.338384
0.274342 0.715846 0.317586
0.304311 0.710979 0.295995
0.382361 0.697475 0.290639
0.458274 0.68893 0.294087
0.519615 0.688121 0.298116
0.559472 0.692775 0.289433
0.594186 0.699611 0.287663
0.63949 0.706371 0.28542
0.68481 0.705272 0.30309
0.734737 0.710674 0.325917
0.774823 0.719188 0.367285
0.798886 0.72282 0.39675
0.808118 0.721889 0.413123
0.810513 0.719249 0.420478
0.809979 0.714977 0.416556
0.809049 0.709239 0.404379
0.808927 0.696284 0.397955
0.80975 0.675425 0.391409
0.810101 0.636973 0.383856
0.819104 0.595331 0.447074
0.848066 0.622599 0.581689
0.27303 0.788769 0.453498
0.271916 0.78912 0.452735
0.27068 0.788708 0.450645
0.270695 0.788418 0.448798
0.271107 0.788251 0.44715
0.271946 0.787778 0.445243
0.274464 0.786923 0.442679
0.278431 0.784726 0.438041
0.282216 0.781445 0.431373
0.287251 0.777111 0.42153
0.292317 0.771725 0.407187
0.300221 0.765835 0.388312
0.313222 0.759579 0.367163
0.337423 0.754818 0.351446
0.383261 0.745327 0.336202
0.457923 0.730648 0.332494
0.520729 0.72488 0.335607
0.567895 0.725261 0.336034
0.602914 0.730251 0.333562
0.637003 0.736065 0.336873
0.680858 0.741772 0.34342
0.720928 0.741604 0.365072
0.761654 0.746059 0.388891
0.792859 0.752697 0.420432
0.809033 0.754513 0.443366
0.813199 0.75259 0.455497
0.814466 0.749233 0.460563
0.81387 0.745754 0.455573
0.811673 0.740383 0.442191
0.811749 0.72871 0.433951
0.81207 0.707347 0.423209
0.812848 0.665324 0.411032
0.835889 0.642329 0.543267
0.305867 0.818143 0.487755
0.304311 0.818601 0.486992
0.303655 0.81857 0.485359
0.303197 0.818357 0.483818
0.303258 0.818143 0.482414
0.303593 0.817563 0.4804
0.304448 0.816754 0.477745
0.307805 0.814771 0.473182
0.311879 0.812345 0.468223
0.31725 0.808347 0.459205
0.325154 0.803143 0.448463
0.335256 0.798566 0.435203
0.351583 0.792157 0.417609
0.375814 0.784558 0.402655
0.413336 0.77528 0.395621
0.464271 0.763058 0.389395
0.52015 0.754314 0.388312
0.568978 0.752575 0.392264
0.606958 0.754284 0.393362
0.639078 0.758022 0.395346
0.673136 0.762127 0.400656
0.713893 0.766995 0.405402
0.74844 0.767529 0.423194
0.780224 0.771206 0.444663
0.803906 0.775616 0.471336
0.813138 0.77641 0.489204
0.81622 0.77496 0.498802
0.818082 0.772793 0.503395
0.817777 0.769131 0.496635
0.816159 0.76376 0.481682
0.816281 0.75172 0.4701
0.815534 0.728969 0.453422
0.82295 0.688197 0.475151
0.332433 0.832181 0.510124
0.331456 0.832486 0.509453
0.330022 0.832883 0.5084
0.329305 0.833036 0.507103
0.329442 0.832944 0.505669
0.329992 0.832563 0.504311
0.330831 0.831708 0.501579
0.332036 0.83061 0.497948
0.334356 0.828473 0.493111
0.340078 0.825406 0.487495
0.350515 0.821851 0.479667
0.365042 0.816983 0.471168
0.385824 0.81001 0.458869
0.415137 0.800229 0.447868
0.446906 0.791012 0.443046
0.482567 0.782437 0.440665
0.52517 0.774472 0.437736
0.568734 0.770809 0.438392
0.608713 0.770947 0.442527
0.641337 0.772564 0.443854
0.673609 0.775876 0.448539
0.706981 0.779675 0.452583
0.742199 0.78497 0.455314
0.768765 0.785 0.474876
0.794949 0.789364 0.496208
0.808606 0.791531 0.515999
0.814282 0.792355 0.530602
0.817563 0.792172 0.540383
0.819196 0.790249 0.542733
0.81767 0.786603 0.532662
0.817685 0.780682 0.518135
0.819181 0.7682 0.50341
0.820432 0.737865 0.480888
0.365942 0.83241 0.528161
0.364019 0.832776 0.526818
0.360739 0.833631 0.525567
0.360311 0.833692 0.524453
0.359258 0.83386 0.523507
0.358114 0.833722 0.521737
0.358328 0.833143 0.519158
0.358862 0.832547 0.516884
0.360952 0.830915 0.512291
0.365957 0.828687 0.508309
0.373449 0.824582 0.501503
0.390082 0.818708 0.495384
0.41445 0.811185 0.489128
0.441688 0.802563 0.482261
0.469535 0.794903 0.47686
0.496559 0.78912 0.475608
0.528588 0.784466 0.475929
0.567086 0.780484 0.476753
0.605737 0.780163 0.4822
0.640818 0.781201 0.485573
0.673243 0.782971 0.487953
0.70602 0.786664 0.490913
0.736309 0.790951 0.494041
0.763836 0.795895 0.499947
0.787747 0.797406 0.521279
0.807157 0.802731 0.542016
0.814603 0.80502 0.560265
0.817853 0.805997 0.572061
0.820859 0.805875 0.580102
0.822095 0.804181 0.580484
0.819409 0.800671 0.565698
0.819409 0.793362 0.550591
0.822232 0.776379 0.52813
0.421866 0.827482 0.551553
0.417594 0.82771 0.548867
0.412421 0.82826 0.546838
0.41088 0.828229 0.545586
0.408698 0.828443 0.54403
0.406943 0.828168 0.541421
0.40618 0.827878 0.539681
0.406378 0.826993 0.537011
0.406821 0.826047 0.53373
0.409934 0.824018 0.52903
0.419654 0.820935 0.526619
0.433249 0.816953 0.523919
0.449805 0.812345 0.520241
0.469612 0.807309 0.517205
0.492576 0.801785 0.513237
0.516976 0.796658 0.51075
0.542306 0.793881 0.512337
0.572427 0.791196 0.515526
0.607996 0.789487 0.518654
0.645136 0.789654 0.523537
0.676783 0.791348 0.525246
0.707851 0.794217 0.528237
0.736431 0.797528 0.532357
0.758831 0.801236 0.533806
0.780957 0.80473 0.544564
0.804501 0.807889 0.565301
0.816907 0.812116 0.585229
0.821653 0.815579 0.602472
0.824628 0.817655 0.613916
0.826841 0.818494 0.620401
0.826337 0.81709 0.617243
0.823117 0.811414 0.596674
0.822492 0.801266 0.576135
0.484581 0.826871 0.584772
0.479789 0.82649 0.582132
0.47512 0.826368 0.578805
0.472709 0.82623 0.57673
0.469978 0.82649 0.575311
0.469139 0.826276 0.574319
0.46772 0.825666 0.571237
0.466499 0.825071 0.568429
0.465766 0.824079 0.565347
0.464576 0.822538 0.560784
0.467567 0.821073 0.557733
0.476387 0.818875 0.556069
0.487556 0.816114 0.553994
0.501183 0.813138 0.552483
0.519097 0.809781 0.550713
0.539147 0.806134 0.548012
0.562264 0.802884 0.547509
0.586435 0.80148 0.551705
0.616068 0.800458 0.555581
0.650904 0.80029 0.559838
0.684031 0.800809 0.561334
0.712322 0.802945 0.564645
0.739071 0.805829 0.567834
