bundles/resolve-cinematic-luts/Phantom Luts/A7s3 Phntm Arri LUTs G7/ATOMOS Monitoring LUTs/Slog3/IceBlue A7s3 AML.cube
TITLE "Generated by Resolve"
LUT_3D_SIZE 5
0.0799878 0.0910201 0.0900282
0.14287 0.0919661 0.0978866
0.490349 0.0962844 0.159487
0.743145 0.165026 0.361059
0.78204 0.217105 0.583093
0.0811475 0.174945 0.115251
0.153384 0.171847 0.101442
0.490181 0.0898604 0.109392
0.738186 0.161028 0.349447
0.778241 0.207568 0.55433
0.0948196 0.565469 0.270924
0.107713 0.578775 0.242222
0.583246 0.613855 0.176883
0.851392 0.472496 0.30219
0.83827 0.287282 0.533562
0.311696 0.846922 0.554009
0.318135 0.849104 0.539651
0.418387 0.854856 0.40415
0.925307 0.901152 0.493919
0.940429 0.89984 0.48719
0.578012 0.894163 0.718868
0.573129 0.894911 0.70811
0.694987 0.906798 0.745342
0.927199 0.929686 0.785931
0.947021 0.93109 0.815686
0.0777905 0.0933547 0.153475
0.143618 0.0914778 0.15433
0.498451 0.0912795 0.216114
0.751568 0.171405 0.40444
0.785031 0.227131 0.608774
0.0782177 0.170413 0.172549
0.144183 0.166812 0.180041
0.513512 0.0980087 0.177447
0.751598 0.172763 0.391928
0.821103 0.278157 0.660151
0.0915389 0.567452 0.314321
0.10277 0.579385 0.288212
0.565957 0.608072 0.177279
0.843885 0.449805 0.295674
0.869291 0.335836 0.653178
0.315831 0.84889 0.57171
0.320562 0.850752 0.561196
0.407309 0.856931 0.426261
0.925399 0.901305 0.495583
0.940459 0.899855 0.487312
0.582773 0.894041 0.727504
0.593408 0.897551 0.729671
0.698116 0.907164 0.754376
0.924773 0.929885 0.790707
0.946395 0.93106 0.818173
0.0763714 0.103532 0.439536
0.148989 0.0924544 0.474022
0.49604 0.0965438 0.462196
0.752804 0.176242 0.54583
0.791379 0.251301 0.672618
0.0614328 0.139406 0.457725
0.0778363 0.110277 0.491096
0.522866 0.104158 0.506004
0.756222 0.180117 0.555993
0.833173 0.31249 0.73138
0.112016 0.565438 0.537011
0.120455 0.578759 0.551705
0.525597 0.580941 0.588098
0.829557 0.276921 0.494972
0.911986 0.440345 0.815885
0.338537 0.862303 0.681514
0.348165 0.863401 0.679118
0.404898 0.872297 0.605249
0.921447 0.914153 0.642557
0.947997 0.906447 0.544656
0.584848 0.899809 0.777554
0.611673 0.901732 0.788952
0.719295 0.911925 0.812863
0.918151 0.93283 0.837491
0.947433 0.930587 0.82208
0.0745098 0.171099 0.623102
0.118898 0.140856 0.646174
0.433188 0.126055 0.700984
0.71545 0.190387 0.7093
0.729366 0.218219 0.741955
0.0739757 0.208621 0.632532
0.073167 0.201877 0.642405
0.42504 0.12845 0.710353
0.715496 0.193713 0.719387
0.734157 0.224796 0.746838
0.147463 0.564584 0.719432
0.154009 0.57821 0.729625
0.404685 0.57377 0.907301
0.754849 0.248844 0.760723
0.832914 0.360265 0.84155
0.398779 0.87657 0.856535
0.41619 0.880156 0.860075
0.461769 0.892744 0.875547
0.89482 0.909361 0.914351
0.935958 0.894087 0.912779
0.580621 0.928496 0.907286
0.64712 0.921889 0.907362
0.751232 0.927596 0.917357
0.913237 0.937179 0.929458
0.94548 0.939406 0.929671
0.0821546 0.265599 0.666468
0.078584 0.243198 0.664424
0.357778 0.127657 0.708034
0.706493 0.186618 0.718364
0.720897 0.206256 0.733272
0.0849317 0.281788 0.668162
0.100343 0.373114 0.700267
0.37293 0.249775 0.792065
0.712642 0.19147 0.719921
0.722545 0.208652 0.735119
0.175143 0.614191 0.753872
0.191836 0.643732 0.76463
0.326009 0.694484 0.850675
0.933822 0.55935 0.933486
0.727291 0.214069 0.738048
0.384909 0.87013 0.865965
0.407889 0.875196 0.870176
0.468391 0.891524 0.892317
0.885618 0.911437 0.934539
0.933074 0.890761 0.928908
0.568444 0.934798 0.925246
0.6486 0.926268 0.921126
0.761868 0.929549 0.928573
0.909895 0.938109 0.941527
0.948135 0.939559 0.939467
