bundles/resolve-cinematic-luts/Phantom Luts/A7s3 Phntm Arri LUTs G7/ATOMOS Monitoring LUTs/Slog3/IceBlue A7s3-Legacy AML.cube
TITLE "Generated by Resolve"
LUT_3D_SIZE 9
0.0900282 0.100633 0.102419
0.0919814 0.100664 0.102815
0.13106 0.100343 0.104143
0.238987 0.101396 0.115953
0.431052 0.104128 0.148302
0.610803 0.120943 0.218921
0.727901 0.157214 0.321401
0.763958 0.185824 0.433555
0.777905 0.205081 0.528511
0.0906233 0.103593 0.103304
0.0928359 0.103593 0.10338
0.124483 0.101946 0.10341
0.24065 0.101198 0.114656
0.439704 0.104585 0.147478
0.615198 0.122362 0.219348
0.727199 0.15697 0.318547
0.761913 0.184604 0.420844
0.768429 0.19234 0.502831
0.0929427 0.152331 0.117922
0.0936141 0.152087 0.11223
0.135225 0.150652 0.108583
0.260685 0.12491 0.109514
0.440406 0.0971237 0.118135
0.616632 0.125414 0.206165
0.725734 0.157031 0.313146
0.761685 0.185061 0.415473
0.773007 0.197177 0.498024
0.0797894 0.287587 0.144121
0.0806439 0.293416 0.135256
0.0907759 0.295293 0.107897
0.270604 0.300526 0.101946
0.564553 0.247059 0.15227
0.629389 0.146838 0.163455
0.719432 0.163241 0.272831
0.756756 0.181613 0.393225
0.784222 0.211048 0.496193
0.0938735 0.519066 0.231617
0.096849 0.527138 0.228138
0.102266 0.533608 0.209247
0.158312 0.543343 0.140337
0.530465 0.567681 0.155062
0.830213 0.560189 0.294316
0.833509 0.414755 0.291081
0.746197 0.191577 0.302708
0.818387 0.261616 0.472206
0.224506 0.763699 0.424811
0.232486 0.770321 0.422644
0.241962 0.775021 0.414328
0.264042 0.779828 0.369863
0.512963 0.804364 0.289143
0.798993 0.838987 0.36907
0.917571 0.8309 0.407553
0.885222 0.741588 0.344152
0.867109 0.5196 0.318807
0.304997 0.846937 0.519951
0.307057 0.84802 0.51548
0.312383 0.848341 0.508003
0.322484 0.848905 0.481209
0.395727 0.853101 0.391394
0.727871 0.878325 0.391714
0.923491 0.898512 0.47512
0.941863 0.900099 0.484855
0.936767 0.896376 0.469215
0.351339 0.864652 0.566491
0.349569 0.864851 0.562142
0.358877 0.866743 0.55877
0.384009 0.870741 0.548318
0.476524 0.881025 0.541375
0.677256 0.892729 0.566659
0.897322 0.912337 0.599634
0.948867 0.910948 0.622187
0.948745 0.914794 0.669322
0.518944 0.890135 0.665064
0.508888 0.890684 0.656886
0.514961 0.89134 0.655009
0.551476 0.8934 0.663676
0.633921 0.900572 0.689448
0.795178 0.913008 0.715419
0.922087 0.922744 0.732265
0.948821 0.920638 0.732509
0.946471 0.923888 0.767803
0.0898909 0.10074 0.104692
0.0921035 0.100725 0.104829
0.129961 0.100679 0.115099
0.237522 0.100267 0.129641
0.434089 0.102464 0.165118
0.617197 0.118975 0.243458
0.731289 0.156771 0.345403
0.763943 0.185718 0.458839
0.780118 0.21088 0.548791
0.0903182 0.10341 0.105364
0.0924239 0.103441 0.106188
0.137774 0.101198 0.108644
0.251743 0.100847 0.121706
0.448066 0.10338 0.160952
0.623087 0.122026 0.236912
0.730007 0.156161 0.340505
0.763119 0.185092 0.451453
0.777554 0.207248 0.540795
0.0927596 0.153353 0.129702
0.0926223 0.155596 0.119356
0.133394 0.151064 0.109743
0.267948 0.122133 0.110964
0.453513 0.0994125 0.131365
0.624323 0.125994 0.217609
0.728496 0.157183 0.32604
0.764523 0.186481 0.439323
0.787533 0.217823 0.542473
0.0791943 0.289784 0.15761
0.0790875 0.296101 0.146242
0.0866255 0.298054 0.116609
0.269215 0.301869 0.102678
0.568597 0.245106 0.154345
0.625803 0.137514 0.162417
0.722103 0.162188 0.284169
0.764553 0.188678 0.418357
0.804227 0.23772 0.549233
0.0940108 0.521431 0.243626
0.0970169 0.531426 0.240024
0.1019 0.536553 0.22121
0.146227 0.54551 0.147097
0.529534 0.569863 0.156558
0.836286 0.559747 0.299687
0.828809 0.403723 0.287205
0.767666 0.213733 0.344106
0.838865 0.284321 0.544991
0.224613 0.765454 0.433997
0.23389 0.774578 0.433829
0.242802 0.779568 0.426047
0.263767 0.782712 0.379965
0.502419 0.806256 0.292439
0.800824 0.84213 0.371862
0.918074 0.832395 0.408728
0.883574 0.730632 0.342321
0.867277 0.517632 0.319402
0.305974 0.848173 0.526345
0.306661 0.848814 0.52282
0.312001 0.848997 0.515328
0.32221 0.849699 0.489067
0.391379 0.853422 0.397147
0.725811 0.878721 0.393683
0.923888 0.898711 0.475776
0.941955 0.90013 0.485176
0.936873 0.896391 0.468849
0.355444 0.865766 0.572076
0.357122 0.867521 0.56965
0.365316 0.868818 0.56669
0.391516 0.873243 0.557397
0.480552 0.881773 0.55111
0.678386 0.893278 0.574685
0.897353 0.912642 0.604852
0.948867 0.910994 0.624475
0.948745 0.9149 0.670527
0.521813 0.890623 0.668956
0.519371 0.89189 0.666148
0.524315 0.892454 0.66389
0.556939 0.894179 0.670115
0.635843 0.900877 0.692653
0.7944 0.913008 0.716899
0.921416 0.92314 0.733303
0.948821 0.920638 0.732631
0.946273 0.923751 0.769711
0.0875868 0.102449 0.143481
0.0964828 0.101808 0.142626
0.130709 0.101381 0.143587
0.241886 0.100145 0.163516
0.438315 0.100725 0.189471
0.624079 0.118669 0.263615
0.734508 0.158251 0.357153
0.764675 0.186282 0.46688
0.780575 0.212131 0.554711
0.0877852 0.103593 0.133196
0.0873732 0.102861 0.148241
0.13492 0.101534 0.150515
0.251835 0.0998093 0.15758
0.449821 0.101183 0.186465
0.628473 0.120912 0.256825
0.733455 0.157717 0.353582
0.763973 0.185672 0.461006
0.778378 0.208865 0.547585
0.0897536 0.149401 0.154665
0.0893721 0.151965 0.157458
0.128603 0.147005 0.159731
0.290486 0.12224 0.154421
0.457679 0.104051 0.161868
0.632593 0.125032 0.239994
0.733745 0.159319 0.345586
0.768795 0.190249 0.469703
0.811719 0.253208 0.602228
0.0793622 0.289479 0.187808
0.0788739 0.295583 0.18056
0.0871748 0.29398 0.155901
0.261814 0.300328 0.125704
0.540825 0.239551 0.163546
0.644175 0.135821 0.192111
0.726589 0.160632 0.305547
0.771801 0.194583 0.452354
0.826398 0.270619 0.607385
0.092668 0.520912 0.266987
0.0951095 0.53051 0.262623
0.0990921 0.533608 0.246998
0.121828 0.536797 0.171939
0.513649 0.560922 0.156283
0.835966 0.549233 0.304097
0.824079 0.392447 0.283543
0.777813 0.216815 0.383276
0.852064 0.302663 0.591485
0.221057 0.76347 0.444633
0.230686 0.772824 0.446571
0.238788 0.777432 0.439826
0.256657 0.780255 0.39794
0.472389 0.803037 0.296513
0.791867 0.838102 0.36817
0.918334 0.828351 0.410971
0.882979 0.725399 0.340887
0.866621 0.512703 0.31873
0.307332 0.849302 0.535988
0.308034 0.85008 0.533623
0.312261 0.850538 0.526772
0.321798 0.851133 0.500572
0.387533 0.854917 0.410147
0.719768 0.879332 0.397925
0.923949 0.89868 0.476509
0.942321 0.900481 0.488624
0.936873 0.896391 0.468849
0.356054 0.866575 0.578271
0.359548 0.868498 0.577707
0.368551 0.870008 0.575769
0.393805 0.874342 0.566079
0.481346 0.882292 0.559976
0.677348 0.893874 0.581811
0.896574 0.912978 0.609995
0.948867 0.910826 0.62443
0.948745 0.914794 0.670344
0.52079 0.891066 0.673121
0.516579 0.893263 0.67126
0.532357 0.893492 0.675563
0.564202 0.89482 0.681819
0.636973 0.901015 0.699214
0.7897 0.91313 0.721675
0.919173 0.924239 0.737194
0.948821 0.920668 0.733028
0.946441 0.923934 0.767773
0.0832685 0.107103 0.234577
0.0930037 0.104967 0.237613
0.138018 0.102281 0.243076
0.245472 0.100984 0.23978
0.448203 0.100923 0.266117
0.635904 0.121996 0.320378
0.745571 0.16762 0.393057
0.76553 0.187106 0.489372
0.781689 0.215747 0.571191
0.0809491 0.108293 0.23508
0.0824903 0.108064 0.248219
0.129885 0.102907 0.262119
0.256245 0.100969 0.253376
0.462272 0.101335 0.272343
0.642985 0.123461 0.319173
0.746609 0.168887 0.393912
0.765469 0.186999 0.486839
0.780423 0.21384 0.567742
0.0775769 0.144884 0.241749
0.0758068 0.144457 0.255985
0.0955367 0.128145 0.293339
0.277638 0.10486 0.281209
0.471977 0.101976 0.265095
0.646906 0.124071 0.306645
0.747555 0.170382 0.388312
0.770764 0.192447 0.495811
0.814466 0.259709 0.622431
0.0780041 0.279667 0.266331
0.0769818 0.286351 0.272114
0.0823072 0.286198 0.275242
0.256672 0.295735 0.30277
0.552697 0.236072 0.28307
0.659113 0.135607 0.258686
0.739651 0.164889 0.356497
0.782696 0.207294 0.507347
0.857084 0.324987 0.69778
0.0961624 0.521492 0.346334
0.0979324 0.531655 0.348043
0.100435 0.533989 0.335821
0.115328 0.527886 0.273671
0.493584 0.552529 0.246998
0.821591 0.524575 0.328771
0.798886 0.317342 0.280842
0.796872 0.231601 0.451514
0.875669 0.344717 0.677089
0.219715 0.760891 0.485725
0.227893 0.76939 0.488228
0.234546 0.773938 0.480461
0.24596 0.776501 0.447929
0.362448 0.795727 0.336492
0.764569 0.825849 0.362219
0.920516 0.813779 0.421576
0.882109 0.708507 0.337881
0.864897 0.427741 0.35848
0.311315 0.851698 0.562844
0.312703 0.852674 0.562158
0.316777 0.853513 0.557107
0.324102 0.854261 0.535607
0.377035 0.859556 0.459495
0.696101 0.883711 0.429984
0.922118 0.90013 0.489937
0.946151 0.903563 0.508736
0.936751 0.896315 0.468574
0.359762 0.868299 0.597223
0.364248 0.869902 0.598016
0.371756 0.872038 0.597131
0.399084 0.876417 0.591134
0.483879 0.88336 0.584131
0.673045 0.895613 0.601389
0.893629 0.913725 0.628809
0.948806 0.910414 0.625635
0.947936 0.914961 0.680385
0.520577 0.892134 0.6878
0.523247 0.892821 0.69015
0.535821 0.894423 0.695399
0.577966 0.897063 0.707958
0.642176 0.902953 0.718486
0.779919 0.914153 0.737316
0.91516 0.925444 0.751949
0.948837 0.921431 0.74258
0.947188 0.923949 0.766186
0.0808118 0.116106 0.393957
0.0916457 0.112673 0.403281
0.131441 0.105333 0.418097
0.252674 0.100664 0.415717
0.443076 0.103975 0.408347
0.642847 0.124926 0.429969
0.752728 0.172488 0.49218
0.764614 0.190631 0.546868
0.787732 0.232105 0.62208
0.0776837 0.117861 0.403052
0.0804456 0.117418 0.412787
0.120211 0.107561 0.434943
0.255497 0.100816 0.436881
0.455863 0.104707 0.424414
0.651835 0.127932 0.438972
0.753338 0.17348 0.501381
0.763867 0.190524 0.551278
0.784268 0.228519 0.62237
0.068925 0.13373 0.414786
0.067628 0.134539 0.43035
0.0796063 0.122927 0.459785
0.244358 0.102754 0.492073
0.478401 0.106722 0.455436
0.66244 0.131029 0.437491
0.756405 0.175647 0.501472
0.769589 0.196551 0.559274
0.822721 0.28307 0.68278
0.0637064 0.27155 0.421927
0.0630655 0.276188 0.436194
0.062623 0.26949 0.453941
0.15584 0.231083 0.534264
0.516564 0.157122 0.519936
0.685878 0.140703 0.443336
0.757382 0.176196 0.491966
0.785214 0.216388 0.577752
0.866056 0.351858 0.752102
0.103807 0.516838 0.485191
0.106355 0.527138 0.49662
0.1093 0.531273 0.502205
0.120241 0.528542 0.503853
0.474128 0.52961 0.534478
0.83743 0.484825 0.523949
0.807218 0.251453 0.436377
0.802655 0.236423 0.559579
0.897292 0.39794 0.77377
0.225284 0.752468 0.587304
0.233249 0.761227 0.592737
0.239246 0.766171 0.591684
0.246754 0.768185 0.571694
0.339467 0.782605 0.50071
0.717449 0.799466 0.515023
0.945342 0.78117 0.547753
0.92845 0.634485 0.437385
0.920928 0.428275 0.576104
0.324269 0.859953 0.642985
0.328908 0.860258 0.644251
0.332952 0.860883 0.640589
0.338323 0.861448 0.621012
0.378759 0.870512 0.566415
0.63299 0.890425 0.55668
0.916091 0.91043 0.586313
0.948867 0.908843 0.592355
0.945647 0.904326 0.514366
0.36762 0.872663 0.646632
0.374899 0.874022 0.649439
0.384405 0.875914 0.650126
0.413016 0.880629 0.647654
0.500572 0.886732 0.648936
0.664088 0.899382 0.667018
0.888151 0.917678 0.691386
0.948775 0.914626 0.684245
0.949004 0.918334 0.71075
0.527977 0.895354 0.732097
0.535515 0.896162 0.73727
0.551369 0.897963 0.744228
0.591562 0.902235 0.758587
0.658137 0.906783 0.770092
0.771572 0.917372 0.785061
0.909331 0.928512 0.795102
0.948837 0.92549 0.792569
0.947372 0.923522 0.771801
0.08748 0.134981 0.543282
0.10312 0.130404 0.55668
0.132387 0.121828 0.570718
0.245762 0.111284 0.59527
0.424338 0.108125 0.583688
0.611444 0.132525 0.571496
0.74197 0.180194 0.608118
0.74522 0.198413 0.660243
0.745327 0.207843 0.680507
0.0839399 0.138277 0.545419
0.0870527 0.137774 0.550851
0.116518 0.128862 0.5729
0.234531 0.113313 0.603723
0.426535 0.109773 0.593637
0.617502 0.1355 0.581888
0.739986 0.181613 0.619852
0.742565 0.199115 0.667918
0.741482 0.208789 0.691249
0.0694133 0.159503 0.545129
0.0691234 0.160479 0.550225
0.0856031 0.148272 0.575036
0.202167 0.118853 0.617609
0.440589 0.117372 0.634348
0.628992 0.140764 0.5953
0.741207 0.184634 0.631281
0.745953 0.203571 0.676692
0.769238 0.243565 0.720409
0.0688487 0.245838 0.556527
0.0683452 0.248219 0.561837
0.0696727 0.242618 0.574121
0.0986954 0.203067 0.618173
0.399954 0.132357 0.666362
0.668696 0.162524 0.639017
0.73994 0.186847 0.64268
0.748135 0.20708 0.681682
0.83476 0.33959 0.805097
0.106523 0.511543 0.611566
0.1093 0.520043 0.619928
0.112703 0.523262 0.63032
0.114702 0.512749 0.644022
0.398535 0.513634 0.823789
0.804395 0.427634 0.81384
0.766705 0.214725 0.64863
0.751125 0.206867 0.673198
0.877104 0.403174 0.845838
0.247639 0.737285 0.710964
0.25742 0.746548 0.71928
0.264118 0.751415 0.724498
0.273213 0.755245 0.729732
0.343709 0.775067 0.756024
0.70193 0.761685 0.771817
0.948837 0.727428 0.767941
0.948867 0.539803 0.74548
0.866575 0.358541 0.768231
0.367163 0.875135 0.773144
0.377798 0.876921 0.778042
0.382437 0.878035 0.778302
0.384848 0.879347 0.771634
0.402457 0.885908 0.746822
0.651362 0.903502 0.753262
0.899687 0.921736 0.778271
0.948791 0.914778 0.793469
0.946563 0.904585 0.76733
0.394308 0.885527 0.763058
0.41004 0.88452 0.767941
0.420096 0.885817 0.769924
0.446967 0.891737 0.771649
0.538613 0.898024 0.774472
0.692256 0.909285 0.79118
0.876631 0.926162 0.813901
0.948943 0.927108 0.81651
0.94789 0.929351 0.839673
0.538018 0.91191 0.830579
0.574609 0.905669 0.835843
0.600092 0.904662 0.840146
0.637995 0.908568 0.846998
0.691661 0.914565 0.852781
0.793515 0.922057 0.862257
0.903334 0.931517 0.871138
0.946868 0.932967 0.868482
0.942992 0.932998 0.863996
0.0779431 0.182666 0.619196
0.087129 0.174807 0.627451
0.109026 0.166232 0.643015
0.192096 0.135088 0.664622
0.387594 0.132769 0.698634
0.557351 0.139437 0.676875
0.717815 0.190677 0.700694
0.722667 0.205875 0.729366
0.72546 0.213321 0.737881
0.0763867 0.184665 0.617411
0.0770123 0.185397 0.62118
0.0966964 0.172641 0.638254
0.180514 0.139498 0.66566
0.390555 0.13434 0.702998
0.565362 0.142321 0.681727
0.716396 0.191836 0.706538
0.721279 0.205951 0.730922
0.723262 0.213214 0.740017
0.072694 0.19913 0.615198
0.0724498 0.199924 0.618662
0.0730602 0.200168 0.63389
0.137865 0.16144 0.669078
0.376913 0.13695 0.712184
0.598733 0.158007 0.709361
0.71574 0.194644 0.717372
0.72491 0.20824 0.730922
0.729534 0.218372 0.742351
0.0777142 0.262119 0.622156
0.0776989 0.266835 0.625849
0.0798047 0.271839 0.639216
0.0814984 0.25417 0.655665
0.324788 0.161929 0.726665
0.625238 0.176944 0.731609
0.715862 0.196857 0.722484
0.72874 0.21091 0.731899
0.76318 0.261692 0.773678
0.130526 0.5122 0.699901
0.13315 0.521889 0.70457
0.136355 0.526589 0.713314
0.137041 0.517876 0.725277
0.354253 0.519631 0.882689
0.729641 0.440772 0.928115
0.747189 0.238254 0.753735
0.729412 0.211994 0.732784
0.813703 0.330602 0.823301
0.233829 0.725628 0.769238
0.24126 0.733364 0.773999
0.244953 0.737438 0.778485
0.245014 0.737041 0.781903
0.308659 0.752483 0.826429
0.670848 0.76672 0.937728
0.932921 0.706111 0.936767
0.92813 0.521309 0.928481
0.774334 0.277592 0.785489
0.39202 0.876677 0.854078
0.402945 0.879011 0.856229
0.409155 0.881025 0.858839
0.416861 0.883162 0.861799
0.443671 0.891524 0.871824
0.689616 0.91371 0.908217
0.884138 0.908568 0.914931
0.944823 0.897185 0.910475
0.936812 0.885451 0.914122
0.4318 0.905226 0.866026
0.447288 0.903548 0.867201
0.454871 0.904692 0.869383
0.477928 0.911452 0.877501
0.571466 0.923522 0.894591
0.726207 0.92575 0.904418
0.880201 0.932265 0.915831
0.944335 0.936599 0.917769
0.94313 0.937224 0.926543
0.54165 0.931105 0.908095
0.576684 0.92636 0.908064
0.605417 0.925216 0.909255
0.651133 0.928054 0.91487
0.709621 0.930282 0.919646
0.808072 0.930312 0.922728
0.903151 0.934493 0.92813
0.941634 0.937545 0.92813
0.940459 0.937881 0.928054
0.0762341 0.224567 0.64622
0.0755016 0.219623 0.649058
0.0742809 0.210147 0.648524
0.112337 0.177584 0.668635
0.335271 0.136416 0.710033
0.588769 0.157855 0.71989
0.704067 0.190982 0.721401
0.716701 0.199634 0.725704
0.721721 0.207736 0.733379
0.0758526 0.220981 0.644068
0.0754864 0.221866 0.645548
0.0747387 0.213535 0.649561
0.109606 0.178592 0.66743
0.343069 0.136751 0.711269
0.602441 0.161608 0.720531
0.710338 0.19321 0.721508
0.716121 0.199741 0.726421
0.720043 0.207782 0.735042
0.0773022 0.232151 0.641001
0.0766918 0.233722 0.642649
0.0789044 0.249973 0.653529
0.0759594 0.223102 0.651728
0.301137 0.145006 0.711528
0.60621 0.168688 0.727352
0.7122 0.193729 0.721004
0.718486 0.200092 0.724834
0.724132 0.211551 0.737072
0.0898909 0.327291 0.665217
0.0908675 0.336004 0.669627
0.0988937 0.370138 0.691127
0.10219 0.380896 0.70222
0.33193 0.339498 0.824063
0.618555 0.23331 0.787701
0.718639 0.201419 0.726543
0.719692 0.200534 0.724422
0.729213 0.216464 0.739971
0.146532 0.539178 0.733791
0.149599 0.549905 0.737453
0.156329 0.563989 0.74696
0.159579 0.565362 0.757519
0.315587 0.586892 0.863584
0.69279 0.53312 0.948882
0.850065 0.382254 0.858137
0.721889 0.203891 0.72781
0.741604 0.233082 0.752331
0.245045 0.735592 0.794675
0.252216 0.743389 0.798077
0.257847 0.749325 0.802152
0.259342 0.750118 0.805234
0.317861 0.764004 0.839429
0.654231 0.787015 0.940185
0.91194 0.727367 0.943084
0.946258 0.579599 0.938735
0.736782 0.226719 0.747463
0.384955 0.870466 0.868406
0.396628 0.873869 0.870176
0.402945 0.876219 0.872663
0.41178 0.879881 0.877119
0.433967 0.884688 0.887434
0.672084 0.914672 0.930846
0.872175 0.90663 0.935485
0.939834 0.890669 0.932036
0.932937 0.872923 0.929015
0.44625 0.910552 0.894621
0.459846 0.909346 0.894224
0.468009 0.910384 0.896422
0.489326 0.917845 0.905699
0.580926 0.932219 0.9243
0.733867 0.934173 0.931777
0.877699 0.9355 0.936873
0.94078 0.93785 0.939498
0.941756 0.938262 0.940475
0.540444 0.933883 0.92372
0.573251 0.929381 0.921141
0.603952 0.928847 0.922026
0.651392 0.932052 0.92694
0.707164 0.934401 0.931426
0.802029 0.933837 0.933471
0.898054 0.935332 0.937331
0.940215 0.93814 0.940749
0.944106 0.937682 0.938537
0.0782025 0.242237 0.648646
0.0774853 0.236851 0.650813
0.0765393 0.228733 0.653132
0.0798352 0.199374 0.651911
0.30811 0.138247 0.707729
0.589776 0.162829 0.724453
0.706218 0.190005 0.719326
0.714763 0.196963 0.723674
0.719265 0.204379 0.730999
0.0775464 0.23563 0.647486
0.0772259 0.236805 0.648722
0.0766461 0.229694 0.652888
0.0817731 0.197574 0.653162
0.320485 0.13753 0.708888
0.606165 0.165225 0.723125
0.709804 0.191775 0.719951
0.714412 0.197101 0.72433
0.717906 0.204898 0.733013
0.0795453 0.251804 0.646616
0.0789654 0.254963 0.648219
0.0906386 0.324422 0.679484
0.0865187 0.29955 0.674342
0.306722 0.223285 0.760708
0.585489 0.173175 0.736858
0.712779 0.193668 0.720287
0.716564 0.197559 0.722957
0.719844 0.206134 0.733013
0.0992599 0.373114 0.685817
0.100877 0.384176 0.690669
0.11368 0.4336 0.714641
0.122866 0.464332 0.729641
0.324727 0.457572 0.857542
0.685863 0.375051 0.893126
0.727626 0.212192 0.734646
0.717876 0.197986 0.722408
0.721721 0.207309 0.732845
0.157321 0.565194 0.745312
0.160876 0.577203 0.748882
0.171344 0.597971 0.758618
0.178592 0.609705 0.76791
0.294438 0.646036 0.843046
0.674632 0.618128 0.948913
0.925414 0.513771 0.926787
0.718196 0.199313 0.723842
0.724025 0.210117 0.735332
0.255802 0.749264 0.804547
0.264469 0.757504 0.807492
0.271885 0.764599 0.81146
0.275395 0.767178 0.814832
0.339391 0.784298 0.847486
0.660945 0.814481 0.930465
0.900694 0.761654 0.940032
0.948898 0.643381 0.939925
0.7346 0.223697 0.745007
0.383871 0.87216 0.870329
0.396002 0.874434 0.871031
0.404852 0.877241 0.873274
0.417639 0.881163 0.877791
0.451499 0.889891 0.89131
0.699458 0.916014 0.929778
0.872648 0.910521 0.935439
0.940108 0.896696 0.93341
0.933562 0.880507 0.930114
0.458259 0.91313 0.90013
0.472786 0.912657 0.899992
0.491646 0.915297 0.903365
0.528023 0.921813 0.911604
0.613519 0.928618 0.922225
0.751156 0.931884 0.930449
0.879179 0.935271 0.938018
0.940154 0.938003 0.939803
0.94229 0.93814 0.939986
0.533562 0.935149 0.924681
0.572 0.929595 0.921294
0.60679 0.928512 0.921843
0.660288 0.930205 0.925612
0.721614 0.93109 0.928634
0.810681 0.931991 0.93254
0.897475 0.935378 0.938674
0.937804 0.938247 0.94229
0.945632 0.937346 0.937072
