bundles/resolve-cinematic-luts/Phantom Luts/A7s3 Phntm Arri LUTs G7/ATOMOS Monitoring LUTs/Slog3/IceBlue A7s3-Legacy AML.cube
TITLE "Generated by Resolve"
LUT_3D_SIZE 5
0.0900282 0.100633 0.102419
0.13106 0.100343 0.104143
0.431052 0.104128 0.148302
0.727901 0.157214 0.321401
0.777905 0.205081 0.528511
0.0929427 0.152331 0.117922
0.135225 0.150652 0.108583
0.440406 0.0971237 0.118135
0.725734 0.157031 0.313146
0.773007 0.197177 0.498024
0.0938735 0.519066 0.231617
0.102266 0.533608 0.209247
0.530465 0.567681 0.155062
0.833509 0.414755 0.291081
0.818387 0.261616 0.472206
0.304997 0.846937 0.519951
0.312383 0.848341 0.508003
0.395727 0.853101 0.391394
0.923491 0.898512 0.47512
0.936767 0.896376 0.469215
0.518944 0.890135 0.665064
0.514961 0.89134 0.655009
0.633921 0.900572 0.689448
0.922087 0.922744 0.732265
0.946471 0.923888 0.767803
0.0875868 0.102449 0.143481
0.130709 0.101381 0.143587
0.438315 0.100725 0.189471
0.734508 0.158251 0.357153
0.780575 0.212131 0.554711
0.0897536 0.149401 0.154665
0.128603 0.147005 0.159731
0.457679 0.104051 0.161868
0.733745 0.159319 0.345586
0.811719 0.253208 0.602228
0.092668 0.520912 0.266987
0.0990921 0.533608 0.246998
0.513649 0.560922 0.156283
0.824079 0.392447 0.283543
0.852064 0.302663 0.591485
0.307332 0.849302 0.535988
0.312261 0.850538 0.526772
0.387533 0.854917 0.410147
0.923949 0.89868 0.476509
0.936873 0.896391 0.468849
0.52079 0.891066 0.673121
0.532357 0.893492 0.675563
0.636973 0.901015 0.699214
0.919173 0.924239 0.737194
0.946441 0.923934 0.767773
0.0808118 0.116106 0.393957
0.131441 0.105333 0.418097
0.443076 0.103975 0.408347
0.752728 0.172488 0.49218
0.787732 0.232105 0.62208
0.068925 0.13373 0.414786
0.0796063 0.122927 0.459785
0.478401 0.106722 0.455436
0.756405 0.175647 0.501472
0.822721 0.28307 0.68278
0.103807 0.516838 0.485191
0.1093 0.531273 0.502205
0.474128 0.52961 0.534478
0.807218 0.251453 0.436377
0.897292 0.39794 0.77377
0.324269 0.859953 0.642985
0.332952 0.860883 0.640589
0.378759 0.870512 0.566415
0.916091 0.91043 0.586313
0.945647 0.904326 0.514366
0.527977 0.895354 0.732097
0.551369 0.897963 0.744228
0.658137 0.906783 0.770092
0.909331 0.928512 0.795102
0.947372 0.923522 0.771801
0.0779431 0.182666 0.619196
0.109026 0.166232 0.643015
0.387594 0.132769 0.698634
0.717815 0.190677 0.700694
0.72546 0.213321 0.737881
0.072694 0.19913 0.615198
0.0730602 0.200168 0.63389
0.376913 0.13695 0.712184
0.71574 0.194644 0.717372
0.729534 0.218372 0.742351
0.130526 0.5122 0.699901
0.136355 0.526589 0.713314
0.354253 0.519631 0.882689
0.747189 0.238254 0.753735
0.813703 0.330602 0.823301
0.39202 0.876677 0.854078
0.409155 0.881025 0.858839
0.443671 0.891524 0.871824
0.884138 0.908568 0.914931
0.936812 0.885451 0.914122
0.54165 0.931105 0.908095
0.605417 0.925216 0.909255
0.709621 0.930282 0.919646
0.903151 0.934493 0.92813
0.940459 0.937881 0.928054
0.0782025 0.242237 0.648646
0.0765393 0.228733 0.653132
0.30811 0.138247 0.707729
0.706218 0.190005 0.719326
0.719265 0.204379 0.730999
0.0795453 0.251804 0.646616
0.0906386 0.324422 0.679484
0.306722 0.223285 0.760708
0.712779 0.193668 0.720287
0.719844 0.206134 0.733013
0.157321 0.565194 0.745312
0.171344 0.597971 0.758618
0.294438 0.646036 0.843046
0.925414 0.513771 0.926787
0.724025 0.210117 0.735332
0.383871 0.87216 0.870329
0.404852 0.877241 0.873274
0.451499 0.889891 0.89131
0.872648 0.910521 0.935439
0.933562 0.880507 0.930114
0.533562 0.935149 0.924681
0.60679 0.928512 0.921843
0.721614 0.93109 0.928634
0.897475 0.935378 0.938674
0.945632 0.937346 0.937072
