bundles/resolve-cinematic-luts/Phantom Luts/A7s3 Phntm Arri LUTs G7/ATOMOS Monitoring LUTs/Slog3/IceBlue A7s3 AML.cube
TITLE "Generated by Resolve"
LUT_3D_SIZE 9
0.0799878 0.0910201 0.0900282
0.0839246 0.0910658 0.0910201
0.14287 0.0919661 0.0978866
0.29279 0.0920577 0.11397
0.490349 0.0962844 0.159487
0.643442 0.12369 0.248768
0.743145 0.165026 0.361059
0.772396 0.192905 0.493416
0.78204 0.217105 0.583093
0.0807965 0.096849 0.0925154
0.0859998 0.0971389 0.0924239
0.135058 0.0944228 0.0964981
0.294209 0.0917372 0.111269
0.497383 0.0973068 0.158831
0.647547 0.125414 0.248264
0.741817 0.163699 0.358038
0.771206 0.191257 0.480308
0.772625 0.202167 0.557855
0.0811475 0.174945 0.115251
0.0848707 0.173938 0.105333
0.153384 0.171847 0.101442
0.328099 0.132143 0.10164
0.490181 0.0898604 0.109392
0.648081 0.129763 0.229603
0.738186 0.161028 0.349447
0.771435 0.191745 0.475105
0.778241 0.207568 0.55433
0.0732586 0.346334 0.154009
0.0724498 0.352483 0.140932
0.0821698 0.354391 0.0982071
0.325154 0.354543 0.0895705
0.620264 0.301183 0.163378
0.663645 0.17995 0.168841
0.729793 0.164324 0.298711
0.770642 0.192569 0.449821
0.792309 0.224567 0.55407
0.0948196 0.565469 0.270924
0.0998093 0.573007 0.266636
0.107713 0.578775 0.242222
0.187274 0.588144 0.149523
0.583246 0.613855 0.176883
0.834195 0.613733 0.297368
0.851392 0.472496 0.30219
0.764858 0.212497 0.33196
0.83827 0.287282 0.533562
0.233448 0.778317 0.463218
0.240818 0.783444 0.460273
0.250309 0.787228 0.4495
0.274281 0.790906 0.396338
0.565927 0.811093 0.299351
0.826917 0.847593 0.393545
0.920241 0.842756 0.424231
0.884153 0.768078 0.341573
0.871351 0.583429 0.318425
0.311696 0.846922 0.554009
0.313207 0.848249 0.548745
0.318135 0.849104 0.539651
0.330785 0.849897 0.508522
0.418387 0.854856 0.40415
0.758495 0.885252 0.421271
0.925307 0.901152 0.493919
0.944503 0.903441 0.504997
0.940429 0.89984 0.48719
0.371984 0.866712 0.603723
0.370138 0.867018 0.599222
0.381216 0.868925 0.596521
0.410239 0.872847 0.58555
0.524269 0.881788 0.590906
0.735119 0.898329 0.627543
0.908293 0.916945 0.656672
0.948775 0.916426 0.679026
0.948806 0.921843 0.72639
0.578012 0.894163 0.718868
0.567468 0.89366 0.70927
0.573129 0.894911 0.70811
0.611017 0.897887 0.717464
0.694987 0.906798 0.745342
0.836316 0.919707 0.771282
0.927199 0.929686 0.785931
0.948882 0.928008 0.787778
0.947021 0.93109 0.815686
0.0796521 0.091249 0.0941482
0.0843824 0.0911727 0.094667
0.14284 0.0909743 0.112779
0.291035 0.0905318 0.134997
0.494362 0.0944533 0.18204
0.649454 0.121675 0.276722
0.748119 0.168353 0.38941
0.769787 0.19321 0.516075
0.784649 0.225528 0.602991
0.0803235 0.0967575 0.0955978
0.0849165 0.0970474 0.0976272
0.154147 0.0942855 0.104662
0.308385 0.0912337 0.121691
0.505699 0.0963302 0.175967
0.654459 0.125002 0.268193
0.745464 0.165698 0.382712
0.769863 0.192737 0.509285
0.781857 0.22092 0.594812
0.0809491 0.176669 0.135332
0.0810101 0.179706 0.117174
0.150729 0.172625 0.103288
0.336324 0.128069 0.105913
0.503304 0.0926986 0.132876
0.655055 0.130053 0.243336
0.742641 0.16408 0.365957
0.772396 0.193774 0.498299
0.793912 0.233753 0.598749
0.0734264 0.34873 0.171939
0.0726635 0.355779 0.157595
0.0763409 0.357458 0.109239
0.323339 0.356115 0.0906233
0.624796 0.298375 0.168307
0.655756 0.159564 0.16553
0.732601 0.163302 0.313954
0.774395 0.196262 0.476753
0.814206 0.258442 0.607828
0.0941482 0.567895 0.28603
0.0995193 0.577035 0.280781
0.106981 0.581872 0.257572
0.169253 0.589761 0.158862
0.581872 0.615717 0.178378
0.839567 0.614038 0.302861
0.847578 0.461463 0.298848
0.790692 0.240436 0.382742
0.857221 0.314336 0.60679
0.233677 0.779721 0.473472
0.241382 0.786938 0.472175
0.250111 0.790555 0.461967
0.273503 0.79353 0.407324
0.554665 0.81268 0.302296
0.828672 0.849912 0.396094
0.920851 0.843915 0.426017
0.881514 0.759045 0.339178
0.871244 0.581735 0.318547
0.313176 0.847868 0.560876
0.313817 0.848676 0.556649
0.31873 0.84947 0.548348
0.330251 0.85066 0.517433
0.411337 0.855253 0.411414
0.756481 0.885466 0.42356
0.925597 0.90132 0.494713
0.944762 0.903441 0.505302
0.940536 0.899886 0.486778
0.376638 0.868177 0.609613
0.379721 0.869963 0.607752
0.389624 0.871138 0.605417
0.419211 0.874723 0.595666
0.52958 0.882856 0.601434
0.736294 0.899168 0.635081
0.908476 0.917327 0.661814
0.948775 0.916548 0.6813
0.948806 0.922057 0.726848
0.581369 0.894392 0.722423
0.578988 0.895659 0.72015
0.584161 0.896193 0.717876
0.617075 0.899077 0.724117
0.696803 0.907073 0.748577
0.835508 0.919753 0.772564
0.926543 0.929732 0.787167
0.948898 0.927993 0.788281
0.946548 0.930938 0.818631
0.0777905 0.0933547 0.153475
0.0930343 0.0920272 0.152941
0.143618 0.0914778 0.15433
0.297414 0.0888685 0.18262
0.498451 0.0912795 0.216114
0.656626 0.122454 0.301335
0.751568 0.171405 0.40444
0.769863 0.193774 0.523857
0.785031 0.227131 0.608774
0.0764782 0.0987869 0.140002
0.0780346 0.0948196 0.160754
0.149935 0.0916915 0.164309
0.309422 0.0885939 0.17348
0.508049 0.092546 0.21178
0.660227 0.124315 0.293538
0.75169 0.172351 0.400198
0.769543 0.193103 0.518288
0.782422 0.222889 0.601434
0.0782177 0.170413 0.172549
0.0781262 0.174456 0.176425
0.144183 0.166812 0.180041
0.361257 0.129931 0.173632
0.513512 0.0980087 0.177447
0.662837 0.128267 0.271885
0.751598 0.172763 0.391928
0.775082 0.198978 0.52813
0.821103 0.278157 0.660151
0.0735485 0.349142 0.21709
0.0729839 0.355917 0.205783
0.0758068 0.35436 0.171191
0.316152 0.354894 0.123049
0.60174 0.290913 0.180301
0.670954 0.147646 0.205051
0.73872 0.16434 0.341405
0.780026 0.203708 0.511635
0.838056 0.298283 0.667216
0.0915389 0.567452 0.314321
0.0956741 0.576288 0.309438
0.10277 0.579385 0.288212
0.133837 0.582116 0.191791
0.565957 0.608072 0.177279
0.841459 0.604959 0.31043
0.843885 0.449805 0.295674
0.801434 0.244129 0.431876
0.869291 0.335836 0.653178
0.231724 0.778302 0.486091
0.239353 0.785519 0.486595
0.246906 0.789197 0.477714
0.266651 0.792004 0.429786
0.521324 0.810697 0.307332
0.822003 0.847257 0.394308
0.921874 0.841306 0.43064
0.88069 0.754665 0.337789
0.871077 0.577661 0.318166
0.315831 0.84889 0.57171
0.316625 0.849958 0.568872
0.320562 0.850752 0.561196
0.330755 0.852125 0.530922
0.407309 0.856931 0.426261
0.750515 0.885695 0.428672
0.925399 0.901305 0.495583
0.945144 0.903761 0.510307
0.940459 0.899855 0.487312
0.37908 0.869017 0.617182
0.382696 0.870848 0.616342
0.394446 0.87187 0.614755
0.422599 0.875608 0.605203
0.53109 0.883543 0.61088
0.735363 0.899702 0.641947
0.908125 0.917754 0.666972
0.948775 0.91635 0.680919
0.948806 0.921874 0.727581
0.582773 0.894041 0.727504
0.577615 0.89662 0.725307
0.593408 0.897551 0.729671
0.625635 0.899535 0.735622
0.698116 0.907164 0.754376
0.831922 0.919829 0.776669
0.924773 0.929885 0.790707
0.948898 0.928008 0.788678
0.946395 0.93106 0.818173
0.0754406 0.0969406 0.275074
0.08925 0.0937057 0.279484
0.154955 0.0899062 0.285939
0.299046 0.0891737 0.283146
0.507454 0.0912337 0.314427
0.668757 0.128008 0.367529
0.757443 0.175555 0.44773
0.76968 0.195727 0.545541
0.785779 0.231571 0.624735
0.0699474 0.100206 0.275273
0.0739452 0.0979782 0.290517
0.143023 0.0905318 0.309438
0.312032 0.0889296 0.299947
0.519142 0.0923323 0.322072
0.676295 0.130907 0.3664
0.75819 0.176516 0.449241
0.769589 0.195331 0.542992
0.783856 0.22884 0.620859
0.0650645 0.166461 0.286046
0.0637522 0.165682 0.302586
0.0951858 0.136446 0.35346
0.338476 0.0989395 0.337224
0.527596 0.0936599 0.313603
0.681117 0.133593 0.351202
0.760525 0.179446 0.445182
0.774746 0.201404 0.5523
0.823499 0.285801 0.679133
0.0707713 0.342657 0.319814
0.0699626 0.350881 0.327047
0.0729992 0.351003 0.330755
0.308019 0.351843 0.355489
0.617441 0.280903 0.33138
0.687282 0.140597 0.295933
0.757458 0.178882 0.4065
0.789349 0.22002 0.565148
0.871473 0.361288 0.750576
0.0960555 0.569696 0.39942
0.100084 0.578988 0.402152
0.106142 0.581842 0.388083
0.121538 0.576699 0.314748
0.543709 0.602029 0.279194
0.841779 0.579995 0.353719
0.826474 0.372427 0.303822
0.814084 0.251713 0.511879
0.892515 0.384115 0.735912
0.2336 0.777188 0.532067
0.241032 0.783459 0.533364
0.248219 0.787488 0.524697
0.259632 0.790921 0.4878
0.392615 0.807752 0.354772
0.800122 0.8392 0.393637
0.924529 0.831083 0.44271
0.878248 0.741207 0.333989
0.891585 0.485512 0.389761
0.322057 0.852201 0.600992
0.32369 0.853223 0.599634
0.327947 0.853742 0.594339
0.336263 0.855451 0.57084
0.39675 0.861494 0.483543
0.732723 0.889052 0.470771
0.923506 0.902754 0.512718
0.94873 0.90605 0.535302
0.940368 0.899794 0.486931
0.384192 0.870665 0.636683
0.389441 0.872236 0.637278
0.398703 0.874327 0.636957
0.432776 0.877348 0.632303
0.5355 0.885222 0.635462
0.731762 0.901579 0.660685
0.90692 0.919036 0.685664
0.948775 0.915801 0.681605
0.948684 0.922301 0.73756
0.580301 0.895689 0.740063
0.583139 0.896757 0.742336
0.597192 0.898512 0.748302
0.642512 0.901747 0.761273
0.703212 0.908873 0.771466
0.82414 0.920607 0.789899
0.922011 0.930663 0.802518
0.948898 0.928466 0.796735
0.94696 0.930983 0.818082
0.0763714 0.103532 0.439536
0.092256 0.098558 0.451286
0.148989 0.0924544 0.474022
0.305287 0.0898756 0.474113
0.49604 0.0965438 0.462196
0.66923 0.131319 0.481132
0.752804 0.176242 0.54583
0.764233 0.199695 0.599084
0.791379 0.251301 0.672618
0.0722057 0.106111 0.44535
0.0770886 0.104738 0.455146
0.133211 0.0937819 0.48539
0.307439 0.0904402 0.494759
0.505425 0.0986191 0.477317
0.676966 0.13463 0.489799
0.752773 0.17763 0.554314
0.763165 0.199527 0.602975
0.787442 0.24683 0.671992
0.0614328 0.139406 0.457725
0.0609751 0.139574 0.468467
0.0778363 0.110277 0.491096
0.291203 0.09337 0.539437
0.522866 0.104158 0.506004
0.685939 0.137835 0.490425
0.756222 0.180117 0.555993
0.7691 0.206531 0.611719
0.833173 0.31249 0.73138
0.066331 0.329 0.480278
0.0666056 0.333272 0.492576
0.0669566 0.325567 0.508095
0.197681 0.278401 0.607965
0.578119 0.182803 0.586389
0.706249 0.148257 0.497353
0.758221 0.180804 0.547082
0.787961 0.23154 0.632013
0.882597 0.391211 0.795804
0.112016 0.565438 0.537011
0.116426 0.575189 0.546609
0.120455 0.578759 0.551705
0.135225 0.578836 0.555856
0.525597 0.580941 0.588098
0.862852 0.535332 0.579278
0.829557 0.276921 0.494972
0.811032 0.255787 0.617609
0.911986 0.440345 0.815885
0.246921 0.775219 0.634318
0.254719 0.782086 0.638468
0.260716 0.786404 0.63714
0.270176 0.789273 0.618891
0.379171 0.802899 0.547448
0.760021 0.822766 0.571511
0.940978 0.807797 0.595193
0.92932 0.682673 0.464042
0.939193 0.473274 0.63241
0.338537 0.862303 0.681514
0.343923 0.862699 0.682918
0.348165 0.863401 0.679118
0.35581 0.864408 0.660136
0.404898 0.872297 0.605249
0.691478 0.895277 0.616861
0.921447 0.914153 0.642557
0.948913 0.912856 0.648875
0.947997 0.906447 0.544656
0.393576 0.876371 0.686107
0.403922 0.877379 0.690303
0.415167 0.878706 0.69102
0.451591 0.882567 0.690974
0.557839 0.889494 0.700999
0.723857 0.906218 0.725155
0.903365 0.923522 0.746853
0.948837 0.921889 0.741039
0.948806 0.925505 0.768704
0.584848 0.899809 0.777554
0.594247 0.900435 0.783032
0.611673 0.901732 0.788952
0.653147 0.906767 0.801907
0.719295 0.911925 0.812863
0.818692 0.92314 0.8271
0.918151 0.93283 0.837491
0.948501 0.931884 0.836439
0.947433 0.930587 0.82208
0.0902419 0.120684 0.558816
0.111376 0.113771 0.572076
0.152941 0.105211 0.587182
0.28957 0.104341 0.618784
0.460807 0.105531 0.608759
0.638346 0.140795 0.605936
0.735622 0.1841 0.646281
0.742992 0.205585 0.687877
0.745205 0.217426 0.706676
0.0849622 0.124117 0.559075
0.0897231 0.123064 0.565011
0.130724 0.110369 0.586587
0.277607 0.106157 0.625895
0.462486 0.107271 0.617533
0.644053 0.144213 0.615503
0.734401 0.185946 0.655085
0.740154 0.206043 0.693812
0.741405 0.217945 0.714595
0.0673075 0.163775 0.563119
0.0665599 0.163394 0.566506
0.0879072 0.133577 0.587091
0.242298 0.11017 0.636683
0.475013 0.115557 0.651789
0.653407 0.149691 0.627802
0.73608 0.188327 0.662516
0.744945 0.211093 0.700023
0.775586 0.261158 0.745418
0.0759594 0.28986 0.597681
0.0758221 0.292195 0.602121
0.0771191 0.283742 0.612985
0.11165 0.223926 0.652323
0.447272 0.137224 0.689937
0.685603 0.172137 0.66656
0.735439 0.190677 0.670756
0.748119 0.215442 0.704204
0.853666 0.373739 0.830365
0.129183 0.563348 0.651911
0.132631 0.570871 0.659098
0.135988 0.574166 0.668284
0.135561 0.564355 0.677775
0.454047 0.566491 0.855238
0.836515 0.477012 0.844205
0.76704 0.226947 0.685252
0.75082 0.215885 0.699107
0.896269 0.443381 0.868864
0.272267 0.76672 0.742962
0.281743 0.774044 0.749752
0.289311 0.778302 0.754269
0.301946 0.783337 0.760464
0.386343 0.806455 0.7897
0.746639 0.794827 0.803525
0.936858 0.766842 0.799832
0.948928 0.587289 0.786374
0.882063 0.396612 0.808316
0.381506 0.875654 0.798077
0.392493 0.876905 0.801465
0.398642 0.87834 0.802136
0.405081 0.880613 0.798444
0.434302 0.889021 0.782071
0.712001 0.905425 0.799603
0.90782 0.920714 0.819715
0.948028 0.916945 0.832181
0.944152 0.909041 0.811017
0.421149 0.890562 0.794659
0.440146 0.888716 0.798428
0.453086 0.889494 0.800412
0.489845 0.894453 0.803677
0.598703 0.900465 0.811154
0.751431 0.914336 0.829938
0.89546 0.930724 0.850324
0.948959 0.932784 0.85301
0.948486 0.934615 0.872618
0.588891 0.913832 0.852857
0.624949 0.907713 0.856413
0.651087 0.906859 0.859815
0.69192 0.910689 0.866728
0.747066 0.917189 0.873793
0.835172 0.925948 0.882994
0.913878 0.935302 0.891508
0.944381 0.936736 0.892042
0.944579 0.937285 0.890288
0.0745098 0.171099 0.623102
0.0869917 0.154055 0.629694
0.118898 0.140856 0.646174
0.232502 0.119158 0.671275
0.433188 0.126055 0.700984
0.585946 0.135805 0.680262
0.71545 0.190387 0.7093
0.725048 0.208606 0.732067
0.729366 0.218219 0.741955
0.0732738 0.176944 0.623407
0.0725872 0.173617 0.624048
0.100618 0.149248 0.640711
0.2177 0.119219 0.668971
0.436393 0.127016 0.70396
0.593606 0.137575 0.683345
0.714748 0.191318 0.713237
0.723507 0.20853 0.733486
0.727733 0.217899 0.743267
0.0739757 0.208621 0.632532
0.0734264 0.208331 0.634607
0.073167 0.201877 0.642405
0.158755 0.128756 0.664469
0.42504 0.12845 0.710353
0.625559 0.153384 0.705379
0.715496 0.193713 0.719387
0.728176 0.211872 0.73431
0.734157 0.224796 0.746838
0.0855421 0.30277 0.653864
0.0858625 0.309163 0.657328
0.0877394 0.31342 0.667887
0.0857557 0.282902 0.673915
0.386297 0.168811 0.743603
0.655329 0.180514 0.729885
0.716762 0.19646 0.72311
0.731731 0.215122 0.73518
0.774807 0.279103 0.784955
0.147463 0.564584 0.719432
0.150835 0.573587 0.723186
0.154009 0.57821 0.729625
0.153536 0.570306 0.738018
0.404685 0.57377 0.907301
0.781353 0.486503 0.937743
0.754849 0.248844 0.760723
0.733227 0.21677 0.736538
0.832914 0.360265 0.84155
0.25388 0.754925 0.78349
0.261784 0.761074 0.78706
0.265034 0.76434 0.789944
0.264805 0.763973 0.792416
0.34548 0.786358 0.840452
0.716716 0.795789 0.92314
0.923735 0.746807 0.922637
0.938308 0.565988 0.929885
0.788464 0.297566 0.798138
0.398779 0.87657 0.856535
0.409766 0.878325 0.858076
0.41619 0.880156 0.860075
0.426154 0.883024 0.863966
0.461769 0.892744 0.875547
0.72961 0.910323 0.906569
0.89482 0.909361 0.914351
0.943389 0.90248 0.910063
0.935958 0.894087 0.912779
0.447471 0.906676 0.872648
0.464439 0.904219 0.872679
0.473655 0.905104 0.874449
0.50251 0.912322 0.882795
0.614679 0.921279 0.897185
0.769924 0.925429 0.907729
0.897429 0.935149 0.92076
0.943053 0.938674 0.922744
0.945388 0.938811 0.929473
0.580621 0.928496 0.907286
0.618326 0.92343 0.906661
0.64712 0.921889 0.907362
0.692683 0.924804 0.912352
0.751232 0.927596 0.917357
0.841764 0.930449 0.922545
0.913237 0.937179 0.929458
0.939803 0.939757 0.930343
0.94548 0.939406 0.929671
0.078645 0.239643 0.659815
0.0772259 0.230625 0.659068
0.0746014 0.213611 0.655085
0.122545 0.146136 0.663996
0.385214 0.126955 0.709331
0.618509 0.151537 0.710582
0.706264 0.188647 0.720714
0.718242 0.200504 0.727382
0.725063 0.211276 0.736568
0.0778668 0.234012 0.656977
0.0774853 0.234714 0.658076
0.0755474 0.219348 0.656641
0.118303 0.147631 0.662531
0.392432 0.127321 0.710033
0.629099 0.155489 0.711666
0.71014 0.190829 0.721279
0.717647 0.200656 0.72813
0.723186 0.211292 0.738186
0.0806134 0.25214 0.658946
0.0798505 0.253803 0.66041
0.0834974 0.276188 0.671595
0.0776379 0.23476 0.66157
0.356435 0.141588 0.720409
0.638315 0.169665 0.723644
0.712154 0.191638 0.720638
0.720165 0.20119 0.726543
0.727626 0.215625 0.740047
0.100771 0.378119 0.691371
0.101991 0.387747 0.694514
0.110674 0.421988 0.710964
0.113817 0.43125 0.718532
0.393591 0.384222 0.861631
0.670359 0.254292 0.795758
0.720958 0.202716 0.728283
0.721614 0.201724 0.726162
0.73344 0.222461 0.744121
0.163088 0.590204 0.744549
0.167315 0.600168 0.747921
0.174334 0.612863 0.754604
0.177218 0.61442 0.762188
0.354879 0.641535 0.878187
0.741787 0.580346 0.948989
0.871809 0.417823 0.877211
0.724529 0.2056 0.728786
0.74873 0.243488 0.759213
0.26247 0.762463 0.801434
0.269184 0.768429 0.803571
0.274189 0.773083 0.807065
0.275502 0.773663 0.809354
0.353475 0.795666 0.851682
0.703838 0.813016 0.927993
0.905623 0.76669 0.93228
0.940841 0.626078 0.93135
0.743008 0.23534 0.753384
0.387869 0.869718 0.86482
0.399405 0.87248 0.86656
0.406439 0.874815 0.868986
0.417945 0.879179 0.874479
0.447944 0.887098 0.887526
0.712505 0.911147 0.927428
0.884703 0.907881 0.933593
0.941176 0.898054 0.92845
0.932647 0.885298 0.927077
0.459449 0.910384 0.893874
0.473899 0.908782 0.89305
0.483955 0.910079 0.895476
0.510414 0.917662 0.90518
0.622614 0.929335 0.92221
0.775402 0.931884 0.929671
0.895094 0.935332 0.936782
0.940581 0.936553 0.937987
0.948684 0.936736 0.936706
0.579736 0.93196 0.922103
0.61471 0.926986 0.919951
0.645945 0.926253 0.92076
0.69369 0.929259 0.925826
0.748943 0.932357 0.93077
0.837781 0.933593 0.933913
0.910369 0.937896 0.939284
0.938659 0.939971 0.941787
0.948699 0.938689 0.938033
0.0821546 0.265599 0.666468
0.0806744 0.256672 0.666133
0.078584 0.243198 0.664424
0.0774243 0.187869 0.650584
0.357778 0.127657 0.708034
0.62295 0.160342 0.71812
0.706493 0.186618 0.718364
0.714992 0.196628 0.725216
0.720897 0.206256 0.733272
0.0809796 0.256046 0.664134
0.0805676 0.257176 0.664927
0.0789502 0.244785 0.66479
0.0806744 0.18294 0.651102
0.369451 0.126238 0.707759
0.636759 0.164431 0.718196
0.709285 0.188861 0.719707
0.714977 0.19678 0.725444
0.720363 0.206744 0.734432
0.0849317 0.281788 0.668162
0.0847028 0.286458 0.670176
0.100343 0.373114 0.700267
0.0951095 0.343359 0.694087
0.37293 0.249775 0.792065
0.628077 0.17966 0.736294
0.712642 0.19147 0.719921
0.717525 0.197482 0.72398
0.722545 0.208652 0.735119
0.11162 0.425147 0.707759
0.113588 0.436194 0.711513
0.127047 0.483299 0.729778
0.136843 0.513039 0.741222
0.377005 0.511543 0.888975
0.745815 0.4177 0.90956
0.731426 0.216953 0.738201
0.719005 0.198276 0.723369
0.724956 0.210773 0.736095
0.175143 0.614191 0.753872
0.180514 0.625055 0.756985
0.191836 0.643732 0.76463
0.199039 0.65449 0.772152
0.326009 0.694484 0.850675
0.720867 0.661173 0.945418
0.933822 0.55935 0.933486
0.720531 0.200076 0.724514
0.727291 0.214069 0.738048
0.271519 0.773007 0.809018
0.279576 0.779263 0.810681
0.286198 0.784558 0.813886
0.288975 0.786847 0.816434
0.374014 0.811963 0.85861
0.710185 0.83444 0.920485
0.89749 0.796521 0.929808
0.939315 0.687816 0.929671
0.739437 0.23064 0.750072
0.384909 0.87013 0.865965
0.397574 0.872526 0.86743
0.407889 0.875196 0.870176
0.424094 0.880339 0.876173
0.468391 0.891524 0.892317
0.737484 0.912093 0.92665
0.885618 0.911437 0.934539
0.940002 0.902678 0.931777
0.933074 0.890761 0.928908
0.473365 0.912993 0.900282
0.490303 0.912474 0.900862
0.513848 0.915221 0.904692
0.56054 0.92108 0.912459
0.654902 0.926207 0.92134
0.790524 0.930663 0.930938
0.89572 0.935439 0.939803
0.937713 0.937041 0.941085
0.948562 0.935775 0.937057
0.568444 0.934798 0.925246
0.61387 0.927306 0.920699
0.6486 0.926268 0.921126
0.701534 0.927764 0.924804
0.761868 0.929549 0.928573
0.843961 0.93257 0.934249
0.909895 0.938109 0.941527
0.936706 0.940337 0.943816
0.948135 0.939559 0.939467
