bundles/resolve-cinematic-luts/Phantom Luts/A7s3 Phntm Arri LUTs G7/ATOMOS Monitoring LUTs/Slog3/IceBlue A7s3-Legacy AML.cube
TITLE "Generated by Resolve"
LUT_3D_SIZE 33
0.0900282 0.100633 0.102419
0.0900435 0.100633 0.102403
0.0900435 0.100633 0.102388
0.090074 0.100649 0.102312
0.0919814 0.100664 0.102815
0.096849 0.100496 0.103914
0.103899 0.100298 0.103517
0.115846 0.100572 0.103639
0.13106 0.100343 0.104143
0.149462 0.100221 0.106172
0.173358 0.100008 0.108553
0.203952 0.100587 0.112169
0.238987 0.101396 0.115953
0.278599 0.101991 0.11902
0.327535 0.102571 0.126177
0.379416 0.103075 0.136538
0.431052 0.104128 0.148302
0.482475 0.105653 0.161669
0.528557 0.108446 0.177783
0.570794 0.11339 0.196506
0.610803 0.120943 0.218921
0.649516 0.130999 0.244434
0.686046 0.14284 0.271427
0.714412 0.152377 0.297719
0.727901 0.157214 0.321401
0.736431 0.162387 0.346151
0.747936 0.172686 0.374075
0.758114 0.181292 0.404532
0.763958 0.185824 0.433555
0.76762 0.188602 0.46128
0.771527 0.193484 0.486336
0.775341 0.199939 0.50988
0.777905 0.205081 0.528511
0.0901503 0.100542 0.102098
0.0900893 0.100587 0.102251
0.090074 0.100618 0.102342
0.0900587 0.100649 0.102327
0.0920119 0.100725 0.102953
0.0969711 0.100526 0.104158
0.104631 0.100313 0.103685
0.117189 0.100633 0.104112
0.132799 0.100252 0.104463
0.152163 0.100191 0.106661
0.177768 0.100114 0.109407
0.209201 0.100755 0.113405
0.245136 0.101549 0.116701
0.286061 0.102174 0.120363
0.335592 0.102754 0.12813
0.387411 0.10312 0.138354
0.439338 0.104311 0.150408
0.4907 0.106142 0.164065
0.534997 0.109194 0.180179
0.575891 0.114321 0.198947
0.614908 0.121874 0.221454
0.653605 0.132433 0.246937
0.690105 0.144259 0.273976
0.717861 0.153826 0.300252
0.728191 0.15729 0.322301
0.736461 0.162264 0.346502
0.747829 0.17258 0.374014
0.758328 0.181827 0.403632
0.763622 0.18558 0.431815
0.767208 0.188342 0.458183
0.768658 0.190127 0.479622
0.769848 0.192889 0.499763
0.7738 0.199725 0.519829
0.0901503 0.100526 0.102098
0.0900893 0.100587 0.102251
0.090074 0.100618 0.102342
0.0900587 0.100633 0.102312
0.0914015 0.100694 0.102647
0.095491 0.100649 0.103853
0.102327 0.100435 0.103822
0.114076 0.100542 0.103883
0.129763 0.100404 0.10428
0.149279 0.10016 0.106188
0.17464 0.100023 0.108797
0.207843 0.100618 0.113115
0.24477 0.101503 0.11693
0.287083 0.102144 0.120638
0.337682 0.102739 0.128618
0.389563 0.103227 0.138735
0.441001 0.104448 0.150698
0.49189 0.106294 0.164324
0.536324 0.109377 0.180423
0.576837 0.114519 0.199115
0.615549 0.122072 0.221668
0.654261 0.132616 0.247227
0.690684 0.144503 0.274144
0.718685 0.154192 0.300145
0.728023 0.157214 0.321675
0.736065 0.161868 0.345388
0.747173 0.171939 0.372259
0.757778 0.181552 0.400671
0.762951 0.185138 0.427634
0.766567 0.187793 0.453422
0.767926 0.189349 0.473838
0.768429 0.190936 0.492821
0.771008 0.195621 0.510582
0.090135 0.100649 0.102113
0.090074 0.100725 0.102281
0.0900893 0.100725 0.102358
0.0900893 0.10074 0.102373
0.0908675 0.100893 0.102556
0.0937667 0.100923 0.103304
0.0991073 0.100511 0.103822
0.109285 0.100526 0.103319
0.125338 0.100679 0.104219
0.144442 0.100191 0.105501
0.169574 0.0999161 0.107927
0.202808 0.100465 0.112245
0.24184 0.10132 0.116976
0.284566 0.102037 0.120851
0.335546 0.102647 0.128328
0.388678 0.103151 0.13843
0.440009 0.104372 0.150164
0.490867 0.106203 0.163607
0.53521 0.109331 0.179522
0.575967 0.114443 0.198428
0.614878 0.121965 0.22089
0.653819 0.13257 0.246677
0.689601 0.144183 0.273228
0.718944 0.154406 0.299153
0.727581 0.157031 0.32018
0.735302 0.161273 0.343313
0.746212 0.170901 0.369696
0.757137 0.181338 0.396689
0.762127 0.184619 0.423133
0.765774 0.187076 0.447684
0.767208 0.188556 0.467887
0.767742 0.189975 0.486625
0.767971 0.19173 0.501961
0.0906233 0.103593 0.103304
0.0906081 0.103807 0.10341
0.0907759 0.103609 0.103151
0.0914931 0.103471 0.103258
0.0928359 0.103593 0.10338
0.0953231 0.103426 0.1037
0.0997177 0.103334 0.104356
0.108507 0.102968 0.103944
0.124483 0.101946 0.10341
0.144396 0.100816 0.104402
0.168627 0.0999161 0.106157
0.200763 0.100084 0.109194
0.24065 0.101198 0.114656
0.286656 0.102037 0.120424
0.338079 0.102678 0.128069
0.388495 0.103273 0.136217
0.439704 0.104585 0.147478
0.490654 0.106447 0.161135
0.535103 0.109575 0.177462
0.576074 0.114763 0.196292
0.615198 0.122362 0.219348
0.653834 0.132921 0.244984
0.68957 0.144488 0.271702
0.719005 0.154726 0.297642
0.727199 0.15697 0.318547
0.734752 0.160952 0.341772
0.745312 0.170016 0.367697
0.756909 0.181399 0.395026
0.761913 0.184604 0.420844
0.765499 0.186877 0.445777
0.767178 0.18854 0.4663
0.767926 0.190219 0.486198
0.768429 0.19234 0.502831
0.0919661 0.109636 0.106096
0.0919661 0.109941 0.106218
0.0920424 0.109468 0.105486
0.0928511 0.108721 0.104997
0.0952468 0.108919 0.105303
0.0986648 0.108858 0.105028
0.104219 0.108232 0.105715
0.112245 0.107988 0.105699
0.125277 0.106783 0.105196
0.144808 0.104204 0.10454
0.17113 0.101625 0.105013
0.203555 0.100557 0.107454
0.239673 0.100282 0.110994
0.285557 0.101076 0.115694
0.339788 0.102571 0.124926
0.393042 0.103441 0.135958
0.44062 0.104906 0.144656
0.491417 0.106813 0.158511
0.536202 0.110063 0.17499
0.576822 0.115328 0.193713
0.615885 0.12314 0.216754
0.654475 0.133623 0.242985
0.690318 0.145312 0.269963
0.719478 0.155291 0.296178
0.726894 0.157015 0.317205
0.734447 0.160861 0.340414
0.744869 0.169635 0.366705
0.756893 0.181537 0.394247
0.761913 0.18471 0.420188
0.765606 0.18703 0.445579
0.767224 0.188647 0.466148
0.7682 0.190616 0.486412
0.768902 0.192981 0.503548
0.0929274 0.119112 0.109545
0.0928969 0.119707 0.109636
0.092958 0.119188 0.108751
0.0935225 0.117906 0.107759
0.0964065 0.117617 0.107683
0.100618 0.118425 0.108064
0.107012 0.118242 0.107836
0.117891 0.117037 0.107668
0.13196 0.115312 0.108217
0.148775 0.112642 0.107836
0.171695 0.108461 0.106493
0.204883 0.103685 0.105516
0.244221 0.101579 0.108843
0.287678 0.100221 0.112581
0.335103 0.0998398 0.116991
0.391226 0.102388 0.129229
0.445502 0.104845 0.143694
0.492576 0.107088 0.156069
0.536889 0.110292 0.173266
0.577722 0.115587 0.192752
0.616449 0.123583 0.215213
0.655039 0.134249 0.241001
0.691173 0.146212 0.268116
0.719738 0.155825 0.294728
0.726513 0.157076 0.315404
0.734081 0.160784 0.338811
0.744381 0.169207 0.36524
0.756313 0.180926 0.392752
0.761898 0.184802 0.419409
0.765713 0.187167 0.444266
0.767468 0.188876 0.463935
0.769192 0.191409 0.482444
0.770886 0.194125 0.497414
0.093492 0.133532 0.113878
0.0933547 0.134493 0.113832
0.0933394 0.134234 0.112718
0.0935378 0.133104 0.110979
0.0956588 0.13257 0.110109
0.100572 0.133059 0.110277
0.107439 0.133455 0.110124
0.11931 0.132647 0.108904
0.135836 0.131273 0.109331
0.158267 0.126574 0.110307
0.181842 0.121431 0.109865
0.209674 0.116197 0.107607
0.245579 0.109239 0.106905
0.290181 0.103288 0.107729
0.340139 0.0995499 0.111452
0.387533 0.0981003 0.117723
0.440894 0.102037 0.133211
0.497124 0.107332 0.153246
0.536538 0.110903 0.167834
0.577844 0.116213 0.188693
0.6168 0.124193 0.212375
0.656107 0.134997 0.239826
0.692363 0.146929 0.267979
0.719951 0.156176 0.293965
0.726131 0.157107 0.313954
0.733532 0.160662 0.336721
0.743648 0.168536 0.362676
0.755489 0.180072 0.390631
0.761822 0.184894 0.418173
0.765713 0.187289 0.442954
0.767514 0.188983 0.463172
0.76968 0.19202 0.482185
0.771771 0.195315 0.49778
0.0929427 0.152331 0.117922
0.0927596 0.153582 0.117739
0.0927596 0.153536 0.11635
0.0929427 0.152529 0.114321
0.0936141 0.152087 0.11223
0.0974289 0.152422 0.111696
0.104509 0.1523 0.111513
0.11693 0.152056 0.110597
0.135225 0.150652 0.108583
0.15877 0.149035 0.108919
0.193988 0.141527 0.111315
0.229709 0.131579 0.111727
0.260685 0.12491 0.109514
0.297749 0.117266 0.106584
0.343572 0.106752 0.104417
0.392844 0.0996719 0.107103
0.440406 0.0971237 0.118135
0.488182 0.101747 0.137102
0.540154 0.111269 0.163439
0.576974 0.117174 0.181521
0.616632 0.125414 0.206165
0.656107 0.136034 0.234668
0.692897 0.148165 0.264591
0.719936 0.156725 0.291905
0.725734 0.157031 0.313146
0.73315 0.160418 0.336416
0.74255 0.167346 0.360632
0.754253 0.179004 0.388296
0.761685 0.185061 0.415473
0.765667 0.187381 0.441093
0.767559 0.189105 0.461677
0.77052 0.192996 0.481773
0.773007 0.197177 0.498024
0.090425 0.17615 0.122026
0.0899977 0.177752 0.121843
0.0900282 0.17818 0.120348
0.0906691 0.177295 0.117189
0.09131 0.17702 0.114549
0.092958 0.177081 0.111971
0.0979477 0.177462 0.111238
0.110796 0.177081 0.11133
0.130404 0.176333 0.109453
0.155184 0.173648 0.107408
0.189303 0.171649 0.107912
0.237491 0.15993 0.111162
0.287434 0.145129 0.113603
0.325002 0.136492 0.111177
0.363058 0.127474 0.107134
0.404501 0.114656 0.104509
0.44596 0.10219 0.104265
0.485206 0.0975509 0.116457
0.526116 0.102205 0.142321
0.575235 0.115267 0.172366
0.618631 0.12697 0.202243
0.655512 0.137667 0.226871
0.692988 0.149874 0.258
0.719326 0.157885 0.285832
0.72488 0.157519 0.308171
0.732418 0.160311 0.333227
0.741176 0.166094 0.359258
0.752804 0.177264 0.387564
0.761257 0.184939 0.414908
0.765469 0.18735 0.440146
0.767559 0.189258 0.459998
0.77145 0.194034 0.480903
0.774884 0.199466 0.498253
0.0863508 0.206989 0.127443
0.0861219 0.209232 0.12755
0.0860914 0.209964 0.125566
0.0866407 0.209064 0.122469
0.0874189 0.208942 0.118425
0.0883955 0.209613 0.114961
0.0914015 0.209445 0.110826
0.0999924 0.210147 0.109651
0.120974 0.209537 0.109789
0.147692 0.208499 0.107576
0.18294 0.205646 0.106081
0.229068 0.202762 0.106325
0.290929 0.189151 0.112093
0.354269 0.168124 0.117571
0.402609 0.154772 0.117113
0.437598 0.145495 0.114748
0.472435 0.131304 0.111925
0.504295 0.113787 0.112474
0.525704 0.102815 0.1196
0.552728 0.101778 0.141878
0.60708 0.120317 0.181979
0.658045 0.140276 0.222141
0.692287 0.151751 0.248417
0.718471 0.159487 0.277638
0.723705 0.158526 0.300313
0.730983 0.160296 0.326299
0.739895 0.165499 0.353536
0.750866 0.175219 0.381735
0.760739 0.185016 0.409735
0.76524 0.187503 0.435813
0.76759 0.189487 0.456825
0.772519 0.195514 0.479011
0.777127 0.202045 0.49807
0.0825971 0.243793 0.134661
0.0821546 0.246189 0.134783
0.082002 0.247471 0.132998
0.0825513 0.24712 0.129168
0.0834211 0.247135 0.124773
0.0839704 0.248219 0.120378
0.0851453 0.248631 0.114824
0.090135 0.24828 0.108919
0.104616 0.24892 0.107225
0.13373 0.249699 0.107683
0.171527 0.249363 0.105348
0.221881 0.247364 0.103899
0.28043 0.245396 0.104219
0.353552 0.233341 0.113542
0.428946 0.208667 0.127764
0.483864 0.191485 0.131365
0.522469 0.180804 0.132677
0.549203 0.166796 0.133227
0.566079 0.142473 0.132647
0.571176 0.116518 0.133516
0.578195 0.105699 0.146929
0.638056 0.125948 0.192935
0.694881 0.155215 0.241611
0.716182 0.161852 0.26508
0.722103 0.16025 0.288685
0.72929 0.160678 0.316655
0.737392 0.164477 0.344717
0.748226 0.172976 0.373999
0.759854 0.184817 0.403067
0.764889 0.187716 0.429969
0.767742 0.190021 0.452033
0.773877 0.19762 0.47631
0.779858 0.205478 0.497429
0.0797894 0.287587 0.144121
0.0796063 0.290578 0.144442
0.07953 0.292409 0.143526
0.0800336 0.292531 0.140246
0.0806439 0.293416 0.135256
0.0816052 0.294362 0.1299
0.0824445 0.295277 0.124559
0.0842145 0.295247 0.115969
0.0907759 0.295293 0.107897
0.112169 0.29778 0.1066
0.151583 0.300389 0.10663
0.205127 0.301793 0.102983
0.270604 0.300526 0.101946
0.34258 0.299382 0.102312
0.420508 0.291691 0.115465
0.502724 0.269581 0.140246
0.564553 0.247059 0.15227
0.603815 0.231907 0.15845
0.624964 0.21886 0.163058
0.635096 0.19292 0.164385
0.629389 0.146838 0.163455
0.619074 0.118608 0.167391
0.664424 0.129427 0.204028
0.714229 0.163668 0.254414
0.719432 0.163241 0.272831
0.726635 0.162219 0.301717
0.734508 0.16376 0.331777
0.744854 0.170626 0.362829
0.756756 0.181613 0.393225
0.764721 0.188556 0.421912
0.770367 0.193744 0.447669
0.778012 0.202655 0.474235
0.784222 0.211048 0.496193
0.0796216 0.339849 0.15816
0.0793622 0.342916 0.158267
0.0793011 0.345266 0.157717
0.0797894 0.34641 0.155154
0.080827 0.347265 0.150668
0.0820478 0.348424 0.145113
0.0832685 0.350072 0.140124
0.0850233 0.351446 0.132448
0.0867781 0.35172 0.119966
0.0949111 0.352865 0.112001
0.123507 0.355734 0.109636
0.178592 0.358618 0.107179
0.247288 0.36051 0.101396
0.328069 0.360555 0.101686
0.410132 0.361685 0.100999
0.485573 0.360327 0.116701
0.571298 0.343969 0.153643
0.641245 0.318639 0.181735
0.680659 0.299718 0.195773
0.704158 0.28188 0.204486
0.711391 0.257115 0.207218
0.700496 0.207355 0.201465
0.669795 0.141772 0.194949
0.682521 0.133043 0.20824
0.716411 0.16524 0.25861
0.723598 0.165316 0.282719
0.730861 0.164248 0.314412
0.740261 0.167666 0.346731
0.752911 0.178775 0.379705
0.764584 0.190158 0.410971
0.774792 0.200488 0.442954
0.783719 0.210529 0.471931
0.790082 0.218677 0.494484
0.0819257 0.396506 0.175219
0.0821851 0.399802 0.175784
0.0820783 0.402502 0.175296
0.0826581 0.403601 0.173251
0.0838483 0.40473 0.170047
0.0852064 0.406165 0.165408
0.0861372 0.407538 0.160647
0.0867323 0.409628 0.154574
0.0879683 0.411353 0.144213
0.0911574 0.411963 0.129061
0.103227 0.413016 0.116991
0.142245 0.415976 0.112337
0.219089 0.419394 0.109056
0.302586 0.423911 0.103014
0.391821 0.426246 0.107515
0.479225 0.428412 0.106065
0.550973 0.430808 0.121706
0.636896 0.419028 0.171862
0.71104 0.399847 0.21445
0.75668 0.376852 0.240726
0.780346 0.355459 0.253346
0.785733 0.325719 0.254368
0.765499 0.276417 0.239734
0.715602 0.174807 0.214832
0.698314 0.145052 0.211963
0.71191 0.159533 0.250141
0.727474 0.168902 0.288899
0.737041 0.168566 0.32874
0.748302 0.175494 0.363073
0.766247 0.194385 0.400122
0.780468 0.209232 0.434821
0.790021 0.219501 0.46688
0.796551 0.227695 0.490272
0.0866865 0.456962 0.198566
0.0867475 0.46041 0.199222
0.0874342 0.463035 0.199359
0.0877546 0.464164 0.197192
0.0880751 0.465248 0.193652
0.0885786 0.46688 0.189822
0.0892042 0.468589 0.185657
0.0905165 0.469734 0.18024
0.0921035 0.472206 0.173037
0.094316 0.474205 0.159854
0.10042 0.475456 0.140032
0.121859 0.477302 0.124178
0.180255 0.48014 0.117342
0.280232 0.484337 0.11371
0.372976 0.490486 0.110292
0.460426 0.495674 0.124407
0.546624 0.498451 0.125795
0.616403 0.5028 0.147082
0.699596 0.496223 0.20322
0.776654 0.480278 0.254704
0.823026 0.454963 0.28716
0.838865 0.430823 0.295537
0.824582 0.393454 0.284077
0.803189 0.345449 0.267216
0.754452 0.243519 0.234226
0.712596 0.165331 0.215076
0.713207 0.161395 0.24094
0.736919 0.179568 0.298604
0.751369 0.185199 0.346319
0.769253 0.201724 0.38941
0.786297 0.219806 0.427405
0.798276 0.232624 0.460685
0.806149 0.241489 0.48484
0.0938735 0.519066 0.231617
0.0948806 0.522728 0.233509
0.0955215 0.525185 0.233265
0.0961929 0.526238 0.230961
0.096849 0.527138 0.228138
0.0979019 0.529076 0.225055
0.0990311 0.53048 0.221469
0.100343 0.531792 0.216098
0.102266 0.533608 0.209247
0.105287 0.535897 0.20061
0.110491 0.538079 0.183474
0.121706 0.539956 0.159197
0.158312 0.543343 0.140337
0.244465 0.547158 0.130129
0.356878 0.552468 0.12575
0.446189 0.560769 0.129976
0.530465 0.567681 0.155062
0.613718 0.569482 0.166476
0.680735 0.573892 0.189792
0.759289 0.571557 0.24445
0.830213 0.560189 0.294316
0.869398 0.540719 0.321462
0.86595 0.508934 0.317723
0.853162 0.468864 0.306966
0.833509 0.414755 0.291081
0.795316 0.328191 0.26154
0.737377 0.209644 0.22504
0.723491 0.179339 0.231998
0.746197 0.191577 0.302708
0.770489 0.212329 0.35967
0.79144 0.233417 0.403571
0.807279 0.249348 0.442817
0.818387 0.261616 0.472206
0.110399 0.580728 0.275578
0.111833 0.584222 0.277485
0.1131 0.586465 0.277043
0.114305 0.588067 0.275395
0.115343 0.589456 0.27332
0.116655 0.590936 0.27068
0.118349 0.592371 0.267781
0.120333 0.593668 0.263325
0.123003 0.594949 0.255528
0.127275 0.597559 0.246952
0.132845 0.600443 0.236286
0.141009 0.601678 0.213413
0.160708 0.6038 0.185702
0.222522 0.608759 0.165042
0.333974 0.615869 0.156329
0.445441 0.623316 0.156085
0.519738 0.633707 0.170031
0.599878 0.639735 0.199268
0.679026 0.640223 0.218326
0.744091 0.644343 0.242267
0.811292 0.645823 0.288426
0.867643 0.637232 0.327871
0.885008 0.622126 0.33695
0.880247 0.594995 0.32903
0.874296 0.554391 0.323064
0.860822 0.493767 0.312856
0.833021 0.414282 0.290242
0.778119 0.292119 0.249485
0.75378 0.242008 0.234607
0.772702 0.244831 0.296117
0.791562 0.248234 0.362829
0.813291 0.269627 0.408026
0.828214 0.284733 0.442237
0.137713 0.642618 0.3243
0.140429 0.646372 0.325567
0.142992 0.649622 0.325887
0.144259 0.650706 0.324422
0.145678 0.651911 0.322728
0.147753 0.653559 0.320912
0.149889 0.6551 0.318853
0.15227 0.656687 0.315129
0.155917 0.658244 0.308858
0.15993 0.659632 0.299611
0.165896 0.662196 0.289815
0.174014 0.664759 0.27538
0.187076 0.665446 0.247089
0.22536 0.669673 0.218585
0.313359 0.677226 0.199191
0.433265 0.686946 0.196429
0.528939 0.695735 0.203128
0.591638 0.706798 0.2224
0.66865 0.712795 0.253529
0.74403 0.712551 0.277272
0.803815 0.715267 0.300282
0.854292 0.716884 0.331273
0.886442 0.710521 0.352819
0.885603 0.695445 0.345632
0.882429 0.672236 0.336263
0.881575 0.637339 0.331411
0.877958 0.584283 0.326223
0.862806 0.503563 0.313802
0.821851 0.387564 0.281025
0.799405 0.337209 0.264118
0.804807 0.332586 0.283452
0.816831 0.311284 0.342245
0.828382 0.311055 0.383398
0.178958 0.706203 0.375753
0.182239 0.709804 0.37702
0.185031 0.712474 0.377096
0.186542 0.713436 0.375708
0.187991 0.714565 0.374914
0.190219 0.715908 0.373678
0.192905 0.717662 0.372061
0.195682 0.719341 0.369238
0.199084 0.7205 0.363622
0.203189 0.721553 0.355077
0.208377 0.722591 0.343954
0.215335 0.724941 0.332998
0.225803 0.72723 0.313848
0.244205 0.727275 0.279332
0.306813 0.734127 0.252888
0.417411 0.745968 0.243305
0.527672 0.755245 0.246403
0.603784 0.764462 0.258259
0.660258 0.775235 0.280278
0.735897 0.781582 0.312078
0.805798 0.780713 0.338323
0.85539 0.782055 0.356527
0.891463 0.782696 0.37406
0.901564 0.775067 0.37702
0.894896 0.761364 0.362631
0.886488 0.740551 0.346288
0.881987 0.710048 0.338262
0.881239 0.666896 0.333425
0.878492 0.601617 0.327291
0.860212 0.500511 0.30956
0.833188 0.41268 0.291661
0.835431 0.417578 0.294011
0.840452 0.425757 0.300755
0.224506 0.763699 0.424811
0.227268 0.766308 0.425162
0.229297 0.768124 0.424674
0.230762 0.769207 0.423789
0.232486 0.770321 0.422644
0.234821 0.771862 0.421714
0.237263 0.773144 0.421042
0.239109 0.773938 0.418372
0.241962 0.775021 0.414328
0.245228 0.775982 0.407813
0.250156 0.776913 0.397467
0.256489 0.778134 0.384039
0.264042 0.779828 0.369863
0.276539 0.780499 0.34461
0.311025 0.782376 0.309377
0.404593 0.793362 0.28986
0.512963 0.804364 0.289143
0.612375 0.811673 0.296544
0.66807 0.821256 0.311696
0.722957 0.832319 0.336187
0.798993 0.838987 0.36907
0.857908 0.838437 0.394385
0.896925 0.840192 0.409232
0.918227 0.838712 0.416388
0.917571 0.8309 0.407553
0.910536 0.819638 0.387717
0.901015 0.801129 0.364721
0.892943 0.775418 0.352956
0.885222 0.741588 0.344152
0.880781 0.694118 0.336568
0.879957 0.635966 0.331518
0.872007 0.559777 0.321233
0.867109 0.5196 0.318807
0.263523 0.808545 0.464988
0.265553 0.81062 0.465095
0.267048 0.812238 0.464744
0.268193 0.812985 0.463584
0.269749 0.813886 0.462547
0.271626 0.814817 0.461692
0.273335 0.815549 0.460639
0.275471 0.816358 0.458732
0.27808 0.817151 0.45568
0.281056 0.818021 0.450568
0.284825 0.818799 0.442771
0.289876 0.819348 0.43032
0.296925 0.819608 0.413199
0.305577 0.820096 0.395087
0.321538 0.819104 0.361349
0.389349 0.827939 0.335012
0.4963 0.838407 0.325109
0.594186 0.845029 0.328115
0.675105 0.852033 0.339269
0.722759 0.862058 0.357794
0.779019 0.874037 0.385641
0.852827 0.880186 0.418738
0.897856 0.878416 0.44033
0.926574 0.880293 0.452369
0.934722 0.878508 0.452934
0.932387 0.87303 0.444404
0.927886 0.866911 0.429114
0.921492 0.854917 0.409567
0.912627 0.834516 0.386419
0.903059 0.810224 0.365743
0.894347 0.782696 0.355215
0.88661 0.748989 0.346197
0.882841 0.729931 0.342306
0.288365 0.835554 0.493324
0.289082 0.836408 0.492561
0.289906 0.837003 0.4916
0.290959 0.837476 0.490455
0.291997 0.837766 0.489143
0.293355 0.838117 0.487892
0.294942 0.838422 0.486717
0.296559 0.838727 0.484733
0.298528 0.839109 0.482261
0.300908 0.83949 0.477729
0.303456 0.83975 0.471061
0.307546 0.839918 0.460761
0.31339 0.839902 0.444953
0.321553 0.839277 0.423468
0.331609 0.838392 0.398932
0.366842 0.841138 0.368139
0.462257 0.851179 0.349004
0.567147 0.856367 0.343877
0.656886 0.860792 0.35053
0.714641 0.869017 0.366079
0.760952 0.878645 0.387015
0.825986 0.888075 0.416068
0.887572 0.894118 0.446891
0.923369 0.894606 0.465995
0.940398 0.897459 0.475929
0.940902 0.897337 0.475654
0.939559 0.896284 0.471092
0.937316 0.894652 0.462562
0.93373 0.890089 0.451255
0.929458 0.880705 0.438911
0.924529 0.86775 0.423438
0.918654 0.853971 0.406332
0.915831 0.846723 0.397391
0.298009 0.843626 0.508278
0.298207 0.843976 0.507424
0.298741 0.844312 0.506447
0.299367 0.844495 0.505104
0.300282 0.844633 0.50367
0.301335 0.844694 0.502251
0.30251 0.844709 0.50071
0.303792 0.84477 0.499062
0.305425 0.8448 0.49601
0.307317 0.844953 0.492058
0.309941 0.845243 0.486305
0.313527 0.845457 0.477653
0.318135 0.845457 0.464637
0.324849 0.844907 0.444999
0.335256 0.84358 0.4177
0.352056 0.842802 0.388739
0.421317 0.851911 0.368154
0.52697 0.858488 0.355932
0.628229 0.862654 0.357595
0.695888 0.868803 0.368277
0.746746 0.878416 0.387411
0.801266 0.887633 0.4112
0.859785 0.89337 0.436652
0.906523 0.894804 0.461662
0.935775 0.898238 0.477043
0.942672 0.899763 0.482856
0.942535 0.899565 0.48246
0.941299 0.89868 0.479011
0.938949 0.896773 0.471427
0.936202 0.895155 0.463752
0.93518 0.894652 0.461601
0.93434 0.893538 0.458747
0.934081 0.893111 0.457542
0.304997 0.846937 0.519951
0.305211 0.847257 0.519234
0.305699 0.847654 0.518364
0.306233 0.847837 0.516869
0.307057 0.84802 0.51548
0.308141 0.848157 0.514275
0.309407 0.848325 0.513054
0.310628 0.848386 0.511162
0.312383 0.848341 0.508003
0.313954 0.848463 0.504128
0.315999 0.848661 0.498756
0.318593 0.84889 0.491569
0.322484 0.848905 0.481209
0.328481 0.848707 0.464988
0.337636 0.847807 0.440452
0.356802 0.848112 0.411048
0.395727 0.853101 0.391394
0.482979 0.860609 0.375814
0.586877 0.864668 0.369787
0.672984 0.870054 0.376638
0.727871 0.878325 0.391714
0.783276 0.888136 0.413642
0.841184 0.894667 0.435477
0.888563 0.898772 0.45742
0.923491 0.898512 0.47512
0.941604 0.901473 0.487114
0.942809 0.901793 0.490867
0.94287 0.901183 0.489784
0.941863 0.900099 0.484855
0.939605 0.898405 0.477852
0.937606 0.896773 0.471565
0.936843 0.896422 0.469459
0.936767 0.896376 0.469215
0.314137 0.850858 0.530999
0.314366 0.851179 0.530175
0.314672 0.851575 0.52929
0.314839 0.851835 0.527779
0.315328 0.852079 0.52668
0.315984 0.852232 0.525643
0.316808 0.852323 0.5243
0.317708 0.852415 0.522347
0.319112 0.852415 0.519722
0.320699 0.852461 0.516182
0.322942 0.852567 0.511543
0.325353 0.852644 0.505241
0.32903 0.852644 0.496315
0.333944 0.852598 0.483207
0.343038 0.852827 0.465187
0.362966 0.854459 0.440513
0.40473 0.860471 0.421454
0.461341 0.867002 0.412833
0.543648 0.870466 0.40412
0.637278 0.874067 0.402167
0.708751 0.881727 0.411399
0.765805 0.890166 0.427817
0.82884 0.897292 0.447181
0.874617 0.900679 0.461326
0.907378 0.899382 0.476631
0.936599 0.902434 0.492668
0.944533 0.904967 0.506737
0.945373 0.905684 0.514595
0.944686 0.905013 0.510109
0.942016 0.902571 0.496071
0.940581 0.900649 0.487419
0.938827 0.898451 0.478065
0.938308 0.897688 0.475547
0.324163 0.854948 0.542199
0.324117 0.855192 0.541482
0.324132 0.855543 0.54081
0.324117 0.855756 0.539712
0.324392 0.856031 0.538521
0.324987 0.856275 0.537408
0.325841 0.856428 0.536049
0.327016 0.85655 0.534356
0.328374 0.856565 0.532021
0.330144 0.856641 0.528374
0.331807 0.856718 0.524132
0.334234 0.856809 0.518486
0.337926 0.857053 0.511101
0.342992 0.857359 0.500969
0.354589 0.858976 0.488136
0.37882 0.862516 0.472038
0.419913 0.868467 0.458473
0.46978 0.874037 0.450507
0.527291 0.877134 0.448615
0.602899 0.879774 0.44712
0.687633 0.886397 0.451026
0.752758 0.894026 0.463157
0.813855 0.900099 0.479316
0.866941 0.904494 0.491981
0.902327 0.905348 0.499687
0.928542 0.90425 0.512642
0.946609 0.906767 0.526818
0.947478 0.907561 0.539757
0.947677 0.908263 0.550652
0.946365 0.907912 0.546548
0.944564 0.906432 0.528496
0.943282 0.904784 0.515862
0.941924 0.902419 0.503761
0.336385 0.858595 0.553887
