bundles/resolve-cinematic-luts/Phantom Luts/A7s3 Phntm Arri LUTs G7/ATOMOS Monitoring LUTs/Slog3/IceBlue A7s3 AML.cube
TITLE "Generated by Resolve"
LUT_3D_SIZE 33
0.0799878 0.0910201 0.0900282
0.0799878 0.0910201 0.0900282
0.0800031 0.0910201 0.0899977
0.0800488 0.0910506 0.0899367
0.0839246 0.0910658 0.0910201
0.0931716 0.0910964 0.0928359
0.103502 0.0909133 0.0937209
0.120897 0.0914931 0.0954757
0.14287 0.0919661 0.0978866
0.170306 0.0919966 0.100832
0.206668 0.0920119 0.104723
0.247517 0.0920882 0.109102
0.29279 0.0920577 0.11397
0.340703 0.0922408 0.117678
0.391974 0.0923171 0.129015
0.442405 0.0935378 0.143694
0.490349 0.0962844 0.159487
0.532357 0.100877 0.177874
0.57145 0.107225 0.198459
0.60856 0.114931 0.222644
0.643442 0.12369 0.248768
0.676463 0.13402 0.27628
0.705455 0.144366 0.3037
0.727825 0.154253 0.331426
0.743145 0.165026 0.361059
0.755581 0.177005 0.3944
0.763699 0.184039 0.428611
0.768948 0.18854 0.462882
0.772396 0.192905 0.493416
0.773968 0.196597 0.51986
0.776669 0.202594 0.543526
0.779767 0.210285 0.565332
0.78204 0.217105 0.583093
0.0801099 0.0909438 0.0897841
0.0800488 0.0909895 0.0899214
0.0800183 0.0910048 0.0899825
0.0800183 0.0910658 0.0899367
0.0842756 0.0910964 0.0912184
0.0933852 0.0911574 0.0930037
0.104662 0.0909743 0.0941939
0.122789 0.0915999 0.0961929
0.145342 0.0920119 0.0984817
0.17464 0.0919966 0.101411
0.212543 0.0920424 0.105852
0.254414 0.0921187 0.110658
0.300389 0.0920729 0.114824
0.34876 0.0922866 0.119829
0.399802 0.0924239 0.131106
0.450065 0.0936751 0.145861
0.497276 0.0968643 0.162158
0.538552 0.101854 0.180713
0.57734 0.108415 0.20174
0.612955 0.115862 0.22533
0.647288 0.124743 0.251347
0.679408 0.135088 0.278599
0.708278 0.145632 0.306386
0.73019 0.155459 0.333761
0.743496 0.165179 0.362509
0.756313 0.178241 0.39498
0.76379 0.184146 0.428702
0.768887 0.188495 0.462089
0.772244 0.192645 0.491386
0.77377 0.196124 0.51664
0.774121 0.199039 0.537026
0.774166 0.202502 0.555886
0.778164 0.211154 0.574395
0.0801099 0.0909438 0.0897841
0.0800488 0.0909895 0.0899214
0.0800183 0.0910201 0.0899825
0.0800031 0.0910201 0.0899519
0.0834974 0.0910506 0.0907301
0.0912795 0.0910658 0.0924544
0.100893 0.090898 0.0932479
0.118486 0.0914321 0.0956588
0.141405 0.0919814 0.0981613
0.170596 0.0919814 0.100969
0.209033 0.0919814 0.105119
0.252598 0.0920729 0.110414
0.299825 0.0920272 0.114931
0.349508 0.0921798 0.120455
0.401663 0.0924239 0.131975
0.452094 0.0937667 0.146441
0.498527 0.0969711 0.162463
0.539773 0.102083 0.180972
0.578317 0.108736 0.202029
0.613733 0.116106 0.225452
0.647944 0.124987 0.251484
0.679881 0.135271 0.278813
0.708736 0.14583 0.306432
0.730526 0.155566 0.333318
0.743206 0.16492 0.361669
0.756374 0.178561 0.393576
0.7635 0.183948 0.426505
0.768704 0.188312 0.459007
0.771984 0.192233 0.487587
0.773266 0.195193 0.511879
0.773983 0.19826 0.531823
0.77258 0.199985 0.54876
0.775113 0.206394 0.565377
0.0800031 0.0912642 0.0897841
0.0799573 0.09131 0.0899214
0.0800641 0.0912642 0.0899825
0.0801251 0.0912947 0.0899977
0.0827344 0.0916609 0.0907149
0.088777 0.0916304 0.0920577
0.0962387 0.0913558 0.0923781
0.111925 0.0915999 0.0948653
0.135225 0.0922103 0.0980697
0.163867 0.092195 0.100526
0.202258 0.0918746 0.104097
0.246418 0.0919203 0.10901
0.295872 0.0919356 0.115175
0.346731 0.0920882 0.12047
0.399481 0.092256 0.131289
0.451087 0.0935988 0.146029
0.497688 0.0969558 0.161654
0.538628 0.101976 0.179858
0.577493 0.10869 0.200839
0.612985 0.11603 0.224628
0.647349 0.12488 0.250523
0.679515 0.135256 0.277928
0.707973 0.145541 0.305241
0.730327 0.155383 0.331823
0.742565 0.164385 0.360143
0.755901 0.178271 0.391058
0.763241 0.183856 0.423636
0.76817 0.187839 0.454932
0.771405 0.191485 0.482689
0.772732 0.194202 0.506279
0.773449 0.197086 0.525933
0.772686 0.199237 0.543236
0.771954 0.201312 0.55671
0.0807965 0.096849 0.0925154
0.0809186 0.0971847 0.0925154
0.0817273 0.0969406 0.0917983
0.083772 0.0968185 0.0920119
0.0859998 0.0971389 0.0924239
0.0911727 0.0974136 0.0934768
0.0981918 0.0968032 0.0937972
0.111315 0.0956741 0.0944686
0.135058 0.0944228 0.0964981
0.164446 0.0939498 0.0992447
0.200946 0.0928817 0.101686
0.243198 0.0920119 0.105821
0.294209 0.0917372 0.111269
0.348592 0.0919051 0.119265
0.401679 0.092256 0.130388
0.450782 0.0935988 0.143145
0.497383 0.0973068 0.158831
0.53843 0.102388 0.17731
0.577157 0.109133 0.197574
0.612848 0.116548 0.221683
0.647547 0.125414 0.248264
0.679393 0.135561 0.275746
0.707835 0.145678 0.303365
0.730068 0.155291 0.330297
0.741817 0.163699 0.358038
0.75555 0.177981 0.389319
0.763058 0.183841 0.421546
0.768002 0.187762 0.452827
0.771206 0.191257 0.480308
0.77261 0.193988 0.504387
0.773434 0.196918 0.524437
0.772839 0.199466 0.542763
0.772625 0.202167 0.557855
0.0828412 0.107546 0.0992905
0.0828565 0.107897 0.0992294
0.083299 0.107347 0.0975967
0.0862287 0.106035 0.0959029
0.0906844 0.105928 0.0958267
0.0957961 0.106493 0.0965286
0.104509 0.106249 0.0974441
0.116915 0.104906 0.0981308
0.137224 0.101915 0.0978103
0.166766 0.0983291 0.0977951
0.206149 0.0958114 0.100465
0.248981 0.0936904 0.103151
0.293233 0.0912795 0.106355
0.346731 0.091371 0.112902
0.403037 0.0920577 0.124743
0.454932 0.0935988 0.141604
0.497932 0.0975357 0.154757
0.539208 0.103044 0.17438
0.578012 0.109865 0.194995
0.613504 0.117266 0.21915
0.648173 0.126284 0.245563
0.67985 0.136156 0.273136
0.70811 0.146258 0.301244
0.730098 0.15552 0.328359
0.741161 0.163241 0.355901
0.754894 0.177432 0.387778
0.763012 0.183978 0.420157
0.768048 0.187884 0.451972
0.771298 0.191409 0.479683
0.772747 0.194156 0.504311
0.773556 0.197131 0.524346
0.772885 0.199786 0.542824
0.773053 0.203143 0.558633
0.0839551 0.123186 0.105303
0.0840009 0.124071 0.105318
0.0844129 0.123186 0.103914
0.0861524 0.121233 0.10071
0.0920424 0.120378 0.100359
0.0986801 0.121202 0.100664
0.108415 0.121187 0.10016
0.125536 0.120302 0.101808
0.147875 0.115984 0.102632
0.173648 0.111177 0.101091
0.208469 0.10515 0.0993057
0.252186 0.0979324 0.0982223
0.30135 0.0934157 0.101289
0.349752 0.0903792 0.10486
0.397696 0.0906233 0.114748
0.452674 0.0935225 0.131701
0.501396 0.0979934 0.15256
0.539437 0.103792 0.169039
0.578027 0.110582 0.190951
0.613901 0.117983 0.216144
0.648783 0.126925 0.244282
0.680507 0.136721 0.272145
0.708629 0.146731 0.300053
0.730037 0.155627 0.326696
0.740322 0.162676 0.353536
0.753933 0.176425 0.385336
0.762905 0.1841 0.418311
0.768063 0.187991 0.450538
0.771405 0.191577 0.478828
0.772946 0.194339 0.503136
0.77406 0.197375 0.522454
0.774136 0.200275 0.539269
0.775692 0.204425 0.553567
0.0833295 0.145403 0.11017
0.0831464 0.146792 0.109941
0.0835889 0.146151 0.108537
0.0847334 0.144411 0.105608
0.0892042 0.143389 0.103227
0.0972457 0.144076 0.103761
0.109377 0.143862 0.103029
0.12781 0.143175 0.101915
0.154162 0.141283 0.103487
0.191089 0.133394 0.105653
0.225406 0.125292 0.105028
0.262242 0.117128 0.100679
0.306233 0.106661 0.0964981
0.356466 0.0961318 0.0956741
0.405219 0.090135 0.100725
0.446754 0.088365 0.111009
0.495384 0.0956436 0.137179
0.542062 0.104524 0.16492
0.577508 0.111711 0.183276
0.61355 0.119203 0.209018
0.648493 0.128038 0.238148
0.681025 0.13785 0.268269
0.709087 0.147326 0.298268
0.729854 0.155459 0.32607
0.739361 0.161883 0.352224
0.752453 0.174853 0.38265
0.762661 0.184192 0.415793
0.768048 0.188144 0.448386
0.771496 0.191699 0.477241
0.773068 0.194476 0.502083
0.774258 0.197543 0.521447
0.774807 0.200992 0.538979
0.776806 0.205859 0.554101
0.0811475 0.174945 0.115251
0.0806287 0.17673 0.114748
0.0809949 0.176516 0.112642
0.0821088 0.17496 0.109804
0.0848707 0.173938 0.105333
0.0916762 0.174395 0.103807
0.104219 0.174365 0.104112
0.125292 0.173495 0.102678
0.153384 0.171847 0.101442
0.19176 0.169207 0.101946
0.242115 0.157412 0.105943
0.288869 0.142641 0.107012
0.328099 0.132143 0.10164
0.369131 0.120119 0.0959487
0.414069 0.104356 0.0936751
0.455634 0.0922255 0.094316
0.490181 0.0898604 0.109392
0.529992 0.0980392 0.142443
0.579721 0.113024 0.177569
0.612146 0.12076 0.199191
0.648081 0.129763 0.229603
0.680751 0.139498 0.260807
0.708949 0.148562 0.292012
0.729305 0.155642 0.321508
0.738186 0.161028 0.349447
0.75079 0.172839 0.381155
0.762142 0.184024 0.414298
0.767803 0.188159 0.44651
0.771435 0.191745 0.475105
0.773251 0.194614 0.500008
0.774487 0.197696 0.520104
0.775967 0.202045 0.538827
0.778241 0.207568 0.55433
0.0777447 0.211322 0.121111
0.0771801 0.213581 0.1205
0.0771649 0.214115 0.117968
0.0780346 0.212711 0.113985
0.0791791 0.212177 0.109209
0.0839399 0.211994 0.103456
0.0932631 0.212711 0.101976
0.115999 0.212131 0.102281
0.147097 0.21146 0.099733
0.186053 0.208087 0.0983749
0.235828 0.204639 0.0985275
0.298939 0.190112 0.10367
0.358999 0.167178 0.108888
0.400824 0.153368 0.10602
0.437736 0.139681 0.100069
0.473564 0.120958 0.0950332
0.501152 0.102296 0.0966506
0.523964 0.0946365 0.108339
0.560388 0.100542 0.147509
0.610605 0.121141 0.188724
0.649073 0.131701 0.222766
0.679835 0.141756 0.250187
0.70869 0.15053 0.282948
0.728252 0.156344 0.313588
0.736675 0.160464 0.342611
0.748821 0.17116 0.375448
0.761608 0.1841 0.410437
0.767285 0.188083 0.443885
0.771008 0.191653 0.473671
0.773129 0.194705 0.498878
0.774655 0.197925 0.51873
0.77734 0.20354 0.538079
0.780316 0.209949 0.554589
0.0755016 0.251896 0.129061
0.0751965 0.255009 0.129198
0.0747997 0.255833 0.126177
0.074815 0.254459 0.120333
0.0749218 0.25417 0.114366
0.0755016 0.255009 0.107698
0.0819409 0.255161 0.100649
0.0978714 0.255314 0.0988632
0.132479 0.254765 0.0982223
0.173617 0.254063 0.0952468
0.225696 0.250431 0.094789
0.286656 0.246433 0.0946975
0.360433 0.232105 0.101625
0.428901 0.205219 0.114626
0.476539 0.186282 0.116701
0.508568 0.171939 0.112413
0.534401 0.152728 0.109407
0.550896 0.125811 0.109621
0.556085 0.101595 0.110994
0.58172 0.104067 0.142061
0.638025 0.127214 0.198978
0.681529 0.144732 0.242222
0.707897 0.15349 0.269673
0.727001 0.158038 0.30222
0.734997 0.160555 0.332769
0.746075 0.168917 0.366278
0.759945 0.183124 0.402396
0.766918 0.188281 0.437034
0.770962 0.191806 0.468009
0.773327 0.194888 0.494697
0.775021 0.198169 0.515496
0.779202 0.205692 0.536675
0.783139 0.213504 0.554833
0.0742809 0.297276 0.140581
0.0738231 0.300084 0.140291
0.0734569 0.301701 0.137926
0.073228 0.301045 0.132158
0.0730449 0.300999 0.124102
0.0729992 0.302464 0.11696
0.0731823 0.302693 0.107546
0.080705 0.302434 0.0995499
0.106355 0.302815 0.0967727
0.152514 0.303059 0.0941024
0.20734 0.302419 0.0906233
0.272297 0.299565 0.0915541
0.344091 0.296208 0.0919661
0.42153 0.283986 0.100404
0.495857 0.258488 0.123201
0.549187 0.234607 0.134463
0.580743 0.220081 0.137331
0.600153 0.203922 0.137743
0.608591 0.172381 0.13431
0.601434 0.125154 0.132265
0.606058 0.11046 0.148989
0.661997 0.131121 0.208698
0.708568 0.15668 0.2589
0.724697 0.16112 0.28513
0.732754 0.161654 0.318395
0.742519 0.166644 0.352895
0.756161 0.179553 0.390158
0.7664 0.188663 0.428
0.770886 0.192081 0.460761
0.773602 0.195209 0.488609
0.775799 0.198932 0.510994
0.781262 0.208301 0.534371
0.786954 0.218051 0.55462
0.0732586 0.346334 0.154009
0.0731365 0.349371 0.154086
0.0729534 0.3514 0.152728
0.0728313 0.351476 0.148089
0.0724498 0.352483 0.140932
0.0724498 0.353521 0.133104
0.0724193 0.354742 0.124971
0.0724498 0.354391 0.109758
0.0821698 0.354391 0.0982071
0.117266 0.355673 0.0937209
0.178759 0.3561 0.0902266
0.247181 0.356527 0.0872206
0.325154 0.354543 0.0895705
0.405035 0.352926 0.0906996
0.48101 0.346319 0.10219
0.559655 0.326818 0.136309
0.620264 0.301183 0.163378
0.654017 0.281743 0.174517
0.669139 0.265293 0.176211
0.674327 0.23621 0.174517
0.663645 0.17995 0.168841
0.637888 0.120363 0.164782
0.678279 0.130648 0.211719
0.722728 0.164111 0.271397
0.729793 0.164324 0.298711
0.738643 0.165667 0.335546
0.751293 0.175113 0.374182
0.765438 0.189136 0.413947
0.770642 0.192569 0.449821
0.774258 0.196185 0.48072
0.77911 0.202884 0.506584
0.786313 0.214237 0.532662
0.792309 0.224567 0.55407
0.0730297 0.397269 0.170428
0.0729992 0.400488 0.171023
0.0729381 0.402853 0.170184
0.0728161 0.403876 0.166949
0.0728618 0.404608 0.161532
0.0728466 0.405692 0.154559
0.0727245 0.407156 0.147616
0.0726787 0.408469 0.136355
0.0751049 0.408423 0.117144
0.089662 0.408576 0.101869
0.132235 0.409979 0.0939651
0.212741 0.410941 0.0897231
0.295171 0.412909 0.0870832
0.382544 0.41297 0.0916915
0.469108 0.41445 0.0942245
0.540993 0.413825 0.110002
0.621271 0.400397 0.155932
0.685298 0.379858 0.193744
0.724605 0.355276 0.216999
0.743252 0.334447 0.224216
0.745144 0.307729 0.221592
0.729961 0.254078 0.210178
0.675471 0.140581 0.181125
0.688807 0.135546 0.20177
0.725948 0.168536 0.27393
0.73402 0.167147 0.309819
0.74461 0.170657 0.352926
0.75964 0.184436 0.394537
0.770672 0.194064 0.434485
0.775769 0.198734 0.469123
0.785306 0.211063 0.502831
0.793576 0.223362 0.531151
0.799725 0.233768 0.552834
0.0740673 0.45156 0.192828
0.0740826 0.454475 0.193545
0.0742809 0.45742 0.193683
0.0742351 0.458274 0.191196
0.0741588 0.459174 0.186648
0.0742046 0.460441 0.181094
0.0743572 0.461479 0.174838
0.0754711 0.463706 0.167559
0.0787213 0.465049 0.152773
0.0852674 0.465385 0.129397
0.102281 0.466194 0.111177
0.157641 0.467735 0.102266
0.260487 0.469688 0.0962692
0.355505 0.474357 0.0926528
0.446738 0.477638 0.102678
0.533532 0.480034 0.110765
0.601877 0.482826 0.132769
0.677897 0.474998 0.182239
0.745769 0.46006 0.228916
0.787411 0.436988 0.257801
0.806638 0.410178 0.269551
0.808545 0.377768 0.267384
0.788235 0.328054 0.250874
0.728313 0.20238 0.210803
0.694133 0.140932 0.194583
0.726802 0.173373 0.266484
0.738308 0.17258 0.316335
0.751827 0.178424 0.368505
0.770291 0.197177 0.415991
0.782223 0.208957 0.458717
0.793622 0.222614 0.49572
0.802319 0.235187 0.526879
0.809583 0.246204 0.550546
0.079057 0.50782 0.227176
0.079469 0.511101 0.228763
0.0801251 0.513527 0.229114
0.0803388 0.514504 0.226841
0.0806287 0.515541 0.223194
0.0816358 0.51664 0.218265
0.0841382 0.518257 0.211765
0.0868391 0.519631 0.203418
0.0903182 0.521782 0.193835
0.0940261 0.523308 0.176944
0.10341 0.524453 0.150378
0.132738 0.526696 0.1252
0.212421 0.528939 0.111101
0.330587 0.532296 0.104723
0.426123 0.538735 0.108095
0.513542 0.544823 0.131975
0.596902 0.54789 0.145693
0.661799 0.552254 0.169024
0.732784 0.549538 0.219028
0.796063 0.538918 0.264744
0.835462 0.520485 0.292042
0.854627 0.490913 0.305272
0.844617 0.450278 0.296696
0.824704 0.399527 0.280247
0.777111 0.296437 0.242344
0.715541 0.176654 0.201953
0.725155 0.175677 0.250599
0.749386 0.187778 0.326085
0.770687 0.204135 0.388266
0.791211 0.225483 0.441321
0.803937 0.238895 0.485954
0.81416 0.251698 0.521462
0.822232 0.26334 0.54612
0.0948196 0.565469 0.270924
0.0961929 0.568887 0.273304
0.0975357 0.570962 0.272755
0.0987411 0.572076 0.269947
0.0998093 0.573007 0.266636
0.101274 0.574945 0.263584
0.102876 0.576226 0.25861
0.104829 0.577157 0.250996
0.107713 0.578775 0.242222
0.111818 0.58088 0.230716
0.119173 0.582528 0.208072
0.135134 0.584298 0.176577
0.187274 0.588144 0.149523
0.294759 0.591714 0.133379
0.416663 0.597406 0.13167
0.499321 0.606989 0.145983
0.583246 0.613855 0.176883
0.66067 0.615793 0.194018
0.720882 0.620111 0.216052
0.781277 0.620996 0.259297
0.834195 0.613733 0.297368
0.866392 0.599954 0.318105
0.872068 0.574746 0.318807
0.865919 0.533593 0.312871
0.851392 0.472496 0.30219
0.817426 0.383398 0.273655
0.758465 0.259937 0.229145
0.738582 0.20621 0.239063
0.764858 0.212497 0.33196
0.794507 0.240146 0.403159
0.816312 0.262608 0.456352
0.829007 0.275227 0.502525
0.83827 0.287282 0.533562
0.118791 0.622644 0.320378
0.120638 0.625925 0.322347
0.122103 0.628107 0.322103
0.123598 0.629496 0.320073
0.124971 0.630579 0.317617
0.126833 0.632105 0.314839
0.128771 0.633463 0.310933
0.131334 0.634775 0.304723
0.134997 0.63592 0.295369
0.13991 0.638086 0.285161
0.146807 0.640711 0.271092
0.157961 0.641505 0.241642
0.18616 0.643198 0.205219
0.266575 0.648722 0.177981
0.395422 0.655558 0.168765
0.50309 0.663462 0.174594
0.570382 0.675196 0.196262
0.650324 0.681529 0.229526
0.722042 0.682307 0.250965
0.777493 0.686488 0.271046
0.825315 0.688106 0.302129
0.861143 0.682979 0.326909
0.875578 0.671504 0.332418
0.872953 0.647959 0.323934
0.872496 0.613458 0.319951
0.869307 0.55874 0.315724
0.850156 0.472084 0.300221
0.801648 0.347982 0.260761
0.777478 0.294545 0.245487
0.797482 0.283085 0.321386
0.817273 0.281514 0.404059
0.84062 0.305455 0.457618
0.854978 0.320714 0.497841
0.152148 0.679713 0.372732
0.154559 0.682643 0.373632
0.156985 0.685252 0.373541
0.158923 0.68658 0.371908
0.160891 0.687861 0.370138
0.162829 0.689128 0.367712
0.165103 0.690196 0.364614
0.167865 0.691417 0.359518
0.172259 0.693141 0.351919
0.177432 0.69427 0.340566
0.184283 0.696361 0.328435
0.193393 0.698283 0.31014
0.209491 0.698222 0.273625
0.259159 0.702708 0.236851
0.368551 0.709529 0.213458
0.495247 0.718746 0.215183
0.577234 0.728344 0.227649
0.637934 0.740444 0.253056
0.714199 0.746258 0.28632
0.780545 0.746334 0.310704
0.827741 0.749386 0.326925
0.863249 0.749157 0.344671
0.884291 0.744869 0.357336
0.881071 0.732464 0.346166
0.874098 0.713069 0.33109
0.871366 0.682887 0.324117
0.871946 0.638346 0.321218
0.868986 0.566323 0.315648
0.839078 0.444633 0.289281
0.821225 0.390051 0.277852
0.827039 0.381231 0.300587
0.842771 0.354833 0.371679
0.855009 0.352743 0.421439
0.194202 0.733623 0.421286
0.197024 0.7364 0.421759
0.199557 0.73843 0.421698
0.201144 0.739315 0.420218
0.202823 0.740307 0.418601
0.204974 0.741588 0.417136
0.207492 0.742947 0.415076
0.210285 0.744137 0.411551
0.213428 0.744823 0.404959
0.217838 0.7458 0.395361
0.223728 0.746914 0.381811
0.231113 0.748623 0.367514
0.242603 0.749859 0.342794
0.265858 0.749249 0.298604
0.348837 0.756222 0.264622
0.473686 0.765515 0.256184
0.582116 0.774212 0.264759
0.642039 0.785397 0.282368
0.699519 0.797009 0.309377
0.774548 0.802411 0.342229
0.830854 0.801801 0.3664
0.869139 0.804395 0.379049
0.895582 0.804135 0.390753
0.904402 0.79881 0.388754
0.895994 0.786267 0.368139
0.885527 0.767254 0.34519
0.877867 0.74258 0.333608
0.872282 0.7075 0.326787
0.871366 0.652537 0.32163
0.86453 0.55697 0.310231
0.852995 0.47422 0.304479
0.855406 0.479789 0.307012
0.859037 0.488365 0.311925
0.233448 0.778317 0.463218
0.235691 0.780362 0.46302
0.237629 0.781735 0.462776
0.238987 0.782559 0.461814
0.240818 0.783444 0.460273
0.24303 0.78468 0.459022
0.245212 0.785794 0.457435
0.247608 0.786709 0.454627
0.250309 0.787228 0.4495
0.254124 0.788113 0.442115
0.259037 0.788647 0.429953
0.266026 0.7897 0.413947
0.274281 0.790906 0.396338
0.288594 0.790722 0.36347
0.332876 0.792599 0.318471
0.449943 0.802106 0.295918
0.565927 0.811093 0.299351
0.649088 0.819699 0.312215
0.698039 0.831098 0.333181
0.756512 0.842542 0.361486
0.826917 0.847593 0.393545
0.87248 0.846967 0.415473
0.901717 0.849042 0.427726
0.919524 0.848447 0.432532
0.920241 0.842756 0.424231
0.91249 0.83267 0.401892
0.902678 0.81709 0.374243
0.893645 0.796338 0.354391
0.884153 0.768078 0.341573
0.87541 0.729931 0.331212
0.869398 0.681926 0.324407
0.870649 0.617685 0.318227
0.871351 0.583429 0.318425
0.266255 0.812146 0.498314
0.267948 0.814023 0.4981
0.269703 0.815427 0.49752
0.270832 0.815991 0.495872
0.272435 0.816617 0.494575
0.274205 0.817426 0.4934
0.276112 0.817914 0.491615
0.278248 0.818586 0.489265
0.280735 0.819318 0.485267
0.284169 0.820249 0.47924
0.288212 0.820859 0.469718
0.294072 0.821454 0.45481
0.302083 0.821836 0.435309
0.311666 0.822141 0.41352
0.331319 0.820523 0.370794
0.419196 0.829145 0.337026
0.540948 0.8374 0.329442
0.640574 0.844221 0.337972
0.701122 0.854658 0.356161
0.749218 0.866102 0.379614
0.81207 0.876249 0.409186
0.871077 0.880995 0.438392
0.904723 0.879454 0.455985
0.926085 0.880537 0.466148
0.935958 0.879622 0.468116
0.934371 0.875257 0.459907
0.929427 0.869596 0.443381
0.922393 0.859403 0.422049
0.914229 0.843488 0.401404
0.904616 0.824277 0.378042
0.89482 0.802136 0.357565
0.886473 0.773526 0.347417
0.881819 0.757977 0.341039
0.289189 0.834424 0.524727
0.290105 0.835279 0.523888
0.291188 0.835996 0.522927
0.29221 0.836454 0.521355
0.293477 0.836805 0.519783
0.295033 0.837201 0.518303
0.296452 0.837476 0.516732
0.29839 0.837766 0.514153
0.300725 0.838224 0.510811
0.303319 0.838666 0.505669
0.306828 0.839017 0.497597
0.311192 0.839277 0.485206
0.31783 0.839307 0.466926
0.327138 0.83888 0.442252
0.338842 0.837919 0.413062
0.385489 0.841657 0.374411
0.499931 0.85069 0.353918
0.612894 0.856153 0.355001
0.687831 0.863951 0.367987
0.741253 0.874983 0.389792
0.794675 0.885298 0.41474
0.852461 0.892515 0.440665
0.899397 0.897139 0.467308
0.925872 0.897307 0.483238
0.94052 0.899763 0.492576
0.944427 0.899123 0.493141
0.942809 0.897032 0.487511
0.939605 0.894636 0.476661
0.935347 0.889616 0.463218
0.93022 0.880186 0.449622
0.925582 0.870314 0.436332
0.919875 0.8589 0.420249
0.917494 0.853483 0.412711
0.301366 0.84268 0.540948
0.301579 0.842985 0.540063
0.302144 0.843351 0.53872
0.302678 0.843626 0.536873
0.303593 0.843915 0.535409
0.304784 0.844053 0.533974
0.306188 0.844144 0.532204
0.307836 0.844266 0.529915
0.309621 0.844419 0.526375
0.311727 0.844663 0.521477
0.314687 0.845029 0.514641
0.318441 0.84538 0.504692
0.323766 0.845304 0.489235
0.33164 0.844907 0.465888
0.343603 0.843687 0.434211
0.364187 0.843061 0.399817
0.449363 0.852644 0.376608
0.567102 0.858671 0.368048
0.663066 0.865278 0.375662
0.722103 0.87483 0.392859
0.777935 0.885649 0.416251
0.833692 0.893095 0.439155
0.879103 0.898177 0.46099
0.911696 0.897566 0.47982
0.935119 0.901457 0.494377
0.944198 0.902968 0.501595
0.945449 0.9028 0.501747
0.944686 0.901869 0.497963
0.94255 0.900236 0.489723
0.939651 0.898329 0.480674
0.938537 0.897551 0.477623
0.93669 0.894408 0.472526
0.936233 0.893553 0.470634
0.311696 0.846922 0.554009
0.311925 0.847349 0.552926
0.312413 0.847791 0.55172
0.312718 0.848035 0.550225
0.313207 0.848249 0.548745
0.314092 0.848478 0.54696
0.31516 0.848692 0.54519
0.316274 0.84892 0.542901
0.318135 0.849104 0.539651
0.320165 0.849363 0.535119
0.322652 0.849577 0.529274
0.325902 0.849805 0.520989
0.330785 0.849897 0.508522
0.337346 0.849577 0.489677
0.347631 0.848707 0.46096
0.370642 0.849271 0.426261
0.418387 0.854856 0.40415
0.516762 0.861326 0.390036
0.625452 0.866438 0.389364
0.701274 0.875364 0.402136
0.758495 0.885252 0.421271
0.819989 0.893629 0.444465
0.864469 0.898238 0.461631
0.898802 0.90074 0.478386
0.925307 0.901152 0.493919
0.940887 0.904051 0.50634
0.945449 0.905257 0.512398
0.945403 0.904692 0.511025
0.944503 0.903441 0.504997
0.94284 0.901915 0.496742
0.941161 0.900359 0.489967
0.940505 0.899901 0.48748
0.940429 0.89984 0.48719
0.32401 0.851408 0.566064
0.324102 0.851789 0.565377
0.324346 0.852247 0.564355
0.324437 0.852506 0.562783
0.324804 0.852796 0.561288
0.325414 0.85304 0.560128
0.326253 0.8533 0.558618
0.327459 0.853498 0.556283
0.328923 0.853742 0.553094
0.330663 0.853971 0.54902
0.332876 0.8542 0.543664
0.335851 0.854337 0.536477
0.339727 0.854429 0.526238
0.345464 0.854337 0.511345
0.356298 0.854627 0.489509
0.379614 0.856352 0.460594
0.427649 0.862333 0.439872
0.492958 0.86807 0.433326
0.580713 0.871595 0.429038
0.674022 0.878523 0.432395
0.741115 0.887572 0.44593
0.801511 0.895018 0.463859
0.853651 0.899992 0.477394
0.889067 0.902678 0.486641
0.91252 0.900786 0.498665
0.935805 0.904372 0.513832
0.946548 0.907088 0.532464
0.947875 0.908049 0.543282
0.946838 0.907393 0.536614
0.944808 0.905745 0.519219
0.943481 0.904036 0.507836
0.941924 0.902068 0.496895
0.941772 0.901228 0.493797
0.336919 0.856153 0.578378
0.336812 0.856443 0.577676
0.336797 0.856855 0.576638
0.336751 0.857114 0.575235
0.337041 0.857359 0.573831
0.337652 0.857542 0.572503
0.33843 0.85774 0.571176
0.339406 0.857939 0.569467
0.340749 0.858106 0.56643
0.342412 0.858366 0.562768
0.344366 0.85861 0.557534
0.347082 0.858839 0.550958
0.3514 0.859068 0.542275
0.357702 0.859449 0.53106
0.371557 0.861097 0.516411
0.399329 0.864652 0.498512
0.446677 0.869795 0.484901
0.504662 0.874205 0.479881
0.569512 0.878096 0.485115
0.650416 0.883085 0.491341
0.729168 0.89134 0.500191
0.791699 0.898451 0.514061
0.843503 0.903548 0.525841
0.883574 0.907057 0.530709
0.908171 0.905882 0.532097
0.92961 0.906203 0.543633
0.945846 0.908705 0.558968
