bundles/resolve-cinematic-luts/Phantom Luts/A7s3 Phntm Arri LUTs G7/ATOMOS Monitoring LUTs/Slog3/Jamaica A7s3 AML.cube
TITLE "Generated by Resolve"
LUT_3D_SIZE 33
0.0642863 0.0808881 0.0638437
0.0642863 0.0808881 0.0638437
0.0642863 0.0808881 0.0638437
0.0643168 0.0809491 0.0638437
0.0765698 0.0810559 0.0652934
0.0927443 0.0812695 0.0686503
0.116136 0.081529 0.0725872
0.144228 0.0821393 0.0770428
0.174121 0.0822003 0.0814984
0.208927 0.0822309 0.0871748
0.248249 0.0821241 0.0938277
0.291661 0.0820783 0.1019
0.337224 0.0821241 0.107118
0.387747 0.0814984 0.120226
0.44033 0.0814832 0.138094
0.490715 0.0828412 0.156664
0.537728 0.0858625 0.177188
0.580041 0.0903944 0.19968
0.615549 0.0976425 0.225696
0.640589 0.107256 0.254231
0.658778 0.121065 0.283726
0.677821 0.135317 0.314778
0.698161 0.14844 0.347066
0.713344 0.158495 0.378988
0.724758 0.169757 0.413367
0.735653 0.180484 0.451514
0.738811 0.184878 0.488228
0.740459 0.189517 0.522286
0.740246 0.193851 0.551278
0.740017 0.199039 0.576852
0.750454 0.215503 0.608728
0.770321 0.240879 0.647044
0.786969 0.260441 0.675731
0.0642863 0.0808881 0.0638437
0.0642863 0.0808881 0.0638437
0.0642863 0.0808881 0.0638437
0.0642863 0.0809339 0.0638285
0.0754253 0.0810254 0.0647288
0.0906844 0.0813306 0.0679026
0.112963 0.0814527 0.0716564
0.141863 0.082063 0.0763867
0.171893 0.0822156 0.0808881
0.206943 0.0821851 0.0865492
0.246815 0.0821851 0.0934768
0.290532 0.0820783 0.101427
0.336553 0.0821241 0.106813
0.388724 0.0814984 0.120485
0.440772 0.0814984 0.138277
0.491127 0.082887 0.156878
0.53817 0.085893 0.177371
0.580087 0.0904097 0.199649
0.615228 0.0976577 0.225055
0.639857 0.106966 0.25301
0.65774 0.120317 0.281621
0.676448 0.134524 0.311955
0.696681 0.147585 0.344121
0.712215 0.157687 0.375296
0.723003 0.168048 0.408255
0.735103 0.180056 0.445136
0.738674 0.184344 0.481163
0.740322 0.188373 0.513939
0.740291 0.192432 0.542458
0.73846 0.195087 0.565454
0.741466 0.203174 0.589349
0.757549 0.224582 0.622431
0.770367 0.240879 0.646891
0.0642557 0.0809186 0.063859
0.0642863 0.0809186 0.063859
0.0643015 0.0809033 0.063859
0.0642863 0.0809186 0.0638285
0.0730449 0.081117 0.0639506
0.0848096 0.0814221 0.0659648
0.102892 0.0815442 0.0694133
0.131868 0.0822156 0.0740826
0.163012 0.0825818 0.0791943
0.197971 0.0822156 0.0848707
0.238773 0.0821393 0.0916915
0.283803 0.0820935 0.0996719
0.332265 0.0820478 0.106508
0.384497 0.0815442 0.118166
0.438666 0.0814679 0.136995
0.488594 0.0827649 0.155459
0.535119 0.0857404 0.175662
0.577813 0.0902266 0.19762
0.613611 0.0972915 0.223072
0.638529 0.106508 0.250874
0.656687 0.119417 0.279606
0.675288 0.1337 0.310231
0.695323 0.146746 0.341741
0.711681 0.157397 0.37322
0.72221 0.166964 0.405524
0.734859 0.179934 0.441703
0.73843 0.183902 0.476829
0.740246 0.187778 0.509087
0.740383 0.191638 0.537194
0.74023 0.195789 0.561517
0.740368 0.200687 0.582086
0.750698 0.215671 0.608454
0.761898 0.230289 0.630198
0.0640574 0.0824292 0.0645762
0.0641642 0.0823224 0.0639963
0.0652781 0.0819867 0.0637827
0.0655222 0.0819562 0.0641031
0.0717021 0.0823072 0.0641184
0.0805829 0.0825971 0.0650339
0.093492 0.0825055 0.0667735
0.121569 0.0826734 0.0712596
0.154208 0.0829328 0.0772564
0.189319 0.0825055 0.0827649
0.231678 0.0823835 0.0895094
0.276097 0.0820935 0.0974746
0.327504 0.0819562 0.106844
0.37882 0.0818647 0.115663
0.433204 0.0813764 0.134051
0.484352 0.0825666 0.152712
0.532036 0.0856947 0.173129
0.57528 0.0901503 0.195285
0.611627 0.0971389 0.220584
0.637064 0.105867 0.24831
0.655924 0.118853 0.277455
0.673793 0.132876 0.307561
0.693889 0.14583 0.33901
0.710765 0.15668 0.369894
0.720867 0.165606 0.401709
0.733577 0.17882 0.436698
0.737972 0.183246 0.471214
0.73994 0.186954 0.503105
0.740337 0.190585 0.530556
0.740368 0.194522 0.55465
0.739116 0.197513 0.573327
0.742992 0.205478 0.592767
0.753017 0.218845 0.61326
0.0641947 0.0937819 0.0710155
0.0644083 0.0935836 0.0703441
0.0660868 0.0926528 0.0654765
0.0729686 0.0918135 0.0657054
0.0795605 0.0920424 0.0667735
0.0876173 0.0921492 0.0685893
0.100282 0.0919203 0.070222
0.125109 0.0893111 0.0709544
0.157763 0.0870222 0.0740215
0.19237 0.0860456 0.0787213
0.231006 0.084062 0.08365
0.273381 0.0824903 0.09131
0.32781 0.0822003 0.100023
0.381811 0.0817578 0.112535
0.436286 0.0814832 0.131533
0.48307 0.0832532 0.144778
0.530877 0.0867018 0.166705
0.57406 0.0910201 0.18909
0.610742 0.0979477 0.214755
0.636362 0.10663 0.243091
0.655482 0.119585 0.273198
0.673487 0.133425 0.303761
0.693599 0.146044 0.335714
0.710231 0.156451 0.367117
0.719844 0.164797 0.39823
0.732677 0.177951 0.433494
0.737987 0.183215 0.468986
0.740047 0.186908 0.500954
0.74049 0.190478 0.52871
0.740612 0.194415 0.552911
0.739498 0.197528 0.571984
0.74313 0.205264 0.591638
0.753124 0.218509 0.611749
0.0641184 0.107698 0.0752422
0.0643015 0.107347 0.0747234
0.0656748 0.105608 0.0704051
0.0729839 0.103197 0.0674907
0.0823529 0.103151 0.0679637
0.0929732 0.10341 0.069749
0.10988 0.102632 0.0725719
0.132326 0.100557 0.0754711
0.159457 0.0962844 0.0762341
0.192416 0.0912184 0.0753338
0.234562 0.087602 0.0802625
0.278752 0.084947 0.085832
0.324208 0.0810101 0.091371
0.376623 0.0818647 0.104143
0.434714 0.0814984 0.121553
0.485908 0.0833295 0.142748
0.529366 0.0874037 0.159716
0.572671 0.0919203 0.182727
0.609857 0.0988785 0.208774
0.636042 0.107515 0.237858
0.654948 0.120409 0.268421
0.673228 0.134127 0.299931
0.693385 0.14638 0.332341
0.709743 0.156359 0.363989
0.718898 0.16408 0.395209
0.731868 0.177127 0.431159
0.737987 0.183215 0.466789
0.740215 0.186892 0.499062
0.740734 0.190494 0.52723
0.740856 0.194415 0.551736
0.739834 0.197681 0.571328
0.743923 0.206104 0.59173
0.753902 0.219104 0.61178
0.0622263 0.131746 0.0780804
0.0624247 0.131319 0.0776684
0.0639658 0.128267 0.0737774
0.068513 0.12517 0.0687724
0.0793622 0.124544 0.0687114
0.0949264 0.124224 0.0694896
0.114473 0.123369 0.0712596
0.14078 0.121279 0.0755932
0.17232 0.114397 0.0806744
0.201297 0.108415 0.0823835
0.236698 0.100496 0.0792706
0.279698 0.0897231 0.0764477
0.330922 0.0847181 0.084596
0.380636 0.0808118 0.090959
0.426093 0.0798199 0.106432
0.48072 0.0837873 0.129824
0.532372 0.0878767 0.156603
0.571191 0.0931106 0.17499
0.60856 0.100023 0.201541
0.635111 0.108614 0.230991
0.654154 0.12137 0.262531
0.67277 0.135027 0.294972
0.693049 0.146899 0.328267
0.709285 0.156374 0.360479
0.718059 0.163409 0.391424
0.730739 0.176043 0.427131
0.738018 0.183215 0.463569
0.740368 0.186877 0.496818
0.741009 0.190494 0.525414
0.741131 0.194461 0.550591
0.740215 0.197848 0.570672
0.744961 0.206958 0.591882
0.754986 0.220111 0.612665
0.0579385 0.162509 0.081529
0.0581826 0.162081 0.0807813
0.0600443 0.159197 0.0768749
0.0620432 0.156115 0.0704814
0.0725872 0.155245 0.0665904
0.0868696 0.155886 0.0677806
0.112764 0.153536 0.0682383
0.140963 0.151019 0.0717937
0.174075 0.148516 0.0758679
0.217624 0.136309 0.0850996
0.25359 0.124849 0.0884413
0.290333 0.114961 0.0845655
0.333547 0.1028 0.0785992
0.38439 0.0872206 0.0747692
0.434546 0.0798047 0.0868238
0.474723 0.0772564 0.10016
0.523171 0.0852522 0.136141
0.573602 0.0942855 0.170016
0.606531 0.101534 0.191302
0.633585 0.110292 0.221622
0.653162 0.122759 0.25449
0.672251 0.136309 0.28809
0.692683 0.147845 0.322393
0.708644 0.156588 0.355489
0.71696 0.162676 0.386618
0.729397 0.174563 0.422141
0.738018 0.183215 0.45948
0.740581 0.186877 0.493431
0.741314 0.190524 0.523522
0.741482 0.194446 0.548882
0.740856 0.198138 0.569574
0.746334 0.208103 0.591974
0.756237 0.221149 0.612924
0.0528267 0.197147 0.0860609
0.0528115 0.196841 0.0855726
0.0540169 0.194644 0.0812085
0.0561227 0.191867 0.0750744
0.0626078 0.191058 0.0651255
0.0757916 0.191272 0.062623
0.100526 0.190524 0.0651713
0.135714 0.187137 0.066041
0.170993 0.182834 0.0711681
0.212665 0.179919 0.0738994
0.268559 0.163516 0.0869612
0.318685 0.143755 0.0930343
0.355138 0.131868 0.0888228
0.396429 0.115694 0.0820478
0.438148 0.097322 0.0746624
0.481086 0.0814527 0.0758984
0.519707 0.0792706 0.100893
0.559167 0.0864424 0.141985
0.606958 0.10338 0.183658
0.630976 0.112322 0.209003
0.651453 0.12488 0.243473
0.671534 0.138354 0.278843
0.691981 0.14931 0.314
0.707744 0.157 0.348226
0.715587 0.16202 0.379873
0.727962 0.173297 0.416007
0.737942 0.183246 0.453758
0.740871 0.186892 0.489281
0.741802 0.19057 0.520058
0.74197 0.194446 0.546349
0.741634 0.198489 0.568078
0.74844 0.209659 0.592264
0.758282 0.222812 0.613443
0.052903 0.237964 0.0945754
0.052903 0.237949 0.0942245
0.0528725 0.236408 0.088426
0.0529488 0.234028 0.0809339
0.0529335 0.234012 0.072282
0.0600748 0.233707 0.0584115
0.0798199 0.233387 0.0582742
0.122942 0.230304 0.0610208
0.163394 0.226413 0.0627756
0.206439 0.220676 0.0700694
0.256977 0.217151 0.071046
0.326925 0.197177 0.0883803
0.386923 0.170565 0.099733
0.42678 0.155627 0.0969863
0.463645 0.138186 0.0903792
0.498253 0.115267 0.0841077
0.526314 0.0933394 0.0817121
0.549203 0.083711 0.0966049
0.584237 0.0894484 0.147997
0.626749 0.112642 0.19559
0.651362 0.127779 0.237156
0.669886 0.141222 0.266026
0.691295 0.151598 0.302831
0.706645 0.157885 0.338491
0.714183 0.161624 0.370809
0.725383 0.171374 0.407507
0.73785 0.183444 0.44651
0.741146 0.186892 0.482948
0.742443 0.190646 0.515419
0.74255 0.194446 0.543175
0.742596 0.198932 0.566262
0.750698 0.211505 0.592233
0.760983 0.225055 0.613962
0.0529793 0.284352 0.108461
0.0528878 0.284764 0.108339
0.0529946 0.283101 0.102205
0.0529335 0.280751 0.0927291
0.0529488 0.280919 0.0838636
0.0529183 0.281636 0.0697795
0.0586709 0.281651 0.0538338
0.0938125 0.281117 0.054902
0.147677 0.277028 0.0572213
0.194125 0.271015 0.0600137
0.247898 0.263554 0.0699779
0.309209 0.260533 0.0693217
0.389776 0.238849 0.0923781
0.458244 0.207584 0.110658
0.505364 0.187854 0.113512
0.533883 0.174212 0.10808
0.561166 0.152255 0.104616
0.574121 0.119326 0.0989395
0.569467 0.0913252 0.100206
0.59115 0.0954299 0.140139
0.637385 0.122347 0.208347
0.669963 0.144976 0.25687
0.689784 0.155108 0.287388
0.705455 0.159747 0.324544
0.712428 0.161532 0.358846
0.722393 0.168841 0.396048
0.7364 0.182177 0.436713
0.741466 0.187015 0.474937
0.743191 0.190768 0.509239
0.743389 0.19443 0.538247
0.743923 0.19968 0.563302
0.753765 0.214054 0.591974
0.763958 0.227268 0.613916
0.0528115 0.336965 0.125719
0.0528115 0.337087 0.12549
0.0527962 0.335973 0.120699
0.0530098 0.334722 0.112566
0.0529946 0.334874 0.101228
0.0529641 0.336599 0.0914931
0.0529335 0.337621 0.0714122
0.0629282 0.33756 0.0551308
0.114565 0.335988 0.0538033
0.175708 0.330449 0.0553445
0.232898 0.322576 0.059266
0.297963 0.314199 0.0732891
0.368521 0.3122 0.0685588
0.453346 0.291615 0.096788
0.528801 0.260166 0.124895
0.579339 0.234455 0.13727
0.6094 0.22005 0.139055
0.627482 0.20325 0.137713
0.627939 0.170733 0.131731
0.601297 0.119387 0.126345
0.601114 0.105653 0.149279
0.646983 0.130388 0.21709
0.689296 0.159365 0.273655
0.702968 0.163348 0.303944
0.710292 0.162448 0.341268
0.719463 0.166964 0.380606
0.732799 0.17911 0.42295
0.741817 0.187335 0.464347
0.743969 0.191073 0.501198
0.744213 0.194507 0.532021
0.745846 0.200549 0.559228
0.758267 0.217411 0.591882
0.768109 0.23061 0.614633
0.0527962 0.395071 0.147265
0.0528115 0.395239 0.146929
0.052781 0.394568 0.143374
0.0528573 0.393668 0.137057
0.0529641 0.393988 0.12752
0.0528725 0.395331 0.118105
0.0529335 0.396841 0.105501
0.0530251 0.397604 0.0779431
0.0766003 0.398596 0.063035
0.139162 0.396719 0.0564889
0.211337 0.389273 0.0578317
0.278904 0.37966 0.0627756
0.356435 0.371481 0.0778363
0.432166 0.371221 0.0707561
0.516533 0.356298 0.105776
0.596902 0.329046 0.145556
0.654154 0.298787 0.172015
0.684932 0.27863 0.18056
0.692851 0.261677 0.180728
0.685328 0.23241 0.179995
0.653025 0.178729 0.170474
0.61886 0.118364 0.165225
0.657008 0.132525 0.218204
0.699535 0.167407 0.282414
0.707393 0.166217 0.314672
0.715587 0.166064 0.358389
0.727962 0.174716 0.403433
0.742077 0.1879 0.449149
0.745007 0.191424 0.490227
0.745647 0.194675 0.523384
0.75024 0.203372 0.555032
0.763333 0.221363 0.590463
0.773663 0.234821 0.615
0.0529641 0.455802 0.17348
0.0529641 0.455985 0.17322
0.0529488 0.455589 0.170871
0.0529488 0.455192 0.166018
0.0529335 0.455314 0.158297
0.052903 0.456031 0.149615
0.0528878 0.458045 0.140978
0.0528573 0.460075 0.124147
0.062562 0.461326 0.0976577
0.0972305 0.463706 0.0771649
0.170306 0.461433 0.0686503
0.25594 0.450401 0.0674449
0.332845 0.440406 0.0726329
0.419684 0.433112 0.0872969
0.500023 0.435523 0.079408
0.577996 0.427909 0.11902
0.664805 0.403616 0.170382
0.723384 0.376486 0.205112
0.754391 0.347585 0.228977
0.757794 0.328023 0.236118
0.743908 0.300893 0.233188
0.709804 0.245518 0.216831
0.646647 0.137057 0.179583
0.665568 0.138994 0.208682
0.702358 0.172351 0.283665
0.711131 0.169345 0.323964
0.721645 0.171054 0.37499
0.736736 0.183368 0.425666
0.745998 0.191943 0.473533
0.748638 0.196399 0.512779
0.757931 0.209567 0.551827
0.770855 0.226886 0.588754
0.781689 0.240696 0.615167
0.0611887 0.520012 0.207523
0.0606699 0.52015 0.207309
0.0602426 0.520363 0.205798
0.0597086 0.519554 0.201465
0.0597238 0.519615 0.1953
0.0603189 0.520012 0.187793
0.0611887 0.520851 0.179706
0.0651408 0.524224 0.170001
0.0755016 0.52726 0.149035
0.0896315 0.528878 0.120165
0.130297 0.531594 0.101762
0.215976 0.529625 0.0932631
0.315526 0.513497 0.0851911
0.398657 0.507134 0.0896773
0.490105 0.500359 0.106722
0.568124 0.504768 0.0998856
0.641917 0.499657 0.140993
0.728344 0.479683 0.200198
0.787976 0.456413 0.243977
0.8168 0.427024 0.275654
0.817304 0.398978 0.288319
0.800641 0.36614 0.283543
0.76495 0.311604 0.261509
0.688823 0.188373 0.206577
0.669932 0.144808 0.204501
0.703609 0.177462 0.279286
0.715343 0.173144 0.332052
0.728222 0.17702 0.390921
0.746258 0.192828 0.448142
0.756603 0.203281 0.500343
0.768658 0.218555 0.547387
0.781537 0.235279 0.588067
0.792157 0.248493 0.616068
0.0802319 0.585046 0.254124
0.0799573 0.585382 0.254032
0.0794232 0.584985 0.251621
0.0789044 0.584192 0.247089
0.0790723 0.584283 0.241703
0.082063 0.585245 0.235264
0.0870832 0.586831 0.226566
0.0935073 0.589319 0.21706
0.0995804 0.591714 0.203952
0.10869 0.593759 0.179187
0.133486 0.596857 0.148486
0.187411 0.600351 0.126818
0.289982 0.596811 0.115023
0.393301 0.577615 0.102953
0.471611 0.575402 0.117845
0.561471 0.568994 0.13962
0.63389 0.573754 0.136019
0.701503 0.570138 0.177737
0.785626 0.555795 0.239628
0.838514 0.536599 0.282246
0.864713 0.511635 0.311452
0.868421 0.475425 0.326574
0.845487 0.429236 0.315251
0.808896 0.372747 0.292744
0.734737 0.263493 0.241123
0.676753 0.161791 0.20145
0.701045 0.177813 0.269825
0.728283 0.188312 0.346136
0.748577 0.198764 0.416251
0.770291 0.216892 0.482216
0.782773 0.230182 0.538003
0.796338 0.246509 0.585519
0.807095 0.2598 0.617227
0.116533 0.649973 0.309941
0.116289 0.650034 0.309483
0.116579 0.649851 0.306615
0.117449 0.649363 0.301793
0.118715 0.6495 0.296635
0.120851 0.65037 0.291768
0.123064 0.651026 0.284382
0.126955 0.652216 0.274479
0.132448 0.654765 0.264958
0.141329 0.657038 0.246876
0.156374 0.658763 0.217014
0.192462 0.664134 0.18616
0.267887 0.669688 0.161181
0.381125 0.658091 0.143648
0.471687 0.643549 0.136156
0.548745 0.643381 0.159274
0.632441 0.637354 0.185428
0.696391 0.640055 0.190265
0.758312 0.63917 0.230076
0.829389 0.630091 0.283482
0.87306 0.614893 0.318471
0.894224 0.593881 0.338186
0.893156 0.559884 0.338262
0.880903 0.50808 0.332311
0.848829 0.434272 0.317433
0.782834 0.334478 0.276005
0.709209 0.219745 0.225605
0.703853 0.187594 0.259739
0.745312 0.20351 0.375479
0.781491 0.232044 0.446998
0.801312 0.246265 0.518196
0.814954 0.260594 0.576181
0.82504 0.273335 0.614038
0.161883 0.711727 0.372457
0.161852 0.711696 0.371206
0.161868 0.71133 0.368124
0.161898 0.710628 0.36405
0.163165 0.711055 0.360128
0.164691 0.711482 0.355322
0.166827 0.712154 0.349447
0.170642 0.713237 0.340536
0.176318 0.715038 0.329824
0.184329 0.718196 0.318395
0.197101 0.720607 0.295689
0.218021 0.720958 0.260365
0.26862 0.729732 0.23064
0.366018 0.734798 0.204334
0.480308 0.714305 0.182162
0.552056 0.709316 0.187381
0.624109 0.710307 0.214359
0.700359 0.703853 0.242329
0.757931 0.704692 0.25684
0.808835 0.705089 0.28954
0.862028 0.69865 0.327428
0.891539 0.689738 0.349416
0.900191 0.670954 0.352773
0.8981 0.638376 0.345525
0.896498 0.591363 0.340597
0.883574 0.518685 0.333364
0.831601 0.4065 0.307362
0.753765 0.292546 0.254795
0.737926 0.251606 0.262638
0.779202 0.243519 0.389441
0.81976 0.26923 0.475563
0.838224 0.280735 0.55404
0.848768 0.292149 0.602823
0.217594 0.77026 0.439704
0.217746 0.770077 0.437201
0.217685 0.76968 0.434165
0.218067 0.769558 0.430991
0.218814 0.769619 0.427054
0.219944 0.769879 0.422965
0.221714 0.770397 0.417762
0.22472 0.771527 0.410391
0.230472 0.773602 0.400412
0.237415 0.775982 0.388754
0.246967 0.779019 0.374853
0.263523 0.780606 0.347051
0.296117 0.783978 0.311803
0.366339 0.793164 0.276997
0.476097 0.792309 0.252659
0.571252 0.773678 0.238849
0.62829 0.775113 0.252995
0.695552 0.775418 0.27921
0.762982 0.767468 0.305852
0.815503 0.76759 0.326055
0.853193 0.768124 0.351141
0.887861 0.761425 0.373159
0.902235 0.754742 0.381582
0.896315 0.737697 0.36968
0.893523 0.711147 0.357702
0.896727 0.669093 0.349279
0.8972 0.606149 0.341756
0.873106 0.491127 0.327459
0.80148 0.362066 0.287984
0.79443 0.341253 0.290623
0.817929 0.29456 0.392462
0.860746 0.311635 0.501564
0.876097 0.319753 0.572854
0.278233 0.824735 0.504616
0.278843 0.824964 0.5019
0.278645 0.824506 0.498833
0.278386 0.823926 0.495583
0.278889 0.823972 0.492424
0.279896 0.824338 0.489219
0.281132 0.824979 0.485206
0.283711 0.826093 0.47953
0.287404 0.827359 0.470405
0.293126 0.829328 0.458656
0.301228 0.831907 0.446128
0.312505 0.834379 0.428
0.333852 0.83534 0.394736
0.383124 0.844205 0.360555
0.477424 0.854154 0.32987
0.579629 0.839811 0.304952
0.648951 0.829114 0.304006
0.697154 0.832273 0.322179
0.76022 0.831266 0.347326
0.82005 0.824292 0.372412
0.863447 0.824231 0.39202
0.890578 0.825513 0.409262
0.911345 0.820447 0.420661
0.911696 0.8112 0.416922
0.899565 0.794842 0.401083
0.892454 0.770336 0.383169
0.892714 0.737896 0.367437
0.895979 0.685222 0.352224
0.892027 0.577249 0.335973
0.840711 0.421805 0.312444
0.827115 0.399252 0.304967
0.838727 0.324025 0.395666
0.873533 0.319081 0.546868
0.331044 0.869505 0.560662
0.33138 0.869581 0.55761
0.331334 0.869261 0.554482
0.331182 0.868864 0.551568
0.331548 0.868971 0.548821
0.332326 0.869398 0.546334
0.333898 0.870283 0.543328
0.335714 0.871107 0.538842
0.338582 0.872404 0.532097
0.343114 0.874113 0.521889
0.349813 0.876036 0.508476
0.359548 0.879133 0.494667
0.374029 0.881315 0.471992
0.404364 0.883162 0.433921
0.478981 0.894697 0.399161
0.578363 0.896315 0.375769
0.66276 0.878447 0.358801
0.714275 0.875578 0.367102
0.75697 0.879088 0.384115
0.818067 0.877821 0.407218
0.867384 0.871641 0.427604
0.901915 0.871473 0.443671
0.921981 0.872862 0.454673
0.934707 0.869688 0.461036
0.928222 0.860105 0.452354
0.913115 0.844877 0.436332
0.900954 0.822812 0.416846
0.895338 0.793912 0.397681
0.893187 0.75169 0.374243
0.89633 0.659815 0.347005
0.878538 0.499504 0.331899
0.860609 0.471458 0.319158
0.863523 0.399161 0.361334
0.375219 0.904051 0.60853
0.375418 0.904097 0.605814
0.375631 0.904097 0.602564
0.375753 0.904051 0.599542
0.376425 0.904372 0.59736
0.37734 0.904891 0.595178
0.378332 0.905379 0.592477
0.379736 0.906065 0.588922
0.381994 0.907088 0.583429
0.385412 0.908598 0.575326
0.391379 0.910826 0.563928
0.399847 0.913436 0.54873
0.410605 0.915862 0.531487
0.428733 0.917296 0.502907
0.476204 0.924437 0.465507
0.569436 0.936217 0.435782
0.661616 0.925307 0.41207
0.724849 0.911055 0.404547
0.767391 0.911162 0.415442
0.810437 0.914412 0.433021
0.867308 0.913115 0.45452
0.906996 0.908476 0.471855
0.931792 0.908629 0.484215
0.947814 0.908843 0.491386
0.949889 0.905303 0.491356
0.947707 0.898604 0.483803
0.935668 0.887404 0.471687
0.921035 0.868132 0.453788
0.909789 0.844404 0.433509
0.898451 0.807248 0.406943
0.893294 0.741985 0.370153
0.896468 0.591363 0.340703
0.895796 0.582666 0.33994
0.406439 0.928191 0.642893
0.407294 0.92871 0.640757
0.407813 0.928954 0.637995
0.408347 0.929213 0.635523
0.409018 0.92958 0.632959
0.409827 0.930053 0.630854
0.410758 0.930602 0.62855
0.411795 0.931365 0.625818
0.413733 0.932342 0.621424
0.416754 0.933822 0.61532
0.420676 0.935607 0.606455
0.427253 0.938064 0.592325
0.437476 0.940871 0.574472
0.449897 0.942763 0.552789
0.474006 0.944579 0.520043
0.54519 0.948974 0.486
0.643061 0.948898 0.458686
0.721065 0.943191 0.439139
0.771542 0.935699 0.44094
0.810315 0.936629 0.453498
0.856565 0.937407 0.470344
0.904753 0.936828 0.490105
0.934707 0.933928 0.504662
0.949905 0.933089 0.513802
0.94992 0.93283 0.518883
0.949752 0.9299 0.515572
0.949966 0.926055 0.508888
0.950011 0.919997 0.499794
0.945678 0.905806 0.486809
0.932464 0.886458 0.469886
0.914839 0.854704 0.441779
0.898665 0.80441 0.405005
0.897017 0.679606 0.352468
0.419486 0.939239 0.662028
0.420005 0.939452 0.65977
0.421042 0.940032 0.657771
0.421744 0.940429 0.655558
0.422461 0.940871 0.653101
0.423392 0.941497 0.651148
0.424292 0.942123 0.649409
0.425437 0.942992 0.646693
0.427008 0.944076 0.643412
0.429358 0.945464 0.638392
0.432944 0.947234 0.631357
0.437644 0.948913 0.620462
0.445441 0.948806 0.603662
0.457465 0.948837 0.581216
0.473426 0.948867 0.554513
0.513481 0.948867 0.525231
0.600671 0.948928 0.492805
0.695232 0.948806 0.46656
0.757687 0.948959 0.455802
0.801389 0.946075 0.462882
0.84361 0.945525 0.476326
0.88751 0.944335 0.491234
0.926711 0.945022 0.509422
0.949859 0.944274 0.523033
0.949889 0.945022 0.532769
0.949889 0.94522 0.5364
0.949889 0.94374 0.533776
0.949874 0.941772 0.527077
0.949767 0.939239 0.518746
0.949737 0.931044 0.509056
0.949981 0.918303 0.497398
0.936889 0.894896 0.477195
0.91194 0.848096 0.435172
0.426352 0.9458 0.675517
0.425299 0.944595 0.672053
0.425223 0.94435 0.669139
0.425834 0.944823 0.667018
0.426642 0.945373 0.664927
0.427436 0.945937 0.663218
0.428397 0.946517 0.661219
0.429496 0.947204 0.658717
0.430549 0.947875 0.655283
0.43238 0.948806 0.651148
0.434928 0.948837 0.645243
0.439078 0.948821 0.636255
0.445228 0.948837 0.623224
0.454459 0.948882 0.603098
0.46949 0.948913 0.574914
0.49456 0.948989 0.54548
0.551919 0.948882 0.521202
0.653178 0.948806 0.495689
0.733425 0.948837 0.474372
0.784878 0.948943 0.471519
0.827466 0.948806 0.481041
0.872328 0.947341 0.493416
0.910475 0.946242 0.506432
0.937453 0.944579 0.519799
0.949889 0.94519 0.531838
0.949828 0.946639 0.540475
0.949844 0.946899 0.542672
0.949813 0.946578 0.540932
0.949889 0.945739 0.53431
0.949859 0.943633 0.525643
0.949859 0.942336 0.521431
0.94992 0.937072 0.514626
0.949783 0.922194 0.500999
0.434333 0.948943 0.687816
0.43241 0.948882 0.683757
0.431479 0.948882 0.680278
0.431724 0.948867 0.678279
0.432273 0.948867 0.676402
0.433066 0.948867 0.674739
0.433707 0.948913 0.672938
0.434638 0.948898 0.670954
0.435996 0.948898 0.667735
0.437675 0.948867 0.66392
0.439658 0.948882 0.658518
0.442588 0.948913 0.651347
0.447257 0.948898 0.640925
0.45452 0.948928 0.624765
0.467369 0.948928 0.600916
0.489754 0.948791 0.56965
0.531792 0.948791 0.547387
0.604227 0.948913 0.530541
0.700023 0.948913 0.507622
0.766796 0.948898 0.492378
0.812879 0.948959 0.494743
0.857572 0.948821 0.5028
0.898344 0.948302 0.512108
0.928084 0.94728 0.521828
0.948241 0.946227 0.53286
0.949813 0.946502 0.54284
0.949859 0.947677 0.55111
0.949874 0.947967 0.553201
0.949844 0.947585 0.548699
0.949828 0.946715 0.538491
0.949874 0.945144 0.529183
0.949859 0.943771 0.524559
0.949874 0.942885 0.521965
0.441962 0.949004 0.698848
0.440055 0.948959 0.694957
0.438788 0.948943 0.691829
0.438605 0.948943 0.689113
0.438804 0.948943 0.687022
0.439384 0.948928 0.685756
0.440009 0.948928 0.684306
0.440696 0.948974 0.682155
0.441855 0.948974 0.679347
0.443427 0.948959 0.675669
0.445502 0.948943 0.671214
0.447776 0.948974 0.664881
0.451575 0.948959 0.656367
0.457603 0.948989 0.643732
0.468437 0.948913 0.625803
0.490318 0.948852 0.601953
0.530236 0.948867 0.579812
0.591684 0.948837 0.571633
0.666835 0.948852 0.566796
0.746197 0.948882 0.548424
0.801892 0.949004 0.535149
0.845685 0.948837 0.535668
0.886687 0.948867 0.537423
0.919936 0.948882 0.538094
