bundles/resolve-cinematic-luts/Phantom Luts/A7s3 Phntm Arri LUTs G7/ATOMOS Monitoring LUTs/Slog3/Jamaica A7s3 AML.cube
TITLE "Generated by Resolve"
LUT_3D_SIZE 5
0.0642863 0.0808881 0.0638437
0.174121 0.0822003 0.0814984
0.537728 0.0858625 0.177188
0.724758 0.169757 0.413367
0.786969 0.260441 0.675731
0.0528267 0.197147 0.0860609
0.170993 0.182834 0.0711681
0.519707 0.0792706 0.100893
0.715587 0.16202 0.379873
0.758282 0.222812 0.613443
0.116533 0.649973 0.309941
0.132448 0.654765 0.264958
0.632441 0.637354 0.185428
0.848829 0.434272 0.317433
0.82504 0.273335 0.614038
0.426352 0.9458 0.675517
0.430549 0.947875 0.655283
0.551919 0.948882 0.521202
0.949889 0.94519 0.531838
0.949783 0.922194 0.500999
0.66714 0.948974 0.826474
0.635142 0.948913 0.801816
0.712077 0.948882 0.809873
0.912551 0.946593 0.821317
0.949905 0.942168 0.838987
0.0656443 0.0816205 0.143114
0.172824 0.0805982 0.159991
0.545541 0.0800488 0.236225
0.731762 0.177462 0.443961
0.798688 0.274784 0.698802
0.0607309 0.182986 0.166705
0.160784 0.176593 0.156497
0.541466 0.088014 0.171954
0.726558 0.171954 0.417716
0.823667 0.30248 0.735592
0.10518 0.641978 0.349065
0.116899 0.644709 0.302632
0.619058 0.625467 0.18323
0.823713 0.394018 0.302647
0.867689 0.33521 0.746166
0.425406 0.944976 0.687449
0.427924 0.946731 0.671733
0.523766 0.948943 0.538491
0.949889 0.945159 0.531762
0.946532 0.909682 0.490608
0.678248 0.948821 0.835111
0.671122 0.948974 0.825452
0.725826 0.948913 0.826535
0.910918 0.946944 0.82295
0.949889 0.942718 0.838148
0.0794232 0.0831464 0.428229
0.186969 0.0768292 0.455634
0.527138 0.0831464 0.499397
0.718532 0.178805 0.566827
0.801846 0.290333 0.736645
0.0528878 0.120134 0.437919
0.0824903 0.0869154 0.472099
0.539803 0.0856947 0.507607
0.722164 0.178866 0.558495
0.832334 0.323232 0.777142
0.112078 0.588266 0.550683
0.115419 0.588006 0.542519
0.5682 0.57789 0.528115
0.794781 0.248112 0.440589
0.926329 0.464988 0.892226
0.426886 0.939986 0.754513
0.429129 0.944411 0.741878
0.479026 0.948943 0.66511
0.949996 0.947982 0.610864
0.934813 0.891997 0.474784
0.674449 0.948852 0.850462
0.66688 0.948974 0.841382
0.73489 0.948898 0.851392
0.906172 0.947967 0.8383
0.949905 0.942412 0.839048
0.101701 0.121004 0.588144
0.175952 0.101793 0.607889
0.45275 0.111833 0.654337
0.683207 0.190982 0.699809
0.701396 0.223072 0.721614
0.0860456 0.160769 0.596857
0.0957351 0.13283 0.593256
0.447517 0.115877 0.662516
0.683665 0.192294 0.703151
0.740566 0.269871 0.761486
0.167773 0.519295 0.716014
0.168246 0.510857 0.717769
0.445014 0.473198 0.868544
0.69482 0.209003 0.7122
0.917754 0.486137 0.939071
0.430625 0.889815 0.879225
0.431327 0.892164 0.877607
0.446998 0.910185 0.884428
0.899626 0.909331 0.882643
0.946853 0.7729 0.857664
0.636728 0.949004 0.922271
0.643687 0.948852 0.917586
0.734234 0.948928 0.916274
0.890303 0.946319 0.909026
0.946868 0.941756 0.908461
0.113024 0.232944 0.642512
0.106996 0.207553 0.633509
0.379583 0.119371 0.670726
0.676585 0.185382 0.707042
0.69131 0.209293 0.720806
0.11693 0.250065 0.649348
0.139666 0.329061 0.685252
0.388098 0.224231 0.76582
0.678874 0.188815 0.709316
0.693507 0.212619 0.722789
0.207324 0.561395 0.757549
0.215335 0.578943 0.764935
0.309697 0.620233 0.862608
0.919295 0.494087 0.943938
0.702342 0.225742 0.731548
0.396597 0.856123 0.88011
0.397848 0.857099 0.879988
0.433539 0.874968 0.905043
0.877806 0.895872 0.934676
0.931533 0.740337 0.942168
0.58761 0.948959 0.94995
0.602243 0.948821 0.949813
0.707454 0.948821 0.949813
0.887572 0.943908 0.945754
0.947387 0.941161 0.946807
