bundles/resolve-cinematic-luts/Phantom Luts/A7s3 Phntm Arri LUTs G7/ATOMOS Monitoring LUTs/Slog3/Jamaica A7s3 AML.cube
TITLE "Generated by Resolve"
LUT_3D_SIZE 9
0.0642863 0.0808881 0.0638437
0.0765698 0.0810559 0.0652934
0.174121 0.0822003 0.0814984
0.337224 0.0821241 0.107118
0.537728 0.0858625 0.177188
0.658778 0.121065 0.283726
0.724758 0.169757 0.413367
0.740246 0.193851 0.551278
0.786969 0.260441 0.675731
0.0641947 0.0937819 0.0710155
0.0795605 0.0920424 0.0667735
0.157763 0.0870222 0.0740215
0.32781 0.0822003 0.100023
0.530877 0.0867018 0.166705
0.655482 0.119585 0.273198
0.719844 0.164797 0.39823
0.74049 0.190478 0.52871
0.753124 0.218509 0.611749
0.0528267 0.197147 0.0860609
0.0626078 0.191058 0.0651255
0.170993 0.182834 0.0711681
0.355138 0.131868 0.0888228
0.519707 0.0792706 0.100893
0.651453 0.12488 0.243473
0.715587 0.16202 0.379873
0.741802 0.19057 0.520058
0.758282 0.222812 0.613443
0.0527962 0.395071 0.147265
0.0529641 0.393988 0.12752
0.0766003 0.398596 0.063035
0.356435 0.371481 0.0778363
0.654154 0.298787 0.172015
0.653025 0.178729 0.170474
0.707393 0.166217 0.314672
0.745007 0.191424 0.490227
0.773663 0.234821 0.615
0.116533 0.649973 0.309941
0.118715 0.6495 0.296635
0.132448 0.654765 0.264958
0.267887 0.669688 0.161181
0.632441 0.637354 0.185428
0.87306 0.614893 0.318471
0.848829 0.434272 0.317433
0.745312 0.20351 0.375479
0.82504 0.273335 0.614038
0.331044 0.869505 0.560662
0.331548 0.868971 0.548821
0.338582 0.872404 0.532097
0.374029 0.881315 0.471992
0.66276 0.878447 0.358801
0.867384 0.871641 0.427604
0.928222 0.860105 0.452354
0.893187 0.75169 0.374243
0.863523 0.399161 0.361334
0.426352 0.9458 0.675517
0.426642 0.945373 0.664927
0.430549 0.947875 0.655283
0.445228 0.948837 0.623224
0.551919 0.948882 0.521202
0.827466 0.948806 0.481041
0.949889 0.94519 0.531838
0.949889 0.945739 0.53431
0.949783 0.922194 0.500999
0.464302 0.948974 0.722087
0.455634 0.948913 0.710048
0.459236 0.948898 0.704112
0.471015 0.948959 0.687495
0.572335 0.948898 0.670085
0.78735 0.948943 0.667628
0.932525 0.948974 0.64918
0.949783 0.946075 0.670573
0.94992 0.948135 0.574456
0.66714 0.948974 0.826474
0.630289 0.948913 0.802594
0.635142 0.948913 0.801816
0.656809 0.948852 0.80322
0.712077 0.948882 0.809873
0.808408 0.948974 0.821408
0.912551 0.946593 0.821317
0.949859 0.942 0.820951
0.949905 0.942168 0.838987
0.0641337 0.081117 0.0738231
0.0769818 0.0811017 0.0758373
0.175128 0.0808118 0.100694
0.337423 0.0801404 0.130678
0.539483 0.0839246 0.194064
0.662196 0.120607 0.301152
0.728481 0.174258 0.426932
0.739193 0.195285 0.560388
0.798718 0.273732 0.695384
0.0649119 0.092607 0.0804608
0.0751354 0.0917067 0.076463
0.178683 0.0864424 0.0826276
0.337163 0.0822919 0.105653
0.535821 0.0863355 0.174151
0.657481 0.120455 0.279896
0.722148 0.16791 0.407599
0.740001 0.192721 0.541863
0.772671 0.242329 0.646906
0.0544289 0.195483 0.11841
0.0534829 0.19556 0.086244
0.167941 0.18262 0.0722362
0.360449 0.125902 0.0903487
0.527489 0.0810407 0.119524
0.654658 0.125826 0.25214
0.718578 0.164645 0.390326
0.741527 0.192767 0.535973
0.778408 0.2477 0.651987
0.0528573 0.393149 0.167803
0.0527962 0.394369 0.146502
0.0578317 0.398108 0.0749218
0.354604 0.370596 0.0784924
0.654215 0.292699 0.174517
0.640467 0.160632 0.163897
0.709865 0.165209 0.329488
0.745159 0.193179 0.511467
0.796277 0.262776 0.663005
0.112627 0.647639 0.323217
0.115923 0.649454 0.307897
0.127626 0.652125 0.273671
0.246464 0.668009 0.165438
0.630793 0.635889 0.185046
0.875456 0.610697 0.320745
0.837613 0.4159 0.310643
0.76907 0.223957 0.413596
0.846586 0.302419 0.6822
0.327291 0.867262 0.568276
0.330709 0.869001 0.559014
0.336217 0.871977 0.543221
0.367483 0.881483 0.485267
0.653727 0.881453 0.360922
0.867216 0.871641 0.427527
0.927459 0.858 0.450706
0.893294 0.7243 0.362295
0.931182 0.399527 0.600076
0.425589 0.94519 0.680552
0.425071 0.944198 0.672145
0.429099 0.947158 0.662852
0.442008 0.948867 0.633295
0.536416 0.948837 0.528679
0.824018 0.948882 0.48098
0.949874 0.945159 0.531792
0.949889 0.945525 0.533715
0.948608 0.912581 0.49305
0.466255 0.948959 0.726726
0.459419 0.948928 0.71693
0.461463 0.948913 0.711177
0.474052 0.948974 0.695613
0.570321 0.948913 0.678813
0.782116 0.948959 0.674342
0.931304 0.948959 0.651408
0.949767 0.946075 0.670893
0.94992 0.948928 0.572641
0.678187 0.948821 0.833082
0.661173 0.948913 0.820691
0.665171 0.948959 0.820768
0.678599 0.948806 0.819837
0.724865 0.948898 0.823514
0.809934 0.948837 0.829526
0.911604 0.946792 0.821439
0.949859 0.94197 0.821256
0.949889 0.942672 0.838239
0.0656443 0.0816205 0.143114
0.0935073 0.0813306 0.143969
0.172824 0.0805982 0.159991
0.345296 0.0772717 0.191821
0.545541 0.0800488 0.236225
0.667414 0.121401 0.327581
0.731762 0.177462 0.443961
0.738216 0.195865 0.567163
0.798688 0.274784 0.698802
0.0629435 0.0915541 0.125139
0.0674754 0.0853895 0.145296
0.174792 0.0811322 0.159243
0.342687 0.0780499 0.164019
0.540703 0.0813916 0.213855
0.662272 0.119402 0.306676
0.727962 0.173449 0.426352
0.739025 0.193561 0.551812
0.776379 0.247944 0.657618
0.0607309 0.182986 0.166705
0.0624399 0.182391 0.161349
0.160784 0.176593 0.156497
0.383368 0.125673 0.151995
0.541466 0.088014 0.171954
0.660777 0.123919 0.281804
0.726558 0.171954 0.417716
0.741238 0.19794 0.566323
0.823667 0.30248 0.735592
0.0527962 0.386847 0.216052
0.0528267 0.387686 0.195895
0.0529488 0.386175 0.147082
0.345556 0.363195 0.101106
0.628275 0.284169 0.181689
0.643275 0.141756 0.192508
0.714458 0.164431 0.3579
0.746777 0.198749 0.544335
0.83537 0.311574 0.741588
0.10518 0.641978 0.349065
0.106889 0.642924 0.332845
0.116899 0.644709 0.302632
0.194705 0.656367 0.182055
0.619058 0.625467 0.18323
0.877684 0.597421 0.323827
0.823713 0.394018 0.302647
0.781033 0.229664 0.461982
0.867689 0.33521 0.746166
0.321584 0.863111 0.576883
0.324193 0.864713 0.568627
0.328725 0.867491 0.553964
0.353185 0.87541 0.494514
0.631403 0.886458 0.366613
0.863386 0.868467 0.424796
0.929671 0.854185 0.449851
0.893294 0.709911 0.357259
0.947478 0.434318 0.638102
0.425406 0.944976 0.687449
0.42501 0.944289 0.679866
0.427924 0.946731 0.671733
0.440055 0.948852 0.64358
0.523766 0.948943 0.538491
0.820264 0.948989 0.483909
0.949889 0.945159 0.531762
0.949905 0.9458 0.535103
0.946532 0.909682 0.490608
0.466239 0.948898 0.730907
0.458732 0.948928 0.720928
0.461494 0.948928 0.71696
0.473503 0.948989 0.701747
0.567041 0.948882 0.684825
0.778775 0.948928 0.679255
0.930373 0.948959 0.655985
0.949783 0.946105 0.669902
0.94992 0.948928 0.574029
0.678248 0.948821 0.835111
0.658671 0.948913 0.820905
0.671122 0.948974 0.825452
0.682521 0.948852 0.824201
0.725826 0.948913 0.826535
0.808713 0.948852 0.830701
0.910918 0.946944 0.82295
0.949859 0.941955 0.822965
0.949889 0.942718 0.838148
0.0705119 0.0819104 0.266407
0.097673 0.0797742 0.269017
0.182712 0.0782635 0.285588
0.339895 0.0769818 0.312001
0.547845 0.0786908 0.358679
0.680095 0.127565 0.397559
0.731655 0.178225 0.485481
0.735027 0.197086 0.584176
0.798688 0.278248 0.708537
0.0560922 0.0868238 0.256825
0.0663005 0.0830396 0.271595
0.166094 0.0787518 0.294209
0.34081 0.076997 0.310704
0.546822 0.0784772 0.345602
0.676799 0.124773 0.378973
0.732021 0.17763 0.472038
0.736431 0.195209 0.571801
0.776318 0.251591 0.669459
0.0531014 0.166415 0.272175
0.0529183 0.160113 0.280827
0.126055 0.134218 0.314717
0.369558 0.0931563 0.33019
0.553033 0.0795605 0.312749
0.674205 0.124254 0.357534
0.733562 0.178592 0.466606
0.738796 0.200504 0.585931
0.827588 0.310079 0.750713
0.0539864 0.359884 0.32221
0.0528878 0.359655 0.31754
0.0636759 0.356832 0.307881
0.340261 0.358633 0.316106
0.634974 0.273045 0.295338
0.671336 0.138491 0.27892
0.728008 0.173281 0.417533
0.747677 0.207492 0.585122
0.877852 0.368139 0.817288
0.10425 0.628748 0.428367
0.103502 0.630198 0.416815
0.112184 0.632258 0.390555
0.147692 0.638254 0.291463
0.600809 0.610468 0.245136
0.873594 0.571542 0.340719
0.793454 0.333074 0.295171
0.78674 0.232761 0.525429
0.896895 0.38407 0.815198
0.312612 0.855329 0.60914
0.313069 0.856092 0.59881
0.315312 0.85864 0.583474
0.328893 0.867521 0.539574
0.557092 0.902541 0.398322
0.849912 0.856855 0.416297
0.935714 0.841443 0.45066
0.893904 0.680003 0.349142
0.94963 0.440528 0.728145
0.425193 0.944259 0.705547
0.425284 0.944457 0.699062
0.427848 0.946929 0.692714
0.437644 0.948898 0.669001
0.500389 0.948882 0.570962
0.808743 0.948913 0.497841
0.949889 0.945159 0.534386
0.949783 0.946334 0.541161
0.942855 0.903975 0.485679
0.466041 0.948791 0.74258
0.459144 0.948959 0.733211
0.461433 0.948943 0.729473
0.473213 0.948791 0.717464
0.562356 0.948882 0.70135
0.771267 0.948913 0.694133
0.927901 0.948989 0.670787
0.949798 0.946166 0.668116
0.949935 0.948943 0.581155
0.678508 0.948837 0.840009
0.657786 0.948928 0.825437
0.66833 0.948974 0.828656
0.689265 0.948913 0.833692
0.728328 0.948928 0.833494
0.806012 0.948928 0.83447
0.909438 0.947311 0.826673
0.949874 0.941909 0.827771
0.949889 0.942596 0.838331
0.0794232 0.0831464 0.428229
0.110369 0.0793164 0.434256
0.186969 0.0768292 0.455634
0.337682 0.0761578 0.474037
0.527138 0.0831464 0.499397
0.667994 0.13019 0.508507
0.718532 0.178805 0.566827
0.727474 0.20177 0.621973
0.801846 0.290333 0.736645
0.0663462 0.0854353 0.430991
0.0781872 0.0835737 0.433875
0.165026 0.0766308 0.459693
0.330022 0.0761883 0.47599
0.526894 0.0829786 0.497993
0.66656 0.127916 0.502678
0.719844 0.177523 0.558511
0.727672 0.199405 0.613596
0.77969 0.264836 0.701762
0.0528878 0.120134 0.437919
0.0528267 0.114336 0.443442
0.0824903 0.0869154 0.472099
0.324468 0.0773175 0.512871
0.539803 0.0856947 0.507607
0.669398 0.129213 0.499519
0.722164 0.178866 0.558495
0.733379 0.207858 0.626886
0.832334 0.323232 0.777142
0.0537423 0.319402 0.467216
0.0529488 0.315358 0.470039
0.0529335 0.300435 0.483665
0.272572 0.276631 0.531044
0.610742 0.191333 0.557031
0.68455 0.137697 0.480858
0.726436 0.178424 0.536767
0.748577 0.222827 0.638468
0.891997 0.395209 0.851789
0.112078 0.588266 0.550683
0.111177 0.588769 0.546624
0.115419 0.588006 0.542519
0.137835 0.584543 0.524392
0.5682 0.57789 0.528115
0.886259 0.519722 0.527687
0.794781 0.248112 0.440589
0.783078 0.242527 0.618982
0.926329 0.464988 0.892226
0.302327 0.834043 0.676341
0.301915 0.835538 0.668788
0.303014 0.839185 0.66125
0.308598 0.849683 0.632242
0.464027 0.895659 0.568795
0.822263 0.835416 0.536049
0.949722 0.814633 0.546593
0.920958 0.611231 0.373556
0.943389 0.467094 0.831815
0.426886 0.939986 0.754513
0.426719 0.94081 0.748333
0.429129 0.944411 0.741878
0.437217 0.948837 0.722805
0.479026 0.948943 0.66511
0.787839 0.948882 0.623011
0.949996 0.947982 0.610864
0.949798 0.945022 0.597559
0.934813 0.891997 0.474784
0.466148 0.948852 0.770138
0.460029 0.948791 0.762158
0.462318 0.948837 0.758831
0.475715 0.948882 0.752026
0.563897 0.948989 0.743053
0.752972 0.948898 0.732692
0.921248 0.947631 0.713588
0.949783 0.945464 0.685802
0.949859 0.947936 0.647868
0.674449 0.948852 0.850462
0.655985 0.948913 0.838865
0.66688 0.948974 0.841382
0.688365 0.948943 0.846036
0.73489 0.948898 0.851392
0.802487 0.948943 0.845869
0.906172 0.947967 0.8383
0.949828 0.94168 0.840879
0.949905 0.942412 0.839048
0.105226 0.0917678 0.563638
0.139818 0.0859388 0.572488
0.198703 0.0821546 0.587289
0.333089 0.0838331 0.60882
0.487663 0.0894331 0.603296
0.634668 0.141375 0.604105
0.695994 0.184863 0.648615
0.704311 0.206332 0.68394
0.771282 0.280858 0.751385
0.0894942 0.0948806 0.560983
0.103548 0.092195 0.563394
0.167758 0.0822156 0.580102
0.318776 0.0842603 0.610712
0.483314 0.0888228 0.60325
0.633356 0.139757 0.601877
0.697139 0.183444 0.645121
0.703716 0.204974 0.679683
0.740215 0.247349 0.714443
0.0595407 0.129824 0.567559
0.0592355 0.126207 0.566415
0.105394 0.0979782 0.576623
0.291447 0.0868238 0.620844
0.491722 0.0958877 0.618051
0.636622 0.142748 0.605173
0.697398 0.18526 0.651331
0.70724 0.208438 0.683711
0.825727 0.334737 0.811597
0.071458 0.274662 0.604883
0.0708171 0.267216 0.604059
0.0740063 0.25214 0.611139
0.189258 0.188449 0.660517
0.484932 0.114977 0.654459
0.657328 0.159426 0.622003
0.697765 0.18558 0.650813
0.71133 0.211383 0.684001
0.903792 0.429023 0.893599
0.128084 0.543832 0.655955
0.126009 0.541711 0.653834
0.125994 0.536248 0.656611
0.124163 0.515648 0.662181
0.50573 0.512764 0.749538
0.866163 0.440589 0.789731
0.712978 0.193881 0.636133
0.720913 0.216602 0.678126
0.930175 0.502663 0.921508
0.295674 0.786175 0.75697
0.294392 0.786892 0.752789
0.294621 0.788205 0.752117
0.296345 0.793179 0.750988
0.417685 0.826658 0.759213
0.776516 0.784405 0.736095
0.948409 0.74934 0.745892
0.949783 0.457832 0.690455
0.935027 0.485847 0.888106
0.432822 0.921889 0.831113
0.432166 0.923293 0.826017
0.433677 0.926635 0.823728
0.437827 0.935286 0.815732
0.473686 0.948959 0.789181
0.738888 0.948898 0.780346
0.930022 0.932326 0.761227
0.949676 0.924559 0.757687
0.94992 0.879057 0.492027
0.464652 0.949004 0.832853
0.460853 0.948943 0.826886
0.463203 0.948989 0.824048
0.474891 0.948882 0.816999
0.574197 0.948821 0.818296
0.739361 0.948974 0.815198
0.908461 0.947082 0.798947
0.949813 0.940993 0.799496
0.949813 0.942214 0.785916
0.66453 0.948821 0.874739
0.651011 0.948974 0.868711
0.664698 0.948821 0.869963
0.688746 0.948989 0.872923
0.737835 0.948898 0.877546
0.805508 0.948867 0.874098
0.902098 0.947738 0.866621
0.94641 0.941283 0.871199
0.94992 0.942245 0.849851
0.101701 0.121004 0.588144
0.129946 0.113893 0.597574
0.175952 0.101793 0.607889
0.295888 0.100877 0.639735
0.45275 0.111833 0.654337
0.59089 0.144366 0.65687
0.683207 0.190982 0.699809
0.692424 0.208927 0.715068
0.701396 0.223072 0.721614
0.0921645 0.124178 0.584787
0.102205 0.119371 0.587243
0.153765 0.108125 0.604212
0.278798 0.0997482 0.635386
0.449149 0.111955 0.655146
0.588632 0.143404 0.655848
0.683192 0.190249 0.697993
0.690791 0.20766 0.711788
0.699001 0.220661 0.718822
0.0860456 0.160769 0.596857
0.0853742 0.157214 0.595087
0.0957351 0.13283 0.593256
0.240864 0.0996109 0.626749
0.447517 0.115877 0.662516
0.597559 0.149157 0.664088
0.683665 0.192294 0.703151
0.694362 0.211414 0.718074
0.740566 0.269871 0.761486
0.103197 0.260884 0.641291
0.101991 0.253056 0.638178
0.105089 0.242817 0.636667
0.132342 0.193545 0.638178
0.414664 0.128908 0.680079
0.636774 0.17528 0.692531
0.683864 0.193652 0.706569
0.696437 0.214343 0.72108
0.848051 0.375891 0.873213
0.167773 0.519295 0.716014
0.166445 0.515572 0.715053
0.168246 0.510857 0.717769
0.167712 0.48716 0.71986
0.445014 0.473198 0.868544
0.79794 0.403693 0.904295
0.69482 0.209003 0.7122
0.697398 0.215595 0.721782
0.917754 0.486137 0.939071
0.281621 0.735759 0.789258
0.279896 0.734539 0.787549
0.279057 0.732662 0.787976
0.274159 0.724392 0.786969
0.342947 0.750896 0.858778
0.735241 0.743313 0.878218
0.938766 0.700587 0.909834
0.854261 0.372946 0.860731
0.910185 0.460075 0.925719
0.430625 0.889815 0.879225
0.429862 0.890471 0.876799
0.431327 0.892164 0.877607
0.434058 0.896284 0.879118
0.446998 0.910185 0.884428
0.713924 0.928847 0.896239
0.899626 0.909331 0.882643
0.948074 0.895003 0.888808
0.946853 0.7729 0.857664
0.469612 0.933745 0.898741
0.46836 0.934035 0.895872
0.469398 0.935836 0.89543
0.47538 0.941558 0.895506
0.542275 0.948943 0.906126
0.742489 0.948959 0.903624
0.88571 0.947936 0.89456
0.947433 0.940688 0.897017
0.949905 0.9411 0.890913
0.636728 0.949004 0.922271
0.624491 0.948898 0.91783
0.643687 0.948852 0.917586
0.675517 0.948882 0.917403
0.734234 0.948928 0.916274
0.811475 0.948989 0.912383
0.890303 0.946319 0.909026
0.941024 0.941894 0.90988
0.946868 0.941756 0.908461
0.0996262 0.184039 0.620752
0.0969558 0.173663 0.617273
0.101381 0.147692 0.610758
0.224338 0.103761 0.629618
0.430488 0.118639 0.670741
0.590219 0.14258 0.680293
0.678965 0.18909 0.708873
0.6878 0.20415 0.717708
0.696925 0.217762 0.726329
0.0982681 0.180514 0.618112
0.0975052 0.177996 0.617182
0.0949874 0.158724 0.612131
0.208652 0.105058 0.626322
0.423209 0.117998 0.670222
0.590173 0.14258 0.680461
0.67892 0.188617 0.70779
0.687282 0.203296 0.717174
0.693217 0.215915 0.722133
0.102647 0.199802 0.624964
0.102266 0.197757 0.624353
0.103441 0.196796 0.627268
0.132052 0.132387 0.616266
0.399908 0.11632 0.66836
0.623072 0.164218 0.693507
0.67921 0.189792 0.709636
0.689281 0.20589 0.719417
0.699825 0.223056 0.728862
0.127977 0.309148 0.67042
0.127077 0.30454 0.668757
0.132891 0.315145 0.676234
0.131762 0.297215 0.672892
0.414206 0.223026 0.770504
0.616144 0.178332 0.704646
0.680888 0.19263 0.711284
0.690333 0.207736 0.720562
0.748012 0.281132 0.776211
0.190875 0.529503 0.741787
0.189609 0.52697 0.740703
0.192508 0.527626 0.744137
0.192401 0.513436 0.746502
0.395193 0.510491 0.88011
0.767224 0.459922 0.929473
0.708309 0.234104 0.737453
0.691844 0.209735 0.722011
0.877302 0.410697 0.904616
0.286152 0.730327 0.810468
0.284825 0.729366 0.809537
0.28484 0.728634 0.810391
0.282032 0.722499 0.810239
0.333471 0.73695 0.863828
0.703883 0.734966 0.914565
0.922621 0.697246 0.943069
0.873732 0.4056 0.901671
0.852583 0.382193 0.880522
0.418402 0.868696 0.885847
0.417502 0.868467 0.884489
0.419089 0.86952 0.885832
0.424598 0.872633 0.890181
0.439094 0.883055 0.906905
0.683238 0.898573 0.934539
0.887663 0.896056 0.929274
0.943603 0.8804 0.939178
0.93257 0.70808 0.943084
0.476265 0.923995 0.925704
0.47538 0.924651 0.923033
0.476616 0.925917 0.924163
0.480629 0.92958 0.927031
0.52047 0.946532 0.943435
0.721859 0.948913 0.947738
0.884062 0.941573 0.937377
0.940429 0.937972 0.936126
0.949966 0.935454 0.9402
0.603082 0.948821 0.949813
0.593027 0.949004 0.94815
0.615137 0.948928 0.948257
0.651484 0.948943 0.948119
0.715679 0.948913 0.946471
0.799496 0.948974 0.942733
0.894316 0.943603 0.936645
0.936629 0.941802 0.936477
0.948623 0.940688 0.939498
0.113024 0.232944 0.642512
0.110277 0.221256 0.638086
0.106996 0.207553 0.633509
0.104265 0.153109 0.613825
0.379583 0.119371 0.670726
0.612665 0.164126 0.693996
0.676585 0.185382 0.707042
0.681544 0.193713 0.711727
0.69131 0.209293 0.720806
0.109331 0.218952 0.636316
0.108965 0.2177 0.63595
0.106661 0.206027 0.632685
0.103456 0.151919 0.613184
0.374929 0.11487 0.665766
0.609674 0.162158 0.693111
0.676204 0.184771 0.706661
0.681163 0.193271 0.71133
0.690074 0.207874 0.719326
0.11693 0.250065 0.649348
0.116091 0.247959 0.648203
0.139666 0.329061 0.685252
0.13138 0.295583 0.672282
0.388098 0.224231 0.76582
0.598383 0.174289 0.704143
0.678874 0.188815 0.709316
0.682338 0.194598 0.712795
0.693507 0.212619 0.722789
0.15024 0.378653 0.700755
0.150149 0.378332 0.70071
0.165072 0.422522 0.719005
0.174685 0.449531 0.729961
0.379858 0.433478 0.862211
0.731563 0.365484 0.894026
0.693828 0.212985 0.723537
0.683009 0.19559 0.713588
0.697108 0.218067 0.726497
0.207324 0.561395 0.757549
0.207065 0.56173 0.75729
0.215335 0.578943 0.764935
0.220493 0.586648 0.770932
0.309697 0.620233 0.862608
0.709148 0.604623 0.919417
0.919295 0.494087 0.943938
0.68365 0.196643 0.714229
0.702342 0.225742 0.731548
0.294163 0.740322 0.821286
0.293767 0.740734 0.820859
0.296086 0.74432 0.823545
0.29575 0.743008 0.824521
0.343313 0.759655 0.863096
0.681529 0.770138 0.915282
0.902876 0.746441 0.936645
0.931136 0.563851 0.94995
0.703044 0.226566 0.73257
0.396597 0.856123 0.88011
0.394903 0.855665 0.878462
0.397848 0.857099 0.879988
0.410285 0.861418 0.885542
0.433539 0.874968 0.905043
0.668162 0.897093 0.939605
0.877806 0.895872 0.934676
0.939254 0.882551 0.942794
0.931533 0.740337 0.942168
0.478614 0.920104 0.934646
0.477607 0.920119 0.932769
0.479347 0.921584 0.934325
0.483238 0.924483 0.938003
0.524514 0.941283 0.949798
0.718227 0.945083 0.949752
0.87718 0.936858 0.947448
0.937316 0.936065 0.944152
0.947127 0.932082 0.946441
0.58761 0.948959 0.94995
0.579644 0.948913 0.949889
0.602243 0.948821 0.949813
0.642252 0.948837 0.949828
0.707454 0.948821 0.949813
0.790051 0.947601 0.949935
0.887572 0.943908 0.945754
0.935347 0.942306 0.943832
0.947387 0.941161 0.946807
