bundles/resolve-cinematic-luts/Phantom Luts/A7s3 Phntm Arri LUTs G7/ATOMOS Monitoring LUTs/Slog3/Neutral A7s3 AML.cube
TITLE "Generated by Resolve"
LUT_3D_SIZE 5
0.0648203 0.06421 0.0642405
0.180987 0.066331 0.0871138
0.537926 0.0690776 0.195468
0.937087 0.0937667 0.475074
0.939467 0.208194 0.739376
0.0578317 0.192538 0.0829175
0.174487 0.183352 0.0687877
0.536995 0.0526589 0.115572
0.936339 0.0838483 0.436194
0.939513 0.159747 0.688518
0.0648966 0.612085 0.242481
0.083711 0.615564 0.191516
0.60058 0.622965 0.135225
0.949874 0.405005 0.219501
0.939101 0.231266 0.648402
0.196048 0.935546 0.501747
0.211917 0.936645 0.47744
0.463935 0.932158 0.320211
0.932952 0.936049 0.395804
0.938155 0.910857 0.223163
0.583505 0.938567 0.731075
0.555871 0.93872 0.706752
0.652216 0.940536 0.732326
0.888685 0.942641 0.779492
0.948516 0.940795 0.801816
0.0684215 0.0644083 0.157626
0.180713 0.0636606 0.164385
0.543328 0.0595712 0.259876
0.937255 0.103685 0.511696
0.939055 0.222156 0.756756
0.061326 0.179141 0.168215
0.173571 0.172519 0.173373
0.541619 0.0696117 0.197208
0.937087 0.0979019 0.481666
0.938766 0.265751 0.781338
0.052842 0.606241 0.292348
0.0738689 0.604929 0.24358
0.586816 0.608667 0.143496
0.949844 0.372152 0.209705
0.939162 0.309438 0.758175
0.202365 0.934478 0.526223
0.209689 0.93608 0.504051
0.389212 0.936812 0.331228
0.932738 0.936034 0.39588
0.9355 0.895155 0.174548
0.596521 0.938506 0.744183
0.595331 0.938766 0.738857
0.665995 0.94081 0.75172
0.886473 0.942657 0.781765
0.948501 0.940795 0.801907
0.0933242 0.066453 0.470481
0.21651 0.0527352 0.495354
0.555505 0.0635538 0.515908
0.938354 0.10016 0.689906
0.938003 0.24445 0.807736
0.052903 0.113603 0.483116
0.109712 0.0657664 0.526223
0.574517 0.0672465 0.532952
0.938369 0.10103 0.675563
0.937438 0.289693 0.825681
0.0731975 0.56936 0.542657
0.0842603 0.566018 0.540764
0.560235 0.559915 0.56112
0.938689 0.182727 0.510246
0.936065 0.462608 0.867735
0.211902 0.932906 0.651682
0.225437 0.933089 0.637095
0.375341 0.937911 0.550805
0.926284 0.933242 0.5823
0.932448 0.874418 0.102205
0.592142 0.937438 0.769177
0.595514 0.937484 0.767254
0.678599 0.9402 0.788861
0.881209 0.942931 0.807691
0.948394 0.940826 0.803281
0.0787976 0.112627 0.864332
0.211444 0.0711223 0.874189
0.610224 0.0525978 0.881651
0.933944 0.0981003 0.918624
0.93518 0.135592 0.926482
0.052842 0.160601 0.853666
0.0648508 0.129351 0.890059
0.601938 0.0526131 0.905119
0.934051 0.0991836 0.924697
0.935607 0.175204 0.929335
0.0529793 0.544823 0.830121
0.0528573 0.538293 0.845045
0.46862 0.48397 0.916457
0.934874 0.124224 0.924254
0.935058 0.461433 0.935058
0.208011 0.901686 0.882307
0.217899 0.901366 0.882048
0.322286 0.896895 0.878538
0.891325 0.891264 0.891829
0.935805 0.697765 0.874556
0.550179 0.936812 0.878996
0.570016 0.937011 0.879103
0.682124 0.939529 0.887236
0.876371 0.944183 0.900114
0.944518 0.943603 0.906966
0.0529488 0.255955 0.90164
0.0528267 0.215427 0.917708
0.504524 0.0735332 0.928527
0.933455 0.0880446 0.933455
0.934783 0.116518 0.934798
0.0529335 0.273472 0.896391
0.0528573 0.37966 0.910994
0.449912 0.252872 0.930755
0.934585 0.107286 0.934585
0.934981 0.119768 0.934981
0.0529793 0.600153 0.89456
0.0528878 0.625498 0.903044
0.24564 0.658656 0.920317
0.933639 0.549813 0.933639
0.935241 0.131289 0.935241
0.100984 0.894774 0.928481
0.115099 0.895445 0.929274
0.281453 0.886961 0.931044
0.871687 0.88658 0.940749
0.934905 0.729992 0.934905
0.511727 0.935073 0.935561
0.53872 0.935332 0.935912
0.665812 0.937926 0.938643
0.873396 0.943908 0.944076
0.944045 0.944045 0.944045
