bundles/resolve-cinematic-luts/Phantom Luts/A7s3 Phntm Arri LUTs G7/ATOMOS Monitoring LUTs/Slog3/Neutral A7s3 AML.cube
TITLE "Generated by Resolve"
LUT_3D_SIZE 33
0.0648203 0.06421 0.0642405
0.0648203 0.06421 0.0642405
0.0648203 0.06421 0.0642405
0.0649424 0.0643931 0.0642252
0.082475 0.0649119 0.0675059
0.098085 0.0647288 0.0710918
0.123644 0.0652018 0.0762951
0.15201 0.066453 0.0814527
0.180987 0.066331 0.0871138
0.21532 0.0661936 0.0940719
0.253193 0.0660563 0.102205
0.29485 0.0658579 0.111803
0.338094 0.0660716 0.118105
0.385016 0.0646525 0.133562
0.434028 0.0646677 0.153277
0.484535 0.066331 0.173342
0.537926 0.0690776 0.195468
0.594507 0.0716259 0.220371
0.654566 0.0736858 0.249317
0.719539 0.0734417 0.282673
0.790021 0.0730602 0.32047
0.854627 0.0729992 0.360449
0.909285 0.0746014 0.400763
0.936461 0.0802319 0.438819
0.937087 0.0937667 0.475074
0.937438 0.108141 0.513573
0.937819 0.113283 0.553689
0.938293 0.118059 0.591073
0.938704 0.122606 0.624659
0.939086 0.12726 0.654521
0.93959 0.144274 0.684016
0.939559 0.176242 0.713283
0.939467 0.208194 0.739376
0.0648203 0.06421 0.0642405
0.0648203 0.06421 0.0642405
0.0648203 0.06421 0.0642405
0.0648203 0.0643931 0.0642252
0.0812695 0.0648661 0.0669413
0.0963912 0.064744 0.0706798
0.12192 0.0652171 0.0759899
0.150835 0.0664683 0.081117
0.179858 0.0663005 0.0867628
0.214664 0.0662547 0.093904
0.253193 0.0660563 0.102205
0.29485 0.0658579 0.111803
0.338094 0.0660716 0.118105
0.385016 0.0646525 0.133562
0.434028 0.0646677 0.153277
0.484535 0.066331 0.173342
0.537926 0.0690776 0.195468
0.594018 0.0716564 0.220081
0.65275 0.0737621 0.248035
0.716197 0.0734569 0.28069
0.785687 0.0730602 0.317372
0.850477 0.0732128 0.35671
0.90518 0.0743572 0.396368
0.936324 0.0792859 0.434119
0.936919 0.0911421 0.469139
0.937316 0.107286 0.505943
0.937682 0.112276 0.545052
0.938155 0.116854 0.581476
0.938674 0.121462 0.61445
0.938964 0.125673 0.643091
0.939162 0.129427 0.667765
0.939452 0.156649 0.694987
0.939559 0.18291 0.718975
0.0648203 0.06421 0.0642405
0.0648203 0.06421 0.0642405
0.0648203 0.06421 0.0642405
0.0647898 0.0642557 0.06421
0.0778821 0.0647135 0.0649882
0.0893263 0.0649577 0.068101
0.110842 0.0649882 0.0727245
0.141451 0.0662699 0.0787213
0.171313 0.0666056 0.0848249
0.206363 0.0662394 0.091722
0.245884 0.0661479 0.100023
0.288685 0.0659037 0.10959
0.333669 0.0660563 0.116411
0.382345 0.0646677 0.131746
0.432609 0.0646067 0.152193
0.482292 0.0661936 0.172
0.534432 0.0690013 0.193713
0.590311 0.0715343 0.217548
0.649332 0.0740368 0.245594
0.712047 0.0735332 0.27776
0.781125 0.0731823 0.314153
0.846326 0.0733043 0.353674
0.901946 0.074342 0.393011
0.936172 0.0785229 0.430747
0.936965 0.0894484 0.465385
0.937331 0.106798 0.500908
0.937728 0.111604 0.539513
0.93843 0.11632 0.575219
0.938643 0.120516 0.606882
0.938842 0.124346 0.635035
0.938949 0.127947 0.6589
0.93933 0.143557 0.682078
0.939544 0.166781 0.70457
0.0644388 0.0652476 0.0642405
0.0645151 0.0652018 0.0642557
0.0649577 0.0649577 0.0642252
0.0651408 0.0651102 0.0642405
0.0747845 0.0665599 0.0645609
0.08365 0.0664836 0.0659342
0.0992599 0.0657359 0.0685435
0.131502 0.0665446 0.0755627
0.163165 0.0673228 0.0827039
0.197818 0.0661173 0.0891737
0.238544 0.0661021 0.0977188
0.282078 0.065919 0.10721
0.330327 0.0657664 0.118593
0.377264 0.0652018 0.12874
0.427924 0.0644541 0.149203
0.478202 0.0659342 0.169299
0.530663 0.0690166 0.191104
0.586664 0.0714733 0.215061
0.645716 0.074342 0.242969
0.70811 0.0736706 0.274754
0.777081 0.0732433 0.310948
0.842359 0.0732738 0.350103
0.898116 0.0742046 0.389639
0.935927 0.0778821 0.426871
0.937057 0.0878614 0.461601
0.937179 0.105257 0.495872
0.937819 0.11107 0.533745
0.938354 0.11548 0.568582
0.938445 0.119539 0.599557
0.938735 0.123125 0.627131
0.939116 0.126864 0.650645
0.939208 0.131563 0.670359
0.939605 0.153017 0.691722
0.065095 0.0834821 0.0705425
0.0653697 0.0830396 0.0692607
0.0681621 0.0818799 0.0657054
0.0749218 0.0811017 0.0661631
0.0810407 0.0821241 0.0665293
0.0899519 0.0819409 0.0684977
0.104448 0.0813611 0.0700542
0.133181 0.0762951 0.0713207
0.167147 0.0726635 0.0774243
0.201236 0.0715648 0.0845502
0.238987 0.068513 0.0914168
0.279286 0.0658122 0.100496
0.331655 0.0656138 0.11165
0.38146 0.0648356 0.125948
0.431922 0.0643473 0.147051
0.47837 0.066453 0.160967
0.530999 0.0704356 0.184619
0.586892 0.0726329 0.208728
0.645914 0.0753643 0.236728
0.708263 0.0746166 0.268757
0.777508 0.0740826 0.305501
0.842832 0.0738079 0.345159
0.89865 0.0744335 0.385382
0.935744 0.0777447 0.423392
0.937072 0.0870375 0.458106
0.937331 0.10425 0.493019
0.93785 0.111147 0.530983
0.938338 0.115511 0.566583
0.938415 0.119585 0.59791
0.938735 0.123186 0.625666
0.939116 0.12694 0.649683
0.939284 0.132525 0.669856
0.93962 0.153994 0.691295
0.0660716 0.102083 0.0745251
0.0664073 0.101534 0.0741283
0.067689 0.0987259 0.0682231
0.0764782 0.0956588 0.0676127
0.0843214 0.097734 0.0681621
0.0948043 0.0979019 0.0690471
0.114748 0.0966354 0.0721752
0.138216 0.092958 0.0753185
0.165911 0.0864424 0.0760204
0.200412 0.0780652 0.0777295
0.243259 0.0729076 0.0868086
0.285557 0.0692607 0.0948959
0.328038 0.0624552 0.101976
0.376867 0.0650339 0.117266
0.432822 0.0639811 0.13695
0.483085 0.0664073 0.159792
0.531044 0.0709544 0.17731
0.586923 0.0737926 0.202167
0.645975 0.0763714 0.230137
0.708354 0.0756237 0.262562
0.777935 0.0749523 0.299916
0.843381 0.0744793 0.339635
0.899031 0.0747387 0.381003
0.935576 0.0777295 0.419547
0.93695 0.0861677 0.454414
0.937377 0.103166 0.490379
0.937835 0.111192 0.528466
0.938308 0.115557 0.564416
0.938399 0.119631 0.596048
0.93872 0.123247 0.624186
0.939116 0.127001 0.648554
0.939269 0.133455 0.669169
0.939513 0.154894 0.690761
0.0651102 0.129 0.0765545
0.0653086 0.128405 0.0759594
0.0673991 0.124987 0.0723583
0.0733196 0.121859 0.0681926
0.0845655 0.122576 0.0692302
0.0980697 0.123049 0.069398
0.117296 0.122728 0.0702678
0.146944 0.119738 0.0742962
0.179492 0.109514 0.0811933
0.205737 0.103136 0.0813153
0.242084 0.0918288 0.0796063
0.286137 0.0747387 0.0809186
0.335576 0.0679789 0.0948348
0.382132 0.0614786 0.102876
0.424949 0.0601053 0.121309
0.48043 0.066743 0.146822
0.536767 0.0714427 0.175067
0.586664 0.075349 0.193774
0.645716 0.0775921 0.221942
0.708492 0.0769055 0.254582
0.778302 0.0760967 0.2925
0.843854 0.075349 0.332906
0.899535 0.0751965 0.37528
0.935393 0.0777142 0.414893
0.936736 0.0854353 0.450065
0.937362 0.101656 0.486381
0.937804 0.111223 0.524819
0.938277 0.115587 0.561608
0.938384 0.119707 0.593668
0.938704 0.123323 0.622309
0.939132 0.127108 0.647135
0.939193 0.134585 0.668177
0.939391 0.156024 0.690059
0.0626993 0.159182 0.0790417
0.063035 0.158679 0.0784772
0.064683 0.155764 0.0742657
0.0673533 0.15317 0.0682383
0.0788739 0.153674 0.0671855
0.0939651 0.153979 0.0689403
0.117098 0.153338 0.0680095
0.14464 0.151614 0.0700542
0.179919 0.149203 0.0726329
0.225238 0.133761 0.085481
0.257237 0.122042 0.0870832
0.292058 0.111055 0.0833143
0.335241 0.0941787 0.0813001
0.385733 0.0699474 0.0817578
0.436622 0.0581216 0.100435
0.478157 0.0527199 0.115251
0.530449 0.0668956 0.154833
0.592523 0.0762341 0.188525
0.645258 0.0792554 0.210254
0.708598 0.0787366 0.24361
0.778485 0.0777295 0.281971
0.844282 0.0767071 0.323384
0.90013 0.0760357 0.366918
0.935134 0.0778515 0.408057
0.936568 0.0846723 0.444358
0.937194 0.0996872 0.48101
0.937743 0.111284 0.519753
0.938216 0.115663 0.557473
0.938338 0.119768 0.59115
0.938659 0.1234 0.620081
0.939132 0.12723 0.64506
0.939345 0.136278 0.66717
0.939406 0.157504 0.689418
0.0578317 0.192538 0.0829175
0.0581216 0.192142 0.0823224
0.0605783 0.18941 0.0776379
0.0629129 0.186679 0.0720989
0.0718395 0.186679 0.0628367
0.0838636 0.188052 0.0640116
0.110643 0.187289 0.0671244
0.140597 0.186999 0.0656138
0.174487 0.183352 0.0687877
0.217578 0.180865 0.0691234
0.275547 0.160693 0.0879683
0.319829 0.141131 0.0915694
0.35198 0.131167 0.0865187
0.393088 0.111391 0.0824598
0.43772 0.0856031 0.0803845
0.488685 0.0579385 0.0856489
0.536995 0.0526589 0.115572
0.584329 0.0625925 0.159655
0.651576 0.0807507 0.201907
0.707805 0.0810407 0.228367
0.778317 0.0800183 0.267353
0.844739 0.0786908 0.31014
0.900832 0.0774853 0.354726
0.934798 0.0783093 0.398108
0.936339 0.0838483 0.436194
0.937118 0.0973678 0.474189
0.937682 0.111345 0.512779
0.93817 0.11574 0.552209
0.938323 0.11989 0.586542
0.938643 0.123568 0.616556
0.939086 0.127382 0.642634
0.939269 0.138277 0.665766
0.939513 0.159747 0.688518
0.052903 0.23061 0.0891432
0.0528725 0.230457 0.0887007
0.0541085 0.228031 0.0831006
0.0567636 0.225696 0.0764172
0.059266 0.226459 0.0673533
0.0731823 0.225681 0.057145
0.0920424 0.227298 0.0599832
0.135515 0.225757 0.0635538
0.166659 0.225711 0.0623941
0.209476 0.220874 0.0674296
0.260197 0.218418 0.0643626
0.331258 0.194507 0.0885481
0.384207 0.167727 0.0982071
0.419181 0.155703 0.0936904
0.456199 0.137057 0.0880293
0.498543 0.108507 0.085481
0.543664 0.0741894 0.0853895
0.591989 0.0527657 0.10515
0.64184 0.0569314 0.164187
0.708339 0.0802319 0.211902
0.783764 0.0816052 0.25864
0.844617 0.0816968 0.291585
0.901503 0.0798962 0.338476
0.934142 0.0794232 0.384222
0.935943 0.0832074 0.424735
0.937285 0.0946059 0.465003
0.937575 0.111574 0.504356
0.938094 0.115877 0.544503
0.938277 0.120012 0.580774
0.938582 0.12372 0.612467
0.939086 0.127581 0.639323
0.939254 0.140887 0.664179
0.939559 0.162737 0.687144
0.0529183 0.273274 0.10016
0.0529183 0.273274 0.10016
0.0528725 0.271046 0.0929732
0.052842 0.268681 0.0845808
0.0528267 0.269612 0.0769665
0.055024 0.269596 0.061265
0.0754864 0.269337 0.0529946
0.11078 0.270619 0.0559854
0.159121 0.269932 0.0602884
0.197024 0.268894 0.059205
0.250324 0.263645 0.0669718
0.309239 0.261906 0.0607156
0.388983 0.236652 0.09131
0.45005 0.204746 0.107958
0.494072 0.186938 0.1075
0.525719 0.173342 0.101091
0.565988 0.147036 0.097322
0.608942 0.103456 0.0942397
0.652995 0.0529183 0.0982071
0.694408 0.0526436 0.145663
0.77528 0.0745556 0.221668
0.850462 0.0839094 0.277745
0.901488 0.0834669 0.314321
0.933272 0.0819257 0.363516
0.9355 0.0836194 0.40856
0.936904 0.0916152 0.451804
0.937514 0.109636 0.493355
0.937987 0.116167 0.53518
0.938231 0.120195 0.5729
0.938506 0.123934 0.606226
0.939025 0.127855 0.634607
0.939406 0.144396 0.661311
0.939452 0.16614 0.685237
0.0529183 0.320928 0.114
0.0529183 0.320928 0.114
0.0529183 0.319478 0.1084
0.0528878 0.31783 0.100038
0.0528573 0.318379 0.0889754
0.052842 0.319234 0.079942
0.0530251 0.318914 0.0583352
0.0809949 0.319081 0.0530404
0.13431 0.320241 0.0529488
0.185733 0.320195 0.0576791
0.234318 0.319005 0.0579385
0.29752 0.313558 0.0695811
0.3635 0.312703 0.0569314
0.445747 0.28957 0.0929122
0.515373 0.257862 0.118395
0.568521 0.231983 0.126696
0.607385 0.216861 0.124392
0.64239 0.195239 0.119005
0.681971 0.152178 0.109575
0.720394 0.0813611 0.110674
0.749157 0.0527504 0.14609
0.840635 0.0654459 0.226947
0.906859 0.0869612 0.293736
0.932113 0.0863966 0.332372
0.934417 0.0851606 0.383886
0.936568 0.0894789 0.432746
0.937499 0.104524 0.478202
0.937865 0.116655 0.522286
0.93817 0.120546 0.563012
0.938506 0.124315 0.597848
0.938979 0.128206 0.627848
0.939178 0.149142 0.657221
0.939498 0.170886 0.682826
0.0529641 0.37351 0.130098
0.0529641 0.37351 0.130098
0.0529488 0.372564 0.126162
0.0529335 0.371405 0.119326
0.0529183 0.371893 0.108965
0.052903 0.373159 0.100832
0.0528725 0.373709 0.0861982
0.0543679 0.373098 0.0559091
0.0920577 0.374365 0.0528573
0.158755 0.374975 0.052903
0.219043 0.374548 0.0579385
0.277378 0.373983 0.0598764
0.352758 0.369894 0.0719615
0.421241 0.371023 0.0543221
0.502358 0.354299 0.095491
0.580545 0.326192 0.133181
0.644053 0.293736 0.152697
0.69424 0.270039 0.152056
0.728557 0.247501 0.144137
0.76582 0.207675 0.138247
0.799191 0.136309 0.134493
0.820096 0.0525673 0.154665
0.89398 0.0530404 0.222736
0.93048 0.091371 0.300587
0.93286 0.0901198 0.344335
0.93547 0.0890974 0.403571
0.93727 0.0980545 0.456107
0.937652 0.117296 0.503456
0.938033 0.121172 0.549081
0.938521 0.125002 0.587137
0.938766 0.132067 0.619699
0.939284 0.15494 0.65211
0.939467 0.177066 0.679194
0.0529335 0.427832 0.148791
0.0529335 0.427832 0.148791
0.0529335 0.427298 0.14583
0.0529183 0.426429 0.14049
0.052903 0.427131 0.132082
0.0528878 0.427863 0.123415
0.0528725 0.429801 0.114977
0.0530251 0.430549 0.0946212
0.0678416 0.430137 0.0678874
0.108904 0.431708 0.055436
0.187762 0.4318 0.0597696
0.261265 0.4309 0.0628824
0.327825 0.432197 0.0668345
0.41088 0.429023 0.0767529
0.482887 0.433326 0.0530098
0.557977 0.423499 0.097734
0.646784 0.397391 0.145861
0.716472 0.367773 0.170184
0.77966 0.332097 0.181384
0.826352 0.303166 0.173846
0.854856 0.266789 0.165042
0.878508 0.199664 0.158938
0.889006 0.0626078 0.159457
0.928191 0.0527199 0.197131
0.93077 0.0969558 0.297887
0.933547 0.0937972 0.353872
0.936492 0.094255 0.421454
0.937591 0.109697 0.477455
0.937942 0.121981 0.528557
0.938415 0.125902 0.572274
0.939025 0.141497 0.611368
0.939254 0.162905 0.645045
0.939483 0.185351 0.673945
0.0529183 0.486259 0.172351
0.0529183 0.486259 0.172351
0.0529183 0.485924 0.170535
0.0529183 0.485161 0.165713
0.052903 0.485939 0.159274
0.0528878 0.486534 0.151385
0.0528573 0.487587 0.142535
0.0570077 0.490196 0.131777
0.0690776 0.491218 0.106661
0.0836194 0.491844 0.0776989
0.134157 0.492226 0.0702525
0.227741 0.491814 0.0769513
0.315236 0.490547 0.0735332
0.38587 0.495354 0.0762798
0.473152 0.492409 0.0881514
0.545693 0.499031 0.0529183
0.61944 0.491264 0.0990158
0.711376 0.469001 0.156146
0.787976 0.441566 0.185565
0.852949 0.404242 0.202319
0.902052 0.366003 0.201907
0.933074 0.324315 0.192493
0.939391 0.267216 0.181109
0.941466 0.117327 0.164858
0.941329 0.0557565 0.183368
0.930404 0.103593 0.285313
0.934081 0.0981003 0.360296
0.937224 0.100328 0.43682
0.937926 0.121859 0.496986
0.938552 0.134951 0.552361
0.939162 0.153765 0.598978
0.939269 0.174487 0.636805
0.939544 0.196597 0.668513
0.0529335 0.548104 0.2038
0.0529335 0.548104 0.2038
0.0529183 0.547616 0.201175
0.0529183 0.54699 0.196338
0.0529641 0.547601 0.190494
0.0576791 0.548165 0.183566
0.0637217 0.548669 0.174182
0.0707103 0.5505 0.164492
0.0749828 0.552941 0.148531
0.0825818 0.55465 0.117052
0.112734 0.555962 0.0861982
0.179355 0.554482 0.0782483
0.289723 0.553643 0.087068
0.380056 0.553231 0.0774395
0.448905 0.560906 0.0948043
0.536828 0.557275 0.108248
0.608896 0.565576 0.0529946
0.680339 0.558038 0.10428
0.773541 0.53933 0.168475
0.845716 0.51574 0.196963
0.904662 0.484077 0.213565
0.948348 0.440131 0.222126
0.949935 0.392142 0.215595
0.949783 0.336095 0.199832
0.949859 0.213458 0.17499
0.94609 0.0775464 0.164111
0.934112 0.0999466 0.265492
0.935393 0.116167 0.369009
0.938155 0.12694 0.454627
0.938537 0.153277 0.522286
0.938949 0.169467 0.57911
0.939361 0.189792 0.624567
0.939345 0.211994 0.660624
0.0648966 0.612085 0.242481
0.0648966 0.612085 0.242481
0.0672313 0.611368 0.238529
0.0694438 0.61062 0.23418
0.0710765 0.61117 0.229191
0.0729076 0.611627 0.22298
0.0754101 0.612039 0.214343
0.0789502 0.613016 0.202426
0.083711 0.615564 0.191516
0.0916304 0.617395 0.166812
0.103639 0.619425 0.126879
0.151064 0.620829 0.0982986
0.247532 0.61854 0.0943008
0.365911 0.616739 0.100145
0.443061 0.620493 0.0906844
0.516594 0.627176 0.118654
0.60058 0.622965 0.135225
0.671183 0.629984 0.0617838
0.741283 0.624384 0.112551
0.82266 0.609812 0.177813
0.885817 0.589883 0.203098
0.932097 0.564248 0.215457
0.946639 0.529351 0.217624
0.94992 0.478523 0.222614
0.949874 0.405005 0.219501
0.949935 0.302586 0.19144
0.947723 0.156161 0.169116
0.941268 0.107988 0.232013
0.937194 0.129122 0.402609
0.938384 0.170687 0.472816
0.938689 0.191501 0.547112
0.939147 0.210056 0.604364
0.939101 0.231266 0.648402
0.0768292 0.676448 0.283848
0.0769665 0.676326 0.283238
0.0782788 0.675532 0.279088
0.0796368 0.674784 0.275151
0.0816968 0.675135 0.270604
0.0837568 0.675441 0.265461
0.0864729 0.675822 0.258198
0.0913405 0.676387 0.246509
0.0971237 0.677836 0.233204
0.104463 0.680522 0.218784
0.115831 0.682475 0.185061
0.129686 0.684459 0.130785
0.206043 0.684321 0.11313
0.331991 0.681758 0.118807
0.447745 0.680369 0.113741
0.507546 0.688441 0.113649
0.582925 0.693401 0.146136
0.662791 0.687663 0.166979
0.73109 0.692744 0.100008
0.796231 0.689189 0.125811
0.861036 0.676509 0.182147
0.906828 0.663066 0.201724
0.928832 0.642741 0.20174
0.934035 0.610986 0.200732
0.941512 0.565621 0.211719
0.949783 0.495384 0.221271
0.949828 0.386862 0.214008
0.949783 0.234638 0.178134
0.949218 0.189471 0.185122
0.937438 0.179187 0.400336
0.938537 0.219928 0.48809
0.93872 0.237263 0.569696
0.938918 0.256138 0.627802
0.0903944 0.741405 0.326741
0.0910964 0.740917 0.324804
0.092668 0.740017 0.320958
0.0941176 0.739239 0.317464
0.096376 0.73933 0.313237
0.0987869 0.739498 0.308873
0.101976 0.739879 0.302434
0.106798 0.740322 0.292622
0.113298 0.740993 0.278691
0.120851 0.742901 0.263432
0.129702 0.745312 0.242939
0.143175 0.747143 0.197436
0.181582 0.748959 0.147494
0.290593 0.744976 0.133639
0.425406 0.745098 0.145129
0.518105 0.746426 0.13257
0.571252 0.756237 0.146334
0.647257 0.759426 0.179461
0.721813 0.751232 0.204257
0.787442 0.753872 0.157244
0.841932 0.751705 0.149599
0.890959 0.73904 0.188342
0.918715 0.729274 0.194171
0.918822 0.71284 0.174395
0.920653 0.686748 0.172
0.928389 0.644541 0.189776
0.938811 0.582788 0.20798
0.949737 0.482887 0.222156
0.949813 0.309209 0.192844
0.949966 0.302739 0.191531
0.936858 0.244099 0.380667
0.938521 0.273213 0.502235
0.938766 0.289342 0.59089
0.107317 0.803845 0.366766
0.108583 0.803067 0.363928
0.110201 0.802106 0.360403
0.111589 0.801205 0.357137
0.113817 0.801343 0.353628
0.115908 0.801434 0.350164
0.119295 0.801617 0.34519
0.123949 0.801907 0.337301
0.130434 0.802319 0.325032
0.138155 0.803021 0.308476
0.146548 0.804608 0.290196
0.157549 0.806714 0.259861
0.173526 0.808377 0.198978
0.252125 0.807721 0.163607
0.395117 0.8038 0.168551
0.512932 0.802792 0.169131
0.58085 0.808057 0.164675
0.631708 0.816205 0.186694
0.707835 0.817685 0.216052
0.777829 0.808484 0.24094
0.833616 0.809552 0.214786
0.879255 0.8103 0.180362
0.914504 0.799832 0.203586
0.923171 0.789914 0.185122
0.921279 0.774929 0.134508
0.920287 0.749172 0.122957
0.919173 0.714656 0.153628
0.9252 0.662181 0.182803
0.94023 0.572686 0.210132
0.949889 0.380926 0.212192
0.949889 0.376013 0.210895
0.9449 0.296651 0.348165
0.938445 0.302663 0.55639
0.125612 0.855726 0.402045
0.127352 0.854871 0.398352
0.128817 0.853956 0.395666
0.130175 0.853254 0.392569
0.132525 0.853254 0.389578
0.134874 0.853269 0.386694
0.137896 0.853407 0.382574
0.14229 0.853574 0.376272
0.147982 0.853803 0.366903
0.155535 0.85391 0.351888
0.164858 0.854627 0.332174
0.174624 0.856291 0.31078
0.18909 0.858061 0.267994
0.224582 0.8589 0.200702
0.358633 0.853529 0.189563
0.489403 0.851926 0.202411
0.586786 0.851209 0.196872
0.637034 0.858717 0.206149
0.687266 0.865431 0.230732
0.766079 0.866331 0.253971
0.82652 0.857069 0.279164
0.872297 0.856733 0.267689
0.906584 0.857145 0.247013
0.931853 0.851881 0.228717
0.930159 0.84332 0.192294
0.927489 0.831464 0.104311
0.924514 0.809567 0.0695811
0.92192 0.776654 0.0971084
0.9196 0.728176 0.143252
0.927443 0.649607 0.187854
0.949844 0.463172 0.223255
0.949889 0.457786 0.223667
0.949813 0.369863 0.348608
0.143999 0.896315 0.433448
0.145876 0.895628 0.429923
0.147555 0.895018 0.426581
0.14934 0.894347 0.423941
0.151598 0.894362 0.421057
0.15375 0.894392 0.41854
0.156649 0.894347 0.415137
0.160433 0.894423 0.410132
0.166018 0.894514 0.402396
0.173205 0.894743 0.390616
0.182986 0.895003 0.372976
0.1944 0.895399 0.349233
0.205982 0.896422 0.323156
0.223377 0.897673 0.263096
0.308507 0.895613 0.21677
0.463218 0.890257 0.231067
0.571435 0.887266 0.234745
0.642252 0.889479 0.232975
0.687968 0.89691 0.25066
0.742687 0.903502 0.27538
0.818112 0.903731 0.294789
0.867033 0.895262 0.317006
0.902266 0.894575 0.31632
0.927337 0.894148 0.302922
0.936904 0.88983 0.285435
0.935347 0.884367 0.245197
0.93341 0.877882 0.155001
0.931243 0.860517 0.0655528
0.927306 0.833112 0.0557565
0.922683 0.789181 0.0844282
0.919448 0.716731 0.152346
0.942901 0.556237 0.213565
0.943954 0.546715 0.214939
0.163287 0.925414 0.461341
0.165087 0.925002 0.458122
0.166964 0.924544 0.45507
0.168872 0.924102 0.451957
0.171115 0.923949 0.449378
0.172992 0.923903 0.446983
0.175692 0.923796 0.443793
0.179507 0.923735 0.439673
0.184482 0.92372 0.433295
0.191287 0.923781 0.424018
0.20032 0.923873 0.409888
0.211841 0.924086 0.388251
0.225132 0.924453 0.359487
0.238025 0.925292 0.325704
0.267857 0.925475 0.252399
0.423514 0.920134 0.257618
0.549172 0.91487 0.268635
0.636851 0.912734 0.267216
0.689372 0.918593 0.278202
0.735958 0.925246 0.298314
0.79762 0.930098 0.31696
0.860731 0.930312 0.333837
0.898558 0.922423 0.352789
0.924788 0.921538 0.355261
0.940612 0.920714 0.349798
0.941543 0.91725 0.335271
0.940063 0.913863 0.302296
0.938247 0.91075 0.234028
0.93547 0.896117 0.181262
0.932815 0.877165 0.11371
0.928634 0.84271 0.052903
0.921965 0.775967 0.0947433
0.930846 0.632502 0.194186
0.179843 0.935775 0.483375
0.181003 0.936065 0.480507
0.182422 0.936294 0.477531
0.184451 0.936309 0.474754
0.186725 0.936339 0.472251
0.188708 0.936309 0.469993
0.191363 0.936217 0.467109
0.194705 0.936263 0.463371
0.199374 0.936294 0.458198
0.205478 0.93637 0.450736
0.213519 0.936446 0.439643
0.224002 0.936507 0.422049
0.237217 0.936385 0.394903
0.251606 0.936416 0.358389
0.265553 0.936309 0.312871
0.362341 0.935515 0.279179
0.514168 0.927932 0.295827
0.618051 0.922332 0.298177
0.678767 0.924758 0.30164
0.729 0.931075 0.318471
0.78175 0.935912 0.335256
0.838926 0.938216 0.345418
0.890639 0.938994 0.364813
0.92108 0.934997 0.380636
0.939086 0.936507 0.387289
0.945968 0.936049 0.386084
0.94522 0.934401 0.375265
0.944076 0.933364 0.348211
0.942321 0.932723 0.298802
0.940002 0.922881 0.261463
0.937591 0.908064 0.214252
0.933425 0.88246 0.131609
0.926604 0.828016 0.0534371
0.196048 0.935546 0.501747
0.196979 0.93576 0.498848
0.197787 0.935988 0.496086
0.198795 0.936202 0.493172
0.200412 0.93637 0.490745
0.201816 0.936568 0.488182
0.204211 0.936538 0.485573
0.207813 0.936538 0.481987
0.211917 0.936645 0.47744
0.217533 0.936736 0.471366
0.225101 0.936782 0.46247
0.234241 0.93666 0.448493
0.246128 0.936736 0.426703
0.260624 0.936736 0.39292
0.27657 0.93666 0.346441
0.311818 0.936934 0.303777
0.463935 0.932158 0.320211
0.583444 0.925704 0.327123
0.663539 0.924544 0.325963
0.713466 0.929961 0.336507
0.767422 0.935882 0.351995
0.82211 0.938338 0.35996
0.869657 0.939788 0.368612
0.905486 0.933913 0.389029
0.932952 0.936049 0.395804
0.944945 0.937224 0.404334
0.946426 0.937453 0.402853
0.946319 0.937484 0.39472
0.945449 0.937087 0.369009
0.944137 0.936629 0.329778
0.943542 0.936324 0.314199
0.941268 0.929564 0.283635
0.938155 0.910857 0.223163
0.218128 0.935439 0.520211
0.218708 0.935607 0.51783
0.219287 0.935775 0.515206
0.21973 0.935988 0.512352
0.22118 0.936187 0.510231
0.222553 0.936385 0.508141
0.224155 0.936645 0.505333
0.226413 0.93698 0.501625
0.230442 0.936965 0.49749
0.235187 0.937026 0.491966
0.241215 0.936965 0.484596
0.2495 0.937041 0.473838
0.259831 0.937087 0.457069
0.272709 0.936919 0.430671
0.288624 0.936889 0.388312
0.327962 0.937255 0.347997
0.408743 0.936492 0.347265
0.541482 0.92987 0.358022
0.640726 0.925978 0.35938
0.700526 0.929824 0.363165
0.751705 0.935134 0.374304
0.810559 0.938247 0.38381
0.854536 0.939467 0.386511
0.891905 0.939101 0.394003
0.921782 0.935058 0.408011
0.940917 0.93666 0.417075
0.946868 0.937407 0.424445
0.946777 0.937423 0.420981
0.946502 0.937407 0.408743
0.945953 0.937346 0.380941
0.944854 0.936965 0.348455
0.944411 0.936767 0.336751
0.943862 0.936492 0.32285
0.24184 0.935363 0.538659
0.241978 0.935515 0.536034
0.242084 0.935653 0.533486
0.242283 0.935821 0.530846
0.243366 0.935988 0.529152
0.24448 0.936187 0.527199
0.245869 0.936416 0.524849
0.247929 0.936706 0.521523
0.25034 0.937087 0.517098
0.254459 0.937224 0.511986
0.259785 0.937285 0.50544
0.266743 0.937346 0.497002
0.275654 0.93727 0.484001
0.287266 0.937285 0.464057
0.308507 0.937285 0.436469
0.347707 0.937469 0.403098
0.423529 0.937881 0.401434
0.510033 0.935225 0.417258
0.608652 0.931472 0.419791
0.688548 0.931823 0.417716
