bundles/resolve-cinematic-luts/Phantom Luts/A7s3 Phntm Arri LUTs G7/ATOMOS Monitoring LUTs/Slog3/Neutral A7s3-Legacy AML.cube
TITLE "Generated by Resolve"
LUT_3D_SIZE 9
0.0815442 0.0813001 0.0812543
0.0890211 0.0817273 0.0822156
0.158495 0.0809644 0.0901198
0.279393 0.0835126 0.114092
0.467826 0.0845045 0.173098
0.71693 0.0835584 0.272648
0.925246 0.0825818 0.417365
0.934646 0.11603 0.556313
0.944289 0.182605 0.681468
0.0819562 0.0904097 0.0831006
0.088777 0.0895552 0.0822614
0.147066 0.0845808 0.0844739
0.274388 0.0834974 0.10988
0.461341 0.0852369 0.164767
0.70367 0.0845197 0.261555
0.924315 0.0814221 0.401907
0.933242 0.113512 0.528954
0.939544 0.140459 0.626856
0.0784619 0.163821 0.0895857
0.082414 0.15996 0.0798505
0.150881 0.157305 0.0795605
0.285542 0.120256 0.0945602
0.464561 0.070985 0.124804
0.705104 0.0883955 0.234958
0.923095 0.0824445 0.383108
0.933135 0.113848 0.517876
0.939864 0.145037 0.624506
0.0630503 0.308614 0.118273
0.067628 0.307042 0.103822
0.0937667 0.309438 0.0704356
0.296818 0.312734 0.0846418
0.580896 0.242344 0.146731
0.737102 0.107622 0.147585
0.918196 0.0922713 0.30898
0.932464 0.108843 0.482628
0.941314 0.158587 0.616556
0.0857252 0.556023 0.213642
0.0881819 0.554955 0.201678
0.096025 0.559533 0.173724
0.213489 0.565408 0.103151
0.549249 0.572259 0.135775
0.889296 0.524727 0.222171
0.949767 0.343526 0.212436
0.932158 0.116854 0.35848
0.944183 0.199969 0.588449
0.12723 0.836469 0.356069
0.131991 0.833402 0.34464
0.143832 0.834043 0.322011
0.17496 0.840192 0.237583
0.536019 0.840192 0.1879
0.800549 0.843091 0.2448
0.934417 0.818631 0.18201
0.932967 0.678935 0.193027
0.949905 0.300465 0.308492
0.175158 0.94641 0.448341
0.179919 0.94641 0.438453
0.188769 0.946441 0.425574
0.217258 0.946517 0.377386
0.406973 0.942153 0.278477
0.729274 0.935241 0.294789
0.935332 0.936782 0.334493
0.944427 0.937316 0.306325
0.941451 0.912413 0.168719
0.252003 0.94612 0.519081
0.250538 0.946075 0.510613
0.256168 0.946105 0.502251
0.282475 0.946197 0.482994
0.435111 0.945556 0.478096
0.683925 0.940764 0.50367
0.887709 0.942123 0.503044
0.949569 0.936217 0.534691
0.945464 0.937652 0.343587
0.526162 0.944915 0.679088
0.494011 0.945068 0.654627
0.499855 0.945098 0.654612
0.529717 0.944945 0.661646
0.597879 0.944747 0.680903
0.717525 0.944503 0.712306
0.871107 0.94136 0.729915
0.949828 0.936141 0.722347
0.948562 0.936797 0.750835
0.0816663 0.0814221 0.0866712
0.0892042 0.0817578 0.0873426
0.156176 0.0819867 0.105974
0.276341 0.0815442 0.131228
0.467063 0.0827039 0.186664
0.722759 0.0815595 0.291234
0.926314 0.084062 0.431144
0.935042 0.116747 0.567391
0.945037 0.192401 0.69575
0.0819257 0.0890059 0.0878462
0.0883345 0.0879072 0.0879225
0.162341 0.082536 0.0924849
0.279789 0.0835279 0.114168
0.467735 0.0845197 0.173068
0.713283 0.0835737 0.270817
0.925017 0.0822156 0.413855
0.934295 0.115221 0.54905
0.942992 0.167865 0.665125
0.0788434 0.16286 0.10808
0.079408 0.162203 0.0901656
0.149798 0.1561 0.0804456
0.291539 0.114931 0.0961776
0.473655 0.0754864 0.138323
0.715434 0.0873579 0.245319
0.924239 0.0825666 0.395743
0.934142 0.11545 0.539895
0.943572 0.174228 0.665339
0.0616312 0.307362 0.134264
0.0643626 0.307744 0.118837
0.0806439 0.308156 0.0761425
0.29485 0.310475 0.0854047
0.579858 0.238025 0.147234
0.737026 0.0920424 0.148379
0.919646 0.0902724 0.326955
0.93373 0.116258 0.508125
0.94461 0.190311 0.664607
0.0843671 0.553964 0.225696
0.0861982 0.555047 0.213596
0.0939956 0.557061 0.183215
0.19263 0.563851 0.103075
0.547204 0.570047 0.136721
0.893507 0.518563 0.226505
0.949889 0.327352 0.208927
0.936614 0.13257 0.393347
0.946685 0.234424 0.654704
0.124971 0.83386 0.36762
0.128084 0.835111 0.356054
0.138827 0.835081 0.336736
0.170413 0.839872 0.259617
0.522087 0.840589 0.192676
0.800366 0.842863 0.2448
0.933989 0.814908 0.184833
0.938704 0.648783 0.204959
0.946517 0.325383 0.556466
0.176303 0.94641 0.457755
0.176608 0.94641 0.448646
0.186175 0.94641 0.435355
0.214145 0.946487 0.392844
0.377539 0.943816 0.278645
0.725353 0.934905 0.295674
0.935286 0.936767 0.334539
0.94432 0.937285 0.302983
0.940047 0.894957 0.124697
0.254887 0.945846 0.525948
0.252415 0.94612 0.519295
0.257145 0.946105 0.511208
0.283467 0.946181 0.491356
0.430457 0.945541 0.486412
0.676997 0.940856 0.509483
0.88603 0.942107 0.506203
0.949569 0.936217 0.534554
0.945464 0.937652 0.343496
0.538827 0.94461 0.68986
0.528313 0.944945 0.680766
0.532753 0.94493 0.680293
0.551751 0.944793 0.68275
0.610758 0.94461 0.697246
0.718364 0.944533 0.719539
0.869215 0.941421 0.730236
0.949813 0.936187 0.723003
0.948562 0.936797 0.750851
0.0826734 0.08159 0.139559
0.10161 0.0817731 0.139971
0.157259 0.0817884 0.14464
0.280629 0.0804608 0.173754
0.472038 0.0792554 0.218051
0.733013 0.0794537 0.321035
0.927535 0.086717 0.44892
0.935302 0.117037 0.577234
0.944991 0.193057 0.700801
0.0816358 0.0859236 0.126009
0.08336 0.0819409 0.143069
0.158663 0.082002 0.145998
0.280308 0.0805524 0.158068
0.467674 0.0805524 0.203311
0.720363 0.0806744 0.298878
0.926131 0.0838331 0.432853
0.93463 0.115526 0.560281
0.942931 0.168658 0.671031
0.0796521 0.15465 0.146685
0.0803235 0.154086 0.146273
0.149691 0.14876 0.149508
0.315282 0.114549 0.15108
0.471107 0.0843977 0.174166
0.725765 0.0838636 0.275746
0.926146 0.0839094 0.42359
0.935302 0.118227 0.573617
0.946715 0.229618 0.73135
0.0619974 0.304372 0.170504
0.0638895 0.30396 0.158602
0.0791638 0.300862 0.124315
0.290608 0.305486 0.10927
0.543877 0.233219 0.158145
0.773404 0.0841993 0.195926
0.922591 0.0868544 0.360296
0.934844 0.118593 0.543404
0.946777 0.23975 0.727382
0.0815595 0.55024 0.254185
0.0835279 0.549752 0.239124
0.0898299 0.548516 0.214115
0.149569 0.552514 0.113039
0.535332 0.557656 0.142138
0.88397 0.504891 0.239368
0.949996 0.311238 0.205829
0.938216 0.135851 0.44004
0.946654 0.267033 0.706874
0.120165 0.828168 0.383169
0.123629 0.828733 0.373083
0.133104 0.828794 0.356374
0.165606 0.829328 0.280293
0.496788 0.834836 0.20734
0.79382 0.836149 0.247898
0.933608 0.806394 0.216052
0.940993 0.634867 0.209461
0.946181 0.365972 0.576745
0.177218 0.946426 0.470756
0.177478 0.946426 0.462684
0.18584 0.946426 0.451011
0.213428 0.946303 0.411902
0.336446 0.946197 0.287343
0.720027 0.9346 0.304189
0.935012 0.936751 0.33463
0.944595 0.937392 0.311864
0.939879 0.891264 0.115038
0.256413 0.945388 0.534264
0.253895 0.945724 0.527504
0.257206 0.94612 0.520241
0.283238 0.946014 0.500755
0.427619 0.945541 0.49633
0.67187 0.941009 0.51809
0.884565 0.942031 0.514672
0.949493 0.936233 0.532998
0.945495 0.937606 0.345785
0.53875 0.944442 0.692866
0.527916 0.944823 0.683223
0.537606 0.944732 0.686931
0.554955 0.944793 0.688197
0.611826 0.94461 0.701244
0.717174 0.944533 0.722072
0.867735 0.941512 0.732815
0.949691 0.936263 0.726329
0.948547 0.936797 0.750988
0.085771 0.0842298 0.242618
0.107774 0.0810254 0.245701
0.171069 0.0800641 0.254124
0.286488 0.0804761 0.260548
0.47921 0.0803693 0.306966
0.738521 0.0868086 0.396201
0.929198 0.102037 0.497566
0.935912 0.117784 0.60557
0.945708 0.196338 0.717083
0.0797131 0.0865187 0.238087
0.0867018 0.0843977 0.25153
0.160784 0.0801556 0.263706
0.286976 0.0804761 0.261021
0.476066 0.0802472 0.29836
0.729992 0.0834821 0.377646
0.928618 0.097734 0.483375
0.935347 0.11635 0.59057
0.943725 0.172961 0.689113
0.0728771 0.141711 0.245335
0.0733501 0.136431 0.256184
0.12575 0.114397 0.287129
0.308751 0.0864271 0.277729
0.478477 0.0805371 0.286397
0.735485 0.0796826 0.360662
0.928832 0.0965744 0.477043
0.935927 0.11902 0.602136
0.946609 0.233738 0.746838
0.0679637 0.283757 0.265415
0.0697185 0.283558 0.265538
0.0811475 0.280293 0.263981
0.296498 0.295445 0.296742
0.552636 0.227726 0.28687
0.764172 0.0859388 0.287678
0.927169 0.086183 0.431495
0.936843 0.125582 0.596765
0.945251 0.314717 0.799084
0.0858625 0.541085 0.343481
0.0864118 0.540841 0.333165
0.091722 0.53843 0.310979
0.13019 0.534096 0.233387
0.523323 0.540825 0.245304
0.835492 0.484749 0.286351
0.949813 0.214984 0.227008
0.939284 0.153124 0.509392
0.945891 0.329458 0.777173
0.121736 0.816556 0.442435
0.121813 0.816709 0.430549
0.129259 0.81622 0.411566
0.159396 0.813107 0.362631
0.419318 0.825437 0.248463
0.773907 0.814801 0.264775
0.932982 0.78172 0.284169
0.946044 0.605478 0.2177
0.945907 0.378927 0.668162
0.183597 0.944839 0.507515
0.18294 0.945342 0.49926
0.188968 0.945953 0.489647
0.21387 0.946334 0.457328
0.317906 0.946212 0.343328
0.705409 0.934813 0.347387
0.932723 0.936828 0.349676
0.945403 0.937697 0.338293
0.939284 0.880156 0.0862135
0.260334 0.944213 0.556588
0.258442 0.944396 0.551263
0.261341 0.94493 0.544991
0.282734 0.946014 0.527428
0.422965 0.945525 0.523293
0.657572 0.941695 0.544427
0.880796 0.941772 0.540917
0.949416 0.936278 0.529915
0.945968 0.937774 0.361151
0.538735 0.943954 0.70074
0.527398 0.94432 0.691691
0.537545 0.944228 0.695583
0.563836 0.944533 0.704738
0.61532 0.944656 0.713375
0.714427 0.944533 0.729809
0.864317 0.941726 0.740505
0.94934 0.936553 0.735912
0.948531 0.936812 0.751308
0.0962844 0.0887617 0.404227
0.122621 0.08336 0.410391
0.182605 0.0764782 0.425406
0.306691 0.0738231 0.426505
0.483711 0.0817273 0.444999
0.74963 0.0863661 0.519478
0.931609 0.0998093 0.619638
0.93698 0.118318 0.674479
0.946059 0.211994 0.763027
0.0878767 0.0907912 0.407095
0.0985733 0.0886397 0.412787
0.165042 0.0770275 0.430457
0.299001 0.0738384 0.429282
0.482963 0.0816815 0.444022
0.740856 0.0859693 0.510674
0.931334 0.099382 0.608148
0.936751 0.117128 0.664225
0.944793 0.188159 0.739025
0.0724956 0.110079 0.415991
0.0726787 0.10724 0.428077
0.106645 0.0898451 0.456397
0.299367 0.0735943 0.474968
0.502388 0.0823835 0.461494
0.748165 0.0861677 0.508537
0.931456 0.100252 0.605066
0.937316 0.120439 0.671489
0.945586 0.250706 0.789395
0.055436 0.258366 0.425879
0.0550393 0.254017 0.433585
0.0540627 0.242084 0.449821
0.237964 0.219333 0.499763
0.5411 0.15349 0.497749
0.777691 0.0898604 0.50988
0.931044 0.100618 0.577981
0.9393 0.135454 0.670481
0.944427 0.332082 0.829221
0.0931868 0.512688 0.486595
0.0939345 0.512123 0.486229
0.0986038 0.50927 0.484154
0.122972 0.498619 0.475761
0.507912 0.50753 0.508736
0.826398 0.448157 0.506203
0.93933 0.148028 0.45594
0.941634 0.160082 0.624552
0.943679 0.411841 0.851957
0.125978 0.789624 0.559625
0.127474 0.789731 0.553506
0.137301 0.788983 0.544594
0.166613 0.784649 0.513863
0.387701 0.791211 0.477043
0.745846 0.773266 0.488899
0.937301 0.736828 0.488579
0.949859 0.495735 0.355001
0.945785 0.408682 0.76611
0.192401 0.941863 0.600473
0.19324 0.941909 0.59411
0.201434 0.94197 0.585199
0.225528 0.943313 0.555901
0.327977 0.945907 0.497658
0.679911 0.940948 0.518135
0.925063 0.93576 0.521462
0.948272 0.933654 0.486122
0.93846 0.862455 0.0529793
0.266163 0.942046 0.609934
0.26511 0.942123 0.605142
0.269123 0.942382 0.599344
0.29395 0.943465 0.587625
0.429572 0.945373 0.586664
0.649378 0.943221 0.60531
0.874189 0.94078 0.614755
0.949828 0.935241 0.580407
0.949294 0.936339 0.526375
0.53608 0.942718 0.721004
0.52752 0.942962 0.714702
0.53933 0.942901 0.718791
0.567651 0.943175 0.72929
0.622003 0.944289 0.74258
0.712291 0.944564 0.752316
0.860182 0.942245 0.763302
0.945891 0.937255 0.762158
0.948486 0.936873 0.752544
0.114702 0.100053 0.605646
0.149294 0.092958 0.614893
0.200809 0.0795148 0.62591
0.333608 0.0728618 0.630365
0.503075 0.0714122 0.619577
0.737667 0.0882734 0.665553
0.93228 0.0995651 0.761273
0.934203 0.116335 0.823713
0.941421 0.175372 0.837552
0.102052 0.103044 0.60676
0.115801 0.0999008 0.607569
0.173266 0.0870069 0.623972
0.318868 0.0728466 0.637705
0.496117 0.0715648 0.617563
0.731899 0.0881666 0.661295
0.932433 0.0990921 0.753506
0.934264 0.11516 0.817899
0.938796 0.145281 0.819028
0.0658122 0.126268 0.628
0.0660716 0.123613 0.638041
0.117906 0.105043 0.665431
0.298009 0.0731975 0.681208
0.530709 0.0715801 0.673335
0.745968 0.0887465 0.671916
0.932235 0.099855 0.762768
0.934691 0.118486 0.822614
0.942901 0.242908 0.863218
0.052842 0.227939 0.608301
0.0529183 0.222126 0.615763
0.0529183 0.211124 0.643809
0.170916 0.158556 0.705211
0.504036 0.0875563 0.704662
0.811383 0.0945754 0.719371
0.932296 0.100099 0.763668
0.935439 0.121309 0.817182
0.942336 0.357839 0.888167
0.0527962 0.495979 0.645548
0.0530251 0.493202 0.649821
0.052903 0.488426 0.659724
0.0570382 0.467323 0.680735
0.463004 0.453819 0.742733
0.8168 0.379538 0.746059
0.935546 0.112352 0.740353
0.936339 0.121843 0.78938
0.94226 0.4533 0.898528
0.131136 0.744091 0.709865
0.132464 0.743587 0.709392
0.139788 0.741833 0.708186
0.163272 0.736431 0.704463
0.364126 0.736049 0.709575
0.715831 0.715648 0.716793
0.946136 0.66807 0.717739
0.945907 0.39118 0.673075
0.943771 0.435706 0.852171
0.189853 0.930617 0.745846
0.190951 0.9308 0.742229
0.19852 0.9308 0.736873
0.2224 0.929793 0.720043
0.316289 0.931197 0.681422
0.652277 0.927581 0.703883
0.902998 0.914794 0.71342
0.949966 0.897963 0.70071
0.939147 0.765347 0.557931
0.262348 0.941665 0.728588
0.262242 0.941665 0.724605
0.267414 0.941695 0.719585
0.288258 0.941756 0.705135
0.445182 0.941878 0.703441
0.647227 0.944625 0.725704
0.863508 0.941787 0.738445
0.949218 0.936645 0.739025
0.949905 0.935882 0.713207
0.527474 0.941756 0.772778
0.523415 0.941695 0.769116
0.539239 0.941817 0.772992
0.573571 0.941939 0.782071
0.633631 0.942245 0.796109
0.719249 0.944183 0.804929
0.861067 0.942535 0.812253
0.940017 0.939544 0.816861
0.946441 0.938506 0.79501
0.0825666 0.133791 0.822095
0.119081 0.123415 0.824125
0.174609 0.109941 0.833173
0.32459 0.0726024 0.844999
0.538399 0.071809 0.841382
0.721538 0.0814984 0.812329
0.930144 0.100069 0.904051
0.932921 0.113893 0.92987
0.935134 0.12723 0.921218
0.0766766 0.136584 0.81326
0.0870069 0.130694 0.815991
0.149355 0.116106 0.826596
0.303212 0.0732128 0.840055
0.531029 0.0716869 0.8421
0.717159 0.0813916 0.809659
0.929976 0.0997482 0.898451
0.932738 0.11313 0.927016
0.934615 0.124834 0.919707
0.0564126 0.153613 0.807309
0.056611 0.15201 0.816449
0.0736553 0.144213 0.860533
0.256886 0.0851606 0.866438
0.530129 0.0718853 0.877043
0.741192 0.0821393 0.838437
0.930541 0.100801 0.913909
0.933455 0.115923 0.932189
0.938888 0.158419 0.929808
0.0529641 0.228351 0.765393
0.0529946 0.223209 0.772992
0.0528878 0.216663 0.804807
0.0915541 0.180423 0.873457
0.46537 0.0867628 0.883803
0.81529 0.0949569 0.906722
0.930831 0.101778 0.925383
0.933837 0.118334 0.933837
0.941787 0.278187 0.941787
0.0611582 0.485344 0.802213
0.0610208 0.482002 0.807431
0.0608682 0.478431 0.821881
0.0582132 0.455039 0.85391
0.414939 0.430014 0.925917
0.783963 0.352148 0.937453
0.9337 0.118791 0.916167
0.93402 0.119478 0.93402
0.941772 0.411032 0.941756
0.0529793 0.723018 0.835355
0.0528115 0.721889 0.837888
0.0528267 0.720851 0.842039
0.052903 0.712688 0.849683
0.23714 0.706538 0.890105
0.686015 0.685328 0.900816
0.941909 0.633097 0.903426
0.941817 0.322484 0.930144
0.941787 0.377951 0.941772
0.190448 0.903441 0.875944
0.191546 0.903304 0.875792
0.197696 0.902983 0.87541
0.217563 0.90042 0.873426
0.282536 0.897185 0.870405
0.643 0.894331 0.880064
0.882811 0.882704 0.883543
0.94493 0.856199 0.884535
0.945022 0.650874 0.864012
0.257145 0.941756 0.86772
0.257389 0.941741 0.866361
0.262837 0.941772 0.863951
0.276753 0.941848 0.856489
0.411444 0.94168 0.857176
0.649439 0.942077 0.866163
0.851713 0.943328 0.876799
0.942733 0.941192 0.879255
0.942916 0.940978 0.865293
0.495735 0.941558 0.865324
0.495476 0.941573 0.86363
0.515587 0.941619 0.865278
0.558328 0.94168 0.868528
0.628153 0.941939 0.87425
0.728664 0.942535 0.878279
0.852796 0.94313 0.887953
0.935149 0.942138 0.890791
0.94258 0.94136 0.891768
0.0527962 0.178332 0.892821
0.052903 0.169955 0.907149
0.0546578 0.157702 0.913512
0.225376 0.103426 0.915434
0.509911 0.0719158 0.914382
0.794705 0.0796368 0.918959
0.929793 0.0983139 0.929808
0.932174 0.108171 0.932174
0.934264 0.120958 0.934264
0.0530098 0.174105 0.888319
0.0529488 0.172747 0.89366
0.0529793 0.160983 0.912428
0.206638 0.110933 0.915297
0.499733 0.071809 0.91429
0.788357 0.0796826 0.918791
0.929717 0.0980545 0.929717
0.932082 0.107668 0.932082
0.933959 0.119158 0.933974
0.0530709 0.187396 0.867445
0.052903 0.186206 0.872633
0.052903 0.187747 0.892897
0.0832837 0.148623 0.91458
0.460655 0.0780957 0.914046
0.802945 0.0869001 0.921172
0.929976 0.0988937 0.929976
0.932448 0.109422 0.932448
0.93492 0.125704 0.93492
0.0528573 0.284108 0.845548
0.0528725 0.282597 0.85124
0.0527962 0.300069 0.879286
0.0529183 0.291493 0.90132
0.419211 0.209781 0.93019
0.752041 0.102785 0.924788
0.930571 0.100923 0.930587
0.932738 0.111086 0.932738
0.938857 0.156664 0.938857
0.0607156 0.505577 0.875532
0.0603799 0.504601 0.880522
0.0601511 0.5084 0.893751
0.0582284 0.496422 0.919738
0.360098 0.483055 0.938293
0.730037 0.431968 0.941711
0.941421 0.189319 0.941421
0.932723 0.112703 0.932723
0.941756 0.305348 0.941756
0.0528725 0.728206 0.895796
0.0528878 0.72781 0.898146
0.0528878 0.728084 0.902632
0.0527657 0.722194 0.910124
0.215915 0.710979 0.93109
0.659419 0.691005 0.937804
0.929824 0.640894 0.942138
0.941665 0.3953 0.941649
0.941741 0.266484 0.941741
0.138979 0.891615 0.926894
0.13875 0.891295 0.927611
0.145113 0.891386 0.928893
0.169406 0.889464 0.930846
0.242252 0.878294 0.933806
0.618082 0.874922 0.943755
0.868788 0.8701 0.944457
0.944259 0.839353 0.944259
0.942123 0.629328 0.942107
0.257023 0.941924 0.930556
0.257755 0.941924 0.930541
0.262882 0.94197 0.930526
0.275441 0.942016 0.929976
0.397681 0.941222 0.93518
0.641382 0.940398 0.938155
0.846006 0.942275 0.941146
0.940749 0.940734 0.940887
0.940719 0.939971 0.942046
0.467597 0.940475 0.929229
0.469368 0.94049 0.928985
0.492119 0.940505 0.929747
0.541207 0.940261 0.930907
0.614313 0.940581 0.932967
0.71487 0.941558 0.935149
0.852811 0.942412 0.937346
0.933043 0.941741 0.938628
0.942916 0.940139 0.942443
0.0528267 0.221164 0.87425
0.0527504 0.207034 0.882948
0.052842 0.196292 0.901549
0.0529946 0.160113 0.912917
0.432074 0.0835584 0.913588
0.775341 0.0890516 0.920958
0.928222 0.0941176 0.928222
0.930846 0.101549 0.930846
0.932754 0.113237 0.932754
0.0529641 0.202289 0.877745
0.0529641 0.202502 0.879622
0.0529183 0.193179 0.90042
0.0578622 0.157824 0.913451
0.431174 0.0814832 0.914
0.770993 0.0873884 0.920333
0.928161 0.0937819 0.928176
0.93077 0.101244 0.930785
0.932723 0.112581 0.932723
0.052903 0.233829 0.867002
0.0529183 0.236957 0.870375
0.0530404 0.325124 0.901762
0.0529183 0.29163 0.901335
0.388006 0.214481 0.929137
0.716121 0.104036 0.923903
0.931777 0.106447 0.931777
0.931014 0.102205 0.931014
0.933394 0.11545 0.93341
0.0529641 0.357061 0.880522
0.0529183 0.361654 0.88484
0.0528267 0.417578 0.907774
0.0528573 0.457023 0.920989
0.334905 0.424048 0.937804
0.714549 0.368429 0.941695
0.934661 0.12253 0.934661
0.93106 0.1028 0.93106
0.933959 0.119127 0.933959
0.0612039 0.542 0.898589
0.0612039 0.545342 0.902876
0.0596628 0.568307 0.912474
0.0573281 0.585016 0.923781
0.220935 0.607599 0.933577
0.661921 0.592477 0.934493
0.941817 0.498833 0.941817
0.931823 0.105837 0.931823
0.93463 0.123827 0.93463
0.0529641 0.744152 0.916182
0.0529793 0.746822 0.918242
0.0529183 0.752789 0.922164
0.0529335 0.754986 0.928252
0.168551 0.749798 0.931319
0.627375 0.742412 0.936645
0.898344 0.704601 0.943755
0.941741 0.561547 0.941741
0.934905 0.125643 0.934905
0.100877 0.892744 0.939116
0.101396 0.892958 0.939132
0.112673 0.893645 0.93901
0.149248 0.892744 0.939101
0.245411 0.882643 0.939651
0.621286 0.880186 0.944244
0.854002 0.876158 0.945006
0.944076 0.849332 0.94406
0.94284 0.68455 0.94284
0.261189 0.940871 0.940795
0.261677 0.940764 0.940795
0.266209 0.940795 0.940826
0.277592 0.940185 0.940978
0.401816 0.941131 0.941329
0.629999 0.940169 0.940948
0.833555 0.941848 0.942382
0.937301 0.938369 0.941955
0.942 0.930816 0.942
0.45655 0.940551 0.940887
0.459083 0.940505 0.940841
0.483482 0.9402 0.940612
0.53817 0.939788 0.940368
0.612329 0.939925 0.940749
0.711009 0.940993 0.941619
0.846754 0.942168 0.942443
0.931838 0.941711 0.941741
0.941695 0.941695 0.941711
