bundles/resolve-cinematic-luts/Phantom Luts/A7s3 Phntm Arri LUTs G7/ATOMOS Monitoring LUTs/Slog3/Neutral A7s3-Legacy AML.cube
TITLE "Generated by Resolve"
LUT_3D_SIZE 5
0.0815442 0.0813001 0.0812543
0.158495 0.0809644 0.0901198
0.467826 0.0845045 0.173098
0.925246 0.0825818 0.417365
0.944289 0.182605 0.681468
0.0784619 0.163821 0.0895857
0.150881 0.157305 0.0795605
0.464561 0.070985 0.124804
0.923095 0.0824445 0.383108
0.939864 0.145037 0.624506
0.0857252 0.556023 0.213642
0.096025 0.559533 0.173724
0.549249 0.572259 0.135775
0.949767 0.343526 0.212436
0.944183 0.199969 0.588449
0.175158 0.94641 0.448341
0.188769 0.946441 0.425574
0.406973 0.942153 0.278477
0.935332 0.936782 0.334493
0.941451 0.912413 0.168719
0.526162 0.944915 0.679088
0.499855 0.945098 0.654612
0.597879 0.944747 0.680903
0.871107 0.94136 0.729915
0.948562 0.936797 0.750835
0.0826734 0.08159 0.139559
0.157259 0.0817884 0.14464
0.472038 0.0792554 0.218051
0.927535 0.086717 0.44892
0.944991 0.193057 0.700801
0.0796521 0.15465 0.146685
0.149691 0.14876 0.149508
0.471107 0.0843977 0.174166
0.926146 0.0839094 0.42359
0.946715 0.229618 0.73135
0.0815595 0.55024 0.254185
0.0898299 0.548516 0.214115
0.535332 0.557656 0.142138
0.949996 0.311238 0.205829
0.946654 0.267033 0.706874
0.177218 0.946426 0.470756
0.18584 0.946426 0.451011
0.336446 0.946197 0.287343
0.935012 0.936751 0.33463
0.939879 0.891264 0.115038
0.53875 0.944442 0.692866
0.537606 0.944732 0.686931
0.611826 0.94461 0.701244
0.867735 0.941512 0.732815
0.948547 0.936797 0.750988
0.0962844 0.0887617 0.404227
0.182605 0.0764782 0.425406
0.483711 0.0817273 0.444999
0.931609 0.0998093 0.619638
0.946059 0.211994 0.763027
0.0724956 0.110079 0.415991
0.106645 0.0898451 0.456397
0.502388 0.0823835 0.461494
0.931456 0.100252 0.605066
0.945586 0.250706 0.789395
0.0931868 0.512688 0.486595
0.0986038 0.50927 0.484154
0.507912 0.50753 0.508736
0.93933 0.148028 0.45594
0.943679 0.411841 0.851957
0.192401 0.941863 0.600473
0.201434 0.94197 0.585199
0.327977 0.945907 0.497658
0.925063 0.93576 0.521462
0.93846 0.862455 0.0529793
0.53608 0.942718 0.721004
0.53933 0.942901 0.718791
0.622003 0.944289 0.74258
0.860182 0.942245 0.763302
0.948486 0.936873 0.752544
0.0825666 0.133791 0.822095
0.174609 0.109941 0.833173
0.538399 0.071809 0.841382
0.930144 0.100069 0.904051
0.935134 0.12723 0.921218
0.0564126 0.153613 0.807309
0.0736553 0.144213 0.860533
0.530129 0.0718853 0.877043
0.930541 0.100801 0.913909
0.938888 0.158419 0.929808
0.0611582 0.485344 0.802213
0.0608682 0.478431 0.821881
0.414939 0.430014 0.925917
0.9337 0.118791 0.916167
0.941772 0.411032 0.941756
0.190448 0.903441 0.875944
0.197696 0.902983 0.87541
0.282536 0.897185 0.870405
0.882811 0.882704 0.883543
0.945022 0.650874 0.864012
0.495735 0.941558 0.865324
0.515587 0.941619 0.865278
0.628153 0.941939 0.87425
0.852796 0.94313 0.887953
0.94258 0.94136 0.891768
0.0528267 0.221164 0.87425
0.052842 0.196292 0.901549
0.432074 0.0835584 0.913588
0.928222 0.0941176 0.928222
0.932754 0.113237 0.932754
0.052903 0.233829 0.867002
0.0530404 0.325124 0.901762
0.388006 0.214481 0.929137
0.931777 0.106447 0.931777
0.933394 0.11545 0.93341
0.0612039 0.542 0.898589
0.0596628 0.568307 0.912474
0.220935 0.607599 0.933577
0.941817 0.498833 0.941817
0.93463 0.123827 0.93463
0.100877 0.892744 0.939116
0.112673 0.893645 0.93901
0.245411 0.882643 0.939651
0.854002 0.876158 0.945006
0.94284 0.68455 0.94284
0.45655 0.940551 0.940887
0.483482 0.9402 0.940612
0.612329 0.939925 0.940749
0.846754 0.942168 0.942443
0.941695 0.941695 0.941711
