bundles/resolve-cinematic-luts/Phantom Luts/A7s3 Phntm Arri LUTs G7/ATOMOS Monitoring LUTs/Slog3/Neutral A7s3 AML.cube
TITLE "Generated by Resolve"
LUT_3D_SIZE 9
0.0648203 0.06421 0.0642405
0.082475 0.0649119 0.0675059
0.180987 0.066331 0.0871138
0.338094 0.0660716 0.118105
0.537926 0.0690776 0.195468
0.790021 0.0730602 0.32047
0.937087 0.0937667 0.475074
0.938704 0.122606 0.624659
0.939467 0.208194 0.739376
0.065095 0.0834821 0.0705425
0.0810407 0.0821241 0.0665293
0.167147 0.0726635 0.0774243
0.331655 0.0656138 0.11165
0.530999 0.0704356 0.184619
0.777508 0.0740826 0.305501
0.937072 0.0870375 0.458106
0.938415 0.119585 0.59791
0.93962 0.153994 0.691295
0.0578317 0.192538 0.0829175
0.0718395 0.186679 0.0628367
0.174487 0.183352 0.0687877
0.35198 0.131167 0.0865187
0.536995 0.0526589 0.115572
0.778317 0.0800183 0.267353
0.936339 0.0838483 0.436194
0.938323 0.11989 0.586542
0.939513 0.159747 0.688518
0.0529641 0.37351 0.130098
0.0529183 0.371893 0.108965
0.0920577 0.374365 0.0528573
0.352758 0.369894 0.0719615
0.644053 0.293736 0.152697
0.799191 0.136309 0.134493
0.93286 0.0901198 0.344335
0.938033 0.121172 0.549081
0.939467 0.177066 0.679194
0.0648966 0.612085 0.242481
0.0710765 0.61117 0.229191
0.083711 0.615564 0.191516
0.247532 0.61854 0.0943008
0.60058 0.622965 0.135225
0.885817 0.589883 0.203098
0.949874 0.405005 0.219501
0.937194 0.129122 0.402609
0.939101 0.231266 0.648402
0.125612 0.855726 0.402045
0.132525 0.853254 0.389578
0.147982 0.853803 0.366903
0.18909 0.858061 0.267994
0.586786 0.851209 0.196872
0.82652 0.857069 0.279164
0.930159 0.84332 0.192294
0.9196 0.728176 0.143252
0.949813 0.369863 0.348608
0.196048 0.935546 0.501747
0.200412 0.93637 0.490745
0.211917 0.936645 0.47744
0.246128 0.936736 0.426703
0.463935 0.932158 0.320211
0.767422 0.935882 0.351995
0.932952 0.936049 0.395804
0.945449 0.937087 0.369009
0.938155 0.910857 0.223163
0.294316 0.935439 0.574105
0.291279 0.935988 0.56553
0.296178 0.936614 0.556161
0.325307 0.937758 0.535775
0.488075 0.93843 0.531929
0.73463 0.936736 0.56054
0.899794 0.940856 0.562631
0.949859 0.936141 0.598642
0.946502 0.937423 0.407355
0.583505 0.938567 0.731075
0.55053 0.938399 0.707012
0.555871 0.93872 0.706752
0.584268 0.939574 0.71313
0.652216 0.940536 0.732326
0.768078 0.942321 0.763241
0.888685 0.942641 0.779492
0.94342 0.9402 0.776852
0.948516 0.940795 0.801816
0.0650187 0.0643015 0.0794232
0.082536 0.0649271 0.0800641
0.179751 0.0642557 0.109438
0.333898 0.0631876 0.144671
0.537514 0.0656443 0.215244
0.795239 0.0710765 0.344366
0.937194 0.100343 0.490455
0.938827 0.123507 0.635645
0.939132 0.221027 0.751858
0.0650797 0.0816205 0.0801099
0.0805066 0.0799115 0.0800336
0.186816 0.0730907 0.0909285
0.338476 0.0661173 0.118212
0.537835 0.0691691 0.195422
0.786709 0.0730755 0.318181
0.936904 0.0920729 0.471183
0.938689 0.121828 0.617502
0.939727 0.190707 0.725139
0.0588693 0.191211 0.114305
0.0608835 0.190051 0.0837873
0.173114 0.181811 0.0706645
0.358434 0.122988 0.0919051
0.543816 0.0578775 0.144488
0.788113 0.0785382 0.281941
0.93698 0.0872206 0.450813
0.93872 0.122194 0.608286
0.939635 0.19791 0.724605
0.0529946 0.371969 0.151156
0.0529641 0.372488 0.130953
0.0679484 0.373251 0.0556497
0.350652 0.367605 0.0730449
0.64416 0.286748 0.156878
0.801419 0.106889 0.132097
0.934005 0.0880751 0.369009
0.938567 0.123568 0.576898
0.93962 0.218509 0.722652
0.0603342 0.61004 0.258244
0.067277 0.611139 0.242542
0.0803693 0.613169 0.20354
0.219806 0.617777 0.0944533
0.598398 0.620676 0.136233
0.888701 0.58436 0.209369
0.949828 0.388296 0.214435
0.938262 0.15935 0.44065
0.939239 0.271672 0.710048
0.122133 0.85362 0.414511
0.126864 0.854688 0.402014
0.141787 0.854612 0.381964
0.183169 0.857832 0.294545
0.578439 0.850706 0.201648
0.826368 0.856916 0.279133
0.929625 0.840284 0.1935
0.91902 0.70486 0.16083
0.938643 0.374899 0.611444
0.199191 0.935027 0.511986
0.197925 0.935653 0.501991
0.208331 0.936614 0.487388
0.242054 0.936767 0.442603
0.434165 0.933928 0.321492
0.76318 0.935485 0.352972
0.932937 0.936049 0.395834
0.945296 0.937026 0.365972
0.93576 0.897612 0.183307
0.297627 0.935286 0.580926
0.294804 0.93547 0.574319
0.298909 0.936156 0.565591
0.326421 0.937774 0.544411
0.483268 0.938415 0.540322
0.728374 0.93666 0.56614
0.89865 0.940826 0.565744
0.949874 0.936141 0.59852
0.946502 0.937423 0.407248
0.596582 0.938659 0.741604
0.585702 0.938674 0.732784
0.589624 0.938903 0.732189
0.607355 0.939544 0.734142
0.664988 0.940764 0.747921
0.768643 0.942428 0.769619
0.88751 0.942596 0.779751
0.943206 0.9402 0.777539
0.948501 0.940795 0.801831
0.0684215 0.0644083 0.157626
0.103059 0.0632029 0.157855
0.180713 0.0636606 0.164385
0.33959 0.0591287 0.205097
0.543328 0.0595712 0.259876
0.803967 0.0713512 0.380743
0.937255 0.103685 0.511696
0.938964 0.123873 0.645243
0.939055 0.222156 0.756756
0.0628672 0.0799268 0.138369
0.0715496 0.0654765 0.163058
0.183093 0.064332 0.166018
0.33904 0.0598917 0.181186
0.538399 0.0610819 0.239277
0.79321 0.070634 0.355108
0.937118 0.10042 0.492287
0.938689 0.12195 0.628473
0.939422 0.191592 0.730404
0.061326 0.179141 0.168215
0.0641337 0.178393 0.167773
0.173571 0.172519 0.173373
0.382589 0.125185 0.176364
0.541619 0.0696117 0.197208
0.79762 0.0732891 0.324117
0.937087 0.0979019 0.481666
0.938949 0.12575 0.641825
0.938766 0.265751 0.781338
0.052903 0.367849 0.204334
0.0530861 0.368246 0.186221
0.0643778 0.36556 0.139605
0.346563 0.362097 0.110689
0.608347 0.280613 0.174624
0.834104 0.0853895 0.203342
0.93579 0.0865797 0.410193
0.938643 0.126177 0.611353
0.93875 0.277836 0.777417
0.052842 0.606241 0.292348
0.0572366 0.605982 0.275181
0.0738689 0.604929 0.24358
0.157641 0.608469 0.108171
0.586816 0.608667 0.143496
0.883391 0.571023 0.23154
0.949844 0.372152 0.209705
0.938567 0.168154 0.493477
0.939162 0.309438 0.758175
0.119554 0.848554 0.43267
0.12163 0.84976 0.420768
0.134188 0.849821 0.402029
0.177691 0.850019 0.319783
0.553826 0.847013 0.221454
0.821012 0.851698 0.282536
0.929107 0.833219 0.23093
0.918975 0.694545 0.167758
0.938323 0.415412 0.630488
0.202365 0.934478 0.526223
0.201511 0.934813 0.517403
0.209689 0.93608 0.504051
0.241413 0.93695 0.463111
0.389212 0.936812 0.331228
0.757641 0.935225 0.361456
0.932738 0.936034 0.39588
0.945663 0.937194 0.374548
0.9355 0.895155 0.174548
0.298985 0.934966 0.589166
0.296147 0.93518 0.58262
0.300511 0.935683 0.575372
0.326345 0.937804 0.554025
0.480537 0.938415 0.550027
0.723781 0.93669 0.574578
0.897688 0.940826 0.574105
0.949874 0.936156 0.596735
0.946532 0.937407 0.409812
0.596521 0.938506 0.744183
0.585412 0.938521 0.735119
0.595331 0.938766 0.738857
0.611093 0.939452 0.739452
0.665995 0.94081 0.75172
0.767605 0.942428 0.771771
0.886473 0.942657 0.781765
0.942733 0.940322 0.780362
0.948501 0.940795 0.801907
0.0767376 0.0644999 0.292836
0.111513 0.0590524 0.296391
0.200732 0.0563821 0.305928
0.34612 0.0581979 0.314397
0.550744 0.0599222 0.372091
0.807782 0.0797742 0.468208
0.937789 0.104509 0.568475
0.939239 0.124941 0.673243
0.939101 0.226581 0.771282
0.0590829 0.0714427 0.28748
0.0781262 0.0642863 0.302739
0.184863 0.0566262 0.317494
0.346563 0.0582742 0.315022
0.547631 0.0596323 0.36318
0.800931 0.0794995 0.447349
0.937575 0.103716 0.552895
0.939071 0.123033 0.658671
0.939437 0.19646 0.747524
0.0529335 0.162875 0.294987
0.0527962 0.156512 0.30753
0.139971 0.123934 0.34847
0.371313 0.0779889 0.338003
0.550011 0.0607462 0.350286
0.805493 0.0795148 0.425193
0.937575 0.105608 0.545159
0.93904 0.126513 0.669795
0.938216 0.270909 0.793774
0.0528267 0.346242 0.323568
0.052781 0.346029 0.323674
0.0675364 0.342596 0.322179
0.352285 0.351064 0.352544
0.615747 0.270329 0.338018
0.82858 0.0774395 0.335622
0.937392 0.10396 0.490562
0.939162 0.135348 0.663798
0.937682 0.362997 0.831128
0.0567025 0.596735 0.393652
0.0598154 0.596506 0.383642
0.0777142 0.593973 0.360174
0.131594 0.590311 0.268269
0.575631 0.592294 0.278065
0.850401 0.54728 0.307591
0.949767 0.278569 0.240848
0.938903 0.170108 0.573419
0.938277 0.378683 0.814069
0.121218 0.838743 0.493462
0.122408 0.838743 0.481956
0.134554 0.838148 0.462837
0.169406 0.837812 0.40856
0.473213 0.842512 0.277623
0.806058 0.835981 0.304082
0.928145 0.813138 0.311833
0.924086 0.668208 0.180224
0.938521 0.429114 0.718349
0.208881 0.933257 0.562173
0.209003 0.933471 0.554299
0.218967 0.934279 0.54519
0.242039 0.937133 0.509621
0.364797 0.937697 0.390417
0.743191 0.934844 0.404517
0.930861 0.935653 0.410559
0.94641 0.937469 0.401465
0.934234 0.887114 0.147173
0.302083 0.934325 0.610651
0.29987 0.934401 0.605585
0.304662 0.934798 0.599435
0.329305 0.936431 0.58204
0.475822 0.938445 0.577127
0.710765 0.937133 0.600519
0.895323 0.940719 0.600137
0.949874 0.936156 0.593637
0.946899 0.937407 0.425193
0.596292 0.93814 0.751644
0.584863 0.938018 0.742824
0.595239 0.938308 0.746883
0.621515 0.939101 0.755688
0.669657 0.940963 0.762783
0.765225 0.942428 0.778393
0.883955 0.94284 0.78819
0.941466 0.940703 0.788083
0.94847 0.94081 0.802152
0.0933242 0.066453 0.470481
0.133898 0.0569314 0.477485
0.21651 0.0527352 0.495354
0.368505 0.0526284 0.494179
0.555505 0.0635538 0.515908
0.816251 0.0789654 0.59295
0.938354 0.10016 0.689906
0.938643 0.125673 0.739696
0.938003 0.24445 0.807736
0.0783856 0.0701762 0.47396
0.0972457 0.0657359 0.480003
0.19266 0.0526894 0.50106
0.360632 0.0527962 0.497292
0.554559 0.063508 0.514977
0.809293 0.0783856 0.584497
0.938354 0.0995499 0.678828
0.938766 0.123705 0.729625
0.938354 0.215808 0.790402
0.052903 0.113603 0.483116
0.0529335 0.109133 0.496086
0.109712 0.0657664 0.526223
0.361135 0.0526894 0.543496
0.574517 0.0672465 0.532952
0.815167 0.078645 0.58233
0.938369 0.10103 0.675563
0.938811 0.128542 0.736538
0.937438 0.289693 0.825681
0.0529335 0.315847 0.494759
0.0529488 0.31107 0.502678
0.0528878 0.297536 0.519448
0.289555 0.264912 0.568399
0.611292 0.17615 0.567742
0.837964 0.0841535 0.58349
0.938262 0.101869 0.648875
0.939178 0.1467 0.733684
0.93695 0.381415 0.853071
0.0731975 0.56936 0.542657
0.0763409 0.568689 0.542306
0.0842603 0.566018 0.540764
0.121584 0.555245 0.531746
0.560235 0.559915 0.56112
0.849714 0.499474 0.55845
0.938689 0.182727 0.510246
0.939422 0.178973 0.686763
0.936065 0.462608 0.867735
0.122042 0.819028 0.610086
0.123873 0.819135 0.604028
0.136095 0.818326 0.594842
0.176333 0.814878 0.564019
0.433997 0.819867 0.526772
0.784009 0.804654 0.539239
0.931624 0.777218 0.533104
0.945785 0.565957 0.387701
0.937942 0.459129 0.803677
0.211902 0.932906 0.651682
0.213321 0.932876 0.645548
0.225437 0.933089 0.637095
0.258305 0.933364 0.609049
0.375341 0.937911 0.550805
0.73135 0.936812 0.574731
0.926284 0.933242 0.5823
0.949264 0.926848 0.547982
0.932448 0.874418 0.102205
0.304326 0.933806 0.661662
0.303365 0.933791 0.657038
0.309438 0.933745 0.651514
0.340154 0.934325 0.641001
0.482689 0.938582 0.640436
0.702663 0.939162 0.659739
0.89044 0.940902 0.669947
0.949767 0.935836 0.643763
0.949844 0.936141 0.590097
0.592142 0.937438 0.769177
0.583551 0.937301 0.763226
0.595514 0.937484 0.767254
0.62414 0.938155 0.776593
0.678599 0.9402 0.788861
0.763455 0.942473 0.796796
0.881209 0.942931 0.807691
0.939391 0.941543 0.809644
0.948394 0.940826 0.803281
0.122866 0.0759442 0.679332
0.171588 0.0628061 0.689235
0.243763 0.0526589 0.699535
0.399084 0.0526131 0.70016
0.574243 0.0525978 0.691051
0.804639 0.081178 0.738064
0.935271 0.099321 0.817929
0.935134 0.121843 0.862669
0.936355 0.198901 0.866621
0.10454 0.080415 0.680171
0.124804 0.0754711 0.681376
0.206683 0.0527199 0.698192
0.383459 0.0527504 0.707393
0.567193 0.052781 0.688975
0.799939 0.0808423 0.73373
0.935439 0.098558 0.811963
0.935149 0.120302 0.858549
0.936278 0.159716 0.856001
0.0529641 0.130571 0.69836
0.0528267 0.124971 0.707195
0.129534 0.0805219 0.735241
0.360479 0.0526894 0.750439
0.602182 0.0526894 0.744549
0.811154 0.0817731 0.744198
0.935271 0.0999466 0.819089
0.935363 0.124819 0.86154
0.935866 0.280659 0.880262
0.0530098 0.277424 0.684749
0.0528573 0.26894 0.691722
0.0530556 0.25275 0.718181
0.209201 0.174655 0.780499
0.577585 0.0803998 0.777173
0.859434 0.090959 0.787289
0.935363 0.100389 0.819806
0.935653 0.12871 0.857389
0.935866 0.406531 0.894286
0.0528573 0.554238 0.70071
0.0528725 0.551858 0.704128
0.0528267 0.547463 0.713527
0.052842 0.527077 0.733394
0.516274 0.506539 0.78555
0.842985 0.429664 0.788266
0.936553 0.117357 0.799542
0.936187 0.1299 0.836286
0.934707 0.504173 0.899229
0.128511 0.783566 0.753613
0.130053 0.783154 0.753323
0.139742 0.781567 0.752102
0.170397 0.776913 0.748638
0.408652 0.77528 0.752285
0.758083 0.757931 0.758816
0.935393 0.71458 0.761227
0.938415 0.441611 0.722789
0.935897 0.487114 0.86743
0.208087 0.921523 0.786038
0.209476 0.921736 0.783001
0.219913 0.921721 0.778698
0.248402 0.920638 0.764035
0.360479 0.92221 0.728771
0.70277 0.921813 0.751965
0.906752 0.914748 0.76347
0.949783 0.902831 0.750851
0.935653 0.798672 0.605081
0.298268 0.933959 0.77258
0.298146 0.933959 0.769223
0.304616 0.933837 0.764706
0.330068 0.934157 0.751675
0.498177 0.935882 0.75169
0.700389 0.941497 0.773907
0.883268 0.942763 0.786633
0.947799 0.940566 0.792096
0.949935 0.939635 0.770092
0.581323 0.937163 0.810285
0.577295 0.937102 0.807568
0.592798 0.937377 0.810529
0.627512 0.938094 0.817899
0.686824 0.939452 0.829938
0.770413 0.942306 0.83827
0.881727 0.943358 0.846708
0.935912 0.942687 0.852659
0.946471 0.942229 0.836973
0.0787976 0.112627 0.864332
0.133837 0.0957656 0.866743
0.211444 0.0711223 0.874189
0.390234 0.0527352 0.882567
0.610224 0.0525978 0.881651
0.790738 0.0628824 0.861448
0.933944 0.0981003 0.918624
0.93489 0.117525 0.932647
0.93518 0.135592 0.926482
0.0674296 0.119387 0.857816
0.0863966 0.10782 0.859983
0.175677 0.0842756 0.868803
0.366659 0.0527657 0.879057
0.602991 0.052781 0.882322
0.786969 0.062562 0.859464
0.933883 0.0975967 0.91548
0.934691 0.116197 0.930892
0.935073 0.132662 0.925902
0.052842 0.160601 0.853666
0.0529335 0.156542 0.859968
0.0648508 0.129351 0.890059
0.314 0.0527047 0.896559
0.601938 0.0526131 0.905119
0.806897 0.0656138 0.880171
0.934051 0.0991836 0.924697
0.934981 0.120439 0.934005
0.935607 0.175204 0.929335
0.0529488 0.271656 0.82388
0.0527962 0.263874 0.830076
0.0529183 0.253956 0.854536
0.0985885 0.194949 0.903304
0.538613 0.0794995 0.911498
0.86157 0.0905013 0.922408
0.93431 0.100603 0.931075
0.934981 0.123507 0.934981
0.935592 0.322454 0.935592
0.0529793 0.544823 0.830121
0.0529946 0.541497 0.834195
0.0528573 0.538293 0.845045
0.0528878 0.516472 0.869093
0.46862 0.48397 0.916457
0.818708 0.400626 0.928985
0.934874 0.124224 0.924254
0.935027 0.125063 0.935027
0.935058 0.461433 0.935058
0.0529335 0.765072 0.853376
0.0529335 0.763943 0.855344
0.0529335 0.762936 0.858488
0.052903 0.755413 0.863828
0.287984 0.746548 0.89099
0.73106 0.729137 0.901061
0.930602 0.681071 0.901991
0.935592 0.37055 0.923873
0.935454 0.427588 0.932845
0.208011 0.901686 0.882307
0.209384 0.901625 0.882292
0.217899 0.901366 0.882048
0.241901 0.899657 0.880827
0.322286 0.896895 0.878538
0.692119 0.897383 0.887755
0.891325 0.891264 0.891829
0.940688 0.873198 0.892546
0.935805 0.697765 0.874556
0.292073 0.934295 0.878676
0.292393 0.934295 0.877607
0.298924 0.934127 0.875822
0.317266 0.934356 0.870878
0.463249 0.935546 0.872435
0.702312 0.939971 0.881758
0.8757 0.944015 0.892744
0.94023 0.942214 0.897246
0.944945 0.940871 0.888029
0.550179 0.936812 0.878996
0.54992 0.936812 0.877821
0.570016 0.937011 0.879103
0.613077 0.937911 0.881956
0.682124 0.939529 0.887236
0.778378 0.94168 0.891432
0.876371 0.944183 0.900114
0.934035 0.944427 0.904936
0.944518 0.943603 0.906966
0.0529488 0.190845 0.91194
0.0528573 0.176852 0.919661
0.0528267 0.155169 0.922057
0.278721 0.0539559 0.927901
0.581949 0.0527352 0.928008
0.847623 0.0587625 0.930343
0.933944 0.0950179 0.933944
0.93463 0.109682 0.93463
0.935073 0.127077 0.935073
0.0527657 0.185 0.908827
0.0530098 0.182742 0.912016
0.0529946 0.16025 0.921843
0.255161 0.0616922 0.927489
0.57174 0.0526894 0.927901
0.84303 0.0590372 0.930343
0.933913 0.0946059 0.933913
0.934615 0.10901 0.934615
0.935012 0.124636 0.935012
0.052781 0.205814 0.896376
0.0530098 0.204105 0.900038
0.0528115 0.204715 0.912352
0.0852979 0.128115 0.924071
0.532616 0.0575418 0.928389
0.853529 0.0781262 0.931319
0.934005 0.0959335 0.934005
0.934783 0.11133 0.934783
0.935103 0.133684 0.935103
0.0529335 0.336568 0.879042
0.0529488 0.334752 0.882689
0.0529183 0.353307 0.899657
0.0529488 0.342428 0.913848
0.481865 0.24712 0.931105
0.813046 0.104234 0.93228
0.934066 0.0992905 0.934066
0.934661 0.113344 0.934661
0.93579 0.172732 0.93579
0.052903 0.56463 0.881224
0.0529183 0.563729 0.88455
0.0529335 0.567742 0.893446
0.0530556 0.556985 0.911391
0.410178 0.536248 0.924681
0.773968 0.483314 0.934218
0.935729 0.215579 0.935729
0.934737 0.115618 0.934737
0.935714 0.351644 0.935714
0.0529488 0.768536 0.89575
0.0529641 0.768154 0.897292
0.0529641 0.768307 0.900618
0.0528115 0.762814 0.905882
0.253391 0.752209 0.921706
0.706477 0.734386 0.931456
0.920699 0.688411 0.933715
0.935195 0.445457 0.935195
0.935637 0.307576 0.935637
0.148028 0.893675 0.917739
0.147997 0.893492 0.91841
0.156542 0.893431 0.919432
0.188144 0.892027 0.921157
0.278355 0.88394 0.924239
0.667903 0.881865 0.93698
0.881529 0.882307 0.937545
0.940108 0.860853 0.937911
0.93341 0.677775 0.93341
0.291371 0.933501 0.92253
0.292271 0.933471 0.922515
0.298604 0.933425 0.922545
0.315038 0.932845 0.922148
0.45069 0.934752 0.926284
0.692866 0.936614 0.931197
0.870802 0.937896 0.935332
0.936553 0.936553 0.936645
0.944442 0.936324 0.938872
0.52163 0.935347 0.922515
0.523537 0.935363 0.922286
0.546548 0.935836 0.923293
0.595056 0.936706 0.925048
0.667536 0.938537 0.927626
0.765255 0.941344 0.93077
0.877195 0.943999 0.933593
0.932418 0.944213 0.936217
0.944076 0.944045 0.93756
0.0529488 0.255955 0.90164
0.0529946 0.233112 0.907332
0.0528267 0.215427 0.917708
0.0529946 0.158923 0.922026
0.504524 0.0735332 0.928527
0.8327 0.081178 0.931395
0.933455 0.0880446 0.933455
0.934295 0.100237 0.934295
0.934783 0.116518 0.934798
0.0528267 0.226658 0.903639
0.0528267 0.226825 0.90486
0.0529793 0.211048 0.91722
0.0528267 0.155154 0.922225
0.503105 0.0638132 0.928374
0.829633 0.0790417 0.931197
0.933394 0.0873274 0.93341
0.934188 0.0997787 0.934188
0.934722 0.115404 0.934722
0.0529335 0.273472 0.896391
0.0528115 0.27747 0.898375
0.0528573 0.37966 0.910994
0.0529488 0.34258 0.913848
0.449912 0.252872 0.930755
0.783749 0.106401 0.931975
0.934585 0.107286 0.934585
0.934295 0.101213 0.934295
0.934981 0.119768 0.934981
0.0529335 0.412116 0.89604
0.0529488 0.416632 0.89868
0.0529183 0.469642 0.912215
0.0529183 0.512047 0.917784
0.386526 0.478416 0.926131
0.762158 0.418097 0.93434
0.935409 0.129564 0.935409
0.934234 0.102281 0.934234
0.935012 0.124575 0.935012
0.0529793 0.600153 0.89456
0.0528573 0.603281 0.897002
0.0528878 0.625498 0.903044
0.0527962 0.640909 0.910842
0.24564 0.658656 0.920317
0.708003 0.641428 0.928557
0.933639 0.549813 0.933639
0.934524 0.106523 0.934524
0.935241 0.131289 0.935241
0.0528573 0.781918 0.909987
0.0528725 0.784131 0.91165
0.0530251 0.789258 0.91519
0.0528267 0.790784 0.919753
0.213718 0.785412 0.923354
0.677516 0.78027 0.929671
0.898863 0.748714 0.935821
0.932769 0.611704 0.932769
0.935103 0.133623 0.935103
0.100984 0.894774 0.928481
0.101488 0.894942 0.92903
0.115099 0.895445 0.929274
0.16405 0.894682 0.930022
0.281453 0.886961 0.931044
0.670451 0.885924 0.938857
0.871687 0.88658 0.940749
0.940291 0.868589 0.940291
0.934905 0.729992 0.934905
0.297856 0.930205 0.932845
0.298482 0.930144 0.933043
0.304128 0.930205 0.93344
0.318959 0.929808 0.933776
0.455497 0.932403 0.934874
0.683543 0.933471 0.938796
0.862608 0.934936 0.943099
0.933913 0.934493 0.94406
0.943709 0.929015 0.943709
0.511727 0.935073 0.935561
0.513939 0.934966 0.935485
0.53872 0.935332 0.935912
0.592721 0.93608 0.936858
0.665812 0.937926 0.938643
0.762036 0.940902 0.941405
0.873396 0.943908 0.944076
0.932052 0.94406 0.944076
0.944045 0.944045 0.944045
