bundles/resolve-cinematic-luts/Phantom Luts/A7s3 Phntm Arri LUTs G7/ATOMOS Monitoring LUTs/Slog3/Neutral A7s3-Legacy AML.cube
TITLE "Generated by Resolve"
LUT_3D_SIZE 33
0.0815442 0.0813001 0.0812543
0.0815442 0.0813001 0.0812543
0.0815442 0.0813001 0.0812543
0.0815595 0.0814221 0.0812238
0.0890211 0.0817273 0.0822156
0.0984207 0.0819104 0.0831159
0.115297 0.0821088 0.084184
0.137011 0.0817426 0.0864424
0.158495 0.0809644 0.0901198
0.183307 0.0802167 0.0949874
0.211734 0.0811322 0.101198
0.244602 0.0822309 0.108446
0.279393 0.0835126 0.114092
0.321614 0.084184 0.124117
0.36817 0.084123 0.139956
0.416022 0.084184 0.155489
0.467826 0.0845045 0.173098
0.522606 0.084596 0.192981
0.580972 0.0844434 0.215381
0.645289 0.0841688 0.241428
0.71693 0.0835584 0.272648
0.798184 0.0828412 0.30869
0.876768 0.0810101 0.347677
0.922454 0.0800031 0.384955
0.925246 0.0825818 0.417365
0.928328 0.0901961 0.451026
0.9308 0.104814 0.485237
0.932891 0.112535 0.522042
0.934646 0.11603 0.556313
0.935744 0.119417 0.586572
0.938354 0.133532 0.618189
0.941772 0.158083 0.651881
0.944289 0.182605 0.681468
0.0815442 0.0813001 0.0812543
0.0815442 0.0813001 0.0812543
0.0815442 0.0813001 0.0812543
0.081529 0.0814221 0.0812238
0.0881361 0.0817121 0.0820935
0.0975204 0.0818952 0.0829938
0.114122 0.082063 0.0839857
0.135927 0.0817578 0.0862135
0.157748 0.0809644 0.0898451
0.182742 0.0802014 0.0948196
0.211734 0.0811322 0.101198
0.244602 0.0822309 0.108446
0.279393 0.0835126 0.114092
0.321614 0.084184 0.124117
0.36817 0.084123 0.139956
0.416022 0.084184 0.155489
0.467826 0.0845045 0.173098
0.522103 0.084596 0.192752
0.579202 0.0844739 0.214359
0.6421 0.084184 0.239597
0.712291 0.0836347 0.270176
0.792432 0.082948 0.305333
0.870619 0.0811933 0.343648
0.922194 0.0800031 0.381033
0.924971 0.0820325 0.411887
0.927794 0.0882887 0.444678
0.930312 0.101305 0.477836
0.932372 0.111574 0.51223
0.934173 0.114931 0.546029
0.935302 0.118166 0.575036
0.936355 0.121279 0.600351
0.939651 0.142519 0.631052
0.942229 0.162829 0.658198
0.0815442 0.0813001 0.0812543
0.0815442 0.0813001 0.0812543
0.0815442 0.0813001 0.0812543
0.081529 0.0813458 0.0812238
0.0858015 0.0816052 0.08159
0.0935531 0.0818189 0.0823377
0.10605 0.0819409 0.0831769
0.128176 0.0821546 0.0851606
0.151202 0.0812543 0.0881819
0.175998 0.0801404 0.0928817
0.205188 0.0808423 0.0993973
0.23946 0.0820783 0.106935
0.275914 0.0834363 0.113024
0.319112 0.0841993 0.122972
0.366903 0.0841077 0.139162
0.413748 0.0842145 0.154406
0.464469 0.0845045 0.171908
0.518486 0.0846113 0.190814
0.575769 0.0845808 0.212299
0.637812 0.0842603 0.237491
0.707622 0.0838483 0.267735
0.787213 0.0830243 0.302708
0.865217 0.0813764 0.34023
0.92195 0.0800641 0.377935
0.924865 0.0816968 0.408576
0.927764 0.0872663 0.440497
0.930068 0.0990921 0.47303
0.932296 0.110994 0.505531
0.933852 0.114229 0.538155
0.935164 0.117372 0.566827
0.935927 0.120043 0.59147
0.938079 0.13286 0.616266
0.940642 0.150896 0.641855
0.0814679 0.081651 0.0813001
0.0814832 0.0816358 0.0813001
0.0815747 0.0815747 0.0812543
0.0816205 0.0816205 0.0812848
0.084062 0.0820935 0.0814832
0.0897383 0.0821851 0.0818799
0.0991684 0.0821241 0.0822919
0.121157 0.0823835 0.0835279
0.1449 0.0816052 0.086656
0.170062 0.080293 0.0910811
0.199939 0.0806287 0.0974136
0.234562 0.0818647 0.105287
0.273365 0.0831464 0.114061
0.314778 0.0842908 0.121294
0.362722 0.0841535 0.136828
0.410071 0.0842145 0.152392
0.460929 0.0845045 0.16997
0.514961 0.0846876 0.188815
0.572152 0.0847181 0.209918
0.634073 0.0843061 0.235309
0.703151 0.0839094 0.265476
0.781811 0.0831464 0.299794
0.859525 0.0816815 0.337072
0.921706 0.0801709 0.374655
0.924529 0.0814069 0.404837
0.927321 0.0862135 0.436286
0.929961 0.0969711 0.468223
0.93193 0.110277 0.498665
0.933288 0.113451 0.530785
0.934783 0.116426 0.558801
0.935729 0.119081 0.582788
0.936828 0.122805 0.603357
0.939467 0.139773 0.627207
0.0819562 0.0904097 0.0831006
0.0820172 0.0900893 0.0828107
0.0825513 0.0891737 0.0819562
0.0846265 0.088716 0.0821241
0.088777 0.0895552 0.0822614
0.0945907 0.089128 0.0827802
0.101625 0.0896315 0.0826886
0.120867 0.0876326 0.0833143
0.147066 0.0845808 0.0844739
0.172366 0.0810712 0.0874495
0.200412 0.0804303 0.0929122
0.232883 0.081178 0.0998245
0.274388 0.0834974 0.10988
0.318303 0.0844129 0.120104
0.366278 0.0843824 0.135637
0.410193 0.0848859 0.146593
0.461341 0.0852369 0.164767
0.515267 0.0853285 0.184253
0.572457 0.0852522 0.20618
0.634348 0.0849012 0.231266
0.70367 0.0845197 0.261555
0.782528 0.0836805 0.296086
0.860288 0.0822156 0.333333
0.921462 0.0805219 0.371252
0.924315 0.0814221 0.401907
0.927108 0.0859541 0.433555
0.9299 0.0961776 0.465904
0.931853 0.110277 0.49688
0.933242 0.113512 0.528954
0.934768 0.116472 0.557366
0.935744 0.119142 0.581643
0.937057 0.123507 0.60293
0.939544 0.140459 0.626856
0.0822461 0.100999 0.0846418
0.0823224 0.100679 0.0843977
0.0824903 0.0990616 0.082536
0.0850996 0.0975204 0.082475
0.0906386 0.0988022 0.082948
0.0970779 0.0988174 0.082826
0.109575 0.0978866 0.0839246
0.124529 0.0966964 0.0846418
0.145403 0.0934615 0.085359
0.170886 0.0878462 0.0855879
0.20264 0.0831464 0.0894942
0.23624 0.0819867 0.0973373
0.271763 0.0807355 0.104128
0.315251 0.0823377 0.11339
0.367132 0.0847028 0.129854
0.414496 0.0851148 0.145968
0.461402 0.085832 0.15967
0.515511 0.0858473 0.180117
0.572793 0.0858015 0.202136
0.634546 0.0854658 0.227375
0.704219 0.0851453 0.257694
0.783322 0.0842603 0.292226
0.860975 0.0827039 0.329747
0.921233 0.0809033 0.367742
0.924117 0.0814832 0.398596
0.926894 0.0857099 0.431159
0.929793 0.095491 0.463813
0.931792 0.10985 0.49485
0.933242 0.113558 0.527153
0.934737 0.116487 0.556023
0.93576 0.119188 0.580468
0.937026 0.124086 0.602228
0.939605 0.141146 0.62649
0.0816205 0.11899 0.0858167
0.0816815 0.118563 0.0855421
0.0823377 0.116579 0.0835126
0.0841077 0.114443 0.0824292
0.0908064 0.114946 0.0823682
0.0976577 0.115969 0.082414
0.111604 0.115175 0.0827344
0.131716 0.112871 0.0843977
0.154589 0.107683 0.0871901
0.173129 0.103197 0.0876783
0.200488 0.0953536 0.0876478
0.23537 0.0855421 0.0899214
0.275593 0.08336 0.100359
0.317647 0.0801862 0.108309
0.361074 0.0789197 0.117906
0.412757 0.0838331 0.137041
0.466941 0.0862135 0.158312
0.515541 0.086656 0.173816
0.572854 0.0865187 0.196704
0.634943 0.0862135 0.221866
0.704753 0.0859846 0.251774
0.78407 0.0850233 0.287022
0.861845 0.0833295 0.325032
0.920943 0.0813764 0.363729
0.923858 0.0816205 0.395117
0.926604 0.08542 0.427588
0.929686 0.0945144 0.460777
0.931731 0.108858 0.492241
0.933211 0.113619 0.524956
0.934691 0.116533 0.554208
0.935775 0.119249 0.579049
0.936858 0.124941 0.60119
0.939559 0.142031 0.625849
0.0804456 0.14078 0.0874495
0.0805371 0.140475 0.0870375
0.0810559 0.138552 0.0842451
0.0819104 0.137087 0.0820478
0.0874495 0.137102 0.0814832
0.0964828 0.137057 0.0816815
0.110079 0.137026 0.0807813
0.130083 0.135714 0.0813153
0.154314 0.133562 0.0822309
0.186603 0.122774 0.0893568
0.209751 0.115404 0.0911269
0.23859 0.108537 0.0912795
0.274037 0.097612 0.0925612
0.317998 0.08365 0.0958877
0.367864 0.0786145 0.109438
0.41004 0.0741741 0.120806
0.461295 0.0808576 0.143679
0.521691 0.0873121 0.170565
0.572534 0.0875563 0.188571
0.635111 0.0872206 0.215015
0.70518 0.0869917 0.244831
0.78497 0.0859846 0.280415
0.862882 0.084123 0.318822
0.920485 0.0821088 0.357961
0.923537 0.0819409 0.390158
0.926436 0.0851911 0.423072
0.929488 0.0933547 0.456352
0.931609 0.1075 0.488853
0.933165 0.113695 0.52224
0.934646 0.116594 0.551766
0.935744 0.119326 0.577203
0.937041 0.126467 0.600183
0.939544 0.143221 0.625208
0.0784619 0.163821 0.0895857
0.078645 0.163577 0.0892042
0.0793774 0.161852 0.0859693
0.0799878 0.160067 0.082536
0.082414 0.15996 0.0798505
0.0901503 0.160632 0.079942
0.104479 0.160311 0.0805829
0.125597 0.159625 0.0788128
0.150881 0.157305 0.0795605
0.179995 0.155383 0.0798657
0.22443 0.141131 0.0915541
0.260212 0.126467 0.0949111
0.285542 0.120256 0.0945602
0.323568 0.107576 0.0931716
0.366857 0.0899672 0.0928664
0.41442 0.0761883 0.102098
0.464561 0.070985 0.124804
0.513222 0.0767834 0.149996
0.579095 0.0874647 0.182467
0.634531 0.0885634 0.204776
0.705104 0.0883955 0.234958
0.785657 0.0873579 0.271382
0.864164 0.0852827 0.31043
0.919905 0.0831769 0.349889
0.923095 0.0824445 0.383108
0.926177 0.0851148 0.417151
0.929061 0.0919966 0.450584
0.931579 0.10602 0.484184
0.933135 0.113848 0.517876
0.934569 0.11667 0.548486
0.935699 0.119417 0.574609
0.937392 0.128389 0.599145
0.939864 0.145037 0.624506
0.0734722 0.190372 0.0924849
0.0736248 0.190265 0.0922713
0.0754253 0.188754 0.0892805
0.076997 0.18703 0.0846113
0.0784924 0.187625 0.0803998
0.0826429 0.187045 0.0771954
0.0929732 0.187869 0.0778515
0.120104 0.186618 0.0788434
0.143526 0.186206 0.0769513
0.17377 0.182559 0.0785382
0.211963 0.180667 0.0782483
0.269902 0.161013 0.0946212
0.314946 0.143206 0.0993973
0.347189 0.134752 0.0987564
0.382467 0.121187 0.096376
0.423636 0.101839 0.0966354
0.468055 0.0787976 0.0983749
0.51548 0.0683146 0.120577
0.568917 0.0718853 0.156741
0.635752 0.0838788 0.191302
0.711116 0.0890211 0.230015
0.785855 0.0892958 0.258381
0.865553 0.0871901 0.298451
0.918975 0.0847944 0.338125
0.922393 0.0833906 0.372793
0.925689 0.085069 0.408591
0.928954 0.0909285 0.443778
0.931365 0.103624 0.477745
0.933013 0.113924 0.512016
0.934508 0.116777 0.544259
0.935668 0.119554 0.571267
0.937835 0.130632 0.59794
0.9402 0.147509 0.623362
0.0684825 0.223239 0.0979019
0.0684825 0.223239 0.0979019
0.0697642 0.221637 0.0935531
0.071458 0.220127 0.0894942
0.0727855 0.220844 0.0843519
0.0748302 0.220844 0.0783246
0.0830091 0.220157 0.0721294
0.102174 0.221424 0.0740368
0.136767 0.220661 0.0767834
0.165545 0.219913 0.0756542
0.204242 0.215778 0.0786297
0.251881 0.214084 0.0777142
0.32256 0.190402 0.0995804
0.378958 0.167285 0.108339
0.420768 0.155016 0.109377
0.451072 0.145022 0.107958
0.490867 0.123293 0.107317
0.533211 0.0949874 0.10695
0.574289 0.0710002 0.120211
0.619516 0.0611429 0.152178
0.702846 0.0789197 0.201816
0.794079 0.0906233 0.250034
0.866499 0.0897231 0.282017
0.918105 0.0870069 0.322988
0.921386 0.0851148 0.358465
0.925109 0.0853437 0.396918
0.92845 0.0898146 0.434501
0.931105 0.100954 0.470024
0.93283 0.113985 0.504112
0.934356 0.116899 0.538048
0.935576 0.119722 0.566522
0.93814 0.133761 0.595178
0.940444 0.150591 0.621607
0.0643473 0.261723 0.106523
0.0643473 0.261723 0.106523
0.0657054 0.260594 0.102678
0.0672618 0.259312 0.0975204
0.0688182 0.259739 0.0916609
0.0704967 0.260441 0.086183
0.0728923 0.26009 0.0765393
0.0865492 0.259831 0.0690471
0.117449 0.261646 0.0720226
0.156497 0.262287 0.0760815
0.194476 0.262135 0.0757153
0.24509 0.258808 0.0800488
0.302113 0.258518 0.0770581
0.382513 0.236301 0.10695
0.449714 0.205921 0.123507
0.498878 0.192447 0.125902
0.538323 0.180179 0.128084
0.572717 0.162524 0.128054
0.610956 0.126345 0.124804
0.645869 0.0813764 0.12903
0.672068 0.0591897 0.1561
0.780804 0.0703136 0.211444
0.875013 0.091783 0.269764
0.916518 0.0903334 0.300771
0.920058 0.0878309 0.338247
0.924163 0.0863661 0.380621
0.927657 0.0889296 0.421103
0.930846 0.0978714 0.459464
0.932692 0.113146 0.494484
0.934203 0.117082 0.529595
0.935454 0.119966 0.55993
0.938506 0.136889 0.591821
0.940795 0.153918 0.619638
0.0630503 0.308614 0.118273
0.0630503 0.308614 0.118273
0.0639811 0.307729 0.115419
0.0653391 0.30663 0.110857
0.067628 0.307042 0.103822
0.0694591 0.308202 0.0988174
0.071519 0.30869 0.090837
0.0754406 0.308019 0.0762951
0.0937667 0.309438 0.0704356
0.137041 0.312703 0.0752117
0.18262 0.315267 0.0802014
0.233616 0.315297 0.0773785
0.296818 0.312734 0.0846418
0.361959 0.313848 0.0767529
0.443717 0.296208 0.1131
0.521019 0.266361 0.139071
0.580896 0.242344 0.146731
0.630716 0.224033 0.147967
0.666224 0.205859 0.147997
0.703975 0.169467 0.147631
0.737102 0.107622 0.147585
0.751568 0.0653849 0.169558
0.85275 0.0594797 0.217472
0.914595 0.09337 0.279591
0.918196 0.0922713 0.30898
0.922408 0.0891585 0.354879
0.926345 0.0888685 0.401282
0.93019 0.0945296 0.443793
0.932464 0.108843 0.482628
0.93402 0.117418 0.518944
0.935775 0.122911 0.552285
0.938964 0.140932 0.586877
0.941314 0.158587 0.616556
0.0656901 0.364935 0.135485
0.0656901 0.364935 0.135485
0.0664836 0.364385 0.133455
0.06804 0.3635 0.128893
0.0705119 0.364157 0.122377
0.072755 0.364874 0.116579
0.075349 0.366781 0.111055
0.0792554 0.3673 0.0976883
0.0826581 0.366705 0.0826123
0.107134 0.369299 0.0799878
0.162036 0.372366 0.0826429
0.218692 0.374502 0.0840925
0.280308 0.374777 0.0809644
0.355886 0.373053 0.0895857
0.424338 0.376806 0.0722057
0.502449 0.366445 0.115541
0.591745 0.338888 0.152544
0.663722 0.30547 0.171359
0.723735 0.280842 0.171633
0.778805 0.252461 0.170932
0.815381 0.216526 0.169711
0.845792 0.153124 0.168841
0.849424 0.0747692 0.188006
0.90547 0.0531472 0.213794
0.915724 0.0967422 0.278096
0.920043 0.0946365 0.317006
0.924895 0.0911116 0.370794
0.928985 0.0927291 0.42118
0.932158 0.10338 0.465446
0.933745 0.117968 0.503929
0.936736 0.130709 0.544717
0.939483 0.147478 0.580438
0.941665 0.164218 0.611521
0.0722515 0.42504 0.155688
0.0722515 0.42504 0.155688
0.0727855 0.424704 0.154406
0.074342 0.423911 0.150942
0.0768749 0.424689 0.145937
0.0791485 0.425284 0.140154
0.080354 0.426108 0.134386
0.0818647 0.428443 0.125628
0.0848402 0.429297 0.108019
0.0933394 0.429999 0.0900282
0.126665 0.431556 0.0852369
0.19617 0.434394 0.0901808
0.26685 0.435904 0.0909438
0.335805 0.438834 0.0875715
0.41825 0.437354 0.0994278
0.489464 0.443244 0.0650492
0.564095 0.436377 0.117098
0.66334 0.409918 0.164935
0.744915 0.378347 0.188983
0.821866 0.341909 0.197665
0.88304 0.309346 0.19498
0.9281 0.266484 0.192996
0.936278 0.207919 0.186862
0.935256 0.089601 0.19321
0.932204 0.0646525 0.211353
0.917128 0.0881056 0.266636
0.921386 0.0973373 0.321645
0.927016 0.0934615 0.385412
0.931426 0.0976577 0.438911
0.935042 0.119799 0.486839
0.938094 0.139956 0.533608
0.940337 0.156619 0.573098
0.942473 0.172763 0.606714
0.0799878 0.489204 0.181155
0.0799725 0.489204 0.181155
0.0803082 0.488685 0.179248
0.0809796 0.487999 0.175296
0.0818494 0.488533 0.170459
0.0829786 0.489021 0.165362
0.0846723 0.489677 0.159426
0.0868696 0.491585 0.15259
0.0898756 0.493843 0.140215
0.0940261 0.495399 0.117311
0.114656 0.497154 0.0966506
0.160845 0.497261 0.0917372
0.248692 0.499596 0.0991989
0.330983 0.499977 0.0946517
0.398383 0.506401 0.101793
0.483391 0.504356 0.114916
0.556069 0.512474 0.0594949
0.629664 0.505074 0.122591
0.735027 0.480766 0.179294
0.825925 0.450095 0.207645
0.905577 0.405936 0.224628
0.949737 0.372366 0.218097
0.949889 0.331182 0.209644
0.949844 0.276097 0.199329
0.949935 0.152392 0.185565
0.940017 0.0787823 0.203616
0.924544 0.0862593 0.25478
0.927077 0.109804 0.329931
0.933165 0.108232 0.403235
0.936919 0.126268 0.463783
0.939345 0.152682 0.515084
0.941573 0.167147 0.561959
0.943343 0.18529 0.599603
0.0857252 0.556023 0.213642
0.0857252 0.556023 0.213642
0.086183 0.555245 0.210117
0.0869154 0.554437 0.206226
0.0881819 0.554955 0.201678
0.0893568 0.555428 0.196918
0.090959 0.555886 0.190677
0.0931716 0.556893 0.182391
0.096025 0.559533 0.173724
0.10103 0.561181 0.156069
0.109728 0.563119 0.126253
0.144533 0.565103 0.106416
0.213489 0.565408 0.103151
0.313664 0.566384 0.111437
0.397192 0.568139 0.101366
0.464179 0.575875 0.122225
0.549249 0.572259 0.135775
0.621408 0.579629 0.0689555
0.696178 0.573236 0.131762
0.804303 0.551766 0.194415
0.889296 0.524727 0.222171
0.949874 0.489876 0.236179
0.949981 0.448493 0.236515
0.949737 0.402029 0.227619
0.949767 0.343526 0.212436
0.94995 0.24097 0.194125
0.948135 0.100404 0.18584
0.936736 0.0923171 0.235721
0.932158 0.116854 0.35848
0.938293 0.138155 0.422171
0.94052 0.162005 0.48777
0.942443 0.183688 0.542855
0.944183 0.199969 0.588449
0.0922713 0.623667 0.24918
0.0923629 0.623529 0.248661
0.0932784 0.622751 0.244907
0.0940871 0.621866 0.241428
0.0954452 0.622232 0.237354
0.0968643 0.622644 0.233143
0.0988022 0.623056 0.227604
0.102083 0.623545 0.218555
0.106386 0.624994 0.20766
0.11133 0.627955 0.195422
0.11931 0.629969 0.17023
0.130205 0.632044 0.131075
0.182757 0.633646 0.116716
0.286885 0.633936 0.122545
0.392447 0.634699 0.125063
0.461082 0.640101 0.116487
0.532036 0.646418 0.143725
0.613779 0.640894 0.159823
0.686397 0.646235 0.0928054
0.76231 0.641077 0.143984
0.856138 0.623972 0.205386
0.927687 0.600595 0.228763
0.949767 0.576989 0.23032
0.950027 0.541711 0.229877
0.949874 0.490608 0.234318
0.949844 0.41529 0.231632
0.949874 0.325948 0.208698
0.949737 0.17232 0.186786
0.949828 0.127001 0.18819
0.937041 0.149325 0.359075
0.941787 0.179629 0.43798
0.943511 0.202914 0.510781
0.945159 0.221744 0.569055
0.102113 0.694133 0.285603
0.102525 0.693629 0.283787
0.103655 0.692653 0.280293
0.104814 0.691768 0.277134
0.106371 0.691829 0.273442
0.107851 0.692088 0.270085
0.110124 0.692485 0.265278
0.113512 0.692943 0.257588
0.117983 0.693706 0.246036
0.123919 0.695781 0.232807
0.130816 0.69839 0.216739
0.140215 0.700435 0.180941
0.168978 0.702571 0.144015
0.249332 0.70106 0.132967
0.369802 0.704128 0.145464
0.47071 0.704723 0.138293
0.525979 0.713588 0.138109
0.597848 0.717784 0.168185
0.67686 0.709224 0.188678
0.750729 0.712673 0.129595
0.820768 0.708354 0.158556
0.892332 0.694926 0.210269
0.932982 0.679683 0.222812
0.936904 0.658824 0.212345
0.942626 0.626108 0.212314
0.949935 0.579141 0.223651
0.94992 0.51017 0.232929
0.949889 0.405493 0.228824
0.949889 0.248203 0.19501
0.94995 0.241138 0.194171
0.940673 0.201846 0.345617
0.944808 0.227253 0.452949
0.946181 0.249989 0.533425
0.113924 0.76791 0.322011
0.114763 0.766903 0.319448
0.115694 0.765713 0.316304
0.116686 0.764523 0.313344
0.118242 0.764706 0.310277
0.120302 0.764797 0.307286
0.122713 0.765133 0.302846
0.126741 0.765469 0.295689
0.131258 0.766018 0.284703
0.136522 0.767025 0.270314
0.143328 0.768994 0.256214
0.151446 0.77203 0.230488
0.162615 0.774075 0.182391
0.220981 0.774884 0.155459
0.341085 0.774807 0.161059
0.456443 0.776837 0.166537
0.539132 0.779278 0.156924
0.590173 0.787564 0.164752
0.662242 0.789776 0.195102
0.740353 0.780591 0.215808
0.809201 0.779767 0.176562
0.869596 0.777417 0.169863
0.921187 0.764111 0.210773
0.929549 0.751507 0.202579
0.928756 0.73312 0.181781
0.928344 0.705196 0.179843
0.936126 0.661494 0.200031
0.94699 0.598642 0.219425
0.949981 0.498619 0.23386
0.949935 0.320058 0.207538
0.949767 0.315099 0.206424
0.949996 0.238743 0.318578
0.94638 0.256428 0.503197
0.12723 0.836469 0.356069
0.128374 0.83534 0.352773
0.129458 0.834379 0.350271
0.130449 0.833387 0.347311
0.131991 0.833402 0.34464
0.133562 0.833448 0.341726
0.136004 0.833616 0.337697
0.139361 0.833783 0.331289
0.143832 0.834043 0.322011
0.149477 0.83418 0.308644
0.156024 0.835172 0.291127
0.163073 0.837705 0.27216
0.17496 0.840192 0.237583
0.202121 0.841184 0.183108
0.304784 0.838865 0.174395
0.432227 0.840528 0.189212
0.536019 0.840192 0.1879
0.601221 0.843961 0.181033
0.649226 0.850858 0.196017
0.724681 0.852689 0.223117
0.800549 0.843091 0.2448
0.859236 0.840238 0.222446
0.908736 0.841291 0.190066
0.935943 0.83032 0.205524
0.934417 0.818631 0.18201
0.932433 0.802823 0.13286
0.930571 0.774365 0.1308
0.929137 0.73492 0.160845
0.932967 0.678935 0.193027
0.949218 0.58468 0.222522
0.950027 0.390539 0.224475
0.949859 0.386435 0.223194
0.949905 0.300465 0.308492
0.140002 0.893782 0.384863
0.141619 0.892775 0.381567
0.142901 0.891905 0.378408
0.144076 0.89099 0.375799
0.145846 0.890929 0.373266
0.147417 0.89099 0.370855
0.149569 0.890974 0.367544
0.152193 0.891096 0.363012
0.156008 0.891203 0.356023
0.161135 0.891569 0.345144
0.169314 0.892027 0.327398
0.177874 0.892638 0.305867
0.186328 0.894606 0.282307
0.200641 0.896361 0.232273
0.262043 0.895033 0.193256
0.405295 0.893172 0.208911
0.51397 0.891752 0.217319
0.606775 0.889281 0.209216
0.654734 0.895308 0.211841
0.704799 0.902434 0.230961
0.785016 0.903258 0.252628
0.851179 0.894316 0.273442
0.898787 0.890913 0.263981
0.93341 0.8907 0.241535
0.940688 0.88397 0.222278
0.939879 0.876493 0.184115
0.938903 0.867323 0.0902571
0.936049 0.840757 0.0711376
0.932418 0.804608 0.0986496
0.929442 0.749493 0.149157
0.935607 0.664271 0.198978
0.94995 0.479774 0.235142
0.949859 0.468894 0.235584
0.152819 0.934478 0.41062
0.154177 0.933867 0.407614
0.155489 0.933379 0.404822
0.156847 0.932921 0.401953
0.158251 0.932845 0.399634
0.159991 0.932799 0.397208
0.162234 0.932692 0.394354
0.165286 0.932662 0.390143
0.169558 0.932647 0.384054
0.174426 0.932723 0.375204
0.180926 0.93286 0.362005
0.189425 0.933104 0.341863
0.20119 0.933516 0.313985
0.211521 0.934539 0.283742
0.235828 0.935042 0.222766
0.365209 0.932082 0.226581
0.490257 0.92723 0.241169
0.586282 0.922942 0.242634
0.657252 0.923171 0.235706
0.702708 0.929671 0.245777
0.756176 0.936553 0.26891
0.836713 0.936172 0.284245
0.889479 0.927016 0.305119
0.927398 0.926284 0.297536
0.943709 0.925292 0.28838
0.94342 0.920378 0.274327
0.942672 0.916243 0.24239
0.941634 0.91249 0.179812
0.939941 0.892836 0.122072
0.938674 0.86656 0.0554513
0.933486 0.816922 0.0854963
0.929137 0.734081 0.159808
0.949828 0.565515 0.226123
0.16405 0.946517 0.430838
0.165454 0.946578 0.428168
0.167193 0.946563 0.425605
0.168933 0.946548 0.422827
0.170596 0.946502 0.420356
0.172122 0.946441 0.418357
0.173861 0.946426 0.415671
0.176364 0.946365 0.412085
0.17966 0.946365 0.407309
0.184131 0.946365 0.400305
0.190005 0.946395 0.389548
0.199481 0.946395 0.372747
0.210117 0.946441 0.347585
0.221424 0.946426 0.312398
0.232883 0.946441 0.271824
0.305806 0.946258 0.243259
0.455085 0.93846 0.260441
0.562539 0.931167 0.265019
0.643687 0.92697 0.259861
0.694682 0.930922 0.265431
0.740734 0.935912 0.281209
0.806012 0.939406 0.294957
0.875364 0.940749 0.309407
0.91841 0.935424 0.323796
0.943542 0.937392 0.3243
0.944945 0.93753 0.324254
0.94464 0.937407 0.313893
0.943877 0.937118 0.287663
0.942916 0.936919 0.242084
0.942168 0.927703 0.209445
0.941009 0.908949 0.158724
0.939071 0.874189 0.0708629
0.932021 0.797909 0.102998
0.175158 0.94641 0.448341
0.176242 0.946395 0.445914
0.177279 0.946395 0.443183
0.178454 0.946395 0.440558
0.179919 0.94641 0.438453
0.181415 0.946426 0.436149
0.183169 0.946426 0.433555
0.185794 0.94641 0.429984
0.188769 0.946441 0.425574
0.193637 0.946441 0.419577
0.200427 0.946441 0.411353
0.208072 0.946471 0.398413
0.217258 0.946517 0.377386
0.228717 0.946487 0.346075
0.242847 0.946487 0.302205
0.270756 0.946365 0.264057
0.406973 0.942153 0.278477
0.528878 0.934462 0.288228
0.623804 0.928466 0.285481
0.680507 0.930068 0.283238
0.729274 0.935241 0.294789
0.783383 0.939376 0.308232
0.844785 0.940414 0.314885
0.897505 0.935332 0.335836
0.935332 0.936782 0.334493
0.945434 0.937682 0.340642
0.945434 0.937697 0.339361
0.945205 0.937621 0.331838
0.944427 0.937316 0.306325
0.943389 0.936934 0.269322
0.943008 0.936812 0.254322
0.942611 0.936034 0.229801
0.941451 0.912413 0.168719
0.190753 0.946487 0.466224
0.19173 0.946487 0.463951
0.192691 0.946471 0.46183
0.193576 0.946471 0.459251
0.195148 0.946471 0.457252
0.196826 0.94641 0.455375
0.198886 0.946334 0.452995
0.20148 0.946273 0.449546
0.20473 0.946288 0.445457
0.208484 0.946288 0.440055
0.213199 0.946303 0.432761
0.219547 0.946319 0.421973
0.227726 0.946334 0.406256
0.239292 0.946365 0.381186
0.252476 0.946395 0.341482
0.285039 0.946258 0.303014
0.353445 0.945922 0.301534
0.488609 0.938323 0.313359
0.592477 0.932006 0.315831
0.666285 0.930129 0.311315
0.714229 0.934478 0.317891
0.768154 0.939635 0.330648
0.825772 0.9411 0.333043
0.878065 0.941817 0.338445
0.919722 0.935958 0.350301
0.945663 0.937652 0.352651
0.945937 0.937758 0.360418
0.94583 0.937713 0.356954
0.945464 0.937636 0.344854
0.944793 0.937469 0.318486
0.943832 0.937102 0.286275
0.943557 0.936996 0.275486
0.943206 0.936889 0.262715
0.209979 0.94638 0.483818
0.210422 0.946365 0.48159
0.21091 0.946365 0.479072
0.211444 0.946365 0.476631
0.212604 0.946349 0.475334
0.213901 0.946349 0.473579
0.215503 0.946349 0.471351
0.217502 0.94638 0.468711
0.220142 0.94638 0.464668
0.223423 0.946395 0.459861
0.227771 0.94638 0.45362
0.233906 0.946303 0.445029
0.241627 0.946197 0.432135
0.251087 0.946212 0.41268
0.267643 0.946273 0.386755
0.302754 0.946166 0.355062
0.373663 0.945937 0.353246
