bundles/resolve-cinematic-luts/Phantom Luts/A7s3 Phntm Arri LUTs G7/ATOMOS Monitoring LUTs/Slog3/Tungsten A7s3-Legacy AML.cube
TITLE "Generated by Resolve"
LUT_3D_SIZE 9
0.0804608 0.0794232 0.0841688
0.0823377 0.0796216 0.0842908
0.140826 0.0810864 0.0924697
0.262501 0.0865492 0.118746
0.452705 0.0950179 0.180896
0.68162 0.114687 0.288609
0.770413 0.150195 0.407233
0.793835 0.175875 0.520088
0.831571 0.227451 0.623438
0.0829023 0.0912032 0.0902419
0.0857404 0.0901198 0.0888838
0.132189 0.0870375 0.0907759
0.259388 0.085893 0.11487
0.448783 0.095491 0.173465
0.67538 0.113939 0.278721
0.767651 0.147906 0.394949
0.79292 0.1738 0.499443
0.809415 0.196307 0.571908
0.0863203 0.157916 0.103334
0.0874037 0.156024 0.0972915
0.146792 0.154681 0.0919814
0.280034 0.122835 0.107759
0.450309 0.0815442 0.140185
0.679179 0.117464 0.259892
0.766674 0.147631 0.383764
0.793393 0.17409 0.493965
0.81326 0.200671 0.572808
0.0570535 0.279347 0.120363
0.0582132 0.279957 0.115358
0.0762036 0.280842 0.0743267
0.307973 0.290791 0.0846876
0.59881 0.247044 0.170092
0.66389 0.113359 0.187457
0.765682 0.151705 0.341283
0.794369 0.174548 0.474083
0.823651 0.212024 0.572183
0.0528878 0.466545 0.165011
0.0528725 0.46804 0.160388
0.0529641 0.471427 0.13167
0.132219 0.476493 0.0530556
0.560983 0.516014 0.111452
0.896574 0.527596 0.289891
0.854002 0.320119 0.281102
0.811032 0.194537 0.404868
0.859312 0.256825 0.567758
0.086244 0.690288 0.309316
0.0886854 0.691859 0.30457
0.0961471 0.694957 0.29012
0.122026 0.696849 0.221927
0.44097 0.714931 0.126101
0.813367 0.769436 0.278172
0.923491 0.772045 0.327092
0.896986 0.669108 0.281987
0.925185 0.471717 0.333196
0.153017 0.768933 0.402441
0.154482 0.769039 0.398413
0.157885 0.768658 0.387381
0.167742 0.765896 0.347265
0.270054 0.76376 0.220645
0.681651 0.795789 0.253452
0.933196 0.845624 0.393835
0.936004 0.844251 0.385962
0.932616 0.840391 0.372198
0.199298 0.782849 0.450919
0.195727 0.7823 0.44686
0.202777 0.781994 0.441627
0.227466 0.77998 0.424048
0.340444 0.773632 0.411414
0.60267 0.803586 0.451972
0.876097 0.851652 0.522835
0.937301 0.867811 0.577462
0.936446 0.866087 0.564248
0.412024 0.800397 0.573754
0.377218 0.792905 0.546624
0.384009 0.793103 0.546319
0.420172 0.797711 0.556085
0.51165 0.816526 0.591897
0.711513 0.862196 0.658351
0.891875 0.892515 0.70219
0.945403 0.89781 0.715633
0.945968 0.905257 0.748287
0.0796521 0.0809949 0.0927901
0.0851301 0.081178 0.092607
0.13608 0.0836805 0.106767
0.257069 0.0861982 0.134142
0.450019 0.0944991 0.194888
0.684535 0.114717 0.304036
0.773526 0.15285 0.418936
0.7944 0.177066 0.529442
0.836194 0.235019 0.637888
0.0824292 0.0898451 0.0950027
0.0829938 0.0896315 0.0953384
0.143923 0.0862898 0.0995041
0.263386 0.0874037 0.121782
0.45452 0.0955978 0.184161
0.681682 0.115023 0.289281
0.770504 0.150118 0.406729
0.794278 0.176028 0.516945
0.825925 0.219272 0.612284
0.0870832 0.157702 0.12253
0.0864424 0.157809 0.110048
0.141772 0.15462 0.0952926
0.284337 0.118532 0.110445
0.462501 0.0884413 0.155993
0.686656 0.118624 0.271199
0.768933 0.149111 0.39559
0.794522 0.176211 0.513222
0.832105 0.227329 0.618952
0.0565957 0.27982 0.138811
0.056672 0.280537 0.128939
0.0678874 0.280659 0.0874037
0.305058 0.289052 0.085832
0.595209 0.243214 0.170809
0.662013 0.105425 0.19086
0.767086 0.150866 0.356786
0.796857 0.178012 0.498634
0.843839 0.242344 0.62652
0.052903 0.466865 0.179522
0.0530709 0.469657 0.173816
0.0529946 0.471809 0.145617
0.111864 0.475837 0.0528115
0.559152 0.51487 0.112978
0.900465 0.524971 0.294881
0.830564 0.277394 0.270893
0.828016 0.211841 0.452979
0.874189 0.288136 0.636332
0.0855879 0.690806 0.319753
0.0888533 0.694652 0.317266
0.0952926 0.698039 0.303441
0.119463 0.699092 0.234852
0.427649 0.715938 0.128588
0.815137 0.771267 0.279927
0.923613 0.771786 0.327276
0.896193 0.64654 0.279774
0.938918 0.40972 0.421027
0.154513 0.770413 0.4103
0.154986 0.770291 0.407126
0.157855 0.769833 0.396384
0.166995 0.76701 0.357244
0.260609 0.763653 0.225681
0.678035 0.79527 0.25359
0.933562 0.845716 0.394308
0.935927 0.844175 0.38555
0.932479 0.840177 0.371572
0.20325 0.7841 0.457877
0.201419 0.783673 0.454566
0.208103 0.783291 0.449897
0.235065 0.780941 0.433265
0.342779 0.774258 0.420951
0.601312 0.80473 0.459556
0.875731 0.852506 0.52665
0.937331 0.867948 0.578042
0.936782 0.866316 0.565499
0.41796 0.801892 0.579858
0.401694 0.797986 0.565698
0.408545 0.798596 0.566278
0.436896 0.802304 0.572686
0.52105 0.819974 0.603357
0.709239 0.861982 0.659007
0.890517 0.892622 0.702739
0.945403 0.89781 0.715633
0.945861 0.90544 0.748699
0.0748455 0.084062 0.136797
0.0853895 0.0839094 0.137987
0.137514 0.0849317 0.139666
0.251591 0.0883803 0.167926
0.44683 0.0936446 0.220569
0.687465 0.114717 0.325734
0.77705 0.156313 0.431571
0.794247 0.177356 0.535561
0.836301 0.235813 0.642176
0.0763561 0.0893568 0.126558
0.0744488 0.0874189 0.135943
0.136812 0.0855116 0.143511
0.254444 0.0879072 0.157855
0.447349 0.0937057 0.208545
0.683482 0.114214 0.310597
0.773571 0.152895 0.420172
0.793988 0.17615 0.523674
0.82594 0.220066 0.616861
0.0864424 0.152102 0.151827
0.0862898 0.152682 0.153155
0.135088 0.150713 0.155856
0.302266 0.121492 0.159686
0.458045 0.0956283 0.184741
0.690639 0.117159 0.294301
0.773678 0.153124 0.416922
0.799191 0.183001 0.542657
0.857877 0.27097 0.685786
0.0596628 0.27982 0.174533
0.0587778 0.28069 0.167926
0.0717021 0.278706 0.137163
0.301244 0.289433 0.115755
0.564477 0.235294 0.180392
0.694987 0.120653 0.233951
0.769009 0.150408 0.379004
0.806317 0.189746 0.533944
0.864775 0.281498 0.688518
0.0528573 0.467216 0.208606
0.0528878 0.469551 0.201511
0.0530251 0.469429 0.177737
0.0767987 0.468956 0.0657359
0.549035 0.506935 0.117601
0.900236 0.51725 0.302434
0.809644 0.240055 0.264622
0.836072 0.221744 0.489021
0.883635 0.312749 0.68014
0.0834058 0.689998 0.333776
0.0867323 0.694102 0.331975
0.0928817 0.697917 0.320577
0.112779 0.697414 0.254826
0.399237 0.71252 0.133745
0.811658 0.768902 0.278935
0.926101 0.771145 0.332815
0.896193 0.634913 0.278782
0.949844 0.426764 0.496376
0.156024 0.772061 0.4206
0.156466 0.772122 0.41854
0.158633 0.77142 0.408515
0.167163 0.768856 0.370901
0.252674 0.76466 0.238468
0.670726 0.794583 0.255528
0.933806 0.845762 0.394644
0.936263 0.844602 0.38764
0.932494 0.840162 0.371542
0.205737 0.785092 0.465003
0.203632 0.784909 0.462562
0.211337 0.78471 0.458289
0.238209 0.782132 0.442176
0.343862 0.774975 0.42977
0.60029 0.805997 0.467506
0.875303 0.853605 0.531304
0.93724 0.867689 0.576684
0.936309 0.866484 0.566827
0.41912 0.802915 0.584634
0.402487 0.799023 0.570169
0.415518 0.800732 0.575082
0.442527 0.804623 0.581277
0.52282 0.821225 0.609003
0.706645 0.862364 0.662379
0.888945 0.893233 0.705272
0.945403 0.897871 0.715862
0.945861 0.905455 0.74873
0.0670024 0.0928206 0.226215
0.0770123 0.0911727 0.229099
0.143633 0.0873732 0.244511
0.256306 0.0892958 0.239765
0.439292 0.0978561 0.289754
0.689113 0.119951 0.378454
0.783825 0.163622 0.465263
0.793606 0.178225 0.552178
0.836881 0.238437 0.654368
0.0622568 0.0952926 0.221317
0.06215 0.0950942 0.229847
0.130327 0.0885023 0.255253
0.257954 0.0894026 0.241917
0.43769 0.0976883 0.282597
0.685542 0.117311 0.366796
0.782071 0.161639 0.455467
0.793286 0.176883 0.541466
0.827375 0.223667 0.631022
0.0630198 0.151095 0.228031
0.0615091 0.149447 0.235035
0.0934615 0.132815 0.272374
0.279927 0.0998398 0.259968
0.442329 0.0975052 0.269932
0.690578 0.11606 0.354208
0.782986 0.1626 0.45417
0.800305 0.185901 0.56112
0.858427 0.274495 0.699001
0.0711681 0.2748 0.260884
0.0708476 0.276371 0.262654
0.082002 0.275578 0.262577
0.29247 0.296147 0.295064
0.571939 0.23299 0.294789
0.702052 0.121187 0.29749
0.777981 0.157458 0.425711
0.817914 0.206943 0.582513
0.888548 0.345281 0.768017
0.0528878 0.473762 0.298283
0.0529793 0.476326 0.295094
0.0528267 0.474403 0.273442
0.0652476 0.464088 0.188846
0.53463 0.50602 0.209613
0.886961 0.496361 0.327489
0.795697 0.207568 0.287663
0.841688 0.231403 0.54461
0.898741 0.365225 0.752453
0.085893 0.691234 0.380896
0.0878309 0.695064 0.378424
0.0924086 0.698329 0.365286
0.104448 0.696544 0.317113
0.309239 0.705196 0.159686
0.794995 0.756146 0.275669
0.932204 0.763531 0.350164
0.899428 0.601465 0.2795
0.935897 0.420111 0.621714
0.160922 0.775906 0.447227
0.161379 0.776135 0.445838
0.163531 0.776059 0.438331
0.169039 0.773571 0.40557
0.238834 0.768505 0.288685
0.642145 0.791821 0.283513
0.932891 0.845747 0.396231
0.937484 0.845991 0.394491
0.932372 0.840009 0.371054
0.210346 0.787549 0.483253
0.209308 0.787701 0.482322
0.216587 0.787396 0.478965
0.244099 0.785183 0.465324
0.345159 0.777264 0.451225
0.596796 0.809232 0.486961
0.873518 0.857084 0.546181
0.936904 0.866896 0.571939
0.936858 0.868147 0.576883
0.422995 0.80528 0.596353
0.404959 0.801312 0.582498
0.418952 0.803723 0.5888
0.458732 0.810941 0.605051
0.53019 0.825132 0.624949
0.699718 0.863676 0.671977
0.886687 0.895308 0.714122
0.94548 0.898619 0.719188
0.945876 0.905486 0.748989
0.0623636 0.110613 0.382116
0.0797894 0.107088 0.38996
0.139498 0.0974441 0.412329
0.270893 0.088014 0.411749
0.443519 0.0982071 0.413626
0.688624 0.123781 0.479881
0.780224 0.164202 0.541482
0.790204 0.180514 0.593851
0.839918 0.250782 0.693278
0.0529488 0.113878 0.384176
0.0565805 0.11281 0.385382
0.119402 0.100786 0.417487
0.265446 0.0886549 0.420386
0.444221 0.0982223 0.414679
0.685618 0.122911 0.475608
0.780301 0.163699 0.535744
0.789731 0.179232 0.587152
0.830869 0.23624 0.672724
0.0527962 0.13518 0.389502
0.0528115 0.134615 0.394903
0.0568704 0.121111 0.431083
0.260227 0.0925765 0.467704
0.461997 0.0999466 0.431113
0.692912 0.124468 0.475257
0.781109 0.164813 0.537606
0.803861 0.196582 0.611536
0.861234 0.289311 0.73875
0.0529946 0.283558 0.410468
0.0530098 0.282979 0.415747
0.052903 0.276814 0.435294
0.214588 0.253208 0.517479
0.517403 0.164675 0.479805
0.703151 0.127382 0.466667
0.782986 0.165576 0.526757
0.823728 0.2215 0.638453
0.892393 0.36553 0.802609
0.0810254 0.495781 0.466667
0.0816358 0.499641 0.471397
0.0859388 0.501457 0.473167
0.108354 0.494011 0.465003
0.514138 0.517769 0.507469
0.898589 0.475502 0.529549
0.804562 0.18616 0.44712
0.848646 0.249668 0.634318
0.910475 0.434897 0.833249
0.109056 0.697887 0.497719
0.111742 0.702342 0.499321
0.11603 0.705898 0.494041
0.123064 0.70135 0.459327
0.259556 0.688518 0.368841
0.758572 0.744656 0.443534
0.935607 0.758618 0.481941
0.941054 0.542855 0.356329
0.924453 0.447074 0.710811
0.180346 0.789868 0.528572
0.18117 0.79028 0.528634
0.182849 0.789731 0.521324
0.184604 0.78587 0.488991
0.236179 0.778531 0.410849
0.587839 0.794293 0.404944
0.920668 0.853971 0.5019
0.935714 0.855299 0.489342
0.932525 0.840223 0.371695
0.222797 0.795331 0.531685
0.222629 0.795468 0.531289
0.231571 0.795499 0.530175
0.261814 0.792782 0.520882
0.358846 0.785351 0.508843
0.592889 0.820951 0.546258
0.870375 0.868482 0.604837
0.937957 0.87042 0.590738
0.939788 0.879591 0.635523
0.427878 0.811749 0.626581
0.415366 0.809125 0.617746
0.431937 0.811978 0.625742
0.47538 0.820661 0.64538
0.547066 0.835431 0.667033
0.694606 0.869932 0.706401
0.883101 0.902281 0.744976
0.946349 0.906081 0.753079
0.945922 0.905776 0.750347
0.0663462 0.142412 0.569162
0.0871901 0.137667 0.578592
0.135805 0.12459 0.59852
0.275303 0.10695 0.624994
0.448035 0.0957656 0.597208
0.667857 0.128527 0.609247
0.760525 0.170092 0.654154
0.765118 0.186786 0.696361
0.797665 0.224033 0.73283
0.0537728 0.146227 0.567132
0.0602884 0.144091 0.567636
0.112291 0.133333 0.59617
0.260227 0.109514 0.632059
0.444221 0.0958724 0.599527
0.666178 0.128115 0.608957
0.760769 0.169451 0.651194
0.76463 0.186023 0.69485
0.783001 0.205844 0.713329
0.0528267 0.170321 0.570245
0.0528267 0.169284 0.571878
0.0581979 0.155734 0.599283
0.230472 0.116457 0.653056
0.469108 0.101518 0.647059
0.676829 0.131685 0.61709
0.759411 0.171237 0.660334
0.766781 0.189242 0.699794
0.839216 0.283742 0.795666
0.052842 0.270039 0.583108
0.0529793 0.267155 0.585443
0.0529335 0.259739 0.603418
0.116609 0.210636 0.665843
0.446418 0.119615 0.685847
0.706767 0.145235 0.640467
0.758785 0.172763 0.667155
0.770535 0.192676 0.701671
0.889754 0.384207 0.866606
0.0772412 0.526299 0.634119
0.078233 0.528389 0.638972
0.0815747 0.53138 0.650629
0.0860456 0.521431 0.669841
0.475303 0.53164 0.824125
0.831235 0.391821 0.758984
0.764218 0.174334 0.659586
0.78764 0.208042 0.708873
0.911604 0.467918 0.893431
0.174472 0.718791 0.683055
0.179568 0.72462 0.689509
0.186587 0.730678 0.695445
0.198184 0.73431 0.698253
0.333394 0.741238 0.703868
0.743877 0.749706 0.736736
0.949889 0.720867 0.756405
0.91426 0.404852 0.689326
0.912566 0.441459 0.828611
0.241856 0.828 0.695506
0.244709 0.830289 0.699672
0.247456 0.831739 0.699107
0.24683 0.829267 0.682536
0.276753 0.81709 0.626337
0.595315 0.840009 0.649241
0.912703 0.893324 0.722362
0.948547 0.890455 0.720058
0.947662 0.853529 0.616938
0.259388 0.828977 0.669718
0.260471 0.829786 0.671702
0.26714 0.829969 0.670527
0.293996 0.827253 0.661555
0.406989 0.816342 0.648219
0.614679 0.852079 0.692195
0.870665 0.900725 0.743938
0.946731 0.908019 0.762966
0.94641 0.907622 0.759869
0.443107 0.838788 0.716655
0.436927 0.838132 0.714702
0.457877 0.840711 0.72108
0.506966 0.846799 0.733959
0.586404 0.859953 0.754864
0.716442 0.887434 0.78677
0.881621 0.919066 0.820371
0.946044 0.923445 0.830503
0.946059 0.920363 0.814908
0.0529488 0.198596 0.645518
0.0628977 0.19202 0.651881
0.105547 0.181323 0.674342
0.225467 0.139651 0.708766
0.431983 0.129305 0.744671
0.613672 0.135973 0.713741
0.731975 0.183185 0.744045
0.73991 0.195743 0.761807
0.748974 0.2038 0.766979
0.0529335 0.199786 0.641611
0.0529488 0.197436 0.642664
0.085771 0.186099 0.664439
0.207446 0.142763 0.703517
0.426047 0.130083 0.745678
0.61268 0.135805 0.713909
0.732235 0.182712 0.742748
0.739452 0.194903 0.760449
0.747433 0.202579 0.766461
0.0528115 0.213504 0.640635
0.0528115 0.212284 0.640818
0.052842 0.211978 0.651026
0.165637 0.164004 0.701564
0.415427 0.135882 0.755779
0.627008 0.143969 0.72781
0.730983 0.184741 0.749111
0.741375 0.197803 0.764309
0.760174 0.21709 0.780514
0.0528878 0.282963 0.660792
0.0529183 0.280888 0.660777
0.052903 0.281865 0.671321
0.0666667 0.254215 0.684916
0.365454 0.154574 0.766476
0.6766 0.170397 0.756771
0.730632 0.186328 0.753017
0.744121 0.200916 0.766918
0.838804 0.312932 0.862486
0.119814 0.535973 0.742107
0.121706 0.538216 0.744595
0.127352 0.541512 0.754101
0.130068 0.528939 0.766155
0.420401 0.545281 0.94995
0.784375 0.383551 0.929549
0.739559 0.195499 0.761685
0.746365 0.203113 0.769162
0.893217 0.414008 0.914519
0.201175 0.726177 0.781338
0.205707 0.731334 0.786297
0.211124 0.737224 0.79266
0.213672 0.737942 0.798657
0.310582 0.781735 0.880598
0.7337 0.778271 0.949737
0.928847 0.676844 0.912215
0.872221 0.366766 0.893034
0.87422 0.369635 0.896849
0.314641 0.862165 0.837659
0.317708 0.864881 0.840818
0.322271 0.867948 0.844205
0.328573 0.87097 0.846647
0.357336 0.880858 0.854444
0.664378 0.896574 0.879377
0.902083 0.905333 0.898772
0.939818 0.890135 0.900496
0.934188 0.853727 0.898802
0.336767 0.881331 0.832486
0.338109 0.881971 0.834195
0.341299 0.883253 0.835447
0.359426 0.888106 0.839277
0.460517 0.891951 0.844099
0.666911 0.899916 0.856062
0.876509 0.930617 0.893019
0.944259 0.936187 0.900786
0.944305 0.936996 0.903777
0.471122 0.897414 0.856641
0.469245 0.897856 0.85745
0.49102 0.899016 0.860243
0.542 0.901076 0.865263
0.618341 0.904982 0.871855
0.748531 0.914458 0.882246
0.885771 0.932982 0.905776
0.943969 0.937926 0.910307
0.943832 0.938262 0.910796
0.0528573 0.243854 0.671656
0.0529641 0.238911 0.671382
0.0529793 0.22652 0.666896
0.135561 0.186206 0.703182
0.385321 0.14081 0.760143
0.639963 0.155306 0.752194
0.726513 0.182834 0.751293
0.734676 0.191333 0.759091
0.742153 0.199527 0.766888
0.0528573 0.239658 0.668727
0.0530709 0.238407 0.668742
0.052781 0.230259 0.66862
0.122484 0.191455 0.698848
0.378531 0.141207 0.759472
0.638346 0.155215 0.752651
0.726345 0.18265 0.751141
0.734234 0.190997 0.758923
0.741146 0.198428 0.765911
0.052781 0.250919 0.669383
0.052781 0.250065 0.669657
0.0562905 0.266041 0.682139
0.052781 0.230213 0.671
0.344549 0.152361 0.7626
0.656626 0.163577 0.75729
0.727153 0.183352 0.751537
0.735882 0.192493 0.759945
0.745678 0.20325 0.77052
0.0732128 0.351583 0.708797
0.0728466 0.349706 0.7084
0.0871443 0.38323 0.730663
0.0918593 0.387076 0.738933
0.377462 0.325322 0.890913
0.641764 0.179278 0.7841
0.72813 0.184298 0.752239
0.737301 0.193988 0.761273
0.754437 0.212863 0.779324
0.145663 0.562417 0.779522
0.147768 0.565072 0.78172
0.156237 0.57821 0.791501
0.161212 0.577371 0.802106
0.375448 0.617319 0.949889
0.759182 0.493904 0.94995
0.77673 0.237751 0.800977
0.739345 0.196109 0.763394
0.822019 0.290898 0.846021
0.224353 0.741161 0.819257
0.228061 0.746197 0.822568
0.23331 0.75314 0.827726
0.236179 0.754818 0.832349
0.315785 0.790066 0.895994
0.718181 0.804349 0.949844
0.926253 0.690272 0.939391
0.892851 0.414511 0.912673
0.801297 0.265766 0.825528
0.326955 0.865827 0.873411
0.329992 0.868162 0.87538
0.335225 0.87216 0.879149
0.344976 0.877424 0.885649
0.371267 0.887816 0.902785
0.67277 0.923919 0.949874
0.889509 0.903548 0.94139
0.93434 0.87744 0.93434
0.931746 0.81413 0.935637
0.371374 0.901823 0.889769
0.372442 0.90251 0.890806
0.376303 0.904295 0.893416
0.39321 0.911238 0.902358
0.490867 0.92723 0.922454
0.690562 0.933532 0.930785
0.879423 0.938949 0.937652
0.940642 0.940444 0.939788
0.941161 0.940627 0.940002
0.481987 0.925216 0.918181
0.481834 0.925566 0.919173
0.504448 0.927184 0.921584
0.557977 0.929274 0.924834
0.633433 0.932036 0.928939
0.752712 0.935836 0.933822
0.887526 0.939391 0.938582
0.94049 0.940703 0.940246
0.941634 0.93933 0.93846
0.0575875 0.2766 0.684108
0.055787 0.266926 0.680919
0.0550851 0.257465 0.680781
0.0528115 0.221668 0.66598
0.335637 0.153323 0.761257
0.641474 0.16141 0.760082
0.725673 0.181949 0.750378
0.728985 0.185321 0.753445
0.737408 0.194537 0.76257
0.0543069 0.262623 0.678004
0.0540475 0.261067 0.677867
0.0547799 0.257816 0.680003
0.052903 0.222705 0.666758
0.334096 0.152316 0.760098
0.640116 0.160571 0.75938
0.725689 0.181964 0.750408
0.728771 0.185138 0.753323
0.737087 0.194263 0.762478
0.0610666 0.294209 0.689982
0.0599374 0.289311 0.688121
0.0897536 0.38436 0.735622
0.0827497 0.357488 0.726635
0.346883 0.287831 0.8589
0.616876 0.169497 0.779217
0.729015 0.185183 0.753033
0.729488 0.185718 0.753521
0.739406 0.196612 0.764508
0.0953689 0.416632 0.739605
0.094667 0.414115 0.738949
0.119997 0.47866 0.768078
0.136416 0.518669 0.784939
0.353414 0.520119 0.943358
0.729198 0.375006 0.940597
0.741161 0.198077 0.765286
0.729931 0.186191 0.753765
0.74229 0.199588 0.766857
0.162661 0.594263 0.794995
0.164355 0.597192 0.796872
0.176364 0.622782 0.806668
0.185519 0.639841 0.815366
0.309438 0.700542 0.913314
0.739742 0.661921 0.949905
0.910948 0.4804 0.929183
0.730602 0.186892 0.754726
0.745586 0.203159 0.770367
0.236255 0.755581 0.831693
0.239811 0.761013 0.834745
0.245792 0.770245 0.839231
0.249683 0.774594 0.843534
0.317571 0.806638 0.892058
0.702815 0.842069 0.949874
0.916274 0.738857 0.940169
0.922408 0.562676 0.936614
0.747326 0.204776 0.771557
0.32192 0.864195 0.874449
0.32491 0.866773 0.876066
0.331182 0.871183 0.879164
0.343618 0.877607 0.886198
0.378836 0.892378 0.906416
0.680842 0.924971 0.949722
0.883909 0.907958 0.941192
0.934188 0.882628 0.935347
0.932174 0.829419 0.935699
0.380301 0.906264 0.898573
0.38201 0.907042 0.899794
0.390463 0.910689 0.90367
0.411475 0.917327 0.910628
0.503075 0.927535 0.922499
0.691493 0.933379 0.930587
0.874174 0.938827 0.937591
0.940337 0.940841 0.940352
0.940398 0.940215 0.940414
0.478599 0.926314 0.921141
0.479438 0.92665 0.921813
0.502876 0.928008 0.923522
0.55877 0.929992 0.92607
0.633555 0.932158 0.929183
0.751278 0.936004 0.934173
0.884474 0.93962 0.939086
0.939742 0.940826 0.941283
0.941238 0.940444 0.939666
