bundles/resolve-cinematic-luts/Phantom Luts/A7s3 Phntm Arri LUTs G7/ATOMOS Monitoring LUTs/Slog3/Tungsten A7s3-Legacy AML.cube
TITLE "Generated by Resolve"
LUT_3D_SIZE 33
0.0804608 0.0794232 0.0841688
0.0804608 0.0794232 0.0841688
0.0804608 0.0794232 0.0841688
0.0804608 0.0794537 0.0841688
0.0823377 0.0796216 0.0842908
0.0897993 0.0801709 0.0854963
0.101244 0.0806744 0.0865034
0.119829 0.0812695 0.0889906
0.140826 0.0810864 0.0924697
0.16434 0.0810864 0.0971084
0.19237 0.0822766 0.103304
0.225834 0.0842756 0.111284
0.262501 0.0865492 0.118746
0.304784 0.0884565 0.129229
0.351293 0.0903792 0.145388
0.399649 0.0924697 0.161975
0.452705 0.0950179 0.180896
0.509117 0.0980087 0.202838
0.567376 0.101076 0.227863
0.626139 0.106142 0.256596
0.68162 0.114687 0.288609
0.725383 0.127794 0.321706
0.752773 0.139635 0.353201
0.764248 0.145235 0.380392
0.770413 0.150195 0.407233
0.780743 0.160235 0.437598
0.788785 0.168902 0.468238
0.792248 0.173022 0.496101
0.793835 0.175875 0.520088
0.799115 0.183169 0.545098
0.809537 0.196719 0.572793
0.821469 0.212757 0.600336
0.831571 0.227451 0.623438
0.0804456 0.0794842 0.0842451
0.0804608 0.0794385 0.0841688
0.0804608 0.0794232 0.0841688
0.0804456 0.0794537 0.0841688
0.0819257 0.0796826 0.0843977
0.0888228 0.0802777 0.0856184
0.0998093 0.080827 0.0866865
0.118608 0.0814679 0.0890822
0.13991 0.0811933 0.0923171
0.163821 0.0810712 0.096849
0.19205 0.0823072 0.10341
0.225925 0.0843671 0.111513
0.262882 0.0866102 0.118959
0.305486 0.0884871 0.129442
0.351522 0.0904097 0.145449
0.399466 0.0924697 0.161837
0.452354 0.0949569 0.180621
0.508476 0.0979934 0.202152
0.566491 0.101045 0.226551
0.624735 0.106035 0.254475
0.679347 0.114275 0.285893
0.723415 0.127153 0.31899
0.751705 0.139193 0.349966
0.763729 0.144961 0.376974
0.769329 0.149218 0.403357
0.779141 0.158434 0.432547
0.78761 0.167468 0.462165
0.791638 0.172366 0.489219
0.793851 0.175402 0.513268
0.796139 0.179446 0.534783
0.802869 0.188113 0.557351
0.813779 0.20209 0.5823
0.822736 0.214496 0.603021
0.0803693 0.0800336 0.0852216
0.0803998 0.0800183 0.0851759
0.080415 0.079881 0.0849012
0.0804608 0.0796826 0.0844892
0.0812543 0.0797589 0.0843519
0.0862593 0.0802625 0.0852369
0.0957504 0.0808728 0.0863355
0.113191 0.0814527 0.0884565
0.135149 0.0813153 0.0913558
0.15906 0.0811627 0.0959182
0.187747 0.0822919 0.102419
0.222385 0.0842145 0.110613
0.260609 0.0865797 0.11841
0.303227 0.0884565 0.128786
0.349752 0.0903182 0.144381
0.39707 0.0924086 0.160647
0.449638 0.0949569 0.179538
0.505684 0.0979477 0.200778
0.563882 0.101213 0.224872
0.621454 0.10573 0.252079
0.676646 0.113817 0.283406
0.721187 0.126345 0.316365
0.750607 0.138674 0.347204
0.763287 0.144732 0.374273
0.76846 0.14847 0.399496
0.777432 0.156863 0.427848
0.786877 0.166415 0.456535
0.791363 0.171847 0.483009
0.793362 0.174533 0.506172
0.794339 0.176761 0.525536
0.798718 0.182742 0.545022
0.806317 0.192432 0.564874
0.814725 0.203418 0.584787
0.0809796 0.0832074 0.0869764
0.0809644 0.0833753 0.0872969
0.0809796 0.0834058 0.0872816
0.0813153 0.0830091 0.0868238
0.082887 0.0829023 0.0864729
0.0863508 0.0830854 0.0863966
0.0932021 0.0829938 0.0863661
0.108507 0.0829328 0.0877546
0.131411 0.0821546 0.0903944
0.155993 0.0814832 0.0943008
0.18436 0.0820783 0.100221
0.219303 0.0839857 0.108385
0.258854 0.0864729 0.117662
0.301198 0.088426 0.127642
0.347738 0.0903182 0.14287
0.394934 0.0923323 0.158022
0.447608 0.0950179 0.177813
0.503822 0.0979324 0.199023
0.562081 0.10132 0.222904
0.619196 0.105455 0.250156
0.674464 0.113436 0.281468
0.719234 0.125719 0.314076
0.749828 0.138476 0.345205
0.762921 0.144594 0.371756
0.76791 0.148074 0.39678
0.775998 0.155428 0.423987
0.786252 0.165759 0.451972
0.790951 0.171344 0.477836
0.792859 0.17377 0.500618
0.794064 0.175998 0.519448
0.795972 0.179355 0.535973
0.799771 0.184405 0.551873
0.808865 0.19556 0.571481
0.0829023 0.0912032 0.0902419
0.0828717 0.0914168 0.0905776
0.0828565 0.0913863 0.0903182
0.0830854 0.0904707 0.0892348
0.0857404 0.0901198 0.0888838
0.0914321 0.0903792 0.0890516
0.0981155 0.0901198 0.0890822
0.110307 0.0893416 0.0892348
0.132189 0.0870375 0.0907759
0.157183 0.083711 0.0929122
0.185245 0.0825513 0.0979629
0.219226 0.0835889 0.105272
0.259388 0.085893 0.11487
0.303273 0.0882582 0.125994
0.350927 0.0905776 0.141772
0.396506 0.0927901 0.154742
0.448783 0.095491 0.173465
0.504891 0.0983597 0.195087
0.562921 0.10164 0.219959
0.620218 0.105867 0.247089
0.67538 0.113939 0.278721
0.720012 0.126406 0.31165
0.750042 0.138903 0.342794
0.762814 0.144686 0.369574
0.767651 0.147906 0.394949
0.775509 0.15494 0.422187
0.786191 0.165667 0.450752
0.790997 0.171359 0.476692
0.79292 0.1738 0.499443
0.794156 0.176043 0.518578
0.796429 0.17969 0.535805
0.800656 0.185321 0.552346
0.809415 0.196307 0.571908
0.084947 0.101915 0.0933394
0.0849165 0.102174 0.0936294
0.0849317 0.10222 0.0934615
0.0850233 0.100801 0.0923018
0.0871138 0.0996414 0.0911879
0.0935988 0.10071 0.0914778
0.10338 0.0997024 0.0918441
0.116503 0.0989395 0.092195
0.134981 0.0966201 0.09308
0.157488 0.0918898 0.0932784
0.186786 0.0870069 0.0970626
0.220844 0.0845655 0.102815
0.257527 0.0841382 0.110567
0.301762 0.0864729 0.121111
0.351171 0.0897841 0.136156
0.400397 0.0929274 0.153841
0.449546 0.0959335 0.169863
0.505409 0.0987564 0.192081
0.56347 0.102037 0.21651
0.621225 0.106401 0.244175
0.676448 0.114565 0.275822
0.720455 0.127001 0.308751
0.750149 0.1393 0.340261
0.762707 0.144823 0.3673
0.767422 0.147799 0.392874
0.775113 0.154574 0.420752
0.785992 0.165469 0.449104
0.790967 0.171298 0.475532
0.792996 0.173846 0.498405
0.794232 0.176104 0.517861
0.796918 0.180056 0.535668
0.801404 0.186145 0.552728
0.809842 0.196963 0.572198
0.0863508 0.118303 0.0969406
0.0863355 0.118685 0.0973831
0.0865644 0.11812 0.0958572
0.086656 0.116564 0.094255
0.0881514 0.114702 0.092256
0.0950637 0.115465 0.0923934
0.105577 0.11603 0.0918593
0.123735 0.11426 0.0938582
0.142565 0.111757 0.0944228
0.164096 0.106188 0.0963302
0.188205 0.0993362 0.0968643
0.222004 0.0911269 0.100175
0.262791 0.0878004 0.108461
0.302998 0.0848249 0.115694
0.34641 0.0848707 0.126436
0.398611 0.090898 0.1458
0.45507 0.0963302 0.169009
0.506462 0.0993973 0.18706
0.564889 0.10248 0.21239
0.622538 0.107103 0.239902
0.677546 0.115236 0.271901
0.72108 0.127703 0.305364
0.750347 0.139834 0.337499
0.762631 0.145006 0.364889
0.767147 0.147662 0.390768
0.774624 0.154131 0.418433
0.785504 0.165011 0.44744
0.79089 0.171191 0.47393
0.793088 0.173892 0.497505
0.794308 0.176181 0.517143
0.797421 0.180529 0.535424
0.802258 0.187045 0.552697
0.810468 0.197665 0.571893
0.0873426 0.137285 0.0999619
0.0872663 0.137575 0.100221
0.0872816 0.137621 0.0998093
0.087602 0.136248 0.097612
0.0884565 0.134752 0.0945449
0.0936751 0.135103 0.0935378
0.104601 0.135622 0.0934157
0.12369 0.13463 0.0920424
0.148516 0.132677 0.0958114
0.172702 0.127398 0.0970016
0.200427 0.118898 0.101015
0.230137 0.11104 0.101961
0.264576 0.101076 0.103685
0.305806 0.0893111 0.108324
0.352926 0.0851301 0.119844
0.394659 0.0819562 0.131533
0.449668 0.0910811 0.156466
0.512398 0.0998856 0.184421
0.565774 0.103105 0.206271
0.623789 0.107942 0.234958
0.678553 0.116197 0.26685
0.721935 0.128786 0.301381
0.750896 0.140764 0.333928
0.762646 0.145388 0.361624
0.766812 0.147539 0.387518
0.774029 0.153567 0.41561
0.784588 0.164172 0.444633
0.790829 0.171054 0.472053
0.79324 0.173999 0.496162
0.794446 0.176287 0.516045
0.798184 0.181247 0.534951
0.803708 0.18851 0.553201
0.811719 0.199008 0.572534
0.0863203 0.157916 0.103334
0.0862287 0.158312 0.103853
0.0862287 0.158495 0.103609
0.0866407 0.157412 0.10135
0.0874037 0.156024 0.0972915
0.090135 0.156039 0.0939498
0.0995651 0.156481 0.0935988
0.118288 0.156481 0.0926833
0.146792 0.154681 0.0919814
0.176699 0.152377 0.0956436
0.211521 0.144701 0.100404
0.250904 0.130709 0.106661
0.280034 0.122835 0.107759
0.315953 0.111635 0.107317
0.356146 0.0959793 0.108949
0.400809 0.0834974 0.117723
0.450309 0.0815442 0.140185
0.505257 0.0915084 0.168475
0.570245 0.103365 0.200427
0.624582 0.108934 0.227008
0.679179 0.117464 0.259892
0.722957 0.130404 0.29572
0.751354 0.14197 0.328984
0.762707 0.145998 0.357382
0.766674 0.147631 0.383764
0.773175 0.152804 0.411368
0.78349 0.163012 0.44097
0.790768 0.170932 0.469459
0.793393 0.17409 0.493965
0.794644 0.17644 0.514305
0.799008 0.182055 0.534203
0.80502 0.189975 0.553216
0.81326 0.200671 0.572808
0.0819257 0.181186 0.106477
0.081651 0.18175 0.107012
0.081529 0.182086 0.107149
0.0823835 0.181491 0.105531
0.0839704 0.180346 0.101152
0.0859846 0.180407 0.0962081
0.091722 0.18024 0.0924849
0.109682 0.180743 0.0923629
0.13817 0.18056 0.0901961
0.172732 0.177829 0.0908217
0.211597 0.175814 0.0953384
0.259312 0.163455 0.104265
0.309636 0.14667 0.113161
0.342885 0.138109 0.114183
0.377691 0.126299 0.114046
0.415976 0.107744 0.114916
0.456168 0.0867475 0.120195
0.502632 0.0817273 0.144045
0.560647 0.0920119 0.180865
0.626032 0.106981 0.218723
0.681834 0.119265 0.253452
0.72343 0.132387 0.287343
0.751629 0.143587 0.321462
0.762676 0.146929 0.350332
0.766415 0.147814 0.378088
0.772641 0.152255 0.406836
0.782177 0.161593 0.436484
0.790616 0.170718 0.465782
0.793652 0.174243 0.491234
0.794873 0.176623 0.512169
0.799924 0.182986 0.533074
0.807309 0.192416 0.553933
0.815351 0.202701 0.573083
0.0750439 0.209354 0.110094
0.0747234 0.210163 0.110719
0.0744793 0.210559 0.111192
0.0751049 0.209873 0.109483
0.0768444 0.208698 0.104479
0.0783093 0.208927 0.0984207
0.0819715 0.208835 0.0912795
0.0943465 0.209522 0.086244
0.124269 0.210727 0.0870527
0.161089 0.210651 0.085069
0.206577 0.206958 0.0894026
0.255833 0.205921 0.093492
0.318776 0.190341 0.110491
0.378592 0.170474 0.123598
0.421027 0.159655 0.127687
0.451438 0.149752 0.127947
0.488045 0.127718 0.128664
0.523232 0.100816 0.133806
0.555901 0.0840162 0.150881
0.608392 0.0912032 0.188952
0.678874 0.116274 0.239841
0.724559 0.134936 0.277806
0.751858 0.1458 0.311315
0.7626 0.148379 0.340841
0.766155 0.148333 0.370291
0.771908 0.151705 0.400183
0.780774 0.160098 0.430732
0.790463 0.170474 0.460792
0.794018 0.174487 0.487251
0.7953 0.176898 0.509483
0.801389 0.184512 0.532143
0.809857 0.195163 0.55465
0.817166 0.204929 0.5729
0.0667582 0.241703 0.115114
0.0663767 0.242405 0.115663
0.0661173 0.242847 0.116045
0.0666209 0.242496 0.114778
0.0682689 0.241596 0.109194
0.069688 0.241962 0.102464
0.0712596 0.242527 0.0953078
0.0783093 0.242023 0.0839551
0.101183 0.243473 0.0789044
0.142306 0.246098 0.080705
0.189609 0.246845 0.0782025
0.251118 0.244312 0.0868086
0.313329 0.245701 0.0903334
0.385 0.233463 0.11664
0.456382 0.209079 0.140536
0.507149 0.197421 0.146471
0.545724 0.185 0.151156
0.576822 0.162585 0.152575
0.598123 0.123766 0.154452
0.608225 0.0924849 0.164446
0.65301 0.0977188 0.203723
0.71902 0.131136 0.261967
0.752163 0.149035 0.298863
0.762341 0.150668 0.327581
0.765881 0.149447 0.358846
0.770855 0.151217 0.390631
0.77882 0.158083 0.422599
0.78996 0.169772 0.453849
0.794308 0.17464 0.481773
0.795834 0.177203 0.505013
0.803281 0.18645 0.530068
0.812711 0.198276 0.554299
0.820172 0.208225 0.572595
0.0570535 0.279347 0.120363
0.0567025 0.280095 0.120974
0.0564736 0.280552 0.121538
0.0567178 0.280522 0.120562
0.0582132 0.279957 0.115358
0.060029 0.280385 0.10782
0.0618601 0.281025 0.100328
0.0646525 0.280873 0.0886244
0.0762036 0.280842 0.0743267
0.11078 0.284108 0.0708019
0.163378 0.289952 0.0736095
0.227054 0.291463 0.0689403
0.307973 0.290791 0.0846876
0.378973 0.293919 0.0850996
0.448203 0.289586 0.118059
0.535698 0.267384 0.155795
0.59881 0.247044 0.170092
0.642786 0.228763 0.175662
0.668894 0.204089 0.179294
0.677363 0.15874 0.183337
0.66389 0.113359 0.187457
0.688869 0.109575 0.221592
0.742931 0.143633 0.278035
0.761654 0.154116 0.309758
0.765682 0.151705 0.341283
0.76994 0.151492 0.376394
0.776196 0.155886 0.410559
0.787488 0.166873 0.444251
0.794369 0.174548 0.474083
0.798337 0.179599 0.500603
0.806958 0.190051 0.528145
0.816663 0.202502 0.554025
0.823651 0.212024 0.572183
0.0529488 0.322545 0.125887
0.0528573 0.323278 0.126375
0.0527657 0.323674 0.126787
0.0527504 0.32401 0.126162
0.0528573 0.323766 0.121355
0.0529335 0.3243 0.113954
0.0530404 0.324971 0.106767
0.0547951 0.325978 0.0959793
0.0581064 0.325277 0.0783856
0.0745403 0.326635 0.0667277
0.124514 0.331716 0.0646067
0.190341 0.337346 0.0630198
0.272038 0.339223 0.0587015
0.367956 0.341878 0.0812085
0.44593 0.347433 0.0754864
0.512078 0.353826 0.117876
0.612222 0.335332 0.168627
0.68896 0.308568 0.198642
0.736828 0.28481 0.208133
0.759564 0.256428 0.216251
0.752392 0.211139 0.218463
0.71931 0.147097 0.219135
0.714107 0.12192 0.233494
0.752697 0.150668 0.283452
0.765133 0.156374 0.316854
0.769619 0.153826 0.355062
0.774289 0.154803 0.393256
0.783566 0.163027 0.429786
0.794263 0.174228 0.463249
0.803159 0.184771 0.496391
0.81268 0.196246 0.526406
0.821973 0.208484 0.552895
0.828626 0.217441 0.570993
0.0528725 0.367315 0.132769
0.0529641 0.368154 0.133455
0.0529641 0.369085 0.133989
0.0529641 0.369314 0.13312
0.0529641 0.369009 0.129107
0.0529488 0.369635 0.122606
0.0529335 0.370092 0.115343
0.052903 0.371328 0.106859
0.0528573 0.371817 0.0911574
0.0528115 0.371267 0.068864
0.0787366 0.373266 0.0562905
0.146349 0.378637 0.0549172
0.230991 0.384649 0.0530098
0.324376 0.390097 0.0530861
0.430167 0.396674 0.0826581
0.516228 0.404639 0.0673686
0.581338 0.416022 0.122499
0.688136 0.401923 0.184604
0.773968 0.377951 0.226749
0.823331 0.350668 0.251148
0.835935 0.320729 0.26302
0.820127 0.273533 0.260609
0.766644 0.183658 0.245945
0.736446 0.138872 0.241688
0.752636 0.150622 0.279576
0.76759 0.158099 0.321141
0.773144 0.156191 0.36701
0.77969 0.159304 0.408209
0.795758 0.175738 0.45037
0.809522 0.191257 0.489952
0.82063 0.205035 0.524468
0.829969 0.217609 0.553277
0.835966 0.226337 0.57052
0.052842 0.414939 0.144152
0.052842 0.416114 0.14493
0.052842 0.416754 0.145449
0.052842 0.416907 0.14406
0.0528267 0.416632 0.140032
0.0527962 0.417136 0.134371
0.0527962 0.417823 0.12813
0.0529335 0.418631 0.12047
0.0529183 0.420035 0.108721
0.0528725 0.420493 0.0868391
0.053666 0.421424 0.060029
0.0959487 0.4224 0.0529183
0.185138 0.428748 0.0529641
0.288472 0.434623 0.0529183
0.382422 0.444862 0.0539254
0.494575 0.454459 0.092256
0.586954 0.465919 0.0707866
0.65565 0.478126 0.138689
0.7626 0.471443 0.208118
0.849928 0.449592 0.263615
0.888441 0.420768 0.295018
0.884871 0.386831 0.295384
0.86244 0.337942 0.284459
0.808743 0.239597 0.262776
0.755428 0.161807 0.24567
0.753292 0.152148 0.272175
0.777142 0.167651 0.327337
0.787518 0.169772 0.38291
0.802182 0.182834 0.433951
0.820035 0.202731 0.480293
0.830839 0.216785 0.519387
0.83978 0.229816 0.551644
0.845945 0.238911 0.569894
0.0528878 0.466545 0.165011
0.0528878 0.467643 0.165942
0.0528878 0.468406 0.166644
0.0528725 0.468376 0.164279
0.0528725 0.46804 0.160388
0.0529183 0.469093 0.155657
0.0529946 0.469657 0.14995
0.0529793 0.470192 0.142077
0.0529641 0.471427 0.13167
0.0529335 0.472953 0.116167
0.0528725 0.474205 0.0880293
0.0688945 0.475731 0.0577859
0.132219 0.476493 0.0530556
0.236683 0.481865 0.0528573
0.350881 0.489525 0.0528878
0.444617 0.503441 0.065095
0.560983 0.516014 0.111452
0.654994 0.52871 0.0985122
0.728588 0.543008 0.167086
0.823484 0.543557 0.236179
0.896574 0.527596 0.289891
0.919631 0.498619 0.312703
0.911437 0.457984 0.310399
0.89366 0.406119 0.300587
0.854002 0.320119 0.281102
0.784085 0.202441 0.252155
0.764202 0.167254 0.265232
0.785779 0.174762 0.337667
0.811032 0.194537 0.404868
0.831357 0.215824 0.460883
0.844785 0.233204 0.508858
0.85391 0.24799 0.548501
0.859312 0.256825 0.567758
0.0528878 0.522759 0.196109
0.0528878 0.523949 0.197513
0.0528878 0.524742 0.197604
0.0528878 0.524727 0.194644
0.0528725 0.524742 0.19147
0.0528725 0.525307 0.186892
0.0528573 0.526024 0.182254
0.0528573 0.526665 0.175387
0.0529488 0.527276 0.164569
0.0529488 0.529091 0.151003
0.052903 0.530983 0.130114
0.0582437 0.532021 0.0929885
0.0976883 0.533303 0.0612955
0.187701 0.534417 0.0529641
0.308141 0.540887 0.0528725
0.417838 0.55288 0.0529641
0.51281 0.568246 0.0875105
0.626642 0.580133 0.14081
0.719799 0.592981 0.144381
0.793179 0.608164 0.205936
0.862486 0.615564 0.26247
0.908263 0.604212 0.295262
0.917174 0.58056 0.300969
0.918944 0.542779 0.304799
0.916228 0.485832 0.30956
0.893889 0.408331 0.299641
0.837842 0.289128 0.274754
0.793408 0.213779 0.259922
0.817197 0.219059 0.332296
0.842313 0.231708 0.419806
0.862593 0.254841 0.482155
0.872343 0.272175 0.534737
0.876982 0.281651 0.558343
0.052903 0.580774 0.231281
0.052903 0.582086 0.234119
0.052903 0.583047 0.23241
0.0528878 0.583261 0.22945
0.0528878 0.583078 0.22623
0.0528725 0.583597 0.222492
0.0528725 0.584314 0.218921
0.0529335 0.584939 0.213504
0.0530098 0.585992 0.203998
0.0529641 0.58674 0.189944
0.0572976 0.588464 0.173922
0.0669261 0.58996 0.146532
0.0889448 0.590433 0.104311
0.149676 0.591455 0.0724804
0.260471 0.596872 0.0648051
0.391653 0.606485 0.0646372
0.488594 0.619638 0.0785687
0.580484 0.634882 0.121645
0.690761 0.646052 0.179583
0.781125 0.659251 0.201678
0.846387 0.672374 0.250492
0.89012 0.681163 0.289143
0.90277 0.673304 0.295094
0.900816 0.652995 0.28751
0.905028 0.62179 0.2878
0.914275 0.574166 0.296986
0.915785 0.500923 0.305135
0.885512 0.387411 0.295705
0.849454 0.311696 0.27892
0.864164 0.297734 0.33431
0.875303 0.279026 0.420645
0.897063 0.303838 0.49926
0.902296 0.315923 0.530571
0.0572519 0.638987 0.269902
0.0577096 0.640726 0.273304
0.0583963 0.641566 0.271305
0.0590982 0.641352 0.268315
0.0598306 0.641032 0.265431
0.0610513 0.641627 0.262654
0.0624552 0.642344 0.259571
0.0647898 0.643473 0.255253
0.0677501 0.64387 0.246799
0.0717784 0.644205 0.233753
0.0774701 0.644999 0.217762
0.0851759 0.646571 0.19852
0.0992294 0.647456 0.163378
0.135607 0.647974 0.118837
0.224201 0.651545 0.0931411
0.34905 0.660395 0.0908217
0.474998 0.671336 0.0984817
0.557336 0.684504 0.121263
0.648814 0.700236 0.167529
0.755611 0.712871 0.227039
0.835584 0.723812 0.260807
0.888014 0.733562 0.29424
0.91577 0.735134 0.317403
0.912612 0.724895 0.309133
0.904067 0.708843 0.29424
0.898344 0.686275 0.285344
0.898924 0.651637 0.283009
0.90869 0.590402 0.290501
0.912749 0.490593 0.301885
0.888533 0.393744 0.298009
0.894606 0.38587 0.31664
0.912276 0.348867 0.411566
0.926192 0.360281 0.459556
0.086244 0.690288 0.309316
0.0865492 0.691417 0.312261
0.0873884 0.692149 0.310216
0.0880293 0.691981 0.307286
0.0886854 0.691859 0.30457
0.0899214 0.692332 0.302205
0.0915847 0.693477 0.300221
0.0935073 0.694301 0.296498
0.0961471 0.694957 0.29012
0.099443 0.695186 0.280537
0.104494 0.695293 0.264988
0.111681 0.696086 0.245701
0.122026 0.696849 0.221927
0.143786 0.69601 0.179721
0.201556 0.697475 0.136965
0.31603 0.705486 0.122393
0.44097 0.714931 0.126101
0.553262 0.725841 0.143008
0.620371 0.738994 0.17052
0.715328 0.756451 0.220188
0.813367 0.769436 0.278172
0.878141 0.778408 0.312474
0.917693 0.785855 0.335149
0.928725 0.781888 0.339879
0.923491 0.772045 0.327092
0.914794 0.756436 0.306722
0.909026 0.735103 0.296483
0.903334 0.70927 0.28983
0.896986 0.669108 0.281987
0.907668 0.591379 0.288594
0.914534 0.474525 0.310002
0.914824 0.475349 0.310323
0.925185 0.471717 0.333196
0.11574 0.730007 0.343175
0.116274 0.731121 0.34641
0.117189 0.731762 0.344686
0.117906 0.731792 0.342
0.118868 0.732113 0.33991
0.120089 0.73257 0.337713
0.121431 0.733288 0.335821
0.122667 0.733791 0.332708
0.124804 0.734325 0.328054
0.127565 0.734707 0.320653
0.131502 0.735149 0.309331
0.137713 0.734768 0.289998
0.146914 0.734112 0.265461
0.160006 0.733425 0.236301
0.191531 0.731563 0.189044
0.285283 0.738415 0.157824
0.405097 0.746044 0.153536
0.526772 0.754345 0.162921
0.612268 0.765637 0.185428
0.678141 0.780407 0.217777
0.77734 0.799451 0.271916
0.858686 0.810834 0.323186
0.90959 0.819272 0.353521
0.932784 0.822889 0.366171
0.934081 0.818051 0.361807
0.930373 0.811032 0.349645
0.924743 0.800671 0.332601
0.919875 0.782818 0.318212
0.913252 0.759182 0.301091
0.907149 0.727535 0.293614
0.897246 0.683818 0.284398
0.907561 0.597818 0.288502
0.918517 0.565637 0.302373
0.137972 0.756222 0.37084
0.138262 0.757 0.373816
0.138827 0.757214 0.372168
0.139483 0.757198 0.369848
0.140139 0.757137 0.367529
0.140993 0.757229 0.365286
0.14197 0.757488 0.363073
0.142962 0.75761 0.360433
0.144198 0.75761 0.355962
0.146349 0.757656 0.349752
0.149096 0.757305 0.339834
0.153567 0.756603 0.3243
0.160845 0.755245 0.300557
0.172091 0.753277 0.269688
0.188449 0.751049 0.234165
0.247654 0.753811 0.192462
0.367498 0.759686 0.174655
0.486305 0.765133 0.176181
0.592386 0.774289 0.193317
0.659998 0.786954 0.220203
0.735637 0.802915 0.259602
0.830839 0.822492 0.314534
0.894301 0.832288 0.356863
0.929931 0.84007 0.380224
0.936416 0.841245 0.383734
0.935561 0.839231 0.379812
0.933577 0.836545 0.371557
0.930648 0.83154 0.36025
0.928191 0.821485 0.349218
0.925002 0.806455 0.334005
0.91783 0.781033 0.311406
0.911116 0.745418 0.299458
0.906264 0.72517 0.293538
0.147066 0.765255 0.388632
0.147341 0.76553 0.39057
0.147478 0.765499 0.389242
0.148074 0.765484 0.386954
0.148653 0.765438 0.384649
0.14934 0.765408 0.382406
0.149996 0.765362 0.380194
0.150729 0.765301 0.377356
0.151736 0.765148 0.373312
0.153231 0.764843 0.367483
0.155734 0.764385 0.358938
0.15903 0.763653 0.346136
0.164508 0.762234 0.325917
0.173175 0.760067 0.29633
0.187823 0.757153 0.257954
0.215869 0.755795 0.219684
0.319326 0.762188 0.193698
0.442069 0.765606 0.188037
0.558785 0.773175 0.197635
0.637888 0.784909 0.22034
0.70837 0.799268 0.253285
0.79115 0.81593 0.296452
0.867567 0.830365 0.344625
0.918364 0.840467 0.377798
0.936355 0.845319 0.391226
0.937087 0.845441 0.391485
0.936477 0.844755 0.388647
0.935042 0.842954 0.381216
0.932616 0.840208 0.37203
0.931975 0.838483 0.368292
0.930861 0.835508 0.363226
0.929 0.824506 0.352148
0.927306 0.816419 0.344259
0.153017 0.768933 0.402441
0.153521 0.769345 0.404273
0.153567 0.769192 0.402625
0.15404 0.769116 0.400488
0.154482 0.769039 0.398413
0.155169 0.768994 0.396292
0.155901 0.768963 0.394339
0.156802 0.768872 0.39144
0.157885 0.768658 0.387381
0.159182 0.768307 0.381811
0.160998 0.767666 0.374105
0.163806 0.766979 0.363287
0.167742 0.765896 0.347265
0.174731 0.764218 0.322393
0.186526 0.761593 0.286336
0.213596 0.760204 0.244495
0.270054 0.76376 0.220645
0.393194 0.765499 0.206729
0.513863 0.771328 0.208698
0.608347 0.781994 0.224918
0.681651 0.795789 0.253452
0.762585 0.812085 0.291264
0.838575 0.827893 0.331868
0.897597 0.837674 0.370184
0.933196 0.845624 0.393835
0.938018 0.847089 0.399298
0.937911 0.846799 0.398154
0.937438 0.845945 0.394171
0.936004 0.844251 0.385962
0.93431 0.842252 0.378225
0.933486 0.841352 0.375326
0.932906 0.840726 0.373297
0.932616 0.840391 0.372198
0.160998 0.77261 0.414481
0.161547 0.772961 0.416312
0.161563 0.772839 0.414649
0.161898 0.772732 0.412634
0.162219 0.772564 0.410742
0.16286 0.772534 0.408865
0.163531 0.772519 0.407065
0.164324 0.772366 0.404364
0.165118 0.772137 0.400549
0.166323 0.771786 0.395712
0.168017 0.771267 0.388891
0.17055 0.770596 0.379751
0.173983 0.769604 0.365988
0.179187 0.768078 0.346395
0.189029 0.7664 0.318715
0.214755 0.765393 0.279728
0.270115 0.767865 0.257008
0.349996 0.768139 0.250797
0.461555 0.769696 0.245258
0.568261 0.779461 0.250767
0.650874 0.792782 0.269245
0.73669 0.809323 0.299535
0.815732 0.824964 0.331472
0.871931 0.834516 0.363287
0.918685 0.843656 0.391806
0.937591 0.849439 0.413703
0.938582 0.850858 0.426184
0.938857 0.850431 0.420706
0.938262 0.847807 0.402975
0.936767 0.84538 0.390173
0.93547 0.843748 0.383169
0.934676 0.842786 0.379828
0.934493 0.842542 0.379095
0.170474 0.776211 0.426688
0.171084 0.776577 0.428077
0.170916 0.77644 0.426917
0.170962 0.776211 0.425055
0.17116 0.776013 0.42298
0.171817 0.775937 0.421363
0.172457 0.77586 0.41976
0.173007 0.775738 0.417639
0.174121 0.775433 0.413642
0.175479 0.775082 0.40911
0.177249 0.774624 0.402869
0.179385 0.773938 0.394446
0.181903 0.773022 0.383398
0.18645 0.771893 0.368307
0.200809 0.771252 0.348379
0.227939 0.770718 0.322499
0.285542 0.77145 0.305928
0.350072 0.770672 0.301091
0.426581 0.769512 0.302663
0.524742 0.775982 0.303853
0.620706 0.789334 0.316487
0.706569 0.804532 0.342046
