bundles/resolve-cinematic-luts/Phantom Luts/A7s3 Phntm Arri LUTs G7/ATOMOS Monitoring LUTs/Slog3/Tungsten A7s3-Legacy AML.cube
TITLE "Generated by Resolve"
LUT_3D_SIZE 5
0.0804608 0.0794232 0.0841688
0.140826 0.0810864 0.0924697
0.452705 0.0950179 0.180896
0.770413 0.150195 0.407233
0.831571 0.227451 0.623438
0.0863203 0.157916 0.103334
0.146792 0.154681 0.0919814
0.450309 0.0815442 0.140185
0.766674 0.147631 0.383764
0.81326 0.200671 0.572808
0.0528878 0.466545 0.165011
0.0529641 0.471427 0.13167
0.560983 0.516014 0.111452
0.854002 0.320119 0.281102
0.859312 0.256825 0.567758
0.153017 0.768933 0.402441
0.157885 0.768658 0.387381
0.270054 0.76376 0.220645
0.933196 0.845624 0.393835
0.932616 0.840391 0.372198
0.412024 0.800397 0.573754
0.384009 0.793103 0.546319
0.51165 0.816526 0.591897
0.891875 0.892515 0.70219
0.945968 0.905257 0.748287
0.0748455 0.084062 0.136797
0.137514 0.0849317 0.139666
0.44683 0.0936446 0.220569
0.77705 0.156313 0.431571
0.836301 0.235813 0.642176
0.0864424 0.152102 0.151827
0.135088 0.150713 0.155856
0.458045 0.0956283 0.184741
0.773678 0.153124 0.416922
0.857877 0.27097 0.685786
0.0528573 0.467216 0.208606
0.0530251 0.469429 0.177737
0.549035 0.506935 0.117601
0.809644 0.240055 0.264622
0.883635 0.312749 0.68014
0.156024 0.772061 0.4206
0.158633 0.77142 0.408515
0.252674 0.76466 0.238468
0.933806 0.845762 0.394644
0.932494 0.840162 0.371542
0.41912 0.802915 0.584634
0.415518 0.800732 0.575082
0.52282 0.821225 0.609003
0.888945 0.893233 0.705272
0.945861 0.905455 0.74873
0.0623636 0.110613 0.382116
0.139498 0.0974441 0.412329
0.443519 0.0982071 0.413626
0.780224 0.164202 0.541482
0.839918 0.250782 0.693278
0.0527962 0.13518 0.389502
0.0568704 0.121111 0.431083
0.461997 0.0999466 0.431113
0.781109 0.164813 0.537606
0.861234 0.289311 0.73875
0.0810254 0.495781 0.466667
0.0859388 0.501457 0.473167
0.514138 0.517769 0.507469
0.804562 0.18616 0.44712
0.910475 0.434897 0.833249
0.180346 0.789868 0.528572
0.182849 0.789731 0.521324
0.236179 0.778531 0.410849
0.920668 0.853971 0.5019
0.932525 0.840223 0.371695
0.427878 0.811749 0.626581
0.431937 0.811978 0.625742
0.547066 0.835431 0.667033
0.883101 0.902281 0.744976
0.945922 0.905776 0.750347
0.0529488 0.198596 0.645518
0.105547 0.181323 0.674342
0.431983 0.129305 0.744671
0.731975 0.183185 0.744045
0.748974 0.2038 0.766979
0.0528115 0.213504 0.640635
0.052842 0.211978 0.651026
0.415427 0.135882 0.755779
0.730983 0.184741 0.749111
0.760174 0.21709 0.780514
0.119814 0.535973 0.742107
0.127352 0.541512 0.754101
0.420401 0.545281 0.94995
0.739559 0.195499 0.761685
0.893217 0.414008 0.914519
0.314641 0.862165 0.837659
0.322271 0.867948 0.844205
0.357336 0.880858 0.854444
0.902083 0.905333 0.898772
0.934188 0.853727 0.898802
0.471122 0.897414 0.856641
0.49102 0.899016 0.860243
0.618341 0.904982 0.871855
0.885771 0.932982 0.905776
0.943832 0.938262 0.910796
0.0575875 0.2766 0.684108
0.0550851 0.257465 0.680781
0.335637 0.153323 0.761257
0.725673 0.181949 0.750378
0.737408 0.194537 0.76257
0.0610666 0.294209 0.689982
0.0897536 0.38436 0.735622
0.346883 0.287831 0.8589
0.729015 0.185183 0.753033
0.739406 0.196612 0.764508
0.162661 0.594263 0.794995
0.176364 0.622782 0.806668
0.309438 0.700542 0.913314
0.910948 0.4804 0.929183
0.745586 0.203159 0.770367
0.32192 0.864195 0.874449
0.331182 0.871183 0.879164
0.378836 0.892378 0.906416
0.883909 0.907958 0.941192
0.932174 0.829419 0.935699
0.478599 0.926314 0.921141
0.502876 0.928008 0.923522
0.633555 0.932158 0.929183
0.884474 0.93962 0.939086
0.941238 0.940444 0.939666
