bundles/resolve-cinematic-luts/Gamut/_Conversion/Sony/Sony A7IV BaseLUTs/Monitor LUTs/BaseLUTs - Sony A7IV - S-Log3 to Rec709 ML.cube
TITLE "BaseLUT - Sony A7IV - S-Log3 to Rec709 ML"
# Monitoring LUT. Developed for converting Sony S-Log3 / S-Gamut3.Cine to Rec.709. Version 1.0 - 05/01/2025 - Copyright 2025 Gamut, LLC.
LUT_3D_SIZE 17
0.0000000000 0.0000000000 0.0000000000
0.0000000000 0.0000000000 0.0000000000
0.0000000000 0.0000000000 0.0000000000
0.0000000000 0.0000000000 0.0000000000
0.0313705013 0.0031559901 0.0031559901
0.1726755250 0.0211596950 0.0211596950
0.3236619588 0.0400095675 0.0400095675
0.4527232544 0.0566269912 0.0562864100
0.5782801694 0.0734044161 0.0728950142
0.6912511003 0.0903435776 0.0905271785
0.7764646639 0.1098984600 0.1142998364
0.8491851172 0.1423021044 0.1608061886
0.9209297948 0.2000064726 0.2436257285
0.9770386946 0.2832214919 0.3482414701
0.9969909200 0.3785588903 0.4607549061
0.9976182224 0.4783274735 0.5776653190
0.9979343841 0.5841109249 0.6897555494
0.0000000000 0.0000000000 0.0000000000
0.0000000000 0.0000000000 0.0000000000
0.0000000000 0.0000000000 0.0000000000
0.0012823243 0.0003893012 0.0003893012
0.0722052199 0.0083844904 0.0083844904
0.2118563442 0.0260927209 0.0260927209
0.3451790494 0.0425299937 0.0425299937
0.4646928653 0.0580875811 0.0578533963
0.5844538875 0.0741580107 0.0734044161
0.6944478499 0.0911739644 0.0905271785
0.7776443813 0.1105891701 0.1136303137
0.8499574179 0.1431222359 0.1599351263
0.9213371509 0.2007309825 0.2426911874
0.9771957128 0.2837613836 0.3478357733
0.9969909200 0.3790007932 0.4604770702
0.9976182224 0.4785306038 0.5775523143
0.9979343841 0.5842188605 0.6896210997
0.0000000000 0.0000000000 0.0000000000
0.0000000000 0.0000000000 0.0000000000
0.0000000000 0.0000000000 0.0000000000
0.0146981593 0.0039456131 0.0012823243
0.1153668279 0.0140074269 0.0139088491
0.2401850802 0.0294465458 0.0294465458
0.3600448310 0.0446842559 0.0446842559
0.4764211287 0.0596589459 0.0592533759
0.5914655954 0.0753528284 0.0743512882
0.6975975967 0.0916274001 0.0905271785
0.7788274642 0.1109670541 0.1131355249
0.8506278631 0.1437415371 0.1589541023
0.9217213226 0.2013728201 0.2419473102
0.9773259046 0.2842556127 0.3474115789
0.9969909200 0.3792680586 0.4602461417
0.9976182224 0.4786723918 0.5773875680
0.9979343841 0.5842728283 0.6895373253
0.0012823243 0.0039948394 0.0012823243
0.0012823243 0.0102096804 0.0012823243
0.0027618666 0.0266839912 0.0027618666
0.0251061838 0.0456254360 0.0050803834
0.1168894883 0.0554834014 0.0140075520
0.2522088721 0.0453791166 0.0310247911
0.3747152658 0.0482960431 0.0462079581
0.4874017091 0.0615743947 0.0604029079
0.5998213701 0.0768031602 0.0750767981
0.7011355818 0.0928151766 0.0907734264
0.7805037112 0.1119591242 0.1126605527
0.8516450517 0.1445523643 0.1580396308
0.9223039401 0.2024167456 0.2412872476
0.9775457676 0.2849620380 0.3469025207
0.9969909200 0.3796445036 0.4599046014
0.9976182224 0.4789841270 0.5771814784
0.9979343841 0.5844246128 0.6894528075
0.0078917266 0.0676784602 0.0078917266
0.0102100557 0.0861072338 0.0102100557
0.0133167706 0.1078028988 0.0133167706
0.0166218021 0.1326091998 0.0164245214
0.0956997368 0.1383536706 0.0171647930
0.2348490458 0.1329159064 0.0287064619
0.3755010799 0.1047328407 0.0466401741
0.4991918103 0.0760418720 0.0620059852
0.6105022884 0.0809651315 0.0764062846
0.7082388360 0.0955879967 0.0909092873
0.7835984360 0.1139405225 0.1115698987
0.8531288503 0.1465819031 0.1562761769
0.9232612676 0.2040749514 0.2395891119
0.9778760623 0.2861818672 0.3458008526
0.9969909200 0.3803793428 0.4592260000
0.9976182224 0.4793237113 0.5767231328
0.9979343841 0.5845841426 0.6892804737
0.0229846974 0.1814734833 0.0229846974
0.0247610365 0.1960281192 0.0247610365
0.0265365130 0.2108331684 0.0265365130
0.0288543911 0.2280836533 0.0288543911
0.0446028792 0.2509986895 0.0324551696
0.1914979267 0.2452516871 0.0311233688
0.3543480760 0.2286239442 0.0447310428
0.4965073705 0.1875617251 0.0620059852
0.6199457243 0.1270310127 0.0773855572
0.7162295958 0.1069157065 0.0912619595
0.7890320290 0.1205346182 0.1094256065
0.8559392546 0.1508985590 0.1523917371
0.9247467607 0.2073356216 0.2362032939
0.9783949539 0.2886105294 0.3437138762
0.9969909200 0.3817327835 0.4581340042
0.9976182224 0.4799170998 0.5760898304
0.9979343841 0.5850115127 0.6889031994
0.0400095675 0.3071936305 0.0400095675
0.0415327694 0.3165705800 0.0415327694
0.0430320773 0.3243306862 0.0430320773
0.0444971082 0.3344905801 0.0444971082
0.0472485291 0.3503850534 0.0471587082
0.0992184723 0.3662282702 0.0498156796
0.3016111254 0.3552575351 0.0480342740
0.4709721572 0.3340078066 0.0608406908
0.6163193343 0.2873230621 0.0781086277
0.7230074898 0.2054434283 0.0921119706
0.7957945618 0.1513222683 0.1077382149
0.8613078893 0.1661712164 0.1449865819
0.9276883049 0.2149801970 0.2293881759
0.9793896524 0.2929306655 0.3403264453
0.9970613083 0.3840198728 0.4561144372
0.9976182224 0.4810206400 0.5746254672
0.9979343841 0.5857023505 0.6883017507
0.0606305875 0.4250593648 0.0606305875
0.0617615424 0.4298225046 0.0612169877
0.0626913385 0.4349181861 0.0623783415
0.0638324263 0.4407785246 0.0634122823
0.0660326623 0.4509674029 0.0656237772
0.0701719282 0.4672496401 0.0692167370
0.1798529052 0.4804397184 0.0722705840
0.4111570866 0.4663738997 0.0698994632
0.5887482555 0.4411946687 0.0803632816
0.7201244203 0.3914458050 0.0944833093
0.8001618531 0.3042652161 0.1078367364
0.8671460548 0.2268340671 0.1376662980
0.9328128565 0.2408004532 0.2148870125
0.9811119401 0.3029730100 0.3328479522
0.9971082741 0.3881223571 0.4515351220
0.9976182224 0.4836440290 0.5722612006
0.9979343841 0.5872681040 0.6871702115
0.0916759564 0.5441391395 0.0890206951
0.0927063371 0.5472443632 0.0898902048
0.0937263250 0.5502603221 0.0904903829
0.0949497166 0.5536283290 0.0916070839
0.0971468229 0.5597264151 0.0934968083
0.1012367962 0.5700211723 0.0969336485
0.1099114421 0.5868014449 0.1022927502
0.2807614638 0.5975027488 0.1061771377
0.5257399502 0.5812362469 0.1022936171
0.6980572694 0.5545810777 0.1071088860
0.7980121862 0.5022427315 0.1149682374
0.8701454563 0.4115962066 0.1362116592
0.9380914680 0.3244926328 0.1987858885
0.9840940937 0.3344898292 0.3154106701
0.9971619725 0.3990957062 0.4437483141
0.9976182224 0.4886234193 0.5685861671
0.9979343841 0.5902027909 0.6856739381
0.1524931296 0.6604173016 0.1332243620
0.1534682114 0.6619751429 0.1340981322
0.1547449688 0.6633052055 0.1346704430
0.1563177097 0.6649224544 0.1355354055
0.1591324930 0.6683323370 0.1373101186
0.1635768777 0.6738305182 0.1401658630
0.1719758246 0.6826744503 0.1452014389
0.1905697043 0.6966106398 0.1538500127
0.3945810126 0.7035355322 0.1588724754
0.6409995257 0.6895513693 0.1530281767
0.7813069959 0.6668415351 0.1485990572
0.8666415952 0.6202266962 0.1533944657
0.9398954050 0.5283789205 0.1940073936
0.9869215107 0.4277799197 0.2943540791
0.9972886361 0.4348365279 0.4241746957
0.9976970919 0.5006382793 0.5594731262
0.9979343841 0.5950553338 0.6827675091
0.2669339449 0.7516336227 0.1981893708
0.2681485234 0.7521869892 0.1988355360
0.2691198220 0.7528139379 0.1995371419
0.2704361335 0.7536205324 0.2003724285
0.2729497540 0.7551225091 0.2015908170
0.2775759662 0.7573461118 0.2040104011
0.2851054612 0.7613943751 0.2079571600
0.2979832981 0.7679248880 0.2147879378
0.3241943240 0.7780607508 0.2260185103
0.5229941254 0.7826873558 0.2320483165
0.7388496859 0.7722602684 0.2253909329
0.8487972589 0.7564814625 0.2161421673
0.9339181328 0.7248147468 0.2230710218
0.9873987453 0.6489340945 0.2853487283
0.9973356222 0.5414403224 0.4010319105
0.9977507903 0.5408862515 0.5378449972
0.9979880825 0.6077989194 0.6742596078
0.4182048584 0.8214689179 0.2810802992
0.4190736644 0.8217896611 0.2815628525
0.4199050525 0.8220760658 0.2820833988
0.4208829207 0.8224670580 0.2826029468
0.4226217841 0.8231914972 0.2834813997
0.4257376595 0.8245489045 0.2851702428
0.4306948905 0.8267560796 0.2882416114
0.4394251860 0.8301668548 0.2927012554
0.4545763124 0.8362767835 0.3006997426
0.4834104415 0.8457779283 0.3133450590
0.6578009918 0.8501925555 0.3196969634
0.8138720648 0.8426654635 0.3140064259
0.9141830106 0.8305408724 0.3057710161
0.9829784401 0.8081504681 0.3175160636
0.9972886361 0.7490375041 0.3892139738
0.9977004481 0.6542651529 0.5119455529
0.9981223285 0.6490593540 0.6534329066
0.5872663842 0.8875088929 0.3697732061
0.5876506545 0.8876856415 0.3700305306
0.5880704751 0.8878577717 0.3702274327
0.5885010990 0.8880478139 0.3703450383
0.5893303139 0.8883786558 0.3707020908
0.5912161150 0.8891298372 0.3716504104
0.5945995527 0.8904503339 0.3731989669
0.6000665795 0.8926521212 0.3761803432
0.6088686805 0.8964108198 0.3811904157
0.6238650464 0.9026646117 0.3890576280
0.6502488240 0.9124251222 0.4024296265
0.7657848203 0.9174131033 0.4093941250
0.8824246598 0.9125176101 0.4054868166
0.9701668948 0.9036840378 0.4007679574
0.9972249935 0.8840278445 0.4151112341
0.9976366812 0.8252490409 0.4973648726
0.9980417809 0.7460656034 0.6270106093
0.7304758374 0.9516769322 0.4637189036
0.7306639208 0.9517342490 0.4639095192
0.7308476827 0.9518498917 0.4640032095
0.7310221750 0.9519494553 0.4642036545
0.7314122462 0.9521893161 0.4645386626
0.7320421348 0.9525506205 0.4650131485
0.7332073378 0.9531462369 0.4661292824
0.7351577415 0.9541952809 0.4676405204
0.7389976977 0.9558590468 0.4708529701
0.7448095335 0.9586848099 0.4763427314
0.7544096228 0.9631926585 0.4854700566
0.7707617701 0.9697141247 0.4998203938
0.8467756757 0.9734757278 0.5088430921
0.9487470588 0.9717470758 0.5060622523
0.9963733297 0.9680851436 0.5063676235
0.9977071604 0.9507096704 0.5200567002
0.9979880825 0.8953526044 0.6098546213
0.8252191229 0.9925056087 0.5693050374
0.8252500594 0.9925022098 0.5692492867
0.8253811292 0.9925056087 0.5693889766
0.8254283554 0.9925599910 0.5694626427
0.8256251097 0.9925939800 0.5695979476
0.8259963289 0.9926560413 0.5701542014
0.8265288159 0.9928093693 0.5707633244
0.8274807635 0.9930374730 0.5722627666
0.8289604624 0.9934301084 0.5742679739
0.8318935294 0.9940244117 0.5778105213
0.8364794340 0.9949519327 0.5841326769
0.8440660711 0.9960649453 0.5939893975
0.8572181622 0.9970678877 0.6093938216
0.9229358089 0.9973824840 0.6180124863
0.9910908424 0.9972918679 0.6157428077
0.9980048633 0.9967871980 0.6182731277
0.9980518494 0.9918697633 0.6273951990
0.9039168558 0.9981817448 0.6721825238
0.9039993335 0.9981817448 0.6723348717
0.9040050907 0.9981817448 0.6723864673
0.9040388202 0.9981817448 0.6723146087
0.9041542764 0.9981817448 0.6724278689
0.9043597823 0.9981817448 0.6727805954
0.9046326847 0.9981817448 0.6731667184
0.9051288650 0.9981817448 0.6735320780
0.9060102125 0.9981817448 0.6746110209
0.9073245991 0.9981817448 0.6763478864
0.9098501189 0.9982371212 0.6793259864
0.9142858992 0.9982371212 0.6844310149
0.9212317559 0.9982907575 0.6924930089
0.9332267995 0.9983696270 0.7048691512
0.9798509519 0.9984190370 0.7128622430
0.9982941136 0.9983696270 0.7126661740
0.9984223931 0.9984223931 0.7198882007
0.9693833411 0.9986866531 0.7548444736
0.9693833411 0.9986866531 0.7548444736
0.9694673057 0.9986866531 0.7550381561
0.9694673057 0.9986866531 0.7550381561
0.9694673057 0.9986866531 0.7550381561
0.9695232820 0.9986866531 0.7549219466
0.9696517279 0.9986866531 0.7552022333
0.9697899196 0.9986866531 0.7553378202
0.9700488637 0.9986866531 0.7557167747
0.9705187909 0.9986866531 0.7566092061
0.9713768482 0.9986866531 0.7580856946
0.9729258315 0.9986866531 0.7599678166
0.9755748800 0.9987465654 0.7639867637
0.9798612072 0.9987465654 0.7707078676
0.9862475345 0.9987872636 0.7805112638
0.9984307214 0.9987872636 0.7874165388
0.9987872636 0.9987872636 0.7852975726
0.0000000000 0.0000000000 0.0000000000
0.0000000000 0.0000000000 0.0000000000
0.0000000000 0.0000000000 0.0000000000
0.0000000000 0.0000000000 0.0000000000
0.0617701742 0.0070034632 0.0070034632
0.2003722421 0.0245143418 0.0245143418
0.3364644567 0.0417792138 0.0417792138
0.4589033652 0.0574786006 0.0578141153
0.5812205771 0.0738789155 0.0746291949
0.6930925814 0.0907734264 0.0941842266
0.7774688790 0.1102556551 0.1206059448
0.8497425276 0.1428620306 0.1696315036
0.9211046177 0.2005356379 0.2520280229
0.9770935353 0.2836390131 0.3528582399
0.9969909200 0.3788380855 0.4636568789
0.9976182224 0.4785181989 0.5797468859
0.9979343841 0.5842154875 0.6906159975
0.0000000000 0.0000000000 0.0000000000
0.0000000000 0.0000000000 0.0000000000
0.0000000000 0.0000000000 0.0000000000
0.0272765212 0.0020709465 0.0020709465
0.1243181942 0.0147476984 0.0147476984
0.2403327338 0.0293971318 0.0293971318
0.3574224993 0.0442389670 0.0442389670
0.4715829692 0.0590226314 0.0590226314
0.5881077841 0.0748855847 0.0751297774
0.6961974957 0.0916002909 0.0940076704
0.7786229815 0.1109444334 0.1199482798
0.8504541498 0.1434824577 0.1686435277
0.9215657991 0.2013027992 0.2512807656
0.9772725022 0.2841468598 0.3524584173
0.9969909200 0.3792034752 0.4634370240
0.9976182224 0.4786597388 0.5795380401
0.9979343841 0.5843234231 0.6905317627
0.0000000000 0.0000000000 0.0000000000
0.0000000000 0.0000000000 0.0000000000
0.0048338139 0.0104069611 0.0006021703
0.0680405975 0.0139087865 0.0079410155
0.1677289310 0.0210121411 0.0203213460
0.2733971906 0.0340828289 0.0335406511
0.3771233428 0.0468669155 0.0468215672
0.4838584961 0.0608028484 0.0604407503
0.5952532769 0.0758490949 0.0758172573
0.6990920755 0.0920516509 0.0937953248
0.7797634352 0.1114495043 0.1191689564
0.8512616651 0.1441952701 0.1677329423
0.9219606858 0.2019426326 0.2504337321
0.9773816208 0.2846485848 0.3520650314
0.9969909200 0.3795463793 0.4631443818
0.9976182224 0.4788628691 0.5793733564
0.9979343841 0.5843773909 0.6904857809
0.0020216576 0.0194831222 0.0020216576
0.0042908230 0.0400773085 0.0042908230
0.0073980245 0.0657236685 0.0073980245
0.0504133386 0.0739024340 0.0089270434
0.1571560586 0.0669050381 0.0188910926
0.2831527535 0.0488303396 0.0350201934
0.3919754719 0.0504194059 0.0488090729
0.4974869699 0.0630453678 0.0621168227
0.6038690841 0.0772921085 0.0767716353
0.7029216889 0.0932343955 0.0936178880
0.7813798519 0.1123105239 0.1182559652
0.8522494150 0.1451655982 0.1665799501
0.9224937389 0.2028721948 0.2493153499
0.9776113013 0.2853683257 0.3515452245
0.9969909200 0.3799167033 0.4628062631
0.9976182224 0.4790652551 0.5791133329
0.9979343841 0.5844862635 0.6904032449
0.0117883010 0.1000347991 0.0117883010
0.0148463388 0.1201154735 0.0148463388
0.0173620111 0.1400823464 0.0173620111
0.0214561789 0.1615617222 0.0203213460
0.1191340590 0.1572814701 0.0196805279
0.2609604539 0.1421650477 0.0326030363
0.3922899983 0.1082779334 0.0488535454
0.5087826611 0.0766681161 0.0633746901
0.6158466883 0.0815515942 0.0777164433
0.7099624380 0.0957175677 0.0932608129
0.7844330694 0.1142858776 0.1168126652
0.8536555177 0.1470029854 0.1644809227
0.9234662929 0.2045023420 0.2475064214
0.9779381567 0.2866196235 0.3505764140
0.9969909200 0.3806098193 0.4621821589
0.9976182224 0.4794702132 0.5786577435
0.9979343841 0.5846920782 0.6902406220
0.0263393446 0.2062080843 0.0263393446
0.0279175269 0.2200557532 0.0279175269
0.0296438890 0.2335837705 0.0296438890
0.0319622182 0.2498268172 0.0319622182
0.0527308783 0.2682986081 0.0349709045
0.2089813553 0.2574760274 0.0334418856
0.3693061500 0.2353727844 0.0465943254
0.5057300685 0.1904665914 0.0631555172
0.6256164058 0.1270825469 0.0788059904
0.7187618017 0.1071923894 0.0930816149
0.7900574113 0.1205346182 0.1138376389
0.8565435558 0.1512626587 0.1601659334
0.9249778527 0.2077551209 0.2438971398
0.9784516080 0.2888998479 0.3488310803
0.9969909200 0.3819874944 0.4611173494
0.9976182224 0.4800080278 0.5778336986
0.9979343841 0.5850857184 0.6899932098
0.0429834765 0.3221923408 0.0429834765
0.0439571822 0.3306698177 0.0439571822
0.0451713902 0.3380342770 0.0451713902
0.0467303703 0.3476141027 0.0465943254
0.0491816168 0.3625584978 0.0491816168
0.1084676215 0.3765358184 0.0517265623
0.3132340303 0.3621244581 0.0493581936
0.4801913585 0.3381219245 0.0623234857
0.6215044611 0.2891383486 0.0790406756
0.7253428438 0.2055358709 0.0935265593
0.7969902154 0.1514277265 0.1107022736
0.8619832293 0.1663160114 0.1518144066
0.9279098228 0.2152980152 0.2372590813
0.9794563117 0.2932878242 0.3454230272
0.9970613083 0.3842672760 0.4591672103
0.9976182224 0.4811488447 0.5763823647
0.9979343841 0.5858270886 0.6893624778
0.0623407494 0.4341172574 0.0623407494
0.0634863407 0.4388925297 0.0629150149
0.0643606556 0.4433464668 0.0640527251
0.0656235895 0.4491944276 0.0651754860
0.0677773309 0.4588590066 0.0672369403
0.0720534126 0.4747565980 0.0707670227
0.1875215871 0.4864840696 0.0734605854
0.4178828026 0.4705035768 0.0709507301
0.5937783147 0.4436130343 0.0813038988
0.7223048857 0.3926709486 0.0954645268
0.8013237144 0.3043892364 0.1101089633
0.8679475565 0.2267440809 0.1426785734
0.9331035978 0.2408004532 0.2221979767
0.9811651386 0.3031868812 0.3376322663
0.9971082741 0.3883076786 0.4549989877
0.9976182224 0.4837753349 0.5742903368
0.9979343841 0.5874554298 0.6882656025
0.0936993530 0.5497320876 0.0905183727
0.0945166795 0.5524222925 0.0913470612
0.0956785180 0.5549712109 0.0920046028
0.0968535331 0.5585986588 0.0931872844
0.0988846007 0.5645655244 0.0951303468
0.1029925519 0.5746682294 0.0983858505
0.1119418030 0.5910699611 0.1037962941
0.2860569213 0.6007400677 0.1074559236
0.5297560479 0.5839146045 0.1032211177
0.7005567279 0.5561653502 0.1078166083
0.7990614890 0.5032581814 0.1167301589
0.8708823783 0.4118324646 0.1400803475
0.9384801994 0.3244135368 0.2049774997
0.9841470579 0.3344342617 0.3204400398
0.9971619725 0.3992580009 0.4468688976
0.9976182224 0.4887578264 0.5704366506
0.9979343841 0.5903097271 0.6865145404
0.1544872655 0.6630981680 0.1346896824
0.1557051639 0.6643203614 0.1352603066
0.1569632815 0.6657414513 0.1359493657
0.1586478607 0.6677126580 0.1370774338
0.1612552929 0.6709951392 0.1387335870
0.1658450737 0.6762679768 0.1415538940
0.1742034694 0.6849511560 0.1467140699
0.1928337440 0.6985481592 0.1551210155
0.3979426037 0.7050657823 0.1599560803
0.6432509224 0.6908181852 0.1538063532
0.7823148880 0.6675332259 0.1493836137
0.8672432368 0.6208562589 0.1559287153
0.9402273791 0.5284571845 0.1985657451
0.9870365450 0.4277190690 0.2990609094
0.9973054168 0.4348607299 0.4274317213
0.9976970919 0.5007292899 0.5615152291
0.9979343841 0.5951314758 0.6838064263
0.2688947535 0.7526632753 0.1995371419
0.2699108899 0.7533088383 0.2001902215
0.2710717133 0.7540204633 0.2007611990
0.2725416918 0.7548816231 0.2013973972
0.2750261111 0.7561300646 0.2027584367
0.2797089044 0.7584403177 0.2051384647
0.2870382587 0.7623933110 0.2090603626
0.2998814467 0.7688584852 0.2158455057
0.3258929203 0.7789113229 0.2270178211
0.5250929135 0.7833571099 0.2328917955
0.7398588291 0.7728122244 0.2260636409
0.8493511914 0.7568724371 0.2168366280
0.9341886302 0.7250589352 0.2255764558
0.9874932135 0.6489051692 0.2894227106
0.9973356222 0.5414264927 0.4041183242
0.9977507903 0.5408897718 0.5399009666
0.9979880825 0.6078498890 0.6754101591
0.4197461208 0.8220299040 0.2820447196
0.4205043003 0.8223186357 0.2824407440
0.4212552214 0.8226551015 0.2828660273
0.4222347790 0.8230451503 0.2833752817
0.4240375905 0.8238391234 0.2842892944
0.4270808204 0.8251763703 0.2861566471
0.4320573860 0.8272604659 0.2889597067
0.4408318570 0.8306929278 0.2934419362
0.4558734720 0.8367833448 0.3014301345
0.4846247646 0.8462563428 0.3140513658
0.6588972854 0.8505356838 0.3201481192
0.8143567564 0.8429448527 0.3143496884
0.9145030806 0.8307067228 0.3062387253
0.9830997930 0.8082623508 0.3190928491
0.9972886361 0.7489850345 0.3915720550
0.9977004481 0.6542621541 0.5137797172
0.9981223285 0.6490779711 0.6545065784
0.5879715497 0.8877888073 0.3702213905
0.5883677538 0.8879655559 0.3703165713
0.5886666028 0.8880966194 0.3705011398
0.5891183936 0.8883397112 0.3706472124
0.5901616014 0.8887229785 0.3711697100
0.5921853956 0.8894764068 0.3721203344
0.5953994353 0.8907902254 0.3735702841
0.6008730572 0.8929965949 0.3766416710
0.6096522839 0.8967022098 0.3816671917
0.6246172122 0.9029358237 0.3895045793
0.6509084077 0.9126571532 0.4028018825
0.7662358888 0.9176700350 0.4097417354
0.8826665343 0.9126952842 0.4057191630
0.9702669685 0.9037688855 0.4007686473
0.9972249935 0.8840891324 0.4163271981
0.9976970919 0.8252290518 0.4988424062
0.9980417809 0.7460631049 0.6282540908
0.7307996441 0.9518357043 0.4640486238
0.7309899823 0.9519257467 0.4642384306
0.7311758736 0.9520359036 0.4643940212
0.7313663371 0.9521461866 0.4645013980
0.7316912711 0.9523486558 0.4647160271
0.7323184039 0.9526950162 0.4653638339
0.7334725211 0.9533049460 0.4663472709
0.7355016791 0.9543367760 0.4679379529
0.7394068811 0.9559895074 0.4712604736
0.7450504845 0.9587977912 0.4765735664
0.7546879272 0.9633142615 0.4857079759
0.7710212459 0.9698229793 0.5001292649
0.8469419362 0.9735782328 0.5089702155
0.9488792995 0.9718252607 0.5063023743
0.9963758958 0.9681445675 0.5066398700
0.9977071604 0.9507625103 0.5210008758
0.9979880825 0.8953292932 0.6107850499
0.8253767728 0.9925056087 0.5693608507
0.8254198314 0.9925565921 0.5694762984
0.8254698405 0.9925599910 0.5694083954
0.8255882972 0.9925973789 0.5696236305
0.8257976802 0.9926421939 0.5697901308
0.8261759083 0.9927340900 0.5703738215
0.8266880000 0.9928641293 0.5709461114
0.8275896224 0.9930854981 0.5724376609
0.8291368846 0.9934572996 0.5745192277
0.8320080081 0.9940414062 0.5778824960
0.8366341350 0.9949978178 0.5843282918
0.8441761868 0.9960649453 0.5941415355
0.8573353581 0.9970678877 0.6095405156
0.9230480339 0.9973857158 0.6181379340
0.9910908424 0.9972918679 0.6157874141
0.9980048633 0.9967905499 0.6188277714
0.9980518494 0.9918697633 0.6279644616
0.9040050907 0.9981817448 0.6723835905
0.9040369428 0.9981817448 0.6723202998
0.9041201089 0.9981817448 0.6724752744
0.9041298711 0.9981817448 0.6725316856
0.9042527115 0.9981817448 0.6726703371
0.9044254892 0.9981817448 0.6729182463
0.9046918208 0.9981817448 0.6731331343
0.9052460735 0.9981817448 0.6736331429
0.9060581471 0.9981817448 0.6746962632
0.9074184034 0.9981817448 0.6766056144
0.9099509945 0.9982371212 0.6794348688
0.9143484344 0.9982371212 0.6845629746
0.9213272505 0.9982907575 0.6926542757
0.9333058498 0.9983696270 0.7050404382
0.9798509519 0.9984190370 0.7132663977
0.9982941136 0.9983696270 0.7126661740
0.9984223931 0.9984223931 0.7199290859
0.9694673057 0.9986866531 0.7550381561
0.9694673057 0.9986866531 0.7550381561
0.9694673057 0.9986866531 0.7550381561
0.9694673057 0.9986866531 0.7550381561
0.9695232820 0.9986866531 0.7548832101
0.9695792584 0.9986866531 0.7551146358
0.9696797161 0.9986866531 0.7552509569
0.9698616393 0.9986866531 0.7553621194
0.9700890800 0.9986866531 0.7559835647
0.9705187909 0.9986866531 0.7566311881
0.9713768482 0.9986866531 0.7580856946
0.9729342734 0.9986866531 0.7600880600
0.9755818836 0.9987465654 0.7641205345
0.9798612072 0.9987465654 0.7707078676
0.9862943659 0.9987872636 0.7807066565
0.9984307214 0.9987872636 0.7874165388
0.9987872636 0.9987872636 0.7852975726
0.0000000000 0.0000000000 0.0000000000
0.0000000000 0.0000000000 0.0000000000
0.0000000000 0.0000000000 0.0000000000
0.0115412936 0.0005860729 0.0040934798
0.0885290141 0.0101607668 0.0166714037
0.2143243050 0.0262900055 0.0307288075
0.3435688896 0.0425785945 0.0459299888
0.4638953050 0.0581266119 0.0617805574
0.5840238917 0.0741580107 0.0795353784
0.6947451830 0.0912011366 0.1000554299
0.7783733768 0.1109218127 0.1286310091
0.8501934245 0.1434183446 0.1792234198
0.9213284411 0.2011081435 0.2597919670
0.9771544416 0.2840101847 0.3577846565
0.9969909200 0.3791164062 0.4669965708
0.9976182224 0.4786723918 0.5817640060
0.9979343841 0.5842660823 0.6914270975
0.0000000000 0.0000000000 0.0000000000
0.0000000000 0.0000000000 0.0000000000
0.0055238583 0.0005860729 0.0062147785
0.0536144850 0.0057210764 0.0165728885
0.1432022366 0.0172633083 0.0238727731
0.2526482787 0.0310740799 0.0341319926
0.3641838599 0.0454499225 0.0480316470
0.4757644350 0.0596205406 0.0623964808
0.5911419366 0.0753528284 0.0795973023
0.6978333549 0.0919976840 0.0996613704
0.7795277286 0.1112986997 0.1278100849
0.8510218699 0.1440187558 0.1781352109
0.9217438803 0.2018727369 0.2590549206
0.9772880727 0.2843947239 0.3572917211
0.9969909200 0.3794592479 0.4667278177
