bundles/resolve-cinematic-luts/Gamut/_Conversion/Sony/Sony A7IV BaseLUTs/Monitor LUTs/BaseLUTs - Sony A7IV - S-Log3 to Rec709 ML.cube
TITLE "BaseLUT - Sony A7IV - S-Log3 to Rec709 ML"
# Monitoring LUT. Developed for converting Sony S-Log3 / S-Gamut3.Cine to Rec.709. Version 1.0 - 05/01/2025 - Copyright 2025 Gamut, LLC.
LUT_3D_SIZE 5
0.0000000000 0.0000000000 0.0000000000
0.0313705013 0.0031559901 0.0031559901
0.5782801694 0.0734044161 0.0728950142
0.9209297948 0.2000064726 0.2436257285
0.9979343841 0.5841109249 0.6897555494
0.0078917266 0.0676784602 0.0078917266
0.0956997368 0.1383536706 0.0171647930
0.6105022884 0.0809651315 0.0764062846
0.9232612676 0.2040749514 0.2395891119
0.9979343841 0.5845841426 0.6892804737
0.0916759564 0.5441391395 0.0890206951
0.0971468229 0.5597264151 0.0934968083
0.5257399502 0.5812362469 0.1022936171
0.9380914680 0.3244926328 0.1987858885
0.9979343841 0.5902027909 0.6856739381
0.5872663842 0.8875088929 0.3697732061
0.5893303139 0.8883786558 0.3707020908
0.6088686805 0.8964108198 0.3811904157
0.8824246598 0.9125176101 0.4054868166
0.9980417809 0.7460656034 0.6270106093
0.9693833411 0.9986866531 0.7548444736
0.9694673057 0.9986866531 0.7550381561
0.9700488637 0.9986866531 0.7557167747
0.9755748800 0.9987465654 0.7639867637
0.9987872636 0.9987872636 0.7852975726
0.0094699718 0.0100621891 0.0842157005
0.1061665835 0.0149943305 0.1183396555
0.5875191308 0.0755318446 0.1426330375
0.9218977746 0.2031638025 0.2888999804
0.9979343841 0.5845301748 0.6951630179
0.0189404440 0.1517652428 0.1343791029
0.1631783171 0.1631771284 0.1631771284
0.6258825761 0.0828253492 0.1297891232
0.9241585664 0.2067339928 0.2841876058
0.9979343841 0.5850958373 0.6946946572
0.1014932778 0.5709249726 0.0985936044
0.1074176847 0.5851160753 0.1032591928
0.5478397817 0.5948887456 0.1075203583
0.9399914080 0.3241129219 0.2356649156
0.9979343841 0.5907492150 0.6909775393
0.5915359424 0.8892551590 0.3719813007
0.5942887698 0.8903181469 0.3732590156
0.6130844861 0.8981185528 0.3836419439
0.8838413891 0.9135460855 0.4067927228
0.9981021916 0.7459761553 0.6329178961
0.9695652643 0.9986866531 0.7550664635
0.9696414822 0.9986866531 0.7552896602
0.9701853933 0.9986866531 0.7561822168
0.9756856870 0.9987465654 0.7642357677
0.9987872636 0.9987872636 0.7852975726
0.0718531922 0.1020766225 0.5604008423
0.1515993619 0.1040835083 0.5635045882
0.5390041099 0.1124647559 0.5568007276
0.9211252956 0.2371021269 0.5623437216
0.9979343841 0.5892153799 0.7325947822
0.0731552195 0.1121474431 0.5836562399
0.1440899370 0.1144925173 0.5889917362
0.5566842266 0.1190934294 0.5714079023
0.9233509975 0.2396357287 0.5616702035
0.9979343841 0.5898697396 0.7322427319
0.1209764201 0.5833363869 0.5586208302
0.1252379437 0.5895806620 0.5676100920
0.5822337939 0.5822303071 0.5822305857
0.9416129021 0.3116839658 0.5448782835
0.9979343841 0.5940789787 0.7290992473
0.6245486389 0.9028309233 0.3995179273
0.6266263670 0.9038079882 0.4006281733
0.6432421355 0.9109034307 0.4086667960
0.8950014419 0.9209873052 0.4186597335
0.9982421555 0.7452830575 0.6769736007
0.9705432086 0.9986866531 0.7570935614
0.9706408793 0.9986866531 0.7571131010
0.9712411535 0.9986866531 0.7582353725
0.9767389781 0.9987465654 0.7659357085
0.9987872636 0.9987872636 0.7865327652
0.3184113327 0.4166385188 0.9022684819
0.3496416706 0.4173033506 0.9026142122
0.5565841981 0.4201771638 0.9029434672
0.8766772014 0.4442962573 0.9029951395
0.9981355045 0.6420015257 0.9167602874
0.3150593760 0.4193949052 0.9041841022
0.3464227226 0.4198698928 0.9044521991
0.5563503007 0.4228845176 0.9047652285
0.8776507025 0.4456224477 0.9038763148
0.9981355045 0.6422284298 0.9167144784
0.2493260727 0.4428509773 0.9167262435
0.2823531450 0.4435582423 0.9173820879
0.5488125870 0.4453565636 0.9186304452
0.8862758922 0.4571242988 0.9116588145
0.9981355045 0.6450314946 0.9165027057
0.6853313082 0.9072164357 0.8918944251
0.6862013801 0.9076142300 0.8924965987
0.6925664971 0.9111094022 0.8973371452
0.9108242025 0.9108226094 0.9108233989
0.9984828038 0.7290927062 0.9068773035
0.9800281680 0.9987872636 0.7793847200
0.9800972035 0.9987872636 0.7794881117
0.9806554516 0.9987872636 0.7801209790
0.9848984670 0.9988025254 0.7857619590
0.9988483108 0.9988483108 0.7949030193
0.7537968436 0.7957532778 0.9986836004
0.7561194086 0.7957892959 0.9986836004
0.7736434502 0.7961339687 0.9987456467
0.8904698009 0.7985476790 0.9988477303
0.9989289535 0.8187340481 0.9989286410
0.7536193472 0.7959073551 0.9986836004
0.7559930618 0.7959523777 0.9986836004
0.7733908765 0.7963240640 0.9987456467
0.8904698009 0.7987910510 0.9988477303
0.9989289535 0.8189091362 0.9989286410
0.7514822495 0.7976357217 0.9986836004
0.7540460322 0.7976897488 0.9986836004
0.7716198865 0.7981234663 0.9987456467
0.8897016555 0.8004033594 0.9988878076
0.9989289535 0.8196115007 0.9989286410
0.7092761845 0.8145269045 0.9983963757
0.7115925924 0.8145533186 0.9983963757
0.7318248023 0.8148806024 0.9984645529
0.8869172223 0.8159150304 0.9989286410
0.9989696516 0.8272502751 0.9989694745
0.9877227247 1.0000000000 1.0000000000
0.9877227247 1.0000000000 1.0000000000
0.9879933063 1.0000000000 1.0000000000
0.9900035890 1.0000000000 1.0000000000
1.0000000000 1.0000000000 1.0000000000
