bundles/resolve-cinematic-luts/Gamut/Immersion 2.0/Arctic Sunrise.cube
TITLE "Immersion 2.0 - Arctic Sunrise by Gamut"
# Contributor - Sam Newton. Version 2.0 - 06/24/2025 - Designed for Rec.709 Color Space. Copyright 2025 Gamut, LLC.
LUT_3D_SIZE 33
0.0000000000 0.0260230000 0.0346970000
0.0000000000 0.0260230000 0.0339336250
0.0306065625 0.0305568750 0.0369151250
0.0615102812 0.0353381563 0.0401431250
0.0891748750 0.0420315000 0.0424213750
0.1146442813 0.0522663750 0.0432640000
0.1446246875 0.0589242500 0.0406480625
0.1782515000 0.0609265000 0.0352145625
0.2094932500 0.0616430000 0.0346970000
0.2394716875 0.0612210937 0.0341306250
0.2671849375 0.0588510625 0.0320358125
0.2960213125 0.0614160937 0.0302368750
0.3255376250 0.0680360000 0.0278958750
0.3550310313 0.0770122812 0.0250866562
0.3834663125 0.0842193750 0.0227699375
0.4107357812 0.0894665313 0.0208728438
0.4370810000 0.0946685000 0.0185315000
0.4626617813 0.0996237500 0.0166093125
0.4878450625 0.1042307500 0.0142930625
0.5125314687 0.1087776250 0.0122968750
0.5374071250 0.1131327500 0.0099555000
0.5624318437 0.1174227812 0.0076147813
0.5875740625 0.1212601875 0.0060624375
0.6130735625 0.1248629063 0.0047310000
0.6388827500 0.1286585000 0.0037457500
0.6656524062 0.1329300312 0.0029816250
0.6933120625 0.1375799375 0.0015770000
0.7216284063 0.1424008750 0.0007890000
0.7511611250 0.1473172500 0.0007890000
0.7826270000 0.1522452812 0.0008628750
0.8176756250 0.1560283125 0.0024152500
0.8584507188 0.1587248437 0.0055939375
0.9012950000 0.1592180000 0.0110400000
0.0015277187 0.0314197813 0.0369890625
0.0038197813 0.0321841250 0.0377534062
0.0160178750 0.0359536563 0.0407483125
0.0567815625 0.0427072812 0.0444578437
0.0878741875 0.0491614687 0.0473045938
0.1152290937 0.0583877812 0.0475066875
0.1464526563 0.0656526562 0.0444790000
0.1789769687 0.0680331875 0.0396977813
0.2119378438 0.0697327188 0.0378026875
0.2430760625 0.0690985000 0.0370137188
0.2728623438 0.0669588125 0.0343771562
0.3018654375 0.0686031875 0.0317895625
0.3317192812 0.0755169062 0.0289557188
0.3611988437 0.0835515000 0.0263188750
0.3893041562 0.0898967187 0.0240021875
0.4162855313 0.0950519375 0.0220065625
0.4422289062 0.0998213437 0.0196898437
0.4676650313 0.1043807187 0.0177430000
0.4931515312 0.1087645937 0.0154016250
0.5182402187 0.1129901563 0.0127406875
0.5433944687 0.1172083750 0.0107441250
0.5687035938 0.1212385937 0.0084031250
0.5937429062 0.1244433125 0.0068261250
0.6191257187 0.1275691562 0.0052980937
0.6447262188 0.1306977813 0.0039430000
0.6712208125 0.1343310000 0.0029816250
0.6987119375 0.1387175000 0.0015770000
0.7270187500 0.1435004687 0.0007890000
0.7568900938 0.1483467500 0.0007890000
0.7890009688 0.1532645000 0.0015523750
0.8242891875 0.1570298125 0.0024645625
0.8635428750 0.1594679375 0.0063582500
0.9052818750 0.1601994375 0.0118043437
0.0060625625 0.0483384375 0.0479328750
0.0129870312 0.0490536250 0.0479328750
0.0259248125 0.0522993125 0.0492686875
0.0500440000 0.0571686563 0.0531227187
0.0866172500 0.0635845000 0.0574973750
0.1176697500 0.0711163125 0.0579074687
0.1503804375 0.0751224375 0.0503695625
0.1849742500 0.0779505625 0.0441865000
0.2183757500 0.0802821875 0.0418045625
0.2504291250 0.0810864375 0.0402884063
0.2804370625 0.0792986875 0.0374079375
0.3092723125 0.0812751250 0.0348696562
0.3385615000 0.0871261875 0.0320358125
0.3671295625 0.0934033438 0.0289310938
0.3950963125 0.0985630000 0.0266143750
0.4220448125 0.1031737812 0.0242976563
0.4482833750 0.1076031875 0.0216367500
0.4742465312 0.1118931875 0.0192953750
0.4998640625 0.1161595000 0.0166093125
0.5253077188 0.1203054688 0.0142930313
0.5505932500 0.1240378750 0.0115331250
0.5756809687 0.1270772500 0.0091424688
0.6008470000 0.1292578125 0.0068507500
0.6262876250 0.1314024062 0.0055200000
0.6519029375 0.1338853125 0.0044847500
0.6783771562 0.1368524063 0.0029816250
0.7059484375 0.1406641875 0.0015770000
0.7345686250 0.1453404062 0.0007890000
0.7646261875 0.1501671250 0.0008875000
0.7973424688 0.1547772188 0.0016509687
0.8332721875 0.1584811875 0.0039922500
0.8720918125 0.1609423750 0.0079105938
0.9124153750 0.1623571875 0.0133566875
0.0101771250 0.0694768125 0.0626494375
0.0184577812 0.0710127500 0.0620878125
0.0324546250 0.0730390625 0.0621470625
0.0542016875 0.0764684063 0.0638570625
0.0852498125 0.0811786562 0.0671633125
0.1185178125 0.0854546250 0.0684865312
0.1536343438 0.0901538750 0.0610538750
0.1890091562 0.0934914688 0.0524985625
0.2228399375 0.0969913125 0.0494480937
0.2547425625 0.0988750000 0.0468842187
0.2856973437 0.0996143438 0.0441133750
0.3154793437 0.1002110938 0.0406439063
0.3443421563 0.1030723750 0.0368655625
0.3726569375 0.1070839687 0.0334649687
0.4003913437 0.1107395937 0.0304341250
0.4274548750 0.1147787813 0.0277480312
0.4537748125 0.1185006875 0.0250126875
0.4797543125 0.1220818125 0.0219819375
0.5056241250 0.1261666875 0.0188762187
0.5316726250 0.1299100313 0.0165600000
0.5573938125 0.1332395625 0.0134547812
0.5830999375 0.1354355312 0.0106948125
0.6085942500 0.1369124063 0.0083538750
0.6342627500 0.1381922813 0.0068015000
0.6602405312 0.1397010000 0.0052487812
0.6868430313 0.1417676562 0.0036964375
0.7147346562 0.1448914375 0.0023660000
0.7435242188 0.1487726563 0.0015770000
0.7742643750 0.1532138125 0.0016756250
0.8077036563 0.1577082188 0.0025138438
0.8440307812 0.1611576250 0.0048050000
0.8826390937 0.1637821250 0.0094875937
0.9227792500 0.1665560000 0.0156231563
0.0111386250 0.0900892500 0.0754627500
0.0176940000 0.0913472813 0.0740314063
0.0314444375 0.0933740000 0.0730596250
0.0511361250 0.0957860313 0.0721610000
0.0824787500 0.0996537500 0.0727452500
0.1180969062 0.1030530937 0.0746884375
0.1532758125 0.1075173125 0.0744402500
0.1879255000 0.1123360312 0.0652112188
0.2220557500 0.1158643750 0.0591801250
0.2554196250 0.1182454687 0.0544460312
0.2872208750 0.1190626875 0.0511372500
0.3181620937 0.1202226250 0.0483306562
0.3480976250 0.1217676250 0.0448210000
0.3768681875 0.1241973437 0.0406664688
0.4047829375 0.1267873125 0.0365700000
0.4322082500 0.1295928438 0.0330463437
0.4587742500 0.1325280000 0.0296698750
0.4850269063 0.1355984375 0.0265650313
0.5110435625 0.1391592500 0.0231151250
0.5371842187 0.1427802187 0.0196652187
0.5633565000 0.1458356250 0.0165600000
0.5895236875 0.1476563750 0.0134547813
0.6156398750 0.1483996875 0.0113851875
0.6418339687 0.1486947188 0.0091424688
0.6685692500 0.1493577500 0.0074916250
0.6957248125 0.1504983125 0.0052487812
0.7238109375 0.1527429375 0.0038443750
0.7533556250 0.1557320625 0.0030555000
0.7848791250 0.1594916250 0.0031541250
0.8189440312 0.1631703125 0.0046078437
0.8554738750 0.1664937500 0.0078366875
0.8936726875 0.1694920938 0.0125430937
0.9331156250 0.1732805000 0.0194183750
0.0043126875 0.1095764375 0.0844459375
0.0085266563 0.1106935313 0.0831584063
0.0193449375 0.1127184688 0.0809425937
0.0366265937 0.1157222500 0.0778419375
0.0701341875 0.1193580625 0.0755749687
0.1121118125 0.1234068125 0.0772588125
0.1489961563 0.1257279375 0.0782980625
0.1835544688 0.1294485625 0.0773979063
0.2178894375 0.1332652812 0.0690735000
0.2524339375 0.1362885313 0.0634627812
0.2857592187 0.1383228438 0.0591641875
0.3180985625 0.1401610313 0.0561465313
0.3491746875 0.1420225938 0.0531149375
0.3791079688 0.1435114375 0.0484773437
0.4080332187 0.1451236875 0.0442660625
0.4359264375 0.1467853750 0.0403293437
0.4628983750 0.1490052813 0.0368409062
0.4895111875 0.1516420312 0.0329723125
0.5159322813 0.1549252500 0.0284380625
0.5424046875 0.1587408437 0.0239036875
0.5689440000 0.1618911875 0.0203305625
0.5954488125 0.1634707187 0.0172252188
0.6220785937 0.1639937500 0.0151552187
0.6490039375 0.1640615313 0.0129376875
0.6762620313 0.1640936875 0.0105963438
0.7042671875 0.1646618125 0.0089207187
0.7329667813 0.1659778437 0.0073683750
0.7632272187 0.1681640625 0.0060624375
0.7956531250 0.1708183437 0.0061609375
0.8301804063 0.1734123125 0.0076641562
0.8665902187 0.1761413125 0.0116071250
0.9042859688 0.1794099063 0.0171025312
0.9428223125 0.1836328125 0.0247411875
0.0001479375 0.1279938750 0.0908333750
0.0024644688 0.1285955625 0.0899870000
0.0069003750 0.1312800625 0.0882303750
0.0237309688 0.1347148125 0.0830809687
0.0557198750 0.1383343750 0.0776455000
0.1016379063 0.1424710937 0.0774922500
0.1417900000 0.1455227500 0.0806522500
0.1773058437 0.1473522187 0.0815956250
0.2118868750 0.1500157500 0.0802649375
0.2471562812 0.1531773438 0.0721903437
0.2816891250 0.1562041250 0.0680798750
0.3153148750 0.1587972187 0.0643535312
0.3477878125 0.1610463750 0.0609352500
0.3790688438 0.1627373437 0.0573691875
0.4094935625 0.1643621875 0.0535109375
0.4385183750 0.1657965937 0.0495822812
0.4663802500 0.1674878125 0.0455770000
0.4933472813 0.1698683750 0.0407115938
0.5200736250 0.1729883750 0.0349438125
0.5469887500 0.1768297187 0.0292018437
0.5741494375 0.1803288750 0.0249880000
0.6012587500 0.1825888438 0.0218832812
0.6286365625 0.1835296875 0.0195665625
0.6562321875 0.1838513125 0.0172498438
0.6842621875 0.1840235625 0.0151305625
0.7127833750 0.1841584687 0.0129377187
0.7423803750 0.1850003750 0.0113853750
0.7733412187 0.1862000625 0.0105963750
0.8062406875 0.1877334375 0.0113359375
0.8410491250 0.1894609687 0.0130361563
0.8771652500 0.1913746875 0.0175948750
0.9141778438 0.1945765937 0.0238299062
0.9517325000 0.1988981250 0.0315926875
0.0000000000 0.1448084063 0.0957749062
0.0015523750 0.1460996875 0.0953787500
0.0047064687 0.1484676250 0.0934655313
0.0177674062 0.1524931250 0.0887783750
0.0440718125 0.1563074687 0.0817862500
0.0897140625 0.1606423437 0.0781340000
0.1324867188 0.1644556562 0.0802671250
0.1689345312 0.1672295000 0.0831402188
0.2049583125 0.1684463125 0.0844021875
0.2405212187 0.1707368750 0.0837839688
0.2756462813 0.1736540313 0.0806659375
0.3102721562 0.1764955938 0.0760832500
0.3439776562 0.1790687813 0.0716133750
0.3770627500 0.1814654687 0.0675266562
0.4089497187 0.1833793125 0.0638112500
0.4394812500 0.1852942187 0.0594717187
0.4684389063 0.1872817187 0.0545790313
0.4962063750 0.1898543437 0.0490473125
0.5235340000 0.1928666875 0.0426156875
0.5507846563 0.1965581250 0.0358801250
0.5785436875 0.2004778750 0.0301381875
0.6065961875 0.2035567813 0.0265403438
0.6347155625 0.2051710625 0.0236818750
0.6631717188 0.2061105000 0.0215134062
0.6920911875 0.2067224687 0.0195911875
0.7214545937 0.2072799062 0.0176194375
0.7518947500 0.2079775625 0.0168314375
0.7836553750 0.2087870313 0.0166588437
0.8170066875 0.2097452500 0.0176441875
0.8517573750 0.2108575000 0.0206511875
0.8873063438 0.2125257812 0.0259740000
0.9235835625 0.2155580312 0.0329970938
0.9600202813 0.2194271875 0.0407317500
0.0005917500 0.1617137500 0.1014712500
0.0007890000 0.1632146875 0.1011817500
0.0039428750 0.1657013125 0.0995125625
0.0133319062 0.1694022812 0.0953126875
0.0336132500 0.1737701250 0.0878442500
0.0735869063 0.1783266875 0.0796860625
0.1206601875 0.1828048750 0.0798803750
0.1591912188 0.1862667188 0.0822260000
0.1961147500 0.1891050000 0.0852817500
0.2328047188 0.1898252188 0.0855090000
0.2685768125 0.1914930625 0.0855090000
0.3040033750 0.1943099375 0.0833563125
0.3389601250 0.1971996250 0.0792786250
0.3735125000 0.2002056875 0.0749267187
0.4070031875 0.2029708750 0.0704940625
0.4390484375 0.2055462813 0.0661285625
0.4693727500 0.2081442500 0.0611935000
0.4981016563 0.2108426875 0.0558112187
0.5260276875 0.2138984375 0.0495267500
0.5539595000 0.2174187500 0.0424722500
0.5822407500 0.2213348750 0.0358801250
0.6111270625 0.2248184062 0.0306066562
0.6403940000 0.2274550000 0.0275019375
0.6697955313 0.2291830000 0.0249879687
0.6995385000 0.2305855000 0.0230657500
0.7299881563 0.2317678125 0.0222775000
0.7612098750 0.2327915000 0.0220802500
0.7937026875 0.2337488437 0.0229917812
0.8273680000 0.2347927500 0.0252343750
0.8619108438 0.2360517500 0.0290786875
0.8968233750 0.2379176875 0.0353376875
0.9321394375 0.2407376563 0.0435434688
0.9674930000 0.2442762500 0.0516505000
0.0000000000 0.1786738438 0.1083147187
0.0007643438 0.1801883437 0.1083147187
0.0024890625 0.1823620625 0.1068904687
0.0088959062 0.1858748750 0.1032236250
0.0244952187 0.1904948750 0.0956670313
0.0557697188 0.1957416563 0.0857545312
0.1027051562 0.2007819375 0.0808766875
0.1471468437 0.2050685312 0.0814072812
0.1856192500 0.2082756875 0.0825899063
0.2234542500 0.2107800312 0.0845166563
0.2607865938 0.2114530625 0.0837438125
0.2971686562 0.2133602813 0.0832980000
0.3333327812 0.2162490938 0.0807687500
0.3690160312 0.2193571563 0.0770267188
0.4036648125 0.2224172500 0.0725669687
0.4370421562 0.2255516563 0.0678774375
0.4685733438 0.2284687813 0.0633740000
0.4986354063 0.2316365312 0.0591662187
0.5275317500 0.2346279062 0.0538007812
0.5562637812 0.2381722813 0.0476689687
0.5855712188 0.2421349375 0.0404159062
0.6155309688 0.2460041562 0.0342291563
0.6455818437 0.2492031563 0.0298176563
0.6758480625 0.2518885938 0.0277235625
0.7065443750 0.2543408437 0.0263681875
0.7379479062 0.2563315313 0.0265405625
0.7701267188 0.2582088125 0.0276494063
0.8031025625 0.2597451562 0.0293253437
0.8368991562 0.2613583125 0.0331942812
0.8711686563 0.2632094688 0.0384576562
0.9054693437 0.2656486875 0.0462099687
0.9397058437 0.2687341875 0.0547031250
0.9741510938 0.2722190937 0.0638519062
0.0000000000 0.1958932500 0.1159891250
0.0000000000 0.1972654375 0.1159891250
0.0015277500 0.1996430625 0.1148898125
0.0056431562 0.2027391250 0.1117797500
0.0166585000 0.2071630000 0.1047636875
0.0402470000 0.2127280937 0.0942738125
0.0825228750 0.2186073125 0.0842008125
0.1317285000 0.2235670625 0.0806841250
0.1743974375 0.2279052500 0.0807135625
0.2134015625 0.2309916875 0.0805332813
0.2519847500 0.2333843750 0.0807962500
0.2898529687 0.2345683438 0.0798604375
0.3269933125 0.2364828750 0.0782727500
0.3635457812 0.2390697187 0.0754363437
0.3994378750 0.2421828750 0.0717678750
0.4339001563 0.2453567187 0.0670181875
0.4667086250 0.2486568750 0.0625749375
0.4978708438 0.2518091562 0.0585979375
0.5282141875 0.2552265625 0.0547293125
0.5581617812 0.2588291250 0.0497025625
0.5886068125 0.2628507500 0.0436183750
0.6195158125 0.2670188125 0.0373338750
0.6505540000 0.2709348125 0.0329233750
0.6818455625 0.2745693437 0.0308282812
0.7135237500 0.2778831875 0.0304584375
0.7457024062 0.2808786562 0.0309762187
0.7785782500 0.2835717500 0.0332187500
0.8119304062 0.2859838125 0.0364470625
0.8456899375 0.2884760000 0.0416731250
0.8793757188 0.2912879688 0.0485013750
0.9129982500 0.2944726875 0.0567716250
0.9463927500 0.2982646562 0.0662593437
0.9797199375 0.3021905000 0.0765830625
0.0000000000 0.2130206562 0.1225606562
0.0000000000 0.2143952500 0.1223486875
0.0007396875 0.2165606563 0.1216226250
0.0026862813 0.2192224063 0.1193075000
0.0106455312 0.2235708437 0.1133012812
0.0292263750 0.2293297188 0.1025128125
0.0635406875 0.2357624375 0.0896697812
0.1118897500 0.2419621875 0.0817283750
0.1603992500 0.2472143750 0.0790695312
0.2028474063 0.2513902813 0.0774705625
0.2424986562 0.2544346250 0.0761723125
0.2812870000 0.2567179375 0.0748541875
0.3195938437 0.2581702188 0.0730206562
0.3571844375 0.2599809375 0.0709729688
0.3941142188 0.2626130313 0.0678962812
0.4297988437 0.2656500312 0.0643781875
0.4640418438 0.2691278750 0.0605640312
0.4966109687 0.2726777500 0.0569823750
0.5283402188 0.2762030625 0.0535215312
0.5597722500 0.2800420625 0.0497445625
0.5914774375 0.2841417187 0.0453650000
0.6234422813 0.2885846875 0.0406988750
0.6556316875 0.2930659688 0.0373338750
0.6879132187 0.2974678438 0.0354610312
0.7204160312 0.3015191875 0.0351898125
0.7532946875 0.3053245000 0.0365946562
0.7865673438 0.3087976562 0.0395638750
0.8201325625 0.3122573750 0.0438975625
0.8536227500 0.3157767500 0.0500103750
0.8869067500 0.3195955625 0.0576033438
0.9197021563 0.3239097812 0.0669995625
0.9521371250 0.3285857500 0.0777171563
0.9842718125 0.3333885313 0.0887693438
0.0000000000 0.2297758750 0.1276062500
0.0000000000 0.2311575938 0.1274118750
0.0000000000 0.2330323125 0.1267043125
0.0010106250 0.2354908125 0.1253682812
0.0059143750 0.2396221250 0.1208640000
0.0187284062 0.2450107187 0.1115427813
0.0465278750 0.2519287500 0.0971760625
0.0910575937 0.2592126250 0.0840826250
0.1416970000 0.2655606250 0.0783105000
0.1897542188 0.2710542812 0.0746388125
0.2318673125 0.2752386250 0.0713060625
0.2719056562 0.2783354687 0.0685336562
0.3111435000 0.2806532500 0.0663768750
0.3501377812 0.2823824062 0.0643052500
0.3883694375 0.2844991250 0.0626400625
0.4253761875 0.2873361875 0.0601119375
0.4609251250 0.2907781250 0.0575030000
0.4950617500 0.2946163750 0.0545016250
0.5282556875 0.2984591250 0.0518881250
0.5612596250 0.3024640937 0.0491104063
0.5943726250 0.3067823750 0.0468013750
0.6275883438 0.3114162813 0.0439332812
0.6608735000 0.3162415625 0.0421790000
0.6940712187 0.3210065000 0.0408852500
0.7272901250 0.3255420000 0.0407786250
0.7607300938 0.3299375312 0.0424438125
0.7943480625 0.3341598125 0.0459239375
0.8279909375 0.3384846250 0.0509215000
0.8612071250 0.3430782500 0.0577820000
0.8938607813 0.3480165625 0.0663323437
0.9257310000 0.3533603750 0.0763399375
0.9569143125 0.3591455938 0.0882352188
0.9876640000 0.3651597500 0.1004185000
0.0000000000 0.2459481562 0.1306991563
0.0000000000 0.2472863750 0.1306991563
0.0000000000 0.2491179063 0.1302871250
0.0002465625 0.2515945313 0.1289978438
0.0028095313 0.2551260312 0.1257954375
0.0108672188 0.2600792500 0.1183012187
0.0311483750 0.2670329375 0.1043780313
0.0706550938 0.2753349375 0.0879376875
0.1216167500 0.2830228750 0.0784870000
0.1734070625 0.2899599688 0.0722041250
0.2198673437 0.2955512500 0.0666634375
0.2621517187 0.3000278437 0.0622348437
0.3025774063 0.3034813750 0.0593290312
0.3427756250 0.3061915625 0.0573148750
0.3824860625 0.3084012812 0.0564485000
0.4209937500 0.3112426875 0.0556121875
0.4578281563 0.3145920625 0.0541052812
0.4933594063 0.3183784687 0.0525669063
0.5281701562 0.3224741562 0.0507260000
0.5627752500 0.3267384063 0.0493911250
0.5973923125 0.3311446563 0.0480104375
0.6318465938 0.3357374687 0.0467791563
0.6660996875 0.3405360000 0.0457947500
0.7001842188 0.3454184375 0.0454969688
0.7341450313 0.3501417500 0.0461929375
0.7681425313 0.3549219062 0.0481440312
0.8020516250 0.3597752187 0.0517441250
0.8355696250 0.3647495313 0.0572551250
0.8684904687 0.3702163125 0.0644720625
0.9003521875 0.3761566562 0.0737057500
0.9310994063 0.3826462500 0.0848048125
0.9609055313 0.3895839063 0.0975226563
0.9900763437 0.3967148125 0.1106677812
0.0000000000 0.2618923125 0.1327816875
0.0000000000 0.2634648750 0.1327816875
0.0000000000 0.2652479375 0.1325002500
0.0000000000 0.2676383125 0.1316308750
0.0010352500 0.2707275625 0.1293933125
0.0053719375 0.2752561250 0.1240259062
0.0186299375 0.2819530000 0.1123393125
0.0507095000 0.2909265000 0.0936970000
0.1001683125 0.3003779375 0.0801352500
0.1546050625 0.3087720625 0.0720736250
0.2060178125 0.3162015625 0.0643553125
0.2516170313 0.3222934063 0.0574839687
0.2942783750 0.3272470000 0.0529301875
0.3357726562 0.3311058438 0.0507219687
0.3769038125 0.3344080000 0.0501666875
0.4168132187 0.3373980000 0.0512013437
0.4550805000 0.3407669375 0.0509333750
0.4920490625 0.3445397500 0.0506420000
0.5283368125 0.3484881875 0.0503480000
0.5643929688 0.3526477188 0.0497750937
0.6003207500 0.3569278750 0.0493697500
0.6359511250 0.3613558750 0.0493697500
0.6711945625 0.3659890625 0.0490674375
0.7061815312 0.3706453125 0.0496383750
0.7408937500 0.3754425625 0.0509688125
0.7754807188 0.3803880937 0.0532106563
0.8095972500 0.3855251250 0.0569102500
0.8431026563 0.3911107500 0.0626325625
0.8755164375 0.3972317500 0.0704697500
0.9065971875 0.4039843125 0.0802683125
0.9361199375 0.4114633750 0.0919256250
0.9643174688 0.4194523438 0.1051552812
0.9917700000 0.4276434375 0.1193227500
0.0000000000 0.2782739063 0.1348155000
0.0000000000 0.2797995313 0.1346855625
0.0000000000 0.2821563437 0.1346762812
0.0000000000 0.2846030625 0.1339978438
0.0002712187 0.2875332188 0.1324523125
0.0020698125 0.2914031250 0.1287729375
0.0094872813 0.2972558125 0.1201414375
0.0353731250 0.3071912813 0.1007605000
0.0799518125 0.3179637813 0.0834927188
0.1327385937 0.3281408438 0.0737955000
0.1895380937 0.3373481563 0.0645179375
0.2399526563 0.3453410625 0.0552446875
0.2857279062 0.3518963125 0.0490102188
0.3292962500 0.3571884062 0.0464188438
0.3718460312 0.3616367812 0.0461328438
0.4130613125 0.3654040312 0.0475960000
0.4527761250 0.3689357500 0.0489634062
0.4910066875 0.3724691250 0.0499872813
0.5286260000 0.3761405000 0.0506420000
0.5659286562 0.3799495625 0.0507050000
0.6029324062 0.3838895937 0.0509547500
0.6396287500 0.3880295938 0.0516010313
0.6759443438 0.3923036250 0.0519296562
0.7118011250 0.3967371875 0.0529110313
0.7473794375 0.4013626875 0.0546480937
0.7825079688 0.4062531875 0.0575795625
0.8169951875 0.4116059687 0.0613505938
0.8504297812 0.4175060000 0.0674010625
0.8823673125 0.4240723125 0.0753305000
0.9125072500 0.4315168125 0.0851277500
0.9407230938 0.4397019062 0.0976065000
0.9672393750 0.4485016250 0.1112664375
0.9928282187 0.4575554063 0.1258421875
0.0000000000 0.2949905000 0.1364160000
0.0000000000 0.2969016562 0.1364160000
0.0000000000 0.2995772500 0.1365620000
0.0000000000 0.3024088750 0.1360035625
0.0000000000 0.3056568750 0.1350177500
0.0002712187 0.3090977500 0.1325352813
0.0033516250 0.3140178125 0.1264220000
0.0191474375 0.3240369687 0.1087655000
0.0617905000 0.3364857500 0.0891272500
0.1112090938 0.3480924062 0.0775381875
0.1706252500 0.3591133125 0.0674595625
0.2265410312 0.3689237187 0.0569546250
0.2762853750 0.3771340000 0.0486343750
0.3227866250 0.3838698437 0.0453950313
0.3670373750 0.3893796875 0.0451005000
0.4095425938 0.3939869062 0.0465587188
0.4503000000 0.3978055000 0.0479450000
0.4898221562 0.4013248437 0.0499872813
0.5286161250 0.4047276250 0.0509753750
0.5669881875 0.4082535000 0.0519545313
0.6050638750 0.4117798750 0.0529178750
0.6428224375 0.4155968125 0.0535478750
0.6801476250 0.4194878125 0.0544906250
0.7170470313 0.4235800000 0.0559145937
0.7535152500 0.4279692500 0.0578902500
0.7892411563 0.4326804687 0.0606703125
0.8241000625 0.4380066250 0.0652131250
0.8574491875 0.4439804063 0.0709068750
0.8889803750 0.4509135000 0.0790188750
0.9181440625 0.4586535312 0.0892785312
0.9449832500 0.4673665000 0.1015330000
0.9698517187 0.4766947812 0.1154182813
0.9935600000 0.4863240000 0.1301225000
0.0000000000 0.3127302188 0.1406112187
0.0000000000 0.3149765000 0.1407552187
0.0000000000 0.3191989687 0.1408950000
0.0000000000 0.3225516250 0.1406382187
0.0000000000 0.3260138437 0.1399605000
0.0000000000 0.3296552187 0.1385905000
0.0009119375 0.3341111250 0.1347326875
0.0100294375 0.3424270625 0.1222994688
0.0457108125 0.3562605000 0.0992705625
0.0923005625 0.3693725625 0.0856275312
0.1498926875 0.3816050938 0.0749710937
0.2106793438 0.3926692187 0.0637690312
0.2649868438 0.4021659687 0.0540229063
0.3146792812 0.4101120938 0.0484426563
0.3612075313 0.4165923438 0.0468442812
0.4051575000 0.4220475312 0.0468887188
0.4471091250 0.4264577813 0.0486111250
0.4877844375 0.4301894063 0.0503022812
0.5277401563 0.4337260312 0.0516213750
0.5672965938 0.4370869687 0.0529176875
0.6064215625 0.4404823750 0.0541925000
0.6452605313 0.4438844687 0.0554470625
0.6837465938 0.4474771250 0.0568738125
0.7216917500 0.4512136563 0.0583514687
0.7590545312 0.4552250000 0.0607176250
0.7955031250 0.4597711875 0.0638356250
0.8306789688 0.4649033437 0.0680236875
0.8640931563 0.4708490312 0.0738870000
0.8950808438 0.4777491250 0.0818256875
0.9234538437 0.4856951875 0.0920303125
0.9489871875 0.4945118125 0.1043497812
0.9721193125 0.5040372188 0.1181142500
0.9940799062 0.5139635625 0.1329892500
0.0000000000 0.3347804375 0.1482005625
0.0000000000 0.3357472812 0.1482005625
0.0000000000 0.3401781250 0.1484530000
0.0000000000 0.3446449687 0.1482261562
0.0000000000 0.3483542500 0.1478457500
0.0000000000 0.3519300312 0.1468224062
0.0006410625 0.3561932500 0.1437585625
0.0056433750 0.3633871250 0.1348273437
0.0319868125 0.3768353125 0.1130725625
0.0755149688 0.3906169375 0.0953640937
0.1290374375 0.4036742500 0.0841527500
0.1917391250 0.4157901250 0.0728483750
0.2509963125 0.4264837500 0.0619148125
0.3042350938 0.4355343750 0.0541669062
0.3533201875 0.4431074375 0.0507630000
0.3991189375 0.4493308125 0.0498753125
