bundles/resolve-cinematic-luts/Gamut/Immersion 2.0/Arctic Sunrise.cube
TITLE "Immersion 2.0 - Arctic Sunrise by Gamut"
# Contributor - Sam Newton. Version 2.0 - 06/24/2025 - Designed for Rec.709 Color Space. Copyright 2025 Gamut, LLC.
LUT_3D_SIZE 5
0.0000000000 0.0260230000 0.0346970000
0.2094932500 0.0616430000 0.0346970000
0.4370810000 0.0946685000 0.0185315000
0.6388827500 0.1286585000 0.0037457500
0.9012950000 0.1592180000 0.0110400000
0.0005917500 0.1617137500 0.1014712500
0.1961147500 0.1891050000 0.0852817500
0.4693727500 0.2081442500 0.0611935000
0.6995385000 0.2305855000 0.0230657500
0.9674930000 0.2442762500 0.0516505000
0.0000000000 0.2949905000 0.1364160000
0.0617905000 0.3364857500 0.0891272500
0.4503000000 0.3978055000 0.0479450000
0.7535152500 0.4279692500 0.0578902500
0.9935600000 0.4863240000 0.1301225000
0.0000000000 0.4788850000 0.2132262500
0.0023657500 0.5106955000 0.2063985000
0.3705530000 0.6187067500 0.0933072500
0.7615930000 0.6650140000 0.0765367500
0.9950807500 0.6879310000 0.1137850000
0.0102510000 0.7420710000 0.2747210000
0.0193197500 0.7714015000 0.2562257500
0.1662550000 0.8449215000 0.1951470000
0.5969120000 0.9160807500 0.1271510000
0.9887820000 0.9098620000 0.0307540000
0.0000000000 0.0685140000 0.1775272500
0.2083837500 0.0572732500 0.2264200000
0.4628762500 0.0836817500 0.1712942500
0.6733677500 0.0951855000 0.1199540000
0.9167792500 0.1358242500 0.1074755000
0.0007890000 0.2017922500 0.2514057500
0.1902843063 0.2269464156 0.2608402844
0.4827236531 0.2188423719 0.1978571625
0.6961246687 0.2218646594 0.1606453563
0.9554282500 0.2390915000 0.1471947500
0.0000000000 0.3611122500 0.2812080000
0.0447679312 0.3901428438 0.2603446375
0.4721837031 0.4480853188 0.2078226875
0.7734161656 0.4620535937 0.1876921969
0.9913245000 0.5042865000 0.2068210000
0.0000000000 0.5371912500 0.3458827500
0.0057812625 0.5579686875 0.3304303906
0.3399423687 0.6562919687 0.2347399000
0.7559012469 0.6920568969 0.1686314000
0.9931945000 0.7056170000 0.1546607500
0.0009860000 0.7620200000 0.3797525000
0.0047310000 0.7873677500 0.3610857500
0.1163937500 0.8544870000 0.2996047500
0.5675470000 0.9291985000 0.2038322500
0.9886460000 0.9239535000 0.0325285000
0.0000000000 0.1241530000 0.4390595000
0.0126170000 0.1151615000 0.4691597500
0.4217950000 0.1069635000 0.4884855000
0.7138515000 0.1261440000 0.3929710000
0.9924630000 0.1971550000 0.3584890000
0.0000000000 0.2417710000 0.4727282500
0.0417499469 0.2498365844 0.4851835219
0.4654857062 0.2296568875 0.4890923469
0.7461609875 0.2266068750 0.4080274094
0.9905092500 0.2601415000 0.3732080000
0.0000000000 0.4053330000 0.4746100000
0.0608318563 0.4517834906 0.4939037000
0.5063661250 0.5200101250 0.5001974844
0.8036274906 0.5067145375 0.4443791969
0.9935875000 0.5272125000 0.4224185000
0.0000000000 0.5971560000 0.5295742500
0.0091302531 0.6237212031 0.5271569563
0.3190339750 0.7133857125 0.4758766812
0.7687610250 0.7558774031 0.4326645219
0.9950132500 0.7593247500 0.4057065000
0.0000000000 0.7939695000 0.5481525000
0.0000000000 0.8084432500 0.5396782500
0.0544680000 0.8563170000 0.4970085000
0.4939305000 0.9499010000 0.4153897500
0.9879375000 0.9560505000 0.2463920000
0.0000000000 0.1692590000 0.6186255000
0.0000000000 0.1836160000 0.6439587500
0.2457475000 0.1433372500 0.7257025000
0.6580705000 0.1633315000 0.7548537500
0.9950065000 0.2271982500 0.6736157500
0.0000000000 0.2756685000 0.6790187500
0.0002736844 0.2904530125 0.6981321875
0.2498728531 0.2782764906 0.7636055281
0.6869927438 0.2542582906 0.7665311531
0.9942565000 0.2700680000 0.6839305000
0.0000000000 0.4472890000 0.7185672500
0.0057344719 0.4701689250 0.7343686500
0.3349598656 0.5293239594 0.7705052906
0.7747336000 0.5205975625 0.7533537000
0.9949255000 0.5061710000 0.6732177500
0.0000000000 0.6273317500 0.7329785000
0.0118630219 0.6548489750 0.7403189875
0.3111367031 0.7551613031 0.7414633531
0.8111514437 0.8136128906 0.7222933250
0.9963285000 0.7868605000 0.6624667500
0.0000000000 0.8236102500 0.7311120000
0.0000000000 0.8348100000 0.7270362500
0.0208972500 0.8630952500 0.7106070000
0.3882955000 0.9589470000 0.6624830000
0.9857735000 0.9924227500 0.5710042500
0.0000000000 0.1784910000 0.7644330000
0.0000000000 0.1887015000 0.7806030000
0.2026105000 0.1583390000 0.8519695000
0.5736882500 0.1695380000 0.9642670000
0.9553830000 0.2632330000 0.9963420000
0.0000000000 0.2816207500 0.8337795000
0.0000000000 0.2896355000 0.8468302500
0.1164252500 0.3012875000 0.9304885000
0.5743315000 0.2895557500 0.9877457500
0.9685100000 0.2928990000 0.9963015000
0.0000000000 0.4675140000 0.9636805000
0.0000000000 0.4741860000 0.9686300000
0.0806610000 0.5178790000 0.9919615000
0.5733305000 0.5482507500 0.9967330000
0.9800430000 0.4973695000 0.9927480000
0.0000000000 0.6536845000 0.9886257500
0.0000000000 0.6655760000 0.9879782500
0.0629165000 0.7163127500 0.9891905000
0.5643445000 0.8033742500 0.9915687500
0.9883050000 0.7662812500 0.9820245000
0.0000000000 0.8458330000 0.9546700000
0.0000000000 0.8532130000 0.9542990000
0.0027600000 0.8683005000 0.9550550000
0.2434747500 0.9426212500 0.9727382500
1.0000000000 1.0000000000 0.9808140000
