bundles/resolve-cinematic-luts/Gamut/Immersion 2.0/Chromatic Cream.cube
TITLE "Immersion 2.0 - Chromatic Cream by Gamut"
# Contributor - Sam Newton. Version 2.0 - 06/24/2025 - Designed for Rec.709 Color Space. Copyright 2025 Gamut, LLC.
LUT_3D_SIZE 5
0.0023660000 0.0031540000 0.0039430000
0.2026200000 0.0668772500 0.0445547500
0.4289355000 0.1263720000 0.0713125000
0.7405257500 0.2808050000 0.1447955000
0.9217680000 0.4715650000 0.3095640000
0.1550815000 0.1823942500 0.1570852500
0.2477172500 0.2132912500 0.1396462500
0.4527105000 0.2142020000 0.0942425000
0.7357477500 0.3384322500 0.1618015000
0.9143997500 0.5133772500 0.2994197500
0.3364710000 0.3820660000 0.3243410000
0.3830927500 0.4068945000 0.3353980000
0.5408510000 0.4522255000 0.2799305000
0.8165737500 0.5379775000 0.2607040000
0.9347075000 0.6217215000 0.3338765000
0.5788480000 0.6470725000 0.5534407500
0.5983910000 0.6548632500 0.5610965000
0.6720900000 0.6779582500 0.5622977500
0.8364942500 0.7211250000 0.5317215000
0.9598927500 0.7693400000 0.5537680000
0.7781820000 0.8178830000 0.7442510000
0.7862385000 0.8206312500 0.7459410000
0.8214735000 0.8266190000 0.7451805000
0.9219202500 0.8607377500 0.7606745000
1.0000000000 0.8868270000 0.7710070000
0.0650622500 0.0953290000 0.1563290000
0.1276487500 0.1299645000 0.1858582500
0.4402212500 0.1024262500 0.1123865000
0.7542232500 0.2527365000 0.1596217500
0.9265410000 0.4514550000 0.3251822500
0.1573255000 0.2067902500 0.2343142500
0.2270331844 0.2361288656 0.2433576063
0.4568350562 0.2192985344 0.1693654719
0.7683596187 0.3654760281 0.2347852125
0.9295617500 0.5358555000 0.3757655000
0.3514302500 0.4004590000 0.3603657500
0.3804783063 0.4240864688 0.3822265531
0.5256208344 0.4715661688 0.3591875656
0.8061757531 0.5384133000 0.3364518219
0.9319812500 0.6239137500 0.4062462500
0.5875387500 0.6534027500 0.5767462500
0.6018443438 0.6605680344 0.5858534969
0.6731806813 0.6858774063 0.5992481781
0.8251859594 0.7282174687 0.5812952375
0.9593050000 0.7741697500 0.5984082500
0.7849015000 0.8231255000 0.7559630000
0.7876645000 0.8235932500 0.7566320000
0.8198797500 0.8301190000 0.7571545000
0.9126195000 0.8630637500 0.7721100000
1.0000000000 0.8957005000 0.7928052500
0.1657990000 0.2487275000 0.3591435000
0.1881502500 0.2570752500 0.3639485000
0.2674465000 0.2983500000 0.3917230000
0.7350562500 0.3042590000 0.3678725000
0.9318265000 0.4446980000 0.4645890000
0.1979697500 0.2874805000 0.3958620000
0.2317603594 0.3059895188 0.4025296750
0.3651285063 0.3452170937 0.4280089844
0.7713020562 0.3961062875 0.4216996750
0.9372262500 0.5260697500 0.5085227500
0.3323860000 0.4387220000 0.5028410000
0.3765732719 0.4640956844 0.5170301875
0.4900086563 0.5126519063 0.5310412500
0.8054161187 0.5646779781 0.5106545438
0.9369195000 0.6403845000 0.5662515000
0.6088260000 0.6767490000 0.6257617500
0.6264873500 0.6847907125 0.6396639594
0.6727635906 0.7066039094 0.6723809469
0.7935739937 0.7475993469 0.6788906656
0.9616682500 0.7903710000 0.6945257500
0.8017220000 0.8438545000 0.7873695000
0.8047932500 0.8422750000 0.7897822500
0.8202550000 0.8473530000 0.7970335000
0.8995780000 0.8774030000 0.8096755000
0.9998120000 0.9185170000 0.8362885000
0.2689927500 0.3980817500 0.5918832500
0.2868882500 0.4050357500 0.5929730000
0.3550165000 0.4325445000 0.6245800000
0.5472157500 0.5156885000 0.7043877500
0.8825062500 0.5593922500 0.6894255000
0.2903087500 0.4280742500 0.6165740000
0.3190693563 0.4430653312 0.6207470063
0.4160828688 0.4772526844 0.6486340000
0.6117135531 0.5647304000 0.7248293844
0.9076445000 0.6097357500 0.7024207500
0.3776007500 0.5436085000 0.6989515000
0.4182818062 0.5601635094 0.7008811500
0.5096509688 0.5926733094 0.7004185156
0.7101296063 0.6434651062 0.7233836281
0.9362087500 0.6929677500 0.7252402500
0.6061857500 0.7182832500 0.7729797500
0.6336098031 0.7337146969 0.7879898938
0.6971074000 0.7569181656 0.7983370500
0.7812925937 0.7875033344 0.8007096562
0.9854232500 0.8242280000 0.8019450000
0.8292782500 0.8922607500 0.8607180000
0.8337027500 0.8904182500 0.8563775000
0.8510477500 0.8921825000 0.8512525000
0.8943365000 0.9213300000 0.8914097500
0.9992280000 0.9638687500 0.9063587500
0.3527250000 0.5235100000 0.7184210000
0.3751100000 0.5311087500 0.7199520000
0.4434285000 0.5659770000 0.7513085000
0.5714695000 0.6348705000 0.8246472500
0.6876510000 0.6935390000 0.8629110000
0.3743087500 0.5612752500 0.7478687500
0.4050057500 0.5749527500 0.7529272500
0.4902805000 0.6128025000 0.7820917500
0.6312167500 0.6727312500 0.8418782500
0.7364892500 0.7309365000 0.8772455000
0.4574785000 0.6588115000 0.8249045000
0.4867427500 0.6679795000 0.8268657500
0.5646680000 0.6898920000 0.8325895000
0.7097322500 0.7245447500 0.8525235000
0.8164120000 0.7826365000 0.8937715000
0.6056227500 0.7673642500 0.8891305000
0.6354622500 0.7785870000 0.8951755000
0.7016837500 0.8012507500 0.9040637500
0.7973372500 0.8431040000 0.9195785000
0.9970495000 0.8728190000 0.9111430000
0.8197690000 0.9115620000 0.9682090000
0.8274460000 0.9119260000 0.9679570000
0.8561590000 0.9210050000 0.9721055000
0.9168992500 0.9604445000 0.9889385000
0.9952090000 0.9982810000 0.9994360000
