bundles/resolve-cinematic-luts/Gamut/Immersion 2.0/Chromatic Cream.cube
TITLE "Immersion 2.0 - Chromatic Cream by Gamut"
# Contributor - Sam Newton. Version 2.0 - 06/24/2025 - Designed for Rec.709 Color Space. Copyright 2025 Gamut, LLC.
LUT_3D_SIZE 33
0.0023660000 0.0031540000 0.0039430000
0.0077381250 0.0031540000 0.0023906250
0.0262205625 0.0068998750 0.0099553125
0.0465345625 0.0161164687 0.0184823750
0.0699687500 0.0284870000 0.0284870000
0.0970863125 0.0409019687 0.0373590312
0.1273392500 0.0514561875 0.0422306250
0.1654916875 0.0595303750 0.0438429063
0.2026200000 0.0668772500 0.0445547500
0.2364393438 0.0746663438 0.0459790625
0.2667173125 0.0797853750 0.0468920000
0.2957527813 0.0848385937 0.0487474688
0.3232076250 0.0911421250 0.0515973750
0.3499145312 0.0993150937 0.0557942187
0.3754896250 0.1079820625 0.0609320000
0.4017469062 0.1171916875 0.0660000000
0.4289355000 0.1263720000 0.0713125000
0.4584580625 0.1359456562 0.0758316562
0.4911423750 0.1461876250 0.0806180000
0.5274225313 0.1580179063 0.0853595000
0.5677002500 0.1729422500 0.0907212500
0.6117671562 0.1929649688 0.0983565625
0.6575295625 0.2194755625 0.1097552500
0.7016029375 0.2499216875 0.1256715938
0.7405257500 0.2808050000 0.1447955000
0.7740930000 0.3100534375 0.1650054062
0.8034336250 0.3376485625 0.1859694375
0.8295039688 0.3636989063 0.2072233438
0.8525036250 0.3880628750 0.2284178750
0.8727602187 0.4108170000 0.2495223437
0.8905761875 0.4320408125 0.2699695000
0.9066281875 0.4521950000 0.2900008125
0.9217680000 0.4715650000 0.3095640000
0.0077627813 0.0077874063 0.0085754375
0.0123459375 0.0093151250 0.0093397812
0.0255301562 0.0146380000 0.0131349062
0.0458719375 0.0238298750 0.0216117812
0.0704993750 0.0361265312 0.0316665625
0.0957226562 0.0472700625 0.0403305000
0.1272514063 0.0571244063 0.0457264687
0.1647097813 0.0662102500 0.0480746563
0.2022784687 0.0745140313 0.0488973750
0.2355203125 0.0805682188 0.0489195937
0.2663508125 0.0849662812 0.0494118437
0.2950152812 0.0891985000 0.0500932187
0.3224965625 0.0948516562 0.0528933125
0.3488299687 0.1023755938 0.0564213437
0.3746369063 0.1106358125 0.0611949375
0.4000385312 0.1193289063 0.0662467500
0.4269298125 0.1280696875 0.0713125000
0.4561106563 0.1373785000 0.0763295625
0.4887646875 0.1474046562 0.0808719375
0.5248680937 0.1590072500 0.0856160000
0.5652364687 0.1740635625 0.0911356250
0.6091523125 0.1943005312 0.0986096875
0.6544909375 0.2204650938 0.1097552500
0.6979386563 0.2506332813 0.1252789687
0.7366908125 0.2812275625 0.1439833437
0.7701944687 0.3106878125 0.1642459063
0.7998390000 0.3385674687 0.1848877812
0.8263450312 0.3651820625 0.2060791250
0.8498042188 0.3899497500 0.2272324687
0.8703945937 0.4129815625 0.2481478438
0.8884617188 0.4343763125 0.2684475625
0.9047633750 0.4544720625 0.2883472187
0.9200872813 0.4737924375 0.3078021250
0.0223268125 0.0231148750 0.0246425625
0.0262205312 0.0261958750 0.0261712500
0.0361758750 0.0322821250 0.0300147500
0.0536689687 0.0399847813 0.0354115313
0.0758240625 0.0498452500 0.0416865625
0.1001239688 0.0582344062 0.0469834062
0.1294964375 0.0656799375 0.0505486875
0.1648932500 0.0738834063 0.0520335938
0.2012762500 0.0820953750 0.0523448750
0.2351887812 0.0885454687 0.0522220625
0.2659220625 0.0926317500 0.0522220625
0.2931145625 0.0955150938 0.0526939063
0.3195806250 0.0998780625 0.0544123125
0.3453527188 0.1062577188 0.0572593438
0.3706832500 0.1139073125 0.0617813750
0.3961939688 0.1219292500 0.0662643750
0.4230321250 0.1304904375 0.0713125000
0.4524327812 0.1395071875 0.0763295625
0.4845618125 0.1491476875 0.0810907500
0.5202965938 0.1603885312 0.0858106250
0.5604240000 0.1753209375 0.0911491250
0.6039190313 0.1950355938 0.0986223437
0.6491475000 0.2206057500 0.1096468125
0.6924251563 0.2503576250 0.1246709062
0.7314253125 0.2811431875 0.1431001875
0.7655935938 0.3110231250 0.1630457500
0.7958243750 0.3396703750 0.1837991875
0.8229271563 0.3666882188 0.2047770000
0.8469700625 0.3920026250 0.2258686250
0.8678627187 0.4152960625 0.2466190937
0.8861789375 0.4368470625 0.2667658750
0.9027165312 0.4569485313 0.2864346250
0.9181476875 0.4762120000 0.3056826875
0.0450305000 0.0497115313 0.0516555625
0.0477933750 0.0516309375 0.0529259063
0.0548619063 0.0565707187 0.0559682187
0.0673789687 0.0635108438 0.0585175312
0.0863581875 0.0715339687 0.0605020937
0.1122235000 0.0767565937 0.0603376250
0.1414687500 0.0815529375 0.0589130937
0.1716904375 0.0872555625 0.0589202188
0.2025062500 0.0937019375 0.0589202187
0.2318085313 0.0994160938 0.0578747813
0.2596317188 0.1027488750 0.0567186875
0.2867849375 0.1048308750 0.0561737813
0.3135603750 0.1074729688 0.0564676875
0.3393648437 0.1120952500 0.0586582188
0.3643371563 0.1186611562 0.0619848750
0.3888744687 0.1256450937 0.0662643750
0.4145095938 0.1329720937 0.0708369688
0.4427670312 0.1411787812 0.0756102812
0.4749088438 0.1504293125 0.0806180000
0.5111054063 0.1615859688 0.0855826250
0.5514661875 0.1762008750 0.0913058750
0.5951351563 0.1951103750 0.0982228438
0.6402028438 0.2197939063 0.1088469375
0.6840423437 0.2490503125 0.1232617187
0.7243995625 0.2805314063 0.1414593750
0.7599846250 0.3114861562 0.1616132188
0.7914952188 0.3410974688 0.1825256250
0.8194634375 0.3688824063 0.2036049688
0.8439969687 0.3946268437 0.2244957188
0.8653709375 0.4182891563 0.2450615625
0.8839115000 0.4398961250 0.2649507813
0.9005952188 0.4600339375 0.2842521562
0.9161320000 0.4792761562 0.3031952500
0.0670246250 0.0769973750 0.0775587500
0.0697535937 0.0784484687 0.0781665625
0.0747091250 0.0812038125 0.0799461250
0.0840413438 0.0865703125 0.0814197500
0.0990433750 0.0939865000 0.0820028750
0.1221298125 0.1009601563 0.0785907500
0.1545510625 0.1045698125 0.0730817500
0.1857968750 0.1081135000 0.0685816875
0.2144006250 0.1118336250 0.0664712500
0.2407238125 0.1151764063 0.0644100312
0.2662862500 0.1177271875 0.0626212500
0.2910412500 0.1192030937 0.0614737500
0.3146077500 0.1202245000 0.0607567500
0.3379055000 0.1228365625 0.0616927500
0.3609035000 0.1272720000 0.0641225625
0.3842317813 0.1327769688 0.0674874375
0.4089096250 0.1390720000 0.0717687500
0.4359751250 0.1459987500 0.0760364062
0.4666443750 0.1541593125 0.0806180000
0.5014492500 0.1643854375 0.0858106250
0.5406736250 0.1779441250 0.0915213750
0.5836099062 0.1955915000 0.0984380000
0.6285086250 0.2187227500 0.1080179375
0.6735724063 0.2476998125 0.1219508750
0.7161671250 0.2803295000 0.1400310000
0.7543726250 0.3130992188 0.1605859063
0.7876493125 0.3440244375 0.1818409375
0.8165789688 0.3725345938 0.2029691562
0.8416878750 0.3985605000 0.2235901250
0.8633190313 0.4223452812 0.2439182500
0.8819872500 0.4439969375 0.2633549375
0.8986279687 0.4640615312 0.2823820000
0.9141348750 0.4831766250 0.3007753750
0.0891248125 0.1038750312 0.1004778438
0.0912385312 0.1052954375 0.1011792187
0.0956390313 0.1074781250 0.1019821250
0.1026569062 0.1114034375 0.1034538125
0.1160883125 0.1180649062 0.1036228437
0.1364295937 0.1256881563 0.1008742500
0.1620082188 0.1315060000 0.0917959063
0.1935058125 0.1332184688 0.0837817812
0.2245300000 0.1350113437 0.0772924063
0.2532620000 0.1365553750 0.0725310313
0.2793745313 0.1373981250 0.0688435312
0.3030303438 0.1380657188 0.0671623125
0.3252714063 0.1383943438 0.0664381250
0.3467736250 0.1394170937 0.0666440000
0.3681839688 0.1421564688 0.0685698750
0.3899675313 0.1459453438 0.0714732500
0.4126619688 0.1503267812 0.0748415625
0.4377973125 0.1559081875 0.0787294688
0.4663844062 0.1625779063 0.0827401250
0.4990492500 0.1718998125 0.0873835937
0.5361400938 0.1842715937 0.0930636250
0.5772888125 0.2007711250 0.0998848750
0.6211427500 0.2227797187 0.1091463437
0.6662943438 0.2509099062 0.1226026562
0.7105752500 0.2840465625 0.1403925625
0.7509290312 0.3181093125 0.1610732500
0.7856091875 0.3498826875 0.1825778437
0.8153054375 0.3786579688 0.2034023750
0.8406535313 0.4047185938 0.2237967500
0.8622566563 0.4283294688 0.2435368750
0.8809418438 0.4497626250 0.2625737188
0.8973829062 0.4695330625 0.2809174063
0.9126660625 0.4883367500 0.2989061562
0.1099127500 0.1302168750 0.1198824375
0.1122346875 0.1316603437 0.1208098125
0.1163054375 0.1337276875 0.1218398125
0.1238995000 0.1372088750 0.1228715938
0.1355351875 0.1423890625 0.1238095000
0.1527886562 0.1492633437 0.1214007188
0.1751045625 0.1556947500 0.1147872500
0.2008775625 0.1603745625 0.1026602187
0.2296837500 0.1615108750 0.0926223125
0.2588271563 0.1616253750 0.0841586250
0.2875641250 0.1615580000 0.0775426250
0.3141597812 0.1611708438 0.0739114688
0.3383949375 0.1607328125 0.0726453750
0.3604086563 0.1608812500 0.0732675937
0.3813373125 0.1623668125 0.0750579375
0.4021045313 0.1645085625 0.0772753750
0.4240766875 0.1672463750 0.0802258125
0.4479881563 0.1707947812 0.0833019375
0.4750098125 0.1763050625 0.0867853750
0.5058736875 0.1846900312 0.0910908750
0.5411137500 0.1965621875 0.0967281250
0.5808809375 0.2129437813 0.1036267187
0.6239011250 0.2348376875 0.1133329375
0.6683493750 0.2627878125 0.1267669688
0.7121242500 0.2951858750 0.1442641250
0.7523005312 0.3286853125 0.1645434062
0.7870523125 0.3599942500 0.1853172500
0.8165876875 0.3881605313 0.2056599062
0.8416008750 0.4135461875 0.2253576875
0.8628839062 0.4365831875 0.2444719375
0.8811449375 0.4574835625 0.2628891875
0.8972562500 0.4767278125 0.2806432812
0.9121990000 0.4950764375 0.2979486875
0.1322959375 0.1563626563 0.1385405312
0.1343535313 0.1576069687 0.1393837187
0.1382715625 0.1594998750 0.1402221562
0.1460175312 0.1626245000 0.1410554063
0.1564570937 0.1670565938 0.1419218125
0.1706450937 0.1727070000 0.1411670625
0.1894900000 0.1792612813 0.1370849688
0.2125178437 0.1849789375 0.1274205937
0.2373817813 0.1887766563 0.1124871562
0.2633852500 0.1894407500 0.0999057500
0.2911815000 0.1885950312 0.0905234688
0.3194943125 0.1876084062 0.0834835938
0.3465778438 0.1866162500 0.0800173437
0.3714413750 0.1861274062 0.0799700000
0.3943995000 0.1864111875 0.0820049062
0.4166722812 0.1874505312 0.0846259375
0.4390541875 0.1887856562 0.0872801875
0.4630705000 0.1907936562 0.0898670313
0.4894745625 0.1949628438 0.0926674375
0.5196140625 0.2028630312 0.0969779063
0.5545851563 0.2152199688 0.1027631250
0.5940854063 0.2326013125 0.1104105625
0.6367839063 0.2554327500 0.1208175000
0.6800335938 0.2833744687 0.1348944687
0.7214588750 0.3142343750 0.1518412813
0.7593723437 0.3453980937 0.1709200313
0.7925000313 0.3745878437 0.1904040625
0.8207905938 0.4012524688 0.2096989062
0.8448902813 0.4254610937 0.2286329688
0.8654168125 0.4474166562 0.2468786250
0.8829520937 0.4673915625 0.2645289063
0.8983875937 0.4858456250 0.2815747500
0.9127757813 0.5034139375 0.2981934063
0.1550815000 0.1823942500 0.1570852500
0.1572693750 0.1834530625 0.1578859062
0.1610829375 0.1852748125 0.1586325625
0.1678476562 0.1882893750 0.1595523750
0.1777156250 0.1921148750 0.1607140000
0.1895962187 0.1968725000 0.1605067813
0.2054889375 0.2027370625 0.1579266250
0.2247228437 0.2085196875 0.1523158125
0.2477172500 0.2132912500 0.1396462500
0.2712453125 0.2162843125 0.1217445938
0.2957289375 0.2166825000 0.1076346250
0.3229167500 0.2155838750 0.0981181250
0.3505581250 0.2144982500 0.0914537500
0.3775207188 0.2138180625 0.0881884687
0.4030200000 0.2134590625 0.0886539375
0.4278034687 0.2137510938 0.0910338125
0.4527105000 0.2142020000 0.0942425000
0.4785284062 0.2153889687 0.0970574063
0.5063250625 0.2188065000 0.1001610000
0.5376591250 0.2266633438 0.1045456875
0.5736742500 0.2400493750 0.1109217500
0.6139049688 0.2588742813 0.1196088125
0.6560871875 0.2827771875 0.1313216875
0.6973698750 0.3100158438 0.1455036563
0.7357477500 0.3384322500 0.1618015000
0.7704514375 0.3664380312 0.1793041563
0.8011316875 0.3929167500 0.1972825000
0.8276496562 0.4174486563 0.2152473750
0.8502995000 0.4400601250 0.2330981250
0.8696202813 0.4605636562 0.2505210313
0.8861906875 0.4793356875 0.2673065000
0.9007644375 0.4967533437 0.2835340312
0.9143997500 0.5133772500 0.2994197500
0.1780475313 0.2078070312 0.1761808437
0.1798462812 0.2088300938 0.1770634062
0.1840937813 0.2109145000 0.1780983437
0.1902349375 0.2134193750 0.1789702188
0.1988325625 0.2169229375 0.1800578438
0.2092850000 0.2207554063 0.1804542187
0.2220501875 0.2256402500 0.1797658750
0.2388325937 0.2313679063 0.1753664688
0.2579096250 0.2367723125 0.1676578750
0.2806381562 0.2410325000 0.1524600937
0.3040036250 0.2433167500 0.1322911250
0.3280210937 0.2437104375 0.1173005312
0.3545198125 0.2428653125 0.1081848750
0.3815205938 0.2423855000 0.1019675938
0.4080926563 0.2420274688 0.0991274688
0.4345843437 0.2419565625 0.0990483125
0.4618219062 0.2422696563 0.1009470625
0.4906482187 0.2435933125 0.1043394063
0.5218235312 0.2472844687 0.1083210625
0.5562040313 0.2556492500 0.1135787812
0.5946365000 0.2700740625 0.1209322188
0.6359936563 0.2900548438 0.1308692500
0.6773427500 0.3138879375 0.1431000000
0.7160820625 0.3393262500 0.1571126875
0.7514828437 0.3648913437 0.1723892187
0.7834571250 0.3898716250 0.1883882500
0.8117568125 0.4137083125 0.2050032813
0.8361928125 0.4359811250 0.2217475625
0.8571475000 0.4565934375 0.2385275313
0.8749932500 0.4754799063 0.2549722500
0.8904208437 0.4928695000 0.2708989688
0.9040606875 0.5090419063 0.2863827500
0.9167257812 0.5245746875 0.3015385000
0.2008001250 0.2328967500 0.1966455625
0.2029003750 0.2340920938 0.1974228125
0.2068592500 0.2358983750 0.1983947500
0.2125859687 0.2382823750 0.1995137500
0.2199873750 0.2412547500 0.2004556250
0.2290468125 0.2445895000 0.2010224687
0.2399520625 0.2487955625 0.2012914375
0.2536832813 0.2540690625 0.1999487187
0.2705958125 0.2596395000 0.1942573125
0.2900855000 0.2649328125 0.1851131250
0.3128593125 0.2684013750 0.1667409375
0.3360786875 0.2701954062 0.1455879062
0.3603911875 0.2706789375 0.1307100625
0.3863768750 0.2706906875 0.1218729063
0.4129054375 0.2709095625 0.1162548750
0.4400074375 0.2713033750 0.1131220313
0.4685963750 0.2721231250 0.1123177500
0.4997190313 0.2741040000 0.1137723438
0.5341898750 0.2788465000 0.1173803125
0.5721818750 0.2881122500 0.1232621875
0.6134702500 0.3031320000 0.1317637500
0.6558604062 0.3231408750 0.1426747500
0.6962501875 0.3456722500 0.1551423125
0.7331971562 0.3688260625 0.1685855313
0.7667020625 0.3917750625 0.1827843750
0.7966910625 0.4142002500 0.1976131250
0.8228381875 0.4355917500 0.2129996875
0.8452798437 0.4556355000 0.2285522187
0.8645000625 0.4742972500 0.2442411250
0.8808902187 0.4915138750 0.2597049375
0.8951033125 0.5074065000 0.2748215625
0.9077516250 0.5223905937 0.2895238438
0.9195223125 0.5367160625 0.3039885000
0.2237311875 0.2577940938 0.2178470000
0.2257580937 0.2589025938 0.2186614063
0.2291226875 0.2604661250 0.2196379375
0.2342829375 0.2626196875 0.2206779062
0.2411710625 0.2654645000 0.2219998750
0.2494117812 0.2685970938 0.2228485625
0.2590472500 0.2724102812 0.2234749688
0.2704446563 0.2770333437 0.2234412188
0.2846824063 0.2824455938 0.2207730625
0.3014843125 0.2878519375 0.2143088438
0.3214568750 0.2927406563 0.2034158750
0.3447682813 0.2956720625 0.1828699688
0.3688376875 0.2975561250 0.1622584375
0.3935405000 0.2985821563 0.1482585938
0.4194781875 0.2995727812 0.1395430313
0.4466558125 0.3008964375 0.1340094687
0.4758668125 0.3027900625 0.1305390000
0.5084978750 0.3060995000 0.1294396875
0.5450709687 0.3118087500 0.1309823125
0.5857199063 0.3218579688 0.1361644375
0.6289043438 0.3369105625 0.1444705000
0.6718031562 0.3558806562 0.1554864687
0.7117070313 0.3765165938 0.1674464375
0.7479956563 0.3975428750 0.1799977187
0.7804358125 0.4183740625 0.1931889375
0.8088232187 0.4384899687 0.2069330625
0.8331758750 0.4576735937 0.2210658750
0.8538853438 0.4756054375 0.2355311875
0.8715495000 0.4924035000 0.2501360313
0.8866813750 0.5080141875 0.2645916250
0.8997843438 0.5225172812 0.2788867500
0.9114391875 0.5362134063 0.2928679687
0.9224187812 0.5495019688 0.3066819687
0.2463103750 0.2820348750 0.2389420000
0.2480299062 0.2829954375 0.2398882500
0.2509595625 0.2845712500 0.2410146250
0.2556120313 0.2866916250 0.2423600625
0.2620966250 0.2895166250 0.2438538750
0.2697934375 0.2927111250 0.2449195312
0.2785568750 0.2962249375 0.2456588125
0.2884461875 0.3003027500 0.2461201562
0.3001560000 0.3049603750 0.2456831250
0.3149602188 0.3105423125 0.2415048438
0.3327382500 0.3160296875 0.2345030000
0.3538082500 0.3208406250 0.2217926875
0.3779061250 0.3236220000 0.2005293750
0.4030384375 0.3258394688 0.1814044063
0.4288661250 0.3279882500 0.1684098750
0.4560419063 0.3304728750 0.1601081875
0.4856163750 0.3336741250 0.1547993750
0.5189352500 0.3382026875 0.1517075625
0.5565564375 0.3451098125 0.1512443750
0.5981579687 0.3555621250 0.1542898750
0.6418123750 0.3700225000 0.1610573750
0.6845836875 0.3874187500 0.1703151563
0.7243365625 0.4061292500 0.1808569375
0.7603716875 0.4252402813 0.1920280000
0.7920348750 0.4440990000 0.2038166250
0.8191043125 0.4621762188 0.2162570625
0.8420425625 0.4792963750 0.2292554375
0.8613990938 0.4954195625 0.2426363125
0.8777841250 0.5104803750 0.2562085000
0.8918413750 0.5246124688 0.2697981250
0.9040370625 0.5378549375 0.2831548125
0.9148929062 0.5504705313 0.2964091875
0.9250808750 0.5627100000 0.3094586250
0.2679643750 0.3054000000 0.2597233750
0.2696977187 0.3066516250 0.2608086875
0.2723284062 0.3081286875 0.2620338437
0.2768615313 0.3106907500 0.2637976875
0.2828586250 0.3134776563 0.2653425625
0.2901825625 0.3168065937 0.2664838750
0.2983389062 0.3200235625 0.2672914687
0.3073950313 0.3239667500 0.2679241875
0.3179355312 0.3284285312 0.2685732187
0.3306015313 0.3336124062 0.2676508438
0.3467846250 0.3395126563 0.2623021562
0.3659033437 0.3450466875 0.2539897812
0.3883600313 0.3498336562 0.2393084062
0.4137900000 0.3530404375 0.2189414375
0.4404648750 0.3560824687 0.2023810313
0.4682828125 0.3597380000 0.1908685625
0.4982100312 0.3641938125 0.1831461250
0.5316338438 0.3698554375 0.1782309062
0.5692050313 0.3776251875 0.1759804375
0.6103355938 0.3881834063 0.1768240000
0.6531396250 0.4016530313 0.1809140938
0.6952486250 0.4173979688 0.1875715312
0.7346627187 0.4343703750 0.1956894687
0.7702644375 0.4516842500 0.2050160313
0.8011505000 0.4687192500 0.2153002500
0.8272557812 0.4850118125 0.2264193125
0.8491785938 0.5003970000 0.2380841250
0.8674600938 0.5148622500 0.2502590937
0.8829582187 0.5284439687 0.2628293750
0.8961919687 0.5413094375 0.2754089062
0.9077028438 0.5534602187 0.2880726563
0.9179970000 0.5650679063 0.3004818750
0.9276882187 0.5763593438 0.3128775313
0.2898754375 0.3295160625 0.2806021875
0.2913260625 0.3305957812 0.2815169375
0.2938754375 0.3323726250 0.2830868125
0.2984119063 0.3349490625 0.2848050313
0.3042222500 0.3380440625 0.2865923125
0.3112028125 0.3413915625 0.2880332187
0.3190938125 0.3449738125 0.2890495625
0.3279860625 0.3486703750 0.2898887813
0.3381369375 0.3532711875 0.2907450000
0.3494944063 0.3581379375 0.2909676250
0.3636322500 0.3639601250 0.2885980000
0.3813844687 0.3697546563 0.2815388437
0.4021798125 0.3755042500 0.2716995625
0.4264833750 0.3804136875 0.2563340312
0.4536656250 0.3843510625 0.2383157500
0.4823401250 0.3888582500 0.2245476250
0.5125491250 0.3941757500 0.2145632500
0.5455594688 0.4006176250 0.2076225313
0.5821951875 0.4087443750 0.2033501250
0.6218674375 0.4190048750 0.2017570000
0.6632721250 0.4315415625 0.2030351875
0.7042389063 0.4458683125 0.2067023125
0.7429711250 0.4612525000 0.2123255625
0.7778275625 0.4769635937 0.2195935937
0.8080206875 0.4924211875 0.2281713750
0.8333667500 0.5070535938 0.2377454375
0.8545643750 0.5209699375 0.2481639375
0.8722482188 0.5340665312 0.2591746563
0.8871381875 0.5464453125 0.2706558125
0.8998347500 0.5581876562 0.2823202188
0.9109137500 0.5693956875 0.2941567500
0.9208197188 0.5801316875 0.3058671250
0.9301140000 0.5906728125 0.3174570000
0.3127656563 0.3550933750 0.3023245000
0.3139707500 0.3559829375 0.3029815000
0.3165099375 0.3579727188 0.3046899687
0.3211411875 0.3607042812 0.3064853438
0.3269358750 0.3638877812 0.3084421875
0.3336975000 0.3674587812 0.3100427812
0.3416410000 0.3711668750 0.3113147813
0.3503705625 0.3751639375 0.3121763125
0.3600127500 0.3794010625 0.3128919688
0.3708524063 0.3841668750 0.3135993437
0.3834712188 0.3895274063 0.3127141562
0.3997406875 0.3956212813 0.3077109688
0.4194941563 0.4016128125 0.2994820938
0.4421127500 0.4072653125 0.2880993438
0.4682859688 0.4123828750 0.2731215938
0.4969044062 0.4175726875 0.2586389375
0.5270195312 0.4234314062 0.2472892500
0.5592596563 0.4303046562 0.2385358750
0.5945331563 0.4385010312 0.2321759375
0.6324952812 0.4483153125 0.2283329688
0.6721031250 0.4599284688 0.2268204063
0.7117617188 0.4730436250 0.2277729063
0.7494083437 0.4870208125 0.2309792187
0.7835047188 0.5013340938 0.2362011562
0.8129815625 0.5153250938 0.2430587500
0.8378800625 0.5286877813 0.2511352187
0.8585717812 0.5413474688 0.2602682500
0.8758265625 0.5533118750 0.2700835625
0.8903816562 0.5646721875 0.2805553125
0.9028653438 0.5755169062 0.2913064062
0.9136565937 0.5858968438 0.3022701875
0.9233399375 0.5959239375 0.3132261875
0.9324228125 0.6057360313 0.3241260313
0.3364710000 0.3820660000 0.3243410000
0.3378381250 0.3831044375 0.3252776250
0.3403291875 0.3849235000 0.3265770000
0.3452273750 0.3882943437 0.3291361563
0.3514241250 0.3921036250 0.3314423750
0.3583402187 0.3958141250 0.3334332812
0.3657296875 0.3990936875 0.3341064375
0.3739109688 0.4028383125 0.3346818750
0.3830927500 0.4068945000 0.3353980000
0.3934383125 0.4113677187 0.3358466875
0.4053830625 0.4167591250 0.3361461250
0.4200929375 0.4224837500 0.3336260937
0.4384592500 0.4284026250 0.3257322500
0.4598075000 0.4342601250 0.3165180625
0.4842348125 0.4400946875 0.3049064375
0.5115351562 0.4459506875 0.2917967188
0.5408510000 0.4522255000 0.2799305000
0.5720100313 0.4592118750 0.2700277500
0.6056595000 0.4671821875 0.2620942500
0.6418519062 0.4764984688 0.2561818438
0.6797175000 0.4871940000 0.2524382500
0.7179116250 0.4992473125 0.2510899375
0.7544340625 0.5120423750 0.2522092500
0.7876525938 0.5251244063 0.2555141563
0.8165737500 0.5379775000 0.2607040000
0.8410402500 0.5502370625 0.2673938438
0.8614814375 0.5618596250 0.2751839375
0.8785541250 0.5728807812 0.2838719375
0.8930133750 0.5833926250 0.2933451250
0.9053217500 0.5934262812 0.3032216875
0.9160496250 0.6031365000 0.3134043750
0.9256982500 0.6125085313 0.3236445937
0.9347075000 0.6217215000 0.3338765000
0.3614730938 0.4113313125 0.3482116875
0.3625915000 0.4121592187 0.3488197188
0.3657319062 0.4145614687 0.3504673750
0.3706399687 0.4185065000 0.3535758125
0.3766979375 0.4226092813 0.3561802500
0.3831259687 0.4260838437 0.3576930000
0.3903281563 0.4292642500 0.3584285625
0.3978738438 0.4324085000 0.3586054062
0.4066301562 0.4362077813 0.3588803750
0.4164861562 0.4405102500 0.3592770938
0.4277352500 0.4454601563 0.3593469375
0.4412119375 0.4507351562 0.3582036875
0.4584093437 0.4564584063 0.3524200000
0.4784175937 0.4621290313 0.3435932812
0.5010189375 0.4680360937 0.3341510000
0.5262252500 0.4742570937 0.3233362813
0.5539795938 0.4807170000 0.3120166875
0.5838081250 0.4877266563 0.3019141250
0.6158214063 0.4953557813 0.2930781875
0.6501828750 0.5040468750 0.2858185938
0.6862853750 0.5139328125 0.2804663438
0.7229169063 0.5249538125 0.2772283125
0.7582167500 0.5367065000 0.2764313125
0.7906449375 0.5487304687 0.2780389688
0.8190273437 0.5605675312 0.2817044375
0.8432153125 0.5719482188 0.2870373438
0.8635097187 0.5827417812 0.2937010625
0.8805571875 0.5929768438 0.3013838125
0.8950610937 0.6027984375 0.3099460312
0.9074250000 0.6121740000 0.3190113438
0.9182320000 0.6212755000 0.3284604687
0.9279316875 0.6300567812 0.3381029375
0.9370008437 0.6387637187 0.3477284687
0.3892519375 0.4452554375 0.3742973125
0.3895686875 0.4454817500 0.3744461250
0.3921868750 0.4474901875 0.3758706875
0.3966015625 0.4514191250 0.3784283125
0.4022755625 0.4552400000 0.3809681250
0.4082041250 0.4582685312 0.3821016563
0.4146027500 0.4608953125 0.3824043125
0.4224284062 0.4640637813 0.3828585937
0.4309803750 0.4674951875 0.3828995000
0.4405520625 0.4713888125 0.3828730625
0.4510648125 0.4752349375 0.3822511250
0.4630420000 0.4799035312 0.3810157813
0.4785321875 0.4852155000 0.3776635000
0.4974931562 0.4910230625 0.3703965000
0.5182581875 0.4967521250 0.3620352500
0.5408786562 0.5027060937 0.3533440313
