bundles/resolve-cinematic-luts/Gamut/Immersion 2.0/Distant Teal.cube
TITLE "Immersion 2.0 - Distant Teal by Gamut"
# Contributor - Sam Newton. Version 2.0 - 06/24/2025 - Designed for Rec.709 Color Space. Copyright 2025 Gamut, LLC.
LUT_3D_SIZE 33
0.0000000000 0.0000000000 0.0000000000
0.0069245000 0.0030800937 0.0038444375
0.0269100000 0.0092165625 0.0107935625
0.0561795625 0.0155492812 0.0148351562
0.0925472500 0.0237560000 0.0200101250
0.1284857188 0.0331696250 0.0285609063
0.1701662500 0.0397735625 0.0342535625
0.2115293125 0.0415916562 0.0354860000
0.2540302500 0.0458202500 0.0378520000
0.2947316875 0.0480976875 0.0372849062
0.3314283125 0.0489850000 0.0349435625
0.3618714375 0.0494338750 0.0333912187
0.3882592500 0.0496690000 0.0323320000
0.4130513750 0.0489850000 0.0310745313
0.4367469375 0.0468000625 0.0295221875
0.4595734375 0.0428118125 0.0279698438
0.4809580000 0.0382460000 0.0268120000
0.5014380625 0.0339577812 0.0268120000
0.5206333125 0.0311978125 0.0282899375
0.5390672813 0.0293253438 0.0302861250
0.5578480000 0.0243471250 0.0315430000
0.5758606250 0.0178414687 0.0326028750
0.5928983750 0.0108430625 0.0344018125
0.6081038750 0.0056435625 0.0377284375
0.6230862500 0.0027597500 0.0439932500
0.6381732813 0.0006164062 0.0498637188
0.6555959375 0.0000000000 0.0571072500
0.6840259063 0.0000000000 0.0688373125
0.7205652500 0.0000000000 0.0814503750
0.7652018750 0.0000000000 0.0963112500
0.8187731250 0.0000000000 0.1141679375
0.8931555937 0.0000492813 0.1355061250
0.9904690000 0.0023660000 0.1837280000
0.0068998750 0.0092165625 0.0076888438
0.0153520938 0.0115332812 0.0100045937
0.0338591563 0.0185070625 0.0146626562
0.0596834687 0.0254069375 0.0193443750
0.0925319063 0.0339823437 0.0255055313
0.1273462500 0.0450520000 0.0339823437
0.1692990938 0.0511076563 0.0390347187
0.2168563437 0.0513440000 0.0393550625
0.2599602500 0.0531765312 0.0386153750
0.2966653750 0.0577856875 0.0372602500
0.3291719062 0.0610413750 0.0357076250
0.3582365000 0.0619990937 0.0333912187
0.3850199687 0.0622179375 0.0310745312
0.4098519375 0.0610848125 0.0287337812
0.4335131562 0.0586325000 0.0271814062
0.4549112500 0.0562436563 0.0267873437
0.4746894063 0.0552295625 0.0267626875
0.4938383750 0.0549094687 0.0267873437
0.5137764375 0.0527325312 0.0268120000
0.5341670625 0.0488887812 0.0260722813
0.5554976875 0.0422690000 0.0258010625
0.5765402813 0.0325284375 0.0253572188
0.5957415937 0.0217102188 0.0258750000
0.6124735937 0.0123954375 0.0289803750
0.6275698437 0.0071959063 0.0328740937
0.6421878125 0.0027597500 0.0363956250
0.6591445312 0.0007643438 0.0429686250
0.6869844375 0.0000000000 0.0549652812
0.7241370938 0.0000000000 0.0685178438
0.7699777812 0.0000000000 0.0843397188
0.8245058438 0.0009368125 0.1016884375
0.8948970000 0.0048049688 0.1286556563
0.9900948125 0.0132088438 0.1777064063
0.0208483750 0.0330711250 0.0300147500
0.0270578750 0.0346481562 0.0292760000
0.0400583125 0.0392313125 0.0300640000
0.0662939375 0.0465297812 0.0331943438
0.0961935000 0.0549567500 0.0393298750
0.1295360312 0.0638412500 0.0454071250
0.1674139375 0.0675731875 0.0477983125
0.2109448437 0.0700745000 0.0479796250
0.2518618125 0.0734673125 0.0467505000
0.2881347813 0.0773800937 0.0448196562
0.3204001875 0.0795723750 0.0419403125
0.3489679375 0.0803551875 0.0396719688
0.3746695000 0.0807967500 0.0378518125
0.3984649375 0.0807967500 0.0362495312
0.4204155000 0.0810274375 0.0351902500
0.4415926250 0.0806630625 0.0339826875
0.4612703125 0.0811027500 0.0328735625
0.4813748125 0.0801862188 0.0317649687
0.5022157500 0.0772282500 0.0302121250
0.5246230625 0.0714174375 0.0287090625
0.5474465000 0.0632552500 0.0268607500
0.5701449687 0.0537006250 0.0248153125
0.5912726250 0.0430521875 0.0225731250
0.6097700938 0.0338343750 0.0212179063
0.6283706250 0.0246433750 0.0216370000
0.6473275625 0.0155500625 0.0226961562
0.6670112500 0.0074419375 0.0242490000
0.6939829062 0.0020210313 0.0347860937
0.7292261250 0.0006410625 0.0494025625
0.7771874688 0.0008135625 0.0659790625
0.8299525000 0.0034497500 0.0848048125
0.8988452500 0.0172996875 0.1168453437
0.9887257500 0.0420878750 0.1678577500
0.0317405313 0.0634454063 0.0583808437
0.0415119063 0.0646306563 0.0572879062
0.0543860000 0.0673784062 0.0567360000
0.0710820625 0.0730491562 0.0556873125
0.1030034687 0.0794271562 0.0546597812
0.1371297187 0.0853650937 0.0560317188
0.1739944375 0.0890117500 0.0569035938
0.2114930000 0.0927134375 0.0581160938
0.2467537812 0.0973993750 0.0581922187
0.2792082500 0.1010430625 0.0575180625
0.3081687500 0.1030531875 0.0562132500
0.3347761250 0.1043493438 0.0544700000
0.3601718125 0.1045215000 0.0520683750
0.3841842187 0.1047826562 0.0498938750
0.4063052188 0.1049385312 0.0479188750
0.4274060625 0.1049773438 0.0465302188
0.4474166875 0.1043735937 0.0451150313
0.4673143438 0.1028875938 0.0433275312
0.4880867812 0.0998634063 0.0415257500
0.5100507812 0.0950006563 0.0393055000
0.5327262500 0.0879496563 0.0359541250
0.5566021875 0.0790814687 0.0329232813
0.5802268437 0.0694008437 0.0298176563
0.6029255937 0.0595289687 0.0270087188
0.6262090312 0.0485440938 0.0245934687
0.6505783438 0.0370139062 0.0222527812
0.6769356563 0.0238051562 0.0210700937
0.7082171250 0.0106214375 0.0262940000
0.7410247812 0.0042381875 0.0360823125
0.7872385938 0.0031540000 0.0562306562
0.8382839063 0.0098819062 0.0781850937
0.9034102188 0.0400306250 0.1119813750
0.9852341875 0.1001225312 0.1628158750
0.0433343750 0.0921822500 0.0849111250
0.0506100000 0.0930119062 0.0815013125
0.0643837500 0.0946064375 0.0788691250
0.0790109688 0.0985427813 0.0800128437
0.1007335000 0.1037682500 0.0746235000
0.1397640938 0.1068337813 0.0667145938
0.1790960625 0.1115925625 0.0644463125
0.2161435312 0.1155725937 0.0641810000
0.2498958750 0.1192685000 0.0647296250
0.2799294687 0.1225598125 0.0656906250
0.3073598750 0.1249304375 0.0662622500
0.3320928750 0.1262414375 0.0657533125
0.3551416250 0.1269661250 0.0649237500
0.3770080000 0.1271926875 0.0633752500
0.3981896250 0.1273222500 0.0622377500
0.4184846875 0.1274711875 0.0606932813
0.4381672500 0.1272096250 0.0593143750
0.4581509062 0.1259803750 0.0577503125
0.4786303125 0.1233518125 0.0560088125
0.4996412813 0.1188664687 0.0534955312
0.5215585000 0.1125022500 0.0506462500
0.5445478437 0.1046969062 0.0472666563
0.5679963750 0.0955081875 0.0438244375
0.5927774062 0.0850660625 0.0406610938
0.6195470000 0.0733253750 0.0385418750
0.6478702500 0.0608274375 0.0378268438
0.6817831875 0.0478211250 0.0402382500
0.7203606250 0.0327999687 0.0469230937
0.7586645000 0.0202072500 0.0562206250
0.8002689063 0.0141450938 0.0701064375
0.8471492500 0.0237981875 0.0882640000
0.9076998438 0.0718578438 0.1187940000
0.9820316250 0.1577178750 0.1646213750
0.0443450000 0.1163161562 0.1057769375
0.0513066562 0.1181009687 0.1029999062
0.0612460312 0.1194199687 0.0970856562
0.0826389687 0.1226360938 0.0981196250
0.1016882188 0.1286345625 0.1015791250
0.1334806250 0.1312422188 0.0862542188
0.1779546563 0.1309002187 0.0742545625
0.2166732188 0.1344740000 0.0673344063
0.2527452500 0.1384605000 0.0680359687
0.2839531563 0.1415261250 0.0695332812
0.3110966875 0.1443098437 0.0719673125
0.3353195313 0.1465240937 0.0734961562
0.3574354375 0.1478684063 0.0740185312
0.3784438125 0.1486811250 0.0739357187
0.3983574062 0.1492094063 0.0738524375
0.4179043750 0.1495058438 0.0732573750
0.4372662500 0.1496378437 0.0724017500
0.4567063750 0.1492136563 0.0718120000
0.4763540000 0.1474900000 0.0703392812
0.4964779375 0.1440235625 0.0684441875
0.5172180312 0.1388113750 0.0657293438
0.5388090625 0.1315099687 0.0627281875
0.5616342188 0.1229077188 0.0594263125
0.5864006562 0.1133868437 0.0566764062
0.6133559063 0.1027810625 0.0549122813
0.6430273750 0.0908458437 0.0536774375
0.6801484375 0.0776337187 0.0560545937
0.7226086875 0.0632210000 0.0629576250
0.7650150625 0.0497125000 0.0732867813
0.8075635313 0.0416457187 0.0864593125
0.8532577188 0.0543007500 0.1033830938
0.9113730937 0.1132413750 0.1310874063
0.9804363125 0.2088810625 0.1719357500
0.0381476875 0.1367470000 0.1206740625
0.0465740313 0.1392471875 0.1187975313
0.0539243125 0.1423776250 0.1125665000
0.0812380312 0.1462334375 0.1165432187
0.1085912500 0.1508735625 0.1191710625
0.1321333125 0.1566850938 0.1187694063
0.1704192500 0.1543617500 0.0927920625
0.2143180000 0.1519968125 0.0776038125
0.2511654375 0.1549860000 0.0703959375
0.2853425937 0.1589039375 0.0716121875
0.3147212500 0.1620497500 0.0745007500
0.3399149688 0.1648597187 0.0773478750
0.3622628750 0.1672064375 0.0797231875
0.3825911250 0.1688807813 0.0814995313
0.4022016250 0.1700426875 0.0824323125
0.4216451875 0.1710992500 0.0829215625
0.4410395625 0.1718052500 0.0832936875
0.4603309375 0.1717696250 0.0832936875
0.4795767500 0.1707348125 0.0825388125
0.4992214375 0.1685150313 0.0813367187
0.5190234375 0.1643417500 0.0794638750
0.5399287188 0.1583329062 0.0767966875
0.5625132500 0.1509195000 0.0739340000
0.5870597187 0.1423117188 0.0712956562
0.6133707500 0.1323793125 0.0684943125
0.6434152500 0.1210819375 0.0671281875
0.6805228125 0.1093843750 0.0686266250
0.7221936250 0.0972942813 0.0737997500
0.7658753750 0.0863876875 0.0832755625
0.8097209063 0.0828181875 0.0963087187
0.8566900625 0.1023776250 0.1145568750
0.9144094375 0.1659679688 0.1439038750
0.9799691875 0.2558220000 0.1831854375
0.0414216875 0.1570127812 0.1331437188
0.0459552187 0.1598559375 0.1298525625
0.0543617187 0.1641669375 0.1255155313
0.0851362813 0.1697317500 0.1362759375
0.1131710937 0.1732883750 0.1365215312
0.1357367500 0.1796138438 0.1418301875
0.1680080312 0.1807041562 0.1253719688
0.2079637813 0.1751135313 0.1002228750
0.2478344687 0.1721078437 0.0800429063
0.2823942500 0.1752275938 0.0759217188
0.3142406562 0.1789526563 0.0777268437
0.3419672812 0.1819636562 0.0805712188
0.3658902500 0.1847508438 0.0837222500
0.3873508125 0.1872476875 0.0867321250
0.4075925938 0.1893741250 0.0888807188
0.4272852812 0.1910023437 0.0905832500
0.4469486875 0.1924243438 0.0919559062
0.4662916563 0.1929861875 0.0926917187
0.4855538750 0.1927572187 0.0928220312
0.5050157500 0.1913161562 0.0925572500
0.5247497500 0.1884556250 0.0911397812
0.5456326563 0.1839624375 0.0893446875
0.5679247500 0.1779885938 0.0869355313
0.5925261563 0.1706946562 0.0842712187
0.6190667500 0.1620465625 0.0815332813
0.6496841875 0.1524828125 0.0796218125
0.6854455000 0.1429418437 0.0802753438
0.7246144687 0.1336534375 0.0835549688
0.7664951875 0.1272443750 0.0907108438
0.8102562812 0.1314481875 0.1031505313
0.8590195312 0.1595080000 0.1244271250
0.9174480312 0.2211963750 0.1583594688
0.9798440938 0.2993340625 0.1982790000
0.0438197500 0.1783677500 0.1455177500
0.0480301875 0.1818241563 0.1431439688
0.0608161250 0.1866296875 0.1455539375
0.0874289688 0.1929512813 0.1563898750
0.1189295000 0.1972442500 0.1613483750
0.1417231563 0.2020250312 0.1616896563
0.1676723750 0.2083457500 0.1664800000
0.2057300000 0.2030127500 0.1318475000
0.2434807500 0.1951082500 0.1076970000
0.2783091875 0.1922911563 0.0871035000
0.3099214375 0.1949685625 0.0837000625
0.3392560937 0.1985753437 0.0849569375
0.3657988750 0.2019920000 0.0880020000
0.3896328437 0.2048332500 0.0913594375
0.4116071250 0.2073973750 0.0943285625
0.4326907500 0.2096434688 0.0970496250
0.4529615000 0.2113680000 0.0990147500
0.4730417813 0.2125979375 0.1005639688
0.4927483750 0.2128822500 0.1014402500
0.5125601562 0.2122481562 0.1015602500
0.5327787500 0.2104205000 0.1010275000
0.5538840938 0.2072466562 0.0999202187
0.5766814375 0.2028497500 0.0982350625
0.6013775625 0.1971269375 0.0957415625
0.6288672500 0.1902735000 0.0934007500
0.6601790312 0.1833948437 0.0919240000
0.6945717500 0.1764253750 0.0920801875
0.7314063750 0.1706440625 0.0943414375
0.7710641250 0.1698631250 0.1006936250
0.8143811563 0.1810417187 0.1143743437
0.8641603750 0.2144995000 0.1398010625
0.9211092500 0.2720456875 0.1768479375
0.9798780000 0.3398755000 0.2175267500
0.0447380000 0.2003537812 0.1610915313
0.0492162500 0.2040060000 0.1597451562
0.0663994063 0.2092967500 0.1673511250
0.0916335938 0.2155001250 0.1784007500
0.1226258438 0.2210530000 0.1863151563
0.1466392500 0.2246569688 0.1822986563
0.1725807500 0.2308530000 0.1899268437
0.2062537812 0.2324350312 0.1791195000
0.2405140313 0.2226256250 0.1406080937
0.2751365937 0.2148370938 0.1161433125
0.3060111563 0.2126153437 0.0969566563
0.3351070000 0.2152262188 0.0928800937
0.3621474687 0.2185638437 0.0941261250
0.3878039688 0.2219505312 0.0968677500
0.4118680000 0.2248751875 0.1000105000
0.4345710938 0.2272586875 0.1029557500
0.4564327812 0.2293248438 0.1055597500
0.4779525937 0.2309393750 0.1075545937
0.4991096563 0.2314931250 0.1088375938
0.5201106562 0.2313110938 0.1093022187
0.5413901250 0.2302030625 0.1093022188
0.5636539063 0.2281069063 0.1089500938
0.5873754375 0.2248155313 0.1076565000
0.6131084687 0.2205039062 0.1059419688
0.6420353437 0.2158345937 0.1043532812
0.6736964375 0.2111129063 0.1036713437
0.7072427187 0.2070268437 0.1038115937
0.7427154062 0.2049931875 0.1065413125
0.7808405938 0.2092764687 0.1140942812
0.8233902187 0.2266482188 0.1307696250
0.8720469063 0.2632836250 0.1597875937
0.9253758437 0.3170321250 0.1983901563
0.9797633438 0.3777472500 0.2400475625
0.0464454375 0.2222966875 0.1788498750
0.0537911875 0.2260931562 0.1804560937
0.0721776875 0.2314953125 0.1893525625
0.0952574375 0.2378875313 0.2005605938
0.1243581875 0.2442517500 0.2102264375
0.1521357500 0.2481575625 0.2088923125
0.1772160000 0.2532316875 0.2110865625
0.2052175938 0.2579112813 0.2143577813
0.2416293750 0.2530358125 0.1841450625
0.2720616875 0.2429173438 0.1525235000
0.3035988125 0.2358400625 0.1278051875
0.3316450312 0.2336670312 0.1095653750
0.3581221875 0.2353910625 0.1039871250
0.3838242188 0.2384347187 0.1043031875
0.4088668750 0.2415815000 0.1066030625
0.4328477500 0.2442925625 0.1096336875
0.4562778125 0.2465381250 0.1123286875
0.4793995312 0.2482480937 0.1146343750
0.5023555625 0.2492361875 0.1161763750
0.5253293125 0.2493374687 0.1170416563
0.5488238750 0.2488240625 0.1174751875
0.5732288437 0.2472992813 0.1172515937
0.5989721250 0.2449633750 0.1165816250
0.6270283125 0.2420691875 0.1156874687
0.6573610000 0.2391931875 0.1149828750
0.6892637812 0.2364563125 0.1148713125
0.7223095625 0.2347748750 0.1158765000
0.7568649063 0.2363572812 0.1197966250
0.7940206875 0.2454567500 0.1297142500
0.8351302812 0.2675679375 0.1495816875
0.8808129375 0.3058458750 0.1813311250
0.9294334063 0.3564585000 0.2209361250
0.9791331250 0.4132201250 0.2642281875
0.0496419375 0.2443806562 0.1988996250
0.0588324375 0.2483927188 0.2024245000
0.0760177500 0.2538837812 0.2109628125
0.0986212812 0.2606377188 0.2226855938
0.1270992500 0.2674110312 0.2340046875
0.1570818438 0.2720091250 0.2359529688
0.1821128125 0.2759388125 0.2324728437
0.2085180313 0.2817017500 0.2400947813
0.2405913750 0.2826685625 0.2343646562
0.2730688125 0.2737822187 0.1944940625
0.3009071875 0.2638990000 0.1672829687
0.3296684062 0.2570435313 0.1428057812
0.3554438125 0.2544053750 0.1240130000
0.3803285625 0.2552021562 0.1163500937
0.4049455937 0.2574565625 0.1149628125
0.4294114063 0.2601866875 0.1166420625
0.4535671875 0.2626094688 0.1191401563
0.4777596562 0.2646310625 0.1215939063
0.5024779375 0.2662889063 0.1238630000
0.5277124375 0.2671101250 0.1255810625
0.5539714063 0.2672190000 0.1264876875
0.5814405625 0.2664554375 0.1266865312
0.6106376562 0.2650909375 0.1265751562
0.6412398125 0.2635833125 0.1264637812
0.6728446875 0.2619588438 0.1263520625
0.7050231250 0.2607713750 0.1266906875
0.7378650000 0.2613088125 0.1285217812
0.7719135000 0.2660805000 0.1340014687
0.8080161875 0.2790051562 0.1463418438
0.8470384688 0.3041780937 0.1687914375
0.8889697187 0.3427057812 0.2017790938
0.9329298125 0.3913627812 0.2423745000
0.9778623438 0.4459317812 0.2874947187
0.0542095000 0.2665567500 0.2201025000
0.0634722812 0.2706773437 0.2241638125
0.0799868750 0.2762263750 0.2326571250
0.1017174687 0.2829850312 0.2441793437
0.1297507500 0.2903017500 0.2564093750
0.1608691562 0.2953996562 0.2616324063
0.1876331250 0.2986600000 0.2570662500
0.2136229687 0.3034534688 0.2608382188
0.2412046250 0.3078558750 0.2655373750
0.2758910000 0.3030840312 0.2428020625
0.3019083125 0.2933516875 0.2068043125
0.3277625312 0.2837068125 0.1822006563
0.3542470000 0.2773188750 0.1589737500
0.3784768125 0.2742151250 0.1393712500
0.4020865000 0.2738397500 0.1288302500
0.4260745313 0.2754974375 0.1257100313
0.4503603750 0.2778212500 0.1266052500
0.4752929687 0.2804094062 0.1291680625
0.5013873125 0.2828107500 0.1320605000
0.5288376250 0.2848623125 0.1350731875
0.5580870000 0.2862617500 0.1372215000
0.5890190625 0.2868383750 0.1383945313
0.6213045625 0.2866440000 0.1388648750
0.6539555625 0.2858137188 0.1386653750
0.6866831250 0.2850845000 0.1386653750
0.7195271875 0.2852134687 0.1394242812
0.7524693750 0.2875851250 0.1420436875
0.7861616875 0.2948857812 0.1487736875
0.8211388750 0.3103445000 0.1627200000
0.8578556562 0.3369688750 0.1864080938
0.8961954375 0.3748673125 0.2196631875
0.9357294375 0.4222577500 0.2610983750
0.9758905000 0.4752902500 0.3073196250
0.0586297500 0.2883275000 0.2416697187
0.0681708125 0.2924540313 0.2460786250
0.0841220938 0.2980482812 0.2545139687
0.1057636250 0.3049108125 0.2659705313
0.1334573750 0.3120469687 0.2782563750
0.1652757813 0.3177722500 0.2854179688
0.1938490000 0.3207496250 0.2819720625
0.2195925312 0.3244790312 0.2809620938
0.2457403750 0.3295563750 0.2882610000
0.2767224375 0.3295886875 0.2834084062
0.3065364375 0.3206558750 0.2475039062
0.3292880000 0.3113882188 0.2191406250
0.3533889688 0.3026909063 0.1972358750
0.3782749687 0.2967743125 0.1750378750
0.4015465625 0.2933654688 0.1548922188
0.4247105313 0.2925440625 0.1425862813
0.4487319375 0.2938557500 0.1381790000
0.4740885000 0.2964122813 0.1386391250
0.5014472812 0.2996028750 0.1415446250
0.5313420937 0.3029697500 0.1454937188
0.5634387187 0.3059632813 0.1490682187
0.5968818750 0.3079467500 0.1514512188
0.6309384375 0.3088056875 0.1522792188
0.6650257813 0.3088418438 0.1522792188
0.6987263750 0.3089358437 0.1521908750
0.7320892500 0.3101433438 0.1530255000
0.7653427812 0.3139505312 0.1560988437
0.7987453438 0.3228245937 0.1636523438
0.8325950938 0.3396032187 0.1781077812
0.8670705938 0.3662063125 0.2015009375
0.9021529375 0.4032214375 0.2343685000
0.9376281563 0.4493959375 0.2756006563
0.9732701562 0.5009695312 0.3219446875
0.0640879375 0.3096242500 0.2635479375
0.0728636875 0.3136899063 0.2677186563
0.0885310000 0.3192691875 0.2761481875
0.1108938125 0.3263588125 0.2878545937
0.1389891250 0.3335233750 0.3001242500
0.1712168437 0.3394048438 0.3081110312
0.2008518750 0.3426746250 0.3059108125
0.2265212500 0.3454107188 0.3021529375
0.2525003125 0.3504705625 0.3084400000
0.2789222188 0.3530770625 0.3111296562
0.3114401250 0.3468228750 0.2891278750
0.3343565625 0.3381975937 0.2552426250
0.3561020000 0.3293475625 0.2317646250
0.3788223438 0.3218404062 0.2126824062
0.4028670000 0.3170908125 0.1932911875
0.4262589062 0.3141844688 0.1740732188
0.4502285625 0.3133995625 0.1605243750
0.4764198125 0.3150750000 0.1552277500
0.5054573750 0.3186703125 0.1559895000
0.5372169687 0.3227710625 0.1592455000
0.5707000625 0.3264761875 0.1627883125
0.6052794062 0.3292450000 0.1650358750
0.6401674375 0.3309696875 0.1661748750
0.6749589375 0.3319881875 0.1662333750
0.7091909375 0.3330558750 0.1662918750
0.7430318438 0.3351977187 0.1672035625
0.7763441875 0.3401263750 0.1703340000
0.8094745938 0.3499128750 0.1779054062
0.8422503750 0.3667850000 0.1917660000
0.8747310625 0.3928042812 0.2139422187
0.9068740000 0.4286100000 0.2455171875
0.9385714687 0.4730631562 0.2852193125
0.9699117500 0.5226423750 0.3300042500
0.0681704063 0.3298434062 0.2836998125
0.0772935625 0.3342026875 0.2882631250
0.0939745312 0.3402900313 0.2972443750
0.1171703437 0.3477514687 0.3094867813
0.1461920000 0.3550817187 0.3219027812
0.1787815937 0.3609139062 0.3304211563
0.2083487187 0.3642207813 0.3286428750
0.2346071563 0.3666785938 0.3228994687
0.2609285625 0.3712560938 0.3282804688
0.2855419375 0.3756761562 0.3337276250
0.3168222813 0.3728108125 0.3259174687
0.3431733750 0.3636345313 0.2911685938
0.3628005938 0.3567073125 0.2673567500
0.3830744375 0.3489927187 0.2476047812
0.4049408437 0.3434220000 0.2317704063
0.4299195937 0.3405584375 0.2150750312
0.4558753125 0.3389879062 0.1979980625
0.4834798750 0.3390626562 0.1850194375
0.5133429063 0.3411400312 0.1789829687
0.5455225000 0.3445158437 0.1780194687
0.5793173437 0.3479388438 0.1791003438
0.6141301875 0.3510042187 0.1802045000
0.6492708437 0.3532652813 0.1805607500
0.6842130625 0.3551327500 0.1805515313
0.7185866563 0.3570679687 0.1803328437
0.7525066250 0.3601372500 0.1811757813
0.7858221250 0.3657984375 0.1841643125
0.8184090938 0.3758696563 0.1910445625
0.8501467500 0.3924589375 0.2038047812
0.8807575938 0.4173746250 0.2242395937
0.9101445938 0.4514633750 0.2533701562
0.9384457812 0.4936207500 0.2901143750
0.9659674375 0.5405168125 0.3316969375
0.0707935000 0.3495700000 0.3026595000
0.0815146875 0.3543734063 0.3079286875
0.1000669375 0.3613620000 0.3181682500
0.1254520625 0.3696450937 0.3314056250
0.1559382500 0.3772196250 0.3441203750
0.1894833437 0.3829089062 0.3526755625
0.2193518750 0.3857434375 0.3504395000
0.2464461250 0.3876575937 0.3428012812
0.2739187500 0.3928340000 0.3490537500
0.2972292500 0.3975900313 0.3546571562
0.3229618125 0.3981561875 0.3560536875
0.3536948438 0.3905943750 0.3304230625
0.3727868750 0.3841621250 0.3009173750
0.3910951563 0.3789532812 0.2826214687
0.4115817500 0.3731900625 0.2665166250
0.4351507813 0.3693916875 0.2527262188
0.4629455000 0.3675925000 0.2368900000
0.4922507500 0.3666318750 0.2211890938
0.5229057500 0.3668487500 0.2090731875
0.5550781875 0.3684690938 0.2019969375
0.5887703750 0.3709621250 0.1987725000
0.6233547187 0.3735324063 0.1972272500
0.6582458125 0.3760423750 0.1961290625
0.6928571562 0.3783690000 0.1951522813
0.7271582500 0.3809937500 0.1944670000
0.7608754375 0.3847627813 0.1948948125
0.7937975000 0.3908448125 0.1974305625
0.8257424063 0.4009435937 0.2034230938
0.8563048750 0.4169545000 0.2145642500
0.8851041250 0.4405746250 0.2327661562
0.9120511250 0.4724520000 0.2585868750
0.9372967188 0.5116461562 0.2913982813
0.9615975000 0.5553030000 0.3284660000
0.0732640000 0.3691315937 0.3197348750
0.0835162500 0.3742432187 0.3248930625
0.1070005313 0.3835489063 0.3376736250
0.1354453438 0.3928149687 0.3520637812
0.1679853125 0.4006588750 0.3650384375
0.2033518437 0.4064248437 0.3738033438
0.2342679062 0.4094451875 0.3713178750
0.2607452500 0.4112604375 0.3623437500
0.2877195312 0.4166477187 0.3687564375
0.3092015000 0.4225568438 0.3751285938
0.3304894063 0.4261650625 0.3801895000
0.3617242813 0.4216270000 0.3683817500
0.3837023125 0.4145220937 0.3355508125
0.4014532813 0.4096625625 0.3130859375
0.4206814687 0.4044951250 0.2960950000
0.4433130625 0.3993146250 0.2825245312
0.4702487813 0.3964560313 0.2693195313
0.5009781562 0.3950642500 0.2537984375
0.5326665625 0.3943262813 0.2398195625
0.5652003437 0.3944764687 0.2289811562
0.5985692500 0.3956328125 0.2214552188
0.6326174062 0.3973875937 0.2165995000
0.6669499375 0.3995270625 0.2130746875
0.7011656562 0.4019110625 0.2105365312
0.7349142500 0.4048338125 0.2088778125
0.7681033750 0.4090174688 0.2085095625
0.8003445312 0.4153385313 0.2102310937
0.8314110000 0.4252812812 0.2151985000
0.8606818438 0.4405280000 0.2247190312
0.8878233125 0.4625872812 0.2401738438
0.9126540625 0.4920366250 0.2624634375
0.9354006875 0.5280223438 0.2906333125
0.9570375625 0.5678647187 0.3225220000
0.0844603750 0.3948906875 0.3386946875
0.0911911875 0.3979883438 0.3423035937
0.1135238750 0.4069635625 0.3542775000
0.1461735625 0.4176251562 0.3706842187
0.1813501875 0.4261435625 0.3848819375
0.2171685313 0.4323812812 0.3945044063
0.2478324375 0.4359817500 0.3931417500
0.2738079375 0.4381046563 0.3841916250
0.2983575625 0.4435436250 0.3897786875
0.3192078125 0.4504193125 0.3981213125
0.3381432500 0.4554021875 0.4042681875
0.3636502500 0.4551571875 0.4052669375
0.3940965625 0.4472962500 0.3773368750
0.4134908438 0.4405812813 0.3427810937
0.4326468750 0.4357505625 0.3237506875
0.4542292500 0.4304414375 0.3080025625
