bundles/resolve-cinematic-luts/Gamut/Immersion 2.0/Distant Teal +.cube
TITLE "Immersion 2.0 - Distant Teal + by Gamut"
# Contributor - Sam Newton. Version 2.0 - 06/24/2025 - Designed for Rec.709 Color Space. Copyright 2025 Gamut, LLC.
LUT_3D_SIZE 33
0.0000000000 0.0000000000 0.0000000000
0.0078300000 0.0031063813 0.0038661506
0.0209640000 0.0047222612 0.0070859292
0.0373930000 0.0055678148 0.0079829970
0.0491310000 0.0063622139 0.0094801236
0.0702300000 0.0055678148 0.0102533537
0.0927720000 0.0049208610 0.0111776053
0.1190730000 0.0041505346 0.0125992211
0.1449650000 0.0033802082 0.0139715032
0.1720080000 0.0026088788 0.0157424821
0.2018010000 0.0010431503 0.0178638310
0.2336830000 0.0000000000 0.0215306332
0.2659640000 0.0000000000 0.0262465315
0.2982400000 0.0000000000 0.0309624299
0.3296460000 0.0000000000 0.0364757218
0.3588250000 0.0000000000 0.0403730835
0.3869190000 0.0003971995 0.0441244578
0.4133120000 0.0031314570 0.0466273877
0.4385640000 0.0047714097 0.0490980995
0.4631870000 0.0044484343 0.0520712097
0.4869050000 0.0028827058 0.0555346363
0.5092330000 0.0013169773 0.0592195611
0.5322080000 0.0007943991 0.0629276426
0.5550940000 0.0005717266 0.0668501746
0.5790490000 0.0000000000 0.0712700708
0.6056770000 0.0000000000 0.0769655953
0.6355710000 0.0000000000 0.0823097431
0.6700600000 0.0000000000 0.0887603752
0.7102520000 0.0000000000 0.0968581485
0.7588020000 0.0000000000 0.1059476298
0.8147950000 0.0000000000 0.1155072913
0.8888770000 0.0000000000 0.1273775820
1.0000000000 0.0023852033 0.1888725338
0.0039640000 0.0078035668 0.0070355887
0.0116710000 0.0101406247 0.0070355887
0.0256480000 0.0140674838 0.0086575597
0.0396130000 0.0164045417 0.0093804494
0.0541040000 0.0181197216 0.0093804494
0.0757620000 0.0188890449 0.0072601074
0.1012050000 0.0195109230 0.0028684019
0.1276230000 0.0193865474 0.0007973936
0.1568940000 0.0185660695 0.0000000000
0.1855960000 0.0185419968 0.0000000000
0.2200630000 0.0158819635 0.0000000000
0.2550800000 0.0089229473 0.0000000000
0.2899680000 0.0012427531 0.0050894249
0.3215630000 0.0027583302 0.0094046128
0.3506160000 0.0042749102 0.0128730735
0.3786530000 0.0053932877 0.0157173119
0.4048990000 0.0065858894 0.0192602765
0.4303830000 0.0066611166 0.0231274340
0.4539640000 0.0043992858 0.0273691248
0.4772570000 0.0020873037 0.0324806995
0.4994910000 0.0004964994 0.0368834799
0.5207700000 0.0000000000 0.0400106319
0.5427280000 0.0000000000 0.0440278041
0.5650810000 0.0000000000 0.0489893641
0.5889990000 0.0000000000 0.0531847416
0.6154130000 0.0000000000 0.0583708202
0.6454950000 0.0000000000 0.0648919290
0.6791770000 0.0000000000 0.0714855281
0.7176190000 0.0000000000 0.0791554072
0.7658680000 0.0000000000 0.0879690225
0.8257280000 0.0000250757 0.0956972965
0.8913810000 0.0041254589 0.1126499644
1.0000000000 0.0234638609 0.1676177666
0.0085740000 0.0187405966 0.0164663786
0.0156110000 0.0218229052 0.0180380091
0.0249290000 0.0226674557 0.0157173119
0.0405330000 0.0258500672 0.0126495616
0.0631350000 0.0297267749 0.0150185857
0.0886430000 0.0305964011 0.0127985695
0.1102650000 0.0327097835 0.0125740509
0.1339980000 0.0344500391 0.0118501544
0.1599700000 0.0371832935 0.0123747025
0.1879510000 0.0394120243 0.0100540053
0.2205540000 0.0416237036 0.0053391138
0.2523030000 0.0474212121 0.0035167876
0.2825700000 0.0542207467 0.0037916467
0.3124700000 0.0597624827 0.0045407134
0.3408540000 0.0642570563 0.0050390844
0.3673380000 0.0673193043 0.0049152467
0.3918730000 0.0682190214 0.0045900471
0.4166220000 0.0660584967 0.0042155137
0.4432730000 0.0591325804 0.0038419872
0.4696810000 0.0514754559 0.0031432610
0.4963980000 0.0420509940 0.0034926241
0.5236600000 0.0273907200 0.0037413062
0.5494580000 0.0099911733 0.0097801530
0.5719480000 0.0072819916 0.0162911936
0.5958490000 0.0055668118 0.0212064404
0.6229090000 0.0026339545 0.0273842269
0.6518230000 0.0005466509 0.0353209106
0.6835210000 0.0000000000 0.0439210822
0.7212530000 0.0000000000 0.0525504513
0.7761420000 0.0000000000 0.0635347490
0.8268030000 0.0009438504 0.0747123544
0.8970090000 0.0130494092 0.1040961061
0.9973650000 0.0731027704 0.1634989066
0.0103080000 0.0304971012 0.0267700728
0.0179900000 0.0327840077 0.0296394815
0.0258710000 0.0352193625 0.0290162660
0.0404590000 0.0367118698 0.0242993609
0.0681120000 0.0397580694 0.0174892976
0.0983310000 0.0459888864 0.0195351357
0.1240160000 0.0506670144 0.0195844694
0.1478770000 0.0556901844 0.0204583805
0.1693130000 0.0613121627 0.0211319364
0.1948930000 0.0651487492 0.0203838765
0.2219730000 0.0683875303 0.0184125424
0.2496240000 0.0713264057 0.0152682746
0.2782750000 0.0737276575 0.0125488806
0.3049580000 0.0772533050 0.0093804494
0.3301230000 0.0813747518 0.0086323895
0.3542360000 0.0846065117 0.0082075156
0.3773820000 0.0866246063 0.0079084930
0.3999700000 0.0862795643 0.0075339597
0.4235720000 0.0854641016 0.0070355887
0.4484400000 0.0833737888 0.0059129955
0.4742380000 0.0796505446 0.0044158689
0.5007750000 0.0744418143 0.0035671281
0.5277140000 0.0673664467 0.0020700015
0.5572070000 0.0586160204 0.0008729043
0.5909920000 0.0474272302 0.0011467567
0.6288080000 0.0325603322 0.0028935721
0.6656330000 0.0171247166 0.0066358851
0.7006750000 0.0040261590 0.0127240656
0.7318490000 0.0006208750 0.0226532264
0.7858690000 0.0000000000 0.0511348763
0.8377440000 0.0027081787 0.0718791908
0.9012390000 0.0276665530 0.1022768003
0.9907980000 0.1442325824 0.1584799584
0.0117950000 0.0414000281 0.0383222114
0.0150910000 0.0450560693 0.0370747738
0.0260690000 0.0489989769 0.0380221820
0.0340230000 0.0533721840 0.0406851947
0.0643570000 0.0569770708 0.0293404589
0.0964270000 0.0605649060 0.0170654306
0.1217240000 0.0672310377 0.0186118908
0.1483530000 0.0743665871 0.0214057888
0.1775440000 0.0794840418 0.0237516562
0.2052790000 0.0835503220 0.0244242053
0.2305500000 0.0868482818 0.0245490498
0.2569220000 0.0891251580 0.0230277598
0.2841800000 0.0908413408 0.0208580841
0.3105120000 0.0922796846 0.0189854174
0.3348240000 0.0931723806 0.0181125130
0.3567140000 0.0943880519 0.0168650754
0.3774280000 0.0953609902 0.0166657270
0.3974690000 0.0957742382 0.0169405861
0.4182670000 0.0957742382 0.0176141421
0.4403650000 0.0945555578 0.0181870170
0.4648770000 0.0924692572 0.0192612833
0.4917120000 0.0884140103 0.0193357873
0.5199330000 0.0836105037 0.0199086622
0.5518560000 0.0766494814 0.0204835507
0.5883260000 0.0666723505 0.0218548260
0.6308590000 0.0540642741 0.0256474796
0.6766130000 0.0406557805 0.0338308317
0.7184410000 0.0266203936 0.0440469335
0.7582350000 0.0139190355 0.0552013821
0.8011150000 0.0072569159 0.0694104926
0.8464290000 0.0103893759 0.0863702081
0.9047290000 0.0484463078 0.1129318712
0.9871250000 0.2019127766 0.1615940220
0.0105560000 0.0564364380 0.0498612616
0.0112500000 0.0636472146 0.0476523203
0.0241600000 0.0695018957 0.0573801191
0.0355600000 0.0745581657 0.0562071854
0.0651170000 0.0794449237 0.0553836148
0.0930360000 0.0804589861 0.0416477051
0.1227060000 0.0824389657 0.0283417033
0.1476210000 0.0874330478 0.0195603059
0.1797270000 0.0940761099 0.0249487534
0.2118770000 0.0985947562 0.0268949172
0.2408550000 0.1021464824 0.0275684732
0.2668420000 0.1058637084 0.0288914216
0.2916280000 0.1077704668 0.0297139854
0.3168380000 0.1096070132 0.0302626969
0.3405030000 0.1103733274 0.0312614525
0.3624600000 0.1114866898 0.0321595270
0.3831590000 0.1124907220 0.0333566242
0.4027570000 0.1135890389 0.0356028175
0.4230400000 0.1145649863 0.0379728483
0.4444630000 0.1149962888 0.0401747420
0.4676030000 0.1142460230 0.0419578026
0.4925550000 0.1125318462 0.0435264127
0.5200000000 0.1091566531 0.0442644044
0.5511340000 0.1037814199 0.0449963553
0.5873340000 0.0955836627 0.0458994640
0.6283340000 0.0845724087 0.0475848640
0.6734220000 0.0721930229 0.0522796193
0.7202720000 0.0586782082 0.0615311970
0.7650010000 0.0444512428 0.0740367848
0.8087150000 0.0330819074 0.0884955841
0.8519430000 0.0328572288 0.1046800559
0.9075740000 0.0815743546 0.1276806318
0.9878830000 0.2506539750 0.1688138569
0.0103080000 0.0773576200 0.0702159406
0.0086980000 0.0831049770 0.0619661390
0.0248300000 0.0911171739 0.0758430021
0.0445060000 0.0954071295 0.0707576044
0.0652980000 0.1008997171 0.0760242279
0.0922510000 0.1020903127 0.0594380389
0.1196820000 0.1021575157 0.0493840336
0.1509900000 0.1017944191 0.0301569818
0.1811120000 0.1066601135 0.0246497308
0.2137710000 0.1124646432 0.0289407553
0.2471270000 0.1166472748 0.0311366080
0.2761470000 0.1204938916 0.0333314540
0.3012250000 0.1251499529 0.0381218562
0.3251210000 0.1282784008 0.0421058037
0.3469930000 0.1303827559 0.0444929503
0.3689040000 0.1326034625 0.0468831174
0.3897450000 0.1342935666 0.0493659110
0.4104210000 0.1368051516 0.0524356749
0.4313130000 0.1390358884 0.0556554535
0.4531050000 0.1405624987 0.0586225227
0.4759740000 0.1410690285 0.0602877866
0.5004680000 0.1397099240 0.0618453218
0.5275980000 0.1368432667 0.0624171899
0.5586630000 0.1320608237 0.0628249479
0.5937300000 0.1248400169 0.0629437515
0.6321420000 0.1157726334 0.0636505322
0.6737890000 0.1051956910 0.0663417355
0.7185130000 0.0936247467 0.0720120898
0.7656090000 0.0816084575 0.0832450697
0.8107840000 0.0717707477 0.0974431052
0.8543880000 0.0791339846 0.1127637339
0.9100390000 0.1410620073 0.1355649614
0.9903210000 0.2931422897 0.1802431648
0.0090690000 0.0982065839 0.0865242500
0.0073350000 0.1044333888 0.0777821182
0.0276300000 0.1123222131 0.0896010616
0.0523530000 0.1167796746 0.0909250168
0.0696680000 0.1207566852 0.0902111885
0.0906560000 0.1270476840 0.0949643388
0.1201020000 0.1249914743 0.0686553850
0.1520690000 0.1213785633 0.0528625624
0.1838630000 0.1192150294 0.0248732426
0.2158660000 0.1252001043 0.0296143112
0.2510320000 0.1312102550 0.0342053651
0.2824450000 0.1361622099 0.0385708935
0.3108940000 0.1407801561 0.0445060388
0.3348010000 0.1460029288 0.0513956401
0.3568270000 0.1501715180 0.0558678904
0.3781420000 0.1539278621 0.0599988321
0.3996130000 0.1575708640 0.0642234071
0.4213260000 0.1613974202 0.0683865667
0.4429180000 0.1648779314 0.0719617493
0.4646140000 0.1677967462 0.0752016641
0.4873050000 0.1692962747 0.0776874781
0.5115910000 0.1690324781 0.0786600566
0.5391770000 0.1670715561 0.0789852563
0.5702970000 0.1628177095 0.0788503437
0.6048190000 0.1565226985 0.0781163792
0.6413620000 0.1485566411 0.0778435337
0.6798790000 0.1398663965 0.0786399204
0.7209450000 0.1305492588 0.0818405696
0.7649180000 0.1218770687 0.0880968873
0.8081870000 0.1212301149 0.0984106496
0.8518290000 0.1408533772 0.1127627271
0.9110880000 0.2064745532 0.1429630017
0.9927710000 0.3318461754 0.1974505556
0.0071370000 0.1203043190 0.1044857416
0.0070870000 0.1268641297 0.0949311141
0.0324620000 0.1350588778 0.1075857097
0.0595830000 0.1404150535 0.1157922186
0.0760660000 0.1427280387 0.1078182829
0.0973210000 0.1482848202 0.1156613333
0.1262160000 0.1512367349 0.1113864177
0.1564510000 0.1454101386 0.0791896387
0.1893540000 0.1394391061 0.0553000495
0.2190300000 0.1392565548 0.0299636743
0.2546040000 0.1467702461 0.0388125279
0.2869680000 0.1532167145 0.0454463994
0.3172460000 0.1588216414 0.0524658792
0.3439730000 0.1637414993 0.0582137579
0.3673540000 0.1692090112 0.0644036261
0.3900670000 0.1748821441 0.0705149632
0.4125110000 0.1797618809 0.0757584300
0.4343690000 0.1843547513 0.0804924509
0.4555920000 0.1890820277 0.0848861701
0.4773450000 0.1931633533 0.0887110415
0.5003780000 0.1958474593 0.0914505717
0.5256560000 0.1967130735 0.0930121341
0.5538770000 0.1958023230 0.0934380147
0.5852100000 0.1928594355 0.0928943373
0.6191010000 0.1881000622 0.0920496237
0.6538840000 0.1823998475 0.0911988692
0.6899680000 0.1761208851 0.0910518749
0.7277040000 0.1696653895 0.0921482910
0.7674850000 0.1658739393 0.0959630944
0.8082600000 0.1715340328 0.1045330616
0.8541140000 0.1976940360 0.1221099517
0.9164160000 0.2637404963 0.1610835693
0.9941190000 0.3691377961 0.2212455046
0.0077060000 0.1422425726 0.1227865281
0.0078790000 0.1489468194 0.1152042415
0.0366250000 0.1572850007 0.1293368343
0.0648910000 0.1635659692 0.1411718866
0.0858860000 0.1661166724 0.1359958761
0.1051200000 0.1705249855 0.1375433432
0.1289950000 0.1766705450 0.1431240914
0.1641210000 0.1743395053 0.1173990874
0.1928160000 0.1668900078 0.0913790882
0.2265830000 0.1604014123 0.0581513356
0.2577500000 0.1630795001 0.0445281887
0.2894630000 0.1706072338 0.0520138215
0.3199100000 0.1778300467 0.0587473672
0.3479610000 0.1838773095 0.0657074452
0.3742720000 0.1894712030 0.0715499640
0.3993360000 0.1947491424 0.0772887813
0.4230240000 0.2008355233 0.0834575066
0.4455710000 0.2067403559 0.0897621512
0.4677160000 0.2119099681 0.0947599563
0.4909020000 0.2163744508 0.0986965837
0.5155920000 0.2194908624 0.1018166881
0.5421440000 0.2208389336 0.1038756147
0.5711990000 0.2204878734 0.1046579061
0.6026520000 0.2184838211 0.1045511842
0.6356640000 0.2154255853 0.1037920494
0.6694300000 0.2114886959 0.1033037465
0.7042120000 0.2073542097 0.1029986831
0.7400550000 0.2039980742 0.1039531390
0.7773910000 0.2042006861 0.1073309868
0.8174310000 0.2150313948 0.1172228957
0.8643660000 0.2468705491 0.1404792013
0.9249790000 0.3135178238 0.1873532574
0.9942760000 0.4063561957 0.2514900789
0.0090190000 0.1662901964 0.1463992445
0.0111010000 0.1734237397 0.1399365307
0.0400980000 0.1811430520 0.1512963686
0.0664140000 0.1880087865 0.1639741210
0.0938700000 0.1934100985 0.1705828222
0.1130710000 0.1975375634 0.1617279277
0.1366460000 0.2049830488 0.1715513735
0.1660700000 0.2094806315 0.1743362101
0.2011390000 0.2037533351 0.1358106231
0.2315700000 0.1952085298 0.1095580507
0.2631600000 0.1876918293 0.0731648873
0.2910590000 0.1897951814 0.0572603087
0.3201310000 0.1973289334 0.0640069430
0.3485700000 0.2045346948 0.0714130378
0.3764390000 0.2110172722 0.0785623960
0.4027360000 0.2170715561 0.0850241030
0.4278150000 0.2223314410 0.0913357953
0.4521860000 0.2276916287 0.0969588295
0.4770260000 0.2327268350 0.1022737798
0.5031270000 0.2373758751 0.1072836667
0.5304490000 0.2405935926 0.1107762908
0.5595870000 0.2422225120 0.1131312196
0.5901770000 0.2422897149 0.1145417605
0.6218350000 0.2410369315 0.1150240225
0.6545420000 0.2389827278 0.1146726458
0.6877690000 0.2365644246 0.1144823587
0.7216770000 0.2342674878 0.1142699218
0.7562440000 0.2334921463 0.1157146942
0.7922560000 0.2374059660 0.1204074359
0.8318360000 0.2531956509 0.1336137635
0.8781830000 0.2905223776 0.1634223890
0.9336860000 0.3580272423 0.2174377489
0.9933410000 0.4436889406 0.2857286687
0.0118700000 0.1912174768 0.1688692315
0.0157110000 0.1980440932 0.1629934880
0.0437520000 0.2063140685 0.1737280968
0.0705420000 0.2148839495 0.1897806765
0.0973630000 0.2230997613 0.2028158464
0.1218670000 0.2286565428 0.2002645897
0.1437240000 0.2342253606 0.1998306545
0.1685970000 0.2417400550 0.2087157534
0.2099200000 0.2412997252 0.1967246455
0.2393930000 0.2340247548 0.1588414033
0.2681660000 0.2238279604 0.1288918243
0.2969790000 0.2161818692 0.0909954935
0.3216760000 0.2171166924 0.0721661317
0.3492210000 0.2236343758 0.0771659505
0.3769580000 0.2306284981 0.0845005618
0.4034810000 0.2369967301 0.0920466032
0.4294150000 0.2431523200 0.0993238264
0.4552380000 0.2487522317 0.1063372653
0.4825370000 0.2542217497 0.1129016669
0.5117000000 0.2587434051 0.1182458147
0.5425720000 0.2618899075 0.1218220040
0.5748110000 0.2632740877 0.1238809306
0.6076360000 0.2635258481 0.1251807224
0.6404820000 0.2627725732 0.1258331353
0.6735450000 0.2614194869 0.1257445360
0.7067550000 0.2599841521 0.1256297597
0.7400640000 0.2592780196 0.1260717493
0.7740580000 0.2607163634 0.1279887157
0.8095930000 0.2679070794 0.1343497417
0.8485010000 0.2879094866 0.1512852937
0.8924920000 0.3295392084 0.1871539090
0.9409980000 0.3971443760 0.2465345598
0.9913470000 0.4797037052 0.3195605073
0.0165530000 0.2186643664 0.1944583160
0.0206170000 0.2265421573 0.1897806765
0.0488490000 0.2355232803 0.2015784768
0.0733770000 0.2443860459 0.2176129339
0.0998170000 0.2542558527 0.2344850569
0.1286470000 0.2613813717 0.2404342976
0.1531880000 0.2646843467 0.2297822471
0.1829490000 0.2715069510 0.2402601194
0.2135050000 0.2776244258 0.2464379060
0.2519060000 0.2718198961 0.2173068636
0.2771320000 0.2631788000 0.1816124265
0.3028960000 0.2537623623 0.1541597365
0.3300160000 0.2465545949 0.1193764624
0.3536100000 0.2451453389 0.0936011180
0.3796460000 0.2502256816 0.0944196545
0.4052830000 0.2564986259 0.1011260164
0.4312990000 0.2630243335 0.1093677636
0.4583390000 0.2692611687 0.1172228957
0.4875580000 0.2753174587 0.1248353866
0.5189840000 0.2806034223 0.1313997882
0.5520890000 0.2845904632 0.1363301370
0.5863350000 0.2865182852 0.1385682758
0.6211740000 0.2864149732 0.1386649296
0.6560230000 0.2855242833 0.1381242726
0.6904230000 0.2845613754 0.1379430468
0.7242790000 0.2839405003 0.1378252500
0.7577640000 0.2842484303 0.1383457708
0.7918010000 0.2873096752 0.1407258698
0.8271680000 0.2969397581 0.1485820087
0.8649670000 0.3198790347 0.1684665075
0.9050520000 0.3640444141 0.2084368670
0.9464960000 0.4309946037 0.2708953361
0.9883780000 0.5123382615 0.3479434898
0.0247060000 0.2477812995 0.2203283006
0.0309010000 0.2559971113 0.2178434934
0.0553850000 0.2646693013 0.2298144650
0.0779070000 0.2741589601 0.2470369580
0.1083570000 0.2841732031 0.2636624126
0.1444310000 0.2919206002 0.2747604799
0.1711180000 0.2949156452 0.2659277352
0.1976440000 0.2998505487 0.2687457966
0.2233150000 0.3063311200 0.2754209473
0.2582100000 0.3076300427 0.2746235537
0.2879840000 0.2989618648 0.2324885526
0.3116990000 0.2909887861 0.2042666597
0.3374070000 0.2828512107 0.1807797945
0.3649200000 0.2777979498 0.1546782436
0.3866110000 0.2748119320 0.1254022206
0.4096730000 0.2775522077 0.1176950896
0.4352710000 0.2832704768 0.1219559098
0.4629320000 0.2897059119 0.1289844508
0.4931950000 0.2960671227 0.1367902492
0.5257970000 0.3017753616 0.1440251864
0.5605460000 0.3064825774 0.1495908324
0.5964220000 0.3096290798 0.1532002465
0.6327500000 0.3108547814 0.1542825673
0.6690890000 0.3102639973 0.1533220705
0.7048000000 0.3092228530 0.1519538156
0.7394240000 0.3088286626 0.1514483970
0.7735600000 0.3098858553 0.1517655421
0.8080620000 0.3140143233 0.1543439827
0.8433670000 0.3251760316 0.1629723449
0.8793500000 0.3496489398 0.1842291258
0.9152350000 0.3941252583 0.2252828129
0.9502980000 0.4598818432 0.2883453681
0.9843090000 0.5399747237 0.3667939946
0.0351880000 0.2781841160 0.2474386752
0.0416850000 0.2861441553 0.2477809906
0.0641310000 0.2948785332 0.2597821666
0.0896350000 0.3053932877 0.2780557692
0.1214960000 0.3151136432 0.2939019528
0.1565280000 0.3229322554 0.3057380119
0.1837150000 0.3262743485 0.3003616462
0.2088680000 0.3297358021 0.2947325711
0.2366290000 0.3366958214 0.3036549219
0.2630910000 0.3413328251 0.3086638020
0.3007880000 0.3338582519 0.2824706314
0.3238450000 0.3273205079 0.2503533903
0.3472620000 0.3192049991 0.2248659936
0.3702340000 0.3126441854 0.2070323669
0.3961680000 0.3094375013 0.1883197951
0.4190160000 0.3068175891 0.1633498987
0.4423590000 0.3070553070 0.1464566327
0.4700110000 0.3113562960 0.1452615491
0.5007750000 0.3170364501 0.1504657503
0.5342610000 0.3229051736 0.1571419079
0.5697420000 0.3280075829 0.1630639647
0.6064760000 0.3318732572 0.1671294637
0.6437770000 0.3341300728 0.1690937501
0.6808250000 0.3349194568 0.1690796548
0.7170200000 0.3347328933 0.1679651160
0.7523460000 0.3348231660 0.1667186852
0.7872370000 0.3364741519 0.1666441812
0.8221010000 0.3413448615 0.1689296401
0.8570650000 0.3532116993 0.1774603418
0.8910240000 0.3777718711 0.1980274577
0.9230560000 0.4209934001 0.2374178946
0.9522130000 0.4844570603 0.2980258468
0.9793060000 0.5615930109 0.3737218546
0.0457680000 0.3084916448 0.2743849397
0.0540480000 0.3167144777 0.2769583463
0.0769040000 0.3260085458 0.2897790656
0.1032050000 0.3362033341 0.3062826962
0.1342580000 0.3455806536 0.3212358392
0.1690280000 0.3529950450 0.3330245782
0.1971320000 0.3563672290 0.3296779416
0.2241270000 0.3586972657 0.3198685912
0.2527450000 0.3645328893 0.3285221236
0.2771260000 0.3700345042 0.3338350603
0.3129850000 0.3679873217 0.3287486559
0.3390050000 0.3597243676 0.2901817896
0.3593010000 0.3544353949 0.2685071826
0.3800260000 0.3476188088 0.2482280143
0.4011690000 0.3427400750 0.2344558594
0.4274350000 0.3405875745 0.2195389615
0.4539470000 0.3385664707 0.1995598226
0.4809360000 0.3373638388 0.1791376873
0.5110480000 0.3399295874 0.1720074584
0.5443820000 0.3445996911 0.1739526155
0.5799950000 0.3495366005 0.1778751475
0.6169620000 0.3536851291 0.1813345469
0.6545070000 0.3568366467 0.1832374179
0.6917300000 0.3588216414 0.1837619659
0.7280730000 0.3601215671 0.1831629139
0.7637080000 0.3614626171 0.1824017655
0.7989510000 0.3639100082 0.1822034240
0.8338690000 0.3693965777 0.1842512756
0.8679010000 0.3813617124 0.1917510038
0.8998260000 0.4051635941 0.2103679287
0.9282120000 0.4459918955 0.2459204056
0.9523390000 0.5054303998 0.3007472544
0.9734130000 0.5773154928 0.3690774398
0.0563050000 0.3392445184 0.2985967081
0.0684630000 0.3476258300 0.3035039004
0.0919750000 0.3565176834 0.3167716434
0.1182620000 0.3663192842 0.3324970098
0.1494080000 0.3749262774 0.3465953711
0.1853630000 0.3813366366 0.3571930538
0.2158800000 0.3843768180 0.3540588541
0.2434890000 0.3859285041 0.3424724839
0.2724880000 0.3918784730 0.3513575827
0.2961230000 0.3979718751 0.3565205047
0.3209070000 0.3997291821 0.3615273711
0.3540230000 0.3915605127 0.3341914711
0.3725680000 0.3857509679 0.3036096154
0.3906100000 0.3811761520 0.2863498705
0.4109930000 0.3751268832 0.2702419163
0.4335700000 0.3713956148 0.2588850988
0.4622770000 0.3699151437 0.2453314217
0.4927270000 0.3683253425 0.2269742539
0.5233570000 0.3671528015 0.2079485641
0.5558850000 0.3685490180 0.1973458473
0.5911320000 0.3722060623 0.1957409921
0.6278750000 0.3761399426 0.1965001269
0.6650720000 0.3796304841 0.1972179824
0.7019250000 0.3825513049 0.1975099574
0.7381250000 0.3851120384 0.1973136294
0.7736720000 0.3877279384 0.1970558860
0.8088080000 0.3913288130 0.1972673161
0.8431900000 0.3975114847 0.1991430033
0.8760420000 0.4095759193 0.2057728475
0.9057880000 0.4320357480 0.2215123093
0.9308080000 0.4696854501 0.2516270051
0.9507000000 0.5235762001 0.2979050296
0.9670390000 0.5884661678 0.3555610147
0.0703010000 0.3690705932 0.3209488983
0.0849110000 0.3769383538 0.3282482713
0.1079260000 0.3855774439 0.3417767781
0.1346980000 0.3947852515 0.3561449645
0.1670360000 0.4025376637 0.3692294681
0.2055000000 0.4086280567 0.3795744415
0.2357800000 0.4112098538 0.3753911457
0.2615070000 0.4125338522 0.3627284955
0.2895930000 0.4185058878 0.3718924807
0.3104640000 0.4246494413 0.3781185942
0.3303010000 0.4291660816 0.3846316485
0.3637740000 0.4243334871 0.3737691747
0.3848150000 0.4173604285 0.3383979236
0.4021630000 0.4128949427 0.3168823925
0.4211690000 0.4080142029 0.2997666214
0.4437940000 0.4024193063 0.2869791268
0.4696570000 0.3995676944 0.2766824803
0.5018210000 0.3982948504 0.2623263756
0.5351170000 0.3967190917 0.2451713389
0.5684550000 0.3957712291 0.2282428345
0.6029570000 0.3969146823 0.2178706773
0.6390810000 0.3997532548 0.2140105675
0.6755120000 0.4030913358 0.2120462810
0.7116130000 0.4064625168 0.2109639602
0.7472530000 0.4098076190 0.2104827050
0.7823380000 0.4135178238 0.2104827050
0.8167290000 0.4181227306 0.2110515527
0.8501250000 0.4251278862 0.2129534169
0.8813950000 0.4370910149 0.2185059744
0.9089670000 0.4581666633 0.2313901228
0.9311720000 0.4921422697 0.2555223532
0.9478060000 0.5399356055 0.2922618592
0.9606650000 0.5970721579 0.3382549565
0.0856960000 0.3976047664 0.3425228244
0.1025910000 0.4057182692 0.3517069458
0.1251030000 0.4143132259 0.3645618967
0.1531310000 0.4229974523 0.3782887451
0.1882060000 0.4305923890 0.3919662598
0.2251350000 0.4366476760 0.4027733590
0.2533150000 0.4394290758 0.3982900338
0.2778340000 0.4408142591 0.3847836768
0.3022390000 0.4470601216 0.3944742236
0.3220710000 0.4546430219 0.4034217447
0.3398480000 0.4599109310 0.4094565642
0.3652030000 0.4603592850 0.4142066941
0.3976940000 0.4512838773 0.3824962043
0.4159910000 0.4447902666 0.3450398495
0.4353850000 0.4405123473 0.3279301193
0.4569350000 0.4350638930 0.3110056422
