bundles/resolve-cinematic-luts/Gamut/Immersion 2.0/Distant Teal +.cube
TITLE "Immersion 2.0 - Distant Teal + by Gamut"
# Contributor - Sam Newton. Version 2.0 - 06/24/2025 - Designed for Rec.709 Color Space. Copyright 2025 Gamut, LLC.
LUT_3D_SIZE 5
0.0000000000 0.0000000000 0.0000000000
0.1449650000 0.0033802082 0.0139715032
0.3869190000 0.0003971995 0.0441244578
0.5790490000 0.0000000000 0.0712700708
1.0000000000 0.0023852033 0.1888725338
0.0071370000 0.1203043190 0.1044857416
0.1893540000 0.1394391061 0.0553000495
0.4125110000 0.1797618809 0.0757584300
0.6191010000 0.1881000622 0.0920496237
0.9941190000 0.3691377961 0.2212455046
0.0563050000 0.3392445184 0.2985967081
0.2724880000 0.3918784730 0.3513575827
0.4622770000 0.3699151437 0.2453314217
0.7381250000 0.3851120384 0.1973136294
0.9670390000 0.5884661678 0.3555610147
0.1672400000 0.5958183715 0.5112148573
0.3724580000 0.6431603442 0.5721077367
0.5717620000 0.6323878112 0.5104295454
0.7731320000 0.5896487392 0.3582270478
0.9278670000 0.6936678770 0.4038133938
0.5479390000 0.9061947080 0.7083875333
0.6196440000 0.9022588216 0.6739475814
0.6750500000 0.9048065157 0.6868730090
0.7482160000 0.9015306225 0.6682359480
0.8456100000 0.8888463159 0.5682647427
0.0120920000 0.0665971233 0.1455434559
0.1899990000 0.0598056130 0.1569375254
0.4449060000 0.0649832494 0.0979233536
0.6575310000 0.0468494854 0.1161214455
1.0000000000 0.2649300889 0.4794278500
0.0101100000 0.1639902506 0.2078982236
0.2172334000 0.2306207747 0.2435872240
0.4950292000 0.2294643824 0.1986795686
0.7739383000 0.1975670525 0.1953449130
1.0000000000 0.4939136191 0.5061093235
0.0780000000 0.3580302514 0.3213657177
0.2174670000 0.4209515738 0.3299365911
0.4851246000 0.4366808762 0.2904986328
0.7933563000 0.4418468776 0.2747614867
0.9886390000 0.6734307609 0.5631380659
0.2148960000 0.6003811511 0.4887126524
0.3332277000 0.6728060743 0.5332048979
0.5476295000 0.7049629882 0.5467895848
0.7715933000 0.6413959157 0.3891928001
0.9335550000 0.7494182431 0.4915186320
0.4525630000 0.9077654517 0.6814704662
0.5844710000 0.9125188068 0.6940666669
0.6920560000 0.9092699954 0.6785738737
0.7551300000 0.9117544986 0.6801978583
0.8597830000 0.8976067725 0.5861477031
0.0265650000 0.2219964292 0.3589257739
0.0861050000 0.2346115268 0.3768268569
0.4565780000 0.1879205200 0.3605104930
0.7134480000 0.1644466288 0.2907667463
1.0000000000 0.4229904311 0.5908444720
0.0247800000 0.2767608177 0.3912333021
0.1143862000 0.3210947060 0.4261378967
0.5310406000 0.2984482136 0.4201420408
0.8017385000 0.2993295753 0.3577470007
1.0000000000 0.6076801942 0.7140830578
0.0527480000 0.3932285502 0.4454238469
0.1810194000 0.4651532629 0.4969019448
0.5247387000 0.5167855925 0.5124128606
0.8283106000 0.4950816466 0.4573588754
0.9979060000 0.7486950591 0.7166645188
0.1505590000 0.6104646031 0.5633162713
0.2400877000 0.6640588578 0.5986449343
0.5437771000 0.7064388453 0.6038725942
0.7692222000 0.6993221529 0.5249468404
0.9517580000 0.8069489859 0.6145155834
0.4003270000 0.9119631286 0.7917443588
0.5477500000 0.9248380108 0.7958058306
0.7069780000 0.9270095689 0.7724095784
0.7990890000 0.9245722081 0.7431083851
0.8868450000 0.9159351241 0.6581104591
0.0321150000 0.3643162350 0.5598558651
0.0541090000 0.3869315332 0.6070893524
0.3689910000 0.3414742522 0.6160680845
0.8109760000 0.2689963690 0.5493800064
1.0000000000 0.5228249313 0.7889585154
0.0265650000 0.4062960140 0.6049680036
0.0767010000 0.4499246725 0.6564649288
0.4684853000 0.4414717447 0.6968170707
0.8977612000 0.3817987322 0.6390668482
1.0000000000 0.6818080603 0.8923176365
0.0633250000 0.5033892355 0.6672653831
0.1330947000 0.5678886236 0.7065408423
0.4527451000 0.6145062088 0.7332656086
0.8513840000 0.5793691950 0.6957643501
1.0000000000 0.7989518345 0.8991619313
0.1136180000 0.6755150555 0.7502657979
0.2239359000 0.7226943369 0.7632575742
0.5194948000 0.7592033943 0.7721392499
0.8024338000 0.7957985115 0.7762057557
0.9800100000 0.8865192883 0.8205995353
0.2966940000 0.9312513792 0.8514914884
0.4322680000 0.9467632249 0.8741880077
0.6480050000 0.9587233445 0.9071711054
0.8981030000 0.9553541696 0.9076573946
0.9499520000 0.9584485145 0.8723274227
0.0918890000 0.6272904171 0.8529684788
0.1612730000 0.6798130354 0.8819122545
0.4220030000 0.7191026901 0.9344798215
0.9063880000 0.6566069530 0.9506199936
1.0000000000 0.8098708098 1.0000000000
0.1165840000 0.7129852154 0.8816998176
0.1711100000 0.7541535437 0.8993411435
0.4566820000 0.7993400068 0.9449999799
0.8517450000 0.8153102369 0.9878921022
1.0000000000 0.8763967181 1.0000000000
0.1176040000 0.7943639792 0.8895942153
0.2165420000 0.8328431864 0.9137143640
0.4972420000 0.8791470240 0.9561705375
0.8383630000 0.9195480351 0.9799010507
1.0000000000 0.9225982467 0.9816700160
0.1826920000 0.8584174206 0.9067281089
0.2929150000 0.8935555377 0.9364994825
0.5430030000 0.9314299184 0.9678515479
0.8605350000 0.9425254268 0.9793402575
1.0000000000 0.9452917812 0.9780998675
0.4852110000 0.9612780597 0.9875407255
0.5083530000 0.9833918434 1.0000000000
0.6373160000 0.9866898032 1.0000000000
0.8955350000 0.9750907741 0.9865087452
1.0000000000 1.0000000000 1.0000000000
