bundles/resolve-cinematic-luts/Gamut/Immersion 2.0/Distant Teal.cube
TITLE "Immersion 2.0 - Distant Teal by Gamut"
# Contributor - Sam Newton. Version 2.0 - 06/24/2025 - Designed for Rec.709 Color Space. Copyright 2025 Gamut, LLC.
LUT_3D_SIZE 5
0.0000000000 0.0000000000 0.0000000000
0.2540302500 0.0458202500 0.0378520000
0.4809580000 0.0382460000 0.0268120000
0.6230862500 0.0027597500 0.0439932500
0.9904690000 0.0023660000 0.1837280000
0.0438197500 0.1783677500 0.1455177500
0.2434807500 0.1951082500 0.1076970000
0.4529615000 0.2113680000 0.0990147500
0.6288672500 0.1902735000 0.0934007500
0.9798780000 0.3398755000 0.2175267500
0.0707935000 0.3495700000 0.3026595000
0.2739187500 0.3928340000 0.3490537500
0.4629455000 0.3675925000 0.2368900000
0.7271582500 0.3809937500 0.1944670000
0.9615975000 0.5553030000 0.3284660000
0.1678597500 0.5832280000 0.4977682500
0.3552675000 0.6265535000 0.5560245000
0.5580340000 0.6213867500 0.5063237500
0.7590555000 0.5822015000 0.3571197500
0.9196252500 0.6670477500 0.3757025000
0.5051850000 0.8806980000 0.7043180000
0.5765615000 0.8812850000 0.6830242500
0.6628795000 0.8844645000 0.6932790000
0.7440490000 0.8809042500 0.6534227500
0.8448620000 0.8819030000 0.5642870000
0.0147857500 0.1007742500 0.1824350000
0.2562100000 0.1097237500 0.2115697500
0.4995127500 0.1125052500 0.1409442500
0.7099095000 0.0567902500 0.1496500000
0.9946892500 0.2387080000 0.4547072500
0.0289800000 0.2125212500 0.2539367500
0.2491425344 0.2614858625 0.2717066000
0.5143881688 0.2503683156 0.2170737125
0.7716527750 0.2085636094 0.2041502281
0.9966930000 0.4637657500 0.4818770000
0.0898082500 0.3647727500 0.3257987500
0.2276145500 0.4220397750 0.3341572219
0.4874972750 0.4357464156 0.2904148344
0.7783811625 0.4365389281 0.2765415781
0.9805315000 0.6326692500 0.5065585000
0.2047925000 0.5891722500 0.4791097500
0.3218999500 0.6506643594 0.5201848906
0.5400671094 0.6883527125 0.5293135344
0.7620447000 0.6316292031 0.3895000437
0.9270865000 0.7180017500 0.4578610000
0.4286475000 0.8813242500 0.6721042500
0.5344852500 0.8888525000 0.6784917500
0.6697990000 0.8910437500 0.6723420000
0.7491617500 0.8919650000 0.6561365000
0.8582890000 0.8912392500 0.5816067500
0.0374575000 0.2779400000 0.4175110000
0.1317257500 0.2707935000 0.4176547500
0.5193305000 0.2221490000 0.3932855000
0.7480780000 0.1817730000 0.3011777500
0.9978240000 0.3972590000 0.5751890000
0.0362745000 0.3175370000 0.4274455000
0.1399714313 0.3453226844 0.4495083687
0.5498008688 0.3146315656 0.4314129375
0.8074259906 0.3025757750 0.3703719531
0.9991410000 0.5771272500 0.6786847500
0.0532940000 0.3958855000 0.4465910000
0.1843493969 0.4660991500 0.4955768219
0.5222592812 0.5126156094 0.5060981250
0.8126933406 0.4933369000 0.4529212281
0.9936275000 0.7070715000 0.6778140000
0.1576225000 0.5985415000 0.5568070000
0.2457203094 0.6500380937 0.5853900375
0.5311555094 0.6920594188 0.5878377406
0.7584306187 0.6874939437 0.5172149688
0.9466995000 0.7789722500 0.5931665000
0.3797960000 0.8813165000 0.7588810000
0.4854100000 0.8962582500 0.7603092500
0.6743585000 0.9056680000 0.7465720000
0.7818475000 0.9088875000 0.7215515000
0.8858030000 0.9103930000 0.6534740000
0.0348942500 0.4224552500 0.6517682500
0.0803702500 0.4217155000 0.6563707500
0.4440337500 0.3759935000 0.6561950000
0.8274962500 0.2904715000 0.5684535000
0.9989327500 0.5076912500 0.7635882500
0.0382462500 0.4464135000 0.6546075000
0.0978494531 0.4713774781 0.6770170250
0.4824929188 0.4555567031 0.6989524062
0.8801037344 0.3988240469 0.6368444625
0.9999260000 0.6534985000 0.8491500000
0.0640737500 0.5020940000 0.6607137500
0.1391072687 0.5661187438 0.6981338344
0.4538024906 0.6100020281 0.7241488844
0.8404577813 0.5775920906 0.6873333250
0.9999595000 0.7635420000 0.8579645000
0.1212167500 0.6635087500 0.7312987500
0.2136986344 0.7075762500 0.7452078687
0.4989422781 0.7472206938 0.7572151906
0.7885776875 0.7788536844 0.7570143531
0.9759875000 0.8519685000 0.7844850000
0.2924310000 0.9033852500 0.8304050000
0.3939605000 0.9196042500 0.8483902500
0.6290055000 0.9366630000 0.8791350000
0.8820395000 0.9415605000 0.8799972500
0.9478385000 0.9526117500 0.8586465000
0.1227120000 0.6759420000 0.8682360000
0.1933925000 0.7058355000 0.8882715000
0.4516775000 0.7318080000 0.9347495000
0.8802230000 0.6640180000 0.9498390000
1.0000000000 0.7822750000 0.9960460000
0.1200032500 0.7256032500 0.8794992500
0.1892237500 0.7566840000 0.8956145000
0.4609115000 0.7971385000 0.9390782500
0.8481575000 0.8035230000 0.9765187500
1.0000000000 0.8450937500 0.9916905000
0.1192525000 0.7848985000 0.8814750000
0.2065165000 0.8187590000 0.9018250000
0.4808155000 0.8627560000 0.9420185000
0.8294457500 0.8832075000 0.9625090000
1.0000000000 0.8833115000 0.9648130000
0.1734082500 0.8363225000 0.8900117500
0.2643250000 0.8659890000 0.9128785000
0.5188750000 0.9056585000 0.9451557500
0.8272807500 0.9139517500 0.9546275000
0.9907130000 0.9147882500 0.9519760000
0.4427900000 0.9427020000 0.9623330000
0.4764062500 0.9614210000 0.9789055000
0.6240860000 0.9749690000 0.9878285000
0.8860732500 0.9667235000 0.9739837500
1.0000000000 0.9969890000 0.9932080000
