bundles/resolve-cinematic-luts/Gamut/Immersion 2.0/Native Light.cube
TITLE "Immersion 2.0 - Native Light by Gamut"
# Contributor - Sam Newton. Version 2.0 - 06/24/2025 - Designed for Rec.709 Color Space. Copyright 2025 Gamut, LLC.
LUT_3D_SIZE 5
0.0000000000 0.0000000000 0.0110400000
0.2156292500 0.0415677500 0.0374575000
0.4676460000 0.0539730000 0.0482905000
0.6572127500 0.0159685000 0.0721002500
0.9499180000 0.0228690000 0.2362180000
0.0303597500 0.1882585000 0.0595662500
0.2220547500 0.2067217500 0.0343032500
0.5121180000 0.2269500000 0.0793395000
0.7293150000 0.2211995000 0.1072830000
0.9282222500 0.3815152500 0.3269892500
0.0331200000 0.3681055000 0.0656435000
0.2160985000 0.3791795000 0.0145885000
0.4678200000 0.4131020000 0.0397895000
0.6970767500 0.4667592500 0.1443967500
0.8616805000 0.5937415000 0.3390460000
0.1374662500 0.6173942500 0.1966102500
0.2925595000 0.6016650000 0.1313435000
0.4792710000 0.5881927500 0.0946442500
0.6386337500 0.6130080000 0.1440685000
0.7702667500 0.6832522500 0.2707905000
0.3873070000 0.8542460000 0.4774110000
0.4120592500 0.8048417500 0.3593872500
0.4850445000 0.7456735000 0.2239760000
0.6006885000 0.7474570000 0.2183747500
0.7388440000 0.8030490000 0.3185530000
0.0244460000 0.0539555000 0.1460265000
0.1783580000 0.0629317500 0.2023137500
0.4572520000 0.0707895000 0.2099225000
0.6736545000 0.0339087500 0.2459945000
0.9590930000 0.0758922500 0.4126340000
0.0653647500 0.1884130000 0.2325327500
0.2296898705 0.2403940893 0.2458457589
0.5186021875 0.2316040937 0.2113918348
0.7450663393 0.2350525915 0.2513327299
0.9444912500 0.3846922500 0.4213095000
0.0224742500 0.3705972500 0.2604082500
0.2025833504 0.4403727344 0.2321421942
0.5015407098 0.4631572500 0.2258386451
0.7322025469 0.4922112768 0.2947727656
0.9010857500 0.6020655000 0.4333162500
0.1290802500 0.6243987500 0.3472970000
0.2925561808 0.6415726451 0.3155430804
0.5078473036 0.6435421116 0.2791228839
0.6919207299 0.6631905603 0.3121983728
0.8397247500 0.7277435000 0.4198757500
0.3701242500 0.8618422500 0.5979722500
0.4511582500 0.8527985000 0.5458917500
0.5706642500 0.8276392500 0.4566637500
0.6893195000 0.8262410000 0.4341855000
0.8290325000 0.8739002500 0.5170540000
0.0386400000 0.1353625000 0.3755165000
0.1013495000 0.1326027500 0.3936262500
0.4243360000 0.1097070000 0.4385825000
0.6672217500 0.0938430000 0.4427847500
0.9487685000 0.1678170000 0.5843270000
0.0572817500 0.2310967500 0.4182090000
0.1538722143 0.2674288839 0.4441569062
0.4618860335 0.2520033795 0.4683843437
0.7246691161 0.2780981920 0.4797515513
0.9541417500 0.4250777500 0.5887877500
0.0880690000 0.3791995000 0.4776615000
0.2268625379 0.4598909129 0.4999749911
0.5348857299 0.5254179442 0.5186918371
0.7625456362 0.5332275469 0.5173765915
0.9435715000 0.6392510000 0.6036460000
0.1688742500 0.6315335000 0.5730020000
0.3186059911 0.6738807991 0.5667703527
0.5512358460 0.7188786496 0.5563523125
0.7556409241 0.7284262366 0.5375539777
0.9191297500 0.7904740000 0.6237782500
0.3568085000 0.8653675000 0.7248150000
0.4784017500 0.8876740000 0.7270557500
0.6653910000 0.9121925000 0.7219460000
0.7889660000 0.9114445000 0.6831282500
0.9166030000 0.9440605000 0.7216450000
0.0479432500 0.2204357500 0.5747235000
0.0915890000 0.2322487500 0.5895067500
0.2756472500 0.1824002500 0.6303810000
0.6633320000 0.1547317500 0.6558720000
0.9427890000 0.2898370000 0.7657007500
0.0701200000 0.2986915000 0.6091682500
0.1415106741 0.3362636317 0.6345388237
0.3865177857 0.3441731362 0.6744824866
0.7081218772 0.3741749955 0.7100504062
0.9572830000 0.5014977500 0.7821860000
0.1097795000 0.4440427500 0.6561517500
0.2489558906 0.5208355246 0.6899268616
0.4965136027 0.5703205201 0.7218659710
0.7622874576 0.5823249911 0.7476776719
0.9728425000 0.6949695000 0.8017042500
0.2503405000 0.6753230000 0.7464250000
0.3808276161 0.7157187946 0.7586980357
0.5921467679 0.7592355937 0.7794794174
0.8193901317 0.8056202723 0.8078415513
0.9848147500 0.8610470000 0.8326337500
0.4095435000 0.8790137500 0.8378095000
0.5298365000 0.9078650000 0.8548802500
0.7246830000 0.9549460000 0.8956330000
0.8959812500 0.9829027500 0.9216472500
0.9815227500 0.9894627500 0.9134965000
0.1488690000 0.4868680000 0.8337710000
0.2462947500 0.5212310000 0.8523105000
0.4488435000 0.5493875000 0.8759680000
0.6984025000 0.5429752500 0.9069815000
0.9606940000 0.5465100000 0.9492290000
0.2097917500 0.5844080000 0.8616620000
0.3170630000 0.6207072500 0.8787582500
0.5208137500 0.6626860000 0.9057735000
0.7541882500 0.6866840000 0.9377657500
0.9746980000 0.6770035000 0.9696355000
0.2906925000 0.6933545000 0.8841325000
0.3969650000 0.7270010000 0.9009095000
0.5886120000 0.7688145000 0.9296860000
0.7949332500 0.7983917500 0.9676125000
0.9856845000 0.7900780000 0.9821205000
0.4013370000 0.7970210000 0.9095875000
0.4954477500 0.8219015000 0.9232667500
0.6647842500 0.8617270000 0.9482132500
0.8375977500 0.8995835000 0.9731065000
0.9880262500 0.8853805000 0.9825607500
0.5531750000 0.9125920000 0.9564080000
0.6595110000 0.9392107500 0.9705922500
0.8371895000 0.9792845000 0.9905910000
0.9553572500 0.9930725000 0.9957355000
0.9991140000 0.9999460000 0.9987380000
