bundles/resolve-cinematic-luts/Gamut/Immersion 2.0/Native Light +.cube
TITLE "Immersion 2.0 - Native Light + by Gamut"
# Contributor - Sam Newton. Version 2.0 - 06/24/2025 - Designed for Rec.709 Color Space. Copyright 2025 Gamut, LLC.
LUT_3D_SIZE 5
0.0000000000 0.0000000000 0.0110400000
0.1343400000 0.0126170000 0.0102510000
0.3519050000 0.0067030000 0.0138000000
0.5981390000 0.0000000000 0.0531240000
0.9547270000 0.0236570000 0.2381610000
0.0021690000 0.1321390000 0.0226720000
0.1728590000 0.1604550000 0.0063090000
0.4770930000 0.2036860000 0.0603040000
0.7271070000 0.2120770000 0.0995350000
0.9328630000 0.4011540000 0.3392280000
0.0276010000 0.3555480000 0.0616250000
0.2142250000 0.3764370000 0.0118280000
0.4681600000 0.4149250000 0.0370630000
0.7040130000 0.4724600000 0.1451500000
0.8662700000 0.6098910000 0.3517500000
0.1434900000 0.6279610000 0.2028710000
0.3108390000 0.6079290000 0.1281250000
0.4883790000 0.5952320000 0.0939190000
0.6436400000 0.6212660000 0.1444790000
0.7724100000 0.6937940000 0.2754360000
0.4084320000 0.8724910000 0.5022460000
0.4282280000 0.8031990000 0.3390750000
0.4911630000 0.7526380000 0.2262950000
0.6048470000 0.7546040000 0.2231590000
0.7409570000 0.8069780000 0.3224280000
0.0173490000 0.0339080000 0.1126250000
0.1162890000 0.0254310000 0.1459790000
0.3725980000 0.0250370000 0.1674260000
0.6342630000 0.0074910000 0.2401380000
0.9639260000 0.0795490000 0.4190060000
0.0394290000 0.1381140000 0.1853700000
0.2004424000 0.2105101000 0.2158824000
0.4965649000 0.2097689000 0.1899012000
0.7436599000 0.2214563000 0.2397627000
0.9493000000 0.4004670000 0.4264570000
0.0141940000 0.3594100000 0.2583540000
0.1966070000 0.4390832000 0.2304365000
0.5025881000 0.4651209000 0.2233201000
0.7413289000 0.4978680000 0.2974834000
0.9082770000 0.6179350000 0.4456210000
0.1336240000 0.6350340000 0.3603060000
0.3109480000 0.6542070000 0.3236671000
0.5197444000 0.6549712000 0.2881266000
0.7032135000 0.6762721000 0.3253670000
0.8524400000 0.7460140000 0.4436500000
0.3874870000 0.8806030000 0.6366100000
0.4966940000 0.8738380000 0.5788770000
0.5956700000 0.8495090000 0.4967300000
0.7043910000 0.8422950000 0.4624630000
0.8355120000 0.8812820000 0.5301850000
0.0236570000 0.0860470000 0.3030130000
0.0604570000 0.0851250000 0.3276550000
0.3702570000 0.0710460000 0.3885520000
0.6433640000 0.0626550000 0.4255240000
0.9532280000 0.1744230000 0.5903720000
0.0400200000 0.1863570000 0.3624150000
0.1288200000 0.2398487000 0.4112283000
0.4434340000 0.2303869000 0.4487296000
0.7220742000 0.2655392000 0.4732058000
0.9598790000 0.4405820000 0.5955120000
0.0856060000 0.3748390000 0.4758070000
0.2232263000 0.4576228000 0.4997851000
0.5380529000 0.5282021000 0.5215313000
0.7713754000 0.5390879000 0.5231190000
0.9529850000 0.6568870000 0.6169170000
0.1742950000 0.6428190000 0.5857260000
0.3365062000 0.6889338000 0.5797493000
0.5671167000 0.7329025000 0.5729792000
0.7673215000 0.7416686000 0.5518996000
0.9340880000 0.8107540000 0.6466860000
0.3713670000 0.8824570000 0.7465910000
0.5267340000 0.9117430000 0.7555580000
0.6945140000 0.9335710000 0.7549240000
0.8015610000 0.9247770000 0.7035260000
0.9201920000 0.9492400000 0.7298630000
0.0346970000 0.1693610000 0.5063840000
0.0557100000 0.1882150000 0.5401380000
0.2099110000 0.1278690000 0.5885470000
0.6577060000 0.1084570000 0.6380150000
0.9472210000 0.2934070000 0.7729020000
0.0488020000 0.2537290000 0.5644120000
0.1124104000 0.3059764000 0.6076372000
0.3610536000 0.3178998000 0.6599303000
0.7105098000 0.3593979000 0.7081341000
0.9631790000 0.5157480000 0.7910220000
0.1073110000 0.4432850000 0.6566240000
0.2455216000 0.5205149000 0.6909634000
0.5021931000 0.5734684000 0.7251325000
0.7716492000 0.5886171000 0.7548727000
0.9843430000 0.7128580000 0.8156200000
0.2585050000 0.6869410000 0.7578890000
0.4024691000 0.7313539000 0.7719020000
0.6105015000 0.7715189000 0.7921734000
0.8323848000 0.8190724000 0.8212901000
0.9987380000 0.8896160000 0.8608220000
0.4248980000 0.8937190000 0.8515080000
0.5748120000 0.9297160000 0.8746720000
0.7511150000 0.9722080000 0.9167320000
0.9176280000 0.9965510000 0.9478360000
0.9837120000 0.9921850000 0.9201560000
0.0959080000 0.4210090000 0.8044450000
0.1883800000 0.4738800000 0.8344270000
0.4167930000 0.5179020000 0.8646360000
0.6980620000 0.5425150000 0.9072020000
0.9677050000 0.5550850000 0.9550690000
0.1791270000 0.5636620000 0.8532540000
0.3030110000 0.6143630000 0.8767250000
0.5185530000 0.6620260000 0.9052380000
0.7595480000 0.6941330000 0.9407240000
0.9831500000 0.6932030000 0.9779940000
0.2945590000 0.6987700000 0.8871410000
0.4130430000 0.7365160000 0.9059420000
0.6012890000 0.7783860000 0.9358480000
0.8084080000 0.8160840000 0.9786340000
0.9978100000 0.8033650000 0.9923680000
0.4161510000 0.8099990000 0.9193120000
0.5265020000 0.8394420000 0.9360190000
0.6861160000 0.8779540000 0.9613640000
0.8607800000 0.9272720000 0.9918120000
1.0000000000 0.9136500000 0.9974130000
0.5742430000 0.9223060000 0.9669200000
0.7079050000 0.9560880000 0.9843360000
0.8674120000 0.9908490000 0.9997310000
0.9742040000 0.9991340000 1.0000000000
0.9991140000 0.9999460000 0.9987920000
