bundles/resolve-cinematic-luts/Gamut/Immersion 2.0/Native Light +.cube
TITLE "Immersion 2.0 - Native Light + by Gamut"
# Contributor - Sam Newton. Version 2.0 - 06/24/2025 - Designed for Rec.709 Color Space. Copyright 2025 Gamut, LLC.
LUT_3D_SIZE 33
0.0000000000 0.0000000000 0.0110400000
0.0178170000 0.0000000000 0.0110150000
0.0273540000 0.0069000000 0.0110890000
0.0453260000 0.0093890000 0.0103250000
0.0606440000 0.0102510000 0.0087730000
0.0784890000 0.0117060000 0.0093400000
0.0943970000 0.0126170000 0.0094630000
0.1131540000 0.0126170000 0.0102510000
0.1343400000 0.0126170000 0.0102510000
0.1587690000 0.0126170000 0.0094630000
0.1851730000 0.0134060000 0.0094630000
0.2120000000 0.0134060000 0.0091920000
0.2382640000 0.0126170000 0.0094630000
0.2654210000 0.0113610000 0.0094630000
0.2931600000 0.0105960000 0.0102510000
0.3214860000 0.0082550000 0.0118780000
0.3519050000 0.0067030000 0.0138000000
0.3840720000 0.0063090000 0.0161410000
0.4174880000 0.0040410000 0.0188270000
0.4495760000 0.0012570000 0.0219330000
0.4802560000 0.0007890000 0.0264170000
0.5098320000 0.0005180000 0.0318390000
0.5390560000 0.0000000000 0.0378020000
0.5681840000 0.0000000000 0.0442840000
0.5981390000 0.0000000000 0.0531240000
0.6302790000 0.0000000000 0.0664060000
0.6649300000 0.0000000000 0.0837870000
0.7019280000 0.0000000000 0.1039740000
0.7428940000 0.0007890000 0.1272980000
0.7895470000 0.0017250000 0.1553070000
0.8422890000 0.0057170000 0.1855070000
0.8986530000 0.0127900000 0.2136030000
0.9547270000 0.0236570000 0.2381610000
0.0069980000 0.0162890000 0.0133810000
0.0202070000 0.0170530000 0.0110890000
0.0357070000 0.0208980000 0.0125680000
0.0527440000 0.0226230000 0.0125920000
0.0718240000 0.0227210000 0.0118780000
0.0893570000 0.0234350000 0.0125430000
0.1074400000 0.0234600000 0.0117800000
0.1264220000 0.0248400000 0.0117800000
0.1508920000 0.0250120000 0.0111880000
0.1767730000 0.0255790000 0.0110150000
0.2035990000 0.0258010000 0.0109910000
0.2304320000 0.0258010000 0.0109910000
0.2585450000 0.0250120000 0.0117800000
0.2869010000 0.0249880000 0.0122480000
0.3162280000 0.0245200000 0.0138000000
0.3467690000 0.0241500000 0.0153280000
0.3780110000 0.0237310000 0.0169050000
0.4109660000 0.0218340000 0.0192210000
0.4433160000 0.0190980000 0.0222530000
0.4752940000 0.0167570000 0.0268860000
0.5056890000 0.0149090000 0.0315430000
0.5352380000 0.0126170000 0.0362250000
0.5645020000 0.0095610000 0.0418610000
0.5937530000 0.0067280000 0.0486570000
0.6233370000 0.0052000000 0.0567120000
0.6536140000 0.0044600000 0.0674580000
0.6859370000 0.0038690000 0.0807040000
0.7212810000 0.0047560000 0.0980390000
0.7606270000 0.0072700000 0.1206110000
0.8048660000 0.0137020000 0.1494040000
0.8533210000 0.0262450000 0.1817830000
0.9039580000 0.0467070000 0.2144190000
0.9535760000 0.0717510000 0.2448510000
0.0094140000 0.0295720000 0.0149340000
0.0179890000 0.0272800000 0.0087970000
0.0342530000 0.0303100000 0.0117800000
0.0534210000 0.0356830000 0.0133810000
0.0743460000 0.0394780000 0.0163140000
0.0946160000 0.0403800000 0.0178660000
0.1154790000 0.0411700000 0.0179400000
0.1384110000 0.0412190000 0.0165850000
0.1643550000 0.0412190000 0.0156230000
0.1912890000 0.0412190000 0.0150080000
0.2189880000 0.0406930000 0.0148350000
0.2477380000 0.0412190000 0.0153520000
0.2772620000 0.0423960000 0.0161160000
0.3065740000 0.0426790000 0.0176200000
0.3369460000 0.0433740000 0.0187290000
0.3682430000 0.0426790000 0.0199850000
0.4010520000 0.0422560000 0.0215380000
0.4348730000 0.0400390000 0.0242480000
0.4676520000 0.0376550000 0.0273050000
0.4987910000 0.0353620000 0.0315670000
0.5286540000 0.0327260000 0.0354860000
0.5586740000 0.0296210000 0.0403920000
0.5886590000 0.0257770000 0.0464260000
0.6183910000 0.0216610000 0.0532620000
0.6478250000 0.0180390000 0.0613280000
0.6772490000 0.0150320000 0.0705050000
0.7079430000 0.0130610000 0.0817650000
0.7412610000 0.0140950000 0.0965650000
0.7785180000 0.0183340000 0.1173930000
0.8199620000 0.0302620000 0.1458940000
0.8637720000 0.0524590000 0.1803680000
0.9082730000 0.0854540000 0.2181820000
0.9515370000 0.1230010000 0.2555660000
0.0079600000 0.0426090000 0.0172750000
0.0172010000 0.0438710000 0.0139720000
0.0289310000 0.0418080000 0.0065800000
0.0508260000 0.0460450000 0.0109660000
0.0709590000 0.0508120000 0.0127400000
0.0937710000 0.0558630000 0.0171270000
0.1174960000 0.0589820000 0.0209220000
0.1463550000 0.0606360000 0.0225490000
0.1759340000 0.0602070000 0.0219810000
0.2059730000 0.0590870000 0.0209960000
0.2350370000 0.0599230000 0.0209960000
0.2652780000 0.0614100000 0.0217100000
0.2954790000 0.0627040000 0.0230660000
0.3257650000 0.0635020000 0.0238300000
0.3566930000 0.0640130000 0.0248640000
0.3892900000 0.0645820000 0.0261460000
0.4228120000 0.0634470000 0.0284130000
0.4560210000 0.0620160000 0.0307540000
0.4876160000 0.0605370000 0.0335140000
0.5184540000 0.0588370000 0.0366930000
0.5487710000 0.0558500000 0.0405740000
0.5793330000 0.0524500000 0.0447870000
0.6098380000 0.0483160000 0.0505160000
0.6398720000 0.0436870000 0.0570510000
0.6692770000 0.0392980000 0.0647660000
0.6986030000 0.0356090000 0.0734670000
0.7289180000 0.0328740000 0.0840100000
0.7612040000 0.0332440000 0.0984630000
0.7962480000 0.0398690000 0.1189250000
0.8337890000 0.0561370000 0.1471570000
0.8728400000 0.0869070000 0.1841680000
0.9114730000 0.1292160000 0.2267010000
0.9491750000 0.1738420000 0.2693360000
0.0042390000 0.0570900000 0.0196150000
0.0149830000 0.0626850000 0.0186800000
0.0242980000 0.0582770000 0.0080830000
0.0454140000 0.0560530000 0.0049780000
0.0682700000 0.0628260000 0.0094630000
0.0890000000 0.0687090000 0.0112120000
0.1128800000 0.0742950000 0.0150320000
0.1450580000 0.0794100000 0.0209960000
0.1807740000 0.0821670000 0.0262200000
0.2159700000 0.0830690000 0.0285610000
0.2491120000 0.0831400000 0.0292270000
0.2807860000 0.0838980000 0.0299900000
0.3113470000 0.0855300000 0.0307540000
0.3423950000 0.0868500000 0.0315190000
0.3749440000 0.0882260000 0.0325290000
0.4083890000 0.0884840000 0.0338350000
0.4419240000 0.0880440000 0.0358800000
0.4735960000 0.0879210000 0.0380980000
0.5039570000 0.0872250000 0.0404970000
0.5343800000 0.0857160000 0.0427350000
0.5648600000 0.0832910000 0.0458950000
0.5958920000 0.0799490000 0.0500150000
0.6268490000 0.0755200000 0.0547580000
0.6569330000 0.0710470000 0.0604670000
0.6865920000 0.0665600000 0.0674910000
0.7162540000 0.0629950000 0.0760480000
0.7467530000 0.0614090000 0.0872250000
0.7783980000 0.0635880000 0.1027510000
0.8114760000 0.0729820000 0.1243530000
0.8454970000 0.0948140000 0.1545800000
0.8796160000 0.1308860000 0.1942260000
0.9132610000 0.1768900000 0.2392330000
0.9466760000 0.2232780000 0.2840730000
0.0017000000 0.0714440000 0.0211690000
0.0111140000 0.0791030000 0.0204290000
0.0225980000 0.0763340000 0.0111390000
0.0417740000 0.0700560000 0.0020450000
0.0654870000 0.0743090000 0.0048050000
0.0875170000 0.0825230000 0.0094630000
0.1106890000 0.0887420000 0.0103500000
0.1391210000 0.0951940000 0.0133810000
0.1784850000 0.1022190000 0.0221790000
0.2184940000 0.1072360000 0.0298920000
0.2563470000 0.1101140000 0.0347470000
0.2911750000 0.1112900000 0.0372110000
0.3244980000 0.1115590000 0.0385170000
0.3570060000 0.1131580000 0.0400620000
0.3904650000 0.1144290000 0.0410250000
0.4242000000 0.1151110000 0.0423080000
0.4569270000 0.1155550000 0.0437800000
0.4877460000 0.1162880000 0.0458230000
0.5179920000 0.1164140000 0.0476430000
0.5481110000 0.1157380000 0.0499700000
0.5785620000 0.1137690000 0.0525520000
0.6092740000 0.1105630000 0.0557080000
0.6399650000 0.1065990000 0.0596270000
0.6700590000 0.1025600000 0.0645350000
0.7000830000 0.0988690000 0.0712320000
0.7300790000 0.0963690000 0.0800480000
0.7605470000 0.0969220000 0.0926640000
0.7912960000 0.1026090000 0.1097250000
0.8224910000 0.1166630000 0.1337970000
0.8533490000 0.1428330000 0.1671100000
0.8835710000 0.1814070000 0.2088920000
0.9136540000 0.2263180000 0.2541760000
0.9438900000 0.2712420000 0.2988340000
0.0015770000 0.0887790000 0.0212920000
0.0078860000 0.0972160000 0.0205280000
0.0203550000 0.0960390000 0.0120260000
0.0373340000 0.0860730000 0.0004440000
0.0626900000 0.0890370000 0.0000990000
0.0853830000 0.0966460000 0.0033760000
0.1079450000 0.1048160000 0.0072450000
0.1368650000 0.1115050000 0.0087970000
0.1738280000 0.1205130000 0.0139970000
0.2156210000 0.1288210000 0.0230660000
0.2553140000 0.1347650000 0.0322330000
0.2929040000 0.1382020000 0.0386400000
0.3297360000 0.1401570000 0.0431610000
0.3657850000 0.1412100000 0.0458990000
0.4011570000 0.1423120000 0.0481520000
0.4354770000 0.1435710000 0.0500570000
0.4678880000 0.1450940000 0.0517080000
0.4987240000 0.1462580000 0.0535060000
0.5292340000 0.1468870000 0.0553880000
0.5597040000 0.1466070000 0.0574750000
0.5901800000 0.1452170000 0.0598450000
0.6208110000 0.1427850000 0.0627320000
0.6512080000 0.1397510000 0.0662500000
0.6812910000 0.1367520000 0.0712270000
0.7110440000 0.1346830000 0.0779730000
0.7409350000 0.1345310000 0.0878770000
0.7705740000 0.1381100000 0.1017260000
0.8001440000 0.1478360000 0.1212230000
0.8291590000 0.1662470000 0.1484180000
0.8575120000 0.1954250000 0.1841390000
0.8850800000 0.2332330000 0.2259250000
0.9127750000 0.2749700000 0.2697340000
0.9407620000 0.3171160000 0.3132710000
0.0015770000 0.1081320000 0.0212920000
0.0063580000 0.1178470000 0.0211440000
0.0186550000 0.1181860000 0.0121740000
0.0327500000 0.1091120000 0.0024650000
0.0580310000 0.1065930000 0.0000000000
0.0830440000 0.1145630000 0.0000990000
0.1092140000 0.1243580000 0.0046330000
0.1375510000 0.1305780000 0.0064810000
0.1730790000 0.1391990000 0.0094140000
0.2100320000 0.1490280000 0.0153520000
0.2490000000 0.1569220000 0.0240020000
0.2875630000 0.1630420000 0.0326270000
0.3267990000 0.1673840000 0.0408110000
0.3659690000 0.1699320000 0.0467510000
0.4047050000 0.1715080000 0.0513240000
0.4410410000 0.1728660000 0.0545450000
0.4745030000 0.1744930000 0.0575030000
0.5067590000 0.1761800000 0.0600330000
0.5381830000 0.1773040000 0.0625340000
0.5694120000 0.1775070000 0.0647860000
0.6003380000 0.1768420000 0.0674050000
0.6310320000 0.1753230000 0.0704250000
0.6611770000 0.1738180000 0.0745390000
0.6909540000 0.1725430000 0.0799130000
0.7203570000 0.1727220000 0.0879520000
0.7492750000 0.1754710000 0.0989860000
0.7777480000 0.1828090000 0.1150340000
0.8056690000 0.1964230000 0.1374040000
0.8326060000 0.2179330000 0.1668580000
0.8589160000 0.2476160000 0.2029720000
0.8846980000 0.2830150000 0.2433010000
0.9108980000 0.3213260000 0.2849930000
0.9371640000 0.3606230000 0.3268880000
0.0021690000 0.1321390000 0.0226720000
0.0048540000 0.1419650000 0.0213170000
0.0163630000 0.1440820000 0.0127160000
0.0315930000 0.1369660000 0.0054950000
0.0532460000 0.1314500000 0.0001970000
0.0797360000 0.1354180000 0.0000000000
0.1090740000 0.1461100000 0.0002960000
0.1421300000 0.1547930000 0.0045830000
0.1728590000 0.1604550000 0.0063090000
0.2069100000 0.1691590000 0.0099800000
0.2424380000 0.1783510000 0.0161660000
0.2802600000 0.1858160000 0.0245930000
0.3203620000 0.1918040000 0.0333170000
0.3615610000 0.1961950000 0.0421650000
0.4022830000 0.1992630000 0.0493590000
0.4409340000 0.2016500000 0.0554960000
0.4770930000 0.2036860000 0.0603040000
0.5115470000 0.2055180000 0.0643150000
0.5447100000 0.2069630000 0.0678370000
0.5769660000 0.2080090000 0.0710280000
0.6085290000 0.2082730000 0.0743270000
0.6392820000 0.2082600000 0.0782890000
0.6692210000 0.2083610000 0.0832760000
0.6985400000 0.2093240000 0.0900060000
0.7271070000 0.2120770000 0.0995350000
0.7549910000 0.2179310000 0.1127040000
0.7820730000 0.2284420000 0.1309840000
0.8082140000 0.2447760000 0.1552080000
0.8335440000 0.2675730000 0.1855320000
0.8583990000 0.2963490000 0.2208400000
0.8830870000 0.3292160000 0.2590680000
0.9080110000 0.3647000000 0.2989110000
0.9328630000 0.4011540000 0.3392280000
0.0037210000 0.1582920000 0.0247900000
0.0052490000 0.1676890000 0.0240270000
0.0169050000 0.1722110000 0.0167570000
0.0315930000 0.1685470000 0.0118040000
0.0506510000 0.1628300000 0.0043610000
0.0778670000 0.1613830000 0.0006900000
0.1104840000 0.1687780000 0.0000000000
0.1470120000 0.1783990000 0.0014540000
0.1771340000 0.1846070000 0.0059150000
0.2066630000 0.1903470000 0.0076640000
0.2394100000 0.1981200000 0.0115330000
0.2747820000 0.2063160000 0.0176690000
0.3141450000 0.2135600000 0.0259250000
0.3557010000 0.2197640000 0.0354610000
0.3971870000 0.2247780000 0.0443550000
0.4372660000 0.2286910000 0.0525380000
0.4758760000 0.2319900000 0.0595910000
0.5128330000 0.2346310000 0.0654270000
0.5481080000 0.2367540000 0.0706220000
0.5818190000 0.2384580000 0.0752460000
0.6139690000 0.2398480000 0.0799620000
0.6448010000 0.2412340000 0.0853370000
0.6745460000 0.2431250000 0.0915260000
0.7032060000 0.2462490000 0.0999650000
0.7310000000 0.2514960000 0.1113190000
0.7577420000 0.2599380000 0.1267020000
0.7834430000 0.2726710000 0.1465680000
0.8083570000 0.2904800000 0.1719500000
0.8325610000 0.3133560000 0.2019810000
0.8565090000 0.3406390000 0.2359260000
0.8804360000 0.3713560000 0.2726060000
0.9042310000 0.4045340000 0.3109290000
0.9278120000 0.4386920000 0.3498080000
0.0071470000 0.1875810000 0.0292270000
0.0094630000 0.1963800000 0.0284630000
0.0183340000 0.2025540000 0.0241500000
0.0323810000 0.2013000000 0.0194930000
0.0497670000 0.1970950000 0.0132080000
0.0794880000 0.1931030000 0.0038200000
0.1118070000 0.1936960000 0.0006900000
0.1485800000 0.2007000000 0.0006160000
0.1818230000 0.2081260000 0.0024650000
0.2088420000 0.2132930000 0.0061120000
0.2384130000 0.2187390000 0.0084280000
0.2719590000 0.2262260000 0.0125430000
0.3091740000 0.2342470000 0.0192210000
0.3492630000 0.2416750000 0.0276990000
0.3904640000 0.2483890000 0.0370140000
0.4317490000 0.2542580000 0.0464770000
0.4722170000 0.2591440000 0.0553920000
0.5113170000 0.2632510000 0.0638830000
0.5483430000 0.2664380000 0.0710160000
0.5833390000 0.2691100000 0.0773990000
0.6161000000 0.2715390000 0.0838080000
0.6471440000 0.2742090000 0.0906620000
0.6766070000 0.2775920000 0.0986330000
0.7048160000 0.2824500000 0.1087800000
0.7317460000 0.2896480000 0.1220090000
0.7576310000 0.2999680000 0.1389440000
0.7824910000 0.3140600000 0.1601440000
0.8066150000 0.3323360000 0.1857380000
0.8302090000 0.3546260000 0.2152780000
0.8535310000 0.3806430000 0.2481270000
0.8765860000 0.4096100000 0.2834660000
0.8993670000 0.4407950000 0.3205640000
0.9219290000 0.4728230000 0.3582650000
0.0112870000 0.2163840000 0.0346730000
0.0133320000 0.2239930000 0.0336370000
0.0199360000 0.2311210000 0.0318630000
0.0336870000 0.2317020000 0.0272550000
0.0518790000 0.2279390000 0.0211190000
0.0824190000 0.2229500000 0.0100290000
0.1159600000 0.2211770000 0.0022670000
0.1499360000 0.2235730000 0.0007890000
0.1835950000 0.2299980000 0.0008630000
0.2129170000 0.2364530000 0.0024650000
0.2405120000 0.2410800000 0.0060870000
0.2714230000 0.2471460000 0.0091920000
0.3061450000 0.2548480000 0.0138490000
0.3438300000 0.2629420000 0.0207740000
0.3840820000 0.2709930000 0.0297680000
0.4259130000 0.2786970000 0.0397680000
0.4678480000 0.2854070000 0.0501320000
0.5081940000 0.2909100000 0.0599220000
0.5464120000 0.2954910000 0.0690160000
0.5820900000 0.2992230000 0.0776240000
0.6153260000 0.3026650000 0.0856150000
0.6464660000 0.3063880000 0.0942670000
0.6758350000 0.3110830000 0.1039740000
0.7036090000 0.3173570000 0.1159100000
0.7301210000 0.3258840000 0.1307350000
0.7554530000 0.3373100000 0.1488340000
0.7798280000 0.3520070000 0.1706190000
0.8036040000 0.3702130000 0.1961550000
0.8267840000 0.3918700000 0.2251670000
0.8494470000 0.4167110000 0.2571860000
0.8716230000 0.4440990000 0.2915470000
0.8935200000 0.4734340000 0.3275660000
0.9150870000 0.5035550000 0.3641500000
0.0156730000 0.2445010000 0.0393300000
0.0174960000 0.2513070000 0.0390590000
0.0223270000 0.2587470000 0.0390340000
0.0352390000 0.2600490000 0.0345250000
0.0552920000 0.2571950000 0.0276990000
0.0865910000 0.2516460000 0.0163630000
0.1204630000 0.2492730000 0.0069490000
0.1537320000 0.2502760000 0.0016260000
0.1863540000 0.2541040000 0.0007890000
0.2166330000 0.2600660000 0.0013550000
0.2448730000 0.2653560000 0.0032530000
0.2731750000 0.2703490000 0.0063580000
0.3052590000 0.2768650000 0.0099550000
0.3413770000 0.2849780000 0.0153770000
0.3806290000 0.2940060000 0.0235590000
0.4219470000 0.3028920000 0.0332930000
0.4639580000 0.3109570000 0.0443420000
0.5047670000 0.3178670000 0.0553610000
0.5432860000 0.3235320000 0.0658940000
0.5792130000 0.3283100000 0.0762450000
0.6125660000 0.3327060000 0.0859850000
0.6436890000 0.3374270000 0.0963010000
0.6728490000 0.3430720000 0.1078860000
0.7004060000 0.3503940000 0.1211770000
0.7266580000 0.3598230000 0.1371370000
0.7517220000 0.3717750000 0.1560730000
0.7759400000 0.3866750000 0.1781890000
0.7993980000 0.4045710000 0.2034660000
0.8220730000 0.4254500000 0.2319700000
0.8440860000 0.4491150000 0.2632970000
0.8655100000 0.4750000000 0.2967480000
0.8865060000 0.5026010000 0.3317510000
0.9072310000 0.5308840000 0.3672500000
0.0190730000 0.2711860000 0.0442660000
0.0206260000 0.2775260000 0.0449730000
0.0243960000 0.2854590000 0.0449960000
0.0372600000 0.2881200000 0.0414800000
0.0582610000 0.2860200000 0.0340070000
0.0897210000 0.2809880000 0.0232380000
0.1247410000 0.2787600000 0.0122230000
0.1586510000 0.2791020000 0.0046080000
0.1908180000 0.2811670000 0.0015770000
0.2213030000 0.2853270000 0.0012570000
0.2502230000 0.2907490000 0.0021190000
0.2788030000 0.2962210000 0.0037210000
0.3087660000 0.3019110000 0.0076150000
0.3428720000 0.3092300000 0.0119760000
0.3807760000 0.3181160000 0.0194190000
0.4210380000 0.3274940000 0.0283890000
0.4619090000 0.3363260000 0.0395840000
0.5020550000 0.3440690000 0.0512760000
0.5401640000 0.3506160000 0.0628790000
0.5757260000 0.3562260000 0.0744680000
0.6088310000 0.3614010000 0.0857130000
0.6396960000 0.3669250000 0.0975210000
0.6686290000 0.3733920000 0.1101780000
0.6959870000 0.3813690000 0.1248020000
0.7220540000 0.3912850000 0.1413900000
0.7469610000 0.4035190000 0.1608790000
0.7709660000 0.4182480000 0.1830490000
0.7940430000 0.4357080000 0.2082100000
0.8161740000 0.4557210000 0.2361210000
0.8375520000 0.4782120000 0.2666340000
0.8581830000 0.5025910000 0.2990810000
0.8784300000 0.5284690000 0.3330330000
0.8983650000 0.5549420000 0.3674260000
0.0221790000 0.2976020000 0.0498270000
0.0237310000 0.3044110000 0.0504830000
0.0275020000 0.3127380000 0.0505040000
0.0407710000 0.3172010000 0.0472550000
0.0628460000 0.3161110000 0.0394240000
0.0938120000 0.3122420000 0.0290050000
0.1294610000 0.3096720000 0.0173490000
0.1644100000 0.3091470000 0.0085020000
0.1973520000 0.3104290000 0.0036470000
0.2281860000 0.3136340000 0.0020210000
0.2577070000 0.3185650000 0.0021190000
0.2869790000 0.3243560000 0.0034010000
0.3167250000 0.3300090000 0.0065060000
0.3488160000 0.3362280000 0.0108680000
0.3847030000 0.3442810000 0.0172010000
0.4231270000 0.3532230000 0.0257270000
0.4622860000 0.3621310000 0.0366200000
0.5007840000 0.3701410000 0.0486940000
0.5376440000 0.3769490000 0.0608240000
0.5723560000 0.3829980000 0.0731710000
0.6047120000 0.3887580000 0.0852370000
0.6350850000 0.3948710000 0.0978210000
0.6637090000 0.4018970000 0.1116020000
0.6908240000 0.4103160000 0.1268020000
0.7166660000 0.4204800000 0.1440180000
0.7414010000 0.4327230000 0.1636070000
0.7650130000 0.4471660000 0.1856070000
0.7875870000 0.4639510000 0.2103800000
0.8091080000 0.4829880000 0.2377410000
0.8298560000 0.5041700000 0.2673340000
0.8498180000 0.5270860000 0.2987560000
0.8693810000 0.5512570000 0.3315550000
0.8885060000 0.5759170000 0.3646820000
0.0244950000 0.3255450000 0.0553350000
0.0268120000 0.3334270000 0.0559650000
0.0318140000 0.3428620000 0.0560050000
0.0465470000 0.3477230000 0.0523520000
0.0695750000 0.3469850000 0.0446290000
0.1004950000 0.3434690000 0.0340810000
0.1359770000 0.3413670000 0.0232140000
0.1713840000 0.3410500000 0.0131590000
0.2053110000 0.3422790000 0.0065790000
0.2368120000 0.3451300000 0.0042140000
0.2668530000 0.3493100000 0.0035730000
0.2965630000 0.3545590000 0.0040900000
0.3267580000 0.3600520000 0.0069250000
0.3581730000 0.3657880000 0.0112860000
0.3917960000 0.3725960000 0.0172010000
0.4278320000 0.3804540000 0.0258010000
0.4646430000 0.3884720000 0.0358800000
0.5009440000 0.3960360000 0.0476830000
0.5360240000 0.4027560000 0.0596910000
0.5692710000 0.4088740000 0.0724410000
0.6006690000 0.4148580000 0.0849470000
0.6303770000 0.4213780000 0.0982210000
0.6584680000 0.4287080000 0.1123010000
0.6851980000 0.4373220000 0.1277880000
0.7106630000 0.4474770000 0.1450850000
0.7349030000 0.4594770000 0.1645990000
0.7580380000 0.4734560000 0.1863700000
0.7800660000 0.4895250000 0.2105620000
0.8010070000 0.5075280000 0.2370760000
0.8210820000 0.5273740000 0.2657510000
0.8403990000 0.5487330000 0.2960080000
0.8592900000 0.5712490000 0.3275580000
0.8777500000 0.5940860000 0.3593940000
0.0276010000 0.3555480000 0.0616250000
0.0310750000 0.3651150000 0.0627700000
0.0379990000 0.3747160000 0.0627880000
0.0543080000 0.3792580000 0.0585730000
0.0786230000 0.3787950000 0.0505780000
0.1091070000 0.3765980000 0.0406510000
0.1439570000 0.3752820000 0.0298180000
0.1797880000 0.3752710000 0.0195670000
0.2142250000 0.3764370000 0.0118280000
0.2464820000 0.3789550000 0.0079350000
0.2771020000 0.3821020000 0.0067030000
0.3073670000 0.3862790000 0.0068260000
0.3378630000 0.3910660000 0.0092660000
0.3688070000 0.3962160000 0.0132330000
0.4008470000 0.4019170000 0.0195660000
0.4341240000 0.4082170000 0.0277480000
0.4681600000 0.4149250000 0.0370630000
0.5021150000 0.4215900000 0.0484020000
0.5350760000 0.4277340000 0.0603270000
0.5667740000 0.4337940000 0.0722410000
0.5969470000 0.4398290000 0.0850050000
0.6256230000 0.4463770000 0.0983530000
0.6530440000 0.4538480000 0.1124700000
0.6791230000 0.4624580000 0.1279380000
0.7040130000 0.4724600000 0.1451500000
0.7276650000 0.4840720000 0.1643030000
0.7502180000 0.4974220000 0.1855560000
0.7716440000 0.5126600000 0.2090070000
0.7919540000 0.5295810000 0.2346240000
0.8113620000 0.5480700000 0.2620550000
0.8301010000 0.5678950000 0.2912010000
0.8483330000 0.5887000000 0.3212570000
0.8662700000 0.6098910000 0.3517500000
0.0322330000 0.3878800000 0.0693110000
0.0372360000 0.3984230000 0.0711100000
0.0463740000 0.4078050000 0.0711780000
0.0646980000 0.4121960000 0.0662970000
0.0899520000 0.4124290000 0.0584750000
0.1198160000 0.4112880000 0.0488900000
0.1542980000 0.4105010000 0.0379500000
0.1896220000 0.4104880000 0.0276990000
0.2241220000 0.4115130000 0.0197640000
0.2567380000 0.4131550000 0.0147120000
0.2880820000 0.4153800000 0.0123460000
0.3186750000 0.4182590000 0.0122470000
0.3490560000 0.4219030000 0.0142930000
0.3792960000 0.4260580000 0.0178660000
0.4098220000 0.4305770000 0.0238300000
0.4408370000 0.4355430000 0.0315920000
0.4722870000 0.4409170000 0.0404640000
0.5037950000 0.4465450000 0.0507360000
0.5346300000 0.4520050000 0.0617550000
0.5645850000 0.4576640000 0.0732890000
0.5933840000 0.4636040000 0.0856060000
0.6210180000 0.4701020000 0.0986200000
0.6474660000 0.4774670000 0.1123640000
0.6727550000 0.4859040000 0.1277100000
0.6969110000 0.4955620000 0.1444060000
0.7198390000 0.5066610000 0.1630120000
0.7416910000 0.5193530000 0.1835520000
0.7623690000 0.5336230000 0.2060940000
0.7821240000 0.5493470000 0.2306850000
0.8009130000 0.5665450000 0.2569240000
0.8190720000 0.5848650000 0.2846320000
0.8367460000 0.6040520000 0.3132730000
0.8540720000 0.6235450000 0.3422740000
0.0387830000 0.4221490000 0.0798620000
0.0463400000 0.4331930000 0.0817270000
0.0580700000 0.4420680000 0.0811180000
0.0779810000 0.4461200000 0.0763170000
0.1037710000 0.4468900000 0.0685590000
0.1331660000 0.4462450000 0.0593380000
0.1663810000 0.4455890000 0.0485380000
0.2010590000 0.4453560000 0.0384870000
0.2350250000 0.4456500000 0.0302120000
0.2677640000 0.4464130000 0.0243720000
0.2991770000 0.4474640000 0.0207000000
0.3296310000 0.4490910000 0.0202070000
0.3593300000 0.4514420000 0.0211440000
0.3886080000 0.4544450000 0.0244210000
0.4177310000 0.4578150000 0.0299660000
0.4468790000 0.4616710000 0.0365950000
