bundles/resolve-cinematic-luts/Gamut/Immersion 2.0/Native Light.cube
TITLE "Immersion 2.0 - Native Light by Gamut"
# Contributor - Sam Newton. Version 2.0 - 06/24/2025 - Designed for Rec.709 Color Space. Copyright 2025 Gamut, LLC.
LUT_3D_SIZE 33
0.0000000000 0.0000000000 0.0110400000
0.0145887187 0.0000000000 0.0103742187
0.0325285625 0.0113853750 0.0147858750
0.0568726875 0.0201333437 0.0187041875
0.0839970000 0.0285856250 0.0225732500
0.1129426562 0.0372359062 0.0288074687
0.1458868750 0.0422306250 0.0334653750
0.1801359687 0.0409940000 0.0353134062
0.2156292500 0.0415677500 0.0374575000
0.2514966875 0.0455690000 0.0386400000
0.2862886875 0.0490211875 0.0399707500
0.3191163750 0.0518908437 0.0414960312
0.3503205000 0.0534076250 0.0422321250
0.3807669688 0.0546744062 0.0437039688
0.4104950625 0.0549340000 0.0451458125
0.4393813750 0.0549340000 0.0465587188
0.4676460000 0.0539730000 0.0482905000
0.4955291563 0.0523851250 0.0503022812
0.5227847500 0.0494493750 0.0525456875
0.5487656875 0.0452970000 0.0554466875
0.5733868750 0.0405893750 0.0581245000
0.5964247187 0.0344018125 0.0608692813
0.6175098750 0.0279448125 0.0639141875
0.6377943750 0.0211929375 0.0677631563
0.6572127500 0.0159685000 0.0721002500
0.6772706875 0.0113114375 0.0774053125
0.6999726250 0.0077380625 0.0854238750
0.7279977187 0.0063090000 0.1008363125
0.7617381250 0.0071956250 0.1241590000
0.7998492188 0.0086740000 0.1532826562
0.8439395625 0.0079845625 0.1839742500
0.8963361250 0.0135538438 0.2113558750
0.9499180000 0.0228690000 0.2362180000
0.0107442812 0.0138736562 0.0133320625
0.0222529062 0.0154013750 0.0133074063
0.0409972812 0.0230902188 0.0179152187
0.0615940625 0.0301872813 0.0210209062
0.0882505937 0.0387143437 0.0264176875
0.1175271250 0.0480145938 0.0325779062
0.1519643125 0.0520285937 0.0366933750
0.1879613438 0.0515139687 0.0376301250
0.2246145625 0.0531323125 0.0391824688
0.2599622813 0.0567070625 0.0414949375
0.2939426250 0.0598941562 0.0422312500
0.3263941250 0.0622360000 0.0437032500
0.3576777813 0.0641236250 0.0446919375
0.3880860312 0.0652362812 0.0458437500
0.4178650938 0.0660040625 0.0472433437
0.4466587500 0.0657086875 0.0486172813
0.4752610312 0.0648841562 0.0503231250
0.5031949688 0.0629403750 0.0522820625
0.5307087500 0.0600820000 0.0545341563
0.5569007188 0.0558725625 0.0572817813
0.5815886250 0.0511500625 0.0596969688
0.6049516562 0.0450161875 0.0622224375
0.6264283438 0.0382705625 0.0650285625
0.6471884688 0.0312721562 0.0689786562
0.6675094375 0.0242730000 0.0737377188
0.6883164375 0.0181126250 0.0787478750
0.7108696250 0.0131594688 0.0858748125
0.7385877813 0.0118535313 0.1006667813
0.7714370625 0.0136030313 0.1224876875
0.8089062812 0.0182602812 0.1506980937
0.8512634375 0.0243967187 0.1823633437
0.8989302500 0.0306308125 0.2123016250
0.9496100937 0.0421730938 0.2393907187
0.0248890000 0.0371126875 0.0233613125
0.0319376875 0.0371866250 0.0218582187
0.0480920000 0.0416330625 0.0233120000
0.0692267187 0.0492889063 0.0286841875
0.0951391875 0.0574266875 0.0341056250
0.1247459687 0.0650176875 0.0396010313
0.1602659375 0.0678235625 0.0428815000
0.1982007812 0.0677388750 0.0430243125
0.2347053750 0.0700623750 0.0443665625
0.2700023750 0.0739870937 0.0457948750
0.3029085000 0.0767193750 0.0467115625
0.3349729375 0.0786791562 0.0474626875
0.3657196875 0.0798277500 0.0485938125
0.3960620625 0.0807654063 0.0495394375
0.4255944375 0.0812233125 0.0505976250
0.4547045312 0.0811820312 0.0519110937
0.4831476875 0.0800107500 0.0532442500
0.5114371250 0.0781456250 0.0551104375
0.5390083125 0.0752711250 0.0569729375
0.5652401875 0.0710517187 0.0590755000
0.5902973750 0.0660663125 0.0614581250
0.6139926562 0.0595203437 0.0637375312
0.6367136250 0.0525544375 0.0668522500
0.6585476250 0.0451455000 0.0705270937
0.6798905625 0.0379503750 0.0752233125
0.7014453750 0.0311982187 0.0802736563
0.7250125625 0.0252837500 0.0870793125
0.7528203437 0.0233367187 0.1009513438
0.7847691250 0.0267133750 0.1217396250
0.8210722500 0.0356237500 0.1493827188
0.8608520625 0.0506886250 0.1824080000
0.9036546875 0.0678572812 0.2158829375
0.9485775625 0.0817623750 0.2471489375
0.0357565000 0.0642748125 0.0386157187
0.0425594375 0.0637034063 0.0347959687
0.0547446563 0.0654045938 0.0325779062
0.0753087188 0.0706711250 0.0357565000
0.0995515938 0.0780633125 0.0397241875
0.1309418438 0.0846599062 0.0454656562
0.1680711562 0.0887075937 0.0496974688
0.2077749375 0.0907835625 0.0511533125
0.2445030625 0.0935089688 0.0517983125
0.2795718437 0.0961336250 0.0525025937
0.3124432812 0.0980840313 0.0526895313
0.3439511250 0.0994799688 0.0533413437
0.3747875625 0.1002964375 0.0538068437
0.4050244687 0.1007978750 0.0546295000
0.4343070000 0.1008781250 0.0556806875
0.4634513438 0.1006720000 0.0562889063
0.4921463125 0.0993078750 0.0575111563
0.5203190312 0.0973616250 0.0590546250
0.5476684375 0.0945954687 0.0604969687
0.5740674375 0.0907284063 0.0622969375
0.5991636563 0.0853919688 0.0642156875
0.6236271250 0.0791363438 0.0659220937
0.6471233125 0.0725335937 0.0687947187
0.6697375313 0.0651601875 0.0725838125
0.6924056562 0.0580857188 0.0771789062
0.7156637500 0.0512188750 0.0824227187
0.7405262188 0.0455547500 0.0896786875
0.7685681562 0.0445291250 0.1035162187
0.7996455312 0.0499115312 0.1241860000
0.8336024375 0.0646145625 0.1523892500
0.8698191875 0.0881343437 0.1871767813
0.9074247187 0.1148376563 0.2242667500
0.9462966875 0.1395364688 0.2602586250
0.0417590000 0.0917578750 0.0522382500
0.0493860000 0.0917130625 0.0482458125
0.0588376250 0.0909340000 0.0413691250
0.0744929375 0.0922999688 0.0377780312
0.1006170000 0.0992127500 0.0422286250
0.1318508750 0.1069672500 0.0452351875
0.1705715000 0.1126721250 0.0506807500
0.2107939062 0.1170009375 0.0557197813
0.2491630000 0.1195472500 0.0576656250
0.2855965938 0.1211729063 0.0587100937
0.3197863750 0.1220109375 0.0588831250
0.3520293437 0.1229074063 0.0594870000
0.3831403750 0.1236586250 0.0598595000
0.4133420937 0.1237822500 0.0606038750
0.4426743750 0.1237822500 0.0610108125
0.4719908437 0.1233336563 0.0618570000
0.5006957500 0.1222086250 0.0627267500
0.5288023750 0.1201465938 0.0638571250
0.5559480625 0.1176871875 0.0650455625
0.5820749687 0.1140171250 0.0666286563
0.6075168750 0.1092398750 0.0677795000
0.6320560312 0.1034274375 0.0695647812
0.6561466250 0.0972430625 0.0718716875
0.6799983125 0.0907427187 0.0754729687
0.7039022500 0.0843816250 0.0796320000
0.7282910938 0.0782188125 0.0848738125
0.7544323125 0.0747112500 0.0934957500
0.7826594375 0.0760238750 0.1087481250
0.8126343750 0.0851891250 0.1309452500
0.8439487813 0.1046057500 0.1610079062
0.8762707500 0.1331103750 0.1974532500
0.9095337188 0.1645946875 0.2363332188
0.9436985000 0.1949027500 0.2747598750
0.0354363750 0.1172236250 0.0594884687
0.0436941250 0.1195021875 0.0569070312
0.0549658437 0.1203618750 0.0505663437
0.0688678437 0.1180665312 0.0397885313
0.0946786875 0.1200279063 0.0357077187
0.1291907188 0.1289350625 0.0418772812
0.1651165937 0.1357362500 0.0448052188
0.2044842188 0.1408671563 0.0502370000
0.2456333750 0.1446910312 0.0565229063
0.2850098437 0.1469343125 0.0606467500
0.3219540000 0.1479886250 0.0633223750
0.3563546562 0.1483369062 0.0645326875
0.3886492812 0.1486555000 0.0656397500
0.4195617500 0.1487461250 0.0663180312
0.4496876875 0.1485519063 0.0671776875
0.4791766875 0.1480670000 0.0677075938
0.5080631250 0.1471300938 0.0686882500
0.5359962500 0.1456567500 0.0697440937
0.5628955625 0.1432300313 0.0705587500
0.5889249062 0.1402271250 0.0713811875
0.6144052813 0.1360226875 0.0724059062
0.6392499062 0.1307633438 0.0741030000
0.6638624687 0.1255499375 0.0762357500
0.6883145625 0.1198759375 0.0792573750
0.7131080625 0.1146913438 0.0835482188
0.7385128125 0.1106857500 0.0892505313
0.7653530313 0.1100350313 0.1000649063
0.7932731563 0.1153999375 0.1176900625
0.8217596563 0.1288931875 0.1421252813
0.8506532812 0.1516733437 0.1739427500
0.8798679687 0.1817313125 0.2110456250
0.9098398125 0.2144348125 0.2501597500
0.9405244375 0.2466413750 0.2890851875
0.0258255625 0.1394669375 0.0615329375
0.0343525312 0.1436993437 0.0602954687
0.0476225000 0.1474108750 0.0548915000
0.0641293125 0.1453299062 0.0422999375
0.0900265000 0.1428440000 0.0312962500
0.1259436562 0.1489722813 0.0341553437
0.1609787500 0.1567705625 0.0403626875
0.1969464062 0.1621327187 0.0426086875
0.2361686250 0.1670915625 0.0482466250
0.2775884687 0.1711502188 0.0558351563
0.3173216875 0.1734188125 0.0617475000
0.3546314375 0.1747470938 0.0657299062
0.3893191250 0.1750366875 0.0684256875
0.4218944063 0.1748519375 0.0704301562
0.4532473125 0.1747259375 0.0720014375
0.4836268437 0.1742786250 0.0730195625
0.5130008125 0.1735348125 0.0739283750
0.5410894063 0.1723275625 0.0753311250
0.5681155000 0.1704492500 0.0760970625
0.5943443125 0.1677117500 0.0768874062
0.6200173750 0.1642720000 0.0780348125
0.6450036875 0.1601591875 0.0793624375
0.6700892500 0.1558807500 0.0818513125
0.6950645625 0.1518120000 0.0850710937
0.7203492500 0.1484965625 0.0896860000
0.7462900937 0.1470847812 0.0968363750
0.7729455625 0.1502061875 0.1102956875
0.8000048750 0.1595885000 0.1300879375
0.8270926875 0.1764515000 0.1567125625
0.8539830000 0.2008560313 0.1895793437
0.8810938750 0.2305191875 0.2261563750
0.9087699375 0.2626363750 0.2643461563
0.9370161875 0.2953696875 0.3028724375
0.0264668125 0.1637718750 0.0613121562
0.0349931562 0.1673587500 0.0589629375
0.0481707188 0.1718477187 0.0536195625
0.0641811563 0.1691339062 0.0397421875
0.0873213125 0.1648007500 0.0278222187
0.1224536563 0.1687519062 0.0273047813
0.1582616250 0.1765227812 0.0327508750
0.1918019375 0.1822524688 0.0374079687
0.2278364375 0.1872463438 0.0405050313
0.2671639062 0.1924271563 0.0468192500
0.3075119063 0.1965418125 0.0542664375
0.3464509688 0.1991120625 0.0611942500
0.3836403125 0.2006452500 0.0667499063
0.4187005313 0.2012391562 0.0709577187
0.4522605000 0.2012296875 0.0739959375
0.4841805313 0.2009334063 0.0763488438
0.5145390000 0.2003530625 0.0782960000
0.5433468750 0.1993933438 0.0796056875
0.5710355625 0.1980110312 0.0810038750
0.5978271250 0.1959217500 0.0820895313
0.6238052187 0.1933661875 0.0835347812
0.6494524063 0.1904908437 0.0856809375
0.6748341250 0.1875820313 0.0881523438
0.7002664375 0.1852587187 0.0921210938
0.7259149688 0.1842749375 0.0979296562
0.7517968125 0.1862701875 0.1074806250
0.7777895000 0.1928565625 0.1234320625
0.8037583750 0.2053545625 0.1452176250
0.8293281563 0.2241055937 0.1730229062
0.8547820000 0.2485801250 0.2054288750
0.8805366875 0.2772224688 0.2409293437
0.9065406563 0.3082044375 0.2779235313
0.9329603125 0.3402726875 0.3156771250
0.0303597500 0.1882585000 0.0595662500
0.0380979062 0.1920239375 0.0565638750
0.0497311875 0.1941458750 0.0497780000
0.0648185625 0.1918807188 0.0373140625
0.0848761250 0.1870730000 0.0253330000
0.1178145000 0.1884295625 0.0218832500
0.1548232500 0.1958149375 0.0249881250
0.1891996250 0.2025472500 0.0310251875
0.2220547500 0.2067217500 0.0343032500
0.2582762500 0.2118133437 0.0387633125
0.2960930000 0.2170254375 0.0454110000
0.3350082500 0.2213277812 0.0527876563
0.3732345000 0.2242386250 0.0601565000
0.4104525000 0.2260516875 0.0667812500
0.4461995625 0.2269736875 0.0720014375
0.4802126562 0.2272062500 0.0759766875
0.5121180000 0.2269500000 0.0793395000
0.5423724688 0.2264037500 0.0820195000
0.5712604375 0.2254398750 0.0843136875
0.5988871562 0.2240911563 0.0862764062
0.6256315000 0.2225695000 0.0886653750
0.6519372187 0.2209431562 0.0912531250
0.6778738125 0.2197821250 0.0947088750
0.7036489375 0.2194467187 0.0996025937
0.7293150000 0.2211995000 0.1072830000
0.7548560937 0.2262928750 0.1197180000
0.7800777500 0.2357496875 0.1376907500
0.8049350938 0.2501258125 0.1606353750
0.8294243750 0.2695826250 0.1884710000
0.8539387500 0.2934677187 0.2201151875
0.8785297500 0.3208535625 0.2543459375
0.9033088438 0.3505219375 0.2902879688
0.9282222500 0.3815152500 0.3269892500
0.0321100937 0.2126102813 0.0576116875
0.0392811250 0.2158744063 0.0551514375
0.0499515625 0.2167810000 0.0469168437
0.0644733750 0.2145892188 0.0362218437
0.0843225625 0.2102714062 0.0250127187
0.1137140937 0.2094071563 0.0187038125
0.1496023437 0.2145027500 0.0192955625
0.1855483125 0.2216318125 0.0227207188
0.2188987500 0.2267282187 0.0280928125
0.2515314375 0.2307824375 0.0319865312
0.2866179375 0.2359280000 0.0371863437
0.3233934688 0.2411185000 0.0439744063
0.3614912500 0.2453995625 0.0514884688
0.3995705313 0.2486608750 0.0593305000
0.4367670938 0.2508021250 0.0662288125
0.4723959375 0.2521052188 0.0724045312
0.5062218750 0.2526666250 0.0778089687
0.5382072187 0.2527568125 0.0819010000
0.5684754062 0.2524896562 0.0855058125
0.5974110312 0.2520432188 0.0884372188
0.6252486250 0.2515202813 0.0917127500
0.6523536250 0.2514035000 0.0954605000
0.6788145313 0.2519204375 0.1000949687
0.7048598125 0.2538308125 0.1066911875
0.7303706875 0.2581405000 0.1170156563
0.7554171875 0.2655158438 0.1317683125
0.7799012500 0.2768026875 0.1508684063
0.8040692500 0.2922311250 0.1744814688
0.8278910625 0.3117740313 0.2019825938
0.8516164063 0.3349341875 0.2326722812
0.8753804375 0.3611522187 0.2659308750
0.8990858750 0.3895733750 0.3008616875
0.9228719375 0.4191505938 0.3365815937
0.0328737500 0.2362844375 0.0568200000
0.0393057812 0.2388874687 0.0537109062
0.0499973750 0.2397670000 0.0464414375
0.0639804375 0.2379526563 0.0367165000
0.0834820625 0.2343285000 0.0262201875
0.1106238750 0.2320873437 0.0185066875
0.1448202500 0.2340421250 0.0154758125
0.1812719687 0.2398625625 0.0169544062
0.2160044375 0.2459810000 0.0209466875
0.2474857188 0.2504562188 0.0263434688
0.2795697500 0.2545228125 0.0307540000
0.3141530000 0.2597052187 0.0361754375
0.3504141875 0.2646455000 0.0430243125
0.3880494063 0.2691153438 0.0506330000
0.4257659375 0.2726400625 0.0587253750
0.4625200000 0.2751487500 0.0662288125
0.4978116250 0.2769371875 0.0730647500
0.5313580313 0.2781179687 0.0787932500
0.5631923125 0.2788838750 0.0838561250
0.5935421563 0.2794586562 0.0883123437
0.6225734375 0.2801738125 0.0926888750
0.6505232500 0.2814935000 0.0978316250
0.6775146250 0.2836989375 0.1042108125
0.7036206250 0.2875477500 0.1132072812
0.7290914375 0.2937750000 0.1256860625
0.7538243125 0.3029054688 0.1420095625
0.7780106250 0.3153077500 0.1620678750
0.8016174063 0.3311716875 0.1858973750
0.8250258125 0.3504911875 0.2130182500
0.8481192813 0.3729955000 0.2429554063
0.8710818125 0.3981378125 0.2754124375
0.8939154688 0.4252124063 0.3093547187
0.9166780625 0.4533468750 0.3440622500
0.0339090000 0.2598140000 0.0578419375
0.0401184375 0.2619641250 0.0541335312
0.0499973750 0.2632098125 0.0480700625
0.0637990312 0.2620290937 0.0393241562
0.0826339375 0.2590161250 0.0297441875
0.1087928125 0.2561454687 0.0205770000
0.1418963125 0.2560255938 0.0150074688
0.1769748750 0.2589968750 0.0136768750
0.2119182500 0.2644068438 0.0159928125
0.2441489688 0.2694620937 0.0201330937
0.2746707500 0.2735943437 0.0247908125
0.3067548438 0.2778388750 0.0294482188
0.3412590938 0.2828700625 0.0353874375
0.3775215000 0.2880121250 0.0422737500
0.4148035000 0.2926793437 0.0501883438
0.4518580000 0.2965654375 0.0584039687
0.4881427500 0.2997436562 0.0661388125
0.5229902188 0.3022282187 0.0734783125
0.5563390625 0.3043660625 0.0796327813
0.5880464062 0.3061843750 0.0857128437
0.6181431250 0.3082319063 0.0917482813
0.6468283750 0.3108646562 0.0986223438
0.6742958125 0.3146410938 0.1073631875
0.7006571563 0.3200883750 0.1185282500
0.7260741875 0.3276984375 0.1328770000
0.7506190625 0.3378836562 0.1502493750
0.7745160313 0.3509012187 0.1708539375
0.7979710625 0.3669296250 0.1946542813
0.8208459375 0.3858702500 0.2213930000
0.8434419687 0.4076286875 0.2508515312
0.8656801250 0.4317511250 0.2824985625
0.8877187187 0.4574678438 0.3155523750
0.9096843125 0.4841621562 0.3493305000
0.0342045000 0.2823933750 0.0590401250
0.0401184375 0.2845537812 0.0560189688
0.0488875000 0.2861492500 0.0507216875
0.0628689062 0.2858715625 0.0430468750
0.0821822500 0.2834761250 0.0344015000
0.1077126250 0.2802213438 0.0245938437
0.1399506875 0.2783608750 0.0165600000
0.1740500000 0.2794615000 0.0122970937
0.2080383750 0.2831001250 0.0122231250
0.2405089375 0.2879079688 0.0146377188
0.2710673750 0.2924151250 0.0185807500
0.3016516250 0.2963820000 0.0232384375
0.3341480000 0.3010487500 0.0278958750
0.3688505000 0.3062921250 0.0341059062
0.4049948125 0.3116787500 0.0415148125
0.4419154687 0.3168100938 0.0495293125
0.4788408750 0.3214091250 0.0581161250
0.5147241563 0.3254638750 0.0661388125
0.5492353125 0.3289633750 0.0737985000
0.5818889375 0.3321905000 0.0815293438
0.6126988750 0.3354632500 0.0896886250
0.6419820938 0.3394733125 0.0988884063
0.6698029375 0.3444648125 0.1097381875
0.6962756250 0.3510505625 0.1227244063
0.7216978750 0.3595933750 0.1381630000
0.7462159375 0.3703607187 0.1561646875
0.7699296875 0.3836381250 0.1771745000
0.7931074062 0.3995849688 0.2008977500
0.8155858750 0.4181353750 0.2272811250
0.8375960313 0.4390951875 0.2561442813
0.8592593125 0.4620845000 0.2870386875
0.8805709063 0.4865703438 0.3192416250
0.9017345000 0.5118465000 0.3521147500
0.0339090000 0.3040388750 0.0598680000
0.0393550625 0.3062576875 0.0572260625
0.0475651875 0.3085888438 0.0528975937
0.0611965312 0.3088433437 0.0466416563
0.0807853125 0.3070144687 0.0382688125
0.1068416562 0.3038359375 0.0284875625
0.1389941563 0.3012838438 0.0190246562
0.1726289375 0.3011655313 0.0123463437
0.2059649688 0.3034403437 0.0097831250
0.2382363750 0.3071764062 0.0106701562
0.2689876250 0.3116486875 0.0130853750
0.2989861875 0.3158068750 0.0170283438
0.3296975000 0.3199929375 0.0216860625
0.3627562813 0.3250681250 0.0268120000
0.3979730000 0.3309010625 0.0333419687
0.4346221563 0.3370366250 0.0414655000
0.4716289375 0.3429485313 0.0499573437
0.5080426875 0.3483340312 0.0587613125
0.5429169687 0.3530503125 0.0678171875
0.5760058437 0.3574906562 0.0776678125
0.6071981562 0.3620010312 0.0876821875
0.6366248750 0.3669758438 0.0988866250
0.6645041563 0.3729438750 0.1114009687
0.6910001250 0.3802289375 0.1254867813
0.7163802188 0.3893232813 0.1416560938
0.7407465313 0.4004265312 0.1601351563
0.7643510313 0.4138013750 0.1811603125
0.7871720938 0.4294410000 0.2047933125
0.8092718750 0.4473460312 0.2308047500
0.8307685938 0.4674382813 0.2590550625
0.8517582812 0.4893173750 0.2891004062
0.8724347500 0.5124940625 0.3204292812
0.8929134063 0.5363828750 0.3523217813
0.0335638125 0.3252389375 0.0605362500
0.0380981875 0.3279594062 0.0587738125
0.0459046250 0.3307488125 0.0554831250
0.0599679375 0.3320682500 0.0503829062
0.0796341250 0.3308557500 0.0427388750
0.1068254063 0.3280262500 0.0329473750
0.1391293750 0.3254869375 0.0227209375
0.1732112813 0.3246591875 0.0149830000
0.2066695625 0.3258550625 0.0103005000
0.2385504063 0.3285389375 0.0094630000
0.2692342500 0.3323861875 0.0103496250
0.2991405938 0.3366385312 0.0127648438
0.3291778750 0.3409720000 0.0162147500
0.3608684375 0.3457780625 0.0206015625
0.3951366875 0.3518098750 0.0268120000
0.4309828125 0.3583796250 0.0337857813
0.4675075625 0.3650935625 0.0426870625
0.5035363438 0.3713928125 0.0529552812
0.5381329375 0.3770645000 0.0637456875
0.5709836562 0.3823036875 0.0750056250
0.6019305000 0.3875943750 0.0866246250
0.6311207187 0.3933164375 0.0988866250
0.6588410000 0.3998226875 0.1122060625
0.6852023750 0.4076758437 0.1269478125
0.7104175000 0.4170246875 0.1436082500
0.7345956250 0.4282075312 0.1623425000
0.7578920000 0.4413890625 0.1833150000
0.7803013438 0.4566185000 0.2065532812
0.8019818125 0.4738656250 0.2320714375
0.8229598125 0.4929899062 0.2596373125
0.8433633125 0.5137154375 0.2888586250
0.8634296250 0.5355719063 0.3191954062
0.8832590000 0.5580948750 0.3501166875
0.0339090000 0.3462810937 0.0628405937
0.0374328750 0.3498979688 0.0620040312
0.0451836875 0.3540570625 0.0596946875
0.0594175625 0.3566176875 0.0549080000
0.0804763437 0.3559929063 0.0474927187
0.1086157187 0.3533055938 0.0376035625
0.1417227812 0.3511241875 0.0273781875
0.1762211875 0.3502318125 0.0182603125
0.2100260313 0.3507669063 0.0120506562
0.2420730937 0.3530295000 0.0088959062
0.2726648125 0.3562146250 0.0087972812
0.3025998437 0.3602642188 0.0096601250
0.3327025312 0.3647300937 0.0119768438
0.3637710625 0.3694803437 0.0163380312
0.3967171563 0.3753220938 0.0218585000
0.4313849375 0.3818047812 0.0296947188
0.4666481250 0.3886373125 0.0393863437
0.5013494687 0.3950699688 0.0504572500
0.5348487500 0.4009945625 0.0618123750
0.5667666563 0.4066320625 0.0737817188
0.5970622188 0.4123242188 0.0860670000
0.6257164375 0.4183948438 0.0987515000
0.6530094687 0.4252852188 0.1125482500
0.6790611562 0.4333519688 0.1277046250
0.7039079687 0.4427712500 0.1444010313
0.7277727813 0.4538427500 0.1631570937
0.7506647813 0.4667055937 0.1837604063
0.7726770312 0.4813580312 0.2064932500
0.7938069375 0.4978310937 0.2314023750
0.8142403437 0.5159773750 0.2581035937
0.8341083750 0.5354619687 0.2864083750
0.8535715625 0.5560082188 0.3157158750
0.8728264375 0.5770948750 0.3455931875
0.0331200000 0.3681055000 0.0656435000
0.0370137188 0.3728015625 0.0653615000
0.0451351250 0.3790530000 0.0642976875
0.0611145312 0.3825165625 0.0595400313
0.0842643750 0.3824032500 0.0518408750
0.1135948750 0.3804196875 0.0421861875
0.1472768125 0.3787555625 0.0313950000
0.1821064375 0.3783422813 0.0219321250
0.2160985000 0.3791795000 0.0145885000
0.2483140000 0.3809044375 0.0106950313
0.2790609375 0.3836862500 0.0090685000
0.3092998437 0.3873221875 0.0094625000
0.3394766250 0.3914807500 0.0116312500
0.3701681562 0.3961150625 0.0159933125
0.4019024375 0.4013528125 0.0222771875
0.4346475625 0.4071165000 0.0304832187
0.4678200000 0.4131020000 0.0397895000
0.5007300625 0.4189901250 0.0504560938
0.5326401250 0.4246631250 0.0618123750
0.5632821562 0.4302610937 0.0735360938
0.5925563750 0.4360516250 0.0858513750
0.6204901875 0.4422801875 0.0987515000
0.6471594375 0.4493168125 0.1127170000
0.6726669687 0.4573650000 0.1278536875
0.6970767500 0.4667592500 0.1443967500
0.7204661875 0.4775710938 0.1627419063
0.7428966875 0.4899453125 0.1829781875
0.7643123750 0.5039548437 0.2051605313
0.7849525000 0.5195383750 0.2291685000
0.8048340938 0.5365536562 0.2549671875
0.8241340625 0.5548711875 0.2821331250
0.8430025000 0.5740593750 0.3104202812
0.8616805000 0.5937415000 0.3390460000
0.0330712188 0.3898059063 0.0701330625
0.0373342812 0.3958038437 0.0708872812
0.0475044688 0.4060551250 0.0709376562
0.0659970000 0.4111900625 0.0662975000
0.0907743437 0.4119377188 0.0587301250
0.1207649062 0.4110100938 0.0492053750
0.1545184062 0.4101323437 0.0387364063
0.1893161250 0.4098630625 0.0292755625
0.2235419687 0.4105442188 0.0213408750
0.2560290937 0.4118745937 0.0164858125
0.2872770313 0.4138932500 0.0139230625
0.3176691875 0.4165033750 0.0138245625
0.3477167812 0.4198427500 0.0158700625
0.3777535938 0.4236568125 0.0198622812
0.4080846563 0.4278580312 0.0257521875
0.4389030938 0.4325409688 0.0332185625
0.4699530312 0.4374652813 0.0420059375
0.5008261875 0.4426078125 0.0520707813
0.5310650625 0.4479052500 0.0629186250
0.5602658437 0.4531487188 0.0742774375
0.5884437813 0.4588352813 0.0863434375
0.6154092187 0.4650441250 0.0990179375
0.6413223438 0.4719928125 0.1127170000
0.6661524688 0.4799557812 0.1274566563
0.6899452812 0.4890271563 0.1436568750
0.7127571563 0.4994852188 0.1614893125
0.7345180625 0.5112679688 0.1810514687
0.7554355000 0.5245508750 0.2025343750
0.7754718750 0.5391645625 0.2256452500
0.7948135000 0.5551568750 0.2504300000
0.8135830937 0.5722348750 0.2764778750
0.8318425312 0.5900089062 0.3034276563
0.8499527188 0.6082674062 0.3308596250
0.0387828125 0.4205527500 0.0796601250
0.0418249687 0.4237970313 0.0801384375
0.0526778750 0.4344037500 0.0806141875
0.0740321250 0.4420233125 0.0765271563
0.1004825625 0.4439673750 0.0693255000
0.1302038125 0.4435418437 0.0599391563
0.1633561250 0.4428036250 0.0494967500
0.1979314062 0.4423893125 0.0397061875
0.2317736250 0.4424323750 0.0315925000
0.2644246250 0.4430095938 0.0259491563
0.2957799375 0.4439543750 0.0226221250
0.3260129687 0.4454998750 0.0217842500
0.3555974375 0.4476779375 0.0230659375
0.3847806250 0.4503965937 0.0263184063
0.4139034375 0.4536131875 0.0315430000
0.4430155625 0.4572588437 0.0381562813
