bundles/resolve-cinematic-luts/Gamut/Immersion 2.0/Tonal Eclipse +.cube
TITLE "Immersion 2.0 - Total Eclipse + by Gamut"
# Contributor - Sam Newton. Version 2.0 - 06/24/2025 - Designed for Rec.709 Color Space. Copyright 2025 Gamut, LLC.
LUT_3D_SIZE 33
0.0000000000 0.0000000000 0.0331200000
0.0168070000 0.0000000000 0.0262200000
0.0279450000 0.0069980000 0.0214400000
0.0418570000 0.0124690000 0.0182850000
0.0577900000 0.0148840000 0.0173490000
0.0792900000 0.0173490000 0.0158940000
0.1028340000 0.0194180000 0.0157710000
0.1295480000 0.0231400000 0.0170040000
0.1536350000 0.0291780000 0.0207000000
0.1794910000 0.0353870000 0.0247900000
0.2083430000 0.0423120000 0.0292270000
0.2373820000 0.0471100000 0.0325780000
0.2664560000 0.0510860000 0.0351900000
0.2966180000 0.0557940000 0.0375310000
0.3267670000 0.0600090000 0.0403090000
0.3572400000 0.0643150000 0.0425590000
0.3859160000 0.0694630000 0.0454590000
0.4124290000 0.0730670000 0.0475490000
0.4384650000 0.0770280000 0.0509330000
0.4650870000 0.0803530000 0.0537870000
0.4933940000 0.0832270000 0.0566620000
0.5207710000 0.0844180000 0.0598820000
0.5479670000 0.0859030000 0.0631640000
0.5761020000 0.0870900000 0.0661130000
0.6050220000 0.0871870000 0.0693340000
0.6350340000 0.0847700000 0.0725530000
0.6673850000 0.0807420000 0.0764440000
0.7041220000 0.0791770000 0.0805010000
0.7491930000 0.0801790000 0.0857780000
0.8075790000 0.0845080000 0.0992360000
0.8755760000 0.1092100000 0.1383530000
0.9362920000 0.1727770000 0.2264680000
0.9871190000 0.2556360000 0.3399560000
0.0068750000 0.0140220000 0.0237310000
0.0192950000 0.0154750000 0.0221290000
0.0379500000 0.0201580000 0.0190490000
0.0552310000 0.0233370000 0.0189010000
0.0779400000 0.0265160000 0.0188770000
0.1018540000 0.0287090000 0.0187530000
0.1268940000 0.0318140000 0.0194920000
0.1500770000 0.0361760000 0.0230410000
0.1768160000 0.0422800000 0.0270830000
0.2034580000 0.0484770000 0.0310010000
0.2324400000 0.0534940000 0.0341300000
0.2611020000 0.0582450000 0.0367180000
0.2910570000 0.0647020000 0.0395520000
0.3215510000 0.0697290000 0.0418240000
0.3513270000 0.0750940000 0.0447550000
0.3809480000 0.0800980000 0.0472360000
0.4083020000 0.0844580000 0.0502580000
0.4341290000 0.0888170000 0.0531760000
0.4601020000 0.0924580000 0.0566400000
0.4875360000 0.0943830000 0.0593170000
0.5152520000 0.0957590000 0.0627820000
0.5429210000 0.0975840000 0.0661090000
0.5711040000 0.0985240000 0.0688110000
0.5998330000 0.0983260000 0.0717760000
0.6290150000 0.0969560000 0.0744550000
0.6594110000 0.0938430000 0.0769220000
0.6922220000 0.0919770000 0.0797890000
0.7297620000 0.0920290000 0.0831090000
0.7761330000 0.0935230000 0.0888780000
0.8332700000 0.1022610000 0.1049760000
0.8943590000 0.1344750000 0.1514420000
0.9455910000 0.2015180000 0.2412310000
0.9905560000 0.2823600000 0.3489070000
0.0101030000 0.0294730000 0.0251350000
0.0194680000 0.0333180000 0.0236320000
0.0380490000 0.0341060000 0.0236080000
0.0576460000 0.0388130000 0.0250620000
0.0835360000 0.0426330000 0.0258750000
0.1137950000 0.0434730000 0.0250620000
0.1401590000 0.0478490000 0.0276990000
0.1652930000 0.0531510000 0.0309020000
0.1917530000 0.0585290000 0.0340560000
0.2195950000 0.0630980000 0.0365950000
0.2493680000 0.0676090000 0.0389850000
0.2790150000 0.0746960000 0.0417960000
0.3097080000 0.0812610000 0.0442750000
0.3408690000 0.0870920000 0.0468850000
0.3720550000 0.0921840000 0.0495760000
0.4014790000 0.0970410000 0.0528300000
0.4279420000 0.1016890000 0.0559930000
0.4535560000 0.1049330000 0.0593130000
0.4799740000 0.1071860000 0.0627970000
0.5077600000 0.1088120000 0.0661060000
0.5357860000 0.1102130000 0.0692930000
0.5644000000 0.1110690000 0.0722270000
0.5934570000 0.1106470000 0.0749410000
0.6226920000 0.1095000000 0.0773790000
0.6523200000 0.1079740000 0.0796690000
0.6831560000 0.1059270000 0.0816390000
0.7167700000 0.1056560000 0.0839140000
0.7556730000 0.1064230000 0.0871680000
0.8027980000 0.1097050000 0.0937640000
0.8574080000 0.1237200000 0.1145440000
0.9104960000 0.1627680000 0.1669380000
0.9536550000 0.2312240000 0.2562980000
0.9931590000 0.3090680000 0.3572950000
0.0125430000 0.0420050000 0.0289550000
0.0165600000 0.0488770000 0.0266640000
0.0365950000 0.0482110000 0.0281670000
0.0594520000 0.0514950000 0.0250860000
0.0892520000 0.0587330000 0.0289550000
0.1225100000 0.0653410000 0.0341800000
0.1495500000 0.0685580000 0.0364720000
0.1765180000 0.0740280000 0.0395020000
0.2040570000 0.0797050000 0.0418870000
0.2334030000 0.0842510000 0.0441030000
0.2631220000 0.0901040000 0.0467390000
0.2934740000 0.0959980000 0.0488630000
0.3260130000 0.1013890000 0.0508600000
0.3587590000 0.1063700000 0.0534570000
0.3903810000 0.1107210000 0.0559700000
0.4196720000 0.1144230000 0.0589530000
0.4464280000 0.1178300000 0.0625190000
0.4717100000 0.1209270000 0.0663600000
0.4979660000 0.1234630000 0.0702860000
0.5258200000 0.1249620000 0.0734140000
0.5548350000 0.1253840000 0.0763890000
0.5844540000 0.1245310000 0.0787910000
0.6141310000 0.1237990000 0.0814590000
0.6439740000 0.1225240000 0.0834660000
0.6742680000 0.1216140000 0.0855460000
0.7058880000 0.1213740000 0.0873070000
0.7406090000 0.1219530000 0.0891600000
0.7808800000 0.1234610000 0.0927640000
0.8277920000 0.1298490000 0.1018930000
0.8783360000 0.1495910000 0.1281500000
0.9235200000 0.1944320000 0.1855880000
0.9604020000 0.2623310000 0.2717250000
0.9949680000 0.3367020000 0.3661790000
0.0126170000 0.0576230000 0.0336130000
0.0150080000 0.0669440000 0.0311980000
0.0290790000 0.0720740000 0.0313460000
0.0511650000 0.0711380000 0.0305320000
0.0938580000 0.0778400000 0.0275010000
0.1271860000 0.0860130000 0.0320360000
0.1515920000 0.0912060000 0.0390350000
0.1808440000 0.0980530000 0.0449120000
0.2126330000 0.1029340000 0.0500740000
0.2436930000 0.1078970000 0.0526740000
0.2741130000 0.1129090000 0.0543250000
0.3059520000 0.1174480000 0.0566120000
0.3394760000 0.1219190000 0.0583420000
0.3734580000 0.1252430000 0.0601920000
0.4060920000 0.1277700000 0.0628280000
0.4359830000 0.1305290000 0.0660270000
0.4629630000 0.1340550000 0.0700490000
0.4884790000 0.1370660000 0.0743740000
0.5148290000 0.1394970000 0.0782070000
0.5428620000 0.1404660000 0.0810990000
0.5723230000 0.1402540000 0.0838480000
0.6025850000 0.1395130000 0.0860750000
0.6328010000 0.1391970000 0.0881170000
0.6633160000 0.1386740000 0.0900110000
0.6946420000 0.1389190000 0.0919490000
0.7275660000 0.1397320000 0.0936050000
0.7636910000 0.1406980000 0.0954630000
0.8046880000 0.1442250000 0.1001970000
0.8501940000 0.1543110000 0.1133880000
0.8954550000 0.1800600000 0.1455850000
0.9337260000 0.2287320000 0.2057420000
0.9659200000 0.2943430000 0.2872360000
0.9962640000 0.3652720000 0.3756260000
0.0111630000 0.0775130000 0.0389360000
0.0134800000 0.0885010000 0.0380490000
0.0204780000 0.0993620000 0.0372360000
0.0499010000 0.0988550000 0.0395270000
0.0903550000 0.1007040000 0.0306550000
0.1311680000 0.1056320000 0.0305080000
0.1588480000 0.1130170000 0.0342290000
0.1849470000 0.1182570000 0.0433680000
0.2164570000 0.1231960000 0.0502730000
0.2499440000 0.1277520000 0.0561100000
0.2831650000 0.1322340000 0.0606150000
0.3172160000 0.1366740000 0.0634720000
0.3515360000 0.1400110000 0.0657140000
0.3864130000 0.1430250000 0.0683390000
0.4194710000 0.1457030000 0.0712660000
0.4498670000 0.1481520000 0.0744930000
0.4771750000 0.1511750000 0.0786340000
0.5032420000 0.1544340000 0.0830000000
0.5301720000 0.1567270000 0.0865810000
0.5587240000 0.1575570000 0.0894330000
0.5886870000 0.1577260000 0.0919660000
0.6193200000 0.1576850000 0.0942330000
0.6501080000 0.1579730000 0.0959200000
0.6815570000 0.1584550000 0.0975170000
0.7140980000 0.1596090000 0.0990900000
0.7483120000 0.1606420000 0.1007250000
0.7856660000 0.1626930000 0.1035420000
0.8266090000 0.1684580000 0.1103070000
0.8693230000 0.1829800000 0.1278920000
0.9089510000 0.2138510000 0.1651390000
0.9419320000 0.2640320000 0.2259560000
0.9705950000 0.3268220000 0.3025500000
0.9971450000 0.3953210000 0.3864210000
0.0096110000 0.0996480000 0.0473510000
0.0125430000 0.1109070000 0.0479120000
0.0192700000 0.1221310000 0.0460720000
0.0423320000 0.1252490000 0.0467830000
0.0865200000 0.1227280000 0.0440300000
0.1313920000 0.1276590000 0.0327260000
0.1654520000 0.1310150000 0.0344010000
0.1938120000 0.1369080000 0.0374580000
0.2231770000 0.1417520000 0.0487070000
0.2552250000 0.1467980000 0.0569960000
0.2903200000 0.1517250000 0.0637880000
0.3266460000 0.1561390000 0.0700760000
0.3625610000 0.1594180000 0.0745350000
0.3978140000 0.1621920000 0.0780570000
0.4310900000 0.1646420000 0.0811540000
0.4619330000 0.1671260000 0.0846220000
0.4897160000 0.1702820000 0.0888010000
0.5164170000 0.1740060000 0.0929340000
0.5439080000 0.1765980000 0.0968180000
0.5732180000 0.1779490000 0.0994100000
0.6037000000 0.1786020000 0.1017230000
0.6347930000 0.1791640000 0.1034780000
0.6664620000 0.1799450000 0.1049700000
0.6987680000 0.1811040000 0.1064440000
0.7324260000 0.1824600000 0.1078970000
0.7679890000 0.1840450000 0.1094900000
0.8060270000 0.1876230000 0.1133930000
0.8459400000 0.1960280000 0.1231110000
0.8850710000 0.2148200000 0.1447940000
0.9198570000 0.2491730000 0.1854840000
0.9490750000 0.2990220000 0.2452330000
0.9746660000 0.3595560000 0.3180050000
0.9977950000 0.4263420000 0.3985580000
0.0114840000 0.1209000000 0.0597170000
0.0136520000 0.1312120000 0.0591540000
0.0223270000 0.1438830000 0.0568860000
0.0396410000 0.1509780000 0.0568250000
0.0825310000 0.1476900000 0.0585280000
0.1231050000 0.1490630000 0.0486930000
0.1670500000 0.1539200000 0.0379990000
0.2034710000 0.1566170000 0.0381220000
0.2346570000 0.1627290000 0.0439200000
0.2640330000 0.1671180000 0.0556220000
0.2978320000 0.1724520000 0.0665210000
0.3341150000 0.1771880000 0.0755260000
0.3719100000 0.1807270000 0.0835890000
0.4077980000 0.1829280000 0.0884980000
0.4416380000 0.1851310000 0.0921100000
0.4729470000 0.1879190000 0.0956970000
0.5010460000 0.1917640000 0.1001500000
0.5282760000 0.1960330000 0.1044400000
0.5565760000 0.1992450000 0.1081050000
0.5864930000 0.2014220000 0.1106590000
0.6175940000 0.2026650000 0.1126280000
0.6492940000 0.2037710000 0.1141600000
0.6815470000 0.2047900000 0.1153740000
0.7149590000 0.2062450000 0.1164600000
0.7499220000 0.2077810000 0.1178040000
0.7865420000 0.2103860000 0.1202540000
0.8245220000 0.2156130000 0.1256910000
0.8625600000 0.2269100000 0.1381590000
0.8981660000 0.2488480000 0.1632440000
0.9291590000 0.2847820000 0.2053100000
0.9555700000 0.3335470000 0.2631250000
0.9782080000 0.3927610000 0.3336340000
0.9982460000 0.4582720000 0.4121670000
0.0100540000 0.1441390000 0.0737150000
0.0176200000 0.1550880000 0.0733560000
0.0283890000 0.1673940000 0.0691700000
0.0418840000 0.1754760000 0.0676000000
0.0736860000 0.1757310000 0.0682330000
0.1218330000 0.1740320000 0.0661450000
0.1653990000 0.1770480000 0.0560650000
0.2104960000 0.1791780000 0.0464900000
0.2449830000 0.1832460000 0.0450750000
0.2764620000 0.1892020000 0.0530670000
0.3079740000 0.1938000000 0.0690210000
0.3421620000 0.1988050000 0.0815390000
0.3798260000 0.2033270000 0.0913170000
0.4164370000 0.2070070000 0.0986180000
0.4510510000 0.2093980000 0.1035910000
0.4826740000 0.2122890000 0.1081020000
0.5109950000 0.2164870000 0.1125110000
0.5388410000 0.2210310000 0.1170380000
0.5680010000 0.2248970000 0.1205200000
0.5985910000 0.2275020000 0.1228300000
0.6302580000 0.2293440000 0.1246150000
0.6626170000 0.2307450000 0.1258700000
0.6958070000 0.2321800000 0.1269340000
0.7303690000 0.2336950000 0.1280310000
0.7662950000 0.2358270000 0.1296330000
0.8034280000 0.2395570000 0.1328060000
0.8408260000 0.2466120000 0.1399210000
0.8767820000 0.2602740000 0.1548660000
0.9094410000 0.2840110000 0.1820190000
0.9376300000 0.3199750000 0.2238310000
0.9614420000 0.3678010000 0.2803220000
0.9813220000 0.4260430000 0.3496600000
0.9986230000 0.4904680000 0.4267090000
0.0161160000 0.1674570000 0.0880210000
0.0230900000 0.1781580000 0.0852160000
0.0346480000 0.1916380000 0.0801700000
0.0459240000 0.1996770000 0.0781040000
0.0667400000 0.2043310000 0.0768880000
0.1191610000 0.2014790000 0.0805180000
0.1632430000 0.2016750000 0.0760340000
0.2152130000 0.2062740000 0.0603980000
0.2511590000 0.2058700000 0.0591140000
0.2863620000 0.2111660000 0.0586070000
0.3186670000 0.2168510000 0.0690560000
0.3512550000 0.2216230000 0.0847180000
0.3870030000 0.2267440000 0.0969220000
0.4231910000 0.2315920000 0.1059940000
0.4580810000 0.2360050000 0.1136600000
0.4898980000 0.2405100000 0.1197960000
0.5189270000 0.2453220000 0.1248960000
0.5478150000 0.2500080000 0.1295120000
0.5777760000 0.2538270000 0.1330520000
0.6093450000 0.2565360000 0.1354460000
0.6418110000 0.2585170000 0.1371780000
0.6749740000 0.2600990000 0.1384180000
0.7092420000 0.2617740000 0.1395500000
0.7448980000 0.2637540000 0.1406680000
0.7816450000 0.2666060000 0.1428690000
0.8187140000 0.2713870000 0.1469930000
0.8550960000 0.2800020000 0.1556790000
0.8890650000 0.2950240000 0.1720740000
0.9194170000 0.3192830000 0.1999290000
0.9454360000 0.3546120000 0.2413500000
0.9667790000 0.4016980000 0.2972220000
0.9840520000 0.4590140000 0.3657010000
0.9989230000 0.5223870000 0.4419500000
0.0189750000 0.1922810000 0.1009250000
0.0261960000 0.2040380000 0.0983410000
0.0362740000 0.2164230000 0.0923380000
0.0490930000 0.2259270000 0.0894400000
0.0644650000 0.2330010000 0.0888770000
0.1136360000 0.2330800000 0.0931040000
0.1630440000 0.2325070000 0.0935000000
0.2086300000 0.2340430000 0.0859330000
0.2580000000 0.2374560000 0.0717010000
0.2930430000 0.2366910000 0.0730340000
0.3276930000 0.2411860000 0.0747530000
0.3610460000 0.2466530000 0.0850530000
0.3947560000 0.2517730000 0.0995660000
0.4296020000 0.2572960000 0.1109820000
0.4639070000 0.2628000000 0.1203150000
0.4956790000 0.2684620000 0.1278480000
0.5255740000 0.2740440000 0.1343930000
0.5554860000 0.2792190000 0.1397300000
0.5864460000 0.2833980000 0.1438650000
0.6189260000 0.2866370000 0.1468920000
0.6523470000 0.2889980000 0.1490910000
0.6866900000 0.2911060000 0.1507450000
0.7221020000 0.2931950000 0.1522130000
0.7585840000 0.2956980000 0.1539920000
0.7956690000 0.2992710000 0.1568580000
0.8323420000 0.3049730000 0.1620810000
0.8675950000 0.3145140000 0.1718600000
0.9000460000 0.3301520000 0.1891010000
0.9285480000 0.3542770000 0.2168510000
0.9523850000 0.3890860000 0.2581330000
0.9714450000 0.4353260000 0.3136640000
0.9864710000 0.4912850000 0.3816930000
0.9991240000 0.5530270000 0.4570370000
0.0223270000 0.2190750000 0.1138660000
0.0297930000 0.2304010000 0.1110990000
0.0410610000 0.2424130000 0.1061190000
0.0521000000 0.2530480000 0.1023070000
0.0650620000 0.2613190000 0.1016340000
0.1063270000 0.2655220000 0.1040180000
0.1630600000 0.2652630000 0.1070420000
0.2064570000 0.2659350000 0.1039950000
0.2586270000 0.2689390000 0.0912930000
0.3002600000 0.2692510000 0.0836350000
0.3346360000 0.2682890000 0.0856910000
0.3694910000 0.2721880000 0.0893290000
0.4036710000 0.2776110000 0.0995920000
0.4372830000 0.2832750000 0.1127680000
0.4703830000 0.2891020000 0.1239300000
0.5017950000 0.2951260000 0.1327910000
0.5323190000 0.3010670000 0.1404990000
0.5631910000 0.3067010000 0.1466100000
0.5951570000 0.3116090000 0.1518890000
0.6284430000 0.3157100000 0.1559350000
0.6628550000 0.3191250000 0.1592110000
0.6982350000 0.3220950000 0.1617950000
0.7345350000 0.3249960000 0.1641840000
0.7715170000 0.3283230000 0.1669060000
0.8086050000 0.3327480000 0.1707400000
0.8448640000 0.3392620000 0.1768770000
0.8791100000 0.3493840000 0.1873750000
0.9101190000 0.3652460000 0.2051190000
0.9368090000 0.3891760000 0.2332760000
0.9585970000 0.4232600000 0.2744770000
0.9755780000 0.4682100000 0.3297350000
0.9885860000 0.5222750000 0.3969810000
0.9993100000 0.5817610000 0.4714990000
0.0249390000 0.2471520000 0.1258470000
0.0333910000 0.2583680000 0.1233360000
0.0481120000 0.2709200000 0.1181930000
0.0589950000 0.2819170000 0.1145670000
0.0695310000 0.2909440000 0.1142760000
0.1035170000 0.2980580000 0.1156020000
0.1635420000 0.2987850000 0.1194810000
0.2099680000 0.2990210000 0.1181940000
0.2561240000 0.3003840000 0.1121710000
0.3055370000 0.3022060000 0.0981370000
0.3432780000 0.3005330000 0.0951610000
0.3777200000 0.3001590000 0.0977040000
0.4125910000 0.3040110000 0.1030660000
0.4465910000 0.3097590000 0.1130060000
0.4789120000 0.3156980000 0.1246540000
0.5099750000 0.3218270000 0.1349940000
0.5408390000 0.3278740000 0.1439410000
0.5721850000 0.3335980000 0.1512020000
0.6049000000 0.3391480000 0.1574070000
0.6388830000 0.3440380000 0.1627450000
0.6739340000 0.3484650000 0.1672650000
0.7100490000 0.3525200000 0.1713000000
0.7468300000 0.3564120000 0.1750070000
0.7840290000 0.3608600000 0.1788380000
0.8209090000 0.3661760000 0.1838720000
0.8564950000 0.3734850000 0.1910030000
0.8897090000 0.3841600000 0.2022980000
0.9192270000 0.4002000000 0.2206640000
0.9441670000 0.4238420000 0.2491300000
0.9640140000 0.4569690000 0.2902060000
0.9791120000 0.5000420000 0.3449020000
0.9903680000 0.5516060000 0.4112930000
0.9994970000 0.6080430000 0.4845910000
0.0333910000 0.2770250000 0.1366180000
0.0434260000 0.2884280000 0.1341920000
0.0541440000 0.3001370000 0.1308270000
0.0648490000 0.3116670000 0.1274070000
0.0736200000 0.3212830000 0.1272860000
0.1036760000 0.3299310000 0.1276300000
0.1642460000 0.3322720000 0.1307100000
0.2155290000 0.3328100000 0.1305500000
0.2606630000 0.3333410000 0.1256190000
0.3078350000 0.3342690000 0.1160200000
0.3520140000 0.3343860000 0.1057060000
0.3881220000 0.3326290000 0.1054780000
0.4225490000 0.3331350000 0.1097990000
0.4566840000 0.3374380000 0.1162400000
0.4891250000 0.3432550000 0.1255090000
0.5203630000 0.3492630000 0.1357190000
0.5514320000 0.3551820000 0.1455090000
0.5832530000 0.3610020000 0.1539290000
0.6163100000 0.3667990000 0.1612170000
0.6506380000 0.3723070000 0.1679550000
0.6860930000 0.3774930000 0.1738360000
0.7223860000 0.3825210000 0.1791250000
0.7592950000 0.3875110000 0.1843310000
0.7963290000 0.3929470000 0.1897050000
0.8326680000 0.3992240000 0.1958440000
0.8674870000 0.4073720000 0.2041160000
0.8994260000 0.4185630000 0.2164050000
0.9274140000 0.4347920000 0.2353250000
0.9505930000 0.4579430000 0.2639230000
0.9686960000 0.4897120000 0.3048820000
0.9820870000 0.5304350000 0.3588540000
0.9918640000 0.5787970000 0.4239900000
0.9996020000 0.6316090000 0.4959130000
0.0411650000 0.3086760000 0.1485520000
0.0493870000 0.3198950000 0.1465710000
0.0600440000 0.3319380000 0.1434610000
0.0715900000 0.3441710000 0.1403930000
0.0808060000 0.3541640000 0.1400990000
0.1080100000 0.3636380000 0.1404950000
0.1664020000 0.3675320000 0.1426520000
0.2230670000 0.3682520000 0.1421770000
0.2706640000 0.3687640000 0.1379410000
0.3153680000 0.3689850000 0.1310500000
0.3609360000 0.3690130000 0.1194630000
0.4002900000 0.3677700000 0.1142500000
0.4349500000 0.3667330000 0.1163530000
0.4681730000 0.3682480000 0.1216980000
0.5007330000 0.3725090000 0.1287800000
0.5325160000 0.3779410000 0.1375040000
0.5641070000 0.3835370000 0.1468870000
0.5962450000 0.3892320000 0.1559420000
0.6294630000 0.3950340000 0.1642830000
0.6638400000 0.4008220000 0.1720080000
0.6992550000 0.4065980000 0.1791340000
0.7353840000 0.4122780000 0.1858250000
0.7720260000 0.4181760000 0.1924730000
0.8086020000 0.4245150000 0.1991930000
0.8442690000 0.4317360000 0.2066070000
0.8779780000 0.4406090000 0.2159440000
0.9085730000 0.4523870000 0.2290320000
0.9349410000 0.4686100000 0.2485390000
0.9563880000 0.4910450000 0.2773520000
0.9727650000 0.5211110000 0.3178480000
0.9846740000 0.5591670000 0.3707740000
0.9931220000 0.6039240000 0.4346420000
0.9996700000 0.6525150000 0.5047660000
0.0487520000 0.3420590000 0.1613730000
0.0576890000 0.3535640000 0.1592880000
0.0691880000 0.3661950000 0.1560840000
0.0796730000 0.3785450000 0.1533680000
0.0884070000 0.3887000000 0.1532350000
0.1142670000 0.3986040000 0.1534870000
0.1715370000 0.4033740000 0.1546620000
0.2319780000 0.4046410000 0.1538730000
0.2815330000 0.4050620000 0.1500400000
0.3264830000 0.4050000000 0.1437090000
0.3710930000 0.4045900000 0.1342440000
0.4123130000 0.4038630000 0.1260710000
0.4483790000 0.4026600000 0.1248850000
0.4817190000 0.4026280000 0.1283040000
0.5141580000 0.4048400000 0.1340200000
0.5462600000 0.4086710000 0.1413230000
0.5783140000 0.4134800000 0.1495650000
0.6107950000 0.4186590000 0.1582280000
0.6440270000 0.4240810000 0.1669880000
0.6782160000 0.4297990000 0.1754350000
0.7133050000 0.4357380000 0.1835490000
0.7490920000 0.4419310000 0.1915260000
0.7852950000 0.4484920000 0.1992170000
0.8211190000 0.4555200000 0.2071120000
0.8558160000 0.4634930000 0.2157010000
0.8881920000 0.4730460000 0.2261150000
0.9171860000 0.4852120000 0.2400490000
0.9417820000 0.5013250000 0.2600140000
0.9615480000 0.5228790000 0.2887880000
0.9763240000 0.5510960000 0.3286810000
0.9868520000 0.5861210000 0.3804550000
0.9941770000 0.6269890000 0.4425230000
0.9997580000 0.6710650000 0.5106490000
0.0564940000 0.3773200000 0.1739670000
0.0654690000 0.3894130000 0.1719410000
0.0762830000 0.4018980000 0.1689810000
0.0858920000 0.4137900000 0.1670250000
0.0959590000 0.4240830000 0.1671860000
0.1231150000 0.4340660000 0.1671000000
0.1799990000 0.4395940000 0.1672980000
0.2417940000 0.4412750000 0.1661250000
0.2930090000 0.4418750000 0.1622880000
0.3388940000 0.4419170000 0.1562060000
0.3825960000 0.4413400000 0.1481240000
0.4241060000 0.4405040000 0.1401810000
0.4616680000 0.4394870000 0.1363140000
0.4961250000 0.4389290000 0.1371060000
0.5291230000 0.4396410000 0.1407230000
0.5615920000 0.4419090000 0.1462360000
0.5939380000 0.4452330000 0.1531950000
0.6265720000 0.4494530000 0.1612930000
0.6597090000 0.4541250000 0.1696610000
0.6935770000 0.4593370000 0.1783840000
0.7282820000 0.4651990000 0.1872930000
0.7635700000 0.4714990000 0.1959180000
0.7990250000 0.4783820000 0.2046390000
0.8339350000 0.4859750000 0.2135130000
0.8673490000 0.4945090000 0.2230480000
0.8982280000 0.5045670000 0.2342480000
0.9254750000 0.5169570000 0.2488580000
0.9482790000 0.5327980000 0.2691620000
0.9662190000 0.5533540000 0.2977130000
0.9795100000 0.5795400000 0.3368170000
0.9887610000 0.6115350000 0.3870300000
0.9950670000 0.6484330000 0.4470970000
0.9998120000 0.6880510000 0.5127620000
0.0643500000 0.4141770000 0.1868880000
0.0738590000 0.4262030000 0.1847010000
0.0838320000 0.4387270000 0.1822650000
0.0925260000 0.4502080000 0.1812150000
0.1044150000 0.4604610000 0.1813840000
0.1347440000 0.4705880000 0.1811940000
0.1906330000 0.4764990000 0.1805990000
0.2516480000 0.4785940000 0.1788380000
0.3040470000 0.4794560000 0.1747990000
0.3508640000 0.4794800000 0.1689020000
0.3947200000 0.4789090000 0.1617050000
0.4363080000 0.4780220000 0.1544000000
0.4748920000 0.4769710000 0.1493690000
0.5107470000 0.4760610000 0.1476340000
0.5448510000 0.4759340000 0.1489280000
0.5780590000 0.4768340000 0.1523950000
0.6107180000 0.4786850000 0.1576150000
0.6433820000 0.4815250000 0.1645460000
0.6764030000 0.4851760000 0.1726310000
0.7099750000 0.4897130000 0.1811810000
0.7441780000 0.4950810000 0.1903300000
0.7788010000 0.5012380000 0.1995090000
0.8133230000 0.5081980000 0.2088240000
0.8470270000 0.5160190000 0.2183170000
0.8789310000 0.5248600000 0.2285800000
0.9080280000 0.5352020000 0.2404260000
0.9333890000 0.5476410000 0.2555070000
0.9543370000 0.5630960000 0.2758010000
0.9705590000 0.5825210000 0.3038260000
0.9823610000 0.6067620000 0.3417790000
0.9904450000 0.6358380000 0.3901550000
0.9958430000 0.6689330000 0.4476090000
0.9998370000 0.7042180000 0.5104030000
0.0721190000 0.4528160000 0.2005120000
0.0815450000 0.4650720000 0.1983030000
0.0908150000 0.4770340000 0.1963110000
0.0996260000 0.4879380000 0.1959320000
0.1151690000 0.4983090000 0.1960470000
0.1482290000 0.5079840000 0.1955070000
0.2027510000 0.5137990000 0.1942070000
0.2618340000 0.5162990000 0.1917870000
0.3147680000 0.5173820000 0.1875040000
0.3626480000 0.5175080000 0.1817750000
0.4072140000 0.5169990000 0.1749710000
0.4491850000 0.5160810000 0.1680630000
0.4886610000 0.5148390000 0.1623520000
0.5257670000 0.5137040000 0.1587610000
0.5610510000 0.5128680000 0.1576940000
0.5950660000 0.5126730000 0.1589200000
