bundles/resolve-cinematic-luts/Gamut/Immersion 2.0/Tonal Eclipse.cube
TITLE "Immersion 2.0 - Total Eclipse by Gamut"
# Contributor - Sam Newton. Version 2.0 - 06/24/2025 - Designed for Rec.709 Color Space. Copyright 2025 Gamut, LLC.
LUT_3D_SIZE 5
0.0000000000 0.0000000000 0.0331190000
0.2459487500 0.0766440000 0.0610472500
0.4998250000 0.1199160000 0.0817125000
0.6702705000 0.1076077500 0.0828780000
0.9783890000 0.2455950000 0.3263490000
0.0362730000 0.2040982500 0.1151700000
0.2916737500 0.2340555000 0.0934165000
0.5550262500 0.2522437500 0.1349265000
0.7747785000 0.2530610000 0.1426590000
0.9951482500 0.4713770000 0.4125627500
0.0627965000 0.3933605000 0.1768020000
0.2911372500 0.4466347500 0.1641222500
0.5972585000 0.4521270000 0.1600635000
0.8507265000 0.4946645000 0.2241977500
0.9980795000 0.6653135000 0.4732500000
0.1044025000 0.6775477500 0.2865415000
0.3782937500 0.7226055000 0.2683067500
0.7074687500 0.7213987500 0.2254667500
0.9211357500 0.7289652500 0.2465445000
0.9993425000 0.8168925000 0.3870347500
0.4998630000 0.9764530000 0.5922270000
0.6696702500 0.9828560000 0.5365172500
0.8522665000 0.9834665000 0.4498760000
0.9714277500 0.9854525000 0.3736567500
1.0000000000 0.9973120000 0.3738740000
0.0274020000 0.0823585000 0.1816875000
0.2273070000 0.1030685000 0.1915140000
0.5015342500 0.1184965000 0.1599255000
0.7164577500 0.1176550000 0.1555885000
0.9918332500 0.3290345000 0.4772967500
0.0737610000 0.1800780000 0.2585262500
0.2369112094 0.2434788313 0.2560438219
0.5627938937 0.2748534062 0.2305400469
0.8115242156 0.3047204719 0.2565673500
0.9974537500 0.5449260000 0.5796662500
0.0461727500 0.3805092500 0.3218277500
0.2303299375 0.4735459188 0.3084575562
0.5842400531 0.5114715563 0.2937713750
0.8605312687 0.5459744969 0.3477575594
0.9982540000 0.6930270000 0.5996580000
0.0906025000 0.6710200000 0.4098762500
0.3246885687 0.7404240969 0.4043647687
0.6568775813 0.7680526813 0.3688742562
0.8952715094 0.7700435813 0.3749745812
0.9983887500 0.8330110000 0.5104372500
0.4602522500 0.9701047500 0.6649107500
0.6073087500 0.9824715000 0.6554645000
0.7996322500 0.9890342500 0.5964740000
0.9254980000 0.9889527500 0.5253615000
0.9988322500 0.9977430000 0.5093570000
0.0555635000 0.1901335000 0.4146370000
0.1538252500 0.2009675000 0.4012882500
0.4995180000 0.1863720000 0.3710880000
0.7434430000 0.1455960000 0.3091047500
0.9951820000 0.3904875000 0.6293875000
0.0714385000 0.2300380000 0.4465695000
0.1788197187 0.2749958438 0.4604799906
0.5306892031 0.2864514500 0.4148201344
0.8066937687 0.3134939656 0.4091290375
0.9975947500 0.5833087500 0.7384657500
0.1305530000 0.3297505000 0.4917960000
0.2351302188 0.4363744094 0.5281938906
0.5162580469 0.5076915156 0.5055938750
0.8358080656 0.5508546781 0.5153568094
0.9975010000 0.7063600000 0.7529325000
0.1464160000 0.6103907500 0.6148505000
0.2964567156 0.6846990719 0.6132351844
0.5688271000 0.7472358500 0.5974653812
0.8320819000 0.7782322156 0.5757976000
0.9952292500 0.8316622500 0.6964612500
0.3693315000 0.9232610000 0.7662015000
0.5207812500 0.9533140000 0.7800490000
0.7305510000 0.9801405000 0.7802235000
0.8711777500 0.9869080000 0.7279052500
0.9953575000 0.9970430000 0.6784170000
0.0828652500 0.2758535000 0.6091110000
0.1437727500 0.2908382500 0.6138100000
0.4382220000 0.2998635000 0.6003722500
0.7769620000 0.2746667500 0.5605330000
0.9961270000 0.4856367500 0.8151500000
0.1027057500 0.3094162500 0.6311367500
0.1804669000 0.3521352594 0.6589628062
0.4813462594 0.3945247594 0.6514957031
0.8198281344 0.4058964750 0.6373930406
0.9979445000 0.6229622500 0.8780487500
0.1533967500 0.3825430000 0.6695790000
0.2692779344 0.4820290125 0.7250735875
0.4993161437 0.5634207438 0.7265399813
0.8116679906 0.5802934687 0.7004489969
0.9970700000 0.7154540000 0.8838372500
0.2600737500 0.6052822500 0.7915095000
0.3530686906 0.6715061937 0.8071153375
0.5599927437 0.7326923156 0.7991049375
0.7891259250 0.7870157375 0.7917671688
0.9961470000 0.8321502500 0.8728005000
0.3662430000 0.8959752500 0.9126772500
0.4756080000 0.9271875000 0.9134800000
0.6978227500 0.9555195000 0.9159122500
0.8772242500 0.9879310000 0.9323442500
0.9926870000 0.9956140000 0.8493502500
0.2943890000 0.5654560000 0.9805950000
0.3939612500 0.6202540000 0.9958165000
0.5519350000 0.6750010000 0.9977025000
0.8288725000 0.6653432500 0.9924362500
1.0000000000 0.7569090000 1.0000000000
0.4161215000 0.6442150000 0.9960527500
0.5025612500 0.6973680000 0.9992685000
0.6177292500 0.7650435000 0.9994365000
0.8051985000 0.8271562500 0.9950942500
0.9992150000 0.8293195000 0.9945002500
0.5075360000 0.7215915000 0.9922875000
0.5554452500 0.7699130000 0.9952360000
0.6519140000 0.8293210000 0.9941960000
0.8204320000 0.8820890000 0.9897010000
0.9987780000 0.8265060000 0.9923145000
0.5187850000 0.7688942500 0.9891837500
0.5595247500 0.8086247500 0.9905170000
0.6558242500 0.8571070000 0.9903605000
0.7989832500 0.8918805000 0.9888372500
0.9967530000 0.8890935000 0.9885307500
0.5765980000 0.9101680000 0.9997050000
0.6177607500 0.9312832500 0.9989125000
0.7170735000 0.9564235000 0.9988990000
0.8538585000 0.9773312500 0.9976282500
0.9933440000 0.9979850000 1.0000000000
