bundles/resolve-cinematic-luts/Gamut/Immersion 2.0/Tonal Eclipse.cube
TITLE "Immersion 2.0 - Total Eclipse by Gamut"
# Contributor - Sam Newton. Version 2.0 - 06/24/2025 - Designed for Rec.709 Color Space. Copyright 2025 Gamut, LLC.
LUT_3D_SIZE 33
0.0000000000 0.0000000000 0.0331190000
0.0153284375 0.0000000000 0.0283880000
0.0340573125 0.0129121875 0.0259727500
0.0609865625 0.0254306250 0.0290281562
0.0948170000 0.0385408750 0.0357802500
0.1266794062 0.0519343750 0.0460889688
0.1644781875 0.0631858750 0.0531565000
0.2050515625 0.0688743125 0.0565441250
0.2459487500 0.0766440000 0.0610472500
0.2859690938 0.0860020000 0.0651681250
0.3238011250 0.0939071875 0.0689623750
0.3585719063 0.1005306875 0.0717431250
0.3901485000 0.1055675000 0.0742813750
0.4197122500 0.1099066562 0.0762561875
0.4474821250 0.1138971250 0.0786755000
0.4740785000 0.1172825312 0.0805621563
0.4998250000 0.1199160000 0.0817125000
0.5246625000 0.1217095625 0.0830945625
0.5485250625 0.1227080000 0.0838000000
0.5716620000 0.1224435313 0.0842580000
0.5939667500 0.1210321250 0.0842580000
0.6147689687 0.1185058125 0.0842580000
0.6339798125 0.1154999375 0.0836562500
0.6523121250 0.1117090938 0.0833400000
0.6702705000 0.1076077500 0.0828780000
0.6890119375 0.1028087187 0.0828780000
0.7112680625 0.0979491875 0.0830508750
0.7413937188 0.0950206250 0.0862414062
0.7803228750 0.0968601250 0.0971717500
0.8263615625 0.1098797187 0.1238659063
0.8766302500 0.1423598750 0.1764237500
0.9279905312 0.1919348750 0.2489871875
0.9783890000 0.2455950000 0.3263490000
0.0107442812 0.0130856563 0.0283880000
0.0222529375 0.0154023438 0.0269588437
0.0431275938 0.0245942812 0.0274511563
0.0690696250 0.0354608125 0.0327493750
0.0997785000 0.0479803437 0.0403784062
0.1326728125 0.0615895625 0.0501709063
0.1704161875 0.0726082813 0.0574058125
0.2125150625 0.0787671562 0.0617640000
0.2550740938 0.0866598437 0.0655657812
0.2950155937 0.0952758750 0.0693270937
0.3318399687 0.1026556875 0.0725836250
0.3657844375 0.1083249375 0.0750989375
0.3972954062 0.1132577500 0.0772276875
0.4267558125 0.1177861250 0.0796075938
0.4546606875 0.1220409375 0.0817538437
0.4811597813 0.1253555625 0.0835261875
0.5069012187 0.1282855625 0.0851096250
0.5318236875 0.1299573125 0.0862224062
0.5559813750 0.1307523750 0.0871007188
0.5793708125 0.1301980000 0.0875297500
0.6020949375 0.1288687500 0.0877924062
0.6234235312 0.1262986875 0.0873642188
0.6434426875 0.1232616875 0.0869069062
0.6625930313 0.1196319688 0.0864606562
0.6816331250 0.1153037813 0.0860266563
0.7017622500 0.1108155000 0.0860124063
0.7255732188 0.1068031250 0.0867102187
0.7569640313 0.1060923750 0.0911790000
0.7962686562 0.1117697188 0.1048585625
0.8410790000 0.1305470000 0.1363450313
0.8881765625 0.1678975000 0.1915575938
0.9354494375 0.2178988750 0.2620195625
0.9821324062 0.2703230313 0.3357360625
0.0233612500 0.0422860000 0.0390336875
0.0326517812 0.0437408438 0.0382447188
0.0513425000 0.0485863750 0.0404516250
0.0789272813 0.0580174063 0.0454696563
0.1082268750 0.0680136875 0.0514731875
0.1412462813 0.0786301875 0.0590272500
0.1797223750 0.0863118750 0.0639385000
0.2225506250 0.0929560937 0.0677002500
0.2647838125 0.1007788125 0.0714731875
0.3043052500 0.1088207812 0.0749034062
0.3404384375 0.1150688750 0.0774830000
0.3739626563 0.1201782187 0.0795759063
0.4052488125 0.1246649375 0.0814451250
0.4347724063 0.1288184063 0.0837392500
0.4623606250 0.1327294375 0.0857836875
0.4890759063 0.1362558750 0.0877346875
0.5148070000 0.1388168750 0.0892141875
0.5397607500 0.1404973438 0.0904978438
0.5639093125 0.1411021250 0.0911813750
0.5877186875 0.1404543437 0.0916079375
0.6109053125 0.1389633125 0.0916079375
0.6328420625 0.1362056875 0.0911813750
0.6536418125 0.1329988125 0.0907538125
0.6740449375 0.1293377500 0.0903242500
0.6944770625 0.1254135000 0.0898926875
0.7163551250 0.1216515000 0.0899869687
0.7420585000 0.1190135625 0.0914713750
0.7749752500 0.1207443750 0.0978727812
0.8139910625 0.1308949375 0.1154939375
0.8565811875 0.1553147187 0.1516033750
0.8996462500 0.1959546875 0.2080093750
0.9424895313 0.2449014063 0.2752551875
0.9852488750 0.2957060625 0.3450135625
0.0356816250 0.0741314063 0.0616360625
0.0432054063 0.0769916250 0.0594072500
0.0588724375 0.0802265625 0.0583233750
0.0857273125 0.0847698750 0.0596391562
0.1151694375 0.0921755000 0.0652323125
0.1483559063 0.0994343125 0.0700836875
0.1891513750 0.1062602187 0.0738319375
0.2325725000 0.1134629688 0.0772840312
0.2740572813 0.1207896875 0.0801891875
0.3129290312 0.1269867500 0.0822126563
0.3491770000 0.1319652813 0.0840775625
0.3827326563 0.1359031875 0.0858643125
0.4138985937 0.1397188125 0.0876191875
0.4433854375 0.1433626250 0.0893868125
0.4712859062 0.1470384688 0.0913216562
0.4978885937 0.1501614687 0.0931728437
0.5234168750 0.1524150938 0.0943960937
0.5483816250 0.1538161563 0.0956057812
0.5728940937 0.1541257188 0.0966257500
0.5968350000 0.1534054687 0.0968545000
0.6202913750 0.1514534688 0.0967026250
0.6429813750 0.1487460313 0.0963090000
0.6649785000 0.1454828125 0.0955448750
0.6864931250 0.1420116250 0.0952627500
0.7085860313 0.1386942500 0.0952232812
0.7325503125 0.1361941875 0.0954017812
0.7605899063 0.1356355312 0.0981756250
0.7943370000 0.1405116563 0.1076243750
0.8322388750 0.1557594687 0.1296137500
0.8713632187 0.1849678750 0.1695637187
0.9103063125 0.2265283750 0.2254567188
0.9490780937 0.2736854687 0.2889095625
0.9879267187 0.3223730312 0.3546745000
0.0456272500 0.1028892500 0.0799586250
0.0495375312 0.1061360312 0.0772138438
0.0612924375 0.1096566875 0.0743867500
0.0871213750 0.1121133750 0.0751933750
0.1198238750 0.1173718750 0.0715021250
0.1565083438 0.1234700313 0.0759960937
0.1961292500 0.1307677500 0.0828276250
0.2386210313 0.1379895312 0.0873457188
0.2801705000 0.1439483750 0.0896338750
0.3196274375 0.1484690000 0.0913820938
0.3563085000 0.1522545000 0.0927060625
0.3904380312 0.1556090313 0.0939479375
0.4221121250 0.1584840000 0.0952291250
0.4519554688 0.1614324062 0.0966813750
0.4799968125 0.1642827500 0.0982662500
0.5065410625 0.1665463750 0.0997435937
0.5321753750 0.1685571250 0.1010298750
0.5572236563 0.1696095938 0.1022187187
0.5817308750 0.1696634375 0.1029641250
0.6059843750 0.1686820313 0.1030132500
0.6298876250 0.1666391250 0.1028208750
0.6532503750 0.1638286250 0.1022445000
0.6762120625 0.1609341250 0.1016880000
0.6992595000 0.1579518437 0.1014210000
0.7231853750 0.1555508750 0.1015175000
0.7491326563 0.1543407500 0.1025289375
0.7789618125 0.1564348750 0.1074875000
0.8127868438 0.1654446562 0.1206365000
0.8485690000 0.1851381250 0.1471591250
0.8843483437 0.2172671250 0.1893523438
0.9196157500 0.2583840000 0.2430550625
0.9548693750 0.3036964688 0.3027935625
0.9900948750 0.3508822500 0.3651357500
0.0452916250 0.1282692813 0.0929071250
0.0500248125 0.1323527813 0.0903407813
0.0546481562 0.1380129687 0.0861049687
0.0773998750 0.1427006875 0.0861203125
0.1145725937 0.1447813438 0.0854673438
0.1621915625 0.1508233438 0.0781559063
0.2030050000 0.1554426563 0.0823492500
0.2413716250 0.1614062812 0.0909313125
0.2827121875 0.1675646250 0.0962503437
0.3231649375 0.1718178750 0.0997515000
0.3610506562 0.1749116250 0.1016549375
0.3960869688 0.1775672188 0.1028480937
0.4286146875 0.1798263125 0.1040518125
0.4589382812 0.1818327500 0.1050782500
0.4874771250 0.1836608438 0.1061777812
0.5144141875 0.1854158438 0.1076351563
0.5402380625 0.1869794375 0.1088351562
0.5653303750 0.1878169687 0.1099691563
0.5899750625 0.1875714063 0.1105210937
0.6145613750 0.1863943125 0.1105210937
0.6389084687 0.1843463125 0.1100271250
0.6629818438 0.1817229062 0.1093735000
0.6871194687 0.1791735313 0.1089636250
0.7116499063 0.1768940937 0.1087132500
0.7373971875 0.1754975625 0.1092566875
0.7651763437 0.1761870313 0.1117345937
0.7960350312 0.1813529375 0.1196795312
0.8290856875 0.1943834063 0.1366617500
0.8626137500 0.2175544375 0.1664867500
0.8954650000 0.2507605937 0.2087905000
0.9278003125 0.2907798437 0.2601602188
0.9599661875 0.3345857187 0.3168637500
0.9918803750 0.3804749375 0.3762665312
0.0362243125 0.1529084375 0.1022876875
0.0431111875 0.1568986875 0.1003055937
0.0479408125 0.1645350000 0.0967817500
0.0652686250 0.1723556875 0.0940035312
0.1102094375 0.1740326250 0.0954285000
0.1577610313 0.1761063750 0.0885720625
0.2078164375 0.1804247500 0.0829025625
0.2467435625 0.1843948750 0.0880465625
0.2849040625 0.1894050625 0.0971128750
0.3243625313 0.1940889375 0.1033321875
0.3631023750 0.1976613750 0.1079461250
0.3992039688 0.2002614062 0.1105180625
0.4327685000 0.2021268750 0.1122636875
0.4640655938 0.2036848125 0.1138618437
0.4932316875 0.2050482500 0.1149496250
0.5207326875 0.2062460937 0.1162372500
0.5467701875 0.2072690625 0.1175775625
0.5721511562 0.2078717500 0.1184112500
0.5971043125 0.2075215000 0.1189261875
0.6220562500 0.2062857500 0.1187909062
0.6469641250 0.2044165625 0.1183195625
0.6720711563 0.2021423750 0.1178027500
0.6973566250 0.2000585000 0.1172415625
0.7235032188 0.1986408750 0.1173360625
0.7508238750 0.1986306875 0.1187927500
0.7800180938 0.2014236875 0.1231437187
0.8112498750 0.2097740625 0.1340883750
0.8430746250 0.2259684063 0.1543543125
0.8744618750 0.2512376875 0.1858348125
0.9049313750 0.2843854375 0.2274068750
0.9349291875 0.3231516250 0.2764962500
0.9642819375 0.3658726875 0.3307809063
0.9932322500 0.4109130000 0.3880668125
0.0356573750 0.1780296563 0.1090681563
0.0395512813 0.1830473750 0.1069155625
0.0452788125 0.1908952187 0.1036084688
0.0635125937 0.1996574688 0.1015525938
0.1058052187 0.2024280625 0.1028729688
0.1555606562 0.2021438437 0.1004050000
0.2068631250 0.2060749688 0.0882046250
0.2508060625 0.2077928125 0.0877043750
0.2886177812 0.2114520938 0.0939135937
0.3260385625 0.2156258125 0.1029252500
0.3636385937 0.2195095938 0.1101271875
0.4002311875 0.2226155000 0.1155882187
0.4348510938 0.2248758437 0.1191969687
0.4670756563 0.2263188437 0.1217047813
0.4971061875 0.2275265625 0.1236118750
0.5252696875 0.2285269062 0.1251845000
0.5517404688 0.2292714688 0.1265116250
0.5774713125 0.2297261250 0.1275321250
0.6029037188 0.2293348750 0.1280118437
0.6284439687 0.2282599063 0.1278859063
0.6542472500 0.2265875000 0.1275831875
0.6802812813 0.2248617187 0.1269659375
0.7069190312 0.2235345625 0.1266876875
0.7345078750 0.2230180625 0.1274198750
0.7632784062 0.2245734375 0.1300331250
0.7933985313 0.2297498438 0.1367594062
0.8243023437 0.2407800625 0.1501754688
0.8549123750 0.2591056250 0.1726749687
0.8845714062 0.2850102187 0.2045706250
0.9132970625 0.3174410625 0.2448939062
0.9410893750 0.3552786250 0.2920445937
0.9679860312 0.3972210313 0.3447401250
0.9943464687 0.4413936563 0.4002873437
0.0362730000 0.2040982500 0.1151700000
0.0393787187 0.2096206250 0.1135550312
0.0476228750 0.2171008750 0.1113120625
0.0654752500 0.2254956563 0.1091312500
0.1017963750 0.2300170000 0.1098318750
0.1535423125 0.2293816563 0.1101574062
0.2012375000 0.2306846250 0.1024036875
0.2518005313 0.2333695000 0.0912057500
0.2916737500 0.2340555000 0.0934165000
0.3284224062 0.2371499687 0.1004653125
0.3645540000 0.2406665000 0.1093353750
0.4003941875 0.2442060000 0.1171239062
0.4353246250 0.2469931250 0.1233037500
0.4683050313 0.2489830313 0.1276522187
0.4991741875 0.2504711875 0.1309685000
0.5278831250 0.2514637500 0.1331694375
0.5550262500 0.2522437500 0.1349265000
0.5812853125 0.2527281250 0.1361689062
0.6074379375 0.2525288125 0.1369105000
0.6337189063 0.2517339687 0.1371272500
0.6604973750 0.2506511250 0.1368357500
0.6878869375 0.2495748750 0.1367610000
0.7159103750 0.2490851875 0.1369413125
0.7448922813 0.2498277500 0.1385445938
0.7747785000 0.2530610000 0.1426590000
0.8052664063 0.2603549375 0.1515660312
0.8356906875 0.2731421875 0.1669228125
0.8652249687 0.2924228125 0.1903223438
0.8936232500 0.3181742500 0.2219137500
0.9206998125 0.3498252813 0.2610194687
0.9465414375 0.3869346250 0.3071078125
0.9711797500 0.4280370938 0.3583844375
0.9951482500 0.4713770000 0.4125627500
0.0370620000 0.2294428125 0.1226676250
0.0412760000 0.2350111875 0.1212980938
0.0507656562 0.2425361875 0.1186959062
0.0681413437 0.2503242812 0.1169866563
0.1000692187 0.2556205625 0.1170300938
0.1492219687 0.2561929687 0.1176972812
0.1985103750 0.2560686250 0.1132017500
0.2483767812 0.2579322500 0.1025655625
0.2928665938 0.2582417813 0.0970375312
0.3303858125 0.2593670937 0.1003650625
0.3661496875 0.2622282500 0.1080677812
0.4012411875 0.2655221563 0.1169610625
0.4354485938 0.2686335625 0.1247886250
0.4686333125 0.2711507813 0.1312074688
0.4998001563 0.2730549063 0.1359515625
0.5291883125 0.2746224688 0.1394769687
0.5569908437 0.2757229688 0.1419672188
0.5840710000 0.2763904687 0.1437483750
0.6110495312 0.2765592188 0.1450340625
0.6384219688 0.2762902187 0.1456514063
0.6663837500 0.2759032188 0.1458380312
0.6950739688 0.2756075000 0.1463903438
0.7244874062 0.2761970000 0.1474708437
0.7546539062 0.2783930937 0.1502546250
0.7852721875 0.2833102813 0.1561119062
0.8158616563 0.2920452813 0.1664668125
0.8457947813 0.3058480312 0.1830940000
0.8744843125 0.3252290313 0.2066988438
0.9017235625 0.3505211250 0.2377294375
0.9272834688 0.3815640625 0.2761324063
0.9512729375 0.4178742188 0.3212850000
0.9738981250 0.4581771250 0.3716134688
0.9957658750 0.5005029063 0.4247177500
0.0391814375 0.2538774375 0.1305499375
0.0441814687 0.2594610938 0.1287415312
0.0535097500 0.2669100625 0.1262778125
0.0697804375 0.2744680000 0.1246684063
0.0984661250 0.2804041875 0.1243483750
0.1436250000 0.2826515937 0.1249782500
0.1948913125 0.2824805625 0.1234430000
0.2431170625 0.2827967188 0.1160737500
0.2912926875 0.2836743125 0.1061923125
0.3309647500 0.2833041250 0.1050384688
0.3673506250 0.2846460000 0.1090571250
0.4021253125 0.2872157500 0.1165554375
0.4359496250 0.2901698125 0.1247682500
0.4687388438 0.2929525312 0.1324289375
0.5000800625 0.2953019375 0.1385803750
0.5299003750 0.2973580625 0.1433957188
0.5583518125 0.2988853750 0.1469177500
0.5863660625 0.3000510625 0.1496173125
0.6143750000 0.3008480000 0.1514786875
0.6430202188 0.3013315625 0.1528600000
0.6722968125 0.3018123125 0.1540516875
0.7023050625 0.3026273437 0.1554144062
0.7329558750 0.3044158125 0.1576635625
0.7640817812 0.3079917187 0.1620148125
0.7951300625 0.3141749375 0.1690957500
0.8255792813 0.3239350625 0.1807942813
0.8550628750 0.3381058750 0.1979260000
0.8829806250 0.3573747187 0.2215871562
0.9091517500 0.3822137500 0.2522605000
0.9332662812 0.4126294688 0.2902819062
0.9555371250 0.4480157500 0.3347241875
0.9763207188 0.4872754687 0.3842214688
0.9962663750 0.5285669375 0.4364279375
0.0414950313 0.2781014062 0.1392913125
0.0463086563 0.2837274062 0.1373997500
0.0554337812 0.2907891875 0.1349981250
0.0706530312 0.2985497187 0.1330265625
0.0972980312 0.3052157500 0.1324445000
0.1390030000 0.3088397188 0.1329980625
0.1901440000 0.3096377187 0.1328125625
0.2388463125 0.3094194687 0.1284387812
0.2864034375 0.3096038750 0.1194442812
0.3299929375 0.3091400000 0.1127050937
0.3675756250 0.3087021875 0.1133737812
0.4029142812 0.3097993125 0.1176825312
0.4367743125 0.3120508125 0.1246765625
0.4693230312 0.3145840000 0.1324097500
0.5007361250 0.3172125937 0.1392099375
0.5308975312 0.3196200625 0.1450479063
0.5601253125 0.3216998125 0.1496519375
0.5890933750 0.3234924688 0.1534902813
0.6183905312 0.3251280625 0.1563979688
0.6482627187 0.3265821562 0.1587648750
0.6788286875 0.3281099687 0.1610413750
0.7100274063 0.3301622188 0.1636080625
0.7416445938 0.3332195000 0.1673664687
0.7732425000 0.3379603125 0.1729478750
0.8044390625 0.3450258438 0.1813322813
0.8347519062 0.3553996875 0.1938827500
0.8637266563 0.3697308750 0.2113920937
0.8909410313 0.3888433750 0.2351947812
0.9159329063 0.4131965000 0.2657548125
0.9386619687 0.4427957813 0.3032799687
0.9593751563 0.4771802188 0.3471254063
0.9784867187 0.5152353437 0.3958565312
0.9966373125 0.5551474687 0.4472150312
0.0434446250 0.3015417500 0.1478771250
0.0490645313 0.3071732188 0.1461792813
0.0578444375 0.3144431250 0.1438419375
0.0724521562 0.3224624375 0.1418948125
0.0966148750 0.3297040000 0.1410750000
0.1351217500 0.3344566562 0.1410750000
0.1849982500 0.3361329375 0.1409000000
0.2353520000 0.3362370000 0.1382649687
0.2823695000 0.3359411250 0.1314833750
0.3278292812 0.3352590313 0.1229932813
0.3675487500 0.3339977500 0.1195125000
0.4038295625 0.3336163750 0.1210726250
0.4381005000 0.3346515000 0.1254261250
0.4708790625 0.3366676875 0.1321266875
0.5025366250 0.3393136875 0.1389046875
0.5332110625 0.3420399375 0.1454324688
0.5632501250 0.3445748750 0.1510178750
0.5933561563 0.3472688125 0.1556893125
0.6238151250 0.3497248750 0.1597666250
0.6548464063 0.3521671250 0.1634570625
0.6864715000 0.3548403750 0.1670597500
0.7184520313 0.3580316562 0.1711103438
0.7505825000 0.3621770000 0.1761438750
0.7824108437 0.3678086875 0.1829020313
0.8136482500 0.3756036250 0.1924103750
0.8437053125 0.3864010313 0.2055132500
0.8720366875 0.4008433125 0.2235443750
0.8983314062 0.4196836562 0.2474644375
0.9222012500 0.4434706250 0.2778598750
0.9436617187 0.4722010000 0.3150589062
0.9628675625 0.5053613125 0.3583926875
0.9804280000 0.5419065625 0.4063280000
0.9969991250 0.5801792500 0.4567850000
0.0467284688 0.3246129375 0.1553347187
0.0524965625 0.3302936875 0.1538660313
0.0612047812 0.3376655625 0.1516580312
0.0748159375 0.3459385313 0.1498142813
0.0969229062 0.3538850937 0.1487030625
0.1327277500 0.3595310625 0.1486690625
0.1814708750 0.3621681875 0.1482934687
0.2327955937 0.3625581250 0.1461096562
0.2805414375 0.3619991563 0.1408415312
0.3260894687 0.3611049687 0.1331266875
0.3679786563 0.3598085625 0.1270713125
0.4056616875 0.3587121875 0.1257197812
0.4406980938 0.3587225625 0.1280250313
0.4740400000 0.3601873125 0.1329065313
0.5062019375 0.3625864688 0.1390917187
0.5375069375 0.3654972500 0.1455937500
0.5685037813 0.3685703750 0.1516917812
0.5997047813 0.3718525625 0.1574275937
0.6310647188 0.3750945937 0.1626101562
0.6630393750 0.3784594062 0.1675272500
0.6952842500 0.3820391250 0.1723820625
0.7276920937 0.3861369062 0.1776953750
0.7599995313 0.3911515000 0.1839363438
0.7918729063 0.3975026563 0.1917882500
0.8228349688 0.4058744375 0.2021067813
0.8523825312 0.4169203125 0.2159380938
0.8800443125 0.4313787813 0.2343500000
0.9053251562 0.4499168750 0.2583976250
0.9280731562 0.4729725000 0.2886129375
0.9482213438 0.5006072812 0.3253862187
0.9660530625 0.5323291875 0.3680349375
0.9821911875 0.5671130313 0.4150879063
0.9973221250 0.6035930312 0.4646044375
0.0518388750 0.3477544375 0.1621444375
0.0574832813 0.3535129375 0.1608262812
0.0657961250 0.3610258750 0.1589847500
0.0787731875 0.3697402188 0.1571413125
0.0986711875 0.3780398750 0.1561733125
0.1321219687 0.3846140625 0.1558125938
0.1801287500 0.3881057500 0.1552140625
0.2323908125 0.3889472188 0.1531320312
0.2815637500 0.3885715000 0.1484891875
0.3272067188 0.3874767500 0.1418210000
0.3700303125 0.3864435000 0.1351202500
0.4091564375 0.3854486563 0.1317535000
0.4452628750 0.3852028125 0.1323918125
0.4793775625 0.3860710625 0.1357007813
0.5122190000 0.3881995000 0.1408580000
0.5443640000 0.3910507813 0.1469886875
0.5762160000 0.3943924375 0.1531418125
0.6081121563 0.3979625625 0.1593090000
0.6402785625 0.4016992500 0.1653407500
0.6726865625 0.4056268438 0.1711718125
0.7051857500 0.4097709375 0.1771055625
0.7376559375 0.4145019063 0.1835173750
0.7699249375 0.4201052500 0.1908472500
0.8015182188 0.4269912500 0.1996302813
0.8320066250 0.4357765625 0.2107273750
0.8609139688 0.4469945312 0.2251030313
0.8877169375 0.4613734375 0.2437998750
0.9120308750 0.4794955625 0.2678635625
0.9335698750 0.5016976875 0.2978328750
0.9524730625 0.5280635625 0.3340103750
0.9690117500 0.5581263750 0.3757145625
0.9837601875 0.5910293125 0.4217750938
0.9976067500 0.6255136875 0.4701980625
0.0578264687 0.3705305938 0.1692458438
0.0633774063 0.3769274062 0.1680915625
0.0718828750 0.3851784375 0.1662009375
0.0839467812 0.3944561875 0.1644266875
0.1024355625 0.4032458750 0.1635459062
0.1344965312 0.4104734063 0.1630666562
0.1821875312 0.4148518125 0.1623876250
0.2351285938 0.4164519063 0.1602714375
0.2852555000 0.4165940625 0.1559831563
0.3315670625 0.4158736250 0.1499656875
0.3747705625 0.4149411875 0.1435688438
0.4147665313 0.4144152813 0.1396384063
0.4517890313 0.4141390313 0.1387561875
0.4868313125 0.4148884688 0.1407061562
0.5205298125 0.4165992500 0.1447247500
0.5534251563 0.4192073125 0.1500631562
0.5859609375 0.4223528437 0.1560924062
0.6184118750 0.4258554063 0.1621201250
0.6509124063 0.4295616250 0.1683800625
0.6834766875 0.4336027188 0.1747351562
0.7160073125 0.4380445000 0.1814943125
0.7483801562 0.4431145625 0.1887197500
0.7803459375 0.4490817188 0.1968075000
0.8114558125 0.4563305937 0.2063253125
0.8413467187 0.4653720312 0.2181249063
0.8694422813 0.4766821875 0.2329074063
0.8952477812 0.4908119063 0.2518135000
0.9184334375 0.5083165938 0.2756405937
0.9387810000 0.5295583750 0.3052205312
0.9564509062 0.5545110313 0.3406626563
0.9717308750 0.5829104375 0.3814125625
0.9852734062 0.6137562500 0.4262469063
0.9978681875 0.6459802500 0.4731683125
0.0627965000 0.3933605000 0.1768020000
0.0690869375 0.4007491250 0.1755883750
0.0778371250 0.4103922500 0.1739226250
0.0894321563 0.4207869375 0.1724409375
0.1076286250 0.4303467500 0.1717132500
0.1399938125 0.4383320312 0.1712577188
0.1876929375 0.4433868750 0.1704247500
0.2407085313 0.4457850937 0.1681416875
0.2911372500 0.4466347500 0.1641222500
0.3378485937 0.4466380938 0.1587934062
0.3814111875 0.4462316875 0.1533198750
0.4219847500 0.4458568125 0.1491756563
0.4599700000 0.4457242500 0.1476016250
0.4959243125 0.4462882813 0.1482733750
0.5305089375 0.4475526250 0.1509687500
0.5641302188 0.4495384062 0.1550880625
0.5972585000 0.4521270000 0.1600635000
0.6300670625 0.4551370937 0.1658233125
0.6628012500 0.4586145000 0.1719411250
0.6952935000 0.4624778125 0.1783558125
0.7276771250 0.4669105000 0.1854645000
0.7597541250 0.4720693750 0.1932503750
0.7912265625 0.4782051875 0.2019978750
0.8216947500 0.4856086563 0.2120194687
0.8507265000 0.4946645000 0.2241977500
0.8778728438 0.5058830625 0.2392689062
0.9025530000 0.5196481250 0.2582185625
0.9245823750 0.5365140625 0.2817910625
0.9437165000 0.5566711250 0.3107156250
0.9601885312 0.5801844375 0.3451240625
0.9742924375 0.6066556250 0.3844851875
0.9866558750 0.6354010313 0.4278226562
0.9980795000 0.6653135000 0.4732500000
0.0664216563 0.4181714062 0.1870127188
0.0727112813 0.4263356875 0.1858682187
0.0827018438 0.4382702500 0.1840903125
0.0951923750 0.4500271250 0.1827851563
0.1144801250 0.4605250312 0.1823389062
0.1480454688 0.4689960625 0.1817122812
0.1953391562 0.4747230000 0.1806106563
0.2474635937 0.4777286562 0.1780790000
0.2978853437 0.4791147812 0.1741476875
0.3450104375 0.4796132813 0.1692695312
0.3890202188 0.4795644688 0.1642067812
0.4302646875 0.4793601250 0.1602380625
0.4691698750 0.4792209375 0.1577951250
0.5061490313 0.4794571563 0.1573055313
0.5415948750 0.4802047812 0.1585185000
0.5759193437 0.4815191562 0.1611353437
0.6095546563 0.4832936562 0.1651179375
0.6426815938 0.4857273125 0.1698950938
0.6754197187 0.4885734375 0.1756378438
0.7079073125 0.4920731875 0.1821304062
0.7399888125 0.4962756250 0.1892691562
0.7716450313 0.5013663437 0.1972867813
0.8024912813 0.5074445000 0.2062714688
0.8321404063 0.5147940625 0.2167210313
0.8602290938 0.5237642500 0.2291603125
0.8862004062 0.5346887500 0.2442350000
0.9097609375 0.5480421250 0.2629260938
0.9305328438 0.5640701875 0.2860451250
0.9484980625 0.5831190312 0.3141091562
0.9637357187 0.6051017500 0.3472813125
0.9766667187 0.6297108125 0.3851146563
0.9879434062 0.6562889375 0.4265884375
0.9982902812 0.6839450312 0.4700597500
0.0718942500 0.4516197500 0.1997514375
0.0766502500 0.4577879687 0.1988926562
0.0866660625 0.4692488750 0.1973302500
0.1013283125 0.4821742187 0.1958412187
0.1232238125 0.4931919375 0.1951459375
0.1579900625 0.5019165313 0.1941787500
0.2043468750 0.5078773750 0.1923897500
0.2553087813 0.5113522188 0.1894960937
0.3053233125 0.5131340000 0.1855719375
0.3526673125 0.5139153750 0.1807101250
0.3973075000 0.5141340000 0.1759000000
0.4394387500 0.5139600625 0.1717096563
0.4792518750 0.5137459375 0.1686381250
0.5171355625 0.5136160937 0.1669969375
0.5534451250 0.5138312500 0.1667590000
0.5885324687 0.5144650625 0.1682340313
