bundles/resolve-cinematic-luts/Gamut/Immersion 2.0/Tonal Eclipse +.cube
TITLE "Immersion 2.0 - Total Eclipse + by Gamut"
# Contributor - Sam Newton. Version 2.0 - 06/24/2025 - Designed for Rec.709 Color Space. Copyright 2025 Gamut, LLC.
LUT_3D_SIZE 5
0.0000000000 0.0000000000 0.0331200000
0.1536350000 0.0291780000 0.0207000000
0.3859160000 0.0694630000 0.0454590000
0.6050220000 0.0871870000 0.0693340000
0.9871190000 0.2556360000 0.3399560000
0.0100540000 0.1441390000 0.0737150000
0.2449830000 0.1832460000 0.0450750000
0.5109950000 0.2164870000 0.1125110000
0.7662950000 0.2358270000 0.1296330000
0.9986230000 0.4904680000 0.4267090000
0.0564940000 0.3773200000 0.1739670000
0.2930090000 0.4418750000 0.1622880000
0.5939380000 0.4452330000 0.1531950000
0.8673490000 0.4945090000 0.2230480000
0.9998120000 0.6880510000 0.5127620000
0.0881790000 0.6896180000 0.2838190000
0.4110010000 0.7460430000 0.2641100000
0.7326020000 0.7348490000 0.2099670000
0.9455140000 0.7352660000 0.2383080000
1.0000000000 0.8375810000 0.3851710000
0.5682850000 0.9970160000 0.6375410000
0.7592030000 0.9985430000 0.5521230000
0.8741780000 0.9979850000 0.4718770000
0.9853210000 0.9982270000 0.3782220000
1.0000000000 1.0000000000 0.3745460000
0.0224750000 0.0595250000 0.1498620000
0.1689430000 0.0667060000 0.1465870000
0.4208800000 0.0720980000 0.1222600000
0.6627870000 0.0804170000 0.1331230000
0.9964700000 0.3459670000 0.4972150000
0.0443460000 0.1321970000 0.2109290000
0.2074536000 0.2145138000 0.2286273000
0.5403927000 0.2544116000 0.2109635000
0.8154399000 0.2844474000 0.2295724000
1.0000000000 0.5712200000 0.6057200000
0.0350920000 0.3678360000 0.3194780000
0.2195353000 0.4720462000 0.3032571000
0.5893584000 0.5144000000 0.2868926000
0.8833079000 0.5533715000 0.3470089000
1.0000000000 0.7117170000 0.6382300000
0.0759820000 0.6858960000 0.4105460000
0.3285687000 0.7769284000 0.4022675000
0.6786186000 0.7967406000 0.3644021000
0.9193777000 0.7843030000 0.3672936000
1.0000000000 0.8551820000 0.5260850000
0.5207920000 0.9937500000 0.7133300000
0.6752210000 0.9996440000 0.7125620000
0.8203190000 0.9999730000 0.6371490000
0.9276540000 0.9982880000 0.5533250000
0.9996440000 1.0000000000 0.5141240000
0.0331200000 0.1537200000 0.3411630000
0.1047290000 0.1648370000 0.3430330000
0.4257410000 0.1507050000 0.3282880000
0.7057110000 0.1158480000 0.2831740000
0.9983890000 0.4020400000 0.6432820000
0.0466930000 0.1912030000 0.3893930000
0.1526584000 0.2495842000 0.4308159000
0.5116601000 0.2668161000 0.3975064000
0.8084546000 0.2811392000 0.3757927000
1.0000000000 0.6105480000 0.7705530000
0.1294460000 0.3226700000 0.4871860000
0.2318101000 0.4314401000 0.5281614000
0.5174621000 0.5099291000 0.5080645000
0.8565230000 0.5501771000 0.5126600000
1.0000000000 0.7279860000 0.7901680000
0.1309350000 0.6191190000 0.6318290000
0.2875032000 0.6974826000 0.6259425000
0.5776740000 0.7619406000 0.6118769000
0.8435828000 0.7895324000 0.5839147000
0.9999460000 0.8471640000 0.7199690000
0.3843630000 0.9427860000 0.7858990000
0.5903070000 0.9794150000 0.8116660000
0.7544570000 0.9962070000 0.8172030000
0.8764410000 0.9960120000 0.7459400000
0.9966650000 0.9995430000 0.6791150000
0.0557250000 0.2335460000 0.5364030000
0.0973990000 0.2525160000 0.5688380000
0.3609420000 0.2599980000 0.5595840000
0.7619070000 0.2327060000 0.5194350000
0.9987920000 0.4883680000 0.8329810000
0.0789370000 0.2693390000 0.5807530000
0.1488377000 0.3248339000 0.6327046000
0.4606215000 0.3689481000 0.6350821000
0.8400711000 0.3614606000 0.6097687000
1.0000000000 0.6390900000 0.9077080000
0.1507250000 0.3799780000 0.6684970000
0.2579356000 0.4731620000 0.7266871000
0.4969309000 0.5618523000 0.7294240000
0.8221423000 0.5775428000 0.6981450000
1.0000000000 0.7251160000 0.9123130000
0.2636050000 0.6038760000 0.8040200000
0.3551781000 0.6781284000 0.8238393000
0.5694756000 0.7388098000 0.8098915000
0.8030444000 0.8020848000 0.8073515000
1.0000000000 0.8525860000 0.9049280000
0.3680900000 0.9191250000 0.9365460000
0.4996180000 0.9561440000 0.9364660000
0.7164400000 0.9723980000 0.9334400000
0.8906720000 0.9980530000 0.9470870000
0.9930320000 0.9970700000 0.8527950000
0.2085380000 0.4889090000 0.9284900000
0.3122760000 0.5690910000 0.9862720000
0.5083930000 0.6487050000 0.9947230000
0.8464490000 0.6585780000 0.9953710000
1.0000000000 0.7742110000 1.0000000000
0.3739320000 0.6206880000 0.9928490000
0.5006910000 0.6907460000 0.9998390000
0.6142590000 0.7658960000 1.0000000000
0.7991890000 0.8395750000 1.0000000000
1.0000000000 0.8532940000 1.0000000000
0.5253380000 0.7348860000 0.9973120000
0.5708360000 0.7886070000 1.0000000000
0.6627230000 0.8479430000 1.0000000000
0.8308490000 0.9115160000 1.0000000000
1.0000000000 0.8376810000 1.0000000000
0.5402040000 0.7793930000 0.9989860000
0.5841960000 0.8286920000 1.0000000000
0.6678590000 0.8704280000 1.0000000000
0.8133490000 0.9137990000 1.0000000000
1.0000000000 0.9128930000 1.0000000000
0.6017190000 0.9249290000 1.0000000000
0.6474860000 0.9486530000 1.0000000000
0.7333130000 0.9638420000 1.0000000000
0.8642160000 0.9824230000 1.0000000000
0.9933440000 0.9979850000 1.0000000000
