bundles/resolve-cinematic-luts/Gamut/Adagio/Adagio 01.cube
TITLE "Generated by 3D LUT Creator Pro (c) Oleg Sharonov"
LUT_3D_SIZE 5
#INPUTGAMMA sRGB
#IMAGEPROFILE sRGB
#OUTPUTGAMMA sRGB
0.006309 0.007886 0.010251
0.265377 0.001577 0.002366
0.564457 0.027600 0.003943
0.748274 0.064521 0.014194
0.841602 0.150733 0.075669
0.003943 0.279859 0.068934
0.299513 0.279993 0.032332
0.616692 0.239766 0.032332
0.770440 0.267784 0.054295
0.891840 0.319126 0.104163
0.037852 0.549329 0.160215
0.194957 0.546275 0.112567
0.581214 0.546275 0.069470
0.837614 0.517934 0.168910
0.958143 0.538482 0.211692
0.075168 0.721808 0.234585
0.198941 0.715679 0.196362
0.555951 0.728196 0.175811
0.795043 0.761214 0.188599
0.971562 0.779599 0.272937
0.231447 0.893804 0.355353
0.381084 0.886670 0.293007
0.640002 0.927097 0.324681
0.826119 0.951410 0.409195
0.972955 0.973261 0.396681
0.029966 0.037852 0.313337
0.255785 0.021292 0.210770
0.561279 0.030754 0.189640
0.725380 0.103403 0.212609
0.877804 0.174226 0.256526
0.059267 0.306578 0.364762
0.314854 0.320497 0.333513
0.617298 0.284103 0.259613
0.797904 0.298027 0.250068
0.910712 0.310394 0.239606
0.031543 0.574298 0.238965
0.151525 0.562644 0.248385
0.576670 0.553697 0.272937
0.820257 0.534743 0.338466
0.961994 0.536134 0.311103
0.061643 0.734472 0.293387
0.182866 0.725503 0.307776
0.524380 0.735960 0.275267
0.790268 0.764203 0.364275
0.975538 0.783867 0.394740
0.216596 0.907943 0.441174
0.364957 0.894022 0.427889
0.616137 0.923946 0.416234
0.825566 0.954699 0.491478
0.975953 0.973511 0.483168
0.085170 0.102253 0.583875
0.250068 0.078134 0.558480
0.437373 0.065646 0.421173
0.622712 0.117066 0.472345
0.806159 0.180912 0.524938
0.148063 0.349663 0.649158
0.334164 0.370364 0.626685
0.582628 0.303070 0.567780
0.767368 0.306698 0.526238
0.883612 0.315203 0.521138
0.218736 0.584037 0.698290
0.334055 0.598005 0.636767
0.581758 0.578427 0.612790
0.816096 0.548098 0.539681
0.973316 0.550732 0.522575
0.129357 0.797506 0.509072
0.247307 0.790524 0.490466
0.497695 0.751487 0.505250
0.801579 0.773308 0.589258
0.983590 0.781644 0.549914
0.266796 0.948596 0.513559
0.353030 0.930706 0.554854
0.508814 0.908522 0.521451
0.813952 0.958795 0.570131
0.977725 0.975953 0.567612
0.173314 0.166065 0.736802
0.310631 0.163411 0.753632
0.446001 0.090463 0.606591
0.609828 0.119088 0.607981
0.767862 0.217669 0.671348
0.236868 0.398873 0.788362
0.384394 0.415819 0.820222
0.589739 0.371987 0.798301
0.722385 0.357159 0.718794
0.818092 0.366027 0.709944
0.326024 0.584362 0.911441
0.430682 0.597690 0.847104
0.589739 0.613806 0.812331
0.783016 0.578811 0.779897
0.913258 0.570800 0.790963
0.296906 0.780455 0.865806
0.414905 0.793989 0.841838
0.612076 0.794752 0.812789
0.804016 0.782905 0.795805
0.985589 0.777883 0.767938
0.286717 0.993533 0.814656
0.379416 0.995425 0.791693
0.518754 0.980539 0.714094
0.736321 0.960580 0.720530
0.982492 0.986382 0.798229
0.239126 0.244197 0.874640
0.372082 0.250981 0.904796
0.521326 0.174907 0.810811
0.653064 0.154650 0.770629
0.765120 0.262225 0.786598
0.299513 0.444781 0.915614
0.429966 0.461201 0.954841
0.609675 0.436593 0.966920
0.731768 0.385034 0.870431
0.804123 0.392786 0.820501
0.347603 0.592298 0.990605
0.448881 0.601979 0.971980
0.611005 0.630379 0.973817
0.791949 0.605662 0.963630
0.885789 0.598057 0.949573
0.351300 0.767824 1.000000
0.444475 0.770213 1.000000
0.622812 0.789719 0.992612
0.816832 0.821232 0.991826
0.946406 0.810068 0.975454
0.362413 0.973205 0.995371
0.476851 0.979078 0.990115
0.620564 0.987665 0.984686
0.828909 0.990849 0.995479
0.993479 0.993479 0.993479
