bundles/resolve-cinematic-luts/Gamut/Adagio/Adagio 01.cube
TITLE "Generated by 3D LUT Creator Pro (c) Oleg Sharonov"
LUT_3D_SIZE 9
#INPUTGAMMA sRGB
#IMAGEPROFILE sRGB
#OUTPUTGAMMA sRGB
0.006309 0.007886 0.010251
0.121078 0.002366 0.005520
0.265377 0.001577 0.002366
0.424911 0.008674 0.002366
0.564457 0.027600 0.003943
0.678225 0.044738 0.007097
0.748274 0.064521 0.014194
0.780418 0.107892 0.044738
0.841602 0.150733 0.075669
0.000789 0.113620 0.029177
0.119088 0.117066 0.003154
0.328026 0.088291 0.006309
0.469287 0.073649 0.004731
0.586574 0.081010 0.005520
0.680986 0.099916 0.009463
0.732010 0.140880 0.022869
0.788729 0.186498 0.054934
0.857345 0.215697 0.072104
0.003943 0.279859 0.068934
0.087851 0.286457 0.051020
0.299513 0.279993 0.032332
0.506809 0.250220 0.031543
0.616692 0.239766 0.032332
0.700778 0.244041 0.035486
0.770440 0.267784 0.054295
0.841636 0.298275 0.083803
0.891840 0.319126 0.104163
0.011829 0.432742 0.120748
0.079102 0.432979 0.114317
0.225878 0.433610 0.071584
0.467784 0.432742 0.041759
0.642785 0.411390 0.065085
0.745832 0.397209 0.097126
0.819001 0.400530 0.115010
0.879205 0.414071 0.135683
0.933269 0.431000 0.157458
0.037852 0.549329 0.160215
0.092590 0.547863 0.152312
0.194957 0.546275 0.112567
0.402782 0.545744 0.070533
0.581214 0.546275 0.069470
0.739123 0.527966 0.130280
0.837614 0.517934 0.168910
0.902894 0.524566 0.190262
0.958143 0.538482 0.211692
0.066756 0.634825 0.193135
0.120087 0.631703 0.182866
0.194554 0.631898 0.148601
0.392430 0.632729 0.113270
0.542069 0.643598 0.113969
0.689490 0.652361 0.131803
0.827154 0.646742 0.182650
0.913712 0.648306 0.224332
0.975510 0.657732 0.256526
0.075168 0.721808 0.234585
0.123360 0.719373 0.226732
0.198941 0.715679 0.196362
0.412230 0.713802 0.170779
0.555951 0.728196 0.175811
0.667442 0.748234 0.183513
0.795043 0.761214 0.188599
0.899477 0.769228 0.227921
0.971562 0.779599 0.272937
0.115010 0.807796 0.290075
0.184585 0.802225 0.277034
0.272524 0.797109 0.230947
0.451214 0.800428 0.227921
0.585820 0.820117 0.231113
0.691453 0.838968 0.264379
0.791328 0.857410 0.276220
0.886638 0.872780 0.279592
0.966808 0.885253 0.315203
0.231447 0.893804 0.355353
0.307297 0.886418 0.328580
0.381084 0.886670 0.293007
0.509652 0.900957 0.308969
0.640002 0.927097 0.324681
0.741355 0.941163 0.366996
0.826119 0.951410 0.409195
0.898550 0.963687 0.417723
0.972955 0.973261 0.396681
0.011829 0.016560 0.116042
0.110791 0.010251 0.087409
0.273625 0.003943 0.057439
0.436436 0.010251 0.053002
0.572136 0.027600 0.065085
0.681652 0.045463 0.072622
0.745911 0.075168 0.088291
0.790048 0.122712 0.124965
0.867880 0.159218 0.152835
0.021292 0.113620 0.144517
0.115010 0.127180 0.122061
0.326247 0.100700 0.091745
0.475238 0.084717 0.071060
0.592405 0.087851 0.073137
0.684042 0.109350 0.079102
0.744963 0.153095 0.100700
0.814515 0.196162 0.133009
0.868721 0.214250 0.133608
0.010251 0.295404 0.134798
0.081010 0.298399 0.130891
0.292881 0.296781 0.112214
0.499746 0.271278 0.122061
0.612891 0.265804 0.127180
0.704488 0.266796 0.125919
0.785160 0.283971 0.137728
0.858133 0.310038 0.157963
0.888649 0.310867 0.150468
0.007097 0.443863 0.157205
0.060464 0.443250 0.163167
0.200511 0.439937 0.133608
0.462076 0.438541 0.124005
0.632973 0.425638 0.165586
0.732738 0.414905 0.193541
0.806871 0.416979 0.204185
0.872170 0.427327 0.216775
0.928697 0.427167 0.201873
0.028389 0.556354 0.196761
0.077155 0.554392 0.199335
0.165586 0.552420 0.176036
0.390552 0.548039 0.133009
0.577824 0.549153 0.158466
0.732253 0.533044 0.213158
0.827843 0.526115 0.251132
0.896383 0.533165 0.270027
0.959391 0.539142 0.262513
0.057439 0.640146 0.232443
0.104919 0.636960 0.230111
0.186709 0.635554 0.222600
0.374074 0.635165 0.160215
0.533955 0.646362 0.176260
0.686377 0.652830 0.212243
0.825013 0.646647 0.258295
0.914135 0.648827 0.299142
0.977172 0.659587 0.314971
0.067305 0.727137 0.267361
0.112919 0.723700 0.268487
0.198547 0.718421 0.262369
0.398173 0.715096 0.213887
0.543198 0.732415 0.214250
0.662725 0.749216 0.243098
0.791803 0.761329 0.259758
0.899044 0.769228 0.302338
0.973316 0.781681 0.331769
0.104919 0.814093 0.321861
0.170081 0.808045 0.320041
0.276356 0.799744 0.306217
0.441559 0.801291 0.271971
0.577495 0.821788 0.277169
0.683644 0.842646 0.303678
0.784606 0.860886 0.330673
0.881650 0.875760 0.346775
0.967537 0.886953 0.365833
0.222252 0.899477 0.401658
0.297155 0.892277 0.388573
0.359054 0.891310 0.340487
0.491949 0.900217 0.350789
0.634728 0.927127 0.370269
0.739403 0.942441 0.408263
0.826360 0.952813 0.450688
0.898983 0.964672 0.464760
0.973817 0.974289 0.443020
0.029966 0.037852 0.313337
0.091745 0.033909 0.306818
0.255785 0.021292 0.210770
0.425718 0.016560 0.169379
0.561279 0.030754 0.189640
0.660558 0.058053 0.199728
0.725380 0.103403 0.212609
0.793407 0.143408 0.236381
0.877804 0.174226 0.256526
0.046181 0.146437 0.341544
0.128118 0.156188 0.347603
0.307297 0.121406 0.293767
0.461420 0.096315 0.224677
0.584362 0.099522 0.213523
0.680097 0.129973 0.210029
0.753594 0.172397 0.221554
0.833157 0.209285 0.242941
0.885789 0.222948 0.243256
0.059267 0.306578 0.364762
0.137437 0.320953 0.336860
0.314854 0.320497 0.333513
0.501327 0.287496 0.277034
0.617298 0.284103 0.259613
0.715762 0.285021 0.247924
0.797904 0.298027 0.250068
0.869657 0.320953 0.262081
0.910712 0.310394 0.239606
0.033909 0.467569 0.281327
0.081481 0.467497 0.271001
0.206469 0.458270 0.267361
0.466779 0.450463 0.260341
0.623858 0.437841 0.282652
0.721561 0.429886 0.295153
0.797434 0.431317 0.299266
0.867135 0.439085 0.305253
0.933445 0.422396 0.257265
0.031543 0.574298 0.238965
0.072622 0.570578 0.247770
0.151525 0.562644 0.248385
0.374452 0.552304 0.235893
0.576670 0.553697 0.272937
0.726933 0.539501 0.312986
0.820257 0.534743 0.338466
0.892683 0.541711 0.348841
0.961994 0.536134 0.311103
0.052347 0.650950 0.261792
0.095088 0.646837 0.271417
0.159966 0.644362 0.272247
0.338359 0.640146 0.230111
0.525991 0.649110 0.267220
0.685233 0.654890 0.311811
0.824702 0.650243 0.353840
0.914165 0.654422 0.386036
0.979685 0.660650 0.375959
0.061643 0.734472 0.293387
0.104163 0.731120 0.304042
0.182866 0.725503 0.307776
0.369598 0.719828 0.263233
0.524380 0.735960 0.275267
0.656010 0.751800 0.327027
0.790268 0.764203 0.364275
0.903386 0.771007 0.402091
0.975538 0.783867 0.394740
0.096721 0.822275 0.344590
0.153615 0.817778 0.354850
0.257265 0.808543 0.351606
0.420191 0.804338 0.321180
0.554854 0.826050 0.326359
0.669172 0.848939 0.359054
0.780678 0.864571 0.418300
0.880920 0.877931 0.441019
0.968741 0.888680 0.416317
0.216596 0.907943 0.441174
0.282255 0.901572 0.440092
0.364957 0.894022 0.427889
0.451963 0.898550 0.390103
0.616137 0.923946 0.416234
0.735035 0.943485 0.452038
0.825566 0.954699 0.491478
0.899662 0.965713 0.508298
0.975953 0.973511 0.483168
0.051686 0.069470 0.464760
0.104163 0.065085 0.480197
0.235893 0.051020 0.414821
0.372177 0.044005 0.335785
0.490060 0.046181 0.348429
0.595372 0.069470 0.367866
0.675045 0.107156 0.372748
0.763170 0.146165 0.381177
0.855600 0.181130 0.388483
0.062806 0.187762 0.483237
0.146437 0.195761 0.506874
0.301236 0.168675 0.493695
0.420191 0.121078 0.405534
0.519068 0.112567 0.386036
0.619110 0.135389 0.384760
0.714220 0.177825 0.380437
0.810528 0.215877 0.380622
0.872748 0.230947 0.374263
0.103403 0.325241 0.552943
0.189016 0.335245 0.540817
0.313688 0.351912 0.510359
0.485639 0.300622 0.479433
0.604317 0.283971 0.434869
0.711499 0.284890 0.398349
0.799996 0.301359 0.378299
0.876304 0.324119 0.374924
0.920990 0.313805 0.366900
0.133009 0.469001 0.566206
0.192319 0.476991 0.545035
0.287755 0.486937 0.496566
0.480058 0.466131 0.482065
0.617903 0.444016 0.444093
0.722261 0.432979 0.410294
0.802655 0.435262 0.398261
0.874768 0.443020 0.399135
0.947876 0.427006 0.369118
0.067852 0.602187 0.468858
0.111504 0.603694 0.451514
0.196960 0.596216 0.413988
0.378299 0.571079 0.395094
0.579522 0.565981 0.429168
0.720241 0.549563 0.436749
0.815253 0.544502 0.433295
0.892652 0.549739 0.433610
0.962276 0.543673 0.402437
0.061056 0.689839 0.355756
0.098729 0.686333 0.355152
0.158717 0.676077 0.347913
0.325241 0.650526 0.371511
0.513240 0.654048 0.398261
0.686245 0.661712 0.444093
0.824702 0.658335 0.461858
0.912290 0.662587 0.476361
0.981805 0.661573 0.447216
0.076662 0.756971 0.320155
0.113270 0.753165 0.339425
0.182217 0.745240 0.361331
0.337075 0.730674 0.369598
0.498159 0.735156 0.382099
0.652032 0.754994 0.442559
0.796638 0.768128 0.480820
0.909314 0.773383 0.505511
0.978443 0.784902 0.460836
0.114317 0.833839 0.364372
0.162679 0.830454 0.391894
0.255785 0.821962 0.416234
0.385490 0.815008 0.407327
0.516987 0.825946 0.399572
0.652548 0.848205 0.448428
0.779562 0.867815 0.510423
0.884212 0.880190 0.537340
0.971004 0.890809 0.468286
0.216954 0.922336 0.473900
0.274858 0.914950 0.486527
0.345320 0.906814 0.485023
0.436202 0.897839 0.473194
0.559853 0.915222 0.453308
0.721561 0.942557 0.495967
0.823108 0.956665 0.531399
0.900556 0.967453 0.552188
0.977061 0.974539 0.525496
0.085170 0.102253 0.583875
0.142571 0.101479 0.593838
0.250068 0.078134 0.558480
0.363100 0.067852 0.458270
0.437373 0.065646 0.421173
0.531276 0.082881 0.444781
0.622712 0.117066 0.472345
0.716927 0.149671 0.501129
0.806159 0.180912 0.524938
0.113620 0.228090 0.607930
0.188599 0.232277 0.628314
0.321748 0.214613 0.637299
0.427648 0.155421 0.543317
0.485502 0.133608 0.476501
0.564796 0.148063 0.475027
0.665798 0.187131 0.500142
0.761406 0.220678 0.519005
0.824736 0.226561 0.525991
0.148063 0.349663 0.649158
0.219797 0.354951 0.640242
0.334164 0.370364 0.626685
0.481858 0.330344 0.619059
0.582628 0.303070 0.567780
0.675539 0.298399 0.542366
0.767368 0.306698 0.526238
0.849571 0.323894 0.515531
0.883612 0.315203 0.521138
0.232609 0.465410 0.708132
0.292754 0.470570 0.695660
0.353638 0.492017 0.634436
0.478388 0.493226 0.632827
0.598897 0.457460 0.604886
0.713091 0.435575 0.552013
0.805231 0.432505 0.519005
0.882505 0.440169 0.511194
0.954299 0.427488 0.503947
0.218736 0.584037 0.698290
0.267784 0.588454 0.686509
0.334055 0.598005 0.636767
0.454945 0.593520 0.596374
0.581758 0.578427 0.612790
0.721025 0.551897 0.563438
0.816096 0.548098 0.539681
0.897158 0.552362 0.534076
0.973316 0.550732 0.522575
0.145618 0.699964 0.614466
0.190055 0.703084 0.600832
0.262081 0.704573 0.559682
0.382007 0.681785 0.540996
0.529195 0.670805 0.528765
0.694882 0.671800 0.582628
0.818512 0.666667 0.569628
0.904306 0.668990 0.569237
0.980291 0.668034 0.550615
0.129357 0.797506 0.509072
0.174907 0.797434 0.501852
0.247307 0.790524 0.490466
0.358556 0.760368 0.499020
0.497695 0.751487 0.505250
0.653814 0.758672 0.561051
0.801579 0.773308 0.589258
0.910591 0.775937 0.600571
0.983590 0.781644 0.549914
0.176260 0.875856 0.458050
0.224504 0.873069 0.475027
0.288402 0.863465 0.498225
0.376429 0.841332 0.511898
0.494900 0.832952 0.521951
0.633315 0.846134 0.531887
0.775638 0.869270 0.595425
0.887801 0.882125 0.621114
0.974011 0.892589 0.524318
0.266796 0.948596 0.513559
0.306938 0.942179 0.540219
0.353030 0.930706 0.554854
0.416068 0.916307 0.542485
0.508814 0.908522 0.521451
0.676794 0.936700 0.538302
0.813952 0.958795 0.570131
0.900464 0.969301 0.596532
0.977725 0.975953 0.567612
0.131196 0.129049 0.658985
0.183298 0.134204 0.671619
0.271556 0.112919 0.656010
0.358357 0.077155 0.556412
0.434476 0.078619 0.506485
0.509909 0.086965 0.500669
0.608906 0.124965 0.537279
0.703041 0.165345 0.575734
0.775412 0.202647 0.601823
0.166065 0.261647 0.694103
0.224849 0.263807 0.708132
0.341016 0.256526 0.733948
0.445086 0.201679 0.668490
0.496965 0.161698 0.581486
0.553233 0.159468 0.546451
0.645791 0.199138 0.570354
0.732415 0.244197 0.599159
0.791511 0.248692 0.612484
0.196162 0.372368 0.717591
0.254444 0.377085 0.713175
0.359947 0.390821 0.728563
0.487754 0.366124 0.735799
0.583279 0.331769 0.681341
0.656336 0.323444 0.639616
0.729660 0.334489 0.633217
0.805517 0.348841 0.642977
0.841602 0.339212 0.642402
0.268206 0.480543 0.787260
0.325689 0.483100 0.773722
0.383203 0.502573 0.723453
0.481720 0.509458 0.719332
0.594790 0.479293 0.723700
0.687870 0.458344 0.675180
0.774023 0.452935 0.659494
0.856588 0.452785 0.657546
0.917541 0.438774 0.661942
0.303191 0.578975 0.830557
0.352928 0.581649 0.820501
0.408517 0.593307 0.763476
0.489044 0.599525 0.712044
0.589472 0.595319 0.728807
0.701077 0.567556 0.690363
0.803766 0.555316 0.665295
0.890559 0.554102 0.650573
0.963377 0.549271 0.650196
0.267925 0.682538 0.785750
0.310867 0.686509 0.775300
0.377833 0.694882 0.743459
0.482203 0.692888 0.708427
0.599630 0.685497 0.716511
0.694882 0.676480 0.694406
0.809323 0.669262 0.664379
0.902095 0.666575 0.654189
0.980649 0.667168 0.648306
0.219621 0.791255 0.723330
0.262369 0.795297 0.715596
0.336216 0.801579 0.695315
0.439705 0.792678 0.672297
0.544739 0.786119 0.645506
0.665020 0.770932 0.668581
0.807298 0.778667 0.685497
0.911259 0.777584 0.681252
0.985972 0.778518 0.669399
0.209657 0.897931 0.665707
0.258148 0.900618 0.656848
0.332097 0.900803 0.632729
0.425880 0.880254 0.634290
0.516924 0.858954 0.650479
0.613705 0.856390 0.601823
0.764050 0.870302 0.659864
0.890809 0.886544 0.695660
0.982849 0.890497 0.640290
0.261792 0.991338 0.606385
0.311339 0.988346 0.609060
0.363884 0.980704 0.612382
0.419124 0.963433 0.618858
0.491208 0.932975 0.609675
0.601458 0.928845 0.580069
0.780381 0.958199 0.616238
0.894613 0.970753 0.647454
0.977614 0.978636 0.635165
0.173314 0.166065 0.736802
0.224504 0.174226 0.747723
0.310631 0.163411 0.753632
0.378858 0.107892 0.666210
0.446001 0.090463 0.606591
0.518376 0.094262 0.585119
0.609828 0.119088 0.607981
0.701932 0.163411 0.645982
0.767862 0.217669 0.671348
0.199532 0.289690 0.753477
0.253546 0.290459 0.764777
0.357559 0.290075 0.799924
0.459299 0.251889 0.770213
0.521013 0.208164 0.694319
0.574851 0.189640 0.647501
0.650526 0.216596 0.650573
0.724438 0.262513 0.668307
0.780715 0.274311 0.678314
0.236868 0.398873 0.788362
0.287237 0.402955 0.789426
0.384394 0.415819 0.820222
0.498557 0.401224 0.841770
0.589739 0.371987 0.798301
0.662771 0.351198 0.744449
0.722385 0.357159 0.718794
0.783571 0.374735 0.720365
0.818092 0.366027 0.709944
0.290843 0.497695 0.856357
0.343648 0.499548 0.845431
0.403300 0.513368 0.818407
0.485502 0.531215 0.799203
0.584632 0.511386 0.841871
0.687826 0.482617 0.794134
0.760406 0.475660 0.762135
0.825220 0.480751 0.760752
0.874672 0.469858 0.766759
0.326024 0.584362 0.911441
0.376804 0.585227 0.900618
0.430682 0.597690 0.847104
0.490938 0.612790 0.793443
0.589739 0.613806 0.812331
0.697946 0.590541 0.815710
0.783016 0.578811 0.779897
0.857279 0.576505 0.777023
0.913258 0.570800 0.790963
0.326024 0.674370 0.913531
0.371987 0.677867 0.908279
0.442175 0.686817 0.880412
0.514642 0.695963 0.824702
0.598215 0.701034 0.805338
0.697773 0.697171 0.812507
0.793880 0.680052 0.779897
0.891341 0.669172 0.777397
0.959476 0.667761 0.774324
0.296906 0.780455 0.865806
0.340804 0.784606 0.857640
0.414905 0.793989 0.841838
0.512154 0.796312 0.818477
0.612076 0.794752 0.812789
0.711834 0.791328 0.811589
0.804016 0.782905 0.795805
0.909588 0.776836 0.767748
0.985589 0.777883 0.767938
0.270445 0.888523 0.830420
0.315784 0.893275 0.825462
0.388483 0.902464 0.812190
0.485365 0.902403 0.793552
0.563381 0.896290 0.779226
0.638942 0.887330 0.744924
0.737844 0.876080 0.723371
0.892870 0.893119 0.780567
0.989490 0.890090 0.791766
0.286717 0.993533 0.814656
0.332860 0.994263 0.806836
0.379416 0.995425 0.791693
0.440479 0.994263 0.756274
0.518754 0.980539 0.714094
0.601093 0.959419 0.703084
0.736321 0.960580 0.720530
0.884780 0.976203 0.764738
0.982492 0.986382 0.798229
0.206280 0.206280 0.803551
0.265377 0.216954 0.816587
0.344694 0.210214 0.831755
0.423778 0.164381 0.776836
0.477481 0.121078 0.707413
0.544562 0.107156 0.675000
0.632045 0.132105 0.690581
0.706652 0.175134 0.713007
0.765693 0.238000 0.730837
0.230780 0.315668 0.810882
0.287496 0.317979 0.826015
0.381823 0.320953 0.862748
0.474464 0.293893 0.851963
0.547334 0.259320 0.790195
0.604990 0.233105 0.741792
0.669172 0.247924 0.731606
0.729416 0.283576 0.736562
0.779003 0.298399 0.737043
0.271140 0.423615 0.857410
0.317979 0.427327 0.862356
0.408178 0.439860 0.896569
0.511642 0.430602 0.922604
0.599944 0.407838 0.895762
0.675628 0.381362 0.840658
0.729741 0.376429 0.806159
0.779226 0.390731 0.796058
0.808507 0.382468 0.766759
0.310631 0.512154 0.912229
0.358855 0.514705 0.906020
0.418877 0.525186 0.895421
0.504077 0.537460 0.910712
0.602760 0.528642 0.927927
0.689577 0.508878 0.898210
0.764280 0.491613 0.862160
0.815429 0.494565 0.848705
0.854379 0.484474 0.838291
0.336968 0.589097 0.955355
0.386854 0.590220 0.945915
0.442943 0.601510 0.915101
0.490466 0.622812 0.872620
0.591553 0.625447 0.910530
0.695747 0.612484 0.919673
0.786377 0.593944 0.885663
0.842713 0.591074 0.869948
0.886355 0.588937 0.878791
0.344172 0.672252 0.967285
0.392341 0.674505 0.965572
0.467641 0.683600 0.954642
0.528888 0.696783 0.920901
0.576505 0.716387 0.898735
0.693235 0.718876 0.910894
0.800896 0.697687 0.905194
0.869883 0.689096 0.884275
0.920601 0.689315 0.887016
0.338359 0.770554 0.963687
0.385307 0.774850 0.961174
0.466203 0.784200 0.953013
0.563381 0.787370 0.935793
0.631262 0.796855 0.922246
0.703212 0.808685 0.907303
0.808187 0.811306 0.913893
0.892589 0.794680 0.896662
0.956977 0.791511 0.898086
0.327472 0.878505 0.934825
0.373222 0.883801 0.927067
0.453009 0.893057 0.919733
0.550556 0.895918 0.915885
0.633413 0.898303 0.913712
0.718711 0.901357 0.913137
0.814199 0.903263 0.911562
0.905439 0.899600 0.910105
0.992179 0.897281 0.893088
0.326693 0.982656 0.926800
0.373317 0.983507 0.924691
0.425960 0.985726 0.923141
0.497894 0.991582 0.918202
0.579413 0.993885 0.896600
0.665158 0.991935 0.882315
0.765197 0.987310 0.867880
0.875185 0.978940 0.864636
0.989680 0.991880 0.921738
0.239126 0.244197 0.874640
0.306938 0.255933 0.891341
0.372082 0.250981 0.904796
0.458859 0.218203 0.870818
0.521326 0.174907 0.810811
0.587864 0.145343 0.776312
0.653064 0.154650 0.770629
0.716761 0.200901 0.785603
0.765120 0.262225 0.786598
0.263089 0.343753 0.876240
0.326247 0.348222 0.896073
0.410294 0.353030 0.927927
0.491073 0.332860 0.926444
0.568621 0.304285 0.875217
0.627228 0.270305 0.822136
0.679563 0.251889 0.797832
0.732859 0.268066 0.797868
0.781124 0.319927 0.793880
0.299513 0.444781 0.915614
0.345216 0.449258 0.922873
0.429966 0.461201 0.954841
0.524504 0.455390 0.980649
0.609675 0.436593 0.966920
0.686773 0.406389 0.914044
0.731768 0.385034 0.870431
0.766645 0.381454 0.842915
0.804123 0.392786 0.820501
0.329243 0.524380 0.957176
0.373790 0.527534 0.954699
0.430364 0.537881 0.951525
0.525248 0.546451 0.968377
0.610084 0.544088 0.988210
0.700949 0.523821 0.969189
0.771423 0.500866 0.935968
0.816657 0.492487 0.920482
0.849005 0.490195 0.904796
0.347603 0.592298 0.990605
0.395888 0.593838 0.982904
0.448881 0.601979 0.971980
0.518628 0.617903 0.956608
0.611005 0.630379 0.973817
0.705465 0.624454 0.987856
0.791949 0.605662 0.963630
0.846067 0.596690 0.949717
0.885789 0.598057 0.949573
0.350687 0.674595 0.999946
0.397033 0.674865 0.999034
0.448805 0.677957 0.996153
0.530421 0.691671 0.982354
0.614111 0.709649 0.966667
0.709607 0.722179 0.980153
0.801147 0.714094 0.986928
0.871172 0.701975 0.966359
0.915705 0.702956 0.962954
0.351300 0.767824 1.000000
0.396593 0.768356 1.000000
0.444475 0.770213 1.000000
0.509523 0.776724 0.999275
0.622812 0.789719 0.992612
0.721438 0.806337 0.981997
0.816832 0.821232 0.991826
0.893088 0.811236 0.984247
0.946406 0.810068 0.975454
0.350175 0.872298 1.000000
0.396329 0.872395 0.999946
0.445696 0.873711 0.999866
0.496898 0.876048 0.999812
0.571858 0.882821 0.999758
0.711834 0.892870 0.998415
0.830557 0.902894 0.995047
0.913500 0.916187 0.992748
0.973566 0.911926 0.985397
0.362413 0.973205 0.995371
0.413737 0.974067 0.994696
0.476851 0.979078 0.990115
0.546039 0.983535 0.986518
0.620564 0.987665 0.984686
0.712128 0.989327 0.989381
0.828909 0.990849 0.995479
0.929200 0.994209 0.994696
0.993479 0.993479 0.993479
