bundles/resolve-cinematic-luts/Gamut/Adagio/Adagio 02.cube
TITLE "Generated by 3D LUT Creator Pro (c) Oleg Sharonov"
LUT_3D_SIZE 25
#INPUTGAMMA sRGB
#IMAGEPROFILE sRGB
#OUTPUTGAMMA sRGB
0.011829 0.014983 0.011829
0.040994 0.015771 0.008674
0.078134 0.015771 0.006309
0.129357 0.017349 0.003154
0.190469 0.017349 0.001577
0.255190 0.018137 0.000789
0.314854 0.023657 0.000789
0.369598 0.033909 0.003154
0.421907 0.046181 0.007886
0.474253 0.059267 0.014983
0.526671 0.072622 0.019714
0.578920 0.085622 0.023657
0.629987 0.097126 0.025234
0.677644 0.107156 0.024446
0.723084 0.116042 0.021292
0.766493 0.123360 0.018926
0.805981 0.128429 0.014194
0.841501 0.132105 0.009463
0.873679 0.133906 0.004731
0.902403 0.135389 0.002366
0.927453 0.135683 0.001577
0.948423 0.135389 0.001577
0.967088 0.133906 0.001577
0.983590 0.132407 0.001577
0.996100 0.129973 0.001577
0.010251 0.041759 0.017349
0.038640 0.038640 0.015771
0.076662 0.038640 0.014194
0.129357 0.036274 0.011040
0.194755 0.034697 0.008674
0.263807 0.034697 0.005520
0.327472 0.037852 0.005520
0.383295 0.046181 0.007886
0.435026 0.056196 0.012617
0.486868 0.068934 0.017349
0.538001 0.081010 0.022869
0.588990 0.092590 0.024446
0.638363 0.103403 0.026023
0.685541 0.113270 0.025234
0.730634 0.121406 0.022080
0.773572 0.127493 0.017349
0.812754 0.132105 0.012617
0.847972 0.135093 0.007886
0.879491 0.136563 0.002366
0.907852 0.137147 0.002366
0.931944 0.137147 0.001577
0.952498 0.136563 0.001577
0.970167 0.135389 0.001577
0.985808 0.133608 0.001577
0.996504 0.132407 0.001577
0.008674 0.068934 0.022869
0.032332 0.067305 0.022080
0.067852 0.064521 0.020503
0.122061 0.062227 0.018137
0.192727 0.060464 0.016560
0.269328 0.059267 0.014194
0.339638 0.060464 0.013406
0.399048 0.066202 0.015771
0.452785 0.074158 0.019714
0.503816 0.084261 0.023657
0.553871 0.094262 0.026812
0.602864 0.104163 0.027600
0.650526 0.113969 0.026812
0.696653 0.122061 0.025234
0.740878 0.129357 0.021292
0.782683 0.134798 0.017349
0.821093 0.138882 0.011829
0.855270 0.140880 0.006309
0.885946 0.142009 0.002366
0.912714 0.142290 0.002366
0.936115 0.142290 0.001577
0.955155 0.141446 0.001577
0.971534 0.140880 0.001577
0.985589 0.140028 0.001577
0.996693 0.139170 0.001577
0.003943 0.102253 0.022869
0.025234 0.099916 0.023657
0.056820 0.098729 0.024446
0.107892 0.098330 0.025234
0.181130 0.097529 0.024446
0.265235 0.096721 0.023657
0.345944 0.097126 0.023657
0.413904 0.099916 0.025234
0.471778 0.104919 0.028389
0.524131 0.111504 0.030754
0.573523 0.118081 0.032332
0.621265 0.124965 0.031543
0.667168 0.131803 0.029966
0.711079 0.138306 0.026812
0.753632 0.143686 0.022869
0.793807 0.148063 0.017349
0.830557 0.150733 0.011040
0.863400 0.152050 0.005520
0.891778 0.152835 0.002366
0.917000 0.152835 0.001577
0.938687 0.152574 0.001577
0.956152 0.152312 0.001577
0.971060 0.151788 0.001577
0.983425 0.151788 0.001577
0.993127 0.152574 0.001577
0.001577 0.141164 0.021292
0.018137 0.138595 0.022869
0.042516 0.138306 0.024446
0.085622 0.139742 0.027600
0.154907 0.142571 0.029966
0.243727 0.144517 0.031543
0.336323 0.146165 0.032332
0.417227 0.147523 0.033120
0.484337 0.149671 0.034697
0.541354 0.152574 0.035486
0.592352 0.155933 0.036274
0.640050 0.159218 0.034697
0.684527 0.162679 0.032332
0.726606 0.165825 0.028389
0.766759 0.168439 0.023657
0.804588 0.170547 0.018137
0.839002 0.172167 0.011829
0.869528 0.172856 0.006309
0.896042 0.172627 0.002366
0.918953 0.172397 0.001577
0.938220 0.172627 0.001577
0.954128 0.172167 0.001577
0.967341 0.172397 0.001577
0.977697 0.173314 0.001577
0.985452 0.174681 0.001577
0.000789 0.182000 0.016560
0.011829 0.180036 0.017349
0.029177 0.179816 0.020503
0.061056 0.183298 0.023657
0.118418 0.189433 0.029177
0.203418 0.196960 0.033120
0.303799 0.202454 0.034697
0.400182 0.205331 0.034697
0.481651 0.206469 0.035486
0.548685 0.207412 0.036274
0.604783 0.207976 0.036274
0.654095 0.208725 0.034697
0.698462 0.208912 0.031543
0.739003 0.208912 0.029177
0.776612 0.208538 0.025234
0.811801 0.207976 0.019714
0.843788 0.207412 0.014983
0.871848 0.206280 0.010251
0.896383 0.205331 0.005520
0.917240 0.204568 0.001577
0.934855 0.203994 0.001577
0.948855 0.203610 0.001577
0.959901 0.203802 0.001577
0.968965 0.204759 0.001577
0.974789 0.206469 0.001577
0.000000 0.223641 0.011040
0.007097 0.222252 0.011829
0.018926 0.221903 0.013406
0.039429 0.224849 0.017349
0.081481 0.233599 0.023657
0.153875 0.246069 0.029177
0.253696 0.258442 0.031543
0.361823 0.266372 0.032332
0.459152 0.270027 0.033120
0.539501 0.271001 0.033909
0.604576 0.271001 0.033909
0.658382 0.270166 0.033909
0.704446 0.268487 0.032332
0.744647 0.266230 0.030754
0.780529 0.263663 0.028389
0.813600 0.260632 0.024446
0.843251 0.257559 0.021292
0.869335 0.254892 0.017349
0.892184 0.252191 0.014194
0.911623 0.250068 0.011829
0.927571 0.248539 0.011040
0.940261 0.247307 0.009463
0.950148 0.246534 0.010251
0.957859 0.246844 0.011040
0.963151 0.247770 0.012617
0.000000 0.264808 0.010251
0.005520 0.263089 0.009463
0.011829 0.262369 0.009463
0.025234 0.264665 0.011040
0.053651 0.273213 0.016560
0.110432 0.288918 0.022869
0.199532 0.307058 0.028389
0.309801 0.321748 0.030754
0.418712 0.330673 0.031543
0.511962 0.335137 0.033120
0.587972 0.336646 0.034697
0.649299 0.336108 0.035486
0.699492 0.334272 0.036274
0.741633 0.331222 0.035486
0.778219 0.327583 0.034697
0.810103 0.323106 0.034697
0.838799 0.318323 0.033120
0.863921 0.313805 0.031543
0.885600 0.309564 0.029966
0.904306 0.305735 0.029966
0.919373 0.302704 0.029966
0.931532 0.300007 0.030754
0.941221 0.298151 0.032332
0.948452 0.297031 0.034697
0.953328 0.296656 0.037852
0.000000 0.305011 0.014194
0.003943 0.303070 0.011040
0.009463 0.301236 0.009463
0.018137 0.302093 0.008674
0.036274 0.308969 0.011040
0.077646 0.323894 0.016560
0.150998 0.344799 0.024446
0.253995 0.365249 0.029966
0.366900 0.380529 0.033120
0.470000 0.390373 0.035486
0.556124 0.395977 0.037852
0.626289 0.397911 0.040994
0.683202 0.397648 0.043264
0.730269 0.395270 0.044738
0.769797 0.391448 0.046892
0.804016 0.386672 0.047596
0.833839 0.381362 0.047596
0.859708 0.375489 0.048294
0.881903 0.369886 0.048985
0.900679 0.364762 0.049669
0.915825 0.360343 0.052347
0.928312 0.356559 0.053651
0.937957 0.353536 0.056820
0.945308 0.351198 0.059267
0.950865 0.349149 0.063382
0.000000 0.344276 0.020503
0.003943 0.341544 0.015771
0.008674 0.338786 0.011829
0.014983 0.337397 0.007886
0.026812 0.341227 0.007886
0.054934 0.353131 0.011829
0.111504 0.373317 0.019714
0.201096 0.396593 0.028389
0.310985 0.417145 0.034697
0.418795 0.432426 0.038640
0.513304 0.442943 0.041759
0.591926 0.449334 0.046892
0.656941 0.452113 0.051686
0.710995 0.451738 0.055568
0.756700 0.449183 0.058662
0.795950 0.444934 0.060464
0.830008 0.439395 0.062227
0.859052 0.433453 0.063382
0.883485 0.427488 0.065085
0.903999 0.421581 0.066756
0.920721 0.416068 0.070003
0.933856 0.411558 0.072622
0.944643 0.407923 0.076167
0.952727 0.404419 0.079582
0.958682 0.401485 0.084261
0.000000 0.383295 0.028389
0.003943 0.379509 0.022080
0.007886 0.375112 0.016560
0.013406 0.371320 0.010251
0.020503 0.371701 0.006309
0.038640 0.379602 0.007886
0.080060 0.396329 0.014194
0.154392 0.419370 0.024446
0.255785 0.442943 0.033909
0.363786 0.462440 0.040217
0.463675 0.477621 0.044738
0.549622 0.488569 0.049669
0.622812 0.495567 0.055568
0.684660 0.498557 0.061643
0.737684 0.498292 0.065646
0.783793 0.495500 0.068934
0.823663 0.490938 0.071060
0.858068 0.485365 0.072622
0.886984 0.479293 0.074158
0.911259 0.473406 0.076662
0.930765 0.467712 0.080060
0.946406 0.462586 0.083803
0.959164 0.458270 0.087409
0.968909 0.454425 0.091319
0.976120 0.450838 0.095908
0.000000 0.421663 0.037063
0.003943 0.416731 0.029966
0.008674 0.410548 0.021292
0.013406 0.404419 0.012617
0.018926 0.401398 0.006309
0.027600 0.404848 0.003943
0.057439 0.417227 0.008674
0.116042 0.437763 0.019714
0.205140 0.462076 0.030754
0.308731 0.483994 0.040217
0.410632 0.501983 0.045463
0.502573 0.516924 0.050348
0.582356 0.528273 0.056196
0.652220 0.535711 0.061643
0.712924 0.538902 0.066202
0.766036 0.538782 0.070533
0.812472 0.536134 0.073649
0.852360 0.531765 0.076167
0.886450 0.526362 0.078619
0.915101 0.520700 0.081010
0.938833 0.514896 0.084261
0.957944 0.509652 0.087851
0.973149 0.505250 0.091745
0.985206 0.500998 0.095499
0.994426 0.497031 0.099916
0.000000 0.458123 0.046181
0.003943 0.452262 0.037852
0.008674 0.444628 0.027600
0.012617 0.436202 0.016560
0.017349 0.429806 0.007097
0.023657 0.429487 0.003154
0.041759 0.437295 0.004731
0.086072 0.454350 0.013406
0.161205 0.477271 0.026812
0.257412 0.500603 0.037852
0.357759 0.520324 0.044738
0.453009 0.537279 0.049669
0.538302 0.552188 0.054295
0.614568 0.564344 0.058053
0.682981 0.572525 0.061643
0.743459 0.576285 0.066202
0.796457 0.576505 0.071060
0.841972 0.574298 0.076167
0.880571 0.570243 0.080536
0.913198 0.565417 0.084261
0.940552 0.560082 0.088729
0.962643 0.554912 0.093011
0.980071 0.550440 0.097126
0.994047 0.546216 0.100700
1.000000 0.542069 0.104542
0.000000 0.492420 0.056820
0.003943 0.485776 0.046892
0.008674 0.477061 0.035486
0.012617 0.466275 0.020503
0.017349 0.456870 0.009463
0.022869 0.453009 0.003943
0.032332 0.457387 0.004731
0.064521 0.470570 0.007886
0.125919 0.491478 0.021292
0.212243 0.514642 0.034697
0.308254 0.535469 0.044005
0.402955 0.553349 0.048985
0.492017 0.570410 0.053651
0.573523 0.586197 0.056820
0.647311 0.599211 0.058053
0.714595 0.608084 0.059868
0.774774 0.612739 0.063953
0.826774 0.613502 0.070533
0.870786 0.611872 0.078134
0.907272 0.608495 0.086520
0.937460 0.604161 0.094676
0.961740 0.599368 0.101090
0.980567 0.595160 0.106786
0.995047 0.591074 0.111504
1.000000 0.587274 0.115010
0.000000 0.524504 0.068394
0.003943 0.517556 0.056820
0.008674 0.507198 0.043264
0.012617 0.494365 0.026812
0.017349 0.482272 0.011829
0.022080 0.475870 0.004731
0.029966 0.477341 0.004731
0.049669 0.487005 0.007097
0.098330 0.505185 0.015771
0.174454 0.527658 0.030754
0.264236 0.548978 0.042516
0.355856 0.567500 0.048985
0.445620 0.585442 0.054295
0.530176 0.603435 0.057439
0.608084 0.620263 0.058053
0.679384 0.633900 0.057439
0.745042 0.643694 0.058053
0.803909 0.649016 0.063382
0.854412 0.650667 0.072104
0.896631 0.649677 0.083343
0.930411 0.646789 0.095499
0.957375 0.642881 0.106043
0.977393 0.639376 0.115010
0.993046 0.635748 0.122061
1.000000 0.632094 0.126235
0.000000 0.554739 0.083343
0.003943 0.546805 0.070533
0.008674 0.535106 0.053651
0.012617 0.520011 0.033909
0.017349 0.505836 0.015771
0.022080 0.497363 0.005520
0.029177 0.496633 0.005520
0.039429 0.503424 0.007097
0.078619 0.518754 0.014194
0.145068 0.540100 0.028389
0.227921 0.561792 0.043264
0.314738 0.580887 0.053002
0.401311 0.599054 0.057439
0.486868 0.618104 0.061643
0.567500 0.637202 0.062227
0.641395 0.654469 0.061056
0.709397 0.668671 0.059267
0.771989 0.678894 0.061056
0.827877 0.684880 0.066756
0.875728 0.687080 0.077155
0.915162 0.686773 0.090463
0.946030 0.684572 0.104163
0.968433 0.682051 0.115355
0.985698 0.679206 0.124965
0.998523 0.676122 0.131196
0.001577 0.582410 0.101479
0.004731 0.573246 0.086965
0.008674 0.559853 0.067305
0.012617 0.542901 0.044005
0.017349 0.527103 0.022869
0.021292 0.517430 0.009463
0.027600 0.514832 0.007097
0.036274 0.519383 0.007886
0.063382 0.532192 0.013406
0.124005 0.552304 0.029177
0.200315 0.574188 0.046181
0.281193 0.593785 0.058662
0.362708 0.612331 0.066202
0.445467 0.631507 0.069470
0.526671 0.651703 0.070533
0.603383 0.671212 0.070003
0.673019 0.688659 0.068394
0.736281 0.702700 0.067305
0.793880 0.712882 0.068934
0.844895 0.719042 0.075669
0.888147 0.721932 0.086072
0.923320 0.722426 0.098330
0.948999 0.721561 0.110072
0.968405 0.719911 0.120748
0.982849 0.717799 0.129357
0.003154 0.606539 0.122061
0.006309 0.595794 0.105295
0.007886 0.580669 0.083343
0.012617 0.562757 0.056820
0.016560 0.546687 0.033909
0.021292 0.536255 0.018137
0.026812 0.532374 0.010251
0.034697 0.534925 0.010251
0.054295 0.545744 0.018137
0.110432 0.564231 0.033909
0.181348 0.585766 0.052347
0.256081 0.606075 0.068934
0.331987 0.625298 0.079102
0.409026 0.644601 0.082416
0.487890 0.664791 0.082881
0.565981 0.685673 0.083343
0.638363 0.704871 0.082881
0.702658 0.721520 0.081010
0.759752 0.734915 0.080536
0.810599 0.744884 0.083343
0.854610 0.751135 0.088729
0.891310 0.754450 0.097126
0.919253 0.755809 0.106786
0.940319 0.755731 0.116726
0.956579 0.754799 0.124965
0.007886 0.626734 0.142009
0.009463 0.614415 0.123683
0.010251 0.598530 0.099916
0.012617 0.580451 0.072622
0.016560 0.565022 0.048294
0.021292 0.554854 0.030754
0.026023 0.549856 0.020503
0.033909 0.550498 0.018926
0.049669 0.559282 0.026023
0.103784 0.576120 0.041759
0.170081 0.596901 0.062806
0.239606 0.617903 0.082416
0.309445 0.637879 0.095908
0.380344 0.657592 0.101090
0.454202 0.677689 0.101090
0.530543 0.698676 0.100309
0.605455 0.719125 0.100700
0.672929 0.737243 0.099916
0.730837 0.752775 0.099126
0.780529 0.765197 0.098729
0.822934 0.774399 0.100700
0.858691 0.780455 0.105295
0.886166 0.783867 0.111148
0.907608 0.785640 0.118753
0.923827 0.785861 0.124965
0.013406 0.644123 0.161205
0.015771 0.630870 0.142009
0.014983 0.615226 0.118418
0.013406 0.598635 0.092168
0.016560 0.584145 0.067305
0.021292 0.573745 0.048294
0.026812 0.567893 0.035486
0.035486 0.567106 0.031543
0.051020 0.573579 0.037063
0.103403 0.588133 0.053651
0.165586 0.607673 0.075168
0.230111 0.628806 0.097930
0.294272 0.649819 0.115355
0.359649 0.670533 0.123360
0.427247 0.690625 0.123036
0.500076 0.711247 0.121078
0.575403 0.732293 0.121078
0.646314 0.751448 0.121734
0.707540 0.768014 0.121078
0.757861 0.782052 0.119422
0.798987 0.793152 0.119088
0.832098 0.801435 0.120748
0.858068 0.806551 0.124005
0.877867 0.809678 0.128739
0.892901 0.811413 0.132407
0.020503 0.659679 0.179596
0.022869 0.646837 0.161205
0.022080 0.632632 0.139742
0.019714 0.617449 0.114664
0.017349 0.604265 0.090892
0.022869 0.593838 0.070003
0.028389 0.586843 0.055568
0.037063 0.584145 0.049669
0.058662 0.588562 0.053651
0.110072 0.601145 0.068394
0.168439 0.619411 0.091319
0.227921 0.640098 0.116385
0.286977 0.661712 0.136563
0.346048 0.683202 0.146710
0.407923 0.703680 0.147523
0.475870 0.723987 0.144793
0.549680 0.744884 0.143408
0.623360 0.764891 0.143964
0.688659 0.782126 0.143964
0.741753 0.796747 0.142850
0.783201 0.808898 0.141446
0.814761 0.818407 0.141164
0.838698 0.825082 0.142571
0.856390 0.829356 0.144517
0.869754 0.831858 0.146437
0.030754 0.673425 0.196162
0.032332 0.660974 0.178713
0.030754 0.647785 0.158717
0.027600 0.633949 0.135683
0.022080 0.621714 0.113270
0.026023 0.611413 0.092168
0.031543 0.603487 0.076167
0.039429 0.599473 0.067305
0.068934 0.602187 0.069470
0.118753 0.613095 0.083343
0.174681 0.630379 0.107524
0.230780 0.650997 0.134204
0.285021 0.672929 0.156951
0.338679 0.695271 0.169847
0.395270 0.716678 0.172856
0.458344 0.736923 0.169847
0.529256 0.757435 0.166781
0.603591 0.777696 0.166543
0.672613 0.795768 0.167019
0.730269 0.810670 0.166304
0.773797 0.822934 0.164864
0.805552 0.833020 0.163411
0.828015 0.840388 0.163167
0.844292 0.845297 0.163654
0.855962 0.848572 0.164381
0.046181 0.686333 0.211139
0.047596 0.674055 0.194352
0.046892 0.661942 0.176036
0.041759 0.649016 0.154650
0.034697 0.637251 0.133009
0.029177 0.626734 0.112567
0.034697 0.618154 0.095088
0.043264 0.613247 0.084261
0.080060 0.614466 0.084261
0.127806 0.623758 0.097126
0.181130 0.640146 0.121734
0.235077 0.660512 0.149671
0.285675 0.682715 0.173543
0.335785 0.705677 0.188390
0.388483 0.727952 0.192931
0.448125 0.748588 0.190469
0.516228 0.768849 0.186920
0.589686 0.789206 0.186075
0.660650 0.807690 0.186498
0.721066 0.822865 0.186709
0.767900 0.835270 0.185650
0.801507 0.845331 0.184157
0.824217 0.853155 0.183298
0.839645 0.858659 0.183082
0.850270 0.862617 0.183082
0.058053 0.698891 0.224160
0.058662 0.687563 0.207976
0.055568 0.676615 0.191088
0.049669 0.664241 0.170314
0.040994 0.652267 0.148869
0.031543 0.640723 0.127493
0.031543 0.630870 0.108258
0.054295 0.625000 0.096721
0.091319 0.625744 0.097126
0.139742 0.634874 0.111859
0.192114 0.650950 0.137728
0.243413 0.670940 0.166543
0.290587 0.692845 0.190675
0.336323 0.715887 0.205711
0.385398 0.738604 0.211508
0.441790 0.759752 0.210214
0.507522 0.779934 0.206280
0.579795 0.799888 0.204185
0.651044 0.818372 0.204185
0.714011 0.833942 0.204185
0.763783 0.846335 0.203418
0.799420 0.855995 0.201873
0.823836 0.863823 0.200706
0.839374 0.869335 0.199728
0.849837 0.873647 0.198941
0.072622 0.711793 0.242626
0.070533 0.702103 0.228090
0.065646 0.691975 0.211692
0.057439 0.679919 0.191293
0.046892 0.666940 0.168439
0.038640 0.653955 0.145068
0.047596 0.643311 0.125602
0.073649 0.637348 0.114317
0.113620 0.638893 0.117405
0.160958 0.648164 0.133608
0.210400 0.663874 0.158968
0.256378 0.682892 0.185650
0.298647 0.703638 0.207788
0.339425 0.725830 0.221729
0.385034 0.748667 0.228766
0.438619 0.770175 0.228428
0.501786 0.790268 0.224849
0.572081 0.809962 0.221903
0.643503 0.828256 0.220678
0.708132 0.843990 0.220326
0.760560 0.856489 0.220150
0.799131 0.866033 0.218913
0.825739 0.873615 0.217669
0.842242 0.879046 0.216237
0.853089 0.883801 0.215156
0.007886 0.018137 0.037063
0.037852 0.017349 0.033909
0.075669 0.016560 0.029177
0.126551 0.016560 0.022869
0.190469 0.015771 0.016560
0.257117 0.017349 0.010251
0.317518 0.022869 0.008674
0.372082 0.033909 0.007886
0.422966 0.046892 0.013406
0.475308 0.060464 0.018926
0.528150 0.073649 0.024446
0.580723 0.086072 0.026812
0.631898 0.097930 0.028389
0.680453 0.107892 0.027600
0.726892 0.116385 0.024446
0.770856 0.123036 0.020503
0.811483 0.127493 0.015771
0.847905 0.130891 0.010251
0.880381 0.132708 0.006309
0.909588 0.133608 0.006309
0.934972 0.133308 0.006309
0.956152 0.133009 0.005520
0.974622 0.131499 0.005520
0.990795 0.129666 0.005520
0.996180 0.127806 0.005520
0.009463 0.041759 0.038640
0.035486 0.040994 0.037063
0.072104 0.038640 0.033120
0.124326 0.036274 0.028389
0.191499 0.033909 0.022080
0.262225 0.033909 0.015771
0.325577 0.037852 0.013406
0.382192 0.046181 0.013406
0.434791 0.058053 0.018137
0.486868 0.070003 0.022080
0.538662 0.081950 0.026812
0.590113 0.093846 0.029177
0.640290 0.104542 0.029177
0.688133 0.114317 0.027600
0.733908 0.121734 0.024446
0.777472 0.127806 0.019714
0.817638 0.131803 0.014194
0.853585 0.134204 0.008674
0.885663 0.135389 0.006309
0.914044 0.135977 0.006309
0.938599 0.135683 0.005520
0.959051 0.134798 0.005520
0.976424 0.133608 0.005520
0.990903 0.132708 0.005520
0.996477 0.131499 0.005520
0.008674 0.071584 0.040994
0.030754 0.068394 0.039429
0.065085 0.065646 0.037852
0.118753 0.062806 0.033909
0.189225 0.059868 0.029177
0.265093 0.058662 0.024446
0.334813 0.061056 0.022080
0.395977 0.066756 0.022080
0.450463 0.075669 0.026023
0.502377 0.085622 0.029177
0.553001 0.095908 0.031543
0.603383 0.106043 0.032332
0.651938 0.115010 0.030754
0.698462 0.123360 0.028389
0.743023 0.130280 0.024446
0.785419 0.135683 0.018926
0.824494 0.138882 0.013406
0.859413 0.140880 0.007886
0.890278 0.141728 0.006309
0.917301 0.142009 0.006309
0.940784 0.141728 0.005520
0.959362 0.141164 0.005520
0.975371 0.140597 0.005520
0.988728 0.140028 0.005520
0.996908 0.140028 0.005520
0.004731 0.106043 0.040994
0.023657 0.103403 0.040994
0.054295 0.101090 0.040217
0.104542 0.099126 0.038640
0.176933 0.097529 0.037063
0.260487 0.096721 0.033909
0.340062 0.097126 0.033120
0.408941 0.100309 0.033909
0.468429 0.105669 0.035486
0.521576 0.112567 0.037063
0.571970 0.119755 0.037852
0.620314 0.126551 0.036274
0.666940 0.133308 0.033909
0.711415 0.139456 0.030754
0.754138 0.144793 0.025234
0.794752 0.148869 0.019714
0.831824 0.151788 0.013406
0.864766 0.153095 0.007886
0.893742 0.153615 0.006309
0.918923 0.153615 0.005520
0.940319 0.153615 0.005520
0.957461 0.153356 0.005520
0.971534 0.153615 0.005520
0.982931 0.154133 0.005520
0.991582 0.155421 0.005520
0.002366 0.146710 0.037852
0.016560 0.143686 0.037852
0.040217 0.141446 0.038640
0.083343 0.141164 0.040217
0.151261 0.142850 0.041759
0.238805 0.144517 0.041759
0.330783 0.145891 0.041759
0.412817 0.147253 0.041759
0.480890 0.149937 0.042516
0.538422 0.153615 0.042516
0.590060 0.157205 0.041759
0.637831 0.160711 0.040217
0.682760 0.164381 0.037063
0.725175 0.167256 0.032332
0.765387 0.169847 0.027600
0.803228 0.172397 0.022080
0.837851 0.173771 0.015771
0.868495 0.174226 0.010251
0.895079 0.174226 0.006309
0.917722 0.174454 0.005520
0.936993 0.174681 0.005520
0.952355 0.174681 0.005520
0.964672 0.175585 0.005520
0.974233 0.176933 0.005520
0.981062 0.178934 0.005520
0.000789 0.189433 0.033120
0.010251 0.186709 0.033120
0.027600 0.184799 0.034697
0.059267 0.185438 0.036274
0.115699 0.189640 0.040217
0.200120 0.196362 0.043264
0.300130 0.201873 0.044738
0.396945 0.204759 0.044005
0.479015 0.206280 0.044005
0.546039 0.207600 0.044005
0.602031 0.208912 0.043264
0.651138 0.209657 0.041759
0.695444 0.210029 0.038640
0.735919 0.210214 0.034697
0.773421 0.210029 0.030754
0.808685 0.209843 0.026023
0.840759 0.209098 0.021292
0.868753 0.208351 0.016560
0.893181 0.207788 0.013406
0.913833 0.207036 0.009463
0.930913 0.207224 0.007097
0.944383 0.207224 0.007097
0.954927 0.207788 0.006309
0.963179 0.209285 0.007097
0.968657 0.211508 0.008674
0.000000 0.233270 0.029177
0.006309 0.229943 0.028389
0.018137 0.227582 0.028389
0.038640 0.227921 0.029966
0.080536 0.234093 0.033909
0.152835 0.245447 0.039429
0.252191 0.257412 0.042516
0.360145 0.265520 0.042516
0.457902 0.269608 0.042516
0.537881 0.271001 0.042516
0.602292 0.271140 0.042516
0.655637 0.270445 0.042516
0.700863 0.269048 0.040994
0.740519 0.267079 0.039429
0.776537 0.264808 0.037063
0.809040 0.261936 0.034697
0.838562 0.259320 0.031543
0.864701 0.256822 0.029177
0.887330 0.254444 0.026812
0.906295 0.252794 0.026023
0.922037 0.251587 0.025234
0.934268 0.250981 0.026023
0.943919 0.250677 0.026812
0.951238 0.251435 0.029966
0.956238 0.252794 0.033120
0.000000 0.275540 0.029966
0.005520 0.272524 0.026812
0.011040 0.269328 0.025234
0.025234 0.268628 0.024446
0.053651 0.274311 0.026812
0.109712 0.288014 0.033120
0.198744 0.305856 0.038640
0.309207 0.320839 0.041759
0.418300 0.330124 0.042516
0.511578 0.334921 0.042516
0.586574 0.336431 0.044005
0.646884 0.336108 0.045463
0.696265 0.334489 0.046181
0.737524 0.331659 0.046892
0.773609 0.328026 0.047596
0.805481 0.323782 0.046892
0.833907 0.319470 0.046892
0.858691 0.315203 0.046892
0.880317 0.311221 0.046892
0.898395 0.307896 0.047596
0.913228 0.305373 0.048985
0.925196 0.303191 0.051020
0.934678 0.301726 0.053002
0.941569 0.301114 0.056196
0.946694 0.301114 0.060464
0.000000 0.316826 0.035486
0.003943 0.313220 0.030754
0.009463 0.309326 0.026023
0.017349 0.306938 0.022080
0.035486 0.310512 0.022080
0.076662 0.323218 0.026812
0.149671 0.343438 0.033909
0.253396 0.364275 0.039429
0.366996 0.380159 0.043264
0.469929 0.390014 0.046181
0.555720 0.395624 0.048985
0.624653 0.397911 0.053002
0.680719 0.397472 0.056820
0.726769 0.395182 0.059868
0.765731 0.391537 0.062227
0.799780 0.386944 0.063953
0.829218 0.381546 0.065646
0.854940 0.375959 0.067852
0.876687 0.370843 0.069470
0.894862 0.366124 0.071584
0.909770 0.362118 0.074664
0.921858 0.358855 0.077646
0.931355 0.356258 0.080536
0.939008 0.354143 0.084261
0.944469 0.352624 0.088729
0.000000 0.357159 0.043264
0.003943 0.352725 0.037063
0.008674 0.347603 0.029966
0.014194 0.343124 0.022869
0.025234 0.343438 0.018926
0.053002 0.352725 0.020503
0.109350 0.371511 0.028389
0.199728 0.395270 0.037063
0.310631 0.416648 0.045463
0.419206 0.432268 0.049669
0.513368 0.442943 0.054934
0.591181 0.449334 0.060464
0.655310 0.451888 0.066756
0.708638 0.451589 0.072104
0.753944 0.448956 0.076167
0.792861 0.444399 0.079582
0.826464 0.439240 0.082416
0.854973 0.433610 0.084717
0.879109 0.427728 0.087851
0.899106 0.422152 0.090892
0.915011 0.417145 0.095088
0.928134 0.413068 0.099126
0.938570 0.409534 0.102637
0.946752 0.406474 0.106786
0.952756 0.403817 0.111504
0.000000 0.396593 0.053002
0.003943 0.391358 0.044738
0.007886 0.384851 0.035486
0.013406 0.378206 0.025234
0.019714 0.374830 0.018137
0.037063 0.379416 0.016560
0.078134 0.394563 0.021292
0.152312 0.417888 0.032332
0.254892 0.442406 0.044005
