bundles/resolve-cinematic-luts/Gamut/Adagio/Adagio 02.cube
TITLE "Generated by 3D LUT Creator Pro (c) Oleg Sharonov"
LUT_3D_SIZE 5
#INPUTGAMMA sRGB
#IMAGEPROFILE sRGB
#OUTPUTGAMMA sRGB
0.011829 0.014983 0.011829
0.314854 0.023657 0.000789
0.629987 0.097126 0.025234
0.873679 0.133906 0.004731
0.996100 0.129973 0.001577
0.000000 0.223641 0.011040
0.253696 0.258442 0.031543
0.704446 0.268487 0.032332
0.892184 0.252191 0.014194
0.963151 0.247770 0.012617
0.000000 0.458123 0.046181
0.041759 0.437295 0.004731
0.538302 0.552188 0.054295
0.880571 0.570243 0.080536
1.000000 0.542069 0.104542
0.007886 0.626734 0.142009
0.026023 0.549856 0.020503
0.309445 0.637879 0.095908
0.730837 0.752775 0.099126
0.923827 0.785861 0.124965
0.072622 0.711793 0.242626
0.047596 0.643311 0.125602
0.298647 0.703638 0.207788
0.643503 0.828256 0.220678
0.853089 0.883801 0.215156
0.006309 0.025234 0.272662
0.280527 0.015771 0.219974
0.689927 0.083803 0.176260
0.956067 0.111148 0.116726
0.999463 0.127493 0.077155
0.023657 0.282255 0.291864
0.262513 0.272524 0.256378
0.679072 0.273488 0.196960
0.869883 0.281725 0.167494
0.934561 0.301481 0.176933
0.000789 0.565699 0.294524
0.076662 0.512282 0.233929
0.567163 0.567780 0.293640
0.882125 0.571469 0.309920
0.987910 0.551081 0.316710
0.000000 0.699664 0.300745
0.039429 0.629102 0.264950
0.392073 0.675045 0.321066
0.769645 0.782646 0.328690
0.951181 0.802548 0.334921
0.006309 0.764586 0.340910
0.137147 0.693149 0.300130
0.375959 0.738364 0.340487
0.691540 0.866584 0.395712
0.887582 0.911805 0.383570
0.044738 0.041759 0.592830
0.244823 0.039429 0.521326
0.582573 0.068934 0.512730
0.874192 0.092168 0.564061
0.991636 0.156697 0.543436
0.063953 0.273488 0.544858
0.253995 0.258295 0.584848
0.603746 0.231613 0.531032
0.836460 0.307537 0.514387
0.941017 0.360244 0.457534
0.074158 0.586090 0.665981
0.260341 0.583170 0.621664
0.598792 0.589472 0.574077
0.871687 0.585550 0.524876
0.988155 0.579959 0.498490
0.000000 0.789463 0.697558
0.090032 0.768318 0.585119
0.468286 0.754216 0.529563
0.821962 0.818547 0.571135
0.989626 0.823732 0.575348
0.000000 0.893866 0.656755
0.093011 0.832713 0.524752
0.434555 0.819838 0.514323
0.752970 0.914377 0.597585
0.938716 0.950492 0.604006
0.079102 0.086965 0.859839
0.255041 0.074664 0.851631
0.572192 0.070533 0.726320
0.789389 0.078134 0.716012
0.857706 0.152312 0.683644
0.079582 0.268206 0.763897
0.266938 0.253095 0.814375
0.572470 0.238161 0.722179
0.754605 0.264379 0.685541
0.855336 0.323782 0.679607
0.128118 0.560824 0.800212
0.339319 0.573579 0.784348
0.574132 0.581813 0.799888
0.816166 0.549329 0.755110
0.959788 0.562360 0.753087
0.067305 0.763630 0.892839
0.286196 0.785529 0.875664
0.563778 0.823489 0.853651
0.842410 0.833805 0.828256
0.989680 0.837037 0.816657
0.059267 0.884117 0.944788
0.278921 0.918623 0.916368
0.513432 0.952384 0.867297
0.820849 0.962897 0.848672
0.983452 0.984877 0.861017
0.177156 0.102637 0.999946
0.325912 0.090032 0.997985
0.556066 0.091319 0.842948
0.749844 0.093429 0.817042
0.797904 0.154650 0.745358
0.156951 0.254743 0.897746
0.313454 0.256230 0.915976
0.561051 0.267220 0.826291
0.714094 0.261936 0.763285
0.794134 0.299389 0.728115
0.167019 0.556930 0.885915
0.321975 0.568901 0.856555
0.549153 0.576560 0.915524
0.778891 0.528089 0.857805
0.893742 0.517114 0.836562
0.143964 0.749059 0.977227
0.377178 0.777883 0.976147
0.613806 0.814445 0.971813
0.835508 0.831105 0.961316
0.969357 0.823593 0.950923
0.157963 0.867751 1.000000
0.397384 0.911077 1.000000
0.647548 0.953728 1.000000
0.882220 0.979740 0.997204
0.999490 0.999812 1.000000
