bundles/resolve-cinematic-luts/Gamut/Adagio/Adagio 02.cube
TITLE "Generated by 3D LUT Creator Pro (c) Oleg Sharonov"
LUT_3D_SIZE 9
#INPUTGAMMA sRGB
#IMAGEPROFILE sRGB
#OUTPUTGAMMA sRGB
0.011829 0.014983 0.011829
0.129357 0.017349 0.003154
0.314854 0.023657 0.000789
0.474253 0.059267 0.014983
0.629987 0.097126 0.025234
0.766493 0.123360 0.018926
0.873679 0.133906 0.004731
0.948423 0.135389 0.001577
0.996100 0.129973 0.001577
0.003943 0.102253 0.022869
0.107892 0.098330 0.025234
0.345944 0.097126 0.023657
0.524131 0.111504 0.030754
0.667168 0.131803 0.029966
0.793807 0.148063 0.017349
0.891778 0.152835 0.002366
0.956152 0.152312 0.001577
0.993127 0.152574 0.001577
0.000000 0.223641 0.011040
0.039429 0.224849 0.017349
0.253696 0.258442 0.031543
0.539501 0.271001 0.033909
0.704446 0.268487 0.032332
0.813600 0.260632 0.024446
0.892184 0.252191 0.014194
0.940261 0.247307 0.009463
0.963151 0.247770 0.012617
0.000000 0.344276 0.020503
0.014983 0.337397 0.007886
0.111504 0.373317 0.019714
0.418795 0.432426 0.038640
0.656941 0.452113 0.051686
0.795950 0.444934 0.060464
0.883485 0.427488 0.065085
0.933856 0.411558 0.072622
0.958682 0.401485 0.084261
0.000000 0.458123 0.046181
0.012617 0.436202 0.016560
0.041759 0.437295 0.004731
0.257412 0.500603 0.037852
0.538302 0.552188 0.054295
0.743459 0.576285 0.066202
0.880571 0.570243 0.080536
0.962643 0.554912 0.093011
1.000000 0.542069 0.104542
0.000000 0.554739 0.083343
0.012617 0.520011 0.033909
0.029177 0.496633 0.005520
0.145068 0.540100 0.028389
0.401311 0.599054 0.057439
0.641395 0.654469 0.061056
0.827877 0.684880 0.066756
0.946030 0.684572 0.104163
0.998523 0.676122 0.131196
0.007886 0.626734 0.142009
0.012617 0.580451 0.072622
0.026023 0.549856 0.020503
0.103784 0.576120 0.041759
0.309445 0.637879 0.095908
0.530543 0.698676 0.100309
0.730837 0.752775 0.099126
0.858691 0.780455 0.105295
0.923827 0.785861 0.124965
0.030754 0.673425 0.196162
0.027600 0.633949 0.135683
0.031543 0.603487 0.076167
0.118753 0.613095 0.083343
0.285021 0.672929 0.156951
0.458344 0.736923 0.169847
0.672613 0.795768 0.167019
0.805552 0.833020 0.163411
0.855962 0.848572 0.164381
0.072622 0.711793 0.242626
0.057439 0.679919 0.191293
0.047596 0.643311 0.125602
0.160958 0.648164 0.133608
0.298647 0.703638 0.207788
0.438619 0.770175 0.228428
0.643503 0.828256 0.220678
0.799131 0.866033 0.218913
0.853089 0.883801 0.215156
0.001577 0.022080 0.098330
0.116726 0.017349 0.087851
0.322880 0.018926 0.047596
0.494365 0.058662 0.040994
0.654189 0.097529 0.044738
0.795696 0.120418 0.031543
0.907211 0.127493 0.014983
0.982135 0.126866 0.014194
0.996423 0.124326 0.014194
0.013406 0.108987 0.096721
0.099522 0.101867 0.092590
0.332097 0.097930 0.071060
0.526671 0.115010 0.061056
0.678225 0.136270 0.051686
0.806551 0.150733 0.034697
0.905225 0.155421 0.016560
0.964728 0.158215 0.014194
0.989789 0.164864 0.014194
0.001577 0.257265 0.083343
0.037852 0.245758 0.077155
0.253396 0.260196 0.081010
0.534501 0.271694 0.079102
0.691409 0.271417 0.076662
0.798410 0.266513 0.071584
0.876336 0.261936 0.067305
0.922037 0.261792 0.070003
0.943311 0.266655 0.081950
0.000000 0.390193 0.102637
0.013406 0.371034 0.077155
0.112214 0.377085 0.066202
0.424830 0.435026 0.101090
0.652126 0.451963 0.124965
0.784828 0.444552 0.140597
0.867977 0.429647 0.150998
0.916458 0.417393 0.162679
0.943398 0.409619 0.172167
0.000000 0.503424 0.140880
0.012617 0.475660 0.102637
0.039429 0.443097 0.051020
0.269048 0.504273 0.103403
0.545330 0.555259 0.138882
0.748077 0.576725 0.156443
0.882283 0.569628 0.175811
0.960920 0.554854 0.190055
0.998523 0.544325 0.198151
0.000000 0.592617 0.181348
0.012617 0.558251 0.135683
0.026812 0.511450 0.064521
0.160215 0.542723 0.094676
0.417723 0.607775 0.156951
0.650667 0.662034 0.159717
0.840287 0.688921 0.175811
0.954784 0.686333 0.212426
0.999812 0.677778 0.227412
0.002366 0.656522 0.223814
0.012617 0.618255 0.181348
0.026812 0.577660 0.112919
0.130280 0.582465 0.115010
0.339212 0.649771 0.200120
0.542307 0.713133 0.207788
0.745121 0.764050 0.202840
0.874192 0.788986 0.209285
0.934091 0.792678 0.221903
0.018926 0.698934 0.262513
0.014983 0.668216 0.233105
0.031543 0.624901 0.167494
0.156951 0.621864 0.156697
0.322880 0.686289 0.243727
0.482824 0.756661 0.270445
0.689271 0.812543 0.261502
0.820361 0.845498 0.251889
0.868365 0.859216 0.248231
0.050348 0.732980 0.296781
0.036274 0.698762 0.264808
0.088291 0.654048 0.194554
0.199335 0.659911 0.197755
0.333513 0.717176 0.271278
0.468715 0.787848 0.310631
0.664424 0.845398 0.303070
0.815534 0.879396 0.298399
0.867783 0.895980 0.291737
0.006309 0.025234 0.272662
0.098729 0.016560 0.275131
0.280527 0.015771 0.219974
0.491478 0.047596 0.196960
0.689927 0.083803 0.176260
0.845934 0.103021 0.146437
0.956067 0.111148 0.116726
0.987064 0.118081 0.091319
0.999463 0.127493 0.077155
0.022080 0.103784 0.262801
0.097529 0.099126 0.276491
0.299018 0.090032 0.244197
0.520073 0.105669 0.213158
0.702658 0.127806 0.179155
0.841231 0.143964 0.142290
0.934796 0.156188 0.113620
0.982162 0.171243 0.097126
0.992558 0.191293 0.098729
0.023657 0.282255 0.291864
0.065085 0.277709 0.281725
0.262513 0.272524 0.256378
0.520324 0.270166 0.222948
0.679072 0.273488 0.196960
0.790597 0.276491 0.178491
0.869883 0.281725 0.167494
0.913198 0.291354 0.168203
0.934561 0.301481 0.176933
0.004731 0.451963 0.299389
0.021292 0.442867 0.279190
0.154650 0.430920 0.249152
0.445315 0.446761 0.265520
0.646552 0.453904 0.273075
0.768546 0.447747 0.274721
0.851067 0.438696 0.274858
0.905561 0.431317 0.275404
0.936934 0.426604 0.274994
0.000789 0.565699 0.294524
0.014194 0.547805 0.271971
0.076662 0.512282 0.233929
0.324681 0.529379 0.263663
0.567163 0.567780 0.293640
0.756855 0.580341 0.300868
0.882125 0.571469 0.309920
0.955212 0.559339 0.315203
0.987910 0.551081 0.316710
0.000000 0.645839 0.294398
0.012617 0.618909 0.275676
0.043264 0.577605 0.242783
0.230278 0.572969 0.239766
0.459666 0.631751 0.309207
0.672568 0.678180 0.308731
0.859970 0.695920 0.319584
0.964053 0.690014 0.336646
1.000000 0.681119 0.341544
0.000000 0.699664 0.300745
0.012617 0.670125 0.290203
0.039429 0.629102 0.264950
0.200511 0.613196 0.239926
0.392073 0.675045 0.321066
0.571191 0.739243 0.342388
0.769645 0.782646 0.328690
0.895514 0.801507 0.328580
0.951181 0.802548 0.334921
0.000000 0.735196 0.315784
0.013406 0.710533 0.313103
0.080536 0.662449 0.281459
0.219268 0.653439 0.260050
0.373222 0.710196 0.331002
0.520512 0.782534 0.378206
0.713342 0.834657 0.367770
0.842040 0.862682 0.355655
0.888304 0.874288 0.349457
0.006309 0.764586 0.340910
0.024446 0.733787 0.335677
0.137147 0.693149 0.300130
0.249305 0.689009 0.282917
0.375959 0.738364 0.340487
0.507522 0.809997 0.397560
0.691540 0.866584 0.395712
0.836120 0.896538 0.391984
0.887582 0.911805 0.383570
0.025234 0.030754 0.446305
0.090032 0.025234 0.456722
0.250525 0.024446 0.384851
0.433137 0.046181 0.373222
0.627426 0.073137 0.412062
0.806765 0.084717 0.420846
0.936612 0.099126 0.386490
0.987556 0.121078 0.343124
1.000000 0.146437 0.310275
0.034697 0.101479 0.423696
0.103021 0.095908 0.451589
0.280127 0.083343 0.421418
0.462149 0.088729 0.398173
0.644505 0.111859 0.416979
0.806159 0.133009 0.403989
0.913621 0.162189 0.355353
0.962925 0.197159 0.310394
0.974178 0.227751 0.286327
0.054934 0.279324 0.459005
0.091319 0.277304 0.460471
0.263089 0.267079 0.459959
0.485571 0.248539 0.426443
0.648496 0.259904 0.402350
0.775300 0.282388 0.368155
0.863171 0.306938 0.328469
0.912925 0.329132 0.305132
0.941744 0.342808 0.296531
0.056196 0.464760 0.523945
0.084261 0.461493 0.514451
0.235403 0.458638 0.479154
0.462367 0.455019 0.449409
0.634922 0.454425 0.426604
0.757435 0.456427 0.401051
0.849138 0.456353 0.379881
0.912623 0.455464 0.366124
0.947847 0.453457 0.358954
0.023657 0.598792 0.551548
0.042516 0.589204 0.526980
0.163411 0.576670 0.471139
0.389024 0.571580 0.441328
0.591607 0.582573 0.448579
0.758209 0.585173 0.439782
0.876591 0.577714 0.433137
0.948538 0.569237 0.427327
0.980897 0.563721 0.425718
0.000000 0.693279 0.519383
0.013406 0.674055 0.479502
0.098330 0.649913 0.427488
0.310749 0.633949 0.410294
0.508104 0.661942 0.441944
0.699020 0.695488 0.450914
0.875121 0.702316 0.449635
0.969105 0.694016 0.453606
1.000000 0.686597 0.457387
0.000000 0.752580 0.458197
0.012617 0.729376 0.423615
0.065646 0.700050 0.400356
0.266088 0.675673 0.386944
0.442252 0.708385 0.421581
0.606023 0.766226 0.460763
0.796493 0.802440 0.451663
0.920212 0.814797 0.449560
0.972342 0.813952 0.455983
0.000000 0.791876 0.423615
0.012617 0.772178 0.411810
0.083803 0.730188 0.398611
0.265520 0.710449 0.382007
0.416648 0.742746 0.412146
0.560253 0.808791 0.470428
0.742547 0.858396 0.474746
0.868268 0.882378 0.467066
0.913893 0.892340 0.460909
0.000000 0.825186 0.430443
0.012617 0.793298 0.422478
0.126551 0.751057 0.404505
0.279726 0.739602 0.388121
0.412314 0.767976 0.411978
0.548450 0.834351 0.476431
0.722055 0.890184 0.494231
0.859052 0.916729 0.493695
0.912047 0.930795 0.487618
0.044738 0.041759 0.592830
0.086520 0.040994 0.605714
0.244823 0.039429 0.521326
0.419124 0.050348 0.486527
0.582573 0.068934 0.512730
0.734029 0.080536 0.544147
0.874192 0.092168 0.564061
0.960524 0.124005 0.559682
0.991636 0.156697 0.543436
0.051686 0.101090 0.580341
0.115010 0.095088 0.599892
0.281459 0.086520 0.550732
0.442943 0.085170 0.509909
0.596901 0.099916 0.523510
0.737403 0.123683 0.540936
0.859118 0.160215 0.544443
0.928312 0.207224 0.527350
0.954014 0.241835 0.503163
0.063953 0.273488 0.544858
0.096315 0.271278 0.554739
0.253995 0.258295 0.584848
0.463167 0.232111 0.553697
0.603746 0.231613 0.531032
0.729741 0.265377 0.529869
0.836460 0.307537 0.514387
0.904030 0.341439 0.480959
0.941017 0.360244 0.457534
0.090032 0.453829 0.618406
0.128118 0.452262 0.613044
0.273488 0.453159 0.593838
0.459666 0.449936 0.578537
0.611107 0.440401 0.555201
0.737724 0.450613 0.531643
0.845096 0.464905 0.493829
0.921738 0.473618 0.460178
0.961429 0.475308 0.446305
0.074158 0.586090 0.665981
0.117744 0.581268 0.651750
0.260341 0.583170 0.621664
0.437841 0.590167 0.591340
0.598792 0.589472 0.574077
0.748274 0.587864 0.553117
0.871687 0.585550 0.524876
0.951295 0.582356 0.504925
0.988155 0.579959 0.498490
0.014194 0.700606 0.708722
0.056196 0.692671 0.678939
0.172856 0.690668 0.625942
0.345424 0.690276 0.570856
0.536918 0.693018 0.563551
0.716387 0.706355 0.573911
0.879077 0.706355 0.563891
0.969245 0.699149 0.559224
1.000000 0.695271 0.560025
0.000000 0.789463 0.697558
0.012617 0.779599 0.653205
0.090032 0.768318 0.585119
0.268487 0.749412 0.526115
0.468286 0.754216 0.529563
0.638218 0.789719 0.563551
0.821962 0.818547 0.571135
0.940988 0.825013 0.570633
0.989626 0.823732 0.575348
0.000000 0.850834 0.663415
0.012617 0.840219 0.622064
0.067305 0.811625 0.543614
0.250829 0.784311 0.504925
0.439162 0.793079 0.514133
0.595108 0.836256 0.555259
0.772819 0.881111 0.584524
0.893431 0.901419 0.582953
0.941599 0.909679 0.579467
0.000000 0.893866 0.656755
0.012617 0.871784 0.597742
0.093011 0.832713 0.524752
0.260777 0.809926 0.505901
0.434555 0.819838 0.514323
0.583550 0.863302 0.556642
0.752970 0.914377 0.597585
0.883959 0.937607 0.605300
0.938716 0.950492 0.604006
0.063953 0.060464 0.729254
0.093846 0.061056 0.742666
0.248231 0.054934 0.683025
0.420027 0.062227 0.603591
0.573800 0.065085 0.616793
0.703595 0.068394 0.628757
0.816096 0.085622 0.634679
0.889150 0.124326 0.630870
0.917992 0.162434 0.622164
0.077646 0.108987 0.738204
0.135093 0.102253 0.753983
0.291099 0.096315 0.697816
0.442713 0.097529 0.626833
0.583225 0.097126 0.624852
0.701034 0.112919 0.624852
0.801866 0.151525 0.622613
0.867880 0.204377 0.615328
0.899446 0.241518 0.607209
0.065085 0.269468 0.644505
0.101090 0.266230 0.658985
0.254743 0.253696 0.697687
0.456353 0.235730 0.668353
0.581540 0.223641 0.626981
0.689490 0.241835 0.617701
0.790561 0.284890 0.615024
0.868882 0.326359 0.607055
0.914226 0.351402 0.598005
0.101867 0.447671 0.693192
0.149137 0.447140 0.685717
0.272937 0.448579 0.670759
0.445086 0.446305 0.681030
0.591447 0.428449 0.659355
0.699578 0.421336 0.636330
0.816131 0.440015 0.626981
0.909253 0.461712 0.606075
0.956408 0.469929 0.595583
0.104542 0.570466 0.734472
0.175811 0.569181 0.725748
0.321634 0.576340 0.712212
0.461347 0.586628 0.700392
0.591553 0.585874 0.694752
0.725503 0.575569 0.674415
0.859052 0.578537 0.645125
0.952269 0.584578 0.611362
0.995965 0.585550 0.601771
0.066756 0.680941 0.784570
0.139170 0.679741 0.770932
0.273350 0.689577 0.752424
0.425476 0.704148 0.730958
0.568285 0.711247 0.709565
0.720324 0.710995 0.698848
0.873518 0.707202 0.676211
0.968993 0.704573 0.654329
1.000000 0.704786 0.648401
0.008674 0.782646 0.827670
0.071060 0.782794 0.805981
0.182866 0.791803 0.769569
0.327472 0.802942 0.719290
0.484268 0.808720 0.682450
0.659216 0.817007 0.686201
0.837817 0.829218 0.698676
0.949889 0.831687 0.694406
0.996585 0.831173 0.695531
0.000000 0.856785 0.849471
0.023657 0.857410 0.819943
0.137147 0.861703 0.760252
0.282255 0.862845 0.688965
0.439240 0.863986 0.660327
0.616288 0.876655 0.674191
0.801399 0.901634 0.708891
0.915946 0.917301 0.710743
0.965572 0.924125 0.709060
0.000000 0.903784 0.862487
0.025234 0.903416 0.815956
0.143964 0.901018 0.738404
0.279726 0.895886 0.673830
0.429009 0.895514 0.657407
0.605507 0.908797 0.674775
0.787334 0.937665 0.717010
0.909862 0.957034 0.731646
0.963856 0.969301 0.731849
0.079102 0.086965 0.859839
0.107156 0.087851 0.873903
0.255041 0.074664 0.851631
0.432189 0.078619 0.741395
0.572192 0.070533 0.726320
0.691758 0.063382 0.727055
0.789389 0.078134 0.716012
0.843654 0.115699 0.700949
0.857706 0.152312 0.683644
0.115355 0.122712 0.885127
0.167019 0.117405 0.896631
0.307297 0.110432 0.860592
0.452935 0.117066 0.760329
0.576010 0.110432 0.727300
0.681341 0.115355 0.714804
0.769607 0.145068 0.697601
0.820605 0.189848 0.683246
0.840928 0.224332 0.672162
0.079582 0.268206 0.763897
0.119088 0.264379 0.779971
0.266938 0.253095 0.814375
0.456648 0.248078 0.778182
0.572470 0.238161 0.722179
0.665707 0.239606 0.698634
0.754605 0.264379 0.685541
0.818791 0.298151 0.680319
0.855336 0.323782 0.679607
0.103784 0.446153 0.757977
0.156188 0.445086 0.745832
0.261068 0.444169 0.734351
0.431396 0.443557 0.770100
0.583225 0.428849 0.760175
0.674955 0.406560 0.719497
0.771007 0.407242 0.704148
0.853519 0.425234 0.705126
0.901603 0.438463 0.710911
0.128118 0.560824 0.800212
0.214069 0.563325 0.793443
0.339319 0.573579 0.784348
0.444016 0.582193 0.777846
0.574132 0.581813 0.799888
0.705847 0.563721 0.783127
0.816166 0.549329 0.755110
0.909801 0.555836 0.751174
0.959788 0.562360 0.753087
0.112919 0.666392 0.849471
0.202067 0.669943 0.844459
0.338359 0.682494 0.840692
0.473335 0.697601 0.835882
0.584254 0.707413 0.827843
0.710953 0.707202 0.827636
0.849671 0.693409 0.804016
0.947991 0.693713 0.789499
0.995614 0.699020 0.785898
0.067305 0.763630 0.892839
0.154133 0.769077 0.883738
0.286196 0.785529 0.875664
0.432347 0.807014 0.867751
0.563778 0.823489 0.853651
0.691801 0.833976 0.839712
0.842410 0.833805 0.828256
0.943108 0.834146 0.817813
0.989680 0.837037 0.816657
0.052347 0.834930 0.921110
0.136563 0.844157 0.911744
0.264093 0.865773 0.901726
0.402696 0.888304 0.886229
0.527596 0.905531 0.865189
0.659077 0.917301 0.846368
0.826257 0.920302 0.842780
0.930175 0.927660 0.844292
0.978222 0.933798 0.844258
0.059267 0.884117 0.944788
0.153875 0.898581 0.933533
0.278921 0.918623 0.916368
0.402004 0.937256 0.894115
0.513432 0.952384 0.867297
0.647880 0.960807 0.846235
0.820849 0.962897 0.848672
0.933386 0.973261 0.861899
0.983452 0.984877 0.861017
0.103021 0.110072 0.963799
0.149404 0.104163 0.973149
0.281327 0.088729 0.955212
0.442636 0.090463 0.852592
0.567836 0.080060 0.807939
0.677689 0.070533 0.801866
0.769494 0.082416 0.783867
0.816482 0.116726 0.757977
0.822205 0.146981 0.736562
0.177380 0.129049 0.969077
0.225021 0.124965 0.973761
0.330673 0.122712 0.951467
0.456722 0.134204 0.852360
0.565191 0.131499 0.795188
0.661481 0.132708 0.777995
0.744766 0.151788 0.755110
0.790305 0.186075 0.731485
0.802404 0.214069 0.714220
0.115699 0.261357 0.851100
0.161452 0.257854 0.863041
0.290331 0.252945 0.885663
0.456796 0.258881 0.849904
0.565699 0.255785 0.789316
0.649441 0.250981 0.759058
0.728969 0.260196 0.736722
0.783423 0.283049 0.720613
0.809820 0.303070 0.716012
0.106043 0.444093 0.802404
0.159468 0.441713 0.785787
0.255785 0.438852 0.782757
0.422966 0.441019 0.836052
0.578537 0.431793 0.840388
0.665935 0.407327 0.791109
0.742746 0.391805 0.756855
0.809040 0.398699 0.745990
0.848605 0.408432 0.752658
0.149671 0.557504 0.852990
0.235893 0.562757 0.845197
0.333838 0.571970 0.831995
0.418548 0.576505 0.828324
0.557562 0.578811 0.875249
0.698032 0.562246 0.872491
0.787150 0.531582 0.820292
0.862095 0.525000 0.806016
0.906265 0.530053 0.813354
0.146981 0.656941 0.901911
0.241994 0.663507 0.901757
0.366027 0.677331 0.902341
0.477061 0.692149 0.898457
0.569349 0.701975 0.896135
0.696049 0.703169 0.917361
0.828909 0.680542 0.886953
0.911198 0.668944 0.869270
0.955924 0.675045 0.874640
0.112214 0.754450 0.945597
0.212975 0.763209 0.943137
0.346671 0.780753 0.943803
0.486937 0.800968 0.943774
0.606075 0.817498 0.938716
0.713091 0.830488 0.932504
0.838867 0.831276 0.918803
0.929495 0.825981 0.908675
0.974789 0.830420 0.913803
0.105295 0.822865 0.969301
0.206280 0.836630 0.969664
0.338573 0.859315 0.973205
0.482479 0.882441 0.971869
0.608187 0.902218 0.966724
0.726034 0.918323 0.957461
0.850635 0.927008 0.938833
0.935412 0.932504 0.931709
0.979133 0.938658 0.935822
0.129049 0.869270 0.987637
0.235240 0.888680 0.987501
0.365833 0.911259 0.987474
0.495634 0.933298 0.987610
0.613552 0.953556 0.984987
0.733343 0.969720 0.974372
0.856324 0.979133 0.956238
0.949200 0.983699 0.951525
0.994858 0.994453 0.956807
0.177156 0.102637 0.999946
0.234749 0.093846 1.000000
0.325912 0.090032 0.997985
0.444246 0.099126 0.906173
0.556066 0.091319 0.842948
0.661251 0.082881 0.835848
0.749844 0.093429 0.817042
0.795696 0.123683 0.782571
0.797904 0.154650 0.745358
0.236868 0.128429 0.999571
0.275131 0.127180 0.999087
0.350687 0.132407 0.981337
0.453009 0.147253 0.888021
0.551839 0.148601 0.820117
0.644123 0.148601 0.802512
0.724356 0.161205 0.779524
0.770554 0.189640 0.747330
0.781013 0.218913 0.718379
0.156951 0.254743 0.897746
0.204185 0.253696 0.902587
0.313454 0.256230 0.915976
0.457313 0.267643 0.887079
0.561051 0.267220 0.826291
0.640146 0.259758 0.790378
0.714094 0.261936 0.763285
0.767862 0.279190 0.737403
0.794134 0.299389 0.728115
0.112919 0.441251 0.825946
0.165825 0.437685 0.806836
0.256230 0.434948 0.811907
0.416565 0.438929 0.874993
0.575182 0.432979 0.886796
0.663644 0.410716 0.835406
0.732496 0.388573 0.789756
0.795732 0.388753 0.766873
0.835780 0.397823 0.770705
0.167019 0.556930 0.885915
0.245913 0.562814 0.873679
0.321975 0.568901 0.856555
0.403645 0.572025 0.855534
0.549153 0.576560 0.915524
0.694016 0.562474 0.920092
0.778891 0.528089 0.857805
0.849238 0.512921 0.830865
0.893742 0.517114 0.836562
0.169379 0.651844 0.935939
0.265377 0.660835 0.935617
0.375207 0.675269 0.934062
0.471423 0.689140 0.925583
0.557734 0.699106 0.926207
0.687870 0.701419 0.957574
0.822761 0.679206 0.929436
0.900803 0.660419 0.900649
0.945019 0.663874 0.904612
0.143964 0.749059 0.977227
0.249152 0.760098 0.975288
0.377178 0.777883 0.976147
0.505511 0.797181 0.974983
0.613806 0.814445 0.971813
0.712882 0.828600 0.969664
0.835508 0.831105 0.961316
0.925642 0.821997 0.946665
0.969357 0.823593 0.950923
0.138882 0.819699 0.997366
0.243884 0.836324 0.999275
0.375301 0.858757 1.000000
0.511898 0.881237 1.000000
0.632876 0.900833 0.999758
0.748313 0.916699 0.993398
0.861311 0.927483 0.976812
0.937490 0.934678 0.969301
0.980236 0.940639 0.976397
0.157963 0.867751 1.000000
0.267784 0.888617 1.000000
0.397384 0.911077 1.000000
0.525682 0.933827 1.000000
0.647548 0.953728 1.000000
0.768849 0.969301 1.000000
0.882220 0.979740 0.997204
0.960863 0.989572 0.995722
0.999490 0.999812 1.000000
