bundles/resolve-cinematic-luts/Gamut/Adagio/Adagio 01.cube
TITLE "Generated by 3D LUT Creator Pro (c) Oleg Sharonov"
LUT_3D_SIZE 25
#INPUTGAMMA sRGB
#IMAGEPROFILE sRGB
#OUTPUTGAMMA sRGB
0.006309 0.007886 0.010251
0.029177 0.009463 0.007886
0.074158 0.005520 0.005520
0.121078 0.002366 0.005520
0.165345 0.001577 0.003154
0.214069 0.001577 0.003154
0.265377 0.001577 0.002366
0.318783 0.002366 0.002366
0.372937 0.004731 0.002366
0.424911 0.008674 0.002366
0.473900 0.014983 0.002366
0.520826 0.021292 0.003154
0.564457 0.027600 0.003943
0.605868 0.033120 0.004731
0.643885 0.038640 0.006309
0.678225 0.044738 0.007097
0.708047 0.050348 0.008674
0.732010 0.056196 0.011040
0.748274 0.064521 0.014194
0.758479 0.076167 0.021292
0.767368 0.091319 0.032332
0.780418 0.107892 0.044738
0.798193 0.123683 0.054934
0.819176 0.137728 0.066202
0.841602 0.150733 0.075669
0.011829 0.033909 0.008674
0.031543 0.035486 0.007097
0.081950 0.028389 0.003943
0.135977 0.022080 0.003154
0.183728 0.021292 0.002366
0.234093 0.022080 0.002366
0.285805 0.020503 0.002366
0.337075 0.019714 0.002366
0.387307 0.021292 0.002366
0.436123 0.025234 0.002366
0.482893 0.029966 0.002366
0.527966 0.036274 0.003154
0.570856 0.041759 0.003943
0.611005 0.047596 0.005520
0.647691 0.053651 0.006309
0.680230 0.059868 0.007886
0.707371 0.066756 0.009463
0.727993 0.075669 0.011040
0.742229 0.086520 0.015771
0.752814 0.101090 0.024446
0.764242 0.116385 0.035486
0.779822 0.132105 0.046892
0.799672 0.146437 0.057439
0.821858 0.158717 0.066202
0.844023 0.169847 0.073137
0.007097 0.069470 0.019714
0.026023 0.070533 0.014983
0.070003 0.067305 0.003154
0.142009 0.056820 0.002366
0.200315 0.053651 0.003154
0.254593 0.051686 0.003154
0.308373 0.046892 0.003154
0.359252 0.043264 0.002366
0.406218 0.042516 0.002366
0.451139 0.044005 0.003154
0.494632 0.048294 0.003154
0.537219 0.053002 0.003943
0.578318 0.058053 0.004731
0.616541 0.063382 0.005520
0.651609 0.069470 0.007097
0.681208 0.076662 0.007886
0.705338 0.085622 0.009463
0.722960 0.097529 0.012617
0.736040 0.111859 0.018137
0.748038 0.127180 0.027600
0.762672 0.142850 0.038640
0.781793 0.157710 0.049669
0.804302 0.171011 0.059868
0.827429 0.182000 0.066756
0.849105 0.190675 0.071584
0.000789 0.113620 0.029177
0.020503 0.114664 0.024446
0.055568 0.117066 0.018137
0.119088 0.117066 0.003154
0.203033 0.104919 0.007886
0.265520 0.097930 0.007097
0.328026 0.088291 0.006309
0.382007 0.080060 0.005520
0.427648 0.075168 0.004731
0.469287 0.073649 0.004731
0.509136 0.075168 0.004731
0.548274 0.077646 0.004731
0.586574 0.081010 0.005520
0.622114 0.086072 0.007097
0.654282 0.091745 0.007886
0.680986 0.099916 0.009463
0.701975 0.111148 0.011829
0.718255 0.124965 0.015771
0.732010 0.140880 0.022869
0.746818 0.156697 0.033120
0.765769 0.171936 0.044005
0.788729 0.186498 0.054934
0.813847 0.199728 0.063953
0.837343 0.209471 0.070003
0.857345 0.215697 0.072104
0.000789 0.168910 0.040994
0.023657 0.170547 0.040217
0.049669 0.175360 0.029177
0.094262 0.178491 0.025234
0.172856 0.174681 0.011829
0.259320 0.159966 0.011829
0.333947 0.145618 0.012617
0.395800 0.133308 0.011040
0.444781 0.124646 0.010251
0.485776 0.119755 0.009463
0.522949 0.117744 0.009463
0.559453 0.117744 0.009463
0.594473 0.119422 0.009463
0.627080 0.122387 0.010251
0.656476 0.127493 0.011040
0.680897 0.135389 0.013406
0.701077 0.146981 0.015771
0.717923 0.161205 0.022080
0.734472 0.176709 0.030754
0.753710 0.191909 0.040994
0.776537 0.206658 0.052347
0.802296 0.220502 0.062806
0.828359 0.232939 0.071060
0.850502 0.241518 0.076167
0.867427 0.245758 0.077646
0.002366 0.224677 0.053651
0.026023 0.226732 0.053002
0.048294 0.230278 0.041759
0.094262 0.233270 0.037063
0.154392 0.234585 0.028389
0.238161 0.227242 0.022080
0.322767 0.213158 0.022080
0.395447 0.199532 0.020503
0.453084 0.188390 0.020503
0.497960 0.181348 0.019714
0.535711 0.177380 0.019714
0.570299 0.175585 0.018926
0.603071 0.175134 0.018926
0.633656 0.176260 0.018926
0.661758 0.179596 0.019714
0.686509 0.185650 0.021292
0.707920 0.194957 0.025234
0.727626 0.207036 0.031543
0.747881 0.220150 0.040994
0.770364 0.233270 0.051686
0.795442 0.246224 0.062227
0.821127 0.258588 0.072622
0.845431 0.269468 0.081010
0.864701 0.277169 0.086520
0.878568 0.280927 0.088729
0.003943 0.279859 0.068934
0.026023 0.281592 0.067852
0.053002 0.283444 0.065085
0.087851 0.286457 0.051020
0.144517 0.287755 0.044738
0.214975 0.288014 0.037063
0.299513 0.279993 0.032332
0.382468 0.269328 0.029966
0.452636 0.258588 0.029966
0.506809 0.250220 0.031543
0.548861 0.244823 0.032332
0.584362 0.241677 0.032332
0.616692 0.239766 0.032332
0.646742 0.239446 0.032332
0.674955 0.240564 0.033909
0.700778 0.244041 0.035486
0.724848 0.249916 0.039429
0.747566 0.258148 0.045463
0.770440 0.267784 0.054295
0.794062 0.277844 0.064521
0.818197 0.288143 0.074158
0.841636 0.298275 0.083803
0.862585 0.307537 0.092168
0.879396 0.314622 0.099126
0.891840 0.319126 0.104163
0.005520 0.333078 0.086072
0.026812 0.334272 0.084717
0.053002 0.335245 0.082881
0.078619 0.337504 0.067305
0.129973 0.338679 0.060464
0.194352 0.339744 0.053002
0.272109 0.338999 0.044005
0.358755 0.333838 0.038640
0.440710 0.326247 0.036274
0.507910 0.318323 0.037063
0.559224 0.311339 0.040217
0.599421 0.306097 0.043264
0.633559 0.302338 0.046892
0.664608 0.300130 0.049669
0.693366 0.299389 0.051686
0.720282 0.300499 0.054295
0.745872 0.303678 0.058053
0.769835 0.308493 0.063953
0.793188 0.314971 0.071060
0.816131 0.322201 0.080060
0.838224 0.329904 0.088729
0.858724 0.337932 0.097126
0.877549 0.345528 0.106043
0.893804 0.352420 0.113620
0.907455 0.357659 0.120418
0.008674 0.384303 0.103403
0.027600 0.384851 0.102253
0.051686 0.385398 0.099916
0.082881 0.385672 0.098330
0.116385 0.386763 0.076662
0.174907 0.387850 0.067852
0.246379 0.389294 0.057439
0.329794 0.389114 0.046892
0.416565 0.385945 0.040994
0.493963 0.380066 0.039429
0.556297 0.372653 0.043264
0.605041 0.365152 0.049669
0.644696 0.359054 0.057439
0.678671 0.354446 0.065646
0.708891 0.351912 0.071060
0.736602 0.351300 0.076167
0.762250 0.352522 0.080536
0.786450 0.355253 0.086072
0.809465 0.359252 0.092168
0.831173 0.364372 0.099522
0.851697 0.370173 0.107156
0.870882 0.376522 0.115010
0.889056 0.382927 0.122712
0.906112 0.389204 0.130586
0.922126 0.394917 0.137728
0.011829 0.432742 0.120748
0.029966 0.433058 0.119422
0.051020 0.433295 0.117405
0.079102 0.432979 0.114317
0.104919 0.433295 0.093429
0.160215 0.432742 0.082881
0.225878 0.433610 0.071584
0.303435 0.435262 0.058053
0.387397 0.435340 0.046892
0.467784 0.432742 0.041759
0.537340 0.427086 0.043264
0.595002 0.419370 0.051686
0.642785 0.411390 0.065085
0.682892 0.404591 0.078619
0.716678 0.399746 0.089165
0.745832 0.397209 0.097126
0.772178 0.396681 0.103403
0.796240 0.397823 0.108987
0.819001 0.400530 0.115010
0.840557 0.404333 0.121734
0.860428 0.408941 0.128429
0.879205 0.414071 0.135683
0.897498 0.419699 0.142850
0.915494 0.425396 0.150203
0.933269 0.431000 0.157458
0.017349 0.477551 0.135977
0.033909 0.477481 0.134798
0.053002 0.477551 0.133009
0.077646 0.477271 0.129666
0.106043 0.476431 0.118081
0.149404 0.475098 0.097930
0.211508 0.474323 0.085170
0.283576 0.475168 0.071584
0.362610 0.476431 0.056196
0.439782 0.476081 0.047596
0.510230 0.473547 0.044738
0.573025 0.468142 0.051686
0.628412 0.460398 0.067305
0.676301 0.452262 0.086520
0.716303 0.445391 0.103021
0.749334 0.440556 0.114664
0.777622 0.438308 0.123036
0.802727 0.437997 0.129973
0.826084 0.439472 0.136270
0.847672 0.442252 0.142850
0.867751 0.446153 0.149404
0.886607 0.450763 0.156443
0.905010 0.455983 0.163654
0.923171 0.461201 0.170779
0.941599 0.466563 0.177380
0.025234 0.516481 0.149137
0.042516 0.516228 0.147794
0.059868 0.515975 0.145343
0.082416 0.515784 0.142290
0.113969 0.514642 0.139456
0.142009 0.514005 0.112214
0.201291 0.512090 0.099522
0.270027 0.511450 0.085170
0.344799 0.511834 0.070003
0.417723 0.512793 0.057439
0.484612 0.512793 0.052347
0.546805 0.510616 0.054295
0.605868 0.505576 0.067305
0.660558 0.498292 0.087851
0.708047 0.490331 0.109350
0.747448 0.483788 0.126235
0.780046 0.479502 0.138306
0.807690 0.477760 0.146981
0.832542 0.477970 0.154392
0.854973 0.479849 0.160958
0.875473 0.483031 0.167731
0.894489 0.487073 0.174681
0.912925 0.491815 0.181783
0.931178 0.496965 0.189225
0.949688 0.502246 0.195961
0.037852 0.549329 0.160215
0.054295 0.548743 0.157963
0.071584 0.548216 0.155164
0.092590 0.547863 0.152312
0.120087 0.547276 0.149937
0.140028 0.547863 0.123683
0.194957 0.546275 0.112567
0.260632 0.545212 0.098729
0.332642 0.545035 0.084261
0.402782 0.545744 0.070533
0.465555 0.547099 0.063953
0.523510 0.547805 0.062806
0.581214 0.546275 0.069470
0.638700 0.541652 0.086072
0.692541 0.534985 0.108623
0.739123 0.527966 0.130280
0.777771 0.522388 0.147523
0.810068 0.519005 0.159966
0.837614 0.517934 0.168910
0.861867 0.518816 0.176485
0.883359 0.521138 0.183298
0.902894 0.524566 0.190262
0.921469 0.528704 0.197557
0.939766 0.533469 0.204759
0.958143 0.538482 0.211692
0.051020 0.578482 0.170314
0.066756 0.577495 0.167256
0.084717 0.576670 0.164139
0.104919 0.576010 0.160958
0.129973 0.575844 0.159218
0.142850 0.577440 0.133906
0.192727 0.576890 0.124965
0.254593 0.576340 0.112214
0.325129 0.575955 0.097930
0.393942 0.576340 0.085170
0.454127 0.578153 0.077646
0.507263 0.580505 0.076167
0.560253 0.582193 0.079102
0.616137 0.581432 0.088729
0.672342 0.577714 0.106786
0.724561 0.572136 0.128429
0.769797 0.566657 0.149404
0.807441 0.562474 0.166304
0.839171 0.560196 0.178934
0.866260 0.560025 0.188808
0.889432 0.561393 0.196960
0.909953 0.564118 0.204377
0.929022 0.567556 0.211876
0.947502 0.571636 0.219091
0.966050 0.576065 0.226049
0.060464 0.606591 0.181130
0.076662 0.605403 0.177380
0.094676 0.604368 0.174226
0.114664 0.603539 0.171011
0.138306 0.603175 0.168910
0.146981 0.604938 0.143408
0.193338 0.604834 0.136270
0.252644 0.604783 0.124965
0.321975 0.604627 0.110791
0.390821 0.605248 0.098729
0.450087 0.607055 0.091745
0.499680 0.610443 0.092590
0.547040 0.614111 0.094676
0.597847 0.616692 0.099916
0.652267 0.616692 0.110432
0.706609 0.614212 0.127180
0.756351 0.610289 0.147253
0.799167 0.606333 0.166781
0.835372 0.603694 0.183298
0.865903 0.602916 0.196561
0.891528 0.603746 0.207412
0.913742 0.605765 0.216596
0.933974 0.608700 0.225192
0.953185 0.612178 0.233435
0.972314 0.615985 0.241201
0.066756 0.634825 0.193135
0.082881 0.633754 0.189640
0.100700 0.632632 0.186287
0.120087 0.631703 0.182866
0.142571 0.630968 0.180255
0.156951 0.631800 0.162923
0.194554 0.631898 0.148601
0.253696 0.631605 0.137728
0.323557 0.631751 0.124005
0.392430 0.632729 0.113270
0.451364 0.634922 0.107892
0.499152 0.638797 0.109712
0.542069 0.643598 0.113969
0.587112 0.648354 0.117744
0.636960 0.651562 0.122387
0.689490 0.652361 0.131803
0.740678 0.651138 0.146437
0.787003 0.648827 0.164381
0.827154 0.646742 0.182650
0.861050 0.645839 0.198744
0.889370 0.646457 0.212426
0.913712 0.648306 0.224332
0.935353 0.650997 0.235403
0.955696 0.654235 0.246224
0.975510 0.657732 0.256526
0.070533 0.663323 0.206469
0.086520 0.662311 0.203225
0.103403 0.661527 0.199924
0.122061 0.660604 0.196761
0.144241 0.659587 0.193947
0.170314 0.658846 0.190262
0.194352 0.659263 0.162679
0.256081 0.658103 0.152050
0.327804 0.658150 0.139742
0.397384 0.659587 0.130586
0.456279 0.662495 0.127180
0.503228 0.666575 0.129049
0.543436 0.671936 0.134798
0.583712 0.677778 0.138595
0.628067 0.683069 0.140880
0.676436 0.686641 0.143408
0.725993 0.688221 0.150998
0.773383 0.688177 0.164139
0.816236 0.687563 0.180693
0.853056 0.687344 0.197358
0.884117 0.688177 0.212792
0.910439 0.690101 0.226902
0.933768 0.692845 0.240564
0.955212 0.696049 0.254145
0.975843 0.699535 0.267361
0.072622 0.692367 0.220502
0.088291 0.691453 0.217847
0.104542 0.690538 0.214794
0.122387 0.689752 0.211508
0.143686 0.688965 0.208538
0.171706 0.687651 0.206469
0.193744 0.687344 0.178491
0.259613 0.685057 0.168203
0.333838 0.684527 0.157458
0.404075 0.686509 0.150203
0.462804 0.690101 0.148063
0.509652 0.694536 0.150203
0.548743 0.699964 0.155677
0.585928 0.706228 0.160215
0.625546 0.712589 0.161698
0.669035 0.718089 0.161205
0.714887 0.721973 0.162679
0.761098 0.724356 0.169379
0.804767 0.725707 0.181783
0.843620 0.726810 0.196960
0.876911 0.728359 0.212059
0.905255 0.730593 0.226732
0.930323 0.733464 0.241360
0.952813 0.736762 0.256378
0.974122 0.740280 0.271833
0.075168 0.721808 0.234585
0.090463 0.720901 0.232443
0.106415 0.719952 0.229775
0.123360 0.719373 0.226732
0.143964 0.718711 0.223641
0.173085 0.717093 0.221204
0.198941 0.715679 0.196362
0.266088 0.712463 0.184157
0.342177 0.711415 0.176260
0.412230 0.713802 0.170779
0.470356 0.717882 0.169145
0.516924 0.722714 0.171474
0.555951 0.728196 0.175811
0.591766 0.734633 0.181348
0.628314 0.741633 0.184157
0.667442 0.748234 0.183513
0.709144 0.753710 0.182000
0.752424 0.757977 0.182434
0.795043 0.761214 0.188599
0.834453 0.763783 0.199924
0.869270 0.766417 0.213705
0.899477 0.769228 0.227921
0.925850 0.772479 0.242310
0.949459 0.775937 0.257265
0.971562 0.779599 0.272937
0.080536 0.751331 0.250373
0.096315 0.750196 0.248539
0.112919 0.749216 0.246069
0.130586 0.748588 0.242783
0.151788 0.747881 0.238965
0.183082 0.745872 0.235240
0.211323 0.743855 0.209843
0.279726 0.739881 0.198941
0.354648 0.738564 0.193744
0.422396 0.741395 0.190469
0.479154 0.746424 0.189225
0.525186 0.751683 0.190469
0.564231 0.757319 0.194352
0.599735 0.763744 0.201096
0.634874 0.770932 0.206658
0.671212 0.777883 0.208912
0.709312 0.784311 0.207412
0.749059 0.789939 0.204377
0.789023 0.794571 0.204377
0.827395 0.798590 0.210400
0.862552 0.802081 0.221204
0.893866 0.805588 0.234257
0.921529 0.809288 0.248231
0.946146 0.813177 0.262945
0.968993 0.817253 0.278114
0.093011 0.780083 0.269048
0.110791 0.778555 0.267079
0.129357 0.777285 0.264236
0.149937 0.776237 0.259758
0.174454 0.775000 0.254294
0.208538 0.772592 0.249610
0.234585 0.770743 0.218381
0.302460 0.767102 0.212792
0.371987 0.766493 0.210585
0.435497 0.770137 0.209285
0.489722 0.775937 0.207600
0.534864 0.781941 0.208164
0.573856 0.787848 0.212426
0.609880 0.794207 0.219797
0.644648 0.801111 0.229103
0.679474 0.807903 0.235893
0.714887 0.814375 0.238483
0.751096 0.820605 0.236543
0.787738 0.826429 0.233599
0.823663 0.831413 0.234257
0.857772 0.835814 0.240086
0.889276 0.839780 0.250373
0.917782 0.843889 0.263233
0.943427 0.848072 0.277439
0.967200 0.852460 0.292246
0.115010 0.807796 0.290075
0.136270 0.805838 0.286847
0.159218 0.804016 0.282652
0.184585 0.802225 0.277034
0.213523 0.800284 0.270723
0.238644 0.798843 0.255190
0.272524 0.797109 0.230947
0.331112 0.794752 0.227921
0.392608 0.795660 0.228090
0.451214 0.800428 0.227921
0.502966 0.807121 0.226391
0.546981 0.813776 0.226561
0.585820 0.820117 0.231113
0.622463 0.826360 0.239926
0.657360 0.832644 0.252493
0.691453 0.838968 0.264379
0.724889 0.845130 0.272937
0.758093 0.851366 0.276763
0.791328 0.857410 0.276220
0.824078 0.863139 0.274311
0.856094 0.868301 0.274721
0.886638 0.872780 0.279592
0.915343 0.876847 0.289175
0.941773 0.880984 0.301726
0.966808 0.885253 0.315203
0.147794 0.835406 0.311457
0.172627 0.833089 0.306698
0.199532 0.830694 0.301359
0.228428 0.828290 0.295153
0.257559 0.826360 0.287366
0.267925 0.826774 0.252945
0.311693 0.824909 0.247770
0.360639 0.824148 0.246844
0.414405 0.826602 0.248539
0.469073 0.832508 0.249458
0.519194 0.840219 0.248539
0.562417 0.847672 0.248845
0.600989 0.854246 0.254294
0.637541 0.860232 0.264808
0.672613 0.865968 0.279190
0.706059 0.871623 0.294901
0.738164 0.877198 0.308612
0.769228 0.882790 0.318553
0.799492 0.888461 0.323557
0.829218 0.894240 0.324007
0.858593 0.899662 0.321748
0.887393 0.904428 0.320839
0.915282 0.908583 0.324344
0.942034 0.912290 0.332751
0.967901 0.916066 0.344172
0.187972 0.863823 0.332860
0.214794 0.861344 0.327138
0.243256 0.858593 0.321294
0.273625 0.856028 0.315900
0.280394 0.856423 0.284234
0.311221 0.855468 0.272386
0.347499 0.854907 0.268908
0.388663 0.855632 0.269887
0.436905 0.859249 0.273625
0.488773 0.866228 0.276491
0.538121 0.874929 0.277709
0.581105 0.883169 0.279458
0.619361 0.889996 0.285675
0.655497 0.895855 0.297155
0.690145 0.901018 0.311928
0.722837 0.905898 0.329132
0.753905 0.910469 0.345007
0.783497 0.915011 0.358357
0.811625 0.919793 0.368155
0.838732 0.924780 0.373032
0.865286 0.929820 0.372558
0.891716 0.934561 0.368348
0.918052 0.938745 0.364957
0.944180 0.942150 0.365930
0.970167 0.945135 0.371511
0.231447 0.893804 0.355353
0.258442 0.890997 0.349046
0.286847 0.888178 0.343438
0.307297 0.886418 0.328580
0.318783 0.886764 0.299636
0.350278 0.886103 0.294524
0.381084 0.886670 0.293007
0.416317 0.888617 0.295906
0.459885 0.892994 0.302338
0.509652 0.900957 0.308969
0.558766 0.910834 0.313688
0.601927 0.919853 0.317748
0.640002 0.927097 0.324681
0.675404 0.932739 0.336323
0.709228 0.937314 0.350994
0.741355 0.941163 0.366996
0.771612 0.944643 0.383019
0.799852 0.947876 0.396769
0.826119 0.951410 0.409195
0.850967 0.955212 0.418712
0.874865 0.959277 0.422478
0.898550 0.963687 0.417723
0.922544 0.967705 0.407838
0.947386 0.970949 0.399746
0.972955 0.973261 0.396681
0.007097 0.010251 0.023657
0.025234 0.011829 0.026812
0.067305 0.007097 0.019714
0.114664 0.003154 0.019714
0.160215 0.001577 0.018926
0.210400 0.001577 0.018926
0.265093 0.001577 0.018137
0.320725 0.002366 0.017349
0.375865 0.004731 0.016560
0.428609 0.009463 0.017349
0.477760 0.014983 0.017349
0.524194 0.021292 0.019714
0.567780 0.027600 0.021292
0.608598 0.033120 0.022869
0.646172 0.038640 0.024446
0.679963 0.044738 0.026023
0.708975 0.051020 0.027600
0.732172 0.057439 0.029966
0.748313 0.066756 0.034697
0.759058 0.080060 0.044005
0.769494 0.095908 0.055568
0.783497 0.112214 0.067852
0.802225 0.127180 0.079102
0.824529 0.140880 0.089165
0.848939 0.153615 0.098330
0.008674 0.036274 0.029966
0.033120 0.036274 0.027600
0.077646 0.029966 0.022080
0.129973 0.022869 0.019714
0.178934 0.021292 0.019714
0.231945 0.022080 0.020503
0.286196 0.021292 0.019714
0.339106 0.020503 0.018137
0.390642 0.022080 0.017349
0.440015 0.025234 0.017349
0.486937 0.029966 0.018137
0.531521 0.036274 0.019714
0.573856 0.041759 0.021292
0.613502 0.047596 0.023657
0.649724 0.053651 0.024446
0.681563 0.060464 0.026023
0.707963 0.067852 0.027600
0.728481 0.077646 0.030754
0.743023 0.090032 0.037063
0.754760 0.104919 0.046892
0.767520 0.120748 0.058662
0.784163 0.135977 0.070533
0.805124 0.149671 0.080536
0.827636 0.161205 0.088291
0.850535 0.171243 0.093846
0.004731 0.071584 0.030754
0.024446 0.071584 0.034697
0.070533 0.068394 0.023657
0.140312 0.058662 0.026023
0.197159 0.054934 0.023657
0.252040 0.054295 0.024446
0.308015 0.049669 0.022080
0.360738 0.045463 0.020503
0.409449 0.044005 0.018926
0.454722 0.045463 0.018137
0.498027 0.048985 0.018926
0.540279 0.053651 0.020503
0.580723 0.058053 0.022080
0.618657 0.064521 0.023657
0.652689 0.070533 0.024446
0.682095 0.078134 0.026812
0.705720 0.087851 0.028389
0.723987 0.100309 0.033120
0.738204 0.115010 0.040217
0.751565 0.130891 0.050348
0.767558 0.146437 0.062227
0.787664 0.160958 0.073649
0.811059 0.173771 0.082881
0.833635 0.183942 0.088291
0.853718 0.190882 0.090032
0.000789 0.118081 0.039429
0.017349 0.118081 0.044738
0.050348 0.118418 0.034697
0.115355 0.118081 0.022080
0.203418 0.106786 0.030754
0.264379 0.101090 0.028389
0.325912 0.092590 0.027600
0.381454 0.084261 0.025234
0.428689 0.079102 0.022869
0.470855 0.077155 0.022080
0.510873 0.077646 0.022080
0.549856 0.080060 0.022869
0.587757 0.083343 0.023657
0.622962 0.087851 0.024446
0.654703 0.093846 0.026023
0.681430 0.102253 0.027600
0.702658 0.113969 0.031543
0.720117 0.128739 0.036274
0.735919 0.144517 0.044738
0.752658 0.160215 0.055568
0.772630 0.175360 0.067305
0.796602 0.189433 0.077646
0.821893 0.202067 0.086072
0.843654 0.210585 0.089600
0.860068 0.214613 0.089600
0.000789 0.173314 0.054934
0.016560 0.175134 0.057439
0.045463 0.178270 0.054934
0.090463 0.179816 0.040994
0.171706 0.176933 0.030754
0.258001 0.163654 0.033120
0.330564 0.150733 0.033909
0.393053 0.138882 0.032332
0.443097 0.130280 0.030754
0.484817 0.125284 0.029966
0.522638 0.123036 0.029177
0.558766 0.122712 0.029177
0.593785 0.124005 0.029177
0.626783 0.126551 0.029966
0.656243 0.131499 0.030754
0.681563 0.139456 0.033120
0.702828 0.151261 0.037063
0.721767 0.165105 0.042516
0.740798 0.180255 0.051686
0.761559 0.195158 0.062806
0.785382 0.209471 0.074158
0.811695 0.223121 0.083803
0.836935 0.235077 0.091745
0.856292 0.242152 0.095088
0.868527 0.244041 0.093429
0.001577 0.229607 0.068934
0.021292 0.231113 0.070003
0.049669 0.233270 0.068934
0.087409 0.235893 0.054934
0.150203 0.236381 0.045463
0.234421 0.231613 0.039429
0.318438 0.217490 0.042516
0.391626 0.204759 0.042516
0.450012 0.194352 0.042516
0.495300 0.187762 0.042516
0.533712 0.184371 0.042516
0.568621 0.182434 0.041759
0.601615 0.182217 0.041759
0.632876 0.182866 0.041759
0.661435 0.185863 0.041759
0.687519 0.191499 0.044005
0.710869 0.200511 0.047596
0.732980 0.211692 0.054295
0.755459 0.224160 0.063382
0.779226 0.236706 0.073649
0.804624 0.249152 0.083343
0.830282 0.261357 0.093011
0.853221 0.271694 0.100309
0.869302 0.277709 0.104542
0.878377 0.278652 0.103784
0.003154 0.284365 0.083803
0.022869 0.285544 0.084261
0.049669 0.287107 0.083803
0.078134 0.289304 0.071060
0.137437 0.289946 0.063953
0.209471 0.290459 0.055568
0.295278 0.282785 0.053002
0.378765 0.272937 0.052347
0.449409 0.263233 0.053651
0.504143 0.256230 0.055568
0.546746 0.251738 0.058053
0.582573 0.249152 0.059267
0.615125 0.247616 0.059267
0.645744 0.246844 0.059868
0.674640 0.247770 0.059868
0.701718 0.250829 0.061056
0.727381 0.256230 0.065085
0.751761 0.263663 0.070533
0.776087 0.272386 0.078619
0.800464 0.281990 0.087409
0.824805 0.291737 0.096315
0.847938 0.301481 0.104919
0.867783 0.309920 0.112567
0.881935 0.315203 0.117066
0.890434 0.316826 0.118753
0.004731 0.337182 0.100309
0.022869 0.338039 0.100700
0.046892 0.338893 0.099916
0.080536 0.339744 0.098729
0.120418 0.341439 0.080060
0.187552 0.341544 0.072104
0.267079 0.341122 0.063382
0.355454 0.335785 0.059267
0.438074 0.329132 0.059267
0.505511 0.322314 0.062806
0.556987 0.316710 0.068394
0.597217 0.312634 0.073649
0.631507 0.309564 0.077646
0.662725 0.307537 0.080060
0.691932 0.306698 0.081481
0.719580 0.307537 0.083343
0.745793 0.310275 0.086965
0.770856 0.314622 0.091319
0.795043 0.320269 0.097529
0.818372 0.326916 0.105295
0.840692 0.334164 0.112919
0.861311 0.341544 0.120748
0.879682 0.348429 0.127806
0.894240 0.353232 0.132708
0.904980 0.355957 0.135683
0.006309 0.387941 0.117066
0.023657 0.388121 0.117405
0.045463 0.388663 0.116726
0.075168 0.388753 0.114664
0.106415 0.389744 0.098729
0.166543 0.390014 0.086965
0.240724 0.390552 0.076167
0.326136 0.390193 0.066202
0.413821 0.387397 0.062227
0.491747 0.382468 0.063382
0.554044 0.376241 0.071060
0.602500 0.370269 0.081010
0.641875 0.364957 0.090892
0.675763 0.361035 0.097930
0.706016 0.358556 0.103021
0.733787 0.357759 0.106786
0.759559 0.358656 0.110791
0.784200 0.361035 0.115010
0.807548 0.364762 0.120087
0.829871 0.369310 0.126235
0.850901 0.374735 0.133009
0.870464 0.380529 0.139742
0.888712 0.386218 0.146165
0.905041 0.390731 0.150998
0.919763 0.393764 0.153615
0.009463 0.435967 0.133608
0.026812 0.435967 0.133906
0.046181 0.436045 0.133308
0.071584 0.435967 0.130891
0.106786 0.435262 0.124965
0.149937 0.435262 0.102253
0.218736 0.435105 0.089600
0.298771 0.436123 0.076167
0.384577 0.436280 0.066756
0.465843 0.434083 0.064521
0.535590 0.429328 0.070003
0.592830 0.422884 0.081950
0.640050 0.415736 0.097529
0.679474 0.409534 0.110791
0.713007 0.405105 0.121078
0.742190 0.402610 0.127806
0.768318 0.402091 0.133009
0.792496 0.403128 0.137728
0.815534 0.405534 0.142850
0.837478 0.409026 0.148869
0.857936 0.413236 0.154907
0.877262 0.418136 0.161205
0.895949 0.423047 0.167019
0.914105 0.427327 0.171011
0.931974 0.430523 0.173314
0.013406 0.480266 0.148333
0.029966 0.479919 0.148601
0.048985 0.479919 0.148063
0.071584 0.479780 0.145618
0.105295 0.478597 0.142571
0.136855 0.477970 0.116726
0.202647 0.476151 0.103403
0.277709 0.476221 0.089165
0.358954 0.477061 0.074664
