bundles/resolve-cinematic-luts/Gamut/_Conversion/Sony/Sony FX3 BaseLUTs/Monitor LUTs/BaseLUT - Sony FX3 - S-Log3 to Rec709 (Bold).cube
TITLE "BaseLUT - Sony FX3 - S-Log3 to Rec709 (Bold) ML"
# Monitoring LUT. Developed for converting S-Log3 / S-Gamut3.Cine to Rec.709. Version 1.0 - 05/01/2025 - Copyright 2025 Gamut, LLC.
LUT_3D_SIZE 17
0.0000000000 0.0000000000 0.0000000000
0.0000000000 0.0000000000 0.0000000000
0.0000000000 0.0000000000 0.0000000000
0.0000000000 0.0000000000 0.0000000000
0.0330112665 0.0000000000 0.0000000000
0.1875304570 0.0013314880 0.0013314880
0.3472724845 0.0036493794 0.0036493794
0.4846893690 0.0059679587 0.0059679587
0.6185348781 0.0094699718 0.0082860377
0.7381274887 0.0137610450 0.0121690652
0.8273062195 0.0206175172 0.0204197362
0.9024753705 0.0374870237 0.0485680848
0.9733498951 0.0752686444 0.1099449920
1.0000000000 0.1416830995 0.2010655061
1.0000000000 0.2326011036 0.3143882553
1.0000000000 0.3428834611 0.4474340382
1.0000000000 0.4719422188 0.5882056040
0.0000000000 0.0000000000 0.0000000000
0.0000000000 0.0000000000 0.0000000000
0.0000000000 0.0000000000 0.0000000000
0.0000000000 0.0000000000 0.0000000000
0.0723542564 0.0000000000 0.0000000000
0.2228777551 0.0021204230 0.0021204230
0.3669062583 0.0039451127 0.0038958238
0.4966129435 0.0067571439 0.0059679587
0.6246019828 0.0098642829 0.0082860377
0.7412852419 0.0141060672 0.0121690652
0.8283696384 0.0213574135 0.0201240028
0.9031741811 0.0382419786 0.0469959457
0.9735673081 0.0762285935 0.1085989284
1.0000000000 0.1422876232 0.2003781036
1.0000000000 0.2330977159 0.3140656117
1.0000000000 0.3433057426 0.4472121942
1.0000000000 0.4721542584 0.5881517320
0.0000000000 0.0000000000 0.0000000000
0.0000000000 0.0000000000 0.0000000000
0.0000000000 0.0000000000 0.0000000000
0.0104566878 0.0005864811 0.0000000000
0.1153376901 0.0005864811 0.0001284456
0.2503259133 0.0022682897 0.0021204230
0.3810961340 0.0044386271 0.0044386271
0.5062469951 0.0067571439 0.0059679587
0.6319782831 0.0105552031 0.0082860377
0.7444403463 0.0148956902 0.0121690652
0.8295873572 0.0221957625 0.0197296917
0.9038140362 0.0390120824 0.0456812206
0.9739206980 0.0768628916 0.1074438003
1.0000000000 0.1431217684 0.1999559272
1.0000000000 0.2337171860 0.3139070750
1.0000000000 0.3438071466 0.4470664500
1.0000000000 0.4725083244 0.5880988575
0.0000000000 0.0012823243 0.0000000000
0.0000000000 0.0039455505 0.0000000000
0.0000000000 0.0143040984 0.0000000000
0.0197296917 0.0348053406 0.0000000000
0.1181293046 0.0450097043 0.0084830681
0.2621374768 0.0170657148 0.0030578501
0.3939968519 0.0069545496 0.0044386271
0.5164398173 0.0081875225 0.0063129809
0.6386233476 0.0112949486 0.0082860377
0.7484783047 0.0163258811 0.0117329529
0.8317347936 0.0240701163 0.0193350053
0.9046036005 0.0399933272 0.0435651787
0.9742428145 0.0782293712 0.1059858499
1.0000000000 0.1443941339 0.1992199123
1.0000000000 0.2344786783 0.3134745260
1.0000000000 0.3443255100 0.4467786238
1.0000000000 0.4728480753 0.5879582540
0.0000000000 0.0488494896 0.0000000000
0.0000000000 0.0675831609 0.0000000000
0.0000000000 0.0901983340 0.0000000000
0.0000000000 0.1169101057 0.0000000000
0.0917717106 0.1237407438 0.0000000000
0.2404837095 0.1144909676 0.0098645957
0.3906440474 0.0769245080 0.0160798120
0.5248624002 0.0273861446 0.0068559093
0.6478583058 0.0165725758 0.0082860377
0.7537205869 0.0200254876 0.0113937069
0.8347965301 0.0283559593 0.0182496490
0.9061678650 0.0438412056 0.0409630132
0.9748600272 0.0806921467 0.1028036345
1.0000000000 0.1462447449 0.1978736662
1.0000000000 0.2357838872 0.3126281420
1.0000000000 0.3453357574 0.4464019731
1.0000000000 0.4735845253 0.5878043071
0.0000000000 0.1600286626 0.0000000000
0.0000000000 0.1761575127 0.0000000000
0.0000000000 0.1927584815 0.0000000000
0.0000000000 0.2122904690 0.0000000000
0.0130212112 0.2335595861 0.0000000000
0.1881133039 0.2285041819 0.0000000000
0.3640562362 0.2028662339 0.0056722879
0.5142034672 0.1670791613 0.0346046589
0.6508851922 0.0857720861 0.0193841691
0.7595936519 0.0396742358 0.0121170728
0.8387422376 0.0401289333 0.0166714037
0.9088350359 0.0542796921 0.0375159669
0.9759857461 0.0868649068 0.0963443472
1.0000000000 0.1506960845 0.1938298992
1.0000000000 0.2383984507 0.3109243544
1.0000000000 0.3471036275 0.4456320986
1.0000000000 0.4747011712 0.5875267787
0.0000000000 0.2872897888 0.0000000000
0.0000000000 0.2979034506 0.0000000000
0.0000000000 0.3080709531 0.0000000000
0.0000000000 0.3199616725 0.0000000000
0.0000000000 0.3382501550 0.0000000000
0.0654250154 0.3520404996 0.0000000000
0.2994719663 0.3398559340 0.0000000000
0.4828591773 0.3050729868 0.0022189382
0.6361573186 0.2670691773 0.0407973299
0.7555397533 0.1837982964 0.0413963576
0.8406687760 0.1023296135 0.0279134164
0.9115594967 0.0888965836 0.0395534091
0.9779789903 0.1042800646 0.0879598198
1.0000000000 0.1600026972 0.1868783302
1.0000000000 0.2444480522 0.3078700413
1.0000000000 0.3505064038 0.4444243087
1.0000000000 0.4768382575 0.5870010897
0.0000000000 0.4092491371 0.0000000000
0.0000000000 0.4148665442 0.0000000000
0.0000000000 0.4198749980 0.0000000000
0.0000000000 0.4271461961 0.0000000000
0.0000000000 0.4381647445 0.0000000000
0.0000000000 0.4565311150 0.0000000000
0.1459884807 0.4656220399 0.0000000000
0.4096102645 0.4503469305 0.0000000000
0.6017528674 0.4097176952 0.0005864605
0.7414710329 0.3651505975 0.0326124821
0.8319445077 0.2978592621 0.0639294573
0.9095208010 0.2010845473 0.0621410920
0.9790573612 0.1633379276 0.0912470498
1.0000000000 0.1825976687 0.1770329681
1.0000000000 0.2572997329 0.3021431941
1.0000000000 0.3585550954 0.4417927196
1.0000000000 0.4804498691 0.5859511459
0.0000000000 0.5290357062 0.0000000000
0.0000000000 0.5321541133 0.0000000000
0.0000000000 0.5355435006 0.0000000000
0.0000000000 0.5397957655 0.0000000000
0.0000000000 0.5464226555 0.0000000000
0.0000000000 0.5580721014 0.0000000000
0.0033536460 0.5761445357 0.0000000000
0.2401638894 0.5821896926 0.0000000000
0.5232345101 0.5651576050 0.0000000000
0.7109745972 0.5218546814 0.0000000000
0.8197090416 0.4683213278 0.0193348802
0.8997907638 0.4039383940 0.0773918262
0.9753558989 0.3043856451 0.1195607604
1.0000000000 0.2489229106 0.1768282417
1.0000000000 0.2855368318 0.2928647052
1.0000000000 0.3745915800 0.4362098456
1.0000000000 0.4890324083 0.5829904900
0.0024169069 0.6465864712 0.0000000000
0.0024169069 0.6484130331 0.0000000000
0.0027619292 0.6501575996 0.0000000000
0.0034031226 0.6523520514 0.0000000000
0.0038960115 0.6558446086 0.0000000000
0.0053761168 0.6621887641 0.0000000000
0.0096179010 0.6723456270 0.0000000000
0.0408724005 0.6871251210 0.0000000000
0.3432748003 0.6906252929 0.0018739160
0.6377521266 0.6760299724 0.0183485395
0.7937489051 0.6377028339 0.0138599355
0.8862344805 0.5810260582 0.0238729608
0.9655831270 0.5090446586 0.1048028589
1.0000000000 0.4094868997 0.2059937947
1.0000000000 0.3624829701 0.2916414842
1.0000000000 0.4107527283 0.4291105752
1.0000000000 0.5073598635 0.5796546509
0.0749170448 0.7401350626 0.0025645234
0.0760830096 0.7408021151 0.0028602567
0.0770144334 0.7414429453 0.0028602567
0.0783724996 0.7423028122 0.0028602567
0.0808074076 0.7439637636 0.0031563654
0.0850910537 0.7465970519 0.0039456131
0.0925170289 0.7511115089 0.0055238583
0.1059814054 0.7582552794 0.0084342171
0.1588960721 0.7686621455 0.0163756704
0.4688812723 0.7722301124 0.0449116330
0.7370603572 0.7632194208 0.0714963288
0.8603966151 0.7327943982 0.0612761962
0.9503090816 0.6848848846 0.0713978414
0.9986429111 0.6177749249 0.1647173311
1.0000000000 0.5323334476 0.3132353754
1.0000000000 0.4949354475 0.4271365417
1.0000000000 0.5468494146 0.5746596287
0.2228641363 0.8079588396 0.0505934455
0.2235974252 0.8083467795 0.0505934455
0.2243750064 0.8086559330 0.0512572279
0.2254140301 0.8090590295 0.0514323283
0.2277487101 0.8097253421 0.0523981196
0.2311562733 0.8109613294 0.0538598203
0.2376462322 0.8132431617 0.0559348343
0.2480183773 0.8170286469 0.0607393248
0.2664675798 0.8233022756 0.0680137734
0.3256622849 0.8328740548 0.0827587661
0.6093130301 0.8387976364 0.1233232266
0.8128054644 0.8344462722 0.1527785394
0.9246287159 0.8077386678 0.1412111856
0.9934842869 0.7705262460 0.1580729856
1.0000000000 0.7159698228 0.2569827271
1.0000000000 0.6504699542 0.4305875527
1.0000000000 0.6247954529 0.5695186000
0.4181914825 0.8706884225 0.1328371181
0.4186222933 0.8708807144 0.1331383356
0.4192731278 0.8710679905 0.1334385541
0.4202103471 0.8713043584 0.1339792971
0.4217394411 0.8717459964 0.1345562560
0.4242838190 0.8725559169 0.1357222252
0.4286055925 0.8738923672 0.1374758933
0.4359438013 0.8761225525 0.1409807926
0.4489311918 0.8800205026 0.1468864374
0.4701534980 0.8866093180 0.1564658091
0.5257367243 0.8969925058 0.1754001745
0.7223002364 0.9048573201 0.2146367762
0.8802640548 0.9039822565 0.2449989385
0.9782848445 0.8829339963 0.2387402699
1.0000000000 0.8569315516 0.2697079002
1.0000000000 0.8022742217 0.3831438104
1.0000000000 0.7443815802 0.5641447876
0.6057259738 0.9344577260 0.2377271857
0.6060218207 0.9345553224 0.2379166736
0.6062896889 0.9346214280 0.2381051602
0.6066911775 0.9347587628 0.2383975272
0.6073424674 0.9349735749 0.2387369532
0.6084276159 0.9354003874 0.2395306370
0.6102008754 0.9360628808 0.2408114322
0.6132636932 0.9373580015 0.2430464877
0.6182736176 0.9393807215 0.2473682250
0.6272856575 0.9427384880 0.2543545570
0.6412607076 0.9480958877 0.2659710518
0.6755623206 0.9558353631 0.2867399736
0.8068486761 0.9633165982 0.3228264972
0.9463641098 0.9668432204 0.3573462061
0.9990584177 0.9583018153 0.3625030053
1.0000000000 0.9386593078 0.4045842197
1.0000000000 0.8878134979 0.5274981221
0.7288401732 0.9785240739 0.3649912102
0.7289642407 0.9785721343 0.3650240287
0.7290838217 0.9785790000 0.3652091654
0.7293044762 0.9786515275 0.3655952217
0.7295552909 0.9787412818 0.3660717169
0.7300436472 0.9788410851 0.3665408216
0.7308856989 0.9790792025 0.3675970276
0.7323970050 0.9795163023 0.3696656605
0.7347755520 0.9801364060 0.3725720432
0.7386797534 0.9810563275 0.3781749952
0.7457942997 0.9826107377 0.3877394458
0.7574151294 0.9848247934 0.4031667245
0.7860910029 0.9874848894 0.4298916369
0.8989201670 0.9937047218 0.4691971627
0.9910390543 0.9988394799 0.4979328096
1.0000000000 0.9977788511 0.5082265527
1.0000000000 0.9908649861 0.5468757446
0.8421383951 0.9903914109 0.5226006018
0.8422306483 0.9903973246 0.5228191539
0.8422748399 0.9903973246 0.5227909295
0.8423459336 0.9903973246 0.5230061721
0.8424976084 0.9903973246 0.5231181957
0.8427101597 0.9903973246 0.5234212736
0.8431869703 0.9904557407 0.5241604532
0.8440129195 0.9904596351 0.5252338759
0.8456936888 0.9905219457 0.5277818798
0.8482637736 0.9906200723 0.5313135935
0.8524955054 0.9907522822 0.5368432414
0.8595907456 0.9910210519 0.5464459186
0.8715220483 0.9915681371 0.5621983067
0.8984907328 0.9930874920 0.5874710985
0.9760494188 0.9988770745 0.6212043992
1.0000000000 1.0000000000 0.6334849877
1.0000000000 1.0000000000 0.6460333846
0.9473202571 0.9959507701 0.6675827513
0.9474052040 0.9959507701 0.6677644584
0.9474052040 0.9959507701 0.6678103843
0.9474338489 0.9959507701 0.6676736048
0.9475187959 0.9959507701 0.6679012379
0.9475957791 0.9959507701 0.6680797626
0.9477720317 0.9959507701 0.6682982229
0.9481204007 0.9959814109 0.6689135435
0.9485579146 0.9960052427 0.6697602410
0.9495169634 0.9960716312 0.6713807537
0.9511300298 0.9962699920 0.6737611663
0.9536083083 0.9964672458 0.6776198209
0.9577457689 0.9967106370 0.6852088369
0.9642778759 0.9972615449 0.6967869503
0.9777409368 0.9984409442 0.7153382279
0.9999394003 1.0000000000 0.7305498919
1.0000000000 1.0000000000 0.7323259380
0.0000000000 0.0000000000 0.0000000000
0.0000000000 0.0000000000 0.0000000000
0.0000000000 0.0000000000 0.0000000000
0.0003896474 0.0000000000 0.0000000000
0.0747145207 0.0000000000 0.0000000000
0.2209836857 0.0021204230 0.0021204230
0.3638413069 0.0039451127 0.0038958238
0.4937757282 0.0059679587 0.0062636921
0.6225434088 0.0090751603 0.0094699718
0.7404118476 0.0129719849 0.0148463388
0.8283638884 0.0201240028 0.0269939551
0.9032289971 0.0372572742 0.0574444200
0.9736438655 0.0749131891 0.1191211375
1.0000000000 0.1413555605 0.2067362789
1.0000000000 0.2322561343 0.3180036790
1.0000000000 0.3425852540 0.4496504922
1.0000000000 0.4718055683 0.5895204188
0.0000000000 0.0000000000 0.0000000000
0.0000000000 0.0000000000 0.0000000000
0.0000000000 0.0000000000 0.0000000000
0.0297621321 0.0000000000 0.0000000000
0.1353916919 0.0006027088 0.0006027088
0.2593713330 0.0023175786 0.0023175786
0.3838096318 0.0044386271 0.0044386271
0.5051168539 0.0067571439 0.0062636921
0.6297324744 0.0090751603 0.0090751603
0.7433879721 0.0133174450 0.0140567783
0.8293817503 0.0206175172 0.0258700036
0.9038985808 0.0381921399 0.0560482372
0.9739155692 0.0757658427 0.1180417728
1.0000000000 0.1422233668 0.2063161388
1.0000000000 0.2327669948 0.3176708961
1.0000000000 0.3429956198 0.4494970511
1.0000000000 0.4720798070 0.5894136723
0.0000000000 0.0000000000 0.0000000000
0.0000000000 0.0000000000 0.0000000000
0.0027619292 0.0069048229 0.0000000000
0.0693903517 0.0059184196 0.0006027294
0.1748538914 0.0014795424 0.0013808395
0.2886310297 0.0029097333 0.0029097333
0.4015755534 0.0046853843 0.0044386271
0.5171632981 0.0070039011 0.0067571439
0.6364817873 0.0098642829 0.0090751603
0.7463849713 0.0137610450 0.0137117561
0.8308788773 0.0213080621 0.0246129425
0.9045565616 0.0389145942 0.0547659652
0.9742398122 0.0766889600 0.1167099517
1.0000000000 0.1428260135 0.2055041322
1.0000000000 0.2335238450 0.3174267384
1.0000000000 0.3434971499 0.4493423065
1.0000000000 0.4724240587 0.5893631673
0.0000000000 0.0129222582 0.0000000000
0.0000000000 0.0311199711 0.0000000000
0.0000000000 0.0581788944 0.0000000000
0.0478254223 0.0660005798 0.0000000000
0.1616404946 0.0579951308 0.0109002253
0.2961871926 0.0207159074 0.0039451752
0.4135181727 0.0077433595 0.0044386271
0.5278843138 0.0082861002 0.0067571439
0.6449534524 0.0112949486 0.0090751603
0.7506007114 0.0152407124 0.0133174450
0.8326253990 0.0220971847 0.0228370184
0.9053036655 0.0397715386 0.0522657419
0.9745542980 0.0777760950 0.1149656603
1.0000000000 0.1438973508 0.2047581216
1.0000000000 0.2342002245 0.3169188328
1.0000000000 0.3441032101 0.4491275387
1.0000000000 0.4726981724 0.5892631548
0.0000000000 0.0858289659 0.0000000000
0.0000000000 0.1067908698 0.0000000000
0.0000000000 0.1286652691 0.0000000000
0.0000000000 0.1504825429 0.0000000000
0.1173715004 0.1456413474 0.0000000000
0.2688386140 0.1261402681 0.0121691315
0.4081926300 0.0831686239 0.0175100029
0.5356897312 0.0282587380 0.0072011192
0.6537158933 0.0165725758 0.0090751603
0.7565565819 0.0192856539 0.0125278220
0.8356711495 0.0265129978 0.0213574135
0.9067702771 0.0424325698 0.0481051717
0.9751890238 0.0804635007 0.1113933023
1.0000000000 0.1459453611 0.2029587810
1.0000000000 0.2354451321 0.3160266966
1.0000000000 0.3450216628 0.4487107276
1.0000000000 0.4733771116 0.5891033469
0.0000000000 0.1889479390 0.0000000000
0.0000000000 0.2048642641 0.0000000000
0.0000000000 0.2194029008 0.0000000000
0.0000000000 0.2375443080 0.0000000000
0.0215159761 0.2546488951 0.0000000000
0.2079398416 0.2432050290 0.0000000000
0.3794682966 0.2110671937 0.0064609102
0.5243455859 0.1723326551 0.0360864198
0.6567512219 0.0876084201 0.0199270349
0.7622727787 0.0393468658 0.0128730944
0.8399930027 0.0386135424 0.0190388967
0.9093226730 0.0515761271 0.0431515261
0.9761976549 0.0862321886 0.1047020425
1.0000000000 0.1504567026 0.1992388481
1.0000000000 0.2380169822 0.3143941386
1.0000000000 0.3467646297 0.4481476137
1.0000000000 0.4746177806 0.5888327396
0.0000000000 0.3064868929 0.0000000000
0.0000000000 0.3161491231 0.0000000000
0.0000000000 0.3249619183 0.0000000000
0.0000000000 0.3356855346 0.0000000000
0.0000000000 0.3525618262 0.0000000000
0.0764769487 0.3632289821 0.0000000000
0.3123020347 0.3480147668 0.0000000000
0.4922476264 0.3100359395 0.0025150469
0.6413710225 0.2701768612 0.0415411761
0.7581115537 0.1848474346 0.0425827461
0.8420266783 0.1009215219 0.0294970662
0.9122896290 0.0852126756 0.0419814344
0.9780900735 0.1020090281 0.0946997818
1.0000000000 0.1595779914 0.1928081081
1.0000000000 0.2440233678 0.3113408320
1.0000000000 0.3502303258 0.4468411920
1.0000000000 0.4766332193 0.5882986954
0.0000000000 0.4196031116 0.0000000000
0.0000000000 0.4252911878 0.0000000000
0.0000000000 0.4305278888 0.0000000000
0.0000000000 0.4367832743 0.0000000000
0.0000000000 0.4477457794 0.0000000000
0.0000000000 0.4651638115 0.0000000000
0.1542650504 0.4728302595 0.0000000000
0.4167654415 0.4552278315 0.0000000000
0.6069225981 0.4127424197 0.0007001986
0.7437694554 0.3671864975 0.0334301840
0.8329834104 0.2985132266 0.0656067042
0.9102897937 0.1988873405 0.0646014349
0.9792404984 0.1595024103 0.0947916570
1.0000000000 0.1815154119 0.1821313713
1.0000000000 0.2568672917 0.3057882901
1.0000000000 0.3582606080 0.4438130893
1.0000000000 0.4802730235 0.5869473424
0.0000000000 0.5352198822 0.0000000000
0.0000000000 0.5386172469 0.0000000000
0.0000000000 0.5415648624 0.0000000000
0.0000000000 0.5454268632 0.0000000000
0.0000000000 0.5521457355 0.0000000000
0.0000000000 0.5634363908 0.0000000000
0.0040443160 0.5810564008 0.0000000000
0.2453204205 0.5862409471 0.0000000000
0.5274743353 0.5680523400 0.0000000000
0.7135385795 0.5237508668 0.0000000000
0.8206760842 0.4693941182 0.0205188143
0.9002597735 0.4039860344 0.0809878672
0.9756150932 0.3016692784 0.1230173260
1.0000000000 0.2465204066 0.1801201725
1.0000000000 0.2851041240 0.2963602742
1.0000000000 0.3742540007 0.4384471870
1.0000000000 0.4888671274 0.5842930838
0.0027619292 0.6500230573 0.0000000000
0.0027619292 0.6517010687 0.0000000000
0.0035017003 0.6533032483 0.0000000000
0.0035509892 0.6553208838 0.0000000000
0.0042414715 0.6590084370 0.0000000000
0.0064609102 0.6650554712 0.0000000000
0.0109004129 0.6750047327 0.0000000000
0.0432192219 0.6894851757 0.0000000000
0.3464030103 0.6924567656 0.0022687275
0.6403361669 0.6775086111 0.0190878728
0.7948625092 0.6386356008 0.0142049577
0.8867246175 0.5816215910 0.0262276834
0.9656913252 0.5091735846 0.1099634636
1.0000000000 0.4080041473 0.2094494847
1.0000000000 0.3614710826 0.2940742987
1.0000000000 0.4103249063 0.4311277395
1.0000000000 0.5072306248 0.5807269456
0.0767368286 0.7413736613 0.0028602567
0.0778458745 0.7420263599 0.0028602567
0.0788284130 0.7427669217 0.0031563654
0.0804283224 0.7437086246 0.0031563654
0.0829543829 0.7453196169 0.0037482073
0.0870157088 0.7478041466 0.0044881662
0.0946986300 0.7522775925 0.0061160756
0.1079595589 0.7593809069 0.0092232772
0.1611620161 0.7696353294 0.0170657148
0.4714121851 0.7730425262 0.0456278859
0.7382107983 0.7639061028 0.0721926150
0.8609480972 0.7331807146 0.0622329821
0.9505450317 0.6850401746 0.0741731121
0.9986429111 0.6178961826 0.1692403175
1.0000000000 0.5318895402 0.3161382293
1.0000000000 0.4944685478 0.4288182038
1.0000000000 0.5466717763 0.5757712058
0.2243284652 0.8086385106 0.0512572279
0.2251027353 0.8088966503 0.0514323283
0.2260000740 0.8092432181 0.0518693859
0.2273615750 0.8096345952 0.0520841079
0.2295161500 0.8103071749 0.0530673323
0.2328366658 0.8116239444 0.0545137118
0.2393892113 0.8138103922 0.0569509553
0.2496470504 0.8176208829 0.0614611820
0.2680215387 0.8238649939 0.0686645028
0.3273174919 0.8334008428 0.0833449190
0.6107159948 0.8392817639 0.1239706820
0.8133707923 0.8348143583 0.1532864057
0.9249536336 0.8079220569 0.1419510239
0.9935272575 0.7706371198 0.1604712638
1.0000000000 0.7160730534 0.2597258096
1.0000000000 0.6505033252 0.4327105605
1.0000000000 0.6246000551 0.5706009383
0.4192731910 0.8710659842 0.1334385541
0.4199042879 0.8712404701 0.1337189786
0.4205824513 0.8714271819 0.1341031809
0.4215342207 0.8717039266 0.1345756129
0.4229784810 0.8721454393 0.1351499493
0.4254188571 0.8728904683 0.1360813884
0.4297806750 0.8742440976 0.1380569735
0.4371379256 0.8764928059 0.1415500769
0.4500991287 0.8803979461 0.1474153236
0.4712484331 0.8869636247 0.1571115911
0.5267394270 0.8973046889 0.1760378120
0.7227822990 0.9051332873 0.2149994269
0.8805748218 0.9042165659 0.2453473759
0.9784284522 0.8830549958 0.2391492833
1.0000000000 0.8570325507 0.2712017545
1.0000000000 0.8023425119 0.3850504174
1.0000000000 0.7443910252 0.5654495790
0.6062863641 0.9346159921 0.2380948347
0.6065814582 0.9347332703 0.2382562874
0.6068441196 0.9348193076 0.2384557252
0.6072382685 0.9349367107 0.2387202448
0.6078953298 0.9351787023 0.2391825751
0.6089767770 0.9355978295 0.2399502262
0.6106700824 0.9362883148 0.2412083679
0.6137406162 0.9375403856 0.2434832860
0.6187394084 0.9395574198 0.2477271130
0.6277433350 0.9428818211 0.2547941713
0.6416521963 0.9482680901 0.2662716053
0.6758637771 0.9560273430 0.2870395902
0.8070760662 0.9634408166 0.3231386260
0.9464747384 0.9668884705 0.3572764078
0.9990584177 0.9583954008 0.3632091758
1.0000000000 0.9386952973 0.4054830363
1.0000000000 0.8878655246 0.5286317771
0.7290838217 0.9785790000 0.3652029649
0.7292636604 0.9786463470 0.3656428211
0.7293241675 0.9786313047 0.3656266623
0.7295220774 0.9787063288 0.3659175198
0.7298159511 0.9787964576 0.3662772712
0.7303271145 0.9789151106 0.3670399265
0.7311391930 0.9791687071 0.3679426244
0.7326087486 0.9795596191 0.3699483134
0.7349931481 0.9801636195 0.3727298728
0.7388837072 0.9811138320 0.3785373145
0.7459959201 0.9826660215 0.3880298404
0.7575805278 0.9848212753 0.4033126126
0.7862665780 0.9875228970 0.4301510406
0.8990174436 0.9937532049 0.4690904766
0.9911156928 0.9988394799 0.4982896115
1.0000000000 0.9977788511 0.5082265527
1.0000000000 0.9908649861 0.5470747751
0.8422727177 0.9903973246 0.5227948009
0.8423650958 0.9903973246 0.5229472879
0.8423692778 0.9903973246 0.5229625865
0.8424685842 0.9903973246 0.5231890684
0.8426237495 0.9903973246 0.5232890933
0.8428344330 0.9903973246 0.5236031541
0.8433215769 0.9904557407 0.5243453121
0.8441300909 0.9904596351 0.5254431613
0.8458258582 0.9905219457 0.5279625893
0.8484326255 0.9906200723 0.5316192364
0.8526115520 0.9907557088 0.5370164474
0.8597148697 0.9910587445 0.5466748381
0.8716023728 0.9915681371 0.5624018517
0.8985836818 0.9931011101 0.5876585907
0.9761169069 0.9988770745 0.6214949490
1.0000000000 1.0000000000 0.6334849877
1.0000000000 1.0000000000 0.6460333846
0.9474052040 0.9959507701 0.6678103843
0.9474320586 0.9959507701 0.6676821536
0.9474338489 0.9959507701 0.6676736048
0.9475152770 0.9959507701 0.6679097242
0.9475725051 0.9959507701 0.6681137079
0.9476631317 0.9959507701 0.6681935167
0.9478573491 0.9959507701 0.6685252320
0.9481329329 0.9960052427 0.6689393768
0.9486147106 0.9960052427 0.6698051686
0.9495893783 0.9961107833 0.6715273299
0.9512096676 0.9962699920 0.6739992824
0.9536556588 0.9964672458 0.6777310790
0.9577813281 0.9967106370 0.6851646581
0.9643357858 0.9972615449 0.6966969205
0.9778171189 0.9984409442 0.7155319487
0.9999394003 1.0000000000 0.7305498919
1.0000000000 1.0000000000 0.7323259380
0.0000000000 0.0000000000 0.0000000000
0.0000000000 0.0000000000 0.0000000000
0.0000000000 0.0000000000 0.0000000000
0.0165230992 0.0000000000 0.0033533333
0.1091166159 0.0000000000 0.0072006813
0.2402653080 0.0021204230 0.0067079175
0.3731074101 0.0039451127 0.0073982122
0.5002886156 0.0063129809 0.0097163537
0.6266158395 0.0090751603 0.0136131157
0.7425742378 0.0129719849 0.0205682283
0.8293764427 0.0201240028 0.0352691065
0.9039524561 0.0372572742 0.0676936268
0.9739105654 0.0747684343 0.1279563197
1.0000000000 0.1411221224 0.2125245827
1.0000000000 0.2319376962 0.3219364264
1.0000000000 0.3422874882 0.4519942551
1.0000000000 0.4716059060 0.5907842297
0.0000000000 0.0000000000 0.0000000000
0.0000000000 0.0000000000 0.0005864811
0.0089767076 0.0000000000 0.0097169166
0.0655042872 0.0000000000 0.0129226960
0.1608535426 0.0006189366 0.0074966649
0.2769318801 0.0023668675 0.0059184196
0.3928880871 0.0044386271 0.0069053233
0.5113777697 0.0067571439 0.0090257463
0.6332785477 0.0090751603 0.0128239931
0.7455325148 0.0133174450 0.0197786053
0.8306558942 0.0206175172 0.0337368222
0.9046123184 0.0374870237 0.0659389171
0.9741920264 0.0753803321 0.1267216025
1.0000000000 0.1417295243 0.2118561836
1.0000000000 0.2324143031 0.3215760419
