bundles/resolve-cinematic-luts/Gamut/_Conversion/Sony/Sony FX3 BaseLUTs/Monitor LUTs/BaseLUT - Sony FX3 - S-Log3 to Rec709.cube
TITLE "BaseLUT - Sony FX3 - S-Log3 to Rec709 ML"
# Monitoring LUT. Developed for converting S-Log3 / S-Gamut3.Cine to Rec.709. Version 1.0 - 05/01/2025 - Copyright 2025 Gamut, LLC.
LUT_3D_SIZE 17
0.0000000000 0.0000000000 0.0000000000
0.0000000000 0.0000000000 0.0000000000
0.0000000000 0.0000000000 0.0000000000
0.0000000000 0.0000000000 0.0000000000
0.0301860668 0.0025645234 0.0025645234
0.1751966677 0.0211596950 0.0211596950
0.3257753469 0.0403053009 0.0403053009
0.4544283479 0.0566269912 0.0566269912
0.5801485227 0.0736909246 0.0729284336
0.6929896591 0.0910439237 0.0900052815
0.7774846648 0.1112775040 0.1115339541
0.8503025871 0.1454180411 0.1539123219
0.9221019576 0.2061161361 0.2325596678
0.9777521018 0.2915047749 0.3364681367
0.9969682211 0.3869579593 0.4479243614
0.9976093461 0.4872902145 0.5643854823
0.9979325127 0.5940256847 0.6791082356
0.0000000000 0.0000000000 0.0000000000
0.0000000000 0.0000000000 0.0000000000
0.0000000000 0.0000000000 0.0000000000
0.0000000000 0.0000000000 0.0000000000
0.0686010591 0.0076449694 0.0076449694
0.2086200859 0.0255003996 0.0255003996
0.3443505042 0.0425785945 0.0425299937
0.4656721173 0.0584208440 0.0578533963
0.5858124605 0.0747074113 0.0734414645
0.6959373459 0.0918918727 0.0900052815
0.7785785461 0.1119851163 0.1111792731
0.8509911020 0.1464904163 0.1533197790
0.9224596611 0.2070502504 0.2318693755
0.9779267367 0.2921331093 0.3361580391
0.9970401071 0.3873901261 0.4477655610
0.9976093461 0.4875616299 0.5641655757
0.9979325127 0.5941847897 0.6789771555
0.0000000000 0.0000000000 0.0000000000
0.0000000000 0.0000000000 0.0000000000
0.0000000000 0.0000000000 0.0000000000
0.0099136969 0.0014795424 0.0006182677
0.1086436266 0.0130182458 0.0130182458
0.2347250340 0.0286571105 0.0286571105
0.3573785102 0.0446842559 0.0440523823
0.4747648073 0.0596589459 0.0590613494
0.5927401867 0.0759035596 0.0744599670
0.6988564815 0.0927332504 0.0902508607
0.7796852965 0.1128674446 0.1106946174
0.8518080488 0.1473995985 0.1524980038
0.9228732440 0.2077917393 0.2310469075
0.9780356260 0.2928711489 0.3358529612
0.9970401071 0.3877425047 0.4474723718
0.9976093461 0.4878757624 0.5639954570
0.9979325127 0.5943894249 0.6789303813
0.0000000000 0.0003893012 0.0000000000
0.0000000000 0.0033039818 0.0000000000
0.0014796049 0.0148955026 0.0014796049
0.0225904489 0.0349710296 0.0035013250
0.1128621910 0.0472712345 0.0134160853
0.2467943202 0.0416278444 0.0303347466
0.3698076188 0.0481650647 0.0460704121
0.4843683923 0.0618941470 0.0602515385
0.5990501938 0.0773568533 0.0749654386
0.7025611438 0.0943173737 0.0904339811
0.7816598426 0.1143635910 0.1103375619
0.8525967818 0.1489056970 0.1513323487
0.9233845533 0.2092025888 0.2302225620
0.9782032055 0.2937187061 0.3354081449
0.9970401071 0.3884040717 0.4471933813
0.9976093461 0.4881641647 0.5637865237
0.9979325127 0.5946412162 0.6788131648
0.0055238583 0.0480531639 0.0055238583
0.0078423751 0.0663524771 0.0078423751
0.0109495142 0.0897623309 0.0109495142
0.0157344145 0.1157678803 0.0140568408
0.0955727331 0.1231710293 0.0149943305
0.2316119678 0.1211917190 0.0287064619
0.3704392344 0.0993412950 0.0461162607
0.4933173183 0.0781223051 0.0614252770
0.6080187738 0.0828062954 0.0760943083
0.7076049895 0.0977402115 0.0906789970
0.7845944555 0.1178306039 0.1094512343
0.8542734652 0.1522450297 0.1496271948
0.9242426659 0.2118451200 0.2283433147
0.9785343687 0.2953911789 0.3345131159
0.9970401071 0.3892455735 0.4465262950
0.9976093461 0.4887996739 0.5633962475
0.9979736788 0.5950571158 0.6786408685
0.0198282070 0.1580926106 0.0198282070
0.0216036077 0.1740064161 0.0216036077
0.0240207649 0.1903607663 0.0240207649
0.0264872365 0.2096486331 0.0264872365
0.0502799209 0.2306302389 0.0295451236
0.1930268177 0.2270735927 0.0290022578
0.3524616206 0.2147483366 0.0440050325
0.4914262550 0.1810654231 0.0614252770
0.6149025777 0.1338864379 0.0769591031
0.7140487917 0.1139344245 0.0911050055
0.7888514713 0.1275787534 0.1081241800
0.8571357504 0.1604119249 0.1460230171
0.9259625244 0.2180517967 0.2245097202
0.9791139043 0.2991969615 0.3317755096
0.9970401071 0.3909733143 0.4450948494
0.9976093461 0.4899403556 0.5627387851
0.9979325127 0.5957403170 0.6783037696
0.0368946098 0.2833420900 0.0368946098
0.0384649597 0.2936516571 0.0384649597
0.0400095675 0.3036944373 0.0400095675
0.0416806360 0.3153045874 0.0416806360
0.0445906820 0.3331751064 0.0444012826
0.1148304283 0.3475282563 0.0466401741
0.3045784132 0.3378981043 0.0459328660
0.4697113889 0.3200330048 0.0602515385
0.6118040270 0.2807443685 0.0774509678
0.7188542245 0.2179656336 0.0920331871
0.7941523831 0.1697927165 0.1075096121
0.8611857636 0.1827215423 0.1412647648
0.9288579168 0.2316868445 0.2178366022
0.9801492264 0.3069993536 0.3269755216
0.9970949606 0.3952803140 0.4426674147
0.9976093461 0.4919728487 0.5615923487
0.9979325127 0.5969297275 0.6777045106
0.0566855374 0.4031734076 0.0560652355
0.0573008354 0.4086090133 0.0573008354
0.0584385455 0.4136931641 0.0581080973
0.0595998993 0.4207681195 0.0595998993
0.0619121612 0.4317155778 0.0619121612
0.0668604404 0.4499568504 0.0654066684
0.2026330245 0.4604281728 0.0676739772
0.4153720872 0.4482799208 0.0666196879
0.5875571098 0.4262851266 0.0792284336
0.7163997141 0.3850989084 0.0941399484
0.7970534515 0.3196775198 0.1086092731
0.8653039854 0.2569556943 0.1379357588
0.9325501141 0.2672421027 0.2076214088
0.9817609714 0.3241307090 0.3193828978
0.9971429877 0.4041382312 0.4376746806
0.9976127767 0.4968576591 0.5588792268
0.9979874008 0.5990920305 0.6765772465
0.0843328711 0.5218558992 0.0826336892
0.0852259467 0.5249811198 0.0835609751
0.0861219476 0.5283278199 0.0844192772
0.0875707431 0.5325831738 0.0857493271
0.0897133210 0.5391430070 0.0873843936
0.0938229069 0.5507377168 0.0906628504
0.1053686001 0.5690424150 0.0965868531
0.3075103077 0.5767750380 0.0991868379
0.5299999575 0.5628102040 0.0968335587
0.6969922541 0.5393126347 0.1041610761
0.7951889652 0.4962098270 0.1152900982
0.8671110412 0.4281347926 0.1392392526
0.9361094779 0.3584570691 0.1999737314
0.9839190473 0.3642141086 0.3064615669
0.9972244305 0.4232933335 0.4287632146
0.9976899631 0.5065688226 0.5528905574
0.9979874008 0.6039797583 0.6733144820
0.1375927004 0.6401694877 0.1234183113
0.1388554866 0.6420503256 0.1241902423
0.1399908525 0.6438671056 0.1251444270
0.1416216638 0.6460166257 0.1260910749
0.1438940119 0.6495965862 0.1278018055
0.1488347232 0.6560076705 0.1308554581
0.1570114189 0.6662680121 0.1360404075
0.1826848258 0.6819173526 0.1447982578
0.4200811583 0.6866859468 0.1479497187
0.6449266090 0.6737537223 0.1441228064
0.7806333060 0.6531208305 0.1429602753
0.8640722084 0.6136409324 0.1551394554
0.9368377848 0.5461516298 0.2007523412
0.9858497415 0.4671195911 0.2960804311
0.9972724576 0.4700212054 0.4145095114
0.9977448512 0.5284513279 0.5429521899
0.9980114144 0.6146721252 0.6686888340
0.2414384296 0.7370790292 0.1847736614
0.2423828149 0.7377607828 0.1854097200
0.2435635152 0.7384503826 0.1862299601
0.2452587099 0.7393177690 0.1869232135
0.2479294071 0.7410589557 0.1883270546
0.2525533584 0.7438340439 0.1908459911
0.2605934638 0.7485309699 0.1950965289
0.2745643146 0.7560913726 0.2024746563
0.3108796607 0.7674336650 0.2141025149
0.5440304897 0.7701043650 0.2178710855
0.7416816038 0.7606221547 0.2133632826
0.8485129863 0.7463293442 0.2075776575
0.9315562026 0.7201272725 0.2269843838
0.9856957969 0.6663883751 0.2948002263
0.9972724576 0.5848997829 0.4031083104
0.9977448512 0.5806204434 0.5271551461
0.9981246211 0.6374692692 0.6589627352
0.3886035124 0.8094180800 0.2654058081
0.3894046981 0.8097793006 0.2658306350
0.3900711072 0.8101105761 0.2662784254
0.3910502940 0.8105013659 0.2667933595
0.3930750162 0.8112434781 0.2677329332
0.3961587674 0.8124850721 0.2692640695
0.4019499418 0.8149344309 0.2723132379
0.4113975676 0.8189967531 0.2778160808
0.4278162931 0.8256462262 0.2865832108
0.4665428876 0.8358837373 0.3000790550
0.6718067438 0.8383412988 0.3043461950
0.8156303228 0.8319719927 0.3004472214
0.9139173128 0.8216019141 0.2959923900
0.9816491372 0.8038811041 0.3223812823
0.9972724576 0.7628104242 0.3993135329
0.9976933936 0.6947799076 0.5145307325
0.9981246211 0.6870149795 0.6426465910
0.5561475228 0.8753153054 0.3532098509
0.5565597338 0.8754608854 0.3535068058
0.5570960874 0.8756927925 0.3538031373
0.5578114953 0.8759529935 0.3541798785
0.5590422759 0.8763648081 0.3547704222
0.5610669097 0.8772212267 0.3557583394
0.5644818916 0.8785180178 0.3575070944
0.5703157879 0.8808684633 0.3607275336
0.5806343850 0.8848405699 0.3661371597
0.5973448254 0.8916532723 0.3747208412
0.6332035238 0.9022754275 0.3886075763
0.7725684775 0.9058028566 0.3936418908
0.8837152575 0.9019004550 0.3917359032
0.9699868487 0.8945861783 0.3906378907
0.9971464182 0.8799201805 0.4211564321
0.9976899631 0.8367056615 0.5082523846
0.9980422889 0.7779689773 0.6296439231
0.7087894283 0.9411719361 0.4458576518
0.7090241408 0.9412405042 0.4460005722
0.7093084160 0.9413501756 0.4463478158
0.7096107365 0.9414754250 0.4465302806
0.7100598295 0.9416992098 0.4467736500
0.7109009134 0.9420917871 0.4474353184
0.7123368740 0.9427815971 0.4485611822
0.7148528758 0.9440949608 0.4505284391
0.7189118149 0.9462808816 0.4542603111
0.7261446458 0.9497115126 0.4600317410
0.7373871432 0.9552458015 0.4696790138
0.7598808393 0.9629974157 0.4848748987
0.8507814071 0.9661848561 0.4918617551
0.9495560602 0.9648810116 0.4913603147
0.9963103721 0.9622461604 0.4952219501
0.9977448512 0.9477171430 0.5269999610
0.9980422889 0.9066556692 0.6218979541
0.8090040772 0.9874426803 0.5486562592
0.8091343974 0.9874528354 0.5487808577
0.8091809983 0.9875002259 0.5488906945
0.8093782566 0.9875721892 0.5490844100
0.8095529320 0.9876272274 0.5493732007
0.8099447037 0.9877826882 0.5498778494
0.8106412839 0.9880375687 0.5507894447
0.8118120452 0.9884904110 0.5521978074
0.8136258612 0.9891646595 0.5542521914
0.8166582870 0.9901628684 0.5586023213
0.8220238759 0.9918003137 0.5655966930
0.8306254108 0.9940037113 0.5764197722
0.8483688523 0.9961256537 0.5938072768
0.9256207954 0.9965962515 0.6009978219
0.9913049450 0.9965632337 0.6008389287
0.9979994076 0.9959294153 0.6069660631
0.9981246211 0.9908522807 0.6351230532
0.8891894599 0.9980207714 0.6546164804
0.8891913897 0.9980241017 0.6546248485
0.8893042528 0.9980673951 0.6549090534
0.8893119098 0.9980740556 0.6548589694
0.8894294418 0.9980740556 0.6550191508
0.8895524520 0.9980740556 0.6551673420
0.8898526940 0.9980740556 0.6554617884
0.8904528667 0.9980740556 0.6563227712
0.8915978699 0.9980740556 0.6579480033
0.8933875852 0.9980740556 0.6601134183
0.8962799329 0.9981489864 0.6634558073
0.9010898460 0.9981653910 0.6691816178
0.9091628068 0.9982163316 0.6786209473
0.9252260060 0.9983095172 0.6923176028
0.9810643686 0.9983145126 0.6992392689
0.9982967818 0.9983844480 0.7010409009
0.9984279034 0.9983877782 0.7116004645
0.9604123365 0.9985400451 0.7415475348
0.9604123365 0.9985400451 0.7415874592
0.9604402748 0.9985400451 0.7414287598
0.9604971493 0.9985400451 0.7417850850
0.9605250877 0.9985400451 0.7416565783
0.9606099005 0.9985400451 0.7418923818
0.9607226517 0.9985400451 0.7419687372
0.9609242693 0.9985400451 0.7422118393
0.9612589681 0.9985400451 0.7427557467
0.9619183879 0.9985400451 0.7437687034
0.9630521359 0.9985400451 0.7451893880
0.9647846252 0.9985400451 0.7475239044
0.9677551323 0.9986999650 0.7520968069
0.9722965876 0.9986999650 0.7595185907
0.9814035424 0.9987605866 0.7705871607
0.9984364797 0.9987630912 0.7765285450
0.9987994494 0.9988006606 0.7771181920
0.0000000000 0.0000000000 0.0000000000
0.0000000000 0.0000000000 0.0000000000
0.0000000000 0.0000000000 0.0000000000
0.0003893012 0.0000000000 0.0000000000
0.0705682565 0.0083844904 0.0083844904
0.2069296246 0.0253032285 0.0253032285
0.3414023722 0.0425299937 0.0425299937
0.4629973967 0.0578533963 0.0578533963
0.5838785486 0.0742004278 0.0746749689
0.6952246185 0.0914686179 0.0932491294
0.7785498715 0.1118347705 0.1170117632
0.8509591973 0.1459637879 0.1619423899
0.9223666331 0.2066286551 0.2406951212
0.9778305845 0.2917816023 0.3414803212
0.9970349724 0.3872139606 0.4510406483
0.9976093461 0.4874252977 0.5664283501
0.9979325127 0.5941814750 0.6801999038
0.0000000000 0.0000000000 0.0000000000
0.0000000000 0.0000000000 0.0000000000
0.0000000000 0.0000000000 0.0000000000
0.0282132603 0.0028112181 0.0028112181
0.1266394698 0.0153892046 0.0153892046
0.2430440846 0.0301867548 0.0301867548
0.3601359094 0.0447310428 0.0446836929
0.4738161776 0.0592917812 0.0592530632
0.5906141930 0.0752113709 0.0751791175
0.6979817173 0.0922867144 0.0930981145
0.7795374257 0.1123375477 0.1165506030
0.8517815241 0.1470151703 0.1611502918
0.9227671232 0.2074149479 0.2400316838
0.9779874874 0.2925065073 0.3411575604
0.9970401071 0.3876520119 0.4507597272
0.9976093461 0.4876936530 0.5662629342
0.9979325127 0.5943405801 0.6801549406
0.0000000000 0.0000000000 0.0000000000
0.0000000000 0.0000000000 0.0000000000
0.0034519736 0.0069048229 0.0005860729
0.0653712654 0.0123294023 0.0072994468
0.1641401316 0.0202719946 0.0202719946
0.2705778044 0.0335406511 0.0333925968
0.3766973875 0.0468669155 0.0467757185
0.4850308747 0.0610286516 0.0604407503
0.5968627414 0.0764012198 0.0758714951
0.7007539568 0.0931248378 0.0930981145
0.7808929388 0.1133434770 0.1160358281
0.8523815193 0.1479031724 0.1603377008
0.9231170588 0.2082110788 0.2392428122
0.9781131097 0.2931321523 0.3406941139
0.9970401071 0.3880136751 0.4505309301
0.9976093461 0.4880204631 0.5660973301
0.9979325127 0.5944920551 0.6800275450
0.0003893012 0.0123789980 0.0003893012
0.0034519736 0.0303834100 0.0034519736
0.0066093398 0.0571266980 0.0066093398
0.0503639872 0.0655615406 0.0074966649
0.1545754500 0.0615040892 0.0187923897
0.2785977117 0.0483928069 0.0342308206
0.3881689202 0.0509552037 0.0482566370
0.4951827836 0.0631914831 0.0616489535
0.6048730423 0.0782409246 0.0764329692
0.7046092231 0.0944743341 0.0929198130
0.7827268610 0.1147089613 0.1152497311
0.8532620251 0.1494384483 0.1591435557
0.9236147114 0.2096403494 0.2382834229
0.9782587740 0.2940013503 0.3401118605
0.9970401071 0.3885379383 0.4501189831
0.9976093461 0.4883037444 0.5658889613
0.9979325127 0.5947075099 0.6799386178
0.0102100557 0.0851475378 0.0102100557
0.0126653439 0.1055531178 0.0126653439
0.0157837659 0.1272306276 0.0157837659
0.0221462234 0.1487526880 0.0181508210
0.1205024362 0.1449545157 0.0181014696
0.2588264536 0.1331188048 0.0320115071
0.3874471864 0.1057484548 0.0482566370
0.5037250194 0.0801925715 0.0628029891
0.6134311227 0.0837315654 0.0773254818
0.7103599871 0.0984358313 0.0929198130
0.7857082027 0.1181661636 0.1139871642
0.8549246329 0.1528255767 0.1569385140
0.9245258217 0.2122534122 0.2359967836
0.9785798225 0.2957375572 0.3389863741
0.9970401071 0.3894207051 0.4493201236
0.9976093461 0.4889944610 0.5655567499
0.9979325127 0.5950968921 0.6797278530
0.0233792587 0.1866305753 0.0233792587
0.0255003996 0.2022955227 0.0255003996
0.0273253722 0.2166544693 0.0273253722
0.0303346841 0.2344038681 0.0303346841
0.0615649497 0.2515698653 0.0326523252
0.2120066250 0.2420191449 0.0311233688
0.3675167818 0.2233932859 0.0461162607
0.5013357713 0.1863387726 0.0627295561
0.6204585800 0.1361683464 0.0782723591
0.7166803739 0.1148581198 0.0927673586
0.7901439382 0.1280873321 0.1120299826
0.8578134428 0.1607158811 0.1531004807
0.9262287661 0.2184478601 0.2320236430
0.9791966327 0.2994750398 0.3364609208
0.9970401071 0.3911466277 0.4481403300
0.9976093461 0.4900495838 0.5649348413
0.9979325127 0.5957701492 0.6794413377
0.0394847190 0.3021612538 0.0394847190
0.0409706383 0.3116348926 0.0409706383
0.0424321039 0.3202772644 0.0424321039
0.0438624825 0.3306675821 0.0438624825
0.0467748429 0.3472324030 0.0466850220
0.1258440388 0.3586349954 0.0486324960
0.3168457262 0.3461918326 0.0472947531
0.4788534221 0.3253686441 0.0617450293
0.6168190884 0.2842661880 0.0786339502
0.7212279588 0.2195829546 0.0934425136
0.7954898525 0.1705306112 0.1108451506
0.8620851712 0.1833537911 0.1472823894
0.9292019488 0.2319686684 0.2252060831
0.9802162208 0.3073512359 0.3322018782
0.9970949606 0.3954726893 0.4457153542
0.9976093461 0.4920865734 0.5637087695
0.9979496652 0.5970872065 0.6788324615
0.0584778265 0.4134259831 0.0581473783
0.0594059963 0.4189524398 0.0590800517
0.0602707411 0.4241537796 0.0602323358
0.0619119110 0.4303992163 0.0613683571
0.0639055465 0.4412190825 0.0635964901
0.0688686294 0.4585698257 0.0672717872
0.2110284762 0.4676105257 0.0690849850
0.4222661154 0.4531840409 0.0676739772
0.5925409003 0.4294990468 0.0801879729
0.7185528098 0.3874851993 0.0952954346
0.7980805651 0.3210977773 0.1111098491
0.8661429622 0.2577194613 0.1431235932
0.9328767385 0.2677076506 0.2142334389
0.9818260420 0.3242931541 0.3242000158
0.9971429877 0.4043711759 0.4409774361
0.9976127767 0.4970740323 0.5607226297
0.9979874008 0.5991273663 0.6774561515
0.0860928317 0.5280848771 0.0844487496
0.0871892378 0.5313883862 0.0853280087
0.0882366592 0.5342807660 0.0861970522
0.0893671796 0.5381539407 0.0872696148
0.0917014474 0.5448148487 0.0891068899
0.0956304025 0.5561154888 0.0925342337
0.1078901123 0.5739486089 0.0981413742
0.3126532012 0.5808995884 0.1005195617
0.5340213021 0.5657403173 0.0980120759
0.6995340453 0.5413445945 0.1050824594
0.7960765889 0.4975548947 0.1173693812
0.8677265864 0.4289351235 0.1433497016
0.9365098501 0.3587268769 0.2062484179
0.9840351756 0.3643534606 0.3113328210
0.9972450135 0.4233745265 0.4318200612
0.9976899631 0.5066665795 0.5548808395
0.9979874008 0.6040025234 0.6744240105
0.1399908525 0.6437486389 0.1251237475
0.1412300031 0.6454009475 0.1260499650
0.1422122699 0.6470303471 0.1266569583
0.1435216201 0.6490922778 0.1275522811
0.1463754954 0.6528427481 0.1294510582
0.1510396713 0.6589634863 0.1323434480
0.1594524660 0.6690379211 0.1376284937
0.1855140868 0.6843247897 0.1461483483
0.4230350090 0.6885300704 0.1490041626
0.6474124065 0.6753697024 0.1450446092
0.7817676065 0.6542152313 0.1438735185
0.8646818853 0.6146283137 0.1580884870
0.9371722082 0.5467757492 0.2058951673
0.9859940296 0.4673329868 0.3009821827
0.9972724576 0.4701871712 0.4174691023
0.9977448512 0.5285324133 0.5449228094
0.9980114144 0.6147480776 0.6696013989
0.2435098414 0.7383478207 0.1862299601
0.2447054754 0.7390717324 0.1868495469
0.2459764653 0.7398080985 0.1874653049
0.2474761471 0.7408018347 0.1882594334
0.2501816479 0.7424535988 0.1896313647
0.2547687335 0.7450821611 0.1921785961
0.2628473151 0.7498273478 0.1963390762
0.2768307624 0.7572897181 0.2036498318
0.3130651773 0.7684528291 0.2153231370
0.5462880670 0.7709629891 0.2189140340
0.7427814423 0.7613267851 0.2140793592
0.8491012831 0.7467710393 0.2084340832
0.9318285456 0.7204876060 0.2299575223
0.9857980944 0.6665639134 0.2985568783
0.9972724576 0.5849885915 0.4062324428
0.9977448512 0.5807046320 0.5289887198
0.9981246211 0.6375142041 0.6599762181
0.3899877828 0.8100708581 0.2662875360
0.3908002584 0.8103766364 0.2667023162
0.3916107443 0.8107475046 0.2671161605
0.3927262349 0.8111290227 0.2676195503
0.3946356087 0.8118082377 0.2684252112
0.3976554986 0.8132035039 0.2702204291
0.4035367753 0.8155681018 0.2732573668
0.4128774473 0.8196197741 0.2787597729
0.4292102998 0.8262328928 0.2873860706
0.4679184961 0.8364139167 0.3008269968
0.6729417790 0.8387979510 0.3049451007
0.8161481103 0.8323269386 0.3009755309
0.9142473272 0.8217722504 0.2964863114
0.9817298994 0.8040360674 0.3242602533
0.9972724576 0.7628730193 0.4015484095
0.9976933936 0.6948511059 0.5162565195
0.9981246211 0.6870756007 0.6437443175
0.5570388099 0.8756557623 0.3537325139
0.5575435987 0.8758585632 0.3540745356
0.5581490588 0.8760771020 0.3543944290
0.5588706926 0.8763187822 0.3547896208
0.5600643051 0.8767720368 0.3553427647
0.5619839717 0.8775701727 0.3562076987
0.5654302072 0.8788906021 0.3580530699
0.5712149818 0.8812157209 0.3612738832
0.5815180354 0.8852327902 0.3666103529
0.5982526721 0.8919870849 0.3752088785
0.6340018972 0.9025842174 0.3891191088
0.7729886488 0.9060980225 0.3940136484
0.8840028623 0.9021278134 0.3920828059
0.9701253543 0.8946891083 0.3910084558
0.9971464182 0.8800276159 0.4224675737
0.9976899631 0.8367736524 0.5096835052
0.9981040381 0.7779780004 0.6306079100
0.7092720164 0.9413646275 0.4463430206
0.7094827508 0.9414060436 0.4463256460
0.7097219746 0.9415317935 0.4466482288
0.7099791819 0.9416447807 0.4467304936
0.7105419232 0.9418751970 0.4472179798
0.7113357927 0.9422894834 0.4477341123
0.7126872683 0.9429997513 0.4487705496
0.7152751431 0.9443375853 0.4509995470
0.7192031949 0.9464658456 0.4545346311
0.7265043989 0.9498585126 0.4603180177
0.7376265399 0.9553665673 0.4698369960
0.7601476617 0.9631070679 0.4851696647
0.8509480620 0.9662890508 0.4920372498
0.9497356618 0.9650115529 0.4915935355
0.9963778745 0.9622970972 0.4956764958
0.9977448512 0.9477171430 0.5278398746
0.9980422889 0.9066324209 0.6226666723
0.8091809983 0.9875002259 0.5489423603
0.8093362722 0.9875670490 0.5491453332
0.8094649705 0.9875789593 0.5493050844
0.8095487522 0.9876272274 0.5493869616
0.8097809456 0.9877158651 0.5496333437
0.8101705340 0.9878523948 0.5501963511
0.8108492099 0.9881128543 0.5510044896
0.8119815426 0.9885348552 0.5524453780
0.8137819460 0.9892094799 0.5545143285
0.8167919760 0.9901933337 0.5588644911
0.8221863863 0.9918449622 0.5657764684
0.8308355180 0.9940139564 0.5767031363
0.8485257481 0.9961256537 0.5938892218
0.9257348095 0.9965986099 0.6011895057
0.9913049450 0.9965632337 0.6008450495
0.9979994076 0.9959294153 0.6069660631
0.9981313551 0.9908522807 0.6352889910
0.8892791652 0.9980241017 0.6548364878
0.8893119098 0.9980740556 0.6548647771
0.8893137774 0.9980740556 0.6548533490
0.8894082138 0.9980740556 0.6550837229
0.8895033973 0.9980740556 0.6551273747
0.8896712290 0.9980740556 0.6552755034
0.8899461344 0.9980740556 0.6556919750
0.8905173598 0.9980740556 0.6563840335
0.8917318364 0.9980740556 0.6580476093
0.8934760315 0.9980740556 0.6603276179
0.8963692945 0.9981489864 0.6636654482
0.9012192793 0.9982013454 0.6693944434
0.9092139154 0.9982163316 0.6785733613
0.9253263635 0.9983095172 0.6923800813
0.9811478671 0.9983145126 0.6994816404
0.9982967818 0.9983844480 0.7015651172
0.9984279034 0.9983877782 0.7116004645
0.9604402748 0.9985400451 0.7414287598
0.9604935947 0.9985400451 0.7417628146
0.9604971493 0.9985400451 0.7417850850
0.9605233415 0.9985400451 0.7416688675
0.9605886973 0.9985400451 0.7418152778
0.9606291081 0.9985400451 0.7417957523
0.9607407368 0.9985400451 0.7418695500
0.9609968591 0.9985400451 0.7422760302
0.9613013746 0.9985400451 0.7428745218
0.9619787547 0.9985400451 0.7438333310
0.9631051440 0.9985400451 0.7453272519
0.9648516647 0.9985400451 0.7476101162
0.9677551323 0.9986999650 0.7521357332
0.9723464744 0.9986999650 0.7594412444
0.9814102515 0.9987605866 0.7705945211
0.9984364797 0.9987605866 0.7765819333
0.9987994494 0.9988006606 0.7771181920
0.0000000000 0.0000000000 0.0000000000
0.0000000000 0.0000000000 0.0000000000
0.0000000000 0.0000000000 0.0000000000
0.0175596045 0.0019723687 0.0053265777
0.1028416242 0.0123294023 0.0182498992
0.2252526533 0.0278681755 0.0315184305
0.3499311114 0.0433191788 0.0460235626
0.4692055673 0.0587309012 0.0617805574
0.5877914171 0.0749009318 0.0787141428
0.6971943985 0.0920798121 0.0981821163
0.7794544007 0.1121650813 0.1242133510
0.8516446469 0.1465078477 0.1708533658
0.9226003620 0.2070623444 0.2483122084
0.9779233027 0.2922299301 0.3464695243
0.9970401071 0.3874122644 0.4544526153
0.9976093461 0.4875106693 0.5685359921
0.9979325127 0.5942842304 0.6812941948
0.0000000000 0.0000000000 0.0000000000
0.0000000000 0.0000000000 0.0005860729
0.0075957430 0.0005860729 0.0082857875
0.0615118453 0.0072994468 0.0181511337
0.1506811972 0.0180521807 0.0239714760
0.2592995116 0.0318636404 0.0349216157
0.3685805227 0.0461162607 0.0480769952
0.4795963286 0.0602134459 0.0623964808
0.5940340138 0.0759035596 0.0789624689
0.6999195472 0.0927332504 0.0978342750
0.7807160812 0.1128897528 0.1235011539
0.8523917162 0.1473822920 0.1699382062
0.9230316108 0.2078037706 0.2476615895
0.9780423067 0.2928792173 0.3461045640
0.9970401071 0.3878330601 0.4542266206
