bundles/resolve-cinematic-luts/Gamut/_Conversion/Sony/Sony FX3 BaseLUTs/Monitor LUTs/BaseLUT - Sony FX3 - S-Log3 to Rec709.cube
TITLE "BaseLUT - Sony FX3 - S-Log3 to Rec709 ML"
# Monitoring LUT. Developed for converting S-Log3 / S-Gamut3.Cine to Rec.709. Version 1.0 - 05/01/2025 - Copyright 2025 Gamut, LLC.
LUT_3D_SIZE 5
0.0000000000 0.0000000000 0.0000000000
0.0301860668 0.0025645234 0.0025645234
0.5801485227 0.0736909246 0.0729284336
0.9221019576 0.2061161361 0.2325596678
0.9979325127 0.5940256847 0.6791082356
0.0055238583 0.0480531639 0.0055238583
0.0955727331 0.1231710293 0.0149943305
0.6080187738 0.0828062954 0.0760943083
0.9242426659 0.2118451200 0.2283433147
0.9979736788 0.5950571158 0.6786408685
0.0843328711 0.5218558992 0.0826336892
0.0897133210 0.5391430070 0.0873843936
0.5299999575 0.5628102040 0.0968335587
0.9361094779 0.3584570691 0.1999737314
0.9979874008 0.6039797583 0.6733144820
0.5561475228 0.8753153054 0.3532098509
0.5590422759 0.8763648081 0.3547704222
0.5806343850 0.8848405699 0.3661371597
0.8837152575 0.9019004550 0.3917359032
0.9980422889 0.7779689773 0.6296439231
0.9604123365 0.9985400451 0.7415475348
0.9605250877 0.9985400451 0.7416565783
0.9612589681 0.9985400451 0.7427557467
0.9677551323 0.9986999650 0.7520968069
0.9987994494 0.9988006606 0.7771181920
0.0118375899 0.0118375899 0.0984800156
0.1206519733 0.0163751700 0.1277887874
0.5939816393 0.0765796215 0.1385824915
0.9233904420 0.2087002749 0.2768292070
0.9979325127 0.5945948105 0.6849694339
0.0189404440 0.1510629429 0.1389609514
0.1633560614 0.1633566613 0.1633566613
0.6278431249 0.0862185811 0.1270014713
0.9255419252 0.2146567454 0.2724019723
0.9979325127 0.5955589472 0.6846394542
0.0947264985 0.5534407206 0.0934778109
0.1004834427 0.5686942517 0.0980516915
0.5525569989 0.5789360452 0.1028080547
0.9381923870 0.3602294278 0.2367367570
0.9979874008 0.6044330577 0.6790742634
0.5615829049 0.8774103955 0.3562756418
0.5644139058 0.8784942544 0.3576447258
0.5854999673 0.8868567026 0.3687735130
0.8852406835 0.9030913678 0.3935209425
0.9981246211 0.7780817670 0.6354299664
0.9606099005 0.9985400451 0.7419048581
0.9607226517 0.9985400451 0.7419737277
0.9614285938 0.9985400451 0.7430921097
0.9678948240 0.9986999650 0.7525831359
0.9987994494 0.9988006606 0.7776033129
0.0807316032 0.1082610909 0.5752537719
0.1975789566 0.1097870440 0.5765643074
0.5584533142 0.1178287293 0.5675877037
0.9243609398 0.2424156849 0.5570045967
0.9979599568 0.5985836948 0.7230547639
0.0751903145 0.1240627395 0.5949512584
0.1886465002 0.1239869977 0.5986922456
0.5739110070 0.1248341099 0.5826627564
0.9266514952 0.2466357576 0.5563040559
0.9979874008 0.5994092400 0.7227769400
0.1208154217 0.5826999871 0.5652861776
0.1252412522 0.5887451974 0.5735740291
0.5823529648 0.5823509705 0.5823506223
0.9421850038 0.3608683305 0.5406058986
0.9979874008 0.6083916720 0.7186913965
0.6000127330 0.8926659742 0.3895343548
0.6026051486 0.8937177875 0.3906377652
0.6213583679 0.9016084764 0.3994324099
0.8966134242 0.9119092295 0.4086054027
0.9982608250 0.7788670345 0.6787452829
0.9621335381 0.9985400451 0.7443761780
0.9621754456 0.9985400451 0.7444350665
0.9629502358 0.9985400451 0.7453024239
0.9690749697 0.9986999650 0.7546498291
0.9987994494 0.9988006606 0.7786485735
0.4089125710 0.4319939538 0.9119521224
0.4428541786 0.4324262347 0.9120572789
0.6144408080 0.4345098138 0.9120043260
0.8881720112 0.4549798002 0.9096449462
0.9981380890 0.6485404085 0.9144406608
0.3980274117 0.4345537154 0.9133888456
0.4363349839 0.4350209180 0.9135092386
0.6142208877 0.4370271705 0.9134787657
0.8892031554 0.4565983727 0.9107648773
0.9981380890 0.6490229907 0.9144406608
0.3204239338 0.4849217934 0.9225609443
0.3551128625 0.4842897814 0.9231124542
0.6074747299 0.4772909357 0.9239312265
0.8970268079 0.4688852386 0.9187997868
0.9981784928 0.6543445922 0.9140619973
0.6858235747 0.9069433356 0.8961894021
0.6865959918 0.9073780538 0.8967863606
0.6927140975 0.9107535473 0.9012140941
0.9109221365 0.9109226369 0.9109225051
0.9987843432 0.7753522546 0.9040829916
0.9731218733 0.9987706051 0.7727594660
0.9732327605 0.9987706051 0.7728068457
0.9738373956 0.9987706051 0.7734534804
0.9793210687 0.9988006606 0.7798863821
0.9988598741 0.9988607715 0.7900879840
0.8091453146 0.8065372768 0.9988745618
0.8117781707 0.8066176793 0.9988745618
0.8281260875 0.8070192100 0.9988745618
0.9241607261 0.8089622629 0.9988745618
0.9989799774 0.8261012655 0.9989517122
0.8084184158 0.8067252177 0.9988745618
0.8110280650 0.8068057411 0.9988745618
0.8278829715 0.8071973928 0.9988745618
0.9241008374 0.8091396783 0.9988745618
0.9989799774 0.8262037805 0.9989517122
0.8038547915 0.8083573469 0.9988745618
0.8062252536 0.8084019513 0.9988745618
0.8245371470 0.8089442207 0.9988745618
0.9241449395 0.8107820229 0.9988745618
0.9989799774 0.8272164897 0.9989517122
0.7660956607 0.8467113488 0.9987402630
0.7682896453 0.8466703258 0.9987402630
0.7855274093 0.8461352758 0.9987788382
0.9230579218 0.8406009216 0.9990269427
0.9989950836 0.8349270133 0.9989661778
0.9878083464 1.0000000000 1.0000000000
0.9878564424 1.0000000000 1.0000000000
0.9881073890 1.0000000000 1.0000000000
0.9900750897 1.0000000000 1.0000000000
1.0000000000 1.0000000000 1.0000000000
