bundles/resolve-cinematic-luts/Gamut/_Conversion/Blackmagic/Blackmagic Pocket Cinema Camera 6K Pro BaseLUTs/Monitor LUTs/BaseLUT - Blackmagic PCC 6K Pro - Gen5 Film to Rec709 ML.cube
TITLE "BaseLUT - Blackmagic Pocket Cinema Camera 6K Pro - Gen5 Film to Rec709 ML"
# Monitoring LUT. Developed for converting Blackmagic Film Gen 5 / Blackmagic Wide Gamut to Rec.709. Version 1.0 - 05/01/2025 - Copyright 2025 Gamut, LLC.
LUT_3D_SIZE 17
0.0000000000 0.0000000000 0.0000000000
0.0000000000 0.0000000000 0.0000000000
0.0000000000 0.0000000000 0.0000000000
0.0019230798 0.0000000000 0.0000000000
0.0765786706 0.0090754105 0.0090754105
0.2395101662 0.0298415450 0.0292986792
0.3952857874 0.0491380199 0.0491380199
0.5456506559 0.0695616967 0.0679027628
0.6876257262 0.0922317243 0.0862200276
0.8055273663 0.1264235607 0.1039070452
0.8905807281 0.1937161276 0.1267802796
0.9444715671 0.3028613604 0.1794615326
0.9818014590 0.4252378844 0.2855606630
0.9971793799 0.5592452680 0.4119095042
0.9978820942 0.6908315388 0.5446621891
0.9983214006 0.8035528618 0.6775668617
0.9988613163 0.8869759246 0.7938692299
0.0000000000 0.0000000000 0.0000000000
0.0000000000 0.0000000000 0.0000000000
0.0000000000 0.0000000000 0.0000000000
0.0051292970 0.0000000000 0.0000000000
0.1051015501 0.0123797676 0.0123797676
0.2560034786 0.0316169458 0.0316169458
0.4032941042 0.0504436751 0.0498156796
0.5495053307 0.0700911144 0.0684073484
0.6892512494 0.0934684341 0.0866643782
0.8062353727 0.1282249820 0.1039070452
0.8907872941 0.1957607776 0.1266673155
0.9445296804 0.3045424999 0.1793983578
0.9818633311 0.4261697681 0.2853289052
0.9971793799 0.5598526951 0.4118403132
0.9978820942 0.6910822308 0.5446063819
0.9983214006 0.8036597241 0.6775642322
0.9988613163 0.8870390280 0.7938331616
0.0000000000 0.0000000000 0.0000000000
0.0000000000 0.0000000000 0.0000000000
0.0000000000 0.0000000000 0.0000000000
0.0183483518 0.0060667241 0.0019723687
0.1270287257 0.0163752951 0.0153891420
0.2698838542 0.0339255342 0.0332443574
0.4099846347 0.0517265623 0.0507466641
0.5529150749 0.0715921112 0.0687369835
0.6910270075 0.0948799853 0.0866643782
0.8070076297 0.1303076252 0.1039070452
0.8910672051 0.1980484801 0.1264665321
0.9445605530 0.3063685155 0.1791773084
0.9818633311 0.4270180469 0.2851142362
0.9971793799 0.5603226780 0.4117410037
0.9978820942 0.6913101552 0.5446095171
0.9983214006 0.8038012276 0.6776055525
0.9988613163 0.8870942434 0.7938971577
0.0000000000 0.0000000000 0.0000000000
0.0000000000 0.0033532707 0.0000000000
0.0013316131 0.0152901264 0.0013316131
0.0208144226 0.0389773782 0.0042907604
0.1196988174 0.0529875572 0.0147476359
0.2728327734 0.0479471428 0.0337804627
0.4157979340 0.0567722933 0.0518121298
0.5571944421 0.0744230068 0.0694069496
0.6933833708 0.0979323311 0.0871067272
0.8080961709 0.1338536105 0.1039070452
0.8913820407 0.2017493460 0.1263531927
0.9446608109 0.3086324166 0.1789565717
0.9819179971 0.4282525308 0.2849372372
0.9971793799 0.5611583004 0.4116718126
0.9978820942 0.6916723700 0.5445092523
0.9983214006 0.8039621151 0.6774855357
0.9988613163 0.8871534028 0.7938761805
0.0041427686 0.0393012587 0.0041427686
0.0064612855 0.0560717406 0.0064612855
0.0093712689 0.0768094777 0.0093712689
0.0133171962 0.1081635911 0.0133171962
0.0885721334 0.1303968831 0.0157837033
0.2490905493 0.1323264171 0.0308275730
0.4140158195 0.1101679225 0.0513237444
0.5625718669 0.0965905850 0.0700385104
0.6974799729 0.1090052551 0.0875475750
0.8100116889 0.1431168567 0.1040271399
0.8920023895 0.2098468997 0.1261190079
0.9448905084 0.3138427590 0.1783502809
0.9819724147 0.4310488059 0.2845450702
0.9971793799 0.5627460079 0.4114259184
0.9978820942 0.6923770970 0.5443274714
0.9983214006 0.8042299899 0.6774434015
0.9988613163 0.8871962856 0.7938061105
0.0182496490 0.1471773104 0.0182496490
0.0200253625 0.1610891618 0.0200253625
0.0223437617 0.1757432865 0.0223437617
0.0249089657 0.1976540508 0.0249089657
0.0312220717 0.2364952071 0.0301866298
0.1899998687 0.2503578591 0.0324551696
0.3858954494 0.2426335095 0.0486320582
0.5584413190 0.2071037400 0.0698011981
0.7017903440 0.1714984373 0.0880699247
0.8133101397 0.1753602968 0.1043799183
0.8931111667 0.2299953636 0.1259243543
0.9451626636 0.3247602693 0.1774834720
0.9821245479 0.4371848511 0.2837115282
0.9971793799 0.5660178314 0.4108820956
0.9978820942 0.6937537867 0.5440334490
0.9983214006 0.8048691004 0.6772840051
0.9988613163 0.8874503267 0.7938103059
0.0373874987 0.2865618034 0.0373874987
0.0384160603 0.2944434065 0.0384160603
0.0399108647 0.3025844484 0.0399108647
0.0413847150 0.3144420564 0.0413847150
0.0450302922 0.3370687565 0.0450302922
0.0613585369 0.3736413122 0.0513393192
0.3150181780 0.3817127131 0.0526083830
0.5267708384 0.3692760190 0.0684944171
0.6963729862 0.3294294520 0.0886914776
0.8156662562 0.2850502494 0.1051774850
0.8948798632 0.2856735294 0.1258106396
0.9458545742 0.3499355256 0.1759538276
0.9823652650 0.4501324573 0.2819638030
0.9971793799 0.5725043705 0.4098880616
0.9978820942 0.6969332936 0.5434655325
0.9983214006 0.8060649078 0.6770764643
0.9988613163 0.8878531115 0.7936557009
0.0612678403 0.4261811858 0.0606815027
0.0618502999 0.4299197642 0.0618122073
0.0627400644 0.4338535040 0.0624281933
0.0638811522 0.4394084944 0.0634613835
0.0665239249 0.4515448826 0.0660807002
0.0722779023 0.4753008801 0.0714807733
0.1168172313 0.5130759945 0.0805675053
0.4463268224 0.5188323266 0.0824137119
0.6658308032 0.5037322426 0.0943324283
0.8111919909 0.4611659549 0.1097621023
0.8960716812 0.4153051997 0.1283241227
0.9467769963 0.4133496124 0.1747620748
0.9828928548 0.4803454642 0.2793450530
0.9971793799 0.5870734039 0.4080150823
0.9978327184 0.7036092433 0.5424747982
0.9983214006 0.8085442450 0.6765525723
0.9988613163 0.8885992087 0.7934070430
0.1026414841 0.5695256460 0.0976430404
0.1033795665 0.5714200108 0.0982271888
0.1041396662 0.5733549884 0.0988379832
0.1053686359 0.5760940354 0.0997575837
0.1077400069 0.5816759730 0.1017600387
0.1135355170 0.5939992119 0.1061808392
0.1264348821 0.6178380096 0.1153547649
0.2155437123 0.6532157729 0.1314519656
0.5864188250 0.6576895751 0.1341383351
0.7867173835 0.6437969100 0.1361160205
0.8930854614 0.6051222459 0.1458273077
0.9473491736 0.5598014606 0.1823784086
0.9835835731 0.5542492396 0.2770644596
0.9972246142 0.6197994639 0.4050041140
0.9978327184 0.7174119112 0.5404962139
0.9983214006 0.8139942087 0.6753225407
0.9988613163 0.8903359285 0.7930311444
0.1992548253 0.7055636183 0.1614791571
0.2001237952 0.7063884717 0.1619711077
0.2011587404 0.7072912620 0.1624619325
0.2025516776 0.7084056850 0.1631467228
0.2051630427 0.7107912818 0.1645226834
0.2104933805 0.7156461762 0.1676996275
0.2236250529 0.7265146816 0.1751698965
0.2514731288 0.7470828661 0.1902021722
0.3678048021 0.7758538600 0.2145666749
0.7207325612 0.7796340596 0.2182996688
0.8759614900 0.7709041367 0.2136084152
0.9447843641 0.7421590246 0.2253516876
0.9836077380 0.7025393021 0.2892980993
0.9972246142 0.6939533303 0.4024581971
0.9978327184 0.7475369667 0.5372198931
0.9983214006 0.8250515218 0.6734329487
0.9988613163 0.8940981941 0.7921209850
0.3725278776 0.8163104843 0.2561398084
0.3731208842 0.8166295103 0.2564359121
0.3736926002 0.8169302383 0.2568084135
0.3745990174 0.8173878160 0.2572925781
0.3764047759 0.8182611113 0.2583307511
0.3799591837 0.8199852681 0.2603492996
0.3871551658 0.8235901182 0.2644247203
0.4050122187 0.8317103240 0.2741803981
0.4409634168 0.8469212665 0.2937334283
0.5549127481 0.8672062100 0.3221181290
0.8313745003 0.8712658153 0.3281905932
0.9332434175 0.8677453622 0.3255647067
0.9808033061 0.8494677604 0.3432566336
0.9972402722 0.8203305507 0.4154838941
0.9978327184 0.8103050746 0.5344546156
0.9983214006 0.8483156203 0.6700746688
0.9988613163 0.9014055146 0.7903714878
0.5782420171 0.8941786472 0.3660313874
0.5785290577 0.8942928428 0.3661913460
0.5788717917 0.8943985398 0.3664072743
0.5793319202 0.8945450929 0.3666138118
0.5802730779 0.8948406542 0.3670737787
0.5821122151 0.8953063128 0.3679821303
0.5857333568 0.8964164775 0.3699359409
0.5933051935 0.8987182674 0.3741566552
0.6119316370 0.9041468379 0.3844980530
0.6471673000 0.9140655929 0.4050204568
0.7348679247 0.9268787475 0.4360371325
0.9074521226 0.9306657453 0.4462684432
0.9714272044 0.9299434283 0.4473756408
0.9971915583 0.9198778772 0.4723354883
0.9978820942 0.9009322388 0.5480084256
0.9983214006 0.8930856684 0.6672843558
0.9987818121 0.9163462818 0.7876152110
0.7587156656 0.9436303445 0.4842771453
0.7588423117 0.9436645519 0.4844215362
0.7589377814 0.9436990094 0.4844739965
0.7590857126 0.9437078270 0.4845876605
0.7594118122 0.9438264584 0.4848754429
0.7599978398 0.9439674153 0.4853458372
0.7613935761 0.9442825500 0.4865138289
0.7641790387 0.9450077535 0.4888125906
0.7695610278 0.9464483876 0.4930873793
0.7828743914 0.9500407638 0.5049129941
0.8068267531 0.9567251082 0.5278151907
0.8593535536 0.9659047927 0.5616283221
0.9548517216 0.9696799542 0.5757716152
0.9960154019 0.9700475067 0.5812474337
0.9980538645 0.9631007950 0.6064189489
0.9983311230 0.9505089887 0.6803460307
0.9987818121 0.9441747968 0.7851467286
0.8747091244 0.9790935319 0.6115145237
0.8747368978 0.9790715857 0.6114663638
0.8747409637 0.9791382372 0.6115467552
0.8748374824 0.9791382372 0.6117512003
0.8749191761 0.9791938844 0.6117859304
0.8750715542 0.9792489063 0.6120492792
0.8754586297 0.9794001961 0.6126547441
0.8762278390 0.9796976673 0.6137844081
0.8777106484 0.9802817293 0.6159852072
0.8807605881 0.9814746205 0.6203502014
0.8884442368 0.9846959943 0.6325404836
0.9018562364 0.9903344200 0.6557839305
0.9299841813 0.9954767030 0.6892843731
0.9889394981 0.9966301102 0.7044906368
0.9984621946 0.9966417559 0.7107167799
0.9985602583 0.9941113276 0.7332205476
0.9988613163 0.9859122024 0.7952686273
0.9382702729 0.9979551594 0.7348140965
0.9382702729 0.9979551594 0.7348140965
0.9382702729 0.9979551594 0.7348490578
0.9382964541 0.9979551594 0.7347130833
0.9383071759 0.9979551594 0.7347721429
0.9383831015 0.9979551594 0.7349717345
0.9384597750 0.9979551594 0.7351398609
0.9386964033 0.9979619215 0.7355927347
0.9390967266 0.9980092558 0.7365531718
0.9399492991 0.9981180541 0.7385482137
0.9415219797 0.9982110333 0.7426958733
0.9459130631 0.9983422239 0.7536152123
0.9536234621 0.9985454684 0.7733946034
0.9703274895 0.9987929127 0.8015122515
0.9988115035 0.9988480012 0.8143428876
0.9989829039 0.9988585004 0.8185140697
0.9990357841 0.9989564930 0.8362236040
0.9773058626 0.9989546783 0.8353657018
0.9773058626 0.9989546783 0.8353657018
0.9773058626 0.9989546783 0.8353657018
0.9772795234 0.9989546783 0.8353657018
0.9772812794 0.9989546783 0.8353883916
0.9772812794 0.9989546783 0.8354212076
0.9773627428 0.9989546783 0.8355914754
0.9774065787 0.9989546783 0.8356909858
0.9775555206 0.9989546783 0.8360523361
0.9778539689 0.9989546783 0.8367993518
0.9784740690 0.9990418151 0.8383363251
0.9796161101 0.9990472885 0.8410841750
0.9830377820 0.9991278686 0.8491734589
0.9898832978 0.9992235511 0.8639146485
0.9977483354 0.9993758645 0.8841244896
0.9994513641 0.9994079771 0.8925305648
0.9994513641 0.9994079771 0.8959355777
0.9990193434 0.9994380826 0.9071005002
0.9990193434 0.9994380826 0.9071005002
0.9990193434 0.9994380826 0.9071005002
0.9990193434 0.9994380826 0.9071005002
0.9990193434 0.9994380826 0.9071005002
0.9990193434 0.9994380826 0.9071005002
0.9990193434 0.9994380826 0.9071005002
0.9990193434 0.9994380826 0.9071005002
0.9990193434 0.9994380826 0.9071005002
0.9990193434 0.9994380826 0.9075282790
0.9990193434 0.9994380826 0.9081066350
0.9991076581 0.9994380826 0.9091314284
0.9992019774 0.9994380826 0.9107077922
0.9994139231 0.9994856568 0.9162508045
0.9994909261 0.9995672845 0.9255829319
0.9998956149 0.9998803684 0.9380024174
0.9999653589 0.9999613267 0.9430880881
0.0000000000 0.0000000000 0.0000000000
0.0000000000 0.0000000000 0.0000000000
0.0000000000 0.0000000000 0.0000000000
0.0120842220 0.0006900444 0.0006900444
0.1181193837 0.0139088491 0.0139088491
0.2635195750 0.0324058182 0.0324058182
0.4074502234 0.0511093878 0.0504873345
0.5520227228 0.0700911144 0.0689430210
0.6903592625 0.0928493206 0.0870784549
0.8066922518 0.1268680364 0.1047968722
0.8910397260 0.1941080589 0.1284297686
0.9446608109 0.3031412162 0.1823658563
0.9818633311 0.4253322832 0.2878540416
0.9971793799 0.5593561509 0.4131238225
0.9978820942 0.6908366678 0.5453625379
0.9983214006 0.8036172043 0.6779079423
0.9988613163 0.8869759246 0.7940131897
0.0000000000 0.0000000000 0.0000000000
0.0000000000 0.0000000000 0.0000000000
0.0000000000 0.0000000000 0.0000000000
0.0462645027 0.0049323917 0.0049323917
0.1508432028 0.0185950465 0.0185950465
0.2817976332 0.0347243350 0.0347243350
0.4153639479 0.0517693460 0.0517693460
0.5557963199 0.0711058525 0.0694753786
0.6920575909 0.0938828861 0.0871067272
0.8074509462 0.1286633279 0.1047968722
0.8912870972 0.1962301460 0.1284297686
0.9447022666 0.3048907538 0.1821632086
0.9819145805 0.4262312240 0.2877245666
0.9971793799 0.5598961819 0.4131040357
0.9978820942 0.6911286413 0.5453067307
0.9983214006 0.8036956158 0.6778739470
0.9988613163 0.8870370873 0.7940795027
0.0000000000 0.0000000000 0.0000000000
0.0000000000 0.0000000000 0.0000000000
0.0048831028 0.0104563125 0.0006900444
0.0646568893 0.0154385560 0.0073487357
0.1688293313 0.0218010135 0.0203706975
0.2941268413 0.0370426642 0.0364997983
0.4221704376 0.0532400064 0.0524241752
0.5591554944 0.0724249558 0.0698011981
0.6937385012 0.0954738289 0.0875194278
0.8081469270 0.1307511001 0.1047968722
0.8915032481 0.1985121031 0.1284297686
0.9447564347 0.3066099131 0.1819471343
0.9819179971 0.4271646676 0.2875414556
0.9971793799 0.5604632605 0.4129762984
0.9978820942 0.6913844621 0.5452609563
0.9983214006 0.8037991016 0.6778685002
0.9988613163 0.8870923028 0.7940155066
0.0000000000 0.0074970402 0.0000000000
0.0020216576 0.0226395775 0.0020216576
0.0051789612 0.0480394031 0.0051789612
0.0427304018 0.0640885659 0.0073980871
0.1536671184 0.0625484757 0.0187430383
0.2954861480 0.0518088147 0.0364998609
0.4275702450 0.0584823926 0.0530733749
0.5634071444 0.0754240735 0.0703284266
0.6960641932 0.0983300824 0.0875475750
0.8091276215 0.1342740047 0.1048207661
0.8918839339 0.2022248968 0.1282984149
0.9448523716 0.3088713088 0.1816682360
0.9819487468 0.4283428741 0.2872910500
0.9971793799 0.5612973209 0.4128870702
0.9978820942 0.6917136516 0.5452027036
0.9983214006 0.8039687432 0.6778242999
0.9988613163 0.8871534028 0.7939853871
0.0079902418 0.0662951819 0.0079902418
0.0103581100 0.0860421998 0.0103581100
0.0128234244 0.1071674927 0.0128234244
0.0166712161 0.1360676699 0.0166218647
0.1079926437 0.1475150769 0.0181014696
0.2699243931 0.1395641161 0.0333430824
0.4257271607 0.1136392864 0.0530733749
0.5684261931 0.0974406932 0.0708530906
0.7000641486 0.1095295438 0.0880977591
0.8111001197 0.1436541556 0.1050114165
0.8924156963 0.2102556661 0.1280081234
0.9450250204 0.3140768282 0.1811333346
0.9820099977 0.4311584283 0.2868148739
0.9971793799 0.5627889325 0.4126351021
0.9978820942 0.6924123115 0.5450247477
0.9983214006 0.8042702587 0.6777853586
0.9988613163 0.8872283381 0.7940131897
0.0216036077 0.1692148855 0.0216036077
0.0231267518 0.1829656811 0.0231267518
0.0249089031 0.1968161695 0.0249089031
0.0278682380 0.2175053294 0.0278682380
0.0345198612 0.2531799572 0.0325538100
0.2037659640 0.2607833437 0.0339732344
0.3967554094 0.2476258281 0.0499462826
0.5642881030 0.2093463004 0.0707855373
0.7043639727 0.1722153779 0.0888303371
0.8143846091 0.1757400339 0.1051300726
0.8935898808 0.2303893991 0.1275847268
0.9454432102 0.3250183279 0.1802213866
0.9821469113 0.4373057040 0.2860017885
0.9971793799 0.5660880602 0.4121510779
0.9978820942 0.6937936092 0.5447090922
0.9983214006 0.8048669118 0.6776475616
0.9988613163 0.8874379940 0.7939175713
0.0391906089 0.2994779106 0.0391906089
0.0404280853 0.3072665221 0.0404280853
0.0414834179 0.3150292651 0.0414834179
0.0435761316 0.3259094446 0.0435761316
0.0469753135 0.3472901304 0.0465474760
0.0647996269 0.3819241393 0.0526501034
0.3229369721 0.3870612287 0.0538564928
0.5326678352 0.3718820486 0.0694930175
0.6989637770 0.3309018376 0.0894744704
0.8167446522 0.2854795048 0.1060108300
0.8952756871 0.2859260178 0.1271600168
0.9460025500 0.3501038724 0.1785798370
0.9824370764 0.4502136915 0.2844010635
0.9971793799 0.5725502317 0.4111771437
0.9978820942 0.6970171824 0.5442012468
0.9983214006 0.8060805401 0.6773733447
0.9988613163 0.8878825347 0.7938218903
0.0623903510 0.4327091138 0.0623903510
0.0632746737 0.4366217652 0.0629656174
0.0640662983 0.4404538065 0.0635359424
0.0654176145 0.4457864326 0.0649697611
0.0680148512 0.4577543408 0.0672855883
0.0736438550 0.4809975047 0.0725803909
0.1200586638 0.5176050448 0.0817898447
0.4509891256 0.5218024497 0.0833362523
0.6686074602 0.5051938696 0.0947695232
0.8121640557 0.4620668135 0.1104553771
0.8964642765 0.4156086831 0.1297069638
0.9469519622 0.4134579994 0.1771986848
0.9829596965 0.4804484212 0.2815956475
0.9971793799 0.5871197649 0.4093905123
0.9978820942 0.7036143806 0.5430926903
0.9983214006 0.8085438752 0.6768781266
0.9988613163 0.8886306978 0.7936096763
0.1041143337 0.5730577033 0.0988118375
0.1048434715 0.5750179857 0.0993898561
0.1057675756 0.5769655844 0.0999950211
0.1068321656 0.5797566157 0.1010883837
0.1094395978 0.5850385190 0.1028868652
0.1151791263 0.5973853708 0.1072648194
0.1281053251 0.6207446896 0.1167003266
0.2185519264 0.6554510197 0.1324842749
0.5886442499 0.6590825622 0.1347126007
0.7878190809 0.6445051398 0.1364256398
0.8934206234 0.6056102031 0.1469942284
0.9474632709 0.5599292969 0.1845048671
0.9836245727 0.5543475118 0.2793446164
0.9972246142 0.6197994639 0.4062300163
0.9978327184 0.7174066486 0.5411995099
0.9983214006 0.8139963393 0.6756795235
0.9988613163 0.8903766828 0.7932066639
0.2011586777 0.7072287997 0.1624457947
0.2020054339 0.7080178798 0.1629189806
0.2029541598 0.7087896684 0.1633899146
0.2043075014 0.7099890451 0.1641025394
0.2068052932 0.7123968828 0.1656463825
0.2122731725 0.7171035466 0.1687682206
0.2254490018 0.7279897586 0.1761010062
0.2531779148 0.7483532102 0.1913027774
0.3696543315 0.7767438048 0.2153544951
0.7217805728 0.7802453645 0.2187285570
0.8763574480 0.7712095701 0.2139737411
0.9448839331 0.7423656329 0.2266805387
0.9836537693 0.7026495039 0.2911090652
0.9972246142 0.6939234172 0.4036663789
0.9978327184 0.7475541581 0.5378922757
0.9983214006 0.8250554697 0.6737852360
0.9988613163 0.8940825819 0.7921963150
0.3736863383 0.8169324942 0.2568693944
0.3743394596 0.8172584133 0.2571543256
0.3749280203 0.8175590786 0.2575359399
0.3758438304 0.8180178469 0.2580182319
0.3776609856 0.8188128114 0.2589965476
0.3811194604 0.8205886666 0.2610178423
0.3883503215 0.8241466434 0.2651280914
0.4061988144 0.8322676240 0.2748539674
0.4420396370 0.8473650126 0.2942942995
0.5559194309 0.8675272549 0.3225827412
0.8317426583 0.8714762697 0.3285176113
0.9333589888 0.8678514362 0.3257889094
0.9808136182 0.8495597466 0.3440020811
0.9972402722 0.8203433343 0.4163575170
0.9978327184 0.8103277592 0.5350770225
0.9983214006 0.8482861247 0.6703614069
0.9988613163 0.9014172238 0.7905137570
0.5788753586 0.8944064088 0.3664135349
0.5792010092 0.8944867990 0.3666013532
0.5795463715 0.8946293231 0.3667049036
0.5800028705 0.8947253255 0.3669772401
0.5809442785 0.8949896624 0.3674017719
0.5827473714 0.8955236872 0.3682714956
0.5863526811 0.8966116928 0.3703159599
0.5939385246 0.8989421260 0.3745290988
0.6125544435 0.9043556508 0.3848519652
0.6476759411 0.9141767118 0.4053587102
0.7352256505 0.9269748572 0.4362889132
0.9075525576 0.9307154808 0.4463667677
0.9714824538 0.9299989528 0.4475362229
0.9971880788 0.9198510968 0.4726715466
0.9978820942 0.9009341274 0.5485548344
0.9983214006 0.8930856684 0.6675328413
0.9987818121 0.9163763139 0.7878220398
0.7589426645 0.9437044500 0.4844783682
0.7590656170 0.9437098907 0.4846592314
0.7591628396 0.9437640472 0.4847045721
0.7593346225 0.9437990675 0.4848679486
0.7596134568 0.9438806149 0.4850442528
0.7602717284 0.9440254490 0.4857411632
0.7616330330 0.9443513365 0.4867530855
0.7644138004 0.9450819904 0.4890475752
0.7697555357 0.9465389754 0.4932482389
0.7831108545 0.9501035363 0.5050954598
0.8069766294 0.9567818522 0.5279713254
0.8594860798 0.9659581249 0.5618952062
0.9548307554 0.9696799542 0.5758274455
0.9960154019 0.9700475067 0.5812992583
0.9980961867 0.9630974075 0.6064403741
0.9983311230 0.9504924499 0.6805401737
0.9987818121 0.9441747968 0.7852386525
0.8747409637 0.9791382372 0.6115559374
0.8748314148 0.9791382372 0.6117382702
0.8748536835 0.9791483663 0.6116882989
0.8748951559 0.9791833802 0.6118147888
0.8750059991 0.9791938844 0.6119050495
0.8751681354 0.9792764172 0.6121269846
0.8755573377 0.9794202521 0.6127756747
0.8762997120 0.9797309362 0.6139037146
0.8777850235 0.9803006770 0.6160913962
0.8808068145 0.9815524563 0.6203857434
0.8884838326 0.9847408393 0.6326520875
0.9018885853 0.9903413610 0.6558330387
0.9299678032 0.9954767030 0.6892910094
0.9889828424 0.9966301102 0.7047005658
0.9984621946 0.9966485180 0.7111910919
0.9985602583 0.9941113276 0.7335604215
0.9988613163 0.9859122024 0.7953055095
0.9382945840 0.9979551594 0.7347231347
0.9382964541 0.9979551594 0.7347130833
0.9382964541 0.9979551594 0.7347130833
0.9382964541 0.9979551594 0.7347480446
0.9383614085 0.9979551594 0.7349059323
0.9383704472 0.9979551594 0.7349749185
0.9384706215 0.9979551594 0.7350945361
0.9387000188 0.9979619215 0.7355962933
0.9391310738 0.9980092558 0.7366301491
0.9399492991 0.9981180541 0.7385831750
0.9415979052 0.9982110333 0.7428704301
0.9459493839 0.9983422239 0.7535751849
0.9536485721 0.9985454684 0.7736082853
0.9703291696 0.9987929127 0.8015369232
0.9988115035 0.9988480012 0.8143428876
0.9989829039 0.9988585004 0.8185140697
0.9990357841 0.9989564930 0.8365835792
0.9772812794 0.9989546783 0.8353657018
0.9772795234 0.9989546783 0.8353657018
0.9772812794 0.9989546783 0.8353883916
0.9772812794 0.9989546783 0.8353883916
0.9772812794 0.9989546783 0.8353883916
0.9772812794 0.9989546783 0.8354212076
0.9773627428 0.9989546783 0.8355914754
0.9774065787 0.9989546783 0.8356909858
0.9775555206 0.9989546783 0.8360523361
0.9778851996 0.9989546783 0.8368801102
0.9784723130 0.9990418151 0.8383383253
0.9796161101 0.9990472885 0.8410841750
0.9830377820 0.9991278686 0.8491961487
0.9898832978 0.9992235511 0.8639406961
0.9977483354 0.9993758645 0.8841244896
0.9994513641 0.9994079771 0.8925305648
0.9994513641 0.9994079771 0.8959355777
0.9990193434 0.9994380826 0.9071005002
0.9990193434 0.9994380826 0.9071005002
0.9990193434 0.9994380826 0.9071005002
0.9990193434 0.9994380826 0.9071005002
0.9990193434 0.9994380826 0.9071005002
0.9990193434 0.9994380826 0.9071005002
0.9990193434 0.9994380826 0.9071005002
0.9990193434 0.9994380826 0.9071005002
0.9990193434 0.9994380826 0.9072993622
0.9990193434 0.9994380826 0.9075282790
0.9990193434 0.9994380826 0.9081066350
0.9991076581 0.9994380826 0.9091314284
0.9992019774 0.9994380826 0.9107077922
0.9994139231 0.9994856568 0.9162508045
0.9994909261 0.9995672845 0.9255829319
0.9998956149 0.9998803684 0.9380024174
0.9999653589 0.9999613267 0.9430880881
0.0000000000 0.0000000000 0.0000000000
0.0000000000 0.0000000000 0.0000000000
0.0020710090 0.0000000000 0.0013809646
0.0412999607 0.0043401118 0.0108015224
0.1426122711 0.0171647930 0.0201240028
0.2796985239 0.0347243350 0.0355137704
0.4160473024 0.0518121298 0.0519820138
0.5573456998 0.0710720759 0.0699707069
0.6929960597 0.0932399413 0.0879303771
0.8077835117 0.1273110734 0.1058926743
0.8914836012 0.1943930772 0.1306303173
0.9448021487 0.3034560228 0.1854321132
0.9819179971 0.4254986821 0.2901717436
0.9971793799 0.5594567204 0.4142586180
0.9978820942 0.6909188557 0.5460542335
0.9983214006 0.8036237699 0.6782184084
0.9988613163 0.8869448738 0.7941247132
0.0000000000 0.0000000000 0.0000000000
0.0006900444 0.0006900444 0.0041428937
0.0158326169 0.0021202979 0.0136128030
0.0748861609 0.0089270434 0.0178054860
0.1746720663 0.0212094217 0.0234250383
0.2997211222 0.0372893588 0.0372893588
0.4255051522 0.0531154081 0.0530733749
0.5613855953 0.0721095820 0.0704973099
0.6947881351 0.0944959323 0.0879864213
0.8085136929 0.1291124948 0.1058926743
0.8917125896 0.1966161447 0.1304741941
0.9448741640 0.3051407951 0.1852198483
0.9819179971 0.4264433561 0.2900354706
