bundles/resolve-cinematic-luts/Phantom Luts/P4k & P6k Phntm Arri LUTs - V6/P4K/Gen 4 Colour/Standard (No WB Offset)/P4k Neutral Gen4.cube
TITLE "Generated by Resolve"
LUT_3D_SIZE 9
0 0 0
0.0847639 0.000427253 0.00601205
0.227756 0.00457771 0.0201419
0.4168 0.0124056 0.0490883
0.612299 0.0365759 0.0981918
0.838987 0.0583505 0.147875
0.968093 0.097322 0.192233
0.968078 0.110506 0.211383
0.968338 0.113649 0.222293
0 0.0836347 0.027924
0.0555734 0.0767834 0
0.191989 0.0765698 0.0129091
0.373007 0.0610819 0.0227359
0.569131 0.0575875 0.0409705
0.794446 0.0734264 0.0717174
0.97612 0.101366 0.12578
0.976883 0.11078 0.142123
0.976532 0.117342 0.152163
0 0.238422 0.0805219
0 0.240726 0
0.171603 0.238331 0
0.391867 0.228183 0.00596628
0.588861 0.20531 0.0483406
0.787823 0.207172 0.076997
0.951095 0.218555 0.105333
0.966873 0.210758 0.106645
0.966873 0.201617 0.105303
0 0.433066 0.159838
0 0.446754 0.0778668
0.00769055 0.44155 0
0.341009 0.44329 0
0.582513 0.446754 0.00187686
0.783719 0.437766 0.0760357
0.939269 0.43592 0.133043
0.969497 0.43299 0.143618
0.969696 0.427558 0.143648
0 0.629923 0.318807
0 0.641276 0.252689
0 0.652079 0.133913
0.147021 0.650233 0
0.53959 0.648127 0.0332952
0.758465 0.650706 0.0644846
0.927733 0.644495 0.140551
0.961166 0.654566 0.16379
0.961135 0.65214 0.162905
0.0247044 0.82266 0.481773
0.0160983 0.829221 0.444862
0 0.843809 0.364569
0.00354009 0.846632 0.183841
0.384497 0.841215 0.0818036
0.719219 0.838849 0.110063
0.899626 0.837095 0.210101
0.96144 0.83827 0.313268
0.961318 0.837873 0.303593
0.0739605 0.951583 0.612879
0.0689097 0.954437 0.587625
0.0572213 0.960784 0.537255
0.0538796 0.966903 0.434272
0.163073 0.970947 0.208774
0.61178 0.959686 0.209522
0.87834 0.963119 0.260197
0.969848 0.958297 0.486549
0.969879 0.958358 0.489418
0.0888838 0.958419 0.660533
0.0844739 0.959014 0.638163
0.0747692 0.960662 0.595361
0.0750286 0.965621 0.51725
0.131151 0.974166 0.377615
0.551324 0.964721 0.358343
0.841398 0.964019 0.367468
0.970764 0.970642 0.525582
0.97174 0.971038 0.567941
0.0962692 0.958175 0.678538
0.0924239 0.958633 0.657404
0.084062 0.960037 0.617548
0.0740063 0.964431 0.533165
0.118273 0.97348 0.396414
0.518837 0.965988 0.360037
0.822019 0.96289 0.366567
0.964218 0.970291 0.507622
0.97174 0.971038 0.568261
0.0189364 0 0.0740215
0.0941176 0 0.0756085
0.248905 0 0.111315
0.434745 0 0.139956
0.621302 0.0075227 0.17528
0.842054 0.034165 0.226917
0.964477 0.0691691 0.270054
0.965637 0.0763867 0.288014
0.966354 0.0814069 0.299596
0 0.0565957 0.0534371
0.0473335 0.0473335 0.0473335
0.223682 0.0297704 0.0422217
0.400931 0.0150149 0.049485
0.599649 0.0360266 0.095552
0.826383 0.0584573 0.145953
0.968277 0.0975204 0.191821
0.968154 0.111574 0.211246
0.968444 0.114687 0.222232
0 0.20914 0.130922
0 0.215259 0.074876
0.165057 0.222416 0
0.40914 0.190585 0.0299535
0.597742 0.172381 0.0576181
0.79855 0.169436 0.0834211
0.962097 0.175753 0.108446
0.971054 0.162707 0.109483
0.97232 0.155276 0.111833
0 0.407248 0.217288
0 0.417777 0.153201
0 0.431815 0.000503548
0.333318 0.432395 0
0.596201 0.424689 0.0150912
0.790509 0.415366 0.0872053
0.946334 0.410925 0.139925
0.970626 0.406455 0.146593
0.970489 0.400061 0.145678
0 0.611978 0.361852
0 0.619928 0.311254
0 0.641001 0.186114
0.103624 0.644892 0
0.5337 0.640711 0.0347601
0.765942 0.638621 0.0689555
0.931304 0.634104 0.147967
0.96112 0.6421 0.167391
0.961196 0.639368 0.164401
0.0304723 0.809583 0.508415
0.0240635 0.81503 0.476616
0.00753796 0.827665 0.407797
0 0.839643 0.230045
0.363241 0.836988 0.0844892
0.714229 0.833387 0.110323
0.900847 0.830488 0.217945
0.961364 0.830808 0.3196
0.961395 0.830045 0.312184
0.0773022 0.945068 0.631159
0.073228 0.947555 0.608301
0.0638895 0.953201 0.56318
0.0484474 0.963561 0.456825
0.113771 0.96968 0.224231
0.598215 0.958541 0.205814
0.874449 0.960983 0.250233
0.969482 0.955306 0.483024
0.969512 0.955062 0.487083
0.0935378 0.958007 0.680446
0.0896315 0.958465 0.659861
0.0817426 0.959762 0.621118
0.0711986 0.963989 0.537331
0.111604 0.973236 0.399832
0.523247 0.965957 0.362585
0.829725 0.963409 0.368612
0.968551 0.970535 0.520226
0.971756 0.971054 0.569238
0.100664 0.957763 0.697383
0.0969406 0.958221 0.677943
0.0900587 0.959091 0.641352
0.0729229 0.962844 0.555901
0.103777 0.972473 0.420722
0.491722 0.967544 0.363836
0.809018 0.962188 0.368917
0.960449 0.970108 0.49926
0.971756 0.971054 0.569833
0.0531014 0 0.216846
0.138552 0 0.200763
0.26009 0 0.209384
0.447944 0 0.259434
0.644083 0.00460822 0.292607
0.85156 0.0103609 0.343404
0.961151 0.040589 0.379675
0.96228 0.0470893 0.394339
0.96318 0.0515297 0.403845
0 0.0303655 0.1608
0.0559854 0 0.197284
0.223545 0 0.179568
0.426749 0 0.200305
0.621988 0.00421149 0.235569
0.838392 0.0236362 0.279042
0.963821 0.0613565 0.322133
0.964935 0.0682689 0.338064
0.965698 0.072755 0.348165
0 0.192264 0.181537
0 0.185382 0.175219
0.188312 0.188312 0.188312
0.433219 0.161471 0.178515
0.658625 0.120027 0.166079
0.850324 0.105776 0.179782
0.969268 0.118715 0.205539
0.968414 0.115892 0.213367
0.968719 0.118654 0.223804
0 0.385733 0.274693
0 0.383352 0.247196
0 0.399908 0.153033
0.337148 0.41706 0.0711986
0.61651 0.386084 0.114549
0.820874 0.359854 0.142245
0.968826 0.363516 0.174182
0.97145 0.357763 0.174289
0.971679 0.351202 0.173083
0 0.590478 0.407095
0 0.591959 0.379919
0 0.603464 0.299519
0 0.63679 0.0539712
0.52433 0.628489 0.0432288
0.781292 0.615702 0.0995499
0.937942 0.614374 0.17908
0.960739 0.617517 0.194827
0.960815 0.613855 0.193637
0.0370947 0.790555 0.541772
0.0332341 0.793393 0.519875
0.023209 0.802029 0.468254
0 0.826505 0.306905
0.318975 0.831586 0.0928969
0.706569 0.824659 0.113283
0.904524 0.818692 0.234318
0.961181 0.817792 0.332158
0.961242 0.816098 0.327733
0.0824445 0.934813 0.658488
0.0790112 0.936721 0.638727
0.0720226 0.940932 0.600641
0.0489967 0.954269 0.500923
0.0794995 0.965698 0.283009
0.572961 0.956252 0.199863
0.868589 0.957504 0.241337
0.968902 0.950332 0.478401
0.968948 0.949508 0.484718
0.10042 0.957427 0.70956
0.097261 0.95787 0.692348
0.0909285 0.958541 0.658824
0.0725719 0.961532 0.577371
0.0965133 0.971359 0.441901
0.481437 0.968231 0.368551
0.811612 0.96231 0.371649
0.964538 0.970352 0.51104
0.971756 0.971069 0.570932
0.107179 0.957412 0.723934
0.104036 0.95758 0.708278
0.0981918 0.958297 0.676951
0.0826734 0.960739 0.601404
0.0928359 0.970092 0.462684
0.449638 0.969772 0.36994
0.785519 0.961975 0.373907
0.953613 0.96994 0.485161
0.971786 0.971084 0.572351
0.110262 0 0.40145
0.198932 0 0.387304
0.301579 0 0.373404
0.459495 0 0.390158
0.655116 0.00357061 0.453101
0.873899 0.00967422 0.486244
0.958877 0.0173648 0.52604
0.959319 0.0183413 0.537224
0.959579 0.0192569 0.54345
0 0.00277714 0.355352
0.11104 0 0.387243
0.262531 0 0.369406
0.437659 0 0.369909
0.640208 0.00370794 0.42063
0.860548 0.0105287 0.448508
0.958846 0.0197299 0.486442
0.95903 0.0205844 0.496635
0.959258 0.0214237 0.503014
0 0.150027 0.331548
0 0.128374 0.347326
0.198016 0.0924849 0.41088
0.438453 0.0750286 0.381125
0.638361 0.0383612 0.375341
0.837659 0.0119478 0.387579
0.961898 0.0431983 0.41532
0.963424 0.0517433 0.427939
0.964126 0.05626 0.435737
0 0.366949 0.349706
0 0.361608 0.344762
0 0.359152 0.343099
0.36939 0.36939 0.36939
0.624949 0.340169 0.361349
0.86453 0.300389 0.34876
0.96672 0.271901 0.336751
0.96762 0.258534 0.335882
0.968246 0.249805 0.335363
0 0.572229 0.465644
0 0.569223 0.452369
0 0.56585 0.422629
0.0730144 0.592004 0.342229
0.520668 0.598779 0.257374
0.795224 0.575433 0.285267
0.957168 0.57406 0.28542
0.958129 0.571374 0.294835
0.958099 0.565896 0.294972
0.0456855 0.767163 0.586313
0.0445106 0.766461 0.573709
0.0413214 0.767254 0.547051
0.0252842 0.780575 0.456962
0.164355 0.83032 0.19408
0.695735 0.810132 0.151141
0.917479 0.793347 0.284871
0.959777 0.793301 0.361929
0.959579 0.789502 0.361685
0.0905318 0.918151 0.694865
0.0884871 0.918639 0.681849
0.0839857 0.920439 0.65684
0.0713512 0.92842 0.588174
0.0619516 0.954299 0.401144
0.530358 0.950851 0.239887
0.857084 0.950454 0.226871
0.967895 0.940078 0.476173
0.967819 0.937774 0.484703
0.111482 0.957137 0.75169
0.109041 0.957214 0.73962
0.104479 0.957427 0.716762
0.0934157 0.958663 0.657252
0.0798962 0.966064 0.514427
0.400595 0.971801 0.38352
0.774853 0.961898 0.380682
0.95642 0.970108 0.493935
0.971801 0.97113 0.574472
0.117754 0.956756 0.764263
0.115694 0.95729 0.752316
0.111254 0.957427 0.730388
0.100649 0.958404 0.675319
0.0775616 0.964675 0.532555
0.358846 0.972854 0.390051
0.745754 0.961791 0.38352
0.939544 0.969268 0.459358
0.971832 0.971145 0.577005
0.191974 0 0.581262
0.274754 0 0.57113
0.383124 0.00154116 0.560845
0.492348 0 0.55172
0.669642 0.00460822 0.581506
0.880659 0.00817884 0.647776
0.960967 0.0145571 0.672602
0.961349 0.0153658 0.683803
0.961593 0.0159152 0.690242
0.0493935 0 0.558923
0.18706 0 0.570855
0.339834 1.5259e-05 0.562173
0.469322 0.00749218 0.544671
0.653635 0.00434882 0.567391
0.868208 0.00819409 0.630076
0.960678 0.0155337 0.648981
0.961044 0.016495 0.658534
0.961303 0.0172885 0.664271
0 0.0637522 0.504768
0 0.0215305 0.522988
0.208865 0 0.565408
0.42385 0.00538643 0.535576
0.626932 0.00411994 0.544121
0.849042 0.0087892 0.5935
0.960327 0.0174411 0.606439
0.960678 0.0190433 0.613092
0.960922 0.0199588 0.617517
0 0.320226 0.503243
0 0.305364 0.510689
0 0.273457 0.537758
0.388037 0.253437 0.592752
0.638972 0.231342 0.577356
0.881331 0.171252 0.58027
0.972381 0.128466 0.585199
0.972076 0.119463 0.580591
0.971771 0.1122 0.578317
0 0.554559 0.535988
0 0.551095 0.532494
0 0.545434 0.527047
0.132921 0.552468 0.537423
0.541833 0.541833 0.541833
0.78851 0.524208 0.541878
0.953323 0.506081 0.537835
0.954238 0.488121 0.527535
0.955261 0.476448 0.521111
0.0512093 0.74609 0.640757
0.0515602 0.743511 0.633829
0.0525673 0.739757 0.62092
0.0544289 0.73463 0.586572
0.328466 0.760861 0.543862
0.685374 0.760754 0.477272
0.911986 0.747539 0.507683
0.955779 0.747539 0.487129
0.955566 0.74078 0.479179
0.103243 0.899947 0.740047
0.102617 0.898955 0.732235
0.101472 0.897841 0.718456
0.0974441 0.897276 0.68545
0.0914626 0.917708 0.590188
0.465293 0.941695 0.455726
0.849012 0.93344 0.420783
0.966735 0.923537 0.523522
0.966339 0.919615 0.516869
0.130266 0.954437 0.80766
0.129122 0.954742 0.800366
0.127001 0.955459 0.786297
0.121813 0.957321 0.753094
0.104295 0.95903 0.6598
0.262318 0.973205 0.466255
0.721569 0.962127 0.406317
0.946807 0.969665 0.480476
0.971923 0.971267 0.586374
0.1355 0.95433 0.816632
0.13431 0.954543 0.809583
0.13225 0.955093 0.79588
0.127169 0.957092 0.763699
0.10985 0.958556 0.67628
0.166018 0.972045 0.465675
0.672618 0.962753 0.405875
0.918761 0.968261 0.432059
0.971923 0.971283 0.587594
0.30573 0 0.75584
0.371618 0 0.747784
0.463844 0.000198367 0.743847
0.56643 0.00456245 0.730556
0.697337 0.00268559 0.742565
0.891554 0.0105287 0.780957
0.963821 0.0141299 0.817227
0.964172 0.0152743 0.823697
0.964416 0.0160525 0.829755
0.197147 0 0.743297
0.30045 0 0.747326
0.421454 0 0.74168
0.544259 0.00369268 0.727169
0.679667 0.00218204 0.734051
0.879881 0.0103609 0.768994
0.963729 0.0137484 0.816251
0.964019 0.0150607 0.818662
0.964218 0.0160372 0.820401
0 0 0.699016
0.0819104 0 0.716731
0.317754 0 0.739651
0.499565 0.00170901 0.725765
0.648646 0.00128176 0.720363
0.860304 0.0102541 0.749096
0.963363 0.0135195 0.801266
0.963775 0.0146792 0.810575
0.963973 0.0153353 0.814343
0 0.237797 0.666499
0 0.21503 0.675792
0 0.163912 0.703899
0.408743 0.087953 0.781201
0.634226 0.0772869 0.751675
0.844892 0.0343633 0.737057
0.96318 0.0174105 0.758694
0.963119 0.0176089 0.75407
0.963119 0.0175479 0.754162
0 0.521187 0.674479
0 0.513375 0.678309
0 0.498939 0.685527
0.140871 0.484047 0.733562
0.56791 0.45893 0.753582
0.800168 0.443656 0.735439
0.958282 0.408301 0.737652
0.959609 0.383261 0.733974
0.960571 0.367758 0.730358
0.0489052 0.726818 0.705821
0.0492256 0.724254 0.703334
0.0499428 0.720241 0.699611
0.0519265 0.7122 0.691859
0.388891 0.717357 0.703563
0.700984 0.700984 0.700984
0.904845 0.691386 0.705913
0.950912 0.683696 0.706615
0.950896 0.676188 0.702052
0.110369 0.881773 0.790875
0.110552 0.879973 0.786267
0.11104 0.877317 0.778347
0.115984 0.872602 0.761501
0.186862 0.877745 0.735317
0.561624 0.887358 0.715663
0.838361 0.89099 0.667247
0.964263 0.887434 0.695201
0.963684 0.882567 0.690379
0.155383 0.954376 0.859281
0.155032 0.95436 0.855161
0.154345 0.954314 0.848234
0.152544 0.95433 0.833463
0.147066 0.955657 0.796338
0.412406 0.963653 0.744717
0.687938 0.971756 0.680842
0.940932 0.971054 0.650202
0.972824 0.972457 0.693187
0.160876 0.954604 0.867033
0.160372 0.954559 0.862562
0.159457 0.954482 0.855009
0.157336 0.954421 0.839246
0.151247 0.955352 0.80174
0.319966 0.961776 0.73048
0.633463 0.972198 0.665461
0.902068 0.969177 0.618738
0.97258 0.972137 0.667063
0.426947 0 0.902815
0.469734 0 0.897826
0.544549 3.0518e-05 0.897215
0.642481 0.00215152 0.890669
0.761959 0 0.891173
0.905699 0.0123598 0.912139
0.966781 0.0173495 0.935393
0.967147 0.0186923 0.947646
0.967422 0.0197452 0.953933
0.35613 0 0.89604
0.421057 0 0.896864
0.508278 0 0.894606
0.618662 0.00154116 0.888594
0.74403 0 0.885588
0.894682 0.0118105 0.90634
0.966613 0.0172122 0.92871
0.967041 0.0186313 0.940078
0.967224 0.019501 0.945861
0.136797 0 0.867414
0.272465 0 0.878508
0.427176 0 0.890517
0.574044 0.000503548 0.887144
0.713497 0 0.877607
0.874113 0.0108339 0.896117
0.966323 0.0170748 0.916716
0.966796 0.0185397 0.926558
0.96701 0.0194553 0.931472
0.00422675 0.121569 0.818311
0.0137636 0.090074 0.83061
0.0420844 0.0122683 0.850645
0.448997 0 0.889342
0.648936 0 0.86862
0.830823 0.00936904 0.876783
0.965743 0.0168154 0.892576
0.966171 0.0186465 0.895598
0.966354 0.0195926 0.89836
0 0.471138 0.81619
0 0.460456 0.822782
0 0.440284 0.83563
0.186831 0.410239 0.891203
0.608911 0.356237 0.920333
0.824262 0.338598 0.906874
0.964599 0.291279 0.902083
0.967041 0.253452 0.896666
0.967361 0.246967 0.889708
0.0251621 0.701793 0.820386
0.0243687 0.697017 0.822309
0.0232853 0.688396 0.826307
0.0592966 0.670222 0.842206
0.407965 0.666896 0.871885
0.727947 0.640772 0.874205
0.908339 0.632807 0.862486
0.95169 0.617365 0.865019
0.951553 0.608759 0.861952
0.10869 0.865843 0.84596
0.108827 0.863981 0.844236
0.109148 0.861128 0.841016
0.114763 0.856138 0.836225
0.197604 0.857435 0.838117
0.607324 0.853056 0.843137
0.843427 0.843427 0.843427
0.958389 0.841215 0.851179
0.958251 0.835706 0.848829
0.194537 0.954223 0.902419
0.197543 0.953246 0.899825
0.202991 0.951598 0.895552
0.214603 0.948486 0.886397
0.236835 0.943206 0.867994
0.529335 0.951568 0.874098
0.756283 0.954925 0.866423
0.936141 0.959625 0.833204
0.971756 0.95494 0.855161
0.231952 0.958465 0.913985
0.234379 0.958572 0.91194
0.238224 0.958633 0.908248
0.242817 0.958267 0.90016
0.245808 0.957855 0.881865
0.452033 0.961791 0.873091
0.700496 0.967727 0.870497
0.878447 0.971496 0.833448
0.974029 0.973953 0.850126
0.523766 0 0.961913
0.558221 0 0.962341
0.617044 0.000350958 0.96202
0.703532 0.00202945 0.957839
0.819684 0 0.957336
0.93254 0.0112001 0.964691
0.967971 0.0214847 0.967971
0.968078 0.0222782 0.968078
0.968139 0.0227054 0.968139
0.478294 0 0.961547
0.522301 0 0.961898
0.588312 4.57771e-05 0.962661
0.682567 0.0016022 0.958892
0.804395 0 0.956664
0.923949 0.0105287 0.96408
0.967987 0.0215915 0.967987
0.968109 0.0224918 0.968109
0.96817 0.0229496 0.96817
0.33518 0 0.949142
0.426734 0 0.959075
0.527184 0 0.962005
0.6439 0.000808728 0.960815
0.776547 0 0.955993
0.908797 0.00979629 0.963165
0.968002 0.0217288 0.968002
0.968154 0.022858 0.968154
0.968215 0.0233616 0.968231
0.116747 0.0158236 0.922866
0.141512 0 0.92694
0.244236 0 0.942184
0.540887 0 0.962203
0.71252 0 0.957092
0.874022 0.00862135 0.961196
0.967987 0.0215763 0.967987
0.968246 0.0235294 0.968246
0.968322 0.024155 0.968322
0.0529335 0.425544 0.92372
0.064683 0.411612 0.930495
0.0884565 0.385504 0.940154
0.329747 0.329656 0.965148
0.660807 0.265583 0.968475
0.86392 0.235691 0.968704
0.969741 0.201434 0.969741
0.971252 0.174868 0.971252
0.971695 0.168017 0.971695
0.0591592 0.672053 0.911192
0.0614939 0.666529 0.914183
0.068101 0.657465 0.919997
0.140322 0.640314 0.935302
0.474449 0.626932 0.955657
0.780026 0.590936 0.953841
0.925399 0.581781 0.95198
0.951873 0.570077 0.951873
0.952071 0.560876 0.952071
0.100252 0.850355 0.915068
0.0995499 0.847395 0.915602
0.103853 0.842344 0.917205
0.135561 0.833631 0.923842
0.320958 0.823896 0.939391
0.631449 0.819745 0.940337
0.865309 0.802213 0.942596
0.957137 0.799619 0.938689
0.956664 0.792691 0.935225
0.228565 0.945907 0.932708
0.230671 0.944732 0.93138
0.234607 0.942901 0.929244
0.244999 0.939544 0.925643
0.267582 0.933608 0.919127
0.548791 0.940215 0.929656
0.790539 0.937407 0.932509
0.933684 0.933684 0.933684
0.968231 0.932433 0.935775
0.307927 0.959792 0.947692
0.310948 0.959838 0.945953
0.315999 0.95996 0.943252
0.326299 0.960006 0.938079
0.345907 0.960433 0.929931
0.518181 0.9635 0.933242
0.75642 0.968948 0.941421
0.896834 0.972335 0.943374
0.975052 0.974868 0.937484
0.541726 0 0.962219
0.573709 0 0.962615
0.628153 0.000518807 0.961501
0.712474 0 0.956954
0.827497 0 0.957595
0.938796 0.0111543 0.965026
0.967849 0.0204929 0.967849
0.968124 0.0226291 0.968124
0.96817 0.0230106 0.96817
0.501671 0 0.96173
0.540413 0 0.962203
0.600488 0.000137331 0.962432
0.692134 0.00180056 0.958465
0.812497 0 0.957015
0.929717 0.0104372 0.96437
0.96788 0.0207065 0.96788
0.968154 0.0228122 0.968154
0.9682 0.0232242 0.9682
0.383352 0 0.953826
0.461067 0 0.961318
0.543618 0 0.96228
0.654047 0.0010071 0.960342
0.784558 0 0.956191
0.914046 0.00959792 0.963439
0.967926 0.021088 0.967926
0.968185 0.0231174 0.968185
0.968246 0.0235752 0.968246
0.165347 0 0.943252
0.185412 0 0.941909
0.312337 0 0.947921
0.560937 0 0.962402
0.723003 0 0.956695
0.880064 0.0083772 0.96144
0.967971 0.0214389 0.967971
0.968261 0.0236667 0.968261
0.968338 0.0242466 0.968338
0.152117 0.38996 0.963119
0.152148 0.373648 0.963638
0.152255 0.342336 0.963684
0.329732 0.272953 0.966476
0.659983 0.207736 0.970443
0.861143 0.182376 0.971649
0.972457 0.154788 0.972457
0.97348 0.117968 0.97348
0.973587 0.11133 0.973587
0.169802 0.658549 0.95668
0.168963 0.652384 0.956909
0.167269 0.641474 0.957107
0.201556 0.619547 0.957382
0.472374 0.602075 0.956481
0.780087 0.56434 0.954574
0.92668 0.554025 0.952285
0.952514 0.541497 0.952514
0.952667 0.531685 0.952667
0.206668 0.837674 0.957671
0.205447 0.834348 0.957519
0.203983 0.828794 0.957702
0.24181 0.817548 0.957534
0.377188 0.803677 0.955245
0.64239 0.799329 0.953323
0.878767 0.77641 0.954955
0.955962 0.774304 0.955962
0.955474 0.767178 0.955474
0.248524 0.939269 0.956374
0.259266 0.93785 0.956741
0.277455 0.935515 0.957214
0.312093 0.930571 0.958358
0.36611 0.921263 0.959381
0.579461 0.926146 0.962829
0.802823 0.922148 0.963775
0.942306 0.914992 0.965805
0.966644 0.913725 0.966644
0.330694 0.960082 0.958068
0.335409 0.960204 0.958221
0.343313 0.960357 0.958419
0.357656 0.960494 0.958633
0.381704 0.961044 0.959335
0.52752 0.963928 0.962951
0.759594 0.96936 0.96907
0.910216 0.972854 0.972824
0.97554 0.97554 0.97554
