bundles/resolve-cinematic-luts/Phantom Luts/P4k & P6k Phntm Arri LUTs - V6/P4K/Gen 4 Colour/Standard (No WB Offset)/P4k Tungsten Gen4.cube
TITLE "Generated by Resolve"
LUT_3D_SIZE 9
0 0 0.0062562
0.0457313 0.000976577 0.0127871
0.1906 0.00665293 0.0332341
0.391287 0.019791 0.0704662
0.58584 0.0513313 0.126177
0.744701 0.107576 0.195315
0.814542 0.161486 0.247852
0.823575 0.169085 0.261646
0.828504 0.17232 0.270619
0.0104524 0.0790875 0.0504768
0.0239414 0.075639 0.0175479
0.173587 0.0782025 0.0274968
0.364034 0.0674144 0.044007
0.557397 0.0706951 0.0725261
0.722515 0.110582 0.143084
0.803067 0.162554 0.206928
0.811902 0.170764 0.218585
0.81825 0.176425 0.227161
0.00430304 0.214206 0.103426
0 0.219104 0.0250553
0.148013 0.219364 0.00103761
0.394629 0.221012 0.0158389
0.60618 0.210407 0.0777752
0.770352 0.226169 0.140551
0.845029 0.258427 0.199741
0.842008 0.249821 0.199222
0.841932 0.248936 0.199939
0 0.366217 0.145876
0 0.370245 0.0794842
0 0.364248 0
0.333349 0.380835 0
0.606943 0.412695 0.0209201
0.794736 0.430243 0.130327
0.91519 0.450431 0.230488
0.921599 0.448554 0.236896
0.922911 0.454154 0.237751
0 0.531563 0.278035
0 0.532967 0.233127
0 0.535851 0.116777
0.0547799 0.530602 0
0.53959 0.559487 0.00460822
0.794446 0.599115 0.134905
0.911086 0.636759 0.229191
0.92697 0.647578 0.245716
0.928573 0.655222 0.249622
0.0210269 0.696391 0.440162
0.0167391 0.697124 0.421714
0.00468452 0.695674 0.363958
0 0.683192 0.21648
0.289708 0.691356 0.0242161
0.726955 0.736751 0.143252
0.926833 0.779416 0.301656
0.967163 0.798001 0.368414
0.967315 0.803098 0.371313
0.117937 0.802167 0.574411
0.114305 0.800626 0.563638
0.100679 0.793469 0.525689
0.0823377 0.781613 0.441855
0.108293 0.768017 0.246998
0.527916 0.789548 0.165087
0.876036 0.849104 0.320027
0.95378 0.881285 0.4981
0.953399 0.88275 0.502831
0.138155 0.81503 0.614588
0.131655 0.811261 0.599771
0.115541 0.802106 0.560357
0.0909743 0.787213 0.475959
0.098909 0.776699 0.326543
0.46125 0.78381 0.217975
0.851301 0.845823 0.336141
0.953368 0.886275 0.527489
0.953506 0.888289 0.536568
0.147951 0.820508 0.63473
0.138064 0.814969 0.612573
0.119188 0.804181 0.567529
0.0911727 0.787198 0.47332
0.114961 0.778775 0.310857
0.498589 0.786847 0.220371
0.86276 0.84889 0.34667
0.953506 0.885893 0.524819
0.95346 0.888457 0.537118
0.00143435 0.00334173 0.0724498
0.0555886 0.00421149 0.0683299
0.194034 0.0103609 0.104768
0.394156 0.0151827 0.142794
0.579644 0.0307317 0.183825
0.743694 0.087541 0.245014
0.808316 0.135958 0.290181
0.815778 0.141711 0.304326
0.820981 0.145632 0.314611
0.00706493 0.0615549 0.0673533
0.0107881 0.0539406 0.0633249
0.194629 0.0420996 0.067277
0.386175 0.0290532 0.0778821
0.578439 0.0521553 0.125521
0.741558 0.105959 0.19443
0.816281 0.163317 0.249256
0.825528 0.171115 0.263416
0.829877 0.173754 0.271962
0.00875868 0.196796 0.143969
0.00738537 0.195789 0.117021
0.123781 0.210498 0.00846876
0.412619 0.192737 0.0528267
0.614221 0.180789 0.0937209
0.765957 0.193423 0.150683
0.829801 0.219196 0.201862
0.826215 0.209827 0.202777
0.827497 0.209842 0.205493
0 0.356435 0.2047
0 0.357061 0.160983
0 0.359487 0.00103761
0.326299 0.37348 0
0.613291 0.400443 0.0326848
0.80705 0.412314 0.146639
0.917952 0.432303 0.237919
0.920226 0.427939 0.240558
0.922179 0.433265 0.242329
0 0.527642 0.323033
0 0.52752 0.289525
0 0.529381 0.17145
0.0128023 0.527611 0
0.534676 0.554528 0.00418097
0.799985 0.595056 0.140246
0.916686 0.632059 0.235416
0.928191 0.64036 0.247562
0.929412 0.647959 0.250904
0.0273594 0.695232 0.465446
0.0235447 0.696406 0.449714
0.0103151 0.694545 0.396765
0 0.684535 0.250584
0.265492 0.689189 0.0268864
0.723918 0.734295 0.141451
0.929747 0.777859 0.307179
0.966995 0.795575 0.372442
0.9673 0.800885 0.376272
0.124773 0.805081 0.592645
0.121462 0.804105 0.58262
0.108568 0.797559 0.547387
0.0847028 0.783642 0.461219
0.0942397 0.767819 0.27158
0.514656 0.78819 0.16289
0.874311 0.84828 0.31632
0.953735 0.8813 0.497292
0.953429 0.882673 0.502235
0.146822 0.819883 0.63357
0.140658 0.816388 0.619638
0.124712 0.807263 0.582559
0.0948501 0.789883 0.495857
0.0915999 0.77705 0.348653
0.437842 0.782269 0.220615
0.843366 0.84387 0.33135
0.953109 0.885496 0.523339
0.953567 0.888502 0.537758
0.156603 0.825315 0.652583
0.14696 0.819867 0.631937
0.129015 0.809674 0.590829
0.0949874 0.789883 0.494224
0.0980392 0.777462 0.334936
0.471031 0.784222 0.222721
0.852232 0.846296 0.339803
0.953414 0.885161 0.520348
0.953506 0.888716 0.538613
0.0107424 0.0105745 0.198535
0.0958267 0.00852979 0.195773
0.203647 0.0115358 0.186099
0.38938 0.0200656 0.237003
0.579232 0.0340429 0.27808
0.735271 0.0664683 0.322087
0.798383 0.111559 0.358144
0.804303 0.117113 0.37023
0.807904 0.120134 0.380713
0 0.0459602 0.149172
0 0.0164492 0.17232
0.174044 0.0126955 0.169909
0.374197 0.0187991 0.190555
0.570459 0.0307469 0.232425
0.741588 0.0790265 0.280476
0.809415 0.129229 0.322805
0.815793 0.134539 0.33579
0.820218 0.137926 0.346334
0.00814832 0.189014 0.185962
0.00784314 0.184756 0.183139
0.159213 0.191211 0.197498
0.434821 0.169833 0.198886
0.660853 0.136431 0.197055
0.779675 0.146166 0.224521
0.826276 0.17557 0.256886
0.828397 0.175601 0.263828
0.832776 0.178408 0.272038
0 0.352041 0.265263
0 0.348424 0.246601
0 0.345098 0.16379
0.329702 0.373312 0.0503548
0.633631 0.378805 0.124834
0.841871 0.371283 0.200397
0.92253 0.394415 0.259968
0.920729 0.38764 0.259632
0.923476 0.393027 0.262608
0 0.52369 0.373083
0 0.522789 0.355901
0 0.517159 0.280888
0 0.523339 0.0306096
0.525475 0.546181 0.00740063
0.808164 0.587716 0.15816
0.930678 0.620066 0.254719
0.935576 0.623636 0.261418
0.93698 0.631479 0.266239
0.0365606 0.693019 0.498924
0.0341192 0.694591 0.488884
0.0215915 0.692531 0.44651
0 0.685267 0.309514
0.199481 0.68629 0.0418402
0.717632 0.729229 0.138018
0.93431 0.773831 0.317021
0.966506 0.790585 0.379583
0.96701 0.795575 0.384161
0.135241 0.809537 0.618784
0.133135 0.809674 0.610849
0.121386 0.804318 0.579843
0.0905776 0.787396 0.493141
0.0814679 0.769406 0.313954
0.490455 0.785702 0.158495
0.87071 0.846708 0.308446
0.954238 0.879881 0.494652
0.953979 0.881025 0.499229
0.160494 0.827512 0.661433
0.155047 0.824475 0.650034
0.140429 0.816159 0.618006
0.107362 0.79736 0.536492
0.0859083 0.779065 0.38854
0.39498 0.780331 0.227375
0.824414 0.839185 0.32079
0.95288 0.884184 0.515709
0.953643 0.888884 0.540124
0.170611 0.833234 0.679561
0.162829 0.82884 0.664302
0.146059 0.819272 0.62884
0.109468 0.798413 0.540047
0.0867781 0.778714 0.381186
0.415595 0.78088 0.229572
0.829267 0.840589 0.326436
0.953338 0.884062 0.513191
0.953582 0.88925 0.541222
0.0505684 0.0222171 0.372335
0.131868 0.0184329 0.370687
0.245838 0.0155947 0.348196
0.400046 0.0202487 0.348882
0.580667 0.0342718 0.405142
0.741878 0.0693217 0.424048
0.778805 0.0895552 0.448524
0.779263 0.0902419 0.455802
0.780194 0.091371 0.464729
0 0.0263676 0.308507
0.0181735 0.0214847 0.349538
0.20708 0.0149233 0.35111
0.38146 0.019379 0.33196
0.570092 0.0337377 0.377997
0.73724 0.0675212 0.40325
0.78233 0.092546 0.422736
0.785214 0.0955825 0.431449
0.786389 0.0967117 0.440955
0 0.175418 0.307637
0 0.16231 0.320104
0.13135 0.130938 0.408865
0.403388 0.0974289 0.361028
0.587991 0.0698253 0.351019
0.733379 0.0684672 0.352819
0.803571 0.115679 0.381949
0.809506 0.121584 0.393027
0.812818 0.124605 0.403555
0 0.35639 0.340932
0 0.354406 0.339895
0 0.350576 0.335058
0.362875 0.370275 0.366964
0.653788 0.35079 0.371954
0.897154 0.318227 0.373648
0.930877 0.306737 0.371786
0.925917 0.296452 0.369985
0.929854 0.301228 0.378088
0 0.527871 0.437644
0 0.526986 0.430961
0 0.519173 0.402136
0 0.512825 0.288579
0.506416 0.543481 0.187884
0.827924 0.576516 0.275151
0.959991 0.596994 0.329
0.962432 0.59527 0.335164
0.963317 0.602899 0.343099
0.0518654 0.691768 0.545525
0.0511788 0.693614 0.541131
0.0439002 0.691814 0.518196
0.0149691 0.682612 0.428931
0.0682078 0.685496 0.1467
0.703639 0.720653 0.140185
0.942412 0.766964 0.34403
0.962722 0.780529 0.395193
0.963775 0.785382 0.402274
0.147814 0.811719 0.653117
0.147082 0.812604 0.64921
0.138811 0.809186 0.629114
0.112947 0.796918 0.562966
0.0766003 0.775647 0.390692
0.428428 0.780941 0.154818
0.863859 0.843442 0.293294
0.956207 0.874998 0.490394
0.955474 0.876265 0.495613
0.181521 0.839307 0.701091
0.177783 0.837263 0.693675
0.166354 0.830762 0.671366
0.137453 0.81442 0.609506
0.090074 0.785946 0.458747
0.313848 0.780957 0.246052
0.776257 0.828016 0.30071
0.952087 0.881819 0.501488
0.953796 0.889616 0.544121
0.192187 0.844923 0.719951
0.186664 0.842008 0.709178
0.174258 0.835218 0.685084
0.14284 0.817273 0.619928
0.0910353 0.78648 0.460533
0.325734 0.780835 0.247288
0.777768 0.828641 0.304417
0.945647 0.879118 0.488762
0.953765 0.890089 0.546029
0.120623 0.0356298 0.546807
0.192493 0.0315251 0.549142
0.314336 0.0253605 0.537362
0.426383 0.0245518 0.509911
0.586679 0.0377966 0.519448
0.732998 0.0719615 0.547738
0.768353 0.0899519 0.553994
0.768048 0.0907454 0.560159
0.767971 0.092256 0.569589
0 0.0345922 0.485603
0.0961929 0.0357366 0.535622
0.266758 0.0267491 0.542168
0.409232 0.0298924 0.509773
0.575921 0.0362402 0.509911
0.730358 0.0698711 0.53637
0.770855 0.0899062 0.539773
0.771115 0.0910048 0.545693
0.771054 0.0923323 0.555093
0 0.103731 0.459907
0 0.0730297 0.463844
0.113573 0.0361334 0.536599
0.368658 0.0273136 0.50837
0.55642 0.0339513 0.491539
0.725399 0.0662242 0.511604
0.774777 0.0901656 0.51342
0.775494 0.0913558 0.518578
0.775998 0.092668 0.52697
0 0.357626 0.492851
0 0.350927 0.500557
0 0.32726 0.521172
0.371115 0.287877 0.633173
0.624643 0.243854 0.566903
0.834379 0.201846 0.550362
0.855955 0.177813 0.538231
0.850584 0.170748 0.533272
0.853269 0.17467 0.543786
0.0039826 0.538094 0.516655
0.0037995 0.539147 0.518273
0.00335698 0.5364 0.514977
0.0995346 0.545769 0.525002
0.544091 0.550271 0.540383
0.844266 0.550454 0.563302
0.992798 0.546563 0.576501
0.99295 0.535592 0.571313
0.992767 0.541436 0.578698
0.0750439 0.695491 0.606806
0.0762493 0.697932 0.607156
0.0737316 0.696544 0.597498
0.0621653 0.687434 0.563943
0.192523 0.67631 0.458
0.667552 0.718837 0.402518
0.936629 0.765606 0.502922
0.956146 0.768734 0.486809
0.956024 0.772946 0.494652
0.170413 0.81799 0.702495
0.171221 0.819577 0.702403
0.166415 0.817288 0.691844
0.150149 0.808652 0.657786
0.112291 0.792279 0.553994
0.320577 0.778073 0.305989
0.841276 0.838773 0.346822
0.958801 0.871015 0.515221
0.958556 0.872099 0.51986
0.214588 0.856733 0.758144
0.212604 0.855711 0.754376
0.205859 0.85211 0.742092
0.187732 0.842405 0.707286
0.1393 0.814862 0.606241
0.189044 0.787015 0.337148
0.689387 0.81117 0.286381
0.942412 0.877394 0.482719
0.954299 0.891981 0.556405
0.225635 0.862699 0.775097
0.222324 0.860899 0.769223
0.214893 0.856901 0.756054
0.195605 0.84651 0.720134
0.145708 0.818357 0.618051
0.205005 0.788617 0.355276
0.672145 0.808728 0.288487
0.926986 0.870863 0.451362
0.95433 0.892531 0.559075
0.224704 0.0527657 0.682368
0.276585 0.0493935 0.688243
0.368811 0.0439765 0.689296
0.476143 0.0442817 0.673564
0.583276 0.0499886 0.656947
0.718059 0.0847181 0.648295
0.747478 0.0994125 0.660426
0.747326 0.100633 0.664652
0.747127 0.102693 0.671763
0.124392 0.0540627 0.647776
0.205844 0.0529488 0.675914
0.328405 0.045594 0.688884
0.457679 0.043183 0.674769
0.572381 0.0477913 0.655329
0.714733 0.0825513 0.644038
0.74725 0.0992142 0.660349
0.748028 0.100404 0.662425
0.748104 0.102403 0.668818
0 0.0459449 0.541772
0 0.0494698 0.573465
0.217197 0.0511788 0.674937
0.416556 0.0416724 0.677867
0.551904 0.0442512 0.651957
0.708751 0.0784314 0.634989
0.748653 0.0978103 0.652308
0.748516 0.0992752 0.657526
0.748867 0.101213 0.663249
0 0.279759 0.626993
0 0.26389 0.629007
0 0.215625 0.626932
0.338521 0.119036 0.75938
0.559609 0.0934768 0.708965
0.711192 0.0847181 0.635386
0.756466 0.0971847 0.630243
0.756359 0.0971542 0.630396
0.756161 0.0994125 0.63946
0.0343023 0.549569 0.657694
0.0352483 0.549187 0.663203
0.0353704 0.542657 0.670451
0.13814 0.55729 0.74728
0.578347 0.507179 0.825833
0.81355 0.459174 0.747402
0.93547 0.432242 0.750439
0.933623 0.416571 0.747051
0.9337 0.423514 0.755444
0.102251 0.703914 0.679866
0.10573 0.707759 0.684611
0.107286 0.708965 0.685542
0.106386 0.706004 0.6813
0.356176 0.725887 0.704784
0.718791 0.726101 0.715938
0.942519 0.734142 0.740398
0.973098 0.733211 0.747707
0.972427 0.737423 0.753094
0.197879 0.825971 0.759793
0.200305 0.828229 0.76231
0.198718 0.827237 0.75816
0.191577 0.822019 0.743435
0.196109 0.819059 0.712764
0.488273 0.814527 0.658442
0.840085 0.864286 0.644678
0.968124 0.890578 0.714183
0.968185 0.891997 0.719249
0.253315 0.877928 0.815457
0.253254 0.877989 0.815152
0.250248 0.87628 0.809873
0.241672 0.871397 0.7953
0.220676 0.85951 0.758053
0.354452 0.835386 0.662654
0.647089 0.862364 0.604303
0.938003 0.905653 0.638483
0.964034 0.921263 0.694423
0.264744 0.884337 0.831418
0.263416 0.883589 0.828717
0.25948 0.881346 0.821836
0.249744 0.875776 0.805493
0.227329 0.862959 0.766857
0.364355 0.839368 0.675959
0.63035 0.86157 0.610727
0.917067 0.899504 0.621042
0.962539 0.918959 0.682811
0.32047 0.0725872 0.750439
0.350195 0.0711833 0.753491
0.412238 0.0693523 0.756603
0.501427 0.0700236 0.751522
0.59527 0.0747387 0.734676
0.699351 0.102174 0.73019
0.728817 0.114702 0.737209
0.72784 0.116625 0.743343
0.727672 0.118807 0.749065
0.263584 0.0733501 0.737392
0.308125 0.0727092 0.747738
0.382025 0.0697185 0.755001
0.483009 0.068864 0.75227
0.585016 0.0729992 0.735027
0.694804 0.100511 0.729427
0.729686 0.114199 0.73463
0.728771 0.116243 0.741024
0.72845 0.118334 0.746792
0.0892805 0.0697185 0.665141
0.17789 0.0722972 0.706615
0.309194 0.0716106 0.746014
0.446677 0.0679484 0.753689
0.565652 0.0702525 0.736126
0.685649 0.0969253 0.727306
0.731243 0.112779 0.728542
0.73048 0.114717 0.734539
0.730068 0.117006 0.741054
0 0.151354 0.644358
0 0.127596 0.636683
0.00444038 0.0753033 0.619562
0.337423 0.0698863 0.748821
0.519432 0.0660868 0.740337
0.665309 0.090074 0.72433
0.73463 0.110704 0.717586
0.734936 0.112459 0.721599
0.734325 0.114473 0.727947
0.0602731 0.520638 0.752529
0.0612802 0.517876 0.756054
0.0606699 0.503594 0.760845
0.191821 0.50135 0.877394
0.614221 0.415564 0.996506
0.814725 0.357916 0.916136
0.89366 0.315526 0.873945
0.88806 0.301885 0.864897
0.893553 0.315877 0.87451
0.140764 0.714412 0.779843
0.1449 0.717937 0.785245
0.147738 0.718029 0.790768
0.16585 0.71986 0.812848
0.435126 0.781353 0.927596
0.754894 0.7037 0.929519
0.91429 0.670787 0.874052
0.938476 0.661891 0.877333
0.938064 0.667002 0.881514
0.224155 0.834623 0.813458
0.227176 0.837278 0.8168
0.228183 0.837812 0.817273
0.229587 0.837568 0.816236
0.262531 0.848569 0.825574
0.619135 0.865507 0.851164
0.864286 0.870344 0.862821
0.960449 0.875364 0.875364
0.960891 0.876066 0.878843
0.304219 0.905257 0.870192
0.307698 0.907042 0.872312
0.310018 0.907591 0.871458
0.311894 0.907179 0.867033
0.310338 0.901686 0.85185
0.522606 0.907423 0.852354
0.76701 0.927382 0.864591
0.946227 0.95108 0.853437
0.976349 0.956924 0.886854
0.325414 0.914748 0.88603
0.327352 0.915465 0.886351
0.329107 0.915419 0.884337
0.330373 0.913939 0.878065
0.325368 0.907942 0.860792
0.522255 0.909789 0.856413
0.748211 0.927932 0.868315
0.916289 0.950088 0.849104
0.976562 0.960983 0.878645
0.38497 0.0787671 0.77229
0.407538 0.0784009 0.7738
0.454902 0.0781415 0.774426
0.529885 0.0807965 0.769879
0.61735 0.0867933 0.754986
0.703685 0.109773 0.750896
0.726909 0.120699 0.75465
0.727398 0.121157 0.754986
0.727718 0.12166 0.755764
0.348699 0.0794995 0.768231
0.377691 0.0789654 0.771771
0.4309 0.0782025 0.774578
0.514061 0.0797894 0.771145
0.607996 0.085481 0.756313
0.69929 0.108492 0.751232
0.727031 0.120821 0.754772
0.727581 0.121431 0.755413
0.727977 0.122011 0.756252
0.235477 0.0797894 0.740093
0.293462 0.0803693 0.757809
0.379141 0.0789502 0.771908
0.483162 0.0787671 0.77351
0.589731 0.0834821 0.759274
0.691081 0.106447 0.75227
0.727169 0.120714 0.754269
0.727825 0.121447 0.755016
0.728267 0.122271 0.75639
0.0641031 0.0796216 0.66569
0.0797894 0.0751354 0.671626
0.142596 0.0781262 0.70341
0.40145 0.0784466 0.773449
0.545617 0.0799115 0.765713
0.673091 0.10251 0.754986
0.727459 0.120943 0.754345
0.728374 0.121874 0.755154
0.728862 0.122805 0.756756
0.11696 0.493614 0.828214
0.124178 0.490654 0.835462
0.138552 0.473472 0.848432
0.295903 0.431052 0.948211
0.625452 0.323049 0.978088
0.803815 0.283345 0.914488
0.84831 0.260151 0.874174
0.841474 0.250782 0.866835
0.851499 0.264973 0.878111
0.186847 0.721157 0.853422
0.192264 0.72517 0.858976
0.199329 0.727077 0.867201
0.238239 0.735668 0.903532
0.500587 0.774853 1
0.801205 0.662867 0.999069
0.924239 0.629953 0.951247
0.93669 0.622538 0.948363
0.936324 0.628931 0.949401
0.253925 0.84538 0.87042
0.256703 0.847639 0.873167
0.262547 0.850233 0.878645
0.284596 0.859159 0.895644
0.380697 0.886473 0.943511
0.682628 0.903059 0.972107
0.881498 0.850248 0.958068
0.946685 0.840955 0.938857
0.947051 0.841901 0.93933
0.34815 0.924956 0.909331
0.351385 0.926467 0.911681
0.352651 0.925933 0.911376
0.35433 0.924224 0.909117
0.359548 0.921263 0.904982
0.583062 0.937652 0.924971
0.82678 0.94464 0.938689
0.944564 0.947066 0.943938
0.968597 0.947875 0.946303
0.374807 0.93547 0.926421
0.377401 0.936324 0.927413
0.381598 0.936797 0.927337
0.384817 0.935729 0.92282
0.39202 0.933059 0.91368
0.589059 0.943206 0.925917
0.816892 0.957061 0.943008
0.92726 0.967132 0.952239
0.976547 0.971771 0.95021
0.396811 0.0784009 0.772976
0.418143 0.0783246 0.774289
0.463096 0.0783551 0.774365
0.535531 0.0797131 0.767483
0.622736 0.0875563 0.754147
0.707271 0.110536 0.750179
0.72636 0.120119 0.754101
0.727626 0.121447 0.755352
0.727962 0.12195 0.756115
0.363851 0.0789807 0.76994
0.389838 0.0785992 0.772641
0.440177 0.0782025 0.774685
0.521019 0.0802319 0.770642
0.613565 0.086244 0.755535
0.702937 0.109316 0.75053
0.726513 0.120272 0.754253
0.727794 0.12166 0.755627
0.728176 0.122255 0.756558
0.265339 0.0800031 0.749554
0.316991 0.0804456 0.763485
0.390967 0.0785687 0.772717
0.490562 0.0789654 0.773083
0.595438 0.0841688 0.758495
0.694392 0.107103 0.751598
0.726757 0.120287 0.753857
0.728008 0.12163 0.755184
0.728405 0.122408 0.756527
0.082063 0.0755932 0.67364
0.0941634 0.0764935 0.680278
0.179385 0.0793774 0.719814
0.413397 0.0783856 0.774136
0.551797 0.0803388 0.764965
0.676295 0.10312 0.754437
0.727337 0.120821 0.754238
0.728481 0.121996 0.755306
0.728939 0.122881 0.756817
0.173785 0.4795 0.878782
0.172732 0.474357 0.87776
0.167895 0.451301 0.871717
0.294697 0.394049 0.937911
0.615854 0.290974 0.960174
0.789075 0.259327 0.89958
0.832197 0.23917 0.858167
0.822736 0.227466 0.848554
0.836545 0.245274 0.863432
0.250645 0.743328 0.916564
0.254871 0.746929 0.919753
0.253895 0.744503 0.919539
0.268894 0.739406 0.932204
0.499947 0.763287 1
0.801541 0.646799 0.997742
0.924651 0.616434 0.951492
0.936065 0.609171 0.948928
0.935668 0.616953 0.949416
0.312108 0.871489 0.924269
0.313115 0.872908 0.924758
0.312886 0.872221 0.924956
0.338735 0.878996 0.93933
0.423911 0.89247 0.966415
0.692393 0.898695 0.981414
0.889815 0.834424 0.964004
0.945769 0.827497 0.950103
0.945815 0.829175 0.950286
0.352529 0.92752 0.922057
0.356725 0.928969 0.924376
0.3635 0.930449 0.926955
0.376608 0.932616 0.931579
0.405371 0.934783 0.939941
0.616556 0.951064 0.959838
0.841306 0.95024 0.96611
0.946532 0.938231 0.965377
0.96405 0.938262 0.963378
0.378958 0.936843 0.928756
0.382132 0.937819 0.930282
0.387579 0.938994 0.931563
0.398062 0.940948 0.933684
0.416236 0.943603 0.936614
0.599207 0.955688 0.951247
0.818509 0.965866 0.96405
0.935393 0.97145 0.971069
0.975128 0.973693 0.972763
