bundles/resolve-cinematic-luts/Phantom Luts/P4k & P6k Phntm Arri LUTs - V6/P4K/Gen 4 Colour/Standard (No WB Offset)/P4k Neutral Gen4-Legacy.cube
TITLE "Generated by Resolve"
LUT_3D_SIZE 33
0.018265 0.0182193 0.0182193
0.018265 0.0182193 0.0182193
0.0344091 0.0186007 0.0189059
0.0531777 0.0205234 0.0240635
0.0766613 0.0235904 0.0293736
0.101106 0.0261997 0.033341
0.125277 0.0285039 0.0353857
0.153994 0.0310674 0.0376898
0.186633 0.0336461 0.0404364
0.221958 0.0356603 0.0436561
0.259892 0.0368811 0.047364
0.301274 0.0382391 0.0514839
0.344442 0.0389258 0.0553445
0.389776 0.0396887 0.0602579
0.437476 0.0409247 0.0667124
0.487465 0.0425116 0.0749981
0.541909 0.0431678 0.0837873
0.595315 0.0439765 0.0926528
0.641993 0.0483253 0.104799
0.705821 0.049073 0.115343
0.781521 0.0475471 0.124712
0.85832 0.0469215 0.136294
0.917494 0.0484016 0.146654
0.94522 0.0561532 0.154681
0.945312 0.0649424 0.16141
0.945052 0.070573 0.166735
0.944854 0.0750591 0.170825
0.944671 0.0793011 0.17464
0.944518 0.0832227 0.177935
0.94435 0.0865187 0.180926
0.944213 0.0895399 0.183703
0.944091 0.0923018 0.186206
0.943999 0.0946365 0.188312
0.018265 0.0182193 0.0182193
0.018265 0.0182193 0.0182193
0.0214847 0.0182345 0.018143
0.0431067 0.0243229 0.0214542
0.0628214 0.0297398 0.0262608
0.0872511 0.0335851 0.030518
0.111864 0.0354772 0.0338293
0.138766 0.0373236 0.0353399
0.169574 0.0388495 0.0370031
0.203632 0.0401007 0.0386511
0.240467 0.0410925 0.0403449
0.282551 0.0419776 0.042359
0.328496 0.0423133 0.0457008
0.374701 0.042359 0.0495766
0.422904 0.0419013 0.0538949
0.474235 0.0408179 0.0589456
0.529595 0.039704 0.0653849
0.583947 0.039704 0.0740063
0.632242 0.0434424 0.0859541
0.697276 0.0436561 0.0961776
0.771481 0.0435798 0.108751
0.850797 0.0409247 0.119463
0.91368 0.0428168 0.130816
0.947417 0.0490578 0.140505
0.947814 0.0563211 0.145129
0.947662 0.0602121 0.148974
0.947463 0.0645914 0.153307
0.94725 0.0688334 0.157473
0.947082 0.0722362 0.160815
0.946914 0.0756085 0.164004
0.946792 0.0782025 0.1664
0.946685 0.0806592 0.168688
0.946578 0.0830549 0.170672
0.0180667 0.0285801 0.0216373
0.0180362 0.0253147 0.0179294
0.0205234 0.0217746 0.0183261
0.0348669 0.0289006 0.0197299
0.0495155 0.0332341 0.0227512
0.0732738 0.0357824 0.0280766
0.0994583 0.0380102 0.0327916
0.126101 0.0402686 0.0349126
0.156832 0.0427558 0.0365301
0.191913 0.0441901 0.0380865
0.229755 0.0454719 0.0396429
0.270451 0.0462348 0.0410315
0.313054 0.0469368 0.0425879
0.356497 0.0481422 0.0443275
0.402182 0.0494392 0.0465705
0.452277 0.0502174 0.0504463
0.509987 0.0489204 0.0568704
0.570413 0.0471351 0.0635691
0.620218 0.0494087 0.0753796
0.68484 0.0478065 0.0853742
0.759747 0.045182 0.095079
0.841382 0.0421149 0.106584
0.908141 0.0394598 0.115877
0.94786 0.0452888 0.126024
0.949935 0.0530556 0.131746
0.949889 0.0558328 0.135027
0.949828 0.0580606 0.137743
0.949783 0.0603494 0.140337
0.949691 0.0632029 0.143175
0.949554 0.0663005 0.146304
0.949416 0.0692302 0.149248
0.949279 0.071931 0.151949
0.949172 0.0742962 0.154284
0.0202945 0.0503548 0.0355077
0.0195315 0.0495766 0.0303502
0.0300298 0.0471656 0.0218662
0.0403449 0.0466773 0.0212406
0.0545815 0.0480201 0.0247196
0.0753338 0.050248 0.0299992
0.0981613 0.0519417 0.0318761
0.122469 0.0531777 0.0336004
0.14992 0.0542916 0.0351873
0.181964 0.0541543 0.036347
0.216983 0.0531777 0.037583
0.25507 0.051545 0.0393072
0.298589 0.0520943 0.0410773
0.344167 0.0538338 0.0429694
0.390845 0.055375 0.045182
0.439628 0.056199 0.0480812
0.491157 0.0568399 0.0518654
0.546258 0.0572824 0.0556497
0.599603 0.0591897 0.0620432
0.666957 0.0576791 0.0728008
0.74229 0.0548714 0.085481
0.82681 0.0502327 0.0966964
0.898436 0.0489357 0.108797
0.943557 0.051667 0.117754
0.9514 0.0598001 0.124987
0.951308 0.0620737 0.128084
0.951232 0.0641947 0.130861
0.951186 0.0660563 0.133272
0.951125 0.0677958 0.135515
0.95108 0.0692149 0.137301
0.951034 0.0705272 0.138979
0.951003 0.0716869 0.140459
0.950973 0.0726329 0.141619
0.01738 0.0764477 0.0417334
0.0168154 0.0766613 0.0331731
0.0214237 0.0740978 0.024979
0.0369879 0.0705577 0.0211795
0.0537881 0.0715038 0.0213626
0.0771649 0.0723888 0.0224613
0.102052 0.0728161 0.0322271
0.126421 0.0739452 0.0349584
0.152819 0.0753796 0.0352331
0.184405 0.0757 0.0369268
0.219089 0.0743267 0.0382696
0.255802 0.0720989 0.0396735
0.296727 0.069688 0.0411841
0.340017 0.0672007 0.0428626
0.38294 0.0648356 0.0445716
0.42884 0.0618143 0.0471656
0.479927 0.062501 0.0505989
0.534768 0.0643168 0.0545815
0.590158 0.0652781 0.0593118
0.649363 0.0665904 0.0649119
0.717861 0.0669413 0.0710613
0.800122 0.0639811 0.0817731
0.880079 0.0593271 0.0949416
0.934615 0.0611582 0.106737
0.953384 0.0701152 0.115373
0.953246 0.0725567 0.118944
0.953109 0.0749065 0.122408
0.953002 0.0769665 0.12546
0.952911 0.0787823 0.128115
0.95285 0.0802319 0.130205
0.952789 0.0818189 0.132097
0.952743 0.0830243 0.133684
0.952697 0.084123 0.135149
0.0122225 0.103166 0.0455024
0.0111849 0.10457 0.0363012
0.0133974 0.102785 0.0265049
0.029099 0.0996567 0.0171359
0.0439155 0.0993057 0.0177615
0.0733654 0.098558 0.0188754
0.097612 0.0989548 0.0187686
0.126268 0.0979477 0.024918
0.157595 0.0970016 0.0332647
0.18967 0.0974594 0.0353857
0.221958 0.0973068 0.0370947
0.258762 0.0944076 0.0399939
0.300053 0.0915084 0.0417945
0.343526 0.0885023 0.0439155
0.387259 0.0859236 0.046067
0.431754 0.083299 0.0484932
0.478508 0.0807813 0.0515602
0.528069 0.0780194 0.0548257
0.581674 0.074403 0.0584268
0.638392 0.0746166 0.0638285
0.705974 0.075227 0.0695354
0.78291 0.073228 0.076524
0.859663 0.0734264 0.0849622
0.918578 0.075349 0.0923018
0.953384 0.0819715 0.0979934
0.955703 0.0843366 0.102739
0.955505 0.0873274 0.107683
0.955322 0.0896162 0.111696
0.955184 0.0910964 0.114534
0.955062 0.0924239 0.116976
0.954955 0.0938277 0.119509
0.954849 0.0949264 0.121675
0.954757 0.0959335 0.123674
0.0068513 0.129458 0.0529641
0.00428779 0.131777 0.0393683
0.00549325 0.131121 0.0281224
0.00926223 0.129152 0.0131685
0.0334783 0.126024 0.0113527
0.0579232 0.125917 0.01355
0.0940871 0.125032 0.0152438
0.117601 0.125628 0.0149386
0.152377 0.124132 0.0177157
0.188067 0.122072 0.0285496
0.229023 0.120134 0.0328374
0.265309 0.118746 0.0373388
0.304189 0.115892 0.041825
0.348043 0.112657 0.0448768
0.392569 0.110063 0.0475471
0.438163 0.107988 0.0503548
0.485176 0.10602 0.0538643
0.534844 0.104494 0.0578622
0.587015 0.102724 0.0616159
0.642542 0.100404 0.0653697
0.703319 0.0975509 0.0699168
0.771328 0.0915084 0.075349
0.844556 0.0848402 0.0829633
0.907179 0.0864424 0.0904097
0.94815 0.0938277 0.0964981
0.95462 0.100038 0.0978103
0.954787 0.103716 0.0979324
0.954711 0.106523 0.0978714
0.954803 0.109316 0.0979782
0.955154 0.111467 0.0985122
0.956283 0.112169 0.100664
0.957092 0.113085 0.102632
0.957641 0.114199 0.104906
0.00062562 0.157824 0.0631113
0 0.160708 0.0461738
0 0.161883 0.0328374
0 0.160311 0.0213016
0.0160067 0.156466 0.00296025
0.0388495 0.156466 0.00486763
0.077409 0.154955 0.00993362
0.115236 0.154421 0.0117952
0.139773 0.155184 0.0116579
0.181033 0.154299 0.0121157
0.221744 0.151492 0.0261082
0.269627 0.148104 0.0318456
0.314351 0.144778 0.0394141
0.354833 0.142382 0.044892
0.399374 0.139315 0.0491035
0.446159 0.137606 0.0525368
0.494453 0.136812 0.0566873
0.545052 0.135943 0.060914
0.59762 0.135042 0.0648508
0.653147 0.133974 0.0690471
0.712261 0.131914 0.0735027
0.777325 0.129 0.0789502
0.845731 0.125002 0.0852979
0.902632 0.122118 0.0911879
0.943191 0.122179 0.096849
0.955215 0.121019 0.0985885
0.954986 0.117494 0.0982986
0.955139 0.118898 0.0984512
0.955215 0.121477 0.0986038
0.955306 0.123751 0.0987564
0.955398 0.125719 0.098909
0.955474 0.12726 0.0990616
0.955474 0.128618 0.0991073
0 0.190433 0.073106
0 0.193454 0.0573892
0 0.196155 0.0397192
0 0.19501 0.0273289
0 0.193133 0.00920119
0.0241855 0.188891 0
0.0457618 0.191669 0
0.0965438 0.189166 0.00723278
0.136797 0.188846 0.00956741
0.167529 0.190387 0.0100252
0.212696 0.190524 0.00914015
0.261036 0.187778 0.0223697
0.313771 0.184665 0.0320439
0.366018 0.180072 0.0426337
0.411048 0.177432 0.0483558
0.455772 0.174594 0.0541085
0.504601 0.173465 0.0595102
0.554467 0.17261 0.0638132
0.606455 0.171572 0.06804
0.661006 0.170871 0.0727398
0.719341 0.169696 0.0779736
0.783795 0.168338 0.0843061
0.850019 0.166278 0.0906081
0.904723 0.165698 0.0963302
0.943603 0.167758 0.101595
0.957473 0.169039 0.103944
0.957321 0.166186 0.103487
0.957321 0.163714 0.103197
0.957076 0.161151 0.102739
0.956954 0.15877 0.102403
0.956847 0.156619 0.102129
0.956741 0.154726 0.101869
0.956664 0.153185 0.101656
0 0.225406 0.0858167
0 0.228809 0.0692149
0 0.23212 0.0513313
0 0.23241 0.0358282
0 0.2309 0.0222629
0 0.227924 0
0.0296635 0.22681 0
0.0571145 0.230442 0
0.116167 0.227909 0.00633249
0.163546 0.228626 0.00994888
0.202197 0.230777 0.0111543
0.251102 0.233097 0.0108339
0.308476 0.231022 0.0205081
0.363241 0.228626 0.0339055
0.419852 0.223209 0.043473
0.468971 0.219699 0.0514992
0.513115 0.217868 0.0583505
0.561944 0.212848 0.0663767
0.613397 0.21181 0.0714427
0.667201 0.21117 0.0768597
0.724514 0.210742 0.0836652
0.787732 0.210117 0.0902724
0.85211 0.209445 0.0969711
0.905715 0.21088 0.103441
0.943328 0.214099 0.108583
0.95964 0.217121 0.112245
0.959533 0.214496 0.111711
0.959472 0.212222 0.111284
0.959381 0.209796 0.110826
0.959304 0.207584 0.110414
0.959213 0.205615 0.110048
0.95906 0.203922 0.109636
0.958999 0.202365 0.109346
0 0.264652 0.097612
0 0.267674 0.083238
0 0.271077 0.0659953
0 0.273411 0.0497292
0 0.272297 0.0340887
0 0.269978 0.0171969
0 0.265431 0
0.036759 0.26952 0
0.0714885 0.274479 0
0.13959 0.272435 0.00857557
0.197116 0.274372 0.0134737
0.242405 0.277729 0.0156558
0.297139 0.280797 0.0170748
0.357885 0.280217 0.0202945
0.412726 0.277104 0.0337835
0.471885 0.271458 0.0427405
0.523888 0.267292 0.0531472
0.570382 0.265782 0.0614176
0.617685 0.263508 0.0702678
0.671626 0.257084 0.082475
0.727871 0.25716 0.0902724
0.789471 0.256748 0.0978256
0.852094 0.256611 0.105043
0.905028 0.258228 0.111345
0.942519 0.261814 0.117632
0.961471 0.266331 0.122271
0.961425 0.263966 0.121782
0.961349 0.261631 0.121309
0.961395 0.2598 0.121035
0.961242 0.257923 0.120562
0.961181 0.256184 0.120195
0.96112 0.254643 0.11989
0.961074 0.253285 0.119615
0 0.310811 0.113024
0 0.313619 0.0997177
0 0.316762 0.0838178
0 0.320195 0.0678416
0 0.3205 0.051545
0 0.319066 0.0330053
0 0.316365 0.0123751
0.0131991 0.313405 0
0.049836 0.319875 0
0.0910201 0.325856 0
0.168826 0.323445 0.014374
0.234836 0.32488 0.0190433
0.285969 0.327993 0.0188144
0.34403 0.331014 0.0209506
0.404852 0.332464 0.0205844
0.462821 0.328923 0.0311131
0.521798 0.324285 0.0417334
0.577173 0.319692 0.0541848
0.626184 0.317647 0.065919
0.673121 0.317311 0.0772869
0.727886 0.312779 0.0919356
0.789212 0.30573 0.105913
0.851194 0.30515 0.113527
0.903456 0.306508 0.121065
0.9411 0.309255 0.127153
0.96199 0.314168 0.131853
0.961959 0.312322 0.131502
0.961944 0.310445 0.131106
0.961944 0.308782 0.130678
0.961929 0.307332 0.130404
0.961913 0.306142 0.13019
0.961898 0.304921 0.129961
0.961883 0.303853 0.129763
0 0.361227 0.135164
0 0.363912 0.120653
0 0.366842 0.106432
0 0.36997 0.0903944
0 0.3729 0.0735332
0 0.372213 0.0554971
0 0.370947 0.0346075
0 0.367788 0.00833143
0.0238651 0.367773 0
0.0677043 0.373495 0
0.114351 0.377539 0.00645457
0.20557 0.373816 0.0200504
0.276509 0.374914 0.0209506
0.331853 0.378317 0.0213626
0.390784 0.381704 0.0248112
0.452293 0.38439 0.0235142
0.511818 0.381125 0.0320897
0.570199 0.377203 0.0416724
0.628611 0.372045 0.0585031
0.680735 0.369528 0.0745861
0.729809 0.36907 0.0879225
0.786984 0.365667 0.102281
0.848875 0.358694 0.118196
0.900923 0.354849 0.130541
0.938827 0.356924 0.136568
0.961456 0.361425 0.142473
0.962264 0.361456 0.14316
0.962264 0.359869 0.142687
0.962264 0.358419 0.142321
0.962264 0.357107 0.142
0.962249 0.355917 0.141711
0.962249 0.354879 0.141451
0.962249 0.353964 0.141222
0 0.410758 0.159899
0 0.413443 0.145632
0 0.41622 0.131945
0 0.419348 0.116121
0 0.42298 0.0998398
0 0.424399 0.0819867
0 0.423621 0.0623789
0 0.422324 0.036286
0 0.419501 0.00361639
0.0409705 0.421256 0
0.0889601 0.425696 0.00399786
0.14493 0.428595 0.0132448
0.249012 0.424628 0.0240024
0.324895 0.426108 0.0245975
0.3785 0.429603 0.0261234
0.437446 0.433051 0.0305028
0.499718 0.436286 0.0298772
0.560098 0.433371 0.0352178
0.618524 0.429343 0.0472877
0.680537 0.424018 0.0656901
0.736156 0.420844 0.0842298
0.790936 0.419745 0.0996414
0.84538 0.418112 0.114351
0.896819 0.414588 0.128084
0.935027 0.413092 0.140002
0.958709 0.415274 0.148409
0.9617 0.416449 0.150439
0.96173 0.414908 0.150454
0.961776 0.413352 0.150439
0.961807 0.411933 0.150408
0.961837 0.410666 0.150378
0.961868 0.409522 0.150362
0.961898 0.408515 0.150347
0 0.461006 0.189349
0 0.463523 0.176806
0 0.466194 0.163119
0 0.46923 0.146181
0 0.472648 0.130404
0 0.47689 0.110109
0 0.476463 0.0917372
0 0.475898 0.0686503
0 0.47422 0.0378424
0 0.472572 0
0.0640879 0.474907 0.00108339
0.115724 0.478996 0.00848402
0.184146 0.480751 0.0196994
0.298711 0.476493 0.0301213
0.37583 0.478309 0.0286717
0.425925 0.481666 0.0316777
0.484794 0.485054 0.0376287
0.547555 0.488075 0.0372168
0.608728 0.485206 0.0421302
0.66804 0.481407 0.055787
0.732845 0.475883 0.073228
0.794308 0.472023 0.095964
0.849134 0.47013 0.112505
0.893324 0.471138 0.125002
0.930098 0.471321 0.137438
0.95494 0.473365 0.147463
0.960464 0.475715 0.150973
0.960479 0.474342 0.150973
0.96051 0.473106 0.150973
0.960525 0.472145 0.151019
0.96054 0.471153 0.151034
0.960555 0.470207 0.151019
0.960571 0.469368 0.151019
0 0.51191 0.224094
0 0.514321 0.211658
0 0.517006 0.197513
0 0.519844 0.182803
0 0.523049 0.167437
0 0.527123 0.146746
0 0.529809 0.125109
0 0.529259 0.101396
0 0.528435 0.0764782
0 0.52639 0.0393072
0.0131685 0.525765 0
0.0912184 0.529015 0.0068513
0.150134 0.532631 0.0163119
0.229572 0.533654 0.0279545
0.351904 0.529183 0.0367742
0.426688 0.531151 0.0350958
0.474052 0.534249 0.0410468
0.532006 0.537362 0.0482948
0.594675 0.539818 0.0486305
0.657526 0.536446 0.0539406
0.718822 0.532692 0.0664683
0.786984 0.52726 0.0842145
0.848966 0.522972 0.10753
0.894575 0.522469 0.126116
0.926955 0.525475 0.136172
0.951644 0.528679 0.145861
0.95903 0.532692 0.153735
0.95906 0.531594 0.153628
0.959091 0.530541 0.153536
0.959121 0.52958 0.15346
0.959136 0.528679 0.153384
0.959152 0.527901 0.153323
0.959136 0.527245 0.153201
0.00163272 0.563607 0.261723
0 0.565942 0.248936
0 0.56849 0.235386
0 0.571099 0.222766
0 0.573983 0.208072
0 0.577661 0.188251
0 0.582391 0.165331
0 0.58291 0.140902
0 0.5823 0.114961
0 0.581323 0.0836652
0 0.579477 0.0403906
0.0474403 0.580026 0.00556954
0.12546 0.582879 0.0145113
0.192294 0.58613 0.025742
0.280583 0.586679 0.0378424
0.403906 0.581704 0.0469825
0.475471 0.583871 0.0451972
0.521309 0.586343 0.0522469
0.578378 0.588891 0.060502
0.641596 0.590478 0.0619669
0.706462 0.586831 0.0685893
0.771023 0.582528 0.0821241
0.839704 0.577386 0.0985733
0.892042 0.574456 0.12134
0.926818 0.575845 0.140337
0.949355 0.581064 0.150774
0.95819 0.587137 0.157946
0.958175 0.587137 0.158572
0.958175 0.586267 0.158541
0.95819 0.585458 0.158495
0.95816 0.584756 0.158373
0.958114 0.584146 0.158221
0.958114 0.583566 0.158129
0.00766003 0.615702 0.300679
0.00518807 0.61796 0.289433
0.00267033 0.620356 0.277592
0.000198367 0.622858 0.265507
0 0.625711 0.250263
0 0.629221 0.231632
0 0.633555 0.211078
0 0.637308 0.185092
0 0.636912 0.159243
0 0.636103 0.12665
0 0.634745 0.088777
0.0030518 0.634318 0.0395819
0.0880293 0.635004 0.014313
0.168231 0.637598 0.0262303
0.238743 0.640818 0.0389258
0.334646 0.640696 0.0510719
0.455039 0.635264 0.0585794
0.522911 0.637278 0.0564584
0.567987 0.638941 0.0657206
0.624002 0.64097 0.0754253
0.688655 0.641062 0.0784772
0.755108 0.637171 0.0858778
0.823255 0.633066 0.102022
0.884352 0.628641 0.117739
0.924651 0.627985 0.141604
0.948714 0.631403 0.159182
0.957931 0.638102 0.168948
0.957931 0.640879 0.170672
0.957931 0.640223 0.170397
0.957931 0.639567 0.170169
0.957916 0.638972 0.170031
0.957916 0.638437 0.169894
0.957916 0.637964 0.169772
0.013962 0.66952 0.34052
0.011841 0.671595 0.330816
0.00949111 0.673869 0.320058
0.00698863 0.67631 0.308064
0.0043946 0.678981 0.293996
0.00141909 0.682353 0.277852
0 0.686534 0.257939
0 0.691829 0.231312
0 0.693233 0.205707
0 0.692653 0.174487
0 0.691783 0.139223
0.00163272 0.68957 0.0918288
0.0144961 0.690517 0.0321355
0.133028 0.691752 0.0277867
0.216999 0.693828 0.0414282
0.290074 0.697246 0.0537423
0.389334 0.695933 0.0654612
0.504997 0.689799 0.0725414
0.570108 0.691478 0.0697948
0.614374 0.692439 0.0781872
0.670069 0.694652 0.0900893
0.736767 0.693385 0.0965286
0.806882 0.689906 0.108171
0.869413 0.686137 0.12488
0.917525 0.682857 0.15198
0.94667 0.683482 0.175921
0.957519 0.688106 0.191821
0.957458 0.692805 0.196597
0.957443 0.692332 0.195758
0.957443 0.691829 0.195544
0.957443 0.691371 0.195346
0.957458 0.690929 0.195117
0.957458 0.690532 0.194903
0.0206302 0.725429 0.378256
0.0185245 0.727443 0.368902
0.0163272 0.729564 0.358938
0.0140841 0.731807 0.348653
0.0115663 0.734386 0.337194
0.00865187 0.73753 0.323217
0.00515755 0.741466 0.304616
0.00120546 0.746639 0.280308
0 0.751568 0.252979
0 0.751202 0.222797
0.000595102 0.75053 0.190265
0.00401312 0.748867 0.148653
0.0123598 0.747463 0.0937667
0.0478523 0.749386 0.0294499
0.187243 0.749874 0.0439612
0.269657 0.751995 0.0586404
0.342016 0.75555 0.0707866
0.444877 0.752239 0.0823072
0.554162 0.745357 0.085893
0.617487 0.747631 0.084596
0.662379 0.74905 0.0943923
0.717632 0.75108 0.107439
0.788479 0.748028 0.117342
0.854902 0.745403 0.134951
0.905501 0.742397 0.16495
0.940551 0.740154 0.195941
0.957305 0.742 0.219608
0.957259 0.747677 0.22916
0.957275 0.747356 0.227481
0.957275 0.747005 0.22623
0.957259 0.746654 0.225177
0.957259 0.746288 0.224353
0.957259 0.745922 0.223789
0.0283513 0.785748 0.413153
0.0264134 0.787671 0.404868
0.0244907 0.78967 0.396323
0.0223392 0.791852 0.387335
0.0200198 0.794293 0.377157
0.0170748 0.79736 0.364096
0.0135653 0.801236 0.347631
0.00958267 0.806043 0.327565
0.00535592 0.811994 0.301671
0.00430304 0.813947 0.272267
0.00616464 0.813016 0.24007
0.00933852 0.81149 0.201434
0.0145266 0.809567 0.152712
0.0275731 0.81059 0.0915236
0.109178 0.813184 0.0470741
0.243427 0.811414 0.0627909
0.324697 0.813336 0.0762341
0.391897 0.816464 0.0864881
0.497856 0.811261 0.0986191
0.603006 0.805646 0.102525
0.667155 0.808438 0.100679
0.713207 0.81062 0.111162
0.768399 0.810758 0.129259
0.839094 0.80708 0.145052
0.892958 0.805539 0.181506
0.930404 0.804105 0.213428
0.95407 0.802045 0.243442
0.957122 0.804318 0.264057
0.957137 0.805692 0.264973
0.957107 0.805585 0.262455
0.957092 0.805447 0.26009
0.957076 0.805264 0.258122
0.957061 0.805097 0.256504
0.0366674 0.84596 0.447471
0.0348974 0.847669 0.439994
0.0330358 0.84947 0.431907
0.0310521 0.851377 0.423362
0.0289311 0.853483 0.413825
0.0262608 0.856153 0.401892
0.0231632 0.859419 0.387808
0.0195621 0.863416 0.369757
0.0153658 0.86836 0.346242
0.0118105 0.873106 0.318822
0.0131533 0.872862 0.289067
0.0155642 0.871809 0.253101
0.0195621 0.870176 0.207874
0.0272984 0.868208 0.152224
0.0475471 0.870665 0.0816205
0.18114 0.870924 0.065507
0.302296 0.867231 0.0825971
0.377035 0.868223 0.0948806
0.441962 0.870832 0.104173
0.552911 0.865629 0.115663
0.653773 0.861753 0.119966
0.717189 0.864836 0.12079
0.76463 0.86714 0.131945
0.822141 0.864332 0.156817
0.881941 0.860914 0.194461
0.922484 0.859281 0.233906
0.947601 0.859205 0.267247
0.955581 0.858061 0.295827
0.955627 0.858961 0.305989
0.955596 0.859022 0.303243
0.955581 0.859022 0.300908
0.955566 0.858946 0.299168
0.955566 0.858885 0.297536
0.045655 0.895644 0.480308
0.0440223 0.896986 0.473304
0.0422827 0.898466 0.46569
0.0405737 0.899947 0.458122
0.038529 0.901656 0.449516
0.0361486 0.903746 0.439033
0.0332799 0.906325 0.425635
0.0298924 0.909453 0.409049
0.025803 0.913436 0.388403
0.0212558 0.918196 0.362554
0.020798 0.91931 0.33434
0.0226902 0.918776 0.302708
0.0259556 0.9178 0.261006
0.0324254 0.916121 0.20943
0.0460059 0.916777 0.148989
0.0856641 0.919387 0.0751659
0.255772 0.913497 0.0864881
0.359579 0.910109 0.102296
0.428824 0.911055 0.113161
0.491936 0.913039 0.122576
0.608789 0.908461 0.135409
0.707851 0.906111 0.137835
0.766018 0.909026 0.140444
0.815351 0.909163 0.161746
0.869215 0.905898 0.205722
0.915328 0.903227 0.253681
0.942977 0.902159 0.291981
0.955062 0.901411 0.32462
0.955077 0.900313 0.346349
0.955077 0.90045 0.344076
0.955077 0.900542 0.341985
0.955077 0.900572 0.340261
0.955077 0.900587 0.338811
0.055787 0.931441 0.512657
0.0542458 0.932464 0.506127
0.0526436 0.933532 0.498955
0.0509651 0.93463 0.491753
0.0490578 0.935897 0.48368
0.0466926 0.937469 0.473762
0.0438392 0.939391 0.461646
0.040589 0.94168 0.44683
0.0365911 0.94461 0.427909
0.0319219 0.948074 0.403571
0.0288853 0.950668 0.376089
0.0303044 0.950744 0.346578
0.0342718 0.950561 0.311757
0.0402228 0.948959 0.267552
0.0495613 0.947051 0.213077
0.0706188 0.948943 0.14548
0.160998 0.949935 0.10309
0.325231 0.942336 0.116747
0.415885 0.939696 0.129824
0.481285 0.940078 0.139391
0.545541 0.940963 0.148043
0.664439 0.936812 0.158526
0.763607 0.935363 0.161105
0.812909 0.938064 0.170611
0.860624 0.937331 0.205768
0.906874 0.934813 0.271565
0.938598 0.93283 0.317479
0.954482 0.931563 0.352758
0.954498 0.93019 0.382971
0.954498 0.930282 0.382315
0.954498 0.930388 0.380545
0.954498 0.93048 0.378882
0.954498 0.930526 0.377462
0.0666056 0.953918 0.54403
0.0652934 0.954559 0.538018
0.0638437 0.955276 0.531395
0.0623789 0.955978 0.524849
0.0606851 0.956786 0.517464
0.0584878 0.957809 0.508217
0.0558022 0.959075 0.496712
0.0525368 0.960647 0.482582
0.0484474 0.9626 0.464988
0.0435492 0.964981 0.443168
0.0425422 0.966583 0.421286
0.0442664 0.967025 0.395224
0.0465248 0.967193 0.36492
0.0514839 0.967163 0.326741
0.0590677 0.966491 0.277913
0.0738689 0.967056 0.221576
0.137835 0.968414 0.173907
0.253544 0.966064 0.167193
0.388495 0.95935 0.166293
0.471901 0.956573 0.16968
0.534035 0.956146 0.17702
0.603082 0.954192 0.185138
0.718456 0.952041 0.190555
0.808972 0.952712 0.19588
0.856794 0.953658 0.214084
0.897459 0.953277 0.282658
0.933837 0.951415 0.338857
0.952499 0.94992 0.380713
0.953887 0.949126 0.413794
0.953887 0.948913 0.420905
0.953887 0.949004 0.419074
0.953887 0.949081 0.417563
0.953887 0.949111 0.416495
0.0730602 0.958038 0.572427
0.0718242 0.958434 0.566522
0.0705272 0.958785 0.560586
0.0691691 0.959106 0.554299
0.0675517 0.959487 0.54725
0.0655375 0.95996 0.538689
0.0630045 0.960571 0.528038
0.0595712 0.961349 0.514672
0.0578012 0.962249 0.500557
0.0572824 0.963302 0.48542
0.0563821 0.964553 0.466743
0.0563668 0.966033 0.443702
0.0586862 0.967712 0.415076
0.0625162 0.969299 0.380499
0.0682841 0.970672 0.337942
0.0792096 0.971527 0.287587
0.128496 0.971618 0.245899
0.231815 0.96994 0.234958
0.332143 0.966415 0.232593
0.446967 0.96022 0.231876
0.528634 0.957397 0.234897
0.591379 0.95555 0.239933
0.660105 0.953628 0.244068
0.768902 0.952285 0.243626
0.849134 0.953765 0.263203
0.889967 0.953948 0.293248
0.926345 0.953689 0.349508
0.949996 0.953307 0.400885
0.953689 0.953216 0.443366
0.953643 0.953201 0.458732
0.953658 0.953201 0.45716
0.953658 0.953201 0.455879
0.953658 0.953201 0.454795
0.0758526 0.957671 0.580545
0.0746014 0.957977 0.57467
0.0733043 0.958267 0.56875
0.0720073 0.958648 0.562737
0.0705119 0.959075 0.555932
0.0685588 0.959533 0.547509
0.0662242 0.960098 0.537209
0.0631418 0.960845 0.5243
0.0592203 0.961791 0.508278
0.0581826 0.962829 0.492638
0.057496 0.964065 0.474708
0.057847 0.965423 0.454704
0.0622873 0.966857 0.433783
0.0677195 0.968338 0.408408
0.0745098 0.969741 0.378149
0.0857252 0.970901 0.340871
0.133104 0.971572 0.309819
0.226902 0.970993 0.301427
0.316472 0.968826 0.294453
0.402548 0.965255 0.294316
0.503868 0.959945 0.295399
0.583398 0.957015 0.297169
0.652018 0.954574 0.303105
0.720195 0.95314 0.306294
0.820096 0.953277 0.307134
0.884993 0.954055 0.331151
0.919051 0.953765 0.362219
0.946365 0.953399 0.410574
0.953643 0.953201 0.459892
0.953567 0.953185 0.487541
0.953567 0.953185 0.485756
0.953567 0.953185 0.484337
0.953582 0.953185 0.483055
0.0782635 0.957397 0.588022
0.0771954 0.957641 0.582223
