bundles/resolve-cinematic-luts/Phantom Luts/P4k & P6k Phntm Arri LUTs - V6/P4K/Gen 4 Colour/Standard (No WB Offset)/P4k IceBlue Gen4-Legacy.cube
TITLE "Generated by Resolve"
LUT_3D_SIZE 33
0.033402 0.0457465 0.0450599
0.0334173 0.0457313 0.0450446
0.0389563 0.0455787 0.0461738
0.0486152 0.0459449 0.0476539
0.0608682 0.0471199 0.0502174
0.0764172 0.0487373 0.0526284
0.0946517 0.0503395 0.0543221
0.116838 0.0516823 0.0551614
0.145907 0.0532082 0.0556039
0.180362 0.0546426 0.0563058
0.217868 0.0554513 0.0571298
0.259709 0.056199 0.0585641
0.30518 0.0571756 0.0598764
0.35198 0.0581521 0.0607156
0.39939 0.0594186 0.0624552
0.447196 0.0616007 0.066743
0.492164 0.0644999 0.0728313
0.530312 0.0686656 0.0812848
0.56347 0.0746014 0.0917525
0.594751 0.0827649 0.104189
0.628153 0.0918898 0.11722
0.660945 0.10251 0.131548
0.69041 0.114061 0.146502
0.711406 0.125551 0.158267
0.721477 0.134493 0.166155
0.726024 0.140719 0.171633
0.728862 0.144594 0.175433
0.731746 0.148333 0.179294
0.734066 0.151064 0.182879
0.73666 0.153231 0.187793
0.739147 0.154635 0.193179
0.741756 0.154955 0.200565
0.744167 0.154696 0.208072
0.0334936 0.045655 0.0448005
0.0334478 0.045716 0.0449531
0.0343175 0.0457313 0.0452125
0.0441291 0.0471046 0.0477607
0.0558175 0.0494698 0.0497902
0.0707713 0.0517433 0.0525216
0.0884718 0.0533608 0.0545205
0.109728 0.0545357 0.0554971
0.137194 0.0556649 0.0557259
0.171405 0.0567636 0.0560006
0.208057 0.0574044 0.0554665
0.250004 0.0580606 0.0553597
0.297993 0.0587472 0.0557259
0.346822 0.0593729 0.0564889
0.395422 0.0599527 0.0576791
0.444022 0.0611276 0.0599832
0.489601 0.0631266 0.064271
0.527504 0.066865 0.0721141
0.560052 0.0728313 0.0827192
0.592462 0.0807202 0.0956588
0.626657 0.0904402 0.110735
0.659556 0.100374 0.125277
0.689555 0.112367 0.140642
0.710689 0.123552 0.153094
0.718212 0.130922 0.159197
0.721233 0.135058 0.163043
0.724315 0.139116 0.167025
0.727047 0.14258 0.170871
0.729244 0.145083 0.174334
0.731929 0.147295 0.179355
0.734279 0.148501 0.184604
0.736675 0.148409 0.191714
0.738918 0.147906 0.198886
0.0336156 0.049485 0.0465553
0.0335393 0.0481575 0.0450294
0.0341497 0.0471504 0.0455482
0.0394598 0.0489204 0.0467384
0.0501411 0.0513161 0.0495613
0.0630808 0.0535286 0.0517433
0.0802777 0.0553445 0.0542458
0.100847 0.056611 0.05626
0.126986 0.0578927 0.057084
0.160769 0.0590066 0.0569619
0.198184 0.0597696 0.0559548
0.239643 0.060441 0.0550393
0.285664 0.0610666 0.0543679
0.334112 0.0618753 0.0543679
0.382132 0.0628977 0.0542916
0.431388 0.0645151 0.0558938
0.480705 0.06598 0.0591897
0.522057 0.0687419 0.0653239
0.555352 0.0741131 0.0758373
0.588235 0.0811017 0.0884413
0.622095 0.0894942 0.102281
0.656428 0.0999466 0.118685
0.685481 0.109636 0.132555
0.707469 0.120958 0.145281
0.715206 0.128359 0.151827
0.717876 0.131624 0.155306
0.719661 0.133989 0.157839
0.721569 0.136248 0.160601
0.723827 0.138689 0.164111
0.726314 0.140581 0.168994
0.728527 0.141649 0.173999
0.730983 0.141497 0.18117
0.73344 0.141009 0.188632
0.0353552 0.0591592 0.0546578
0.0352789 0.0590524 0.0530404
0.0390478 0.0574197 0.0497597
0.0430152 0.0563516 0.0492409
0.0514229 0.0580606 0.0509041
0.0622263 0.0597543 0.053254
0.0779126 0.061326 0.0558022
0.0972457 0.0624857 0.0575875
0.121096 0.063386 0.0584726
0.152102 0.0640116 0.0581979
0.188647 0.0639811 0.0569924
0.22829 0.0636759 0.056199
0.273274 0.06392 0.0548104
0.321431 0.0649119 0.0537728
0.369696 0.0666209 0.0516976
0.419226 0.0684367 0.052079
0.468574 0.0700542 0.0565805
0.511986 0.073167 0.0611276
0.548272 0.0782788 0.0692149
0.583368 0.0849012 0.0817426
0.618677 0.092958 0.0969863
0.653559 0.102358 0.11313
0.684276 0.112825 0.128817
0.706523 0.122805 0.140887
0.715984 0.131151 0.148592
0.718151 0.133837 0.151492
0.719615 0.135653 0.153597
0.720928 0.137087 0.155779
0.72256 0.138705 0.158587
0.724407 0.139635 0.16257
0.726452 0.140352 0.167346
0.729122 0.140124 0.174762
0.73135 0.139391 0.181781
0.0362707 0.0745708 0.0654002
0.0361334 0.0750439 0.0620432
0.0378424 0.0741131 0.0583963
0.0453498 0.0717479 0.0550393
0.0538338 0.0715801 0.0545052
0.0662089 0.0723888 0.0548714
0.0819409 0.0735637 0.0584421
0.100511 0.0744945 0.0601205
0.123354 0.0754864 0.0600595
0.152972 0.0759899 0.0596933
0.188113 0.0757 0.0589761
0.226093 0.0745708 0.0576638
0.268025 0.0731823 0.0555734
0.314641 0.0725567 0.0534829
0.362402 0.0723888 0.0515297
0.410956 0.0722362 0.0529793
0.459327 0.0738689 0.0546273
0.50396 0.0773632 0.0581216
0.5411 0.0824292 0.0640574
0.577127 0.0892958 0.0762188
0.612696 0.098024 0.0895552
0.648524 0.107637 0.106371
0.681361 0.117678 0.123705
0.706462 0.12845 0.137835
0.719097 0.138476 0.147112
0.721416 0.141207 0.150103
0.723156 0.143236 0.152743
0.724559 0.144671 0.155154
0.725719 0.145754 0.157397
0.727398 0.146426 0.161212
0.729137 0.146807 0.165484
0.731517 0.14638 0.172213
0.733837 0.145693 0.179339
0.0348058 0.0939498 0.0733196
0.0343786 0.095491 0.068925
0.03505 0.0951095 0.0634623
0.0408637 0.0926986 0.0582437
0.0501259 0.0912184 0.0567941
0.0644541 0.0911269 0.0563211
0.0832227 0.0915541 0.0554818
0.103914 0.0916609 0.0586557
0.129473 0.0916609 0.0610361
0.15967 0.0921035 0.0613565
0.193744 0.0922866 0.0608377
0.231464 0.0909438 0.0603647
0.273213 0.0888838 0.0589456
0.319692 0.0870069 0.0572976
0.366751 0.0855879 0.0554055
0.412085 0.0846876 0.0539101
0.457008 0.0839094 0.0544442
0.500298 0.0848554 0.057084
0.538735 0.0872511 0.0645457
0.573724 0.0937972 0.0736248
0.608423 0.103075 0.084947
0.644175 0.112886 0.102098
0.67805 0.124727 0.119188
0.705196 0.136217 0.133898
0.72253 0.147875 0.144427
0.725567 0.150744 0.148013
0.727733 0.15314 0.151476
0.729137 0.154818 0.153887
0.730327 0.155932 0.156146
0.731945 0.156802 0.159487
0.733684 0.157336 0.163607
0.736095 0.157183 0.170169
0.738628 0.156939 0.177035
0.0321965 0.116655 0.0814221
0.03122 0.118975 0.0746319
0.0310216 0.119661 0.0680552
0.0326543 0.117922 0.060853
0.0429999 0.115053 0.0566262
0.0556954 0.114137 0.05626
0.0796063 0.113634 0.0555886
0.102083 0.113542 0.054078
0.129137 0.112749 0.0558175
0.162692 0.111788 0.0581064
0.200061 0.11107 0.0592813
0.238621 0.110414 0.0592813
0.280049 0.108644 0.0597391
0.326406 0.106157 0.059617
0.374289 0.104051 0.0588998
0.421027 0.10309 0.0583658
0.466163 0.102861 0.0590677
0.508904 0.103624 0.0613718
0.545769 0.105776 0.066743
0.579492 0.1093 0.0746166
0.611749 0.115908 0.085359
0.644434 0.12282 0.100862
0.675669 0.132067 0.115999
0.704982 0.144183 0.133257
0.724224 0.158145 0.140963
0.729717 0.163424 0.145586
0.731456 0.166064 0.147524
0.732921 0.168231 0.149279
0.73434 0.170382 0.150805
0.735912 0.171984 0.152956
0.737438 0.172778 0.155901
0.739406 0.173053 0.160281
0.741512 0.17351 0.164904
0.0292058 0.142687 0.0916609
0.0282902 0.145663 0.0822461
0.027512 0.147845 0.0730755
0.0276341 0.147295 0.0656443
0.0317235 0.144656 0.0570382
0.0452277 0.142031 0.05449
0.0654307 0.141192 0.0550698
0.0967269 0.139956 0.0532387
0.123568 0.140261 0.0519722
0.159335 0.1393 0.0523232
0.198184 0.138186 0.0551003
0.244175 0.135912 0.0569924
0.290959 0.133593 0.0586252
0.335454 0.131334 0.0604105
0.383093 0.12903 0.0618296
0.431556 0.127886 0.0631876
0.47837 0.128405 0.0650645
0.522393 0.129976 0.0677653
0.560571 0.133303 0.0735027
0.595544 0.138216 0.082063
0.627283 0.144411 0.0932784
0.658076 0.152041 0.106767
0.687312 0.159609 0.121294
0.71252 0.168383 0.134585
0.731853 0.17763 0.14522
0.736706 0.180179 0.147997
0.736309 0.179538 0.147677
0.737362 0.181506 0.148394
0.738628 0.183948 0.149248
0.739818 0.185565 0.150561
0.741039 0.186694 0.15256
0.743175 0.187503 0.156802
0.746349 0.189868 0.16202
0.0267185 0.173251 0.101793
0.0264744 0.176867 0.0928359
0.0259403 0.179889 0.0805066
0.0258335 0.180758 0.0706035
0.025742 0.179553 0.0618143
0.033402 0.175799 0.054078
0.0478676 0.175113 0.0523079
0.0763714 0.173999 0.0525521
0.115969 0.172808 0.0504616
0.150027 0.173388 0.0490578
0.193347 0.173236 0.0488899
0.238361 0.172305 0.0515755
0.292638 0.169696 0.0548409
0.347112 0.166567 0.0591287
0.396674 0.16434 0.062974
0.443763 0.162509 0.066331
0.491402 0.162615 0.070222
0.536583 0.164248 0.0747539
0.576272 0.167559 0.0813001
0.612039 0.172869 0.0907607
0.645212 0.17998 0.102953
0.676707 0.188098 0.117601
0.70692 0.197086 0.133623
0.731517 0.2056 0.147066
0.74992 0.21384 0.157687
0.755459 0.216114 0.160876
0.754269 0.213825 0.160021
0.753887 0.213062 0.159731
0.753689 0.212772 0.159564
0.753811 0.212299 0.160204
0.754604 0.212528 0.161807
0.756848 0.213687 0.166018
0.760952 0.217868 0.171801
0.0259556 0.207004 0.112932
0.025452 0.210834 0.103197
0.0250858 0.21471 0.0912184
0.0247959 0.216693 0.0778973
0.0246891 0.215915 0.0679179
0.0246128 0.213733 0.0577096
0.0346838 0.21091 0.052491
0.0515908 0.212329 0.0513008
0.0882582 0.211734 0.0504768
0.139116 0.210956 0.0478676
0.183276 0.212436 0.0466163
0.233066 0.212955 0.0464027
0.287251 0.213275 0.0486305
0.346792 0.21181 0.0537118
0.406363 0.208408 0.0601511
0.458793 0.205966 0.0662242
0.503944 0.205234 0.0726482
0.548821 0.203784 0.0802167
0.590387 0.205997 0.0890059
0.627985 0.211215 0.100145
0.662257 0.218082 0.113985
0.695079 0.226596 0.129473
0.726162 0.236225 0.146395
0.752041 0.246265 0.161501
0.770428 0.255421 0.172473
0.778393 0.260136 0.177752
0.777096 0.257816 0.176669
0.776211 0.256107 0.175967
0.775555 0.254932 0.175433
0.775906 0.254932 0.176211
0.777356 0.256291 0.178393
0.780484 0.259236 0.183062
0.784314 0.263767 0.188342
0.0251011 0.244083 0.12459
0.0246281 0.248173 0.115496
0.0242313 0.251972 0.103563
0.0238651 0.254795 0.0897383
0.0237125 0.255268 0.0766766
0.0237583 0.253849 0.06598
0.0238956 0.251072 0.0553902
0.0351263 0.250187 0.0518654
0.0570535 0.25417 0.0500801
0.102403 0.25449 0.0486
0.168429 0.254643 0.0459297
0.223575 0.25713 0.0450294
0.281132 0.259648 0.0462348
0.341588 0.260731 0.0475624
0.402075 0.260014 0.0530861
0.462684 0.25597 0.0612345
0.516152 0.253651 0.0706798
0.560937 0.254108 0.0802472
0.602228 0.254688 0.0929427
0.642039 0.254734 0.109438
0.678416 0.261036 0.125322
0.713283 0.269368 0.142855
0.745571 0.27892 0.160723
0.772076 0.289158 0.176425
0.79118 0.298817 0.188815
0.800565 0.304753 0.195239
0.799588 0.302815 0.194415
0.79881 0.301335 0.19382
0.798611 0.300786 0.193744
0.799115 0.301183 0.194583
0.800595 0.30277 0.196704
0.803616 0.306233 0.200931
0.807263 0.311131 0.205798
0.0242008 0.287037 0.137713
0.0239567 0.291173 0.129335
0.0234073 0.294636 0.118059
0.0233005 0.297887 0.105211
0.0230869 0.30013 0.0915389
0.0229496 0.299611 0.077821
0.0229191 0.297856 0.0643778
0.0241855 0.295186 0.0543374
0.0397498 0.297047 0.0501564
0.0657359 0.302403 0.0474098
0.122484 0.303456 0.0463722
0.203342 0.304494 0.044892
0.268147 0.307149 0.0441901
0.33135 0.309255 0.0462501
0.395819 0.311192 0.0480964
0.455085 0.311727 0.0534371
0.51577 0.308751 0.0634012
0.569497 0.307088 0.0774243
0.61387 0.308232 0.0938125
0.652262 0.311192 0.111269
0.691569 0.312505 0.133318
0.729351 0.314626 0.155764
0.764126 0.323583 0.176043
0.791638 0.333257 0.19324
0.810803 0.341894 0.205905
0.821302 0.348547 0.213199
0.820859 0.34728 0.212909
0.820737 0.346792 0.212879
0.820706 0.346563 0.212924
0.821103 0.347021 0.213581
0.822263 0.349081 0.215015
0.824948 0.353079 0.218402
0.828092 0.358602 0.222416
0.0234379 0.334386 0.155642
0.0232548 0.338491 0.147021
0.0230411 0.342321 0.136904
0.0228428 0.345357 0.124788
0.0223545 0.348867 0.111101
0.0222934 0.349966 0.0968948
0.0222019 0.348745 0.0810712
0.0221866 0.346532 0.0643168
0.026215 0.344793 0.0534524
0.0462196 0.347967 0.0488594
0.0793317 0.353094 0.0467384
0.150347 0.353719 0.0462348
0.243793 0.354513 0.0439918
0.315847 0.357076 0.043595
0.382223 0.359518 0.0473487
0.448096 0.362844 0.0516518
0.506981 0.364279 0.0577096
0.564157 0.362921 0.0704356
0.618311 0.361669 0.0919509
0.663249 0.362921 0.114916
0.702098 0.367803 0.137041
0.741558 0.370962 0.161685
0.779675 0.372976 0.187945
0.808728 0.377859 0.20856
0.829114 0.385992 0.222522
0.84065 0.392721 0.231128
0.841199 0.393256 0.231724
0.84097 0.392645 0.23154
0.841031 0.392767 0.231617
0.841382 0.393805 0.231952
0.842359 0.39617 0.232883
0.84448 0.401038 0.23505
0.84741 0.407507 0.238346
0.0233463 0.382223 0.178531
0.0231632 0.386206 0.169635
0.0229953 0.389838 0.159854
0.0227817 0.393011 0.148409
0.0225986 0.39585 0.135119
0.0225376 0.398718 0.121004
0.0224765 0.398718 0.105638
0.0224918 0.397543 0.087892
0.0224308 0.395499 0.0667124
0.0297856 0.394949 0.0538338
0.0569314 0.398184 0.0489357
0.0977798 0.402426 0.047013
0.185168 0.403372 0.0457313
0.291203 0.404822 0.0437781
0.367681 0.408148 0.0460365
0.433158 0.41146 0.052369
0.498512 0.415 0.0597238
0.556252 0.417487 0.069398
0.610605 0.417563 0.0875257
0.66508 0.416861 0.114137
0.712444 0.419348 0.142199
0.753277 0.423896 0.168353
0.790799 0.429221 0.194156
0.822217 0.433082 0.217136
0.844388 0.437812 0.234485
0.85713 0.443458 0.244831
0.859144 0.444968 0.246723
0.858976 0.44448 0.246586
0.859068 0.444709 0.246662
0.859312 0.44593 0.246769
0.860349 0.449531 0.247517
0.862043 0.454765 0.249134
0.864302 0.462165 0.251423
0.0239719 0.430274 0.2056
0.0239261 0.433982 0.198169
0.0238651 0.437964 0.189349
0.0238651 0.440818 0.177966
0.0237278 0.443519 0.164355
0.0237888 0.446708 0.1505
0.0240024 0.448844 0.134249
0.0240635 0.44831 0.118227
0.0241398 0.44654 0.0973678
0.0243229 0.44445 0.0725872
0.0353704 0.444602 0.0564431
0.073518 0.448569 0.0504311
0.12607 0.45333 0.0487068
0.227512 0.455055 0.047715
0.345235 0.457145 0.0475013
0.420859 0.460548 0.0518349
0.48275 0.464149 0.0617533
0.546456 0.468376 0.0747234
0.604593 0.471489 0.0911574
0.657588 0.472938 0.113497
0.711559 0.473457 0.142184
0.761456 0.47567 0.174395
0.801999 0.480201 0.20238
0.832212 0.487236 0.224506
0.855329 0.493065 0.242435
0.870039 0.498573 0.254765
0.873655 0.501381 0.258183
0.873549 0.501106 0.258122
0.873655 0.501518 0.258228
0.873945 0.503349 0.258442
0.874815 0.506569 0.25922
0.875883 0.511742 0.260319
0.877607 0.519127 0.262364
0.0265202 0.478996 0.239673
0.0267338 0.482673 0.233097
0.0269017 0.486 0.224598
0.0271 0.488487 0.214023
0.0272679 0.491051 0.20238
0.0277104 0.493828 0.189746
0.0283055 0.497139 0.173388
0.0287785 0.497902 0.156207
0.0290532 0.496529 0.13724
0.0294957 0.494469 0.115221
0.0310826 0.492363 0.0869154
0.0492714 0.494484 0.0663767
0.0992905 0.500252 0.0565194
0.166186 0.505104 0.054139
0.278019 0.507546 0.0538338
0.401679 0.510628 0.0571298
0.47364 0.514305 0.0663615
0.531838 0.518807 0.0817121
0.594232 0.523003 0.100587
0.652018 0.525628 0.121004
0.704067 0.527657 0.145022
0.758679 0.528969 0.17586
0.808011 0.531731 0.208927
0.84239 0.537408 0.234943
0.864759 0.544686 0.252171
0.880446 0.551492 0.265156
0.885618 0.555825 0.270619
0.885573 0.55581 0.270649
0.885756 0.556786 0.270909
0.886259 0.558282 0.271458
0.886656 0.561242 0.271916
0.888029 0.566644 0.273671
0.889174 0.5738 0.275502
0.0338445 0.527245 0.279728
0.0337987 0.53048 0.273579
0.0341192 0.533684 0.266163
0.0344396 0.535973 0.256779
0.0349126 0.538338 0.247593
0.0356146 0.541161 0.236057
0.0364996 0.543923 0.221012
0.0373846 0.546105 0.203372
0.0380102 0.545708 0.184695
0.0386206 0.544228 0.163943
0.0394903 0.542123 0.139132
0.0447242 0.540322 0.107301
0.0794385 0.544854 0.0800183
0.142184 0.551904 0.0699931
0.218387 0.557382 0.0667124
0.334478 0.561639 0.0684672
0.45684 0.564446 0.0781262
0.52488 0.56846 0.0915389
0.579583 0.572412 0.109651
0.641047 0.576349 0.131777
0.699672 0.579034 0.155962
0.752621 0.581674 0.18262
0.805936 0.584176 0.214008
0.84744 0.58764 0.243381
0.874388 0.593713 0.265492
0.890288 0.601419 0.279088
0.896849 0.608148 0.285863
0.897139 0.609354 0.286595
0.897246 0.610117 0.28687
0.897261 0.611307 0.287083
0.8981 0.614588 0.288258
0.899199 0.619959 0.290074
0.900252 0.627329 0.292317
0.0468757 0.575082 0.321889
0.0470283 0.578225 0.317143
0.0473487 0.581308 0.31194
0.0473793 0.583963 0.305318
0.0475166 0.586191 0.297154
0.0478218 0.588037 0.285756
0.0485389 0.590417 0.272312
0.0499275 0.593332 0.256809
0.0511788 0.594995 0.237995
0.0517891 0.593896 0.218067
0.0527047 0.591897 0.194034
0.0542916 0.588952 0.165469
0.0651408 0.58819 0.12961
0.125795 0.59646 0.0992905
0.198566 0.60441 0.0909285
0.278325 0.611399 0.0898299
0.393545 0.616251 0.0937057
0.510643 0.618952 0.108263
0.574929 0.62266 0.123751
0.627558 0.626642 0.143435
0.688487 0.630671 0.168276
0.747372 0.632837 0.194858
0.801328 0.636606 0.224445
0.847318 0.640009 0.253391
0.88043 0.644327 0.279561
0.899962 0.650706 0.297108
0.907485 0.657847 0.305745
0.907927 0.660609 0.307256
0.907866 0.661418 0.307576
0.908095 0.663096 0.308309
0.90898 0.666331 0.309911
0.909926 0.67155 0.312047
0.911254 0.678599 0.315084
0.0654459 0.623804 0.365896
0.0662699 0.627253 0.363058
0.0667277 0.630167 0.359091
0.0669718 0.632578 0.353323
0.0670634 0.634699 0.346029
0.0671092 0.636698 0.337407
0.067155 0.638911 0.326619
0.0678264 0.64126 0.312383
0.0697032 0.644648 0.295125
0.0705577 0.644404 0.275944
0.071107 0.642435 0.253468
0.072755 0.639948 0.226978
0.0770123 0.636484 0.192538
0.0955062 0.637018 0.151095
0.187625 0.650156 0.125078
0.262104 0.65893 0.120073
0.341726 0.66685 0.120897
0.454398 0.671733 0.12755
0.564401 0.674327 0.144701
0.626459 0.678843 0.162295
0.677409 0.68304 0.183139
0.736599 0.687144 0.2094
0.797787 0.689647 0.239628
0.846891 0.694163 0.269245
0.883894 0.698512 0.297398
0.907927 0.702831 0.318822
0.918013 0.708598 0.330617
0.919051 0.712825 0.333593
0.919066 0.71397 0.333806
0.919341 0.715892 0.334615
0.920302 0.719646 0.336507
0.921492 0.72491 0.33904
0.923186 0.732341 0.342947
0.0905776 0.673884 0.410468
0.0920729 0.677806 0.408286
0.0930037 0.680781 0.405112
0.0934462 0.683024 0.40029
0.0939803 0.685161 0.394965
0.094255 0.687236 0.388006
0.0945296 0.689479 0.379446
0.0949111 0.691936 0.368093
0.0956588 0.694682 0.353628
0.0971389 0.696834 0.335363
0.0976425 0.695109 0.314229
0.0989395 0.692744 0.289494
0.10251 0.689952 0.25922
0.112016 0.687816 0.221561
0.153338 0.692226 0.177813
0.256626 0.706355 0.158114
0.330022 0.715587 0.15555
0.405295 0.723964 0.158511
0.515984 0.729229 0.168276
0.618784 0.732326 0.187472
0.679606 0.737881 0.206928
0.72903 0.743404 0.228779
0.787884 0.746929 0.256947
0.846357 0.750332 0.289128
0.887587 0.75552 0.319722
0.914443 0.759441 0.342901
0.928969 0.763409 0.358923
0.931594 0.767803 0.365042
0.932052 0.769711 0.365988
0.932601 0.772198 0.36701
0.933059 0.775647 0.368414
0.934691 0.781399 0.371817
0.936416 0.788663 0.376196
0.124681 0.726894 0.454978
0.126238 0.730159 0.453391
0.127749 0.733257 0.451057
0.128725 0.735561 0.44744
0.129244 0.737408 0.442863
0.129992 0.739544 0.437339
0.130571 0.741726 0.430167
0.131106 0.743862 0.42089
0.131685 0.74612 0.408469
0.132494 0.748562 0.392996
0.133364 0.748486 0.374228
0.1346 0.74667 0.351171
0.137057 0.743755 0.323171
0.142321 0.740246 0.289387
0.158282 0.739223 0.248432
0.229572 0.750057 0.209827
0.328634 0.762142 0.195102
0.397223 0.770535 0.194659
0.466957 0.778881 0.199496
0.578134 0.784741 0.212665
0.67483 0.790021 0.234775
0.734585 0.797009 0.256336
0.782879 0.802609 0.279164
0.839521 0.805798 0.309285
0.888243 0.809857 0.342489
0.92015 0.814267 0.369223
0.938079 0.817533 0.388205
0.943435 0.820539 0.398718
0.943908 0.82266 0.40145
0.944213 0.824796 0.402579
0.944656 0.828077 0.404257
0.945739 0.832654 0.406973
0.947295 0.838407 0.411063
0.163073 0.776165 0.49926
0.164462 0.77882 0.497444
0.166094 0.781537 0.495964
0.166934 0.78349 0.492409
0.167407 0.784955 0.488334
0.167895 0.786343 0.483223
0.168307 0.787808 0.476539
0.168521 0.789273 0.468147
0.168734 0.790814 0.45742
0.169131 0.792859 0.444297
0.169406 0.793759 0.427665
0.169787 0.792294 0.407507
0.171099 0.78996 0.382513
0.17409 0.786511 0.35108
0.1832 0.784054 0.314473
0.206531 0.784054 0.268711
0.303532 0.798489 0.238285
0.395056 0.808087 0.228534
0.460533 0.815702 0.230198
0.526955 0.823896 0.237354
0.640543 0.831556 0.255894
0.734432 0.838651 0.281773
0.788602 0.84538 0.303502
0.83621 0.850217 0.329274
0.885328 0.854032 0.362203
0.92285 0.858076 0.392859
0.944366 0.861738 0.414923
0.952209 0.863752 0.428595
0.952605 0.865064 0.434226
0.952041 0.867094 0.435187
0.952056 0.869688 0.436835
0.952453 0.872587 0.438972
0.953445 0.876936 0.442252
0.196597 0.815412 0.539681
0.197208 0.817075 0.537896
0.198184 0.819104 0.535866
0.198901 0.820645 0.533135
0.199191 0.821668 0.529152
0.199283 0.822583 0.524269
0.199176 0.823392 0.51812
0.198779 0.824155 0.509911
0.198169 0.824918 0.499977
0.197375 0.825788 0.487007
0.196674 0.826398 0.471031
0.196338 0.825422 0.452659
0.197574 0.823957 0.430854
0.199634 0.821057 0.403357
0.204471 0.817533 0.369924
0.218082 0.815961 0.330037
0.263493 0.821302 0.288426
0.369574 0.834485 0.262867
0.454337 0.84239 0.257481
0.517311 0.849607 0.261372
0.582727 0.857298 0.270588
0.699229 0.865934 0.294087
0.790066 0.873503 0.323278
0.836194 0.880217 0.345861
0.880247 0.885634 0.37586
0.919966 0.890623 0.410819
0.945357 0.893599 0.435981
0.955871 0.895216 0.452567
0.956481 0.896284 0.461357
0.955978 0.897322 0.462806
0.955734 0.898955 0.464439
0.955627 0.900999 0.466331
0.955932 0.903456 0.468849
0.222553 0.843046 0.575601
0.22298 0.844434 0.57409
0.223331 0.845731 0.572122
0.223133 0.846448 0.568582
0.222858 0.847013 0.56466
0.222431 0.847349 0.559884
0.221714 0.847562 0.553735
0.220752 0.847791 0.545846
0.219409 0.84773 0.535698
0.2177 0.847517 0.523232
0.216129 0.847166 0.508202
0.216052 0.846571 0.491905
0.216434 0.84509 0.472648
0.217624 0.843061 0.448966
0.221042 0.840452 0.419104
0.229191 0.838315 0.383658
0.257649 0.840894 0.344289
0.32488 0.851637 0.315022
0.423835 0.861006 0.291707
0.505806 0.866712 0.285344
0.567422 0.87274 0.29012
0.636301 0.878416 0.300252
0.751247 0.887678 0.327703
0.833753 0.895796 0.358724
0.87657 0.902235 0.384741
0.912795 0.908522 0.419623
0.942428 0.912291 0.449882
0.955489 0.913924 0.470207
0.956954 0.914961 0.482307
0.956344 0.915541 0.486488
0.955795 0.916075 0.487984
0.955535 0.916793 0.489921
0.955779 0.917693 0.4925
0.238132 0.857038 0.604807
0.237461 0.857191 0.602853
0.23682 0.85742 0.600565
0.235813 0.85742 0.596963
0.23476 0.857298 0.592859
0.233555 0.856931 0.587869
0.232242 0.856519 0.581827
0.230671 0.856062 0.573953
0.228717 0.854856 0.563897
0.227237 0.854139 0.552987
0.226001 0.853483 0.540719
0.225223 0.852888 0.526284
0.225055 0.852125 0.50811
0.225986 0.851118 0.485359
0.228244 0.849744 0.458183
0.233692 0.84828 0.426062
0.252293 0.849195 0.390448
0.30602 0.858701 0.36112
0.374685 0.867796 0.338262
0.463462 0.873198 0.318883
0.546288 0.877928 0.314443
0.612818 0.882658 0.319631
0.685893 0.888106 0.33167
0.796826 0.896574 0.360525
0.869001 0.904768 0.394247
0.905547 0.910124 0.420737
0.936461 0.915465 0.453178
0.953445 0.918883 0.480552
0.955856 0.920394 0.49868
0.955306 0.921004 0.505516
0.95491 0.921157 0.506279
0.954696 0.92137 0.507469
0.954787 0.92163 0.508812
0.24271 0.860899 0.618402
0.241611 0.860548 0.615259
0.240543 0.860197 0.611826
0.239384 0.85977 0.607919
0.23827 0.859358 0.603464
0.236957 0.858854 0.598077
0.235309 0.858076 0.591379
0.233371 0.857053 0.583215
0.231266 0.856214 0.572946
0.228916 0.855085 0.5608
0.227481 0.854246 0.548074
0.226276 0.853422 0.533928
0.226749 0.853208 0.518639
0.228412 0.853086 0.501244
0.23093 0.852674 0.480369
0.235645 0.852125 0.454734
0.251865 0.854032 0.424826
0.298833 0.863844 0.398825
0.3579 0.872908 0.374838
0.422766 0.878401 0.356176
0.510369 0.881971 0.342092
0.595041 0.886198 0.340871
0.668666 0.891157 0.34992
0.74966 0.8972 0.366094
0.846052 0.905516 0.397757
0.900771 0.911467 0.427893
0.931304 0.915709 0.454276
0.951186 0.919387 0.482887
0.955489 0.921386 0.505745
0.955245 0.922484 0.51693
0.954803 0.922591 0.516258
0.95462 0.922667 0.515892
0.954681 0.922683 0.515587
0.244297 0.861875 0.624399
0.243397 0.861585 0.621363
0.242618 0.861341 0.618219
0.241535 0.860838 0.614359
0.240345 0.860319 0.609812
0.238987 0.859693 0.604349
0.23743 0.859007 0.597864
0.235447 0.85803 0.589944
0.233051 0.856825 0.579385
0.230472 0.855772 0.566903
0.228275 0.854627 0.553353
0.226963 0.853742 0.538476
0.226795 0.853269 0.522805
0.228458 0.853284 0.505379
0.230869 0.852903 0.484047
0.235279 0.852384 0.458671
0.247318 0.852979 0.428138
