bundles/resolve-cinematic-luts/Phantom Luts/P4k & P6k Phntm Arri LUTs - V6/P4K/Gen 4 Colour/Standard (No WB Offset)/P4k Neutral Gen4.cube
TITLE "Generated by Resolve"
LUT_3D_SIZE 33
0 0 0
0 0 0
0.0161593 0 0.000335698
0.0519112 3.0518e-05 0.00344854
0.0847639 0.000427253 0.00601205
0.115846 0.00111391 0.00875868
0.14934 0.00198367 0.0117952
0.187167 0.00317388 0.0155489
0.227756 0.00457771 0.0201419
0.272343 0.00630198 0.0260929
0.319234 0.00810254 0.033051
0.367727 0.0099794 0.0411231
0.4168 0.0124056 0.0490883
0.467994 0.0151675 0.058793
0.521477 0.0198062 0.0702068
0.575982 0.0256199 0.0831159
0.612299 0.0365759 0.0981918
0.666102 0.0426947 0.110719
0.722271 0.048188 0.123613
0.782116 0.0528725 0.135958
0.838987 0.0583505 0.147875
0.890654 0.065156 0.16054
0.934585 0.0742504 0.17293
0.967941 0.0862745 0.184405
0.968093 0.097322 0.192233
0.967834 0.10396 0.198489
0.967788 0.108095 0.203738
0.967941 0.109361 0.207874
0.968078 0.110506 0.211383
0.968185 0.111528 0.21471
0.968246 0.112383 0.217441
0.9682 0.113008 0.219898
0.968338 0.113649 0.222293
0 0 0
0 0 0
0.00244144 0 0
0.0340124 0.00260929 0.0016022
0.0657054 0.00476081 0.00378424
0.0981765 0.00639353 0.00573739
0.1308 0.00820935 0.00802625
0.167926 0.00981155 0.0102235
0.208713 0.0111391 0.0127108
0.252934 0.0133059 0.01561
0.300862 0.0151064 0.0185855
0.35053 0.0178531 0.0227665
0.401526 0.0199435 0.029221
0.453666 0.021622 0.0372931
0.508095 0.0228122 0.045655
0.563058 0.0246738 0.0555581
0.605219 0.0318303 0.0708629
0.659937 0.0368048 0.0852979
0.716106 0.0409247 0.0982834
0.776211 0.0450141 0.11191
0.83418 0.0498207 0.125933
0.886564 0.0549477 0.138018
0.932021 0.0625162 0.149981
0.967071 0.0726329 0.161517
0.971481 0.0836347 0.169512
0.971206 0.0896925 0.175219
0.970993 0.0953841 0.180728
0.970703 0.100725 0.186007
0.970474 0.10515 0.190402
0.970214 0.109285 0.194583
0.96994 0.112886 0.198276
0.96965 0.115679 0.201175
0.969451 0.118441 0.204044
0 0.00724804 0.00196841
0 0.00497444 0
0.00164797 0.00241093 0
0.0162509 0.00686656 0.000106813
0.0455634 0.00849927 0.00216678
0.0807355 0.0111696 0.00476081
0.115465 0.0144961 0.00788891
0.152789 0.0171054 0.0103304
0.194934 0.0197452 0.0130007
0.239384 0.0220951 0.0155337
0.287755 0.0244297 0.018265
0.337377 0.0261082 0.0208133
0.386007 0.0282597 0.0236667
0.435645 0.0311284 0.027451
0.486412 0.0348363 0.0324254
0.540948 0.0383917 0.0403754
0.591623 0.0420386 0.0547494
0.648554 0.0439918 0.0681163
0.706401 0.0462959 0.082475
0.766873 0.0476539 0.0950179
0.826627 0.0493019 0.106966
0.880629 0.0527962 0.119081
0.927703 0.0574197 0.130083
0.964477 0.0663462 0.141161
0.974227 0.0758831 0.149004
0.974151 0.0799725 0.153506
0.97406 0.084062 0.157717
0.973922 0.0881819 0.162173
0.973709 0.0927291 0.16672
0.973404 0.0968032 0.170825
0.973236 0.100343 0.174365
0.973037 0.103639 0.177722
0.972869 0.106493 0.180636
0 0.0459449 0.0136873
0 0.0441596 0.00309758
0.0034638 0.0400092 0
0.0284886 0.038529 0
0.0525826 0.0419776 0.000747692
0.08336 0.0437171 0.00634775
0.114488 0.0447089 0.00784314
0.148775 0.043473 0.0103456
0.187106 0.0407263 0.0123751
0.228397 0.0393072 0.013962
0.273182 0.0374456 0.0157931
0.322072 0.0349126 0.0184634
0.372137 0.0365301 0.0215
0.422477 0.0395666 0.0248722
0.473777 0.04271 0.0295415
0.526986 0.0457923 0.0356909
0.577966 0.0503243 0.0440681
0.630426 0.0545052 0.0515602
0.687312 0.0575113 0.0603799
0.750393 0.0592203 0.0770581
0.814267 0.0601663 0.0929274
0.870954 0.0626841 0.106218
0.919753 0.0677653 0.118807
0.958297 0.0768597 0.130266
0.97586 0.0874037 0.138949
0.975647 0.0903334 0.142931
0.975479 0.0931258 0.146563
0.975418 0.0958572 0.150179
0.975387 0.0982528 0.153368
0.975296 0.100435 0.156268
0.975219 0.102312 0.158755
0.975143 0.104036 0.161105
0.975082 0.105531 0.163134
0 0.0836347 0.027924
0 0.0839094 0.00875868
0 0.0802625 0
0.0174105 0.075639 0
0.0555734 0.0767834 0
0.0847944 0.0787976 0
0.119051 0.0784924 0.00851453
0.155077 0.0779278 0.0110323
0.191989 0.0765698 0.0129091
0.233753 0.0715648 0.0162966
0.278843 0.066804 0.0187381
0.326406 0.063859 0.0206149
0.373007 0.0610819 0.0227359
0.419181 0.0585336 0.0252995
0.465766 0.0559243 0.0284733
0.515221 0.0534218 0.0337682
0.569131 0.0575875 0.0409705
0.620783 0.062623 0.0489509
0.676753 0.0661021 0.0560769
0.734081 0.0695048 0.0634318
0.794446 0.0734264 0.0717174
0.852964 0.0775616 0.0844892
0.906386 0.0828412 0.100145
0.948852 0.0911574 0.114153
0.97612 0.101366 0.12578
0.977279 0.103883 0.130541
0.977127 0.10634 0.134798
0.977005 0.108629 0.138628
0.976883 0.11078 0.142123
0.976776 0.112673 0.145052
0.976684 0.114473 0.147845
0.976593 0.116045 0.150271
0.976532 0.117342 0.152163
0 0.119478 0.0370489
0 0.121477 0.0178988
0 0.118715 0
0.000427253 0.114916 0
0.0342412 0.114366 0
0.0846571 0.113909 0
0.113161 0.11516 0
0.154467 0.113542 0.000686656
0.198932 0.11078 0.0107424
0.241032 0.107591 0.014435
0.284001 0.102968 0.0178378
0.332265 0.0953384 0.0222629
0.378943 0.0919661 0.0244602
0.425559 0.0893416 0.0274662
0.472251 0.0872511 0.0314488
0.519158 0.0853437 0.0364233
0.567559 0.0838636 0.0420386
0.616434 0.0820172 0.0480659
0.667994 0.0784009 0.0538949
0.723873 0.0800183 0.0610056
0.783719 0.0845808 0.0687114
0.841291 0.0904707 0.0771191
0.891798 0.0983749 0.0862898
0.934768 0.108751 0.0946975
0.968383 0.119982 0.101869
0.97174 0.122255 0.108217
0.973739 0.124743 0.114107
0.975097 0.126787 0.119249
0.976318 0.128283 0.123659
0.97734 0.12961 0.127321
0.97818 0.130785 0.130587
0.978149 0.131868 0.133196
0.978042 0.132906 0.135698
0 0.15581 0.0504463
0 0.159533 0.0260624
0 0.158297 0.00135805
0 0.154803 0
0.0132601 0.151492 0
0.0608225 0.15227 0
0.112978 0.151568 0
0.140948 0.153079 0
0.191516 0.150912 0
0.239445 0.147341 0.00755322
0.293324 0.140444 0.0132601
0.339834 0.135119 0.0189822
0.384848 0.128725 0.0244602
0.432074 0.124498 0.02916
0.479026 0.122454 0.0333104
0.526528 0.121416 0.0389715
0.574716 0.120394 0.04477
0.624201 0.119692 0.050721
0.674449 0.11809 0.0559091
0.726085 0.116197 0.0614786
0.779507 0.113603 0.0673838
0.832609 0.110842 0.0746319
0.881544 0.111482 0.08365
0.925658 0.121355 0.0922713
0.960403 0.132967 0.0995346
0.968444 0.139223 0.100984
0.968261 0.143389 0.100969
0.968261 0.147066 0.101152
0.967956 0.150088 0.101061
0.968139 0.152728 0.101595
0.969604 0.15349 0.104494
0.970642 0.154589 0.107256
0.971572 0.155703 0.110033
0 0.195865 0.0656748
0 0.199969 0.0407263
0 0.201297 0.0153048
0 0.198672 0
0 0.19379 0
0.0267033 0.195087 0
0.0882124 0.193973 0
0.141833 0.193545 0
0.174365 0.195239 0
0.229618 0.193332 0
0.283726 0.1888 0.00289921
0.344305 0.181125 0.0108644
0.395056 0.173907 0.019379
0.438727 0.169543 0.0258335
0.485954 0.162371 0.0341344
0.533623 0.161334 0.0401312
0.582498 0.161151 0.0469825
0.631632 0.1608 0.0531014
0.681804 0.160266 0.0588235
0.732525 0.159747 0.0650034
0.784604 0.159075 0.0712596
0.835554 0.159106 0.0783093
0.880339 0.160159 0.0854353
0.92047 0.162173 0.0925307
0.953765 0.16553 0.0993668
0.967514 0.164385 0.101686
0.967712 0.160403 0.101549
0.967636 0.162097 0.101595
0.967498 0.16495 0.101732
0.967422 0.167788 0.101884
0.967361 0.170275 0.102052
0.967315 0.172457 0.102205
0.967391 0.174289 0.102434
0 0.238422 0.0805219
0 0.242344 0.0571298
0 0.24564 0.030045
0 0.243946 0.00587472
0 0.240726 0
0 0.237613 0
0.0418708 0.241672 0
0.112612 0.239094 0
0.171603 0.238331 0
0.212268 0.240116 0
0.270665 0.239429 0
0.332906 0.234348 0
0.391867 0.228183 0.00596628
0.448142 0.219669 0.0180209
0.494987 0.214694 0.0269169
0.539696 0.211505 0.0358434
0.588861 0.20531 0.0483406
0.637827 0.205875 0.0559243
0.687297 0.206119 0.0626993
0.736812 0.206424 0.0696422
0.787823 0.207172 0.076997
0.837293 0.208148 0.0848402
0.880522 0.210468 0.0923934
0.91928 0.214069 0.0994125
0.951095 0.218555 0.105333
0.966934 0.220371 0.108217
0.967071 0.217121 0.107805
0.966934 0.21384 0.107149
0.966873 0.210758 0.106645
0.966857 0.20795 0.106203
0.966903 0.205478 0.105867
0.966888 0.203601 0.105577
0.966873 0.201617 0.105303
0 0.284306 0.0954147
0 0.288151 0.0743725
0 0.2925 0.0498512
0 0.292683 0.0258946
0 0.290394 0
0 0.285756 0
0.0110323 0.287373 0
0.0591592 0.291234 0
0.137606 0.287861 0
0.205798 0.287419 0
0.25359 0.289097 0
0.315328 0.289876 0
0.381933 0.285573 0
0.44004 0.280934 0
0.499901 0.272328 0.0145266
0.549218 0.267765 0.0279698
0.593179 0.266804 0.0394903
0.640726 0.263767 0.0529335
0.690166 0.257969 0.066865
0.738521 0.257969 0.0761425
0.788235 0.259403 0.0853132
0.836255 0.260945 0.093492
0.879072 0.263539 0.101198
0.917205 0.266972 0.107988
0.948867 0.271138 0.113939
0.967971 0.274113 0.117769
0.967987 0.271519 0.117281
0.967926 0.268757 0.116762
0.967895 0.266209 0.116289
0.967788 0.263951 0.115801
0.967681 0.261891 0.115343
0.967727 0.260151 0.115068
0.967819 0.258701 0.114885
0 0.333867 0.112016
0 0.337407 0.0931563
0 0.341482 0.070573
0 0.344274 0.0474861
0 0.343053 0.0239719
0 0.340459 0
0 0.335012 0
0.0265202 0.340826 0
0.0787213 0.344259 0
0.168688 0.340169 0
0.244511 0.339544 0
0.299107 0.341619 0
0.363165 0.343038 0
0.429221 0.341405 0
0.489143 0.337011 0
0.548669 0.330327 0.0112612
0.600107 0.326009 0.0309453
0.644617 0.325597 0.0453498
0.688685 0.324865 0.0581369
0.73698 0.321096 0.0738994
0.786343 0.316289 0.0902571
0.834455 0.313588 0.102785
0.876951 0.315908 0.11075
0.914946 0.318502 0.117433
0.946548 0.322621 0.123705
0.968933 0.326146 0.12845
0.968994 0.323857 0.128023
0.968978 0.321721 0.127581
0.968841 0.319677 0.127062
0.968795 0.317769 0.12665
0.968765 0.31606 0.126284
0.968734 0.314534 0.125963
0.968719 0.313191 0.125673
0 0.383536 0.133043
0 0.386877 0.113848
0 0.390494 0.0935225
0 0.394491 0.0712596
0 0.39498 0.0495766
0 0.393729 0.0232242
0 0.390631 0
0 0.388602 0
0.0475471 0.393149 0
0.102266 0.39649 0
0.207004 0.391592 0
0.289311 0.391379 0
0.347204 0.393896 0
0.410529 0.395682 0
0.475319 0.396643 0
0.536324 0.392142 0
0.594949 0.387442 0.0128328
0.647883 0.382834 0.0361944
0.693492 0.38143 0.052369
0.735683 0.382498 0.0658274
0.783352 0.380072 0.0830854
0.830884 0.376638 0.0993515
0.873716 0.374243 0.113649
0.911665 0.37258 0.124956
0.944045 0.373312 0.134325
0.969635 0.377615 0.140368
0.970001 0.375662 0.139956
0.969909 0.373785 0.139483
0.970016 0.372229 0.139239
0.969985 0.370581 0.138842
0.96997 0.3691 0.138476
0.96994 0.367788 0.13817
0.969848 0.36669 0.137835
0 0.433066 0.159838
0 0.436316 0.140887
0 0.439704 0.12076
0 0.443412 0.099855
0 0.446754 0.0778668
0 0.446174 0.0543832
0 0.444785 0.0243076
0 0.441444 0
0.00769055 0.44155 0
0.0711528 0.445792 0
0.132906 0.448493 0
0.252506 0.442786 0
0.341009 0.44329 0
0.395758 0.446143 0
0.458198 0.448508 0
0.521706 0.450477 0
0.582513 0.446754 0.00187686
0.64004 0.442542 0.0213474
0.69453 0.43801 0.0416724
0.741009 0.436347 0.0607919
0.783719 0.437766 0.0760357
0.827832 0.437293 0.0921492
0.869795 0.435966 0.107805
0.907149 0.435248 0.121294
0.939269 0.43592 0.133043
0.964874 0.437858 0.142046
0.969436 0.43682 0.143664
0.969467 0.434821 0.143648
0.969497 0.43299 0.143618
0.969528 0.431296 0.143603
0.969604 0.429862 0.143648
0.969741 0.428702 0.14374
0.969696 0.427558 0.143648
0 0.482628 0.192645
0 0.485786 0.174365
0 0.489113 0.154757
0 0.492592 0.134264
0 0.496635 0.111223
0 0.498314 0.0876173
0 0.498009 0.0617685
0 0.496605 0.027039
0 0.494148 0
0.0355993 0.495125 0
0.0997482 0.49839 0
0.172732 0.499809 0
0.305959 0.493904 0
0.393515 0.494759 0
0.443839 0.497826 0.00129702
0.505196 0.500542 0.00802625
0.568231 0.502937 0.00627146
0.627832 0.500099 0.0139467
0.684672 0.495857 0.0300603
0.74023 0.491585 0.0484474
0.788327 0.48986 0.0709239
0.829679 0.490806 0.0873732
0.866514 0.492638 0.101183
0.903212 0.492943 0.116899
0.934615 0.494011 0.130175
0.960082 0.496101 0.140871
0.966445 0.496803 0.144045
0.966522 0.495186 0.144015
0.966598 0.493706 0.143984
0.966674 0.492348 0.143954
0.966735 0.491127 0.143923
0.966735 0.490074 0.143832
0.966705 0.489174 0.143709
0 0.53196 0.23154
0 0.534936 0.214649
0 0.538445 0.195529
0 0.541741 0.176196
0 0.545541 0.153704
0 0.550057 0.12665
0 0.550225 0.100938
0 0.549874 0.0723278
0 0.548516 0.0307469
0 0.546761 0
0.0662852 0.547692 0
0.135363 0.550042 0
0.220676 0.550637 0
0.36257 0.544549 0.00608835
0.443397 0.546166 0.00648508
0.491753 0.549249 0.0144808
0.551949 0.55201 0.0220951
0.613718 0.554437 0.0212558
0.673014 0.551781 0.0267491
0.728161 0.547967 0.041413
0.784939 0.543145 0.0615549
0.831617 0.541909 0.0817121
0.868589 0.543084 0.100282
0.900252 0.546578 0.112917
0.93019 0.548379 0.127031
0.955428 0.550744 0.140154
0.96376 0.552728 0.146059
0.963943 0.551629 0.14609
0.963989 0.550423 0.146044
0.964034 0.549325 0.146044
0.964065 0.548333 0.146044
0.964034 0.547494 0.145922
0.963989 0.546761 0.145769
0 0.581262 0.27364
0 0.584009 0.257877
0 0.586938 0.240787
0 0.590097 0.222675
0 0.593683 0.20206
0 0.598123 0.17641
0 0.601267 0.147539
0 0.601541 0.117403
0 0.601038 0.0819104
0 0.599557 0.0335241
0 0.598672 0
0.101884 0.599512 0
0.179965 0.601099 0
0.275303 0.601358 0.00979629
0.41828 0.5953 0.01944
0.491905 0.597543 0.0184634
0.539101 0.600092 0.0285801
0.597696 0.602625 0.0371557
0.658274 0.6047 0.0373541
0.716411 0.60206 0.0442359
0.771405 0.598352 0.0570382
0.8262 0.593759 0.0780804
0.868391 0.59263 0.0959793
0.901289 0.594369 0.116426
0.927687 0.598505 0.128161
0.951293 0.602335 0.141329
0.961959 0.605661 0.151995
0.961975 0.604639 0.151812
0.962005 0.603677 0.151644
0.96199 0.602808 0.151461
0.96202 0.602197 0.151293
0.962127 0.601602 0.151278
0.962142 0.600946 0.151186
0 0.629923 0.318807
0 0.632273 0.304524
0 0.635004 0.288746
0 0.637934 0.272038
0 0.641276 0.252689
0 0.645335 0.228855
0 0.650507 0.19939
0 0.651698 0.169055
0 0.652079 0.133913
0 0.65153 0.0915236
0 0.650278 0.0356909
0.0454566 0.649943 0
0.147021 0.650233 0
0.231022 0.651713 0.0122835
0.335241 0.651408 0.0251164
0.473289 0.645655 0.0333562
0.53959 0.648127 0.0332952
0.585351 0.650111 0.0449073
0.641978 0.652277 0.0543374
0.701701 0.653407 0.0562905
0.758465 0.650706 0.0644846
0.81297 0.647059 0.0768292
0.861357 0.642954 0.0990921
0.899153 0.642054 0.120912
0.927733 0.644495 0.140551
0.949294 0.649989 0.151904
0.961273 0.655314 0.163058
0.961257 0.655283 0.164172
0.961166 0.654566 0.16379
0.96112 0.653895 0.16347
0.96112 0.653254 0.163256
0.96112 0.652659 0.163058
0.961135 0.65214 0.162905
0 0.678691 0.362875
0 0.680827 0.350683
0 0.683146 0.337636
0 0.68574 0.323003
0 0.688731 0.306065
0 0.692454 0.284199
0 0.69723 0.256641
0 0.701503 0.224399
0 0.702037 0.190906
0 0.702296 0.150835
0 0.701457 0.0999466
0 0.701366 0.0353246
0.0974594 0.700206 0
0.200824 0.699947 0.0159609
0.288396 0.701518 0.0305791
0.397864 0.700542 0.0433661
0.526253 0.695262 0.0488136
0.586069 0.697719 0.0495003
0.630198 0.698924 0.0626383
0.684886 0.700572 0.0727092
0.743313 0.700694 0.0771344
0.798718 0.697948 0.0878309
0.849134 0.695003 0.10312
0.893004 0.691814 0.124529
0.925109 0.691157 0.155749
0.947921 0.694469 0.177218
0.960266 0.700282 0.18909
0.960204 0.702693 0.191775
0.96022 0.702113 0.191363
0.96022 0.701549 0.190982
0.960235 0.701045 0.190631
0.960235 0.700572 0.190311
0.96025 0.70016 0.190036
0 0.727138 0.404456
0 0.728969 0.394049
0 0.731014 0.382635
0 0.733211 0.370382
0 0.735775 0.356115
0 0.738979 0.338262
0 0.743267 0.314611
0 0.748684 0.283803
0 0.750927 0.250111
0 0.751629 0.212055
0 0.751522 0.165927
0 0.750179 0.104875
0.00112917 0.75108 0.0259403
0.158618 0.748867 0.0196231
0.260792 0.748547 0.0370031
0.347036 0.750652 0.0502785
0.459464 0.748547 0.0628214
0.57734 0.743389 0.0648356
0.63093 0.745693 0.0669261
0.674006 0.746593 0.081651
0.726436 0.748165 0.0931563
0.784573 0.747051 0.100557
0.836362 0.745281 0.115953
0.880812 0.74313 0.135241
0.918883 0.74049 0.169039
0.945937 0.740978 0.198779
0.960006 0.744869 0.220172
0.959945 0.749111 0.226474
0.959976 0.748669 0.22533
0.959976 0.748211 0.224979
0.95996 0.747799 0.224689
0.95996 0.747417 0.224384
0.95996 0.747051 0.224125
0.0120394 0.775509 0.444236
0.00999466 0.777188 0.434882
0.00770581 0.779004 0.424872
0.00514229 0.781003 0.414191
0.002121 0.783337 0.401877
0 0.786267 0.386572
0 0.789944 0.367117
0 0.794766 0.341451
0 0.799832 0.308934
0 0.800809 0.27425
0 0.801068 0.230762
0 0.800565 0.177798
0 0.800076 0.107622
0.0456397 0.801038 0.0229191
0.225803 0.796994 0.0427253
0.324971 0.797223 0.0594034
0.402457 0.799451 0.0703288
0.51812 0.795956 0.0829175
0.626368 0.791211 0.0826429
0.675502 0.79379 0.0867628
0.717449 0.794873 0.102296
0.768902 0.796689 0.115557
0.824338 0.794293 0.129076
0.869734 0.793088 0.150652
0.907637 0.792523 0.18793
0.939452 0.790463 0.22504
0.960296 0.791501 0.253208
0.960418 0.795834 0.265049
0.960403 0.79559 0.263005
0.960388 0.7953 0.261631
0.960372 0.79501 0.260517
0.960372 0.794736 0.259449
0.960357 0.794476 0.258534
0.0247044 0.82266 0.481773
0.0228733 0.824094 0.473396
0.0208133 0.825666 0.464561
0.0185855 0.827344 0.455222
0.0160983 0.829221 0.444862
0.0128481 0.831647 0.431464
0.00859083 0.834791 0.414557
0.00329595 0.838788 0.392599
0 0.843809 0.364569
0 0.84622 0.332784
0 0.84686 0.294667
0 0.847135 0.245457
0.00354009 0.846632 0.183841
0.0209506 0.847654 0.105058
0.127459 0.846983 0.0451514
0.296254 0.840894 0.0674601
0.384497 0.841215 0.0818036
0.455406 0.843305 0.0911116
0.574441 0.838804 0.102083
0.675364 0.835508 0.101564
0.719219 0.838849 0.110063
0.760678 0.840253 0.127153
0.810758 0.840528 0.143832
0.860121 0.838071 0.164431
0.899626 0.837095 0.210101
0.9308 0.837049 0.249836
0.956893 0.835798 0.287938
0.961425 0.837324 0.311864
0.96144 0.83827 0.313268
0.96141 0.838224 0.31014
0.961379 0.838132 0.307469
0.961349 0.83798 0.30547
0.961318 0.837873 0.303593
0.037644 0.863661 0.517082
0.0360571 0.864866 0.509697
0.0342565 0.866194 0.501854
0.0323033 0.867597 0.493568
0.0301366 0.869169 0.48426
0.0273136 0.871153 0.472602
0.0236973 0.873701 0.457862
0.0189517 0.876982 0.438956
0.0128786 0.881193 0.414588
0.00704967 0.885496 0.384436
0.00729381 0.886213 0.352071
0.00883497 0.886748 0.310323
0.0124971 0.886809 0.255238
0.0215457 0.886534 0.183581
0.0465095 0.888304 0.0919814
0.219318 0.884123 0.070985
0.362753 0.878386 0.0918441
0.440635 0.879194 0.103426
0.511574 0.880934 0.113375
0.629984 0.876982 0.123156
0.721981 0.87538 0.124559
0.761913 0.879042 0.136965
0.803449 0.880659 0.155535
0.849287 0.878691 0.180728
0.892241 0.876493 0.228489
0.92546 0.875578 0.278141
0.950164 0.876188 0.318242
0.962203 0.875425 0.352468
0.962341 0.876143 0.363317
0.962325 0.876173 0.360449
0.962295 0.876127 0.358267
0.96228 0.876081 0.356207
0.96228 0.87602 0.354467
0.0505379 0.899199 0.55082
0.0490883 0.900191 0.544076
0.0475776 0.901259 0.53698
0.0458534 0.902434 0.529335
0.0438849 0.903746 0.520882
0.0414588 0.905379 0.510414
0.0382391 0.907515 0.497093
0.0341955 0.910155 0.480735
0.0287785 0.913664 0.459449
0.0218509 0.918151 0.431754
0.0199435 0.919997 0.401877
0.0207065 0.920699 0.366049
0.0229801 0.921111 0.32018
0.0283207 0.921187 0.257771
0.045304 0.922332 0.178866
0.0973068 0.923583 0.08159
0.311254 0.914366 0.0990005
0.42414 0.911345 0.116487
0.495064 0.912596 0.127108
0.569375 0.913725 0.138064
0.684993 0.910887 0.146319
0.764508 0.911131 0.151995
0.80444 0.914443 0.166522
0.842435 0.914443 0.192538
0.883848 0.912001 0.242557
0.920516 0.910338 0.304143
0.946609 0.909834 0.349859
0.964752 0.909331 0.385138
0.964874 0.908507 0.41004
0.964858 0.908629 0.407279
0.964858 0.908675 0.404959
0.964843 0.908705 0.402975
0.964813 0.90869 0.401556
0.0625315 0.928435 0.582345
0.0612802 0.929229 0.57615
0.0598764 0.930114 0.569512
0.0584268 0.931029 0.56257
0.0567178 0.932082 0.554879
0.0545205 0.933425 0.545342
0.0516976 0.935103 0.533593
0.0481117 0.937255 0.518837
0.0434272 0.940032 0.500008
0.0373083 0.943648 0.475502
0.0323339 0.946777 0.446555
0.0327916 0.94789 0.415122
0.0346838 0.948501 0.375708
0.0401923 0.948074 0.327474
0.050782 0.947341 0.261677
0.0757458 0.949615 0.173648
0.193668 0.949264 0.118547
0.387869 0.939635 0.137819
0.482948 0.938231 0.150408
0.552468 0.939239 0.160739
0.625864 0.940002 0.170733
0.736461 0.938048 0.177569
0.805142 0.939132 0.188556
0.842924 0.941726 0.205341
0.877165 0.941085 0.24715
0.914763 0.939147 0.326711
0.943542 0.937728 0.378759
0.964675 0.936873 0.41883
0.967407 0.935744 0.451545
0.967407 0.935836 0.450874
0.967407 0.935958 0.448722
0.967407 0.936034 0.446937
0.967422 0.936095 0.44538
0.0739605 0.951583 0.612879
0.0728313 0.952224 0.607141
0.0716106 0.952911 0.601083
0.0703136 0.953643 0.594583
0.0689097 0.954437 0.587625
0.0670787 0.955459 0.578866
0.0647135 0.956771 0.568109
0.0614786 0.958526 0.554391
0.0572213 0.960784 0.537255
0.0516365 0.963714 0.51548
0.0500954 0.965713 0.493278
0.0512703 0.966247 0.46688
0.0538796 0.966903 0.434272
0.0576638 0.967178 0.392523
0.0641794 0.966888 0.338308
0.0822766 0.968505 0.271519
0.163073 0.970947 0.208774
0.308186 0.967681 0.202014
0.455863 0.960815 0.200671
0.540581 0.95996 0.200671
0.61178 0.959686 0.209522
0.679866 0.959167 0.216083
0.78497 0.959716 0.221576
0.844785 0.961166 0.236881
0.87834 0.963119 0.260197
0.908721 0.962325 0.342367
0.940276 0.960632 0.404791
0.962676 0.959243 0.451057
0.969848 0.958297 0.486549
0.969909 0.958114 0.49398
0.969909 0.958221 0.49221
0.969894 0.958297 0.490776
0.969879 0.958358 0.489418
0.0804456 0.958953 0.64004
0.0793774 0.959106 0.634379
0.0781567 0.959274 0.628641
0.0768292 0.959457 0.622751
0.0753033 0.95967 0.616098
0.0734264 0.95996 0.607935
0.071046 0.960357 0.597772
0.0679789 0.960861 0.58526
0.0667735 0.961563 0.571694
0.0675059 0.962463 0.557214
0.0677806 0.963729 0.539117
0.0690166 0.965408 0.516136
0.0709544 0.967483 0.48716
0.0736706 0.969924 0.450752
0.0789197 0.972381 0.404456
0.0913863 0.974304 0.347723
0.15227 0.974975 0.299214
0.281849 0.972808 0.285115
0.395514 0.96875 0.28397
0.515892 0.963241 0.28368
0.600137 0.961593 0.284596
0.667948 0.960433 0.288945
0.731868 0.960388 0.291707
0.820493 0.962432 0.293843
0.874266 0.965347 0.321065
0.904387 0.966949 0.355428
0.934066 0.968475 0.417685
0.960143 0.96994 0.47425
0.971374 0.970565 0.518975
0.97142 0.970642 0.535164
0.971435 0.970642 0.533562
0.97142 0.970642 0.532418
0.971435 0.970642 0.531289
0.0834974 0.958618 0.647471
0.0825055 0.958862 0.642313
0.0813916 0.959121 0.636652
0.0801251 0.959289 0.630869
0.0786755 0.959487 0.624399
0.076997 0.959731 0.616373
0.0746929 0.960082 0.606516
0.0717479 0.960571 0.594247
0.0680095 0.961196 0.579049
0.0680858 0.962066 0.564157
0.0688029 0.963241 0.546853
0.0707408 0.964706 0.527062
0.0757916 0.9664 0.506127
0.0815442 0.968505 0.480034
0.0896162 0.970779 0.447959
0.101472 0.972946 0.407324
0.160021 0.97438 0.371069
0.276799 0.973861 0.360327
0.378332 0.971756 0.353292
0.470787 0.968063 0.355016
0.573632 0.963897 0.356435
0.660029 0.961929 0.357626
0.723949 0.961288 0.361578
0.785962 0.961822 0.364096
0.854856 0.964874 0.369848
0.901106 0.967254 0.396506
0.927596 0.96846 0.431067
0.955093 0.96997 0.48426
0.97142 0.970642 0.53637
0.97171 0.971008 0.564828
0.971679 0.970977 0.563073
0.971679 0.970962 0.561471
0.971664 0.970947 0.560174
0.0864118 0.95848 0.654353
0.0853437 0.958618 0.649165
0.0842145 0.958785 0.643503
0.0831311 0.95906 0.638025
0.0818341 0.959319 0.6318
0.0801099 0.959564 0.624033
0.0779278 0.959899 0.614404
0.0752422 0.960311 0.602426
0.0715801 0.960891 0.587701
