bundles/resolve-cinematic-luts/Phantom Luts/P4k & P6k Phntm Arri LUTs - V6/P4K/Gen 4 Colour/Standard (No WB Offset)/P4k IceBlue Gen4.cube
TITLE "Generated by Resolve"
LUT_3D_SIZE 9
0.0243229 0.0364233 0.0327916
0.0599832 0.0360723 0.0365148
0.177646 0.0377661 0.0374609
0.370291 0.0421302 0.0468147
0.541192 0.061799 0.0808576
0.662654 0.106859 0.139101
0.750515 0.165499 0.19472
0.762325 0.179736 0.212421
0.769528 0.17847 0.236316
0.0271458 0.0757 0.0558785
0.049836 0.0714275 0.0452888
0.156878 0.07364 0.0455329
0.343297 0.0654002 0.0394141
0.520607 0.0738994 0.0489662
0.648371 0.11281 0.104082
0.744305 0.16733 0.166644
0.75288 0.176669 0.179309
0.760815 0.177691 0.200916
0.025742 0.215152 0.108431
0.0243534 0.222431 0.0530098
0.143633 0.217502 0.0431678
0.374929 0.20914 0.0396887
0.564584 0.195651 0.0681773
0.689525 0.220706 0.121019
0.773114 0.25687 0.17232
0.777859 0.255451 0.17496
0.785183 0.262028 0.186679
0.0233616 0.400107 0.177646
0.0227512 0.414496 0.118471
0.0233616 0.410117 0.0558022
0.303136 0.417288 0.0326238
0.572534 0.426566 0.061326
0.74342 0.434394 0.15433
0.849088 0.453956 0.235325
0.864744 0.458534 0.24802
0.869245 0.475547 0.252338
0.0471046 0.584451 0.338079
0.0496071 0.594324 0.301503
0.0539406 0.600519 0.225193
0.103746 0.598596 0.103044
0.529702 0.621576 0.102464
0.747692 0.637324 0.189624
0.883619 0.652888 0.282353
0.909087 0.668254 0.307378
0.911757 0.683726 0.314931
0.147951 0.756024 0.519692
0.149645 0.763043 0.505058
0.146227 0.767361 0.465751
0.14548 0.763684 0.366018
0.383337 0.780835 0.203082
0.737209 0.810513 0.264179
0.898268 0.82977 0.363165
0.955779 0.843275 0.43209
0.958129 0.8551 0.4439
0.253544 0.864713 0.658549
0.25008 0.864683 0.647364
0.240681 0.861997 0.618402
0.234699 0.859236 0.560037
0.260792 0.858015 0.422461
0.605692 0.890425 0.34078
0.889708 0.920089 0.425971
0.972915 0.940642 0.555062
0.970504 0.941665 0.577783
0.266148 0.872084 0.686366
0.26157 0.86978 0.673289
0.251102 0.865812 0.644327
0.238178 0.860533 0.581384
0.254627 0.861341 0.470909
0.555673 0.893248 0.375051
0.86952 0.919539 0.433341
0.974655 0.940551 0.562341
0.970077 0.942901 0.592996
0.270024 0.874723 0.696147
0.265721 0.871641 0.680201
0.251835 0.866148 0.641718
0.239475 0.860914 0.563439
0.321706 0.87599 0.432868
0.668269 0.899763 0.380255
0.914458 0.92665 0.46273
0.975235 0.941939 0.578485
0.969833 0.943664 0.587854
0.0289006 0.0373541 0.071519
0.0647898 0.0367895 0.0724346
0.20058 0.0361791 0.101274
0.391669 0.0365606 0.118761
0.549966 0.0471199 0.140551
0.669596 0.0896773 0.190082
0.751644 0.142535 0.239826
0.759777 0.150057 0.255268
0.765866 0.151064 0.277592
0.0247196 0.0613413 0.0623636
0.0406806 0.0565957 0.060441
0.184176 0.0472267 0.0564431
0.372992 0.0424048 0.0593576
0.547097 0.0614176 0.0971389
0.671183 0.107012 0.155566
0.756054 0.16611 0.21088
0.766323 0.177996 0.227146
0.771588 0.177554 0.244846
0.0247654 0.194812 0.144121
0.0252079 0.201389 0.108171
0.125551 0.20734 0.044831
0.393393 0.179721 0.0502327
0.570535 0.168811 0.0768597
0.686122 0.192599 0.124086
0.764279 0.224735 0.170733
0.765911 0.219974 0.172869
0.773404 0.225437 0.18584
0.0233005 0.385229 0.223651
0.0229038 0.396262 0.178607
0.0226291 0.404868 0.0667735
0.28661 0.411719 0.0325475
0.584924 0.411582 0.0657511
0.749233 0.419837 0.160861
0.849882 0.438071 0.237766
0.861051 0.44062 0.246738
0.866346 0.457816 0.252384
0.0466316 0.577691 0.370871
0.0476997 0.586038 0.342763
0.0504463 0.595819 0.263355
0.0721904 0.59411 0.121172
0.522652 0.61825 0.100786
0.753414 0.631754 0.191867
0.888151 0.648005 0.287022
0.909133 0.661372 0.307485
0.911635 0.676997 0.315618
0.150622 0.752728 0.538857
0.152377 0.759793 0.525963
0.147768 0.763912 0.489158
0.14316 0.763943 0.39234
0.356298 0.778866 0.207507
0.73431 0.80882 0.26302
0.900999 0.828061 0.366567
0.95552 0.840742 0.434562
0.957336 0.852247 0.447517
0.258228 0.865507 0.672053
0.256672 0.866056 0.662623
0.247745 0.864286 0.636316
0.234501 0.859373 0.573556
0.250431 0.856962 0.43975
0.592676 0.889876 0.341543
0.88806 0.919661 0.424598
0.972656 0.940505 0.557458
0.969604 0.941329 0.585443
0.272007 0.874418 0.700465
0.268605 0.8719 0.688731
0.258015 0.867979 0.66183
0.239857 0.861067 0.597742
0.249134 0.860945 0.487526
0.535531 0.892699 0.378393
0.863447 0.91902 0.431556
0.973556 0.939864 0.562188
0.970077 0.942855 0.595666
0.278584 0.876585 0.712032
0.274571 0.873732 0.698634
0.260426 0.868849 0.663493
0.239689 0.86099 0.582483
0.297169 0.871946 0.449668
0.646601 0.898512 0.380407
0.90808 0.925658 0.458656
0.974762 0.941649 0.579782
0.969055 0.943435 0.595178
0.0411994 0.0397192 0.198779
0.100206 0.0378271 0.181704
0.21004 0.0366674 0.182712
0.410697 0.0370642 0.217121
0.570977 0.0471504 0.230457
0.676204 0.0755322 0.259327
0.751369 0.120439 0.296818
0.75877 0.127245 0.312261
0.762539 0.126787 0.340017
0.0177005 0.0534066 0.154681
0.0391699 0.0395209 0.18732
0.183719 0.036759 0.172564
0.402182 0.0366827 0.182147
0.566232 0.0470283 0.201556
0.679484 0.0843671 0.231693
0.756695 0.136049 0.275517
0.763531 0.142077 0.290089
0.768292 0.141222 0.316869
0.0214694 0.184848 0.181903
0.0205539 0.183612 0.181247
0.151919 0.17818 0.190814
0.422156 0.153658 0.176287
0.617578 0.127016 0.163577
0.70457 0.145312 0.183474
0.765759 0.181598 0.219471
0.7673 0.18146 0.225132
0.77435 0.183932 0.243915
0.0223697 0.37293 0.273533
0.022034 0.375952 0.257008
0.022797 0.380255 0.192218
0.270954 0.404013 0.0861219
0.614725 0.380468 0.130968
0.771267 0.375174 0.194858
0.854307 0.400275 0.252827
0.855085 0.398459 0.254017
0.862043 0.411719 0.263462
0.045594 0.566171 0.40734
0.046067 0.572412 0.395529
0.0451057 0.576822 0.345968
0.0523995 0.589532 0.183291
0.50071 0.609842 0.0979477
0.765057 0.616815 0.202487
0.897261 0.633844 0.299702
0.912535 0.642374 0.315572
0.914641 0.657374 0.326497
0.152438 0.744518 0.563806
0.155245 0.750942 0.556451
0.150469 0.754498 0.527337
0.138628 0.759136 0.439261
0.263935 0.773129 0.238651
0.723003 0.802838 0.258091
0.903578 0.820996 0.369421
0.954589 0.832074 0.437583
0.955383 0.843015 0.453056
0.267094 0.865766 0.692836
0.269734 0.867796 0.686595
0.26128 0.867277 0.665217
0.238758 0.860853 0.603387
0.2392 0.856672 0.474403
0.56463 0.887633 0.340017
0.882841 0.918013 0.418479
0.972396 0.938872 0.556344
0.968734 0.939681 0.590967
0.283772 0.877806 0.724071
0.282612 0.875517 0.715099
0.273503 0.871824 0.693202
0.250828 0.864775 0.636484
0.242878 0.860807 0.522545
0.491341 0.892073 0.388266
0.842161 0.91635 0.424811
0.971084 0.93846 0.55816
0.969238 0.942321 0.60798
0.293446 0.881148 0.739788
0.291325 0.878904 0.73048
0.2795 0.87396 0.703883
0.251591 0.864576 0.632349
0.257435 0.863935 0.493324
0.585611 0.895827 0.383673
0.889189 0.923033 0.448539
0.973129 0.940764 0.581735
0.966491 0.942733 0.615106
0.0696574 0.0427863 0.377783
0.146502 0.0403296 0.365743
0.25565 0.0389868 0.349981
0.414343 0.0386816 0.341176
0.577996 0.0492714 0.365713
0.696925 0.0792554 0.365225
0.749737 0.102876 0.390631
0.751263 0.103944 0.402731
0.749828 0.103044 0.435309
0.0105592 0.0472267 0.329122
0.0675212 0.0428016 0.37818
0.224216 0.0390784 0.363775
0.405646 0.0385748 0.344305
0.579629 0.0493629 0.357794
0.699138 0.0806287 0.351507
0.750011 0.104295 0.376577
0.751339 0.104952 0.387411
0.750515 0.1037 0.420493
0.0117189 0.157168 0.319661
0.010071 0.142626 0.342519
0.126238 0.0957351 0.424689
0.410269 0.0763867 0.373449
0.592828 0.0631113 0.326726
0.689265 0.0789807 0.308568
0.75729 0.119631 0.333822
0.763836 0.126131 0.345998
0.766155 0.125444 0.372778
0.0203555 0.366873 0.341924
0.0196231 0.370291 0.345785
0.0195468 0.367742 0.347112
0.331899 0.366903 0.37113
0.63209 0.339757 0.352941
0.829892 0.322377 0.348196
0.860334 0.313237 0.341802
0.857069 0.305318 0.34078
0.868055 0.316167 0.363638
0.0478828 0.55877 0.458885
0.0489662 0.563836 0.458076
0.0475319 0.562509 0.439994
0.0521553 0.569863 0.378958
0.466117 0.597421 0.262638
0.800717 0.587335 0.311284
0.924529 0.603632 0.350896
0.927108 0.60354 0.358144
0.928969 0.618341 0.373251
0.156268 0.733745 0.598627
0.161166 0.739345 0.597223
0.15877 0.740993 0.583078
0.145769 0.742031 0.530785
0.167254 0.761852 0.347662
0.694591 0.794919 0.260227
0.913512 0.806546 0.382559
0.955062 0.813764 0.44094
0.952514 0.824414 0.465354
0.273777 0.859998 0.718868
0.280232 0.862089 0.71693
0.276295 0.86183 0.704509
0.258671 0.860059 0.664042
0.234089 0.857557 0.543954
0.479896 0.884672 0.351888
0.8719 0.914397 0.405219
0.973205 0.932754 0.549691
0.968658 0.935531 0.594919
0.301045 0.884199 0.758694
0.30663 0.8813 0.753491
0.299474 0.878828 0.739483
0.280201 0.872938 0.701915
0.241993 0.860914 0.588708
0.407919 0.889342 0.41857
0.798169 0.911635 0.41532
0.963714 0.936263 0.542489
0.968338 0.942168 0.620905
0.311955 0.888182 0.779004
0.316945 0.885328 0.773571
0.310689 0.883024 0.757855
0.288441 0.875654 0.71487
0.245914 0.861799 0.583337
0.466819 0.893874 0.410727
0.837766 0.916884 0.430076
0.965682 0.93814 0.554589
0.967514 0.943297 0.616495
0.128923 0.048249 0.534035
0.207523 0.0460365 0.538552
0.31957 0.04477 0.534371
0.432593 0.0474861 0.513283
0.567086 0.0551156 0.492958
0.694865 0.0840314 0.499092
0.747463 0.104997 0.513787
0.746975 0.106142 0.524453
0.741253 0.107179 0.551705
0.038117 0.051133 0.493111
0.127886 0.0485847 0.538033
0.281498 0.0455024 0.545815
0.421775 0.0482795 0.52575
0.567041 0.0557107 0.498787
0.698421 0.08542 0.500099
0.748135 0.10547 0.512078
0.747662 0.106493 0.522301
0.742138 0.1075 0.549722
0.0100862 0.0789044 0.457465
0.00926223 0.0595102 0.453849
0.132052 0.0484932 0.538857
0.377905 0.0465553 0.531945
0.552468 0.0536202 0.494179
0.694621 0.0829023 0.480217
0.752804 0.105898 0.481788
0.752941 0.106889 0.489921
0.748684 0.107424 0.517815
0.0172274 0.332586 0.483558
0.0167086 0.327916 0.495659
0.0160983 0.300908 0.51284
0.311177 0.256275 0.641581
0.6262 0.226627 0.603937
0.79939 0.199893 0.530755
0.81828 0.184573 0.500694
0.814145 0.179095 0.497734
0.820294 0.189868 0.530449
0.0534676 0.55227 0.52401
0.0555886 0.558053 0.530297
0.0559091 0.557595 0.531273
0.0771801 0.566506 0.545266
0.5178 0.554513 0.562661
0.803738 0.5411 0.554818
0.967803 0.536339 0.558373
0.966293 0.524544 0.552834
0.9635 0.540108 0.5738
0.163607 0.72517 0.642756
0.169268 0.730831 0.645045
0.169146 0.730694 0.639979
0.163256 0.726955 0.620737
0.279362 0.753536 0.586145
0.646097 0.772732 0.496437
0.92224 0.772732 0.546166
0.963714 0.779751 0.539696
0.955077 0.791547 0.572869
0.283864 0.856443 0.753689
0.292042 0.85803 0.75407
0.291463 0.857298 0.748119
0.283421 0.854307 0.729885
0.26215 0.854154 0.675944
0.424643 0.892424 0.519295
0.850752 0.915068 0.478355
0.974533 0.924773 0.585
0.968826 0.927764 0.630564
0.32401 0.893248 0.803677
0.33283 0.890547 0.801358
0.331029 0.889235 0.794614
0.322087 0.886458 0.776608
0.294194 0.877928 0.720974
0.34493 0.891325 0.564492
0.726665 0.910277 0.456687
0.952941 0.934951 0.529412
0.969436 0.944869 0.646967
0.337957 0.898589 0.823392
0.345907 0.895918 0.820584
0.344427 0.893706 0.812589
0.333242 0.890517 0.793729
0.30721 0.882551 0.737621
0.432013 0.903349 0.603082
0.770245 0.918883 0.519036
0.952697 0.935973 0.543267
0.969604 0.945342 0.647364
0.223819 0.059556 0.633738
0.278141 0.0594492 0.640375
0.356588 0.0598611 0.643656
0.452171 0.0633555 0.636454
0.550927 0.0682994 0.618494
0.679057 0.0948653 0.609277
0.733043 0.113481 0.621622
0.733272 0.115358 0.629526
0.726574 0.117632 0.649866
0.143832 0.0601358 0.615854
0.224781 0.0605173 0.638224
0.327337 0.0607004 0.648615
0.441062 0.0639658 0.644511
0.547692 0.0693675 0.62678
0.68127 0.0967727 0.616053
0.732433 0.11458 0.628016
0.731685 0.116228 0.635737
0.724849 0.118334 0.654551
0.0148165 0.0587015 0.51841
0.0590066 0.0603647 0.575402
0.229282 0.060502 0.639063
0.4009 0.06215 0.647898
0.528481 0.0674144 0.629114
0.675761 0.0945907 0.610864
0.736873 0.113664 0.614771
0.736416 0.115496 0.622736
0.730755 0.117494 0.639536
0.0212863 0.238239 0.583215
0.0201877 0.225971 0.58674
0.0186465 0.184466 0.585565
0.28751 0.10222 0.696742
0.519921 0.0945754 0.675395
0.66772 0.0977493 0.618158
0.74107 0.113451 0.598245
0.73962 0.114931 0.610117
0.736202 0.117327 0.624613
0.0655528 0.529854 0.628717
0.0667277 0.532738 0.63473
0.0661326 0.526146 0.640284
0.114397 0.524269 0.699336
0.517205 0.492012 0.832593
0.80473 0.464027 0.791959
0.963699 0.438483 0.758358
0.958236 0.42327 0.751293
0.957397 0.443748 0.778439
0.171939 0.718074 0.694133
0.178103 0.7243 0.698772
0.179522 0.724636 0.699474
0.178622 0.721584 0.698283
0.332326 0.75642 0.743572
0.690547 0.728786 0.740673
0.914992 0.723674 0.7402
0.965728 0.723995 0.746639
0.955367 0.737743 0.762493
0.293278 0.851743 0.789654
0.301961 0.854139 0.79173
0.303212 0.85388 0.789837
0.302556 0.852384 0.78323
0.316457 0.856901 0.771221
0.567803 0.880858 0.773693
0.822065 0.899168 0.721462
0.970901 0.906493 0.761715
0.965011 0.912322 0.789197
0.351873 0.904662 0.846464
0.362188 0.903334 0.845533
0.36347 0.902449 0.842237
0.358785 0.901381 0.834546
0.348592 0.89752 0.815122
0.489708 0.922469 0.80177
0.71017 0.933639 0.749172
0.950118 0.948882 0.726833
0.977142 0.956466 0.794965
0.374456 0.916106 0.869703
0.388342 0.913848 0.868193
0.391897 0.912779 0.864698
0.385611 0.911803 0.855787
0.383581 0.91043 0.837491
0.581064 0.928725 0.837827
0.756466 0.938659 0.793256
0.944121 0.951415 0.752178
0.973312 0.957748 0.791455
0.314931 0.0743114 0.702098
0.346532 0.0753033 0.705943
0.399008 0.0773175 0.709667
0.475303 0.0817121 0.70901
0.564294 0.0881514 0.699748
0.666545 0.10985 0.697765
0.716838 0.126741 0.705592
0.716167 0.129015 0.713527
0.712413 0.131823 0.72491
0.273045 0.0734722 0.696666
0.316457 0.0752117 0.705531
0.379294 0.0771801 0.711345
0.466163 0.0820172 0.712993
0.562982 0.0890516 0.704082
0.668376 0.111177 0.701656
0.716381 0.127337 0.708385
0.715084 0.130007 0.717372
0.712077 0.132311 0.725872
0.121874 0.0696269 0.651606
0.210056 0.0720226 0.682277
0.31519 0.0751354 0.705104
0.432074 0.0797894 0.713344
0.545693 0.087892 0.706172
0.65893 0.109194 0.701885
0.719829 0.126787 0.702419
0.718959 0.128969 0.709697
0.713817 0.131655 0.721965
0.0289158 0.119844 0.613733
0.0305333 0.0992447 0.611078
0.0397498 0.0672007 0.600381
0.314412 0.0749676 0.704356
0.496361 0.0828565 0.707958
0.633463 0.103349 0.700298
0.723079 0.125719 0.692927
0.723674 0.126986 0.69575
0.717983 0.129213 0.708064
0.0740978 0.487556 0.704356
0.0752728 0.489097 0.70959
0.0746319 0.477394 0.714778
0.167269 0.464744 0.797696
0.563699 0.403189 0.942809
0.792279 0.381369 0.914565
0.887785 0.359686 0.861982
0.877592 0.338567 0.844572
0.886336 0.365209 0.87071
0.17998 0.705135 0.763363
0.185489 0.710033 0.767773
0.186084 0.708095 0.770916
0.199268 0.704723 0.785351
0.385367 0.742931 0.894286
0.702434 0.693782 0.928527
0.913268 0.675837 0.904967
0.971359 0.667872 0.891035
0.956191 0.684871 0.89752
0.300679 0.84773 0.825437
0.308583 0.850919 0.827787
0.311192 0.851209 0.828534
0.314336 0.851102 0.828962
0.342153 0.859525 0.839994
0.621195 0.885557 0.881041
0.847227 0.872862 0.880995
0.961883 0.87361 0.882658
0.957321 0.881971 0.893355
0.401404 0.926314 0.89041
0.418158 0.925155 0.890486
0.425299 0.925872 0.890761
0.427802 0.92697 0.889509
0.430091 0.926452 0.883177
0.607569 0.943908 0.903548
0.803311 0.947982 0.913207
0.938201 0.957534 0.893904
0.976608 0.961501 0.917144
0.43122 0.9364 0.911009
0.447837 0.934051 0.909377
0.453315 0.933745 0.90779
0.457237 0.935241 0.905486
0.469581 0.938125 0.902434
0.669337 0.948852 0.919524
0.829618 0.953841 0.927581
0.922789 0.962112 0.910903
0.977081 0.966033 0.908614
0.378271 0.08159 0.72668
0.401602 0.0829633 0.729366
0.441993 0.0854505 0.731579
0.505501 0.0903029 0.730617
0.588479 0.0978256 0.72372
0.675364 0.116396 0.720394
0.713741 0.131807 0.724254
0.714687 0.132921 0.725017
0.713756 0.133394 0.726696
0.348821 0.0801556 0.723247
0.376425 0.0818036 0.727565
0.423545 0.0841077 0.730648
0.49633 0.0897078 0.731212
0.585748 0.097612 0.724239
0.676692 0.117205 0.72108
0.714031 0.132143 0.724483
0.714534 0.133227 0.725704
0.712566 0.133867 0.728771
0.246296 0.0757458 0.702846
0.302449 0.0786755 0.717708
0.374502 0.0817273 0.727352
0.466499 0.0872206 0.731777
0.567666 0.0951858 0.72517
0.668177 0.115953 0.722881
0.715984 0.132128 0.722515
0.716808 0.133257 0.723476
0.713771 0.134127 0.728084
0.0769513 0.0736858 0.647059
0.0907912 0.0725261 0.655695
0.135958 0.0735332 0.673335
0.377859 0.0818799 0.727672
0.522042 0.090959 0.728801
0.645975 0.112001 0.725536
0.71635 0.132372 0.72253
0.718395 0.133745 0.722698
0.715328 0.134752 0.727428
0.121492 0.460517 0.774762
0.131579 0.463127 0.784421
0.146212 0.449577 0.796063
0.249363 0.410529 0.854154
0.58056 0.341619 0.918944
0.773373 0.32491 0.889815
0.844755 0.311711 0.85095
0.834501 0.292042 0.834836
0.850462 0.322072 0.859358
0.2112 0.700191 0.816754
0.219181 0.706203 0.822705
0.225772 0.706249 0.828916
0.255985 0.705699 0.852888
0.432303 0.723323 0.947906
0.746715 0.657282 0.968872
0.924819 0.645609 0.958801
0.964385 0.639338 0.952514
0.951156 0.658213 0.949279
0.311574 0.846113 0.861509
0.321279 0.849638 0.86421
0.331182 0.852323 0.869551
0.357092 0.858427 0.883497
0.425818 0.872312 0.917189
0.658671 0.883589 0.946456
0.858106 0.853239 0.951156
0.956847 0.84828 0.947097
0.952148 0.857664 0.943801
0.435157 0.937636 0.919554
0.451835 0.935576 0.918883
0.45658 0.935134 0.918822
0.458671 0.935897 0.919097
0.459342 0.935088 0.917601
0.63238 0.954055 0.94461
0.827893 0.949432 0.949233
0.941756 0.9467 0.95021
0.974533 0.948363 0.950225
0.454322 0.944747 0.929717
0.471275 0.941665 0.927596
0.479454 0.94226 0.928573
0.487633 0.945357 0.931899
0.503151 0.949065 0.93431
0.684138 0.959899 0.952377
0.854536 0.960906 0.957031
0.939284 0.966186 0.963226
0.972396 0.96849 0.957427
0.386313 0.0819104 0.727291
0.408759 0.0833906 0.72987
0.448295 0.085771 0.731487
0.51165 0.0904707 0.72987
0.594553 0.0984665 0.722972
0.680644 0.11783 0.720348
0.713512 0.131502 0.723995
0.714672 0.133135 0.725338
0.713497 0.133623 0.727337
0.358099 0.0804303 0.724147
0.384207 0.082063 0.728099
0.430442 0.0846113 0.731044
0.502678 0.0901503 0.730816
0.591485 0.0981003 0.72343
0.682368 0.11841 0.720043
0.713802 0.131853 0.724254
0.714672 0.133394 0.725841
0.712459 0.134051 0.729137
0.262318 0.0763714 0.706798
0.314733 0.0793317 0.720058
0.382239 0.0819715 0.727901
0.472633 0.0876478 0.73164
0.573754 0.0959793 0.724865
0.672282 0.116716 0.722286
0.715908 0.13193 0.722316
0.716945 0.13341 0.723629
0.713878 0.134264 0.728191
0.0851759 0.0719463 0.651377
0.0926528 0.0726329 0.656794
0.153765 0.0740063 0.679377
0.384939 0.0820935 0.72813
0.52697 0.0912795 0.728359
0.649332 0.112535 0.725063
0.716533 0.132418 0.722423
0.718502 0.133852 0.72282
0.715404 0.134829 0.727504
0.167193 0.461265 0.812055
0.171221 0.463355 0.81529
0.167041 0.447593 0.811643
0.253162 0.405432 0.855344
0.584665 0.3364 0.916426
0.773922 0.321828 0.887388
0.843137 0.307286 0.846815
0.832013 0.288441 0.832547
0.84976 0.320943 0.858671
0.250156 0.712688 0.84921
0.259831 0.719265 0.8551
0.265736 0.718013 0.859785
0.278279 0.711025 0.868971
0.437858 0.722164 0.948531
0.752667 0.655848 0.966217
0.924239 0.646097 0.955596
0.959976 0.639979 0.950057
0.947478 0.659739 0.945983
0.354131 0.860685 0.891005
0.36437 0.86334 0.89189
0.369802 0.863767 0.894072
0.396735 0.868315 0.905776
0.449912 0.874632 0.926467
0.667155 0.881331 0.946654
0.864576 0.84976 0.949905
0.955169 0.846006 0.947677
0.951034 0.855756 0.944274
0.440696 0.93521 0.921981
0.455268 0.934661 0.921599
0.465614 0.934585 0.922332
0.476448 0.936706 0.925444
0.490532 0.937316 0.930571
0.65568 0.952667 0.952132
0.839643 0.948974 0.959884
0.939788 0.944152 0.963516
0.972778 0.943801 0.958831
0.454932 0.944671 0.929747
0.472908 0.941436 0.927459
0.484947 0.941024 0.927474
0.496727 0.94313 0.930053
0.521935 0.947066 0.935058
0.697383 0.958007 0.953155
0.851057 0.96228 0.963226
0.936843 0.967269 0.971054
0.972274 0.966567 0.968505
