bundles/resolve-cinematic-luts/Phantom Luts/P4k & P6k Phntm Arri LUTs - V6/P4K/Gen 4 Colour/Standard (No WB Offset)/P4k IceBlue Gen4-Legacy.cube
TITLE "Generated by Resolve"
LUT_3D_SIZE 9
0.033402 0.0457465 0.0450599
0.0608682 0.0471199 0.0502174
0.145907 0.0532082 0.0556039
0.30518 0.0571756 0.0598764
0.492164 0.0644999 0.0728313
0.628153 0.0918898 0.11722
0.721477 0.134493 0.166155
0.734066 0.151064 0.182879
0.744167 0.154696 0.208072
0.0362707 0.0745708 0.0654002
0.0538338 0.0715801 0.0545052
0.123354 0.0754864 0.0600595
0.268025 0.0731823 0.0555734
0.459327 0.0738689 0.0546273
0.612696 0.098024 0.0895552
0.719097 0.138476 0.147112
0.725719 0.145754 0.157397
0.733837 0.145693 0.179339
0.0267185 0.173251 0.101793
0.025742 0.179553 0.0618143
0.115969 0.172808 0.0504616
0.292638 0.169696 0.0548409
0.491402 0.162615 0.070222
0.645212 0.17998 0.102953
0.74992 0.21384 0.157687
0.753689 0.212772 0.159564
0.760952 0.217868 0.171801
0.0234379 0.334386 0.155642
0.0223545 0.348867 0.111101
0.026215 0.344793 0.0534524
0.243793 0.354513 0.0439918
0.506981 0.364279 0.0577096
0.702098 0.367803 0.137041
0.829114 0.385992 0.222522
0.841031 0.392767 0.231617
0.84741 0.407507 0.238346
0.0338445 0.527245 0.279728
0.0349126 0.538338 0.247593
0.0380102 0.545708 0.184695
0.0794385 0.544854 0.0800183
0.45684 0.564446 0.0781262
0.699672 0.579034 0.155962
0.874388 0.593713 0.265492
0.897246 0.610117 0.28687
0.900252 0.627329 0.292317
0.124681 0.726894 0.454978
0.129244 0.737408 0.442863
0.131685 0.74612 0.408469
0.137057 0.743755 0.323171
0.328634 0.762142 0.195102
0.67483 0.790021 0.234775
0.888243 0.809857 0.342489
0.943908 0.82266 0.40145
0.947295 0.838407 0.411063
0.238132 0.857038 0.604807
0.23476 0.857298 0.592859
0.228717 0.854856 0.563897
0.225055 0.852125 0.50811
0.252293 0.849195 0.390448
0.546288 0.877928 0.314443
0.869001 0.904768 0.394247
0.955856 0.920394 0.49868
0.954787 0.92163 0.508812
0.249134 0.863233 0.635096
0.243977 0.861418 0.620508
0.236118 0.857725 0.589593
0.22678 0.853071 0.527474
0.245121 0.852338 0.431495
0.501076 0.881529 0.344091
0.839368 0.903944 0.395438
0.958968 0.919966 0.50396
0.954345 0.922469 0.523201
0.252491 0.865568 0.645441
0.246983 0.863371 0.628016
0.236027 0.858137 0.58677
0.228779 0.853437 0.510948
0.300175 0.864363 0.401724
0.602045 0.886198 0.343328
0.900816 0.910796 0.427741
0.957885 0.921614 0.514427
0.952865 0.923308 0.521126
0.0406043 0.0468147 0.0756695
0.0645304 0.047837 0.0761273
0.162707 0.0491951 0.0977035
0.327031 0.050248 0.111147
0.510201 0.0584726 0.125704
0.644617 0.0892042 0.163653
0.733883 0.13463 0.210468
0.740139 0.140169 0.222644
0.745678 0.140063 0.242191
0.0356146 0.0652781 0.0685588
0.048249 0.0621805 0.0678416
0.147753 0.0586709 0.067216
0.306767 0.0569314 0.0686656
0.498863 0.0634165 0.0867933
0.63682 0.0919966 0.131304
0.727321 0.135851 0.180926
0.738308 0.150362 0.196201
0.74641 0.154391 0.215915
0.0298619 0.156603 0.126818
0.0272068 0.16199 0.101381
0.102632 0.164889 0.0590372
0.308339 0.147341 0.0650797
0.498039 0.1393 0.0735332
0.644511 0.157488 0.106691
0.740734 0.185351 0.155489
0.742611 0.181018 0.159716
0.748562 0.18616 0.170016
0.0234073 0.319997 0.190173
0.0229038 0.331151 0.156344
0.0223697 0.340002 0.0724956
0.230442 0.348516 0.0453498
0.5205 0.348867 0.0628519
0.707759 0.352544 0.142855
0.828397 0.375525 0.222263
0.835904 0.379431 0.227802
0.843107 0.392874 0.236439
0.0360723 0.519081 0.307973
0.0344854 0.529046 0.282414
0.0356756 0.540215 0.216327
0.0530251 0.540917 0.0979477
0.44976 0.56112 0.0775921
0.706081 0.572839 0.158404
0.878462 0.588266 0.269871
0.896651 0.602289 0.286778
0.900099 0.619699 0.292592
0.124544 0.72079 0.472435
0.128908 0.731502 0.461433
0.12929 0.739696 0.428519
0.132876 0.74316 0.343832
0.30631 0.760021 0.19942
0.670665 0.787961 0.233234
0.891005 0.807492 0.344991
0.94403 0.81915 0.403098
0.946975 0.834424 0.412757
0.241627 0.858244 0.62002
0.23949 0.85893 0.609293
0.233524 0.85658 0.581811
0.224414 0.852369 0.520607
0.243488 0.848646 0.404471
0.535729 0.877485 0.315541
0.867033 0.904509 0.393088
0.955871 0.920211 0.500603
0.954635 0.921477 0.512871
0.254017 0.86537 0.650492
0.249317 0.863706 0.637247
0.241398 0.859876 0.608484
0.227726 0.853727 0.54258
0.239979 0.85214 0.445151
0.483787 0.881651 0.348547
0.828199 0.903014 0.391623
0.958648 0.919585 0.504311
0.954299 0.922454 0.525154
0.260227 0.867338 0.663233
0.254398 0.865248 0.647883
0.242741 0.860838 0.609751
0.227771 0.853513 0.528405
0.279576 0.860731 0.415381
0.580941 0.885481 0.344182
0.892378 0.90985 0.422873
0.957702 0.921477 0.514412
0.952346 0.923156 0.52607
0.046952 0.0494087 0.167712
0.0902571 0.0484779 0.155154
0.172076 0.0500649 0.158312
0.34641 0.049958 0.185428
0.532509 0.0558938 0.197192
0.66128 0.0847181 0.222766
0.73698 0.120394 0.254414
0.742031 0.124086 0.266621
0.746639 0.123033 0.291508
0.0294499 0.0618601 0.133837
0.0456245 0.0493935 0.158816
0.150225 0.0500191 0.149371
0.33727 0.0502022 0.157839
0.528283 0.0558785 0.173587
0.659312 0.0887007 0.196902
0.738308 0.130175 0.23621
0.743252 0.134081 0.247166
0.748562 0.132967 0.271168
0.0277867 0.149538 0.152895
0.0277867 0.149004 0.152468
0.120668 0.142962 0.157443
0.334051 0.125536 0.147051
0.545205 0.106355 0.134066
0.667079 0.117464 0.152682
0.735637 0.149569 0.188144
0.739757 0.154635 0.194965
0.748974 0.161364 0.21416
0.0233616 0.305165 0.227619
0.0229343 0.308217 0.21384
0.0229496 0.313634 0.164614
0.220752 0.340475 0.0908064
0.545449 0.319066 0.1196
0.73048 0.313298 0.171435
0.825986 0.343954 0.22826
0.825849 0.342458 0.228977
0.83386 0.354147 0.239826
0.0387274 0.505913 0.344152
0.0380407 0.513115 0.33193
0.0338293 0.518807 0.284886
0.037171 0.534295 0.150942
0.427604 0.55198 0.0779736
0.719402 0.556161 0.169696
0.885206 0.572534 0.280308
0.897856 0.581338 0.292958
0.901518 0.59765 0.30074
0.122683 0.707942 0.495888
0.126726 0.717418 0.490013
0.125582 0.724102 0.462196
0.123949 0.735409 0.382971
0.233524 0.75256 0.224826
0.657282 0.779889 0.226856
0.893248 0.797238 0.345876
0.943099 0.807141 0.403891
0.945754 0.821775 0.413687
0.248707 0.858167 0.642634
0.248997 0.860609 0.635035
0.243412 0.859678 0.611902
0.227146 0.853849 0.54847
0.232898 0.848905 0.433646
0.510124 0.875898 0.315908
0.859907 0.903014 0.387091
0.956405 0.919676 0.50016
0.954498 0.920623 0.516243
0.264775 0.868788 0.676829
0.260441 0.86743 0.666026
0.25304 0.863691 0.642329
0.235554 0.856886 0.581552
0.233295 0.852766 0.475319
0.443839 0.880903 0.359518
0.79913 0.900725 0.383154
0.957 0.919112 0.50071
0.953552 0.922286 0.532128
0.273991 0.871809 0.694865
0.268742 0.870314 0.683406
0.25713 0.865644 0.653208
0.235294 0.85684 0.576883
0.246159 0.854582 0.450721
0.529335 0.883955 0.349569
0.867308 0.907317 0.410819
0.956863 0.920867 0.51519
0.950332 0.922683 0.540749
0.067155 0.050309 0.315724
0.12166 0.0484474 0.303822
0.208652 0.0480659 0.293553
0.351415 0.0509346 0.289555
0.539788 0.0572213 0.319112
0.689891 0.0893873 0.317571
0.749065 0.114534 0.341176
0.750805 0.115023 0.351614
0.752331 0.113954 0.382757
0.0193332 0.059205 0.278706
0.0656748 0.0502785 0.315206
0.182971 0.0472877 0.30277
0.343603 0.0510567 0.291432
0.541238 0.057496 0.311131
0.692226 0.091249 0.305074
0.747036 0.114397 0.327764
0.748913 0.115007 0.337331
0.750942 0.113695 0.368688
0.0171511 0.130846 0.257084
0.0154421 0.12192 0.276875
0.102113 0.0895857 0.345785
0.332052 0.0760815 0.304189
0.54023 0.0664683 0.273701
0.67631 0.0880293 0.265751
0.744472 0.120958 0.286931
0.748684 0.124575 0.296315
0.752132 0.123522 0.320378
0.021088 0.297261 0.280491
0.0200504 0.300511 0.28304
0.024033 0.297047 0.283558
0.272328 0.303227 0.31043
0.557748 0.281163 0.296315
0.7888 0.273625 0.295567
0.82359 0.272557 0.293263
0.820539 0.265766 0.292241
0.830762 0.273701 0.314412
0.0417029 0.497032 0.393683
0.0420996 0.502892 0.393301
0.0415351 0.501228 0.374716
0.0451362 0.508675 0.315694
0.403723 0.535958 0.225895
0.755138 0.523827 0.266972
0.905241 0.539284 0.320943
0.907195 0.53875 0.32607
0.912032 0.554742 0.338064
0.123583 0.69221 0.533379
0.127901 0.699443 0.532784
0.126253 0.702098 0.517815
0.117754 0.705776 0.464179
0.150744 0.736233 0.305409
0.625788 0.76762 0.224903
0.902998 0.775845 0.353857
0.942733 0.780941 0.403555
0.94316 0.795773 0.420859
0.256275 0.853025 0.672572
0.260258 0.855726 0.669718
0.255344 0.855863 0.655451
0.241337 0.854246 0.611841
0.225055 0.850431 0.493462
0.433204 0.873152 0.32987
0.844678 0.899413 0.374655
0.958038 0.917388 0.497353
0.954528 0.917876 0.524697
0.281422 0.874434 0.716457
0.283619 0.87277 0.710506
0.275731 0.870756 0.694347
0.258656 0.864546 0.651545
0.229053 0.853605 0.533852
0.371496 0.877485 0.389059
0.737453 0.896178 0.371237
0.952758 0.917998 0.491707
0.952239 0.921981 0.545434
0.293202 0.878767 0.74139
0.295247 0.876493 0.734661
0.287053 0.873869 0.715007
0.266026 0.867094 0.665751
0.231922 0.8542 0.528542
0.421958 0.882353 0.379019
0.794858 0.901228 0.387106
0.953017 0.919371 0.499001
0.951171 0.923079 0.541512
0.108751 0.0525216 0.487251
0.170977 0.0503243 0.485222
0.267063 0.0483558 0.477943
0.378592 0.051545 0.458366
0.535729 0.061387 0.447074
0.69836 0.0927443 0.448417
0.757137 0.116579 0.46363
0.756817 0.116976 0.475547
0.752499 0.117189 0.507958
0.0404364 0.0562905 0.460075
0.108019 0.0528115 0.493568
0.232288 0.0491493 0.491478
0.368536 0.0508125 0.471946
0.536278 0.0619211 0.453559
0.703151 0.0944839 0.448707
0.757427 0.116823 0.461707
0.757092 0.117082 0.472831
0.752941 0.11722 0.505486
0.0132296 0.0831311 0.415229
0.0134432 0.0684977 0.428992
0.111833 0.0527199 0.494301
0.324926 0.0497139 0.47837
0.518624 0.0604257 0.4477
0.694942 0.091249 0.425315
0.758831 0.117144 0.424979
0.759396 0.117678 0.434501
0.756771 0.11693 0.467063
0.0190585 0.268818 0.418189
0.0175326 0.265797 0.434226
0.0162203 0.244144 0.455116
0.24622 0.20885 0.558892
0.54815 0.186618 0.519722
0.771664 0.175494 0.453361
0.797787 0.169543 0.43093
0.794522 0.165026 0.428519
0.800656 0.172427 0.461723
0.0433204 0.492058 0.461158
0.0443427 0.498482 0.468681
0.0446174 0.497734 0.469413
0.0610361 0.503151 0.48072
0.452781 0.489525 0.494865
0.757153 0.476493 0.484855
0.948074 0.477562 0.492302
0.945037 0.466102 0.486442
0.947967 0.480537 0.50724
0.128908 0.679728 0.583886
0.133577 0.686046 0.58645
0.133165 0.685924 0.580621
0.127367 0.68162 0.558404
0.22855 0.707012 0.519921
0.580621 0.728405 0.428031
0.919692 0.726101 0.480308
0.9579 0.733898 0.476219
0.950866 0.748363 0.505043
0.266316 0.847395 0.712337
0.27451 0.84979 0.71368
0.273167 0.84918 0.706477
0.263066 0.846601 0.684825
0.243519 0.847196 0.62359
0.380026 0.884062 0.470848
0.812192 0.902296 0.425284
0.959228 0.912764 0.520592
0.953826 0.914534 0.561288
0.307317 0.884153 0.773739
0.315221 0.881483 0.77084
0.312642 0.880034 0.761883
0.300618 0.876951 0.738018
0.27155 0.868681 0.672465
0.312535 0.879194 0.51313
0.657328 0.89482 0.399863
0.944381 0.917037 0.481849
0.952148 0.923629 0.572198
0.322988 0.890547 0.801572
0.329961 0.887846 0.797925
0.327276 0.885359 0.786816
0.313222 0.880964 0.75967
0.283345 0.872389 0.691096
0.379736 0.893858 0.544945
0.703853 0.901473 0.447761
0.944488 0.917861 0.492058
0.952529 0.923903 0.572396
0.180423 0.0616617 0.607141
0.230304 0.0605173 0.613519
0.307012 0.059678 0.617761
0.40766 0.0609903 0.612161
0.522545 0.0718242 0.599542
0.684306 0.103212 0.58294
0.745296 0.124483 0.595697
0.744503 0.126116 0.60708
0.736248 0.128344 0.634028
0.116564 0.0632792 0.591989
0.181445 0.062623 0.612528
0.278279 0.0611124 0.62388
0.395682 0.0617533 0.621607
0.519066 0.0731365 0.609888
0.687617 0.10518 0.590463
0.74403 0.125536 0.604913
0.742336 0.126894 0.615518
0.734081 0.128801 0.639597
0.023209 0.0647135 0.518318
0.0552682 0.0646677 0.558541
0.185718 0.0624857 0.613352
0.353124 0.0610666 0.624537
0.497536 0.0710613 0.612177
0.67863 0.101808 0.584298
0.748867 0.124315 0.586892
0.747463 0.125566 0.596948
0.740963 0.127291 0.618326
0.021088 0.195743 0.547036
0.020264 0.187167 0.553368
0.0206149 0.157397 0.558206
0.227497 0.0966659 0.661524
0.472496 0.0890516 0.648402
0.66128 0.100862 0.590417
0.752621 0.122988 0.563119
0.75079 0.124346 0.578622
0.746319 0.12578 0.596063
0.0512093 0.469368 0.583902
0.0523079 0.472938 0.591669
0.0520485 0.465827 0.599283
0.0882582 0.45832 0.655802
0.447471 0.42855 0.785977
0.758053 0.401541 0.742733
0.937926 0.384344 0.698756
0.931029 0.370428 0.690562
0.934051 0.388846 0.723751
0.138216 0.671489 0.645838
0.143236 0.677913 0.650904
0.144411 0.678294 0.651881
0.143114 0.674632 0.650111
0.274311 0.704143 0.69099
0.630045 0.674372 0.68748
0.914977 0.668879 0.687099
0.966918 0.668956 0.694286
0.957137 0.683787 0.712337
0.276265 0.841352 0.759136
0.284977 0.844541 0.762036
0.285328 0.843778 0.758862
0.282826 0.841337 0.749523
0.289281 0.843351 0.729717
0.490471 0.868696 0.718349
0.772519 0.886534 0.65069
0.960647 0.892668 0.695964
0.953918 0.898909 0.728664
0.338674 0.89749 0.83331
0.348226 0.896071 0.83209
0.348974 0.894942 0.828
0.342885 0.893248 0.816968
0.329122 0.888014 0.788342
0.427207 0.910231 0.75996
0.633021 0.915343 0.680613
0.938323 0.92723 0.653346
0.957229 0.932357 0.72372
0.35993 0.908263 0.860883
0.37258 0.905913 0.85922
0.374868 0.904738 0.85449
0.367407 0.903243 0.842542
0.360357 0.900282 0.816068
0.511833 0.917647 0.8065
0.684169 0.919738 0.73254
0.930343 0.929808 0.679927
0.953399 0.933852 0.717617
0.25774 0.078172 0.69369
0.287816 0.0787671 0.69894
0.340764 0.0798505 0.705074
0.421653 0.0830854 0.709743
0.527413 0.0939956 0.708675
0.666865 0.124056 0.706371
0.719158 0.139666 0.711635
0.718105 0.141482 0.718776
0.714427 0.143267 0.726833
0.21799 0.0782025 0.687129
0.2589 0.0792706 0.697765
0.320333 0.080415 0.706676
0.4112 0.0839094 0.713954
0.524804 0.0946975 0.713344
0.670054 0.126238 0.711528
0.71841 0.14052 0.715496
0.716533 0.142321 0.722835
0.713191 0.143725 0.729183
0.097734 0.0756542 0.641703
0.162875 0.0772717 0.670527
0.257969 0.0791638 0.697093
0.374762 0.0822461 0.711849
0.502831 0.0914168 0.712993
0.656352 0.123049 0.711604
0.721965 0.139635 0.709026
0.720455 0.141253 0.715694
0.715297 0.143099 0.725429
0.0321508 0.115114 0.601038
0.0329747 0.101335 0.602396
0.04094 0.0777752 0.601221
0.257679 0.0791791 0.696559
0.446357 0.0864424 0.712703
0.619303 0.115679 0.711192
0.725505 0.137926 0.69778
0.72549 0.138933 0.701076
0.719203 0.140993 0.713664
0.066392 0.425971 0.684749
0.0690929 0.427863 0.693416
0.0709697 0.415991 0.702388
0.136934 0.398718 0.770291
0.483635 0.349859 0.9066
0.740307 0.332067 0.889845
0.852781 0.318547 0.838041
0.843198 0.300237 0.82179
0.850523 0.322011 0.845838
0.157031 0.658152 0.740963
0.162097 0.663722 0.747173
0.162936 0.661265 0.751675
0.174273 0.654871 0.768338
0.329503 0.685328 0.879072
0.643565 0.640299 0.938216
0.912352 0.618051 0.906172
0.967529 0.609735 0.893233
0.956024 0.627131 0.89958
0.288808 0.837171 0.812467
0.297017 0.841352 0.815915
0.299016 0.841367 0.816434
0.300435 0.840192 0.816068
0.320714 0.845747 0.824445
0.557824 0.875868 0.869856
0.814618 0.856168 0.867063
0.953765 0.852796 0.868147
0.947066 0.863157 0.880339
0.383032 0.917296 0.882994
0.397162 0.916014 0.882475
0.402548 0.916533 0.882567
0.403525 0.917601 0.880491
0.403479 0.917311 0.87332
0.546624 0.937758 0.895811
0.746136 0.93637 0.90045
0.923644 0.940963 0.868193
0.956359 0.94287 0.893904
0.406653 0.925689 0.902449
0.420874 0.923858 0.900908
0.425254 0.924041 0.899336
0.427604 0.925139 0.896849
0.435828 0.92813 0.893248
0.605951 0.941894 0.913176
0.778347 0.939574 0.916014
0.90602 0.942412 0.89102
0.955047 0.944289 0.882719
0.319753 0.0848402 0.72195
0.342901 0.0858473 0.725628
0.385061 0.0879225 0.730327
0.454658 0.0923323 0.734035
0.557656 0.105074 0.733043
0.683375 0.133211 0.727459
0.71603 0.143114 0.725368
0.716594 0.143542 0.725475
0.71548 0.143847 0.727016
0.290166 0.0837568 0.717021
0.317937 0.0850538 0.722652
0.365789 0.0869459 0.728435
0.443931 0.0915084 0.733761
0.553994 0.104677 0.733486
0.684718 0.133684 0.727642
0.716167 0.143252 0.725475
0.716167 0.143709 0.726207
0.713909 0.144198 0.729183
0.194369 0.0809644 0.693736
0.246052 0.0829023 0.709545
0.315953 0.0850385 0.722362
0.411399 0.0894179 0.732326
0.530388 0.100542 0.733394
0.673442 0.131701 0.729793
0.718029 0.143069 0.7234
0.718227 0.143526 0.723934
0.715038 0.144167 0.728115
0.068986 0.0906691 0.651362
0.0767071 0.0814221 0.652918
0.106767 0.0799725 0.665568
0.318898 0.0851453 0.722789
0.4748 0.0944839 0.734417
0.642557 0.126482 0.734432
0.718364 0.143145 0.723156
0.719524 0.143587 0.722713
0.716197 0.14435 0.727199
0.103517 0.395468 0.755428
0.111528 0.39855 0.764263
0.121233 0.384588 0.771725
0.199222 0.348714 0.811017
0.500908 0.294408 0.880735
0.733455 0.284092 0.858885
0.816037 0.276783 0.821118
0.80737 0.260822 0.807492
0.820508 0.285451 0.829297
0.18819 0.648188 0.806409
0.194644 0.6542 0.811734
0.199817 0.653223 0.817639
0.223514 0.649134 0.837964
0.371054 0.661982 0.928649
0.694194 0.599252 0.975662
0.924743 0.586114 0.957137
0.960571 0.580331 0.950301
0.949615 0.598779 0.949584
0.301228 0.833585 0.857069
0.310491 0.837934 0.859525
0.317708 0.839414 0.863828
0.336492 0.842039 0.875135
0.387457 0.850095 0.904311
0.595483 0.868925 0.943633
0.834791 0.826001 0.946822
0.949828 0.817334 0.940429
0.943236 0.829374 0.936614
0.409873 0.926863 0.909377
0.424063 0.925231 0.908553
0.428046 0.925048 0.908797
0.429633 0.926314 0.909636
0.429694 0.92607 0.908858
0.571084 0.94844 0.93756
0.777508 0.942702 0.940658
0.93167 0.935927 0.938293
0.956924 0.935805 0.937072
0.424536 0.932876 0.917403
0.43888 0.930373 0.915465
0.445502 0.930953 0.91635
0.452338 0.933959 0.919585
0.464057 0.937789 0.922606
0.619745 0.951293 0.943084
0.807309 0.945815 0.943481
0.922957 0.945785 0.946441
0.953948 0.946426 0.940536
0.327993 0.0852979 0.723262
0.350393 0.0862745 0.726635
0.391867 0.0882277 0.73077
0.461845 0.0927749 0.733837
0.566751 0.106859 0.733089
0.689235 0.134218 0.726314
0.715938 0.142962 0.725261
0.716396 0.143664 0.725826
0.715434 0.143938 0.727184
0.299428 0.084062 0.718578
0.325841 0.0854963 0.723918
0.372915 0.0871901 0.729015
0.451347 0.0920729 0.733944
0.56231 0.106096 0.733288
0.691356 0.134569 0.725521
0.716075 0.143114 0.725368
0.716213 0.143771 0.726253
0.713893 0.144259 0.729305
0.208499 0.081239 0.697734
0.257679 0.0834363 0.712352
0.323919 0.0853742 0.723537
0.418128 0.0898604 0.732769
0.537667 0.101518 0.733074
0.679072 0.132967 0.729198
0.718059 0.142977 0.723278
0.718288 0.143572 0.723995
0.715267 0.144198 0.727932
0.0744488 0.0862745 0.653727
0.0776379 0.0815442 0.653651
0.118883 0.0801099 0.670588
0.326238 0.0855116 0.723949
0.480552 0.0947738 0.734157
0.647883 0.12755 0.733974
0.718532 0.143145 0.722988
0.719585 0.143633 0.722759
0.716228 0.144381 0.727245
0.137819 0.395895 0.784527
0.140429 0.397711 0.786892
0.135851 0.382193 0.782162
0.202014 0.34519 0.811795
0.505714 0.29044 0.879164
0.73434 0.280674 0.856123
0.815061 0.273487 0.817578
0.805127 0.25771 0.805341
0.820279 0.284947 0.829023
0.220157 0.658503 0.835264
0.227527 0.664622 0.839841
0.231968 0.662745 0.843626
0.241138 0.652979 0.851026
0.375738 0.660929 0.930282
0.70135 0.597543 0.97319
0.925811 0.585977 0.955489
0.958541 0.580346 0.947967
0.94667 0.600015 0.946517
0.335073 0.845258 0.881605
0.344106 0.84863 0.882338
0.348318 0.848417 0.884031
0.367132 0.849638 0.893248
0.405447 0.851316 0.911788
0.604456 0.865751 0.943252
0.844892 0.820447 0.944823
0.951247 0.812787 0.940154
0.94255 0.826795 0.935882
0.41474 0.924743 0.91075
0.426886 0.924269 0.910048
0.43537 0.924773 0.911101
0.44332 0.926909 0.913817
0.454398 0.92813 0.918593
0.595132 0.946441 0.942031
0.794125 0.940764 0.946319
0.931304 0.933074 0.944656
0.956283 0.931716 0.940444
0.424842 0.932662 0.917433
0.440269 0.930114 0.915297
0.449912 0.929931 0.915602
0.459556 0.932204 0.918303
0.478904 0.936156 0.923217
0.633997 0.948318 0.941726
0.802655 0.946151 0.945785
0.919982 0.946609 0.949828
0.957107 0.9458 0.944533
