bundles/resolve-cinematic-luts/Phantom Luts/P4k & P6k Phntm Arri LUTs - V6/P4K/Gen 4 Colour/Standard (No WB Offset)/P4k Tungsten Gen4.cube
TITLE "Generated by Resolve"
LUT_3D_SIZE 5
0 0 0.0062562
0.1906 0.00665293 0.0332341
0.58584 0.0513313 0.126177
0.814542 0.161486 0.247852
0.828504 0.17232 0.270619
0.00430304 0.214206 0.103426
0.148013 0.219364 0.00103761
0.60618 0.210407 0.0777752
0.845029 0.258427 0.199741
0.841932 0.248936 0.199939
0 0.531563 0.278035
0 0.535851 0.116777
0.53959 0.559487 0.00460822
0.911086 0.636759 0.229191
0.928573 0.655222 0.249622
0.117937 0.802167 0.574411
0.100679 0.793469 0.525689
0.108293 0.768017 0.246998
0.876036 0.849104 0.320027
0.953399 0.88275 0.502831
0.147951 0.820508 0.63473
0.119188 0.804181 0.567529
0.114961 0.778775 0.310857
0.86276 0.84889 0.34667
0.95346 0.888457 0.537118
0.0107424 0.0105745 0.198535
0.203647 0.0115358 0.186099
0.579232 0.0340429 0.27808
0.798383 0.111559 0.358144
0.807904 0.120134 0.380713
0.00814832 0.189014 0.185962
0.159213 0.191211 0.197498
0.660853 0.136431 0.197055
0.826276 0.17557 0.256886
0.832776 0.178408 0.272038
0 0.52369 0.373083
0 0.517159 0.280888
0.525475 0.546181 0.00740063
0.930678 0.620066 0.254719
0.93698 0.631479 0.266239
0.135241 0.809537 0.618784
0.121386 0.804318 0.579843
0.0814679 0.769406 0.313954
0.87071 0.846708 0.308446
0.953979 0.881025 0.499229
0.170611 0.833234 0.679561
0.146059 0.819272 0.62884
0.0867781 0.778714 0.381186
0.829267 0.840589 0.326436
0.953582 0.88925 0.541222
0.120623 0.0356298 0.546807
0.314336 0.0253605 0.537362
0.586679 0.0377966 0.519448
0.768353 0.0899519 0.553994
0.767971 0.092256 0.569589
0 0.103731 0.459907
0.113573 0.0361334 0.536599
0.55642 0.0339513 0.491539
0.774777 0.0901656 0.51342
0.775998 0.092668 0.52697
0.0039826 0.538094 0.516655
0.00335698 0.5364 0.514977
0.544091 0.550271 0.540383
0.992798 0.546563 0.576501
0.992767 0.541436 0.578698
0.170413 0.81799 0.702495
0.166415 0.817288 0.691844
0.112291 0.792279 0.553994
0.841276 0.838773 0.346822
0.958556 0.872099 0.51986
0.225635 0.862699 0.775097
0.214893 0.856901 0.756054
0.145708 0.818357 0.618051
0.672145 0.808728 0.288487
0.95433 0.892531 0.559075
0.32047 0.0725872 0.750439
0.412238 0.0693523 0.756603
0.59527 0.0747387 0.734676
0.728817 0.114702 0.737209
0.727672 0.118807 0.749065
0.0892805 0.0697185 0.665141
0.309194 0.0716106 0.746014
0.565652 0.0702525 0.736126
0.731243 0.112779 0.728542
0.730068 0.117006 0.741054
0.0602731 0.520638 0.752529
0.0606699 0.503594 0.760845
0.614221 0.415564 0.996506
0.89366 0.315526 0.873945
0.893553 0.315877 0.87451
0.224155 0.834623 0.813458
0.228183 0.837812 0.817273
0.262531 0.848569 0.825574
0.864286 0.870344 0.862821
0.960891 0.876066 0.878843
0.325414 0.914748 0.88603
0.329107 0.915419 0.884337
0.325368 0.907942 0.860792
0.748211 0.927932 0.868315
0.976562 0.960983 0.878645
0.396811 0.0784009 0.772976
0.463096 0.0783551 0.774365
0.622736 0.0875563 0.754147
0.72636 0.120119 0.754101
0.727962 0.12195 0.756115
0.265339 0.0800031 0.749554
0.390967 0.0785687 0.772717
0.595438 0.0841688 0.758495
0.726757 0.120287 0.753857
0.728405 0.122408 0.756527
0.173785 0.4795 0.878782
0.167895 0.451301 0.871717
0.615854 0.290974 0.960174
0.832197 0.23917 0.858167
0.836545 0.245274 0.863432
0.312108 0.871489 0.924269
0.312886 0.872221 0.924956
0.423911 0.89247 0.966415
0.889815 0.834424 0.964004
0.945815 0.829175 0.950286
0.378958 0.936843 0.928756
0.387579 0.938994 0.931563
0.416236 0.943603 0.936614
0.818509 0.965866 0.96405
0.975128 0.973693 0.972763
