bundles/resolve-cinematic-luts/Phantom Luts/P4k & P6k Phntm Arri LUTs - V6/P4K/Gen 4 Colour/Standard (No WB Offset)/P4k Tungsten Gen4-Legacy.cube
TITLE "Generated by Resolve"
LUT_3D_SIZE 33
0.0172122 0.0162661 0.0214389
0.0172122 0.0162661 0.0214389
0.0175937 0.0162661 0.0214542
0.0293889 0.01738 0.0248569
0.0493935 0.0206149 0.031632
0.0729381 0.0243687 0.037705
0.0981613 0.0272984 0.0421759
0.125505 0.0298161 0.0456245
0.158511 0.0327001 0.0496681
0.195926 0.0357061 0.0543374
0.236103 0.0382849 0.0602426
0.280415 0.04094 0.0666819
0.326894 0.0437324 0.0732891
0.373617 0.0462196 0.0807355
0.422324 0.0489967 0.0890974
0.47422 0.0524147 0.0994125
0.528542 0.0555581 0.11075
0.579263 0.06009 0.122591
0.62475 0.0681926 0.137057
0.674449 0.0768444 0.152636
0.715297 0.090135 0.170062
0.745159 0.104555 0.188144
0.766567 0.118135 0.202838
0.778286 0.128222 0.211841
0.783749 0.134096 0.217273
0.78793 0.138415 0.221775
0.790646 0.141207 0.224887
0.793179 0.143801 0.227802
0.795575 0.146136 0.230594
0.797665 0.148165 0.233127
0.79942 0.149813 0.235447
0.801495 0.151766 0.23798
0.803113 0.153231 0.239948
0.0171664 0.0175174 0.0233463
0.0171664 0.0174411 0.0232395
0.0171511 0.0167239 0.022446
0.0218967 0.017792 0.0224765
0.0411688 0.0230106 0.0273289
0.0631113 0.0281529 0.0338293
0.0882734 0.0318761 0.0395056
0.115541 0.0347143 0.0431067
0.146944 0.0373693 0.0461738
0.182666 0.039826 0.0497292
0.222217 0.0417792 0.0537423
0.266636 0.0440986 0.0581826
0.314595 0.0458534 0.0637064
0.3626 0.0477455 0.0700084
0.411612 0.0497292 0.0775158
0.463188 0.0514229 0.0858625
0.518318 0.0536507 0.0957656
0.569848 0.0571298 0.107668
0.616403 0.0644694 0.122499
0.66627 0.0726482 0.138888
0.706645 0.0847944 0.15761
0.736629 0.098558 0.175982
0.758801 0.112078 0.19115
0.771115 0.121981 0.200839
0.775814 0.126986 0.205417
0.7794 0.130694 0.209232
0.782696 0.134112 0.212848
0.785855 0.137392 0.216251
0.788571 0.1402 0.219181
0.79086 0.142519 0.221851
0.792981 0.144625 0.224262
0.795056 0.146563 0.226688
0.796933 0.148318 0.229007
0.020325 0.0290532 0.0320439
0.0202945 0.0292821 0.0323796
0.0199588 0.027924 0.0294652
0.0226902 0.0267185 0.0265507
0.0380407 0.0311284 0.0287022
0.0556191 0.0353094 0.0329442
0.0795911 0.0388342 0.0378576
0.105776 0.0411994 0.0420233
0.134859 0.0433661 0.0450446
0.169833 0.0449073 0.0474098
0.209323 0.0459297 0.0504768
0.253056 0.047776 0.0538338
0.300298 0.049424 0.0574655
0.347372 0.0513466 0.0638437
0.395575 0.0536507 0.0696422
0.447242 0.0554665 0.0762036
0.505074 0.056733 0.0856336
0.56025 0.0589303 0.0965744
0.608225 0.0648203 0.111559
0.658259 0.0716411 0.127352
0.699351 0.0823835 0.146349
0.730205 0.0958877 0.165423
0.75285 0.108248 0.181247
0.765484 0.117983 0.190707
0.77023 0.122774 0.195315
0.772885 0.125383 0.198367
0.775448 0.127993 0.201221
0.777905 0.13051 0.203876
0.780484 0.13312 0.20676
0.78262 0.135225 0.209262
0.784817 0.137407 0.211749
0.786999 0.139467 0.214313
0.788983 0.141192 0.216785
0.0247959 0.0509041 0.0471199
0.0247044 0.0511635 0.0474403
0.0239872 0.0508431 0.0435645
0.0283055 0.0494698 0.034226
0.0438697 0.0487221 0.031693
0.0608072 0.0505837 0.0367437
0.0818952 0.0529793 0.0410163
0.105455 0.0546578 0.0430457
0.132769 0.0559854 0.0454566
0.165469 0.0565194 0.0477302
0.203159 0.0560616 0.0505074
0.243977 0.055848 0.0531777
0.289006 0.0565042 0.0561837
0.334646 0.0582132 0.0598306
0.38175 0.0600137 0.0640574
0.432242 0.0623331 0.06981
0.489982 0.0640879 0.0798657
0.547127 0.0663462 0.0884565
0.598291 0.0710002 0.101747
0.651377 0.076051 0.11809
0.695003 0.0854353 0.137865
0.726604 0.0971237 0.157519
0.751171 0.110307 0.17496
0.764736 0.119875 0.185168
0.770108 0.124834 0.190188
0.771908 0.126467 0.192523
0.773754 0.128328 0.194598
0.775631 0.130144 0.196826
0.77763 0.132097 0.199176
0.779553 0.133944 0.201328
0.781125 0.135393 0.203311
0.782681 0.136706 0.205356
0.784207 0.138064 0.207202
0.0259098 0.0733806 0.057145
0.0258183 0.0736706 0.0574807
0.024506 0.074052 0.0512093
0.0257877 0.0731823 0.0416114
0.0412146 0.0710765 0.0348363
0.0638437 0.0716869 0.0349126
0.0888075 0.072282 0.0399176
0.110338 0.0743114 0.0448157
0.137697 0.0754864 0.0473793
0.169329 0.0765545 0.0487831
0.205386 0.0762951 0.0513924
0.244938 0.0749371 0.0543832
0.28806 0.0732586 0.0571603
0.332311 0.0717327 0.0601205
0.376486 0.0703746 0.0637369
0.425086 0.0699626 0.0690318
0.477668 0.071397 0.0748608
0.533593 0.074052 0.0822156
0.587594 0.0785992 0.0911574
0.642771 0.0829175 0.109071
0.689693 0.0917067 0.127932
0.724865 0.10396 0.149569
0.750439 0.115526 0.168521
0.767376 0.126696 0.181537
0.774121 0.132311 0.187518
0.776226 0.134264 0.190082
0.778134 0.136019 0.192554
0.779568 0.137346 0.194507
0.781003 0.13875 0.196216
0.782376 0.140017 0.197894
0.78381 0.141207 0.199756
0.785214 0.142382 0.201633
0.786557 0.143572 0.203204
0.0240482 0.0972 0.066331
0.0239261 0.0974899 0.0667887
0.0214694 0.0989548 0.0577096
0.0212253 0.098909 0.0470283
0.0331579 0.0968338 0.0348821
0.0538643 0.0971389 0.0340124
0.0888228 0.0962081 0.0345464
0.116564 0.0959335 0.0403296
0.14168 0.0977646 0.043473
0.17467 0.0977646 0.0479438
0.211109 0.0978256 0.0509957
0.249973 0.0964065 0.0546273
0.294133 0.0944991 0.0586404
0.339208 0.0927443 0.0621958
0.384421 0.0910201 0.0660868
0.430472 0.0896773 0.0705272
0.479255 0.0884718 0.0760967
0.530526 0.0868238 0.0825513
0.582513 0.0859541 0.0898299
0.634974 0.091371 0.101183
0.684016 0.0990311 0.119585
0.721477 0.110384 0.140627
0.749905 0.123705 0.160571
0.770672 0.136812 0.175799
0.778881 0.14284 0.182254
0.781552 0.145083 0.185718
0.783627 0.14699 0.188525
0.785397 0.14847 0.191058
0.786862 0.149798 0.192996
0.788235 0.151019 0.194842
0.789639 0.152255 0.196643
0.791074 0.15346 0.19855
0.792493 0.154681 0.200351
0.0203861 0.120562 0.0770428
0.0202182 0.121019 0.0776837
0.0174716 0.122148 0.0632639
0.0154879 0.123293 0.0501564
0.0196078 0.121355 0.0358587
0.0434577 0.120104 0.0279088
0.0726635 0.121004 0.0293889
0.115282 0.119554 0.0313878
0.146792 0.11899 0.0366064
0.176883 0.120562 0.0389715
0.215885 0.11989 0.0461128
0.257282 0.118975 0.0509957
0.300938 0.117357 0.0575723
0.346365 0.115572 0.0625315
0.393347 0.114473 0.0678416
0.441032 0.113573 0.0724956
0.490806 0.112871 0.0788891
0.542748 0.11223 0.0860151
0.594644 0.11162 0.0935531
0.643305 0.111818 0.103029
0.686793 0.114427 0.116045
0.72195 0.121813 0.13431
0.750515 0.132158 0.156069
0.773098 0.145861 0.171206
0.784314 0.15523 0.178103
0.787533 0.158633 0.180468
0.78967 0.16083 0.182589
0.791623 0.162921 0.184726
0.793256 0.164523 0.186648
0.794644 0.16585 0.188281
0.795758 0.166781 0.189715
0.796872 0.167803 0.191043
0.798199 0.169039 0.192584
0.0149996 0.145022 0.0860609
0.0147097 0.14551 0.0868544
0.01178 0.147753 0.0733501
0.0100557 0.149493 0.0562753
0.0101778 0.148455 0.0416876
0.0228733 0.146059 0.0236057
0.0546426 0.146883 0.0224765
0.0986496 0.147051 0.0244755
0.141924 0.145998 0.0275273
0.180728 0.145464 0.0326085
0.214923 0.147723 0.0374151
0.262348 0.146456 0.0447395
0.311711 0.144762 0.0541848
0.355993 0.143221 0.061738
0.403418 0.141985 0.0683757
0.453422 0.141848 0.0746471
0.50576 0.142184 0.0816815
0.559625 0.142626 0.089189
0.612619 0.142748 0.0976883
0.662104 0.143847 0.107881
0.705989 0.147585 0.121782
0.740505 0.153643 0.139467
0.766354 0.161547 0.157671
0.785138 0.169406 0.171908
0.793835 0.173266 0.178653
0.794614 0.173037 0.17937
0.795636 0.174609 0.179751
0.797055 0.176852 0.180316
0.798413 0.178912 0.180941
0.799435 0.180545 0.181369
0.800641 0.182147 0.182177
0.801862 0.183749 0.183078
0.803021 0.185382 0.183825
0.010132 0.172992 0.0957961
0.00988785 0.17348 0.0969253
0.00866712 0.17615 0.0825055
0.00729381 0.178393 0.0646525
0.00668345 0.178729 0.0478828
0.00947585 0.176287 0.0292363
0.0316777 0.174624 0.0150454
0.0693523 0.176776 0.0166323
0.124987 0.176715 0.018555
0.171283 0.176532 0.0227817
0.220386 0.177279 0.0278477
0.260563 0.180179 0.0357214
0.313176 0.179858 0.0433661
0.368093 0.177768 0.0560464
0.416312 0.176928 0.0650187
0.466514 0.176028 0.074403
0.520256 0.177188 0.0831922
0.574914 0.177935 0.0919356
0.628077 0.178058 0.100664
0.678706 0.17966 0.112154
0.724315 0.183307 0.127337
0.76228 0.190951 0.147265
0.789075 0.199466 0.166079
0.808347 0.208057 0.181033
0.81799 0.212665 0.188739
0.818296 0.211048 0.189487
0.816617 0.208133 0.188846
0.815808 0.206821 0.188464
0.815061 0.205631 0.188098
0.814588 0.204807 0.18793
0.814404 0.204364 0.188006
0.814603 0.204379 0.188418
0.81503 0.20473 0.188968
0.0065156 0.202914 0.104555
0.00619516 0.203449 0.105959
0.0047303 0.20589 0.0924086
0.00321965 0.20856 0.0730602
0.00196841 0.209674 0.0537575
0.00202945 0.207767 0.0366827
0.0102083 0.205219 0.0169223
0.0399176 0.206806 0.0103456
0.0869612 0.209659 0.0112154
0.153658 0.210391 0.012726
0.20856 0.211597 0.018616
0.265873 0.213443 0.0253758
0.315618 0.218509 0.0330968
0.366491 0.220493 0.042237
0.427268 0.218158 0.0552071
0.480674 0.217182 0.0676432
0.530663 0.217563 0.0792248
0.585794 0.215824 0.0925307
0.640421 0.216815 0.103243
0.692592 0.21857 0.116152
0.740826 0.22266 0.133135
0.780926 0.229755 0.153857
0.810101 0.238712 0.174411
0.830854 0.248463 0.190723
0.842191 0.254734 0.200031
0.843473 0.254246 0.201434
0.841962 0.251499 0.200732
0.840558 0.24921 0.199924
0.839734 0.247593 0.199619
0.839246 0.24654 0.199527
0.839155 0.24622 0.199603
0.839918 0.247318 0.200244
0.840818 0.248829 0.200855
0.000900282 0.235157 0.113039
0.000549325 0.23592 0.114611
0 0.238193 0.100191
0 0.240406 0.0823987
0 0.242069 0.0625162
0 0.241093 0.0428931
0 0.23769 0.0195468
0.00943008 0.236774 0.00474556
0.0469978 0.242206 0.00180056
0.107408 0.24622 0.00411994
0.188632 0.247944 0.00793469
0.251621 0.250996 0.0154726
0.317968 0.254948 0.0263523
0.373083 0.260777 0.0304112
0.420447 0.264912 0.0390478
0.483055 0.262333 0.0524147
0.540307 0.261646 0.0683146
0.592645 0.262516 0.0834669
0.647807 0.262119 0.100969
0.702785 0.261952 0.119936
0.753429 0.265919 0.138399
0.797253 0.272709 0.160281
0.829053 0.281163 0.181903
0.851484 0.290761 0.199786
0.864897 0.29868 0.211017
0.866743 0.298573 0.212802
0.865797 0.296345 0.212497
0.864805 0.294392 0.212009
0.863966 0.292851 0.211551
0.863554 0.291936 0.211429
0.863874 0.292424 0.211704
0.864576 0.293599 0.212253
0.86598 0.29575 0.213397
0 0.272496 0.120684
0 0.273136 0.122698
0 0.274968 0.108125
0 0.276722 0.0914473
0 0.278599 0.0722362
0 0.278843 0.0509651
0 0.276448 0.0289616
0 0.272526 0.00483711
0.0120546 0.274891 0
0.0568551 0.282078 0
0.133822 0.287053 0
0.226993 0.289357 0.00265507
0.29807 0.293523 0.0106966
0.368444 0.298054 0.0232395
0.428397 0.304601 0.0281834
0.475532 0.310735 0.0353246
0.536278 0.310994 0.0497444
0.597147 0.310369 0.0700847
0.651377 0.312123 0.0903639
0.705409 0.313436 0.114092
0.760769 0.313817 0.140169
0.809354 0.317464 0.165621
0.845655 0.325673 0.189288
0.869993 0.334508 0.20853
0.884413 0.342336 0.220554
0.887266 0.343099 0.223255
0.886458 0.341161 0.222873
0.885771 0.339574 0.222538
0.885466 0.338827 0.222385
0.885252 0.338476 0.222232
0.885481 0.338811 0.222477
0.886244 0.3402 0.223117
0.88748 0.342718 0.224018
0 0.31194 0.132158
0 0.312581 0.134417
0 0.313909 0.119814
0 0.315282 0.102296
0 0.316808 0.0843671
0 0.317891 0.0627756
0 0.31667 0.0400092
0 0.313436 0.0125887
0 0.310887 0
0.0186313 0.315206 0
0.0703593 0.322225 0
0.168139 0.326543 0
0.271534 0.329717 0
0.344182 0.334859 0.00505074
0.416815 0.340703 0.0213626
0.481529 0.348379 0.0292821
0.531518 0.356695 0.0374456
0.589334 0.359701 0.0522316
0.651011 0.359579 0.0781567
0.706279 0.362387 0.104143
0.760876 0.36527 0.131762
0.815045 0.366674 0.164248
0.85713 0.370809 0.193851
0.884337 0.378058 0.215396
0.900984 0.385718 0.229343
0.904692 0.387472 0.232731
0.904448 0.386252 0.232731
0.904112 0.38529 0.232532
0.903944 0.384802 0.232471
0.903914 0.384756 0.232441
0.904189 0.385443 0.232624
0.904768 0.387045 0.233051
0.905821 0.38967 0.23386
0 0.350103 0.147646
0 0.350805 0.150607
0 0.351797 0.134081
0 0.353094 0.1178
0 0.354269 0.0997787
0 0.355825 0.0785687
0 0.3561 0.055848
0 0.353857 0.0300298
0 0.35053 0
0 0.349859 0
0.0303807 0.355077 0
0.0898451 0.361105 0
0.210346 0.365499 0
0.318288 0.37026 0
0.389563 0.376822 0.00276188
0.46453 0.384649 0.0215915
0.533822 0.39353 0.0344396
0.587182 0.402579 0.0448615
0.641886 0.408148 0.0625925
0.703777 0.409781 0.0922103
0.761349 0.413565 0.123522
0.814099 0.418158 0.155383
0.859678 0.422431 0.18793
0.89218 0.427131 0.215015
0.911864 0.432776 0.232853
0.917769 0.435767 0.238254
0.918105 0.435264 0.238773
0.917998 0.434272 0.238834
0.917922 0.433753 0.23888
0.917998 0.433875 0.238972
0.918242 0.434821 0.239139
0.918563 0.436957 0.239292
0.919387 0.440726 0.239643
0 0.388754 0.16582
0 0.389487 0.169528
0 0.390646 0.15465
0 0.391623 0.139361
0 0.392721 0.12108
0 0.393912 0.100465
0 0.395361 0.0763256
0 0.394659 0.0515755
0 0.39263 0.021622
0 0.389792 0
0 0.390158 0
0.0476997 0.394903 0
0.119173 0.400839 0
0.257588 0.405921 0
0.369162 0.41268 0
0.436683 0.420478 0.00248722
0.51397 0.429526 0.0260319
0.587121 0.43946 0.0441901
0.642298 0.449485 0.0597086
0.69575 0.457481 0.0806134
0.756939 0.461173 0.11313
0.813474 0.465248 0.148989
0.85771 0.471626 0.18024
0.891539 0.477882 0.207584
0.914458 0.483986 0.228092
0.922667 0.488045 0.235798
0.923491 0.487938 0.236683
0.923476 0.48748 0.236728
0.923476 0.487572 0.236713
0.923491 0.488273 0.236652
0.923583 0.489982 0.236561
0.923766 0.492683 0.236576
0.923964 0.496178 0.236591
0 0.429252 0.190585
0 0.430274 0.194888
0 0.431067 0.181369
0 0.431907 0.166247
0 0.432822 0.149172
0 0.434104 0.130632
0 0.436103 0.1066
0 0.437201 0.0798047
0 0.435721 0.0520943
0 0.433753 0.0181888
0 0.432227 0
0.00688182 0.433234 0
0.0739147 0.43714 0
0.15462 0.442451 0
0.306477 0.44799 0
0.419532 0.456947 0
0.486 0.465888 0.00933852
0.564691 0.476219 0.0373541
0.639658 0.487297 0.0612039
0.696559 0.497688 0.0817731
0.748821 0.507683 0.105608
0.806531 0.513176 0.140185
0.855802 0.518502 0.176501
0.889082 0.526024 0.202884
0.912154 0.53312 0.2224
0.922805 0.538705 0.232959
0.924254 0.539391 0.234516
0.924178 0.5393 0.234424
0.924208 0.53994 0.234455
0.924178 0.540963 0.23444
0.924178 0.542672 0.23444
0.924239 0.545403 0.234577
0.924529 0.549187 0.235035
0 0.472877 0.222293
0 0.473808 0.227588
0 0.47454 0.213794
0 0.475166 0.199145
0 0.476204 0.184131
0 0.477867 0.168307
0 0.479515 0.145724
0 0.481819 0.11931
0 0.481483 0.0907149
0 0.479896 0.059266
0 0.477821 0.0206302
0 0.476768 0
0.0374609 0.478294 0
0.10811 0.481544 0
0.196155 0.485832 0
0.35494 0.492363 0
0.469657 0.503731 0
0.535988 0.513313 0.022797
0.614572 0.524346 0.054612
0.689937 0.535042 0.0838788
0.748272 0.546151 0.110674
0.79971 0.558083 0.138201
0.849561 0.566049 0.172305
0.886809 0.572641 0.202548
0.910552 0.580468 0.223163
0.921645 0.588037 0.233814
0.923323 0.590082 0.235706
0.923369 0.590539 0.235859
0.92343 0.591455 0.236042
0.923461 0.592554 0.23621
0.923644 0.594263 0.236622
0.923552 0.596674 0.236881
0.923766 0.600397 0.237659
0 0.518853 0.257893
0 0.519844 0.263859
0 0.520577 0.251698
0 0.521569 0.239368
0 0.522805 0.226856
0 0.523735 0.210956
0 0.525017 0.190448
0 0.527077 0.166217
0 0.528328 0.137331
0 0.526635 0.106584
0 0.524376 0.0702831
0 0.522133 0.0266423
0 0.521904 0
0.0738079 0.524376 0
0.146883 0.528527 0
0.244358 0.533913 0
0.406775 0.541024 0
0.519448 0.552956 0.0144656
0.584375 0.562264 0.0422217
0.660883 0.573465 0.0770581
0.737987 0.584207 0.112825
0.799023 0.597131 0.146929
0.846418 0.610422 0.177081
0.885466 0.619669 0.207675
0.911833 0.62739 0.231144
0.924147 0.635309 0.243763
0.926467 0.639948 0.24715
0.926589 0.640726 0.247471
0.926802 0.641367 0.247822
0.926848 0.642329 0.248142
0.927001 0.6439 0.248753
0.927413 0.64651 0.249897
0.92813 0.650263 0.251652
0 0.565972 0.295186
0 0.566964 0.300847
0 0.567803 0.291402
0 0.568933 0.281086
0 0.569863 0.269459
0 0.570764 0.255192
0 0.571862 0.238453
0 0.573159 0.217014
0 0.575387 0.188769
0 0.574578 0.159503
0 0.572045 0.125948
0 0.568826 0.0856641
0 0.565835 0.0341192
0.0222477 0.567605 0
0.116686 0.572641 0
0.194583 0.578149 0
0.298436 0.584192 0
0.460502 0.591714 0.0065919
0.569055 0.603769 0.0370184
0.632731 0.613519 0.0664683
0.707668 0.62565 0.105531
0.786908 0.637095 0.14905
0.848203 0.650645 0.189258
0.888014 0.663722 0.221256
0.916396 0.673518 0.247288
0.932082 0.681453 0.264698
0.935271 0.686717 0.27039
0.935409 0.687785 0.270649
0.93547 0.688502 0.270771
0.935653 0.689616 0.271168
0.936019 0.691356 0.272084
0.936599 0.693858 0.273579
0.937469 0.697154 0.275639
0 0.613611 0.332372
0 0.614954 0.338308
0 0.615656 0.329702
0 0.616419 0.319921
0 0.617288 0.309911
0 0.618235 0.299016
0 0.619379 0.285603
0 0.620752 0.26743
0 0.622187 0.24358
0 0.623133 0.215259
0 0.620554 0.184161
0 0.61735 0.147936
0 0.613581 0.102388
0 0.611139 0.0457771
0.0702068 0.616556 0.00166323
0.170123 0.623056 0
0.249104 0.629725 0
0.357488 0.636133 0.00244144
0.516915 0.644739 0.0333104
0.620127 0.657725 0.0682383
0.682506 0.668238 0.100038
0.755306 0.680598 0.142306
0.835065 0.6925 0.191913
0.890684 0.705776 0.236149
0.924315 0.717784 0.268193
0.942916 0.726345 0.290028
0.947936 0.731838 0.300359
0.948669 0.733593 0.301915
0.948806 0.734295 0.301732
0.949233 0.735744 0.302266
0.949706 0.737346 0.302983
0.950454 0.739498 0.304341
0.951354 0.742611 0.306294
0 0.662058 0.367651
0 0.663264 0.373312
0 0.664088 0.366171
0 0.664912 0.358404
0 0.665812 0.350332
0 0.666697 0.3411
0 0.667842 0.329458
0 0.66891 0.314626
0 0.670115 0.295918
0 0.671382 0.272007
0 0.66981 0.243702
0 0.666728 0.210483
0 0.662455 0.16997
0.00547799 0.658427 0.121675
0.0419013 0.658671 0.0670481
0.134508 0.666621 0.025864
0.231525 0.673335 0.0170291
0.306325 0.680644 0.0203403
0.419806 0.687526 0.031754
0.573053 0.697627 0.0683757
0.671885 0.711864 0.107988
0.733562 0.72343 0.142123
0.805234 0.735882 0.187961
0.877501 0.748379 0.240711
0.922835 0.759731 0.281819
0.949538 0.768582 0.311162
0.958846 0.773678 0.328679
0.959609 0.775845 0.333806
0.959747 0.776959 0.333669
0.959899 0.777981 0.333608
0.960037 0.7794 0.333852
0.96025 0.781399 0.334646
0.960433 0.783917 0.336217
0.0246281 0.707286 0.403769
0.0263218 0.708553 0.408927
0.02533 0.709117 0.403143
0.0244755 0.709789 0.39675
0.0237125 0.71075 0.390005
0.0226291 0.711299 0.381888
0.0213931 0.711772 0.372061
0.0201267 0.712291 0.359701
0.0187991 0.712673 0.343359
0.0178225 0.713008 0.323018
0.0174258 0.712673 0.29839
0.0178225 0.709743 0.269612
0.0199435 0.705531 0.233234
0.0265354 0.700587 0.189258
0.0436561 0.697047 0.138735
0.0944991 0.698695 0.0811017
0.204303 0.708476 0.0485084
0.292226 0.714916 0.0437171
0.364935 0.722042 0.0482948
0.484611 0.73051 0.0654612
0.633387 0.743877 0.110033
0.724285 0.758648 0.151934
0.785824 0.771145 0.189517
0.852567 0.783108 0.237995
0.910079 0.794751 0.287114
0.94342 0.80351 0.322271
0.958618 0.809064 0.346517
0.960266 0.811063 0.358846
0.960128 0.81181 0.359091
0.959976 0.812604 0.358572
0.959777 0.813779 0.358602
0.959548 0.815412 0.359258
0.959167 0.817761 0.360815
0.0522927 0.743603 0.439155
0.0541238 0.745007 0.444541
0.0532845 0.745251 0.439429
0.0526436 0.745739 0.434058
0.0518196 0.746059 0.427985
0.0509346 0.746273 0.421012
0.0497139 0.746258 0.412421
0.0480507 0.746105 0.401221
0.0462959 0.745678 0.386664
0.0446326 0.745281 0.368582
0.0431067 0.744274 0.34548
0.0421454 0.741512 0.319326
0.0426642 0.73785 0.2878
0.0460517 0.733257 0.248798
0.0548104 0.728374 0.203372
0.0800336 0.725811 0.147448
0.155276 0.731655 0.0941939
0.268925 0.739788 0.0697337
0.350103 0.74609 0.068986
0.422904 0.753323 0.0762036
0.552575 0.763851 0.101579
0.698634 0.780331 0.154925
0.776806 0.794949 0.196368
0.834791 0.807401 0.236652
0.891112 0.819623 0.287495
0.931823 0.829236 0.330159
0.952193 0.835065 0.359747
0.954253 0.837049 0.378912
0.953994 0.837659 0.381277
0.953811 0.838346 0.380941
0.953597 0.8392 0.381003
0.952926 0.840345 0.381353
0.952331 0.841932 0.382284
0.0766613 0.770809 0.474067
0.0782635 0.771984 0.478828
0.0774701 0.771939 0.474449
0.0764935 0.771893 0.469429
0.0754101 0.771725 0.463767
0.0741436 0.77142 0.457282
0.0725872 0.770947 0.449378
0.0706645 0.770199 0.439048
0.0680705 0.768963 0.42533
0.0651865 0.767376 0.408118
0.0623026 0.765377 0.387228
0.060502 0.762844 0.363348
0.0595102 0.759487 0.335973
0.0607156 0.75584 0.302647
0.0649119 0.751019 0.261189
0.0778821 0.747158 0.211994
0.122408 0.749218 0.1552
0.214923 0.757229 0.114458
0.32253 0.762142 0.0944839
0.40354 0.76788 0.0952621
0.481651 0.774563 0.10518
0.61941 0.78706 0.139132
0.756527 0.806683 0.197971
0.825635 0.82092 0.239307
0.874403 0.833524 0.285084
0.919142 0.844709 0.335531
0.943618 0.851118 0.372229
0.9467 0.853422 0.395712
0.946029 0.853925 0.403555
0.945815 0.854368 0.403296
0.945449 0.855055 0.403525
0.945159 0.855802 0.40412
0.944884 0.856352 0.405676
0.094377 0.787503 0.50695
0.095964 0.78851 0.511299
0.0945144 0.787732 0.506798
0.0930343 0.786984 0.501564
0.0914168 0.786191 0.49601
0.0897078 0.785321 0.490059
0.0875868 0.784222 0.482444
0.0847181 0.782605 0.472404
0.0809491 0.780331 0.458579
0.0775616 0.778134 0.443351
0.0744335 0.77586 0.425956
0.0716259 0.773327 0.405463
0.0695659 0.770397 0.37937
0.0688182 0.767147 0.348516
0.0703288 0.763424 0.311284
0.0767681 0.759335 0.266133
0.103532 0.759304 0.214527
0.172869 0.766659 0.170352
0.264515 0.769772 0.139132
0.367498 0.772641 0.126543
0.452552 0.778027 0.12961
0.53991 0.785016 0.142306
0.682643 0.800763 0.182696
0.804685 0.822049 0.243061
0.864088 0.83537 0.285679
0.907149 0.846998 0.33521
0.936843 0.85568 0.382284
0.941924 0.859388 0.415351
0.940612 0.860136 0.429633
0.940383 0.86038 0.431006
0.940261 0.860548 0.43125
0.940139 0.860655 0.431968
0.940032 0.860746 0.433112
0.102571 0.793347 0.526894
0.103777 0.794064 0.530236
0.101823 0.79292 0.524681
0.0997787 0.79176 0.518669
0.0978256 0.790631 0.512871
0.0956893 0.78941 0.506355
0.093019 0.787823 0.497902
0.089662 0.785824 0.487297
0.0855726 0.783383 0.473503
0.081529 0.780835 0.457542
0.0780804 0.778393 0.440345
0.0748913 0.775799 0.420569
0.0732738 0.773678 0.399191
0.0727398 0.771481 0.374563
0.0733959 0.768994 0.346059
0.0771191 0.766201 0.309972
0.0975967 0.766934 0.26685
0.152987 0.772915 0.225559
0.225956 0.775219 0.192859
0.314687 0.77496 0.174182
0.416129 0.777569 0.168872
0.508797 0.783963 0.175402
0.607935 0.793805 0.19498
0.746807 0.814237 0.240848
0.847959 0.834623 0.297459
0.896819 0.845884 0.339208
0.930098 0.855253 0.386343
0.939376 0.860105 0.428077
0.938262 0.862486 0.453666
0.938033 0.862852 0.456733
0.938064 0.862806 0.455879
0.938109 0.86276 0.455177
0.938125 0.86273 0.454902
0.105806 0.795224 0.535286
0.106905 0.79588 0.538247
0.104967 0.794751 0.532815
0.102876 0.793515 0.526726
0.100816 0.792325 0.520806
0.0985733 0.791028 0.514183
0.0958114 0.789441 0.50576
0.0924086 0.787427 0.494987
0.0882277 0.784924 0.481361
0.0834821 0.782071 0.464668
0.0793469 0.779278 0.446204
0.0759136 0.776593 0.4262
0.0738689 0.774319 0.404654
0.0731823 0.772183 0.380591
0.0735943 0.769696 0.35198
0.0768597 0.766964 0.316655
0.0925307 0.766461 0.273884
0.146532 0.772778 0.231861
0.218555 0.775433 0.198001
0.304204 0.775372 0.17908
0.406226 0.777173 0.171939
0.501595 0.783352 0.17789
0.59881 0.792981 0.195712
0.731365 0.811643 0.236896
0.839628 0.83299 0.294102
0.892378 0.844968 0.335958
0.927626 0.854536 0.38265
0.939361 0.859876 0.424842
0.938216 0.862577 0.454231
0.937896 0.863172 0.459068
0.937881 0.863203 0.459068
0.937881 0.863172 0.458717
0.937926 0.863081 0.458305
0.108675 0.796796 0.542351
0.109529 0.797253 0.544503
0.107515 0.796078 0.539025
0.105394 0.794842 0.533043
0.103273 0.793622 0.527031
0.100954 0.792248 0.520226
0.0980392 0.790539 0.511528
0.0945907 0.788525 0.501045
0.0903487 0.785992 0.487312
