bundles/resolve-cinematic-luts/Phantom Luts/P4k & P6k Phntm Arri LUTs - V6/P4K/Gen 4 Colour/Standard (No WB Offset)/P4k Neutral Gen4-Legacy.cube
TITLE "Generated by Resolve"
LUT_3D_SIZE 5
0.018265 0.0182193 0.0182193
0.186633 0.0336461 0.0404364
0.541909 0.0431678 0.0837873
0.945312 0.0649424 0.16141
0.943999 0.0946365 0.188312
0 0.190433 0.073106
0.136797 0.188846 0.00956741
0.504601 0.173465 0.0595102
0.943603 0.167758 0.101595
0.956664 0.153185 0.101656
0.00163272 0.563607 0.261723
0 0.5823 0.114961
0.475471 0.583871 0.0451972
0.926818 0.575845 0.140337
0.958114 0.583566 0.158129
0.0666056 0.953918 0.54403
0.0484474 0.9626 0.464988
0.137835 0.968414 0.173907
0.856794 0.953658 0.214084
0.953887 0.949111 0.416495
0.087602 0.956466 0.61416
0.0730602 0.959594 0.54818
0.0988937 0.971176 0.331365
0.766812 0.952651 0.307942
0.953552 0.953185 0.491005
0.0553445 0.0195163 0.173541
0.213809 0.0251316 0.17438
0.580468 0.0275578 0.23978
0.939879 0.0464942 0.310307
0.940642 0.0527962 0.332403
0.00894179 0.155016 0.14757
0.149676 0.149676 0.149676
0.562875 0.103838 0.136767
0.946288 0.082826 0.171527
0.944518 0.0972915 0.188724
0.0197757 0.521752 0.343526
0.00166323 0.535775 0.244327
0.459831 0.563195 0.05243
0.938674 0.542824 0.170642
0.958099 0.542123 0.1823
0.0770275 0.937026 0.592676
0.0646067 0.944518 0.531258
0.0716716 0.965148 0.231281
0.844617 0.950515 0.199298
0.954086 0.942901 0.412787
0.0996109 0.954803 0.66482
0.0891585 0.956603 0.612375
0.0763561 0.969299 0.391852
0.719783 0.953216 0.315541
0.953536 0.95317 0.494881
0.159548 0.0133669 0.504601
0.317891 0.0129091 0.489219
0.59263 0.0312657 0.502754
0.942184 0.038529 0.594079
0.942504 0.0391394 0.612528
0.00874342 0.0634775 0.42472
0.172595 0.0131991 0.488899
0.549737 0.0308385 0.466697
0.94136 0.0395972 0.525917
0.941588 0.0405585 0.537209
0.0247044 0.484352 0.466041
0.0256657 0.47483 0.45716
0.476326 0.476326 0.476326
0.953552 0.441901 0.473045
0.959716 0.41149 0.456123
0.0983902 0.894682 0.683803
0.0961166 0.891737 0.659129
0.0788281 0.918608 0.520836
0.819333 0.929503 0.355001
0.954757 0.912276 0.446082
0.123537 0.951293 0.77615
0.120531 0.952041 0.748608
0.0982528 0.956893 0.611521
0.597726 0.957259 0.340841
0.95349 0.953155 0.509911
0.355047 0.0107729 0.882963
0.46688 0.0109407 0.873976
0.693401 0.0221866 0.868849
0.947097 0.0390784 0.922286
0.947417 0.0402686 0.941054
0.120043 0.0125734 0.833402
0.355245 0.0108034 0.866148
0.642054 0.0184787 0.85301
0.946792 0.0390936 0.899641
0.947097 0.0400092 0.917525
0.0210727 0.402472 0.766964
0.0191806 0.372091 0.792966
0.54023 0.297841 0.914519
0.950774 0.244068 0.893111
0.951186 0.207111 0.87422
0.10396 0.848264 0.819074
0.104097 0.841169 0.81178
0.17232 0.835737 0.807324
0.813321 0.813321 0.813321
0.950973 0.799893 0.819226
0.199161 0.953521 0.91014
0.204639 0.953674 0.903136
0.210864 0.953414 0.86894
0.632609 0.955779 0.846677
0.952361 0.952102 0.80293
0.463783 0.010956 0.948943
0.550546 0.0114443 0.949294
0.774044 0.0242466 0.942611
0.947524 0.0406653 0.947524
0.947585 0.0416876 0.947585
0.314519 0.0107881 0.943603
0.465782 0.0109712 0.948959
0.719493 0.018555 0.943236
0.94754 0.0409247 0.94754
0.947601 0.0419013 0.947601
0.13257 0.324926 0.951553
0.131106 0.280385 0.951553
0.585397 0.17261 0.951553
0.951431 0.133379 0.951431
0.950484 0.10045 0.950484
0.182254 0.807111 0.953979
0.180819 0.793881 0.953719
0.32578 0.761074 0.951034
0.865888 0.72546 0.950729
0.950622 0.714244 0.950637
0.278798 0.954589 0.953216
0.289204 0.954803 0.953475
0.324285 0.955139 0.954086
0.694789 0.954253 0.954253
0.951553 0.951553 0.951553
