bundles/resolve-cinematic-luts/Phantom Luts/P4k & P6k Phntm Arri LUTs - V6/P4K/Gen 4 Colour/Standard (No WB Offset)/P4k Tungsten Gen4-Legacy.cube
TITLE "Generated by Resolve"
LUT_3D_SIZE 5
0.0172122 0.0162661 0.0214389
0.158511 0.0327001 0.0496681
0.528542 0.0555581 0.11075
0.783749 0.134096 0.217273
0.803113 0.153231 0.239948
0.010132 0.172992 0.0957961
0.124987 0.176715 0.018555
0.520256 0.177188 0.0831922
0.81799 0.212665 0.188739
0.81503 0.20473 0.188968
0 0.472877 0.222293
0 0.481483 0.0907149
0.469657 0.503731 0
0.910552 0.580468 0.223163
0.923766 0.600397 0.237659
0.094377 0.787503 0.50695
0.0809491 0.780331 0.458579
0.103532 0.759304 0.214527
0.864088 0.83537 0.285679
0.940032 0.860746 0.433112
0.120089 0.80325 0.570214
0.0952468 0.788861 0.500542
0.103792 0.768643 0.267628
0.849805 0.834852 0.300893
0.937667 0.86363 0.461646
0.0281682 0.0267643 0.162203
0.170275 0.0329595 0.156893
0.539452 0.0498054 0.237186
0.788525 0.111406 0.306905
0.796094 0.116793 0.326818
0.0176089 0.151904 0.151675
0.129213 0.151644 0.158007
0.570077 0.115892 0.163561
0.790997 0.142123 0.223011
0.805127 0.156298 0.239857
0 0.460243 0.311299
0 0.458 0.226261
0.455833 0.490135 0.00404364
0.929747 0.560327 0.248569
0.934844 0.573175 0.256916
0.10869 0.793606 0.552483
0.0968795 0.788937 0.512398
0.0780499 0.760357 0.268681
0.856474 0.832776 0.275654
0.940383 0.860456 0.430259
0.141878 0.815564 0.620127
0.118349 0.802075 0.563928
0.0772869 0.768002 0.32604
0.802991 0.825132 0.275151
0.937453 0.864073 0.465202
0.10164 0.0437476 0.484001
0.259739 0.033463 0.474876
0.534874 0.0549477 0.460624
0.783276 0.102525 0.509804
0.783001 0.103777 0.526329
0 0.0952926 0.391775
0.0973831 0.0452125 0.473106
0.500526 0.0529335 0.430716
0.78616 0.102617 0.464836
0.786999 0.10396 0.478508
0.0160372 0.471565 0.451591
0.016907 0.469886 0.450172
0.478782 0.484916 0.47567
0.987747 0.482689 0.514199
0.987549 0.477165 0.516258
0.141665 0.800687 0.645457
0.137713 0.800259 0.633021
0.0889296 0.778714 0.485756
0.823392 0.827543 0.294835
0.94342 0.854719 0.446464
0.201434 0.848051 0.737133
0.187945 0.840589 0.711208
0.117678 0.801038 0.552377
0.595728 0.79205 0.223026
0.937011 0.865888 0.480232
0.262989 0.0820935 0.742992
0.353613 0.0776226 0.756649
0.562921 0.084184 0.751965
0.73463 0.12639 0.747189
0.732647 0.129427 0.757214
0.0708934 0.0780194 0.657679
0.252674 0.0807507 0.73727
0.525887 0.0776684 0.749935
0.737591 0.124285 0.73753
0.734859 0.127886 0.750378
0.0453803 0.459236 0.730632
0.0504616 0.441764 0.745556
0.534951 0.364721 0.978943
0.863828 0.276555 0.854063
0.863905 0.27718 0.854826
0.208286 0.821103 0.793957
0.21239 0.824796 0.798184
0.236683 0.831647 0.801755
0.841856 0.850767 0.840024
0.952102 0.854826 0.858595
0.308431 0.90634 0.880064
0.309728 0.906584 0.877592
0.299809 0.898558 0.850782
0.679347 0.906249 0.844465
0.954299 0.936492 0.840696
0.338369 0.0876173 0.77203
0.406729 0.0858625 0.778988
0.603204 0.0991531 0.772335
0.731868 0.129946 0.759441
0.732464 0.1308 0.760571
0.211307 0.0893111 0.738384
0.332647 0.0880293 0.77142
0.562448 0.092546 0.774823
0.732021 0.129854 0.758938
0.732631 0.130983 0.760739
0.142245 0.409689 0.844526
0.135821 0.382742 0.835279
0.538766 0.257404 0.932815
0.808515 0.215518 0.834607
0.811826 0.220142 0.838987
0.294469 0.854246 0.916091
0.29543 0.855482 0.916838
0.37821 0.868711 0.957137
0.879316 0.795453 0.960006
0.938323 0.78999 0.944228
0.349599 0.925948 0.918242
0.355459 0.928084 0.920989
0.376379 0.933349 0.926421
0.761929 0.948775 0.946746
0.951095 0.950195 0.949554
