bundles/resolve-cinematic-luts/Phantom Luts/P4k & P6k Phntm Arri LUTs - V6/P4K/Gen 4 Colour/Standard (No WB Offset)/P4k IceBlue Gen4.cube
TITLE "Generated by Resolve"
LUT_3D_SIZE 5
0.0243229 0.0364233 0.0327916
0.177646 0.0377661 0.0374609
0.541192 0.061799 0.0808576
0.750515 0.165499 0.19472
0.769528 0.17847 0.236316
0.025742 0.215152 0.108431
0.143633 0.217502 0.0431678
0.564584 0.195651 0.0681773
0.773114 0.25687 0.17232
0.785183 0.262028 0.186679
0.0471046 0.584451 0.338079
0.0539406 0.600519 0.225193
0.529702 0.621576 0.102464
0.883619 0.652888 0.282353
0.911757 0.683726 0.314931
0.253544 0.864713 0.658549
0.240681 0.861997 0.618402
0.260792 0.858015 0.422461
0.889708 0.920089 0.425971
0.970504 0.941665 0.577783
0.270024 0.874723 0.696147
0.251835 0.866148 0.641718
0.321706 0.87599 0.432868
0.914458 0.92665 0.46273
0.969833 0.943664 0.587854
0.0411994 0.0397192 0.198779
0.21004 0.0366674 0.182712
0.570977 0.0471504 0.230457
0.751369 0.120439 0.296818
0.762539 0.126787 0.340017
0.0214694 0.184848 0.181903
0.151919 0.17818 0.190814
0.617578 0.127016 0.163577
0.765759 0.181598 0.219471
0.77435 0.183932 0.243915
0.045594 0.566171 0.40734
0.0451057 0.576822 0.345968
0.50071 0.609842 0.0979477
0.897261 0.633844 0.299702
0.914641 0.657374 0.326497
0.267094 0.865766 0.692836
0.26128 0.867277 0.665217
0.2392 0.856672 0.474403
0.882841 0.918013 0.418479
0.968734 0.939681 0.590967
0.293446 0.881148 0.739788
0.2795 0.87396 0.703883
0.257435 0.863935 0.493324
0.889189 0.923033 0.448539
0.966491 0.942733 0.615106
0.128923 0.048249 0.534035
0.31957 0.04477 0.534371
0.567086 0.0551156 0.492958
0.747463 0.104997 0.513787
0.741253 0.107179 0.551705
0.0100862 0.0789044 0.457465
0.132052 0.0484932 0.538857
0.552468 0.0536202 0.494179
0.752804 0.105898 0.481788
0.748684 0.107424 0.517815
0.0534676 0.55227 0.52401
0.0559091 0.557595 0.531273
0.5178 0.554513 0.562661
0.967803 0.536339 0.558373
0.9635 0.540108 0.5738
0.283864 0.856443 0.753689
0.291463 0.857298 0.748119
0.26215 0.854154 0.675944
0.850752 0.915068 0.478355
0.968826 0.927764 0.630564
0.337957 0.898589 0.823392
0.344427 0.893706 0.812589
0.30721 0.882551 0.737621
0.770245 0.918883 0.519036
0.969604 0.945342 0.647364
0.314931 0.0743114 0.702098
0.399008 0.0773175 0.709667
0.564294 0.0881514 0.699748
0.716838 0.126741 0.705592
0.712413 0.131823 0.72491
0.121874 0.0696269 0.651606
0.31519 0.0751354 0.705104
0.545693 0.087892 0.706172
0.719829 0.126787 0.702419
0.713817 0.131655 0.721965
0.0740978 0.487556 0.704356
0.0746319 0.477394 0.714778
0.563699 0.403189 0.942809
0.887785 0.359686 0.861982
0.886336 0.365209 0.87071
0.300679 0.84773 0.825437
0.311192 0.851209 0.828534
0.342153 0.859525 0.839994
0.847227 0.872862 0.880995
0.957321 0.881971 0.893355
0.43122 0.9364 0.911009
0.453315 0.933745 0.90779
0.469581 0.938125 0.902434
0.829618 0.953841 0.927581
0.977081 0.966033 0.908614
0.386313 0.0819104 0.727291
0.448295 0.085771 0.731487
0.594553 0.0984665 0.722972
0.713512 0.131502 0.723995
0.713497 0.133623 0.727337
0.262318 0.0763714 0.706798
0.382239 0.0819715 0.727901
0.573754 0.0959793 0.724865
0.715908 0.13193 0.722316
0.713878 0.134264 0.728191
0.167193 0.461265 0.812055
0.167041 0.447593 0.811643
0.584665 0.3364 0.916426
0.843137 0.307286 0.846815
0.84976 0.320943 0.858671
0.354131 0.860685 0.891005
0.369802 0.863767 0.894072
0.449912 0.874632 0.926467
0.864576 0.84976 0.949905
0.951034 0.855756 0.944274
0.454932 0.944671 0.929747
0.484947 0.941024 0.927474
0.521935 0.947066 0.935058
0.851057 0.96228 0.963226
0.972274 0.966567 0.968505
