bundles/resolve-cinematic-luts/Phantom Luts/P4k & P6k Phntm Arri LUTs - V6/P4K/Gen 4 Colour/Standard (No WB Offset)/P4k Neutral Gen4.cube
TITLE "Generated by Resolve"
LUT_3D_SIZE 5
0 0 0
0.227756 0.00457771 0.0201419
0.612299 0.0365759 0.0981918
0.968093 0.097322 0.192233
0.968338 0.113649 0.222293
0 0.238422 0.0805219
0.171603 0.238331 0
0.588861 0.20531 0.0483406
0.951095 0.218555 0.105333
0.966873 0.201617 0.105303
0 0.629923 0.318807
0 0.652079 0.133913
0.53959 0.648127 0.0332952
0.927733 0.644495 0.140551
0.961135 0.65214 0.162905
0.0739605 0.951583 0.612879
0.0572213 0.960784 0.537255
0.163073 0.970947 0.208774
0.87834 0.963119 0.260197
0.969879 0.958358 0.489418
0.0962692 0.958175 0.678538
0.084062 0.960037 0.617548
0.118273 0.97348 0.396414
0.822019 0.96289 0.366567
0.97174 0.971038 0.568261
0.0531014 0 0.216846
0.26009 0 0.209384
0.644083 0.00460822 0.292607
0.961151 0.040589 0.379675
0.96318 0.0515297 0.403845
0 0.192264 0.181537
0.188312 0.188312 0.188312
0.658625 0.120027 0.166079
0.969268 0.118715 0.205539
0.968719 0.118654 0.223804
0 0.590478 0.407095
0 0.603464 0.299519
0.52433 0.628489 0.0432288
0.937942 0.614374 0.17908
0.960815 0.613855 0.193637
0.0824445 0.934813 0.658488
0.0720226 0.940932 0.600641
0.0794995 0.965698 0.283009
0.868589 0.957504 0.241337
0.968948 0.949508 0.484718
0.107179 0.957412 0.723934
0.0981918 0.958297 0.676951
0.0928359 0.970092 0.462684
0.785519 0.961975 0.373907
0.971786 0.971084 0.572351
0.191974 0 0.581262
0.383124 0.00154116 0.560845
0.669642 0.00460822 0.581506
0.960967 0.0145571 0.672602
0.961593 0.0159152 0.690242
0 0.0637522 0.504768
0.208865 0 0.565408
0.626932 0.00411994 0.544121
0.960327 0.0174411 0.606439
0.960922 0.0199588 0.617517
0 0.554559 0.535988
0 0.545434 0.527047
0.541833 0.541833 0.541833
0.953323 0.506081 0.537835
0.955261 0.476448 0.521111
0.103243 0.899947 0.740047
0.101472 0.897841 0.718456
0.0914626 0.917708 0.590188
0.849012 0.93344 0.420783
0.966339 0.919615 0.516869
0.1355 0.95433 0.816632
0.13225 0.955093 0.79588
0.10985 0.958556 0.67628
0.672618 0.962753 0.405875
0.971923 0.971283 0.587594
0.426947 0 0.902815
0.544549 3.0518e-05 0.897215
0.761959 0 0.891173
0.966781 0.0173495 0.935393
0.967422 0.0197452 0.953933
0.136797 0 0.867414
0.427176 0 0.890517
0.713497 0 0.877607
0.966323 0.0170748 0.916716
0.96701 0.0194553 0.931472
0 0.471138 0.81619
0 0.440284 0.83563
0.608911 0.356237 0.920333
0.964599 0.291279 0.902083
0.967361 0.246967 0.889708
0.10869 0.865843 0.84596
0.109148 0.861128 0.841016
0.197604 0.857435 0.838117
0.843427 0.843427 0.843427
0.958251 0.835706 0.848829
0.231952 0.958465 0.913985
0.238224 0.958633 0.908248
0.245808 0.957855 0.881865
0.700496 0.967727 0.870497
0.974029 0.973953 0.850126
0.541726 0 0.962219
0.628153 0.000518807 0.961501
0.827497 0 0.957595
0.967849 0.0204929 0.967849
0.96817 0.0230106 0.96817
0.383352 0 0.953826
0.543618 0 0.96228
0.784558 0 0.956191
0.967926 0.021088 0.967926
0.968246 0.0235752 0.968246
0.152117 0.38996 0.963119
0.152255 0.342336 0.963684
0.659983 0.207736 0.970443
0.972457 0.154788 0.972457
0.973587 0.11133 0.973587
0.206668 0.837674 0.957671
0.203983 0.828794 0.957702
0.377188 0.803677 0.955245
0.878767 0.77641 0.954955
0.955474 0.767178 0.955474
0.330694 0.960082 0.958068
0.343313 0.960357 0.958419
0.381704 0.961044 0.959335
0.759594 0.96936 0.96907
0.97554 0.97554 0.97554
