bundles/resolve-cinematic-luts/Phantom Luts/P4k & P6k Phntm Arri LUTs - V6/P4K/Gen 4 Colour/Standard (No WB Offset)/P4k IceBlue Gen4-Legacy.cube
TITLE "Generated by Resolve"
LUT_3D_SIZE 5
0.033402 0.0457465 0.0450599
0.145907 0.0532082 0.0556039
0.492164 0.0644999 0.0728313
0.721477 0.134493 0.166155
0.744167 0.154696 0.208072
0.0267185 0.173251 0.101793
0.115969 0.172808 0.0504616
0.491402 0.162615 0.070222
0.74992 0.21384 0.157687
0.760952 0.217868 0.171801
0.0338445 0.527245 0.279728
0.0380102 0.545708 0.184695
0.45684 0.564446 0.0781262
0.874388 0.593713 0.265492
0.900252 0.627329 0.292317
0.238132 0.857038 0.604807
0.228717 0.854856 0.563897
0.252293 0.849195 0.390448
0.869001 0.904768 0.394247
0.954787 0.92163 0.508812
0.252491 0.865568 0.645441
0.236027 0.858137 0.58677
0.300175 0.864363 0.401724
0.900816 0.910796 0.427741
0.952865 0.923308 0.521126
0.046952 0.0494087 0.167712
0.172076 0.0500649 0.158312
0.532509 0.0558938 0.197192
0.73698 0.120394 0.254414
0.746639 0.123033 0.291508
0.0277867 0.149538 0.152895
0.120668 0.142962 0.157443
0.545205 0.106355 0.134066
0.735637 0.149569 0.188144
0.748974 0.161364 0.21416
0.0387274 0.505913 0.344152
0.0338293 0.518807 0.284886
0.427604 0.55198 0.0779736
0.885206 0.572534 0.280308
0.901518 0.59765 0.30074
0.248707 0.858167 0.642634
0.243412 0.859678 0.611902
0.232898 0.848905 0.433646
0.859907 0.903014 0.387091
0.954498 0.920623 0.516243
0.273991 0.871809 0.694865
0.25713 0.865644 0.653208
0.246159 0.854582 0.450721
0.867308 0.907317 0.410819
0.950332 0.922683 0.540749
0.108751 0.0525216 0.487251
0.267063 0.0483558 0.477943
0.535729 0.061387 0.447074
0.757137 0.116579 0.46363
0.752499 0.117189 0.507958
0.0132296 0.0831311 0.415229
0.111833 0.0527199 0.494301
0.518624 0.0604257 0.4477
0.758831 0.117144 0.424979
0.756771 0.11693 0.467063
0.0433204 0.492058 0.461158
0.0446174 0.497734 0.469413
0.452781 0.489525 0.494865
0.948074 0.477562 0.492302
0.947967 0.480537 0.50724
0.266316 0.847395 0.712337
0.273167 0.84918 0.706477
0.243519 0.847196 0.62359
0.812192 0.902296 0.425284
0.953826 0.914534 0.561288
0.322988 0.890547 0.801572
0.327276 0.885359 0.786816
0.283345 0.872389 0.691096
0.703853 0.901473 0.447761
0.952529 0.923903 0.572396
0.25774 0.078172 0.69369
0.340764 0.0798505 0.705074
0.527413 0.0939956 0.708675
0.719158 0.139666 0.711635
0.714427 0.143267 0.726833
0.097734 0.0756542 0.641703
0.257969 0.0791638 0.697093
0.502831 0.0914168 0.712993
0.721965 0.139635 0.709026
0.715297 0.143099 0.725429
0.066392 0.425971 0.684749
0.0709697 0.415991 0.702388
0.483635 0.349859 0.9066
0.852781 0.318547 0.838041
0.850523 0.322011 0.845838
0.288808 0.837171 0.812467
0.299016 0.841367 0.816434
0.320714 0.845747 0.824445
0.814618 0.856168 0.867063
0.947066 0.863157 0.880339
0.406653 0.925689 0.902449
0.425254 0.924041 0.899336
0.435828 0.92813 0.893248
0.778347 0.939574 0.916014
0.955047 0.944289 0.882719
0.327993 0.0852979 0.723262
0.391867 0.0882277 0.73077
0.566751 0.106859 0.733089
0.715938 0.142962 0.725261
0.715434 0.143938 0.727184
0.208499 0.081239 0.697734
0.323919 0.0853742 0.723537
0.537667 0.101518 0.733074
0.718059 0.142977 0.723278
0.715267 0.144198 0.727932
0.137819 0.395895 0.784527
0.135851 0.382193 0.782162
0.505714 0.29044 0.879164
0.815061 0.273487 0.817578
0.820279 0.284947 0.829023
0.335073 0.845258 0.881605
0.348318 0.848417 0.884031
0.405447 0.851316 0.911788
0.844892 0.820447 0.944823
0.94255 0.826795 0.935882
0.424842 0.932662 0.917433
0.449912 0.929931 0.915602
0.478904 0.936156 0.923217
0.802655 0.946151 0.945785
0.957107 0.9458 0.944533
