bundles/resolve-cinematic-luts/Phantom Luts/P4k & P6k Phntm Arri LUTs - V6/P4K/Gen 4 Colour/Standard (No WB Offset)/P4k Utopia Gen4.cube
TITLE "Generated by Resolve"
LUT_3D_SIZE 9
0 0.0227512 0.0306706
0.0555428 0.0184024 0.0295567
0.185718 0.0131075 0.0231174
0.374334 0.0125887 0.0286717
0.56022 0.0347601 0.0652781
0.734066 0.0725109 0.11667
0.843885 0.123262 0.170642
0.854307 0.138277 0.190417
0.868925 0.137606 0.197864
0 0.0821698 0.0419776
0.0328527 0.0758831 0.0185855
0.162112 0.0716106 0.0350805
0.343816 0.0542916 0.0286412
0.528374 0.0513466 0.0323186
0.705242 0.0801251 0.0650187
0.837858 0.126177 0.123354
0.85069 0.138109 0.139773
0.869627 0.140887 0.144747
0 0.23859 0.0605631
0 0.240513 0
0.155764 0.231327 0.012192
0.376013 0.217655 0.0298161
0.575219 0.194598 0.0666056
0.74078 0.206897 0.103563
0.865202 0.232471 0.141039
0.879499 0.230793 0.145235
0.883101 0.221668 0.139101
0 0.455726 0.119997
0 0.472633 0.0224155
0 0.4654 0
0.361837 0.440589 0.0254368
0.586786 0.439368 0.0463264
0.762173 0.437873 0.11342
0.898848 0.440513 0.180163
0.929427 0.440711 0.195819
0.92961 0.436377 0.194308
0 0.657954 0.300877
0 0.676204 0.22002
0 0.689281 0.0810559
0.162554 0.684977 0
0.591211 0.636057 0.0821088
0.776989 0.635859 0.129778
0.907027 0.639963 0.192279
0.940459 0.651698 0.21828
0.940246 0.650095 0.217273
0 0.841199 0.4822
0 0.851453 0.440299
0 0.872801 0.346456
0.0349889 0.882033 0.138354
0.453864 0.858747 0.0779431
0.781582 0.814939 0.178744
0.928481 0.812253 0.273091
0.974548 0.819181 0.360754
0.975387 0.819364 0.355108
0.0381628 0.966705 0.617472
0.0352026 0.971435 0.591546
0.0308843 0.981109 0.537362
0.0455329 0.995315 0.423041
0.210407 0.999969 0.175204
0.69691 0.960174 0.233646
0.934417 0.9355 0.325734
0.997726 0.935683 0.51313
0.997665 0.936217 0.519799
0.052079 0.974655 0.669032
0.049546 0.975937 0.646357
0.045304 0.979278 0.601648
0.0541848 0.990753 0.519707
0.145388 0.999969 0.36437
0.612146 0.995026 0.338949
0.896544 0.94696 0.407324
0.998276 0.949691 0.547478
0.996979 0.951995 0.589837
0.0527047 0.975204 0.686961
0.05037 0.97641 0.665476
0.0487984 0.978439 0.623346
0.0500343 0.988663 0.535119
0.128557 0.999969 0.383597
0.581033 0.99765 0.335988
0.881971 0.948272 0.405005
0.995911 0.949065 0.534081
0.996704 0.952102 0.590433
0 0.0247196 0.0828565
0.0546883 0.0186618 0.0834974
0.197559 0.0109407 0.0966659
0.38529 0.00427253 0.104662
0.55903 0.0125124 0.127321
0.735454 0.0501717 0.178149
0.847059 0.0962234 0.228275
0.85359 0.104479 0.247623
0.865064 0.106859 0.259785
0 0.0598764 0.069398
0.0235142 0.0529183 0.061738
0.187961 0.0338598 0.0454566
0.363134 0.0169833 0.0324407
0.55111 0.0348211 0.0635538
0.731167 0.0702831 0.113344
0.853422 0.119768 0.166735
0.863539 0.136187 0.187747
0.873549 0.137163 0.196323
0 0.206317 0.128054
0 0.215763 0.0576181
0.148043 0.215488 0.0138399
0.395087 0.179751 0.0486458
0.579797 0.16289 0.0720226
0.741802 0.173175 0.101076
0.861784 0.195209 0.132891
0.869215 0.188449 0.133852
0.874922 0.179202 0.128908
0 0.422843 0.195911
0 0.440269 0.114061
0 0.455344 0
0.352743 0.430091 0.0248569
0.594354 0.420325 0.0512093
0.769085 0.416007 0.123751
0.90367 0.417014 0.187198
0.928161 0.415869 0.198398
0.927886 0.410788 0.196063
0 0.635813 0.353994
0 0.649577 0.293019
0 0.679683 0.138842
0.115984 0.68098 0
0.585245 0.62977 0.0820478
0.779385 0.626276 0.131334
0.909285 0.63093 0.19881
0.939483 0.640497 0.221241
0.939162 0.638605 0.218524
0 0.827192 0.5122
0 0.835447 0.476524
0 0.854185 0.39678
0.0191501 0.876295 0.189075
0.429557 0.858091 0.075761
0.776425 0.8103 0.177829
0.928161 0.807019 0.27863
0.972274 0.813169 0.36466
0.972671 0.812894 0.360052
0.0394141 0.959625 0.63682
0.036286 0.963806 0.613275
0.0319219 0.972381 0.565042
0.0368353 0.990387 0.448722
0.15993 0.999939 0.193423
0.684153 0.96051 0.227451
0.931746 0.933562 0.318853
0.99736 0.932891 0.510216
0.997238 0.933028 0.517586
0.0529793 0.974304 0.688899
0.0539101 0.974517 0.668315
0.0495155 0.97705 0.627726
0.0488746 0.986954 0.540719
0.11873 0.999969 0.389532
0.581201 0.997803 0.338201
0.886198 0.94786 0.406607
0.997528 0.949493 0.543145
0.996887 0.952087 0.591104
0.0562295 0.974166 0.705989
0.0564584 0.974502 0.686351
0.0528115 0.976638 0.647837
0.0470893 0.984833 0.558312
0.104829 0.999969 0.409674
0.550912 0.99939 0.336446
0.870359 0.949432 0.404578
0.993957 0.948684 0.527092
0.996643 0.952193 0.591928
0 0.0293736 0.213169
0.0703593 0.0204013 0.195941
0.200015 0.0122835 0.188418
0.382986 0.00883497 0.216281
0.563882 0.0153048 0.237079
0.726757 0.0353246 0.276967
0.831113 0.0742199 0.319448
0.836118 0.0819562 0.336492
0.845914 0.0836652 0.347692
0 0.0506142 0.155825
0 0.0286259 0.199084
0.169039 0.0134737 0.164767
0.371618 0.00665293 0.161013
0.555917 0.0117342 0.183261
0.731106 0.0432288 0.223484
0.845685 0.0899214 0.272526
0.851057 0.0983597 0.290517
0.860822 0.100282 0.302144
0 0.188922 0.187411
0 0.182818 0.181109
0.152773 0.187274 0.19379
0.414435 0.15787 0.167254
0.622965 0.121599 0.143206
0.769604 0.121675 0.155352
0.86128 0.145495 0.185122
0.861784 0.143587 0.190646
0.870787 0.143282 0.197742
0 0.396384 0.270008
0 0.395697 0.237522
0 0.423102 0.112886
0.35079 0.418051 0.078645
0.611872 0.385565 0.1252
0.796002 0.363455 0.171206
0.919448 0.373449 0.215702
0.925017 0.370748 0.217655
0.924956 0.365133 0.215244
0 0.611017 0.408423
0 0.614984 0.37763
0 0.635569 0.276921
0.0191348 0.672923 0.00415045
0.574639 0.619486 0.0856641
0.783749 0.608454 0.150027
0.914595 0.613138 0.223545
0.939284 0.617823 0.242298
0.938918 0.615 0.240894
0 0.807843 0.549355
0 0.812451 0.525841
0 0.824659 0.466819
0 0.86157 0.278798
0.376425 0.859434 0.074342
0.768399 0.802777 0.178515
0.927642 0.797284 0.290242
0.968292 0.802274 0.372641
0.968124 0.80119 0.369375
0.0411994 0.948486 0.66479
0.0375525 0.951858 0.64506
0.0339361 0.958556 0.605081
0.0280919 0.977905 0.497124
0.108263 0.999405 0.253605
0.659327 0.961456 0.216815
0.926665 0.9299 0.311162
0.996857 0.927977 0.506554
0.996582 0.927733 0.515526
0.058793 0.972732 0.718288
0.0562905 0.973556 0.700908
0.0558938 0.974563 0.666758
0.0453498 0.981308 0.581979
0.0886702 0.999603 0.435248
0.53254 0.999863 0.339467
0.869947 0.94963 0.406485
0.995819 0.949111 0.535271
0.996902 0.952148 0.592752
0.0623026 0.973114 0.733394
0.0596933 0.973632 0.717464
0.0594949 0.974212 0.684611
0.0507362 0.979614 0.605371
0.0802625 0.998642 0.456489
0.499535 0.999969 0.339406
0.849409 0.953292 0.404822
0.989227 0.94844 0.515038
0.99646 0.952377 0.594446
0 0.036286 0.389593
0.0913252 0.0266728 0.373938
0.214572 0.0173495 0.350637
0.384985 0.0122835 0.345663
0.554192 0.0233921 0.384665
0.727901 0.0446021 0.400748
0.80264 0.0631266 0.433829
0.803143 0.0645304 0.444465
0.811521 0.0628977 0.45359
0 0.0433051 0.337026
0 0.0352483 0.378515
0.171298 0.0200656 0.352544
0.366552 0.011841 0.328237
0.546777 0.0215 0.356405
0.723842 0.0425574 0.370459
0.807736 0.0622721 0.402197
0.809491 0.0653239 0.41326
0.818357 0.0645914 0.423041
0 0.169909 0.306004
0 0.152285 0.323095
0.106416 0.116594 0.417853
0.392294 0.0863355 0.362463
0.573388 0.0569924 0.33254
0.722286 0.0450141 0.322454
0.828595 0.0806439 0.349676
0.834455 0.0900893 0.364385
0.842725 0.0927291 0.374548
0 0.375814 0.358679
0 0.371008 0.353613
0 0.370901 0.352392
0.348623 0.377874 0.37612
0.615244 0.347997 0.352468
0.831739 0.315694 0.331975
0.913008 0.296757 0.32076
0.911437 0.286275 0.319585
0.911299 0.277882 0.318013
0 0.590585 0.475181
0 0.588922 0.461891
0 0.587366 0.427802
0.00556954 0.630488 0.326619
0.55021 0.602274 0.26276
0.789258 0.576593 0.29276
0.937377 0.575113 0.311406
0.942809 0.573877 0.322637
0.942535 0.56965 0.323445
0 0.784741 0.597635
0 0.785367 0.584909
0 0.7879 0.555856
0 0.807523 0.451804
0.188891 0.875639 0.154284
0.754986 0.792081 0.204532
0.928359 0.777707 0.324819
0.961349 0.781888 0.392279
0.960449 0.778927 0.392081
0.0476844 0.931258 0.70219
0.0413672 0.933562 0.689464
0.0388952 0.936736 0.663783
0.0317845 0.948226 0.590753
0.0583963 0.989029 0.386664
0.608286 0.96849 0.237583
0.91664 0.923201 0.299214
0.995468 0.918334 0.504051
0.994736 0.916762 0.514305
0.0688334 0.971496 0.760052
0.0648203 0.972351 0.748226
0.0646067 0.972168 0.724453
0.0576028 0.975143 0.662959
0.0597696 0.99237 0.514992
0.437278 0.999969 0.351446
0.837247 0.95584 0.407736
0.991043 0.948486 0.520607
0.996902 0.952331 0.596109
0.0723735 0.971496 0.773312
0.0698405 0.97232 0.761379
0.0677806 0.972732 0.738659
0.0629129 0.974289 0.681102
0.0552529 0.989319 0.533501
0.392554 0.999969 0.359045
0.811978 0.961196 0.405158
0.978317 0.94757 0.492775
0.996414 0.952605 0.598672
0.0319371 0.0421149 0.547021
0.135256 0.0339818 0.537957
0.268101 0.0269169 0.521462
0.392813 0.0218967 0.498665
0.555474 0.0310216 0.498695
0.719371 0.0530404 0.533959
0.789792 0.06981 0.548287
0.790204 0.0709239 0.558373
0.799146 0.0687266 0.56936
0 0.050248 0.514214
0.0304265 0.0417334 0.541039
0.21735 0.0285801 0.527794
0.373159 0.0256199 0.498878
0.545754 0.0297551 0.489937
0.713222 0.0511635 0.520958
0.791943 0.0690776 0.531014
0.792996 0.0706035 0.539956
0.801785 0.0683604 0.549905
0 0.10753 0.472938
0 0.0749218 0.488182
0.0620737 0.0397192 0.542397
0.326894 0.0248722 0.499336
0.527687 0.0272679 0.47274
0.7019 0.0490425 0.491402
0.791745 0.069398 0.496162
0.793194 0.071809 0.505669
0.801678 0.0698863 0.513451
0 0.35024 0.483528
0 0.339223 0.485176
0 0.317006 0.500084
0.321584 0.287205 0.601251
0.603525 0.25626 0.560327
0.802411 0.211658 0.533547
0.864637 0.179568 0.521965
0.860853 0.171389 0.516197
0.861784 0.163928 0.515038
0 0.573022 0.548165
0 0.570565 0.545998
0 0.565393 0.540139
0.0662242 0.581399 0.558679
0.532952 0.55462 0.546853
0.778897 0.535775 0.533196
0.938933 0.518273 0.520272
0.939864 0.502602 0.509331
0.938933 0.492638 0.503212
0.0012665 0.764111 0.653452
0 0.762722 0.647639
0 0.760311 0.63476
0 0.757809 0.599054
0.270604 0.798581 0.534554
0.710582 0.762676 0.483055
0.908537 0.743526 0.513512
0.953841 0.74374 0.495033
0.952941 0.73756 0.488045
0.0575418 0.913619 0.747448
0.0519417 0.914214 0.740627
0.0503548 0.914199 0.727062
0.0472114 0.915022 0.69218
0.047776 0.941649 0.589639
0.490791 0.989609 0.418982
0.894759 0.918029 0.447181
0.99025 0.905074 0.542504
0.988739 0.901366 0.540307
0.0867018 0.968307 0.814771
0.0830091 0.969253 0.807691
0.0800946 0.970397 0.793103
0.0787671 0.971801 0.75848
0.0660258 0.976455 0.661494
0.265171 0.999969 0.44686
0.787045 0.968917 0.418509
0.984054 0.948379 0.510201
0.996521 0.953048 0.607477
0.0910048 0.968292 0.824491
0.0880598 0.969116 0.817655
0.0846876 0.970123 0.803586
0.0831617 0.971771 0.769482
0.0698711 0.975525 0.678233
0.170672 0.999969 0.457069
0.739406 0.97937 0.406943
0.962493 0.947082 0.470405
0.996338 0.953155 0.608713
0.125216 0.0478828 0.677867
0.209064 0.0427405 0.670375
0.318273 0.038468 0.661952
0.433127 0.0392615 0.643565
0.556481 0.0412451 0.633402
0.717418 0.0639658 0.639368
0.775082 0.0795453 0.665751
0.77322 0.0821851 0.673838
0.783368 0.0793927 0.686976
0 0.0551919 0.665736
0.12253 0.0475929 0.674128
0.271504 0.0398718 0.665034
0.411933 0.0382696 0.644297
0.543999 0.0399023 0.630671
0.711833 0.0625315 0.633234
0.775555 0.079057 0.661952
0.776745 0.0805371 0.669795
0.78735 0.0775616 0.681819
0 0.0611124 0.605814
0 0.0605478 0.632624
0.148119 0.0458381 0.67039
0.364981 0.0375067 0.648768
0.518929 0.0373846 0.625238
0.697658 0.0605325 0.617853
0.771023 0.0801709 0.64358
0.772198 0.0817578 0.652476
0.783123 0.0785382 0.665232
0 0.292805 0.591699
0 0.272053 0.600198
0 0.22414 0.628
0.288685 0.141649 0.738506
0.541924 0.124056 0.696605
0.718349 0.0968185 0.637125
0.781933 0.0844739 0.617868
0.782025 0.0835584 0.614099
0.789487 0.0796521 0.618814
0 0.551461 0.660227
0 0.546044 0.663081
0 0.534813 0.666178
0.0461891 0.544808 0.706355
0.520928 0.498726 0.756634
0.77171 0.472862 0.712947
0.920012 0.442344 0.700114
0.918013 0.420569 0.695918
0.914488 0.407385 0.692226
0.00257877 0.746105 0.715053
0 0.744671 0.714153
0 0.74168 0.710567
0.00149538 0.735317 0.703227
0.344854 0.738705 0.71516
0.695521 0.710185 0.697169
0.899138 0.698177 0.691875
0.94638 0.690837 0.690044
0.945357 0.684291 0.685527
0.0660258 0.895735 0.797543
0.0599985 0.895659 0.794888
0.0593423 0.893736 0.787259
0.0626535 0.89041 0.769924
0.133501 0.899306 0.743023
0.528222 0.91632 0.697719
0.858961 0.888823 0.667796
0.96788 0.881315 0.694804
0.967117 0.877546 0.690547
0.114305 0.967163 0.864088
0.106981 0.968582 0.861295
0.105043 0.968734 0.854292
0.103822 0.968658 0.838544
0.102007 0.970077 0.799084
0.362722 0.990936 0.732021
0.704265 0.99884 0.650492
0.968856 0.957153 0.658778
0.993652 0.958541 0.701366
0.114626 0.968597 0.873259
0.112444 0.96907 0.869444
0.110277 0.969284 0.861952
0.108156 0.969268 0.845396
0.104982 0.970184 0.805005
0.277577 0.986725 0.724666
0.647318 0.999969 0.637446
0.936156 0.958816 0.632364
0.993225 0.957458 0.680293
0.233585 0.0547646 0.788006
0.28658 0.0525216 0.784527
0.371145 0.0507668 0.780957
0.476188 0.0518196 0.770199
0.58703 0.0536355 0.753246
0.711513 0.0772106 0.747646
0.762966 0.0923781 0.753338
0.760113 0.0959182 0.762219
0.769009 0.0932174 0.778332
0.148791 0.0579995 0.783429
0.230503 0.0545663 0.786923
0.332937 0.0513161 0.781918
0.453864 0.0509804 0.771298
0.57438 0.0522011 0.753307
0.704967 0.0754711 0.745617
0.763546 0.0918898 0.748455
0.764157 0.0939956 0.760037
0.771786 0.0918593 0.774212
0 0.0696727 0.74078
0.0518349 0.061799 0.772107
0.242191 0.0535897 0.783108
0.408453 0.0500954 0.77377
0.549981 0.0507362 0.753063
0.690013 0.0727245 0.739757
0.758602 0.09337 0.733166
0.759426 0.0954147 0.742641
0.771145 0.0919509 0.759609
0 0.189334 0.704982
0 0.161334 0.718303
0 0.100481 0.735225
0.274037 0.0538033 0.786236
0.49395 0.049134 0.756954
0.66128 0.0665446 0.735378
0.75874 0.0916762 0.713344
0.760967 0.0937667 0.715908
0.773968 0.0898756 0.730266
0 0.527062 0.737697
0 0.520378 0.74165
0 0.505165 0.744717
0.0352178 0.496727 0.81619
0.530312 0.417655 0.911269
0.763333 0.392294 0.87454
0.888273 0.353796 0.832776
0.881773 0.320974 0.820325
0.880598 0.311482 0.816938
0 0.726024 0.805081
0 0.7234 0.808865
0 0.717098 0.811643
0.00469978 0.707454 0.825711
0.340841 0.72462 0.857069
0.690593 0.672053 0.874159
0.887892 0.653834 0.839719
0.93193 0.641398 0.835782
0.929717 0.633967 0.832914
0.0687572 0.880919 0.848219
0.0615091 0.881056 0.84892
0.0610056 0.878767 0.846052
0.0660258 0.875044 0.841474
0.157809 0.87924 0.845136
0.576883 0.865507 0.845258
0.841474 0.847593 0.834257
0.959457 0.844114 0.837201
0.959472 0.839521 0.836316
0.147143 0.966995 0.90544
0.143267 0.967712 0.905013
0.1467 0.966674 0.901015
0.155566 0.964126 0.891951
0.181918 0.960479 0.873884
0.479286 0.967849 0.872953
0.730037 0.969604 0.850584
0.949844 0.955795 0.827039
0.979156 0.950927 0.851499
0.178271 0.972824 0.918288
0.175021 0.974044 0.917876
0.178012 0.974212 0.914473
0.181903 0.974014 0.905913
0.185473 0.97348 0.88603
0.402457 0.979385 0.873884
0.669245 0.981537 0.858289
0.89163 0.975616 0.813169
0.984115 0.967041 0.847532
0.337377 0.0599527 0.841108
0.371908 0.0591287 0.842603
0.434653 0.0590524 0.839796
0.524163 0.0611582 0.831098
0.629252 0.0650492 0.810864
0.724041 0.0854963 0.794232
0.760769 0.100542 0.793011
0.760235 0.101823 0.792264
0.764721 0.100435 0.797375
0.284352 0.0608682 0.840192
0.332616 0.0594949 0.843702
0.403937 0.058732 0.840726
0.50341 0.0604257 0.8327
0.617151 0.0636912 0.813138
0.7178 0.0839551 0.79588
0.760876 0.100649 0.793133
0.76231 0.101213 0.794629
0.767559 0.0995346 0.80061
0.117968 0.0655528 0.825254
0.222858 0.0614633 0.84007
0.336355 0.0591592 0.841718
0.462699 0.0592203 0.835447
0.59234 0.0613718 0.816495
0.70547 0.0819257 0.796094
0.755505 0.102708 0.78703
0.757305 0.103822 0.788846
0.766339 0.100587 0.79913
0 0.093431 0.781323
0 0.0750896 0.78764
0 0.0703288 0.813703
0.351522 0.0588388 0.83978
0.531884 0.0589456 0.823636
0.679713 0.0759747 0.801221
0.753399 0.102205 0.781994
0.754635 0.104829 0.784024
0.764538 0.101656 0.796246
0 0.501793 0.80528
0 0.492348 0.814801
0 0.470603 0.825681
0.16199 0.415244 0.920195
0.569406 0.330861 0.939696
0.770672 0.30161 0.912642
0.856458 0.2766 0.882536
0.847089 0.252262 0.871916
0.848508 0.243992 0.874357
0 0.712947 0.87274
0 0.710369 0.876585
0 0.704692 0.878996
0.0501564 0.700313 0.890532
0.372213 0.702144 0.937835
0.729793 0.634073 0.960983
0.891691 0.616419 0.936248
0.924529 0.604044 0.927764
0.92221 0.596719 0.927886
0.0632029 0.868269 0.906905
0.0564736 0.867552 0.909941
0.0592966 0.863828 0.911849
0.0839399 0.858274 0.918456
0.255512 0.856748 0.940246
0.591165 0.85388 0.935088
0.842588 0.817853 0.940444
0.948516 0.8103 0.923827
0.948135 0.804715 0.921752
0.178561 0.960204 0.933776
0.173281 0.960876 0.935378
0.177661 0.959472 0.933715
0.188846 0.956588 0.930144
0.219287 0.952117 0.9243
0.508965 0.955413 0.933303
0.771725 0.943862 0.93164
0.935012 0.934127 0.926024
0.97229 0.93283 0.92694
0.251392 0.975814 0.951446
0.250889 0.976333 0.951186
0.256245 0.97641 0.948699
0.267323 0.976577 0.943954
0.287617 0.976776 0.935592
0.472679 0.97911 0.938277
0.727657 0.976623 0.940444
0.884047 0.975479 0.933288
0.979507 0.971511 0.932036
0.361929 0.0595254 0.840742
0.395987 0.0589609 0.842084
0.453056 0.0594492 0.839231
0.536568 0.0601511 0.828763
0.638575 0.0659648 0.808865
0.729168 0.0865187 0.792874
0.760052 0.099733 0.79234
0.761471 0.101747 0.793652
0.766049 0.100252 0.79884
0.318715 0.0602579 0.840024
0.361074 0.0591745 0.843595
0.424643 0.0592203 0.841337
0.518181 0.0610056 0.832685
0.627405 0.0645609 0.812207
0.722515 0.0851911 0.793088
0.76022 0.0999161 0.792508
0.762722 0.101442 0.795056
0.768383 0.0995193 0.801541
0.185931 0.0635538 0.832776
0.272633 0.0606851 0.845151
0.365301 0.0591897 0.84361
0.480064 0.0599527 0.836789
0.604364 0.0626993 0.817868
0.711543 0.0831922 0.795727
0.755444 0.102373 0.787015
0.757839 0.103914 0.789395
0.766384 0.100847 0.79913
0 0.0744335 0.804562
0 0.0731365 0.815213
0.101839 0.0662089 0.833692
0.383627 0.0591592 0.843076
0.547951 0.0601663 0.826917
0.687495 0.0780194 0.804013
0.753597 0.103182 0.785321
0.755413 0.105638 0.786572
0.764904 0.102342 0.797253
0 0.475776 0.865614
0 0.460624 0.870787
0 0.429465 0.871504
0.185153 0.349844 0.923888
0.557351 0.270985 0.925826
0.753536 0.248631 0.900282
0.839597 0.232349 0.867536
0.824735 0.20206 0.851957
0.827512 0.195331 0.857145
0.0659495 0.716823 0.909865
0.0659342 0.714031 0.912184
0.0721141 0.706737 0.910857
0.10425 0.692424 0.907134
0.378347 0.676432 0.944289
0.736736 0.607675 0.961639
0.893294 0.589303 0.939162
0.921218 0.578225 0.933227
0.91902 0.570108 0.933577
0.137606 0.863416 0.95198
0.135088 0.862135 0.95436
0.137697 0.858015 0.955123
0.188357 0.850309 0.956756
0.322393 0.844648 0.95877
0.595529 0.84213 0.94818
0.857633 0.794156 0.959136
0.944289 0.788083 0.947921
0.943252 0.782742 0.948119
0.208606 0.955489 0.961425
0.212406 0.955505 0.96408
0.229633 0.95375 0.96524
0.262287 0.949599 0.966873
0.315053 0.942382 0.968994
0.5411 0.944213 0.973724
0.78085 0.933745 0.96701
0.936019 0.918196 0.964446
0.965423 0.916472 0.961578
0.280781 0.976608 0.964599
0.280934 0.977157 0.966445
0.289036 0.977356 0.966888
0.303838 0.977584 0.967376
0.325765 0.977951 0.967071
0.484672 0.980316 0.973068
0.734264 0.97734 0.972778
0.900435 0.974273 0.972122
0.976059 0.973327 0.970382
