bundles/resolve-cinematic-luts/Phantom Luts/P4k & P6k Phntm Arri LUTs - V6/P4K/Gen 4 Colour/Standard (No WB Offset)/P4k Tungsten Gen4.cube
TITLE "Generated by Resolve"
LUT_3D_SIZE 33
0 0 0.0062562
0 0 0.00607309
0 0 0.00567636
0.0124208 0 0.00706493
0.0457313 0.000976577 0.0127871
0.0778363 0.00215152 0.017792
0.110643 0.00350958 0.0224155
0.147967 0.00488289 0.0273747
0.1906 0.00665293 0.0332341
0.237217 0.00915541 0.0406043
0.287007 0.0121462 0.0493629
0.338582 0.0155337 0.0596323
0.391287 0.019791 0.0704662
0.443 0.0242924 0.0821546
0.495415 0.0304265 0.0948196
0.547326 0.038407 0.109636
0.58584 0.0513313 0.126177
0.633982 0.0624704 0.142107
0.67747 0.0748608 0.159304
0.71426 0.0899825 0.177188
0.744701 0.107576 0.195315
0.770993 0.125078 0.213367
0.794369 0.142657 0.230228
0.808789 0.155383 0.241672
0.814542 0.161486 0.247852
0.818509 0.165331 0.252872
0.820645 0.167117 0.256245
0.822202 0.168154 0.259083
0.823575 0.169085 0.261646
0.824872 0.169894 0.264149
0.826078 0.170657 0.266392
0.827237 0.171374 0.268574
0.828504 0.17232 0.270619
0 0 0.00582895
0 0 0.00593576
0 0 0.00567636
0.00311284 0 0.00527962
0.0312963 0.00238041 0.00839246
0.0644846 0.00492866 0.0125887
0.0979324 0.00706493 0.0166018
0.135012 0.00921645 0.0209354
0.177127 0.0115358 0.0253758
0.22356 0.0142214 0.0308843
0.273823 0.0173342 0.0374456
0.326879 0.0212558 0.0448768
0.381323 0.0254673 0.0544594
0.434424 0.029572 0.0652781
0.487114 0.0341955 0.0768292
0.539651 0.0400702 0.0901808
0.579965 0.0508736 0.107057
0.62771 0.0609598 0.124117
0.670893 0.0729381 0.14229
0.707225 0.0875105 0.16144
0.736477 0.103059 0.180346
0.76199 0.11928 0.19826
0.785199 0.136019 0.21503
0.800549 0.149294 0.227161
0.80795 0.15697 0.234455
0.812146 0.16141 0.239216
0.815671 0.164874 0.243503
0.818448 0.16762 0.247166
0.821042 0.170214 0.25034
0.823499 0.172442 0.253712
0.825605 0.174441 0.256519
0.827405 0.176165 0.25893
0.829099 0.177615 0.261448
0.00201419 0.0131685 0.0142672
0.00201419 0.0134432 0.0144198
0.00172427 0.012192 0.0106508
0.00521859 0.0106966 0.00810254
0.0240482 0.0134279 0.00962844
0.0539101 0.0164034 0.0128481
0.087953 0.0187076 0.0161288
0.123964 0.0202945 0.0200656
0.164828 0.0217594 0.0234684
0.210742 0.0235599 0.0277104
0.261021 0.0254215 0.0323186
0.314534 0.0287633 0.0373846
0.368063 0.032639 0.043061
0.421424 0.0363928 0.0542
0.473365 0.0411231 0.0630808
0.526467 0.0464027 0.0742199
0.57203 0.0539101 0.0909743
0.620783 0.0619211 0.108614
0.663935 0.0721752 0.127398
0.699367 0.084947 0.146838
0.728206 0.0991226 0.165911
0.75314 0.114061 0.183642
0.775402 0.129076 0.199786
0.791424 0.142214 0.212253
0.798718 0.149294 0.219013
0.802472 0.153201 0.223301
0.806287 0.157168 0.227588
0.809552 0.160632 0.23125
0.812985 0.164187 0.235233
0.815961 0.167269 0.238666
0.818219 0.169558 0.241474
0.820722 0.171969 0.244556
0.822873 0.173999 0.247257
0.00717174 0.0459754 0.0332647
0.0071107 0.0462654 0.033463
0.00703441 0.0460059 0.024033
0.00875868 0.0430152 0.0146181
0.0351263 0.0419776 0.0133364
0.0624704 0.0450904 0.0171054
0.092668 0.0469062 0.0204929
0.126131 0.046952 0.0225376
0.164828 0.0455177 0.0253452
0.20795 0.0433051 0.0292515
0.256428 0.0420233 0.0332189
0.307912 0.0420691 0.0374151
0.35993 0.0437629 0.0420844
0.410071 0.0466011 0.0474098
0.460533 0.0505379 0.0547341
0.513222 0.0554513 0.0640269
0.564248 0.061799 0.0806744
0.612818 0.0691844 0.0950332
0.657618 0.0783246 0.113512
0.69514 0.0894942 0.134661
0.724941 0.10251 0.15523
0.750042 0.116243 0.173922
0.772839 0.131136 0.190906
0.789837 0.144427 0.204044
0.797879 0.151675 0.210986
0.80058 0.154482 0.214145
0.803372 0.157214 0.217609
0.806104 0.159991 0.220783
0.808621 0.162554 0.223865
0.811002 0.16495 0.226673
0.813184 0.167041 0.229389
0.815122 0.168795 0.231998
0.8168 0.170382 0.234119
0.0104524 0.0790875 0.0504768
0.0103609 0.079408 0.0507362
0.0101167 0.0801099 0.0379187
0.00978103 0.0785229 0.0200656
0.0239414 0.075639 0.0175479
0.0699168 0.0766613 0.0169833
0.103136 0.0776989 0.0211643
0.133303 0.07953 0.0243534
0.173587 0.0782025 0.0274968
0.216037 0.0752728 0.0311437
0.263813 0.0721294 0.035584
0.314458 0.069276 0.039704
0.364034 0.0674144 0.044007
0.41117 0.0661173 0.0484169
0.45774 0.0648203 0.0541085
0.507195 0.0656138 0.0621042
0.557397 0.0706951 0.0725261
0.604654 0.0775006 0.0844892
0.650294 0.0867475 0.0989853
0.690715 0.0971542 0.122301
0.722515 0.110582 0.143084
0.749493 0.125078 0.163531
0.774182 0.140505 0.183124
0.794003 0.155245 0.198749
0.803067 0.162554 0.206928
0.80557 0.164813 0.210239
0.807965 0.16701 0.213458
0.81004 0.168994 0.216144
0.811902 0.170764 0.218585
0.813352 0.172091 0.220615
0.81503 0.173587 0.222843
0.816724 0.175021 0.225208
0.81825 0.176425 0.227161
0.0117647 0.111254 0.0652476
0.0116426 0.111589 0.0657054
0.0110781 0.113756 0.0487221
0.0107424 0.113466 0.0262608
0.0123751 0.110216 0.0194095
0.0478523 0.111177 0.0184482
0.105043 0.11046 0.0181125
0.141772 0.110323 0.0233921
0.17879 0.111894 0.0228122
0.224338 0.109545 0.028687
0.273167 0.104997 0.0344549
0.324086 0.100557 0.040528
0.375006 0.097261 0.0464485
0.423423 0.095964 0.0514534
0.470665 0.095079 0.0577096
0.517052 0.0944533 0.0649271
0.563302 0.0943008 0.0731823
0.607004 0.0943313 0.0837568
0.64863 0.0965133 0.0959335
0.687205 0.106767 0.111437
0.719768 0.121126 0.129503
0.748363 0.137057 0.149874
0.775128 0.152529 0.173007
0.797696 0.169253 0.190127
0.807721 0.176974 0.198611
0.81091 0.179202 0.202869
0.813535 0.181186 0.206592
0.815763 0.182849 0.209918
0.81738 0.1841 0.21236
0.819059 0.185489 0.214679
0.820722 0.186831 0.217014
0.822309 0.188128 0.219211
0.823804 0.189517 0.221164
0.0113985 0.143633 0.080293
0.0112306 0.144198 0.0810101
0.0102693 0.146899 0.0600137
0.00967422 0.14818 0.033051
0.00993362 0.144564 0.0184634
0.024155 0.14316 0.0179599
0.0781415 0.145312 0.0151217
0.140154 0.143923 0.0156863
0.183948 0.143145 0.020325
0.226963 0.144823 0.0199741
0.279866 0.140978 0.0268101
0.333837 0.136477 0.0348821
0.385779 0.131228 0.0443732
0.434806 0.129534 0.0513924
0.483238 0.128679 0.058854
0.531792 0.129076 0.0674601
0.579538 0.129427 0.0767834
0.624842 0.130358 0.0869459
0.66598 0.131701 0.0984817
0.700221 0.134752 0.112474
0.727672 0.140108 0.128756
0.75201 0.149935 0.14641
0.775784 0.164508 0.163973
0.798154 0.181857 0.179431
0.81004 0.192737 0.187167
0.813657 0.196506 0.190066
0.816037 0.198825 0.192676
0.818433 0.201083 0.195346
0.820447 0.202808 0.197772
0.822324 0.204364 0.199939
0.823713 0.205341 0.201938
0.825193 0.206577 0.203815
0.826703 0.208011 0.205509
0.00943008 0.177966 0.0925002
0.00910964 0.178515 0.0935531
0.00737011 0.181552 0.0725719
0.00596628 0.183673 0.0435798
0.00582895 0.181415 0.0189975
0.0102846 0.178668 0.0152132
0.044892 0.180774 0.013611
0.114076 0.181735 0.00932326
0.175891 0.180667 0.0119936
0.23032 0.180163 0.0177157
0.277729 0.182345 0.0170901
0.338811 0.178271 0.0222629
0.396567 0.173358 0.0346227
0.445167 0.17052 0.0453651
0.495109 0.166873 0.0572824
0.545144 0.1673 0.0677348
0.594598 0.16846 0.0785229
0.641642 0.169909 0.0895857
0.684657 0.172076 0.102342
0.720882 0.176013 0.117601
0.750362 0.182116 0.134737
0.773892 0.189715 0.152071
0.793866 0.198352 0.168368
0.811429 0.20795 0.182605
0.820539 0.21239 0.190249
0.82153 0.212009 0.191379
0.822599 0.213916 0.19176
0.824186 0.216602 0.192447
0.825345 0.218967 0.19266
0.826581 0.22118 0.193179
0.827878 0.223087 0.194018
0.829282 0.225055 0.195087
0.830457 0.227115 0.195621
0.00430304 0.214206 0.103426
0.00402838 0.21471 0.104677
0.00216678 0.217319 0.0838331
0.000122072 0.219806 0.0551003
0 0.219104 0.0250553
0.000198367 0.21561 0.00993362
0.0110018 0.215228 0.00918593
0.0663157 0.219135 0.00619516
0.148013 0.219364 0.00103761
0.214954 0.219272 0.00563058
0.280629 0.219898 0.0133364
0.335805 0.222644 0.0111238
0.394629 0.221012 0.0158389
0.454505 0.215778 0.0313878
0.504906 0.213794 0.0450446
0.554528 0.212192 0.0604257
0.60618 0.210407 0.0777752
0.654841 0.212589 0.091371
0.699382 0.215305 0.105516
0.738293 0.219898 0.122148
0.770352 0.226169 0.140551
0.796674 0.23473 0.15993
0.817349 0.243702 0.176699
0.83476 0.252979 0.191104
0.845029 0.258427 0.199741
0.845747 0.25658 0.201053
0.843961 0.253147 0.200305
0.842817 0.251301 0.199603
0.842008 0.249821 0.199222
0.841535 0.24889 0.199054
0.841352 0.248463 0.199069
0.841581 0.248615 0.199466
0.841932 0.248936 0.199939
0 0.251637 0.111269
0 0.252232 0.112871
0 0.254536 0.0930495
0 0.25716 0.066331
0 0.257633 0.0364233
0 0.254093 0.00932326
0 0.251469 0.00128176
0.0175326 0.254826 0
0.0884718 0.258762 0
0.184253 0.258991 0
0.259419 0.259983 0
0.334356 0.261784 0.00773632
0.394965 0.266194 0.00848402
0.44712 0.267918 0.007187
0.508919 0.264073 0.0256352
0.562142 0.262776 0.0456092
0.610376 0.264347 0.0640726
0.661768 0.263188 0.0866865
0.709804 0.263035 0.108003
0.751583 0.26772 0.126802
0.787671 0.274525 0.147295
0.815808 0.282078 0.166995
0.838285 0.290715 0.184909
0.856901 0.299947 0.200519
0.868696 0.306325 0.21059
0.870695 0.305928 0.212619
0.869261 0.302937 0.211902
0.868025 0.300496 0.211246
0.867063 0.298497 0.210803
0.866697 0.29749 0.210742
0.866621 0.29723 0.210834
0.867323 0.298451 0.211383
0.868406 0.30045 0.212146
0 0.29041 0.119539
0 0.291279 0.121584
0 0.293202 0.10103
0 0.295079 0.0767376
0 0.296056 0.0483711
0 0.294453 0.0178531
0 0.290181 0
0 0.289738 0
0.0289006 0.295583 0
0.114397 0.298878 0
0.226001 0.299626 0
0.30721 0.302708 0
0.387945 0.306386 0.00233463
0.452094 0.312978 0.00747692
0.500923 0.317693 0.00588998
0.558694 0.317174 0.0222019
0.613153 0.316991 0.0490578
0.661051 0.319127 0.0715953
0.709865 0.320623 0.0966201
0.757046 0.321096 0.124575
0.798321 0.323812 0.150851
0.830564 0.329824 0.17322
0.855146 0.33756 0.192111
0.875059 0.346059 0.20853
0.889372 0.353521 0.220935
0.892058 0.353567 0.223423
0.891096 0.351125 0.222995
0.890211 0.349081 0.222538
0.889723 0.347784 0.222339
0.889509 0.347127 0.222278
0.889677 0.347448 0.222446
0.89015 0.348516 0.222797
0.891295 0.350896 0.223636
0 0.328603 0.130434
0 0.32932 0.132753
0 0.330648 0.111391
0 0.332006 0.0877699
0 0.333486 0.0615091
0 0.333349 0.0322576
0 0.330282 0
0 0.326879 0
0 0.328969 0
0.0444953 0.334539 0
0.150362 0.337575 0
0.27509 0.339681 0
0.358877 0.345373 0
0.43801 0.350866 0
0.504646 0.35845 0.00755322
0.553948 0.365225 0.00993362
0.606058 0.368978 0.0282597
0.660121 0.370169 0.0578164
0.708141 0.372839 0.0838788
0.753979 0.37615 0.111376
0.799374 0.378454 0.142672
0.837278 0.38117 0.171328
0.866789 0.385672 0.195666
0.889113 0.392096 0.215015
0.90631 0.399741 0.229969
0.910094 0.400275 0.233371
0.909407 0.39823 0.233036
0.908782 0.396719 0.232624
0.908644 0.396094 0.232609
0.908553 0.395712 0.232609
0.90866 0.396017 0.23267
0.909041 0.397314 0.232883
0.910231 0.399969 0.23386
0 0.366217 0.145876
0 0.366949 0.148745
0 0.36791 0.127916
0 0.368856 0.104692
0 0.370245 0.0794842
0 0.371206 0.0516976
0 0.369802 0.0208591
0 0.3664 0
0 0.364248 0
0 0.367636 0
0.0662547 0.372961 0
0.198535 0.375998 0
0.333349 0.380835 0
0.408072 0.387762 0
0.486656 0.39498 0
0.555596 0.403891 0.0103761
0.606943 0.412695 0.0209201
0.655055 0.419196 0.0439612
0.705669 0.421942 0.0724651
0.751583 0.425849 0.101137
0.794736 0.430243 0.130327
0.835065 0.434669 0.160586
0.868467 0.439399 0.188251
0.89485 0.444617 0.211673
0.91519 0.450431 0.230488
0.921843 0.451957 0.236591
0.921904 0.450355 0.236927
0.921706 0.449287 0.236881
0.921599 0.448554 0.236896
0.921599 0.448386 0.236942
0.921782 0.449119 0.237049
0.92224 0.451026 0.237354
0.922911 0.454154 0.237751
0 0.404532 0.167712
0 0.405264 0.171511
0 0.405982 0.151186
0 0.407004 0.129473
0 0.408255 0.105531
0 0.409827 0.077409
0 0.410254 0.0471809
0 0.408316 0.0144198
0 0.405447 0
0 0.40531 0
0.0209812 0.407874 0
0.0977493 0.411856 0
0.257755 0.415259 0
0.388266 0.422965 0
0.455909 0.431159 0
0.534722 0.440787 0.0030518
0.605295 0.450797 0.0228122
0.657557 0.459907 0.0424048
0.702037 0.468009 0.0645457
0.749538 0.472892 0.0935073
0.792584 0.478187 0.123491
0.830503 0.483986 0.151705
0.864256 0.489464 0.179141
0.893065 0.495155 0.204364
0.915694 0.501045 0.224994
0.924254 0.503792 0.23299
0.925216 0.503212 0.233967
0.925292 0.502464 0.234119
0.925399 0.502098 0.234272
0.925399 0.502373 0.234257
0.925277 0.503395 0.234043
0.925338 0.50605 0.233951
0.925658 0.509499 0.234195
0 0.444389 0.19762
0 0.445121 0.201801
0 0.445808 0.18323
0 0.446555 0.162982
0 0.447745 0.140169
0 0.449348 0.114199
0 0.45127 0.0833295
0 0.451286 0.0514534
0 0.449882 0.0149691
0 0.448218 0
0 0.447608 0
0.0533608 0.448783 0
0.141787 0.452186 0
0.320317 0.457343 0
0.439841 0.467506 0
0.505119 0.476768 0
0.582986 0.486992 0.0198062
0.653941 0.4972 0.0450141
0.706233 0.506432 0.0683604
0.748547 0.516274 0.0923171
0.791699 0.523171 0.121462
0.828809 0.529305 0.149493
0.859953 0.536095 0.174426
0.888395 0.54255 0.198489
0.912047 0.548745 0.219791
0.923125 0.552804 0.230335
0.924544 0.552819 0.231754
0.924498 0.552407 0.231678
0.924483 0.552483 0.231662
0.924453 0.553079 0.231647
0.92459 0.554635 0.231815
0.924605 0.557153 0.231968
0.924407 0.560418 0.232013
0 0.486976 0.235004
0 0.488151 0.240085
0 0.48835 0.222583
0 0.488823 0.203876
0 0.489815 0.183749
0 0.491157 0.160403
0 0.493492 0.131334
0 0.494682 0.097612
0 0.493324 0.0619669
0 0.491066 0.0184634
0 0.488975 0
0.0090486 0.489387 0
0.0962692 0.491585 0
0.193759 0.495567 0
0.376928 0.501686 0
0.489876 0.513405 0
0.554025 0.522591 0.00929274
0.630793 0.53312 0.0422522
0.700313 0.543725 0.0721294
0.751888 0.553109 0.0998398
0.792233 0.563439 0.125597
0.829313 0.571801 0.152468
0.860609 0.579004 0.178042
0.886168 0.587289 0.199619
0.908431 0.594553 0.219181
0.921233 0.600031 0.231739
0.92343 0.600824 0.233829
0.923384 0.600732 0.233768
0.923491 0.60119 0.233936
0.923552 0.602335 0.234165
0.923644 0.603937 0.234501
0.923644 0.606287 0.234913
0.923949 0.609644 0.235828
0 0.531563 0.278035
0 0.532647 0.283864
0 0.532601 0.268437
0 0.532662 0.25124
0 0.532967 0.233127
0 0.533974 0.211917
0 0.535073 0.184955
0 0.536614 0.151797
0 0.535851 0.116777
0 0.533715 0.0761883
0 0.53109 0.0271153
0 0.529015 0
0.0547799 0.530602 0
0.142885 0.533761 0
0.250278 0.539147 0
0.432975 0.54728 0
0.53959 0.559487 0.00460822
0.60238 0.568643 0.0344091
0.676127 0.579248 0.0698863
0.743282 0.589471 0.10367
0.794446 0.599115 0.134905
0.832532 0.609751 0.162051
0.864134 0.619608 0.188006
0.890715 0.628168 0.211063
0.911086 0.636759 0.229191
0.924163 0.64445 0.242115
0.926589 0.646403 0.244938
0.926726 0.646799 0.245243
0.92697 0.647578 0.245716
0.927199 0.648493 0.246204
0.927535 0.650034 0.246998
0.927794 0.652064 0.247913
0.928573 0.655222 0.249622
0 0.57525 0.321233
0 0.576303 0.327245
0 0.576288 0.314473
0 0.576394 0.30074
0 0.576562 0.285557
0 0.576761 0.267247
0 0.577111 0.243748
0 0.577981 0.21323
0 0.578241 0.17731
0 0.57612 0.139879
0 0.573159 0.095079
0 0.569375 0.0406806
0.005066 0.568139 0
0.103929 0.571496 0
0.19408 0.57612 0
0.310628 0.583093 0
0.489998 0.593057 0
0.587594 0.604929 0.032105
0.647639 0.614038 0.0635691
0.717617 0.624781 0.100801
0.783169 0.635126 0.138384
0.833448 0.645289 0.172564
0.869718 0.656077 0.200717
0.897688 0.666743 0.227207
0.919646 0.676143 0.249485
0.933059 0.684459 0.263523
0.935927 0.688441 0.267811
0.936095 0.689082 0.268208
0.936217 0.689647 0.268467
0.936431 0.690562 0.268956
0.936828 0.691997 0.269917
0.937346 0.693904 0.271275
0.938262 0.697002 0.273457
0 0.617441 0.363378
0 0.61854 0.369131
0 0.618509 0.358953
0 0.618769 0.347799
0 0.61883 0.33518
0 0.618662 0.320333
0 0.618647 0.301701
0 0.618875 0.276585
0 0.619593 0.243793
0 0.617853 0.207446
0 0.614603 0.166613
0 0.610117 0.116686
0 0.604959 0.0565652
0.0447395 0.606531 0
0.158953 0.61265 0
0.251972 0.619287 0
0.375494 0.627085 0
0.546822 0.638132 0.0299687
0.634745 0.649958 0.0646372
0.691737 0.659739 0.0973831
0.75819 0.671153 0.136065
0.821805 0.681514 0.176349
0.868574 0.691615 0.211383
0.903624 0.702724 0.243763
0.928695 0.713161 0.270481
0.94464 0.722499 0.290349
0.948287 0.727321 0.297536
0.948592 0.728176 0.297887
0.948791 0.72871 0.297978
0.949065 0.72958 0.298466
0.949508 0.730983 0.299351
0.950027 0.732967 0.300847
0.951125 0.735668 0.303212
0 0.657938 0.402441
0 0.65951 0.408423
0 0.659434 0.400015
0 0.659266 0.390402
0 0.659068 0.380041
0 0.659007 0.368795
0 0.65893 0.35404
0 0.659144 0.334508
0 0.659052 0.308171
0 0.65832 0.274617
0 0.655253 0.238239
0 0.650828 0.193515
0 0.645579 0.139239
0.00764477 0.640986 0.0696727
0.100954 0.646616 0.0117494
0.222995 0.654002 0
0.313436 0.661326 0.00337224
0.441428 0.66981 0.0204623
0.604395 0.682826 0.067155
0.681529 0.695064 0.102556
0.735271 0.705303 0.135393
0.798154 0.716884 0.174945
0.856611 0.726726 0.215503
0.899916 0.737469 0.254429
0.93257 0.748455 0.289631
0.954864 0.757977 0.317662
0.960281 0.763333 0.330663
0.9608 0.764691 0.332265
0.960891 0.765148 0.331899
0.961166 0.766201 0.332403
0.961486 0.767391 0.333043
0.96199 0.769055 0.334478
0.962509 0.771389 0.336675
0.0210269 0.696391 0.440162
0.0229648 0.697688 0.445548
0.0211032 0.69752 0.438544
0.0188754 0.697261 0.43032
0.0167391 0.697124 0.421714
0.0145113 0.696895 0.412192
0.0119631 0.69688 0.400259
0.00865187 0.696391 0.384863
0.00468452 0.695674 0.363958
0.00117494 0.694865 0.336934
0 0.692348 0.304906
0 0.688472 0.266011
0 0.683192 0.21648
0.011368 0.678141 0.15523
0.0544137 0.676585 0.0828107
0.171893 0.684138 0.0305486
0.289708 0.691356 0.0242161
0.374899 0.699153 0.0312963
0.510857 0.709087 0.0561074
0.660853 0.724178 0.108064
0.726955 0.736751 0.143252
0.777966 0.747433 0.176181
0.836103 0.758221 0.215808
0.888502 0.768765 0.259998
0.926833 0.779416 0.301656
0.954086 0.788983 0.336828
0.966232 0.795102 0.361578
0.967132 0.797269 0.36878
0.967163 0.798001 0.368414
0.967132 0.798535 0.368017
0.967147 0.799573 0.368292
0.967178 0.801053 0.369299
0.967315 0.803098 0.371313
0.0475471 0.729442 0.474983
0.049546 0.730755 0.480339
0.0479744 0.730632 0.474372
0.0462959 0.730541 0.467582
0.0448157 0.730648 0.460853
0.0429084 0.730419 0.452583
0.0404669 0.729992 0.44213
0.0373541 0.729183 0.428626
0.0335241 0.728084 0.410941
0.0293584 0.726802 0.388098
0.025452 0.725063 0.360418
0.0226139 0.721309 0.327184
0.0218814 0.716716 0.284504
0.025742 0.710948 0.229984
0.0432746 0.706035 0.163394
0.105669 0.706188 0.0860456
0.249622 0.71635 0.0489052
0.35317 0.723827 0.0499123
0.439506 0.732357 0.0613718
0.579767 0.744518 0.0952163
0.711757 0.761151 0.149386
0.770672 0.773907 0.183963
0.819013 0.784726 0.217624
0.87039 0.795087 0.260304
0.91516 0.805844 0.309255
0.946273 0.81532 0.350942
0.965545 0.822461 0.383978
0.967407 0.825193 0.402045
0.967346 0.825849 0.402304
0.967239 0.826505 0.401892
0.967071 0.827253 0.401892
0.967025 0.82855 0.402808
0.966842 0.830472 0.404868
0.073518 0.758618 0.509316
0.0755779 0.760021 0.514488
0.0742504 0.759869 0.509224
0.0729229 0.759808 0.503594
0.0713359 0.759579 0.497154
0.0695201 0.759243 0.48986
0.0673228 0.758679 0.481071
0.0642863 0.757824 0.46891
0.060502 0.756542 0.453452
0.0561837 0.754971 0.43357
0.051194 0.752789 0.407797
0.0474556 0.749523 0.378485
0.0444343 0.745037 0.341817
0.0441291 0.739651 0.296559
0.050782 0.733883 0.239094
0.0784924 0.729717 0.163638
0.17615 0.735882 0.0936141
0.319326 0.74461 0.0726635
0.414618 0.752361 0.0783093
0.505577 0.761685 0.0949111
0.646006 0.776455 0.137789
0.758389 0.793942 0.190799
0.812543 0.806271 0.22501
0.854536 0.816266 0.259617
0.899092 0.827588 0.313115
0.935042 0.837339 0.363241
0.959564 0.845228 0.403845
0.963806 0.84831 0.430945
0.963638 0.848951 0.43389
0.963531 0.849546 0.433265
0.963394 0.850355 0.433249
0.963333 0.851591 0.434333
0.962951 0.853071 0.436027
0.0976883 0.783581 0.542382
0.0999466 0.785077 0.547662
0.0985428 0.784802 0.542458
0.0970626 0.784497 0.53724
0.095552 0.784131 0.531701
0.0937514 0.783627 0.525277
0.0913863 0.782834 0.51693
0.0883497 0.781659 0.506065
0.0844434 0.780026 0.49189
0.0796979 0.777966 0.473777
0.0745708 0.775509 0.45124
0.070222 0.772457 0.42562
0.066331 0.768353 0.394415
0.063798 0.763516 0.355673
0.0640421 0.75761 0.307744
0.0754864 0.752926 0.245548
0.129931 0.755199 0.168475
0.249638 0.763607 0.121462
0.378119 0.769375 0.107164
0.474342 0.777539 0.114321
0.568704 0.78703 0.134813
0.703838 0.803845 0.182086
0.801907 0.821683 0.23331
0.849439 0.833112 0.266316
0.883879 0.843824 0.313939
0.921248 0.854078 0.372869
0.948333 0.862074 0.420584
0.958007 0.86656 0.454627
0.957916 0.86775 0.465232
0.957626 0.868132 0.464942
0.957427 0.868879 0.465278
0.957321 0.86978 0.466255
0.957092 0.870695 0.467735
0.117937 0.802167 0.574411
0.11989 0.803403 0.578866
0.118044 0.802457 0.574044
0.116243 0.801541 0.568872
0.114305 0.800626 0.563638
0.112078 0.799542 0.557534
0.109316 0.798138 0.54995
0.105547 0.796139 0.539406
0.100679 0.793469 0.525689
0.0959945 0.790845 0.510002
0.0914473 0.78819 0.491875
0.0869001 0.785183 0.469947
0.0823377 0.781613 0.441855
0.078294 0.777615 0.407782
0.0761273 0.773037 0.365499
0.0794232 0.768109 0.311498
0.108293 0.768017 0.246998
0.19794 0.775128 0.191867
0.309361 0.776623 0.163195
0.427375 0.781048 0.155886
0.527916 0.789548 0.165087
0.624231 0.800061 0.186435
0.749599 0.819455 0.23183
0.83418 0.837766 0.281941
0.876036 0.849104 0.320027
0.90866 0.860029 0.375662
0.938277 0.87071 0.433402
0.952605 0.878279 0.478859
0.95378 0.881285 0.4981
0.953628 0.881849 0.500023
0.953475 0.882231 0.500389
0.953399 0.882506 0.501244
0.953399 0.88275 0.502831
0.127779 0.809277 0.593683
0.129198 0.810056 0.597009
0.126848 0.808728 0.591546
0.124514 0.807431 0.585885
0.122133 0.806088 0.579965
0.119432 0.804578 0.57348
0.116182 0.80267 0.565042
0.112139 0.800427 0.554498
0.106874 0.797421 0.540841
0.101305 0.794156 0.524437
0.0966201 0.791272 0.506844
0.0919051 0.78822 0.486183
0.088426 0.785611 0.463035
0.0856031 0.782925 0.436637
0.0838483 0.779965 0.404379
0.0846113 0.776455 0.362921
0.10602 0.776852 0.310063
0.177646 0.781262 0.260197
0.267338 0.781003 0.227802
0.368841 0.780301 0.215152
0.482826 0.78587 0.214481
0.588022 0.796872 0.227909
0.68661 0.811093 0.254719
0.790707 0.831418 0.29575
0.861799 0.848615 0.34258
0.898405 0.859159 0.383536
0.929442 0.870161 0.438758
0.950835 0.881056 0.495583
0.953414 0.88661 0.527779
0.95346 0.887282 0.531426
0.953399 0.887098 0.530236
0.953368 0.886976 0.529351
0.953353 0.886931 0.529107
0.131533 0.811368 0.601495
0.13283 0.812085 0.604486
0.130495 0.810758 0.59913
0.128176 0.809445 0.593408
0.125734 0.808072 0.587625
0.123064 0.806592 0.581186
0.119722 0.8047 0.572931
0.115465 0.802228 0.562234
0.110399 0.79939 0.548821
0.10399 0.795712 0.531731
0.0984207 0.792355 0.512993
0.0933852 0.789181 0.492027
0.0895857 0.786419 0.468925
0.0866407 0.783749 0.442893
0.0846571 0.780819 0.411215
0.0850843 0.777279 0.370092
0.100664 0.776501 0.318791
0.169711 0.781338 0.267597
0.258244 0.781323 0.233387
0.357702 0.78024 0.21976
0.471794 0.785046 0.218402
0.579629 0.79588 0.230243
0.677623 0.809812 0.25565
0.778866 0.829099 0.293782
0.855543 0.847456 0.340826
0.894484 0.858198 0.380499
0.926329 0.869093 0.434073
0.950607 0.880446 0.491371
0.953445 0.886717 0.528389
0.953521 0.8878 0.534157
0.95349 0.887831 0.534112
0.953475 0.887755 0.533654
0.95349 0.887648 0.533196
0.134997 0.81326 0.608331
0.136019 0.813779 0.610636
0.133562 0.81236 0.604974
0.131182 0.811002 0.599588
0.12874 0.809659 0.593729
0.125948 0.808042 0.586984
0.122545 0.806119 0.57882
0.118242 0.803677 0.568063
0.112993 0.800656 0.554604
