bundles/resolve-cinematic-luts/Phantom Luts/P4k & P6k Phntm Arri LUTs - V6/P4K/Gen 4 Colour/Standard (No WB Offset)/P4k Utopia Gen4.cube
TITLE "Generated by Resolve"
LUT_3D_SIZE 33
0 0.0227512 0.0306706
0 0.0227512 0.0306706
0.00523384 0.0214847 0.0288396
0.0309758 0.0196994 0.0307774
0.0555428 0.0184024 0.0295567
0.0817121 0.0167086 0.0274662
0.11136 0.0151064 0.0254063
0.146441 0.013962 0.0239109
0.185718 0.0131075 0.0231174
0.229236 0.0120089 0.0227054
0.276326 0.0117952 0.0238804
0.324865 0.0116274 0.025742
0.374334 0.0125887 0.0286717
0.425025 0.014023 0.0332799
0.475349 0.0178683 0.040589
0.523598 0.0244144 0.0511025
0.56022 0.0347601 0.0652781
0.601572 0.0442664 0.0780652
0.645685 0.0533455 0.0907149
0.691035 0.0625467 0.103548
0.734066 0.0725109 0.11667
0.772229 0.0838636 0.1308
0.804837 0.096849 0.145296
0.831495 0.111482 0.159991
0.843885 0.123262 0.170642
0.848203 0.130785 0.177752
0.850706 0.135027 0.182956
0.852689 0.13727 0.187289
0.854307 0.138277 0.190417
0.857099 0.13875 0.193194
0.860197 0.138949 0.195315
0.864622 0.13843 0.196872
0.868925 0.137606 0.197864
0 0.0227512 0.0306706
0 0.0227512 0.0306706
0 0.0224613 0.0303197
0.019379 0.0214542 0.030518
0.0410163 0.0217441 0.0301518
0.0670939 0.0208438 0.027985
0.095491 0.0200961 0.0257267
0.129793 0.0193637 0.0238193
0.168948 0.0185397 0.0218662
0.212146 0.0177157 0.0197452
0.26041 0.0173342 0.0180819
0.310399 0.0175784 0.0174258
0.361898 0.0183261 0.0186465
0.413626 0.0189517 0.0211185
0.464988 0.0204471 0.0249638
0.512779 0.023743 0.0313726
0.551675 0.0310216 0.0435035
0.594217 0.0389715 0.0565042
0.638224 0.0467689 0.0691386
0.683101 0.0552377 0.0822614
0.726223 0.0647746 0.0967727
0.76408 0.0749218 0.11104
0.795987 0.0867933 0.125048
0.822187 0.100099 0.139391
0.836149 0.111894 0.150622
0.841001 0.118868 0.157549
0.84416 0.123934 0.162997
0.847272 0.128634 0.167895
0.850752 0.132784 0.172976
0.854261 0.135683 0.176074
0.858763 0.138445 0.179629
0.864363 0.140047 0.181888
0.869474 0.141009 0.183444
0 0.0262303 0.0322881
0 0.024979 0.0311284
0 0.0235294 0.0306401
0.00683604 0.0247349 0.0296635
0.0280003 0.0243534 0.0305943
0.0533608 0.0246433 0.0294499
0.0828717 0.0250248 0.0280308
0.117144 0.0252842 0.0268864
0.157198 0.0251469 0.0251774
0.201099 0.0249943 0.0235447
0.249287 0.0247349 0.021622
0.299962 0.0245518 0.0201114
0.349569 0.0248569 0.0189822
0.399756 0.026276 0.0192721
0.449805 0.0286717 0.0206912
0.498253 0.0331579 0.0256352
0.542351 0.0390478 0.0356298
0.587396 0.0444953 0.0464179
0.632197 0.0506447 0.0586252
0.677195 0.0568704 0.0707103
0.719905 0.0639353 0.0827649
0.758465 0.0729076 0.0964675
0.790112 0.0827802 0.109621
0.815656 0.0948959 0.123369
0.830579 0.106142 0.134325
0.835767 0.111666 0.1402
0.838392 0.11545 0.144396
0.840772 0.118578 0.148257
0.844068 0.122377 0.152377
0.848203 0.125139 0.15581
0.853086 0.127794 0.158923
0.859815 0.129488 0.160967
0.865904 0.130571 0.162585
0 0.0506447 0.0369268
0 0.0495003 0.0291905
0 0.0464332 0.0274052
0.0145113 0.0441138 0.0258183
0.0327916 0.0462959 0.0263523
0.0573892 0.0471351 0.0324865
0.0852979 0.0467994 0.0328374
0.117037 0.0447547 0.0323796
0.153735 0.0418555 0.0305028
0.194293 0.0393683 0.0278325
0.238666 0.0364538 0.0248417
0.287388 0.0327001 0.0225986
0.338109 0.0323491 0.0212406
0.388708 0.0336156 0.0210117
0.439857 0.0356909 0.0219577
0.488594 0.0390936 0.0252079
0.533272 0.0446937 0.0315099
0.577218 0.0515755 0.0393378
0.621241 0.0581369 0.0477455
0.66833 0.064744 0.0601816
0.714519 0.0716259 0.0745708
0.75494 0.0795911 0.0886091
0.78851 0.0894942 0.102876
0.815991 0.10222 0.117235
0.834043 0.114687 0.129305
0.840009 0.120287 0.135195
0.841886 0.123003 0.138598
0.844053 0.125444 0.141894
0.845823 0.127321 0.14435
0.84918 0.129046 0.14667
0.853269 0.13022 0.148287
0.859586 0.130495 0.149218
0.865827 0.13051 0.149828
0 0.0821698 0.0419776
0 0.082826 0.0236057
0 0.0796979 0.0170443
0.00134279 0.0750896 0.0169528
0.0328527 0.0758831 0.0185855
0.0615702 0.0758221 0.0253758
0.0911727 0.0754864 0.0335546
0.124849 0.0742962 0.0341955
0.162112 0.0716106 0.0350805
0.204074 0.0664988 0.035462
0.249119 0.0614023 0.0337835
0.296803 0.0576486 0.0311894
0.343816 0.0542916 0.0286412
0.390036 0.0513771 0.0263981
0.435843 0.0488594 0.0250248
0.48159 0.0475471 0.0256657
0.528374 0.0513466 0.0323186
0.572152 0.0579538 0.0394598
0.615671 0.0645457 0.0467231
0.660288 0.071931 0.0553292
0.705242 0.0801251 0.0650187
0.747311 0.0894636 0.0775311
0.784741 0.100343 0.0929427
0.815656 0.113085 0.109239
0.837858 0.126177 0.123354
0.845716 0.13193 0.130297
0.847715 0.134356 0.134066
0.849454 0.136584 0.137102
0.85069 0.138109 0.139773
0.853742 0.139574 0.142077
0.85745 0.140642 0.143801
0.863478 0.140932 0.144503
0.869627 0.140887 0.144747
0 0.115923 0.0420996
0 0.117998 0.0213016
0 0.115312 0.0068513
0 0.111803 0.00740063
0.013138 0.110735 0.00796521
0.0594949 0.109316 0.0155337
0.0902571 0.108156 0.0245365
0.128313 0.106188 0.0293126
0.169543 0.103975 0.0329442
0.21355 0.099321 0.0356603
0.258747 0.0936294 0.0375525
0.30753 0.0862287 0.0381781
0.355276 0.0818799 0.0369421
0.401785 0.0790112 0.0360418
0.447852 0.0769818 0.0359045
0.492653 0.0758221 0.0369268
0.53434 0.0761425 0.0396124
0.574243 0.0768139 0.0433967
0.613993 0.0777142 0.0478981
0.656199 0.0823835 0.0546426
0.701762 0.0898909 0.0659648
0.744228 0.0997635 0.0765698
0.781689 0.111696 0.0888838
0.813062 0.125673 0.1019
0.838483 0.14023 0.114412
0.84799 0.146777 0.121233
0.850797 0.149248 0.125292
0.853178 0.151369 0.129259
0.855329 0.153338 0.132723
0.858518 0.154589 0.135378
0.862226 0.155444 0.137118
0.868025 0.155184 0.137438
0.874067 0.15491 0.137484
0 0.152056 0.0468605
0 0.155932 0.0197757
0 0.15404 0
0 0.150576 0
0 0.147143 0
0.0323339 0.148638 0.00209049
0.0892958 0.14461 0.0144198
0.120226 0.14374 0.023331
0.168887 0.140703 0.0290684
0.213107 0.138384 0.0304723
0.269291 0.130007 0.0345464
0.319173 0.123247 0.0384985
0.366461 0.116228 0.0417182
0.413764 0.111986 0.043534
0.460166 0.109743 0.0446174
0.506188 0.109178 0.0470588
0.548867 0.110155 0.0515145
0.590509 0.112154 0.0565957
0.630457 0.114122 0.0617685
0.669306 0.11606 0.0669718
0.708766 0.11841 0.0728771
0.746471 0.121065 0.0798505
0.780606 0.126543 0.0890059
0.812116 0.138125 0.100587
0.83856 0.152514 0.112673
0.850263 0.160967 0.118746
0.853239 0.164981 0.120546
0.8551 0.168368 0.122286
0.856199 0.171054 0.123308
0.85803 0.17322 0.124178
0.860731 0.174685 0.125444
0.865187 0.175296 0.126375
0.86981 0.175891 0.127123
0 0.193225 0.0534676
0 0.197772 0.0242924
0 0.198581 0
0 0.195636 0
0 0.190875 0
0.00311284 0.191897 0
0.0586709 0.191241 0
0.12105 0.185718 0.0129702
0.157244 0.184741 0.0228428
0.212512 0.18143 0.029572
0.261234 0.178759 0.028275
0.324224 0.169894 0.032517
0.378714 0.161151 0.0391241
0.424979 0.15584 0.0443885
0.472282 0.14963 0.0504463
0.51931 0.148272 0.0547951
0.562982 0.149386 0.0609293
0.605463 0.151629 0.0677043
0.646616 0.154345 0.074464
0.686152 0.157214 0.0813153
0.72607 0.160876 0.0888533
0.763943 0.16527 0.0970016
0.796872 0.170565 0.105516
0.825116 0.17702 0.114458
0.848661 0.184192 0.123384
0.860014 0.18677 0.127794
0.861494 0.184863 0.127749
0.861494 0.184848 0.127733
0.862242 0.186908 0.128466
0.863874 0.189105 0.129152
0.865858 0.190799 0.129335
0.869307 0.19176 0.128679
0.87306 0.192706 0.128115
0 0.23859 0.0605631
0 0.243259 0.0325628
0 0.246342 0.00411994
0 0.24419 0
0 0.240513 0
0 0.237507 0
0.0145266 0.242527 0
0.0851453 0.238193 0
0.155764 0.231327 0.012192
0.200687 0.22948 0.0236057
0.260456 0.226963 0.0305638
0.315984 0.22414 0.0276188
0.376013 0.217655 0.0298161
0.435203 0.207919 0.0386969
0.484443 0.202075 0.0468757
0.530053 0.198611 0.0546273
0.575219 0.194598 0.0666056
0.618524 0.196338 0.0763256
0.660197 0.198978 0.0850233
0.700542 0.202655 0.0942245
0.74078 0.206897 0.103563
0.778943 0.21178 0.113207
0.812634 0.217853 0.123018
0.841154 0.224659 0.132082
0.865202 0.232471 0.141039
0.878676 0.237034 0.146395
0.881132 0.235981 0.14696
0.880339 0.23328 0.146105
0.879499 0.230793 0.145235
0.878935 0.228168 0.143877
0.879072 0.225742 0.14258
0.880858 0.223468 0.140795
0.883101 0.221668 0.139101
0 0.288914 0.0679179
0 0.293629 0.042237
0 0.298375 0.0145876
0 0.298009 0
0 0.294652 0
0 0.290089 0
0 0.291768 0
0.0296788 0.297688 0
0.114427 0.290272 0
0.196567 0.281727 0.0123293
0.249592 0.279316 0.0250095
0.31313 0.277302 0.0319524
0.372564 0.275273 0.029984
0.42829 0.271656 0.0277714
0.489021 0.262989 0.0371405
0.540505 0.257404 0.0489662
0.583383 0.256764 0.0616617
0.626871 0.255344 0.0765393
0.670024 0.252491 0.0918898
0.711025 0.254047 0.104585
0.751736 0.258259 0.116945
0.790402 0.26273 0.127993
0.824872 0.268513 0.138491
0.854627 0.27483 0.14815
0.879011 0.281514 0.15668
0.895201 0.286641 0.163043
0.898482 0.286275 0.16408
0.897871 0.284138 0.163378
0.897383 0.282078 0.162799
0.897032 0.279973 0.161929
0.896941 0.278065 0.160861
0.897932 0.276326 0.159319
0.899519 0.274784 0.157809
0 0.34432 0.0779278
0 0.348837 0.054963
0 0.353277 0.0285039
0 0.355917 0.00402838
0 0.354269 0
0 0.350423 0
0 0.34519 0
0.00314336 0.351675 0
0.0508278 0.357183 0
0.15285 0.346609 0
0.244083 0.33611 0.0143893
0.303822 0.332967 0.0272984
0.369635 0.331182 0.034165
0.429618 0.331197 0.0338598
0.482368 0.329107 0.0304112
0.539117 0.323766 0.0370794
0.589746 0.319707 0.0549477
0.632746 0.319402 0.0710307
0.673548 0.319814 0.0864881
0.715785 0.318441 0.104143
0.757824 0.316167 0.12285
0.797955 0.315923 0.138796
0.833188 0.319493 0.150744
0.864103 0.324453 0.160952
0.889632 0.330495 0.16997
0.908232 0.335897 0.177188
0.912383 0.335729 0.178439
0.912123 0.333913 0.178103
0.911513 0.332128 0.177462
0.911254 0.330449 0.176883
0.91107 0.328939 0.176135
0.911513 0.327596 0.175113
0.912535 0.32639 0.173877
0 0.400137 0.0944076
0 0.404623 0.0711223
0 0.40911 0.0469673
0 0.413474 0.022034
0 0.413718 0
0 0.411368 0
0 0.40734 0
0 0.405737 0
0.0225986 0.41239 0
0.0786755 0.415625 0
0.201846 0.400717 0
0.29929 0.388968 0.019028
0.361334 0.386069 0.0306249
0.425513 0.384619 0.0368353
0.484993 0.386069 0.0375372
0.535271 0.385138 0.0357671
0.586618 0.383139 0.0449073
0.635599 0.380179 0.0642405
0.678874 0.379263 0.0822919
0.717571 0.380331 0.0984207
0.759121 0.379477 0.117723
0.800549 0.378149 0.136782
0.837247 0.377646 0.153719
0.869352 0.377783 0.168215
0.896315 0.380285 0.180072
0.917906 0.385275 0.189227
0.922911 0.385534 0.191165
0.922683 0.383871 0.190738
0.922347 0.382437 0.190311
0.922164 0.381048 0.189929
0.921874 0.379812 0.189364
0.922179 0.378744 0.188739
0.922957 0.378042 0.187793
0 0.455726 0.119997
0 0.460151 0.0962844
0 0.464683 0.0720378
0 0.469154 0.047303
0 0.472633 0.0224155
0 0.471702 0
0 0.469093 0
0 0.4645 0
0 0.4654 0
0.0483711 0.472648 0
0.117235 0.473091 0
0.261021 0.452735 0
0.361837 0.440589 0.0254368
0.419318 0.438285 0.0343938
0.481285 0.437446 0.0397192
0.538994 0.439429 0.0443275
0.586786 0.439368 0.0463264
0.633799 0.439063 0.0586252
0.680781 0.43714 0.0760662
0.723201 0.436149 0.0953994
0.762173 0.437873 0.11342
0.801404 0.438407 0.132082
0.838422 0.438087 0.150195
0.87097 0.438605 0.166155
0.898848 0.440513 0.180163
0.921309 0.443336 0.191546
0.928649 0.443519 0.1953
0.929412 0.442145 0.195758
0.929427 0.440711 0.195819
0.92929 0.439246 0.195758
0.929152 0.43801 0.195636
0.92932 0.437079 0.195178
0.92961 0.436377 0.194308
0 0.510491 0.154223
0 0.515206 0.131533
0 0.519738 0.107637
0 0.523919 0.0829328
0 0.528176 0.0559701
0 0.529397 0.0302281
0 0.528328 0.00369268
0 0.525048 0
0 0.521233 0
0.023682 0.524437 0
0.0846876 0.529839 0
0.168292 0.527413 0
0.328634 0.502037 0.00877394
0.42414 0.490578 0.0309148
0.475792 0.489067 0.0402228
0.53463 0.488975 0.0515297
0.590707 0.491157 0.0571145
0.637018 0.491814 0.063386
0.680598 0.491859 0.0747692
0.726009 0.490791 0.0907301
0.767895 0.490257 0.111162
0.805447 0.491798 0.129686
0.839124 0.494087 0.146181
0.871031 0.495308 0.163394
0.899031 0.496864 0.178775
0.922026 0.499138 0.191577
0.930755 0.500145 0.196765
0.93196 0.499352 0.197467
0.931838 0.498253 0.197345
0.931945 0.4972 0.197436
0.931975 0.496239 0.197467
0.932189 0.495583 0.197086
0.932418 0.495109 0.196124
0 0.561685 0.198764
0 0.566384 0.177859
0 0.57145 0.154452
0 0.575998 0.13051
0 0.580682 0.103441
0 0.584878 0.0724651
0 0.584848 0.044007
0 0.583215 0.013901
0 0.579583 0
0.00486763 0.576699 0
0.0593881 0.581643 0
0.132311 0.58349 0
0.23238 0.577264 0
0.398657 0.548669 0.0251621
0.482795 0.539696 0.0441901
0.530449 0.539147 0.0566567
0.586343 0.539437 0.0694285
0.640406 0.541451 0.0762951
0.685786 0.541772 0.082887
0.726543 0.542199 0.0934615
0.770794 0.541299 0.109819
0.810208 0.541558 0.128145
0.843473 0.543435 0.146639
0.872267 0.546929 0.161883
0.898985 0.549493 0.177096
0.921736 0.552087 0.191287
0.931853 0.554162 0.198886
0.933608 0.553933 0.200153
0.933455 0.553033 0.199969
0.933486 0.552239 0.200015
0.933623 0.551583 0.200153
0.93373 0.551049 0.199832
0.933883 0.550668 0.198993
0 0.61088 0.248051
0 0.61529 0.228717
0 0.62005 0.207584
0 0.624781 0.185458
0 0.629847 0.15964
0 0.635325 0.128557
0 0.638422 0.0953384
0 0.638041 0.0619059
0 0.635981 0.0248112
0.00762951 0.632136 0
0.0181582 0.629633 0
0.10454 0.634867 0
0.191241 0.633448 0
0.304219 0.62446 0
0.464836 0.595102 0.0467536
0.538247 0.588479 0.0617227
0.583047 0.588022 0.0757153
0.636271 0.588357 0.089662
0.687968 0.589792 0.0972
0.73254 0.589975 0.105669
0.772015 0.590051 0.115236
0.813397 0.589487 0.131411
0.848554 0.590249 0.147921
0.877302 0.592889 0.16643
0.901061 0.597055 0.179919
0.92224 0.600931 0.193576
0.934157 0.604837 0.204166
0.936263 0.605005 0.20621
0.936217 0.604242 0.206119
0.936156 0.603555 0.205982
0.936126 0.603037 0.20589
0.936172 0.602625 0.205554
0.936248 0.602243 0.204913
0 0.657954 0.300877
0 0.661982 0.283833
0 0.666392 0.264912
0 0.670893 0.244282
0 0.676204 0.22002
0 0.682033 0.190677
0 0.68806 0.155566
0 0.689677 0.119844
0 0.689281 0.0810559
0.00839246 0.687312 0.0369726
0.0189212 0.683253 0
0.0606699 0.683665 0
0.162554 0.684977 0
0.258213 0.681407 0
0.380346 0.668254 0.0245823
0.527459 0.640742 0.068986
0.591211 0.636057 0.0821088
0.633494 0.635615 0.097261
0.68336 0.635584 0.11162
0.733318 0.63621 0.120287
0.776989 0.635859 0.129778
0.815854 0.636194 0.140322
0.851835 0.635737 0.156756
0.882216 0.636667 0.174746
0.907027 0.639963 0.192279
0.926467 0.64538 0.204944
0.938369 0.650889 0.215427
0.940597 0.652064 0.218296
0.940459 0.651698 0.21828
0.940352 0.651209 0.218082
0.940276 0.650782 0.217929
0.940261 0.650416 0.21767
0.940246 0.650095 0.217273
0 0.703883 0.352056
0 0.707439 0.337667
0 0.71133 0.322225
0 0.715602 0.304845
0 0.720623 0.283818
0 0.72639 0.256443
0 0.73344 0.222721
0 0.738827 0.184482
0 0.740032 0.144961
0.00631724 0.740017 0.100175
0.017258 0.737362 0.047303
0.0346685 0.734371 0
0.119295 0.735485 0
0.230137 0.732708 0
0.331182 0.726741 0.0172427
0.456214 0.710155 0.0548104
0.585962 0.685695 0.0921187
0.641688 0.682399 0.104005
0.681041 0.681544 0.120027
0.728222 0.681208 0.134615
0.776989 0.681102 0.144945
0.819425 0.680217 0.156435
0.855299 0.680644 0.169024
0.887098 0.680949 0.185367
0.912795 0.682658 0.209064
0.932601 0.68658 0.22829
0.944823 0.692271 0.239933
0.947158 0.695369 0.243977
0.947188 0.695552 0.244221
0.947127 0.695186 0.243961
0.947082 0.694865 0.243732
0.947021 0.694591 0.243473
0.94696 0.694362 0.243198
0 0.74934 0.399008
0 0.752377 0.386969
0 0.75584 0.373693
0 0.759548 0.359335
0 0.763882 0.342229
0 0.769284 0.320211
0 0.776074 0.291295
0 0.783764 0.254063
0 0.787839 0.213764
0.00270085 0.789364 0.168826
0.0135348 0.788769 0.116762
0.0268864 0.785748 0.0541543
0.051667 0.782803 0
0.190143 0.783169 0
0.304219 0.777554 0.0188754
0.404959 0.769696 0.0457008
0.527398 0.750835 0.0861372
0.640955 0.729534 0.115877
0.689494 0.727337 0.12697
0.727062 0.726482 0.143664
0.771786 0.726207 0.159274
0.819562 0.724773 0.171359
0.859602 0.724743 0.186587
0.891798 0.725475 0.202655
0.918471 0.726482 0.227863
0.939544 0.728817 0.25095
0.952285 0.733135 0.269474
0.954772 0.737072 0.276814
0.954894 0.737621 0.277028
0.954849 0.737346 0.276493
0.954818 0.737133 0.276112
0.954772 0.736934 0.275929
0.954726 0.736782 0.275746
0 0.795895 0.44239
0 0.798367 0.431876
0 0.801129 0.420401
0 0.804135 0.408225
0 0.807736 0.393698
0 0.812375 0.375463
0 0.818357 0.35201
0 0.825956 0.321019
0 0.833173 0.28246
0 0.836225 0.240696
0.00895705 0.837583 0.1897
0.0217899 0.836988 0.130251
0.0388037 0.834058 0.0582895
0.0942092 0.833646 0
0.269978 0.828351 0.0204471
0.382254 0.82031 0.047776
0.472679 0.812299 0.0750134
0.592126 0.79176 0.11635
0.692714 0.773541 0.140108
0.736217 0.772351 0.151415
0.772213 0.771893 0.168734
0.815793 0.771923 0.185519
0.86099 0.769772 0.201755
0.896681 0.769924 0.221683
0.923827 0.771679 0.250507
0.945602 0.772854 0.279255
0.961212 0.775448 0.302419
0.964477 0.779629 0.314397
0.964691 0.78027 0.31458
0.964706 0.780133 0.313405
0.964675 0.779995 0.312627
0.964691 0.779889 0.31191
0.964675 0.779767 0.311299
0 0.841199 0.4822
0 0.843366 0.472908
0 0.845716 0.463096
0 0.848371 0.452628
0 0.851453 0.440299
0 0.855116 0.424964
0 0.859739 0.405188
0 0.865553 0.379324
0 0.872801 0.346456
0 0.877806 0.308721
0.00440986 0.880964 0.263401
0.0163577 0.882475 0.206226
0.0349889 0.882033 0.138354
0.0719921 0.881041 0.0621805
0.174884 0.880659 0.0195926
0.353552 0.867658 0.050248
0.453864 0.858747 0.0779431
0.53434 0.850584 0.104417
0.651881 0.829267 0.144839
0.74284 0.814481 0.165179
0.781582 0.814939 0.178744
0.81648 0.814801 0.19704
0.858228 0.814069 0.216083
0.89839 0.811795 0.236774
0.928481 0.812253 0.273091
0.951385 0.814267 0.306065
0.969162 0.815641 0.336614
0.973953 0.818051 0.356847
0.974548 0.819181 0.360754
0.974746 0.819333 0.359243
0.97496 0.819348 0.35761
0.975219 0.819348 0.356237
0.975387 0.819364 0.355108
0.004654 0.880735 0.520073
0.00383001 0.882551 0.512093
0.00260929 0.884596 0.503487
0.00144961 0.886809 0.493965
0.000320439 0.889311 0.483024
0 0.892256 0.469551
0 0.895933 0.452628
0 0.900725 0.431205
0 0.906783 0.40351
0.00144961 0.91284 0.369238
0.00854505 0.916365 0.331029
0.0198367 0.919615 0.281971
0.0367742 0.921141 0.218738
0.0630655 0.920714 0.142245
0.109163 0.920653 0.0640574
0.276234 0.915007 0.0491951
0.433555 0.899397 0.0829633
0.520241 0.890913 0.10959
0.597253 0.88246 0.137362
0.709133 0.862623 0.174975
0.790372 0.85156 0.193866
0.825177 0.853025 0.209583
0.859968 0.853468 0.229328
0.897139 0.850889 0.253132
0.930648 0.849821 0.292531
0.95584 0.850523 0.333227
0.974304 0.852613 0.366812
0.982559 0.853529 0.394141
0.983444 0.854612 0.405264
0.983474 0.854826 0.404913
0.983581 0.854856 0.403449
0.98381 0.854871 0.402045
0.984009 0.854902 0.400839
0.0169375 0.915373 0.555352
0.0159457 0.91693 0.548211
0.0145266 0.918715 0.540459
0.0132906 0.920638 0.531899
0.0121309 0.922713 0.522484
0.0115053 0.925155 0.510567
0.0109255 0.928283 0.495552
0.0107576 0.932082 0.477073
0.010956 0.937041 0.452918
0.0123903 0.942962 0.422065
0.0170596 0.947265 0.38822
0.0254673 0.95079 0.346807
0.0381018 0.953902 0.292988
0.0583505 0.955917 0.223407
0.0916304 0.956664 0.141558
0.166613 0.954498 0.0621347
0.378286 0.940887 0.0823987
0.503746 0.927031 0.115267
0.580819 0.919295 0.141817
0.657542 0.910033 0.171313
0.762936 0.892454 0.20502
0.832654 0.885496 0.224216
0.866621 0.886732 0.241123
0.897765 0.88629 0.265202
0.929992 0.88455 0.306569
0.957412 0.88397 0.356786
0.97734 0.884718 0.395407
0.990906 0.885634 0.425361
0.990799 0.885618 0.445777
0.990585 0.885756 0.446906
0.990692 0.885847 0.445151
0.990906 0.885908 0.443687
0.99118 0.885954 0.442634
0.0281834 0.943847 0.58706
0.0277562 0.944991 0.580896
0.0263828 0.946487 0.574105
0.0249943 0.948135 0.566445
0.0236057 0.94995 0.557824
0.022446 0.952071 0.547494
0.0215915 0.954589 0.534493
0.0211032 0.957641 0.518227
0.020737 0.9617 0.497169
0.021149 0.966812 0.469993
0.0239261 0.971893 0.438651
0.0303349 0.975769 0.403067
0.040177 0.979538 0.357824
0.0556954 0.982193 0.301427
0.0810712 0.983734 0.228199
0.12987 0.984527 0.142092
0.261494 0.981643 0.0943465
0.463142 0.962158 0.124331
0.567254 0.950225 0.154559
0.640162 0.942031 0.181567
0.712978 0.932525 0.209735
0.811582 0.917205 0.239368
0.87097 0.912764 0.259495
0.903181 0.913787 0.278248
0.929839 0.913237 0.313069
0.956985 0.913176 0.376364
0.978836 0.912764 0.421241
0.994171 0.912718 0.455207
0.995453 0.912978 0.482399
0.995392 0.91313 0.485496
0.995392 0.913268 0.484138
0.995453 0.913375 0.482795
0.99559 0.913466 0.481636
0.0381628 0.966705 0.617472
0.0381781 0.967575 0.611872
0.0376745 0.968612 0.605982
0.0367285 0.969879 0.599344
0.0352026 0.971435 0.591546
0.0339055 0.973159 0.582238
0.0328832 0.97525 0.570459
0.0317845 0.977874 0.55584
0.0308843 0.981109 0.537362
0.0302434 0.985306 0.513878
0.0324407 0.989197 0.489021
0.0374914 0.99234 0.459846
0.0455329 0.995315 0.423041
0.057557 0.997574 0.375814
0.0769665 0.998947 0.313954
0.114122 0.999817 0.240101
0.210407 0.999969 0.175204
0.370947 0.99826 0.169421
0.531853 0.98262 0.186343
0.624887 0.97023 0.207111
0.69691 0.960174 0.233646
0.762371 0.949676 0.256657
0.85481 0.93756 0.282109
0.906538 0.934905 0.303822
0.934417 0.9355 0.325734
0.955673 0.937057 0.390814
0.978882 0.936416 0.443793
0.994858 0.935714 0.483207
0.997726 0.935683 0.51313
0.997665 0.935912 0.522118
0.997604 0.936065 0.521874
0.99762 0.936156 0.520775
0.997665 0.936217 0.519799
0.0431525 0.975158 0.645319
0.0429694 0.975464 0.639857
0.0426642 0.975875 0.634058
0.0420081 0.976501 0.62826
0.0406806 0.97734 0.621332
0.0390936 0.978195 0.612589
0.0375982 0.979217 0.601633
0.0359808 0.980423 0.588312
0.0359045 0.982223 0.573526
0.0372931 0.984604 0.557244
0.0394141 0.987503 0.537606
0.0435187 0.991226 0.512673
0.0497444 0.995254 0.480735
0.0589914 0.998444 0.440146
0.0743877 0.999939 0.387488
0.102831 0.999969 0.324025
0.177996 0.999969 0.26775
0.320775 0.999969 0.247837
0.452491 0.999527 0.248997
0.584054 0.988861 0.264363
0.675044 0.974594 0.285222
0.742992 0.962631 0.3075
0.80354 0.95198 0.324895
0.882002 0.942535 0.343069
0.927626 0.942107 0.372351
0.951873 0.942946 0.402625
0.974182 0.945342 0.454627
0.993484 0.947494 0.502647
0.998428 0.949248 0.540825
0.998276 0.950225 0.557305
0.998215 0.950332 0.557931
0.998199 0.950332 0.55697
0.99823 0.950286 0.556085
0.0453651 0.975692 0.65539
0.0447089 0.976089 0.650278
0.0440223 0.976562 0.644465
0.0433051 0.976913 0.638514
0.0422827 0.977386 0.631708
0.0411841 0.978012 0.623224
0.0399939 0.979049 0.61297
0.0384527 0.980056 0.599756
0.0370489 0.98146 0.584268
0.0381476 0.98352 0.568368
0.0402991 0.986191 0.549752
0.044358 0.989609 0.528771
0.051133 0.993591 0.505119
0.0601511 0.997147 0.475807
0.0736706 0.999496 0.438544
0.0970779 0.999969 0.39173
0.166766 0.999969 0.347524
0.296986 0.999969 0.326894
0.414313 0.999969 0.317037
0.521492 0.999756 0.321965
0.634272 0.991531 0.33756
0.726207 0.97525 0.359442
0.788586 0.962692 0.378866
0.845914 0.952636 0.393423
0.906813 0.946654 0.408911
0.946197 0.945876 0.435966
0.96762 0.946624 0.466102
0.988769 0.94847 0.511391
0.997848 0.950256 0.555978
0.997299 0.951598 0.584085
0.997192 0.95169 0.585443
0.997284 0.951598 0.584024
0.997482 0.951476 0.582742
0.0507515 0.974655 0.662867
0.0511482 0.974701 0.657908
0.05066 0.975021 0.652216
0.0496376 0.975555 0.646555
0.0484169 0.976104 0.639979
0.0475013 0.976608 0.631815
0.0464637 0.977264 0.621775
0.0454566 0.978408 0.609415
0.0436713 0.979599 0.593851
