bundles/resolve-cinematic-luts/Phantom Luts/P4k & P6k Phntm Arri LUTs - V6/P4K/Gen 4 Colour/Standard (No WB Offset)/P4k Tungsten Gen4-Legacy.cube
TITLE "Generated by Resolve"
LUT_3D_SIZE 9
0.0172122 0.0162661 0.0214389
0.0493935 0.0206149 0.031632
0.158511 0.0327001 0.0496681
0.326894 0.0437324 0.0732891
0.528542 0.0555581 0.11075
0.715297 0.090135 0.170062
0.783749 0.134096 0.217273
0.795575 0.146136 0.230594
0.803113 0.153231 0.239948
0.0259098 0.0733806 0.057145
0.0412146 0.0710765 0.0348363
0.137697 0.0754864 0.0473793
0.28806 0.0732586 0.0571603
0.477668 0.071397 0.0748608
0.689693 0.0917067 0.127932
0.774121 0.132311 0.187518
0.781003 0.13875 0.196216
0.786557 0.143572 0.203204
0.010132 0.172992 0.0957961
0.00668345 0.178729 0.0478828
0.124987 0.176715 0.018555
0.313176 0.179858 0.0433661
0.520256 0.177188 0.0831922
0.724315 0.183307 0.127337
0.81799 0.212665 0.188739
0.815061 0.205631 0.188098
0.81503 0.20473 0.188968
0 0.31194 0.132158
0 0.316808 0.0843671
0 0.310887 0
0.271534 0.329717 0
0.531518 0.356695 0.0374456
0.760876 0.36527 0.131762
0.900984 0.385718 0.229343
0.903944 0.384802 0.232471
0.905821 0.38967 0.23386
0 0.472877 0.222293
0 0.476204 0.184131
0 0.481483 0.0907149
0.0374609 0.478294 0
0.469657 0.503731 0
0.748272 0.546151 0.110674
0.910552 0.580468 0.223163
0.92343 0.591455 0.236042
0.923766 0.600397 0.237659
0 0.662058 0.367651
0 0.665812 0.350332
0 0.670115 0.295918
0 0.662455 0.16997
0.231525 0.673335 0.0170291
0.671885 0.711864 0.107988
0.922835 0.759731 0.281819
0.959747 0.776959 0.333669
0.960433 0.783917 0.336217
0.094377 0.787503 0.50695
0.0914168 0.786191 0.49601
0.0809491 0.780331 0.458579
0.0695659 0.770397 0.37937
0.103532 0.759304 0.214527
0.452552 0.778027 0.12961
0.864088 0.83537 0.285679
0.940612 0.860136 0.429633
0.940032 0.860746 0.433112
0.111177 0.798154 0.54847
0.10573 0.795041 0.533257
0.0923781 0.787198 0.493172
0.0745098 0.774868 0.411048
0.0907607 0.766537 0.279713
0.397681 0.776471 0.17203
0.833753 0.831296 0.289174
0.938491 0.862074 0.453223
0.937774 0.863401 0.460945
0.120089 0.80325 0.570214
0.111284 0.798321 0.546807
0.0952468 0.788861 0.500542
0.0748913 0.774914 0.408423
0.103792 0.768643 0.267628
0.433036 0.778012 0.17319
0.849805 0.834852 0.300893
0.938537 0.862058 0.451011
0.937667 0.86363 0.461646
0.0236973 0.021088 0.0692454
0.0569467 0.0241703 0.0679637
0.162509 0.0320592 0.0975509
0.335134 0.0372015 0.127153
0.536736 0.0495308 0.160739
0.72636 0.0876783 0.212573
0.789685 0.127886 0.253529
0.795926 0.132433 0.264897
0.800107 0.135302 0.272847
0.0256809 0.0604562 0.0663767
0.0309911 0.0560616 0.0643626
0.157549 0.0515908 0.0686198
0.31986 0.048188 0.0781567
0.517449 0.0565194 0.110475
0.709804 0.0880751 0.168261
0.7841 0.134035 0.217929
0.796246 0.146456 0.231556
0.803647 0.153582 0.240665
0.0184634 0.157992 0.123857
0.0162051 0.157824 0.104982
0.105104 0.169696 0.0364385
0.327199 0.157412 0.064744
0.525963 0.150729 0.0911421
0.723461 0.156817 0.135241
0.80119 0.178912 0.187579
0.798215 0.170459 0.190585
0.799466 0.170733 0.19324
0 0.29984 0.176394
0 0.302129 0.14316
0 0.306737 0.026566
0.265858 0.322667 0
0.541039 0.342199 0.0458228
0.773449 0.346181 0.146502
0.89836 0.37142 0.230533
0.898833 0.368353 0.231296
0.901289 0.373617 0.233341
0 0.466575 0.262394
0 0.468452 0.23331
0 0.473564 0.135378
0.00248722 0.474861 0
0.464515 0.498634 0
0.754116 0.541939 0.115923
0.916686 0.57438 0.230106
0.925734 0.582895 0.239322
0.92575 0.591867 0.240452
0.0033875 0.657252 0.393942
0 0.661006 0.377508
0 0.664927 0.326223
0 0.662089 0.197757
0.210559 0.670954 0.0198367
0.668788 0.708659 0.106264
0.926116 0.757336 0.285924
0.959747 0.773342 0.336461
0.960662 0.780682 0.339605
0.0999313 0.789914 0.525322
0.097261 0.78909 0.515404
0.0870069 0.783749 0.480186
0.0702678 0.772015 0.396857
0.0913252 0.759014 0.233356
0.441718 0.777111 0.12842
0.86157 0.834546 0.282353
0.940734 0.860075 0.428763
0.940063 0.8607 0.432685
0.119142 0.802762 0.569162
0.113619 0.799573 0.554269
0.0999008 0.791547 0.51574
0.0768444 0.777081 0.429709
0.0834669 0.766629 0.297902
0.378317 0.775784 0.175326
0.822477 0.82887 0.282811
0.938704 0.861708 0.450095
0.937713 0.863523 0.462181
0.128267 0.807889 0.589685
0.119203 0.80267 0.567269
0.103426 0.793606 0.523964
0.0770123 0.777081 0.428229
0.0896162 0.767163 0.286641
0.407797 0.776699 0.17583
0.835035 0.831739 0.292042
0.938781 0.861692 0.447639
0.937591 0.863783 0.463035
0.0281682 0.0267643 0.162203
0.0874342 0.0261997 0.16083
0.170275 0.0329595 0.156893
0.333639 0.0412146 0.199344
0.539452 0.0498054 0.237186
0.734783 0.0800336 0.277668
0.788525 0.111406 0.306905
0.792721 0.114534 0.317403
0.796094 0.116793 0.326818
0.00987259 0.052491 0.124681
0.0102235 0.0324865 0.143267
0.147082 0.0344701 0.144289
0.319875 0.04065 0.163195
0.530159 0.0475319 0.199664
0.727825 0.0834821 0.240711
0.792126 0.123125 0.27747
0.797253 0.127031 0.287465
0.801282 0.129625 0.296529
0.0176089 0.151904 0.151675
0.0188754 0.148989 0.14995
0.129213 0.151644 0.158007
0.346014 0.137331 0.16054
0.570077 0.115892 0.163561
0.7411 0.115373 0.1906
0.790997 0.142123 0.223011
0.797864 0.148974 0.231495
0.805127 0.156298 0.239857
0 0.290425 0.220996
0 0.288136 0.206134
0 0.288563 0.144732
0.27245 0.319966 0.0621653
0.563973 0.319005 0.119951
0.807004 0.311498 0.185153
0.893904 0.335836 0.242588
0.891554 0.329763 0.241932
0.894606 0.335012 0.244785
0 0.460243 0.311299
0 0.460288 0.295476
0 0.458 0.226261
0 0.468879 0.0237125
0.455833 0.490135 0.00404364
0.76527 0.532952 0.135363
0.929747 0.560327 0.248569
0.93402 0.564431 0.25417
0.934844 0.573175 0.256916
0.0125277 0.650111 0.428122
0.00972 0.653559 0.417624
0 0.65597 0.374517
0 0.659205 0.246693
0.156954 0.667033 0.0336156
0.661494 0.701701 0.102235
0.930694 0.751049 0.292836
0.958633 0.765896 0.340658
0.960189 0.772778 0.344884
0.10869 0.793606 0.552483
0.106981 0.793759 0.54461
0.0968795 0.788937 0.512398
0.0737163 0.77525 0.42681
0.0780499 0.760357 0.268681
0.420157 0.775341 0.126055
0.856474 0.832776 0.275654
0.940978 0.859922 0.426322
0.940383 0.860456 0.430259
0.131975 0.809995 0.599466
0.126757 0.807034 0.586938
0.113375 0.799374 0.55259
0.0857404 0.783093 0.469169
0.0759442 0.768292 0.332555
0.338201 0.775326 0.182879
0.795819 0.82356 0.269154
0.938964 0.861067 0.44358
0.937606 0.863752 0.463935
0.141878 0.815564 0.620127
0.134295 0.811261 0.602991
0.118349 0.802075 0.563928
0.0875105 0.784085 0.473259
0.0772869 0.768002 0.32604
0.35642 0.775555 0.183246
0.802991 0.825132 0.275151
0.939239 0.861158 0.441825
0.937453 0.864073 0.465202
0.0520638 0.0335241 0.308217
0.112734 0.0307164 0.305821
0.203479 0.0301671 0.291493
0.342428 0.0412451 0.29337
0.525536 0.054139 0.346822
0.748837 0.0861372 0.374121
0.787503 0.1028 0.398581
0.788037 0.103273 0.405509
0.789105 0.104158 0.414359
0 0.047013 0.254414
0.0289311 0.0333257 0.287434
0.172305 0.0285496 0.291112
0.324956 0.0404212 0.277394
0.513542 0.0540932 0.320592
0.741039 0.0834058 0.354131
0.787243 0.103029 0.371939
0.789029 0.104707 0.379705
0.790509 0.105928 0.388754
0 0.140993 0.241352
0 0.132799 0.252857
0.105196 0.108721 0.325017
0.325704 0.0875105 0.28632
0.520546 0.0735637 0.28687
0.728893 0.0796063 0.304067
0.793408 0.113756 0.328527
0.797528 0.117388 0.337575
0.800549 0.11957 0.346853
0.00244144 0.288548 0.277256
0.00311284 0.286992 0.275975
0.0143282 0.283604 0.272312
0.30016 0.306401 0.304601
0.577783 0.290333 0.310307
0.8636 0.268544 0.321309
0.8925 0.263935 0.322942
0.887327 0.254871 0.320897
0.891249 0.258762 0.327733
0.000274662 0.461769 0.372656
0 0.461265 0.366476
0 0.454002 0.338659
0 0.455192 0.236637
0.447532 0.489418 0.162036
0.796948 0.515908 0.242649
0.955673 0.534661 0.308049
0.957687 0.532418 0.312856
0.959121 0.540505 0.318654
0.0279545 0.643641 0.477272
0.0269017 0.646616 0.472679
0.0197604 0.646204 0.448218
0 0.64361 0.35761
0.0512398 0.661479 0.115999
0.646464 0.689601 0.103288
0.936522 0.738964 0.310445
0.954131 0.750729 0.351308
0.955535 0.756588 0.357519
0.120394 0.795727 0.589685
0.11986 0.796811 0.585824
0.112154 0.793729 0.563668
0.0903029 0.783459 0.495232
0.0686351 0.765499 0.333791
0.368277 0.772412 0.125673
0.846296 0.829328 0.26244
0.942428 0.858396 0.422751
0.941909 0.858808 0.427268
0.152773 0.821653 0.644526
0.148974 0.819608 0.636118
0.137774 0.813184 0.611154
0.110704 0.797757 0.543557
0.0748608 0.773877 0.394965
0.26479 0.776318 0.203098
0.725948 0.810162 0.241428
0.93959 0.860075 0.432258
0.937484 0.864179 0.467521
0.163684 0.827527 0.666499
0.157534 0.824186 0.653284
0.145266 0.817395 0.626322
0.115358 0.800137 0.554192
0.0754864 0.774273 0.396704
0.274815 0.776593 0.203738
0.722591 0.810178 0.243244
0.939223 0.859648 0.424536
0.937301 0.86453 0.469337
0.10164 0.0437476 0.484001
0.157809 0.0399939 0.483299
0.259739 0.033463 0.474876
0.368719 0.0407111 0.449363
0.534874 0.0549477 0.460624
0.74548 0.0866102 0.503243
0.783276 0.102525 0.509804
0.783078 0.102953 0.516655
0.783001 0.103777 0.526329
0 0.0452277 0.435492
0.0833295 0.0440223 0.473442
0.217334 0.0355077 0.47628
0.349401 0.0392462 0.446616
0.522591 0.0542306 0.450324
0.739773 0.0845502 0.490303
0.784649 0.102632 0.493751
0.78471 0.103105 0.499825
0.784909 0.104021 0.51017
0 0.0952926 0.391775
0 0.078584 0.404547
0.0973831 0.0452125 0.473106
0.311864 0.037705 0.447486
0.500526 0.0529335 0.430716
0.72842 0.0813153 0.462715
0.78616 0.102617 0.464836
0.786404 0.103075 0.469764
0.786999 0.10396 0.478508
0.0068513 0.28455 0.411505
0.0049897 0.279088 0.419242
0.00192264 0.259815 0.439857
0.29752 0.234485 0.54519
0.546288 0.203891 0.48806
0.813581 0.178424 0.481239
0.83888 0.162875 0.473716
0.83386 0.156619 0.469337
0.835981 0.159518 0.479072
0.0160372 0.471565 0.451591
0.0159457 0.47277 0.453193
0.016907 0.469886 0.450172
0.090074 0.477836 0.458366
0.478782 0.484916 0.47567
0.809873 0.486915 0.50013
0.987747 0.482689 0.514199
0.987793 0.470665 0.508171
0.987549 0.477165 0.516258
0.050721 0.644388 0.543313
0.0516213 0.647562 0.544091
0.0492409 0.646052 0.533089
0.0392767 0.636225 0.497612
0.146029 0.633951 0.395727
0.607935 0.672358 0.335668
0.93753 0.722774 0.445533
0.953414 0.726024 0.429877
0.953399 0.73051 0.4374
0.141665 0.800687 0.645457
0.142687 0.802502 0.64535
0.137713 0.800259 0.633021
0.121569 0.79173 0.594491
0.0889296 0.778714 0.485756
0.267475 0.776349 0.25417
0.823392 0.827543 0.294835
0.94374 0.854215 0.442206
0.94342 0.854719 0.446464
0.188067 0.840757 0.71368
0.185855 0.839551 0.709331
0.177951 0.835264 0.693233
0.158221 0.824353 0.651408
0.111986 0.797925 0.539773
0.156741 0.779858 0.28867
0.612573 0.793927 0.221195
0.938125 0.85893 0.420462
0.937072 0.865599 0.478431
0.201434 0.848051 0.737133
0.197162 0.845716 0.729091
0.187945 0.840589 0.711208
0.166186 0.828672 0.666743
0.117678 0.801038 0.552377
0.166201 0.781933 0.304982
0.595728 0.79205 0.223026
0.927382 0.855314 0.39585
0.937011 0.865888 0.480232
0.181064 0.0578622 0.649256
0.226764 0.0546426 0.65359
0.31545 0.0481727 0.654948
0.424155 0.0455024 0.638239
0.547005 0.0600748 0.627619
0.735576 0.0954452 0.621378
0.764691 0.109483 0.639139
0.76376 0.110323 0.64477
0.762615 0.112047 0.654124
0.100374 0.0593271 0.618799
0.166705 0.0580758 0.642756
0.276387 0.0507362 0.653925
0.404562 0.0445411 0.638941
0.533959 0.0585946 0.624628
0.730465 0.0931106 0.616251
0.764569 0.109422 0.639292
0.764752 0.110063 0.641108
0.763943 0.111681 0.649454
0 0.0586862 0.538476
6.10361e-05 0.057969 0.561288
0.176165 0.0565957 0.639719
0.363058 0.0445563 0.6421
0.509361 0.0559548 0.61886
0.719875 0.0883955 0.604776
0.766369 0.107958 0.628199
0.765469 0.108995 0.634882
0.765194 0.110506 0.641627
0 0.22916 0.568124
0 0.217121 0.573388
0 0.181598 0.581827
0.270802 0.111482 0.705684
0.496406 0.0869001 0.65745
0.708812 0.0882887 0.596674
0.772808 0.106233 0.598077
0.772747 0.106279 0.59855
0.77203 0.107851 0.608881
0.0293126 0.487068 0.603693
0.0294957 0.486793 0.610269
0.028687 0.479988 0.619242
0.115007 0.486534 0.691112
0.508003 0.442679 0.772229
0.778592 0.39852 0.692866
0.921233 0.376593 0.696391
0.917983 0.361883 0.691585
0.918608 0.368368 0.700923
0.0771649 0.654185 0.627726
0.0794995 0.658228 0.631983
0.0809186 0.659281 0.632898
0.0807813 0.655482 0.628321
0.299931 0.672236 0.649027
0.662074 0.670375 0.658991
0.950698 0.683009 0.69131
0.977905 0.68101 0.6981
0.976898 0.685069 0.703731
0.171237 0.808118 0.715908
0.173678 0.810712 0.718563
0.171054 0.80914 0.712551
0.161944 0.802472 0.693248
0.160647 0.797421 0.654475
0.3888 0.783948 0.57438
0.801404 0.837034 0.556237
0.955673 0.867521 0.638788
0.955657 0.86891 0.644495
0.236957 0.867781 0.795483
0.23653 0.867643 0.794675
0.231998 0.86508 0.786603
0.220478 0.858595 0.765759
0.192721 0.842649 0.7131
0.280262 0.817685 0.600381
0.553826 0.823651 0.506966
0.926436 0.876249 0.557198
0.940887 0.88867 0.609735
0.251102 0.875792 0.817182
0.249027 0.874632 0.813397
0.243473 0.871534 0.803708
0.230152 0.863905 0.78056
0.2 0.846632 0.72491
0.288579 0.820752 0.613977
0.535546 0.822919 0.514366
0.90602 0.871321 0.541039
0.939712 0.886641 0.598306
0.262989 0.0820935 0.742992
0.291981 0.0806897 0.748592
0.353613 0.0776226 0.756649
0.447761 0.0749981 0.758541
0.562921 0.084184 0.751965
0.7084 0.115923 0.740734
0.73463 0.12639 0.747189
0.73312 0.127947 0.753033
0.732647 0.129427 0.757214
0.210147 0.082475 0.725856
0.251789 0.0821241 0.739345
0.3234 0.0785534 0.752468
0.428107 0.0746929 0.75819
0.549661 0.0814527 0.751003
0.702327 0.113832 0.739879
0.735576 0.125795 0.744335
0.73402 0.127581 0.750851
0.733211 0.129168 0.755795
0.0708934 0.0780194 0.657679
0.138949 0.0801709 0.693248
0.252674 0.0807507 0.73727
0.389578 0.0746777 0.755962
0.525887 0.0776684 0.749935
0.690547 0.109957 0.738155
0.737591 0.124285 0.73753
0.735988 0.125902 0.743908
0.734859 0.127886 0.750378
0 0.13904 0.633982
0 0.122911 0.630777
0.0087129 0.0855573 0.622507
0.279866 0.0789044 0.742153
0.472007 0.0738384 0.751019
0.661067 0.101946 0.73637
0.742473 0.121706 0.723278
0.741695 0.122927 0.727626
0.740093 0.124819 0.734981
0.0453803 0.459236 0.730632
0.0475624 0.456413 0.736416
0.0504616 0.441764 0.745556
0.156313 0.430243 0.843961
0.534951 0.364721 0.978943
0.776852 0.308064 0.903746
0.863828 0.276555 0.854063
0.858122 0.265293 0.844251
0.863905 0.27718 0.854826
0.120012 0.671748 0.757763
0.124743 0.675944 0.764904
0.128405 0.676112 0.772534
0.146151 0.67509 0.797238
0.374472 0.730358 0.919448
0.708415 0.657572 0.939605
0.913451 0.612222 0.864515
0.934096 0.602411 0.869169
0.934127 0.60763 0.874693
0.208286 0.821103 0.793957
0.21178 0.82446 0.798016
0.21239 0.824796 0.798184
0.212024 0.82327 0.795499
0.236683 0.831647 0.801755
0.547066 0.846616 0.826551
0.841856 0.850767 0.840024
0.95227 0.854444 0.854185
0.952102 0.854826 0.858595
0.290211 0.897169 0.86305
0.292943 0.898741 0.865125
0.294606 0.899275 0.864179
0.294194 0.898451 0.858595
0.287404 0.892256 0.839841
0.454871 0.898405 0.839902
0.698558 0.905394 0.835721
0.933043 0.929549 0.811383
0.955032 0.937575 0.852903
0.308431 0.90634 0.880064
0.30956 0.906905 0.880156
0.309728 0.906584 0.877592
0.308705 0.905165 0.870802
0.299809 0.898558 0.850782
0.455329 0.901152 0.845792
0.679347 0.906249 0.844465
0.899443 0.926802 0.806394
0.954299 0.936492 0.840696
0.32639 0.0880446 0.770169
0.348714 0.0873121 0.773587
0.398184 0.0862287 0.778714
0.47982 0.0861524 0.779583
0.5944 0.0976425 0.772992
0.716197 0.124331 0.760021
0.732097 0.13019 0.759686
0.73228 0.130327 0.759701
0.732403 0.130663 0.760327
0.290608 0.0888685 0.762814
0.318914 0.0882124 0.768841
0.373022 0.0865644 0.776364
0.462104 0.0858778 0.780194
0.580087 0.0953384 0.773983
0.711391 0.123186 0.760906
0.732158 0.130251 0.759731
0.732357 0.13051 0.760037
0.732479 0.130892 0.760784
0.185077 0.0890059 0.728069
0.238422 0.0897993 0.748516
0.3205 0.0883345 0.769284
0.428382 0.0858473 0.780148
0.554543 0.09131 0.775006
0.701686 0.121111 0.762905
0.732189 0.130022 0.759106
0.732433 0.130327 0.759441
0.73257 0.130922 0.760678
0.0557565 0.102632 0.673106
0.0658427 0.0892805 0.671794
0.111315 0.0871138 0.69398
0.34258 0.08748 0.772702
0.500603 0.0876783 0.779385
0.677272 0.116777 0.768414
0.732296 0.130037 0.758984
0.732616 0.130358 0.759228
0.73283 0.131075 0.760647
0.0989548 0.425986 0.808698
0.104982 0.423117 0.814466
0.115389 0.404578 0.822034
0.233463 0.365301 0.893065
0.547692 0.284459 0.950347
0.773098 0.248157 0.886336
0.821515 0.231724 0.84773
0.815717 0.224216 0.84152
0.824643 0.236088 0.851514
0.171237 0.675258 0.849592
0.176577 0.679576 0.855268
0.182635 0.680186 0.863111
0.21355 0.682612 0.894057
0.431022 0.714717 1
0.760708 0.611276 1
0.92195 0.569619 0.948486
0.93106 0.561837 0.945251
0.931136 0.568368 0.94696
0.247883 0.835004 0.86923
0.250675 0.837537 0.872068
0.255558 0.839567 0.877211
0.272999 0.845426 0.892363
0.344839 0.867033 0.936812
0.626215 0.891981 0.97705
0.867582 0.819028 0.958144
0.938567 0.806287 0.935607
0.938689 0.807385 0.936278
0.327642 0.916014 0.902556
0.330144 0.917372 0.904738
0.330739 0.917067 0.904402
0.331579 0.916213 0.902922
0.33344 0.914122 0.898466
0.516625 0.932952 0.921096
0.777371 0.936599 0.930175
0.934188 0.937255 0.933822
0.949966 0.93637 0.934478
0.346777 0.924865 0.916548
0.348669 0.925689 0.917571
0.351324 0.926329 0.917754
0.353384 0.926192 0.915206
0.357824 0.925155 0.908736
0.523339 0.936492 0.922591
0.763714 0.94345 0.93489
0.911833 0.947799 0.939681
0.952728 0.949065 0.933867
0.338369 0.0876173 0.77203
0.359808 0.0871138 0.775097
0.406729 0.0858625 0.778988
0.487892 0.0864271 0.779263
0.603204 0.0991531 0.772335
0.720287 0.125216 0.759091
0.731868 0.129946 0.759441
0.732372 0.130465 0.759899
0.732464 0.1308 0.760571
0.305287 0.0886549 0.766155
0.331716 0.0880293 0.771237
0.382437 0.0863966 0.777325
0.469657 0.0857557 0.779721
0.588632 0.0968185 0.773602
0.715496 0.123995 0.759823
0.731929 0.130022 0.759518
0.732418 0.130587 0.760098
0.73254 0.131014 0.760983
0.211307 0.0893111 0.738384
0.260182 0.0897231 0.755383
0.332647 0.0880293 0.77142
0.435889 0.0854963 0.779965
0.562448 0.092546 0.774823
0.705653 0.121843 0.761944
0.732021 0.129854 0.758938
0.732494 0.130388 0.759503
0.732631 0.130983 0.760739
0.06804 0.0930343 0.675914
0.0750439 0.0875563 0.676341
0.139483 0.088365 0.708324
0.354864 0.0872358 0.774487
0.507973 0.0877546 0.778607
0.681605 0.117357 0.767224
0.73225 0.129992 0.758923
0.732662 0.130419 0.759304
0.732845 0.131106 0.760662
0.142245 0.409689 0.844526
0.140871 0.403922 0.842756
0.135821 0.382742 0.835279
0.230594 0.335866 0.881971
0.538766 0.257404 0.932815
0.758572 0.228275 0.87245
0.808515 0.215518 0.834607
0.800534 0.205951 0.826444
0.811826 0.220142 0.838987
0.223423 0.68957 0.904082
0.226947 0.693141 0.906676
0.226047 0.690379 0.906508
0.236851 0.68159 0.916686
0.429679 0.701396 1
0.761273 0.593668 1
0.921721 0.555611 0.948058
0.930419 0.548516 0.945678
0.93051 0.556115 0.946242
0.294469 0.854246 0.916091
0.295872 0.856443 0.916777
0.29543 0.855482 0.916838
0.314443 0.858946 0.92987
0.37821 0.868711 0.957137
0.636164 0.883909 0.985672
0.879316 0.795453 0.960006
0.938277 0.787396 0.943816
0.938323 0.78999 0.944228
0.330861 0.917144 0.910689
0.333959 0.918593 0.912917
0.338491 0.920119 0.915221
0.347234 0.922316 0.918975
0.367376 0.925261 0.92723
0.545785 0.941924 0.946029
0.795743 0.940978 0.951476
0.937423 0.927489 0.948119
0.947082 0.927001 0.946258
0.349599 0.925948 0.918242
0.35172 0.926863 0.919692
0.355459 0.928084 0.920989
0.363043 0.930282 0.923247
0.376379 0.933349 0.926421
0.530312 0.945205 0.940703
0.761929 0.948775 0.946746
0.919356 0.950347 0.950057
0.951095 0.950195 0.949554
