bundles/resolve-cinematic-luts/Phantom Luts/P4k & P6k Phntm Arri LUTs - V6/P4K/Gen 4 Colour/Standard (No WB Offset)/P4k IceBlue Gen4.cube
TITLE "Generated by Resolve"
LUT_3D_SIZE 33
0.0243229 0.0364233 0.0327916
0.0243381 0.0364233 0.0327611
0.0287022 0.036286 0.0341955
0.0412451 0.0359503 0.035462
0.0599832 0.0360723 0.0365148
0.0809491 0.0363928 0.0372473
0.106004 0.0367437 0.0374762
0.138582 0.0373541 0.0377356
0.177646 0.0377661 0.0374609
0.221134 0.0384527 0.0384985
0.269856 0.0394598 0.0401923
0.319799 0.0404822 0.0426337
0.370291 0.0421302 0.0468147
0.419364 0.0444495 0.051545
0.466087 0.0478981 0.0583047
0.506554 0.0537423 0.0681926
0.541192 0.061799 0.0808576
0.570779 0.0719615 0.0951858
0.602579 0.0822309 0.108858
0.633494 0.093904 0.123827
0.662654 0.106859 0.139101
0.689677 0.120821 0.154269
0.714839 0.13611 0.169528
0.73753 0.152651 0.1841
0.750515 0.165499 0.19472
0.755642 0.172732 0.201022
0.758785 0.176745 0.2056
0.760876 0.178836 0.209155
0.762325 0.179736 0.212421
0.764035 0.180102 0.217075
0.765728 0.180148 0.222095
0.767666 0.179416 0.229068
0.769528 0.17847 0.236316
0.024445 0.0363928 0.0326085
0.0243839 0.036408 0.0326848
0.0249027 0.036286 0.0325933
0.0350042 0.0366217 0.0356146
0.05243 0.0373541 0.0362249
0.0729229 0.0380865 0.0372778
0.0974746 0.0387732 0.0379339
0.129122 0.0394598 0.0382849
0.168841 0.040116 0.0380255
0.212497 0.041062 0.0373999
0.261875 0.0421149 0.0373388
0.313191 0.0434272 0.0376898
0.365698 0.0450599 0.0393683
0.416587 0.0472267 0.0430762
0.463859 0.0497749 0.0487068
0.503853 0.0542611 0.0571908
0.537377 0.0612039 0.068986
0.568261 0.0704814 0.0834058
0.599664 0.0800488 0.0978103
0.630167 0.0912184 0.113481
0.659373 0.103502 0.129717
0.685863 0.116533 0.144656
0.710903 0.131121 0.159777
0.733257 0.146792 0.174334
0.744717 0.158572 0.183871
0.749447 0.165103 0.1897
0.75288 0.169787 0.194461
0.756222 0.17409 0.199207
0.758495 0.176577 0.203113
0.761242 0.178912 0.208484
0.763546 0.179858 0.214054
0.76611 0.180011 0.221714
0.768093 0.179217 0.228794
0.0245212 0.0387579 0.0345159
0.0244144 0.0380102 0.0336461
0.0247807 0.0372015 0.0333104
0.0286259 0.0380865 0.0348516
0.0433356 0.0388495 0.0368048
0.0625925 0.0399634 0.0376593
0.0867018 0.0413519 0.0386969
0.117357 0.0425422 0.0397192
0.157382 0.0436408 0.040177
0.202762 0.0447089 0.0396887
0.251255 0.0458534 0.0383612
0.304128 0.0472725 0.0374609
0.355489 0.0489967 0.0371405
0.406226 0.0512245 0.0386206
0.454139 0.0542611 0.0417334
0.496544 0.058854 0.0484321
0.53196 0.064683 0.0597238
0.56434 0.0722972 0.0737316
0.596033 0.0812238 0.0885786
0.625986 0.0910353 0.103792
0.654292 0.101961 0.118914
0.681117 0.11429 0.134539
0.705501 0.12697 0.149035
0.727535 0.14168 0.163012
0.738888 0.152499 0.172107
0.742992 0.157748 0.177172
0.745708 0.161501 0.180911
0.748837 0.165499 0.18526
0.751537 0.168704 0.189578
0.754482 0.171359 0.195132
0.757198 0.173144 0.200824
0.760113 0.173663 0.208759
0.762219 0.173053 0.215991
0.0256352 0.0517586 0.0423896
0.0258183 0.0516213 0.0401007
0.026688 0.0503395 0.0391089
0.0334173 0.049012 0.038468
0.0450904 0.0505531 0.039765
0.0625772 0.0519417 0.0415351
0.0854047 0.0530098 0.0422827
0.113924 0.0534981 0.0425422
0.151095 0.0531014 0.0423896
0.194812 0.0526741 0.042359
0.241291 0.0522469 0.0408179
0.292439 0.0522164 0.0394446
0.345159 0.053315 0.0383001
0.394858 0.0558785 0.0359045
0.444175 0.0590219 0.0379492
0.488014 0.0636454 0.0425422
0.52575 0.0695354 0.0534218
0.559014 0.0773022 0.0655528
0.590906 0.085832 0.0786145
0.622599 0.095552 0.0959945
0.652049 0.105913 0.112551
0.679225 0.117525 0.128344
0.703609 0.130037 0.142916
0.726024 0.144549 0.157198
0.739818 0.156725 0.167544
0.742702 0.16025 0.171206
0.745007 0.163149 0.174487
0.747341 0.166018 0.177996
0.749416 0.168292 0.181399
0.751522 0.169711 0.18584
0.753765 0.170977 0.190829
0.756451 0.171145 0.198398
0.758938 0.170886 0.205951
0.0271458 0.0757 0.0558785
0.0274205 0.0764324 0.0503548
0.027451 0.0748913 0.0469062
0.0327306 0.0720378 0.0459144
0.049836 0.0714275 0.0452888
0.0683757 0.0730602 0.0444648
0.091371 0.0742351 0.0466011
0.1205 0.0744335 0.0465095
0.156878 0.07364 0.0455329
0.198199 0.071107 0.0440986
0.243931 0.068574 0.0427863
0.2934 0.0666361 0.0412451
0.343297 0.0654002 0.0394141
0.391928 0.0656901 0.038117
0.438804 0.0666209 0.0375067
0.481239 0.0686503 0.0391546
0.520607 0.0738994 0.0489662
0.554559 0.0820478 0.0598154
0.586358 0.0911116 0.0714885
0.616663 0.101442 0.0848707
0.648371 0.11281 0.104082
0.677089 0.125338 0.121523
0.703578 0.138857 0.138491
0.727199 0.153857 0.154177
0.744305 0.16733 0.166644
0.747417 0.17052 0.170413
0.749142 0.172641 0.173312
0.751095 0.174838 0.176333
0.75288 0.176669 0.179309
0.754665 0.17792 0.182956
0.756085 0.178302 0.186847
0.758373 0.178149 0.193637
0.760815 0.177691 0.200916
0.0276036 0.103944 0.0683757
0.0276493 0.106004 0.0600748
0.0277409 0.105455 0.0525521
0.0278019 0.102739 0.0503395
0.0401007 0.100542 0.0497597
0.0677806 0.100069 0.0475471
0.0934005 0.100938 0.0458381
0.12517 0.101061 0.0466468
0.166064 0.099855 0.0468452
0.208392 0.0979171 0.0465095
0.25359 0.0941634 0.0450752
0.303197 0.0894789 0.0445563
0.353353 0.086656 0.0437171
0.401907 0.0854047 0.0432898
0.447181 0.0851301 0.0429236
0.488212 0.0857099 0.0443275
0.522774 0.0876478 0.0490425
0.555062 0.0923781 0.0577249
0.584985 0.0982834 0.0683299
0.614176 0.108202 0.0800488
0.645411 0.120058 0.0978256
0.674052 0.134508 0.113344
0.701167 0.149981 0.130129
0.725887 0.16614 0.145846
0.746151 0.181445 0.159304
0.749554 0.184146 0.163546
0.752224 0.186603 0.167452
0.754437 0.188708 0.170687
0.755703 0.190265 0.17258
0.75729 0.191318 0.17554
0.759258 0.19205 0.179721
0.762066 0.191897 0.18706
0.765026 0.191608 0.194949
0.0271611 0.136828 0.0800031
0.0270237 0.140291 0.0677501
0.026688 0.1411 0.0565194
0.0267338 0.138827 0.0522164
0.0298924 0.135775 0.0523842
0.0513619 0.134768 0.051194
0.0905776 0.133654 0.0475166
0.121981 0.134066 0.0458076
0.163989 0.132952 0.0450752
0.211856 0.130632 0.0448615
0.262638 0.12639 0.0443275
0.313405 0.122057 0.0436561
0.363714 0.116732 0.0446784
0.411978 0.113771 0.0453346
0.458396 0.112688 0.0471504
0.500969 0.113436 0.050309
0.536965 0.115984 0.0561532
0.569345 0.120302 0.0642863
0.598032 0.124926 0.0739452
0.624506 0.130526 0.0850233
0.650645 0.138689 0.0978256
0.676051 0.148409 0.111711
0.700587 0.160632 0.126177
0.725292 0.1776 0.141115
0.746365 0.193942 0.153948
0.751888 0.199451 0.158068
0.754131 0.202502 0.160464
0.755932 0.204974 0.162356
0.757504 0.20737 0.163882
0.759182 0.209277 0.166155
0.760906 0.210269 0.169131
0.762966 0.210758 0.173449
0.764965 0.211353 0.177859
0.0267643 0.174319 0.0944228
0.0263828 0.178805 0.0802014
0.0259251 0.181384 0.0645457
0.0258335 0.180545 0.0545815
0.0258488 0.177188 0.053193
0.0343786 0.175921 0.0531624
0.0666514 0.175036 0.0506142
0.116335 0.173724 0.0459907
0.155398 0.17438 0.0441749
0.206165 0.173053 0.0439002
0.259098 0.170474 0.0421912
0.319615 0.16434 0.0419013
0.375235 0.158938 0.0434424
0.422721 0.154269 0.0460365
0.469123 0.149935 0.0503853
0.513237 0.149645 0.055314
0.551995 0.152743 0.063508
0.585962 0.157259 0.0728771
0.616037 0.163073 0.0832532
0.643549 0.169863 0.09514
0.669032 0.176928 0.107866
0.693309 0.184985 0.121538
0.71516 0.1935 0.134707
0.735973 0.204028 0.147601
0.754253 0.215335 0.159045
0.760021 0.218189 0.162432
0.759625 0.217487 0.162112
0.760861 0.219928 0.162966
0.762158 0.222553 0.163851
0.763241 0.224414 0.165057
0.764797 0.226246 0.167208
0.766979 0.227466 0.171206
0.770016 0.230152 0.17615
0.025742 0.215152 0.108431
0.0253452 0.21976 0.0944228
0.0247654 0.223499 0.0757153
0.024445 0.224506 0.0599832
0.0243534 0.222431 0.0530098
0.0245975 0.219226 0.0530251
0.0386358 0.220035 0.0520333
0.0819562 0.21915 0.0486
0.143633 0.217502 0.0431678
0.192889 0.218387 0.0411994
0.250385 0.217304 0.0414282
0.310124 0.214755 0.0389258
0.374929 0.20914 0.0396887
0.432273 0.203098 0.0430304
0.480827 0.199298 0.0487221
0.524071 0.196445 0.0561227
0.564584 0.195651 0.0681773
0.601267 0.199557 0.0809796
0.633494 0.205371 0.0935378
0.66215 0.212345 0.106737
0.689525 0.220706 0.121019
0.714397 0.229313 0.135393
0.736584 0.238392 0.149096
0.756207 0.247562 0.16141
0.773114 0.25687 0.17232
0.780438 0.260166 0.177081
0.778958 0.257343 0.175891
0.778195 0.256031 0.175235
0.777859 0.255451 0.17496
0.777905 0.254887 0.175463
0.778714 0.255314 0.176989
0.781201 0.257099 0.181231
0.785183 0.262028 0.186679
0.0246433 0.258762 0.121874
0.0241245 0.263355 0.108598
0.0236362 0.268025 0.0912032
0.0231785 0.270344 0.0717327
0.0229496 0.268986 0.0564584
0.0231327 0.266163 0.052079
0.0247654 0.26482 0.0525063
0.0451209 0.267231 0.0504921
0.0977188 0.266667 0.0458839
0.174289 0.265141 0.0399634
0.234119 0.265888 0.0378576
0.298466 0.265492 0.0388647
0.363882 0.264012 0.0379187
0.427222 0.260395 0.0382544
0.486793 0.254826 0.0442206
0.535546 0.251453 0.0538491
0.574899 0.252201 0.0666514
0.613397 0.252323 0.084184
0.648447 0.2533 0.102403
0.679881 0.259693 0.11899
0.708675 0.267613 0.135119
0.734951 0.276432 0.150958
0.7579 0.285557 0.165408
0.777874 0.294972 0.178195
0.794934 0.304433 0.189441
0.803723 0.309148 0.195254
0.803037 0.307149 0.194766
0.801999 0.305119 0.193942
0.801511 0.303914 0.193637
0.801877 0.304067 0.194369
0.803342 0.305898 0.196277
0.805722 0.308934 0.199802
0.809979 0.314626 0.205142
0.0237736 0.305028 0.136553
0.0233921 0.310124 0.124468
0.0231022 0.314443 0.108812
0.0227054 0.317617 0.0897383
0.0225528 0.318013 0.071397
0.0224308 0.316258 0.0563516
0.0224613 0.312795 0.0522164
0.0282444 0.313985 0.0520027
0.0538643 0.317754 0.0487678
0.117327 0.316793 0.0428779
0.209598 0.315785 0.0363928
0.280232 0.31693 0.035172
0.34931 0.3178 0.0372015
0.41677 0.3178 0.0387884
0.477989 0.316442 0.0402075
0.537057 0.311986 0.0487678
0.583856 0.309834 0.0646067
0.623255 0.312428 0.0837415
0.658686 0.315709 0.103456
0.692805 0.316869 0.124956
0.724788 0.319127 0.146853
0.753155 0.32462 0.165805
0.777127 0.333196 0.18146
0.798413 0.342367 0.195697
0.815274 0.350713 0.207187
0.826169 0.356558 0.214771
0.825818 0.355077 0.214588
0.825177 0.353674 0.214084
0.824964 0.353109 0.213977
0.825437 0.353872 0.214557
0.826505 0.355688 0.215839
0.828717 0.359457 0.218585
0.832227 0.36524 0.222858
0.0232853 0.352895 0.154452
0.0230716 0.357168 0.142596
0.0227207 0.361074 0.127993
0.0226139 0.364431 0.110872
0.022385 0.366629 0.0922408
0.0223239 0.366323 0.0737926
0.0222171 0.364172 0.0572824
0.0221866 0.361486 0.0528878
0.0333562 0.363729 0.0505531
0.0668956 0.367636 0.0462654
0.145907 0.366995 0.0398718
0.252171 0.366705 0.0334173
0.330495 0.368368 0.0336614
0.400275 0.369955 0.0372931
0.467567 0.371527 0.0417334
0.52604 0.37174 0.0461128
0.58117 0.369604 0.0605936
0.629343 0.369055 0.0833753
0.667659 0.371038 0.105638
0.700999 0.375906 0.12665
0.735164 0.378988 0.150393
0.766735 0.381598 0.173571
0.793729 0.386175 0.193988
0.815824 0.390814 0.210666
0.833936 0.39736 0.224216
0.846998 0.404166 0.233799
0.846403 0.402869 0.233173
0.846265 0.402335 0.233097
0.846281 0.402197 0.233158
0.846464 0.402945 0.233341
0.847532 0.405554 0.234272
0.849744 0.410605 0.23653
0.852583 0.417731 0.23946
0.0233616 0.400107 0.177646
0.0231632 0.403845 0.166094
0.0230716 0.40763 0.152041
0.0230869 0.410773 0.136202
0.0227512 0.414496 0.118471
0.0227665 0.415534 0.100023
0.0227054 0.414054 0.0789807
0.0227817 0.411582 0.0605783
0.0233616 0.410117 0.0558022
0.0420386 0.412879 0.0513924
0.0856794 0.416892 0.0450446
0.183291 0.4168 0.0373999
0.303136 0.417288 0.0326238
0.383673 0.419547 0.0345769
0.450797 0.42182 0.0400092
0.516686 0.424933 0.049012
0.572534 0.426566 0.061326
0.623758 0.426291 0.080827
0.670985 0.426093 0.106325
0.710338 0.428824 0.131914
0.74342 0.434394 0.15433
0.775921 0.439673 0.177981
0.80473 0.443824 0.200061
0.828946 0.448402 0.219028
0.849088 0.453956 0.235325
0.86305 0.459007 0.24654
0.865034 0.459403 0.248203
0.864805 0.458579 0.248051
0.864744 0.458534 0.24802
0.865034 0.459709 0.248264
0.865766 0.46247 0.248859
0.867247 0.467872 0.250294
0.869245 0.475547 0.252338
0.0243687 0.447105 0.207675
0.0243076 0.450935 0.196902
0.0243687 0.454551 0.184024
0.0244755 0.457527 0.168917
0.0246433 0.460548 0.151873
0.0250401 0.463081 0.133425
0.0252842 0.462959 0.114366
0.0256657 0.461524 0.0917678
0.0259709 0.459068 0.0696269
0.0311131 0.459022 0.0616007
0.0594034 0.462226 0.0526131
0.114137 0.465919 0.0447852
0.228519 0.46627 0.036408
0.35906 0.467796 0.0344244
0.437613 0.471015 0.0399023
0.500328 0.474159 0.0513008
0.563409 0.477882 0.0677501
0.6177 0.480644 0.0859388
0.665629 0.48188 0.107515
0.712169 0.482795 0.134188
0.752544 0.485924 0.161913
0.785168 0.491524 0.185473
0.812558 0.49781 0.20589
0.838392 0.502998 0.226322
0.859663 0.508705 0.243717
0.874998 0.514351 0.256519
0.87834 0.515953 0.259403
0.878126 0.515435 0.259251
0.878141 0.515663 0.259312
0.878386 0.516747 0.259617
0.879072 0.520241 0.260349
0.880247 0.525246 0.261784
0.881621 0.53225 0.2636
0.0278935 0.493614 0.245624
0.028275 0.497307 0.236423
0.0285801 0.500816 0.225132
0.0289769 0.503624 0.211139
0.0294347 0.506203 0.195605
0.0300603 0.508751 0.177295
0.0308537 0.510414 0.157015
0.0316777 0.510277 0.137255
0.0324254 0.508247 0.112947
0.0334325 0.505501 0.0866407
0.0445869 0.50631 0.0731518
0.0865644 0.510781 0.0586099
0.156512 0.514916 0.0472877
0.280995 0.516854 0.0399329
0.416464 0.518929 0.0449531
0.489769 0.522667 0.0581064
0.548272 0.526619 0.0752422
0.60914 0.530938 0.0957046
0.662486 0.534401 0.116823
0.707698 0.536492 0.1393
0.752819 0.538079 0.166522
0.791867 0.541344 0.193622
0.822156 0.547051 0.216648
0.845899 0.554116 0.234943
0.867597 0.560616 0.252689
0.88423 0.566308 0.267033
0.889403 0.569116 0.271962
0.889403 0.568994 0.272068
0.889372 0.569299 0.272145
0.88954 0.570962 0.272465
0.89012 0.573709 0.273243
0.891081 0.578897 0.274769
0.892027 0.585611 0.276555
0.0355077 0.539742 0.290333
0.0359808 0.543099 0.282139
0.0365606 0.546059 0.272618
0.0370184 0.548531 0.260288
0.037644 0.550881 0.246769
0.0383307 0.553231 0.230457
0.0394446 0.555856 0.210895
0.0405127 0.55642 0.189685
0.0414435 0.555108 0.166262
0.0427253 0.552728 0.138827
0.0446174 0.549737 0.108934
0.061265 0.551827 0.0902419
0.128389 0.55903 0.0690013
0.211978 0.56379 0.0581216
0.341131 0.567346 0.0556802
0.473213 0.570138 0.0693828
0.539834 0.574426 0.0859998
0.595407 0.579049 0.106233
0.654108 0.583398 0.129076
0.705592 0.586801 0.15201
0.749493 0.589105 0.17499
0.79237 0.59147 0.201846
0.826856 0.594949 0.226001
0.854749 0.600992 0.248539
0.874662 0.608118 0.264424
0.891905 0.615061 0.27924
0.899519 0.61941 0.287053
0.899458 0.619471 0.287205
0.899519 0.620295 0.287572
0.899367 0.621393 0.287755
0.900069 0.624414 0.28896
0.901198 0.629435 0.291005
0.901976 0.635935 0.29308
0.0471046 0.584451 0.338079
0.047776 0.587274 0.331685
0.0484321 0.590082 0.323812
0.049012 0.592248 0.313512
0.0496071 0.594324 0.301503
0.05037 0.596567 0.287129
0.051545 0.599008 0.269352
0.0530556 0.60116 0.247715
0.0539406 0.600519 0.225193
0.0550546 0.598733 0.198947
0.057023 0.596216 0.168002
0.0628977 0.593576 0.132876
0.103746 0.598596 0.103044
0.186694 0.606134 0.0846571
0.277592 0.612558 0.0786755
0.40708 0.61828 0.08336
0.529702 0.621576 0.102464
0.589807 0.625971 0.12079
0.641764 0.630106 0.142199
0.697322 0.634348 0.165682
0.747692 0.637324 0.189624
0.791196 0.640284 0.213825
0.828641 0.643061 0.238346
0.859556 0.646784 0.261707
0.883619 0.652888 0.282353
0.900359 0.660578 0.296956
0.908873 0.666575 0.305821
0.909163 0.667643 0.30692
0.909087 0.668254 0.307378
0.909117 0.669673 0.308049
0.909773 0.672297 0.309606
0.910658 0.677165 0.311879
0.911757 0.683726 0.314931
0.0631418 0.628061 0.386145
0.0638285 0.630716 0.381155
0.0647288 0.633417 0.37557
0.0654459 0.635767 0.367758
0.0660868 0.637797 0.358114
0.0666361 0.639612 0.345876
0.0674907 0.641566 0.330022
0.0688182 0.643885 0.31017
0.0703441 0.645258 0.287633
0.0713207 0.644251 0.263081
0.0726177 0.641855 0.233661
0.0751812 0.638376 0.197986
0.0863966 0.636194 0.15668
0.164767 0.645182 0.119677
0.253666 0.653758 0.108171
0.347295 0.661372 0.107637
0.47219 0.667887 0.118288
0.583383 0.671168 0.139849
0.63769 0.675822 0.158633
0.686503 0.679789 0.180087
0.740047 0.684031 0.204532
0.789349 0.686992 0.229465
0.829221 0.690242 0.253239
0.862547 0.693675 0.276707
0.89044 0.698177 0.301274
0.909743 0.704387 0.319692
0.919142 0.711147 0.330266
0.91957 0.713573 0.33228
0.919585 0.714412 0.332906
0.919646 0.715831 0.333883
0.920363 0.718669 0.33579
0.921386 0.723537 0.338643
0.923033 0.729809 0.342657
0.0839246 0.670893 0.432364
0.0849317 0.673487 0.42887
0.0861982 0.676432 0.424689
0.0868849 0.678508 0.41854
0.0873274 0.680323 0.411124
0.0874495 0.681788 0.401526
0.0881666 0.683665 0.38909
0.0891432 0.685786 0.37261
0.090959 0.688533 0.352041
0.0918441 0.688472 0.328557
0.0925002 0.686549 0.300755
0.0938735 0.683436 0.267903
0.0970474 0.67895 0.227008
0.117281 0.677577 0.177386
0.235615 0.692546 0.143755
0.324788 0.701534 0.138506
0.414359 0.71017 0.142718
0.535302 0.716487 0.157366
0.636011 0.720043 0.180102
0.684901 0.725231 0.199008
0.730846 0.729534 0.2206
0.781933 0.733608 0.245243
0.828336 0.736584 0.270741
0.864897 0.740673 0.295415
0.89546 0.745281 0.321798
0.918349 0.750103 0.343908
0.930343 0.755581 0.358068
0.93167 0.759426 0.361959
0.931533 0.760372 0.362341
0.931594 0.76199 0.363439
0.932296 0.764965 0.36582
0.93344 0.769741 0.369162
0.93492 0.775784 0.373602
0.113588 0.714305 0.4766
0.1149 0.71725 0.474159
0.115801 0.719768 0.471153
0.115892 0.721462 0.466163
0.115557 0.722683 0.460075
0.115129 0.72398 0.452293
0.114931 0.725551 0.442664
0.115038 0.727214 0.429908
0.115389 0.729198 0.413062
0.116426 0.730632 0.391241
0.116793 0.729671 0.367254
0.117037 0.727047 0.336736
0.119142 0.723568 0.299641
0.128252 0.720241 0.253239
0.18027 0.723796 0.196643
0.310246 0.739071 0.173236
0.394934 0.747707 0.172503
0.476265 0.756146 0.179339
0.595636 0.762982 0.198016
0.687648 0.767315 0.222095
0.731533 0.773022 0.241245
0.774823 0.778103 0.263081
0.822934 0.781598 0.287999
0.864729 0.78529 0.314351
0.898497 0.790433 0.343587
0.924926 0.794766 0.368826
0.941863 0.799191 0.388006
0.944656 0.802319 0.394949
0.944808 0.803754 0.396201
0.944976 0.805753 0.397833
0.945403 0.808362 0.400229
0.946197 0.812482 0.403906
0.947738 0.817914 0.409186
0.147951 0.756024 0.519692
0.149035 0.758343 0.517388
0.14995 0.760555 0.514946
0.149889 0.761852 0.510277
0.149645 0.763043 0.505058
0.149386 0.764233 0.49897
0.14876 0.765332 0.490532
0.147707 0.766308 0.479652
0.146227 0.767361 0.465751
0.14522 0.768688 0.447807
0.144549 0.7682 0.426413
0.144366 0.766476 0.400183
0.14548 0.763684 0.366018
0.150729 0.76022 0.323369
0.168704 0.758083 0.269764
0.259297 0.768795 0.218036
0.383337 0.780835 0.203082
0.459251 0.788846 0.206119
0.536507 0.79733 0.215869
0.654444 0.804608 0.23859
0.737209 0.810513 0.264179
0.776104 0.816953 0.283543
0.81799 0.8224 0.306264
0.860731 0.825483 0.331991
0.898268 0.82977 0.363165
0.927413 0.834455 0.391501
0.94757 0.838575 0.41474
0.955139 0.841489 0.428321
0.955779 0.843275 0.43209
0.955566 0.844587 0.433204
0.955901 0.847196 0.435477
0.956741 0.850553 0.439109
0.958129 0.8551 0.4439
0.180514 0.792157 0.559701
0.181201 0.79382 0.557855
0.181949 0.795727 0.555306
0.181857 0.796857 0.551446
0.181842 0.797971 0.546777
0.181384 0.798764 0.540932
0.180652 0.799466 0.533486
0.17969 0.800229 0.523781
0.17818 0.801068 0.511589
0.176349 0.801953 0.496178
0.17438 0.802243 0.476814
0.17322 0.800717 0.453605
0.173342 0.798672 0.42504
0.175113 0.795392 0.387182
0.184527 0.792569 0.339467
0.21239 0.791318 0.278096
0.33846 0.807126 0.238941
0.449119 0.816693 0.232288
0.520974 0.825177 0.239094
0.598535 0.833982 0.252491
0.712016 0.842054 0.279469
0.783688 0.848829 0.305577
0.821256 0.855711 0.326024
0.858122 0.860365 0.349508
0.89633 0.864393 0.380896
0.929183 0.869108 0.413947
0.952178 0.873014 0.439963
0.963897 0.875547 0.458534
0.964401 0.876722 0.466316
0.963821 0.878294 0.467781
0.963668 0.880201 0.469947
0.964233 0.883146 0.473579
0.965164 0.88716 0.478309
0.209918 0.822995 0.597101
0.210437 0.824475 0.595026
0.210758 0.825864 0.592813
0.210773 0.827085 0.589319
0.21033 0.827817 0.584848
0.209583 0.828428 0.579599
0.208469 0.828946 0.572564
0.207019 0.829358 0.56376
0.205203 0.829862 0.55256
0.203098 0.830228 0.538354
0.200397 0.830411 0.519722
0.198917 0.829541 0.499123
0.19823 0.827741 0.473884
0.198718 0.824994 0.442435
0.203296 0.821912 0.401907
0.218173 0.819791 0.349203
0.275975 0.825742 0.293141
0.410819 0.839872 0.263813
0.509758 0.848707 0.263584
0.57937 0.856886 0.272938
0.656245 0.865553 0.289143
0.763806 0.874205 0.319219
0.825315 0.881544 0.345495
0.859617 0.887816 0.366354
0.892424 0.893141 0.394766
0.926192 0.898741 0.432547
0.952026 0.902129 0.462043
0.967056 0.904601 0.485527
0.969131 0.905669 0.498695
0.968429 0.906661 0.500984
0.967941 0.908461 0.50367
0.968078 0.910918 0.507698
0.968963 0.914183 0.512871
0.235538 0.848615 0.630549
0.235874 0.849729 0.628824
0.23592 0.850797 0.626581
0.235386 0.851423 0.62327
0.234653 0.852003 0.619181
0.233661 0.852522 0.614115
0.232471 0.852888 0.608026
0.23093 0.853193 0.600153
0.228855 0.853208 0.589685
0.226368 0.853071 0.576486
0.223682 0.852811 0.560143
0.222385 0.852247 0.542245
0.221637 0.850797 0.520241
0.221515 0.848646 0.492699
0.223163 0.84593 0.458259
0.230869 0.843702 0.41529
0.265538 0.847593 0.363638
0.351263 0.860502 0.325551
0.471458 0.870329 0.302113
0.562982 0.876982 0.300038
0.636164 0.884733 0.311208
0.707378 0.891432 0.327031
0.809262 0.901076 0.359258
0.863355 0.908202 0.385657
0.893767 0.91458 0.409415
0.92195 0.920821 0.446601
0.949645 0.924636 0.481102
0.96698 0.927169 0.509529
0.971572 0.928359 0.528328
0.970977 0.92929 0.534966
0.970352 0.930358 0.538201
0.970062 0.931884 0.542733
0.970169 0.933639 0.548241
0.253544 0.864713 0.658549
0.253193 0.864775 0.656748
0.252674 0.864927 0.65449
0.251514 0.864836 0.651301
0.25008 0.864683 0.647364
0.248341 0.864347 0.642344
0.246265 0.863813 0.636332
0.243687 0.862913 0.628626
0.240681 0.861997 0.618402
0.238712 0.861204 0.607538
0.237156 0.860594 0.595102
0.235737 0.859907 0.579583
0.234699 0.859236 0.560037
0.234348 0.858564 0.535149
0.235111 0.857389 0.503868
0.239551 0.85597 0.465492
0.260792 0.858015 0.422461
0.328099 0.87013 0.384848
0.411246 0.879499 0.358022
0.513893 0.884779 0.340993
0.605692 0.890425 0.34078
0.681773 0.896681 0.351446
0.751751 0.903029 0.367376
0.840345 0.91194 0.396307
0.889708 0.920089 0.425971
0.917586 0.925856 0.452079
0.944808 0.93257 0.489311
0.965591 0.937652 0.526604
0.972915 0.940642 0.555062
0.972168 0.941497 0.565927
0.971466 0.941604 0.568429
0.970932 0.94168 0.572366
0.970504 0.941665 0.577783
0.259403 0.86891 0.671077
0.25861 0.86836 0.668132
0.257679 0.867887 0.665385
0.256214 0.867399 0.661372
0.25449 0.866926 0.657252
0.252537 0.866453 0.652262
0.250263 0.865812 0.645914
0.247593 0.864866 0.637873
0.244175 0.863478 0.627787
0.241001 0.862272 0.615763
0.239078 0.861463 0.603021
0.23743 0.8607 0.587915
0.237247 0.860441 0.571649
0.238041 0.860471 0.552712
0.239948 0.860502 0.528664
0.244327 0.860655 0.499214
0.262242 0.863493 0.463142
0.320012 0.875456 0.429313
0.39089 0.884886 0.400931
0.467399 0.89015 0.383047
0.564462 0.893523 0.373312
0.661936 0.899947 0.3776
0.734813 0.906401 0.39028
0.805432 0.91313 0.408164
0.872877 0.921126 0.43473
0.913649 0.927596 0.462531
0.939742 0.932662 0.491432
0.963165 0.937972 0.530068
0.973373 0.941726 0.565209
0.972412 0.942824 0.582116
0.971649 0.942779 0.583444
0.971023 0.942672 0.586023
0.970581 0.942489 0.589044
0.261845 0.870207 0.67686
0.261143 0.869642 0.674022
0.260212 0.869139 0.671168
0.258778 0.868605 0.667185
0.257176 0.868177 0.663249
0.255161 0.867582 0.658274
0.25275 0.866789 0.651911
0.250095 0.865904 0.64416
0.246998 0.864668 0.634287
0.242939 0.862928 0.621714
0.240208 0.861891 0.608042
0.238376 0.861051 0.592706
0.237705 0.860624 0.575982
0.238315 0.860639 0.556924
0.240009 0.86067 0.53341
0.244068 0.860746 0.503349
0.25716 0.86215 0.467308
0.313588 0.874342 0.432837
0.38468 0.884321 0.403388
0.461601 0.889937 0.384344
