bundles/resolve-cinematic-luts/Phantom Luts/P4k & P6k Phntm Arri LUTs - V6/P4K/Gen 4 Colour/Standard (No WB Offset)/P4k Neutral Gen4-Legacy.cube
TITLE "Generated by Resolve"
LUT_3D_SIZE 9
0.018265 0.0182193 0.0182193
0.0766613 0.0235904 0.0293736
0.186633 0.0336461 0.0404364
0.344442 0.0389258 0.0553445
0.541909 0.0431678 0.0837873
0.781521 0.0475471 0.124712
0.945312 0.0649424 0.16141
0.944518 0.0832227 0.177935
0.943999 0.0946365 0.188312
0.01738 0.0764477 0.0417334
0.0537881 0.0715038 0.0213626
0.152819 0.0753796 0.0352331
0.296727 0.069688 0.0411841
0.479927 0.062501 0.0505989
0.717861 0.0669413 0.0710613
0.953384 0.0701152 0.115373
0.952911 0.0787823 0.128115
0.952697 0.084123 0.135149
0 0.190433 0.073106
0 0.193133 0.00920119
0.136797 0.188846 0.00956741
0.313771 0.184665 0.0320439
0.504601 0.173465 0.0595102
0.719341 0.169696 0.0779736
0.943603 0.167758 0.101595
0.957076 0.161151 0.102739
0.956664 0.153185 0.101656
0 0.361227 0.135164
0 0.3729 0.0735332
0.0238651 0.367773 0
0.276509 0.374914 0.0209506
0.511818 0.381125 0.0320897
0.729809 0.36907 0.0879225
0.938827 0.356924 0.136568
0.962264 0.358419 0.142321
0.962249 0.353964 0.141222
0.00163272 0.563607 0.261723
0 0.573983 0.208072
0 0.5823 0.114961
0.12546 0.582879 0.0145113
0.475471 0.583871 0.0451972
0.706462 0.586831 0.0685893
0.926818 0.575845 0.140337
0.958175 0.586267 0.158541
0.958114 0.583566 0.158129
0.0283513 0.785748 0.413153
0.0200198 0.794293 0.377157
0.00535592 0.811994 0.301671
0.0145266 0.809567 0.152712
0.324697 0.813336 0.0762341
0.667155 0.808438 0.100679
0.892958 0.805539 0.181506
0.957137 0.805692 0.264973
0.957061 0.805097 0.256504
0.0666056 0.953918 0.54403
0.0606851 0.956786 0.517464
0.0484474 0.9626 0.464988
0.0465248 0.967193 0.36492
0.137835 0.968414 0.173907
0.534035 0.956146 0.17702
0.856794 0.953658 0.214084
0.953887 0.949126 0.413794
0.953887 0.949111 0.416495
0.0804608 0.957137 0.594614
0.0755169 0.958251 0.570581
0.0651713 0.960876 0.525475
0.0614633 0.966186 0.444953
0.108934 0.971496 0.31487
0.480934 0.961059 0.296666
0.801343 0.952758 0.305959
0.953674 0.953201 0.449653
0.953552 0.953185 0.490684
0.087602 0.956466 0.61416
0.082887 0.957427 0.590951
0.0730602 0.959594 0.54818
0.0604868 0.965148 0.460655
0.0988937 0.971176 0.331365
0.448707 0.962951 0.298268
0.766812 0.952651 0.307942
0.952728 0.953231 0.432715
0.953552 0.953185 0.491005
0.0361639 0.0193332 0.0669718
0.0849775 0.0228733 0.071107
0.203769 0.025452 0.100633
0.36286 0.0273747 0.122484
0.557321 0.0329747 0.147189
0.790173 0.0451514 0.185443
0.940871 0.0646372 0.223056
0.941482 0.0702678 0.237446
0.941894 0.074052 0.247028
0.0216831 0.0571908 0.0552071
0.0513313 0.0513161 0.0513313
0.181415 0.0448615 0.0500191
0.330541 0.0402228 0.0555276
0.526543 0.0440375 0.0823224
0.763302 0.0488289 0.122789
0.945418 0.0652781 0.161303
0.944625 0.0832532 0.177569
0.944137 0.0948653 0.188037
0.00721752 0.166613 0.111513
0 0.171298 0.0694438
0.130541 0.17557 0.0238804
0.328618 0.155917 0.0462043
0.510658 0.144854 0.0626383
0.729397 0.139696 0.0823835
0.951705 0.130297 0.103685
0.957702 0.119905 0.104402
0.957534 0.114183 0.106401
0 0.337148 0.178622
0 0.346105 0.12987
0 0.358053 0.0198978
0.269749 0.364248 0.0224002
0.524208 0.359518 0.0394903
0.737362 0.346761 0.095552
0.945464 0.338994 0.13666
0.962051 0.338781 0.139742
0.962051 0.333883 0.137896
0.0109102 0.544839 0.299825
0.00143435 0.55317 0.254688
0 0.572015 0.155459
0.0926833 0.575936 0.0148013
0.469139 0.575814 0.0460975
0.713848 0.573907 0.0737011
0.931029 0.564202 0.147967
0.958175 0.572534 0.161822
0.958236 0.569467 0.160235
0.035523 0.767529 0.440742
0.0280156 0.774838 0.408118
0.0128939 0.790784 0.341024
0.0102693 0.80061 0.18967
0.3037 0.807004 0.0774853
0.661372 0.800732 0.100999
0.894728 0.796048 0.187671
0.957107 0.794934 0.271565
0.957122 0.793851 0.264927
0.0708324 0.947845 0.56347
0.0657969 0.950759 0.539269
0.0547799 0.956512 0.491585
0.0424353 0.965179 0.38587
0.0989548 0.967605 0.185809
0.52224 0.955413 0.17438
0.852155 0.952865 0.206348
0.953948 0.947204 0.410498
0.953948 0.947005 0.414649
0.0855116 0.956268 0.616251
0.0808728 0.957198 0.593896
0.0720531 0.959304 0.552377
0.0584878 0.964782 0.465034
0.0937667 0.971084 0.334432
0.453086 0.962798 0.30074
0.781003 0.95259 0.308385
0.953689 0.953216 0.444663
0.953552 0.953185 0.491966
0.0924849 0.955612 0.634577
0.0881819 0.956527 0.613458
0.0797436 0.958267 0.573754
0.0607156 0.963577 0.484031
0.0870375 0.970565 0.353445
0.422629 0.964614 0.302281
0.746197 0.952834 0.310903
0.950072 0.953307 0.42475
0.953552 0.953185 0.492546
0.0553445 0.0195163 0.173541
0.119478 0.020798 0.163699
0.213809 0.0251316 0.17438
0.379294 0.0262608 0.213748
0.580468 0.0275578 0.23978
0.810864 0.0354009 0.278874
0.939879 0.0464942 0.310307
0.940322 0.0500954 0.323339
0.940642 0.0527962 0.332403
0.0203098 0.0427558 0.131151
0.0570382 0.0197757 0.158556
0.184344 0.0253452 0.150423
0.358221 0.0273747 0.166537
0.558053 0.0281682 0.194949
0.787274 0.0406653 0.226337
0.940658 0.0590524 0.262135
0.941238 0.0642252 0.275044
0.941604 0.0675517 0.28397
0.00894179 0.155016 0.14757
0.0118563 0.150271 0.142947
0.149676 0.149676 0.149676
0.350698 0.131456 0.143847
0.562875 0.103838 0.136767
0.799878 0.0789044 0.147295
0.946288 0.082826 0.171527
0.944991 0.0870069 0.179187
0.944518 0.0972915 0.188724
0.00268559 0.315099 0.223194
0.00218204 0.312673 0.199893
0 0.327825 0.12784
0.275013 0.350027 0.0724193
0.545037 0.323842 0.108782
0.774426 0.297704 0.132464
0.96025 0.299901 0.157504
0.960128 0.295308 0.1579
0.960082 0.289357 0.156481
0.0197757 0.521752 0.343526
0.0161593 0.523507 0.317556
0.00166323 0.535775 0.244327
0.00726329 0.565103 0.0554055
0.459831 0.563195 0.05243
0.73051 0.550469 0.100008
0.938674 0.542824 0.170642
0.958007 0.54612 0.183108
0.958099 0.542123 0.1823
0.0435798 0.742687 0.47425
0.0393683 0.746456 0.452552
0.0280003 0.757504 0.40058
0.00497444 0.785138 0.251057
0.263767 0.798123 0.0833906
0.652506 0.788403 0.102998
0.90042 0.778912 0.200855
0.956863 0.777157 0.283146
0.956954 0.774975 0.279652
0.0770275 0.937026 0.592676
0.0729839 0.939376 0.571771
0.0646067 0.944518 0.531258
0.0412757 0.958465 0.428931
0.0716716 0.965148 0.231281
0.501106 0.953887 0.16965
0.844617 0.950515 0.199298
0.95407 0.943664 0.406683
0.954086 0.942901 0.412787
0.0931563 0.955123 0.648524
0.0892805 0.95581 0.629175
0.0818036 0.95729 0.592737
0.0621042 0.962081 0.506416
0.0799573 0.969985 0.3729
0.412726 0.965286 0.306767
0.749065 0.952834 0.313542
0.952926 0.953231 0.436133
0.953552 0.953185 0.493462
0.0996109 0.954803 0.66482
0.0960708 0.955291 0.647074
0.0891585 0.956603 0.612375
0.0707866 0.960723 0.531701
0.0763561 0.969299 0.391852
0.382361 0.966827 0.308339
0.719783 0.953216 0.315541
0.945296 0.953414 0.411627
0.953536 0.95317 0.494881
0.0984817 0.0163272 0.329976
0.164034 0.0164645 0.318212
0.247318 0.0197147 0.31133
0.389548 0.0261845 0.32491
0.578836 0.0299992 0.379171
0.84303 0.0365759 0.408103
0.940398 0.0396582 0.446159
0.940551 0.0400092 0.456977
0.940642 0.0403143 0.462745
0.0169528 0.0294804 0.284779
0.09897 0.0166323 0.315816
0.21651 0.0173495 0.305211
0.369284 0.0260319 0.305928
0.564263 0.0304112 0.348959
0.823972 0.0371405 0.372625
0.939986 0.0391394 0.408545
0.940139 0.0398566 0.417655
0.940246 0.0403601 0.423636
0.00694286 0.125139 0.263096
0.00793469 0.110491 0.277562
0.157397 0.0813916 0.332738
0.358328 0.0700847 0.304784
0.55668 0.0496834 0.30132
0.78996 0.0370031 0.317327
0.940307 0.0481727 0.34313
0.940856 0.0531014 0.354162
0.941192 0.0560464 0.361212
0.00234989 0.297581 0.283101
0.00349432 0.292729 0.278065
0.0194095 0.290379 0.276265
0.305684 0.305684 0.305684
0.553216 0.282383 0.30013
0.838758 0.248417 0.292683
0.950195 0.226749 0.283513
0.950271 0.215152 0.282063
0.95024 0.207187 0.281117
0.0252079 0.50219 0.398093
0.0255131 0.499138 0.385565
0.0250248 0.49543 0.356802
0.068101 0.522591 0.281804
0.456535 0.533516 0.219257
0.748638 0.510872 0.243977
0.955581 0.500679 0.252445
0.956054 0.497429 0.258778
0.956191 0.491768 0.259174
0.0525216 0.714519 0.519875
0.0513466 0.713771 0.50692
0.0480049 0.714824 0.479942
0.0302434 0.731182 0.390188
0.139757 0.788937 0.162097
0.639963 0.768643 0.132891
0.915434 0.745251 0.244068
0.955581 0.745541 0.310353
0.955444 0.740612 0.310002
0.0856184 0.917494 0.6327
0.0833448 0.918318 0.61854
0.0784924 0.920729 0.591363
0.0635386 0.931212 0.518563
0.0546578 0.95642 0.334478
0.461418 0.950912 0.19968
0.830671 0.945754 0.186892
0.95436 0.934386 0.405295
0.954406 0.932158 0.41387
0.104143 0.954101 0.696437
0.101854 0.954345 0.682582
0.0969253 0.954986 0.656748
0.0836347 0.957488 0.590845
0.0657206 0.966567 0.441886
0.337346 0.968841 0.32108
0.708186 0.95346 0.32137
0.947188 0.953368 0.419898
0.953536 0.95317 0.497139
0.109255 0.95349 0.710521
0.107393 0.954131 0.697002
0.102968 0.954696 0.672114
0.0909285 0.95671 0.610361
0.063508 0.965362 0.459876
0.29955 0.969909 0.32755
0.676081 0.954162 0.323644
0.932128 0.953643 0.387915
0.953521 0.95317 0.499657
0.159548 0.0133669 0.504601
0.225315 0.0129549 0.495384
0.317891 0.0129091 0.489219
0.419852 0.0227207 0.478187
0.59263 0.0312657 0.502754
0.850996 0.0349279 0.568261
0.942184 0.038529 0.594079
0.942382 0.0388952 0.605524
0.942504 0.0391394 0.612528
0.0547494 0.0148165 0.479393
0.156085 0.0133822 0.494255
0.277241 0.0126345 0.486503
0.397498 0.0213779 0.471199
0.576349 0.0310063 0.489158
0.83389 0.0351415 0.550515
0.941878 0.0389715 0.569497
0.942061 0.0393683 0.579187
0.942168 0.0396277 0.585184
0.00874342 0.0634775 0.42472
0.0132601 0.0402228 0.443473
0.172595 0.0131991 0.488899
0.356329 0.0191348 0.464683
0.549737 0.0308385 0.466697
0.805905 0.0357824 0.513603
0.94136 0.0395972 0.525917
0.941497 0.0402533 0.532601
0.941588 0.0405585 0.537209
0.018265 0.255543 0.423957
0.018265 0.243336 0.430701
0.0207828 0.21735 0.455314
0.318135 0.205875 0.51519
0.560418 0.192493 0.498894
0.851179 0.146014 0.502663
0.947951 0.114199 0.50692
0.947295 0.106828 0.501854
0.946746 0.100771 0.498924
0.0247044 0.484352 0.466041
0.0249943 0.480934 0.46276
0.0256657 0.47483 0.45716
0.118166 0.482399 0.467521
0.476326 0.476326 0.476326
0.740764 0.460273 0.477119
0.953552 0.441901 0.473045
0.957366 0.423239 0.462638
0.959716 0.41149 0.456123
0.0573739 0.69012 0.575463
0.0576028 0.68716 0.568261
0.0581674 0.682536 0.554574
0.0593423 0.676921 0.519921
0.273823 0.709178 0.478447
0.625025 0.709316 0.414771
0.909819 0.693828 0.445243
0.95201 0.694652 0.424491
0.95201 0.686931 0.416678
0.0983902 0.894682 0.683803
0.0976425 0.893446 0.674846
0.0961166 0.891737 0.659129
0.091371 0.89163 0.62266
0.0788281 0.918608 0.520836
0.397742 0.942702 0.388312
0.819333 0.929503 0.355001
0.954665 0.916747 0.452079
0.954757 0.912276 0.446082
0.119615 0.951461 0.764019
0.118669 0.951751 0.754238
0.116777 0.952407 0.736828
0.111894 0.954162 0.697841
0.092668 0.957595 0.593393
0.21265 0.97081 0.398489
0.649973 0.955169 0.342855
0.939055 0.953536 0.407385
0.95349 0.95317 0.508797
0.123537 0.951293 0.77615
0.122362 0.951507 0.766384
0.120531 0.952041 0.748608
0.115953 0.953857 0.710079
0.0982528 0.956893 0.611521
0.135012 0.970275 0.396109
0.597726 0.957259 0.340841
0.90753 0.953872 0.363546
0.95349 0.953155 0.509911
0.248081 0.0116579 0.688273
0.304601 0.0115206 0.679774
0.390784 0.0114137 0.675517
0.491615 0.0148775 0.663676
0.620584 0.0291905 0.669779
0.865171 0.0368505 0.711925
0.944625 0.0382086 0.757748
0.944808 0.0387121 0.766491
0.944945 0.0388952 0.774685
0.163485 0.0124056 0.674632
0.244297 0.011902 0.679271
0.351019 0.0114748 0.672801
0.469902 0.0136568 0.660334
0.601892 0.0284428 0.66067
0.848768 0.0369116 0.698024
0.944595 0.0380407 0.756497
0.944686 0.0386206 0.75938
0.944747 0.0389715 0.761624
0.0199893 0.0182193 0.62385
0.0780804 0.0138705 0.643534
0.257801 0.0117037 0.670726
0.426368 0.0119326 0.659022
0.570596 0.0273289 0.647028
0.82031 0.0371252 0.675883
0.944289 0.0379644 0.736828
0.944503 0.038468 0.748501
0.94461 0.0387579 0.753704
0.018265 0.189792 0.584421
0.018265 0.170871 0.593362
0.0142061 0.133257 0.622599
0.329091 0.0774243 0.704234
0.548837 0.0714427 0.672541
0.792111 0.0470588 0.658732
0.943648 0.0395819 0.68687
0.943587 0.0396429 0.68191
0.943587 0.0396277 0.682033
0.0208438 0.451377 0.60502
0.0209201 0.443137 0.608225
0.0209659 0.428702 0.615671
0.126314 0.414664 0.669841
0.501137 0.395377 0.697459
0.75494 0.381872 0.678752
0.949996 0.34995 0.681605
0.950149 0.326238 0.676997
0.950271 0.310826 0.672145
0.0558022 0.668376 0.644984
0.0559243 0.665476 0.642023
0.0564431 0.660517 0.637644
0.0579232 0.651545 0.629374
0.33312 0.659983 0.644907
0.642359 0.642359 0.642359
0.901778 0.631861 0.647852
0.947753 0.623652 0.648295
0.947753 0.615732 0.64358
0.104662 0.870436 0.743114
0.104799 0.867933 0.737514
0.104982 0.86389 0.727672
0.10869 0.857618 0.708339
0.162661 0.864668 0.678752
0.490181 0.877897 0.653696
0.804318 0.879072 0.60032
0.955428 0.872282 0.62623
0.955261 0.866117 0.621622
0.140032 0.951019 0.837537
0.139727 0.951034 0.831724
0.139101 0.951064 0.821515
0.137591 0.951202 0.799802
0.132372 0.952361 0.748837
0.345708 0.960388 0.686275
0.618326 0.96286 0.610498
0.931807 0.953368 0.573754
0.953033 0.952987 0.616464
0.144015 0.951034 0.848524
0.143664 0.95111 0.842374
0.142885 0.951125 0.831449
0.141054 0.951217 0.808286
0.136019 0.952193 0.75613
0.264027 0.958968 0.671305
0.561318 0.964782 0.594903
0.881865 0.95378 0.543557
0.95317 0.953048 0.589502
0.355047 0.0107729 0.882963
0.395422 0.0107881 0.875776
0.46688 0.0109407 0.873976
0.567544 0.0120394 0.871397
0.693401 0.0221866 0.868849
0.884794 0.0371405 0.893278
0.947097 0.0390784 0.922286
0.947326 0.0397803 0.935515
0.947417 0.0402686 0.941054
0.2907 0.0110018 0.874846
0.350164 0.0108949 0.875135
0.43154 0.0108186 0.870665
0.543343 0.0115511 0.867887
0.67451 0.0204623 0.862531
0.869307 0.0368811 0.885237
0.94699 0.0390631 0.914443
0.947204 0.0396887 0.927611
0.947311 0.0401465 0.933684
0.120043 0.0125734 0.833402
0.223148 0.0113985 0.850538
0.355245 0.0108034 0.866148
0.496559 0.0110781 0.861784
0.642054 0.0184787 0.85301
0.840314 0.0366217 0.871168
0.946792 0.0390936 0.899641
0.946975 0.0395819 0.911513
0.947097 0.0400092 0.917525
0.0288701 0.103609 0.751583
0.0355993 0.0804456 0.768994
0.05037 0.0365301 0.804028
0.375753 0.0108644 0.864347
0.574945 0.016495 0.842008
0.776318 0.0364691 0.843763
0.946319 0.0390478 0.867094
0.946426 0.039765 0.87097
0.946502 0.040177 0.874632
0.0210727 0.402472 0.766964
0.0198367 0.392142 0.776013
0.0191806 0.372091 0.792966
0.159396 0.344656 0.873396
0.54023 0.297841 0.914519
0.784054 0.284138 0.900404
0.950774 0.244068 0.893111
0.95111 0.212741 0.883665
0.951186 0.207111 0.87422
0.0425879 0.640299 0.780514
0.0424353 0.63476 0.782635
0.0428168 0.625437 0.787945
0.0693065 0.604746 0.80827
0.350713 0.605097 0.858259
0.672679 0.578424 0.862181
0.906203 0.570184 0.845777
0.948913 0.554559 0.849378
0.948913 0.546075 0.845441
0.10396 0.848264 0.819074
0.104005 0.845579 0.816617
0.104097 0.841169 0.81178
0.108263 0.83418 0.804654
0.17232 0.835737 0.807324
0.541543 0.829206 0.814466
0.813321 0.813321 0.813321
0.950927 0.807843 0.82266
0.950973 0.799893 0.819226
0.170901 0.950637 0.896193
0.173144 0.949966 0.89279
0.177356 0.948837 0.887175
0.186099 0.946853 0.875349
0.203387 0.942397 0.849973
0.461082 0.948806 0.856168
0.693904 0.949004 0.840833
0.925475 0.948501 0.784817
0.952743 0.944106 0.815488
0.199161 0.953521 0.91014
0.201404 0.953597 0.907637
0.204639 0.953674 0.903136
0.208499 0.953521 0.89308
0.210864 0.953414 0.86894
0.387472 0.956146 0.855497
0.632609 0.955779 0.846677
0.853697 0.953628 0.787381
0.952361 0.952102 0.80293
0.446708 0.0107576 0.948806
0.479744 0.0109102 0.948928
0.539162 0.0114443 0.949279
0.630396 0.0130159 0.947616
0.762814 0.0230716 0.94255
0.919356 0.0365148 0.946502
0.947555 0.0411078 0.947555
0.94757 0.0414282 0.94757
0.947585 0.0415808 0.947585
0.402716 0.010605 0.948714
0.445274 0.0107576 0.948806
0.509438 0.0110475 0.94902
0.608057 0.0124819 0.948775
0.742931 0.0211643 0.942763
0.908919 0.0362097 0.946151
0.947555 0.0411536 0.947555
0.94757 0.0415045 0.94757
0.947585 0.0416724 0.947585
0.272618 0.0108797 0.939437
0.354849 0.0107271 0.947265
0.45005 0.0108034 0.948852
0.566995 0.0117189 0.949477
0.710521 0.0174411 0.94345
0.889311 0.0359197 0.945495
0.947555 0.0411994 0.947555
0.947585 0.0416419 0.947585
0.947601 0.0418097 0.947601
0.101991 0.0375525 0.904906
0.123064 0.0162661 0.914366
0.200275 0.0113069 0.932494
0.463127 0.0109255 0.948913
0.640558 0.0145266 0.947158
0.840757 0.035462 0.943954
0.947555 0.0411383 0.947555
0.947601 0.041886 0.947601
0.947616 0.0421454 0.947616
0.0601053 0.357397 0.914
0.0679789 0.344427 0.921294
0.0851759 0.319173 0.932036
0.27129 0.271199 0.951553
0.589349 0.22121 0.951553
0.835737 0.197574 0.951583
0.951522 0.169909 0.951522
0.951614 0.149645 0.951614
0.951583 0.144488 0.951583
0.0692454 0.607614 0.905455
0.0706188 0.601678 0.909133
0.0747387 0.592157 0.916121
0.128923 0.574746 0.933684
0.412528 0.563409 0.951553
0.732372 0.527703 0.951034
0.925963 0.518822 0.949187
0.949126 0.507027 0.949126
0.949264 0.497795 0.949264
0.0977951 0.825925 0.913146
0.0971847 0.821546 0.913649
0.100862 0.813809 0.91548
0.125307 0.8009 0.922728
0.275898 0.787274 0.938582
0.56762 0.782208 0.9402
0.846204 0.75671 0.94136
0.951324 0.752026 0.936751
0.95111 0.743496 0.933471
0.197086 0.944549 0.931502
0.198688 0.943481 0.930129
0.202167 0.941756 0.927733
0.210956 0.938506 0.923751
0.228183 0.932799 0.916579
0.480354 0.938186 0.926879
0.734081 0.932372 0.926741
0.924865 0.924865 0.92488
0.951492 0.922301 0.926238
0.259831 0.954376 0.945907
0.262394 0.954406 0.944274
0.266529 0.954421 0.941497
0.275273 0.95462 0.93666
0.291478 0.954971 0.928023
0.449836 0.955673 0.930205
0.691768 0.954391 0.934874
0.875105 0.952575 0.932662
0.951751 0.951629 0.921569
0.463783 0.010956 0.948943
0.494911 0.0110933 0.949035
0.550546 0.0114443 0.949294
0.64065 0.0134127 0.947097
0.774044 0.0242466 0.942611
0.926543 0.0364691 0.9467
0.947524 0.0406653 0.947524
0.947585 0.0415503 0.947585
0.947585 0.0416876 0.947585
0.424872 0.0108034 0.948837
0.462699 0.0109102 0.948913
0.522179 0.0112001 0.949126
0.618036 0.0125734 0.948211
0.753445 0.0222629 0.942672
0.91606 0.0361639 0.94638
0.94754 0.0407568 0.94754
0.947585 0.0416266 0.947585
0.947585 0.0417639 0.947585
0.314519 0.0107881 0.943603
0.386892 0.0107118 0.948775
0.465782 0.0109712 0.948959
0.577493 0.0116732 0.949401
0.719493 0.018555 0.943236
0.896117 0.0357671 0.945724
0.94754 0.0409247 0.94754
0.947585 0.0417334 0.947585
0.947601 0.0419013 0.947601
0.139956 0.0205997 0.93286
0.155138 0.0118257 0.932067
0.253117 0.0110781 0.938262
0.482536 0.0109255 0.948928
0.651774 0.0139773 0.946334
0.84947 0.0353552 0.944183
0.947555 0.0410773 0.947555
0.947601 0.0419318 0.947601
0.947616 0.0421912 0.947616
0.13257 0.324926 0.951553
0.131899 0.308309 0.951553
0.131106 0.280385 0.951553
0.268467 0.22414 0.951553
0.585397 0.17261 0.951553
0.826062 0.154391 0.951003
0.951431 0.133379 0.951431
0.950698 0.10602 0.950698
0.950484 0.10045 0.950484
0.152285 0.594354 0.951553
0.151598 0.587793 0.951553
0.150072 0.576226 0.951553
0.176623 0.553841 0.951553
0.41062 0.53817 0.951553
0.732387 0.500664 0.951507
0.927352 0.490867 0.94934
0.949416 0.478233 0.949416
0.949538 0.468681 0.949538
0.182254 0.807111 0.953979
0.181643 0.802152 0.95378
0.180819 0.793881 0.953719
0.211597 0.778592 0.953307
0.32578 0.761074 0.951034
0.578988 0.755169 0.95024
0.865888 0.72546 0.950729
0.950866 0.722255 0.950866
0.950622 0.714244 0.950637
0.213931 0.938293 0.952255
0.222187 0.936934 0.952575
0.235492 0.934615 0.953002
0.264164 0.929427 0.953979
0.31107 0.919066 0.955047
0.511177 0.923049 0.95642
0.747738 0.916075 0.954406
0.935363 0.903822 0.951553
0.951553 0.901534 0.951553
0.278798 0.954589 0.953216
0.282612 0.954681 0.953323
0.289204 0.954803 0.953475
0.301808 0.954894 0.953628
0.324285 0.955139 0.954086
0.458518 0.955489 0.955474
0.694789 0.954253 0.954253
0.890837 0.95227 0.95227
0.951553 0.951553 0.951553
