bundles/resolve-cinematic-luts/Phantom Luts/P4k & P6k Phntm Arri LUTs - V6/P4K/Gen 4 Colour/Standard (No WB Offset)/P4k Utopia Gen4.cube
TITLE "Generated by Resolve"
LUT_3D_SIZE 5
0 0.0227512 0.0306706
0.185718 0.0131075 0.0231174
0.56022 0.0347601 0.0652781
0.843885 0.123262 0.170642
0.868925 0.137606 0.197864
0 0.23859 0.0605631
0.155764 0.231327 0.012192
0.575219 0.194598 0.0666056
0.865202 0.232471 0.141039
0.883101 0.221668 0.139101
0 0.657954 0.300877
0 0.689281 0.0810559
0.591211 0.636057 0.0821088
0.907027 0.639963 0.192279
0.940246 0.650095 0.217273
0.0381628 0.966705 0.617472
0.0308843 0.981109 0.537362
0.210407 0.999969 0.175204
0.934417 0.9355 0.325734
0.997665 0.936217 0.519799
0.0527047 0.975204 0.686961
0.0487984 0.978439 0.623346
0.128557 0.999969 0.383597
0.881971 0.948272 0.405005
0.996704 0.952102 0.590433
0 0.0293736 0.213169
0.200015 0.0122835 0.188418
0.563882 0.0153048 0.237079
0.831113 0.0742199 0.319448
0.845914 0.0836652 0.347692
0 0.188922 0.187411
0.152773 0.187274 0.19379
0.622965 0.121599 0.143206
0.86128 0.145495 0.185122
0.870787 0.143282 0.197742
0 0.611017 0.408423
0 0.635569 0.276921
0.574639 0.619486 0.0856641
0.914595 0.613138 0.223545
0.938918 0.615 0.240894
0.0411994 0.948486 0.66479
0.0339361 0.958556 0.605081
0.108263 0.999405 0.253605
0.926665 0.9299 0.311162
0.996582 0.927733 0.515526
0.0623026 0.973114 0.733394
0.0594949 0.974212 0.684611
0.0802625 0.998642 0.456489
0.849409 0.953292 0.404822
0.99646 0.952377 0.594446
0.0319371 0.0421149 0.547021
0.268101 0.0269169 0.521462
0.555474 0.0310216 0.498695
0.789792 0.06981 0.548287
0.799146 0.0687266 0.56936
0 0.10753 0.472938
0.0620737 0.0397192 0.542397
0.527687 0.0272679 0.47274
0.791745 0.069398 0.496162
0.801678 0.0698863 0.513451
0 0.573022 0.548165
0 0.565393 0.540139
0.532952 0.55462 0.546853
0.938933 0.518273 0.520272
0.938933 0.492638 0.503212
0.0575418 0.913619 0.747448
0.0503548 0.914199 0.727062
0.047776 0.941649 0.589639
0.894759 0.918029 0.447181
0.988739 0.901366 0.540307
0.0910048 0.968292 0.824491
0.0846876 0.970123 0.803586
0.0698711 0.975525 0.678233
0.739406 0.97937 0.406943
0.996338 0.953155 0.608713
0.233585 0.0547646 0.788006
0.371145 0.0507668 0.780957
0.58703 0.0536355 0.753246
0.762966 0.0923781 0.753338
0.769009 0.0932174 0.778332
0 0.0696727 0.74078
0.242191 0.0535897 0.783108
0.549981 0.0507362 0.753063
0.758602 0.09337 0.733166
0.771145 0.0919509 0.759609
0 0.527062 0.737697
0 0.505165 0.744717
0.530312 0.417655 0.911269
0.888273 0.353796 0.832776
0.880598 0.311482 0.816938
0.0687572 0.880919 0.848219
0.0610056 0.878767 0.846052
0.157809 0.87924 0.845136
0.841474 0.847593 0.834257
0.959472 0.839521 0.836316
0.178271 0.972824 0.918288
0.178012 0.974212 0.914473
0.185473 0.97348 0.88603
0.669245 0.981537 0.858289
0.984115 0.967041 0.847532
0.361929 0.0595254 0.840742
0.453056 0.0594492 0.839231
0.638575 0.0659648 0.808865
0.760052 0.099733 0.79234
0.766049 0.100252 0.79884
0.185931 0.0635538 0.832776
0.365301 0.0591897 0.84361
0.604364 0.0626993 0.817868
0.755444 0.102373 0.787015
0.766384 0.100847 0.79913
0 0.475776 0.865614
0 0.429465 0.871504
0.557351 0.270985 0.925826
0.839597 0.232349 0.867536
0.827512 0.195331 0.857145
0.137606 0.863416 0.95198
0.137697 0.858015 0.955123
0.322393 0.844648 0.95877
0.857633 0.794156 0.959136
0.943252 0.782742 0.948119
0.280781 0.976608 0.964599
0.289036 0.977356 0.966888
0.325765 0.977951 0.967071
0.734264 0.97734 0.972778
0.976059 0.973327 0.970382
