bundles/resolve-cinematic-luts/Phantom Luts/A7s3 Phntm Film LUTs - G6/SLog2+Sgamut3cine/Eastman A7s3 Sl2sg3c.cube
TITLE "Generated by Resolve"
LUT_3D_SIZE 5
0.0390021 0.0390021 0.0390021
0.188479 0.0390021 0.0441138
0.427863 0.0390021 0.049073
0.596155 0.080766 0.193576
0.764324 0.242588 0.4262
0.0726177 0.210727 0.0872511
0.252628 0.254719 0.0928206
0.547112 0.192386 0.112764
0.625879 0.146578 0.115602
0.780194 0.250202 0.397818
0.112734 0.532509 0.229786
0.154147 0.531243 0.145846
0.633982 0.645579 0.209766
0.819669 0.596124 0.296635
0.825605 0.521248 0.294087
0.222385 0.719539 0.403784
0.237766 0.697276 0.33138
0.594598 0.795499 0.370626
0.814313 0.840009 0.441337
0.882933 0.821744 0.52282
0.392065 0.769299 0.517968
0.402029 0.761547 0.483085
0.569757 0.80267 0.527306
0.806409 0.892561 0.628489
0.905303 0.908644 0.704204
0.0390021 0.0390021 0.100496
0.176242 0.0390021 0.126223
0.412024 0.0390021 0.188968
0.569711 0.0871138 0.266407
0.757427 0.249485 0.467185
0.0651865 0.213886 0.166339
0.268208 0.265095 0.26334
0.557458 0.139147 0.209506
0.626505 0.10959 0.24033
0.804211 0.296895 0.479515
0.132998 0.56907 0.336355
0.127214 0.541314 0.264012
0.629526 0.643412 0.266758
0.813916 0.56669 0.333333
0.839124 0.463645 0.377157
0.239841 0.739879 0.459037
0.225391 0.717449 0.407279
0.541863 0.771282 0.367025
0.812039 0.837339 0.436896
0.886213 0.816098 0.54197
0.399878 0.781262 0.546532
0.393439 0.767727 0.508476
0.536614 0.794263 0.520424
0.800076 0.891325 0.631144
0.903792 0.90779 0.701381
0.0390021 0.0485389 0.262135
0.178897 0.0390021 0.330007
0.409674 0.0540627 0.336553
0.595056 0.115007 0.417029
0.692821 0.190433 0.50695
0.0390021 0.174609 0.314519
0.0841688 0.134508 0.396521
0.464408 0.0849165 0.386877
0.619684 0.125246 0.431662
0.764385 0.242832 0.565286
0.133196 0.594003 0.479271
0.149752 0.598627 0.495293
0.628122 0.651225 0.630808
0.837812 0.535256 0.568643
0.862486 0.445472 0.566201
0.267796 0.788479 0.584115
0.272587 0.781064 0.574197
0.49601 0.768933 0.56463
0.818448 0.850446 0.631754
0.885908 0.796246 0.613733
0.437583 0.825315 0.632883
0.438575 0.813855 0.616358
0.462593 0.789914 0.562737
0.769497 0.88481 0.664103
0.906569 0.909987 0.708995
0.0390021 0.059144 0.352316
0.162387 0.0432898 0.426642
0.410132 0.0630961 0.436118
0.603067 0.145907 0.514458
0.672053 0.188373 0.570916
0.0390021 0.137133 0.388663
0.0390021 0.0845502 0.408453
0.448569 0.0932631 0.497902
0.634592 0.164034 0.545144
0.681453 0.197696 0.587366
0.109422 0.57969 0.569207
0.107897 0.574319 0.581567
0.519036 0.591806 0.757961
0.879271 0.570962 0.796307
0.876249 0.439811 0.758984
0.263142 0.79498 0.678737
0.267994 0.791913 0.680201
0.539284 0.829007 0.754025
0.824964 0.852461 0.825467
0.902037 0.792523 0.795956
0.430823 0.868757 0.724559
0.450492 0.869383 0.724651
0.535485 0.873869 0.734615
0.78024 0.911833 0.816052
0.919722 0.94522 0.851789
0.0390021 0.0736553 0.417609
0.117037 0.056199 0.468727
0.401785 0.0777447 0.513497
0.58764 0.142138 0.556069
0.673533 0.193133 0.615015
0.0390021 0.148867 0.433433
0.0390021 0.107576 0.428656
0.404349 0.0894331 0.542504
0.643442 0.174243 0.596338
0.680735 0.199268 0.621836
0.110369 0.579583 0.619532
0.10602 0.565911 0.628824
0.441474 0.566445 0.785718
0.879026 0.579355 0.880674
0.862547 0.408164 0.798444
0.216373 0.774823 0.70135
0.232288 0.773922 0.711376
0.464714 0.803098 0.800031
0.777691 0.829343 0.888853
0.917708 0.793393 0.889754
0.392447 0.870222 0.770169
0.417075 0.874632 0.778058
0.520027 0.892729 0.809522
0.796246 0.934401 0.891768
0.920989 0.947707 0.918669
