bundles/resolve-cinematic-luts/Phantom Luts/A7s3 Phntm Film LUTs - G6/SLog2+Sgamut3cine/Eastman A7s3 Sl2sg3c-Legacy.cube
TITLE "Generated by Resolve"
LUT_3D_SIZE 5
0.0463417 0.0390021 0.0443427
0.14963 0.0390021 0.052781
0.389242 0.0390021 0.0484016
0.564111 0.0629129 0.135393
0.726955 0.201526 0.367544
0.072221 0.159289 0.078996
0.183642 0.186923 0.0815595
0.478141 0.149676 0.0909895
0.594797 0.126375 0.0962387
0.747112 0.209628 0.345251
0.111452 0.492821 0.193866
0.140093 0.496941 0.136751
0.594141 0.605722 0.188968
0.817426 0.531014 0.269902
0.828412 0.460395 0.279866
0.205768 0.708797 0.367208
0.220569 0.693645 0.306783
0.562081 0.783948 0.336049
0.804898 0.84184 0.40351
0.87808 0.809277 0.473655
0.343328 0.753002 0.468009
0.353079 0.745907 0.431922
0.500786 0.776577 0.45716
0.769985 0.877134 0.5673
0.893736 0.889998 0.637751
0.0423896 0.0431983 0.0873732
0.141878 0.0456245 0.105638
0.374029 0.0390021 0.144564
0.534997 0.0655375 0.209094
0.722316 0.211948 0.404593
0.0669108 0.1579 0.126986
0.196811 0.19205 0.190448
0.487861 0.0984512 0.140215
0.599649 0.0908217 0.183612
0.776608 0.25098 0.422477
0.12694 0.521935 0.29369
0.119982 0.500069 0.224918
0.589685 0.601419 0.233707
0.813718 0.506218 0.305104
0.830106 0.418936 0.342672
0.215961 0.72311 0.416373
0.207401 0.706004 0.371511
0.502327 0.757122 0.329717
0.802182 0.838392 0.39942
0.880751 0.799847 0.488197
0.348852 0.763104 0.494804
0.344839 0.751431 0.455039
0.469612 0.769329 0.452262
0.760021 0.874647 0.568429
0.892363 0.889189 0.634638
0.0390021 0.0575265 0.228199
0.129717 0.045716 0.287663
0.370748 0.0518502 0.29749
0.569757 0.101991 0.367712
0.672084 0.172793 0.452781
0.0390021 0.135454 0.268772
0.0568246 0.109682 0.339925
0.418204 0.0696574 0.340002
0.600244 0.113054 0.381369
0.733822 0.212833 0.502876
0.127993 0.547967 0.4392
0.139559 0.55172 0.453895
0.582101 0.601755 0.583597
0.831785 0.473136 0.511864
0.852766 0.389807 0.509773
0.250065 0.770901 0.546014
0.250843 0.76173 0.536217
0.435416 0.741253 0.504402
0.79527 0.832151 0.573861
0.87718 0.761501 0.552056
0.382406 0.802823 0.579202
0.379629 0.791333 0.561013
0.401923 0.767987 0.501915
0.719402 0.862211 0.594995
0.896498 0.891218 0.641489
0.0390021 0.0683757 0.329397
0.111757 0.0510414 0.392187
0.372305 0.0581369 0.409033
0.57882 0.13434 0.478935
0.661906 0.17763 0.540002
0.0390021 0.115724 0.356374
0.0390021 0.0871748 0.388952
0.403326 0.0812848 0.47068
0.619959 0.15523 0.515938
0.669902 0.186084 0.55819
0.0916152 0.530999 0.532982
0.0892805 0.524254 0.548577
0.460578 0.539437 0.725719
0.872953 0.521614 0.772763
0.859007 0.395102 0.724224
0.246632 0.779843 0.657877
0.250172 0.775601 0.65919
0.489067 0.807355 0.724697
0.801709 0.829404 0.803281
0.897963 0.746044 0.760525
0.39501 0.861814 0.697292
0.410941 0.86041 0.694194
0.478447 0.857481 0.692378
0.725658 0.891951 0.772442
0.919448 0.936324 0.818509
0.0390021 0.0875715 0.408957
0.0732128 0.0677195 0.448432
0.353582 0.0745861 0.504234
0.564477 0.137957 0.546975
0.670329 0.190723 0.61178
0.0390021 0.129824 0.41146
0.0390021 0.112383 0.428489
0.344793 0.0864424 0.540169
0.634134 0.172412 0.594278
0.675029 0.195056 0.616327
0.0922255 0.527947 0.599084
0.0876631 0.511788 0.611673
0.380011 0.513939 0.769329
0.866453 0.534829 0.878798
0.841031 0.370031 0.776806
0.203418 0.75758 0.697383
0.211292 0.752895 0.704662
0.40676 0.776944 0.789349
0.731487 0.793011 0.883513
0.923949 0.755611 0.892638
0.365698 0.871595 0.766979
0.386038 0.875502 0.773495
0.47248 0.891417 0.800977
0.749798 0.933669 0.883009
0.925444 0.952193 0.923659
