bundles/resolve-cinematic-luts/Phantom Luts/A7s3 Phntm Film LUTs - G6/SLog2+Sgamut3cine/Eastman A7s3 Sl2sg3c-Legacy.cube
TITLE "Generated by Resolve"
LUT_3D_SIZE 33
0.0463417 0.0390021 0.0443427
0.0463417 0.0390021 0.0443427
0.0463569 0.0390021 0.0443427
0.0466621 0.0390021 0.0442969
0.0561227 0.0390021 0.0458381
0.0758526 0.0390021 0.0485389
0.0978714 0.0390021 0.0504616
0.12195 0.0390021 0.0519722
0.14963 0.0390021 0.052781
0.181323 0.0390021 0.0509651
0.215061 0.0390021 0.0492561
0.248234 0.0390021 0.0471046
0.279271 0.0390021 0.0456855
0.308293 0.0390021 0.0452888
0.336828 0.0390021 0.0460365
0.363928 0.0390021 0.0467231
0.389242 0.0390021 0.0484016
0.412512 0.0394903 0.0500649
0.433341 0.0406806 0.0526284
0.454261 0.0429694 0.0565652
0.474037 0.0425879 0.0629435
0.493568 0.0417029 0.071397
0.513771 0.0414588 0.0843824
0.537667 0.0510262 0.108858
0.564111 0.0629129 0.135393
0.592538 0.0767529 0.164324
0.623697 0.0927749 0.196658
0.648188 0.107424 0.225956
0.665812 0.121141 0.25359
0.678691 0.135821 0.280583
0.696818 0.156405 0.311467
0.712856 0.179278 0.340459
0.726955 0.201526 0.367544
0.0474403 0.0390021 0.044007
0.0467231 0.0390021 0.0442359
0.0463569 0.0390021 0.0443427
0.046891 0.0390021 0.0443732
0.0554208 0.0390021 0.0460059
0.0742351 0.0390021 0.0486
0.0958877 0.0390021 0.0505837
0.120562 0.0390021 0.0520027
0.148898 0.0390021 0.052903
0.181598 0.0390021 0.0509651
0.215198 0.0390021 0.0493019
0.248371 0.0390021 0.0471046
0.279713 0.0390021 0.0457008
0.309117 0.0390021 0.0453346
0.337713 0.0390021 0.0460059
0.364248 0.0390021 0.0467384
0.389624 0.0390021 0.0485389
0.412543 0.0403296 0.0500038
0.432975 0.0422065 0.0524147
0.453803 0.0449378 0.056199
0.473655 0.045243 0.0622721
0.492927 0.0446632 0.070161
0.513634 0.0433204 0.0807965
0.537606 0.0512093 0.103258
0.564248 0.0631876 0.130068
0.592447 0.0768902 0.158968
0.622919 0.0922408 0.18967
0.647013 0.106493 0.218402
0.664424 0.11957 0.24538
0.676143 0.133639 0.272145
0.693141 0.153353 0.301656
0.70837 0.175006 0.331029
0.721965 0.197269 0.3579
0.0474861 0.0390021 0.044007
0.0467384 0.0390021 0.0442512
0.0463874 0.0390021 0.044358
0.0471656 0.0390021 0.0445258
0.0537118 0.0390021 0.0460365
0.0679026 0.0390021 0.0478828
0.08925 0.0393378 0.0501106
0.113222 0.0395056 0.0519417
0.142916 0.0391699 0.0525216
0.176669 0.0390021 0.0509499
0.212451 0.0390021 0.0492409
0.245502 0.0392309 0.0471656
0.277256 0.0390021 0.0453651
0.307607 0.0390021 0.0453803
0.336324 0.0390021 0.0458076
0.363546 0.0390021 0.0466468
0.388998 0.0391089 0.0482948
0.411963 0.0416876 0.0497139
0.433036 0.0441596 0.0523842
0.453895 0.0471046 0.0559854
0.474754 0.049134 0.0624247
0.495827 0.0498512 0.0704662
0.516716 0.0499886 0.0806897
0.542031 0.0536965 0.0993973
0.568612 0.0655833 0.126253
0.597772 0.0797284 0.155413
0.628504 0.0950332 0.185885
0.650355 0.108461 0.214374
0.667247 0.121859 0.241596
0.67982 0.136187 0.269306
0.696284 0.155489 0.299092
0.711192 0.177417 0.328801
0.724178 0.19939 0.356039
0.0492256 0.039704 0.0459144
0.0482643 0.0399634 0.0461128
0.0482338 0.0400549 0.0462043
0.050309 0.0413062 0.0464485
0.0566873 0.042771 0.0479744
0.0694133 0.0436408 0.049897
0.0899367 0.0448157 0.0523079
0.112551 0.0425422 0.0518044
0.142535 0.0423133 0.0512856
0.178164 0.0421149 0.0507668
0.21445 0.0418555 0.0478523
0.246921 0.0421607 0.0448005
0.279393 0.0422827 0.0437171
0.31133 0.0407263 0.0440528
0.341039 0.0401007 0.044892
0.368383 0.0413977 0.0460059
0.392828 0.0426032 0.0474403
0.416007 0.0469368 0.0492561
0.437461 0.0524605 0.0516518
0.458381 0.0552071 0.0559548
0.479545 0.0578012 0.0624552
0.499962 0.057847 0.0704509
0.523018 0.0592966 0.08159
0.549523 0.0634318 0.0982376
0.57702 0.0703441 0.121965
0.6056 0.0842756 0.15201
0.635645 0.0984817 0.183322
0.654444 0.110918 0.211063
0.670268 0.123995 0.239658
0.684153 0.139361 0.268208
0.699641 0.157473 0.298177
0.714382 0.180133 0.328176
0.726223 0.201968 0.354742
0.0565805 0.0604868 0.0547189
0.0552529 0.0600748 0.0543526
0.0552224 0.0589151 0.0536049
0.0588693 0.060029 0.0542916
0.068864 0.0636759 0.0552987
0.0851911 0.0633249 0.0567941
0.104692 0.0613413 0.05832
0.126253 0.05832 0.0582132
0.151339 0.0569772 0.0573587
0.181781 0.0559548 0.0541085
0.21593 0.0521706 0.049012
0.250889 0.0502022 0.0430915
0.282948 0.0486305 0.0415808
0.313939 0.0462654 0.0414893
0.342458 0.0453193 0.0423438
0.366278 0.0451057 0.0426184
0.392477 0.0488136 0.044892
0.42034 0.0539101 0.0481117
0.443976 0.0586099 0.0515755
0.463752 0.0608377 0.0559243
0.484108 0.0625772 0.0621958
0.505135 0.0628519 0.0709392
0.526909 0.0622873 0.082475
0.553841 0.0688792 0.0990463
0.579324 0.0714122 0.121355
0.61059 0.0867628 0.151522
0.642878 0.10277 0.181308
0.659052 0.114183 0.208713
0.673762 0.126711 0.236316
0.687785 0.141833 0.265461
0.703655 0.1608 0.296605
0.717784 0.182925 0.326467
0.729168 0.204974 0.353674
0.062974 0.0845502 0.0628824
0.0615854 0.0843671 0.0624552
0.0609293 0.0827955 0.0607462
0.0654307 0.0836805 0.0610971
0.0766155 0.0859388 0.0614481
0.0912947 0.0868086 0.0601816
0.114046 0.0862287 0.0611124
0.141619 0.0788128 0.0630503
0.170733 0.0727855 0.0622873
0.200732 0.0691386 0.058732
0.227695 0.0674296 0.0544594
0.256687 0.0663005 0.0506294
0.285328 0.0642252 0.0449683
0.315923 0.0603799 0.0426337
0.342 0.0569772 0.0410163
0.367346 0.0560769 0.0417639
0.392691 0.0565652 0.0433204
0.414389 0.0573129 0.04477
0.436713 0.060853 0.0471046
0.459998 0.0663615 0.0509346
0.485954 0.0725872 0.0592966
0.509819 0.0763409 0.0689097
0.53724 0.0788891 0.0842756
0.561028 0.0779889 0.099321
0.586511 0.0753796 0.119295
0.612802 0.0879225 0.152407
0.643 0.103685 0.180652
0.662623 0.117479 0.20325
0.677226 0.130022 0.231769
0.692226 0.145342 0.261662
0.708461 0.163973 0.2934
0.721752 0.186221 0.32314
0.732754 0.20853 0.349859
0.0647135 0.105043 0.0674907
0.0632792 0.104845 0.0670634
0.0627146 0.103334 0.0647746
0.0669718 0.104295 0.0639963
0.0816052 0.107424 0.0663615
0.0966201 0.110384 0.0661479
0.113634 0.110353 0.0648051
0.143984 0.109728 0.0655528
0.186267 0.0976425 0.0680095
0.226825 0.0890059 0.0665293
0.258701 0.0854658 0.0630961
0.284642 0.0839704 0.059266
0.310033 0.0838331 0.0564279
0.334661 0.0825818 0.0525521
0.358068 0.0826886 0.0504463
0.379965 0.0798047 0.0477607
0.400183 0.0763561 0.0456855
0.420737 0.0741741 0.045655
0.442145 0.0745708 0.0470283
0.462013 0.0762951 0.049012
0.480354 0.0776684 0.051957
0.507286 0.084062 0.0608377
0.533074 0.0875868 0.0720989
0.566857 0.0925002 0.0927901
0.597467 0.0912337 0.115389
0.626444 0.0934005 0.144015
0.647776 0.104723 0.176654
0.662074 0.116197 0.201984
0.678462 0.130068 0.227848
0.695567 0.146334 0.259709
0.716487 0.166278 0.28809
0.733227 0.187732 0.31928
0.746868 0.209079 0.346578
0.0708019 0.129335 0.0731365
0.0684825 0.129397 0.0726329
0.0669566 0.127962 0.0700542
0.0690318 0.129213 0.0679179
0.0823835 0.133013 0.0697795
0.101122 0.138125 0.0728923
0.118242 0.141802 0.0728923
0.142931 0.14226 0.0720378
0.185931 0.139971 0.0719615
0.242191 0.123796 0.0757305
0.288624 0.112886 0.0752422
0.321599 0.109209 0.0731823
0.347066 0.107759 0.0699626
0.367895 0.109483 0.068864
0.390112 0.109361 0.0662242
0.411826 0.110109 0.0647135
0.430137 0.110491 0.0631571
0.446845 0.11136 0.0626383
0.461189 0.107042 0.060029
0.477211 0.103746 0.0584115
0.49398 0.101701 0.058854
0.515068 0.103471 0.0637675
0.535485 0.102235 0.0697795
0.556786 0.101869 0.0780194
0.588617 0.103899 0.0976272
0.623606 0.103777 0.124956
0.64889 0.105043 0.155138
0.664408 0.118654 0.19028
0.676463 0.129595 0.224018
0.691569 0.144213 0.259342
0.716152 0.166629 0.285924
0.735042 0.189471 0.314748
0.75172 0.213352 0.339742
0.072221 0.159289 0.078996
0.0695048 0.159701 0.0782483
0.0675517 0.157946 0.0751659
0.0683757 0.158801 0.0706951
0.0765393 0.162799 0.0709392
0.0979019 0.170504 0.0762036
0.121813 0.178607 0.080827
0.145571 0.184787 0.0820325
0.183642 0.186923 0.0815595
0.241382 0.185626 0.0813611
0.304387 0.171389 0.0885939
0.354604 0.155474 0.0939193
0.390707 0.14934 0.0934462
0.416007 0.146319 0.0925307
0.43624 0.147768 0.0921645
0.457755 0.149111 0.0918746
0.478141 0.149676 0.0909895
0.496788 0.150607 0.0912337
0.512505 0.150393 0.0912184
0.525109 0.149172 0.0908675
0.536889 0.148104 0.0908522
0.548104 0.142748 0.0888075
0.563439 0.138308 0.0890822
0.576577 0.131029 0.088838
0.594797 0.126375 0.0962387
0.616785 0.120699 0.10985
0.639109 0.118593 0.130724
0.661845 0.117708 0.159091
0.681758 0.133822 0.203647
0.697215 0.148516 0.242954
0.714351 0.165911 0.281804
0.730343 0.186374 0.318456
0.747112 0.209628 0.345251
0.0760052 0.195285 0.0873884
0.0729229 0.195972 0.0867628
0.0704356 0.195117 0.0829633
0.0702525 0.195926 0.0773327
0.0750134 0.198352 0.0749218
0.091249 0.206912 0.079057
0.122103 0.220233 0.0880751
0.153933 0.232578 0.0948959
0.191791 0.243458 0.0977646
0.244739 0.246967 0.0972457
0.310033 0.246098 0.0935836
0.371481 0.236149 0.102235
0.419776 0.217823 0.112932
0.458579 0.205463 0.118486
0.485863 0.201068 0.119615
0.507942 0.199634 0.120958
0.527474 0.199527 0.120974
0.547036 0.200305 0.121904
0.565103 0.199725 0.12192
0.581628 0.198062 0.122972
0.59649 0.196094 0.124651
0.610361 0.194583 0.126513
0.62211 0.191257 0.12932
0.630823 0.187869 0.13135
0.636622 0.173617 0.125917
0.647044 0.163043 0.125704
0.646097 0.147555 0.125093
0.655573 0.140551 0.138399
0.672557 0.137606 0.163928
0.703578 0.153933 0.211994
0.720058 0.170657 0.257816
0.73489 0.190158 0.297566
0.749615 0.211704 0.334188
0.0853895 0.240726 0.101274
0.0819409 0.241611 0.100679
0.0793927 0.241886 0.0971237
0.0790417 0.24329 0.0915847
0.0794232 0.243137 0.0850385
0.0900282 0.249851 0.0860914
0.1205 0.265797 0.0956283
0.158892 0.281361 0.105913
0.203738 0.296025 0.112566
0.252857 0.30692 0.111727
0.312444 0.309667 0.11078
0.377539 0.308659 0.103243
0.433646 0.302922 0.111467
0.478981 0.285313 0.123278
0.519097 0.268864 0.13518
0.549294 0.259693 0.140551
0.572656 0.25565 0.141558
0.592309 0.254292 0.142763
0.611292 0.253605 0.144366
0.629343 0.250568 0.145953
0.647105 0.247929 0.147463
0.662623 0.24567 0.149035
0.677317 0.24213 0.151049
0.690318 0.237873 0.154772
0.699962 0.233646 0.158968
0.707317 0.22681 0.164904
0.705409 0.214054 0.167315
0.690135 0.190143 0.154467
0.682826 0.174258 0.1552
0.685481 0.161135 0.166751
0.717403 0.168246 0.209689
0.738369 0.19353 0.263416
0.753933 0.216907 0.306477
0.0974136 0.291478 0.1178
0.0932174 0.292546 0.1178
0.0903792 0.292851 0.114244
0.0895247 0.293904 0.108415
0.088716 0.294438 0.101244
0.0928206 0.29543 0.0953994
0.113832 0.308019 0.100298
0.15349 0.324514 0.110002
0.203052 0.340078 0.118914
0.262089 0.356176 0.121614
0.317281 0.36762 0.119982
0.37615 0.36936 0.120302
0.435843 0.367773 0.110048
0.487343 0.364736 0.118608
0.532204 0.350851 0.130694
0.571008 0.33228 0.142962
0.601801 0.317052 0.151965
0.627253 0.308049 0.158145
0.648524 0.305425 0.160693
0.667414 0.305074 0.163455
0.686793 0.299077 0.166522
0.704707 0.295094 0.170001
0.720851 0.292683 0.172641
0.735576 0.288319 0.175738
0.748486 0.284825 0.179095
0.759075 0.279408 0.183627
0.759564 0.270512 0.185885
0.752377 0.259648 0.186709
0.734874 0.243183 0.185779
0.722316 0.223285 0.186358
0.704265 0.195636 0.178012
0.726711 0.199344 0.213321
0.753002 0.217609 0.258289
0.103288 0.337881 0.130419
0.0994125 0.338415 0.130526
0.0953384 0.338811 0.126711
0.093843 0.339391 0.121355
0.0935225 0.34052 0.11545
0.095201 0.340337 0.105501
0.108034 0.346212 0.103273
0.140322 0.362234 0.110521
0.191226 0.378973 0.120851
0.259205 0.398016 0.127352
0.318135 0.413855 0.127398
0.371923 0.42533 0.126406
0.428717 0.425238 0.12813
0.485283 0.421408 0.117037
0.533944 0.419028 0.125429
0.57818 0.41004 0.138216
0.615503 0.392065 0.153552
0.645304 0.374456 0.162829
0.670512 0.361318 0.173358
0.693629 0.35288 0.18262
0.712428 0.352132 0.186801
0.731792 0.347707 0.191363
0.748791 0.343893 0.196643
0.76495 0.338033 0.200916
0.778897 0.332647 0.205676
0.790188 0.327779 0.208667
0.794598 0.320134 0.210346
0.791089 0.311116 0.208759
0.783276 0.298634 0.205722
0.772168 0.284245 0.20238
0.752865 0.265629 0.200534
0.733227 0.247272 0.204593
0.737972 0.238788 0.222263
0.10544 0.381201 0.141588
0.102434 0.381155 0.140688
0.0998398 0.381277 0.136629
0.0986801 0.381826 0.131899
0.0975662 0.383001 0.126772
0.0983902 0.383352 0.118227
0.10515 0.385199 0.108934
0.128328 0.396857 0.111299
0.17409 0.412497 0.119768
0.244053 0.431296 0.128969
0.316335 0.453071 0.133593
0.371481 0.467613 0.133394
0.421637 0.477531 0.134371
0.477272 0.474739 0.138796
0.528908 0.471107 0.13019
0.573877 0.469291 0.13843
0.616785 0.463676 0.152758
0.653971 0.447807 0.169543
0.681819 0.427741 0.178439
0.706538 0.412146 0.189425
0.730999 0.401099 0.202625
0.748287 0.397024 0.210147
0.765927 0.39379 0.215976
0.783032 0.38967 0.221088
0.798215 0.383246 0.226612
0.81117 0.375952 0.231632
0.818265 0.369024 0.234195
0.814755 0.360281 0.233814
0.809949 0.349935 0.23151
0.802686 0.336431 0.227817
0.793393 0.322728 0.223728
0.779065 0.306966 0.219684
0.760891 0.290547 0.21828
0.104891 0.420813 0.15317
0.102464 0.420569 0.150958
0.100328 0.420584 0.14725
0.0995956 0.420996 0.142443
0.0994888 0.42211 0.138949
0.100893 0.422675 0.131701
0.106203 0.423804 0.12137
0.121492 0.428687 0.114656
0.158846 0.442863 0.12047
0.225284 0.460319 0.130526
0.305562 0.483848 0.140642
0.369635 0.503426 0.14403
0.419516 0.516335 0.145785
0.466789 0.524849 0.147601
0.520562 0.521401 0.153582
0.568795 0.517906 0.147524
0.610925 0.51606 0.154818
0.651209 0.511131 0.169085
0.688182 0.497047 0.187228
0.716091 0.476921 0.198581
0.739345 0.460029 0.209506
0.759838 0.448402 0.220447
0.777539 0.442603 0.229633
0.792844 0.438834 0.237171
0.807721 0.43299 0.24448
0.821714 0.42858 0.248539
0.832654 0.421592 0.252628
0.830549 0.412085 0.253178
0.827771 0.401297 0.25275
0.823514 0.389456 0.251896
0.817288 0.376593 0.247547
0.806622 0.361883 0.244663
0.79292 0.346578 0.241108
0.105318 0.457847 0.170809
0.103639 0.457267 0.166629
0.102251 0.457221 0.162615
0.102296 0.457099 0.158068
0.102998 0.457557 0.153277
0.104799 0.458396 0.146715
0.10721 0.458183 0.135882
0.117708 0.460563 0.125307
0.145571 0.470695 0.12604
0.211872 0.48661 0.135317
0.288716 0.50779 0.147204
0.369772 0.534493 0.155123
0.419486 0.549783 0.157473
0.465812 0.561868 0.159945
0.508827 0.568353 0.162875
0.558968 0.564523 0.16997
0.60415 0.560983 0.166506
0.645197 0.558434 0.17464
0.683925 0.554376 0.187854
0.720241 0.541466 0.206912
0.746899 0.522866 0.220615
0.767102 0.506584 0.231022
0.784329 0.494484 0.239826
0.800031 0.486763 0.247684
0.812894 0.48365 0.254093
0.824811 0.47892 0.259052
0.835019 0.473625 0.264363
0.838575 0.466117 0.267506
0.837736 0.45687 0.26891
0.836149 0.446738 0.268345
0.832441 0.43418 0.267155
0.824796 0.41709 0.265919
0.814786 0.400458 0.263355
0.111452 0.492821 0.193866
0.11017 0.492088 0.18909
0.109087 0.491615 0.185275
0.109483 0.491295 0.180743
0.110201 0.491188 0.175158
0.112306 0.491142 0.166995
0.115297 0.491615 0.158145
0.120714 0.49102 0.143114
0.140093 0.496941 0.136751
0.194491 0.510948 0.141878
0.275441 0.530922 0.152697
0.357107 0.558724 0.165362
0.422721 0.580591 0.171008
0.463478 0.593973 0.173495
0.506188 0.604547 0.177264
0.545998 0.610086 0.180819
0.594141 0.605722 0.188968
0.637736 0.602502 0.187762
0.677089 0.599695 0.196658
0.713603 0.595712 0.208469
0.748913 0.583444 0.228717
0.772793 0.567346 0.243534
0.790173 0.552453 0.255299
0.803998 0.539513 0.262287
0.817426 0.531014 0.269902
0.826902 0.527092 0.273182
0.834928 0.523079 0.27541
0.8383 0.521813 0.274571
0.839231 0.515251 0.274861
0.838987 0.504814 0.275288
0.838651 0.49276 0.277028
0.834669 0.478157 0.278706
0.828412 0.460395 0.279866
0.120027 0.52668 0.218769
0.118761 0.525689 0.214405
0.117968 0.5252 0.21236
0.118059 0.524666 0.207904
0.119005 0.523964 0.200656
0.121233 0.523156 0.190234
0.123674 0.52285 0.180499
0.127825 0.522286 0.167071
0.139147 0.52369 0.152575
0.180987 0.535302 0.152605
0.261295 0.552941 0.158968
0.342184 0.578744 0.172259
0.417044 0.606638 0.184436
0.468971 0.623453 0.188113
0.5028 0.635157 0.193362
0.541588 0.644785 0.198169
0.58027 0.649424 0.20267
0.627115 0.645747 0.21059
0.668376 0.641581 0.211292
0.706493 0.638239 0.219318
0.7411 0.635203 0.229786
0.773587 0.624399 0.25127
0.795514 0.609247 0.270863
0.809918 0.596201 0.281483
0.820996 0.584085 0.289067
0.830274 0.574884 0.294789
0.83621 0.571481 0.296376
0.839628 0.569558 0.295552
0.840162 0.569436 0.2925
0.839673 0.562005 0.290791
0.838178 0.551125 0.289189
0.835355 0.537743 0.287968
0.831662 0.522622 0.288365
0.130327 0.55967 0.244083
0.129015 0.558633 0.24062
0.128374 0.558175 0.239521
0.128237 0.557351 0.235859
0.129168 0.556283 0.22858
0.130846 0.554681 0.216968
0.13373 0.553506 0.204807
0.137758 0.552758 0.19115
0.14342 0.55172 0.1738
0.171191 0.560678 0.167468
0.248005 0.575525 0.169894
0.327932 0.598459 0.181643
0.408515 0.628656 0.195956
0.470481 0.651179 0.205325
0.509438 0.66479 0.210422
0.540383 0.675486 0.216785
0.575753 0.68397 0.221698
0.612787 0.687373 0.226703
0.657313 0.683909 0.233753
0.697566 0.678874 0.235721
0.733547 0.675639 0.243854
0.766049 0.672908 0.254673
0.794217 0.662745 0.279332
0.814878 0.648508 0.300557
0.827588 0.637888 0.310704
0.83592 0.628077 0.317388
0.841016 0.619654 0.321386
0.843687 0.617456 0.322164
0.843626 0.617487 0.320027
0.843442 0.617105 0.316686
0.841947 0.609522 0.313191
0.83917 0.598047 0.310094
0.834791 0.582925 0.30692
0.141878 0.592081 0.26894
0.140795 0.591196 0.266438
0.1402 0.590967 0.266178
0.140002 0.589792 0.262882
0.14023 0.588113 0.256901
0.141253 0.585809 0.244587
0.144183 0.583871 0.230381
0.148104 0.583062 0.216098
0.153368 0.581994 0.199023
0.171649 0.586435 0.18497
0.233051 0.598611 0.184619
0.317174 0.618631 0.194293
0.39234 0.645197 0.20882
0.46392 0.673487 0.221408
0.515099 0.691585 0.228885
0.546395 0.702937 0.234592
0.574502 0.71194 0.241245
0.607172 0.719524 0.246952
0.643595 0.722637 0.252888
0.685771 0.720226 0.260014
0.72398 0.715236 0.263142
0.757641 0.71162 0.272725
0.786511 0.709133 0.288441
0.811963 0.700572 0.310338
0.832303 0.686503 0.330709
0.84332 0.677302 0.339635
0.849012 0.669429 0.345403
0.851041 0.664073 0.349599
0.850721 0.662959 0.349294
0.850477 0.662303 0.346426
0.850019 0.660716 0.342016
0.84744 0.653773 0.338888
0.843046 0.641337 0.334249
0.154116 0.622278 0.292027
0.152987 0.621241 0.289998
0.152285 0.620508 0.289998
0.152255 0.619608 0.28777
0.152865 0.618006 0.282887
0.153948 0.615732 0.272023
0.155825 0.613031 0.257649
0.159609 0.610636 0.240375
0.164843 0.610101 0.225513
0.178744 0.612314 0.207736
0.224842 0.621393 0.20148
0.304555 0.637308 0.20795
0.378653 0.66038 0.221836
0.450736 0.688655 0.237232
0.512474 0.712245 0.247578
0.551232 0.726345 0.253193
0.579538 0.736004 0.259525
0.606195 0.744472 0.26685
0.636667 0.751308 0.272831
0.671748 0.753674 0.279316
0.713603 0.751842 0.286427
0.74873 0.747127 0.294453
0.779324 0.74403 0.309941
0.805859 0.741039 0.324407
0.829496 0.73315 0.343389
0.847959 0.720668 0.35996
0.856092 0.712657 0.367651
0.859785 0.706569 0.373297
0.85922 0.70251 0.376028
0.859007 0.700877 0.37435
0.859266 0.700206 0.370535
0.857862 0.697597 0.365438
0.854658 0.690822 0.361654
0.167452 0.649393 0.314092
0.166522 0.648188 0.31133
0.166049 0.647318 0.309911
0.166308 0.646143 0.306783
0.166995 0.644282 0.300069
0.168826 0.641855 0.289433
0.170642 0.638727 0.274937
0.173968 0.635737 0.256977
0.180194 0.634546 0.239994
0.191928 0.636576 0.226215
0.226154 0.643168 0.21326
0.300572 0.656474 0.216159
0.375067 0.677165 0.23061
0.446494 0.704051 0.247272
0.50956 0.729198 0.260914
0.561212 0.747753 0.267933
0.592416 0.758694 0.273686
0.618112 0.766979 0.279698
0.643168 0.774166 0.286976
0.672801 0.779904 0.29395
0.706462 0.781582 0.300954
0.745541 0.779583 0.312139
0.777996 0.775219 0.324529
0.805814 0.770336 0.33901
0.830106 0.767163 0.352819
0.852079 0.759152 0.370413
0.866758 0.747951 0.383673
0.871702 0.741405 0.392157
0.87042 0.736782 0.397406
0.868254 0.733761 0.400031
0.866957 0.732692 0.398978
0.865553 0.732464 0.39408
0.862943 0.728267 0.388556
0.180804 0.672908 0.333318
0.180331 0.671977 0.33138
0.179675 0.671092 0.32958
0.179934 0.669902 0.32604
0.180331 0.667994 0.320485
0.181247 0.66537 0.31133
0.182971 0.662409 0.298116
0.186435 0.658793 0.280354
0.193652 0.657649 0.26363
0.206195 0.659388 0.249302
0.23122 0.663523 0.235645
0.287343 0.672465 0.232578
0.364721 0.690227 0.243458
0.432135 0.712856 0.258976
0.497566 0.739269 0.275013
0.550607 0.760235 0.28661
0.592142 0.774762 0.2925
0.618875 0.784451 0.299046
0.644373 0.792462 0.307073
0.668818 0.799558 0.315419
0.698283 0.804944 0.323217
0.731014 0.806973 0.334829
0.768292 0.805539 0.346441
0.797787 0.800061 0.358557
0.823011 0.795026 0.371221
0.846021 0.791165 0.384268
0.863676 0.783322 0.398749
0.874205 0.774121 0.411551
0.875517 0.769009 0.419699
0.873686 0.764981 0.423667
0.872694 0.762356 0.424994
0.871382 0.761166 0.422095
0.869734 0.760739 0.415503
0.193866 0.692836 0.351598
0.193011 0.691539 0.348989
0.192615 0.690669 0.347326
0.192844 0.689174 0.343755
0.193378 0.687297 0.337926
0.193851 0.684474 0.32871
0.195285 0.68127 0.316945
0.197864 0.678203 0.302022
0.207385 0.677333 0.286259
0.219425 0.678172 0.271305
0.242527 0.681376 0.262318
0.286351 0.687816 0.257801
0.352041 0.700053 0.263828
0.417044 0.718395 0.276631
0.478126 0.740993 0.291844
0.533135 0.763973 0.306676
0.578119 0.782147 0.317769
0.612192 0.795178 0.325414
0.639246 0.805127 0.332769
0.665736 0.813642 0.340841
0.691127 0.820798 0.347951
0.722133 0.826337 0.355566
0.752834 0.828122 0.366232
0.788098 0.8262 0.376349
0.81413 0.820874 0.387366
0.838209 0.815625 0.400229
0.858625 0.811597 0.41236
0.871489 0.804669 0.426261
0.878035 0.797787 0.438254
0.877699 0.793027 0.446433
0.877073 0.789837 0.449607
0.876326 0.787366 0.448646
0.875502 0.786389 0.44445
0.205768 0.708797 0.367208
0.205264 0.707485 0.364599
0.204623 0.706203 0.362341
0.20444 0.704952 0.358175
0.2047 0.702937 0.35288
0.20531 0.700374 0.344717
0.207431 0.697459 0.334051
0.210483 0.694453 0.320424
0.220569 0.693645 0.306783
0.234821 0.693874 0.292317
0.257496 0.696422 0.285801
0.285359 0.700786 0.282948
0.3411 0.709102 0.28452
0.402731 0.723339 0.294087
0.459449 0.741878 0.306615
0.515084 0.764202 0.322286
0.562081 0.783948 0.336049
0.599741 0.799771 0.346303
0.631083 0.812192 0.354971
0.659815 0.82237 0.362676
0.68748 0.831357 0.371115
0.713695 0.838193 0.377584
0.743358 0.843259 0.384436
0.773022 0.843946 0.394415
0.804898 0.84184 0.40351
0.829725 0.836378 0.414771
0.852323 0.831693 0.42707
0.868757 0.827848 0.438865
0.877516 0.821836 0.45388
0.878752 0.817014 0.466865
0.877958 0.813672 0.473793
0.877775 0.810513 0.476341
0.87808 0.809277 0.473655
0.217578 0.720989 0.38175
0.216876 0.7196 0.37821
0.215976 0.718288 0.375174
0.21532 0.716716 0.370459
0.215534 0.714702 0.365286
0.216968 0.712627 0.358373
0.219165 0.710079 0.349477
0.223545 0.707286 0.337407
0.233387 0.705974 0.324605
0.24921 0.705898 0.311803
0.272343 0.708217 0.306264
0.297002 0.711727 0.304845
0.331853 0.716945 0.305455
0.38912 0.727398 0.310933
0.443244 0.742443 0.32195
0.494545 0.761212 0.335225
0.543084 0.781476 0.349691
0.585397 0.799969 0.362921
0.619699 0.814603 0.373495
0.651225 0.827039 0.383124
0.67985 0.837018 0.390906
0.708354 0.845808 0.398322
0.733532 0.851682 0.404059
0.762463 0.855344 0.411093
0.788708 0.85597 0.420569
0.819394 0.853895 0.430091
0.843061 0.848325 0.441077
0.862211 0.845472 0.45333
0.875853 0.842283 0.46598
0.878767 0.837736 0.482643
0.879301 0.834852 0.493874
0.879438 0.831968 0.500282
0.879484 0.829847 0.501793
0.226459 0.728603 0.392691
0.226032 0.727398 0.38938
0.225544 0.726207 0.385855
0.224948 0.724468 0.380926
0.224994 0.722667 0.37554
0.2262 0.72047 0.368353
0.229908 0.718563 0.360876
0.236072 0.71635 0.352087
0.244984 0.714122 0.340551
0.262623 0.713558 0.330022
0.285801 0.715785 0.325216
0.307286 0.718624 0.323812
0.334951 0.722454 0.324514
0.378424 0.729824 0.328649
0.428534 0.741604 0.336416
0.477333 0.757214 0.348196
0.526421 0.776608 0.362173
0.570718 0.795682 0.37583
0.608957 0.812665 0.388556
0.641688 0.826261 0.399664
0.671916 0.837751 0.409461
