bundles/resolve-cinematic-luts/Phantom Luts/A7s3 Phntm Film LUTs - G6/SLog2+Sgamut3cine/Eastman A7s3 Sl2sg3c.cube
TITLE "Generated by Resolve"
LUT_3D_SIZE 9
0.0390021 0.0390021 0.0390021
0.0539712 0.0390021 0.0390021
0.188479 0.0390021 0.0441138
0.325399 0.0390021 0.0405432
0.427863 0.0390021 0.049073
0.507622 0.0390021 0.0901198
0.596155 0.080766 0.193576
0.695171 0.148714 0.314443
0.764324 0.242588 0.4262
0.0533303 0.0658274 0.0532387
0.0743267 0.0694285 0.052781
0.196048 0.0597238 0.0515755
0.331212 0.0489509 0.0390021
0.430549 0.0528267 0.0458839
0.517922 0.0571603 0.0758068
0.607889 0.0883955 0.172839
0.703349 0.154421 0.294438
0.76434 0.245563 0.409598
0.0726177 0.210727 0.0872511
0.0830243 0.21622 0.0722362
0.252628 0.254719 0.0928206
0.467109 0.201877 0.111162
0.547112 0.192386 0.112764
0.599847 0.182864 0.117388
0.625879 0.146578 0.115602
0.71281 0.162112 0.251179
0.780194 0.250202 0.397818
0.0925307 0.38912 0.140047
0.0873732 0.389822 0.11928
0.227008 0.431067 0.116487
0.483391 0.477791 0.130968
0.658457 0.451865 0.164706
0.739864 0.409751 0.200046
0.798306 0.383459 0.22591
0.80502 0.340383 0.230426
0.768917 0.294331 0.263462
0.112734 0.532509 0.229786
0.113756 0.527108 0.200778
0.154147 0.531243 0.145846
0.470497 0.623972 0.182666
0.633982 0.645579 0.209766
0.77174 0.629038 0.252857
0.819669 0.596124 0.296635
0.835782 0.580209 0.295323
0.825605 0.521248 0.294087
0.166171 0.650675 0.333532
0.164889 0.644221 0.320989
0.176333 0.630762 0.25243
0.429603 0.689509 0.248157
0.612604 0.759243 0.289235
0.740856 0.770718 0.320928
0.833722 0.759106 0.380713
0.862898 0.738262 0.416281
0.858534 0.728756 0.399313
0.222385 0.719539 0.403784
0.220203 0.711162 0.384222
0.237766 0.697276 0.33138
0.376684 0.715724 0.312566
0.594598 0.795499 0.370626
0.715953 0.837736 0.406714
0.814313 0.840009 0.441337
0.878202 0.830259 0.500252
0.882933 0.821744 0.52282
0.273686 0.741863 0.443671
0.270207 0.734417 0.417945
0.302495 0.727367 0.384848
0.395102 0.740154 0.38204
0.558556 0.789609 0.430777
0.712779 0.853407 0.489326
0.80029 0.8748 0.513313
0.87306 0.876112 0.553079
0.897673 0.885145 0.637217
0.392065 0.769299 0.517968
0.385199 0.762966 0.496727
0.402029 0.761547 0.483085
0.462959 0.772747 0.490028
0.569757 0.80267 0.527306
0.706172 0.855131 0.586892
0.806409 0.892561 0.628489
0.862715 0.903136 0.649592
0.905303 0.908644 0.704204
0.0390021 0.0390021 0.0419471
0.0552224 0.0390021 0.0474708
0.175296 0.0390021 0.0815442
0.312627 0.0390021 0.0732586
0.409827 0.0390021 0.0903639
0.486137 0.0411383 0.149599
0.568444 0.0802777 0.221225
0.682597 0.15906 0.337865
0.757168 0.249653 0.442588
0.0507515 0.0639048 0.0631418
0.0733043 0.0660105 0.0730602
0.221149 0.0448157 0.0595254
0.332082 0.0390021 0.044358
0.418097 0.0390021 0.0504311
0.498939 0.0448615 0.10193
0.595758 0.0972915 0.212757
0.696818 0.170825 0.336172
0.770794 0.268452 0.446616
0.0742809 0.216083 0.119142
0.0679789 0.215808 0.0944686
0.254978 0.255116 0.103563
0.455695 0.195895 0.121431
0.53312 0.170871 0.115251
0.600183 0.149187 0.128084
0.649927 0.119814 0.174655
0.717449 0.175082 0.311635
0.793118 0.28159 0.425559
0.0936446 0.39791 0.181353
0.0847028 0.394247 0.151766
0.157656 0.41471 0.111604
0.481224 0.474617 0.132982
0.661967 0.432807 0.175555
0.740764 0.392721 0.214542
0.802197 0.360067 0.240528
0.800168 0.322438 0.252415
0.792798 0.282551 0.320653
0.117723 0.543908 0.269718
0.110246 0.537224 0.247654
0.125551 0.526528 0.166964
0.45304 0.618158 0.182742
0.633921 0.64419 0.208988
0.774273 0.620874 0.266316
0.818265 0.584039 0.307347
0.836774 0.560067 0.310018
0.831098 0.491829 0.318807
0.171649 0.65919 0.359457
0.166964 0.652949 0.349233
0.170611 0.63537 0.284443
0.38352 0.672358 0.239811
0.606394 0.756954 0.289143
0.740536 0.769314 0.319478
0.835203 0.754757 0.38938
0.862821 0.732555 0.424384
0.857694 0.719829 0.409522
0.227237 0.726802 0.42414
0.222721 0.718441 0.404959
0.225101 0.70106 0.355749
0.339437 0.709041 0.313588
0.579217 0.788479 0.368917
0.71162 0.835889 0.406378
0.813214 0.838743 0.439216
0.87924 0.827848 0.50457
0.884138 0.819562 0.528572
0.278538 0.748928 0.460151
0.273213 0.740719 0.435492
0.285985 0.72929 0.394278
0.379904 0.737316 0.38291
0.540093 0.78233 0.426825
0.705623 0.851011 0.488548
0.798093 0.874525 0.512932
0.872328 0.875654 0.551232
0.898375 0.885054 0.640284
0.393759 0.772931 0.527138
0.387472 0.766781 0.508782
0.390005 0.760052 0.482002
0.451804 0.770672 0.489448
0.559228 0.799741 0.523674
0.698863 0.852247 0.585016
0.80412 0.892103 0.629007
0.861509 0.90312 0.649363
0.904921 0.908263 0.702953
0.0390021 0.0390021 0.100496
0.0784466 0.0390021 0.121843
0.176242 0.0390021 0.126223
0.312322 0.0390021 0.151965
0.412024 0.0390021 0.188968
0.496803 0.0580453 0.223423
0.569711 0.0871138 0.266407
0.673121 0.155245 0.35877
0.757427 0.249485 0.467185
0.0393988 0.0647593 0.11104
0.0399329 0.0509041 0.148379
0.204974 0.0390021 0.153841
0.323919 0.0390021 0.14638
0.415732 0.0390021 0.15848
0.495476 0.0518654 0.193271
0.570611 0.0843824 0.247211
0.688716 0.168338 0.36405
0.774289 0.271824 0.478218
0.0651865 0.213886 0.166339
0.0635233 0.218235 0.173129
0.268208 0.265095 0.26334
0.466789 0.207263 0.24567
0.557458 0.139147 0.209506
0.609857 0.121553 0.218235
0.626505 0.10959 0.24033
0.7205 0.180926 0.359228
0.804211 0.296895 0.479515
0.103716 0.422583 0.261891
0.099321 0.420615 0.248417
0.152148 0.430961 0.224933
0.49015 0.492607 0.268299
0.654841 0.420264 0.269123
0.753094 0.356283 0.266575
0.813245 0.339986 0.301472
0.813916 0.302724 0.324239
0.80766 0.296284 0.429831
0.132998 0.56907 0.336355
0.127169 0.562768 0.324941
0.127214 0.541314 0.264012
0.375113 0.590814 0.238422
0.629526 0.643412 0.266758
0.774258 0.599725 0.313024
0.813916 0.56669 0.333333
0.845319 0.521599 0.351034
0.839124 0.463645 0.377157
0.186374 0.676768 0.406012
0.18172 0.670756 0.399847
0.174868 0.653834 0.355123
0.271595 0.648508 0.267292
0.579843 0.74728 0.314168
0.737835 0.767452 0.337499
0.838972 0.7458 0.409125
0.861433 0.722667 0.440192
0.853056 0.699001 0.432258
0.239841 0.739879 0.459037
0.235584 0.733822 0.4533
0.225391 0.717449 0.407279
0.287846 0.702617 0.328008
0.541863 0.771282 0.367025
0.702815 0.833219 0.4103
0.812039 0.837339 0.436896
0.882719 0.82417 0.517815
0.886213 0.816098 0.54197
0.29131 0.761883 0.490486
0.285435 0.756283 0.480766
0.279393 0.740764 0.434897
0.344335 0.733562 0.392035
0.501656 0.769543 0.422309
0.691569 0.846128 0.489433
0.795163 0.87483 0.515862
0.871809 0.875212 0.549706
0.899428 0.88513 0.647745
0.399878 0.781262 0.546532
0.393011 0.77586 0.535607
0.393439 0.767727 0.508476
0.430182 0.767437 0.491096
0.536614 0.794263 0.520424
0.681849 0.845197 0.583551
0.800076 0.891325 0.631144
0.860655 0.903502 0.649622
0.903792 0.90779 0.701381
0.0390021 0.0424353 0.18793
0.0575113 0.0402075 0.223285
0.18909 0.0390021 0.240589
0.303883 0.0390021 0.238285
0.416327 0.0415045 0.266331
0.504707 0.0696727 0.310353
0.586465 0.105211 0.350332
0.649409 0.138674 0.391257
0.738888 0.230869 0.496437
0.0390021 0.0570993 0.204196
0.0390021 0.0454261 0.230396
0.188128 0.0390021 0.28011
0.326284 0.0390021 0.257832
0.421866 0.0439155 0.266377
0.510063 0.072755 0.307958
0.5935 0.109438 0.345342
0.655558 0.145602 0.393347
0.760906 0.254871 0.513527
0.043122 0.201724 0.245945
0.0390021 0.196292 0.266133
0.170443 0.203815 0.36083
0.437644 0.175509 0.379721
0.511452 0.11545 0.338048
0.564523 0.103136 0.314305
0.609201 0.109606 0.325658
0.682933 0.157931 0.395544
0.793606 0.275242 0.522683
0.0925765 0.428 0.339956
0.0929885 0.434302 0.349996
0.14641 0.457938 0.381277
0.48542 0.497856 0.484977
0.652949 0.432929 0.455573
0.768673 0.353628 0.420539
0.825666 0.31342 0.4056
0.816114 0.279149 0.433783
0.820157 0.309728 0.503944
0.140215 0.592691 0.412619
0.141375 0.594736 0.418357
0.156451 0.588556 0.397681
0.369985 0.60737 0.432746
0.630167 0.656794 0.471077
0.755642 0.589563 0.447181
0.827405 0.520806 0.41738
0.851682 0.480903 0.428168
0.840314 0.45182 0.457694
0.20209 0.703426 0.473991
0.203098 0.701167 0.476829
0.204379 0.689876 0.451942
0.285954 0.667964 0.402823
0.517586 0.717449 0.443046
0.733959 0.770077 0.472526
0.84007 0.724773 0.485863
0.857649 0.702113 0.470603
0.846632 0.653574 0.473457
0.259037 0.766171 0.520104
0.258015 0.760586 0.517327
0.251728 0.746517 0.489174
0.285313 0.719203 0.425925
0.467063 0.745693 0.43357
0.675685 0.822034 0.488167
0.811673 0.838819 0.50016
0.887922 0.817792 0.548043
0.888212 0.808682 0.567895
0.30988 0.784848 0.53817
0.306584 0.77908 0.530892
0.303609 0.768078 0.509361
0.299138 0.743999 0.451362
0.442283 0.758267 0.435843
0.661067 0.833906 0.499779
0.789654 0.875731 0.530648
0.872709 0.875364 0.55108
0.903578 0.887694 0.667872
0.417594 0.797498 0.581201
0.410895 0.792889 0.57348
0.409125 0.786053 0.558694
0.41326 0.773907 0.525643
0.496727 0.786587 0.524849
0.64654 0.832456 0.581384
0.790158 0.889296 0.636713
0.85861 0.904524 0.654017
0.904341 0.907469 0.699718
0.0390021 0.0485389 0.262135
0.0447242 0.0440986 0.294865
0.178897 0.0390021 0.330007
0.313146 0.0390021 0.323125
0.409674 0.0540627 0.336553
0.508507 0.082826 0.371084
0.595056 0.115007 0.417029
0.65774 0.146304 0.465675
0.692821 0.190433 0.50695
0.0390021 0.0614786 0.280201
0.0390021 0.051194 0.298421
0.155367 0.0390021 0.359106
0.328252 0.0390021 0.346792
0.420233 0.0579232 0.345998
0.519432 0.0862593 0.376989
0.604654 0.119112 0.423163
0.66009 0.149859 0.46949
0.723232 0.217456 0.536858
0.0390021 0.174609 0.314519
0.0390021 0.164019 0.328298
0.0841688 0.134508 0.396521
0.375586 0.103639 0.433921
0.464408 0.0849165 0.386877
0.54551 0.102373 0.395499
0.619684 0.125246 0.431662
0.667323 0.149203 0.467628
0.764385 0.242832 0.565286
0.0740673 0.419501 0.405585
0.070573 0.420615 0.418204
0.0798199 0.417319 0.443549
0.403998 0.452857 0.582437
0.66276 0.4318 0.603418
0.776593 0.368627 0.587915
0.820325 0.309621 0.562417
0.792248 0.254383 0.540948
0.798947 0.272404 0.569833
0.133196 0.594003 0.479271
0.135653 0.596796 0.489876
0.149752 0.598627 0.495293
0.380545 0.638758 0.569223
0.628122 0.651225 0.630808
0.759823 0.598688 0.603525
0.837812 0.535256 0.568643
0.864683 0.481056 0.545037
0.862486 0.445472 0.566201
0.203571 0.716945 0.539696
0.207324 0.717006 0.547189
0.216129 0.716823 0.541314
0.325719 0.719875 0.541527
0.55169 0.737087 0.594858
0.739391 0.775372 0.62562
0.826322 0.724086 0.605814
0.864012 0.675593 0.56936
0.863828 0.629282 0.57348
0.267796 0.788479 0.584115
0.270069 0.785748 0.586114
0.272587 0.781064 0.574197
0.324102 0.76466 0.544366
0.49601 0.768933 0.56463
0.66601 0.814771 0.610285
0.818448 0.850446 0.631754
0.889143 0.816236 0.640665
0.885908 0.796246 0.613733
0.326085 0.816983 0.603082
0.324773 0.812543 0.599405
0.32813 0.805264 0.585855
0.339193 0.78677 0.551415
0.463966 0.784878 0.552666
0.628 0.827649 0.597436
0.791775 0.887297 0.644404
0.877562 0.892668 0.652049
0.909331 0.891951 0.70396
0.437583 0.825315 0.632883
0.433845 0.820096 0.625864
0.438575 0.813855 0.616358
0.445396 0.803693 0.598627
0.462593 0.789914 0.562737
0.60911 0.827924 0.605219
0.769497 0.88481 0.664103
0.858 0.910048 0.681651
0.906569 0.909987 0.708995
0.0390021 0.0540017 0.315892
0.0500801 0.0480354 0.352178
0.175692 0.0390021 0.388479
0.317021 0.0415808 0.388998
0.410651 0.0569772 0.390936
0.508568 0.0971542 0.42623
0.596124 0.132647 0.467338
0.649897 0.160754 0.506706
0.669551 0.182605 0.539498
0.0390021 0.0668803 0.329625
0.0390021 0.057084 0.346532
0.13489 0.0420996 0.404334
0.326299 0.0458839 0.415625
0.421988 0.0628367 0.405402
0.519677 0.102937 0.436408
0.60763 0.138155 0.477104
0.653941 0.165408 0.515908
0.67451 0.188037 0.546471
0.0390021 0.15108 0.360739
0.0390021 0.137972 0.368978
0.0400702 0.103197 0.409842
0.306249 0.0635843 0.458396
0.456458 0.0875105 0.44892
0.555917 0.122957 0.467597
0.625483 0.146777 0.49192
0.662303 0.166659 0.524697
0.689387 0.198978 0.558221
0.0623941 0.408865 0.462135
0.0605325 0.404837 0.471565
0.0625925 0.388251 0.490272
0.32752 0.400229 0.632944
0.657526 0.401465 0.716243
0.768612 0.354788 0.672618
0.791257 0.290654 0.635309
0.721248 0.21709 0.572686
0.728969 0.23064 0.584298
0.111162 0.582391 0.526741
0.111406 0.582406 0.533532
0.113756 0.581506 0.543786
0.29662 0.611139 0.633951
0.572992 0.622919 0.717052
0.779507 0.609461 0.728115
0.860349 0.564111 0.713283
0.888594 0.506508 0.695827
0.873396 0.446571 0.681331
0.199542 0.71574 0.597482
0.201953 0.715663 0.601404
0.208927 0.716457 0.603632
0.308263 0.732586 0.631769
0.572122 0.762921 0.705623
0.740887 0.768902 0.74435
0.834318 0.73341 0.724758
0.878035 0.679377 0.695979
0.87158 0.624231 0.667964
0.267185 0.796338 0.642573
0.269154 0.794263 0.643641
0.272633 0.793317 0.638621
0.32372 0.797406 0.636484
0.541192 0.811627 0.683024
0.693401 0.830945 0.725811
0.823697 0.856931 0.746426
0.882048 0.822171 0.729946
0.88896 0.786068 0.71017
0.324269 0.83357 0.657694
0.326757 0.831876 0.657313
0.33193 0.829709 0.650568
0.358099 0.828473 0.641047
0.510475 0.826505 0.659083
0.649927 0.850355 0.703258
0.782452 0.887999 0.742733
0.882017 0.909957 0.759915
0.917647 0.901671 0.773342
0.441276 0.854017 0.68513
0.441947 0.851545 0.68217
0.455283 0.849378 0.679103
0.478523 0.843305 0.673289
0.511559 0.831647 0.659373
0.633906 0.854978 0.701244
0.765103 0.894133 0.74963
0.867018 0.927596 0.775906
0.915129 0.931426 0.789471
0.0390021 0.059144 0.352316
0.048249 0.0518807 0.387472
0.162387 0.0432898 0.426642
0.308736 0.0476997 0.435721
0.410132 0.0630961 0.436118
0.509987 0.10457 0.46952
0.603067 0.145907 0.514458
0.652323 0.171557 0.547402
0.672053 0.188373 0.570916
0.0390021 0.0706798 0.360891
0.0390021 0.0628519 0.377813
0.120058 0.047776 0.432868
0.313252 0.0533303 0.462913
0.426062 0.0705272 0.456336
0.524575 0.112123 0.483589
0.615976 0.152102 0.526696
0.656229 0.175341 0.556481
0.676524 0.193469 0.579568
0.0390021 0.137133 0.388663
0.0390021 0.124224 0.391943
0.0390021 0.0845502 0.408453
0.262974 0.0602579 0.484352
0.448569 0.0932631 0.497902
0.561334 0.135409 0.520058
0.634592 0.164034 0.545144
0.659861 0.178851 0.564691
0.681453 0.197696 0.587366
0.0560464 0.395453 0.498405
0.0539254 0.38883 0.504356
0.0519112 0.368765 0.514717
0.278691 0.371389 0.663722
0.611597 0.37232 0.773556
0.757504 0.339834 0.729229
0.762341 0.274846 0.664942
0.69604 0.207446 0.591241
0.685206 0.200855 0.590494
0.109422 0.57969 0.569207
0.10901 0.578729 0.573816
0.107897 0.574319 0.581567
0.254261 0.59263 0.672587
0.519036 0.591806 0.757961
0.783841 0.603174 0.821164
0.879271 0.570962 0.796307
0.905821 0.51548 0.788708
0.876249 0.439811 0.758984
0.172305 0.701915 0.622843
0.17586 0.702098 0.627497
0.187442 0.704524 0.636561
0.27538 0.719295 0.679728
0.533776 0.744259 0.760601
0.707042 0.751415 0.807279
0.844587 0.737697 0.808301
0.895186 0.696254 0.790112
0.895232 0.640436 0.772671
0.263142 0.79498 0.678737
0.264576 0.792554 0.680201
0.267994 0.791913 0.680201
0.313161 0.797894 0.691432
0.539284 0.829007 0.754025
0.708278 0.846693 0.800855
0.824964 0.852461 0.825467
0.889281 0.827863 0.811673
0.902037 0.792523 0.795956
0.319005 0.837583 0.698512
0.320104 0.835676 0.698314
0.325933 0.835843 0.69601
0.350118 0.840833 0.696941
0.525887 0.864256 0.740291
0.68275 0.878019 0.783475
0.79585 0.8981 0.818494
0.885542 0.914748 0.832135
0.919203 0.904997 0.829313
0.430823 0.868757 0.724559
0.434073 0.868116 0.72311
0.450492 0.869383 0.724651
0.482185 0.871794 0.728496
0.535485 0.873869 0.734615
0.672816 0.886427 0.775937
0.78024 0.911833 0.816052
0.873198 0.936065 0.842557
0.919722 0.94522 0.851789
0.0390021 0.0659495 0.385275
0.0421607 0.0578317 0.412863
0.142168 0.0499886 0.45388
0.296818 0.0556954 0.479316
0.402121 0.0692454 0.475486
0.494713 0.0953231 0.491615
0.607248 0.152697 0.549737
0.657099 0.177829 0.581872
0.674632 0.192721 0.600565
0.0390021 0.0786603 0.3888
0.0390021 0.0719158 0.402762
0.100435 0.0544594 0.451575
0.291829 0.0590982 0.496315
0.427497 0.0798962 0.50164
0.514275 0.105547 0.509224
0.621271 0.160143 0.562936
0.66154 0.181888 0.591562
0.679606 0.197436 0.608728
0.0390021 0.13698 0.411643
0.0390021 0.126543 0.414649
0.0390021 0.0847181 0.415686
0.22237 0.0575265 0.496345
0.429557 0.0928969 0.527749
0.559426 0.137667 0.553246
0.645792 0.175723 0.585412
0.665187 0.185443 0.599176
0.682963 0.200946 0.614527
0.0525368 0.386099 0.523857
0.0500649 0.378408 0.527321
0.0449378 0.358465 0.529824
0.241443 0.358984 0.676371
0.547982 0.349493 0.787717
0.741833 0.335882 0.768475
0.759655 0.28072 0.70042
0.68954 0.206241 0.618311
0.687449 0.204562 0.619348
0.10959 0.579171 0.599329
0.108904 0.576486 0.603708
0.106554 0.568872 0.609751
0.232578 0.57908 0.698436
0.473884 0.570596 0.781933
0.746944 0.58436 0.871656
0.886534 0.572671 0.856886
0.908812 0.516823 0.836179
0.870542 0.423804 0.794446
0.155993 0.692805 0.642542
0.155291 0.690654 0.644358
0.159258 0.689616 0.65069
0.220783 0.705547 0.694316
0.486091 0.726833 0.783734
0.665049 0.727047 0.837095
0.847623 0.731075 0.87219
0.909651 0.698985 0.850813
0.913771 0.64184 0.846769
0.248112 0.787137 0.699565
0.249821 0.784817 0.700557
0.25803 0.784131 0.70457
0.302007 0.790433 0.7243
0.510353 0.814725 0.79205
0.678492 0.834165 0.839048
0.804578 0.841962 0.870298
0.894362 0.827573 0.868025
0.911376 0.797024 0.856306
0.313771 0.835874 0.726177
0.313634 0.833921 0.726177
0.317754 0.833844 0.726635
0.339605 0.838834 0.733913
0.51371 0.867735 0.784161
0.681651 0.891814 0.833982
0.805951 0.906035 0.869154
0.886503 0.911818 0.883757
0.921889 0.901137 0.879576
0.41326 0.873487 0.754299
0.417609 0.874022 0.75491
0.435782 0.877089 0.759121
0.469734 0.882719 0.767544
0.528481 0.891981 0.782956
0.680735 0.913359 0.828595
0.798856 0.926513 0.864698
0.878859 0.941573 0.888823
0.921218 0.948684 0.894453
0.0390021 0.0736553 0.417609
0.0390021 0.0685893 0.429496
0.117037 0.056199 0.468727
0.278309 0.0608988 0.507256
0.401785 0.0777447 0.513497
0.484657 0.0974289 0.516747
0.58764 0.142138 0.556069
0.65864 0.180148 0.6
0.673533 0.193133 0.615015
0.0390021 0.0835889 0.413062
0.0390021 0.0835889 0.4177
0.0729534 0.0606088 0.458717
0.265309 0.0616922 0.513787
0.423972 0.0863661 0.531136
0.522194 0.111788 0.539086
0.60293 0.149538 0.568627
0.661463 0.182422 0.603082
0.677424 0.196384 0.618601
0.0390021 0.148867 0.433433
0.0390021 0.140948 0.435294
0.0390021 0.107576 0.428656
0.17882 0.0606699 0.501198
0.404349 0.0894331 0.542504
0.550958 0.136248 0.569085
0.643442 0.174243 0.596338
0.664744 0.185397 0.606271
0.680735 0.199268 0.621836
0.0524453 0.387823 0.543053
0.0506294 0.380896 0.546304
0.0459754 0.362646 0.546334
0.189853 0.348608 0.654658
0.485832 0.335363 0.774197
0.721828 0.339208 0.78471
0.760998 0.289265 0.72015
0.694606 0.211643 0.635081
0.684092 0.202625 0.62504
0.110369 0.579583 0.619532
0.10927 0.57586 0.623972
0.10602 0.565911 0.628824
0.203403 0.570825 0.701152
0.441474 0.566445 0.785718
0.686473 0.567193 0.867826
0.879026 0.579355 0.880674
0.91165 0.527718 0.852613
0.862547 0.408164 0.798444
0.155993 0.693034 0.659922
0.154894 0.690242 0.661463
0.152544 0.684901 0.663371
0.214603 0.699779 0.708385
0.460807 0.715465 0.795651
0.631678 0.714168 0.846143
0.822171 0.721675 0.898863
0.91223 0.699062 0.881712
0.919615 0.640543 0.873716
0.216373 0.774823 0.70135
0.219089 0.773098 0.703075
0.232288 0.773922 0.711376
0.277317 0.779538 0.734051
0.464714 0.803098 0.800031
0.650309 0.822141 0.853086
0.777691 0.829343 0.888853
0.895247 0.822873 0.901259
0.917708 0.793393 0.889754
0.307149 0.83154 0.742275
0.307286 0.829526 0.742168
0.316762 0.829999 0.7458
0.365255 0.839994 0.765194
0.493309 0.858228 0.806088
0.656977 0.881422 0.855665
0.785718 0.899733 0.890669
0.879789 0.907912 0.910658
0.922011 0.898268 0.908995
0.392447 0.870222 0.770169
0.395544 0.870176 0.771359
0.417075 0.874632 0.778058
0.456062 0.881559 0.789975
0.520027 0.892729 0.809522
0.672343 0.917098 0.855146
0.796246 0.934401 0.891768
0.880385 0.942321 0.914031
0.920989 0.947707 0.918669
