bundles/resolve-cinematic-luts/Phantom Luts/A7s3 Phntm Film LUTs - G6/SLog2+Sgamut3cine/Eastman A7s3 Sl2sg3c-Legacy.cube
TITLE "Generated by Resolve"
LUT_3D_SIZE 9
0.0463417 0.0390021 0.0443427
0.0561227 0.0390021 0.0458381
0.14963 0.0390021 0.052781
0.279271 0.0390021 0.0456855
0.389242 0.0390021 0.0484016
0.474037 0.0425879 0.0629435
0.564111 0.0629129 0.135393
0.665812 0.121141 0.25359
0.726955 0.201526 0.367544
0.0565805 0.0604868 0.0547189
0.068864 0.0636759 0.0552987
0.151339 0.0569772 0.0573587
0.282948 0.0486305 0.0415808
0.392477 0.0488136 0.044892
0.484108 0.0625772 0.0621958
0.579324 0.0714122 0.121355
0.673762 0.126711 0.236316
0.729168 0.204974 0.353674
0.072221 0.159289 0.078996
0.0765393 0.162799 0.0709392
0.183642 0.186923 0.0815595
0.390707 0.14934 0.0934462
0.478141 0.149676 0.0909895
0.536889 0.148104 0.0908522
0.594797 0.126375 0.0962387
0.681758 0.133822 0.203647
0.747112 0.209628 0.345251
0.103288 0.337881 0.130419
0.0935225 0.34052 0.11545
0.191226 0.378973 0.120851
0.428717 0.425238 0.12813
0.615503 0.392065 0.153552
0.712428 0.352132 0.186801
0.778897 0.332647 0.205676
0.783276 0.298634 0.205722
0.737972 0.238788 0.222263
0.111452 0.492821 0.193866
0.110201 0.491188 0.175158
0.140093 0.496941 0.136751
0.422721 0.580591 0.171008
0.594141 0.605722 0.188968
0.748913 0.583444 0.228717
0.817426 0.531014 0.269902
0.839231 0.515251 0.274861
0.828412 0.460395 0.279866
0.154116 0.622278 0.292027
0.152865 0.618006 0.282887
0.164843 0.610101 0.225513
0.378653 0.66038 0.221836
0.579538 0.736004 0.259525
0.713603 0.751842 0.286427
0.829496 0.73315 0.343389
0.85922 0.70251 0.376028
0.854658 0.690822 0.361654
0.205768 0.708797 0.367208
0.2047 0.702937 0.35288
0.220569 0.693645 0.306783
0.3411 0.709102 0.28452
0.562081 0.783948 0.336049
0.68748 0.831357 0.371115
0.804898 0.84184 0.40351
0.877516 0.821836 0.45388
0.87808 0.809277 0.473655
0.246845 0.732967 0.407507
0.244373 0.727413 0.38822
0.273777 0.721386 0.35053
0.35378 0.729793 0.340826
0.506584 0.770626 0.376577
0.666072 0.837659 0.432135
0.773831 0.866773 0.460792
0.868894 0.865568 0.495705
0.886625 0.874586 0.573297
0.343328 0.753002 0.468009
0.33785 0.748455 0.45182
0.353079 0.745907 0.431922
0.405615 0.753368 0.431159
0.500786 0.776577 0.45716
0.640055 0.826719 0.514244
0.769985 0.877134 0.5673
0.845701 0.889036 0.585351
0.893736 0.889998 0.637751
0.0450904 0.0390021 0.0487678
0.0567025 0.0390021 0.0514992
0.139467 0.0429694 0.0773327
0.266285 0.0390021 0.0678569
0.371817 0.0390021 0.0627756
0.45243 0.0390021 0.0969253
0.536583 0.062623 0.162127
0.649699 0.127855 0.274708
0.720714 0.208957 0.383322
0.0547646 0.0590829 0.0611582
0.0683452 0.0611276 0.0677195
0.171038 0.0498207 0.0639658
0.285451 0.041001 0.0476387
0.380179 0.0431525 0.0485695
0.465385 0.0475929 0.0663615
0.56585 0.0786297 0.155413
0.663005 0.138659 0.273381
0.737362 0.226749 0.390799
0.0717327 0.160906 0.0990158
0.068513 0.162402 0.0840925
0.18613 0.185534 0.087892
0.379446 0.14464 0.0989242
0.4663 0.134066 0.0870375
0.551156 0.126223 0.0984054
0.624216 0.105928 0.138872
0.681895 0.14226 0.252201
0.765438 0.237278 0.372061
0.102876 0.342519 0.156695
0.0938125 0.343938 0.138827
0.145251 0.365362 0.115618
0.426169 0.421912 0.130404
0.619394 0.373266 0.161715
0.70988 0.339544 0.19202
0.780499 0.315953 0.212573
0.774273 0.280415 0.221836
0.772015 0.240101 0.279576
0.113603 0.50016 0.228336
0.106371 0.497551 0.210224
0.118959 0.492409 0.151583
0.404807 0.574441 0.170855
0.593011 0.604425 0.188205
0.751339 0.574014 0.239307
0.816861 0.520348 0.27985
0.842771 0.498039 0.29041
0.827024 0.437675 0.293324
0.157427 0.627863 0.316121
0.15317 0.624628 0.308995
0.158816 0.612222 0.250309
0.338216 0.646891 0.214527
0.573358 0.733516 0.258579
0.712947 0.749844 0.284947
0.830472 0.726741 0.350301
0.858198 0.694224 0.381537
0.851713 0.677302 0.367987
0.208728 0.713375 0.385321
0.205814 0.707454 0.371588
0.209567 0.695277 0.327688
0.3066 0.70367 0.286824
0.544732 0.775921 0.334173
0.681758 0.828717 0.36997
0.803159 0.840101 0.401724
0.878264 0.818235 0.457298
0.878599 0.805905 0.477638
0.250019 0.739025 0.422873
0.246632 0.73254 0.403922
0.258824 0.723064 0.360952
0.340856 0.727871 0.342794
0.487907 0.763943 0.372717
0.658915 0.835218 0.431067
0.770886 0.866331 0.460136
0.867948 0.865492 0.49456
0.887205 0.874449 0.576226
0.34435 0.756024 0.476783
0.339376 0.751492 0.462013
0.342962 0.745571 0.432471
0.395438 0.751766 0.431769
0.490196 0.773846 0.453986
0.631205 0.822904 0.511574
0.767147 0.876509 0.567468
0.844144 0.889174 0.585046
0.893538 0.889601 0.63621
0.0423896 0.0431983 0.0873732
0.0741436 0.0433204 0.100923
0.141878 0.0456245 0.105638
0.267826 0.0390021 0.11928
0.374029 0.0390021 0.144564
0.458991 0.0437324 0.170932
0.534997 0.0655375 0.209094
0.639094 0.122927 0.294118
0.722316 0.211948 0.404593
0.0466011 0.0591287 0.0933394
0.0472114 0.0535744 0.117418
0.162997 0.047425 0.122881
0.280156 0.0390021 0.114199
0.379156 0.0390021 0.114397
0.460243 0.0396582 0.14052
0.540291 0.0657664 0.19115
0.653544 0.134691 0.29987
0.741695 0.232074 0.418601
0.0669108 0.1579 0.126986
0.0654307 0.161318 0.132158
0.196811 0.19205 0.190448
0.388739 0.150469 0.178637
0.487861 0.0984512 0.140215
0.55494 0.0896162 0.151598
0.599649 0.0908217 0.183612
0.682551 0.145388 0.294087
0.776608 0.25098 0.422477
0.111345 0.356802 0.217258
0.103868 0.357961 0.205097
0.145907 0.375708 0.192447
0.4365 0.433555 0.227741
0.6103 0.367224 0.235706
0.715816 0.309285 0.228122
0.790921 0.298375 0.264164
0.79617 0.259464 0.282734
0.784314 0.250111 0.377279
0.12694 0.521935 0.29369
0.117906 0.516564 0.281071
0.119982 0.500069 0.224918
0.336522 0.549767 0.211582
0.589685 0.601419 0.233707
0.752026 0.546899 0.278325
0.813718 0.506218 0.305104
0.846983 0.465843 0.3252
0.830106 0.418936 0.342672
0.167697 0.641855 0.359716
0.162478 0.637247 0.354971
0.159121 0.62501 0.315435
0.242664 0.627543 0.239719
0.548638 0.722484 0.278309
0.709682 0.746639 0.301213
0.832792 0.713573 0.368902
0.855512 0.679484 0.393362
0.846326 0.647456 0.385199
0.215961 0.72311 0.416373
0.21297 0.718471 0.413169
0.207401 0.706004 0.371511
0.262882 0.698116 0.30222
0.502327 0.757122 0.329717
0.671427 0.825101 0.371481
0.802182 0.838392 0.39942
0.87985 0.812146 0.467445
0.880751 0.799847 0.488197
0.257664 0.749798 0.449287
0.254292 0.745037 0.4421
0.251469 0.732006 0.395468
0.30988 0.725277 0.353674
0.449393 0.752422 0.36907
0.643198 0.829007 0.430671
0.766949 0.866178 0.46273
0.867277 0.865492 0.493233
0.888853 0.874784 0.583886
0.348852 0.763104 0.494804
0.343893 0.758999 0.485557
0.344839 0.751431 0.455039
0.376806 0.749981 0.43508
0.469612 0.769329 0.452262
0.612039 0.81532 0.509529
0.760021 0.874647 0.568429
0.842527 0.889738 0.585718
0.892363 0.889189 0.634638
0.0390021 0.0509804 0.152499
0.0587167 0.0497749 0.180041
0.146242 0.0449531 0.19971
0.259571 0.0413519 0.196674
0.379873 0.0419471 0.222675
0.465843 0.0593576 0.260365
0.554742 0.0900893 0.295033
0.631586 0.122972 0.334279
0.707271 0.2009 0.431846
0.0390021 0.0581674 0.167651
0.0390021 0.0545357 0.194903
0.140475 0.0454871 0.237995
0.281331 0.042298 0.215808
0.385168 0.0429999 0.222171
0.470405 0.0607767 0.256565
0.56405 0.0935378 0.289433
0.637491 0.128756 0.336217
0.727977 0.220783 0.44976
0.0439002 0.149065 0.19794
0.0390021 0.146654 0.218006
0.119005 0.150362 0.289326
0.353704 0.126864 0.298421
0.449973 0.0858625 0.268162
0.517952 0.0793011 0.251408
0.576623 0.0872358 0.264927
0.654978 0.13225 0.332021
0.762081 0.237003 0.45977
0.100938 0.361807 0.288624
0.0970474 0.368414 0.297276
0.137896 0.390723 0.325658
0.426642 0.435279 0.425101
0.605035 0.377234 0.40293
0.735164 0.301259 0.368963
0.806729 0.267308 0.355779
0.790326 0.235065 0.379904
0.794766 0.263294 0.444907
0.135912 0.546304 0.370535
0.135225 0.548653 0.376165
0.145922 0.54052 0.354604
0.331426 0.563638 0.390356
0.587762 0.609689 0.425727
0.730037 0.537743 0.402945
0.825376 0.460578 0.376547
0.849195 0.429206 0.387808
0.836057 0.399252 0.410636
0.185962 0.667735 0.430289
0.185657 0.665705 0.434272
0.18291 0.653895 0.407202
0.251728 0.639536 0.36347
0.475166 0.685557 0.395392
0.700175 0.739178 0.425345
0.827741 0.681743 0.432563
0.850874 0.649256 0.417899
0.847669 0.5888 0.422202
0.235538 0.746029 0.477531
0.233082 0.740688 0.476158
0.224811 0.728283 0.448173
0.255238 0.707668 0.388037
0.414664 0.726711 0.380941
0.630365 0.804059 0.431327
0.794186 0.832502 0.449714
0.884779 0.800244 0.492576
0.881819 0.787411 0.511177
0.274479 0.769787 0.494835
0.270634 0.764935 0.489097
0.267445 0.754864 0.468238
0.268345 0.734279 0.410483
0.392782 0.742504 0.381064
0.603235 0.811093 0.435203
0.757916 0.865827 0.475074
0.867353 0.865751 0.494408
0.892973 0.876768 0.603525
0.360632 0.776516 0.525643
0.355352 0.773053 0.519219
0.355306 0.766873 0.50576
0.361135 0.756161 0.470542
0.433921 0.763485 0.458228
0.573373 0.802228 0.506065
0.744457 0.870192 0.572519
0.839719 0.890929 0.590356
0.893217 0.888808 0.633295
0.0390021 0.0575265 0.228199
0.0449989 0.0536202 0.253986
0.129717 0.045716 0.287663
0.268345 0.0399786 0.285649
0.370748 0.0518502 0.29749
0.472068 0.0680705 0.325261
0.569757 0.101991 0.367712
0.646937 0.136919 0.416068
0.672084 0.172793 0.452781
0.0390021 0.0652476 0.248539
0.0390021 0.0602579 0.267033
0.10837 0.0480964 0.317342
0.28481 0.0422675 0.31252
0.381323 0.0534524 0.306874
0.482109 0.0715648 0.331441
0.580636 0.107362 0.373663
0.647807 0.139681 0.419333
0.696803 0.194034 0.478508
0.0390021 0.135454 0.268772
0.0390021 0.129183 0.284657
0.0568246 0.109682 0.339925
0.308278 0.0804456 0.377859
0.418204 0.0696574 0.340002
0.508583 0.0837873 0.347448
0.600244 0.113054 0.381369
0.655924 0.138643 0.415717
0.733822 0.212833 0.502876
0.0661326 0.349187 0.346929
0.0602579 0.350378 0.359152
0.0745556 0.350027 0.388983
0.347372 0.392691 0.5196
0.603784 0.373816 0.544335
0.731762 0.314122 0.529702
0.796857 0.263401 0.501823
0.764248 0.218433 0.476341
0.768429 0.236347 0.505867
0.127993 0.547967 0.4392
0.128099 0.550683 0.449714
0.139559 0.55172 0.453895
0.338018 0.589578 0.521431
0.582101 0.601755 0.583597
0.727825 0.547875 0.556222
0.831785 0.473136 0.511864
0.862257 0.421958 0.490227
0.852766 0.389807 0.509773
0.190356 0.683207 0.499855
0.192447 0.683345 0.50782
0.19884 0.682307 0.500969
0.287495 0.683726 0.497581
0.503761 0.699077 0.54725
0.702159 0.738003 0.579126
0.809964 0.674418 0.551263
0.861479 0.606455 0.506981
0.857191 0.561364 0.510613
0.250065 0.770901 0.546014
0.25098 0.76762 0.549264
0.250843 0.76173 0.536217
0.285313 0.742947 0.500282
0.435416 0.741253 0.504402
0.607507 0.784863 0.547189
0.79527 0.832151 0.573861
0.884565 0.780636 0.575692
0.87718 0.761501 0.552056
0.296071 0.80325 0.563485
0.29424 0.798505 0.560662
0.294163 0.790341 0.545327
0.29836 0.770413 0.506584
0.402655 0.764492 0.491569
0.555352 0.798962 0.518059
0.752941 0.87274 0.577691
0.870207 0.881605 0.584192
0.899931 0.878798 0.641184
0.382406 0.802823 0.579202
0.378027 0.798093 0.572564
0.379629 0.791333 0.561013
0.383536 0.781308 0.540581
0.401923 0.767987 0.501915
0.535378 0.797635 0.52842
0.719402 0.862211 0.594995
0.839185 0.895888 0.615305
0.896498 0.891218 0.641489
0.0390021 0.0628367 0.286549
0.0429847 0.0567178 0.315923
0.123674 0.0469062 0.35079
0.271519 0.0436866 0.358816
0.374151 0.0554513 0.359945
0.469917 0.0817273 0.384848
0.577264 0.117388 0.426734
0.648661 0.147204 0.469123
0.659281 0.167254 0.498802
0.0390021 0.0720684 0.306172
0.0390021 0.0659342 0.320745
0.0904707 0.0516518 0.367544
0.28011 0.046479 0.387549
0.385153 0.0592966 0.374395
0.481544 0.0875715 0.395682
0.591485 0.123888 0.437354
0.650752 0.151034 0.477409
0.66276 0.172229 0.505104
0.0390021 0.122286 0.32047
0.0390021 0.114733 0.332174
0.0390021 0.0944686 0.372198
0.247715 0.0581826 0.424933
0.413458 0.0750896 0.41236
0.515908 0.104982 0.423758
0.611566 0.132998 0.451713
0.660883 0.152331 0.487633
0.678889 0.179522 0.516228
0.0506752 0.336233 0.40354
0.0475319 0.331731 0.413077
0.0511482 0.318791 0.434577
0.273014 0.342214 0.569512
0.590814 0.342779 0.654871
0.718151 0.303853 0.615244
0.767559 0.250523 0.582635
0.71136 0.190768 0.527169
0.713619 0.202564 0.536599
0.0986038 0.53402 0.485664
0.0972305 0.533837 0.493782
0.100572 0.533578 0.505745
0.253697 0.562631 0.590173
0.522835 0.573312 0.673289
0.745098 0.560052 0.68806
0.851545 0.506645 0.669017
0.886122 0.448829 0.649119
0.862989 0.393286 0.632471
0.183734 0.681651 0.559167
0.185809 0.681056 0.56669
0.191394 0.681285 0.568414
0.27274 0.696574 0.593744
0.525139 0.724208 0.664607
0.702129 0.728878 0.705486
0.816236 0.681743 0.677867
0.875578 0.612345 0.637095
0.87071 0.55787 0.608225
0.251194 0.781109 0.609354
0.252491 0.778241 0.611673
0.255177 0.776379 0.60647
0.294957 0.778408 0.599771
0.482124 0.781888 0.630579
0.639582 0.801343 0.67422
0.800015 0.834485 0.699977
0.876112 0.779248 0.672602
0.882994 0.738521 0.652766
0.302434 0.827024 0.625498
0.304646 0.824353 0.625818
0.307027 0.820935 0.617273
0.32636 0.816052 0.603235
0.440024 0.801083 0.596078
0.576623 0.822507 0.633524
0.737789 0.869078 0.68127
0.872953 0.899397 0.704234
0.913252 0.887938 0.723537
0.39646 0.838392 0.643336
0.397711 0.835142 0.640208
0.405142 0.830121 0.633356
0.419669 0.820356 0.619348
0.44155 0.805188 0.596429
0.55906 0.824659 0.630762
0.708629 0.868589 0.684184
0.847349 0.915434 0.722408
0.911162 0.914778 0.734936
0.0390021 0.0683757 0.329397
0.0390021 0.0615549 0.357351
0.111757 0.0510414 0.392187
0.259815 0.0478523 0.408927
0.372305 0.0581369 0.409033
0.469993 0.0905776 0.432792
0.57882 0.13434 0.478935
0.646082 0.16318 0.517708
0.661906 0.17763 0.540002
0.0390021 0.0783398 0.3458
0.0390021 0.0728466 0.359625
0.0780041 0.0566415 0.401205
0.261784 0.0520485 0.43917
0.389639 0.0648508 0.432288
0.484764 0.0977188 0.447547
0.596078 0.142031 0.49395
0.649424 0.167651 0.528466
0.666102 0.182849 0.550164
0.0390021 0.115724 0.356374
0.0390021 0.108461 0.365118
0.0390021 0.0871748 0.388952
0.203967 0.0593271 0.457206
0.403326 0.0812848 0.47068
0.520073 0.118074 0.483635
0.619959 0.15523 0.515938
0.65359 0.171221 0.53875
0.669902 0.186084 0.55819
0.0402228 0.322713 0.440269
0.0390021 0.317388 0.447684
0.0390021 0.302678 0.461738
0.224842 0.315557 0.606683
0.531014 0.312581 0.716762
0.702937 0.295018 0.685557
0.734661 0.24715 0.623941
0.682963 0.192126 0.55726
0.673579 0.188434 0.560876
0.0916152 0.530999 0.532982
0.0912032 0.529915 0.539178
0.0892805 0.524254 0.548577
0.211673 0.54226 0.639643
0.460578 0.539437 0.725719
0.746715 0.554452 0.802487
0.872953 0.521614 0.772763
0.899962 0.467414 0.762493
0.859007 0.395102 0.724224
0.158206 0.66775 0.59733
0.159945 0.667109 0.601373
0.167697 0.668238 0.610101
0.235401 0.682109 0.652262
0.476509 0.703075 0.730358
0.658015 0.706767 0.781903
0.831388 0.69366 0.786023
0.899229 0.641901 0.760388
0.896559 0.585168 0.741482
0.246632 0.779843 0.657877
0.248081 0.776928 0.66006
0.250172 0.775601 0.65919
0.285603 0.781064 0.668147
0.489067 0.807355 0.724697
0.660883 0.82388 0.772457
0.801709 0.829404 0.803281
0.885069 0.790906 0.778531
0.897963 0.746044 0.760525
0.302312 0.835615 0.679988
0.302693 0.833021 0.679225
0.306828 0.832654 0.675715
0.326192 0.835782 0.673671
0.473243 0.852094 0.703212
0.62121 0.860014 0.740185
0.751446 0.88333 0.78143
0.878325 0.908904 0.802594
0.917586 0.89218 0.797406
0.39501 0.861814 0.697292
0.397513 0.86041 0.695125
0.410941 0.86041 0.694194
0.435386 0.859922 0.693278
0.478447 0.857481 0.692378
0.606271 0.864927 0.727367
0.725658 0.891951 0.772442
0.852079 0.926207 0.808942
0.919448 0.936324 0.818509
0.0390021 0.0758068 0.369329
0.0390021 0.0709087 0.393072
0.0950332 0.0573129 0.425498
0.241794 0.0543832 0.456733
0.362249 0.0643473 0.455451
0.461997 0.0906691 0.472923
0.583413 0.14406 0.526284
0.653498 0.175219 0.567895
0.667659 0.186404 0.584436
0.0390021 0.0877699 0.379812
0.0390021 0.0838178 0.391699
0.0616617 0.0655375 0.427619
0.23267 0.0585184 0.477043
0.386618 0.076524 0.489479
0.482231 0.101472 0.494469
0.603601 0.153994 0.5449
0.65713 0.178576 0.579705
0.67248 0.191165 0.594522
0.0390021 0.118441 0.385412
0.0390021 0.113344 0.39321
0.0390021 0.0960708 0.409613
0.161959 0.062623 0.475883
0.379568 0.0864881 0.516182
0.520638 0.126528 0.536553
0.633265 0.170062 0.57203
0.661601 0.18291 0.591043
0.675288 0.194263 0.60119
0.0390021 0.318746 0.472023
0.0390021 0.313405 0.478065
0.0390021 0.294621 0.48513
0.18732 0.304112 0.625574
0.457862 0.29189 0.734798
0.681071 0.294453 0.739666
0.732174 0.256565 0.674952
0.680201 0.197742 0.60206
0.678981 0.197147 0.60592
0.0914015 0.528786 0.571878
0.0902419 0.525231 0.577691
0.0878157 0.51603 0.585718
0.191196 0.526024 0.676585
0.410391 0.517037 0.763272
0.680507 0.523201 0.858152
0.878874 0.528359 0.853254
0.900511 0.474708 0.824674
0.85124 0.384512 0.773327
0.140673 0.657496 0.624933
0.139452 0.654826 0.62707
0.141299 0.652934 0.634012
0.187808 0.66743 0.677012
0.422477 0.678813 0.765667
0.603891 0.676249 0.819699
0.833951 0.688563 0.875227
0.918441 0.652903 0.845335
0.919707 0.595895 0.843687
0.232578 0.770382 0.688685
0.232761 0.767346 0.689357
0.237751 0.765438 0.692607
0.271061 0.771206 0.712459
0.452125 0.790021 0.774777
0.62414 0.805814 0.823941
0.769574 0.812863 0.862913
0.897047 0.795117 0.860578
0.914687 0.758404 0.846891
0.297337 0.834638 0.718578
0.297185 0.831891 0.718349
0.300481 0.831464 0.718318
0.317983 0.835767 0.724605
0.465629 0.860746 0.767376
0.628473 0.88333 0.816144
0.769619 0.900282 0.856657
0.88098 0.906935 0.87924
0.923095 0.890013 0.872175
0.382391 0.871733 0.741283
0.386297 0.8719 0.741192
0.401083 0.873899 0.743709
0.429496 0.878431 0.749996
0.479164 0.885649 0.761456
0.622919 0.90573 0.804059
0.755795 0.919936 0.845075
0.86041 0.938415 0.876967
0.9252 0.949294 0.884138
0.0390021 0.0875715 0.408957
0.0390021 0.0854505 0.419959
0.0732128 0.0677195 0.448432
0.215015 0.0617075 0.490059
0.353582 0.0745861 0.504234
0.448005 0.0932326 0.507622
0.564477 0.137957 0.546975
0.658137 0.180667 0.599405
0.670329 0.190723 0.61178
0.0390021 0.0970626 0.411322
0.0390021 0.0979629 0.416709
0.043946 0.0803693 0.446418
0.199557 0.0641947 0.498619
0.373602 0.0841077 0.529519
0.490074 0.111299 0.541024
0.585916 0.148272 0.565377
0.659998 0.18233 0.601785
0.672587 0.192752 0.613901
0.0390021 0.129824 0.41146
0.0390021 0.126146 0.417563
0.0390021 0.112383 0.428489
0.12079 0.0682078 0.483253
0.344793 0.0864424 0.540169
0.510384 0.129274 0.566735
0.634134 0.172412 0.594278
0.662379 0.184512 0.604334
0.675029 0.195056 0.616327
0.0390021 0.324605 0.498054
0.0390021 0.317632 0.50338
0.0390021 0.299596 0.507118
0.140261 0.301625 0.606088
0.400046 0.282979 0.722927
0.651896 0.295277 0.755581
0.730312 0.264195 0.699413
0.686793 0.204562 0.627649
0.678431 0.197513 0.619593
0.0922255 0.527947 0.599084
0.091249 0.523415 0.605081
0.0876631 0.511788 0.611673
0.166476 0.516274 0.683009
0.380011 0.513939 0.769329
0.613733 0.506294 0.849805
0.866453 0.534829 0.878798
0.903563 0.485618 0.841108
0.841031 0.370031 0.776806
0.141314 0.658503 0.649592
0.139834 0.655222 0.651011
0.137728 0.649592 0.654704
0.187289 0.660563 0.699367
0.396735 0.666484 0.780575
0.565591 0.66157 0.830518
0.791592 0.67274 0.90042
0.922988 0.654627 0.884901
0.925719 0.595575 0.874052
0.203418 0.75758 0.697383
0.203143 0.754284 0.698177
0.211292 0.752895 0.704662
0.243107 0.757473 0.726101
0.40676 0.776944 0.789349
0.588418 0.789563 0.840482
0.731487 0.793011 0.883513
0.899763 0.791028 0.906996
0.923949 0.755611 0.892638
0.289693 0.828809 0.740642
0.289204 0.826001 0.740444
0.296269 0.825696 0.743786
0.336782 0.835081 0.762158
0.443732 0.850263 0.79733
0.600778 0.868589 0.847044
0.741726 0.889586 0.886397
0.866957 0.899443 0.914717
0.924453 0.886702 0.912215
0.365698 0.871595 0.766979
0.367971 0.872145 0.767865
0.386038 0.875502 0.773495
0.418906 0.882261 0.784405
0.47248 0.891417 0.800977
0.613596 0.913558 0.843091
0.749798 0.933669 0.883009
0.865202 0.946273 0.91458
0.925444 0.952193 0.923659
