bundles/resolve-cinematic-luts/Phantom Luts/A7s3 Phntm Film LUTs - G6/SLog2+Sgamut3cine/Eastman A7s3 Sl2sg3c.cube
TITLE "Generated by Resolve"
LUT_3D_SIZE 33
0.0390021 0.0390021 0.0390021
0.0390021 0.0390021 0.0390021
0.0390021 0.0390021 0.0390021
0.0395972 0.0390021 0.0390021
0.0539712 0.0390021 0.0390021
0.0831617 0.0390021 0.0432288
0.114931 0.0390021 0.0459449
0.149447 0.0390021 0.0459754
0.188479 0.0390021 0.0441138
0.227939 0.0390021 0.0423438
0.263386 0.0390021 0.0410773
0.295903 0.0390021 0.0403296
0.325399 0.0390021 0.0405432
0.35375 0.0390021 0.0417945
0.379782 0.0390021 0.0436408
0.404685 0.0390021 0.0461433
0.427863 0.0390021 0.049073
0.449851 0.0390021 0.0534829
0.468482 0.0390021 0.0589303
0.488151 0.0390021 0.0686503
0.507622 0.0390021 0.0901198
0.527047 0.0435187 0.113207
0.548959 0.0543221 0.138613
0.571786 0.0667582 0.165194
0.596155 0.080766 0.193576
0.620996 0.0949874 0.22208
0.647471 0.11136 0.252735
0.671992 0.129397 0.283589
0.695171 0.148714 0.314443
0.71577 0.170916 0.346044
0.735317 0.193835 0.375616
0.750713 0.218036 0.401984
0.764324 0.242588 0.4262
0.0393988 0.0390021 0.0390021
0.0390021 0.0390021 0.0390021
0.0390021 0.0390021 0.0390021
0.0399176 0.0390021 0.0390021
0.0529946 0.0390021 0.0391852
0.080766 0.0390021 0.0434119
0.111727 0.0390021 0.0463417
0.147158 0.0390021 0.0462043
0.187213 0.0390021 0.0440986
0.227817 0.0390021 0.0422217
0.263188 0.0390021 0.0409552
0.295552 0.0390021 0.0402686
0.325551 0.0390021 0.0406958
0.354086 0.0390021 0.0419013
0.380362 0.0390021 0.0437324
0.404913 0.0390021 0.0462654
0.427787 0.0390021 0.0491035
0.449058 0.0390021 0.0531167
0.468299 0.0390021 0.058793
0.487709 0.0390021 0.0670939
0.507225 0.0390021 0.0851301
0.526909 0.0437629 0.108217
0.549264 0.054612 0.132845
0.571756 0.0667887 0.158923
0.596368 0.0808576 0.187213
0.621057 0.0950179 0.215274
0.646342 0.110307 0.244968
0.67042 0.12755 0.275151
0.692424 0.146242 0.305913
0.7122 0.167132 0.336507
0.731395 0.189532 0.365866
0.74667 0.213855 0.393164
0.759258 0.237583 0.416464
0.0395514 0.0390021 0.0390021
0.0390021 0.0390021 0.0390021
0.0390021 0.0390021 0.0390021
0.0404669 0.0390021 0.0390021
0.050309 0.0390021 0.0392767
0.0729076 0.0390021 0.0430304
0.102998 0.0390021 0.0461433
0.137026 0.0390021 0.0466773
0.178424 0.0390021 0.0447089
0.221424 0.0390021 0.0422827
0.259922 0.0390021 0.0408331
0.292988 0.0390021 0.0401617
0.323568 0.0390021 0.0406348
0.352178 0.0390021 0.0416266
0.378851 0.0390021 0.043534
0.404105 0.0390021 0.0463264
0.426841 0.0390021 0.0488899
0.447944 0.0390021 0.0528267
0.467964 0.0390021 0.0583352
0.487861 0.0390021 0.0663157
0.508339 0.0390021 0.0799725
0.529168 0.0457771 0.103075
0.551995 0.0567178 0.127489
0.575601 0.0691997 0.153521
0.600076 0.0829175 0.181201
0.625315 0.0972 0.209094
0.651133 0.1131 0.239811
0.673304 0.129671 0.269993
0.695171 0.147829 0.300847
0.715694 0.169589 0.332876
0.734386 0.19173 0.363073
0.748287 0.215503 0.389029
0.76112 0.240269 0.413779
0.0424201 0.0390021 0.0397803
0.0419928 0.0390021 0.0399023
0.0425422 0.0390021 0.0399786
0.0459754 0.0390021 0.0410468
0.0550698 0.0390021 0.0429999
0.0759289 0.0392767 0.0461738
0.104906 0.0408331 0.0489204
0.137087 0.040177 0.0479744
0.179171 0.0405432 0.0452735
0.224628 0.0405585 0.0421912
0.262608 0.0391394 0.0397345
0.294499 0.0390021 0.0390021
0.325353 0.0390021 0.0390021
0.354772 0.0390021 0.0401007
0.382406 0.0390021 0.0425574
0.407248 0.0390021 0.0455024
0.430823 0.0409857 0.0487373
0.452125 0.0464179 0.0523232
0.472831 0.0510567 0.0568856
0.49305 0.0510109 0.0656291
0.513298 0.0488899 0.0765545
0.533791 0.0488746 0.0938277
0.557305 0.0602579 0.120104
0.582864 0.0742046 0.145693
0.607385 0.0878462 0.174426
0.632563 0.101793 0.203677
0.657633 0.116732 0.234318
0.677775 0.132021 0.265614
0.699062 0.150866 0.298375
0.719265 0.172122 0.330907
0.737392 0.194537 0.361059
0.750866 0.218601 0.387884
0.761822 0.242695 0.411826
0.0533303 0.0658274 0.0532387
0.0521401 0.0649882 0.0525216
0.0529488 0.0630808 0.0508583
0.0599222 0.0648203 0.0520333
0.0743267 0.0694285 0.052781
0.100725 0.0682383 0.0558633
0.128511 0.063798 0.057145
0.161288 0.0606241 0.055375
0.196048 0.0597238 0.0515755
0.23299 0.0593729 0.0469825
0.268528 0.0567788 0.0411688
0.301503 0.0517739 0.0390021
0.331212 0.0489509 0.0390021
0.360021 0.0462806 0.0390021
0.384268 0.0450904 0.0398871
0.405371 0.0465705 0.0418555
0.430549 0.0528267 0.0458839
0.455787 0.0572976 0.0504311
0.47808 0.0599222 0.0565957
0.498085 0.0593729 0.0648966
0.517922 0.0571603 0.0758068
0.537911 0.0525826 0.0901198
0.558648 0.0607919 0.117449
0.58587 0.0759289 0.142214
0.607889 0.0883955 0.172839
0.63473 0.103563 0.2009
0.663111 0.120348 0.229404
0.682002 0.135561 0.261357
0.703349 0.154421 0.294438
0.723461 0.175189 0.326894
0.741802 0.197269 0.358022
0.754086 0.221469 0.385687
0.76434 0.245563 0.409598
0.0588235 0.0986038 0.0623941
0.0577554 0.0980697 0.0615702
0.0582895 0.0959945 0.0592355
0.0664683 0.0973068 0.0593271
0.0868391 0.10161 0.0611276
0.108293 0.103304 0.0598306
0.146578 0.101076 0.0616465
0.190585 0.0885939 0.0635233
0.229511 0.084123 0.0611429
0.261402 0.0805371 0.0556954
0.288106 0.0802777 0.0516365
0.315084 0.0790417 0.0467842
0.341588 0.0774853 0.0437629
0.367056 0.0706188 0.042237
0.388769 0.0658885 0.0410163
0.409476 0.06421 0.0420233
0.432074 0.0651408 0.0442206
0.45095 0.0658274 0.0460365
0.472374 0.0699016 0.0506142
0.496941 0.0749371 0.0594492
0.522957 0.0796521 0.0729381
0.545785 0.0779736 0.0877394
0.570245 0.0742657 0.107805
0.591699 0.079057 0.133486
0.612741 0.0908827 0.166537
0.63447 0.103593 0.200336
0.662638 0.121218 0.228107
0.686107 0.139223 0.254505
0.707332 0.157717 0.288197
0.727474 0.178759 0.321096
0.745342 0.200671 0.351934
0.757443 0.224552 0.379644
0.766751 0.249256 0.404669
0.0619669 0.131563 0.0698711
0.0606394 0.131243 0.068864
0.0602884 0.128588 0.0654154
0.0679637 0.130922 0.0641794
0.0924392 0.136522 0.0674754
0.116793 0.142107 0.0688487
0.143755 0.143374 0.0682689
0.194751 0.139971 0.0687266
0.253925 0.120638 0.0726482
0.299504 0.111406 0.0702068
0.330816 0.107271 0.0674754
0.353414 0.105379 0.0632029
0.375891 0.105791 0.0603799
0.397238 0.104555 0.0572213
0.415763 0.102937 0.0546578
0.433616 0.103273 0.0546883
0.449073 0.0988479 0.0531777
0.462684 0.0919509 0.0492714
0.481361 0.0914321 0.0521248
0.499977 0.0908827 0.0554818
0.516442 0.0900587 0.0602884
0.543374 0.0954757 0.0750744
0.567788 0.0954452 0.0910506
0.598016 0.0937362 0.116365
0.626017 0.0960861 0.147372
0.647272 0.108873 0.185733
0.666407 0.121874 0.221286
0.683864 0.136522 0.251789
0.709743 0.157961 0.284077
0.730892 0.178882 0.318105
0.753002 0.202716 0.344152
0.767163 0.226108 0.372641
0.779477 0.249271 0.399237
0.0670787 0.168276 0.0759747
0.0639963 0.167834 0.0743114
0.0616159 0.165545 0.0697032
0.0658274 0.167361 0.0650797
0.0897993 0.175433 0.0696574
0.121096 0.18529 0.0768749
0.149279 0.192798 0.0795148
0.190692 0.193759 0.0782635
0.254994 0.191348 0.078233
0.319234 0.170947 0.0844587
0.367834 0.153994 0.088014
0.399283 0.147402 0.0868544
0.421942 0.142916 0.0848554
0.440055 0.143893 0.0836805
0.459236 0.142535 0.0812848
0.477302 0.141085 0.0796216
0.49308 0.140276 0.0793622
0.506554 0.140154 0.0793164
0.516732 0.138247 0.0784314
0.526619 0.132586 0.0766308
0.535607 0.12459 0.071931
0.556008 0.124163 0.0803845
0.569894 0.118807 0.084596
0.58616 0.114061 0.0941482
0.617533 0.113512 0.120531
0.652232 0.11284 0.15465
0.670436 0.124605 0.195438
0.68719 0.139406 0.236057
0.706569 0.156603 0.278691
0.727031 0.177188 0.318547
0.752743 0.203006 0.341604
0.769696 0.227863 0.366873
0.782956 0.253651 0.390143
0.0726177 0.210727 0.0872511
0.0691844 0.210605 0.0852827
0.0655833 0.208011 0.0789197
0.0665751 0.208469 0.0702373
0.0830243 0.21622 0.0722362
0.118761 0.23003 0.0829938
0.155673 0.242557 0.0917678
0.197528 0.253544 0.0945449
0.252628 0.254719 0.0928206
0.323232 0.252995 0.090837
0.385748 0.236698 0.0973831
0.431907 0.213718 0.107774
0.467109 0.201877 0.111162
0.490898 0.197055 0.112123
0.508629 0.194873 0.1122
0.527916 0.193423 0.112001
0.547112 0.192386 0.112764
0.563394 0.190204 0.112856
0.577768 0.18851 0.114199
0.589197 0.185946 0.115602
0.599847 0.182864 0.117388
0.607706 0.179232 0.118654
0.61323 0.169818 0.117739
0.613291 0.155596 0.108705
0.625879 0.146578 0.115602
0.641001 0.136934 0.128634
0.664958 0.133791 0.156786
0.688685 0.140841 0.197986
0.71281 0.162112 0.251179
0.732158 0.181018 0.297047
0.750439 0.202106 0.337011
0.765011 0.224231 0.372534
0.780194 0.250202 0.397818
0.0823987 0.259007 0.103059
0.0783703 0.259388 0.101366
0.0738079 0.257053 0.0943923
0.0708324 0.256031 0.0840314
0.0790265 0.259922 0.078706
0.109071 0.273091 0.0862135
0.153811 0.289448 0.0990616
0.203082 0.304143 0.106798
0.256214 0.314794 0.105608
0.320073 0.316381 0.104448
0.389532 0.313619 0.0981918
0.447486 0.303288 0.105119
0.490684 0.281468 0.117037
0.526299 0.263172 0.12903
0.55285 0.255589 0.133211
0.574533 0.252827 0.134936
0.593805 0.251286 0.136538
0.611566 0.248814 0.137255
0.628336 0.244343 0.139452
0.643061 0.241077 0.140154
0.65658 0.237491 0.14197
0.669429 0.234775 0.144793
0.677546 0.228962 0.148226
0.68333 0.222614 0.152697
0.686687 0.21532 0.156435
0.688396 0.199786 0.157244
0.671138 0.17322 0.143221
0.682597 0.162936 0.1617
0.703853 0.158434 0.193606
0.737377 0.18732 0.253437
0.753613 0.205676 0.303563
0.767987 0.22771 0.346059
0.780911 0.251637 0.384436
0.0894789 0.305623 0.116762
0.0855726 0.30605 0.116243
0.0810559 0.305333 0.110445
0.0784619 0.30486 0.100557
0.0801404 0.303883 0.0889448
0.0973526 0.311543 0.0886702
0.14049 0.329015 0.0996262
0.195804 0.345403 0.110109
0.262089 0.363195 0.114473
0.320424 0.373648 0.111803
0.382742 0.37351 0.111757
0.445869 0.37171 0.103487
0.498726 0.365011 0.111192
0.542473 0.348333 0.124376
0.577996 0.329915 0.137011
0.606836 0.315251 0.147417
0.629755 0.308156 0.153262
0.649348 0.306004 0.155291
0.667155 0.304814 0.157687
0.685481 0.299016 0.160784
0.702068 0.293675 0.16405
0.715709 0.289097 0.167254
0.728054 0.285008 0.169604
0.736751 0.279118 0.172549
0.74377 0.273472 0.175784
0.748409 0.264881 0.180499
0.743008 0.253285 0.183703
0.72781 0.236927 0.185275
0.719432 0.211597 0.186938
0.715053 0.190219 0.193149
0.752941 0.207919 0.244816
0.769635 0.231998 0.302159
0.782406 0.256779 0.350576
0.0919356 0.348562 0.127871
0.0882734 0.349142 0.128038
0.0839857 0.348241 0.122957
0.0825666 0.347982 0.114275
0.0836805 0.348013 0.103838
0.0904555 0.349203 0.0949722
0.120638 0.363012 0.0988174
0.177584 0.380926 0.108751
0.254643 0.401312 0.117098
0.322789 0.418494 0.117296
0.378073 0.428794 0.114931
0.436408 0.427344 0.118578
0.493751 0.42501 0.10988
0.543633 0.421424 0.118975
0.585962 0.410788 0.13283
0.620951 0.393317 0.148272
0.64799 0.376593 0.15816
0.670665 0.36585 0.167941
0.690715 0.359625 0.176471
0.707591 0.357549 0.181491
0.726238 0.352422 0.185672
0.742351 0.346639 0.19028
0.756497 0.339773 0.196063
0.768109 0.333928 0.198901
0.778515 0.327337 0.203326
0.785641 0.319905 0.205737
0.788022 0.310857 0.206943
0.783368 0.299275 0.205936
0.771618 0.28246 0.204364
0.753017 0.263828 0.207874
0.742382 0.243702 0.214435
0.760967 0.247456 0.249073
0.779843 0.257877 0.293294
0.0925307 0.38912 0.140047
0.0888991 0.389258 0.140169
0.0861677 0.388724 0.134829
0.0859236 0.388968 0.127443
0.0873732 0.389822 0.11928
0.0902419 0.3888 0.105287
0.107744 0.394903 0.10045
0.152056 0.411612 0.106767
0.227008 0.431067 0.116487
0.311482 0.455253 0.122515
0.372412 0.470634 0.122438
0.424796 0.480568 0.123949
0.483391 0.477791 0.130968
0.536858 0.474311 0.123339
0.582986 0.472251 0.132235
0.623835 0.465736 0.146929
0.658457 0.451865 0.164706
0.684169 0.434409 0.17409
0.705516 0.42118 0.183841
0.72517 0.41236 0.193683
0.739864 0.409751 0.200046
0.75639 0.402701 0.208682
0.771466 0.398398 0.215564
0.786343 0.390845 0.220813
0.798306 0.383459 0.22591
0.808637 0.373632 0.230732
0.814404 0.365133 0.232792
0.811688 0.353262 0.233005
0.80502 0.340383 0.230426
0.796338 0.325124 0.228229
0.783536 0.306081 0.225223
0.768582 0.29044 0.229191
0.768917 0.294331 0.263462
0.0922103 0.426688 0.153262
0.0901503 0.42652 0.152071
0.0898604 0.426215 0.145556
0.0903639 0.426139 0.13846
0.0908827 0.426886 0.132219
0.0929732 0.426703 0.120592
0.101656 0.427863 0.106355
0.133761 0.440085 0.107622
0.201938 0.457984 0.117449
0.293843 0.483406 0.12958
0.368856 0.505928 0.134325
0.422293 0.51928 0.136294
0.470436 0.527871 0.139055
0.526772 0.523384 0.147204
0.575097 0.5205 0.140124
0.617441 0.518822 0.148684
0.656916 0.515038 0.164202
0.691752 0.502907 0.183566
0.716167 0.486885 0.194064
0.735744 0.472602 0.204776
0.752483 0.462333 0.214557
0.76524 0.459632 0.219944
0.779019 0.45565 0.226383
0.792233 0.449393 0.233768
0.805341 0.441016 0.241993
0.816541 0.432731 0.248219
0.82771 0.421881 0.252399
0.829664 0.410529 0.254124
0.8262 0.397528 0.254276
0.820478 0.38291 0.25156
0.813657 0.36759 0.249928
0.800763 0.34963 0.248127
0.786343 0.332845 0.248539
0.0966354 0.463722 0.173083
0.0948806 0.462989 0.168521
0.0934157 0.46186 0.161059
0.0936599 0.461402 0.154055
0.0948348 0.462058 0.148943
0.0972457 0.462242 0.138842
0.105165 0.462715 0.124956
0.126558 0.467872 0.115862
0.183444 0.483436 0.123522
0.271458 0.505699 0.13611
0.363104 0.534936 0.146593
0.420172 0.552209 0.149203
0.469047 0.564233 0.152605
0.512673 0.571145 0.156222
0.56585 0.566812 0.16585
0.610925 0.563973 0.160967
0.651438 0.562844 0.170108
0.688319 0.558907 0.18436
0.722133 0.547677 0.204807
0.744717 0.534447 0.217823
0.7617 0.521477 0.228901
0.775128 0.511513 0.236927
0.786786 0.506432 0.242786
0.797314 0.503853 0.246784
0.807736 0.499016 0.251453
0.817304 0.49279 0.256275
0.828199 0.483467 0.262989
0.833997 0.471565 0.267628
0.835889 0.458473 0.271305
0.835431 0.44622 0.270909
0.830793 0.427848 0.26978
0.822675 0.410071 0.2692
0.811505 0.391745 0.26836
0.103243 0.498741 0.200778
0.10222 0.497169 0.193591
0.101564 0.496223 0.187045
0.101991 0.495171 0.179248
0.103365 0.494667 0.171435
0.106416 0.494911 0.162432
0.111192 0.494316 0.147646
0.1252 0.496452 0.133532
0.16434 0.50721 0.132357
0.254139 0.527214 0.142794
0.346456 0.55668 0.157794
0.421241 0.581109 0.163638
0.466407 0.595422 0.166918
0.511193 0.606928 0.171237
0.551705 0.611673 0.176471
0.601465 0.606989 0.186557
0.6439 0.604685 0.18436
0.682048 0.603433 0.193698
0.717922 0.60032 0.207111
0.749264 0.589715 0.228641
0.769741 0.578515 0.243046
0.78378 0.568017 0.255299
0.794888 0.558419 0.261616
0.804807 0.552193 0.266896
0.812848 0.550072 0.270268
0.820706 0.545373 0.272511
0.82771 0.540139 0.274525
0.832792 0.53196 0.276707
0.834165 0.521584 0.277852
0.833906 0.509239 0.279072
0.833509 0.494347 0.281117
0.83064 0.473991 0.284672
0.826017 0.45449 0.285725
0.112734 0.532509 0.229786
0.111543 0.530663 0.223041
0.111406 0.529488 0.217884
0.112367 0.528267 0.210575
0.113756 0.527108 0.200778
0.116381 0.526085 0.188556
0.120714 0.525872 0.176074
0.127413 0.524636 0.155337
0.154147 0.531243 0.145846
0.232227 0.547173 0.150042
0.327489 0.574197 0.164263
0.415122 0.605859 0.178805
0.470497 0.623972 0.182666
0.507286 0.6365 0.188571
0.546883 0.646189 0.193927
0.585916 0.649927 0.200076
0.633982 0.645579 0.209766
0.675105 0.643809 0.210803
0.711467 0.641962 0.219471
0.743328 0.63859 0.230915
0.77174 0.629038 0.252857
0.790646 0.618845 0.269734
0.803128 0.610605 0.282841
0.811978 0.60177 0.289357
0.819669 0.596124 0.296635
0.826246 0.592645 0.298116
0.832242 0.589044 0.298695
0.835981 0.587289 0.296468
0.835782 0.580209 0.295323
0.834684 0.569558 0.29453
0.833768 0.556603 0.293599
0.830091 0.540734 0.293141
0.825605 0.521248 0.294087
0.123766 0.565026 0.258137
0.122652 0.56321 0.252918
0.122499 0.562005 0.249409
0.122957 0.560464 0.243244
0.124346 0.558633 0.233341
0.12723 0.557031 0.219364
0.130449 0.555581 0.204028
0.135546 0.554299 0.185443
0.150805 0.555154 0.164645
0.212268 0.567254 0.161761
0.308476 0.59086 0.172503
0.402808 0.624949 0.190005
0.473106 0.649989 0.200702
0.512963 0.663767 0.206058
0.545037 0.674861 0.213169
0.58117 0.683543 0.219104
0.618967 0.686564 0.226246
0.664546 0.682383 0.235447
0.703136 0.679438 0.237171
0.736828 0.677607 0.245853
0.765484 0.675349 0.256138
0.790631 0.666743 0.278691
0.80798 0.656672 0.300237
0.819318 0.64889 0.312367
0.827436 0.64268 0.321248
0.832822 0.63682 0.326757
0.837736 0.634089 0.327596
0.841566 0.632319 0.326711
0.8421 0.632044 0.323461
0.840833 0.625589 0.321126
0.83856 0.615091 0.318349
0.834211 0.602274 0.315663
0.829526 0.585748 0.312734
0.137438 0.596323 0.285161
0.135927 0.594598 0.280812
0.135668 0.593439 0.278584
0.13637 0.592096 0.274372
0.136767 0.589761 0.265339
0.138369 0.586679 0.250523
0.141314 0.584497 0.233982
0.145998 0.582727 0.215091
0.154406 0.581064 0.190921
0.191394 0.58912 0.179324
0.290288 0.607919 0.185092
0.380789 0.637629 0.201526
0.461219 0.66862 0.216709
0.516609 0.688334 0.22533
0.550469 0.700618 0.232319
0.579782 0.710384 0.240314
0.612818 0.717739 0.246128
0.649042 0.720439 0.2542
0.692607 0.716793 0.263462
0.728695 0.713115 0.266331
0.758709 0.711147 0.274403
0.784329 0.709377 0.284184
0.805737 0.701732 0.311238
0.823224 0.69218 0.332982
0.833921 0.685145 0.344259
0.841138 0.680034 0.352468
0.845411 0.674784 0.357717
0.848219 0.672801 0.358144
0.848295 0.67248 0.355749
0.848341 0.672099 0.351492
0.846433 0.666239 0.348028
0.843183 0.657038 0.344137
0.838361 0.643549 0.340032
0.151583 0.625345 0.309987
0.149966 0.623545 0.306767
0.149752 0.622629 0.305989
0.149905 0.621042 0.302113
0.150469 0.618769 0.295369
0.151476 0.615351 0.281514
0.153765 0.611582 0.263539
0.157763 0.609552 0.245151
0.16405 0.60705 0.221241
0.188907 0.610513 0.200671
0.273014 0.624659 0.200168
0.364431 0.649912 0.215976
0.446738 0.681407 0.23299
0.512245 0.706706 0.244816
0.554009 0.721675 0.251865
0.583841 0.732235 0.260548
0.609094 0.740612 0.268513
0.641672 0.747127 0.275319
0.676204 0.74876 0.283742
0.717784 0.7458 0.292485
0.750546 0.74258 0.29778
0.777478 0.74049 0.30779
0.800443 0.739284 0.32575
0.820005 0.733181 0.345647
0.837171 0.724834 0.365774
0.84654 0.718563 0.375433
0.852552 0.713252 0.382635
0.856107 0.708858 0.387869
0.855894 0.707897 0.387366
0.855619 0.707225 0.383673
0.855039 0.70605 0.378683
0.852796 0.70071 0.374517
0.849119 0.691447 0.370153
0.166171 0.650675 0.333532
0.164935 0.649027 0.330877
0.164187 0.648096 0.329976
0.164202 0.646326 0.326787
0.164889 0.644221 0.320989
0.165209 0.64062 0.308934
0.16733 0.636683 0.292576
0.170596 0.632944 0.271733
0.176333 0.630762 0.25243
0.194461 0.631495 0.226825
0.259007 0.640833 0.218326
0.347295 0.660777 0.230137
0.429603 0.689509 0.248157
0.50193 0.718654 0.264073
0.552056 0.73753 0.272831
0.584649 0.749706 0.280873
0.612604 0.759243 0.289235
0.636393 0.766934 0.297932
0.668986 0.772732 0.304372
0.702174 0.77377 0.312886
0.740856 0.770718 0.320928
0.769879 0.768414 0.33051
0.795254 0.766812 0.346761
0.81503 0.76437 0.362158
0.833722 0.759106 0.380713
0.848966 0.751003 0.396704
0.857466 0.746075 0.405829
0.862303 0.741619 0.412695
0.862898 0.738262 0.416281
0.862699 0.736934 0.414252
0.862623 0.736171 0.409506
0.861692 0.734325 0.40415
0.858534 0.728756 0.399313
0.180453 0.672663 0.353826
0.179583 0.671168 0.349844
0.179171 0.669764 0.346792
0.179217 0.667674 0.342061
0.179675 0.665125 0.335241
0.181003 0.66212 0.324331
0.1823 0.657511 0.308415
0.185351 0.653056 0.288045
0.192554 0.650446 0.268055
0.206851 0.650721 0.248905
0.250614 0.656733 0.231006
0.340322 0.673762 0.239918
0.420966 0.699123 0.257664
0.495964 0.729168 0.276417
0.553429 0.751507 0.288823
0.591638 0.765805 0.296391
0.62092 0.77583 0.304463
0.648127 0.784466 0.313146
0.671016 0.791058 0.319951
0.702739 0.795529 0.326436
0.732998 0.795682 0.336141
0.767422 0.791775 0.346303
0.793851 0.789685 0.360662
0.816541 0.787472 0.375814
0.835416 0.785138 0.391104
0.852567 0.780179 0.408103
0.865599 0.772885 0.422904
0.871199 0.768246 0.432914
0.872618 0.76466 0.439399
0.870771 0.762234 0.442542
0.869642 0.761532 0.440986
0.868193 0.76112 0.434607
0.866102 0.7579 0.428397
0.194903 0.691829 0.372335
0.194095 0.690166 0.368795
0.193256 0.688563 0.365286
0.193423 0.686793 0.360754
0.193942 0.684062 0.354314
0.194644 0.680751 0.344533
0.19585 0.676417 0.330266
0.198566 0.671443 0.310384
0.207187 0.668757 0.290593
0.222187 0.668605 0.272663
0.253422 0.671931 0.255802
0.324056 0.683558 0.25568
0.405844 0.70518 0.271046
0.478508 0.732403 0.289036
0.537209 0.756436 0.304753
0.582284 0.774441 0.315755
0.616403 0.787274 0.324376
0.645518 0.796979 0.332387
0.671901 0.805051 0.339788
0.696315 0.811444 0.347707
0.72668 0.815656 0.356756
0.753399 0.814832 0.368872
0.784634 0.811337 0.379934
0.80885 0.808499 0.393408
0.829816 0.806882 0.407523
0.84715 0.803922 0.421881
0.862135 0.798871 0.437507
0.873564 0.792676 0.45301
0.87686 0.789166 0.46305
0.876463 0.78645 0.468498
0.87541 0.784695 0.469413
0.874052 0.783459 0.466224
0.872511 0.782574 0.458122
0.208988 0.707332 0.389395
0.208042 0.705425 0.385229
0.207385 0.703868 0.38204
0.207446 0.702129 0.377066
0.207294 0.699184 0.370306
0.208118 0.695506 0.360845
0.209354 0.691524 0.348058
0.211505 0.686595 0.330312
0.222202 0.684016 0.311803
0.237552 0.683543 0.294347
0.263462 0.686458 0.283421
0.316808 0.694255 0.281788
0.388891 0.709773 0.291356
0.457359 0.731502 0.307286
0.520272 0.757107 0.324498
0.567437 0.777066 0.337911
0.60592 0.792905 0.349416
0.637949 0.805112 0.358923
0.667567 0.814984 0.367254
0.693751 0.822797 0.37464
0.719646 0.828519 0.381537
0.746105 0.831373 0.389364
0.771481 0.830488 0.400931
0.799558 0.826764 0.411383
0.822156 0.824765 0.424399
0.842481 0.822889 0.438331
0.857954 0.820264 0.451789
0.871305 0.816129 0.469291
0.879103 0.811536 0.484001
0.880217 0.808026 0.49337
0.880613 0.805692 0.497078
0.880217 0.80383 0.496162
0.879255 0.802869 0.490761
0.222385 0.719539 0.403784
0.221454 0.717952 0.399847
0.220554 0.716213 0.39588
0.220081 0.714183 0.390585
0.220203 0.711162 0.384222
0.220966 0.707942 0.375311
0.222324 0.70396 0.3635
0.225956 0.699535 0.347738
0.237766 0.697276 0.33138
0.25391 0.696605 0.314794
0.27953 0.699657 0.308476
0.313191 0.704936 0.307774
0.376684 0.715724 0.312566
0.440894 0.733028 0.325399
0.500435 0.754833 0.340856
0.552346 0.776791 0.356909
0.594598 0.795499 0.370626
0.62884 0.809689 0.381979
0.660975 0.821469 0.392004
0.691295 0.830915 0.400519
0.715953 0.837736 0.406714
0.740673 0.842557 0.412879
0.76492 0.844755 0.420096
0.790158 0.843778 0.431144
0.814313 0.840009 0.441337
0.835233 0.837995 0.454078
0.853971 0.836408 0.467811
0.867796 0.833967 0.481987
0.878202 0.830259 0.500252
0.882536 0.826932 0.514992
0.883345 0.824903 0.523735
0.883345 0.823117 0.52694
0.882933 0.821744 0.52282
0.235401 0.729107 0.416526
0.234531 0.727428 0.411749
0.233509 0.725887 0.407324
0.232715 0.723842 0.401633
0.233021 0.721187 0.396002
0.233661 0.717968 0.387747
0.236683 0.714763 0.378012
0.241367 0.710918 0.36463
0.252506 0.708522 0.349477
0.270756 0.708232 0.335729
0.297002 0.711177 0.331777
0.325933 0.715663 0.33167
0.368124 0.722759 0.335241
0.427497 0.736095 0.344671
0.483436 0.753811 0.35819
0.535958 0.774777 0.373617
0.581216 0.794736 0.38883
0.618799 0.811139 0.401648
0.652735 0.824643 0.413581
0.685771 0.836469 0.424674
0.713268 0.844785 0.432151
0.737392 0.850462 0.437491
0.759136 0.854322 0.442954
0.78233 0.856229 0.449485
0.805142 0.855406 0.459464
0.827604 0.851713 0.470451
0.847471 0.849729 0.483284
0.863752 0.848508 0.498024
0.876432 0.847105 0.513191
0.884306 0.844343 0.533608
0.885222 0.84303 0.546639
0.885832 0.84152 0.55436
0.886183 0.840162 0.556619
0.247578 0.73611 0.427161
0.246387 0.734356 0.422461
0.245014 0.732723 0.416892
0.244434 0.731228 0.41178
0.244388 0.728573 0.406271
0.245884 0.725826 0.399222
0.249683 0.723095 0.390845
0.257404 0.720653 0.380468
0.267399 0.718013 0.368048
0.287373 0.717525 0.357671
0.313695 0.72015 0.353979
0.339071 0.724208 0.354192
0.372213 0.730236 0.357733
0.418952 0.73991 0.365164
0.470924 0.754284 0.376516
0.520897 0.772396 0.390341
0.568643 0.792569 0.405417
0.610574 0.811215 0.420462
0.644877 0.825711 0.433845
0.6795 0.839139 0.446097
0.711177 0.849653 0.45623
0.73463 0.855924 0.462623
