bundles/resolve-cinematic-luts/Phantom Luts/A7s3 Phntm Film LUTs - G6/SLog2+Sgamut3cine/Eterna A7s3 Sl2sg3c-Legacy.cube
TITLE "Generated by Resolve"
LUT_3D_SIZE 33
0.032639 0.0588693 0.0588846
0.0326543 0.0588693 0.0588693
0.0328527 0.0587778 0.0585489
0.0336767 0.0585641 0.0575875
0.0457618 0.0586404 0.0568856
0.0694896 0.0586252 0.0562905
0.0929732 0.0591287 0.0569924
0.113024 0.0601511 0.0593729
0.134569 0.062501 0.0634012
0.159716 0.0663005 0.0697642
0.187396 0.0699931 0.0769665
0.217533 0.0740826 0.0845655
0.251789 0.0777295 0.0957809
0.287556 0.082063 0.107836
0.326162 0.0869154 0.121172
0.365545 0.091249 0.13492
0.404913 0.0956283 0.148836
0.44387 0.0994888 0.163821
0.48365 0.10367 0.179797
0.524834 0.108141 0.198276
0.568948 0.113039 0.218204
0.619089 0.120378 0.240253
0.668269 0.129427 0.263035
0.713039 0.141649 0.286549
0.748669 0.154559 0.309728
0.773373 0.1664 0.330755
0.792416 0.178363 0.351156
0.819455 0.196521 0.376806
0.847669 0.216144 0.406119
0.874022 0.236393 0.437125
0.899382 0.260166 0.469566
0.919463 0.28751 0.501823
0.932906 0.314199 0.532189
0.0326848 0.0588693 0.0588235
0.032639 0.0588693 0.0588846
0.0328374 0.058793 0.0585794
0.0335546 0.0586404 0.0577707
0.046891 0.0588235 0.0572824
0.0725567 0.0593423 0.0575113
0.0971542 0.0598459 0.0589609
0.117708 0.0607767 0.0612497
0.139818 0.0630808 0.0655833
0.164843 0.0666514 0.0717784
0.19321 0.0702831 0.0793774
0.223865 0.0748608 0.0871138
0.257877 0.0782025 0.098558
0.293843 0.0823377 0.110933
0.332616 0.0868391 0.124025
0.372122 0.0914931 0.137758
0.410742 0.0957656 0.150896
0.450324 0.100481 0.16556
0.490578 0.105135 0.180621
0.53286 0.10988 0.197818
0.578164 0.115343 0.217182
0.629084 0.123278 0.238621
0.677821 0.132906 0.261662
0.72047 0.144839 0.285664
0.752956 0.157397 0.308568
0.775708 0.168505 0.328832
0.795346 0.180697 0.34995
0.82182 0.198367 0.375479
0.849302 0.218082 0.404334
0.875074 0.237659 0.435309
0.900511 0.261814 0.467552
0.919554 0.287449 0.499092
0.932708 0.313024 0.528145
0.0327153 0.0588388 0.0587778
0.032639 0.0588693 0.0588846
0.0328069 0.058793 0.0586252
0.0333867 0.0587167 0.057969
0.0455482 0.0590372 0.0576944
0.0705119 0.059617 0.0581064
0.0969558 0.0601968 0.0603342
0.119936 0.0612955 0.0632181
0.142885 0.0635386 0.0675975
0.169055 0.0670176 0.0735027
0.19794 0.0710918 0.0808881
0.229313 0.0754101 0.0891737
0.263447 0.0785534 0.100542
0.300069 0.0827649 0.113207
0.338643 0.0868391 0.126726
0.379339 0.0915389 0.140734
0.418296 0.0958724 0.15407
0.457359 0.100633 0.167987
0.49752 0.105806 0.182895
0.539864 0.111177 0.199298
0.586526 0.117494 0.217914
0.637675 0.125765 0.238758
0.685954 0.135485 0.261692
0.727901 0.148226 0.286015
0.756619 0.159701 0.30721
0.777539 0.170703 0.327504
0.798795 0.183688 0.34934
0.824857 0.201129 0.374609
0.851194 0.220218 0.40296
0.876936 0.239979 0.43386
0.901793 0.263691 0.465629
0.920104 0.288396 0.496681
0.932525 0.312306 0.524956
0.0328069 0.0589456 0.0587167
0.0326848 0.0590372 0.0589303
0.0328222 0.0589609 0.0587625
0.0332189 0.0588846 0.0582895
0.0417029 0.0595254 0.0581369
0.0620584 0.0599832 0.0578164
0.0893416 0.0603647 0.0598001
0.115373 0.061265 0.0635386
0.141054 0.0636606 0.0687877
0.168795 0.0670787 0.0749065
0.199145 0.0710918 0.0822003
0.231647 0.0754101 0.0905776
0.266209 0.0788281 0.101122
0.303441 0.0831769 0.114229
0.342992 0.0871901 0.12784
0.38436 0.0917067 0.142275
0.424216 0.0957656 0.156085
0.463691 0.100175 0.170016
0.505043 0.105669 0.185443
0.547753 0.111376 0.20148
0.594537 0.118395 0.22002
0.644709 0.126879 0.240146
0.691905 0.137484 0.26302
0.732647 0.15024 0.286397
0.75996 0.161746 0.306783
0.778881 0.171847 0.326314
0.799924 0.185107 0.34725
0.825833 0.202426 0.372564
0.850767 0.220401 0.399237
0.876081 0.239841 0.429175
0.899825 0.261845 0.459876
0.918135 0.284733 0.489616
0.930999 0.308141 0.517662
0.0347753 0.0648814 0.0610666
0.0348516 0.0664073 0.0614023
0.0352331 0.0662242 0.0609445
0.036408 0.0643778 0.060441
0.0420691 0.0648966 0.0601053
0.0588388 0.064622 0.0594797
0.0854047 0.0644388 0.0603037
0.112047 0.0636149 0.0625772
0.140108 0.0646525 0.0680095
0.170932 0.0678416 0.0753185
0.20293 0.0712444 0.0827192
0.234897 0.0747997 0.090074
0.27129 0.0790265 0.101289
0.309209 0.0839094 0.113954
0.348424 0.0879683 0.127749
0.389425 0.0919509 0.142
0.430426 0.0969863 0.15584
0.472175 0.10161 0.17052
0.515541 0.106569 0.185733
0.56141 0.112612 0.202838
0.611704 0.120211 0.222339
0.662181 0.129488 0.243381
0.706813 0.140703 0.2654
0.744244 0.154223 0.2878
0.768109 0.165881 0.307591
0.784482 0.175647 0.326314
0.806592 0.190509 0.348196
0.832135 0.208179 0.373434
0.857343 0.226719 0.402152
0.883162 0.24741 0.433051
0.905715 0.269978 0.4645
0.922728 0.293584 0.494713
0.934401 0.316777 0.522911
0.0394598 0.0908675 0.0679179
0.0394751 0.0931716 0.0682841
0.039704 0.0939345 0.0675212
0.0419013 0.0910658 0.0653086
0.0530556 0.088838 0.0651255
0.0736095 0.0893111 0.0656748
0.0996414 0.0863966 0.0662242
0.12488 0.0814374 0.0670634
0.151308 0.0778821 0.0689403
0.181384 0.0768749 0.0742657
0.212787 0.0767681 0.0805982
0.245228 0.076112 0.0863966
0.282445 0.0791485 0.0974899
0.319982 0.0830701 0.109972
0.356832 0.0869612 0.122698
0.397726 0.0921492 0.137987
0.442557 0.09897 0.154086
0.484367 0.103731 0.169039
0.528206 0.108553 0.18584
0.574731 0.113695 0.203906
0.628946 0.124117 0.221942
0.680415 0.134356 0.243915
0.723613 0.145892 0.267292
0.756802 0.158572 0.289708
0.777035 0.169238 0.30869
0.792569 0.179599 0.327855
0.814511 0.195346 0.350332
0.839521 0.214099 0.376669
0.864378 0.232853 0.4056
0.889769 0.254932 0.437507
0.911421 0.278096 0.469139
0.926589 0.302098 0.499809
0.937407 0.325093 0.528145
0.0441749 0.122896 0.0758373
0.0439002 0.125719 0.0760967
0.0439612 0.127291 0.0759899
0.0445106 0.125628 0.0719921
0.0533455 0.122866 0.0701305
0.0788891 0.123339 0.0703593
0.107408 0.122759 0.0718242
0.140795 0.117861 0.0746319
0.171984 0.109377 0.0783246
0.19794 0.103044 0.0789807
0.224018 0.0985428 0.080354
0.255085 0.0920272 0.0829023
0.28954 0.088838 0.0906386
0.324239 0.0866407 0.0993362
0.359213 0.0876173 0.110903
0.400916 0.0923934 0.127169
0.443305 0.0968948 0.143328
0.487266 0.103212 0.161273
0.538918 0.11133 0.181445
0.588937 0.118105 0.201709
0.637736 0.125216 0.222904
0.684794 0.134447 0.244877
0.7299 0.150072 0.26743
0.762936 0.164645 0.287236
0.781369 0.174151 0.305608
0.799496 0.18584 0.326665
0.821591 0.201068 0.35108
0.846799 0.220706 0.378531
0.870283 0.239536 0.406729
0.895216 0.263142 0.438239
0.914961 0.287053 0.46978
0.928771 0.311437 0.499382
0.938399 0.333852 0.526207
0.0509651 0.151461 0.0822156
0.0489204 0.155825 0.0832074
0.0473182 0.158694 0.0838026
0.0475624 0.158999 0.0806287
0.0501106 0.156909 0.0751812
0.0753948 0.157504 0.0755016
0.107042 0.156985 0.0748302
0.139895 0.154421 0.0762646
0.182818 0.149493 0.0808881
0.226276 0.136736 0.0898909
0.255268 0.128862 0.092546
0.282506 0.123796 0.0941634
0.310521 0.116854 0.0964981
0.340734 0.10901 0.099382
0.374838 0.104707 0.107759
0.411704 0.100984 0.118761
0.448997 0.0998245 0.131853
0.492164 0.103136 0.148943
0.534707 0.105791 0.165316
0.591775 0.115801 0.189303
0.660121 0.13135 0.219043
0.703456 0.142092 0.243046
0.738994 0.153201 0.267552
0.764996 0.165759 0.285603
0.784283 0.177478 0.302571
0.805615 0.19173 0.323507
0.828687 0.207736 0.349203
0.85391 0.227329 0.376928
0.877653 0.24741 0.40708
0.901717 0.271504 0.439429
0.919295 0.295827 0.470451
0.932219 0.319951 0.500725
0.940566 0.342138 0.527245
0.0543221 0.184558 0.0924086
0.0513161 0.189502 0.0935683
0.0492561 0.19382 0.0941176
0.0492409 0.195666 0.0915694
0.0510872 0.194873 0.0845808
0.0642252 0.195346 0.0770123
0.102785 0.196658 0.0805982
0.136934 0.196399 0.0802625
0.179294 0.193759 0.0829786
0.232166 0.18941 0.0874037
0.287984 0.173495 0.103929
0.325292 0.163455 0.110475
0.354086 0.158541 0.113588
0.38204 0.154467 0.116594
0.413565 0.147646 0.120302
0.446021 0.139071 0.124712
0.479484 0.130205 0.131563
0.513252 0.120958 0.140551
0.551217 0.116548 0.155077
0.594568 0.116136 0.173617
0.640681 0.119799 0.193698
0.697368 0.13753 0.223423
0.74406 0.157092 0.254063
0.768933 0.170764 0.277455
0.783001 0.177157 0.299458
0.80058 0.186664 0.324865
0.831937 0.212131 0.34464
0.857816 0.232486 0.373541
0.883848 0.256229 0.403128
0.906355 0.280217 0.43592
0.922835 0.304616 0.467536
0.934462 0.328298 0.497932
0.942535 0.350149 0.525353
0.0593423 0.222507 0.107134
0.0552377 0.228092 0.106355
0.051957 0.233799 0.106981
0.0508583 0.237217 0.105196
0.0521706 0.237781 0.0976883
0.057969 0.238331 0.0855573
0.0808423 0.240696 0.081529
0.128038 0.243977 0.0861219
0.172992 0.244984 0.085771
0.227665 0.243244 0.0895552
0.291554 0.240864 0.0911574
0.359487 0.225559 0.1178
0.407813 0.211734 0.13138
0.441047 0.206485 0.137194
0.472847 0.204227 0.140475
0.506279 0.200153 0.14403
0.540444 0.192691 0.14844
0.573678 0.18233 0.153719
0.604898 0.169162 0.159213
0.635187 0.154131 0.166552
0.668315 0.144366 0.183322
0.694377 0.140566 0.200732
0.730312 0.150362 0.226886
0.75668 0.164736 0.250523
0.786816 0.18558 0.280888
0.806882 0.196399 0.309926
0.828534 0.209644 0.340429
0.85272 0.22678 0.373861
0.884703 0.258213 0.399725
0.909987 0.288579 0.42826
0.925765 0.313436 0.461173
0.936584 0.336751 0.491844
0.944015 0.357931 0.519203
0.0643931 0.268345 0.12256
0.0594949 0.275563 0.120821
0.0552682 0.28275 0.12163
0.0528573 0.288151 0.121187
0.0548104 0.290959 0.114809
0.0595865 0.294163 0.103716
0.0670634 0.293919 0.0886854
0.0975967 0.298772 0.0873884
0.160571 0.303365 0.0904555
0.216037 0.305119 0.0887922
0.28336 0.303731 0.0924697
0.355596 0.303868 0.0843214
0.432074 0.291371 0.122118
0.494072 0.276158 0.146197
0.537057 0.266651 0.157626
0.571954 0.262531 0.164202
0.605753 0.260288 0.167697
0.642359 0.254368 0.172137
0.678828 0.24535 0.177234
0.712383 0.233646 0.183474
0.738979 0.218372 0.191516
0.753826 0.200031 0.201602
0.767529 0.188312 0.216999
0.765957 0.173358 0.225589
0.770047 0.173068 0.243748
0.804913 0.199863 0.279484
0.831785 0.218173 0.316258
0.858518 0.237873 0.354696
0.881544 0.25597 0.392508
0.904524 0.278737 0.429618
0.924681 0.311589 0.458228
0.938125 0.344884 0.482231
0.945449 0.366247 0.511269
0.0685893 0.324987 0.139345
0.0637827 0.33431 0.136126
0.0584573 0.342077 0.137255
0.0557107 0.348669 0.137896
0.0566873 0.353292 0.133516
0.0606546 0.357656 0.122377
0.0648661 0.360708 0.109941
0.0750286 0.360159 0.0935683
0.122301 0.364767 0.0898299
0.197665 0.367987 0.0913558
0.264683 0.369543 0.0871748
0.342794 0.369589 0.0915084
0.419821 0.37258 0.0717174
0.497307 0.363241 0.119844
0.568811 0.34992 0.153719
0.6215 0.33994 0.171359
0.661952 0.33463 0.18265
0.696147 0.331594 0.190295
0.7337 0.323415 0.198749
0.770779 0.315511 0.205264
0.802335 0.3037 0.212894
0.823651 0.290913 0.222477
0.836362 0.274861 0.23154
0.8383 0.253605 0.236652
0.819379 0.226047 0.233982
0.800015 0.2009 0.238911
0.818891 0.213199 0.270344
0.854795 0.241779 0.317708
0.888197 0.272725 0.366003
0.908309 0.290501 0.410193
0.923537 0.310658 0.450706
0.93463 0.330999 0.488197
0.944717 0.362692 0.510536
0.0715648 0.388449 0.155703
0.066392 0.398795 0.152224
0.0602121 0.407263 0.153735
0.0570687 0.414115 0.154009
0.055436 0.420447 0.150195
0.0583658 0.425422 0.140078
0.0608377 0.430045 0.130327
0.0655528 0.432715 0.116655
0.0822766 0.431861 0.0937514
0.149233 0.436713 0.0912642
0.244892 0.437858 0.0922713
0.320378 0.438697 0.0879225
0.404013 0.438911 0.0988937
0.481849 0.441688 0.0735485
0.556023 0.436057 0.120363
0.629938 0.425574 0.165698
0.687938 0.415457 0.189929
0.734783 0.408545 0.206592
0.769665 0.406928 0.217121
0.805203 0.398077 0.228336
0.838621 0.387213 0.238041
0.866285 0.374884 0.249104
0.884489 0.363287 0.257618
0.892164 0.348287 0.262654
0.884565 0.325795 0.260304
0.872343 0.299809 0.256397
0.850813 0.263325 0.251728
0.847333 0.249226 0.26807
0.872496 0.267826 0.311833
0.909438 0.305394 0.371649
0.926665 0.327886 0.423438
0.937087 0.345815 0.465782
0.944381 0.363378 0.502525
0.0740368 0.457191 0.174411
0.0687724 0.4663 0.173465
0.0641642 0.474327 0.173724
0.0605783 0.481361 0.173587
0.0587167 0.488045 0.168627
0.059266 0.49369 0.159243
0.061677 0.498894 0.150057
0.0659953 0.502571 0.141649
0.0751354 0.503517 0.120378
0.109575 0.502846 0.0963455
0.202808 0.506966 0.100725
0.309728 0.50457 0.101228
0.381964 0.507286 0.100816
0.464759 0.506523 0.117067
0.54078 0.507759 0.0963607
0.609674 0.506325 0.128862
0.684474 0.498787 0.184268
0.747295 0.488762 0.213703
0.797299 0.480232 0.233738
0.832624 0.476555 0.246601
0.863828 0.470802 0.258549
0.891783 0.46125 0.2701
0.914855 0.447608 0.282612
0.925841 0.432456 0.290913
0.922469 0.416098 0.289174
0.915419 0.393851 0.284688
0.906508 0.367803 0.280156
0.893065 0.334478 0.274678
0.881621 0.303395 0.278325
0.891173 0.30074 0.310124
0.920867 0.334173 0.369345
0.939193 0.366796 0.430747
0.946258 0.380713 0.477272
0.0777142 0.526207 0.201495
0.0732738 0.534386 0.204089
0.0687877 0.541985 0.203754
0.0662547 0.549279 0.201266
0.0652018 0.555367 0.194736
0.0668803 0.561013 0.186694
0.0702068 0.565377 0.178088
0.0760357 0.568643 0.168948
0.0836805 0.570779 0.155383
0.0960403 0.56997 0.124575
0.160311 0.571603 0.112856
0.276081 0.571893 0.12134
0.384863 0.567941 0.115908
0.444556 0.573388 0.123247
0.52433 0.571328 0.139788
0.59704 0.570657 0.1252
0.663127 0.570626 0.148928
0.736171 0.563775 0.203433
0.799115 0.554696 0.238437
0.847837 0.546242 0.26183
0.882811 0.540764 0.277317
0.909255 0.536797 0.289097
0.928481 0.53138 0.298802
0.944549 0.519997 0.310338
0.944411 0.502983 0.312444
0.94168 0.481361 0.31223
0.937285 0.458473 0.309071
0.930449 0.431174 0.30341
0.921096 0.397986 0.297749
0.909056 0.359716 0.294331
0.911162 0.344152 0.315877
0.933623 0.371023 0.374517
0.946181 0.395224 0.431998
0.0928206 0.589883 0.241611
0.0890211 0.597421 0.244434
0.0845197 0.605478 0.243061
0.081117 0.613214 0.238437
0.0803388 0.620035 0.232013
0.0825055 0.625025 0.224796
0.0864271 0.629023 0.217258
0.0928664 0.631678 0.206683
0.100237 0.633326 0.193256
0.110948 0.634165 0.173175
0.133516 0.631296 0.137438
0.234958 0.63592 0.139055
0.358801 0.633158 0.143526
0.449897 0.631037 0.136934
0.507744 0.636423 0.149508
0.583139 0.632532 0.166461
0.651423 0.629435 0.160128
0.71429 0.628351 0.178103
0.784466 0.621439 0.227176
0.843915 0.612909 0.266346
0.888533 0.604959 0.290211
0.919402 0.599985 0.307225
0.937194 0.596719 0.317113
0.948577 0.59353 0.32369
0.954452 0.584405 0.328344
0.954437 0.570428 0.328527
0.952865 0.550973 0.327855
0.94992 0.524269 0.326253
0.945357 0.489433 0.323354
0.938949 0.45301 0.31902
0.929931 0.414313 0.313191
0.932296 0.397604 0.33576
0.943603 0.407858 0.383215
0.114351 0.652232 0.284962
0.110597 0.660166 0.287007
0.105882 0.667704 0.283177
0.101915 0.675486 0.277043
0.100572 0.682414 0.271748
0.10277 0.687892 0.267292
0.106661 0.691081 0.260426
0.112963 0.693233 0.249973
0.120775 0.694347 0.235554
0.130053 0.694743 0.218341
0.142565 0.692866 0.190219
0.19321 0.694606 0.163027
0.321462 0.696696 0.166842
0.439506 0.692256 0.166094
0.509163 0.693202 0.164401
0.56434 0.695842 0.178943
0.635325 0.690486 0.195132
0.700542 0.684947 0.196246
0.760998 0.682109 0.211429
0.826017 0.67509 0.254231
0.880842 0.666499 0.296681
0.917159 0.659434 0.321828
0.939422 0.654017 0.337499
0.951583 0.651057 0.344472
0.954421 0.649927 0.34226
0.95555 0.640772 0.342245
0.956024 0.628183 0.341817
0.956725 0.608667 0.341436
0.956436 0.58262 0.340185
0.954314 0.546761 0.338155
0.950072 0.507591 0.335851
0.944305 0.466423 0.33257
0.943954 0.440528 0.350347
0.142748 0.712779 0.32665
0.139666 0.720821 0.326375
0.135042 0.728679 0.322805
0.131044 0.735866 0.318181
0.128817 0.742779 0.313741
0.130037 0.747799 0.309483
0.133333 0.751217 0.303944
0.138598 0.752743 0.295308
0.1458 0.753338 0.282368
0.155261 0.752941 0.263767
0.166125 0.75111 0.242298
0.185031 0.74728 0.205447
0.279744 0.756237 0.195483
0.40885 0.755199 0.197925
0.513252 0.749737 0.192905
0.563516 0.752087 0.197208
0.615976 0.752804 0.212436
0.683421 0.746303 0.22797
0.745983 0.737774 0.232441
0.8038 0.732967 0.246662
0.862913 0.724788 0.288472
0.909636 0.715175 0.334844
0.935805 0.709026 0.360418
0.950896 0.703471 0.373602
0.955169 0.70042 0.374716
0.95465 0.699611 0.367178
0.954894 0.691218 0.363638
0.955413 0.677424 0.359899
0.956558 0.657343 0.357549
0.957626 0.630701 0.355154
0.958129 0.596567 0.353399
0.956893 0.558526 0.353048
0.953918 0.518395 0.352895
0.175631 0.770993 0.367514
0.172671 0.778485 0.366171
0.168521 0.785718 0.363088
0.164691 0.792508 0.358999
0.162402 0.798474 0.355138
0.163363 0.803189 0.351675
0.16556 0.80618 0.347097
0.170245 0.807614 0.340108
0.175647 0.808179 0.328756
0.183032 0.807736 0.311833
0.192889 0.805432 0.289662
0.205386 0.801846 0.263371
0.253559 0.806622 0.234501
0.375097 0.81239 0.231342
0.488319 0.808316 0.231983
0.572045 0.803296 0.227436
0.615152 0.804547 0.233661
0.664057 0.804166 0.248768
0.728405 0.797635 0.264469
0.788907 0.787869 0.272511
0.842985 0.781247 0.289555
0.895399 0.772976 0.332311
0.931441 0.762005 0.378347
0.949432 0.754955 0.401465
0.955398 0.750332 0.41062
0.955489 0.746487 0.408179
0.954971 0.744961 0.39881
0.954467 0.735821 0.392355
0.954635 0.721248 0.386252
0.955871 0.699992 0.38056
0.957412 0.673854 0.375647
0.959319 0.641108 0.373022
0.960037 0.605386 0.3729
0.21062 0.821714 0.405432
0.209186 0.827207 0.403723
0.205875 0.833387 0.401175
0.202121 0.839109 0.397726
0.199695 0.84477 0.39469
0.199344 0.849165 0.391424
0.200336 0.851911 0.387564
0.203342 0.853101 0.381186
0.207858 0.853773 0.37171
0.214038 0.853498 0.357702
0.222431 0.851408 0.3364
0.233433 0.847883 0.310704
0.259327 0.849882 0.287236
0.335225 0.858518 0.268971
0.460288 0.858091 0.267643
0.557794 0.852094 0.267353
0.622293 0.848112 0.264103
0.661326 0.849607 0.272358
0.708064 0.849012 0.286732
0.770291 0.842451 0.302266
0.828489 0.832746 0.316426
0.877745 0.825559 0.343832
0.921263 0.816983 0.385153
0.947204 0.80557 0.425071
0.956817 0.798642 0.443549
0.957488 0.792599 0.447272
0.956939 0.788815 0.442542
0.956329 0.785962 0.431586
0.955642 0.775464 0.422827
0.955352 0.759976 0.41445
0.955825 0.738567 0.407126
0.956558 0.712688 0.400549
0.958465 0.681071 0.396338
0.243076 0.865766 0.439918
0.242634 0.869596 0.438041
0.240177 0.87425 0.435828
0.236667 0.879072 0.432578
0.233845 0.883757 0.42948
0.232776 0.887388 0.426108
0.233265 0.889967 0.422614
0.235554 0.891203 0.417334
0.238941 0.891752 0.409567
0.243992 0.89163 0.398306
0.250874 0.890105 0.38027
0.260395 0.887114 0.35523
0.283223 0.889708 0.334615
0.319036 0.894331 0.312779
0.423056 0.899977 0.303349
0.532815 0.894881 0.302861
0.616938 0.88809 0.301747
0.667689 0.886351 0.302831
0.703426 0.88806 0.313313
0.749523 0.887709 0.329747
0.810849 0.882124 0.349554
0.864775 0.873686 0.376333
0.907652 0.865538 0.405737
0.939376 0.856184 0.44184
0.956954 0.844648 0.473701
0.96022 0.836713 0.486015
0.959915 0.830457 0.486534
0.959411 0.826993 0.478447
0.958618 0.822568 0.46569
0.95787 0.81149 0.454749
0.957153 0.795499 0.445075
0.956268 0.774731 0.43653
0.956359 0.748592 0.428931
0.278172 0.898604 0.46981
0.2795 0.900908 0.468101
0.278981 0.903593 0.465553
0.277745 0.906569 0.462943
0.27631 0.909773 0.460441
0.275151 0.912093 0.457191
0.275456 0.91371 0.45388
0.27718 0.914778 0.449439
0.280919 0.915114 0.442847
0.284886 0.9149 0.433555
0.290135 0.91397 0.419974
0.299123 0.912871 0.400244
0.321111 0.915892 0.380255
0.347463 0.919066 0.36228
0.410559 0.924666 0.355581
0.513756 0.922469 0.352819
0.605158 0.916899 0.355322
0.673625 0.912703 0.356237
0.716884 0.913024 0.361868
0.752377 0.914839 0.375021
0.798886 0.915038 0.394766
0.856428 0.911818 0.420615
0.901671 0.904356 0.446891
0.932113 0.896101 0.472984
0.954025 0.887495 0.502708
0.963317 0.87657 0.526116
0.964172 0.868223 0.533272
0.963851 0.862745 0.531609
0.963012 0.860105 0.519707
0.961883 0.854932 0.505425
0.960678 0.843671 0.491539
0.959472 0.827344 0.478706
0.958389 0.807141 0.467323
0.306706 0.922133 0.49427
0.307393 0.924071 0.492576
0.306142 0.926024 0.490379
0.304128 0.928222 0.487419
0.301991 0.930419 0.484627
0.300496 0.931838 0.481193
0.300267 0.932906 0.477897
0.301167 0.933562 0.473762
0.303639 0.933898 0.468666
0.307073 0.933715 0.460853
0.311864 0.933364 0.449775
0.322637 0.934005 0.436316
0.341115 0.936187 0.419959
0.371038 0.93933 0.404028
0.413123 0.942336 0.399863
0.485206 0.942504 0.398749
0.578576 0.938674 0.402625
0.656397 0.934569 0.407736
0.713771 0.932845 0.413458
0.755642 0.933974 0.424918
0.793149 0.935637 0.441947
0.840421 0.935943 0.463279
0.890288 0.933288 0.487968
0.925078 0.927031 0.512413
0.946883 0.921248 0.536461
0.960922 0.91487 0.560159
0.965103 0.905715 0.575448
0.965133 0.898604 0.579004
0.964767 0.893797 0.573861
0.964385 0.891981 0.559472
0.963638 0.884932 0.544594
0.962661 0.872663 0.529351
0.961578 0.855634 0.515114
0.328771 0.936614 0.513069
0.328679 0.937911 0.511299
0.326986 0.939651 0.509361
0.3243 0.94139 0.506645
0.321355 0.942687 0.503487
0.319387 0.943542 0.500298
0.318593 0.944015 0.496681
0.318975 0.944152 0.49279
0.320485 0.944137 0.487587
0.323796 0.944213 0.481025
0.329885 0.94464 0.473198
0.340719 0.945418 0.464073
0.356008 0.946242 0.450889
0.386633 0.947921 0.438514
0.428397 0.949722 0.434394
0.473854 0.95082 0.438499
0.550759 0.949432 0.443427
0.630869 0.946777 0.450797
0.699336 0.944732 0.459358
0.750484 0.944747 0.470024
0.792538 0.946166 0.486748
0.832013 0.947295 0.506386
0.87602 0.94754 0.528725
0.917082 0.946044 0.553948
0.942184 0.941878 0.577996
0.95758 0.938125 0.600412
0.964828 0.933089 0.619242
0.965774 0.926345 0.628824
0.96524 0.920821 0.627863
0.964843 0.918303 0.619074
0.964385 0.916793 0.602731
0.964248 0.90959 0.586633
0.964096 0.89749 0.570169
0.338796 0.942123 0.523949
0.339284 0.942306 0.52195
0.336858 0.943175 0.519387
0.333165 0.944305 0.516518
0.330037 0.945449 0.513741
0.32813 0.946288 0.51075
0.327718 0.946731 0.50811
0.328466 0.946883 0.50454
0.330434 0.946639 0.500343
0.334051 0.946975 0.495354
0.341527 0.947585 0.489845
0.351629 0.948409 0.48217
0.368933 0.949691 0.474403
0.399512 0.951263 0.468849
0.440177 0.952438 0.466728
0.482933 0.953216 0.469688
0.531395 0.953307 0.477714
0.604105 0.95172 0.485695
0.673991 0.950179 0.494911
0.736461 0.949615 0.506783
0.783169 0.950149 0.521447
0.825055 0.951095 0.541039
0.864485 0.951675 0.56202
0.903883 0.952438 0.584817
0.934936 0.952346 0.612177
0.953933 0.950332 0.638819
0.964446 0.948379 0.660853
0.966918 0.944366 0.674372
0.966171 0.939483 0.679652
0.965331 0.936034 0.676936
0.964981 0.935607 0.664683
0.964874 0.933715 0.648417
0.96492 0.927672 0.63093
0.350347 0.947188 0.536126
0.353246 0.946822 0.534722
0.353368 0.947066 0.532799
0.351186 0.947845 0.530297
0.348867 0.948882 0.527871
0.347173 0.949722 0.525551
0.34696 0.950195 0.522927
0.348196 0.950301 0.519997
0.349676 0.950225 0.516442
0.3514 0.950027 0.511208
0.357671 0.950195 0.50695
0.372946 0.951217 0.50428
0.394766 0.952346 0.502556
0.421485 0.953292 0.50135
0.456397 0.953933 0.50106
0.494926 0.954284 0.502327
0.534539 0.954452 0.507774
0.583749 0.953841 0.517372
0.648432 0.952529 0.526635
0.712352 0.951675 0.537026
0.768582 0.951797 0.550149
0.810605 0.952346 0.567041
0.85211 0.952453 0.586877
0.889204 0.952575 0.606836
0.921157 0.953475 0.62739
0.94638 0.953429 0.654261
0.961318 0.952132 0.681697
0.967559 0.952697 0.707225
0.967376 0.951003 0.722774
0.966384 0.948363 0.727886
0.965759 0.946792 0.724132
0.965545 0.94728 0.710079
0.965377 0.945205 0.693401
0.377859 0.951766 0.554879
0.380713 0.951522 0.553613
0.382483 0.951431 0.552117
0.382498 0.951598 0.550347
0.382818 0.952224 0.548928
0.382559 0.952956 0.54728
0.383139 0.953552 0.545785
0.384558 0.953796 0.543755
0.387259 0.953735 0.541299
0.390097 0.953552 0.537392
0.396094 0.95349 0.534325
0.408988 0.953735 0.533715
0.429068 0.954238 0.534524
0.451682 0.95465 0.535393
0.479271 0.95494 0.536736
0.511406 0.95523 0.538125
0.546792 0.9552 0.541131
0.584802 0.95494 0.548104
0.630243 0.954147 0.558602
0.688243 0.953323 0.568093
0.747555 0.952697 0.579828
0.797436 0.952911 0.593805
0.837613 0.95314 0.611383
0.877455 0.953124 0.631418
0.909697 0.953628 0.648798
