bundles/resolve-cinematic-luts/Phantom Luts/A7s3 Phntm Film LUTs - G6/SLog2+Sgamut3cine/Eterna A7s3 Sl2sg3c-Legacy.cube
TITLE "Generated by Resolve"
LUT_3D_SIZE 5
0.032639 0.0588693 0.0588846
0.134569 0.062501 0.0634012
0.404913 0.0956283 0.148836
0.748669 0.154559 0.309728
0.932906 0.314199 0.532189
0.0543221 0.184558 0.0924086
0.179294 0.193759 0.0829786
0.479484 0.130205 0.131563
0.783001 0.177157 0.299458
0.942535 0.350149 0.525353
0.114351 0.652232 0.284962
0.120775 0.694347 0.235554
0.635325 0.690486 0.195132
0.954421 0.649927 0.34226
0.943954 0.440528 0.350347
0.338796 0.942123 0.523949
0.330434 0.946639 0.500343
0.531395 0.953307 0.477714
0.934936 0.952346 0.612177
0.96492 0.927672 0.63093
0.664866 0.957549 0.754223
0.667903 0.955459 0.743038
0.70045 0.953536 0.740169
0.879728 0.953979 0.800229
0.966171 0.960739 0.895582
0.0342718 0.0594186 0.11664
0.145296 0.0653391 0.119417
0.392966 0.0854963 0.183276
0.720714 0.123888 0.324453
0.9299 0.29395 0.551888
0.0540932 0.173709 0.14963
0.18732 0.189548 0.18732
0.509071 0.125017 0.208225
0.784863 0.160815 0.343771
0.953765 0.390967 0.618402
0.103716 0.624506 0.354696
0.099794 0.664576 0.31249
0.618845 0.675181 0.198032
0.956924 0.62771 0.387579
0.957626 0.456367 0.47396
0.324514 0.939864 0.565942
0.322347 0.945647 0.545556
0.514931 0.953338 0.480003
0.932982 0.951553 0.607034
0.966354 0.920226 0.647257
0.648554 0.957382 0.760464
0.673793 0.955215 0.763317
0.709529 0.953658 0.753246
0.874998 0.953689 0.800198
0.965774 0.960967 0.896819
0.0524605 0.0706951 0.299123
0.156024 0.0661631 0.34493
0.446983 0.093492 0.321706
0.737819 0.130526 0.409155
0.905089 0.24799 0.591043
0.04477 0.151492 0.287037
0.0386816 0.134524 0.379294
0.491356 0.0986801 0.385428
0.748318 0.13666 0.456931
0.927749 0.293462 0.670405
0.0962387 0.576272 0.479805
0.0936141 0.605447 0.528222
0.587549 0.603876 0.573526
0.959976 0.547555 0.598413
0.956878 0.416495 0.646632
0.302159 0.918196 0.671504
0.282155 0.926101 0.676127
0.52784 0.938704 0.642466
0.917922 0.931594 0.683253
0.966751 0.885618 0.718105
0.641978 0.953857 0.795331
0.656245 0.957153 0.810559
0.734539 0.953079 0.814817
0.851591 0.953704 0.809369
0.969924 0.959197 0.896452
0.0772869 0.0892653 0.483375
0.147417 0.0819562 0.553979
0.483604 0.0843519 0.566369
0.763989 0.142382 0.573434
0.857923 0.209751 0.670832
0.04271 0.131273 0.474708
0.0395514 0.12961 0.536553
0.462577 0.0872816 0.645319
0.762646 0.148699 0.605661
0.871092 0.238087 0.741405
0.0725872 0.554986 0.627024
0.0522927 0.561334 0.671687
0.38616 0.56405 0.833936
0.950713 0.466835 0.800015
0.903014 0.273976 0.747189
0.300771 0.879362 0.777111
0.261265 0.881529 0.792218
0.457755 0.895476 0.812284
0.881498 0.885054 0.858106
0.969039 0.833188 0.866148
0.620295 0.949157 0.848066
0.613062 0.956725 0.869657
0.701656 0.956741 0.888151
0.869383 0.955535 0.903166
0.97348 0.960372 0.930556
0.108263 0.114702 0.654658
0.110185 0.122469 0.678859
0.420935 0.0932174 0.730953
0.773129 0.148867 0.764553
0.79794 0.166262 0.759594
0.0440375 0.161166 0.629938
0.0478676 0.164111 0.655482
0.280446 0.0864881 0.709697
0.771313 0.149004 0.771328
0.799451 0.173465 0.788281
0.0901198 0.568811 0.769482
0.0971695 0.564996 0.789303
0.149294 0.511833 0.856687
0.861662 0.431861 0.95552
0.805066 0.180377 0.798459
0.274281 0.864073 0.883696
0.264469 0.850385 0.887236
0.280644 0.83151 0.907835
0.742138 0.855665 0.957687
0.960845 0.769238 0.960464
0.543832 0.955749 0.925811
0.543343 0.955627 0.932128
0.591943 0.955856 0.93846
0.826841 0.958328 0.955398
0.966705 0.966705 0.966705
