bundles/resolve-cinematic-luts/Phantom Luts/A7s3 Phntm Film LUTs - G6/SLog2+Sgamut3cine/Eterna A7s3 Sl2sg3c-Legacy.cube
TITLE "Generated by Resolve"
LUT_3D_SIZE 9
0.032639 0.0588693 0.0588846
0.0457618 0.0586404 0.0568856
0.134569 0.062501 0.0634012
0.251789 0.0777295 0.0957809
0.404913 0.0956283 0.148836
0.568948 0.113039 0.218204
0.748669 0.154559 0.309728
0.847669 0.216144 0.406119
0.932906 0.314199 0.532189
0.0347753 0.0648814 0.0610666
0.0420691 0.0648966 0.0601053
0.140108 0.0646525 0.0680095
0.27129 0.0790265 0.101289
0.430426 0.0969863 0.15584
0.611704 0.120211 0.222339
0.768109 0.165881 0.307591
0.857343 0.226719 0.402152
0.934401 0.316777 0.522911
0.0543221 0.184558 0.0924086
0.0510872 0.194873 0.0845808
0.179294 0.193759 0.0829786
0.354086 0.158541 0.113588
0.479484 0.130205 0.131563
0.640681 0.119799 0.193698
0.783001 0.177157 0.299458
0.883848 0.256229 0.403128
0.942535 0.350149 0.525353
0.0715648 0.388449 0.155703
0.055436 0.420447 0.150195
0.0822766 0.431861 0.0937514
0.404013 0.438911 0.0988937
0.687938 0.415457 0.189929
0.838621 0.387213 0.238041
0.884565 0.325795 0.260304
0.872496 0.267826 0.311833
0.944381 0.363378 0.502525
0.114351 0.652232 0.284962
0.100572 0.682414 0.271748
0.120775 0.694347 0.235554
0.321462 0.696696 0.166842
0.635325 0.690486 0.195132
0.880842 0.666499 0.296681
0.954421 0.649927 0.34226
0.956436 0.58262 0.340185
0.943954 0.440528 0.350347
0.243076 0.865766 0.439918
0.233845 0.883757 0.42948
0.238941 0.891752 0.409567
0.283223 0.889708 0.334615
0.616938 0.88809 0.301747
0.810849 0.882124 0.349554
0.956954 0.844648 0.473701
0.958618 0.822568 0.46569
0.956359 0.748592 0.428931
0.338796 0.942123 0.523949
0.330037 0.945449 0.513741
0.330434 0.946639 0.500343
0.368933 0.949691 0.474403
0.531395 0.953307 0.477714
0.783169 0.950149 0.521447
0.934936 0.952346 0.612177
0.966171 0.939483 0.679652
0.96492 0.927672 0.63093
0.488746 0.954437 0.618051
0.497108 0.953506 0.615457
0.511345 0.952499 0.61503
0.525444 0.952422 0.606851
0.597681 0.952331 0.615747
0.725002 0.951156 0.644388
0.895872 0.951629 0.70161
0.966171 0.953506 0.762737
0.968551 0.956893 0.836332
0.664866 0.957549 0.754223
0.66067 0.956497 0.744289
0.667903 0.955459 0.743038
0.678218 0.953719 0.738354
0.70045 0.953536 0.740169
0.761837 0.953902 0.760647
0.879728 0.953979 0.800229
0.954284 0.958083 0.850828
0.966171 0.960739 0.895582
0.0323339 0.0582895 0.0627604
0.0493172 0.0586557 0.0640574
0.132052 0.0636912 0.0866865
0.244373 0.0729229 0.120455
0.396582 0.0876783 0.164279
0.558083 0.0997177 0.23473
0.752392 0.141039 0.325551
0.851621 0.208042 0.421546
0.93463 0.307897 0.547585
0.0354162 0.0646525 0.0622568
0.0464637 0.0644083 0.066331
0.155505 0.066331 0.0825513
0.276051 0.0771038 0.114824
0.428397 0.0903944 0.166445
0.611231 0.109377 0.237293
0.781125 0.156924 0.331121
0.872404 0.227649 0.434089
0.942123 0.329732 0.559503
0.0539712 0.181338 0.124636
0.0483711 0.195041 0.103929
0.181872 0.193957 0.0843977
0.357076 0.152697 0.118212
0.509377 0.124514 0.157992
0.680308 0.13312 0.229068
0.800656 0.181109 0.317906
0.89929 0.264454 0.43946
0.951782 0.383047 0.579797
0.0659342 0.381888 0.185763
0.0536355 0.410529 0.170123
0.0698405 0.432776 0.115023
0.404456 0.438224 0.0989395
0.681285 0.409689 0.197192
0.83769 0.377432 0.246815
0.883436 0.310765 0.272511
0.901289 0.293248 0.363745
0.952239 0.393866 0.554635
0.10808 0.641077 0.305776
0.0917525 0.666041 0.293004
0.107805 0.68307 0.254246
0.271794 0.692622 0.16408
0.628946 0.687266 0.192065
0.87866 0.661997 0.304952
0.955367 0.646784 0.353796
0.957366 0.569024 0.350103
0.95259 0.447501 0.40618
0.232227 0.856718 0.450187
0.22179 0.873808 0.442954
0.226459 0.883009 0.416892
0.273503 0.882948 0.333043
0.603326 0.887205 0.301137
0.808988 0.880781 0.347387
0.956436 0.841733 0.477165
0.958373 0.82089 0.472023
0.957641 0.734325 0.437919
0.333272 0.941909 0.537163
0.32604 0.945464 0.528298
0.328481 0.946883 0.51075
0.366262 0.949371 0.475959
0.52903 0.953353 0.47863
0.779629 0.950149 0.521401
0.934447 0.952316 0.611276
0.965927 0.93846 0.680369
0.965331 0.92549 0.633143
0.476646 0.954345 0.621729
0.489281 0.953033 0.620111
0.50341 0.952392 0.617014
0.517952 0.9523 0.604074
0.59968 0.952361 0.616922
0.723156 0.951232 0.645884
0.894423 0.951553 0.702342
0.966827 0.953384 0.764263
0.968704 0.956863 0.837369
0.658381 0.957473 0.754574
0.661448 0.956176 0.749203
0.670878 0.955322 0.749523
0.684108 0.953582 0.744839
0.707134 0.953643 0.745968
0.768444 0.954025 0.767254
0.877943 0.953857 0.799908
0.954192 0.958053 0.851011
0.966186 0.960784 0.89662
0.0342718 0.0594186 0.11664
0.0701915 0.0612039 0.125124
0.145296 0.0653391 0.119417
0.252964 0.0742199 0.145129
0.392966 0.0854963 0.183276
0.551247 0.0980087 0.252079
0.720714 0.123888 0.324453
0.841245 0.197345 0.424536
0.9299 0.29395 0.551888
0.0348974 0.0668498 0.0961776
0.0344091 0.0632792 0.133013
0.162097 0.0669108 0.136156
0.271839 0.0747997 0.149096
0.409384 0.0851453 0.193347
0.570581 0.0989853 0.252491
0.752255 0.136934 0.337728
0.864225 0.216541 0.447761
0.93904 0.316991 0.574594
0.0540932 0.173709 0.14963
0.0501106 0.184543 0.161807
0.18732 0.189548 0.18732
0.376394 0.15053 0.188205
0.509071 0.125017 0.208225
0.61912 0.112871 0.242634
0.784863 0.160815 0.343771
0.89984 0.259068 0.472801
0.953765 0.390967 0.618402
0.0673075 0.370214 0.227619
0.0551461 0.400443 0.231296
0.0693523 0.414939 0.185367
0.403418 0.430198 0.147631
0.658228 0.396674 0.225864
0.840345 0.348318 0.279316
0.904967 0.313146 0.334905
0.900969 0.2748 0.417197
0.95671 0.424903 0.580667
0.103716 0.624506 0.354696
0.0885634 0.647791 0.351125
0.099794 0.664576 0.31249
0.190265 0.681163 0.195239
0.618845 0.675181 0.198032
0.868925 0.645884 0.33724
0.956924 0.62771 0.387579
0.960891 0.544457 0.402701
0.957626 0.456367 0.47396
0.224308 0.838819 0.483833
0.205356 0.855512 0.479835
0.204944 0.861875 0.451072
0.241901 0.865125 0.359792
0.565194 0.880995 0.306127
0.801129 0.87245 0.340337
0.955276 0.830716 0.490822
0.959167 0.813199 0.498131
0.961334 0.713619 0.477806
0.324514 0.939864 0.565942
0.316411 0.94461 0.561074
0.322347 0.945647 0.545556
0.337987 0.947143 0.494469
0.514931 0.953338 0.480003
0.770245 0.949813 0.522042
0.932982 0.951553 0.607034
0.966064 0.935119 0.68365
0.966354 0.920226 0.647257
0.462211 0.954498 0.639033
0.467506 0.955642 0.638911
0.493904 0.952438 0.635157
0.512535 0.952026 0.616709
0.590387 0.952102 0.61738
0.718776 0.951278 0.646525
0.891005 0.951415 0.701671
0.968032 0.952697 0.763806
0.969146 0.956786 0.840162
0.648554 0.957382 0.760464
0.654124 0.957168 0.76083
0.673793 0.955215 0.763317
0.693919 0.953552 0.761563
0.709529 0.953658 0.753246
0.771176 0.953765 0.771496
0.874998 0.953689 0.800198
0.953536 0.958022 0.851255
0.965774 0.960967 0.896819
0.0405737 0.0637064 0.194858
0.0593729 0.0629282 0.217578
0.162127 0.0667124 0.205631
0.27866 0.0771801 0.19704
0.413092 0.0894789 0.235142
0.565972 0.102708 0.290837
0.71397 0.118685 0.349157
0.825177 0.181781 0.438117
0.920089 0.271916 0.563882
0.034699 0.0654459 0.176974
0.0360418 0.0676738 0.213153
0.148028 0.065507 0.246113
0.292699 0.0774853 0.218952
0.418143 0.089189 0.251682
0.573541 0.104417 0.305486
0.73167 0.123354 0.368826
0.835813 0.187396 0.463844
0.926543 0.282216 0.590616
0.0457618 0.168307 0.195193
0.0396887 0.171405 0.233738
0.0943618 0.153567 0.313115
0.366567 0.112871 0.291539
0.470039 0.10338 0.276081
0.597971 0.108858 0.316472
0.746807 0.130846 0.37789
0.858549 0.212894 0.491432
0.947601 0.353872 0.6421
0.0688029 0.352728 0.284718
0.0581826 0.376562 0.314
0.0692454 0.389914 0.330739
0.404059 0.409079 0.387793
0.659998 0.365103 0.393011
0.848951 0.326009 0.416388
0.91078 0.288518 0.430243
0.885435 0.245624 0.463569
0.959045 0.435828 0.657084
0.0978714 0.601022 0.413001
0.0826123 0.623575 0.435035
0.100053 0.637201 0.429282
0.231159 0.655451 0.377905
0.604273 0.648386 0.360311
0.838163 0.610986 0.430549
0.963714 0.569863 0.45658
0.963546 0.521019 0.489342
0.959716 0.448997 0.602716
0.211963 0.814557 0.539605
0.190188 0.828214 0.549264
0.189776 0.832837 0.534112
0.229175 0.843534 0.462837
0.483711 0.863828 0.433707
0.783795 0.843717 0.440696
0.9514 0.804883 0.528557
0.961364 0.782345 0.543236
0.96437 0.671992 0.559136
0.315343 0.932021 0.61796
0.299382 0.93872 0.61973
0.307286 0.939559 0.605447
0.326268 0.943587 0.559548
0.502739 0.952163 0.538659
0.738415 0.949538 0.547341
0.927993 0.949233 0.605585
0.968566 0.925368 0.695949
0.967269 0.906737 0.677348
0.454353 0.952239 0.671214
0.454185 0.95552 0.673625
0.480003 0.953613 0.671016
0.511666 0.95198 0.657023
0.547478 0.951827 0.621683
0.696925 0.951385 0.647395
0.88246 0.950378 0.700069
0.968429 0.952102 0.761883
0.969284 0.957092 0.847395
0.646418 0.955291 0.775448
0.64979 0.956481 0.780011
0.662226 0.957061 0.785061
0.699748 0.953582 0.786084
0.722881 0.953277 0.778897
0.767529 0.953353 0.778851
0.867063 0.953445 0.802213
0.951522 0.957916 0.851896
0.966644 0.960571 0.896178
0.0524605 0.0706951 0.299123
0.0580911 0.0715038 0.320058
0.156024 0.0661631 0.34493
0.304707 0.0772259 0.317556
0.446983 0.093492 0.321706
0.589792 0.106722 0.372869
0.737819 0.130526 0.409155
0.807034 0.164752 0.468772
0.905089 0.24799 0.591043
0.0416419 0.0729686 0.285786
0.0434119 0.0740673 0.310307
0.114305 0.0656901 0.349004
0.298619 0.0733501 0.340871
0.444984 0.0928206 0.336202
0.591745 0.106157 0.384771
0.746944 0.130983 0.438437
0.802518 0.15938 0.494179
0.903838 0.246448 0.622919
0.04477 0.151492 0.287037
0.038056 0.153796 0.321706
0.0386816 0.134524 0.379294
0.31191 0.082948 0.435035
0.491356 0.0986801 0.385428
0.610208 0.110933 0.401389
0.748318 0.13666 0.456931
0.799908 0.165148 0.511284
0.927749 0.293462 0.670405
0.0605631 0.334661 0.356023
0.0450446 0.353155 0.392233
0.0392309 0.368048 0.445579
0.261234 0.371115 0.561761
0.649149 0.309545 0.546929
0.815763 0.278614 0.525277
0.874403 0.231373 0.512947
0.809125 0.174029 0.49868
0.947066 0.356268 0.679759
0.0962387 0.576272 0.479805
0.0817121 0.592615 0.508232
0.0936141 0.605447 0.528222
0.203052 0.616632 0.541573
0.587549 0.603876 0.573526
0.823926 0.573266 0.580087
0.959976 0.547555 0.598413
0.962615 0.490501 0.589487
0.956878 0.416495 0.646632
0.198779 0.786831 0.594202
0.176394 0.79704 0.610452
0.176257 0.800214 0.61445
0.221149 0.807431 0.586053
0.502937 0.82005 0.585321
0.75613 0.802213 0.574456
0.930938 0.771282 0.619226
0.963592 0.725444 0.610361
0.968475 0.654459 0.651835
0.302159 0.918196 0.671504
0.28513 0.924849 0.680476
0.282155 0.926101 0.676127
0.314534 0.928145 0.645289
0.52784 0.938704 0.642466
0.69485 0.939025 0.648768
0.917922 0.931594 0.683253
0.969268 0.910307 0.723659
0.966751 0.885618 0.718105
0.442222 0.946944 0.712749
0.429023 0.953613 0.720378
0.443931 0.956176 0.721828
0.495918 0.95404 0.70988
0.552834 0.952026 0.68365
0.69604 0.951507 0.700786
0.868391 0.949508 0.723888
0.967208 0.952361 0.774075
0.971038 0.957046 0.862882
0.641978 0.953857 0.795331
0.644938 0.955764 0.802747
0.656245 0.957153 0.810559
0.691707 0.955703 0.816876
0.734539 0.953079 0.814817
0.750683 0.953262 0.789273
0.851591 0.953704 0.809369
0.949859 0.957244 0.855299
0.969924 0.959197 0.896452
0.0680095 0.0792706 0.394095
0.0742504 0.080415 0.418387
0.158984 0.0695659 0.459586
0.316945 0.0743572 0.453086
0.474662 0.0944839 0.446693
0.631205 0.111254 0.464317
0.751263 0.134524 0.496101
0.784253 0.151263 0.513298
0.886839 0.231373 0.627024
0.0519417 0.0823377 0.391485
0.0540627 0.0838026 0.414771
0.0986648 0.0784314 0.441016
0.28191 0.0733043 0.461707
0.469932 0.0926375 0.464988
0.629084 0.110887 0.477821
0.755749 0.13608 0.510903
0.78703 0.151598 0.547341
0.881132 0.225483 0.660044
0.0454566 0.13489 0.376364
0.0387732 0.134783 0.41268
0.038468 0.117479 0.451164
0.215091 0.0748913 0.518608
0.503334 0.0959793 0.530632
0.641947 0.114672 0.496941
0.755077 0.140917 0.518257
0.782254 0.156176 0.564248
0.899306 0.257053 0.706371
0.0512856 0.332158 0.453727
0.0418708 0.342321 0.488472
0.0442969 0.347036 0.536126
0.145403 0.330541 0.635035
0.571817 0.258824 0.714168
0.785504 0.210895 0.616587
0.829862 0.196155 0.573114
0.778271 0.156847 0.55317
0.915434 0.282216 0.711757
0.0975052 0.560342 0.554406
0.0769665 0.56994 0.578836
0.0771649 0.580163 0.60473
0.115175 0.580407 0.643275
0.488746 0.584039 0.733639
0.815015 0.537301 0.710018
0.950011 0.516838 0.688701
0.958968 0.440467 0.685512
0.931258 0.306584 0.687755
0.193561 0.760845 0.653422
0.169131 0.766171 0.667857
0.167544 0.766506 0.676585
0.192782 0.765591 0.6757
0.483803 0.782406 0.706065
0.738476 0.75877 0.724453
0.928756 0.732357 0.730068
0.969436 0.70042 0.738491
0.968124 0.634882 0.732296
0.303944 0.897047 0.721233
0.273503 0.905608 0.733379
0.267735 0.90515 0.735866
0.282063 0.906126 0.723384
0.528389 0.918212 0.737835
0.703853 0.918517 0.747967
0.899916 0.911452 0.752453
0.96733 0.891585 0.783261
0.966873 0.854566 0.77818
0.411872 0.944732 0.757092
0.388693 0.952041 0.768063
0.400366 0.954879 0.774639
0.453635 0.955856 0.774365
0.574945 0.952834 0.772015
0.728405 0.952789 0.791196
0.857114 0.952178 0.803769
0.970123 0.95346 0.846479
0.975692 0.955566 0.881361
0.626642 0.953475 0.821561
0.629816 0.955444 0.830106
0.643778 0.956802 0.838621
0.681041 0.956954 0.84741
0.728634 0.954772 0.851194
0.766522 0.952865 0.840192
0.844327 0.954009 0.841154
0.946685 0.956283 0.866407
0.970184 0.959197 0.897978
0.0772869 0.0892653 0.483375
0.0806134 0.0914931 0.50869
0.147417 0.0819562 0.553979
0.301564 0.0770123 0.567163
0.483604 0.0843519 0.566369
0.658793 0.114549 0.579126
0.763989 0.142382 0.573434
0.780392 0.155184 0.594522
0.857923 0.209751 0.670832
0.0589609 0.0956436 0.488334
0.0598459 0.0978103 0.516869
0.086244 0.0937972 0.530831
0.246784 0.0753033 0.57229
0.461875 0.0828412 0.572686
0.657008 0.114687 0.59762
0.767437 0.144183 0.592569
0.78378 0.154757 0.620035
0.845518 0.200259 0.695476
0.04271 0.131273 0.474708
0.0392767 0.133516 0.505852
0.0395514 0.12961 0.536553
0.139391 0.0926833 0.597574
0.462577 0.0872816 0.645319
0.670329 0.117861 0.633585
0.762646 0.148699 0.605661
0.777447 0.159945 0.628092
0.871092 0.238087 0.741405
0.0589761 0.329839 0.554101
0.0471199 0.331807 0.585931
0.0462806 0.327779 0.613062
0.0549325 0.308583 0.659892
0.448631 0.260838 0.8159
0.712367 0.163973 0.719875
0.768109 0.15787 0.60296
0.770886 0.160433 0.614603
0.884077 0.255268 0.748226
0.0725872 0.554986 0.627024
0.0525521 0.560784 0.651102
0.0522927 0.561334 0.671687
0.0614481 0.557076 0.703548
0.38616 0.56405 0.833936
0.74728 0.510643 0.880385
0.950713 0.466835 0.800015
0.953582 0.408072 0.77966
0.903014 0.273976 0.747189
0.197711 0.74403 0.716457
0.169711 0.747509 0.733074
0.167819 0.741802 0.739162
0.178256 0.738125 0.752956
0.402029 0.751461 0.812451
0.662058 0.739101 0.859403
0.920806 0.701305 0.837827
0.969162 0.675273 0.816205
0.967391 0.589685 0.813886
0.300771 0.879362 0.777111
0.269154 0.885206 0.78938
0.261265 0.881529 0.792218
0.26363 0.878065 0.790951
0.457755 0.895476 0.812284
0.683742 0.895537 0.837583
0.881498 0.885054 0.858106
0.969757 0.865995 0.861967
0.969039 0.833188 0.866148
0.395758 0.942351 0.806989
0.365408 0.949111 0.817823
0.359396 0.950927 0.823682
0.394827 0.952911 0.82678
0.535012 0.954864 0.841443
0.737972 0.953017 0.86659
0.874372 0.954467 0.883513
0.970031 0.955108 0.903227
0.975082 0.954681 0.915724
0.620295 0.949157 0.848066
0.60267 0.954864 0.85977
0.613062 0.956725 0.869657
0.65153 0.956802 0.878279
0.701656 0.956741 0.888151
0.765652 0.95436 0.888411
0.869383 0.955535 0.903166
0.945342 0.95816 0.913863
0.97348 0.960372 0.930556
0.0957046 0.10016 0.576059
0.0996719 0.104021 0.601328
0.120302 0.104814 0.628992
0.254475 0.0798505 0.65893
0.45124 0.086183 0.651881
0.649836 0.112459 0.684718
0.77557 0.14612 0.688457
0.785977 0.15613 0.684245
0.813718 0.179248 0.709804
0.0654612 0.110079 0.579644
0.0677501 0.114611 0.606256
0.0877394 0.109575 0.61529
0.194247 0.085832 0.650752
0.431205 0.0864424 0.66836
0.6365 0.110109 0.693248
0.775952 0.147082 0.710307
0.786191 0.156558 0.708553
0.802533 0.167834 0.720531
0.0446326 0.14522 0.554604
0.0411536 0.14963 0.586038
0.0421302 0.149737 0.607095
0.0691844 0.128222 0.656931
0.384833 0.088838 0.710964
0.653223 0.120821 0.734997
0.773022 0.1505 0.733059
0.782528 0.161135 0.721813
0.832364 0.205081 0.774105
0.052079 0.334829 0.64625
0.0498512 0.337865 0.669047
0.050782 0.333455 0.685649
0.0585184 0.310628 0.711513
0.316625 0.258732 0.846845
0.616266 0.157137 0.794171
0.782269 0.157519 0.743358
0.780545 0.160876 0.72192
0.845396 0.221225 0.78822
0.0753185 0.561517 0.706355
0.0719615 0.564599 0.723568
0.0762646 0.558953 0.740154
0.0820478 0.545388 0.759518
0.257939 0.5402 0.894133
0.630716 0.51339 0.949615
0.934997 0.429267 0.933989
0.923079 0.33048 0.8551
0.834501 0.206043 0.767224
0.171389 0.731273 0.774868
0.156313 0.727474 0.783032
0.14699 0.717693 0.786664
0.149691 0.707835 0.797589
0.232563 0.720058 0.868315
0.585611 0.72282 0.928771
0.867277 0.68127 0.94786
0.966674 0.633371 0.904219
0.964691 0.566552 0.901335
0.289662 0.870542 0.835798
0.270573 0.870802 0.844434
0.266026 0.864424 0.846555
0.264591 0.855726 0.847562
0.354177 0.869154 0.880842
0.622232 0.871458 0.914183
0.812284 0.870451 0.937469
0.962509 0.843122 0.925673
0.965881 0.808499 0.916274
0.385657 0.93489 0.855268
0.348745 0.941497 0.867826
0.344457 0.940795 0.87155
0.349798 0.940444 0.873213
0.439063 0.947341 0.887617
0.673121 0.950057 0.912779
0.845777 0.952972 0.932692
0.95697 0.954421 0.946975
0.970871 0.950088 0.94818
0.588449 0.950729 0.884153
0.56611 0.955489 0.894316
0.573968 0.956298 0.901534
0.599939 0.956512 0.906859
0.649226 0.956588 0.915022
0.724834 0.957031 0.927001
0.866789 0.959121 0.94313
0.945571 0.961883 0.951614
0.976638 0.961425 0.952453
0.108263 0.114702 0.654658
0.110048 0.118959 0.669291
0.110185 0.122469 0.678859
0.189029 0.101289 0.697765
0.420935 0.0932174 0.730953
0.588357 0.104692 0.726772
0.773129 0.148867 0.764553
0.784436 0.158099 0.770672
0.79794 0.166262 0.759594
0.0721904 0.123873 0.650721
0.076173 0.126284 0.661662
0.091371 0.124758 0.670787
0.138445 0.117815 0.690715
0.384604 0.0910201 0.725811
0.575586 0.104067 0.730419
0.771756 0.149081 0.768048
0.783078 0.158877 0.779614
0.795026 0.166812 0.773388
0.0440375 0.161166 0.629938
0.0458228 0.163699 0.643442
0.0478676 0.164111 0.655482
0.0531777 0.159136 0.679408
0.280446 0.0864881 0.709697
0.598749 0.113527 0.750561
0.771313 0.149004 0.771328
0.783612 0.160189 0.783627
0.799451 0.173465 0.788281
0.0564889 0.347936 0.714961
0.0601053 0.353368 0.727337
0.0633249 0.351888 0.735088
0.0723735 0.33611 0.753109
0.147738 0.282628 0.792905
0.539574 0.186526 0.837827
0.770428 0.157153 0.781994
0.783123 0.15967 0.783139
0.808804 0.184207 0.800519
0.0901198 0.568811 0.769482
0.0939193 0.570275 0.778881
0.0971695 0.564996 0.789303
0.102068 0.549584 0.806378
0.149294 0.511833 0.856687
0.518837 0.513237 0.952239
0.861662 0.431861 0.95552
0.881621 0.280552 0.881636
0.805066 0.180377 0.798459
0.141787 0.723186 0.817029
0.142184 0.719997 0.8224
0.141451 0.712993 0.828199
0.139742 0.699687 0.833173
0.163272 0.684092 0.859007
0.494606 0.707149 0.955688
0.761196 0.683665 0.962722
0.962432 0.609018 0.962432
0.958862 0.500282 0.957794
0.274281 0.864073 0.883696
0.269673 0.858076 0.885496
0.264469 0.850385 0.887236
0.260609 0.839261 0.889311
0.280644 0.83151 0.907835
0.507286 0.853269 0.949828
0.742138 0.855665 0.957687
0.940154 0.829984 0.95996
0.960845 0.769238 0.960464
0.346441 0.93608 0.90779
0.343374 0.933196 0.90956
0.342535 0.931212 0.912413
0.341543 0.927489 0.913832
0.377249 0.933196 0.926986
0.604807 0.939223 0.943465
0.787167 0.943755 0.955139
0.925933 0.949172 0.960342
0.960296 0.942733 0.960204
0.543832 0.955749 0.925811
0.536782 0.955612 0.928466
0.543343 0.955627 0.932128
0.557015 0.955703 0.934707
0.591943 0.955856 0.93846
0.663081 0.956115 0.945525
0.826841 0.958328 0.955398
0.939757 0.962753 0.962798
0.966705 0.966705 0.966705
