bundles/resolve-cinematic-luts/Phantom Luts/A7s3 Phntm Film LUTs - G6/SLog2+Sgamut3cine/Vision A7s3 Sl2sg3c-Legacy.cube
TITLE "Generated by Resolve"
LUT_3D_SIZE 9
0.0318151 0.043122 0.0345312
0.0365911 0.0432746 0.0337224
0.137285 0.0410163 0.0350195
0.301442 0.0336919 0.0416266
0.466651 0.0383612 0.0827497
0.66212 0.0754559 0.179828
0.805112 0.137789 0.316732
0.821912 0.229129 0.421515
0.845411 0.348318 0.522744
0.0318761 0.0623178 0.0382544
0.0412146 0.0616159 0.0373541
0.145571 0.046067 0.033051
0.31313 0.0411994 0.0373236
0.488869 0.0390784 0.0682689
0.681239 0.0779736 0.172793
0.807843 0.139757 0.299916
0.824552 0.234302 0.410437
0.848722 0.353307 0.514885
0.0290837 0.177035 0.0632639
0.0374456 0.170489 0.049012
0.139483 0.189136 0.0393072
0.38294 0.131365 0.0707713
0.514351 0.112947 0.0721904
0.69366 0.0767071 0.103929
0.810712 0.138216 0.2636
0.825055 0.231998 0.396994
0.851774 0.362783 0.496712
0.0664378 0.381201 0.153765
0.069398 0.377157 0.133806
0.126909 0.390387 0.11902
0.371145 0.403235 0.071809
0.589471 0.363455 0.152377
0.711391 0.331914 0.197848
0.807828 0.268772 0.188495
0.834821 0.241459 0.267079
0.853315 0.364126 0.476814
0.137057 0.578393 0.3075
0.1393 0.574273 0.28603
0.149294 0.567758 0.24065
0.333074 0.58352 0.240299
0.564477 0.600046 0.15227
0.75906 0.566323 0.279362
0.810559 0.563333 0.318135
0.807202 0.513008 0.316838
0.820264 0.411231 0.329686
0.256077 0.758801 0.45951
0.254963 0.755856 0.441169
0.259419 0.749737 0.404288
0.35465 0.757931 0.376394
0.518044 0.767025 0.360601
0.713207 0.775051 0.311223
0.842664 0.752499 0.404425
0.843763 0.744579 0.415213
0.829297 0.682231 0.4
0.364538 0.845533 0.563485
0.360922 0.843412 0.550103
0.37229 0.840787 0.534768
0.442359 0.839902 0.521798
0.573938 0.841215 0.535714
0.66656 0.853315 0.519402
0.805371 0.85687 0.503883
0.859251 0.847044 0.561044
0.858045 0.831815 0.526162
0.499931 0.855467 0.638224
0.487236 0.853178 0.625956
0.491081 0.851606 0.618143
0.533547 0.853315 0.620203
0.608316 0.857755 0.631495
0.699428 0.864408 0.638972
0.772274 0.87538 0.623484
0.86041 0.875837 0.63003
0.869078 0.890059 0.687877
0.653803 0.875669 0.738781
0.633051 0.872831 0.722454
0.62948 0.870939 0.716152
0.637186 0.870329 0.713054
0.670909 0.874342 0.721599
0.732189 0.880659 0.737469
0.787457 0.894301 0.756176
0.838407 0.907835 0.748608
0.882948 0.917601 0.784085
0.027863 0.0425879 0.0421454
0.0424811 0.0429084 0.0415656
0.158221 0.0379797 0.0666361
0.32195 0.0331884 0.0603494
0.492195 0.0404364 0.098146
0.680781 0.0788739 0.204532
0.806882 0.139971 0.332418
0.826093 0.233921 0.43154
0.848341 0.351461 0.527077
0.0296941 0.0603799 0.0461738
0.0461433 0.0594492 0.0493172
0.182925 0.0426337 0.0368658
0.335378 0.0345769 0.0419471
0.492378 0.0397192 0.0768139
0.686336 0.0783856 0.181811
0.810803 0.140627 0.310674
0.82855 0.239322 0.420447
0.851591 0.357916 0.519646
0.0247807 0.179629 0.0856794
0.0304265 0.176577 0.0640421
0.136233 0.185641 0.0397345
0.376761 0.126665 0.0704356
0.531548 0.103365 0.0736706
0.719539 0.0796979 0.129656
0.812436 0.14081 0.287312
0.829786 0.246647 0.408469
0.8542 0.370794 0.505943
0.0656291 0.384512 0.182544
0.0664988 0.381338 0.153964
0.0988785 0.384237 0.115892
0.36968 0.402152 0.0719768
0.589899 0.357321 0.157595
0.720394 0.319768 0.199344
0.81648 0.24715 0.193637
0.838209 0.263676 0.325521
0.856397 0.383429 0.511864
0.139269 0.580056 0.330022
0.135851 0.577295 0.306157
0.14612 0.570245 0.260304
0.318761 0.583291 0.243641
0.563348 0.599191 0.151736
0.761074 0.563836 0.28603
0.810987 0.557473 0.324422
0.805325 0.491203 0.326833
0.854856 0.449821 0.418128
0.257939 0.759274 0.476509
0.254856 0.758816 0.457435
0.255894 0.753628 0.424872
0.32285 0.756573 0.37409
0.511864 0.765194 0.362753
0.71162 0.773159 0.308049
0.841886 0.749386 0.408484
0.843183 0.740948 0.417853
0.823713 0.653971 0.405829
0.365698 0.846906 0.574044
0.362905 0.845945 0.561883
0.364202 0.842237 0.542153
0.427115 0.839261 0.520836
0.566094 0.840787 0.535348
0.662486 0.852628 0.519036
0.804929 0.855879 0.500954
0.859464 0.845304 0.560296
0.8589 0.827375 0.521675
0.502419 0.856275 0.644816
0.490913 0.854765 0.633646
0.485801 0.852277 0.621485
0.526421 0.853269 0.621012
0.603738 0.857633 0.631205
0.69601 0.863783 0.639994
0.769848 0.875013 0.623011
0.860044 0.875212 0.627771
0.868864 0.889769 0.686717
0.656809 0.877028 0.743893
0.646891 0.874647 0.733928
0.642374 0.873686 0.727779
0.643473 0.872343 0.720577
0.674937 0.875074 0.726879
0.732799 0.881621 0.741329
0.786938 0.894026 0.757122
0.837415 0.907988 0.74931
0.882994 0.917739 0.784604
0.0338903 0.0454719 0.134401
0.0709697 0.0432136 0.127657
0.157153 0.0400549 0.120577
0.3149 0.0392462 0.154681
0.481636 0.046952 0.186892
0.668605 0.0784314 0.264164
0.806806 0.156893 0.393072
0.828885 0.264118 0.487678
0.849836 0.368856 0.560388
0.0318761 0.0546731 0.127443
0.0381781 0.0482795 0.167544
0.171496 0.0391394 0.129702
0.314809 0.0392462 0.133532
0.482795 0.0423438 0.138949
0.686366 0.0821393 0.243885
0.810727 0.156771 0.37673
0.831373 0.270817 0.48014
0.856992 0.398993 0.577401
0.0192416 0.169345 0.139437
0.0191501 0.171252 0.14258
0.186557 0.204425 0.182498
0.430106 0.124453 0.132021
0.581155 0.0811017 0.138094
0.71632 0.0903944 0.204273
0.814298 0.156771 0.335348
0.833341 0.276188 0.453239
0.863386 0.42739 0.582513
0.0533455 0.38471 0.236179
0.0575265 0.385138 0.217655
0.0851301 0.380865 0.171298
0.372763 0.406546 0.126268
0.575158 0.34963 0.187366
0.756207 0.291829 0.222049
0.831922 0.235096 0.251026
0.836378 0.279667 0.409094
0.868208 0.440238 0.56054
0.129885 0.581277 0.368261
0.135378 0.580453 0.348638
0.144686 0.573037 0.308965
0.279301 0.578164 0.253498
0.558907 0.593652 0.158145
0.757473 0.561776 0.314305
0.812497 0.546197 0.352743
0.814054 0.474693 0.355306
0.878599 0.457679 0.487922
0.258488 0.75906 0.496712
0.255543 0.758587 0.483528
0.256458 0.757519 0.457267
0.283909 0.750088 0.383917
0.502754 0.762173 0.369726
0.708827 0.771206 0.30695
0.841123 0.745693 0.427634
0.842863 0.736645 0.44152
0.825635 0.63946 0.432761
0.366278 0.848264 0.589731
0.363348 0.847791 0.579309
0.363058 0.845548 0.56054
0.398184 0.839475 0.525719
0.552697 0.841077 0.537881
0.659083 0.851637 0.522576
0.803326 0.854826 0.4981
0.861051 0.843336 0.566018
0.861311 0.82446 0.531411
0.503151 0.857481 0.653941
0.489693 0.856977 0.642786
0.4869 0.85417 0.630564
0.514687 0.852506 0.622461
0.593271 0.857496 0.63035
0.692363 0.862638 0.642878
0.766964 0.874632 0.62327
0.859541 0.87454 0.624857
0.869032 0.890059 0.688273
0.654108 0.877226 0.744869
0.643702 0.874693 0.735027
0.644251 0.873899 0.731929
0.642725 0.872999 0.72372
0.671931 0.874891 0.727779
0.727687 0.881315 0.740505
0.785962 0.893416 0.75697
0.836484 0.907927 0.749035
0.882918 0.917525 0.783871
0.0430152 0.0535744 0.273716
0.0782788 0.0472877 0.282032
0.175387 0.0430304 0.251392
0.316884 0.0371405 0.252201
0.484947 0.055787 0.308492
0.666804 0.0987259 0.392935
0.79144 0.149401 0.443793
0.82472 0.255055 0.517205
0.850172 0.372854 0.588403
0.0375067 0.0586099 0.287205
0.0466773 0.0559701 0.306355
0.165789 0.0434424 0.280873
0.319646 0.037232 0.25478
0.482261 0.0543679 0.300618
0.668086 0.101045 0.370077
0.79794 0.151949 0.429267
0.829007 0.26836 0.518242
0.853468 0.385092 0.591272
0.0190738 0.15082 0.302846
0.0242771 0.145174 0.325353
0.135424 0.133806 0.387121
0.384771 0.0891127 0.31693
0.502739 0.0640726 0.296529
0.686213 0.0901961 0.320272
0.8038 0.161135 0.417456
0.832334 0.299001 0.522835
0.862501 0.433677 0.615473
0.0253147 0.370169 0.350851
0.0254978 0.371359 0.351888
0.0340887 0.367544 0.349264
0.406668 0.421469 0.394965
0.645823 0.339422 0.346303
0.80444 0.274235 0.349599
0.822446 0.20853 0.371481
0.837888 0.3131 0.484321
0.869017 0.479789 0.624247
0.0893416 0.57789 0.44332
0.0966354 0.577554 0.43328
0.124025 0.574151 0.408026
0.300114 0.586023 0.396796
0.561196 0.60148 0.351476
0.743664 0.561212 0.386908
0.826566 0.513848 0.413458
0.850401 0.469169 0.428412
0.873915 0.487098 0.605234
0.235492 0.753597 0.542046
0.238209 0.753582 0.532341
0.249454 0.753643 0.512856
0.284337 0.7458 0.462974
0.506279 0.761379 0.470665
0.702235 0.766522 0.392981
0.840375 0.738735 0.47129
0.841794 0.724636 0.486549
0.838621 0.603876 0.50457
0.359579 0.847028 0.616983
0.358984 0.84715 0.608682
0.363668 0.846723 0.596857
0.369665 0.843412 0.560967
0.510765 0.843015 0.549813
0.65211 0.85005 0.534676
0.80148 0.853361 0.496513
0.865141 0.840375 0.581506
0.867384 0.818784 0.559335
0.497078 0.859174 0.669871
0.486503 0.858747 0.661204
0.488518 0.857771 0.653498
0.497322 0.855085 0.635294
0.571664 0.856626 0.632776
0.682353 0.861997 0.64892
0.762646 0.874647 0.628122
0.859007 0.874144 0.622461
0.869764 0.892134 0.695262
0.648142 0.878462 0.750393
0.637385 0.8757 0.740261
0.638209 0.875227 0.737301
0.648875 0.874754 0.734752
0.664988 0.874586 0.730144
0.718791 0.881117 0.740414
0.78381 0.892531 0.757748
0.834272 0.908049 0.749538
0.882765 0.917266 0.782376
0.0592355 0.0684215 0.401617
0.0962692 0.0621805 0.410163
0.190387 0.0473182 0.392813
0.330388 0.0522011 0.371817
0.493935 0.0623789 0.414405
0.684413 0.1028 0.487251
0.782452 0.123507 0.549645
0.808698 0.184146 0.574914
0.84094 0.33489 0.61738
0.0516518 0.0753185 0.426627
0.0667735 0.0726482 0.431495
0.171359 0.0496529 0.424857
0.328664 0.0532387 0.380377
0.494423 0.0623331 0.414511
0.680186 0.100557 0.480125
0.7823 0.123857 0.543816
0.813184 0.200412 0.5738
0.850919 0.379828 0.632547
0.0436713 0.134722 0.450065
0.0454719 0.12781 0.460258
0.105669 0.10518 0.501472
0.334874 0.0654307 0.436042
0.522545 0.0704356 0.439002
0.68014 0.0975204 0.472313
0.781064 0.127352 0.526635
0.819501 0.237095 0.570642
0.858839 0.427375 0.650675
0.0194705 0.349966 0.4907
0.0193179 0.346746 0.499962
0.024094 0.335409 0.531319
0.359289 0.346166 0.60351
0.616159 0.302724 0.543587
0.759289 0.213794 0.528389
0.791897 0.154574 0.488914
0.829801 0.290806 0.564721
0.868406 0.484611 0.672084
0.0498817 0.563012 0.560464
0.0499733 0.562966 0.560128
0.0582589 0.56173 0.558511
0.214481 0.577676 0.56585
0.587594 0.602945 0.581598
0.802853 0.544228 0.54992
0.879606 0.489143 0.525292
0.8589 0.416159 0.549889
0.881148 0.546059 0.679927
0.152453 0.750622 0.625711
0.155642 0.750332 0.619364
0.168887 0.748562 0.606683
0.234134 0.738766 0.569223
0.540063 0.758343 0.599756
0.70927 0.763348 0.560967
0.833066 0.731762 0.568521
0.844373 0.683131 0.560021
0.897704 0.582589 0.591745
0.325475 0.846189 0.676005
0.325978 0.844846 0.667628
0.331426 0.842725 0.654887
0.353964 0.84181 0.630457
0.533364 0.844999 0.635904
0.679866 0.850507 0.647334
0.801495 0.855467 0.591669
0.875807 0.835828 0.617197
0.874098 0.807523 0.624933
0.481529 0.862882 0.703304
0.472175 0.862211 0.694896
0.47657 0.861509 0.687083
0.497261 0.861067 0.676905
0.528923 0.85771 0.650645
0.659907 0.864103 0.667582
0.757 0.876387 0.646616
0.858274 0.874372 0.623743
0.874144 0.897154 0.713069
0.637964 0.880812 0.762692
0.627985 0.878355 0.75404
0.629557 0.877836 0.75082
0.640101 0.87805 0.748806
0.661494 0.876661 0.742687
0.703334 0.880095 0.74342
0.78088 0.891447 0.762737
0.831678 0.908705 0.754849
0.882673 0.917144 0.781811
0.0801862 0.089189 0.519997
0.129107 0.0824445 0.534051
0.21294 0.0572671 0.520729
0.343664 0.0601816 0.48777
0.506432 0.0855726 0.520043
0.693889 0.107332 0.590936
0.796658 0.167865 0.653361
0.801465 0.172335 0.675868
0.824948 0.274189 0.705257
0.0716716 0.0995193 0.553506
0.0879835 0.0946059 0.548531
0.177432 0.0587167 0.544976
0.345876 0.0635691 0.511681
0.503075 0.0867628 0.520409
0.691402 0.106279 0.588525
0.796155 0.169574 0.64892
0.802106 0.172747 0.673442
0.830198 0.302525 0.711147
0.0607462 0.13257 0.568597
0.0627604 0.127962 0.579232
0.101396 0.111437 0.609522
0.320333 0.0713817 0.567269
0.534783 0.10988 0.569436
0.700008 0.1093 0.595621
0.79501 0.171084 0.648402
0.801556 0.176883 0.672129
0.84097 0.378454 0.722347
0.0558938 0.336324 0.635065
0.0604715 0.329229 0.641077
0.0696574 0.313741 0.665904
0.31899 0.300343 0.731395
0.578866 0.248554 0.679896
0.738338 0.164233 0.635264
0.794644 0.171557 0.633768
0.80119 0.19823 0.66041
0.855299 0.453468 0.726497
0.0207218 0.537713 0.667826
0.020737 0.53492 0.670741
0.0204013 0.531548 0.681956
0.108141 0.546685 0.735088
0.559899 0.548882 0.770047
0.789624 0.53518 0.732021
0.859876 0.481086 0.718105
0.836057 0.351995 0.657343
0.872572 0.52285 0.734142
0.115801 0.734432 0.735637
0.113542 0.733715 0.73463
0.117861 0.732525 0.733196
0.146365 0.725887 0.7243
0.47396 0.749065 0.730388
0.734493 0.75523 0.736706
0.881544 0.713573 0.716289
0.907576 0.660029 0.694713
0.885542 0.570825 0.693004
0.240375 0.848417 0.771969
0.235386 0.847471 0.765057
0.236423 0.845441 0.755932
0.251087 0.842588 0.736812
0.490364 0.844144 0.722759
0.710536 0.849912 0.750683
0.811612 0.857389 0.727169
0.89015 0.834028 0.71667
0.885863 0.803525 0.736767
0.404776 0.875517 0.76701
0.397864 0.874907 0.759945
0.407675 0.873243 0.751995
0.446342 0.871244 0.741817
0.518135 0.868162 0.724453
0.688853 0.880262 0.750362
0.788983 0.895048 0.764248
0.865156 0.903288 0.734188
0.879103 0.906889 0.750515
0.616342 0.886076 0.783291
0.60885 0.884428 0.777264
0.613901 0.883955 0.774914
0.627909 0.883665 0.773465
0.650507 0.883757 0.770871
0.684153 0.880827 0.75697
0.767239 0.891615 0.770031
0.831052 0.910994 0.770474
0.883345 0.918502 0.787686
0.108995 0.117052 0.638071
0.148425 0.115297 0.653407
0.217731 0.070573 0.636805
0.367147 0.0807965 0.615122
0.504097 0.0994736 0.604868
0.690044 0.122148 0.669062
0.795956 0.151263 0.728069
0.800671 0.166934 0.735897
0.811627 0.199435 0.747372
0.0980087 0.128985 0.666026
0.106462 0.124971 0.660914
0.202396 0.106508 0.660121
0.363043 0.0835431 0.6365
0.509941 0.101076 0.616663
0.689189 0.122301 0.669398
0.796918 0.148974 0.72755
0.801816 0.164126 0.735622
0.812985 0.190509 0.744625
0.0789197 0.161822 0.672801
0.0817731 0.15938 0.685298
0.111788 0.148013 0.722347
0.310536 0.084184 0.675883
0.530419 0.109209 0.671275
0.715557 0.132067 0.699199
0.795331 0.155352 0.732052
0.801404 0.168307 0.73669
0.828 0.268574 0.782986
0.0826123 0.33695 0.728222
0.0835889 0.328023 0.732464
0.0898146 0.30959 0.755627
0.286137 0.29453 0.820661
0.547234 0.229191 0.782376
0.718105 0.170306 0.724102
0.801221 0.159152 0.733349
0.802121 0.169879 0.737148
0.848493 0.373159 0.808972
0.024155 0.543633 0.765835
0.0280919 0.539788 0.77113
0.0365759 0.534447 0.784543
0.166155 0.535714 0.838071
0.539254 0.533379 0.867475
0.770993 0.512184 0.831525
0.864729 0.458488 0.818265
0.836393 0.31725 0.783261
0.866194 0.462333 0.811582
0.0491035 0.71104 0.81146
0.0458686 0.708339 0.812482
0.0525673 0.706569 0.815885
0.0847639 0.705013 0.828092
0.423301 0.719707 0.853117
0.71162 0.716609 0.866407
0.874678 0.709316 0.840726
0.900175 0.660868 0.827985
0.86978 0.515862 0.771801
0.218418 0.842023 0.8495
0.214862 0.840711 0.84773
0.216236 0.837812 0.844938
0.223255 0.83418 0.839933
0.442237 0.83592 0.83267
0.659266 0.850843 0.835157
0.831342 0.857511 0.84094
0.913222 0.828885 0.82562
0.912245 0.784222 0.826185
0.344549 0.885847 0.8439
0.339818 0.884794 0.839246
0.346471 0.884443 0.834363
0.37586 0.884199 0.826658
0.44065 0.884794 0.813413
0.646113 0.897017 0.808896
0.807492 0.914427 0.836576
0.876173 0.926436 0.83859
0.893568 0.916732 0.823102
0.575082 0.893339 0.819791
0.565744 0.892607 0.815274
0.571984 0.892851 0.812116
0.589899 0.893477 0.808713
0.620417 0.894316 0.804761
0.662226 0.894224 0.799512
0.771557 0.906279 0.818265
0.855665 0.92575 0.843687
0.888212 0.933043 0.844587
0.140856 0.15436 0.749187
0.150439 0.153017 0.750393
0.237201 0.129061 0.73785
0.375952 0.0957809 0.714473
0.511666 0.102144 0.68954
0.671809 0.151049 0.720424
0.79765 0.148577 0.764981
0.802655 0.158968 0.770947
0.807919 0.170428 0.775753
0.122896 0.160327 0.757122
0.128939 0.158831 0.756207
0.204761 0.141817 0.750713
0.361471 0.0953994 0.721172
0.526894 0.106172 0.706691
0.671794 0.151171 0.721202
0.797696 0.148745 0.765042
0.80267 0.158968 0.770962
0.807797 0.170077 0.775204
0.0915847 0.187884 0.746746
0.0927596 0.187839 0.752087
0.106233 0.184695 0.792279
0.279652 0.0921187 0.741573
0.515053 0.110262 0.73135
0.727733 0.162493 0.757031
0.798093 0.149691 0.765621
0.804303 0.160723 0.772702
0.811307 0.181369 0.779065
0.096849 0.346761 0.78323
0.0979934 0.338186 0.787533
0.105028 0.321904 0.809888
0.220645 0.296513 0.843961
0.511452 0.227741 0.811231
0.697185 0.199191 0.768704
0.805112 0.162173 0.773526
0.805188 0.162585 0.773724
0.831144 0.278309 0.80647
0.0534066 0.550088 0.823713
0.0608225 0.545617 0.829496
0.0778973 0.537911 0.845594
0.181811 0.52221 0.888624
0.51339 0.531838 0.907393
0.74641 0.5093 0.870985
0.865248 0.461997 0.847501
0.833371 0.288853 0.809018
0.848798 0.371801 0.827634
0.0222019 0.707912 0.858732
0.0212253 0.704845 0.860349
0.0210422 0.699733 0.864225
0.0294804 0.696529 0.881407
0.41352 0.710414 0.916991
0.691386 0.706508 0.933959
0.857633 0.694316 0.90518
0.902998 0.644419 0.891966
0.871351 0.482109 0.852445
0.181262 0.834394 0.90045
0.177432 0.831205 0.899657
0.181048 0.826688 0.898497
0.201297 0.820478 0.900099
0.381537 0.824323 0.909056
0.63064 0.830991 0.92221
0.810452 0.833204 0.93138
0.912047 0.816129 0.907118
0.913024 0.749981 0.890257
0.309697 0.886839 0.90219
0.3037 0.885801 0.90103
0.3122 0.885344 0.899519
0.336172 0.886168 0.899016
0.415442 0.886381 0.894377
0.616297 0.897429 0.890929
0.773068 0.917037 0.898421
0.895094 0.932326 0.914809
0.913405 0.928283 0.918776
0.543481 0.896574 0.874601
0.535882 0.895888 0.870604
0.543542 0.89633 0.868345
0.561227 0.897612 0.866102
0.589837 0.899947 0.86331
0.625376 0.903639 0.859113
0.747127 0.919234 0.865705
0.866178 0.940581 0.901106
0.916716 0.945296 0.918074
0.145327 0.172732 0.791333
0.143877 0.173068 0.791516
0.211276 0.152667 0.778775
0.354055 0.0977646 0.740612
0.525307 0.109804 0.729091
0.672023 0.151049 0.743786
0.792889 0.142504 0.760281
0.800977 0.15436 0.769024
0.805997 0.165728 0.774807
0.128267 0.176669 0.794018
0.134646 0.175357 0.793484
0.177554 0.164401 0.787427
0.335485 0.0968185 0.742382
0.526741 0.10988 0.728923
0.670909 0.150805 0.743587
0.792279 0.142046 0.759854
0.801053 0.154498 0.769116
0.80592 0.165484 0.774746
0.0996719 0.203052 0.785504
0.100755 0.20351 0.789929
0.102754 0.201282 0.798505
0.235767 0.143465 0.770596
0.478859 0.107759 0.732799
0.710887 0.167605 0.754086
0.795636 0.144778 0.762417
0.80116 0.154788 0.769192
0.807752 0.168917 0.776577
0.10518 0.355337 0.813581
0.105226 0.350912 0.815076
0.111925 0.344793 0.838773
0.119539 0.315022 0.839872
0.456626 0.248219 0.829007
0.663981 0.206592 0.776349
0.803571 0.162539 0.773465
0.801587 0.156588 0.769711
0.808759 0.173877 0.778363
0.0738537 0.555016 0.854749
0.0810559 0.550561 0.861234
0.0960555 0.546136 0.878645
0.120882 0.527367 0.892546
0.41883 0.530785 0.907546
0.688609 0.517555 0.890166
0.851743 0.487053 0.851514
0.839979 0.325933 0.817075
0.811032 0.178546 0.781064
0.0211337 0.710002 0.88484
0.0209964 0.70811 0.888594
0.0213169 0.703395 0.894423
0.0242618 0.692088 0.902159
0.330968 0.700496 0.915755
0.64686 0.706096 0.934066
0.825635 0.697505 0.916045
0.904387 0.654337 0.894972
0.865721 0.454551 0.845975
0.104952 0.826658 0.923903
0.095491 0.823636 0.92549
0.0979324 0.819104 0.92549
0.136538 0.813748 0.924971
0.358618 0.813977 0.920607
0.605447 0.82388 0.931197
0.786526 0.824338 0.943343
0.903532 0.809796 0.921279
0.910216 0.735515 0.90927
0.296178 0.876738 0.924834
0.29041 0.87512 0.925216
0.292195 0.873289 0.924865
0.318776 0.87274 0.923339
0.449699 0.876081 0.917144
0.603464 0.883726 0.917052
0.753719 0.901732 0.926421
0.87425 0.921492 0.93521
0.912535 0.897917 0.931456
0.520058 0.893751 0.911711
0.512871 0.893263 0.912261
0.520546 0.893782 0.911681
0.539727 0.895384 0.910979
0.571527 0.89752 0.910796
0.612985 0.902159 0.910857
0.72932 0.919341 0.916167
0.853269 0.942916 0.927916
0.914046 0.949981 0.932815
