bundles/resolve-cinematic-luts/Phantom Luts/A7s3 Phntm Film LUTs - G6/SLog2+Sgamut3cine/Vision A7s3 Sl2sg3c-Legacy.cube
TITLE "Generated by Resolve"
LUT_3D_SIZE 5
0.0318151 0.043122 0.0345312
0.137285 0.0410163 0.0350195
0.466651 0.0383612 0.0827497
0.805112 0.137789 0.316732
0.845411 0.348318 0.522744
0.0290837 0.177035 0.0632639
0.139483 0.189136 0.0393072
0.514351 0.112947 0.0721904
0.810712 0.138216 0.2636
0.851774 0.362783 0.496712
0.137057 0.578393 0.3075
0.149294 0.567758 0.24065
0.564477 0.600046 0.15227
0.810559 0.563333 0.318135
0.820264 0.411231 0.329686
0.364538 0.845533 0.563485
0.37229 0.840787 0.534768
0.573938 0.841215 0.535714
0.805371 0.85687 0.503883
0.858045 0.831815 0.526162
0.653803 0.875669 0.738781
0.62948 0.870939 0.716152
0.670909 0.874342 0.721599
0.787457 0.894301 0.756176
0.882948 0.917601 0.784085
0.0338903 0.0454719 0.134401
0.157153 0.0400549 0.120577
0.481636 0.046952 0.186892
0.806806 0.156893 0.393072
0.849836 0.368856 0.560388
0.0192416 0.169345 0.139437
0.186557 0.204425 0.182498
0.581155 0.0811017 0.138094
0.814298 0.156771 0.335348
0.863386 0.42739 0.582513
0.129885 0.581277 0.368261
0.144686 0.573037 0.308965
0.558907 0.593652 0.158145
0.812497 0.546197 0.352743
0.878599 0.457679 0.487922
0.366278 0.848264 0.589731
0.363058 0.845548 0.56054
0.552697 0.841077 0.537881
0.803326 0.854826 0.4981
0.861311 0.82446 0.531411
0.654108 0.877226 0.744869
0.644251 0.873899 0.731929
0.671931 0.874891 0.727779
0.785962 0.893416 0.75697
0.882918 0.917525 0.783871
0.0592355 0.0684215 0.401617
0.190387 0.0473182 0.392813
0.493935 0.0623789 0.414405
0.782452 0.123507 0.549645
0.84094 0.33489 0.61738
0.0436713 0.134722 0.450065
0.105669 0.10518 0.501472
0.522545 0.0704356 0.439002
0.781064 0.127352 0.526635
0.858839 0.427375 0.650675
0.0498817 0.563012 0.560464
0.0582589 0.56173 0.558511
0.587594 0.602945 0.581598
0.879606 0.489143 0.525292
0.881148 0.546059 0.679927
0.325475 0.846189 0.676005
0.331426 0.842725 0.654887
0.533364 0.844999 0.635904
0.801495 0.855467 0.591669
0.874098 0.807523 0.624933
0.637964 0.880812 0.762692
0.629557 0.877836 0.75082
0.661494 0.876661 0.742687
0.78088 0.891447 0.762737
0.882673 0.917144 0.781811
0.108995 0.117052 0.638071
0.217731 0.070573 0.636805
0.504097 0.0994736 0.604868
0.795956 0.151263 0.728069
0.811627 0.199435 0.747372
0.0789197 0.161822 0.672801
0.111788 0.148013 0.722347
0.530419 0.109209 0.671275
0.795331 0.155352 0.732052
0.828 0.268574 0.782986
0.024155 0.543633 0.765835
0.0365759 0.534447 0.784543
0.539254 0.533379 0.867475
0.864729 0.458488 0.818265
0.866194 0.462333 0.811582
0.218418 0.842023 0.8495
0.216236 0.837812 0.844938
0.442237 0.83592 0.83267
0.831342 0.857511 0.84094
0.912245 0.784222 0.826185
0.575082 0.893339 0.819791
0.571984 0.892851 0.812116
0.620417 0.894316 0.804761
0.771557 0.906279 0.818265
0.888212 0.933043 0.844587
0.145327 0.172732 0.791333
0.211276 0.152667 0.778775
0.525307 0.109804 0.729091
0.792889 0.142504 0.760281
0.805997 0.165728 0.774807
0.0996719 0.203052 0.785504
0.102754 0.201282 0.798505
0.478859 0.107759 0.732799
0.795636 0.144778 0.762417
0.807752 0.168917 0.776577
0.0738537 0.555016 0.854749
0.0960555 0.546136 0.878645
0.41883 0.530785 0.907546
0.851743 0.487053 0.851514
0.811032 0.178546 0.781064
0.104952 0.826658 0.923903
0.0979324 0.819104 0.92549
0.358618 0.813977 0.920607
0.786526 0.824338 0.943343
0.910216 0.735515 0.90927
0.520058 0.893751 0.911711
0.520546 0.893782 0.911681
0.571527 0.89752 0.910796
0.72932 0.919341 0.916167
0.914046 0.949981 0.932815
