bundles/resolve-cinematic-luts/Phantom Luts/A7s3 Phntm Film LUTs - G6/SLog2+Sgamut3cine/Vision A7s3 Sl2sg3c-Legacy.cube
TITLE "Generated by Resolve"
LUT_3D_SIZE 33
0.0318151 0.043122 0.0345312
0.0318151 0.043122 0.0345312
0.0318151 0.043122 0.0345159
0.0318608 0.0431525 0.0344549
0.0365911 0.0432746 0.0337224
0.0564736 0.0420691 0.032578
0.0805982 0.0408942 0.0334173
0.106462 0.0404974 0.0337682
0.137285 0.0410163 0.0350195
0.17847 0.0403601 0.0358892
0.219638 0.0377508 0.0365148
0.261219 0.0344854 0.0382696
0.301442 0.0336919 0.0416266
0.342519 0.0335088 0.049012
0.384558 0.0337835 0.0586099
0.424811 0.035584 0.0694896
0.466651 0.0383612 0.0827497
0.510369 0.0428168 0.0968338
0.558236 0.050782 0.118013
0.608743 0.0619059 0.145205
0.66212 0.0754559 0.179828
0.71397 0.0896925 0.214542
0.760113 0.106294 0.252064
0.791211 0.122072 0.287068
0.805112 0.137789 0.316732
0.810239 0.154467 0.344366
0.815396 0.176837 0.371252
0.817533 0.203372 0.395865
0.821912 0.229129 0.421515
0.828428 0.257588 0.448066
0.834409 0.287556 0.473426
0.839597 0.318624 0.498238
0.845411 0.348318 0.522744
0.0318151 0.043122 0.0345312
0.0318151 0.043122 0.0345312
0.0318151 0.043122 0.0345159
0.0318456 0.043183 0.0344549
0.0379797 0.043534 0.0330205
0.0579538 0.042298 0.0326696
0.082536 0.040589 0.0332036
0.108644 0.0404822 0.0337682
0.140795 0.0411078 0.035172
0.18233 0.0401465 0.035874
0.22269 0.0384527 0.0365301
0.264149 0.0336614 0.038529
0.304356 0.0333715 0.041413
0.34461 0.0332494 0.0485237
0.386282 0.0336309 0.0579385
0.428885 0.0359045 0.0690471
0.47155 0.0385443 0.0798657
0.516487 0.0438087 0.0944839
0.563714 0.0514229 0.114336
0.6177 0.0653544 0.134646
0.669093 0.0773175 0.175906
0.719783 0.0916915 0.212589
0.764874 0.107515 0.249165
0.793942 0.123033 0.284291
0.805814 0.138521 0.313375
0.811124 0.155642 0.341741
0.81561 0.178241 0.369299
0.817945 0.2047 0.393988
0.822522 0.230655 0.419867
0.829007 0.259449 0.44651
0.835187 0.289128 0.472053
0.840482 0.319585 0.497185
0.846067 0.349844 0.521157
0.0318151 0.043122 0.0345312
0.0318151 0.043122 0.0345312
0.0318151 0.043122 0.0345159
0.0320592 0.043183 0.0344701
0.0372168 0.0437171 0.0337835
0.0552987 0.0425116 0.0324102
0.0805066 0.041001 0.0333562
0.107073 0.0404669 0.0336919
0.139895 0.0411536 0.0350652
0.181094 0.0406043 0.035874
0.221164 0.0389715 0.0364233
0.264912 0.0339055 0.0382849
0.305058 0.0334936 0.0401923
0.349416 0.0332341 0.0454414
0.39324 0.0339055 0.0559701
0.433753 0.035462 0.0669413
0.476738 0.0393072 0.0767834
0.521813 0.0439002 0.0914473
0.567895 0.0517281 0.113954
0.623743 0.0669566 0.132387
0.674281 0.0785534 0.17232
0.731243 0.096376 0.199847
0.767956 0.108766 0.246464
0.795102 0.12343 0.28069
0.8065 0.138674 0.31078
0.811704 0.156558 0.338552
0.815747 0.178958 0.366766
0.818692 0.205737 0.391043
0.823224 0.231586 0.417197
0.829755 0.260853 0.444007
0.835798 0.290364 0.470161
0.841138 0.320897 0.495293
0.846586 0.350774 0.518975
0.0314641 0.0443732 0.0345312
0.0314946 0.0443885 0.0345312
0.0317998 0.0441749 0.0345312
0.0323033 0.0444343 0.0345464
0.0356146 0.044892 0.0345617
0.0495766 0.0444953 0.0313573
0.0762493 0.0422827 0.0335699
0.105638 0.0409094 0.033402
0.140261 0.0421149 0.0345617
0.184497 0.0418708 0.0343786
0.226841 0.04094 0.0361486
0.266651 0.0377661 0.0368811
0.309834 0.0354314 0.0388647
0.356222 0.0333867 0.0424964
0.396811 0.0335851 0.0512093
0.43624 0.0348821 0.0612345
0.483101 0.0393378 0.0735943
0.526589 0.043946 0.0899367
0.573404 0.0519722 0.114137
0.626276 0.0653697 0.136889
0.677607 0.0785077 0.171023
0.734722 0.0972457 0.196948
0.772519 0.110018 0.243687
0.797452 0.124498 0.277287
0.807202 0.139605 0.306325
0.812543 0.157412 0.334249
0.81622 0.179736 0.362295
0.819028 0.206577 0.387503
0.82388 0.232868 0.414847
0.830121 0.26276 0.441718
0.836545 0.292149 0.468162
0.841779 0.322286 0.493172
0.847364 0.35172 0.517174
0.0318761 0.0623178 0.0382544
0.0318303 0.0615244 0.0377356
0.0321355 0.0595865 0.0365606
0.0351873 0.0582895 0.0369268
0.0412146 0.0616159 0.0373541
0.0621805 0.0593729 0.0318914
0.0853895 0.0541238 0.034699
0.110048 0.0495003 0.034699
0.145571 0.046067 0.033051
0.191623 0.0441596 0.0330816
0.231128 0.0444495 0.0340887
0.270939 0.0440833 0.0353857
0.31313 0.0411994 0.0373236
0.357443 0.0378271 0.0400397
0.395041 0.0330358 0.0420844
0.437095 0.0334325 0.0496986
0.488869 0.0390784 0.0682689
0.529564 0.04271 0.0838941
0.583963 0.0543679 0.112215
0.632364 0.0656748 0.135973
0.681239 0.0779736 0.172793
0.738872 0.097322 0.195331
0.77528 0.110689 0.242451
0.798672 0.125246 0.272145
0.807843 0.139757 0.299916
0.813321 0.157382 0.328969
0.816815 0.180331 0.357336
0.820111 0.207782 0.382712
0.824552 0.234302 0.410437
0.830655 0.263905 0.438239
0.837125 0.294255 0.4654
0.84271 0.323934 0.490913
0.848722 0.353307 0.514885
0.0326543 0.0877394 0.0443122
0.0326848 0.0872053 0.0437934
0.0325475 0.0846113 0.04094
0.0356146 0.083238 0.0407416
0.0448615 0.0855268 0.0411536
0.0589151 0.0882124 0.0390173
0.0938277 0.0839857 0.0297093
0.124926 0.071519 0.0379492
0.15465 0.0655985 0.0395972
0.190524 0.06009 0.0367437
0.227832 0.0545663 0.0346075
0.270329 0.049073 0.0330205
0.313741 0.0481727 0.0352941
0.357671 0.0462043 0.038529
0.396582 0.0424964 0.0404364
0.439765 0.0397803 0.0460059
0.481804 0.0351415 0.0525063
0.529809 0.0404364 0.0735637
0.588724 0.0538643 0.102281
0.63714 0.0646067 0.128954
0.691539 0.0794842 0.165148
0.739635 0.0944991 0.205081
0.777981 0.109758 0.244175
0.799817 0.124559 0.269474
0.808316 0.13962 0.295369
0.814206 0.158175 0.322271
0.817731 0.18201 0.350851
0.821042 0.208942 0.377142
0.825742 0.236225 0.405982
0.831724 0.266087 0.433524
0.837369 0.29546 0.460441
0.843137 0.325902 0.486549
0.849561 0.354986 0.511757
0.0334783 0.112306 0.051194
0.0335393 0.112154 0.050782
0.0339055 0.108385 0.047303
0.0354772 0.106508 0.0448463
0.0473945 0.109697 0.0470283
0.0599069 0.111559 0.0447852
0.0795605 0.112612 0.0385443
0.123049 0.105806 0.0287022
0.174319 0.0880446 0.0401312
0.216068 0.076585 0.0421759
0.244907 0.0728771 0.0406653
0.277943 0.0676127 0.0396735
0.31603 0.061799 0.0377356
0.355215 0.0567636 0.0369268
0.400534 0.0570077 0.0415503
0.444038 0.055024 0.0466316
0.483696 0.0487373 0.0510719
0.529152 0.0437171 0.060029
0.574792 0.0449073 0.0780346
0.63566 0.0601511 0.111498
0.701579 0.0802625 0.152102
0.747265 0.0939803 0.193774
0.784695 0.110994 0.237217
0.799466 0.123156 0.267613
0.806989 0.136889 0.296941
0.813214 0.155581 0.322316
0.818387 0.181186 0.343755
0.821942 0.211002 0.370459
0.825956 0.238437 0.398581
0.831678 0.268238 0.427878
0.837217 0.298817 0.455619
0.843 0.328084 0.481956
0.848325 0.357549 0.507622
0.0322118 0.140414 0.0572519
0.0322576 0.140398 0.0569009
0.034165 0.136721 0.0537728
0.0350652 0.134173 0.0492409
0.043473 0.137285 0.0496071
0.0619821 0.139849 0.051606
0.0737011 0.142748 0.048249
0.102983 0.14284 0.0386969
0.16614 0.13228 0.0291447
0.228977 0.111955 0.0446479
0.27686 0.0981918 0.0500801
0.310491 0.0928054 0.0493782
0.337301 0.0899977 0.0487831
0.371191 0.0844434 0.0481117
0.408515 0.0785534 0.0474708
0.44683 0.0743114 0.0480201
0.495827 0.0760357 0.0567178
0.540261 0.070161 0.064271
0.581064 0.0593576 0.0717937
0.635325 0.0578317 0.0911727
0.691478 0.0686961 0.123934
0.751583 0.0906539 0.169711
0.790677 0.110658 0.218906
0.803723 0.124239 0.253162
0.807691 0.136706 0.286366
0.811627 0.152316 0.320623
0.818143 0.177386 0.348913
0.820523 0.204746 0.37351
0.827512 0.240223 0.392264
0.832517 0.271 0.420539
0.838422 0.301854 0.449165
0.844297 0.331228 0.476585
0.85005 0.360174 0.503105
0.0290837 0.177035 0.0632639
0.02916 0.176928 0.0629892
0.0303807 0.172702 0.0580148
0.0320745 0.169192 0.0535439
0.0374456 0.170489 0.049012
0.0536812 0.177401 0.0531319
0.0727703 0.181735 0.0551766
0.0895552 0.186694 0.0497444
0.139483 0.189136 0.0393072
0.220081 0.175677 0.0294347
0.290684 0.154696 0.055375
0.341802 0.140459 0.0698558
0.38294 0.131365 0.0707713
0.408713 0.12961 0.0712291
0.440681 0.125521 0.07187
0.476204 0.120119 0.0720378
0.514351 0.112947 0.0721904
0.553277 0.1037 0.0719463
0.601419 0.102068 0.083299
0.645853 0.0902724 0.0920119
0.69366 0.0767071 0.103929
0.740795 0.0790265 0.1337
0.790753 0.100404 0.183856
0.805508 0.122133 0.226505
0.810712 0.138216 0.2636
0.815076 0.155016 0.301411
0.818524 0.176486 0.338872
0.820264 0.202167 0.371267
0.825055 0.231998 0.396994
0.831449 0.265904 0.425284
0.839734 0.304845 0.442145
0.845228 0.334447 0.469337
0.851774 0.362783 0.496712
0.0339818 0.223285 0.0792554
0.0340581 0.223728 0.0791638
0.0345769 0.219486 0.0733806
0.0346532 0.214817 0.0664683
0.037995 0.212833 0.0581674
0.0492561 0.222309 0.0620127
0.0757763 0.231785 0.0678721
0.0985428 0.237613 0.0703288
0.121553 0.243763 0.0628824
0.19852 0.243015 0.0450752
0.27924 0.228367 0.0295567
0.347372 0.210178 0.0650339
0.398856 0.195865 0.0824292
0.442496 0.18407 0.0927596
0.473121 0.179049 0.0944839
0.500511 0.175341 0.0950179
0.534432 0.16817 0.0960708
0.573297 0.158404 0.0978256
0.612863 0.14725 0.0982376
0.656962 0.13463 0.0996872
0.70753 0.12462 0.111818
0.746685 0.106264 0.119188
0.786511 0.0954757 0.141558
0.803128 0.107729 0.17908
0.813138 0.131991 0.225208
0.817914 0.15491 0.272435
0.822568 0.180056 0.314595
0.822828 0.205875 0.35256
0.826001 0.23183 0.389334
0.830488 0.259693 0.423377
0.837232 0.296452 0.449729
0.845457 0.33463 0.465995
0.852888 0.365835 0.489738
0.0418402 0.276112 0.099794
0.0416876 0.276173 0.099794
0.0438849 0.274525 0.0961624
0.0451972 0.270741 0.0887007
0.0458686 0.268147 0.0792096
0.0504311 0.268498 0.0746014
0.0705577 0.28011 0.0799725
0.100893 0.288945 0.0844892
0.128969 0.294316 0.0862593
0.161303 0.29984 0.0736706
0.256336 0.297566 0.0515145
0.336172 0.282567 0.0273747
0.400107 0.266865 0.0727092
0.452598 0.255573 0.0965744
0.491936 0.244419 0.112627
0.526802 0.23743 0.119753
0.552712 0.233585 0.121523
0.58468 0.224964 0.121767
0.620813 0.214374 0.121477
0.661723 0.201266 0.121782
0.707988 0.185855 0.123613
0.755367 0.167193 0.12726
0.795514 0.151186 0.143099
0.810498 0.131319 0.149447
0.81207 0.116381 0.164248
0.820859 0.143725 0.220432
0.825422 0.176516 0.272221
0.826917 0.210086 0.320806
0.82945 0.237888 0.365408
0.833646 0.266148 0.406287
0.837507 0.294072 0.44213
0.843809 0.32755 0.473274
0.85037 0.358785 0.49868
0.0536812 0.329686 0.124453
0.0534981 0.329763 0.124529
0.0546426 0.328588 0.120638
0.0558938 0.325643 0.112825
0.0567483 0.324224 0.10486
0.057084 0.320806 0.0949264
0.0675517 0.324971 0.0932174
0.0961776 0.336538 0.098497
0.131884 0.343618 0.102525
0.168566 0.347539 0.0992905
0.209644 0.353201 0.0855116
0.314916 0.350927 0.0594949
0.390524 0.335073 0.0284276
0.451957 0.32372 0.0775311
0.503441 0.313893 0.113115
0.541405 0.306203 0.130327
0.574807 0.298512 0.147646
0.600427 0.295171 0.153185
0.633509 0.283909 0.155657
0.668467 0.273594 0.155428
0.7075 0.26009 0.155673
0.745434 0.245945 0.155383
0.784665 0.22887 0.155642
0.811521 0.207309 0.155184
0.820172 0.188464 0.165927
0.820829 0.151415 0.162692
0.82829 0.157855 0.205493
0.830594 0.208423 0.269581
0.833356 0.246525 0.329061
0.836957 0.274113 0.379004
0.840543 0.30193 0.421393
0.845426 0.331502 0.462257
0.850309 0.357641 0.495506
0.0664378 0.381201 0.153765
0.066392 0.381628 0.153887
0.0666667 0.380484 0.149355
0.067689 0.377707 0.141375
0.069398 0.377157 0.133806
0.070634 0.376089 0.125734
0.0717021 0.372854 0.112535
0.091783 0.380377 0.114107
0.126909 0.390387 0.11902
0.174456 0.394339 0.122988
0.214664 0.398062 0.110872
0.258656 0.406043 0.0977035
0.371145 0.403235 0.071809
0.44242 0.386557 0.0335241
0.50074 0.378088 0.0806134
0.551263 0.369207 0.131807
0.589471 0.363455 0.152377
0.622919 0.355612 0.173007
0.646845 0.352636 0.187289
0.678172 0.343343 0.196292
0.711391 0.331914 0.197848
0.744289 0.318975 0.198001
0.775799 0.3066 0.198825
0.800183 0.290517 0.197299
0.807828 0.268772 0.188495
0.813474 0.241794 0.177386
0.820127 0.214969 0.178378
0.827161 0.203937 0.20824
0.834821 0.241459 0.267079
0.840375 0.280705 0.330983
0.84477 0.312947 0.388846
0.8486 0.33901 0.43714
0.853315 0.364126 0.476814
0.0795605 0.431815 0.190082
0.0794232 0.43183 0.189899
0.0800488 0.431525 0.186297
0.080827 0.429206 0.178134
0.0834669 0.427558 0.167834
0.0848402 0.427924 0.161288
0.0865949 0.426398 0.148638
0.0943313 0.425269 0.13518
0.122499 0.434516 0.138949
0.171771 0.441886 0.144717
0.223941 0.444236 0.148165
0.261448 0.448997 0.128496
0.311894 0.458015 0.115572
0.424842 0.454231 0.0869001
0.492744 0.437385 0.042771
0.547539 0.430945 0.0847486
0.59884 0.422232 0.155703
0.636484 0.416907 0.182757
0.6692 0.410239 0.203113
0.694789 0.40676 0.216785
0.718837 0.401694 0.230793
0.748623 0.38999 0.237201
0.775448 0.379171 0.239216
0.795132 0.365332 0.238682
0.798886 0.348669 0.232593
0.801663 0.328618 0.224796
0.805081 0.303609 0.214557
0.811612 0.273869 0.202792
0.821241 0.250858 0.211933
0.834211 0.292622 0.282597
0.845609 0.32546 0.340139
0.853101 0.350851 0.39588
0.857679 0.370871 0.44448
0.0957046 0.481193 0.226993
0.0955978 0.481682 0.226902
0.0956588 0.481178 0.223819
0.0968032 0.479408 0.216892
0.098436 0.477546 0.207187
0.100649 0.476356 0.199222
0.102663 0.476341 0.191913
0.105425 0.475074 0.17377
0.121431 0.476524 0.162585
0.167956 0.485817 0.17145
0.224887 0.490257 0.178454
0.273121 0.492714 0.170703
0.310796 0.499657 0.148714
0.362463 0.508293 0.13785
0.474449 0.50312 0.105241
0.539895 0.485771 0.0601053
0.595483 0.480461 0.0974899
0.645136 0.472816 0.17995
0.682353 0.467842 0.214618
0.713817 0.46331 0.234073
0.737514 0.460075 0.247471
0.75729 0.456443 0.258885
0.776532 0.450065 0.27277
0.795377 0.438895 0.276478
0.799588 0.425086 0.27396
0.799649 0.408286 0.268162
0.799832 0.388464 0.259907
0.801099 0.363973 0.249607
0.804578 0.337682 0.240146
0.812726 0.305364 0.232746
0.828748 0.33109 0.293172
0.846799 0.370092 0.359518
0.859861 0.379538 0.396094
0.114855 0.529809 0.267002
0.114519 0.529854 0.26627
0.11487 0.529564 0.263096
0.115724 0.52781 0.255116
0.11722 0.525505 0.245686
0.119081 0.523964 0.237125
0.122011 0.5234 0.229236
0.124727 0.522393 0.217578
0.128344 0.520684 0.197879
0.163668 0.527047 0.198596
0.227085 0.532677 0.206226
0.279896 0.536233 0.211734
0.324193 0.54023 0.190204
0.358022 0.548837 0.174151
0.413153 0.556039 0.161654
0.520806 0.550439 0.125978
0.586557 0.533089 0.0826581
0.640894 0.528145 0.116274
0.689998 0.520943 0.20763
0.724498 0.51696 0.246448
0.750256 0.514656 0.265003
0.771221 0.512551 0.279347
0.785611 0.511162 0.287755
0.798703 0.50663 0.29575
0.80383 0.498772 0.301625
0.802915 0.487938 0.303181
0.801129 0.472862 0.302846
0.801511 0.452537 0.295323
0.802411 0.424399 0.286305
0.803037 0.395377 0.274388
0.807736 0.365408 0.2692
0.823285 0.370855 0.309026
0.842191 0.402426 0.366354
0.137057 0.578393 0.3075
0.136873 0.578653 0.306569
0.137194 0.577859 0.301381
0.138506 0.575967 0.294697
0.1393 0.574273 0.28603
0.141665 0.57232 0.277317
0.143572 0.570504 0.267002
0.145953 0.570153 0.258091
0.149294 0.567758 0.24065
0.164645 0.567773 0.226673
0.223682 0.575967 0.232944
0.282246 0.581155 0.240284
0.333074 0.58352 0.240299
0.369726 0.589944 0.215778
0.402853 0.598245 0.204425
0.458244 0.60412 0.19295
0.564477 0.600046 0.15227
0.629526 0.581949 0.114427
0.682994 0.576867 0.135668
0.730205 0.569894 0.231174
0.75906 0.566323 0.279362
0.779782 0.56585 0.298161
0.795834 0.566094 0.311299
0.805142 0.565454 0.316548
0.810559 0.563333 0.318135
0.811078 0.557092 0.318471
0.810544 0.547112 0.318349
0.80885 0.532296 0.317647
0.807202 0.513008 0.316838
0.803967 0.487434 0.317708
0.804913 0.453422 0.306783
0.806683 0.412757 0.295277
0.820264 0.411231 0.329686
0.163424 0.626291 0.346838
0.162783 0.625895 0.344213
0.162524 0.624689 0.338216
0.163546 0.623011 0.332647
0.16495 0.62179 0.326177
0.165042 0.620081 0.317693
0.167727 0.618235 0.307301
0.171038 0.616083 0.296254
0.173754 0.614878 0.285145
0.178256 0.612909 0.262806
0.218463 0.618387 0.261158
0.286412 0.625025 0.268559
0.338811 0.629236 0.27454
0.382757 0.632166 0.263645
0.414725 0.639399 0.246006
0.446723 0.647303 0.236835
0.502098 0.652186 0.225391
0.604608 0.648066 0.189853
0.668009 0.630762 0.153231
0.723339 0.625147 0.163088
0.763424 0.61854 0.254536
0.787305 0.617105 0.30695
0.803113 0.617258 0.336049
0.812818 0.616388 0.345083
0.816602 0.615778 0.346502
0.817288 0.614252 0.343191
0.816724 0.608652 0.340291
0.815839 0.599619 0.337072
0.814054 0.585397 0.335424
0.813596 0.56669 0.334432
0.811139 0.538949 0.331914
0.807248 0.503014 0.332082
0.808087 0.460914 0.320363
0.194629 0.672633 0.38497
0.193698 0.672511 0.382132
0.193271 0.671717 0.376684
0.193332 0.669718 0.370962
0.194247 0.668055 0.364157
0.192874 0.666773 0.356451
0.195285 0.664683 0.347295
0.198749 0.662623 0.336156
0.201602 0.661051 0.323033
0.205051 0.659266 0.308934
0.222141 0.661357 0.291768
0.282292 0.669245 0.299733
0.346136 0.673701 0.307591
0.393179 0.677211 0.311147
0.430488 0.681193 0.291814
0.459236 0.689067 0.28014
0.491966 0.69659 0.272389
0.545327 0.69897 0.26186
0.640848 0.694743 0.228016
0.702693 0.67744 0.199008
0.757183 0.671534 0.198062
0.789441 0.666728 0.28658
0.809094 0.667155 0.340047
0.820584 0.666667 0.366949
0.825193 0.66566 0.37818
0.826001 0.664393 0.378149
0.826398 0.662608 0.371389
0.824384 0.656001 0.368002
0.821698 0.645884 0.364446
0.820676 0.632136 0.36054
0.817929 0.611795 0.354696
0.815518 0.581857 0.349477
0.813504 0.545785 0.34699
0.224781 0.718029 0.422889
0.223499 0.71751 0.417929
0.223133 0.717205 0.413046
0.223789 0.716243 0.409064
0.224842 0.714733 0.403525
0.225956 0.713115 0.39762
0.224033 0.710933 0.387961
0.22565 0.708965 0.375402
0.229999 0.707103 0.363439
0.233585 0.70605 0.350607
0.243183 0.706874 0.335882
0.285222 0.713588 0.333639
0.354116 0.718059 0.341161
0.405097 0.721401 0.348058
0.444297 0.724071 0.34728
0.475517 0.727947 0.326879
0.502495 0.734081 0.315602
0.533867 0.740001 0.308446
0.586557 0.741985 0.298939
0.676555 0.738796 0.268482
0.735805 0.723552 0.247684
0.781628 0.717998 0.259663
0.811963 0.713588 0.326497
0.827543 0.712779 0.372061
0.834913 0.712734 0.394766
0.836118 0.711543 0.403525
0.835554 0.709682 0.402396
0.834531 0.707271 0.393011
0.833463 0.700908 0.388861
0.831357 0.690394 0.384756
0.828443 0.673487 0.383001
0.823606 0.649836 0.379751
0.819257 0.617166 0.369116
0.256077 0.758801 0.45951
0.255695 0.75874 0.454551
0.255009 0.75848 0.450828
0.25449 0.757015 0.445838
0.254963 0.755856 0.441169
0.255787 0.75462 0.436103
0.257099 0.752865 0.428199
0.256443 0.751965 0.417975
0.259419 0.749737 0.404288
0.262806 0.747631 0.389746
0.271427 0.748501 0.378317
0.295598 0.752987 0.370367
0.35465 0.757931 0.376394
0.415976 0.759945 0.3832
0.457969 0.760937 0.386465
0.489204 0.763012 0.377737
0.518044 0.767025 0.360601
0.543145 0.772335 0.352316
0.573953 0.777188 0.344961
0.62533 0.778607 0.336522
0.713207 0.775051 0.311223
0.763577 0.764538 0.315129
0.801831 0.758663 0.327962
0.829053 0.754253 0.366369
0.842664 0.752499 0.404425
0.845777 0.751644 0.422843
0.845182 0.749294 0.428458
0.84419 0.747173 0.425666
0.843763 0.744579 0.415213
0.842039 0.737697 0.408545
0.83917 0.726726 0.403922
0.835233 0.708827 0.401953
0.829297 0.682231 0.4
0.288594 0.791699 0.493217
0.28809 0.791653 0.489021
0.287312 0.791485 0.485267
0.287556 0.790951 0.481559
0.28809 0.790005 0.477378
0.288334 0.788846 0.472419
0.289342 0.787655 0.466361
0.287068 0.786084 0.455863
0.290181 0.783917 0.444114
0.295186 0.782422 0.430884
0.305241 0.782773 0.420111
0.323384 0.786862 0.414328
0.364096 0.790112 0.41387
0.425498 0.79089 0.419165
0.470817 0.79057 0.422415
0.506981 0.790478 0.422675
0.533043 0.793332 0.408438
0.557992 0.798093 0.396643
0.581964 0.80296 0.391333
0.61384 0.808072 0.386831
0.666392 0.808362 0.380896
0.745434 0.806165 0.370459
0.78674 0.796384 0.376486
0.817334 0.791012 0.390616
0.8421 0.786328 0.416449
0.85185 0.783215 0.441245
0.8533 0.781064 0.45539
0.853117 0.778988 0.459739
0.852979 0.777127 0.455589
0.851637 0.773983 0.442893
0.849485 0.76701 0.432715
0.845869 0.754742 0.424521
0.841337 0.73341 0.419043
0.319127 0.818662 0.523125
0.318471 0.818128 0.519081
0.31722 0.817304 0.515038
0.316533 0.816632 0.511254
0.316747 0.815778 0.507576
0.317861 0.814862 0.503548
0.319356 0.813931 0.498665
0.320577 0.812955 0.49189
0.317479 0.810712 0.478599
0.324269 0.809644 0.468055
0.337453 0.811353 0.459403
0.354711 0.812696 0.453986
0.38529 0.815198 0.455848
0.43386 0.816159 0.460227
0.484718 0.815106 0.463233
0.521477 0.814603 0.464927
0.551873 0.815106 0.463203
0.574365 0.818753 0.452689
0.597452 0.823865 0.445624
0.621027 0.828489 0.441199
0.653025 0.832334 0.435645
0.703731 0.83154 0.427649
0.770275 0.829252 0.420859
0.80415 0.821195 0.428275
0.830137 0.816159 0.441733
0.849119 0.812055 0.463218
0.857206 0.808896 0.480659
0.859449 0.806699 0.489265
0.860197 0.804608 0.490837
0.859129 0.802533 0.482612
0.857969 0.798383 0.468803
0.855924 0.789487 0.456626
0.851743 0.772824 0.446326
0.345052 0.836622 0.546777
0.344106 0.835904 0.543175
0.343191 0.83534 0.539178
0.342504 0.834913 0.536034
0.34255 0.834607 0.533135
0.343236 0.834134 0.529549
0.343511 0.8327 0.525139
0.344488 0.831083 0.518318
0.342611 0.829587 0.508171
0.352361 0.829709 0.501701
0.364691 0.830167 0.493614
0.386419 0.830655 0.489677
0.414542 0.831846 0.492927
0.44921 0.833387 0.497841
0.493629 0.832609 0.50071
0.533608 0.83238 0.503197
0.56611 0.832151 0.504402
0.590509 0.833661 0.500359
0.61088 0.837446 0.49337
0.632242 0.8421 0.486885
0.658366 0.846845 0.482216
0.691157 0.849088 0.475471
0.739361 0.847257 0.466835
0.790219 0.845792 0.464546
0.818769 0.839475 0.47332
0.840345 0.835843 0.486885
0.853407 0.832532 0.507576
0.857984 0.830152 0.523384
0.859968 0.828077 0.530282
0.860609 0.825849 0.529442
0.85922 0.823377 0.516991
0.858167 0.817853 0.500954
0.858701 0.805524 0.482246
0.364538 0.845533 0.563485
0.363668 0.844892 0.560067
0.362463 0.844312 0.556893
0.361578 0.8439 0.552895
0.360922 0.843412 0.550103
0.36144 0.843046 0.54725
0.363333 0.842466 0.543526
0.366171 0.841672 0.538705
0.37229 0.840787 0.534768
0.375479 0.840497 0.526955
0.38764 0.839078 0.519265
0.413916 0.839231 0.518807
0.442359 0.839902 0.521798
0.46836 0.84152 0.527077
0.50193 0.842023 0.531746
0.541924 0.841566 0.534051
0.573938 0.841215 0.535714
0.602335 0.84126 0.535927
0.623224 0.84506 0.529763
0.643534 0.848844 0.525063
0.66656 0.853315 0.519402
0.69279 0.856687 0.513497
0.724712 0.857114 0.507164
0.767742 0.857633 0.50042
0.805371 0.85687 0.503883
0.831235 0.853437 0.513939
0.847669 0.850996 0.527962
0.855604 0.848936 0.547417
0.859251 0.847044 0.561044
0.860639 0.845212 0.566476
0.860685 0.843305 0.560693
0.858518 0.840421 0.54377
0.858045 0.831815 0.526162
0.381048 0.846418 0.57435
0.379644 0.845991 0.571557
0.37818 0.845533 0.56788
0.377722 0.845411 0.565606
0.376974 0.845258 0.562341
0.376883 0.8448 0.559899
0.379644 0.844388 0.558099
0.384878 0.843763 0.554955
0.391455 0.842771 0.551354
0.39678 0.841993 0.545052
0.412192 0.842161 0.542657
0.437675 0.842054 0.543389
0.463584 0.843 0.545892
0.488533 0.844602 0.550103
0.512093 0.845853 0.555306
0.544991 0.845884 0.558846
0.579293 0.846006 0.560586
0.607874 0.846586 0.562448
0.632837 0.84892 0.560357
0.652873 0.852995 0.556634
0.673747 0.856809 0.551385
0.697505 0.860334 0.545663
0.724392 0.861616 0.540047
0.753307 0.862119 0.534035
0.791119 0.863859 0.529076
0.822766 0.861662 0.535805
0.843442 0.86096 0.549172
0.853208 0.861784 0.566094
0.857877 0.862455 0.586435
0.861051 0.861708 0.598581
0.862898 0.860075 0.601511
0.859922 0.857633 0.586694
0.858396 0.851942 0.566186
0.409369 0.848417 0.590631
0.407202 0.84799 0.58735
0.404623 0.847669 0.583322
0.40351 0.847135 0.581445
0.40209 0.846998 0.578164
0.401419 0.846586 0.57554
0.401984 0.846189 0.572931
0.404715 0.845716 0.569436
0.413962 0.84506 0.568154
0.43061 0.844587 0.56936
0.441825 0.845579 0.567529
0.463294 0.845731 0.569207
0.485451 0.846525 0.570947
0.507454 0.847761 0.573541
0.529152 0.84918 0.577035
0.552377 0.849943 0.582422
0.58407 0.850523 0.585412
0.613733 0.851118 0.588006
0.640177 0.852201 0.589471
0.661463 0.855772 0.584527
0.680323 0.859358 0.581552
0.702983 0.862959 0.576364
0.727031 0.86508 0.570703
