bundles/resolve-cinematic-luts/Gamut/_Conversion/Blackmagic/Blackmagic PYXIS 6K BaseLUTs/Monitor LUTs/BaseLUT - Blackmagic PYXIS 6K - Gen5 Film to Rec709 (Bold) ML.cube
TITLE "BaseLUT - Blackmagic PYXIS 6K - Gen5 Film to Rec709 (Bold) ML"
# Monitoring LUT. Developed for converting Blackmagic Film Gen 5 / Blackmagic Wide Gamut to Rec.709. Version 1.0 - 05/01/2025 - Copyright 2025 Gamut, LLC.
LUT_3D_SIZE 17
0.0000000000 0.0000000000 0.0000000000
0.0000000000 0.0000000000 0.0000000000
0.0000000000 0.0000000000 0.0000000000
0.0000000000 0.0000000000 0.0000000000
0.0898005526 0.0000000000 0.0000000000
0.2633067992 0.0023581398 0.0021204230
0.4283240638 0.0052282501 0.0052282501
0.5878615685 0.0091244492 0.0075462040
0.7374580719 0.0173616984 0.0106539059
0.8607913770 0.0381345624 0.0168193955
0.9452928689 0.0983803653 0.0443927624
0.9908734934 0.1980191068 0.1207835796
1.0000000000 0.3164336484 0.2421363858
1.0000000000 0.4701597166 0.3990180742
1.0000000000 0.6323393194 0.5713698887
1.0000000000 0.7719396346 0.7265194291
1.0000000000 0.8727176480 0.8436141218
0.0000000000 0.0000000000 0.0000000000
0.0000000000 0.0000000000 0.0000000000
0.0000000000 0.0000000000 0.0000000000
0.0072010566 0.0000000000 0.0000000000
0.1204400226 0.0000000000 0.0000000000
0.2813037575 0.0027983842 0.0027983842
0.4365710601 0.0052282501 0.0052282501
0.5917648954 0.0095686121 0.0075462040
0.7392939289 0.0181513214 0.0106539059
0.8613833680 0.0402474296 0.0168193955
0.9453956086 0.1022086748 0.0451038068
0.9908550099 0.2012188513 0.1209136490
1.0000000000 0.3180302105 0.2421116299
1.0000000000 0.4711279234 0.3990088838
1.0000000000 0.6328077532 0.5713108525
1.0000000000 0.7721520509 0.7265528314
1.0000000000 0.8727822369 0.8435131793
0.0000000000 0.0000000000 0.0000000000
0.0000000000 0.0000000000 0.0000000000
0.0000000000 0.0000000000 0.0000000000
0.0234499157 0.0053758666 0.0006900444
0.1443986955 0.0022634191 0.0007886222
0.2959804863 0.0035999654 0.0027983842
0.4439396293 0.0060172476 0.0052282501
0.5956159778 0.0106045545 0.0075462040
0.7410114808 0.0197295666 0.0106539059
0.8620565710 0.0427491278 0.0163752326
0.9454028756 0.1059859078 0.0453983386
0.9907361433 0.2038723574 0.1210250210
1.0000000000 0.3197432659 0.2421363858
1.0000000000 0.4721561585 0.3990032569
1.0000000000 0.6331894353 0.5711667993
1.0000000000 0.7722609455 0.7264737896
1.0000000000 0.8727822369 0.8435131793
0.0000000000 0.0012823243 0.0000000000
0.0000000000 0.0040935423 0.0000000000
0.0000000000 0.0166710910 0.0000000000
0.0230506352 0.0402608799 0.0000000000
0.1335962225 0.0505976063 0.0093712064
0.2982984008 0.0206666810 0.0038465975
0.4500462890 0.0112454977 0.0052282501
0.6001970579 0.0135638269 0.0075462040
0.7433632480 0.0231375590 0.0106539059
0.8627310244 0.0472631741 0.0170163634
0.9454329458 0.1115149444 0.0464634380
0.9906353868 0.2078365215 0.1216840601
1.0000000000 0.3223837389 0.2425110374
1.0000000000 0.4735956501 0.3989329841
1.0000000000 0.6337656515 0.5710519825
1.0000000000 0.7724445606 0.7263945605
1.0000000000 0.8728150355 0.8435131793
0.0000000000 0.0391599190 0.0000000000
0.0000000000 0.0570585475 0.0000000000
0.0000000000 0.0795114722 0.0000000000
0.0000000000 0.1121380989 0.0000000000
0.0936692259 0.1314657948 0.0000000000
0.2690695668 0.1247800882 0.0126717149
0.4445361432 0.0838915290 0.0180522432
0.6042979800 0.0399337731 0.0098151817
0.7470143680 0.0354407519 0.0104565002
0.8640706785 0.0603118925 0.0188909675
0.9453538863 0.1237265017 0.0485497840
0.9904744501 0.2164848320 0.1230562923
1.0000000000 0.3271345163 0.2430918630
1.0000000000 0.4764533734 0.3990392686
1.0000000000 0.6350544077 0.5709371656
1.0000000000 0.7728775773 0.7262439689
1.0000000000 0.8729462300 0.8434299767
0.0000000000 0.1480322570 0.0000000000
0.0000000000 0.1629285864 0.0000000000
0.0000000000 0.1783847043 0.0000000000
0.0000000000 0.2018732652 0.0000000000
0.0000000000 0.2417954351 0.0000000000
0.1975409625 0.2511055627 0.0000000000
0.4083183442 0.2287948236 0.0067076673
0.5913840169 0.1897255210 0.0390689789
0.7463398413 0.1224207036 0.0277137296
0.8647546347 0.1069913054 0.0278584390
0.9448857941 0.1537943585 0.0543562038
0.9900059539 0.2340653721 0.1258878031
1.0000000000 0.3372846746 0.2444888201
1.0000000000 0.4815054444 0.3995456831
1.0000000000 0.6375892329 0.5707316973
1.0000000000 0.7737686635 0.7259992889
1.0000000000 0.8731891449 0.8432992387
0.0000000000 0.2895133163 0.0000000000
0.0000000000 0.2981150764 0.0000000000
0.0000000000 0.3067391662 0.0000000000
0.0000000000 0.3196106070 0.0000000000
0.0000000000 0.3434371632 0.0000000000
0.0136643437 0.3804253351 0.0000000000
0.3210840587 0.3831748225 0.0000000000
0.5508995668 0.3520279816 0.0036985432
0.7292890124 0.3129427492 0.0454086196
0.8581447663 0.2556913434 0.0594778016
0.9419764742 0.2344649739 0.0710895805
0.9887681137 0.2740227458 0.1329734167
1.0000000000 0.3583273290 0.2476513219
1.0000000000 0.4918360974 0.4005478211
1.0000000000 0.6422705664 0.5708204706
1.0000000000 0.7756379264 0.7256336112
1.0000000000 0.8737397617 0.8430685577
0.0000000000 0.4315927817 0.0000000000
0.0000000000 0.4356582005 0.0000000000
0.0000000000 0.4398838575 0.0000000000
0.0000000000 0.4457974614 0.0000000000
0.0000000000 0.4586786749 0.0000000000
0.0000000000 0.4836434531 0.0000000000
0.0515923292 0.5202316908 0.0000000000
0.4484858095 0.5204799794 0.0000000000
0.6896989130 0.4843956204 0.0010847934
0.8428086225 0.4364434930 0.0330561991
0.9338342924 0.3931959805 0.0882096268
0.9851576121 0.3684249863 0.1523642848
1.0000000000 0.4063520706 0.2560857021
1.0000000000 0.5146638169 0.4033737390
1.0000000000 0.6518761505 0.5712134397
1.0000000000 0.7791017481 0.7253864338
1.0000000000 0.8747920010 0.8427369342
0.0000000000 0.5760119084 0.0000000000
0.0000000000 0.5780578443 0.0000000000
0.0000000000 0.5801002604 0.0000000000
0.0000000000 0.5830843149 0.0000000000
0.0000000000 0.5889454510 0.0000000000
0.0000000000 0.6019180781 0.0000000000
0.0000000000 0.6265454260 0.0000000000
0.1332908672 0.6588402537 0.0000000000
0.5850243896 0.6598063213 0.0098647833
0.8078501900 0.6251733909 0.0091743010
0.9203790650 0.5711318813 0.0280999679
0.9778572570 0.5214275730 0.1241327416
1.0000000000 0.5096956036 0.2697051600
1.0000000000 0.5647694432 0.4107370056
1.0000000000 0.6719815015 0.5723827060
1.0000000000 0.7863030368 0.7250941779
1.0000000000 0.8769840136 0.8423543398
0.0401429640 0.7097347383 0.0000000000
0.0408006191 0.7106702078 0.0000000000
0.0413810589 0.7115318426 0.0000000000
0.0426336971 0.7128045009 0.0000000000
0.0449288286 0.7152999241 0.0000000000
0.0491171138 0.7202744326 0.0000000000
0.0608332720 0.7314568753 0.0007393959
0.0868447622 0.7520304691 0.0039947143
0.2758564520 0.7775836592 0.0241448022
0.7178228579 0.7818547179 0.0686403041
0.8924805636 0.7556135096 0.0640340451
0.9651499003 0.7083739182 0.0866307816
0.9984216860 0.6547296283 0.2083349795
1.0000000000 0.6512267650 0.3963683386
1.0000000000 0.7130872719 0.5730961481
1.0000000000 0.8009434639 0.7246592387
1.0000000000 0.8813195131 0.8417926599
0.2025796171 0.8152093624 0.0405807597
0.2034181658 0.8154988210 0.0405807597
0.2040827877 0.8158412622 0.0408308141
0.2050732125 0.8163159089 0.0415888725
0.2071430694 0.8172119059 0.0421413995
0.2111012208 0.8189443886 0.0435970086
0.2191351699 0.8226265576 0.0469541974
0.2394295943 0.8307953658 0.0547982236
0.2815993750 0.8456110773 0.0716999188
0.4725025718 0.8648863006 0.1127219657
0.8294975625 0.8736069204 0.1727094113
0.9452361115 0.8576991531 0.1719076528
0.9928295647 0.8242116430 0.2080320455
1.0000000000 0.7821183260 0.3423065270
1.0000000000 0.7772352966 0.5423266142
1.0000000000 0.8278480486 0.7183506796
1.0000000000 0.8900863160 0.8405990902
0.4416196997 0.8886392160 0.1431851571
0.4420537785 0.8887388246 0.1432603050
0.4425088349 0.8888406786 0.1435426596
0.4431029693 0.8890151339 0.1438236307
0.4444166651 0.8892869525 0.1443845667
0.4470337871 0.8898284689 0.1455920256
0.4520258186 0.8910178193 0.1480681936
0.4623748989 0.8933832805 0.1532678772
0.4875332301 0.8989688144 0.1660873823
0.5350876542 0.9089641920 0.1924901410
0.6825417982 0.9230557573 0.2470636822
0.9079371574 0.9332942947 0.3071789405
0.9806103079 0.9242858469 0.3109709049
1.0000000000 0.9053289329 0.3676661822
1.0000000000 0.8802425304 0.5159293008
1.0000000000 0.8747414795 0.6961460510
1.0000000000 0.9057178596 0.8351139039
0.6761700758 0.9370258496 0.2946592315
0.6763355070 0.9370819488 0.2947848092
0.6764387610 0.9370921887 0.2949383292
0.6766883436 0.9371512405 0.2951381308
0.6771009852 0.9372394412 0.2956020147
0.6780504353 0.9374470020 0.2964265470
0.6800303032 0.9378013127 0.2981837682
0.6841183886 0.9385936746 0.3015695739
0.6919151308 0.9401940408 0.3081361938
0.7106768835 0.9440614811 0.3254932591
0.7440270709 0.9510565320 0.3591728452
0.8310184997 0.9621619480 0.4170865679
0.9562175636 0.9718721409 0.4677518979
0.9989365540 0.9679444685 0.4791228517
1.0000000000 0.9585563215 0.5450466913
1.0000000000 0.9423270039 0.6840605017
1.0000000000 0.9356264480 0.8229259897
0.8291494112 0.9728795959 0.4725343836
0.8292389073 0.9729179423 0.4727811083
0.8292628684 0.9728986752 0.4727316259
0.8293698531 0.9729179423 0.4730040290
0.8295026037 0.9729729909 0.4731802163
0.8297699097 0.9730568775 0.4735708898
0.8303497056 0.9732378500 0.4745680974
0.8313403250 0.9735492502 0.4760934921
0.8334917683 0.9741719254 0.4795715670
0.8378081081 0.9754793308 0.4862944248
0.8482774347 0.9787664232 0.5039549778
0.8662957870 0.9843665186 0.5377630169
0.9127232361 0.9911589561 0.5905001661
0.9896046080 0.9980196350 0.6345212832
1.0000000000 0.9981664989 0.6497973252
1.0000000000 0.9943055263 0.7083055082
1.0000000000 0.9844674422 0.8151682933
0.9139017228 0.9925532402 0.6480520946
0.9139017228 0.9925532402 0.6480520946
0.9139696776 0.9925532402 0.6481901750
0.9139641914 0.9925532402 0.6482409875
0.9139736676 0.9925532402 0.6482075286
0.9140621960 0.9925532402 0.6485004188
0.9142447389 0.9926245388 0.6489170318
0.9145366954 0.9926245388 0.6495113016
0.9152580766 0.9926789873 0.6511680159
0.9165809518 0.9928071865 0.6545697735
0.9191485852 0.9930060556 0.6612330566
0.9257860291 0.9935220589 0.6782002087
0.9375044858 0.9943328134 0.7090665061
0.9668656446 0.9969038939 0.7525560931
1.0000000000 1.0000000000 0.7791424384
1.0000000000 1.0000000000 0.7879076508
1.0000000000 1.0000000000 0.8300633785
0.9699037225 0.9968999987 0.7956671173
0.9699037225 0.9968999987 0.7956671173
0.9699822177 0.9968999987 0.7958376921
0.9699822177 0.9968999987 0.7958376921
0.9699822177 0.9968999987 0.7958714322
0.9699838998 0.9968999987 0.7958627473
0.9700414006 0.9968999987 0.7961034264
0.9701908531 0.9968999987 0.7963251737
0.9704081479 0.9969270770 0.7970172825
0.9708551498 0.9969542182 0.7980705975
0.9718014436 0.9970373380 0.8004783889
0.9735327232 0.9972219232 0.8049247054
0.9786467481 0.9977441395 0.8172440028
0.9880856786 0.9988192362 0.8392653503
0.9988038523 1.0000000000 0.8666112681
1.0000000000 1.0000000000 0.8764765503
1.0000000000 1.0000000000 0.8812368423
0.9999477821 1.0000000000 0.8932169015
0.9999477821 1.0000000000 0.8932169015
0.9999477821 1.0000000000 0.8932169015
0.9999477821 1.0000000000 0.8932169015
0.9999477821 1.0000000000 0.8932169015
0.9999477821 1.0000000000 0.8932169015
0.9999477821 1.0000000000 0.8932169015
0.9999477821 1.0000000000 0.8936225814
0.9999859266 1.0000000000 0.8937472905
0.9999807812 1.0000000000 0.8941544104
1.0000000000 1.0000000000 0.8947134098
1.0000000000 1.0000000000 0.8959373989
1.0000000000 1.0000000000 0.8984000892
1.0000000000 1.0000000000 0.9050396556
1.0000000000 1.0000000000 0.9162473020
1.0000000000 1.0000000000 0.9307734753
1.0000000000 1.0000000000 0.9363665540
0.0000000000 0.0000000000 0.0000000000
0.0000000000 0.0000000000 0.0000000000
0.0000000000 0.0000000000 0.0000000000
0.0141067552 0.0000000000 0.0000000000
0.1302960953 0.0000000000 0.0000000000
0.2874657234 0.0027983842 0.0027983842
0.4402952960 0.0052282501 0.0052282501
0.5936356075 0.0091244492 0.0082861002
0.7401270721 0.0166219272 0.0118368958
0.8617919912 0.0366711184 0.0183483518
0.9457328330 0.0949573666 0.0461271476
0.9909262054 0.1952470132 0.1232126882
1.0000000000 0.3151505866 0.2440109565
1.0000000000 0.4695569322 0.4003989603
1.0000000000 0.6321184971 0.5720907807
1.0000000000 0.7719707474 0.7269151377
1.0000000000 0.8727176480 0.8437108791
0.0000000000 0.0000000000 0.0000000000
0.0000000000 0.0000000000 0.0000000000
0.0000000000 0.0000000000 0.0000000000
0.0539885310 0.0000000000 0.0000000000
0.1669236178 0.0013808395 0.0013808395
0.3070167559 0.0027983842 0.0027983842
0.4489031689 0.0060172476 0.0052282501
0.5976122365 0.0095686121 0.0082861002
0.7419243703 0.0181513214 0.0114430052
0.8624470638 0.0391969535 0.0179540407
0.9457510630 0.0992968773 0.0468009342
0.9908415674 0.1983554790 0.1234494395
1.0000000000 0.3168005520 0.2440354623
1.0000000000 0.4706526366 0.4004657319
1.0000000000 0.6325812976 0.5720281135
1.0000000000 0.7720463426 0.7268360958
1.0000000000 0.8727497108 0.8436790223
0.0000000000 0.0000000000 0.0000000000
0.0000000000 0.0000000000 0.0000000000
0.0055731472 0.0111965216 0.0000000000
0.0730170851 0.0103087586 0.0014302535
0.1862397471 0.0028313899 0.0013808395
0.3203246402 0.0036986682 0.0030897632
0.4557318827 0.0067079175 0.0052282501
0.6014187209 0.0106045545 0.0082861002
0.7435334446 0.0196308638 0.0114430052
0.8629709093 0.0417218672 0.0179540407
0.9457710471 0.1035493711 0.0474678668
0.9907703719 0.2015241738 0.1234494395
1.0000000000 0.3185543046 0.2440354623
1.0000000000 0.4716140277 0.4003321886
1.0000000000 0.6330116133 0.5719725832
1.0000000000 0.7721636088 0.7268000713
1.0000000000 0.8727497108 0.8436481024
0.0000000000 0.0066088394 0.0000000000
0.0000000000 0.0233279973 0.0000000000
0.0000000000 0.0494264683 0.0000000000
0.0450278435 0.0639471759 0.0000000000
0.1679108568 0.0579551634 0.0115906518
0.3215135435 0.0223437877 0.0046360954
0.4619339062 0.0113935520 0.0052282501
0.6056789033 0.0135638269 0.0076447817
0.7457060641 0.0225905475 0.0111469199
0.8637770274 0.0463006336 0.0179046893
0.9458388303 0.1092049407 0.0481295955
0.9906891568 0.2057287574 0.1240965974
1.0000000000 0.3213129692 0.2441482391
1.0000000000 0.4730957893 0.4002769831
1.0000000000 0.6336066068 0.5718621487
1.0000000000 0.7724136977 0.7267877093
1.0000000000 0.8728150355 0.8436119980
0.0000000000 0.0652850179 0.0000000000
0.0000000000 0.0867068424 0.0000000000
0.0000000000 0.1091466865 0.0000000000
0.0000000000 0.1391375625 0.0000000000
0.1127796853 0.1477901862 0.0000000000
0.2902040816 0.1321024973 0.0149449165
0.4555666357 0.0870127664 0.0188909049
0.6099644823 0.0400575897 0.0099630483
0.7494053825 0.0350530879 0.0110482170
0.8651178693 0.0591303352 0.0196803403
0.9457622140 0.1214332092 0.0503551158
0.9904948006 0.2142838516 0.1254428782
1.0000000000 0.3262052086 0.2447451935
1.0000000000 0.4760541225 0.4002475361
1.0000000000 0.6348713905 0.5717017557
1.0000000000 0.7728585848 0.7266013429
1.0000000000 0.8729462300 0.8435257346
0.0000000000 0.1696454894 0.0000000000
0.0000000000 0.1844948863 0.0000000000
0.0000000000 0.1993707682 0.0000000000
0.0000000000 0.2212248895 0.0000000000
0.0010846058 0.2577826237 0.0000000000
0.2105073238 0.2613354917 0.0000000000
0.4189982731 0.2335683839 0.0074476262
0.5966387218 0.1919672126 0.0393242752
0.7488917883 0.1224716149 0.0283405793
0.8658166425 0.1060460161 0.0286302428
0.9452851008 0.1518432770 0.0558197240
0.9900378176 0.2318995252 0.1281377536
1.0000000000 0.3363482665 0.2461611552
1.0000000000 0.4810882475 0.4007050597
1.0000000000 0.6374074675 0.5714020048
1.0000000000 0.7737285543 0.7263615952
1.0000000000 0.8731665959 0.8434568364
0.0000000000 0.3021371146 0.0000000000
0.0000000000 0.3107591287 0.0000000000
0.0000000000 0.3191639445 0.0000000000
0.0000000000 0.3306921256 0.0000000000
0.0000000000 0.3535341750 0.0000000000
0.0154459368 0.3884086298 0.0000000000
0.3284434752 0.3882443021 0.0000000000
0.5563296229 0.3543231425 0.0040439407
0.7317659076 0.3141273703 0.0458660608
0.8591261873 0.2555409859 0.0603156240
0.9423566038 0.2328356459 0.0726007558
0.9887957357 0.2720802020 0.1352824358
1.0000000000 0.3573732824 0.2493253449
1.0000000000 0.4914703927 0.4018206720
1.0000000000 0.6421925149 0.5715396097
1.0000000000 0.7755987543 0.7259562093
1.0000000000 0.8737199615 0.8431801191
0.0000000000 0.4378349365 0.0000000000
0.0000000000 0.4421924771 0.0000000000
0.0000000000 0.4463851475 0.0000000000
0.0000000000 0.4520508203 0.0000000000
0.0000000000 0.4647901833 0.0000000000
0.0000000000 0.4892013088 0.0000000000
0.0539197086 0.5245948427 0.0000000000
0.4527066396 0.5233576065 0.0000000000
0.6921698466 0.4856272640 0.0010847934
0.8437334762 0.4370395666 0.0338843623
0.9342071143 0.3928720632 0.0904829033
0.9851852248 0.3669516439 0.1545610379
1.0000000000 0.4055343264 0.2577870441
1.0000000000 0.5142941066 0.4044774099
1.0000000000 0.6517591672 0.5719147365
1.0000000000 0.7791041222 0.7256854941
1.0000000000 0.8747920010 0.8428166388
0.0000000000 0.5793471132 0.0000000000
0.0000000000 0.5814794067 0.0000000000
0.0000000000 0.5836015812 0.0000000000
0.0000000000 0.5866323342 0.0000000000
0.0000000000 0.5922112131 0.0000000000
0.0000000000 0.6051704130 0.0000000000
0.0000000000 0.6293226659 0.0000000000
0.1356265740 0.6609095705 0.0000000000
0.5871684602 0.6611506886 0.0102590944
0.8087848821 0.6257690801 0.0092235899
0.9206299776 0.5713180469 0.0298841258
0.9778903979 0.5213762469 0.1275231757
1.0000000000 0.5093275206 0.2718811965
1.0000000000 0.5644337544 0.4117594002
1.0000000000 0.6718567312 0.5730612147
1.0000000000 0.7862683327 0.7254076615
1.0000000000 0.8770019769 0.8424867018
0.0411161974 0.7113389927 0.0000000000
0.0420327364 0.7122030154 0.0000000000
0.0427308171 0.7130377556 0.0000000000
0.0440231164 0.7142747219 0.0000000000
0.0458894444 0.7168145087 0.0000000000
0.0507312944 0.7216850203 0.0000000000
0.0622717055 0.7327503918 0.0013316131
0.0883786983 0.7531090779 0.0044387522
0.2775825214 0.7783809073 0.0249163613
0.7187881026 0.7824551958 0.0691395311
0.8928066614 0.7558777804 0.0645318484
0.9652116374 0.7084331745 0.0884633382
0.9984094015 0.6547731919 0.2108208956
1.0000000000 0.6512852254 0.3981034647
1.0000000000 0.7130635192 0.5738114683
1.0000000000 0.8009523431 0.7250061284
1.0000000000 0.8813195131 0.8418936024
0.2039942512 0.8157811859 0.0408308141
0.2046251187 0.8160928042 0.0408308141
0.2052705237 0.8164253897 0.0415888725
0.2062708046 0.8168571607 0.0415888725
0.2083317349 0.8177218326 0.0425894784
0.2122649875 0.8195278883 0.0443372797
0.2204169566 0.8231480978 0.0473768609
0.2407594162 0.8313023482 0.0554484020
0.2827655685 0.8460268692 0.0719319216
0.4734949933 0.8651515704 0.1130973535
0.8298635757 0.8738183704 0.1730177800
0.9453648494 0.8578002888 0.1722042383
0.9928766134 0.8242399548 0.2091871735
1.0000000000 0.7821540880 0.3436741175
1.0000000000 0.7772986466 0.5432698950
1.0000000000 0.8278714639 0.7187164838
1.0000000000 0.8900683528 0.8407106516
0.4423854117 0.8888053135 0.1434678262
0.4428401550 0.8889077912 0.1437300575
0.4432939590 0.8890146973 0.1438236307
0.4439375628 0.8891672600 0.1441042874
0.4452475641 0.8894645888 0.1448685942
0.4478078275 0.8900315532 0.1460167523
0.4527943915 0.8911723148 0.1485215331
0.4632059572 0.8936026058 0.1535400146
0.4882579121 0.8991377244 0.1665221696
0.5357127473 0.9090688058 0.1927506264
0.6829052474 0.9231808247 0.2474669031
0.9080551120 0.9333532452 0.3073416798
0.9806649722 0.9243454177 0.3110898876
1.0000000000 0.9053270470 0.3681912059
1.0000000000 0.8802521981 0.5166676392
1.0000000000 0.8747795889 0.6965160448
1.0000000000 0.9057272889 0.8352668167
0.6764358894 0.9370940733 0.2949383292
0.6766332207 0.9371475968 0.2950557559
0.6767361626 0.9371457750 0.2951907594
0.6769436695 0.9372011832 0.2954071007
0.6774347816 0.9373143867 0.2957888169
0.6783753047 0.9374782240 0.2967106513
0.6803597297 0.9378505644 0.2984527019
0.6843868241 0.9386363301 0.3017595200
0.6922464377 0.9402749543 0.3083951600
0.7109404604 0.9441323840 0.3257199820
0.7442107881 0.9510939723 0.3593720202
0.8311191984 0.9622181991 0.4170972589
0.9562508082 0.9718511221 0.4676013889
0.9989399309 0.9679321492 0.4793039747
1.0000000000 0.9585832906 0.5455349344
1.0000000000 0.9423270039 0.6843196601
1.0000000000 0.9356879498 0.8230404926
0.8292650467 0.9728969237 0.4727271275
0.8292857092 0.9728951721 0.4728249677
0.8293437137 0.9729592287 0.4728504586
0.8294277953 0.9729626693 0.4730192111
0.8295794658 0.9730045188 0.4733412840
0.8298703595 0.9730743930 0.4737800653
0.8303859272 0.9732098252 0.4745006214
0.8314440600 0.9735492502 0.4763471519
0.8335731459 0.9741771801 0.4797699964
0.8379055603 0.9755259345 0.4863876416
0.8483529098 0.9787973881 0.5042004655
0.8663810627 0.9844105944 0.5380960096
0.9127464280 0.9911589561 0.5908268369
0.9896482961 0.9980196350 0.6342810784
1.0000000000 0.9981664989 0.6497973252
1.0000000000 0.9943055263 0.7083701649
1.0000000000 0.9844851602 0.8154331909
0.9139772212 0.9925532402 0.6481991015
0.9139847648 0.9925532402 0.6482080280
0.9139568348 0.9925532402 0.6482524734
0.9139549645 0.9925532402 0.6482884292
0.9139921214 0.9925532402 0.6482411124
0.9140826448 0.9925532402 0.6485044138
0.9142447389 0.9926245388 0.6489410024
0.9146198621 0.9926245388 0.6496847760
0.9152921164 0.9926993584 0.6513222015
0.9165959143 0.9928071865 0.6545312583
0.9191679118 0.9930400073 0.6613262463
0.9257933067 0.9935186637 0.6782154018
0.9375044858 0.9943328134 0.7090665061
0.9668656446 0.9969038939 0.7525923674
1.0000000000 1.0000000000 0.7791424384
1.0000000000 1.0000000000 0.7879076508
1.0000000000 1.0000000000 0.8300633785
0.9699822177 0.9968999987 0.7958376921
0.9699822177 0.9968999987 0.7958376921
0.9699822177 0.9968999987 0.7958376921
0.9699822177 0.9968999987 0.7958691829
0.9699838998 0.9968999987 0.7958627473
0.9700205309 0.9968999987 0.7960002693
0.9700727987 0.9968999987 0.7960213256
0.9701825052 0.9968999987 0.7963539777
0.9704238470 0.9969270770 0.7969785439
0.9708568951 0.9969542182 0.7980921537
0.9718014436 0.9970882278 0.8005683625
0.9735327232 0.9972219232 0.8049471988
0.9786467481 0.9977441395 0.8172440028
0.9881142886 0.9988192362 0.8391317390
0.9988038523 1.0000000000 0.8666112681
1.0000000000 1.0000000000 0.8764765503
1.0000000000 1.0000000000 0.8816257338
0.9999477821 1.0000000000 0.8932169015
0.9999477821 1.0000000000 0.8932169015
0.9999477821 1.0000000000 0.8932169015
0.9999477821 1.0000000000 0.8932169015
0.9999477821 1.0000000000 0.8932169015
0.9999477821 1.0000000000 0.8932169015
0.9999477821 1.0000000000 0.8934704515
0.9999477821 1.0000000000 0.8936225814
0.9999807812 1.0000000000 0.8937317019
1.0000000000 1.0000000000 0.8940607534
1.0000000000 1.0000000000 0.8947134098
1.0000000000 1.0000000000 0.8959373989
1.0000000000 1.0000000000 0.8984000892
1.0000000000 1.0000000000 0.9050396556
1.0000000000 1.0000000000 0.9162473020
1.0000000000 1.0000000000 0.9307734753
1.0000000000 1.0000000000 0.9363665540
0.0000000000 0.0000000000 0.0000000000
0.0000000000 0.0000000000 0.0000000000
0.0013809646 0.0000000000 0.0006900444
0.0419017847 0.0000000000 0.0077929611
0.1509666965 0.0007886222 0.0060171225
0.2996535122 0.0027983842 0.0052283752
0.4469469964 0.0052282501 0.0067079175
0.5981534464 0.0087789891 0.0090257463
0.7424710775 0.0158820309 0.0129225709
0.8627557819 0.0355322632 0.0203213460
0.9461819433 0.0914227471 0.0484123231
0.9909211022 0.1923429893 0.1259150676
1.0000000000 0.3137068748 0.2460394387
1.0000000000 0.4691337325 0.4018348641
1.0000000000 0.6320027030 0.5728398448
1.0000000000 0.7718686626 0.7272255610
1.0000000000 0.8726855852 0.8438150073
0.0000000000 0.0000000000 0.0000000000
0.0000000000 0.0000000000 0.0026997843
0.0178058613 0.0000000000 0.0148960029
0.0796993762 0.0000000000 0.0118367710
0.1863904543 0.0013808395 0.0052282501
0.3216206664 0.0031564905 0.0045374551
0.4576971817 0.0060172476 0.0062144032
0.6027192635 0.0091244492 0.0090257463
0.7442837742 0.0173616984 0.0126215378
0.8633470852 0.0377468984 0.0198773082
0.9461806278 0.0957428861 0.0485063753
0.9908617312 0.1954463425 0.1260611456
1.0000000000 0.3153804911 0.2460293113
1.0000000000 0.4701003761 0.4017423341
