bundles/resolve-cinematic-luts/Phantom Luts/S5ii LUTs/Standard (No WB Offset)/S5ii IceBlue V-Log Legacy.cube
TITLE "Generated by Resolve"
LUT_3D_SIZE 5
0.0413977 0.0534676 0.0553597
0.106508 0.0568246 0.0539864
0.462547 0.0551156 0.0731212
0.634287 0.082887 0.161822
0.640513 0.0803235 0.18558
0.0478065 0.110399 0.0791028
0.0903792 0.101442 0.0648814
0.457221 0.0519722 0.0660258
0.619715 0.0785229 0.145525
0.622385 0.0769818 0.155932
0.0453346 0.485954 0.209964
0.080705 0.49601 0.165209
0.493324 0.511528 0.06598
0.862959 0.479942 0.248753
0.869551 0.505211 0.255604
0.268666 0.873884 0.651957
0.265965 0.87393 0.641978
0.253086 0.871351 0.588891
0.949813 0.955856 0.567193
0.98529 0.959335 0.597406
0.271778 0.875135 0.660578
0.266194 0.874128 0.647181
0.254643 0.872663 0.557519
0.967865 0.957336 0.577218
0.981567 0.96025 0.608789
0.0393378 0.0586862 0.101732
0.114443 0.0599222 0.105501
0.497459 0.062501 0.138399
0.650889 0.0865034 0.201892
0.656382 0.0856489 0.221622
0.0484016 0.104341 0.111635
0.076936 0.0958724 0.108537
0.480812 0.0638743 0.107546
0.638773 0.0826123 0.175357
0.642496 0.0813764 0.189456
0.0391089 0.484504 0.263142
0.0390173 0.497505 0.230762
0.486656 0.512062 0.0653697
0.862699 0.479515 0.248676
0.869612 0.504814 0.256184
0.273152 0.874418 0.663813
0.269764 0.874571 0.654871
0.25301 0.871015 0.590082
0.947784 0.955367 0.564721
0.984146 0.958297 0.601556
0.277836 0.875715 0.676616
0.272282 0.874983 0.665095
0.251896 0.871244 0.573098
0.956939 0.956024 0.57116
0.980957 0.960311 0.610101
0.0146029 0.0943618 0.371633
0.0687572 0.0762188 0.425971
0.539712 0.0798657 0.388693
0.752605 0.150683 0.393698
0.752941 0.147173 0.435706
0.0161746 0.111666 0.364889
0.0127108 0.0991989 0.39028
0.545693 0.0824292 0.405219
0.753185 0.150668 0.387274
0.754101 0.147173 0.429786
0.0534066 0.478614 0.446693
0.0548714 0.491676 0.461707
0.449958 0.516213 0.519203
0.926818 0.43241 0.470222
0.939956 0.444129 0.51548
0.299306 0.877928 0.731792
0.305028 0.876646 0.730571
0.282734 0.875486 0.686046
0.944137 0.959503 0.683711
0.989609 0.962295 0.754162
0.311513 0.882582 0.774609
0.318013 0.880293 0.770687
0.295354 0.878767 0.717388
0.948379 0.970474 0.788708
0.987549 0.975814 0.816037
0.0330968 0.30782 0.635813
0.0328374 0.306325 0.637659
0.345968 0.342748 0.852094
0.88484 0.384497 0.886671
0.882139 0.385122 0.889174
0.0340276 0.312154 0.638224
0.0336614 0.313603 0.638804
0.324498 0.367422 0.852445
0.888426 0.383734 0.882704
0.882506 0.385031 0.888808
0.0614481 0.476341 0.663905
0.065568 0.487343 0.675822
0.150484 0.518639 0.769787
0.957153 0.491066 0.933318
0.956298 0.513771 0.950256
0.337804 0.888411 0.868269
0.34902 0.890532 0.869429
0.332784 0.878828 0.854795
0.929458 0.946227 0.950668
0.984848 0.953719 0.956756
0.333547 0.890257 0.883375
0.344259 0.888762 0.880186
0.342626 0.89247 0.872587
0.932494 0.978729 0.972274
0.99826 0.984833 0.984009
0.0340124 0.313237 0.638651
0.0342565 0.31458 0.641733
0.348989 0.366232 0.863096
0.884764 0.384527 0.886671
0.88426 0.384649 0.88687
0.0344549 0.312734 0.638895
0.0336614 0.313603 0.638804
0.336751 0.367163 0.858427
0.887419 0.383948 0.883803
0.882445 0.385061 0.888838
0.0826886 0.518654 0.711406
0.0829786 0.52314 0.712062
0.144381 0.526253 0.767987
0.961196 0.509285 0.953307
0.956481 0.526528 0.959106
0.332296 0.891249 0.883223
0.343664 0.888914 0.880308
0.326604 0.874067 0.870909
0.895506 0.938415 0.971984
0.984604 0.952605 0.976394
0.327474 0.892332 0.884535
0.343725 0.888899 0.880293
0.344366 0.888731 0.88014
0.88838 0.974212 0.976806
0.995102 0.986374 0.986435
