bundles/resolve-cinematic-luts/Phantom Luts/S5ii LUTs/Standard (No WB Offset)/S5ii Utopia V-Log.cube
TITLE "Generated by Resolve"
LUT_3D_SIZE 5
0 0.0270237 0.0350347
0.129778 0.0189822 0.0272984
0.509544 0.0136873 0.0536049
0.699535 0.0373541 0.171267
0.704799 0.0366369 0.176776
0 0.141543 0.0343023
0.102586 0.12314 0.029984
0.49247 0.00747692 0.0309453
0.683238 0.031632 0.133486
0.685267 0.0310063 0.133425
0 0.610117 0.214221
0.0495308 0.617868 0.12372
0.60119 0.566842 0.0661021
0.918578 0.492943 0.194522
0.916167 0.454658 0.191211
0.0673838 0.973098 0.673793
0.0611734 0.976333 0.658534
0.0540322 0.988617 0.584588
0.988037 0.957778 0.553185
0.999969 0.94844 0.534524
0.0619211 0.972885 0.686213
0.065507 0.97377 0.671885
0.0584726 0.984298 0.597925
0.948882 0.969757 0.610285
0.999496 0.968154 0.640696
0 0.0370336 0.109071
0.134752 0.0323796 0.11902
0.542428 0.0300298 0.149722
0.71458 0.0501259 0.225345
0.719966 0.0513466 0.231708
0 0.123919 0.128176
0.0777752 0.111284 0.120287
0.514519 0.0300145 0.0917678
0.702708 0.0379797 0.179675
0.705592 0.0379187 0.182818
0 0.59086 0.298192
0 0.597879 0.216983
0.595834 0.561776 0.0639963
0.918212 0.480858 0.19408
0.914626 0.443839 0.190372
0.0677195 0.971328 0.688212
0.0628977 0.974044 0.674617
0.053254 0.985382 0.594614
0.985504 0.955352 0.542092
0.999969 0.944701 0.520012
0.0635386 0.971008 0.700648
0.0681468 0.971328 0.687373
0.0585184 0.983551 0.600076
0.942809 0.96994 0.608911
0.999466 0.968185 0.640757
0 0.0988785 0.411032
0.0322881 0.0670176 0.485145
0.559503 0.0805524 0.445838
0.761074 0.103334 0.477348
0.763317 0.10016 0.484672
0 0.13196 0.389731
0 0.0982376 0.416037
0.5467 0.0772259 0.435248
0.762036 0.109346 0.456458
0.764111 0.1075 0.462562
0 0.551003 0.523308
0 0.545266 0.517678
0.541527 0.558694 0.54844
0.923415 0.439841 0.479301
0.912749 0.398917 0.477501
0.0742351 0.963333 0.758083
0.0677501 0.965484 0.749844
0.0639963 0.972229 0.684184
0.972519 0.949142 0.638041
0.999664 0.936477 0.63418
0.0707866 0.963607 0.772778
0.0681621 0.96492 0.763165
0.0700389 0.969955 0.696391
0.926497 0.977157 0.709072
0.998154 0.975235 0.747845
0 0.343984 0.697932
0 0.341283 0.698024
0.447089 0.354101 0.899199
0.884321 0.406958 0.886641
0.886122 0.420417 0.897978
0 0.336477 0.6925
0 0.342519 0.697765
0.395575 0.357107 0.896666
0.881987 0.394308 0.875669
0.883818 0.408225 0.888579
0 0.547845 0.731426
0 0.541222 0.736034
0.222324 0.574228 0.836088
0.918303 0.480003 0.87216
0.90782 0.454719 0.863294
0.0758373 0.937285 0.901518
0.0636301 0.937026 0.901823
0.0579995 0.920562 0.884169
0.930922 0.929625 0.922347
0.979416 0.922896 0.913191
0.0785992 0.949264 0.926314
0.0697948 0.951766 0.924758
0.0762188 0.95407 0.895155
0.864057 0.986175 0.934356
0.991852 0.988785 0.974151
0 0.397986 0.720195
0 0.399969 0.725643
0.393484 0.443809 0.935622
0.889158 0.435676 0.907591
0.888869 0.43566 0.907988
0 0.397772 0.718898
0 0.398154 0.721035
0.339834 0.443214 0.919509
0.88983 0.435691 0.906676
0.888594 0.435645 0.908385
0 0.590753 0.798413
0 0.582437 0.796246
0.0720836 0.597574 0.830091
0.923369 0.525963 0.936416
0.917021 0.509575 0.933181
0.0453346 0.924086 0.937301
0.0364233 0.921111 0.938262
0.0175174 0.894026 0.930007
0.865644 0.920119 0.971481
0.977737 0.912352 0.974075
0.0633249 0.945998 0.945708
0.0560006 0.947524 0.948257
0.0560006 0.947524 0.948257
0.746242 0.98027 0.979553
0.995041 0.991958 0.99057
