bundles/resolve-cinematic-luts/Phantom Luts/S5ii LUTs/Standard (No WB Offset)/S5ii Tungsten V-Log Legacy.cube
TITLE "Generated by Resolve"
LUT_3D_SIZE 9
0.0306401 0.0310674 0.0375219
0.0455329 0.0321813 0.0366674
0.116075 0.0383001 0.0411231
0.26743 0.0379339 0.0602579
0.488258 0.0406806 0.105455
0.675959 0.0655528 0.202213
0.677485 0.0663157 0.206546
0.678264 0.0666972 0.208804
0.680095 0.067689 0.21265
0.0354314 0.0490272 0.0473335
0.0379644 0.0432746 0.0409247
0.0902876 0.0460822 0.0417792
0.251057 0.0351568 0.0521096
0.479179 0.0344549 0.0935225
0.660655 0.0621195 0.181933
0.66717 0.0631876 0.188678
0.671824 0.0641794 0.193942
0.674556 0.0652628 0.198352
0.0429694 0.114321 0.0671855
0.0413977 0.11017 0.0561074
0.102296 0.103334 0.0488441
0.275837 0.0868086 0.0663615
0.47042 0.0348669 0.0915847
0.659648 0.0620432 0.181704
0.659648 0.0620432 0.181704
0.659648 0.0620432 0.181704
0.660624 0.0625162 0.183322
0.0238041 0.246021 0.08925
0.032929 0.243015 0.0647593
0.0485695 0.236149 0.037232
0.268559 0.241169 0.0225681
0.58233 0.219516 0.108934
0.665415 0.0448768 0.140719
0.643229 0.0555886 0.166766
0.65713 0.0617227 0.179797
0.660716 0.0620737 0.182513
0 0.433234 0.153536
0 0.433707 0.133959
0.0268711 0.432761 0.0946365
0.0738079 0.421622 0.0179294
0.525582 0.464317 0.00418097
0.885237 0.502113 0.205417
0.912795 0.445548 0.231968
0.910124 0.433387 0.231174
0.913375 0.454047 0.231342
0.0373541 0.701335 0.392676
0.0372778 0.704601 0.389685
0.0352636 0.706691 0.377646
0.0439307 0.704189 0.314244
0.218723 0.684932 0.115984
0.791959 0.733074 0.18114
0.95642 0.7664 0.287541
0.955016 0.761517 0.284459
0.956527 0.769635 0.288945
0.128115 0.808927 0.563973
0.126925 0.808469 0.560983
0.124041 0.807065 0.55285
0.115038 0.802502 0.526482
0.103075 0.796521 0.484062
0.53431 0.802945 0.345937
0.943236 0.893416 0.511086
0.965652 0.897887 0.518853
0.965637 0.899641 0.524742
0.132052 0.811093 0.574868
0.130037 0.809918 0.569314
0.126864 0.808286 0.560647
0.117372 0.803479 0.533318
0.102861 0.796033 0.483848
0.489479 0.796368 0.333959
0.906203 0.884978 0.494636
0.96437 0.901549 0.539879
0.964019 0.902174 0.541146
0.133852 0.812055 0.579797
0.131167 0.810681 0.572473
0.127321 0.808576 0.56199
0.115633 0.802594 0.52813
0.101808 0.796002 0.477958
0.543481 0.804547 0.350393
0.91725 0.888151 0.502556
0.964218 0.901839 0.540444
0.963897 0.902373 0.541527
0.0297551 0.0328985 0.0493477
0.0447089 0.0329595 0.0495003
0.11632 0.0420081 0.0675517
0.28455 0.0472419 0.0962387
0.511742 0.0530404 0.143816
0.681315 0.0682536 0.217868
0.682628 0.0691081 0.222141
0.683406 0.0695811 0.224475
0.684703 0.0702831 0.227146
0.0352331 0.0453498 0.0509957
0.0323949 0.0374456 0.0444495
0.0952621 0.0400549 0.046067
0.252567 0.0417182 0.0658579
0.481376 0.0422827 0.106157
0.677409 0.0662852 0.205127
0.678904 0.0670481 0.209857
0.679637 0.0674601 0.211994
0.68098 0.0681315 0.214572
0.047303 0.109117 0.0873884
0.0435035 0.10544 0.0732891
0.0927443 0.0990463 0.0508736
0.26862 0.0755474 0.0635843
0.471077 0.0358282 0.0939345
0.663478 0.0627146 0.185336
0.668696 0.0636759 0.190021
0.670497 0.0640116 0.19237
0.671733 0.0645457 0.194583
0.021149 0.244343 0.119722
0.0208896 0.24181 0.0999313
0.0411536 0.234241 0.0487526
0.264591 0.237995 0.023682
0.582818 0.20885 0.109697
0.664576 0.044007 0.14432
0.649256 0.0598306 0.17377
0.659922 0.0622263 0.182193
0.660258 0.0613107 0.181399
0 0.433494 0.181704
0 0.433982 0.163821
0.00204471 0.43212 0.125994
0.0606394 0.423911 0.0373388
0.52459 0.463355 0.00401312
0.887816 0.499123 0.207324
0.912673 0.445884 0.231739
0.910124 0.434012 0.231052
0.913436 0.454749 0.231327
0.0406348 0.701366 0.405341
0.0406043 0.704982 0.403006
0.0384375 0.707485 0.391943
0.0370794 0.705242 0.335805
0.200717 0.686473 0.128405
0.792477 0.73373 0.181903
0.956329 0.765942 0.287343
0.954589 0.760281 0.283589
0.956374 0.769162 0.288396
0.130587 0.810178 0.57084
0.129427 0.809735 0.567758
0.126574 0.808331 0.560006
0.117617 0.8038 0.534249
0.103227 0.796338 0.485771
0.528557 0.802182 0.34461
0.942779 0.893278 0.510201
0.965881 0.897978 0.517769
0.965728 0.898589 0.519493
0.134524 0.812299 0.581552
0.132555 0.8112 0.576059
0.129366 0.809552 0.567422
0.119905 0.804807 0.54107
0.10309 0.796124 0.48481
0.482536 0.795514 0.331899
0.903914 0.884276 0.493324
0.96437 0.901549 0.539879
0.964019 0.902174 0.541146
0.136248 0.813184 0.586069
0.133532 0.81181 0.57882
0.129809 0.809827 0.568719
0.118257 0.803937 0.535836
0.102617 0.796246 0.48159
0.533776 0.80296 0.347478
0.9131 0.886931 0.500008
0.964218 0.901839 0.540444
0.963897 0.902373 0.541527
0.026627 0.0411688 0.0924392
0.054963 0.0379797 0.0980697
0.118624 0.0467994 0.0977798
0.289006 0.0561685 0.122972
0.522972 0.0570993 0.172961
0.68748 0.072343 0.235523
0.690639 0.0738079 0.240696
0.692317 0.0746319 0.243
0.694286 0.0756237 0.246525
0.0330968 0.0507362 0.0746777
0.0289006 0.0448768 0.0839094
0.0991379 0.0440375 0.0880751
0.271 0.05066 0.106493
0.511757 0.0531777 0.155856
0.682994 0.0693523 0.223301
0.684428 0.0702678 0.227161
0.685176 0.0707408 0.229206
0.686595 0.071519 0.232425
0.0488441 0.106371 0.108003
0.0478065 0.102052 0.105089
0.0822003 0.0969711 0.102785
0.259663 0.0793469 0.0945296
0.490486 0.0570382 0.134874
0.678981 0.0670939 0.210452
0.679454 0.0673533 0.21178
0.679744 0.0675212 0.212696
0.680903 0.0680705 0.215351
0.0340734 0.241505 0.156451
0.0293431 0.239902 0.142916
0.023331 0.234974 0.107988
0.260731 0.2392 0.0654459
0.583947 0.199832 0.129213
0.668147 0.0472267 0.155474
0.673198 0.0646677 0.195621
0.675807 0.065507 0.200778
0.672587 0.0638743 0.197498
0 0.432883 0.214969
0 0.433967 0.199985
0 0.432197 0.166598
0.049836 0.42385 0.0524605
0.523186 0.462211 0.00383001
0.888441 0.497337 0.207828
0.912276 0.444465 0.23151
0.909545 0.431556 0.230884
0.913252 0.453346 0.231495
0.0441749 0.700984 0.419348
0.0442664 0.705104 0.417929
0.0425116 0.707942 0.408209
0.0327916 0.705028 0.358526
0.179141 0.68838 0.144091
0.792218 0.733593 0.18172
0.955901 0.764477 0.286412
0.954177 0.759075 0.282643
0.956024 0.767651 0.287312
0.133639 0.811734 0.579004
0.132509 0.811322 0.576089
0.129732 0.809918 0.568612
0.120928 0.805508 0.544015
0.103273 0.796353 0.485954
0.518593 0.800748 0.342107
0.941802 0.89276 0.507271
0.966217 0.897108 0.512169
0.965789 0.896986 0.511635
0.137652 0.813779 0.589761
0.135882 0.812924 0.585031
0.132677 0.811215 0.576394
0.123384 0.806561 0.55079
0.10338 0.79617 0.486503
0.469886 0.793942 0.328466
0.899825 0.883177 0.491203
0.96437 0.901549 0.539879
0.964019 0.902174 0.541146
0.140002 0.814969 0.595728
0.137469 0.813748 0.589319
0.133593 0.811734 0.578912
0.122377 0.806027 0.548104
0.103426 0.796155 0.486915
0.518654 0.800595 0.342336
0.90695 0.885374 0.496132
0.964218 0.901839 0.540444
0.963882 0.902403 0.541604
0.0159304 0.0586252 0.18735
0.0392615 0.054612 0.201312
0.153964 0.0467994 0.204166
0.290486 0.0624094 0.206317
0.532326 0.0834058 0.239643
0.730617 0.0978561 0.296574
0.733471 0.100008 0.300664
0.73463 0.100847 0.302525
0.737423 0.102861 0.307546
0.0201267 0.0654002 0.170001
0.0165408 0.0581674 0.183551
0.0930343 0.0489509 0.21677
0.275349 0.0614633 0.196735
0.523888 0.0771954 0.223102
0.721462 0.09131 0.283268
0.724453 0.0933242 0.287358
0.725597 0.0941024 0.289265
0.728878 0.0962844 0.294759
0.0294194 0.115175 0.176669
0.0265202 0.107012 0.183703
0.0443427 0.0915694 0.200824
0.258656 0.0711986 0.192554
0.511696 0.0703746 0.206683
0.708614 0.0831922 0.264775
0.711284 0.0848096 0.268559
0.712749 0.0856641 0.270558
0.715831 0.08748 0.275792
0.0470283 0.237797 0.227192
0.047013 0.236164 0.226322
0.0474403 0.230869 0.221027
0.239307 0.244129 0.243076
0.564294 0.211505 0.219806
0.722469 0.0847486 0.250935
0.698268 0.0775616 0.250263
0.699199 0.0780652 0.251774
0.703258 0.0797131 0.256352
0.0107881 0.436301 0.295384
0.00636301 0.437583 0.289113
0 0.436027 0.270466
0 0.424247 0.178866
0.517632 0.474998 0.143252
0.91812 0.486275 0.286076
0.928908 0.437995 0.278477
0.923949 0.424689 0.275364
0.932067 0.44387 0.28632
0.0540627 0.698421 0.451682
0.0545663 0.703243 0.452277
0.0527962 0.706477 0.445762
0.0408637 0.703212 0.406577
0.145098 0.685344 0.180606
0.787549 0.730846 0.191546
0.959716 0.762661 0.295842
0.957763 0.757076 0.291096
0.96173 0.766293 0.299794
0.141344 0.815427 0.59913
0.140688 0.815305 0.597635
0.138231 0.814054 0.591272
0.130022 0.810056 0.569421
0.104097 0.79678 0.488777
0.498619 0.797818 0.336461
0.937285 0.889845 0.49276
0.966217 0.893004 0.491249
0.965911 0.893431 0.494301
0.146029 0.817868 0.610834
0.144778 0.817319 0.607767
0.141634 0.81561 0.599725
0.132815 0.811292 0.576822
0.106752 0.797986 0.499138
0.442145 0.79115 0.323339
0.889433 0.88014 0.484855
0.96437 0.901549 0.539879
0.964034 0.902251 0.541543
0.15024 0.820066 0.621271
0.148074 0.818982 0.615976
0.144686 0.817227 0.607462
0.133837 0.811795 0.579538
0.105959 0.797574 0.496315
0.4916 0.797024 0.337346
0.893095 0.881697 0.489387
0.964248 0.901946 0.541161
0.963928 0.902464 0.542123
0 0.0929274 0.355871
0 0.0907607 0.365866
0.0713664 0.0757 0.415778
0.339559 0.054078 0.404593
0.532876 0.0848859 0.404517
0.776059 0.143496 0.438239
0.776028 0.143267 0.441886
0.776074 0.143282 0.443153
0.776761 0.143725 0.451392
0 0.0960555 0.350484
0 0.0925154 0.354528
0.0220798 0.0861524 0.38378
0.311192 0.0511482 0.414588
0.525505 0.0840925 0.399283
0.775906 0.143526 0.430259
0.775906 0.143404 0.433295
0.776074 0.143511 0.434638
0.776761 0.144213 0.443809
0 0.114214 0.337377
0 0.10457 0.343496
0 0.0927443 0.35494
0.250935 0.0515755 0.432242
0.514961 0.0826123 0.391165
0.775723 0.143389 0.418418
0.775479 0.14316 0.420539
0.77554 0.143236 0.422339
0.77644 0.144167 0.432746
0 0.246891 0.366003
0 0.241794 0.371603
0 0.229755 0.378882
0.14435 0.217487 0.442298
0.526925 0.165072 0.423346
0.765774 0.140063 0.398108
0.774777 0.142077 0.400793
0.775006 0.142412 0.403021
0.776089 0.143877 0.4159
0.0431678 0.454673 0.431464
0.0426947 0.456901 0.434333
0.0426642 0.456901 0.434119
0.0412451 0.449134 0.425772
0.500603 0.503731 0.492027
0.92398 0.488334 0.479789
0.957839 0.40911 0.486839
0.95053 0.390387 0.486702
0.958206 0.411276 0.502876
0.0856947 0.701228 0.538155
0.0870985 0.7066 0.542153
0.0868086 0.709728 0.540993
0.0787976 0.705303 0.519829
0.0807202 0.689281 0.423453
0.774823 0.743877 0.433097
0.981643 0.779324 0.515541
0.981399 0.772381 0.514168
0.981994 0.783215 0.526741
0.164431 0.827024 0.654658
0.164675 0.827314 0.65539
0.163104 0.826551 0.651713
0.15642 0.823102 0.635966
0.134249 0.812268 0.580606
0.459876 0.816556 0.46894
0.937789 0.903868 0.588235
0.977447 0.907485 0.599603
0.977691 0.909926 0.611612
0.170718 0.830381 0.669123
0.170367 0.830259 0.66836
0.168322 0.829236 0.663691
0.160525 0.825101 0.645624
0.136812 0.813199 0.587335
0.378943 0.804562 0.452934
0.891188 0.905409 0.61442
0.974411 0.929061 0.67068
0.974563 0.931075 0.677928
0.179019 0.83476 0.6878
0.177707 0.834104 0.684794
0.175036 0.832715 0.678813
0.165469 0.827634 0.656977
0.138918 0.814221 0.59266
0.436957 0.816571 0.486809
0.897398 0.911269 0.636515
0.975509 0.932174 0.68397
0.974914 0.932082 0.68246
0 0.183139 0.547601
0 0.183154 0.547692
0 0.180392 0.557778
0.177081 0.150759 0.667765
0.582086 0.122148 0.649851
0.786328 0.144305 0.627497
0.791608 0.151415 0.641138
0.793042 0.153704 0.644511
0.797986 0.161334 0.658701
0 0.182406 0.546227
0 0.182727 0.54696
0 0.183322 0.547173
0.138109 0.162844 0.653346
0.570138 0.11986 0.654261
0.784848 0.142412 0.623819
0.788983 0.147906 0.634333
0.790204 0.149645 0.637858
0.795819 0.158389 0.653605
0 0.182361 0.536049
0 0.181918 0.543709
0 0.181857 0.544976
0.0832227 0.174517 0.623728
0.550439 0.116838 0.660319
0.782025 0.141192 0.619089
0.785473 0.143114 0.62443
0.787137 0.145403 0.628687
0.79321 0.154635 0.645808
0 0.243915 0.539803
0 0.239292 0.545495
0 0.230015 0.551736
0 0.219409 0.576288
0.489937 0.119722 0.676478
0.772381 0.136385 0.607034
0.775586 0.129702 0.598901
0.777356 0.131914 0.603128
0.78349 0.140368 0.62005
0.0117342 0.484657 0.590814
0.0120851 0.486442 0.597147
0.0121309 0.484794 0.602823
0.0102846 0.470634 0.614816
0.419501 0.513909 0.771756
0.870619 0.439155 0.730571
0.903227 0.373465 0.711971
0.897841 0.360891 0.70808
0.90515 0.383047 0.727153
0.134707 0.718914 0.685725
0.138033 0.725093 0.692485
0.139895 0.728725 0.696056
0.138659 0.726635 0.693935
0.148653 0.717296 0.684993
0.7664 0.771969 0.758144
0.989563 0.774105 0.747234
0.993072 0.761837 0.752865
0.992538 0.770184 0.766354
0.213779 0.853178 0.760494
0.215198 0.854047 0.763348
0.214801 0.853849 0.7626
0.209979 0.851179 0.753368
0.193164 0.842115 0.719203
0.508629 0.853498 0.692546
0.950027 0.938277 0.800397
0.991516 0.946166 0.828046
0.991531 0.948302 0.837476
0.224323 0.858778 0.780453
0.224933 0.859251 0.781643
0.223636 0.858549 0.779309
0.216938 0.854963 0.766735
0.195727 0.843549 0.72433
0.358877 0.846036 0.678752
0.904921 0.960555 0.853742
0.993194 0.979309 0.902007
0.993423 0.980667 0.907362
0.237797 0.866041 0.805112
0.236805 0.865553 0.803342
0.234577 0.864363 0.79939
0.225635 0.859617 0.782956
0.200793 0.846265 0.734722
0.430045 0.85655 0.707378
0.909178 0.96408 0.868482
0.991821 0.980331 0.906569
0.993271 0.981262 0.909117
0.00335698 0.337209 0.693187
0.00335698 0.337194 0.693263
0.00361639 0.334874 0.69456
0.0327611 0.35642 0.726131
0.440726 0.385183 0.959533
0.888243 0.351461 0.898497
0.893645 0.370138 0.91516
0.893736 0.369955 0.914748
0.893462 0.37052 0.915953
0.00267033 0.335668 0.692088
0.00271611 0.335775 0.692271
0.00285344 0.335637 0.692592
0.0134127 0.349737 0.70837
0.422797 0.386633 0.954253
0.883894 0.348058 0.897261
0.893675 0.370062 0.915007
0.893629 0.370169 0.915236
0.89337 0.370687 0.916335
0.00134279 0.332158 0.689754
0.00209049 0.333867 0.691249
0.00207523 0.333852 0.691218
0.00697337 0.344503 0.70013
0.396963 0.38851 0.944595
0.879332 0.345754 0.897078
0.893706 0.366125 0.910842
0.893858 0.369711 0.914229
0.893492 0.370459 0.915831
0 0.315145 0.667231
0 0.320439 0.673655
0 0.330556 0.683436
0.00238041 0.333577 0.69192
0.325261 0.389807 0.910033
0.865019 0.340276 0.89868
0.889891 0.349584 0.893721
0.8907 0.353323 0.897734
0.892348 0.36376 0.909178
0.0362402 0.499397 0.709255
0.0383764 0.501488 0.713863
0.040589 0.50164 0.719326
0.0460822 0.499245 0.733364
0.238788 0.563119 0.874678
0.851041 0.464164 0.958221
0.929808 0.44831 0.910063
0.927108 0.44036 0.90692
0.932204 0.458457 0.920134
0.136751 0.72285 0.774975
0.141222 0.727993 0.780041
0.143984 0.730861 0.783948
0.144106 0.727672 0.787488
0.141054 0.711223 0.794903
0.726009 0.797284 0.965286
0.965194 0.741451 0.922225
0.965316 0.73315 0.921645
0.965789 0.744335 0.926894
0.262623 0.876341 0.855817
0.265278 0.878676 0.85948
0.266377 0.879927 0.86041
0.265461 0.88014 0.857359
0.249439 0.864454 0.838682
0.560998 0.908583 0.889082
0.942962 0.945647 0.940597
0.98085 0.946181 0.937438
0.981094 0.946777 0.941344
0.272847 0.884443 0.874815
0.27332 0.884764 0.875563
0.273289 0.884642 0.874647
0.271733 0.883848 0.869291
0.261128 0.878355 0.847456
0.303929 0.903578 0.849378
0.921386 0.978393 0.955764
0.991409 0.9888 0.977935
0.991608 0.989227 0.979736
0.274632 0.885863 0.884337
0.275029 0.886168 0.88452
0.274907 0.885939 0.882734
0.274052 0.88513 0.876402
0.263951 0.879835 0.853101
0.304356 0.905303 0.855207
0.921874 0.978882 0.958389
0.990143 0.989609 0.981338
0.991104 0.990097 0.984375
0.00474556 0.341833 0.695506
0.00477607 0.341909 0.695613
0.00611887 0.343053 0.698634
0.0250248 0.367468 0.722774
0.430426 0.41088 0.969146
0.891615 0.369543 0.916136
0.893614 0.370184 0.915267
0.89369 0.370062 0.914992
0.893599 0.37023 0.915373
0.00471504 0.341772 0.695415
0.00477607 0.341924 0.695628
0.00488289 0.34197 0.695888
0.0133211 0.360113 0.710338
0.411261 0.411887 0.961288
0.886091 0.367391 0.917235
0.893614 0.370184 0.915267
0.893599 0.37023 0.915358
0.893431 0.370565 0.916075
0.00468452 0.341726 0.695262
0.00477607 0.341909 0.695628
0.00477607 0.341924 0.695628
0.0104219 0.354421 0.705531
0.38471 0.413748 0.948226
0.879652 0.365438 0.918975
0.893797 0.369818 0.914473
0.893767 0.369879 0.914611
0.893523 0.370398 0.915709
0.0137789 0.376974 0.707988
0.0124514 0.371191 0.706416
0.00920119 0.359457 0.702113
0.00567636 0.342794 0.697734
0.307362 0.413413 0.906386
0.85713 0.362295 0.925719
0.893874 0.369665 0.914137
0.893874 0.36965 0.914122
0.893553 0.370321 0.915541
0.0656291 0.53315 0.757275
0.0680705 0.536828 0.760555
0.0687724 0.537026 0.761883
0.0629129 0.522332 0.757137
0.185214 0.56585 0.857725
0.789303 0.510964 1
0.932555 0.473655 0.950881
0.93048 0.467124 0.948241
0.933715 0.478782 0.952865
0.158083 0.729229 0.816083
0.161837 0.734051 0.819989
0.164492 0.736965 0.823178
0.16524 0.734249 0.82707
0.155367 0.71429 0.822873
0.675029 0.822553 1
0.970977 0.744396 0.978027
0.971511 0.736294 0.97673
0.971359 0.745892 0.977676
0.26862 0.87953 0.884703
0.271 0.882063 0.886671
0.272816 0.884047 0.887785
0.27245 0.883711 0.88751
0.254124 0.863722 0.877623
0.510536 0.931121 0.965255
0.919264 0.940261 0.975769
0.979187 0.939178 0.973693
0.979385 0.940429 0.974914
0.274952 0.886397 0.888747
0.275563 0.8869 0.889769
0.275593 0.886931 0.889815
0.275593 0.886931 0.889815
0.275441 0.886763 0.888853
0.299214 0.904891 0.897322
0.899458 0.978576 0.975311
0.98883 0.988479 0.9879
0.990463 0.988266 0.988312
0.275166 0.886564 0.889097
0.275563 0.8869 0.889769
0.275593 0.886931 0.889815
0.275593 0.886931 0.889815
0.275456 0.886778 0.88893
0.303304 0.907423 0.899855
0.88751 0.979202 0.974533
0.990143 0.990188 0.989822
0.990723 0.98996 0.989136
0.00474556 0.341833 0.695506
0.00477607 0.341909 0.695613
0.00607309 0.343008 0.698528
0.0238804 0.367224 0.721874
0.433219 0.410498 0.970474
0.891798 0.369604 0.916075
0.893614 0.370184 0.915267
0.893629 0.370169 0.915206
0.893538 0.370367 0.915648
0.00471504 0.341772 0.69543
0.00477607 0.341924 0.695628
0.00485237 0.34197 0.695842
0.0132296 0.360006 0.710201
0.414542 0.412116 0.962585
0.886442 0.367407 0.916869
0.893614 0.370184 0.915267
0.893599 0.370245 0.915389
0.8934 0.370642 0.916243
0.00468452 0.341665 0.695277
0.00477607 0.341924 0.695628
0.00477607 0.341924 0.695628
0.0104067 0.354467 0.705486
0.388083 0.41413 0.949493
0.880247 0.365667 0.918807
0.893797 0.369818 0.914473
0.893767 0.369879 0.914611
0.893492 0.370474 0.915862
0.0135195 0.375372 0.707561
0.0116274 0.368963 0.705333
0.00849927 0.356817 0.701122
0.00578317 0.343038 0.697932
0.310491 0.413367 0.908293
0.859373 0.363043 0.925155
0.893858 0.369711 0.914244
0.893874 0.36968 0.914183
0.893553 0.370321 0.915541
0.0704051 0.540902 0.762997
0.0705425 0.540993 0.763317
0.0694438 0.538613 0.762432
0.0634928 0.523751 0.757626
0.190112 0.568444 0.860792
0.793896 0.51165 1
0.933257 0.4757 0.951202
0.931151 0.469535 0.949111
0.934356 0.480766 0.953384
0.166674 0.73611 0.828534
0.169635 0.740536 0.831052
0.170947 0.742763 0.831952
0.167803 0.737377 0.829953
0.156252 0.715694 0.82356
0.678019 0.82359 1
0.971222 0.74641 0.97821
0.971481 0.738323 0.976959
0.971588 0.748058 0.977783
0.270115 0.881193 0.886442
0.272541 0.883726 0.888151
0.274678 0.885985 0.889296
0.272389 0.88368 0.887922
0.254078 0.863691 0.878386
0.508675 0.931472 0.969268
0.910277 0.939712 0.979263
0.97937 0.936843 0.978271
0.979431 0.938109 0.978592
0.274983 0.886427 0.888808
0.275563 0.8869 0.889769
0.275593 0.886931 0.889815
0.275593 0.886931 0.889815
0.275593 0.886931 0.889815
0.296284 0.90309 0.901717
0.878035 0.978103 0.979873
0.986893 0.987457 0.989136
0.989685 0.98854 0.98967
0.275166 0.88658 0.889113
0.275563 0.8869 0.889769
0.275593 0.886931 0.889815
0.275593 0.886931 0.889815
0.275593 0.886931 0.889815
0.299031 0.904738 0.903166
0.854932 0.978821 0.97821
0.988785 0.990311 0.990677
0.990738 0.98996 0.989136
