bundles/resolve-cinematic-luts/Phantom Luts/S5ii LUTs/Standard (No WB Offset)/S5ii Utopia V-Log Legacy.cube
TITLE "Generated by Resolve"
LUT_3D_SIZE 5
0.0141146 0.0405585 0.0500801
0.10428 0.0419623 0.0476387
0.467033 0.0264286 0.0603799
0.667567 0.0471962 0.153429
0.670588 0.0470283 0.157977
0.00683604 0.117769 0.0538491
0.0796368 0.104112 0.0457618
0.44892 0.0227359 0.0452583
0.648478 0.0439002 0.127764
0.649241 0.0436103 0.127916
0 0.552499 0.153796
0.0618906 0.551614 0.0819104
0.538109 0.512322 0.0597086
0.914519 0.429923 0.195178
0.909651 0.393545 0.190616
0.0776226 0.984314 0.628931
0.0701915 0.988098 0.611704
0.0657054 0.998657 0.532174
0.990204 0.961563 0.512734
0.999969 0.951644 0.494041
0.0716564 0.983932 0.641978
0.0748302 0.985199 0.626596
0.0697337 0.99646 0.546548
0.943328 0.973251 0.567742
0.999969 0.970413 0.59736
0 0.0491646 0.0993668
0.107607 0.0476844 0.110185
0.497505 0.0389563 0.128923
0.680659 0.053727 0.192386
0.685435 0.0546578 0.197757
0.0122225 0.105989 0.113237
0.0620279 0.0955062 0.105104
0.463874 0.0406806 0.0882277
0.670039 0.047837 0.159915
0.671519 0.0476387 0.161929
0 0.534554 0.227695
0 0.539605 0.156039
0.532662 0.507195 0.05832
0.912902 0.419211 0.194171
0.907485 0.382147 0.189166
0.0781262 0.982193 0.644602
0.0721447 0.985412 0.629389
0.0646983 0.997101 0.542916
0.987106 0.958709 0.502297
0.999969 0.947784 0.480369
0.0738079 0.981155 0.658015
0.0777142 0.982422 0.643656
0.0696574 0.995941 0.548913
0.936049 0.97348 0.566552
0.999969 0.970459 0.597421
0 0.0919661 0.359594
0.0101015 0.0725719 0.424155
0.510552 0.0711223 0.389364
0.76376 0.127733 0.417914
0.765042 0.127245 0.425788
0 0.113207 0.341161
0 0.0912032 0.36524
0.496239 0.0685435 0.377966
0.762753 0.126879 0.392386
0.763775 0.126574 0.398871
0 0.488441 0.461311
0 0.482902 0.456092
0.485374 0.504982 0.496056
0.907179 0.389517 0.425803
0.893965 0.345449 0.421515
0.0868086 0.969955 0.720729
0.0801099 0.972549 0.711421
0.0734112 0.983154 0.639857
0.972717 0.949767 0.59617
0.999969 0.933211 0.591577
0.084184 0.969497 0.73611
0.081239 0.971298 0.725826
0.0797894 0.980529 0.653559
0.915328 0.982895 0.668833
0.999969 0.977035 0.705989
0 0.287373 0.66685
0 0.284871 0.667002
0.364248 0.292576 0.859953
0.867887 0.355962 0.866056
0.870573 0.36939 0.880461
0 0.280644 0.660502
0 0.285954 0.666575
0.311192 0.294697 0.855894
0.864988 0.343648 0.852277
0.867643 0.357443 0.868406
0 0.488914 0.682689
0 0.482765 0.688975
0.146227 0.513939 0.798245
0.902571 0.432776 0.845304
0.890806 0.40676 0.832746
0.0902876 0.935622 0.892256
0.0789044 0.934051 0.891157
0.0740673 0.912566 0.869017
0.923873 0.922728 0.913802
0.984161 0.913817 0.901793
0.0903029 0.951125 0.924849
0.0828412 0.953628 0.92166
0.0894942 0.956344 0.882353
0.838682 0.99205 0.927153
0.99173 0.988556 0.974517
0 0.335637 0.693507
0 0.337774 0.700252
0.311482 0.382086 0.902281
0.872602 0.385122 0.893019
0.872419 0.385046 0.893553
0 0.33547 0.692317
0 0.33576 0.694209
0.255863 0.384665 0.882719
0.872969 0.38526 0.89189
0.872282 0.384985 0.893996
0 0.539345 0.76762
0 0.530327 0.764874
0.0052491 0.539513 0.802396
0.911452 0.481285 0.926497
0.903014 0.463737 0.920974
0.0496834 0.920134 0.941009
0.0395666 0.916533 0.942031
0.0187533 0.882033 0.93164
0.843076 0.911772 0.976654
0.982101 0.900572 0.978882
0.0702678 0.947982 0.951324
0.0625772 0.949599 0.953872
0.0625772 0.949599 0.953872
0.706661 0.986068 0.984543
0.992279 0.988754 0.987381
