bundles/resolve-cinematic-luts/Phantom Luts/S5ii LUTs/Standard (No WB Offset)/S5ii Jamaica V-Log.cube
TITLE "Generated by Resolve"
LUT_3D_SIZE 33
0.00825513 0.0293278 0.00825513
0.00822461 0.0292973 0.00822461
0.00819409 0.0292668 0.00817884
0.024918 0.029633 0.00807202
0.0531319 0.0299382 0.00810254
0.0834211 0.0298924 0.00825513
0.10808 0.0297398 0.00833143
0.132845 0.0296635 0.00947585
0.162188 0.029633 0.0111238
0.19736 0.0294194 0.0132753
0.238544 0.0292058 0.0166629
0.287282 0.0288701 0.0193332
0.341619 0.0289769 0.0231785
0.39649 0.0300298 0.0285344
0.451057 0.0315862 0.0397192
0.50013 0.0328069 0.0523384
0.540383 0.0352789 0.0706035
0.564675 0.0356909 0.0798352
0.587182 0.0402686 0.0962997
0.637766 0.0617533 0.165087
0.648966 0.0685435 0.184329
0.649836 0.0687877 0.186267
0.650629 0.0690318 0.188052
0.65124 0.0692607 0.189349
0.651835 0.0694285 0.190692
0.652293 0.0695659 0.19173
0.652628 0.0696727 0.192508
0.652934 0.0697642 0.193179
0.653132 0.0698253 0.193637
0.653269 0.0698711 0.193896
0.653376 0.0699168 0.194049
0.653422 0.0699474 0.193973
0.653407 0.0699779 0.193759
0.00817884 0.0292668 0.00817884
0.00820935 0.0292821 0.00820935
0.00819409 0.0292668 0.00817884
0.0166629 0.0295109 0.00810254
0.0412299 0.0301213 0.00810254
0.0713817 0.0303655 0.00799573
0.0987106 0.0302892 0.00836194
0.124804 0.0301366 0.00910964
0.155383 0.0296483 0.0104372
0.191546 0.0295262 0.0128939
0.233204 0.0292363 0.0162814
0.282811 0.0290227 0.0194858
0.338109 0.0287633 0.0222782
0.392203 0.028336 0.0225986
0.444526 0.0285649 0.0273289
0.492103 0.0293126 0.0367895
0.531777 0.0307927 0.0542306
0.570855 0.0363317 0.0881514
0.577508 0.0364843 0.080827
0.630915 0.0592813 0.151308
0.647089 0.0681315 0.179782
0.647898 0.0682536 0.181842
0.648539 0.0684062 0.183368
0.649226 0.0686198 0.184878
0.649836 0.0687877 0.186267
0.650309 0.068925 0.187335
0.650675 0.0690318 0.188159
0.650919 0.0691386 0.188647
0.651118 0.0692149 0.189044
0.651255 0.0692607 0.189303
0.651362 0.0693065 0.189456
0.651408 0.069337 0.18938
0.651377 0.0693523 0.189166
0.00819409 0.0292668 0.00817884
0.00822461 0.0292973 0.00822461
0.00822461 0.0292973 0.00822461
0.00819409 0.0292668 0.00817884
0.0270848 0.0307927 0.00868238
0.0554208 0.0320592 0.00907912
0.0843824 0.0325017 0.00906386
0.113329 0.0323339 0.00923171
0.146044 0.0309453 0.0100099
0.183856 0.0302434 0.0119936
0.227176 0.0294652 0.0153353
0.27776 0.0290227 0.0192111
0.333547 0.0287633 0.0220493
0.389593 0.029099 0.0250706
0.443259 0.0295567 0.0310521
0.492378 0.0304875 0.0412299
0.530571 0.0312047 0.0542306
0.561883 0.0334783 0.0726177
0.587091 0.0387732 0.0949569
0.616037 0.0533608 0.127428
0.642496 0.0664988 0.169894
0.644846 0.0673991 0.174823
0.646357 0.0679179 0.178088
0.647272 0.0681621 0.180209
0.647807 0.0682536 0.181582
0.648157 0.0683146 0.182498
0.648493 0.0683909 0.183261
0.648783 0.0684825 0.183917
0.648997 0.0685435 0.184375
0.649149 0.0686046 0.184604
0.649256 0.0686503 0.184756
0.649287 0.0686809 0.18468
0.649271 0.0687114 0.184497
0.00839246 0.031281 0.0100252
0.00839246 0.0305638 0.00814832
0.00898756 0.0302739 0.00849927
0.00956741 0.0300755 0.00833143
0.0192569 0.0314183 0.00881972
0.0399329 0.0342412 0.00959792
0.0672313 0.0358587 0.0108186
0.0978256 0.0363317 0.0110475
0.131701 0.0356451 0.0109407
0.172229 0.0333715 0.0107424
0.219089 0.0310826 0.0137331
0.271641 0.0294804 0.0177615
0.329 0.0288548 0.0216373
0.38584 0.0290532 0.0247654
0.440406 0.0295109 0.0305943
0.490257 0.0304417 0.0406806
0.530205 0.0315404 0.055024
0.561959 0.0338903 0.074403
0.585534 0.0384985 0.0934157
0.606546 0.0474556 0.115831
0.635264 0.063508 0.155215
0.637095 0.0643626 0.158724
0.640467 0.0657511 0.165484
0.642695 0.0665904 0.170291
0.644343 0.067216 0.173739
0.645441 0.0676127 0.176104
0.646143 0.0678721 0.177584
0.646632 0.0680247 0.178668
0.646967 0.0681163 0.179416
0.64715 0.0681621 0.179812
0.647257 0.0681926 0.180011
0.647303 0.0682231 0.179995
0.647303 0.0682536 0.179828
0.00946059 0.0473182 0.0172427
0.00929274 0.0454414 0.0120851
0.0103304 0.0431983 0.0118257
0.0166781 0.0399481 0.00991836
0.0208743 0.0376593 0.00991836
0.0335699 0.0396582 0.0111238
0.0538491 0.0408179 0.0124514
0.0821546 0.0402533 0.0124208
0.118151 0.0395056 0.0133822
0.159411 0.0381781 0.012665
0.208026 0.0353857 0.012192
0.263142 0.0319982 0.0153811
0.323384 0.0297093 0.0196078
0.382177 0.0291447 0.0245212
0.437552 0.0295872 0.0303044
0.488258 0.0303655 0.0400397
0.528725 0.0315099 0.05449
0.560647 0.0337072 0.0733349
0.58558 0.0386206 0.093843
0.606821 0.0475776 0.116442
0.636759 0.0639811 0.158419
0.635828 0.0636301 0.156497
0.635355 0.0634928 0.155444
0.635065 0.0634165 0.154803
0.635828 0.0637827 0.156268
0.638224 0.0648661 0.160906
0.639841 0.0654917 0.164034
0.640787 0.0658427 0.166278
0.641566 0.0661479 0.167941
0.64213 0.0663462 0.169116
0.642496 0.0665141 0.169802
0.642725 0.0666514 0.170077
0.642817 0.0667124 0.170077
0.0102998 0.0666514 0.0263523
0.0100252 0.0641184 0.0190738
0.0100557 0.0615396 0.01738
0.0207523 0.0571756 0.0144198
0.0314183 0.0524147 0.0130922
0.0426032 0.0522927 0.0128328
0.0591287 0.0544137 0.0150607
0.0852827 0.0550393 0.0188602
0.120043 0.0525063 0.0216526
0.156832 0.0487984 0.0183261
0.201053 0.0429084 0.0162661
0.2542 0.0370336 0.0141146
0.31722 0.0329442 0.0171206
0.3785 0.0301518 0.0216068
0.434928 0.0297856 0.0297093
0.485924 0.0303197 0.0394598
0.527214 0.0315099 0.0539406
0.559319 0.0335393 0.0724041
0.585641 0.0387732 0.0942245
0.604257 0.0462348 0.113237
0.6374 0.064271 0.15964
0.6374 0.064271 0.15964
0.6374 0.064271 0.159655
0.637064 0.0641184 0.159014
0.636332 0.0637827 0.15758
0.63595 0.0636606 0.156756
0.635691 0.0635996 0.156176
0.635508 0.0635386 0.155795
0.635386 0.0634928 0.15552
0.635279 0.0634775 0.155245
0.635172 0.0634623 0.154925
0.635065 0.0634623 0.154543
0.635004 0.0634775 0.154284
0.00996414 0.0906386 0.030457
0.00991836 0.0881819 0.0229191
0.010132 0.0848249 0.0216983
0.0166781 0.0802625 0.0202029
0.0330968 0.0736706 0.0172122
0.0496834 0.0689097 0.0162203
0.065507 0.0707103 0.0154726
0.0890669 0.07364 0.0172885
0.120592 0.0731823 0.0239719
0.164782 0.0669566 0.029099
0.210208 0.0605173 0.0264897
0.259571 0.0519722 0.0217594
0.313542 0.0399939 0.0172122
0.374899 0.0336004 0.0193637
0.432273 0.0306249 0.0275578
0.48365 0.0303044 0.0388342
0.525887 0.0315404 0.0534066
0.558129 0.0334173 0.0715801
0.585718 0.038941 0.0945907
0.60206 0.045182 0.11043
0.637369 0.064271 0.159503
0.637369 0.064271 0.159518
0.637369 0.064271 0.159518
0.637369 0.064271 0.159518
0.637369 0.064271 0.159518
0.637369 0.064271 0.159533
0.637369 0.064271 0.159533
0.637369 0.064271 0.159533
0.637369 0.064271 0.159518
0.637354 0.064271 0.159472
0.637339 0.0642863 0.15938
0.637293 0.0642863 0.159213
0.637263 0.0642863 0.15903
0.0103761 0.118151 0.0355383
0.00970474 0.115663 0.0257725
0.0102235 0.11284 0.0225986
0.0111238 0.109987 0.0237278
0.0315404 0.104219 0.0209812
0.049836 0.0965896 0.0181582
0.0727703 0.0941176 0.0182803
0.0939956 0.0975052 0.0162814
0.122759 0.10074 0.0167849
0.164904 0.0980697 0.0284123
0.216587 0.0883803 0.033875
0.277775 0.0754101 0.0354925
0.329397 0.0643015 0.0290379
0.379843 0.0484016 0.0237888
0.430701 0.0350805 0.0252079
0.481437 0.0307774 0.0375372
0.524575 0.0315404 0.0527962
0.556863 0.0332494 0.0706951
0.585748 0.0390784 0.0949416
0.599298 0.0437781 0.107149
0.637369 0.064271 0.159487
0.637354 0.064271 0.159487
0.637354 0.064271 0.159487
0.637354 0.064271 0.159487
0.637354 0.064271 0.159487
0.637354 0.064271 0.159487
0.637354 0.064271 0.159487
0.637354 0.064271 0.159487
0.637354 0.064271 0.159487
0.637354 0.064271 0.159457
0.637339 0.0642863 0.15938
0.637293 0.0642863 0.159213
0.637263 0.0642863 0.15903
0.00880446 0.151339 0.0425879
0.00801099 0.148989 0.0307317
0.00979629 0.146334 0.0216373
0.00984207 0.143862 0.0235599
0.0204166 0.140169 0.0224918
0.0446021 0.133913 0.0193484
0.0712596 0.126421 0.0186313
0.0999924 0.124758 0.019028
0.124788 0.128405 0.0150149
0.163195 0.131975 0.0142214
0.217792 0.127047 0.0312352
0.279423 0.114275 0.0382391
0.350698 0.0958114 0.0423896
0.402396 0.0806744 0.0391241
0.446784 0.0610513 0.0337835
0.483619 0.0374151 0.0324712
0.52224 0.0320439 0.050248
0.555093 0.0330205 0.0693675
0.585412 0.0391241 0.0949874
0.596277 0.042359 0.103395
0.637354 0.064271 0.159487
0.637354 0.064271 0.159487
0.637354 0.064271 0.159487
0.637354 0.064271 0.159487
0.637354 0.064271 0.159487
0.637369 0.064271 0.159487
0.637369 0.064271 0.159487
0.637369 0.064271 0.159487
0.637369 0.064271 0.159487
0.637354 0.064271 0.159457
0.637339 0.064271 0.15938
0.637293 0.0642863 0.159213
0.637263 0.0642863 0.15903
0.007187 0.190845 0.0521248
0.00740063 0.188891 0.0384985
0.00814832 0.186801 0.024506
0.0103914 0.184482 0.0186923
0.00946059 0.182055 0.0214694
0.0252384 0.177966 0.0192569
0.056199 0.171359 0.0148318
0.0962692 0.163272 0.0158999
0.129503 0.162524 0.0161288
0.162509 0.166674 0.0111543
0.21207 0.169436 0.0099794
0.279576 0.162692 0.0335088
0.351095 0.146685 0.0441444
0.423484 0.125551 0.0505837
0.477684 0.104417 0.0516365
0.512337 0.0802472 0.0475624
0.534905 0.047776 0.0439765
0.554223 0.0341497 0.0643473
0.584817 0.0391546 0.0948348
0.592996 0.041062 0.0990921
0.637354 0.064271 0.159487
0.637354 0.064271 0.159487
0.637354 0.064271 0.159487
0.637354 0.064271 0.159487
0.637354 0.064271 0.159487
0.637354 0.064271 0.159487
0.637354 0.064271 0.159487
0.637354 0.064271 0.159487
0.637354 0.064271 0.159487
0.637354 0.064271 0.159457
0.637339 0.0642863 0.15938
0.637293 0.0642863 0.159213
0.637263 0.0642863 0.15903
0.00227359 0.237247 0.0664073
0.00445563 0.235431 0.0513008
0.00737011 0.233082 0.0361639
0.0128634 0.230533 0.0208133
0.0139773 0.228473 0.0175479
0.0124056 0.226459 0.0201419
0.0304112 0.223102 0.0163882
0.0683909 0.216495 0.00958267
0.12079 0.207599 0.0115969
0.163119 0.206714 0.0122835
0.206409 0.211368 0.00720226
0.270024 0.213626 0.00798047
0.348928 0.206394 0.0373846
0.425513 0.1888 0.0535134
0.496361 0.166171 0.063508
0.549737 0.138796 0.0697642
0.575097 0.114611 0.066743
0.581827 0.066804 0.0618448
0.584314 0.0411078 0.0787823
0.590768 0.0413214 0.092546
0.637369 0.064271 0.159487
0.637354 0.064271 0.159487
0.637354 0.064271 0.159487
0.637354 0.064271 0.159487
0.637354 0.064271 0.159487
0.637354 0.064271 0.159487
0.637354 0.064271 0.159487
0.637354 0.064271 0.159487
0.637354 0.064271 0.159487
0.637354 0.064271 0.159457
0.637339 0.0642863 0.15938
0.637293 0.0642863 0.159213
0.637263 0.0642863 0.15903
0 0.29073 0.0834974
0.000488289 0.289097 0.0705425
0.0028687 0.286641 0.0558328
0.00851453 0.284245 0.038529
0.0173495 0.28188 0.0209964
0.0183413 0.279911 0.0174868
0.0164187 0.278798 0.0211643
0.0335851 0.275532 0.013901
0.0806439 0.267933 0.00291447
0.148913 0.258366 0.00775158
0.203296 0.257465 0.0087892
0.258183 0.262715 0.00764477
0.336004 0.265538 0.00985733
0.419333 0.259022 0.0401007
0.49929 0.241337 0.0665141
0.565988 0.21738 0.0806134
0.619333 0.186587 0.0952163
0.636515 0.160662 0.0941939
0.629709 0.105715 0.0865034
0.602472 0.0546883 0.0932021
0.609369 0.0500954 0.115908
0.631449 0.0616922 0.147951
0.635615 0.0635691 0.155917
0.637354 0.064271 0.159472
0.637354 0.064271 0.159487
0.637354 0.064271 0.159487
0.637354 0.064271 0.159487
0.637354 0.064271 0.159487
0.637354 0.064271 0.159487
0.637354 0.064271 0.159457
0.637339 0.0642863 0.15938
0.637293 0.0642863 0.159213
0.637263 0.0642863 0.15903
0 0.34902 0.104356
0.00151064 0.347646 0.0925612
0.00453193 0.345815 0.0800793
0.00712596 0.344289 0.0678721
0.0146181 0.34313 0.0502022
0.0249485 0.341024 0.0304112
0.028748 0.339147 0.0225834
0.0250858 0.337301 0.0275425
0.0405127 0.333791 0.0150301
0.100572 0.325902 0
0.184695 0.316182 0.0056611
0.250828 0.315877 0.0065919
0.318914 0.32253 0.00903334
0.403037 0.325231 0.0138399
0.489097 0.321233 0.0424506
0.571801 0.305211 0.0813306
0.635981 0.281178 0.103792
0.686183 0.247272 0.127459
0.70042 0.216327 0.131777
0.67985 0.165545 0.125566
0.618708 0.0703288 0.103319
0.621698 0.0670787 0.118608
0.623499 0.0613413 0.133623
0.609125 0.051667 0.112871
0.620264 0.0555581 0.131487
0.629694 0.0609903 0.144472
0.631556 0.0617533 0.148074
0.633234 0.0625925 0.151064
0.634577 0.0631876 0.153628
0.635279 0.063447 0.155123
0.635767 0.0636606 0.156115
0.636301 0.0638743 0.157183
0.636561 0.0639963 0.157626
0.00102235 0.410239 0.134874
0.00701915 0.409354 0.123247
0.012192 0.408194 0.111086
0.0164645 0.40766 0.100008
0.0198672 0.406699 0.0891585
0.0256962 0.405646 0.0748608
0.0368811 0.404166 0.0531167
0.0421454 0.402548 0.0422065
0.0396277 0.400732 0.0449989
0.0560159 0.396658 0.0266728
0.130205 0.38822 0.00244144
0.227756 0.376989 0.00872816
0.306676 0.377539 0.00959792
0.383963 0.385626 0.0137789
0.472236 0.388968 0.0216526
0.558053 0.389013 0.0484474
0.643671 0.376638 0.100282
0.703868 0.358282 0.134463
0.754299 0.32105 0.166201
0.760784 0.283253 0.1794
0.73286 0.233631 0.169497
0.697322 0.180041 0.148714
0.667231 0.135332 0.13106
0.63827 0.0949722 0.112032
0.621225 0.0722972 0.103578
0.621836 0.0704662 0.11104
0.621912 0.0687266 0.115618
0.621469 0.0672007 0.118059
0.621759 0.0658274 0.121553
0.622797 0.0646677 0.126116
0.623178 0.0636912 0.12874
0.624384 0.0631876 0.13257
0.625177 0.0628824 0.135012
0.00958267 0.477134 0.178302
0.0162966 0.47689 0.167666
0.0233005 0.47686 0.156374
0.0298772 0.476097 0.144839
0.0357977 0.475257 0.133486
0.0406348 0.474586 0.122881
0.0461585 0.474052 0.111482
0.0560311 0.474144 0.0931868
0.0650034 0.472755 0.0766003
0.0636759 0.470375 0.0759899
0.0825818 0.464134 0.0484321
0.167208 0.455909 0.0124666
0.280507 0.442741 0.0212711
0.372274 0.445029 0.0198825
0.453819 0.453132 0.0237278
0.541161 0.456611 0.0364538
0.624475 0.458824 0.0652476
0.711849 0.449973 0.129351
0.770153 0.438224 0.169909
0.815793 0.399847 0.208743
0.818204 0.358557 0.226886
0.798169 0.327062 0.21529
0.781918 0.303105 0.204257
0.765698 0.278767 0.193698
0.750881 0.256748 0.184146
0.738994 0.239322 0.17644
0.728344 0.223713 0.16965
0.719402 0.210895 0.16379
0.711986 0.200244 0.159014
0.706355 0.19205 0.155535
0.701656 0.185336 0.15256
0.698375 0.180774 0.150408
0.695979 0.177172 0.149096
0.0250706 0.548943 0.236851
0.0291447 0.549676 0.227436
0.0370031 0.549767 0.216312
0.0446021 0.549493 0.205142
0.0518196 0.549081 0.194095
0.0591287 0.548775 0.182757
0.0661173 0.549294 0.172747
0.0733959 0.549767 0.162081
0.0859846 0.549813 0.142412
0.0990616 0.548318 0.120882
0.0976883 0.54519 0.117891
0.119234 0.538293 0.0832532
0.212329 0.530541 0.037171
0.346792 0.514366 0.0415198
0.442985 0.515663 0.0408331
0.524575 0.521721 0.0426795
0.607584 0.525429 0.0629129
0.687495 0.52813 0.100542
0.776577 0.524681 0.169009
0.829389 0.517113 0.209171
0.86627 0.483177 0.247837
0.867033 0.440955 0.260243
0.857847 0.421668 0.255131
0.849439 0.405554 0.250431
0.841352 0.391257 0.245548
0.834028 0.379095 0.240894
0.827588 0.369268 0.236484
0.822354 0.36112 0.233021
0.817548 0.354009 0.229679
0.814847 0.350179 0.227771
0.811749 0.345892 0.225528
0.809277 0.342336 0.223835
0.80679 0.339071 0.221912
0.0507973 0.621363 0.308415
0.0511025 0.621958 0.30042
0.0545205 0.622736 0.290623
0.0601968 0.623804 0.280644
0.0683604 0.624949 0.269963
0.076997 0.626307 0.259922
0.0851606 0.626932 0.249714
0.0945449 0.627665 0.237659
0.10515 0.62858 0.224109
0.121614 0.629572 0.202029
0.136477 0.628977 0.17966
0.13611 0.625742 0.175479
0.165515 0.616938 0.126528
0.272572 0.609308 0.0737469
0.421973 0.58883 0.0710613
0.517403 0.587182 0.071809
0.594446 0.590677 0.0790875
0.671702 0.593652 0.106981
0.748409 0.597253 0.150607
0.830365 0.597971 0.214908
0.874556 0.593652 0.253315
0.900298 0.568917 0.277867
0.900359 0.547341 0.27866
0.897154 0.530663 0.276524
0.894041 0.51667 0.274769
0.890791 0.504997 0.272892
0.887846 0.495399 0.271275
0.88481 0.487129 0.269459
0.883314 0.482734 0.268681
0.8813 0.478264 0.267369
0.879927 0.474586 0.266697
0.87863 0.471931 0.265873
0.877272 0.469703 0.264866
0.0961776 0.693599 0.387472
0.0948653 0.693736 0.38114
0.0935225 0.693599 0.373693
0.0923934 0.693431 0.366278
0.0938277 0.694392 0.358175
0.0979019 0.695781 0.348806
0.103517 0.697475 0.339132
0.111025 0.699184 0.32781
0.124987 0.70251 0.312932
0.141131 0.705501 0.294179
0.159884 0.708675 0.270939
0.172045 0.707835 0.25156
0.171054 0.703914 0.246235
0.222766 0.694118 0.169711
0.345846 0.687358 0.12076
0.501274 0.662196 0.111971
0.590158 0.657359 0.115541
0.662028 0.657649 0.1308
0.732326 0.659937 0.163119
0.803647 0.663981 0.211551
0.869322 0.668055 0.263798
0.905821 0.666133 0.29482
0.912779 0.655985 0.299336
0.91191 0.644968 0.296483
0.911086 0.635126 0.294102
0.910414 0.626459 0.29221
0.909636 0.619547 0.290578
0.909056 0.613733 0.289357
0.908461 0.608881 0.288319
0.908019 0.605539 0.287648
0.907408 0.602457 0.286885
0.906752 0.599954 0.286152
0.906004 0.598764 0.285374
0.148974 0.763592 0.469047
0.148241 0.763653 0.464164
0.147448 0.763638 0.458595
0.147143 0.763943 0.45362
0.146319 0.763684 0.447272
0.14551 0.763256 0.440894
0.144945 0.762875 0.434653
0.144762 0.762661 0.427192
0.150546 0.766003 0.416602
0.161486 0.770504 0.399771
0.181552 0.777127 0.375906
0.204273 0.782544 0.348455
0.208804 0.780789 0.336721
0.216449 0.77763 0.319493
0.297078 0.77229 0.22179
0.433509 0.763363 0.180148
0.57998 0.733059 0.165988
0.660487 0.724514 0.171359
0.72639 0.72256 0.192416
0.7897 0.724956 0.228336
0.850736 0.728878 0.271778
0.900069 0.734371 0.311315
0.924941 0.733669 0.330785
0.923476 0.726436 0.327153
0.92224 0.720058 0.324041
0.921157 0.7149 0.321538
0.920256 0.710384 0.319417
0.919341 0.706401 0.317494
0.918944 0.703243 0.316304
0.918135 0.700435 0.314977
0.917449 0.698466 0.314031
0.917006 0.697475 0.313619
0.916503 0.696117 0.312963
0.212024 0.827298 0.552895
0.212116 0.827649 0.549889
0.211566 0.827451 0.54551
0.211063 0.827237 0.541115
0.210575 0.827008 0.536568
0.210056 0.826703 0.531807
0.209552 0.826368 0.527031
0.209628 0.82652 0.522225
0.20943 0.826383 0.514992
0.20972 0.826505 0.505135
0.213825 0.829511 0.489921
0.228031 0.838544 0.465888
0.249958 0.847807 0.436316
0.251987 0.846311 0.427054
0.273503 0.846525 0.39144
0.382116 0.849958 0.291752
0.527993 0.834287 0.247959
0.655634 0.802106 0.231495
0.727733 0.790066 0.237552
0.787289 0.786343 0.261143
0.840528 0.788113 0.293645
0.890806 0.791699 0.329946
0.929274 0.798215 0.362051
0.939116 0.795193 0.368063
0.937484 0.789776 0.364248
0.936202 0.784863 0.360906
0.935195 0.780606 0.358099
0.933989 0.776944 0.35552
0.933318 0.774365 0.353918
0.932601 0.772213 0.352575
0.932052 0.770657 0.351659
0.931579 0.769345 0.350896
0.931319 0.768338 0.350362
0.271107 0.876509 0.629908
0.270848 0.876554 0.627222
0.270436 0.876478 0.623987
0.270146 0.876448 0.620554
0.269856 0.876417 0.61738
0.269474 0.876341 0.613794
0.269383 0.876432 0.611063
0.26894 0.876295 0.607065
0.268513 0.876234 0.601862
0.268223 0.876326 0.595087
0.268101 0.876554 0.585306
0.268772 0.877211 0.572244
0.275807 0.88304 0.550591
0.283467 0.888563 0.532479
0.283742 0.888121 0.522484
0.329976 0.903883 0.454795
0.470878 0.916564 0.362173
0.613642 0.893507 0.320912
0.722103 0.861936 0.304158
0.787762 0.85034 0.310491
0.844388 0.847471 0.334356
0.890013 0.848402 0.361852
0.925978 0.853407 0.388388
0.9552 0.860304 0.411749
0.955489 0.856031 0.409934
0.954299 0.851682 0.407141
0.953414 0.848112 0.404822
0.952789 0.844999 0.402945
0.952117 0.842725 0.401404
0.951476 0.840986 0.400259
0.950973 0.839155 0.399237
0.950561 0.837552 0.398505
0.950362 0.836362 0.397986
0.320363 0.912337 0.698344
0.319936 0.912261 0.696101
0.319478 0.912245 0.693309
0.319066 0.912261 0.690654
0.318868 0.912428 0.688258
0.318502 0.912428 0.685863
0.318013 0.912367 0.683177
0.317464 0.912276 0.680339
0.316869 0.912276 0.676387
0.31635 0.912444 0.671504
0.31632 0.913161 0.665415
0.31603 0.913817 0.656336
0.315953 0.914763 0.643137
0.315908 0.915496 0.625422
0.313558 0.913848 0.615625
0.322316 0.921324 0.59089
0.388296 0.950957 0.509209
0.550896 0.969131 0.435477
0.6851 0.940734 0.395636
0.778729 0.912825 0.380484
0.84184 0.903059 0.382773
0.894759 0.900389 0.400244
0.93518 0.901503 0.421271
0.958938 0.906645 0.437934
0.971695 0.909316 0.447303
0.971328 0.90602 0.445258
0.970169 0.902907 0.442832
0.969726 0.901045 0.441581
0.968704 0.899001 0.439841
0.96791 0.897505 0.43856
0.967132 0.896254 0.437446
0.966674 0.89514 0.436698
0.966552 0.894209 0.436347
0.359533 0.937499 0.754284
0.359106 0.93727 0.752682
0.358633 0.93724 0.750378
0.358434 0.937438 0.748623
0.35819 0.937591 0.746838
0.357809 0.937667 0.744762
0.357412 0.937682 0.742962
0.356985 0.937713 0.740887
0.356435 0.937758 0.738125
0.356085 0.938064 0.735012
0.355505 0.938415 0.730419
0.354955 0.939071 0.724178
0.354391 0.939986 0.715434
0.353918 0.941283 0.702861
0.352651 0.94136 0.692973
0.349798 0.939864 0.68455
0.35967 0.950164 0.64509
0.43917 0.992187 0.569635
0.615305 0.998932 0.508232
0.744579 0.982071 0.474586
0.827436 0.9561 0.460822
0.887831 0.94728 0.458839
0.935027 0.944427 0.467704
0.968338 0.944625 0.479866
0.987488 0.948348 0.489937
0.99028 0.947127 0.48893
0.989273 0.94519 0.486015
0.987686 0.943282 0.482979
0.986481 0.941817 0.480552
0.985412 0.940734 0.478614
0.984771 0.940017 0.47715
0.984314 0.939208 0.4757
0.984329 0.938735 0.47483
0.376303 0.946685 0.782132
0.375921 0.946395 0.780911
0.375738 0.946502 0.779309
0.375784 0.946899 0.77792
0.37583 0.947234 0.776745
0.375784 0.947509 0.775494
0.375753 0.947738 0.774411
0.375647 0.947967 0.773129
0.37554 0.948241 0.771664
0.375418 0.948608 0.769589
0.37528 0.949172 0.766781
0.375204 0.949996 0.763058
0.375189 0.951186 0.757794
0.375189 0.952697 0.750408
0.375265 0.954101 0.743252
0.37438 0.954223 0.738018
0.371679 0.954406 0.720607
0.388312 0.972015 0.678782
0.489097 0.998932 0.618647
0.679118 0.998932 0.581857
0.79588 0.998932 0.558999
0.872801 0.985061 0.546502
0.926802 0.9785 0.542062
0.966873 0.976181 0.543648
0.993729 0.975998 0.550317
1 0.97554 0.55314
1 0.974197 0.54905
1 0.972869 0.544549
1 0.971771 0.540963
1 0.971023 0.538018
1 0.970642 0.536278
1 0.970031 0.534813
1 0.96939 0.533532
0.376425 0.946227 0.784298
0.376028 0.945968 0.782803
0.375845 0.946029 0.781445
0.375875 0.946365 0.780224
0.375906 0.946746 0.778897
0.375891 0.947036 0.777722
0.375875 0.947265 0.776776
0.375814 0.947509 0.77554
0.375708 0.947799 0.774014
0.37557 0.94818 0.771954
0.375402 0.948669 0.769329
0.375235 0.949371 0.765713
0.375113 0.950439 0.760632
0.375097 0.951965 0.753521
0.375051 0.95375 0.743969
0.375265 0.954604 0.740337
0.376669 0.956146 0.738933
0.383185 0.964157 0.724239
0.418204 0.997055 0.687083
0.561425 0.998932 0.650355
0.738766 0.998932 0.638743
0.839246 0.998932 0.62562
0.911879 0.997177 0.624445
0.957046 0.993973 0.624186
0.987884 0.993317 0.626123
1 0.992691 0.633265
1 0.991699 0.63032
1 0.991028 0.624689
1 0.990478 0.62002
1 0.990112 0.61651
1 0.989776 0.613687
1 0.989425 0.611627
1 0.989013 0.610224
0.376745 0.946273 0.785183
0.376318 0.945907 0.784024
0.376059 0.945861 0.782849
0.375998 0.946075 0.781735
0.375982 0.946334 0.780667
0.375952 0.946578 0.779644
0.375937 0.946868 0.778485
0.375875 0.947112 0.777356
0.375814 0.947417 0.775921
0.375723 0.947814 0.773999
0.37554 0.948272 0.771481
0.375296 0.948943 0.767758
0.375067 0.94992 0.762676
0.374945 0.951293 0.755871
0.374899 0.953185 0.746136
0.375021 0.954345 0.740276
0.375677 0.955032 0.740001
0.379034 0.959701 0.729259
0.400656 0.981826 0.696132
0.507637 0.998932 0.658503
0.702296 0.998932 0.649836
0.808209 0.998932 0.648203
0.888624 0.998932 0.649577
0.943435 0.995346 0.660182
0.975998 0.99556 0.670115
0.998718 0.996796 0.684703
1 0.996857 0.692729
1 0.996933 0.691569
1 0.997131 0.689113
1 0.99736 0.687144
1 0.997497 0.685832
1 0.997574 0.685008
1 0.997574 0.684565
0.376944 0.946242 0.786053
0.376608 0.945983 0.784955
0.376318 0.945785 0.784054
0.37615 0.945907 0.782956
0.376059 0.946075 0.781888
0.376028 0.946303 0.780911
0.375982 0.946502 0.780026
0.375952 0.946792 0.778836
0.375891 0.947097 0.777432
0.375799 0.947478 0.775631
0.375616 0.948013 0.772885
0.375387 0.948638 0.769421
0.375097 0.949508 0.764569
0.374868 0.95079 0.757809
0.37467 0.952529 0.748226
