bundles/resolve-cinematic-luts/Phantom Luts/S5ii LUTs/Standard (No WB Offset)/S5ii Utopia V-Log Legacy.cube
TITLE "Generated by Resolve"
LUT_3D_SIZE 33
0.0141146 0.0405585 0.0500801
0.0141146 0.040528 0.0500496
0.0140993 0.0404822 0.0500038
0.0250553 0.0413214 0.0502785
0.0381933 0.0418097 0.0517281
0.0543526 0.042237 0.0506294
0.0691081 0.0426032 0.0499428
0.0848859 0.042237 0.0486305
0.10428 0.0419623 0.0476387
0.128923 0.0404822 0.0458686
0.160784 0.0382391 0.0442054
0.199756 0.0349432 0.0418555
0.24683 0.0323491 0.0416114
0.300099 0.0308232 0.043122
0.355871 0.029984 0.0481575
0.412009 0.027924 0.0529793
0.467033 0.0264286 0.0603799
0.504646 0.0232548 0.061265
0.541451 0.0244907 0.0722972
0.614145 0.0378882 0.117891
0.657893 0.0455024 0.14435
0.666514 0.0466163 0.149844
0.66685 0.0468299 0.151202
0.667231 0.0470283 0.15227
0.667567 0.0471962 0.153429
0.667842 0.0473335 0.154406
0.668086 0.0474403 0.155184
0.668284 0.0475319 0.155871
0.668498 0.0475624 0.156435
0.668833 0.0475319 0.156909
0.669245 0.0474556 0.15729
0.669902 0.0472572 0.157656
0.670588 0.0470283 0.157977
0.0140993 0.0404822 0.0500038
0.0140993 0.0404974 0.0500343
0.0140993 0.0404822 0.0500038
0.0208896 0.0408942 0.0499733
0.0326085 0.0416419 0.0509041
0.0492409 0.0420844 0.0513771
0.0638895 0.0424811 0.0501869
0.080354 0.0425879 0.0491951
0.0999924 0.0420081 0.047776
0.124758 0.0408484 0.0462196
0.15671 0.0386511 0.0445258
0.196109 0.0352178 0.0420844
0.242756 0.0319371 0.0400854
0.295186 0.0287633 0.0385901
0.349401 0.0264134 0.0396429
0.404746 0.0241703 0.0424506
0.460227 0.022034 0.0493019
0.508995 0.0222324 0.062623
0.536446 0.0209506 0.0659495
0.603754 0.035874 0.10753
0.653437 0.0446326 0.138262
0.665522 0.046128 0.145785
0.665995 0.0463111 0.147387
0.666285 0.046479 0.148714
0.666514 0.0466163 0.149874
0.666728 0.0467536 0.150805
0.666926 0.0468605 0.151446
0.667155 0.046952 0.151934
0.667384 0.0469978 0.152361
0.66775 0.0469673 0.15285
0.668162 0.0468757 0.153231
0.668833 0.0466926 0.153597
0.669535 0.0464637 0.153933
0.0140993 0.0404822 0.0500038
0.0141146 0.040528 0.0500496
0.0141146 0.040528 0.0500496
0.0140993 0.0404822 0.0500038
0.0263828 0.0428016 0.0502327
0.0399634 0.0437171 0.0517281
0.0562905 0.0440223 0.0507973
0.0738842 0.0441138 0.0498817
0.0947127 0.0428473 0.0482032
0.120241 0.0412146 0.046479
0.152743 0.0389715 0.04477
0.192325 0.035523 0.0423285
0.239399 0.0320439 0.0400702
0.292332 0.0290227 0.0387274
0.34699 0.0264591 0.0394598
0.402777 0.0241855 0.0421759
0.457755 0.0211185 0.0467689
0.505089 0.0196078 0.057084
0.540703 0.0213931 0.0675669
0.585397 0.0314794 0.0931716
0.642222 0.0419776 0.127092
0.661662 0.0452888 0.139849
0.663767 0.0456703 0.142763
0.664927 0.0459449 0.144396
0.665522 0.0461128 0.145769
0.665843 0.0462348 0.146792
0.666041 0.0463417 0.147601
0.666209 0.0464027 0.148272
0.666377 0.0464332 0.148775
0.666667 0.0464179 0.149218
0.667079 0.0463264 0.149554
0.667765 0.0461433 0.149905
0.668467 0.0459144 0.150195
0.0140993 0.0404822 0.0500038
0.0141146 0.040528 0.0500496
0.0141146 0.040528 0.0500496
0.0140993 0.0404822 0.0500038
0.0220035 0.0428779 0.0505837
0.0317845 0.0456703 0.0510567
0.0457771 0.0467079 0.0520943
0.0645304 0.0472877 0.0509651
0.0859998 0.0463874 0.049424
0.11249 0.0440833 0.0476081
0.146777 0.0406958 0.0455024
0.188266 0.035996 0.0425879
0.236042 0.032166 0.0401465
0.289616 0.0294041 0.0390631
0.344976 0.0265507 0.0393988
0.401129 0.0242313 0.0420691
0.456657 0.0211948 0.0465248
0.503914 0.0193484 0.0564584
0.541039 0.0216373 0.0680247
0.57583 0.0265812 0.0829786
0.632151 0.0396582 0.117403
0.650675 0.0442359 0.129671
0.655055 0.0443885 0.133165
0.659205 0.0448463 0.13669
0.661448 0.045243 0.139513
0.662974 0.0455177 0.141527
0.663935 0.0457008 0.142916
0.664576 0.0458228 0.14374
0.665049 0.0458839 0.14432
0.665537 0.0458686 0.144839
0.66598 0.0457923 0.145312
0.666636 0.0456397 0.145769
0.667399 0.0454261 0.146105
0.0155642 0.0525978 0.0558633
0.015198 0.0514992 0.0537881
0.0161593 0.0501106 0.0533913
0.0190433 0.048188 0.0525673
0.0219425 0.0466926 0.0521553
0.0291752 0.0490272 0.053254
0.0380255 0.0495918 0.0529793
0.0546883 0.0492714 0.0523232
0.0767834 0.0490272 0.0506142
0.103532 0.0473182 0.0488594
0.138613 0.0442359 0.0468757
0.181704 0.039292 0.0438697
0.231891 0.0329595 0.0402075
0.287312 0.029633 0.0391394
0.342977 0.0267033 0.0394446
0.399298 0.0243381 0.0420539
0.455451 0.0213931 0.0465095
0.50277 0.0191958 0.0560616
0.54107 0.0218357 0.0683452
0.573663 0.0261387 0.08159
0.63151 0.0395819 0.116869
0.648493 0.0440375 0.127932
0.64889 0.0440681 0.128252
0.649104 0.0440986 0.128511
0.649592 0.0441901 0.129046
0.652216 0.0441596 0.130724
0.655268 0.0444495 0.133379
0.657389 0.0446326 0.135027
0.658839 0.0447242 0.136339
0.659937 0.0448005 0.137285
0.660975 0.0448005 0.138125
0.662089 0.0446784 0.138796
0.663111 0.0445106 0.13933
0.0147097 0.0636149 0.0598154
0.0140841 0.0624552 0.0558175
0.0145876 0.0611429 0.0558175
0.0201114 0.0588846 0.0550698
0.0251164 0.0564889 0.054612
0.0310063 0.0569009 0.0546426
0.0404059 0.0574197 0.0561074
0.0570687 0.0573587 0.0567483
0.0776226 0.0561227 0.0555734
0.101717 0.0539101 0.0520485
0.132113 0.0488289 0.0484932
0.174594 0.0433356 0.0453956
0.226078 0.0368353 0.0416266
0.283482 0.0306096 0.0389258
0.340551 0.0268559 0.0393072
0.397543 0.0243992 0.0419165
0.454078 0.021622 0.04654
0.501701 0.0191043 0.0557412
0.541039 0.0220188 0.0687266
0.571542 0.0256046 0.0802472
0.631693 0.0395972 0.116945
0.648219 0.0439918 0.127733
0.648203 0.0439918 0.127718
0.648203 0.044007 0.127718
0.648386 0.0440223 0.127855
0.648768 0.0440681 0.128145
0.649012 0.0440833 0.128328
0.649149 0.0440833 0.128481
0.649302 0.0440681 0.128618
0.649561 0.0440223 0.12871
0.649851 0.0439307 0.128801
0.650355 0.0437476 0.128923
0.650889 0.0435645 0.12903
0.0124819 0.0781415 0.0593271
0.0117494 0.0766003 0.0548714
0.0120851 0.0746319 0.0551461
0.016968 0.07187 0.0548562
0.0240177 0.0683757 0.054902
0.030396 0.0667735 0.0541848
0.0403601 0.0674754 0.0533303
0.0576638 0.0679026 0.0548409
0.0791028 0.0670329 0.0584726
0.107591 0.0636149 0.0583963
0.139971 0.059617 0.0542916
0.177646 0.0523232 0.0491493
0.222324 0.0418402 0.0433967
0.279789 0.0332647 0.0387732
0.338262 0.0276493 0.0391546
0.395666 0.024567 0.0417945
0.452888 0.0217746 0.0464942
0.500954 0.0191958 0.0555581
0.541054 0.0222629 0.0691691
0.569543 0.0252079 0.0793469
0.632105 0.0396582 0.117205
0.648356 0.0439307 0.127749
0.648356 0.043946 0.127749
0.648341 0.043946 0.127749
0.648341 0.043946 0.127749
0.648341 0.043946 0.127749
0.648341 0.043946 0.127733
0.648341 0.043946 0.127749
0.648386 0.0439307 0.127764
0.648493 0.0438849 0.127764
0.648646 0.0438392 0.127794
0.648936 0.0437171 0.127855
0.649241 0.0436103 0.127916
0.00967422 0.0960708 0.0567636
0.00883497 0.0945754 0.0521096
0.00923171 0.0930495 0.0520638
0.0108186 0.0911574 0.0525063
0.0218051 0.0875868 0.0515908
0.0289616 0.083299 0.0511482
0.0398718 0.0838331 0.0495613
0.057145 0.0844587 0.0479591
0.0813916 0.0833295 0.055787
0.1084 0.0818952 0.0604715
0.145663 0.0760967 0.0603647
0.193408 0.0674907 0.0575265
0.235203 0.0579232 0.0493324
0.283635 0.0437324 0.0426947
0.336721 0.030808 0.0381933
0.393637 0.0250858 0.0412146
0.451057 0.0219425 0.0463264
0.499763 0.019379 0.0552987
0.540963 0.0225071 0.0695811
0.567102 0.0245518 0.0776532
0.632425 0.0396582 0.117357
0.648463 0.0439002 0.127764
0.648463 0.0439002 0.127764
0.648463 0.0439002 0.127764
0.648463 0.0439002 0.127764
0.648463 0.0439002 0.127764
0.648447 0.0439002 0.127764
0.648463 0.0439002 0.127764
0.648463 0.0439002 0.127764
0.648539 0.0438697 0.127794
0.648661 0.0438239 0.12781
0.648936 0.0437171 0.127855
0.649241 0.0436103 0.127916
0.00683604 0.117769 0.0538491
0.00622568 0.11635 0.0482032
0.00709545 0.114778 0.0452583
0.00758373 0.113466 0.0460212
0.016083 0.11107 0.0459144
0.0265049 0.1075 0.0455634
0.0395514 0.103807 0.0450904
0.0563668 0.103944 0.0443122
0.0796368 0.104112 0.0457618
0.109514 0.103716 0.0543832
0.147402 0.100862 0.061265
0.195819 0.0923018 0.0623484
0.256901 0.0788434 0.0596017
0.304891 0.0661936 0.0517586
0.350835 0.0493019 0.0445411
0.394781 0.0301823 0.0396277
0.44892 0.0227359 0.0452583
0.498268 0.0196384 0.0548257
0.540536 0.0226902 0.0697642
0.563546 0.0238651 0.0755932
0.632563 0.0396887 0.117494
0.648478 0.0439002 0.127764
0.648478 0.0439002 0.127764
0.648478 0.0439002 0.127764
0.648478 0.0439002 0.127764
0.648478 0.0439002 0.127764
0.648478 0.0439002 0.127764
0.648478 0.0439002 0.127764
0.648478 0.0439002 0.127764
0.648539 0.0438697 0.127779
0.648661 0.0438239 0.12781
0.648936 0.0437171 0.127855
0.649241 0.0436103 0.127916
0.00485237 0.145113 0.0518044
0.00444038 0.143755 0.0448615
0.00628672 0.142382 0.0370184
0.0065156 0.140841 0.0370336
0.0071107 0.139132 0.0375067
0.0200656 0.136431 0.0376745
0.0316777 0.132601 0.0377203
0.0559396 0.128313 0.0396277
0.0788739 0.128328 0.0403143
0.107515 0.128511 0.0447242
0.146548 0.128145 0.051667
0.197742 0.123323 0.0618296
0.258793 0.111788 0.0649577
0.327169 0.0947585 0.0627298
0.380346 0.0781872 0.0565042
0.421286 0.0594492 0.0497292
0.461158 0.0328985 0.0413519
0.499687 0.0220951 0.0511635
0.540093 0.0230106 0.0691844
0.559655 0.0228428 0.0732128
0.6327 0.039704 0.117601
0.648478 0.0439002 0.127764
0.648478 0.0439002 0.127764
0.648478 0.0439002 0.127764
0.648478 0.0439002 0.127764
0.648478 0.0439002 0.127764
0.648478 0.0439002 0.127764
0.648478 0.0439002 0.127764
0.648478 0.0439002 0.127764
0.648539 0.0438697 0.127779
0.648661 0.0438239 0.12781
0.648936 0.0437171 0.127855
0.649241 0.0436103 0.127916
0.00143435 0.180636 0.0501717
0.00314336 0.179019 0.041413
0.00466926 0.177432 0.0337682
0.00761425 0.175875 0.0278019
0.00776684 0.174441 0.0278782
0.00842298 0.172808 0.0281682
0.0231937 0.170336 0.0278172
0.0404364 0.165515 0.0280613
0.0768749 0.160327 0.0339055
0.106447 0.160235 0.0377661
0.14313 0.160739 0.043061
0.194369 0.160342 0.0496834
0.259815 0.153872 0.0637522
0.331502 0.138033 0.0697032
0.399466 0.11957 0.0696269
0.457404 0.0975509 0.0652628
0.494362 0.0770733 0.0565652
0.525124 0.0440833 0.0485084
0.551186 0.024918 0.0588083
0.561227 0.0211337 0.0675059
0.632242 0.0390631 0.115953
0.647959 0.0438544 0.127489
0.648356 0.0438849 0.127687
0.648478 0.0439002 0.127764
0.648478 0.0439002 0.127764
0.648478 0.0439002 0.127764
0.648478 0.0439002 0.127764
0.648478 0.0439002 0.127764
0.648478 0.0439002 0.127764
0.648539 0.0438697 0.127779
0.648661 0.0438239 0.12781
0.648936 0.0437171 0.127855
0.649241 0.0436103 0.127916
0 0.224933 0.0500343
0 0.223209 0.0402838
0.00221256 0.221393 0.032105
0.00680552 0.219898 0.0227817
0.00996414 0.218341 0.0175631
0.0102846 0.21709 0.017731
0.0108492 0.21561 0.0178073
0.0253605 0.213245 0.0158999
0.0509499 0.207492 0.0172122
0.101991 0.202121 0.0268711
0.140917 0.201114 0.0352483
0.1897 0.202396 0.0411536
0.254749 0.202564 0.0461128
0.328954 0.195758 0.0653239
0.407828 0.176852 0.0774243
0.473716 0.15819 0.0814069
0.536049 0.129854 0.0798352
0.568292 0.107607 0.0731823
0.592966 0.0667277 0.0627756
0.617807 0.0295262 0.0642863
0.612406 0.0239109 0.0784009
0.630869 0.0375677 0.109499
0.642969 0.0423133 0.121996
0.646082 0.0428168 0.125185
0.647059 0.0432441 0.126513
0.647471 0.0435798 0.127047
0.64773 0.0438239 0.127352
0.647959 0.0438392 0.127459
0.648112 0.0438697 0.12755
0.64831 0.0438544 0.127611
0.648539 0.0438239 0.127703
0.64889 0.0437171 0.12781
0.649256 0.0436103 0.127916
0 0.278492 0.0512093
0 0.277134 0.0432593
0.000961318 0.275425 0.0348363
0.00395209 0.274052 0.0263676
0.0109865 0.272618 0.0152132
0.0156558 0.271 0.00816358
0.0158541 0.269596 0.00775158
0.0163272 0.267826 0.00766003
0.0296941 0.264637 0.00299077
0.0684215 0.259144 0.00521859
0.134005 0.253223 0.0205997
0.186267 0.252247 0.0331273
0.247929 0.254231 0.0385901
0.324895 0.254734 0.0422217
0.399741 0.251164 0.0652628
0.483131 0.230762 0.0880293
0.550103 0.211185 0.0962692
0.613672 0.179492 0.102678
0.647608 0.151659 0.0987411
0.678019 0.101228 0.0829633
0.69456 0.0381476 0.0702831
0.683787 0.0215915 0.0729229
0.669886 0.0247044 0.0870985
0.62829 0.0227665 0.0794537
0.61912 0.0274052 0.0886397
0.627665 0.0342412 0.103059
0.635035 0.0393072 0.11281
0.639475 0.0409247 0.117296
0.642954 0.0414893 0.119844
0.64538 0.0417487 0.121462
0.647059 0.0419318 0.122774
0.648646 0.0420233 0.123842
0.649699 0.0419776 0.124498
0 0.339345 0.0576486
0 0.33846 0.0498054
0.00202945 0.337423 0.0421454
0.0061799 0.336477 0.0344854
0.0096437 0.335714 0.0272221
0.0164187 0.334371 0.0163577
0.0247501 0.332448 0.00430304
0.0261082 0.330785 0.00218204
0.0267491 0.328908 0.00178531
0.0412451 0.323842 0
0.0951095 0.31899 0
0.176394 0.313085 0.0169375
0.242908 0.311818 0.0330968
0.316869 0.31545 0.0377661
0.398444 0.315877 0.0401312
0.471107 0.316945 0.0636759
0.557229 0.300313 0.098146
0.626032 0.279026 0.113939
0.693324 0.244343 0.129824
0.745388 0.205478 0.127291
0.770413 0.154223 0.108949
0.762905 0.100969 0.0902113
0.743557 0.066865 0.0757916
0.725261 0.0439765 0.0665904
0.712245 0.0340887 0.0674907
0.701732 0.0283513 0.0703441
0.693767 0.0248112 0.072694
0.687953 0.0233921 0.0743267
0.683162 0.0227054 0.0766003
0.679942 0.0235294 0.0802319
0.678004 0.0250858 0.0834821
0.67718 0.0267796 0.0864576
0.676936 0.0279545 0.0887465
0 0.404852 0.074052
0 0.404318 0.0661479
0.00437934 0.403815 0.0587015
0.00932326 0.40325 0.0512551
0.0139467 0.402625 0.0437018
0.0179141 0.402121 0.0372778
0.0242008 0.401282 0.0278935
0.0346838 0.39942 0.0141299
0.0404364 0.397131 0.00656138
0.0411841 0.394781 0.00552377
0.0604105 0.387533 0
0.131609 0.382971 0
0.231037 0.376074 0.0213931
0.30959 0.375418 0.0372168
0.389334 0.379492 0.0400397
0.47219 0.380102 0.0422217
0.544228 0.385031 0.0634012
0.631388 0.374166 0.108461
0.699611 0.356542 0.135454
0.779828 0.319936 0.156558
0.837217 0.273426 0.158755
0.844831 0.239506 0.147219
0.833463 0.217273 0.137881
0.821073 0.196658 0.129335
0.810147 0.177722 0.121187
0.800458 0.161074 0.113878
0.79176 0.146731 0.107424
0.785046 0.135195 0.102556
0.780606 0.12517 0.101167
0.776135 0.117678 0.0977951
0.772702 0.112062 0.0953841
0.770352 0.107317 0.0931258
0.769894 0.104234 0.0917525
0 0.476402 0.106294
0.000793469 0.476326 0.0981765
0.00738537 0.476036 0.0901503
0.0139925 0.475654 0.0820325
0.0203861 0.475151 0.0741741
0.0271763 0.474556 0.0660105
0.0329595 0.474159 0.0586709
0.0397803 0.473838 0.0497902
0.0526284 0.472175 0.0339971
0.0615854 0.469596 0.0217594
0.0620737 0.466361 0.019028
0.0886854 0.457053 0
0.178561 0.451957 0
0.298482 0.442695 0.0349584
0.384497 0.442481 0.0475776
0.4636 0.445319 0.0461585
0.545953 0.446693 0.0509041
0.616861 0.45301 0.0706798
0.704265 0.447883 0.125185
0.776928 0.434424 0.158007
0.854734 0.397574 0.177859
0.895552 0.355779 0.184863
0.895369 0.335271 0.181827
0.890486 0.319524 0.177798
0.885695 0.30602 0.173907
0.881239 0.294881 0.170352
0.877012 0.286107 0.167056
0.873198 0.279271 0.164294
0.869917 0.273747 0.161898
0.867414 0.269993 0.160327
0.865324 0.26717 0.158999
0.864271 0.264897 0.157733
0.863996 0.263188 0.156405
0 0.552499 0.153796
0.000350958 0.552941 0.146471
0.00753796 0.553307 0.138674
0.0155032 0.553429 0.130083
0.0238804 0.553231 0.121294
0.0323644 0.553033 0.112749
0.0412451 0.552697 0.104234
0.0514076 0.552193 0.0937209
0.0618906 0.551614 0.0819104
0.0776379 0.550362 0.0632181
0.088838 0.547753 0.0486915
0.0899519 0.543572 0.0449073
0.127077 0.531075 0.00975052
0.234043 0.525948 0.00518807
0.377997 0.511879 0.0558328
0.461402 0.510887 0.0605325
0.538109 0.512322 0.0597086
0.618006 0.513588 0.067216
0.689189 0.520485 0.0865187
0.778073 0.519631 0.145418
0.849638 0.509438 0.175525
0.907897 0.47689 0.194812
0.917205 0.455482 0.196735
0.915953 0.441444 0.195895
0.914519 0.429923 0.195178
0.913222 0.420539 0.1944
0.912139 0.413138 0.193774
0.911116 0.406928 0.193042
0.91046 0.402625 0.19263
0.909957 0.399008 0.192294
0.909361 0.396262 0.191806
0.909224 0.394507 0.191211
0.909651 0.393545 0.190616
0 0.629419 0.218814
0.000244144 0.630381 0.210941
0.00700389 0.631327 0.203708
0.0149386 0.632166 0.195987
0.0239109 0.632883 0.187549
0.0333562 0.633478 0.178851
0.0433814 0.633906 0.169879
0.055848 0.634119 0.158801
0.0709087 0.633982 0.144686
0.0884413 0.633433 0.126696
0.107073 0.63241 0.106416
0.117769 0.629267 0.0919356
0.120409 0.624491 0.0855268
0.178958 0.608148 0.0286564
0.30515 0.603525 0.0310521
0.460822 0.58378 0.0793164
0.538705 0.580056 0.0836805
0.611658 0.579477 0.0817884
0.688121 0.580407 0.0905623
0.76347 0.586297 0.103868
0.845502 0.588937 0.15787
0.905547 0.58204 0.188388
0.924712 0.569909 0.195178
0.925505 0.559289 0.19649
0.924727 0.549752 0.197406
0.924132 0.541695 0.198169
0.923323 0.535058 0.19823
0.923125 0.5299 0.198749
0.922698 0.525628 0.198856
0.922621 0.522942 0.199207
0.922469 0.520943 0.199268
0.922423 0.519326 0.198901
0.922484 0.518303 0.198123
0.00527962 0.705516 0.296162
0.00593576 0.706203 0.289418
0.00657664 0.706905 0.283146
0.0120546 0.708492 0.276173
0.0191043 0.710155 0.26807
0.0268101 0.711482 0.26009
0.035523 0.712688 0.251652
0.0480964 0.714122 0.240726
0.0658122 0.715526 0.225437
0.0873732 0.716365 0.206043
0.112459 0.716152 0.181857
0.136675 0.715572 0.15729
0.140917 0.711955 0.149493
0.155932 0.704845 0.129717
0.249897 0.688197 0.0541238
0.392462 0.680766 0.0746166
0.542412 0.655955 0.113573
0.613901 0.648783 0.113085
0.682399 0.646387 0.110872
0.757397 0.646418 0.111177
0.832837 0.650584 0.122423
0.900053 0.655848 0.164569
0.935378 0.651865 0.190066
0.937255 0.645518 0.192432
0.935973 0.639536 0.192386
0.934951 0.634485 0.192126
0.934188 0.630106 0.192004
0.933867 0.6271 0.192172
0.933425 0.624292 0.192157
0.933043 0.622171 0.192111
0.932692 0.620737 0.191974
0.932631 0.619776 0.191745
0.932815 0.619242 0.191409
0.0231327 0.785626 0.370306
0.0227512 0.786389 0.365225
0.0222171 0.787137 0.360006
0.0225223 0.787945 0.354299
0.0227665 0.788724 0.348669
0.023331 0.789563 0.342535
0.0240482 0.790402 0.335927
0.0314946 0.791897 0.327901
0.0456092 0.793729 0.316289
0.0683452 0.795941 0.300389
0.0994888 0.798047 0.277363
0.134661 0.799542 0.245899
0.162799 0.798352 0.218097
0.164141 0.793149 0.211414
0.204456 0.782544 0.169512
0.333959 0.769772 0.0983902
0.490562 0.755673 0.129229
0.62092 0.727886 0.155261
0.685725 0.717433 0.147204
0.751369 0.712734 0.140475
0.824292 0.711894 0.134157
0.89163 0.713893 0.147478
0.944167 0.719753 0.174136
0.956466 0.716808 0.185733
0.95552 0.711772 0.187274
0.95404 0.707515 0.188098
0.952758 0.703868 0.188617
0.951858 0.701045 0.189136
0.951247 0.698848 0.189517
0.950637 0.697063 0.189837
0.950225 0.695781 0.190097
0.949889 0.694942 0.190127
0.949706 0.694408 0.190066
0.0368505 0.860441 0.43975
0.0362707 0.861112 0.435752
0.0352483 0.861891 0.431586
0.0344549 0.862776 0.427192
0.0337377 0.863645 0.42269
0.0336156 0.864408 0.417853
0.033402 0.865141 0.413092
0.0338903 0.866056 0.40676
0.0348516 0.867262 0.39762
0.0367895 0.868833 0.385092
0.0500496 0.871794 0.367803
0.0865797 0.875761 0.342687
0.135668 0.878065 0.309117
0.156176 0.875425 0.2916
0.164538 0.869657 0.28098
0.260807 0.856764 0.202625
0.430533 0.846448 0.152087
0.582132 0.825437 0.189715
0.691875 0.797986 0.202197
0.753002 0.785473 0.191684
0.817105 0.779675 0.186526
0.882338 0.778241 0.173205
0.939147 0.779309 0.187381
0.977234 0.784497 0.20914
0.979812 0.780407 0.209537
0.978882 0.776257 0.207828
0.977722 0.772854 0.20618
0.976684 0.769924 0.205035
0.976074 0.767987 0.204578
0.975311 0.766293 0.203815
0.974777 0.765042 0.203555
0.97435 0.764172 0.203693
0.973983 0.763638 0.204334
0.049134 0.920851 0.507759
0.0483406 0.921386 0.504768
0.0469368 0.922118 0.501289
0.045594 0.922927 0.49749
0.0443885 0.923629 0.494118
0.0438392 0.924315 0.490318
0.0434272 0.92491 0.486778
0.0433051 0.925628 0.481682
0.0431067 0.926513 0.475044
0.0428779 0.927764 0.465599
0.0435492 0.929732 0.452277
0.0458381 0.932418 0.433616
0.0565347 0.936324 0.406516
0.102647 0.941222 0.376516
0.11194 0.937194 0.368109
0.178759 0.931762 0.32134
0.321813 0.923598 0.222614
0.524697 0.908339 0.220676
0.659663 0.882094 0.256535
0.753887 0.857618 0.265202
0.813748 0.846113 0.254292
0.876524 0.840772 0.253376
0.932204 0.838636 0.247028
0.973297 0.841749 0.256657
0.990799 0.842542 0.265507
0.991333 0.8392 0.262119
0.991104 0.836255 0.259052
0.990906 0.833997 0.256306
0.990478 0.83209 0.253559
0.99025 0.830564 0.251316
0.990051 0.829404 0.250065
0.989899 0.82858 0.249561
0.989746 0.828031 0.24976
0.0652628 0.964294 0.573907
0.0642405 0.964752 0.571588
0.0624552 0.965408 0.56878
0.0608225 0.966064 0.565881
0.0593423 0.966644 0.563287
0.0585946 0.967147 0.560433
0.0580758 0.96762 0.557382
0.0577859 0.968017 0.553796
0.0573434 0.968673 0.548424
0.0567025 0.969512 0.541405
0.0559243 0.970733 0.531502
0.0552071 0.972473 0.517922
0.0549172 0.975204 0.498268
0.057496 0.978866 0.472419
0.0572976 0.977447 0.45861
0.0661936 0.975143 0.441886
0.202335 0.980652 0.351019
0.393454 0.977203 0.27895
0.598718 0.954253 0.298604
0.723903 0.92726 0.333837
0.807996 0.90808 0.345769
0.867872 0.897917 0.338231
0.923613 0.892226 0.340414
0.968566 0.890028 0.340124
0.995163 0.893431 0.344366
0.996628 0.891463 0.339208
0.996201 0.889052 0.333639
0.995697 0.887068 0.328939
0.995453 0.885603 0.325551
0.995361 0.884733 0.323079
0.995193 0.883909 0.320882
0.995071 0.883299 0.319478
0.99501 0.882826 0.318914
0.0759899 0.982895 0.620111
0.0753033 0.983337 0.618357
0.0735332 0.984054 0.616388
0.0717174 0.984741 0.614572
0.0702678 0.985382 0.612696
0.0696422 0.98584 0.610727
0.0691997 0.986282 0.608713
0.0689708 0.986709 0.606439
0.0686503 0.987274 0.603204
0.0681621 0.988098 0.598474
0.0675059 0.989166 0.592142
0.0666361 0.990646 0.583352
0.0656596 0.992493 0.571145
0.0645304 0.994827 0.554528
0.0639963 0.996094 0.541726
0.0628214 0.995621 0.529305
0.0747539 0.998154 0.473243
0.229114 0.999969 0.380285
0.486183 0.999847 0.35613
0.657984 0.988479 0.378454
0.779004 0.962448 0.41622
0.856519 0.947372 0.430808
0.912245 0.938308 0.427436
0.960708 0.932662 0.431052
0.994873 0.930404 0.432807
0.999893 0.929763 0.431464
0.999908 0.927794 0.427131
0.999878 0.926146 0.422705
0.999802 0.924697 0.419211
0.999756 0.923735 0.416327
0.99971 0.922988 0.414435
0.99968 0.922393 0.412909
0.99968 0.921935 0.411872
0.0776226 0.984314 0.628931
0.076936 0.98468 0.627207
0.0752422 0.98529 0.625208
0.0734417 0.985885 0.623438
0.0719768 0.98645 0.6215
0.0712444 0.986862 0.619501
0.0707561 0.987213 0.617594
0.0705272 0.987564 0.615213
0.0701915 0.988098 0.611704
0.0696727 0.98883 0.607065
0.0689555 0.989822 0.600916
0.06804 0.99115 0.592447
0.0669108 0.992844 0.580774
0.0655985 0.994949 0.564065
0.0644846 0.996719 0.547509
0.0644236 0.996826 0.546441
0.0657054 0.998657 0.532174
0.0923781 0.999969 0.47892
0.284749 0.999969 0.409995
0.560998 0.999969 0.424979
0.707668 0.998367 0.45536
0.82652 0.980316 0.498482
0.901106 0.971466 0.515312
0.950286 0.965881 0.511055
0.990204 0.961563 0.512734
0.999969 0.957565 0.515953
0.999969 0.955947 0.510399
0.999969 0.95465 0.505409
0.999969 0.953597 0.501732
0.999969 0.952819 0.498619
0.999969 0.952346 0.496803
0.999969 0.951995 0.495262
0.999969 0.951644 0.494041
0.0754253 0.984375 0.632105
0.0754406 0.984573 0.630457
0.0746471 0.98497 0.628641
0.0736095 0.985428 0.626825
0.0723888 0.985931 0.624933
0.0716564 0.986267 0.623285
0.0711833 0.986648 0.621241
0.0708934 0.987045 0.618723
0.0705577 0.987518 0.615579
0.0700999 0.988235 0.610864
0.0693675 0.989197 0.604822
0.0684367 0.990524 0.59646
0.0672465 0.992279 0.584802
0.0659342 0.994415 0.568551
0.0645609 0.996582 0.548943
0.0645151 0.996796 0.54725
0.0650645 0.997971 0.540444
0.0766613 0.999969 0.495232
0.227634 0.999969 0.416403
0.512215 0.999969 0.428809
0.671473 0.999969 0.460746
0.779202 0.992691 0.507759
0.885359 0.977356 0.551766
0.933379 0.973663 0.564828
0.974365 0.97229 0.573602
0.999649 0.970321 0.587259
0.999969 0.969528 0.589929
0.999969 0.969345 0.587182
0.999969 0.969268 0.584756
0.999969 0.969284 0.583017
0.999969 0.969299 0.58204
0.999969 0.969299 0.580941
0.999969 0.969268 0.580011
0.0733043 0.984512 0.634531
0.0734112 0.984695 0.632944
0.0734264 0.984878 0.631403
