bundles/resolve-cinematic-luts/Phantom Luts/S5ii LUTs/Standard (No WB Offset)/S5ii Jamaica V-Log.cube
TITLE "Generated by Resolve"
LUT_3D_SIZE 9
0.00825513 0.0293278 0.00825513
0.0531319 0.0299382 0.00810254
0.162188 0.029633 0.0111238
0.341619 0.0289769 0.0231785
0.540383 0.0352789 0.0706035
0.648966 0.0685435 0.184329
0.651835 0.0694285 0.190692
0.653132 0.0698253 0.193637
0.653407 0.0699779 0.193759
0.00946059 0.0473182 0.0172427
0.0208743 0.0376593 0.00991836
0.118151 0.0395056 0.0133822
0.323384 0.0297093 0.0196078
0.528725 0.0315099 0.05449
0.636759 0.0639811 0.158419
0.635828 0.0637827 0.156268
0.641566 0.0661479 0.167941
0.642817 0.0667124 0.170077
0.00880446 0.151339 0.0425879
0.0204166 0.140169 0.0224918
0.124788 0.128405 0.0150149
0.350698 0.0958114 0.0423896
0.52224 0.0320439 0.050248
0.637354 0.064271 0.159487
0.637354 0.064271 0.159487
0.637369 0.064271 0.159487
0.637263 0.0642863 0.15903
0 0.34902 0.104356
0.0146181 0.34313 0.0502022
0.0405127 0.333791 0.0150301
0.318914 0.32253 0.00903334
0.635981 0.281178 0.103792
0.618708 0.0703288 0.103319
0.620264 0.0555581 0.131487
0.634577 0.0631876 0.153628
0.636561 0.0639963 0.157626
0.0507973 0.621363 0.308415
0.0683604 0.624949 0.269963
0.10515 0.62858 0.224109
0.165515 0.616938 0.126528
0.594446 0.590677 0.0790875
0.874556 0.593652 0.253315
0.894041 0.51667 0.274769
0.883314 0.482734 0.268681
0.877272 0.469703 0.264866
0.271107 0.876509 0.629908
0.269856 0.876417 0.61738
0.268513 0.876234 0.601862
0.275807 0.88304 0.550591
0.470878 0.916564 0.362173
0.844388 0.847471 0.334356
0.955489 0.856031 0.409934
0.952117 0.842725 0.401404
0.950362 0.836362 0.397986
0.376425 0.946227 0.784298
0.375906 0.946746 0.778897
0.375708 0.947799 0.774014
0.375113 0.950439 0.760632
0.376669 0.956146 0.738933
0.738766 0.998932 0.638743
0.987884 0.993317 0.626123
1 0.990478 0.62002
1 0.989013 0.610224
0.377386 0.946471 0.788891
0.376165 0.94548 0.784848
0.375738 0.946166 0.780591
0.37496 0.948653 0.767849
0.374197 0.953521 0.740398
0.635767 0.998932 0.65008
0.962036 0.994186 0.665537
1 0.995758 0.698146
1 0.997192 0.69633
0.377737 0.94667 0.789685
0.376761 0.945983 0.785595
0.376089 0.946181 0.78204
0.375082 0.948348 0.76965
0.373846 0.953216 0.740124
0.611017 0.998932 0.644633
0.955215 0.994675 0.663325
1 0.996353 0.697246
1 0.997772 0.695277
0.00822461 0.0297398 0.0175784
0.0492256 0.0308995 0.0346227
0.166339 0.0353246 0.0506905
0.363272 0.0381323 0.0788281
0.561486 0.046067 0.115755
0.657984 0.0715953 0.203815
0.660639 0.0724498 0.209842
0.661997 0.0730144 0.212772
0.662364 0.0731975 0.213016
0.0112001 0.04065 0.0251316
0.00833143 0.0311894 0.00910964
0.128267 0.0306706 0.0115816
0.323674 0.0313573 0.0294041
0.534279 0.0361181 0.0692302
0.649668 0.0688029 0.18555
0.652491 0.0696574 0.191821
0.65388 0.0700847 0.194781
0.654231 0.0702373 0.195117
0.0184634 0.139757 0.085771
0.00799573 0.13315 0.0418402
0.114031 0.120699 0.0159457
0.346105 0.0766918 0.0367895
0.521416 0.0315404 0.0513771
0.637324 0.0642863 0.159319
0.639033 0.0650797 0.162585
0.640223 0.065507 0.165103
0.640528 0.0656443 0.165499
0 0.342367 0.149508
0 0.338582 0.103944
0.0233158 0.329 0.0281529
0.311543 0.31754 0.00889601
0.636057 0.264881 0.104021
0.618738 0.0689403 0.107134
0.629679 0.0609751 0.144442
0.636545 0.0639658 0.157733
0.637247 0.0642863 0.159014
0.0529946 0.61445 0.335119
0.0455177 0.614542 0.302815
0.0722972 0.618067 0.25539
0.145693 0.616968 0.152178
0.591379 0.587625 0.0772106
0.874525 0.586419 0.252552
0.892348 0.510338 0.273793
0.880964 0.476905 0.267231
0.874968 0.463981 0.263569
0.268238 0.873167 0.635691
0.266758 0.87306 0.623514
0.264866 0.872572 0.608911
0.26479 0.873762 0.562432
0.445426 0.91577 0.371893
0.84239 0.845457 0.331807
0.954772 0.852796 0.407965
0.950851 0.838376 0.398413
0.949447 0.832639 0.395468
0.376593 0.945403 0.787717
0.376089 0.945907 0.782605
0.375921 0.946929 0.77818
0.375219 0.949462 0.765332
0.375967 0.955337 0.740001
0.729213 0.998932 0.637995
0.986801 0.992752 0.62237
1 0.989746 0.614893
1 0.988144 0.604547
0.377447 0.945495 0.791867
0.376272 0.944503 0.788434
0.375952 0.945296 0.784436
0.375265 0.947814 0.772488
0.374182 0.953506 0.740398
0.618357 0.998932 0.649897
0.959609 0.994171 0.664988
1 0.995758 0.698161
1 0.997192 0.69633
0.377752 0.945663 0.792859
0.376562 0.944518 0.789242
0.376257 0.945266 0.78584
0.375387 0.947494 0.774319
0.373846 0.953216 0.740124
0.592477 0.998932 0.643381
0.952422 0.994705 0.662776
1 0.996353 0.697246
1 0.997772 0.695277
0.00936904 0.034165 0.0929427
0.0799115 0.031754 0.0995193
0.174105 0.037705 0.116838
0.376272 0.0442054 0.12256
0.58381 0.0459297 0.163058
0.6692 0.0764935 0.227237
0.672663 0.0784009 0.233555
0.674327 0.079469 0.236423
0.674723 0.0797742 0.2365
0.012726 0.0450141 0.0641337
0.00952163 0.0346838 0.0812238
0.137972 0.0359197 0.092256
0.3505 0.0392767 0.0925307
0.56611 0.0431373 0.131579
0.660487 0.0724346 0.209384
0.663188 0.073579 0.215183
0.6645 0.0741588 0.217823
0.66479 0.074342 0.217899
0.0270542 0.130816 0.120623
0.0255589 0.121096 0.108171
0.0985885 0.114183 0.0972915
0.334401 0.0795148 0.075761
0.536858 0.0438239 0.0898146
0.652827 0.0697795 0.192691
0.653758 0.0700847 0.194766
0.654322 0.0702983 0.195911
0.654582 0.0704204 0.196124
0.00941482 0.329503 0.196567
0 0.328405 0.165835
0 0.325368 0.105852
0.306386 0.3131 0.0388342
0.637354 0.251896 0.117235
0.621057 0.0673381 0.116472
0.636835 0.0640269 0.158221
0.645243 0.0674144 0.175631
0.645441 0.0674907 0.175967
0.0569009 0.604944 0.362142
0.0488289 0.605737 0.335683
0.0416876 0.605753 0.297047
0.127153 0.612314 0.16965
0.587625 0.58439 0.0749828
0.873823 0.581537 0.251453
0.89015 0.5028 0.272572
0.878126 0.469429 0.26569
0.872023 0.45687 0.261936
0.264622 0.868818 0.641703
0.263188 0.868925 0.63061
0.26128 0.86865 0.61709
0.258595 0.868559 0.573175
0.417212 0.91397 0.383459
0.840024 0.843076 0.328786
0.953567 0.848859 0.405234
0.949874 0.834607 0.395926
0.947646 0.828565 0.392111
0.376806 0.944488 0.791455
0.376318 0.944976 0.786648
0.37612 0.945968 0.782452
0.375463 0.948455 0.770459
0.375372 0.954696 0.740475
0.717372 0.998932 0.637659
0.985672 0.992157 0.617517
1 0.988708 0.608499
1 0.98706 0.597711
0.3776 0.944503 0.795438
0.376547 0.943679 0.791821
0.376165 0.944335 0.788495
0.37557 0.946868 0.777386
0.374121 0.953246 0.741573
0.595743 0.998932 0.6495
0.957259 0.994125 0.664286
1 0.995758 0.698161
1 0.997192 0.696345
0.377874 0.944671 0.796475
0.376776 0.943679 0.792386
0.376394 0.944183 0.789944
0.375662 0.946517 0.779019
0.373922 0.95285 0.742672
0.565164 0.998932 0.642481
0.949477 0.99469 0.662104
1 0.996353 0.697261
1 0.997894 0.695155
0.00859083 0.0451514 0.220249
0.0684367 0.0393683 0.243107
0.217334 0.0372778 0.25127
0.390204 0.0451972 0.268132
0.611215 0.063386 0.269123
0.712749 0.109194 0.295216
0.71725 0.112917 0.301564
0.71902 0.114458 0.304021
0.719158 0.114656 0.303426
0.0117647 0.0558938 0.197101
0.00892653 0.0449226 0.213733
0.1449 0.0370184 0.251423
0.370886 0.044892 0.249042
0.600229 0.0596933 0.239322
0.700542 0.0989395 0.277638
0.704768 0.102419 0.283742
0.706493 0.103853 0.286122
0.706508 0.103929 0.285496
0.0167697 0.12871 0.21445
0.0161898 0.111757 0.219669
0.0670787 0.0925307 0.235157
0.350774 0.0613718 0.241093
0.586526 0.0549325 0.209201
0.686015 0.0876631 0.255528
0.688914 0.0898451 0.259953
0.690196 0.0907149 0.262196
0.690211 0.0907912 0.261753
0.0252995 0.306859 0.278706
0.0243229 0.301411 0.268818
0.0245975 0.294362 0.256397
0.288823 0.306386 0.265949
0.625635 0.256718 0.231235
0.681758 0.0935988 0.229831
0.674281 0.0798199 0.235737
0.675456 0.0803998 0.238178
0.675181 0.0802625 0.237415
0.069276 0.585184 0.422553
0.0628672 0.585016 0.405676
0.0566567 0.583993 0.383734
0.040589 0.587823 0.288136
0.5841 0.5841 0.184741
0.906661 0.552102 0.305058
0.909285 0.482673 0.302724
0.893248 0.453849 0.290059
0.885374 0.441688 0.283635
0.25771 0.858595 0.658045
0.255665 0.85861 0.647791
0.25333 0.85832 0.636515
0.248035 0.857893 0.600748
0.373098 0.905348 0.403326
0.83621 0.839033 0.324422
0.955703 0.842512 0.403128
0.951171 0.827817 0.392935
0.948959 0.822171 0.389441
0.377462 0.942245 0.800504
0.377035 0.942901 0.795712
0.376684 0.943633 0.792294
0.376089 0.94609 0.781903
0.374746 0.953262 0.744854
0.694392 0.998932 0.634913
0.983001 0.990005 0.604822
1 0.985962 0.594766
1 0.983627 0.583535
0.378103 0.942168 0.803906
0.377508 0.94197 0.800046
0.377005 0.94226 0.797848
0.37615 0.944472 0.787961
0.374243 0.951705 0.750423
0.543389 0.998932 0.647135
0.9514 0.99411 0.662974
1 0.995758 0.698192
1 0.997192 0.696345
0.378378 0.94226 0.805219
0.377722 0.941634 0.801678
0.377264 0.942214 0.798642
0.376242 0.944076 0.789593
0.374289 0.951431 0.752087
0.510353 0.998932 0.647837
0.941695 0.994949 0.660334
1 0.996338 0.696605
1 0.997772 0.695293
0 0.067628 0.39765
0.0295262 0.0617533 0.411231
0.137789 0.0462196 0.454292
0.420798 0.0454871 0.473823
0.616114 0.0691844 0.479881
0.74197 0.124605 0.463081
0.740322 0.123507 0.469306
0.739605 0.123125 0.471305
0.739971 0.12314 0.469551
0 0.07393 0.390463
0 0.0668803 0.394446
0.0713359 0.0552987 0.430014
0.391333 0.042237 0.475471
0.609308 0.0673075 0.472419
0.74435 0.126131 0.451804
0.743343 0.125444 0.457374
0.743145 0.125292 0.458717
0.743542 0.125399 0.457145
0 0.104402 0.380972
0 0.0881208 0.384115
0 0.0676585 0.392889
0.335103 0.0399786 0.475319
0.600137 0.0648661 0.462379
0.746761 0.128054 0.436072
0.746258 0.127626 0.440436
0.746166 0.127504 0.441489
0.746288 0.12752 0.440177
0 0.279072 0.414878
0 0.266865 0.415671
0 0.249012 0.419608
0.208286 0.242817 0.46453
0.625162 0.193759 0.497337
0.746044 0.127718 0.408881
0.747585 0.129473 0.412207
0.747646 0.12958 0.411231
0.747662 0.129656 0.409384
0.0739147 0.551644 0.522606
0.0698558 0.549065 0.514763
0.0672618 0.544793 0.507698
0.0611887 0.533501 0.487785
0.554589 0.561502 0.509911
0.91725 0.527214 0.486046
0.948898 0.454002 0.462898
0.934417 0.4271 0.440406
0.927672 0.415671 0.432197
0.251194 0.836469 0.703456
0.248341 0.836393 0.694713
0.245045 0.835218 0.686763
0.237644 0.833356 0.665156
0.267628 0.86569 0.595178
0.827283 0.831785 0.499229
1 0.819333 0.554269
1 0.801083 0.544472
1 0.793866 0.540398
0.379797 0.93579 0.823789
0.379522 0.93695 0.819608
0.379232 0.937835 0.816541
0.378408 0.939773 0.809125
0.376074 0.94612 0.78175
0.656275 0.998932 0.707591
0.977813 0.983536 0.663554
1 0.97792 0.661158
1 0.975433 0.651835
0.380255 0.935515 0.826154
0.379889 0.935943 0.823087
0.379583 0.936873 0.819944
0.378683 0.938506 0.813428
0.376104 0.944564 0.787503
0.481102 0.998932 0.717449
0.940627 0.993774 0.722774
1 0.993851 0.756024
1 0.995315 0.753292
0.380362 0.935409 0.828244
0.380118 0.935317 0.825208
0.379797 0.936339 0.821866
0.378882 0.938064 0.815167
0.376226 0.944198 0.789136
0.47248 0.998932 0.71902
0.927825 0.995575 0.719112
1 0.994141 0.753033
1 0.995438 0.7514
0.00291447 0.135775 0.554162
0.00267033 0.13521 0.553475
0.0474708 0.126513 0.571405
0.274846 0.0996567 0.64889
0.633448 0.126604 0.665614
0.710063 0.131395 0.604547
0.716884 0.141115 0.61973
0.718929 0.14406 0.624338
0.7187 0.14313 0.622217
0.0027924 0.135027 0.55317
0.00238041 0.134615 0.551675
0.0028687 0.131701 0.553262
0.235264 0.099321 0.639506
0.623148 0.122316 0.664744
0.709361 0.129168 0.599344
0.711971 0.134127 0.60882
0.713085 0.135683 0.6112
0.712993 0.134905 0.609201
0.00224308 0.140032 0.54461
0.0019379 0.13463 0.548608
0.00195315 0.133135 0.549004
0.17673 0.106142 0.622263
0.608026 0.116381 0.663325
0.7093 0.12784 0.595468
0.708934 0.128664 0.598764
0.708415 0.128374 0.598886
0.707744 0.127108 0.596353
0.007187 0.241016 0.5579
0.0062562 0.228565 0.558251
0.00630198 0.212375 0.561425
0.0632944 0.195697 0.585962
0.57554 0.132326 0.680674
0.70869 0.124712 0.588464
0.705699 0.119509 0.577173
0.705394 0.118975 0.57615
0.705287 0.118212 0.573816
0.0530709 0.513649 0.625803
0.0493629 0.508354 0.621942
0.0472114 0.500267 0.621347
0.0425727 0.475425 0.622614
0.478096 0.505928 0.727611
0.918929 0.471061 0.76817
0.949859 0.382406 0.750317
0.931914 0.351171 0.734295
0.922332 0.337865 0.72372
0.245731 0.792798 0.767025
0.242054 0.791867 0.760479
0.238499 0.789303 0.756298
0.230747 0.783352 0.747326
0.235843 0.786496 0.737621
0.792126 0.796872 0.746059
0.982345 0.782345 0.738109
0.983825 0.763119 0.733043
0.983444 0.756069 0.729686
0.384314 0.922576 0.862165
0.383688 0.923796 0.858549
0.383459 0.924651 0.856367
0.382467 0.925994 0.851392
0.374166 0.926345 0.830594
0.628595 0.998932 0.831586
0.958587 0.964584 0.804517
1 0.962615 0.821103
1 0.959747 0.815473
0.384955 0.921263 0.865904
0.384192 0.922621 0.862089
0.38381 0.923445 0.859556
0.383291 0.925307 0.854673
0.381613 0.930434 0.840162
0.445289 0.993317 0.840421
0.914473 0.996597 0.866163
0.998978 0.987655 0.899184
0.997711 0.988739 0.898878
0.384848 0.921172 0.866285
0.384436 0.921828 0.864347
0.384115 0.922698 0.861875
0.383474 0.924605 0.856474
0.381765 0.929992 0.841459
0.431724 0.985245 0.838193
0.900038 0.998611 0.863676
0.993988 0.988144 0.891859
0.995392 0.989761 0.89659
0.0497597 0.268849 0.660044
0.0489357 0.267262 0.659068
0.0475471 0.262684 0.657084
0.135836 0.277958 0.720333
0.513024 0.293309 0.859998
0.880064 0.346914 0.885588
0.900526 0.379477 0.918334
0.905119 0.388495 0.926894
0.905287 0.391073 0.927916
0.0488899 0.265766 0.658778
0.0479286 0.264561 0.65774
0.0474098 0.261799 0.656809
0.0890516 0.272862 0.691127
0.49073 0.292088 0.85481
0.874372 0.340917 0.880568
0.895933 0.371145 0.910292
0.899825 0.378408 0.917098
0.899763 0.38027 0.917357
0.0446326 0.254948 0.653117
0.0467079 0.260609 0.655985
0.0462959 0.259327 0.655406
0.0548409 0.266163 0.663767
0.463127 0.288579 0.847074
0.866743 0.333577 0.87425
0.889204 0.359289 0.899077
0.892989 0.365606 0.905348
0.892851 0.366567 0.904845
0.038529 0.269551 0.648447
0.0390631 0.266316 0.648981
0.0416419 0.264179 0.651621
0.0443122 0.258762 0.653513
0.398733 0.273823 0.823743
0.844831 0.314961 0.858869
0.863783 0.323003 0.859709
0.864607 0.324086 0.860853
0.864225 0.323476 0.859236
0.0881819 0.481804 0.700236
0.0858625 0.476555 0.698405
0.084596 0.468437 0.698314
0.0849165 0.449439 0.70135
0.320485 0.482216 0.825895
0.889128 0.46389 0.941985
0.948775 0.4374 0.922774
0.937163 0.413657 0.909712
0.930434 0.403952 0.901335
0.230457 0.736996 0.793393
0.22681 0.734752 0.789044
0.223438 0.729931 0.786877
0.216114 0.718166 0.783001
0.201923 0.689616 0.778698
0.736294 0.758602 0.898787
0.984573 0.743053 0.930968
0.985397 0.726513 0.928862
0.984802 0.719966 0.926513
0.381689 0.90103 0.894362
0.379675 0.901564 0.890135
0.377981 0.900649 0.887999
0.374578 0.898558 0.883894
0.36405 0.891569 0.872312
0.582147 0.955428 0.921416
0.938216 0.94609 0.924834
0.987976 0.943069 0.93196
0.986694 0.939895 0.927214
0.389288 0.904982 0.902831
0.387808 0.906722 0.899992
0.387793 0.907423 0.898528
0.388067 0.909102 0.895628
0.387579 0.91313 0.8869
0.410163 0.935882 0.894575
0.904204 0.989425 0.953613
0.992966 0.985977 0.97174
0.995361 0.986297 0.971817
0.389288 0.903685 0.904097
0.387457 0.905516 0.901869
0.387625 0.906371 0.900557
0.387915 0.90808 0.897383
0.387778 0.912688 0.888106
0.408499 0.934234 0.893675
0.889235 0.990295 0.951431
0.987778 0.987198 0.971237
0.993011 0.98912 0.97612
0.0642557 0.312901 0.678981
0.0638285 0.313146 0.678645
0.0656748 0.314275 0.680278
0.0860456 0.336706 0.701076
0.473915 0.375784 0.894591
0.910567 0.410819 0.945678
0.914488 0.41236 0.946166
0.914656 0.412284 0.946365
0.914717 0.412238 0.946441
0.06421 0.312917 0.678935
0.0637827 0.313161 0.678599
0.0641184 0.313237 0.678874
0.0725261 0.329824 0.687831
0.452628 0.372869 0.887663
0.905272 0.408316 0.945418
0.914488 0.41236 0.946166
0.914473 0.41236 0.946151
0.914076 0.412543 0.945708
0.0647288 0.314275 0.679545
0.0637827 0.313161 0.678599
0.0637827 0.313161 0.678599
0.0693523 0.324117 0.684565
0.423163 0.371328 0.876127
0.896498 0.404929 0.945449
0.914916 0.412146 0.946654
0.914839 0.412192 0.946578
0.914153 0.412528 0.945769
0.0746624 0.352682 0.692164
0.0715343 0.344152 0.688685
0.0687724 0.332738 0.685191
0.0649577 0.314168 0.679683
0.343526 0.369207 0.841184
0.861753 0.397147 0.947585
0.915068 0.41207 0.946853
0.915068 0.41207 0.946853
0.914351 0.412436 0.945998
0.11783 0.494591 0.731487
0.117845 0.493568 0.731548
0.118837 0.492058 0.732738
0.116045 0.480629 0.730999
0.209995 0.507393 0.820203
0.744564 0.522972 0.972427
0.9561 0.499352 0.982971
0.951904 0.484138 0.979675
0.947677 0.478904 0.975982
0.232197 0.718502 0.814328
0.229496 0.715358 0.811902
0.226352 0.709819 0.809964
0.220447 0.697871 0.807187
0.209079 0.67216 0.802701
0.636683 0.739498 0.940551
0.978149 0.750149 0.987305
0.982589 0.734112 0.990509
0.979629 0.729351 0.987793
0.361791 0.880995 0.901457
0.359808 0.88069 0.898924
0.357809 0.878843 0.897353
0.352972 0.874311 0.894011
0.336141 0.858152 0.883909
0.475151 0.914519 0.957565
0.920989 0.932738 0.966354
0.987045 0.934432 0.978439
0.985367 0.930297 0.976379
0.376059 0.893812 0.91368
0.374929 0.895109 0.911452
0.375051 0.895247 0.911284
0.37644 0.895857 0.910872
0.38175 0.898344 0.908827
0.398337 0.912001 0.915175
0.878325 0.981781 0.97792
0.990158 0.983063 0.987564
0.998703 0.981964 0.990799
0.37583 0.893645 0.913848
0.374517 0.894942 0.911589
0.374563 0.895048 0.911452
0.374853 0.895155 0.91136
0.380896 0.897871 0.909026
0.396628 0.911162 0.913573
0.845579 0.985336 0.978698
0.987671 0.988388 0.989181
1 0.986755 0.999512
0.0640574 0.313008 0.678813
0.0638132 0.313161 0.678614
0.0655985 0.314168 0.680186
0.0831769 0.335836 0.698299
0.471397 0.375525 0.893767
0.910201 0.410758 0.945724
0.914488 0.41236 0.946166
0.914504 0.41236 0.946181
0.914565 0.412314 0.946258
0.0641642 0.312947 0.678889
0.0637827 0.313161 0.678599
0.0640269 0.313237 0.678798
0.0720684 0.329046 0.687388
0.45005 0.372534 0.886641
0.904738 0.408026 0.945678
0.914488 0.41236 0.946166
0.914427 0.41239 0.94609
0.913954 0.412619 0.945525
0.0646525 0.313695 0.679408
0.063798 0.313161 0.678599
0.0637827 0.313161 0.678599
0.0690166 0.323568 0.684215
0.419394 0.371344 0.874769
0.895109 0.404578 0.945464
0.914855 0.412177 0.946609
0.914809 0.412207 0.946532
0.914168 0.412512 0.945785
0.0734417 0.347936 0.690715
0.0704509 0.339437 0.687312
0.0673991 0.327581 0.683436
0.0648508 0.313878 0.679561
0.337469 0.368872 0.838376
0.857298 0.396689 0.947921
0.914946 0.412131 0.9467
0.915007 0.4121 0.946777
0.914351 0.412436 0.945998
0.128969 0.508415 0.741772
0.125643 0.503441 0.738705
0.122576 0.496239 0.736278
0.114443 0.476631 0.729686
0.200381 0.500557 0.813321
0.734768 0.517403 0.970382
0.954192 0.494377 0.981399
0.949248 0.479026 0.977462
0.945663 0.47303 0.974121
0.235279 0.716243 0.822965
0.232624 0.71313 0.820554
0.229587 0.7084 0.818082
0.223072 0.697078 0.813092
0.206668 0.667903 0.800824
0.629053 0.73518 0.940047
0.974304 0.746166 0.988586
0.979614 0.732464 0.991852
0.977844 0.726879 0.990539
0.355962 0.878492 0.9028
0.353079 0.877211 0.900694
0.350195 0.874876 0.899077
0.343084 0.868528 0.895613
0.321981 0.848905 0.88481
0.427329 0.894087 0.954803
0.890211 0.921401 0.971206
0.984573 0.930892 0.986084
0.984268 0.92639 0.985992
0.37557 0.893889 0.913451
0.374502 0.894942 0.911589
0.374441 0.894987 0.911498
0.374441 0.894987 0.911498
0.374441 0.894987 0.911498
0.381994 0.901274 0.916152
0.832975 0.975357 0.985016
0.985367 0.981842 0.990112
0.996002 0.981567 0.994583
0.375265 0.894224 0.912856
0.374502 0.894942 0.911589
0.374441 0.894987 0.911498
0.374441 0.894987 0.911498
0.374441 0.894987 0.911498
0.381552 0.900801 0.915618
0.773877 0.982971 0.988586
0.983612 0.988617 0.990341
0.998093 0.990829 0.997147
