bundles/resolve-cinematic-luts/Phantom Luts/S5ii LUTs/Standard (No WB Offset)/S5ii Neutral V-Log Legacy.cube
TITLE "Generated by Resolve"
LUT_3D_SIZE 9
0.0319524 0.0319524 0.0319524
0.0640879 0.0351263 0.0316472
0.137163 0.0383001 0.0333867
0.286687 0.0317845 0.044358
0.509926 0.0283513 0.0903639
0.733776 0.0361334 0.187381
0.735134 0.0367437 0.192706
0.735851 0.0370642 0.1953
0.736095 0.0371862 0.196292
0.0329137 0.0492561 0.0367742
0.0414893 0.0413519 0.032639
0.106249 0.0460822 0.0331426
0.270085 0.0313726 0.039826
0.49691 0.0227817 0.0742504
0.711162 0.0353246 0.164904
0.711803 0.0353399 0.165316
0.724895 0.0352483 0.174411
0.727718 0.0353246 0.176944
0.0342107 0.121233 0.0492256
0.044419 0.113268 0.040116
0.105592 0.108797 0.0331273
0.285939 0.0846113 0.0517586
0.486427 0.0237125 0.0712749
0.711162 0.0353246 0.164904
0.711162 0.0353246 0.164904
0.711162 0.0353246 0.164904
0.711162 0.0353246 0.164904
0.0311742 0.274739 0.079469
0.0459907 0.268421 0.0429694
0.063508 0.260746 0.0268711
0.254978 0.264729 0.0164187
0.559045 0.221378 0.0836347
0.790814 0.00834669 0.102556
0.675975 0.0210422 0.130022
0.70219 0.0354314 0.159472
0.709758 0.0353399 0.164019
0.0424353 0.519219 0.195697
0.0709087 0.516503 0.167391
0.0990158 0.513878 0.133013
0.141772 0.497856 0.0566873
0.504646 0.523384 0.0185855
0.876265 0.507485 0.137469
0.951202 0.421317 0.146578
0.949813 0.391653 0.144793
0.949248 0.380514 0.143908
0.0806287 0.835157 0.44564
0.0771649 0.835584 0.429831
0.0726024 0.836027 0.407813
0.158724 0.833722 0.336248
0.380636 0.817685 0.18085
0.767285 0.80499 0.113375
0.973831 0.800549 0.115236
0.973846 0.785153 0.111696
0.973465 0.779293 0.110155
0.115282 0.964263 0.621118
0.113741 0.965011 0.614252
0.111666 0.966003 0.605142
0.104967 0.969162 0.576349
0.0957961 0.975769 0.53434
0.65713 0.973556 0.474266
0.953506 0.983612 0.482979
0.982315 0.977768 0.465339
0.981109 0.97557 0.454444
0.117449 0.963211 0.631022
0.115984 0.963928 0.624338
0.114031 0.964874 0.615564
0.107744 0.967834 0.588296
0.0973831 0.972808 0.543221
0.58497 0.975387 0.472526
0.914824 0.986923 0.547662
0.985565 0.989944 0.574838
0.985565 0.989944 0.574838
0.118212 0.962829 0.634577
0.116747 0.963546 0.627787
0.11487 0.964446 0.619318
0.108705 0.967391 0.592386
0.0973831 0.972808 0.543221
0.559487 0.975692 0.466926
0.901274 0.985855 0.546731
0.985565 0.989944 0.574838
0.985565 0.989944 0.574838
0.0322118 0.0322423 0.0437629
0.0623331 0.0351415 0.0526131
0.140841 0.0407263 0.0641337
0.305119 0.0415808 0.0892805
0.526925 0.0387732 0.128237
0.73846 0.0383154 0.205035
0.739696 0.0390326 0.210315
0.740444 0.0394446 0.212879
0.740703 0.0395972 0.21384
0.0332341 0.0437781 0.042649
0.0319524 0.0319524 0.0319524
0.114763 0.0378119 0.034287
0.271595 0.0362402 0.0520943
0.497688 0.0301518 0.0882124
0.734234 0.0363317 0.189303
0.735668 0.0369879 0.194614
0.736385 0.0373236 0.197253
0.736645 0.0374456 0.198215
0.0382086 0.11397 0.0746471
0.0339513 0.108476 0.0505226
0.100038 0.102647 0.0336614
0.280674 0.0701762 0.0483253
0.485222 0.0235904 0.0716564
0.711162 0.0353246 0.164904
0.719066 0.0353552 0.169894
0.723217 0.0352483 0.172976
0.7243 0.0352331 0.173968
0.0216373 0.270558 0.111666
0.0281071 0.265309 0.0822766
0.0484932 0.257359 0.0347753
0.250141 0.259815 0.016968
0.56083 0.206943 0.0833295
0.7832 0.005066 0.106737
0.687068 0.0293889 0.145144
0.709438 0.0353399 0.163836
0.711162 0.0353246 0.164904
0.0214542 0.514794 0.222019
0.0379492 0.512963 0.195392
0.0743725 0.50927 0.158099
0.123522 0.498863 0.0826276
0.501884 0.520256 0.0181125
0.877348 0.499718 0.137957
0.950942 0.415488 0.146288
0.949493 0.38529 0.144198
0.948867 0.374029 0.143236
0.0841688 0.829297 0.458183
0.0807202 0.829328 0.443351
0.076112 0.829602 0.422751
0.126024 0.829557 0.354253
0.357824 0.815885 0.182116
0.764721 0.802426 0.111269
0.97406 0.795895 0.11397
0.97351 0.779934 0.110292
0.973068 0.774258 0.109026
0.116854 0.9635 0.62829
0.115419 0.964202 0.621714
0.113466 0.965148 0.613062
0.107164 0.968124 0.585763
0.0968185 0.974258 0.539559
0.649653 0.97348 0.470588
0.951629 0.982269 0.476844
0.981476 0.976196 0.457664
0.980041 0.973999 0.446296
0.118944 0.962371 0.637995
0.117571 0.963149 0.631601
0.11574 0.96405 0.623209
0.109804 0.966873 0.59707
0.0973831 0.972808 0.543221
0.572915 0.975647 0.469871
0.911269 0.986618 0.547234
0.985565 0.989944 0.574838
0.985565 0.989944 0.574838
0.119692 0.961898 0.641596
0.118303 0.962768 0.635019
0.116548 0.963653 0.626902
0.110765 0.96643 0.601221
0.0973831 0.972808 0.543221
0.544274 0.976104 0.464881
0.897353 0.985504 0.546548
0.985565 0.989944 0.574838
0.985565 0.989944 0.574838
0.0339208 0.0383917 0.095552
0.08748 0.0354162 0.0948043
0.147066 0.0438239 0.105776
0.312352 0.0496986 0.120409
0.540795 0.0415656 0.16286
0.744411 0.0421302 0.226947
0.74934 0.0436713 0.233341
0.752132 0.0444648 0.236622
0.753155 0.0447242 0.23769
0.035111 0.0476539 0.0722667
0.033814 0.0374609 0.0894331
0.122301 0.0415045 0.0905013
0.291356 0.0445411 0.100481
0.52665 0.0383612 0.142367
0.740185 0.039292 0.211978
0.741619 0.0401617 0.216999
0.742321 0.0406195 0.219394
0.742565 0.0408026 0.220279
0.0420844 0.108705 0.102892
0.0414588 0.101808 0.0966964
0.0960403 0.0960403 0.0960403
0.270527 0.0736095 0.0789654
0.498863 0.0452277 0.117357
0.736385 0.0373236 0.197238
0.736828 0.0375219 0.198917
0.737118 0.0376593 0.199939
0.737377 0.0377661 0.200839
0.031754 0.262913 0.150469
0.0271 0.259922 0.129274
0.0244144 0.25539 0.0898146
0.248539 0.255833 0.0528878
0.563928 0.194034 0.102586
0.777707 0.00410468 0.120058
0.720226 0.0354314 0.169726
0.733333 0.035935 0.185443
0.73341 0.0359655 0.185748
0.0279545 0.507301 0.253986
0.0224613 0.506615 0.229603
0.0319829 0.505211 0.195407
0.11339 0.497002 0.0938888
0.498497 0.516747 0.0177768
0.875395 0.494621 0.138186
0.950607 0.408286 0.145907
0.949111 0.377798 0.143587
0.948135 0.366415 0.142535
0.0881208 0.822095 0.472251
0.0848402 0.821851 0.458701
0.0804608 0.821805 0.439933
0.0820478 0.823651 0.375174
0.329046 0.814099 0.183963
0.761883 0.799252 0.108934
0.974197 0.790738 0.112413
0.973144 0.775174 0.109422
0.972656 0.76939 0.108659
0.1187 0.962524 0.636835
0.117357 0.963241 0.63064
0.115587 0.964126 0.622477
0.109712 0.966918 0.596674
0.0973831 0.972808 0.543221
0.640131 0.973571 0.466529
0.949203 0.980606 0.469398
0.980209 0.974319 0.448142
0.979034 0.972045 0.436637
0.120714 0.961257 0.646479
0.119432 0.962066 0.64033
0.117723 0.963073 0.632334
0.112245 0.965728 0.607706
0.0973831 0.972808 0.543221
0.556954 0.975723 0.466392
0.906874 0.986267 0.546883
0.985565 0.989944 0.574838
0.985565 0.989944 0.574838
0.121416 0.960845 0.649958
0.120134 0.961624 0.643656
0.118456 0.962676 0.635691
0.113115 0.965316 0.611475
0.0973831 0.972808 0.543221
0.522316 0.976486 0.462654
0.892699 0.985061 0.546166
0.985565 0.989944 0.574838
0.985565 0.989944 0.574838
0.0337987 0.0499123 0.205188
0.0775311 0.0425116 0.223148
0.192645 0.0404669 0.217594
0.329946 0.051133 0.226032
0.554849 0.0691691 0.24358
0.799191 0.0673991 0.300801
0.802915 0.0704356 0.306966
0.804425 0.0716716 0.309545
0.80502 0.0721904 0.310567
0.0346838 0.0576638 0.187274
0.0340124 0.049546 0.200641
0.133303 0.0397498 0.226764
0.312047 0.0504921 0.213626
0.543389 0.0636759 0.222187
0.789288 0.0602884 0.285267
0.793332 0.0628977 0.291218
0.795148 0.06421 0.294133
0.795666 0.0647135 0.295155
0.0361334 0.108141 0.192538
0.0367437 0.0946365 0.200931
0.0716869 0.0788281 0.216495
0.290806 0.0583047 0.205615
0.529244 0.0567788 0.204318
0.774533 0.05243 0.264286
0.778622 0.0543984 0.269871
0.780591 0.0553597 0.272694
0.781277 0.0556802 0.27364
0.0429694 0.246479 0.230793
0.0431983 0.24152 0.22652
0.0433661 0.23505 0.221012
0.244327 0.244327 0.244327
0.53959 0.208057 0.202884
0.807126 0.0508278 0.245365
0.76083 0.0471351 0.247227
0.762539 0.0477455 0.249332
0.762798 0.047837 0.249653
0.0496376 0.49131 0.330495
0.0461891 0.489509 0.317433
0.0407568 0.488106 0.298024
0.0185092 0.487724 0.211093
0.500618 0.51252 0.178683
0.880781 0.463066 0.254414
0.937423 0.401038 0.213809
0.931868 0.372305 0.204349
0.929229 0.361456 0.201099
0.0988479 0.804593 0.509285
0.0962997 0.803754 0.49868
0.0929122 0.80322 0.484718
0.0806897 0.803082 0.435569
0.281422 0.805615 0.238666
0.756588 0.790692 0.168902
0.972564 0.77908 0.19176
0.971359 0.763149 0.178317
0.970916 0.757565 0.1729
0.123171 0.959792 0.659052
0.122133 0.960418 0.65359
0.120729 0.961242 0.64654
0.11606 0.963882 0.624704
0.0982071 0.972396 0.546944
0.626459 0.973129 0.454597
0.943511 0.976104 0.450248
0.977783 0.969589 0.427405
0.976226 0.96672 0.41593
0.124926 0.958694 0.668482
0.123903 0.95935 0.662974
0.12256 0.960159 0.655863
0.118181 0.962829 0.634455
0.100694 0.971206 0.55787
0.521187 0.976516 0.462593
0.897948 0.985565 0.546593
0.985565 0.989944 0.574838
0.985565 0.989944 0.574838
0.125551 0.958312 0.671977
0.124529 0.958968 0.666285
0.123186 0.959792 0.659083
0.118898 0.962402 0.637797
0.102037 0.970565 0.563699
0.478645 0.977356 0.460044
0.882368 0.984115 0.545296
0.985565 0.989944 0.574838
0.985565 0.989944 0.574838
0.0131533 0.0680247 0.383322
0.0419776 0.0630503 0.396429
0.123842 0.0457465 0.434546
0.385016 0.0394446 0.430106
0.579324 0.0661479 0.434455
0.848554 0.10573 0.46717
0.850309 0.104784 0.476631
0.850858 0.104311 0.480659
0.851072 0.104143 0.482063
0.0141451 0.0707256 0.377859
0.0137484 0.0675975 0.380713
0.0727092 0.0570993 0.410529
0.354009 0.0362249 0.434104
0.568627 0.0651255 0.426657
0.846235 0.106508 0.454902
0.847745 0.105974 0.463035
0.848402 0.105791 0.466316
0.848615 0.105699 0.467567
0.0179904 0.0895399 0.361044
0.0155184 0.076051 0.368841
0.021622 0.0657969 0.381064
0.291951 0.0346075 0.441382
0.555932 0.0640421 0.417151
0.843473 0.107271 0.438727
0.844404 0.106874 0.445075
0.844984 0.106813 0.447868
0.845182 0.106783 0.448951
0.00770581 0.223575 0.382467
0.00596628 0.212848 0.386648
0.0074464 0.197696 0.393744
0.170123 0.187701 0.433951
0.546593 0.154559 0.43592
0.810941 0.104967 0.408057
0.839185 0.107103 0.415534
0.839323 0.107134 0.416312
0.839384 0.107134 0.416602
0.0547341 0.468818 0.447822
0.0541085 0.46537 0.444694
0.0534524 0.461448 0.441077
0.0513924 0.450263 0.431312
0.493492 0.493492 0.493492
0.845075 0.460716 0.441245
0.932403 0.368231 0.44651
0.926543 0.328054 0.450248
0.924025 0.315938 0.448325
0.11548 0.775036 0.590799
0.114748 0.772824 0.58439
0.113741 0.770169 0.576165
0.110109 0.764126 0.551354
0.176471 0.773342 0.479728
0.754269 0.766583 0.467155
0.977203 0.742931 0.504524
0.974578 0.725109 0.499458
0.973404 0.719005 0.497566
0.13138 0.953735 0.714931
0.130983 0.954147 0.710719
0.130419 0.954696 0.705455
0.128359 0.956359 0.689494
0.118608 0.962585 0.636423
0.591318 0.973846 0.575463
0.94226 0.96643 0.576883
0.993545 0.955184 0.576043
0.993973 0.951431 0.569696
0.132097 0.95285 0.724132
0.131777 0.953262 0.719722
0.131289 0.953826 0.714061
0.129458 0.955505 0.697459
0.12047 0.96141 0.645274
0.445426 0.983444 0.577462
0.898314 0.986587 0.665553
0.988663 0.99144 0.693294
0.988647 0.99144 0.69279
0.132296 0.952529 0.727535
0.132006 0.952956 0.723003
0.131563 0.953521 0.717067
0.129809 0.955215 0.700252
0.121126 0.961013 0.648524
0.391684 0.982422 0.568475
0.877852 0.985428 0.657465
0.98851 0.991363 0.689128
0.988602 0.991379 0.688792
0 0.129427 0.573007
0 0.129885 0.572915
0.0351568 0.123735 0.586358
0.241581 0.0873732 0.659541
0.635889 0.0978561 0.660395
0.892622 0.094667 0.682994
0.89865 0.106538 0.704601
0.900435 0.111681 0.712337
0.90103 0.113512 0.715053
0 0.128649 0.570901
0 0.128511 0.57052
0 0.12784 0.572931
0.200931 0.0972 0.65095
0.622705 0.0936294 0.660029
0.890242 0.0899062 0.674403
0.895033 0.0996414 0.69163
0.896757 0.103365 0.698207
0.897581 0.104555 0.700801
0 0.130419 0.558358
0 0.127749 0.56762
0 0.127596 0.567117
0.144762 0.110674 0.628443
0.603616 0.0881514 0.660319
0.88069 0.0904097 0.665095
0.890761 0.0911727 0.676661
0.892241 0.0939651 0.681712
0.892775 0.0949874 0.683543
0 0.196872 0.553491
0 0.187366 0.558679
0 0.176211 0.566445
0.0454719 0.164248 0.589807
0.540352 0.092256 0.665171
0.851987 0.0932174 0.644526
0.881956 0.0740978 0.643656
0.882139 0.0743877 0.644343
0.882216 0.0745098 0.644602
0 0.45417 0.595331
0 0.448005 0.597543
0 0.439948 0.60032
0 0.414801 0.611551
0.417609 0.440375 0.702754
0.852842 0.415076 0.710338
0.929122 0.332174 0.698772
0.921202 0.303532 0.687694
0.918166 0.29276 0.683436
0.11046 0.736171 0.706325
0.110109 0.733349 0.703548
0.109621 0.72961 0.700298
0.108263 0.719829 0.692012
0.132769 0.706981 0.683223
0.735622 0.735622 0.735622
0.966659 0.716655 0.691768
0.969696 0.694301 0.69369
0.971328 0.684489 0.698253
0.131685 0.946563 0.806836
0.131746 0.946746 0.803815
0.131624 0.946044 0.799222
0.130816 0.941833 0.786206
0.129061 0.931884 0.745983
0.581552 0.948531 0.747311
0.933028 0.943023 0.764645
0.989136 0.939361 0.782483
0.988342 0.935439 0.777173
0.131395 0.945785 0.820569
0.131487 0.945998 0.816556
0.131579 0.946273 0.81181
0.131868 0.947097 0.797925
0.132601 0.949889 0.76051
0.342824 0.968368 0.740581
0.878599 0.987472 0.839536
0.99025 0.992889 0.882887
0.990829 0.992889 0.883162
0.131304 0.94551 0.825299
0.13138 0.945739 0.821378
0.131502 0.946029 0.816083
0.131792 0.946868 0.801694
0.13257 0.949737 0.762493
0.242756 0.967437 0.727535
0.853819 0.987762 0.830121
0.983749 0.992218 0.869184
0.990753 0.992935 0.880537
0 0.266178 0.777417
0 0.265629 0.777111
0 0.256458 0.776791
0.0627604 0.271794 0.805356
0.46685 0.286503 0.901213
0.940383 0.311818 0.920195
0.941985 0.342184 0.940352
0.941985 0.342184 0.940352
0.941985 0.342184 0.940352
0 0.262257 0.774487
0 0.261585 0.773999
0 0.257984 0.774197
0.0178531 0.266957 0.799832
0.447486 0.281453 0.896834
0.934035 0.30277 0.915938
0.941985 0.342184 0.940352
0.941985 0.342184 0.940352
0.941985 0.342184 0.940352
0 0.251514 0.765225
0 0.256703 0.770703
0 0.255955 0.769985
0 0.262089 0.782742
0.421622 0.275288 0.891157
0.925978 0.293767 0.911772
0.942992 0.332235 0.933928
0.941985 0.342184 0.940352
0.941985 0.342184 0.940352
0 0.242161 0.718135
0 0.242206 0.72842
0 0.245136 0.742168
0 0.244358 0.761135
0.352865 0.265431 0.868376
0.898817 0.271015 0.902586
0.941604 0.290349 0.901717
0.942123 0.293828 0.904936
0.942153 0.295064 0.905913
0 0.444083 0.746441
0 0.439338 0.751278
0 0.433402 0.757351
0 0.420417 0.779446
0.257572 0.444373 0.835767
0.842725 0.413931 0.933852
0.95433 0.400809 0.896178
0.949645 0.380072 0.88719
0.947829 0.372183 0.883741
0 0.719081 0.821164
0 0.715099 0.821012
0 0.710018 0.821286
0 0.696208 0.822934
0 0.665705 0.83563
0.681147 0.703471 0.91078
0.977111 0.688426 0.911406
0.976577 0.672969 0.908171
0.97644 0.667536 0.907179
0.11873 0.924437 0.895567
0.118563 0.922148 0.893355
0.118303 0.91931 0.890593
0.117678 0.91252 0.883986
0.116121 0.895308 0.867735
0.565118 0.90779 0.892638
0.922515 0.922515 0.922515
0.980789 0.918914 0.910658
0.981216 0.913314 0.909529
0.115755 0.940627 0.922774
0.11696 0.940795 0.920043
0.11841 0.940978 0.916671
0.122469 0.941482 0.906966
0.130022 0.942718 0.88098
0.170047 0.96318 0.872786
0.881727 0.986023 0.940322
0.987533 0.989136 0.960967
0.991592 0.988632 0.962753
0.112734 0.940246 0.929549
0.114076 0.940429 0.926574
0.115831 0.940642 0.922591
0.12047 0.941253 0.911788
0.130007 0.942657 0.882124
0.155291 0.962783 0.870405
0.85008 0.985428 0.934295
0.983474 0.991165 0.969223
0.991196 0.991135 0.978469
0 0.276158 0.784146
0 0.276158 0.784146
0 0.27779 0.792767
0.0206149 0.300587 0.823163
0.447501 0.323522 0.918944
0.938842 0.340841 0.940688
0.941985 0.342184 0.940352
0.941985 0.342184 0.940352
0.941985 0.342184 0.940352
0 0.276158 0.784146
0 0.276158 0.784146
0 0.276341 0.785885
0 0.294621 0.810803
0.424369 0.323537 0.911727
0.930297 0.337774 0.941741
0.941985 0.342184 0.940352
0.941985 0.342184 0.940352
0.941985 0.342184 0.940352
0 0.276448 0.784146
0 0.276158 0.784146
0 0.276158 0.784146
0 0.289509 0.801099
0.393515 0.32401 0.899794
0.917601 0.334371 0.943862
0.941985 0.342184 0.940352
0.941985 0.342184 0.940352
0.941985 0.342184 0.940352
0 0.314168 0.794705
0 0.305135 0.792264
0 0.293294 0.78883
0 0.276844 0.78938
0.311315 0.3234 0.86836
0.863401 0.328191 0.949157
0.941985 0.342184 0.940352
0.941985 0.342184 0.940352
0.941985 0.342184 0.940352
0 0.471962 0.829831
0 0.472862 0.83621
0 0.472984 0.841413
0 0.452399 0.835157
0.148058 0.465537 0.868803
0.710918 0.472282 0.976761
0.960464 0.442557 0.959548
0.957183 0.427741 0.956176
0.955993 0.422461 0.954879
0 0.709545 0.884306
0 0.705821 0.884886
0 0.700984 0.886275
0 0.687495 0.892897
0 0.65716 0.897215
0.599359 0.700343 0.953796
0.983749 0.693507 0.983597
0.984558 0.68127 0.982666
0.984298 0.676341 0.982452
0.0569619 0.916274 0.948074
0.0552377 0.913481 0.946868
0.053254 0.910384 0.945586
0.0472114 0.901427 0.942489
0.0290227 0.878126 0.939132
0.467109 0.878218 0.954665
0.891707 0.905257 0.973953
0.986114 0.908034 0.976898
0.986023 0.902876 0.976089
0.0738842 0.941604 0.959686
0.0738842 0.941604 0.959686
0.0738842 0.941604 0.959686
0.0738842 0.941604 0.959686
0.0858778 0.940856 0.950668
0.114763 0.956039 0.94966
0.857298 0.977203 0.973388
0.985504 0.985504 0.985504
0.991165 0.985397 0.984955
0.0738842 0.941604 0.959686
0.0738842 0.941604 0.959686
0.0738842 0.941604 0.959686
0.0738842 0.941604 0.959686
0.0846876 0.940948 0.951553
0.116579 0.954772 0.945373
0.790448 0.980377 0.967102
0.985061 0.991333 0.989013
0.991241 0.991241 0.991241
0 0.276158 0.784146
0 0.276158 0.784146
0 0.277653 0.792523
0.0168612 0.300282 0.822828
0.446113 0.323384 0.918639
0.938979 0.340887 0.940673
0.941985 0.342184 0.940352
0.941985 0.342184 0.940352
0.941985 0.342184 0.940352
0 0.276158 0.784146
0 0.276158 0.784146
0 0.276295 0.785428
0 0.293965 0.809674
0.422599 0.323461 0.911055
0.930098 0.337713 0.941772
0.941985 0.342184 0.940352
0.941985 0.342184 0.940352
0.941985 0.342184 0.940352
0 0.276158 0.784146
0 0.276158 0.784146
0 0.276158 0.784146
0 0.289036 0.80061
0.390936 0.324056 0.898711
0.916869 0.334173 0.943938
0.941985 0.342184 0.940352
0.941985 0.342184 0.940352
0.941985 0.342184 0.940352
0 0.310185 0.793439
0 0.300999 0.790875
0 0.288975 0.787671
0 0.276829 0.789258
0.306691 0.323232 0.866667
0.859449 0.328115 0.949218
0.941985 0.342184 0.940352
0.941985 0.342184 0.940352
0.941985 0.342184 0.940352
0 0.482292 0.844404
0 0.476814 0.842466
0 0.470085 0.840421
0 0.449012 0.834104
0.13669 0.460517 0.866957
0.703868 0.468055 0.975692
0.959442 0.438148 0.958511
0.956237 0.423484 0.955139
0.954833 0.417868 0.953521
0 0.710491 0.905669
0 0.706538 0.905058
0 0.701503 0.903883
0 0.687327 0.90103
0 0.653147 0.895659
0.59472 0.696742 0.953155
0.982193 0.688914 0.983795
0.98439 0.677317 0.982528
0.984237 0.67277 0.982422
0.0505074 0.916167 0.952987
0.0478218 0.913146 0.952422
0.0448157 0.90985 0.951888
0.0366369 0.899886 0.950057
0.0183261 0.873671 0.945922
0.44184 0.869718 0.956985
0.870039 0.897642 0.979141
0.987335 0.900893 0.985504
0.987305 0.89575 0.985382
0.0738842 0.941604 0.959686
0.0738842 0.941604 0.959686
0.0738842 0.941604 0.959686
0.0738842 0.941604 0.959686
0.0738842 0.941604 0.959686
0.0835889 0.953597 0.965377
0.819806 0.968826 0.981552
0.981933 0.982666 0.989975
0.991394 0.983413 0.990921
0.0738842 0.941604 0.959686
0.0738842 0.941604 0.959686
0.0738842 0.941604 0.959686
0.0738842 0.941604 0.959686
0.0738842 0.941604 0.959686
0.0822614 0.952193 0.964782
0.725139 0.975738 0.978149
0.981155 0.991302 0.991302
0.991241 0.991241 0.991241
