bundles/resolve-cinematic-luts/Phantom Luts/S5ii LUTs/Standard (No WB Offset)/S5ii IceBlue V-Log.cube
TITLE "Generated by Resolve"
LUT_3D_SIZE 33
0.0280919 0.0407263 0.0388495
0.0280919 0.0407263 0.038819
0.0281376 0.0406958 0.0387121
0.0349126 0.0407111 0.0402991
0.0491951 0.0406348 0.0399023
0.066392 0.0407416 0.0394446
0.0846418 0.0407874 0.0388037
0.102953 0.0408331 0.0387579
0.125933 0.0406195 0.0384375
0.156695 0.040528 0.0386816
0.194293 0.0403143 0.0390936
0.237781 0.0398718 0.0390326
0.289799 0.0398566 0.0392157
0.346578 0.0408637 0.0411994
0.402731 0.0429694 0.0469368
0.455131 0.0449836 0.0565957
0.497749 0.0477607 0.069276
0.528206 0.0500801 0.0803998
0.549981 0.051194 0.0867475
0.596201 0.0622873 0.123323
0.640421 0.0755779 0.164034
0.649348 0.0783093 0.172534
0.650095 0.0786297 0.174166
0.650767 0.0788891 0.175662
0.651347 0.0790875 0.176989
0.65182 0.0792706 0.177951
0.652186 0.079408 0.178775
0.652598 0.0794537 0.17995
0.652995 0.0793927 0.181384
0.653651 0.0790723 0.184344
0.654521 0.078584 0.188373
0.655955 0.0776989 0.195224
0.65745 0.0767376 0.20267
0.0281987 0.04065 0.038529
0.0281376 0.0407111 0.0387121
0.0281071 0.0407263 0.0387884
0.0317235 0.0407874 0.0395819
0.0448005 0.0405585 0.0400702
0.0621958 0.0406043 0.0399023
0.0811627 0.0408026 0.0397345
0.0998398 0.0406958 0.0390173
0.123354 0.0405585 0.0386816
0.156024 0.0405737 0.0389105
0.195056 0.0402686 0.0394598
0.240986 0.039826 0.039765
0.294514 0.0397498 0.0396735
0.350622 0.0401465 0.0399176
0.405158 0.0412757 0.0420844
0.455634 0.042771 0.0493477
0.496406 0.0450904 0.0614633
0.533303 0.0496681 0.0826429
0.549432 0.049836 0.0822156
0.599161 0.0633707 0.123049
0.641581 0.0758679 0.163256
0.648157 0.0778515 0.169818
0.648859 0.0781262 0.171405
0.649516 0.0783703 0.1729
0.650065 0.0785992 0.174075
0.650523 0.0787823 0.175113
0.650889 0.0789197 0.175952
0.65127 0.0789502 0.177035
0.651667 0.0789349 0.178332
0.65243 0.078584 0.181552
0.6533 0.0781262 0.185489
0.65481 0.0772259 0.192554
0.656336 0.0762798 0.200015
0.0281987 0.04065 0.038529
0.0281376 0.0407111 0.0387121
0.0281071 0.0407263 0.0387884
0.0281529 0.0406958 0.0386816
0.0375982 0.0412299 0.0405585
0.0541238 0.0416876 0.040238
0.0731212 0.0420386 0.0403601
0.0930037 0.0418402 0.0396887
0.117693 0.0410773 0.0391852
0.151843 0.0407111 0.0392004
0.192187 0.0404059 0.0396887
0.238926 0.039826 0.040116
0.293706 0.0397345 0.0403906
0.350423 0.0400397 0.0405432
0.405142 0.0408789 0.0419013
0.45539 0.0421607 0.0474556
0.494453 0.0440833 0.0575113
0.527535 0.0467994 0.0724956
0.557473 0.0513161 0.0903182
0.588663 0.0608225 0.111772
0.636774 0.0745556 0.1552
0.645594 0.0770123 0.164828
0.646983 0.0774548 0.167483
0.647852 0.07776 0.169192
0.648463 0.0779736 0.170459
0.648905 0.0781415 0.17145
0.649256 0.0782635 0.172305
0.649638 0.0783093 0.173388
0.65005 0.0782635 0.174823
0.650782 0.0779431 0.177783
0.651728 0.0774701 0.181765
0.653193 0.076585 0.188739
0.654688 0.0756542 0.195911
0.0281987 0.04065 0.0385443
0.0281224 0.0407111 0.0387427
0.0280919 0.0407263 0.038819
0.0281071 0.0407263 0.038819
0.0319066 0.0416571 0.0400854
0.0454871 0.0433661 0.0415961
0.0622416 0.0445258 0.0416114
0.0827649 0.0449378 0.0413977
0.10808 0.0442969 0.0406958
0.143175 0.0425116 0.0398413
0.186175 0.0411536 0.0395361
0.234562 0.0399939 0.0400092
0.290486 0.0396582 0.0406806
0.348501 0.0399481 0.0413062
0.404242 0.0407111 0.0427863
0.455436 0.0420539 0.048127
0.494636 0.0440833 0.057969
0.527092 0.0466163 0.0719005
0.555886 0.0504921 0.0875715
0.585702 0.0587015 0.108431
0.627665 0.0723125 0.144137
0.639277 0.0753338 0.155245
0.642588 0.0762188 0.159777
0.644526 0.0767376 0.162982
0.64567 0.0770428 0.165072
0.646571 0.0773175 0.16672
0.647166 0.0775158 0.16788
0.647669 0.0775921 0.169055
0.648157 0.0775769 0.170489
0.648981 0.0772412 0.173678
0.649927 0.0767834 0.177539
0.651469 0.0758831 0.184604
0.65301 0.0749371 0.191959
0.029633 0.0483711 0.0426795
0.029633 0.0478676 0.0417792
0.0298772 0.0470436 0.041474
0.030869 0.0457313 0.0408637
0.0321508 0.0447089 0.0404974
0.0397955 0.0462501 0.042298
0.0530251 0.047776 0.0428779
0.0710765 0.048127 0.0428168
0.096437 0.047837 0.0424811
0.130724 0.0465095 0.0416876
0.176196 0.0438087 0.0400092
0.227451 0.0413672 0.0393225
0.285801 0.0400092 0.0401312
0.345678 0.0400397 0.0416419
0.403143 0.0406195 0.0435492
0.45478 0.0418097 0.0490272
0.494377 0.0439002 0.0588388
0.526818 0.0465095 0.072282
0.556207 0.0506752 0.0881361
0.583764 0.0577554 0.106554
0.624811 0.0708782 0.140536
0.635157 0.0742809 0.14963
0.636667 0.0746929 0.151446
0.638178 0.0750591 0.153552
0.639109 0.0752728 0.155184
0.64123 0.0758679 0.157977
0.642756 0.0762951 0.160128
0.643763 0.0764324 0.162036
0.644556 0.0764935 0.163867
0.645563 0.0762036 0.167285
0.646632 0.0757305 0.171267
0.648295 0.0748608 0.178271
0.650034 0.0738994 0.185763
0.0320897 0.0630808 0.0513313
0.0322576 0.0622721 0.0491188
0.0322118 0.0610819 0.0482643
0.0353246 0.058381 0.0467994
0.0392004 0.0552987 0.0451972
0.0437934 0.0549935 0.04477
0.0540322 0.0570382 0.0461433
0.0698253 0.057557 0.0472114
0.0939345 0.0562295 0.0471962
0.126009 0.0538796 0.045304
0.168536 0.0500496 0.0431525
0.220233 0.045243 0.040528
0.280079 0.041886 0.039826
0.342763 0.040528 0.0407416
0.400839 0.0406348 0.043473
0.453483 0.0416876 0.0493935
0.494102 0.0436561 0.0598306
0.526894 0.0462043 0.0739452
0.55726 0.0505989 0.0907607
0.582956 0.0568856 0.107027
0.625452 0.070573 0.14226
0.635081 0.07393 0.150683
0.63505 0.0739452 0.150546
0.63505 0.0739605 0.150469
0.635264 0.0740215 0.150698
0.636622 0.074403 0.152239
0.637659 0.0746166 0.153765
0.638331 0.0746624 0.155093
0.63888 0.0746624 0.156344
0.639551 0.0744335 0.158663
0.640452 0.074052 0.162142
0.6421 0.0731975 0.168856
0.643793 0.0722515 0.17615
0.0339208 0.0814679 0.0596628
0.0339361 0.080415 0.056733
0.0339055 0.0786145 0.0549935
0.0361639 0.0758679 0.0538186
0.0438697 0.0714427 0.0522316
0.0505379 0.0685893 0.05037
0.0591592 0.0699931 0.0491035
0.0742504 0.072343 0.0501564
0.0969711 0.0727703 0.05243
0.132403 0.0686351 0.052018
0.175311 0.0637522 0.047837
0.223194 0.0567788 0.0440986
0.27805 0.0478981 0.041001
0.339574 0.0426795 0.039765
0.398779 0.0411231 0.042649
0.451789 0.0416571 0.049134
0.493248 0.0435798 0.0598459
0.526696 0.0460517 0.0745098
0.557794 0.0505989 0.0925154
0.58201 0.0560922 0.1075
0.626093 0.070222 0.144411
0.63563 0.0736095 0.15288
0.63563 0.0736095 0.15285
0.63563 0.0736248 0.152834
0.63563 0.0736095 0.152834
0.63563 0.0736095 0.15285
0.635645 0.0735943 0.152911
0.635676 0.0735943 0.152972
0.635691 0.0735943 0.153017
0.635904 0.0734569 0.153933
0.636316 0.0732128 0.155718
0.637293 0.0726482 0.159655
0.638361 0.0720226 0.164034
0.035111 0.102434 0.0654612
0.0350042 0.101884 0.0621195
0.03505 0.100725 0.0601358
0.0352789 0.0986496 0.059617
0.0433661 0.0945754 0.0579232
0.0533761 0.08925 0.0561074
0.0644236 0.0884108 0.0539254
0.0795758 0.0909438 0.0517586
0.101915 0.0937514 0.052018
0.13547 0.0927291 0.0554208
0.185504 0.0857862 0.0557259
0.240314 0.0768139 0.0514839
0.294057 0.0674144 0.046128
0.346593 0.0544594 0.043473
0.399084 0.0447395 0.0422827
0.450416 0.0420386 0.0488289
0.492348 0.043534 0.059556
0.525689 0.0459297 0.0740215
0.557855 0.0507668 0.0929274
0.579934 0.0552224 0.105516
0.626307 0.0702068 0.144686
0.635676 0.073579 0.153063
0.635676 0.073579 0.153063
0.635676 0.073579 0.153063
0.635676 0.073579 0.153063
0.635691 0.073579 0.153063
0.635691 0.073579 0.153063
0.635691 0.073579 0.153063
0.635706 0.073579 0.153063
0.635904 0.0734569 0.153933
0.636316 0.0732128 0.155718
0.637293 0.0726482 0.159655
0.638361 0.0720226 0.164034
0.0353399 0.129335 0.0721294
0.0350805 0.128893 0.0669108
0.0353399 0.127596 0.0632334
0.0354772 0.126223 0.0622721
0.0391852 0.123644 0.0615244
0.0519722 0.1187 0.0600137
0.0655528 0.113848 0.0580301
0.084184 0.113878 0.0549172
0.105699 0.117067 0.0516518
0.138811 0.120317 0.050721
0.18793 0.117678 0.0556191
0.246845 0.10811 0.057023
0.315389 0.0940108 0.0546273
0.369985 0.0818341 0.0503395
0.41677 0.0658427 0.0481422
0.455024 0.0477913 0.0482338
0.491646 0.0439002 0.059205
0.524376 0.045716 0.0734722
0.557671 0.0508583 0.0930953
0.57731 0.0542916 0.103258
0.626749 0.0702831 0.145022
0.635676 0.073579 0.153063
0.635676 0.073579 0.153063
0.635691 0.073579 0.153063
0.635691 0.073579 0.153063
0.635706 0.073579 0.153063
0.635706 0.073579 0.153048
0.635721 0.073579 0.153048
0.635706 0.073579 0.153048
0.63592 0.0734569 0.153933
0.636332 0.0731975 0.155718
0.637293 0.0726482 0.159655
0.638361 0.0720226 0.16405
0.0345922 0.164065 0.079881
0.0339971 0.164141 0.0730449
0.0346075 0.163638 0.0656901
0.0353094 0.162203 0.0624247
0.0354009 0.16051 0.0622416
0.0437934 0.157259 0.0614481
0.0586557 0.152651 0.0592203
0.0822003 0.147692 0.0570993
0.109773 0.148547 0.0528573
0.140154 0.152422 0.0487678
0.186954 0.155703 0.0470741
0.248585 0.151263 0.0531319
0.318074 0.138689 0.0580911
0.391211 0.120424 0.0591135
0.446189 0.103197 0.0586557
0.484169 0.0831922 0.0556344
0.505837 0.0567025 0.0576028
0.525444 0.0470283 0.0715953
0.557198 0.0508583 0.0935683
0.574166 0.0533913 0.100359
0.626749 0.070222 0.144976
0.635676 0.073579 0.153063
0.635676 0.073579 0.153063
0.635691 0.073579 0.153063
0.635691 0.073579 0.153063
0.635706 0.073579 0.153063
0.635721 0.073579 0.153048
0.635737 0.073579 0.153048
0.635737 0.073579 0.153048
0.635935 0.0734569 0.153933
0.636347 0.0731975 0.155718
0.637308 0.0726329 0.159655
0.638376 0.0720226 0.16405
0.032166 0.205158 0.0902876
0.0328679 0.205783 0.0815137
0.0332189 0.205127 0.0721447
0.0352636 0.203403 0.0634928
0.036347 0.201938 0.0606088
0.0364385 0.200565 0.0607309
0.0452735 0.198276 0.0592508
0.0649882 0.194018 0.0563058
0.101122 0.189929 0.0539101
0.14078 0.191272 0.0489052
0.182971 0.195422 0.0440986
0.242695 0.198291 0.0424659
0.31722 0.194675 0.0504005
0.393393 0.180652 0.0618601
0.463584 0.160693 0.0672618
0.51841 0.13637 0.0712596
0.545815 0.112779 0.0715038
0.556542 0.075761 0.0732891
0.563577 0.0532692 0.0851759
0.573266 0.053254 0.0968185
0.626841 0.0701762 0.145251
0.635676 0.073579 0.153063
0.635676 0.073579 0.153063
0.635691 0.073579 0.153063
0.635691 0.073579 0.153063
0.635706 0.073579 0.153063
0.635721 0.073579 0.153048
0.635737 0.073579 0.153048
0.635737 0.073579 0.153048
0.635935 0.0734417 0.153933
0.636347 0.0731975 0.155718
0.637324 0.0726329 0.159655
0.638392 0.0720073 0.164034
0.0281529 0.251881 0.101656
0.0288396 0.252705 0.0933242
0.0297551 0.252399 0.08336
0.0322728 0.250721 0.071809
0.0359808 0.248859 0.0618143
0.0375067 0.247837 0.0587167
0.0374456 0.24686 0.0586862
0.0447547 0.244724 0.0565042
0.0703136 0.240665 0.0523232
0.12047 0.237705 0.0484779
0.1776 0.239841 0.0435798
0.232654 0.245426 0.0397345
0.305959 0.24831 0.0394141
0.386954 0.245914 0.0482795
0.464561 0.233677 0.0681468
0.532479 0.213458 0.0805524
0.585092 0.186236 0.0918441
0.606806 0.160601 0.094667
0.610956 0.110277 0.0904097
0.605646 0.0640879 0.0991073
0.602564 0.0588083 0.116258
0.629023 0.0712596 0.148165
0.634333 0.0725872 0.153521
0.636362 0.0731823 0.155947
0.636316 0.0732128 0.155688
0.636286 0.073228 0.155535
0.636316 0.073228 0.15555
0.636378 0.0731975 0.155764
0.6365 0.0731212 0.156222
0.636683 0.0729992 0.157015
0.636881 0.0727855 0.158206
0.637568 0.0724041 0.161044
0.6383 0.0719005 0.16437
0.0257725 0.302464 0.114778
0.0269017 0.303456 0.107927
0.0280613 0.303716 0.099321
0.0297398 0.302815 0.0897688
0.0325933 0.302144 0.077409
0.0380407 0.300221 0.0644541
0.0408789 0.298955 0.0589761
0.0409857 0.29807 0.0594339
0.0463874 0.295888 0.0562142
0.0774548 0.292744 0.0481727
0.147463 0.291569 0.0429236
0.220279 0.295613 0.0382544
0.288991 0.302419 0.0362402
0.371756 0.306508 0.0383307
0.453773 0.306783 0.0474708
0.534203 0.298222 0.0763104
0.600183 0.278569 0.0993668
0.650309 0.24976 0.120424
0.673136 0.220127 0.126802
0.674983 0.16849 0.122103
0.644144 0.0778973 0.10959
0.638575 0.0698253 0.120562
0.635126 0.0672313 0.137255
0.610697 0.0610208 0.120714
0.617945 0.0656748 0.137606
0.626795 0.0700999 0.148272
0.62948 0.0706493 0.151049
0.63209 0.0711833 0.153323
0.633951 0.0713664 0.154559
0.635203 0.0714427 0.154772
0.636103 0.0712444 0.153704
0.636973 0.0705577 0.153262
0.638331 0.0696422 0.15256
0.0248875 0.354849 0.134096
0.0268559 0.356558 0.127962
0.0290074 0.357412 0.120165
0.031281 0.357443 0.111543
0.0332036 0.357107 0.10312
0.035996 0.356481 0.0932479
0.0412451 0.355108 0.0788281
0.0466011 0.353445 0.0657816
0.0469368 0.352651 0.065095
0.0519417 0.350164 0.0598459
0.0902419 0.346853 0.0463111
0.180514 0.34786 0.0395056
0.269398 0.353872 0.0350805
0.349752 0.362509 0.0346075
0.438148 0.368719 0.0399481
0.520058 0.372351 0.0506905
0.600351 0.368261 0.0884718
0.664714 0.355795 0.126345
0.717906 0.327092 0.155383
0.743877 0.291646 0.167315
0.740261 0.241154 0.15906
0.716762 0.184482 0.142809
0.69192 0.137057 0.129747
0.668345 0.0996719 0.117754
0.652247 0.080415 0.110491
0.652049 0.0805371 0.117952
0.650706 0.0800946 0.122026
0.650172 0.0806134 0.124788
0.651392 0.0824445 0.128206
0.654719 0.0863355 0.132387
0.661738 0.0947433 0.135927
0.671183 0.106111 0.139345
0.685237 0.124208 0.14519
0.0256809 0.411215 0.163546
0.0283207 0.413428 0.157946
0.0315862 0.415442 0.151461
0.0351873 0.415808 0.143435
0.0387732 0.415885 0.135058
0.0420081 0.415503 0.126665
0.0448005 0.415259 0.118929
0.0498207 0.415015 0.10724
0.0572519 0.413397 0.0899367
0.0594644 0.411917 0.0847791
0.0650034 0.40914 0.0758679
0.110109 0.405585 0.0496986
0.218479 0.40885 0.0390173
0.328008 0.417639 0.0377203
0.416007 0.427955 0.0379187
0.503761 0.434516 0.0474403
0.58233 0.440131 0.0677806
0.66157 0.440558 0.112978
0.727779 0.435248 0.159777
0.780438 0.408835 0.191791
0.806912 0.371267 0.207553
0.801724 0.33904 0.19971
0.789685 0.316609 0.190555
0.778897 0.295857 0.183062
0.769131 0.277501 0.176425
0.760647 0.261555 0.170748
0.75378 0.249027 0.166354
0.749249 0.240681 0.16347
0.747448 0.236789 0.162539
0.748699 0.238697 0.16347
0.753475 0.246784 0.166674
0.763531 0.263676 0.174166
0.777386 0.286931 0.184863
0.0287938 0.47361 0.207156
0.031632 0.476326 0.202228
0.0350652 0.478492 0.196307
0.0392157 0.479133 0.188617
0.0435187 0.479377 0.180438
0.0479133 0.479438 0.172488
0.0526131 0.480156 0.165026
0.057145 0.480293 0.157076
0.0638132 0.480262 0.145693
0.0753796 0.479316 0.125872
0.0813153 0.477836 0.115358
0.0869917 0.47483 0.105241
0.137484 0.470497 0.0658732
0.262943 0.47541 0.0461738
0.394995 0.485267 0.0480049
0.483192 0.494926 0.0520333
0.566232 0.501793 0.0708476
0.643824 0.508843 0.100298
0.721706 0.513664 0.148455
0.786954 0.512398 0.195102
0.833097 0.491554 0.226337
0.852445 0.45687 0.239124
0.848188 0.438483 0.236164
0.843687 0.425132 0.232883
0.838849 0.413199 0.229023
0.834989 0.403967 0.22591
0.831815 0.397253 0.223224
0.83003 0.393545 0.221714
0.82945 0.393256 0.221073
0.830228 0.395956 0.22153
0.832822 0.402762 0.223484
0.83856 0.415534 0.228473
0.845823 0.433234 0.234913
0.0395972 0.538216 0.265415
0.0407416 0.541146 0.262119
0.0431525 0.544076 0.257908
0.0466621 0.545769 0.251118
0.0501869 0.546487 0.24332
0.0545968 0.547875 0.23621
0.0592813 0.548684 0.22855
0.0649271 0.549187 0.219684
0.0720684 0.549401 0.208392
0.081529 0.549615 0.194583
0.0964981 0.54992 0.173495
0.105486 0.548531 0.159655
0.112322 0.544656 0.146944
0.176516 0.538903 0.0918593
0.321859 0.546944 0.0672465
0.467384 0.556664 0.0753185
0.550973 0.564233 0.0859083
0.628809 0.570031 0.108858
0.704417 0.576791 0.141039
0.7785 0.584421 0.18703
0.836912 0.586572 0.230106
0.873213 0.573602 0.256153
0.877333 0.557641 0.258381
0.875135 0.545617 0.256611
0.873304 0.5355 0.255161
0.871916 0.527794 0.25391
0.870802 0.522683 0.252888
0.869902 0.519753 0.252033
0.869703 0.519661 0.251942
0.870115 0.522469 0.252354
0.871397 0.52961 0.253468
0.873335 0.541985 0.255375
0.876478 0.560464 0.258839
0.0655222 0.604456 0.331334
0.0666056 0.607797 0.330755
0.0671397 0.610269 0.328679
0.0676127 0.612222 0.325612
0.0681315 0.61355 0.321248
0.0702831 0.614954 0.315389
0.0733349 0.616022 0.308248
0.0769207 0.617182 0.300679
0.0822919 0.618051 0.290074
0.0924239 0.619394 0.275319
0.106889 0.620386 0.256199
0.123491 0.620783 0.233143
0.130617 0.619257 0.221134
0.141253 0.614725 0.202121
0.233509 0.609766 0.123156
0.39353 0.620844 0.107485
0.539269 0.627878 0.119234
0.617182 0.632197 0.131411
0.690089 0.636988 0.153765
0.762646 0.643778 0.186252
0.828122 0.652415 0.227054
0.875059 0.656336 0.261769
0.892561 0.651469 0.274464
0.891417 0.643809 0.272862
0.890211 0.637263 0.271473
0.889494 0.632593 0.270726
0.888792 0.629358 0.270039
0.888136 0.626917 0.269627
0.887922 0.626642 0.269718
0.888212 0.628885 0.270466
0.888884 0.634073 0.271656
0.889952 0.643656 0.273548
0.891691 0.656199 0.276448
0.100572 0.671855 0.399817
0.101991 0.675258 0.400473
0.103456 0.678477 0.401068
0.104112 0.680522 0.399512
0.104448 0.681926 0.397024
0.104585 0.682948 0.394141
0.104494 0.68368 0.390555
0.104173 0.684245 0.386191
0.104616 0.685344 0.380407
0.109239 0.686549 0.369451
0.117128 0.687724 0.353033
0.135546 0.689586 0.327382
0.158099 0.690852 0.299107
0.159579 0.688731 0.293599
0.185931 0.683879 0.256733
0.308675 0.683558 0.166583
0.475135 0.69485 0.161273
0.609262 0.698085 0.171679
0.681712 0.70013 0.183124
0.750072 0.703822 0.204868
0.814908 0.709468 0.23357
0.870039 0.717174 0.268299
0.904112 0.721492 0.294713
0.90837 0.717647 0.29778
0.906752 0.713146 0.295537
0.905531 0.709453 0.293904
0.904631 0.706844 0.292912
0.903944 0.705287 0.2925
0.903716 0.705074 0.292714
0.90396 0.706859 0.293812
0.904952 0.710933 0.295842
0.906844 0.717769 0.299184
0.909331 0.727291 0.303593
0.144884 0.737377 0.471611
0.147097 0.740764 0.473793
0.148531 0.743282 0.474693
0.149203 0.744869 0.473716
0.149569 0.745937 0.472602
0.149615 0.7467 0.470329
0.150027 0.747829 0.468513
0.14995 0.748592 0.466056
0.149371 0.749035 0.461952
0.148257 0.749187 0.455238
0.146731 0.749157 0.445487
0.148409 0.749462 0.429847
0.160632 0.751553 0.403479
0.17789 0.752667 0.378515
0.178363 0.749676 0.372183
0.235904 0.747417 0.304646
0.393729 0.754162 0.22063
0.555291 0.763149 0.22182
0.674952 0.764599 0.231174
0.742947 0.765194 0.242435
0.807172 0.768673 0.263432
0.862287 0.773434 0.288319
0.905501 0.781033 0.31664
0.927672 0.784512 0.334737
0.926711 0.780179 0.332296
0.925795 0.776913 0.330526
0.925139 0.774746 0.32958
0.924514 0.773404 0.32932
0.924269 0.77348 0.329915
0.924758 0.775601 0.332006
0.92546 0.778973 0.334615
0.927291 0.785641 0.3393
0.929488 0.793957 0.345922
0.188098 0.790814 0.542351
0.189776 0.793271 0.544442
0.190951 0.795316 0.545708
0.191562 0.796658 0.545541
0.191974 0.797726 0.544808
0.19237 0.798733 0.543832
0.192538 0.79942 0.542977
0.192294 0.799847 0.54081
0.191775 0.800229 0.537804
0.190677 0.800458 0.533028
0.189029 0.800504 0.525856
0.186908 0.800443 0.515663
0.184176 0.799893 0.500221
0.184955 0.799496 0.475349
0.186236 0.797894 0.464591
0.196429 0.796155 0.43946
0.287785 0.801526 0.339361
0.477516 0.813062 0.280522
0.62443 0.818952 0.285573
0.732708 0.822568 0.297215
0.799863 0.824552 0.309651
0.859571 0.828595 0.330922
0.903059 0.833066 0.351522
0.931609 0.83975 0.370642
0.9402 0.839643 0.376181
0.939574 0.836637 0.373892
0.939223 0.834791 0.372763
0.938781 0.83418 0.372686
0.938506 0.834134 0.373175
0.938567 0.835508 0.374838
0.938811 0.83856 0.377707
0.939834 0.843427 0.382788
0.942016 0.849592 0.39057
0.226032 0.832792 0.608682
0.227543 0.834409 0.610437
0.229114 0.83621 0.612024
0.229862 0.837339 0.612116
0.230579 0.838331 0.612009
0.230945 0.838911 0.611337
0.231189 0.839323 0.610315
0.231144 0.839628 0.609003
0.230686 0.839841 0.607095
0.229969 0.840177 0.603876
0.228489 0.840192 0.598962
0.226215 0.839979 0.591104
0.223346 0.839506 0.580026
0.219516 0.838544 0.563241
0.215213 0.836332 0.546624
0.212284 0.833722 0.539925
0.227787 0.833555 0.480751
0.349371 0.848096 0.380941
0.546044 0.857511 0.342718
0.685527 0.864393 0.353323
0.785321 0.871397 0.369162
0.852186 0.874983 0.384131
0.903731 0.877852 0.403632
0.937667 0.881407 0.419837
0.95462 0.884855 0.429496
0.954314 0.883055 0.427024
0.953658 0.881819 0.425544
0.952895 0.880964 0.424689
0.952239 0.881086 0.425193
0.951583 0.88249 0.427237
0.951583 0.88455 0.430869
0.95285 0.887739 0.437171
0.95552 0.892653 0.446937
0.258778 0.86157 0.661219
0.26006 0.862486 0.662501
0.260838 0.863203 0.663111
0.261204 0.863722 0.663035
0.261387 0.864134 0.662455
0.261601 0.864485 0.662028
0.261784 0.864744 0.661418
0.261814 0.864942 0.660594
0.261601 0.865232 0.65951
0.260868 0.865476 0.65771
0.259464 0.865583 0.654154
0.257511 0.865629 0.649378
0.255192 0.86566 0.642542
0.251972 0.865187 0.632349
0.248554 0.864515 0.620295
0.245609 0.862898 0.612604
0.236759 0.857725 0.584604
0.257862 0.862013 0.510628
0.427558 0.884153 0.4271
0.603311 0.891508 0.411948
0.73875 0.901793 0.429664
0.832517 0.911131 0.446662
0.892058 0.914702 0.457267
0.938323 0.916838 0.473365
0.966278 0.918318 0.485374
0.973205 0.91841 0.487633
0.971923 0.917021 0.484993
0.97116 0.916625 0.484443
0.970336 0.916594 0.485252
0.969543 0.917021 0.487648
0.969497 0.918273 0.492515
0.970718 0.920699 0.500557
0.972717 0.924117 0.512215
0.271305 0.870985 0.682704
0.271458 0.870832 0.681987
0.271473 0.870863 0.681178
0.271321 0.870893 0.680064
0.271077 0.870909 0.67892
0.270771 0.870863 0.677836
0.270512 0.870771 0.676646
0.27013 0.870649 0.675349
0.269413 0.870588 0.673426
0.26836 0.870588 0.671153
0.266728 0.870512 0.667445
0.264439 0.870298 0.662623
0.261601 0.869917 0.655787
0.258152 0.869245 0.645991
0.253986 0.868345 0.632273
0.252552 0.868238 0.627649
0.252155 0.868788 0.623728
0.252232 0.870466 0.593088
0.30161 0.882979 0.523156
0.49868 0.904021 0.47834
0.6607 0.912856 0.491753
0.796277 0.928588 0.519722
0.876707 0.940337 0.538216
0.927001 0.944366 0.541939
0.965209 0.94522 0.553201
0.984787 0.944579 0.560861
0.984405 0.943236 0.556756
0.983795 0.94229 0.5552
0.982956 0.941894 0.555642
0.981872 0.942214 0.559991
0.981109 0.943038 0.566506
0.980789 0.944732 0.577615
0.980545 0.947387 0.593271
0.27219 0.871473 0.685283
0.272251 0.871336 0.684596
0.272206 0.871244 0.683848
0.272023 0.871214 0.682918
0.271702 0.871199 0.681773
0.271229 0.871229 0.680537
0.270771 0.871199 0.679316
0.270314 0.871092 0.678035
0.268971 0.871214 0.676249
0.267903 0.871107 0.673594
0.266545 0.871092 0.670451
0.26453 0.870817 0.665492
0.261936 0.870375 0.658793
0.258717 0.869657 0.649119
0.254551 0.868559 0.635172
0.252552 0.868269 0.627802
0.25243 0.868605 0.626459
0.249638 0.869429 0.603738
0.274083 0.877165 0.538506
0.457099 0.902647 0.48661
0.627131 0.912047 0.499855
0.746105 0.923629 0.535027
0.861708 0.941695 0.573373
0.913298 0.949538 0.591897
0.951965 0.954879 0.608469
0.9776 0.957885 0.626841
0.98294 0.958175 0.629679
0.982727 0.957916 0.628901
0.982177 0.957748 0.62945
0.981109 0.957717 0.631815
0.980163 0.957641 0.635233
0.979385 0.957626 0.639841
0.978744 0.95761 0.645335
0.27274 0.871946 0.687434
0.272831 0.871733 0.686702
0.27277 0.87155 0.685954
0.272541 0.871427 0.685023
0.272206 0.871412 0.683864
0.271656 0.871458 0.68275
0.271092 0.871473 0.68159
0.27042 0.871458 0.680156
0.269596 0.871397 0.678431
0.268513 0.871305 0.675914
0.267063 0.871199 0.672511
0.265232 0.871061 0.667674
0.262669 0.870588 0.661067
0.25948 0.869871 0.651743
0.255344 0.868788 0.637919
0.252811 0.86833 0.628641
0.252369 0.868315 0.627588
0.249851 0.86923 0.609583
0.267063 0.875654 0.549645
0.432197 0.901244 0.492256
0.610574 0.911055 0.495705
0.731579 0.921874 0.529961
0.84831 0.939834 0.568231
0.904921 0.948379 0.589059
0.944167 0.953872 0.604379
0.973022 0.957595 0.624048
0.982574 0.958633 0.634791
0.982147 0.958618 0.636286
0.981369 0.958633 0.638453
0.98024 0.958663 0.641535
0.979263 0.958572 0.645304
0.978546 0.958404 0.648966
0.978119 0.958206 0.652247
0.273442 0.872053 0.68925
0.273457 0.871839 0.688548
0.273304 0.871687 0.687709
0.272999 0.871611 0.686748
0.272572 0.871626 0.685496
0.271962 0.871656 0.684352
0.271366 0.871672 0.683207
0.270726 0.871656 0.681926
0.269871 0.871611 0.680018
0.268818 0.871489 0.677531
0.267308 0.871336 0.673961
0.265614 0.87126 0.669352
