bundles/resolve-cinematic-luts/Phantom Luts/S5ii LUTs/Standard (No WB Offset)/S5ii Neutral V-Log Legacy.cube
TITLE "Generated by Resolve"
LUT_3D_SIZE 5
0.0319524 0.0319524 0.0319524
0.137163 0.0383001 0.0333867
0.509926 0.0283513 0.0903639
0.735134 0.0367437 0.192706
0.736095 0.0371862 0.196292
0.0342107 0.121233 0.0492256
0.105592 0.108797 0.0331273
0.486427 0.0237125 0.0712749
0.711162 0.0353246 0.164904
0.711162 0.0353246 0.164904
0.0424353 0.519219 0.195697
0.0990158 0.513878 0.133013
0.504646 0.523384 0.0185855
0.951202 0.421317 0.146578
0.949248 0.380514 0.143908
0.115282 0.964263 0.621118
0.111666 0.966003 0.605142
0.0957961 0.975769 0.53434
0.953506 0.983612 0.482979
0.981109 0.97557 0.454444
0.118212 0.962829 0.634577
0.11487 0.964446 0.619318
0.0973831 0.972808 0.543221
0.901274 0.985855 0.546731
0.985565 0.989944 0.574838
0.0339208 0.0383917 0.095552
0.147066 0.0438239 0.105776
0.540795 0.0415656 0.16286
0.74934 0.0436713 0.233341
0.753155 0.0447242 0.23769
0.0420844 0.108705 0.102892
0.0960403 0.0960403 0.0960403
0.498863 0.0452277 0.117357
0.736828 0.0375219 0.198917
0.737377 0.0377661 0.200839
0.0279545 0.507301 0.253986
0.0319829 0.505211 0.195407
0.498497 0.516747 0.0177768
0.950607 0.408286 0.145907
0.948135 0.366415 0.142535
0.1187 0.962524 0.636835
0.115587 0.964126 0.622477
0.0973831 0.972808 0.543221
0.949203 0.980606 0.469398
0.979034 0.972045 0.436637
0.121416 0.960845 0.649958
0.118456 0.962676 0.635691
0.0973831 0.972808 0.543221
0.892699 0.985061 0.546166
0.985565 0.989944 0.574838
0.0131533 0.0680247 0.383322
0.123842 0.0457465 0.434546
0.579324 0.0661479 0.434455
0.850309 0.104784 0.476631
0.851072 0.104143 0.482063
0.0179904 0.0895399 0.361044
0.021622 0.0657969 0.381064
0.555932 0.0640421 0.417151
0.844404 0.106874 0.445075
0.845182 0.106783 0.448951
0.0547341 0.468818 0.447822
0.0534524 0.461448 0.441077
0.493492 0.493492 0.493492
0.932403 0.368231 0.44651
0.924025 0.315938 0.448325
0.13138 0.953735 0.714931
0.130419 0.954696 0.705455
0.118608 0.962585 0.636423
0.94226 0.96643 0.576883
0.993973 0.951431 0.569696
0.132296 0.952529 0.727535
0.131563 0.953521 0.717067
0.121126 0.961013 0.648524
0.877852 0.985428 0.657465
0.988602 0.991379 0.688792
0 0.266178 0.777417
0 0.256458 0.776791
0.46685 0.286503 0.901213
0.941985 0.342184 0.940352
0.941985 0.342184 0.940352
0 0.251514 0.765225
0 0.255955 0.769985
0.421622 0.275288 0.891157
0.942992 0.332235 0.933928
0.941985 0.342184 0.940352
0 0.444083 0.746441
0 0.433402 0.757351
0.257572 0.444373 0.835767
0.95433 0.400809 0.896178
0.947829 0.372183 0.883741
0.11873 0.924437 0.895567
0.118303 0.91931 0.890593
0.116121 0.895308 0.867735
0.922515 0.922515 0.922515
0.981216 0.913314 0.909529
0.112734 0.940246 0.929549
0.115831 0.940642 0.922591
0.130007 0.942657 0.882124
0.85008 0.985428 0.934295
0.991196 0.991135 0.978469
0 0.276158 0.784146
0 0.277653 0.792523
0.446113 0.323384 0.918639
0.941985 0.342184 0.940352
0.941985 0.342184 0.940352
0 0.276158 0.784146
0 0.276158 0.784146
0.390936 0.324056 0.898711
0.941985 0.342184 0.940352
0.941985 0.342184 0.940352
0 0.482292 0.844404
0 0.470085 0.840421
0.13669 0.460517 0.866957
0.959442 0.438148 0.958511
0.954833 0.417868 0.953521
0.0505074 0.916167 0.952987
0.0448157 0.90985 0.951888
0.0183261 0.873671 0.945922
0.870039 0.897642 0.979141
0.987305 0.89575 0.985382
0.0738842 0.941604 0.959686
0.0738842 0.941604 0.959686
0.0738842 0.941604 0.959686
0.725139 0.975738 0.978149
0.991241 0.991241 0.991241
