bundles/resolve-cinematic-luts/Phantom Luts/S5ii LUTs/Standard (No WB Offset)/S5ii Utopia V-Log Legacy.cube
TITLE "Generated by Resolve"
LUT_3D_SIZE 9
0.0141146 0.0405585 0.0500801
0.0381933 0.0418097 0.0517281
0.10428 0.0419623 0.0476387
0.24683 0.0323491 0.0416114
0.467033 0.0264286 0.0603799
0.657893 0.0455024 0.14435
0.667567 0.0471962 0.153429
0.668498 0.0475624 0.156435
0.670588 0.0470283 0.157977
0.0155642 0.0525978 0.0558633
0.0219425 0.0466926 0.0521553
0.0767834 0.0490272 0.0506142
0.231891 0.0329595 0.0402075
0.455451 0.0213931 0.0465095
0.63151 0.0395819 0.116869
0.649592 0.0441901 0.129046
0.658839 0.0447242 0.136339
0.663111 0.0445106 0.13933
0.00683604 0.117769 0.0538491
0.016083 0.11107 0.0459144
0.0796368 0.104112 0.0457618
0.256901 0.0788434 0.0596017
0.44892 0.0227359 0.0452583
0.632563 0.0396887 0.117494
0.648478 0.0439002 0.127764
0.648478 0.0439002 0.127764
0.649241 0.0436103 0.127916
0 0.278492 0.0512093
0.0109865 0.272618 0.0152132
0.0296941 0.264637 0.00299077
0.247929 0.254231 0.0385901
0.550103 0.211185 0.0962692
0.69456 0.0381476 0.0702831
0.61912 0.0274052 0.0886397
0.642954 0.0414893 0.119844
0.649699 0.0419776 0.124498
0 0.552499 0.153796
0.0238804 0.553231 0.121294
0.0618906 0.551614 0.0819104
0.127077 0.531075 0.00975052
0.538109 0.512322 0.0597086
0.849638 0.509438 0.175525
0.914519 0.429923 0.195178
0.91046 0.402625 0.19263
0.909651 0.393545 0.190616
0.0368505 0.860441 0.43975
0.0337377 0.863645 0.42269
0.0348516 0.867262 0.39762
0.135668 0.878065 0.309117
0.430533 0.846448 0.152087
0.817105 0.779675 0.186526
0.979812 0.780407 0.209537
0.976074 0.767987 0.204578
0.973983 0.763638 0.204334
0.0776226 0.984314 0.628931
0.0719768 0.98645 0.6215
0.0701915 0.988098 0.611704
0.0669108 0.992844 0.580774
0.0657054 0.998657 0.532174
0.707668 0.998367 0.45536
0.990204 0.961563 0.512734
0.999969 0.953597 0.501732
0.999969 0.951644 0.494041
0.074876 0.983658 0.638727
0.0764782 0.984131 0.632303
0.0760052 0.985397 0.623102
0.0728161 0.98999 0.593729
0.0697032 0.996445 0.546304
0.630106 0.999969 0.447379
0.954559 0.972534 0.568856
0.999969 0.969879 0.596368
0.999969 0.97026 0.59707
0.0716564 0.983932 0.641978
0.0730449 0.984451 0.635477
0.0748302 0.985199 0.626596
0.0731975 0.98938 0.597574
0.0697337 0.99646 0.546548
0.608042 0.999969 0.441184
0.943328 0.973251 0.567742
0.999969 0.970016 0.596643
0.999969 0.970413 0.59736
0.0111696 0.0416876 0.0573281
0.0321355 0.0432898 0.0682078
0.105013 0.044419 0.0729686
0.265583 0.0404974 0.0795605
0.483803 0.0373693 0.0963912
0.664164 0.0477455 0.162295
0.672892 0.0489815 0.170413
0.673686 0.0494698 0.173434
0.675196 0.0492561 0.174899
0.0141451 0.0490883 0.0588388
0.0142061 0.0406195 0.0500649
0.0840467 0.0425422 0.0504158
0.233875 0.0362707 0.049424
0.458915 0.0281224 0.061265
0.658732 0.0453346 0.146395
0.6692 0.0470436 0.15555
0.670085 0.047425 0.15848
0.671641 0.0471046 0.159625
0.00955215 0.110704 0.0835279
0.00796521 0.106157 0.0586404
0.07393 0.0991226 0.0462043
0.251011 0.0665904 0.0541848
0.447456 0.0224155 0.0460517
0.6336 0.0396582 0.118227
0.65481 0.0440986 0.132357
0.658457 0.0444343 0.135363
0.660304 0.0442512 0.136675
0 0.273548 0.090547
0 0.269398 0.0562448
0.0151369 0.261555 0.0089723
0.242679 0.249683 0.038529
0.55108 0.19791 0.0947738
0.688472 0.034226 0.0710307
0.626902 0.0332799 0.100923
0.648432 0.0420539 0.123751
0.649409 0.0418555 0.124727
0 0.544244 0.186297
0 0.546777 0.155367
0.0305028 0.547539 0.110933
0.102571 0.534676 0.0305791
0.536034 0.510079 0.0592508
0.850782 0.50277 0.176318
0.913771 0.425208 0.194659
0.909606 0.397574 0.191989
0.908827 0.388479 0.190005
0.0370947 0.854215 0.454536
0.0336767 0.856947 0.438468
0.0327459 0.860166 0.415396
0.100664 0.872358 0.330617
0.405249 0.848264 0.150027
0.815 0.777798 0.184726
0.979126 0.777111 0.208377
0.97438 0.763867 0.202838
0.97229 0.759655 0.202396
0.0782177 0.983307 0.636027
0.0728313 0.985336 0.628809
0.0710002 0.986893 0.61973
0.0677958 0.991501 0.590173
0.0652934 0.997925 0.537987
0.700496 0.998703 0.451499
0.988998 0.960372 0.508354
0.999969 0.952178 0.496391
0.999969 0.949996 0.488197
0.0751202 0.982666 0.645594
0.0779736 0.982895 0.639719
0.0768292 0.984268 0.630732
0.0737621 0.988556 0.602625
0.0697337 0.996353 0.546929
0.618296 0.999969 0.443931
0.951797 0.972717 0.568444
0.999969 0.969879 0.596368
0.999969 0.97026 0.59707
0.0726024 0.982651 0.649256
0.0747387 0.983185 0.642756
0.0758831 0.984024 0.63415
0.0741894 0.987976 0.606348
0.069749 0.996292 0.547478
0.5935 0.999969 0.438834
0.940139 0.973373 0.567315
0.999969 0.970016 0.596643
0.999969 0.970413 0.59736
0 0.0491646 0.0993668
0.0464485 0.0443427 0.104067
0.107607 0.0476844 0.110185
0.272526 0.047837 0.109071
0.497505 0.0389563 0.128923
0.673014 0.0521553 0.184771
0.680659 0.053727 0.192386
0.683207 0.0546883 0.195911
0.685435 0.0546578 0.197757
0.00730907 0.0547341 0.0794385
0.000808728 0.0482948 0.0949111
0.0854505 0.0461585 0.0984665
0.253849 0.0434424 0.0916609
0.486854 0.0362554 0.110094
0.666789 0.0487831 0.169024
0.674723 0.0502022 0.176806
0.675639 0.0507057 0.179629
0.677119 0.0505074 0.181125
0.0122225 0.105989 0.113237
0.0127871 0.10016 0.107729
0.0620279 0.0955062 0.105104
0.240894 0.0711528 0.0787671
0.463874 0.0406806 0.0882277
0.662364 0.046891 0.155138
0.670039 0.047837 0.159915
0.670268 0.0479286 0.16083
0.671519 0.0476387 0.161929
0 0.264897 0.140398
0 0.263005 0.11458
0 0.259586 0.0658274
0.239261 0.247776 0.0665293
0.552758 0.187121 0.109651
0.684443 0.0307317 0.0788434
0.652934 0.0417182 0.124788
0.664866 0.0440986 0.14226
0.663371 0.0438392 0.142077
0 0.534554 0.227695
0 0.536477 0.19881
0 0.539605 0.156039
0.0890974 0.533837 0.040177
0.532662 0.507195 0.05832
0.849744 0.498344 0.176501
0.912902 0.419211 0.194171
0.908797 0.391455 0.191501
0.907485 0.382147 0.189166
0.0376135 0.846418 0.471
0.0338598 0.848768 0.456641
0.0326848 0.851759 0.435996
0.0527047 0.861967 0.359609
0.372107 0.850126 0.148318
0.812512 0.775219 0.182849
0.977707 0.772976 0.206378
0.972808 0.760128 0.201221
0.971374 0.756085 0.200275
0.0781262 0.982193 0.644602
0.0737469 0.983978 0.638025
0.0721447 0.985412 0.629389
0.0690166 0.989654 0.601617
0.0646983 0.997101 0.542916
0.690974 0.999222 0.446937
0.987106 0.958709 0.502297
0.999969 0.950179 0.489082
0.999969 0.947784 0.480369
0.0753796 0.981323 0.654353
0.0771038 0.981826 0.648569
0.0780499 0.982803 0.640269
0.0749828 0.986831 0.613718
0.0697185 0.996139 0.548165
0.601465 0.999969 0.439475
0.947967 0.972885 0.567895
0.999969 0.969879 0.596368
0.999969 0.97026 0.59707
0.0738079 0.981155 0.658015
0.0735943 0.982086 0.651652
0.0777142 0.982422 0.643656
0.0753796 0.986328 0.617121
0.0696574 0.995941 0.548913
0.570504 0.999969 0.435279
0.936049 0.97348 0.566552
0.999969 0.970016 0.596643
0.999969 0.970459 0.597421
0 0.0649271 0.195697
0.00761425 0.0588083 0.218967
0.134356 0.0483558 0.209735
0.278202 0.0529488 0.203876
0.510948 0.0648966 0.208194
0.71754 0.0779126 0.255787
0.727092 0.0810864 0.263874
0.729183 0.0827497 0.267597
0.731563 0.0829786 0.269657
0 0.070161 0.178698
0 0.064622 0.193515
0.0706493 0.0521401 0.224353
0.263172 0.0527047 0.194873
0.503532 0.0590677 0.189563
0.708782 0.0710918 0.240589
0.718044 0.0738231 0.248463
0.720546 0.0754559 0.252079
0.722911 0.0756085 0.254292
0 0.115297 0.18114
0 0.105241 0.190173
0.00511177 0.0927291 0.214374
0.247196 0.0618296 0.193027
0.493278 0.0527962 0.173053
0.696361 0.063508 0.220432
0.704417 0.0654612 0.226963
0.70631 0.0664836 0.230259
0.70837 0.0665751 0.23212
0 0.247166 0.236698
0 0.243122 0.232959
0 0.236973 0.226688
0.21442 0.244617 0.2486
0.527459 0.204593 0.194568
0.723903 0.0713512 0.197818
0.693767 0.0586709 0.205493
0.693523 0.0590677 0.208286
0.693706 0.058732 0.208804
0 0.513893 0.325261
0 0.513359 0.310597
0 0.513771 0.285969
0 0.521141 0.174594
0.524926 0.510475 0.190387
0.861845 0.468482 0.273487
0.908217 0.410956 0.248966
0.900298 0.384909 0.239292
0.897231 0.376074 0.235843
0.0413062 0.827619 0.512276
0.0375982 0.828931 0.5019
0.0354772 0.830533 0.486946
0.030518 0.835691 0.430488
0.306249 0.851316 0.19678
0.80383 0.770443 0.225254
0.972244 0.765667 0.259709
0.968215 0.752361 0.248493
0.966827 0.747967 0.244846
0.0809644 0.978424 0.666697
0.074815 0.980377 0.660685
0.0751049 0.981231 0.653376
0.0720684 0.984955 0.629938
0.0653849 0.99646 0.548577
0.678477 0.99939 0.435935
0.983154 0.953948 0.488106
0.999969 0.944823 0.473899
0.999969 0.942199 0.465721
0.0781872 0.977829 0.676722
0.0759289 0.979004 0.671336
0.080705 0.978897 0.664302
0.0782177 0.982651 0.641215
0.0703136 0.994324 0.563104
0.564569 0.999969 0.435203
0.940215 0.973266 0.567834
0.999969 0.96994 0.597253
0.999969 0.970306 0.597925
0.0770275 0.977554 0.680888
0.0759136 0.978515 0.675166
0.0779126 0.979049 0.66775
0.0786603 0.982025 0.644923
0.0706493 0.993774 0.567452
0.526146 0.999969 0.43238
0.927016 0.973968 0.565545
0.999969 0.970031 0.597101
0.999969 0.970443 0.597742
0 0.0919661 0.359594
0 0.088365 0.379522
0.0101015 0.0725719 0.424155
0.311772 0.0500191 0.39913
0.510552 0.0711223 0.389364
0.752041 0.125338 0.408911
0.76376 0.127733 0.417914
0.763851 0.127779 0.42266
0.765042 0.127245 0.425788
0 0.0944991 0.355291
0 0.0920729 0.360037
0 0.0839399 0.401465
0.279438 0.0490883 0.409003
0.504326 0.0699626 0.384649
0.752209 0.124971 0.399771
0.763394 0.127306 0.407645
0.763714 0.12752 0.411719
0.764889 0.127062 0.415015
0 0.113207 0.341161
0 0.102022 0.350149
0 0.0912032 0.36524
0.214954 0.051194 0.423713
0.496239 0.0685435 0.377966
0.752712 0.124681 0.386236
0.762753 0.126879 0.392386
0.762814 0.12697 0.395865
0.763775 0.126574 0.398871
0 0.243198 0.359472
0 0.235035 0.361669
0 0.223072 0.36669
0.0768139 0.216876 0.435798
0.509163 0.165393 0.418387
0.735241 0.121553 0.363241
0.761746 0.124147 0.368048
0.761578 0.124376 0.370047
0.762631 0.124163 0.371954
0 0.488441 0.461311
0 0.48603 0.459464
0 0.482902 0.456092
0 0.472755 0.444465
0.485374 0.504982 0.496056
0.83386 0.468879 0.438392
0.907179 0.389517 0.425803
0.897505 0.355428 0.423209
0.893965 0.345449 0.421515
0.0515755 0.796155 0.599283
0.0487831 0.795621 0.594247
0.0473182 0.794537 0.586114
0.0435035 0.790982 0.559442
0.12343 0.813947 0.47425
0.776883 0.760479 0.479973
0.975387 0.738979 0.510872
0.973281 0.722744 0.506447
0.971878 0.717983 0.50605
0.0868086 0.969955 0.720729
0.0809339 0.971664 0.716915
0.0801099 0.972549 0.711421
0.0801251 0.974548 0.694606
0.0734112 0.983154 0.639857
0.616968 0.999969 0.546548
0.972717 0.949767 0.59617
0.999969 0.936797 0.59649
0.999969 0.933211 0.591577
0.0854047 0.969726 0.731853
0.082002 0.970947 0.727581
0.0810559 0.971801 0.721828
0.0844892 0.973144 0.704173
0.0794232 0.981003 0.650614
0.454902 0.999969 0.557107
0.932235 0.980865 0.6757
0.999969 0.976684 0.706355
0.999969 0.977142 0.707378
0.084184 0.969497 0.73611
0.0823529 0.970352 0.732052
0.081239 0.971298 0.725826
0.0843366 0.972732 0.707851
0.0797894 0.980529 0.653559
0.404868 0.999969 0.555367
0.915328 0.982895 0.668833
0.999969 0.976577 0.704784
0.999969 0.977035 0.705989
0 0.158236 0.517006
0 0.158175 0.518578
0 0.152758 0.544457
0.110063 0.113237 0.627588
0.547417 0.110994 0.596063
0.759304 0.123827 0.581888
0.77348 0.129244 0.597681
0.77583 0.134051 0.605371
0.780285 0.134981 0.612299
0 0.158373 0.51725
0 0.158602 0.517678
0 0.156634 0.524102
0.0645609 0.122988 0.622614
0.537392 0.108583 0.599252
0.75819 0.121355 0.57731
0.770642 0.124697 0.589517
0.773465 0.12871 0.597131
0.777737 0.128954 0.603616
0 0.161471 0.5084
0 0.158938 0.516808
0 0.158785 0.517571
0.00393683 0.138308 0.605539
0.52108 0.104784 0.603174
0.752697 0.12137 0.571374
0.765835 0.121172 0.57821
0.767407 0.12314 0.583276
0.771481 0.123018 0.588952
0 0.234592 0.502815
0 0.226062 0.508797
0 0.215213 0.516426
0 0.207034 0.552361
0.469413 0.119478 0.625345
0.735531 0.121218 0.560647
0.758267 0.109346 0.553262
0.758587 0.109789 0.554299
0.761364 0.108949 0.557717
0 0.479774 0.585702
0 0.475624 0.587167
0 0.470008 0.588067
0 0.450782 0.589288
0.353628 0.487739 0.702953
0.819104 0.440024 0.682368
0.883009 0.364248 0.659541
0.871336 0.338491 0.648234
0.866194 0.329671 0.645518
0.0514382 0.757931 0.71545
0.0484321 0.756451 0.714626
0.0476387 0.753841 0.712459
0.0457313 0.745434 0.704433
0.0856794 0.738415 0.697719
0.734691 0.742351 0.726665
0.962829 0.718975 0.684306
0.964279 0.700069 0.680644
0.964645 0.692744 0.683452
0.0912032 0.958648 0.808408
0.0844129 0.960571 0.806745
0.0833295 0.960464 0.802625
0.0823377 0.957137 0.789807
0.07953 0.949004 0.74966
0.558587 0.980056 0.729625
0.948745 0.93637 0.763729
0.994781 0.933303 0.779461
0.99353 0.929717 0.775692
0.092134 0.95906 0.823651
0.0852369 0.96083 0.821012
0.0842451 0.961364 0.816648
0.0843519 0.962478 0.802213
0.0889296 0.965286 0.763912
0.315084 0.994568 0.737652
0.88983 0.99382 0.819516
0.998276 0.986114 0.878935
0.997925 0.986465 0.880674
0.0873884 0.959655 0.830472
0.0855268 0.960327 0.827146
0.0845197 0.960891 0.822202
0.0843366 0.962066 0.807172
0.0888838 0.965011 0.7664
0.237125 0.991943 0.733639
0.864637 0.996292 0.810346
0.994644 0.985504 0.868772
0.997055 0.986908 0.881148
0 0.287373 0.66685
0 0.287739 0.66775
0 0.284871 0.667002
0 0.30219 0.715511
0.364248 0.292576 0.859953
0.844739 0.316518 0.835142
0.867887 0.355962 0.866056
0.870146 0.366049 0.875059
0.870573 0.36939 0.880461
0 0.286793 0.665919
0 0.287282 0.667201
0 0.285801 0.667781
0 0.299718 0.699504
0.341283 0.294591 0.859159
0.840986 0.313069 0.83328
0.867109 0.35288 0.862654
0.868894 0.360571 0.870466
0.869078 0.363272 0.875395
0 0.280644 0.660502
0 0.285801 0.666545
0 0.285954 0.666575
0 0.295659 0.682567
0.311192 0.294697 0.855894
0.834958 0.308492 0.830747
0.864988 0.343648 0.852277
0.867277 0.354742 0.862928
0.867643 0.357443 0.868406
0 0.283345 0.628443
0 0.283711 0.63772
0 0.286473 0.64889
0 0.286641 0.662943
0.234257 0.29044 0.836164
0.810071 0.291157 0.824201
0.854719 0.30811 0.816938
0.856245 0.311864 0.821042
0.857099 0.312978 0.825818
0 0.488914 0.682689
0 0.486809 0.686397
0 0.482765 0.688975
0 0.472923 0.699077
0.146227 0.513939 0.798245
0.799741 0.450904 0.901198
0.902571 0.432776 0.845304
0.894835 0.413642 0.83505
0.890806 0.40676 0.832746
0 0.737026 0.806256
0 0.735943 0.809323
0 0.732509 0.809522
0 0.720989 0.809323
0 0.699825 0.817533
0.638468 0.740459 0.907546
0.957412 0.7037 0.884565
0.957671 0.689815 0.880507
0.956527 0.685863 0.880507
0.0902876 0.935622 0.892256
0.0802472 0.935943 0.893019
0.0789044 0.934051 0.891157
0.0771038 0.927977 0.884871
0.0740673 0.912566 0.869017
0.531289 0.923629 0.893767
0.923873 0.922728 0.913802
0.984695 0.918303 0.902556
0.984161 0.913817 0.901793
0.0918593 0.951812 0.918044
0.0845808 0.953719 0.918288
0.0843214 0.954192 0.91548
0.0860151 0.955001 0.906233
0.0895705 0.95639 0.880751
0.156817 0.978271 0.874861
0.870359 0.991455 0.93022
0.992264 0.986175 0.955901
0.99411 0.986007 0.958144
0.0903029 0.951125 0.924849
0.0829633 0.953094 0.92488
0.0828412 0.953628 0.92166
0.0852064 0.954543 0.911589
0.0894942 0.956344 0.882353
0.145357 0.977615 0.873701
0.838682 0.99205 0.927153
0.986404 0.988418 0.964462
0.99173 0.988556 0.974517
0 0.335622 0.69337
0 0.33576 0.694118
0 0.337942 0.700481
0 0.363668 0.726787
0.312718 0.382223 0.902571
0.844938 0.380987 0.90013
0.872602 0.385122 0.893019
0.87274 0.385168 0.892607
0.872511 0.385077 0.893278
0 0.335576 0.693126
0 0.33576 0.694209
0 0.336019 0.695506
0 0.356405 0.714107
0.29015 0.382864 0.895628
0.838788 0.379416 0.901122
0.872602 0.385122 0.893019
0.872572 0.385092 0.893126
0.872297 0.385 0.893919
0 0.335836 0.69218
0 0.33576 0.694209
0 0.33576 0.694209
0 0.350545 0.70695
0.258244 0.384604 0.883833
0.829038 0.377111 0.9037
0.872969 0.38526 0.891875
0.872923 0.385245 0.892042
0.872267 0.385 0.893996
0 0.375814 0.701152
0 0.367529 0.701213
0 0.355612 0.698528
0 0.338201 0.698573
0.164813 0.388373 0.844465
0.778088 0.372961 0.915694
0.873106 0.385306 0.891493
0.873137 0.385321 0.891386
0.87245 0.385061 0.893462
0 0.52282 0.748486
0 0.525246 0.755337
0 0.526833 0.760067
0 0.514412 0.756176
0.0172427 0.545068 0.806332
0.64303 0.526284 0.984802
0.913039 0.485206 0.927871
0.908492 0.472587 0.923049
0.904982 0.468132 0.922866
0 0.73283 0.856474
0 0.732036 0.859892
0 0.728878 0.860685
0 0.718685 0.862593
0 0.697261 0.86392
0.530388 0.75613 0.949081
0.959792 0.7149 0.970367
0.965118 0.703822 0.965011
0.963241 0.700298 0.966003
0.055436 0.921492 0.934279
0.0458534 0.921233 0.936004
0.0438392 0.918959 0.93518
0.0387121 0.910674 0.931792
0.0265354 0.88867 0.924971
0.434211 0.90605 0.963912
0.876371 0.915541 0.970184
0.983688 0.910842 0.966369
0.982147 0.906523 0.966033
0.0741894 0.947112 0.950042
0.0631571 0.949477 0.953674
0.0626078 0.949599 0.953826
0.0633555 0.949844 0.952651
0.0713054 0.950698 0.944015
0.101213 0.967727 0.945541
0.845777 0.981933 0.9729
0.989059 0.982986 0.980163
0.994568 0.983017 0.979248
0.0699321 0.948058 0.951415
0.0631723 0.949477 0.953674
0.0625772 0.949599 0.953872
0.0625925 0.949599 0.953841
0.0705272 0.950668 0.944686
0.100801 0.967041 0.942565
0.779782 0.987274 0.968414
0.985489 0.98909 0.984619
0.992309 0.988754 0.987366
0 0.335637 0.693507
0 0.33576 0.694133
0 0.337774 0.700252
0 0.363134 0.725475
0.311482 0.382086 0.902281
0.845808 0.381048 0.899809
0.872602 0.385122 0.893019
0.872618 0.385122 0.893004
0.872419 0.385046 0.893553
0 0.335561 0.693049
0 0.33576 0.694209
0 0.335943 0.695125
0 0.355642 0.713237
0.28838 0.382895 0.895094
0.839612 0.379492 0.900465
0.872602 0.385122 0.893019
0.872541 0.385092 0.893217
0.872038 0.384894 0.894759
0 0.33547 0.692317
0 0.33576 0.694209
0 0.33576 0.694209
0 0.349966 0.706554
0.255863 0.384665 0.882719
0.829099 0.376959 0.9037
0.872969 0.38526 0.89189
0.872923 0.385245 0.892058
0.872282 0.384985 0.893996
0 0.370993 0.700008
0 0.362585 0.699901
0 0.350637 0.697246
0 0.33814 0.698497
0.159365 0.388006 0.841779
0.774548 0.372885 0.916304
0.87306 0.38529 0.891615
0.873121 0.385321 0.891447
0.87245 0.385061 0.893462
0 0.539345 0.76762
0 0.535714 0.767498
0 0.530327 0.764874
0 0.511406 0.754788
0.0052491 0.539513 0.802396
0.63537 0.522576 0.983948
0.911452 0.481285 0.926497
0.906493 0.46833 0.921416
0.903014 0.463737 0.920974
0 0.735973 0.874479
0 0.735195 0.87805
0 0.731914 0.876982
0 0.720302 0.871962
0 0.693965 0.861997
0.524361 0.753628 0.948592
0.95642 0.711757 0.972457
0.964126 0.701854 0.967453
0.962264 0.698421 0.967926
0.0496834 0.920134 0.941009
0.0417487 0.919219 0.942596
0.0395666 0.916533 0.942031
0.0335546 0.906935 0.938888
0.0187533 0.882033 0.93164
0.397391 0.897902 0.968643
0.843076 0.911772 0.976654
0.983032 0.904845 0.978973
0.982101 0.900572 0.978882
0.0735332 0.947265 0.950256
0.0631571 0.949477 0.953674
0.0625772 0.949599 0.953872
0.0625772 0.949599 0.953872
0.0625772 0.949599 0.953872
0.0751507 0.9626 0.960967
0.799664 0.975937 0.986068
0.981628 0.981079 0.98677
0.993744 0.981491 0.98558
0.0702678 0.947982 0.951324
0.0631723 0.949477 0.953674
0.0625772 0.949599 0.953872
0.0625772 0.949599 0.953872
0.0625772 0.949599 0.953872
0.0738079 0.961532 0.960418
0.706661 0.986068 0.984543
0.978897 0.989731 0.989563
0.992279 0.988754 0.987381
