bundles/resolve-cinematic-luts/Phantom Luts/S5ii LUTs/Standard (No WB Offset)/S5ii Tungsten V-Log Legacy.cube
TITLE "Generated by Resolve"
LUT_3D_SIZE 5
0.0306401 0.0310674 0.0375219
0.116075 0.0383001 0.0411231
0.488258 0.0406806 0.105455
0.677485 0.0663157 0.206546
0.680095 0.067689 0.21265
0.0429694 0.114321 0.0671855
0.102296 0.103334 0.0488441
0.47042 0.0348669 0.0915847
0.659648 0.0620432 0.181704
0.660624 0.0625162 0.183322
0 0.433234 0.153536
0.0268711 0.432761 0.0946365
0.525582 0.464317 0.00418097
0.912795 0.445548 0.231968
0.913375 0.454047 0.231342
0.128115 0.808927 0.563973
0.124041 0.807065 0.55285
0.103075 0.796521 0.484062
0.943236 0.893416 0.511086
0.965637 0.899641 0.524742
0.133852 0.812055 0.579797
0.127321 0.808576 0.56199
0.101808 0.796002 0.477958
0.91725 0.888151 0.502556
0.963897 0.902373 0.541527
0.026627 0.0411688 0.0924392
0.118624 0.0467994 0.0977798
0.522972 0.0570993 0.172961
0.690639 0.0738079 0.240696
0.694286 0.0756237 0.246525
0.0488441 0.106371 0.108003
0.0822003 0.0969711 0.102785
0.490486 0.0570382 0.134874
0.679454 0.0673533 0.21178
0.680903 0.0680705 0.215351
0 0.432883 0.214969
0 0.432197 0.166598
0.523186 0.462211 0.00383001
0.912276 0.444465 0.23151
0.913252 0.453346 0.231495
0.133639 0.811734 0.579004
0.129732 0.809918 0.568612
0.103273 0.796353 0.485954
0.941802 0.89276 0.507271
0.965789 0.896986 0.511635
0.140002 0.814969 0.595728
0.133593 0.811734 0.578912
0.103426 0.796155 0.486915
0.90695 0.885374 0.496132
0.963882 0.902403 0.541604
0 0.0929274 0.355871
0.0713664 0.0757 0.415778
0.532876 0.0848859 0.404517
0.776028 0.143267 0.441886
0.776761 0.143725 0.451392
0 0.114214 0.337377
0 0.0927443 0.35494
0.514961 0.0826123 0.391165
0.775479 0.14316 0.420539
0.77644 0.144167 0.432746
0.0431678 0.454673 0.431464
0.0426642 0.456901 0.434119
0.500603 0.503731 0.492027
0.957839 0.40911 0.486839
0.958206 0.411276 0.502876
0.164431 0.827024 0.654658
0.163104 0.826551 0.651713
0.134249 0.812268 0.580606
0.937789 0.903868 0.588235
0.977691 0.909926 0.611612
0.179019 0.83476 0.6878
0.175036 0.832715 0.678813
0.138918 0.814221 0.59266
0.897398 0.911269 0.636515
0.974914 0.932082 0.68246
0.00335698 0.337209 0.693187
0.00361639 0.334874 0.69456
0.440726 0.385183 0.959533
0.893645 0.370138 0.91516
0.893462 0.37052 0.915953
0.00134279 0.332158 0.689754
0.00207523 0.333852 0.691218
0.396963 0.38851 0.944595
0.893706 0.366125 0.910842
0.893492 0.370459 0.915831
0.0362402 0.499397 0.709255
0.040589 0.50164 0.719326
0.238788 0.563119 0.874678
0.929808 0.44831 0.910063
0.932204 0.458457 0.920134
0.262623 0.876341 0.855817
0.266377 0.879927 0.86041
0.249439 0.864454 0.838682
0.942962 0.945647 0.940597
0.981094 0.946777 0.941344
0.274632 0.885863 0.884337
0.274907 0.885939 0.882734
0.263951 0.879835 0.853101
0.921874 0.978882 0.958389
0.991104 0.990097 0.984375
0.00474556 0.341833 0.695506
0.00607309 0.343008 0.698528
0.433219 0.410498 0.970474
0.893614 0.370184 0.915267
0.893538 0.370367 0.915648
0.00468452 0.341665 0.695277
0.00477607 0.341924 0.695628
0.388083 0.41413 0.949493
0.893797 0.369818 0.914473
0.893492 0.370474 0.915862
0.0704051 0.540902 0.762997
0.0694438 0.538613 0.762432
0.190112 0.568444 0.860792
0.933257 0.4757 0.951202
0.934356 0.480766 0.953384
0.270115 0.881193 0.886442
0.274678 0.885985 0.889296
0.254078 0.863691 0.878386
0.910277 0.939712 0.979263
0.979431 0.938109 0.978592
0.275166 0.88658 0.889113
0.275593 0.886931 0.889815
0.275593 0.886931 0.889815
0.854932 0.978821 0.97821
0.990738 0.98996 0.989136
