bundles/resolve-cinematic-luts/Phantom Luts/S5ii LUTs/Standard (No WB Offset)/S5ii Jamaica V-Log.cube
TITLE "Generated by Resolve"
LUT_3D_SIZE 5
0.00825513 0.0293278 0.00825513
0.162188 0.029633 0.0111238
0.540383 0.0352789 0.0706035
0.651835 0.0694285 0.190692
0.653407 0.0699779 0.193759
0.00880446 0.151339 0.0425879
0.124788 0.128405 0.0150149
0.52224 0.0320439 0.050248
0.637354 0.064271 0.159487
0.637263 0.0642863 0.15903
0.0507973 0.621363 0.308415
0.10515 0.62858 0.224109
0.594446 0.590677 0.0790875
0.894041 0.51667 0.274769
0.877272 0.469703 0.264866
0.376425 0.946227 0.784298
0.375708 0.947799 0.774014
0.376669 0.956146 0.738933
0.987884 0.993317 0.626123
1 0.989013 0.610224
0.377737 0.94667 0.789685
0.376089 0.946181 0.78204
0.373846 0.953216 0.740124
0.955215 0.994675 0.663325
1 0.997772 0.695277
0.00936904 0.034165 0.0929427
0.174105 0.037705 0.116838
0.58381 0.0459297 0.163058
0.672663 0.0784009 0.233555
0.674723 0.0797742 0.2365
0.0270542 0.130816 0.120623
0.0985885 0.114183 0.0972915
0.536858 0.0438239 0.0898146
0.653758 0.0700847 0.194766
0.654582 0.0704204 0.196124
0.0569009 0.604944 0.362142
0.0416876 0.605753 0.297047
0.587625 0.58439 0.0749828
0.89015 0.5028 0.272572
0.872023 0.45687 0.261936
0.376806 0.944488 0.791455
0.37612 0.945968 0.782452
0.375372 0.954696 0.740475
0.985672 0.992157 0.617517
1 0.98706 0.597711
0.377874 0.944671 0.796475
0.376394 0.944183 0.789944
0.373922 0.95285 0.742672
0.949477 0.99469 0.662104
1 0.997894 0.695155
0 0.067628 0.39765
0.137789 0.0462196 0.454292
0.616114 0.0691844 0.479881
0.740322 0.123507 0.469306
0.739971 0.12314 0.469551
0 0.104402 0.380972
0 0.0676585 0.392889
0.600137 0.0648661 0.462379
0.746258 0.127626 0.440436
0.746288 0.12752 0.440177
0.0739147 0.551644 0.522606
0.0672618 0.544793 0.507698
0.554589 0.561502 0.509911
0.948898 0.454002 0.462898
0.927672 0.415671 0.432197
0.379797 0.93579 0.823789
0.379232 0.937835 0.816541
0.376074 0.94612 0.78175
0.977813 0.983536 0.663554
1 0.975433 0.651835
0.380362 0.935409 0.828244
0.379797 0.936339 0.821866
0.376226 0.944198 0.789136
0.927825 0.995575 0.719112
1 0.995438 0.7514
0.0497597 0.268849 0.660044
0.0475471 0.262684 0.657084
0.513024 0.293309 0.859998
0.900526 0.379477 0.918334
0.905287 0.391073 0.927916
0.0446326 0.254948 0.653117
0.0462959 0.259327 0.655406
0.463127 0.288579 0.847074
0.889204 0.359289 0.899077
0.892851 0.366567 0.904845
0.0881819 0.481804 0.700236
0.084596 0.468437 0.698314
0.320485 0.482216 0.825895
0.948775 0.4374 0.922774
0.930434 0.403952 0.901335
0.381689 0.90103 0.894362
0.377981 0.900649 0.887999
0.36405 0.891569 0.872312
0.938216 0.94609 0.924834
0.986694 0.939895 0.927214
0.389288 0.903685 0.904097
0.387625 0.906371 0.900557
0.387778 0.912688 0.888106
0.889235 0.990295 0.951431
0.993011 0.98912 0.97612
0.0640574 0.313008 0.678813
0.0655985 0.314168 0.680186
0.471397 0.375525 0.893767
0.914488 0.41236 0.946166
0.914565 0.412314 0.946258
0.0646525 0.313695 0.679408
0.0637827 0.313161 0.678599
0.419394 0.371344 0.874769
0.914855 0.412177 0.946609
0.914168 0.412512 0.945785
0.128969 0.508415 0.741772
0.122576 0.496239 0.736278
0.200381 0.500557 0.813321
0.954192 0.494377 0.981399
0.945663 0.47303 0.974121
0.355962 0.878492 0.9028
0.350195 0.874876 0.899077
0.321981 0.848905 0.88481
0.890211 0.921401 0.971206
0.984268 0.92639 0.985992
0.375265 0.894224 0.912856
0.374441 0.894987 0.911498
0.374441 0.894987 0.911498
0.773877 0.982971 0.988586
0.998093 0.990829 0.997147
