bundles/resolve-cinematic-luts/Phantom Luts/S5ii LUTs/Standard (No WB Offset)/S5ii Neutral V-Log Legacy.cube
TITLE "Generated by Resolve"
LUT_3D_SIZE 33
0.0319524 0.0319524 0.0319524
0.0319524 0.0319524 0.0319524
0.0319524 0.0319524 0.0319524
0.0484321 0.0332036 0.0315709
0.0640879 0.0351263 0.0316472
0.0818647 0.0368505 0.0315862
0.098146 0.0377508 0.0318761
0.115877 0.0381323 0.0325322
0.137163 0.0383001 0.0333867
0.163973 0.0375982 0.0343023
0.197711 0.0356146 0.035996
0.23827 0.0329442 0.0380102
0.286687 0.0317845 0.044358
0.340551 0.0321355 0.0527047
0.395926 0.0320592 0.0651408
0.453437 0.0302129 0.0764477
0.509926 0.0283513 0.0903639
0.55111 0.021912 0.092134
0.596017 0.0230564 0.110979
0.699275 0.0362402 0.173098
0.733776 0.0361334 0.187381
0.734142 0.036286 0.188922
0.734493 0.0364385 0.190387
0.734844 0.0366064 0.191608
0.735134 0.0367437 0.192706
0.735378 0.0368505 0.193561
0.735576 0.0369421 0.194247
0.735729 0.0370184 0.194842
0.735851 0.0370642 0.1953
0.735943 0.0371099 0.195651
0.736004 0.0371405 0.195926
0.736065 0.037171 0.196139
0.736095 0.0371862 0.196292
0.0319524 0.0319524 0.0319524
0.0319524 0.0319524 0.0319524
0.0319524 0.0319524 0.0319524
0.0422675 0.0325628 0.0317693
0.0579385 0.0344091 0.0314794
0.0752422 0.0362402 0.0315099
0.0923934 0.0373846 0.0316625
0.110536 0.0380255 0.0322271
0.132326 0.0382391 0.0331426
0.159442 0.0379492 0.0342718
0.193133 0.0359045 0.0357824
0.234241 0.0332036 0.0377966
0.282078 0.030869 0.0414893
0.335164 0.029572 0.0465553
0.389425 0.0278935 0.0541238
0.445777 0.0257115 0.0636149
0.504234 0.0236057 0.0788739
0.559777 0.0216983 0.0991989
0.587045 0.0178531 0.100145
0.682902 0.0359197 0.160571
0.73254 0.0357214 0.1832
0.733227 0.0358892 0.185016
0.733577 0.0360418 0.186481
0.733867 0.0361639 0.187686
0.734112 0.0362707 0.188754
0.73431 0.0363622 0.18967
0.734493 0.0364385 0.190402
0.734661 0.0365148 0.190906
0.734783 0.0365759 0.191363
0.734874 0.0366064 0.191714
0.734951 0.0366522 0.191974
0.734997 0.0366674 0.192172
0.735027 0.0366979 0.192325
0.0319524 0.0319524 0.0319524
0.0319524 0.0319524 0.0319524
0.0319524 0.0319524 0.0319524
0.0319524 0.0319524 0.0319524
0.0497292 0.0357977 0.031632
0.0654459 0.037644 0.0316625
0.0835584 0.0391394 0.0317082
0.103349 0.0395819 0.0321813
0.126772 0.0389105 0.032929
0.154574 0.0381628 0.0340429
0.188769 0.0362097 0.0356298
0.229969 0.0334936 0.0375982
0.278264 0.0309453 0.0410773
0.331868 0.0296635 0.0461585
0.386648 0.027985 0.0537118
0.443351 0.0258335 0.0631571
0.500969 0.0224308 0.0751049
0.555673 0.0183871 0.092607
0.594934 0.0194247 0.105104
0.648493 0.0300603 0.136217
0.725948 0.0352636 0.175326
0.729671 0.0354467 0.179095
0.731685 0.0356146 0.181781
0.732677 0.0357519 0.183551
0.733166 0.0358587 0.184787
0.733394 0.0359503 0.185687
0.733547 0.0360266 0.186404
0.733684 0.0360876 0.186984
0.733776 0.0361334 0.187396
0.733883 0.0361639 0.187701
0.733944 0.0361944 0.187961
0.733974 0.0362097 0.188144
0.73402 0.0362249 0.188312
0.0319524 0.0319524 0.0319524
0.0319524 0.0319524 0.0319524
0.0319524 0.0319524 0.0319524
0.0319524 0.0319524 0.0319524
0.0428016 0.0355993 0.0321355
0.0558328 0.0397345 0.0321508
0.0712902 0.0422675 0.0322423
0.0923781 0.0435492 0.0323186
0.116732 0.0431525 0.0330053
0.145968 0.0413672 0.0340734
0.182315 0.037995 0.0353704
0.225742 0.033753 0.0373541
0.274449 0.0310063 0.0406653
0.328511 0.0297551 0.0457923
0.384054 0.0280766 0.0533303
0.440909 0.0259403 0.0627146
0.498955 0.0226139 0.0747082
0.553857 0.0182498 0.0918746
0.59472 0.0197147 0.105562
0.636347 0.0234226 0.123171
0.711162 0.0353246 0.164904
0.714412 0.0353704 0.166918
0.722271 0.0352941 0.172152
0.726421 0.0352789 0.175769
0.729061 0.0354009 0.178378
0.730602 0.0355077 0.180209
0.731548 0.0355993 0.181537
0.732082 0.0356603 0.182345
0.732464 0.0357061 0.183017
0.732647 0.0357366 0.183459
0.732784 0.0357671 0.183795
0.732906 0.0357824 0.184054
0.732982 0.0357977 0.184237
0.0329137 0.0492561 0.0367742
0.0321508 0.0478065 0.0342107
0.0333104 0.0459602 0.0337224
0.037232 0.0434272 0.0327459
0.0414893 0.0413519 0.032639
0.0513619 0.0442512 0.0336461
0.0626841 0.0451209 0.0338445
0.0806287 0.0455177 0.0328679
0.106249 0.0460822 0.0331426
0.135912 0.0449836 0.0340124
0.173007 0.0421759 0.0353857
0.218128 0.0376593 0.037232
0.270085 0.0313726 0.039826
0.325429 0.0299535 0.0455787
0.381323 0.028275 0.0530556
0.43856 0.0260166 0.0622416
0.49691 0.0227817 0.0742504
0.55198 0.0181125 0.0911421
0.594446 0.0200046 0.106004
0.632517 0.0227207 0.120974
0.711162 0.0353246 0.164904
0.711162 0.0353246 0.164904
0.711162 0.0353246 0.164904
0.711162 0.0353246 0.164904
0.711803 0.0353399 0.165316
0.717479 0.0353552 0.168887
0.721248 0.0353552 0.171435
0.723384 0.0352483 0.173144
0.724895 0.0352483 0.174411
0.72604 0.0352636 0.175402
0.726757 0.0352941 0.176089
0.727306 0.0353094 0.176577
0.727718 0.0353246 0.176944
0.0340276 0.0627451 0.0424964
0.0327306 0.0612497 0.0376593
0.0327153 0.0594492 0.037232
0.0401465 0.0564889 0.0358587
0.046479 0.0534371 0.0348974
0.0542306 0.0538643 0.0348363
0.0654459 0.0550088 0.0369268
0.0831006 0.0557107 0.0382391
0.106844 0.0548409 0.0386969
0.132464 0.052781 0.0356451
0.165393 0.0475471 0.0357061
0.209705 0.0420081 0.0371099
0.263096 0.0361181 0.0396735
0.32134 0.0303807 0.0442817
0.3785 0.0283513 0.0526131
0.436057 0.0261234 0.0617838
0.494743 0.0229801 0.0737926
0.550179 0.0179751 0.090425
0.594064 0.020264 0.106325
0.629023 0.0220188 0.118883
0.711162 0.0353246 0.164904
0.711162 0.0353246 0.164904
0.711162 0.0353246 0.164904
0.711162 0.0353246 0.164904
0.711162 0.0353246 0.164904
0.711162 0.0353246 0.164904
0.711162 0.0353246 0.164904
0.711162 0.0353246 0.164904
0.711162 0.0353246 0.164904
0.711162 0.0353246 0.164904
0.711162 0.0353246 0.164904
0.711162 0.0353246 0.164904
0.711162 0.0353246 0.164904
0.0343328 0.0792248 0.0446174
0.0329595 0.0774243 0.0399023
0.0329595 0.0751812 0.0396735
0.0392767 0.0717937 0.0385748
0.0476844 0.0675364 0.037583
0.0556039 0.0656901 0.0366064
0.0667582 0.0666514 0.0363775
0.0841382 0.0678569 0.0386511
0.107469 0.0678416 0.0411841
0.138201 0.0646983 0.0429541
0.171847 0.0605783 0.0411994
0.210575 0.0529183 0.0391394
0.257221 0.0416724 0.0398413
0.316564 0.0338445 0.0428016
0.375723 0.0288548 0.0518502
0.433555 0.0262455 0.0613413
0.492668 0.0231479 0.0733654
0.548547 0.018143 0.0898146
0.593637 0.0205234 0.106615
0.625742 0.0216068 0.117144
0.711162 0.0353246 0.164904
0.711162 0.0353246 0.164904
0.711162 0.0353246 0.164904
0.711162 0.0353246 0.164904
0.711162 0.0353246 0.164904
0.711162 0.0353246 0.164904
0.711162 0.0353246 0.164904
0.711162 0.0353246 0.164904
0.711162 0.0353246 0.164904
0.711162 0.0353246 0.164904
0.711162 0.0353246 0.164904
0.711162 0.0353246 0.164904
0.711162 0.0353246 0.164904
0.0341497 0.0986648 0.0463722
0.0326543 0.0969558 0.0417792
0.0327764 0.0951553 0.0411994
0.0337835 0.0929732 0.041001
0.0484321 0.088426 0.03888
0.0563516 0.0835584 0.0376287
0.067689 0.0843977 0.0369726
0.0843214 0.0860609 0.0352483
0.107622 0.0868391 0.0381781
0.138109 0.0851606 0.0443275
0.175814 0.0800031 0.0451057
0.225452 0.0705577 0.0480812
0.266636 0.0611429 0.0434882
0.316777 0.0453651 0.0439155
0.37174 0.0311437 0.0480659
0.430808 0.0265965 0.0606699
0.490074 0.0233005 0.0727703
0.546456 0.0184176 0.0890669
0.593057 0.020798 0.106859
0.621942 0.0209049 0.114946
0.711162 0.0353246 0.164904
0.711162 0.0353246 0.164904
0.711162 0.0353246 0.164904
0.711162 0.0353246 0.164904
0.711162 0.0353246 0.164904
0.711162 0.0353246 0.164904
0.711162 0.0353246 0.164904
0.711162 0.0353246 0.164904
0.711162 0.0353246 0.164904
0.711162 0.0353246 0.164904
0.711162 0.0353246 0.164904
0.711162 0.0353246 0.164904
0.711162 0.0353246 0.164904
0.0342107 0.121233 0.0492256
0.0327001 0.119707 0.0437171
0.0332952 0.117891 0.0405737
0.0334478 0.116258 0.0407416
0.044419 0.113268 0.040116
0.0559701 0.109178 0.0385138
0.0691844 0.105318 0.0376287
0.0850996 0.106569 0.0361944
0.105592 0.108797 0.0331273
0.135317 0.109606 0.0357061
0.176669 0.10634 0.0459907
0.223926 0.0989853 0.0477607
0.285939 0.0846113 0.0517586
0.333684 0.0715648 0.050248
0.380316 0.0527657 0.0494392
0.428336 0.0301366 0.0551003
0.486427 0.0237125 0.0712749
0.543816 0.0187381 0.0881056
0.591943 0.0210269 0.106905
0.61706 0.0201877 0.112367
0.711162 0.0353246 0.164904
0.711162 0.0353246 0.164904
0.711162 0.0353246 0.164904
0.711162 0.0353246 0.164904
0.711162 0.0353246 0.164904
0.711162 0.0353246 0.164904
0.711162 0.0353246 0.164904
0.711162 0.0353246 0.164904
0.711162 0.0353246 0.164904
0.711162 0.0353246 0.164904
0.711162 0.0353246 0.164904
0.711162 0.0353246 0.164904
0.711162 0.0353246 0.164904
0.0348669 0.148531 0.0536049
0.0334325 0.147112 0.0471504
0.0345464 0.145663 0.0395209
0.0346838 0.14403 0.0392767
0.0345159 0.142306 0.0393378
0.0511177 0.138918 0.0382239
0.0627909 0.134966 0.0371405
0.086305 0.131197 0.0369421
0.106218 0.132998 0.0342107
0.131258 0.13579 0.0299229
0.171115 0.136339 0.0324559
0.225132 0.13106 0.0477455
0.283284 0.120684 0.0514992
0.35172 0.103273 0.0559854
0.405859 0.0852216 0.0581979
0.44715 0.0647288 0.0572519
0.494377 0.0322118 0.0605173
0.542092 0.0205844 0.0834516
0.590249 0.0213016 0.106859
0.611704 0.0192264 0.109361
0.711162 0.0353246 0.164904
0.711162 0.0353246 0.164904
0.711162 0.0353246 0.164904
0.711162 0.0353246 0.164904
0.711162 0.0353246 0.164904
0.711162 0.0353246 0.164904
0.711162 0.0353246 0.164904
0.711162 0.0353246 0.164904
0.711162 0.0353246 0.164904
0.711162 0.0353246 0.164904
0.711162 0.0353246 0.164904
0.711162 0.0353246 0.164904
0.711162 0.0353246 0.164904
0.034226 0.18323 0.0600443
0.0349126 0.181628 0.0518349
0.0354467 0.180026 0.04448
0.0384375 0.178363 0.0378882
0.0383764 0.176883 0.0379797
0.0380865 0.175265 0.0380102
0.0563363 0.172259 0.0357519
0.0722972 0.167666 0.0340887
0.106188 0.16405 0.0355077
0.130785 0.166247 0.032105
0.163592 0.169787 0.0264439
0.216632 0.169863 0.0298924
0.283284 0.162936 0.0508736
0.351064 0.148836 0.0572366
0.418341 0.130053 0.0622873
0.479881 0.105333 0.0676127
0.518303 0.083299 0.0661021
0.563088 0.0407263 0.0677958
0.60174 0.0185397 0.0941787
0.610437 0.0169375 0.104707
0.711162 0.0353246 0.164904
0.711162 0.0353246 0.164904
0.711162 0.0353246 0.164904
0.711162 0.0353246 0.164904
0.711162 0.0353246 0.164904
0.711162 0.0353246 0.164904
0.711162 0.0353246 0.164904
0.711162 0.0353246 0.164904
0.711162 0.0353246 0.164904
0.711162 0.0353246 0.164904
0.711162 0.0353246 0.164904
0.711162 0.0353246 0.164904
0.711162 0.0353246 0.164904
0.0317693 0.225406 0.068925
0.033463 0.223651 0.0598001
0.0355383 0.221805 0.0517281
0.0397803 0.220249 0.0421149
0.0426795 0.218692 0.0360418
0.0424811 0.217166 0.0360876
0.0421302 0.215686 0.0360571
0.0594339 0.213169 0.0319677
0.0832074 0.208072 0.0301213
0.12871 0.205539 0.0322576
0.160876 0.20795 0.0294499
0.204608 0.212543 0.0219883
0.271992 0.212909 0.0248112
0.347555 0.205463 0.0533303
0.421973 0.187991 0.0653697
0.486946 0.169375 0.0716716
0.555886 0.13756 0.079118
0.594736 0.111666 0.0773327
0.637568 0.0601358 0.0780194
0.688853 0.0133669 0.100069
0.670558 0.0155947 0.119661
0.692454 0.0340429 0.15285
0.705745 0.0354009 0.161578
0.711162 0.0353246 0.164904
0.711162 0.0353246 0.164904
0.711162 0.0353246 0.164904
0.711162 0.0353246 0.164904
0.711162 0.0353246 0.164904
0.711162 0.0353246 0.164904
0.711162 0.0353246 0.164904
0.711162 0.0353246 0.164904
0.711162 0.0353246 0.164904
0.711162 0.0353246 0.164904
0.0311742 0.274739 0.079469
0.034226 0.273075 0.0717784
0.0369879 0.271336 0.0633707
0.0391241 0.269902 0.0551919
0.0459907 0.268421 0.0429694
0.0501717 0.266896 0.0346685
0.0499123 0.265492 0.0346838
0.0494698 0.263813 0.0346227
0.063508 0.260746 0.0268711
0.0987869 0.256397 0.0241855
0.155627 0.254963 0.0285801
0.198901 0.258625 0.0255436
0.254978 0.264729 0.0164187
0.334539 0.265309 0.0178683
0.41297 0.259464 0.0532082
0.493416 0.24065 0.0768902
0.559045 0.221378 0.0836347
0.634607 0.184558 0.0939651
0.679438 0.151644 0.0944381
0.73669 0.0893416 0.0886854
0.790814 0.00834669 0.102556
0.776242 0 0.116426
0.749355 0.0102083 0.132815
0.682033 0.0120546 0.116762
0.675975 0.0210422 0.130022
0.6869 0.0292668 0.144915
0.692363 0.0339361 0.152682
0.697749 0.0354772 0.157031
0.70219 0.0354314 0.159472
0.704921 0.0354162 0.161089
0.706996 0.0353857 0.162295
0.708598 0.0353552 0.163287
0.709758 0.0353399 0.164019
0.0328222 0.329213 0.0940566
0.0371099 0.32781 0.0865949
0.0408331 0.326619 0.0792248
0.0444038 0.325567 0.0716259
0.0469673 0.324727 0.0644694
0.0530861 0.323339 0.0526436
0.0604562 0.321675 0.0383612
0.0607156 0.32015 0.0370794
0.0605478 0.318456 0.0369726
0.0728923 0.314046 0.0245823
0.12134 0.31165 0.0180667
0.1897 0.311986 0.0256199
0.245731 0.31722 0.0222324
0.313726 0.325628 0.0114137
0.398047 0.326452 0.0105592
0.479072 0.323293 0.0490578
0.565408 0.306737 0.0874037
0.635004 0.285466 0.0980087
0.716686 0.245487 0.11194
0.791592 0.198062 0.109773
0.840208 0.136507 0.100481
0.847135 0.076463 0.095079
0.834607 0.0411688 0.0914473
0.822095 0.0163577 0.0911574
0.808011 0.00900282 0.100969
0.795941 0.00317388 0.108385
0.785763 0 0.112856
0.778027 0 0.115785
0.770764 0 0.119005
0.765042 0.00180056 0.123491
0.760052 0.00459297 0.126665
0.75639 0.00668345 0.129122
0.754849 0.00891127 0.132219
0.0356298 0.387076 0.11635
0.0408637 0.385992 0.10901
0.0458839 0.385077 0.101701
0.0503243 0.384192 0.0946059
0.0544442 0.383276 0.0872511
0.0572519 0.382696 0.0812695
0.0621653 0.381872 0.0719463
0.0707713 0.380392 0.0568704
0.0746014 0.3785 0.0492103
0.0741741 0.37644 0.0487373
0.088777 0.370062 0.0275731
0.150011 0.370092 0.0153964
0.232517 0.371817 0.0277104
0.300465 0.379461 0.0217899
0.375051 0.388907 0.00943008
0.462348 0.390463 0.00825513
0.546563 0.390005 0.0443732
0.64097 0.376608 0.0954604
0.7122 0.358801 0.115419
0.810483 0.315785 0.126833
0.892195 0.259693 0.125948
0.905058 0.223911 0.115572
0.893889 0.202441 0.111452
0.88452 0.180545 0.107912
0.877165 0.160311 0.10518
0.870573 0.142306 0.10277
0.864866 0.127062 0.100816
0.860166 0.114473 0.0992599
0.856748 0.104067 0.0980392
0.853956 0.0960403 0.0971542
0.851408 0.0894484 0.096376
0.849683 0.0838941 0.0958267
0.848478 0.0804913 0.095491
0.0398871 0.45034 0.150637
0.046067 0.449424 0.143374
0.0521859 0.448508 0.135821
0.0580911 0.447623 0.128176
0.063447 0.446784 0.120806
0.0687572 0.446006 0.112993
0.0729381 0.445457 0.10631
0.0775464 0.445182 0.098558
0.0876478 0.4439 0.0823835
0.0938888 0.441901 0.0698253
0.0929732 0.43917 0.0686809
0.111421 0.431449 0.0391699
0.185122 0.433295 0.0189975
0.285512 0.436362 0.0365911
0.362356 0.44596 0.0274968
0.438712 0.45481 0.0124056
0.527962 0.457145 0.0101625
0.616403 0.458213 0.0384985
0.7178 0.447807 0.105913
0.796002 0.433265 0.130907
0.892103 0.390372 0.138705
0.945312 0.342519 0.139956
0.942748 0.323278 0.137621
0.939925 0.306554 0.135073
0.937224 0.292042 0.132509
0.93434 0.280369 0.130144
0.930861 0.271122 0.127962
0.927932 0.263813 0.126146
0.92491 0.258091 0.124575
0.922423 0.253803 0.123217
0.92079 0.250813 0.122332
0.919448 0.248142 0.121538
0.918456 0.246113 0.121035
0.0424353 0.519219 0.195697
0.0492714 0.518471 0.189059
0.0563668 0.517784 0.182071
0.0636912 0.517235 0.174929
0.0709087 0.516503 0.167391
0.0778363 0.51577 0.159838
0.0846571 0.515114 0.152346
0.0921798 0.514397 0.142992
0.0990158 0.513878 0.133013
0.11075 0.513069 0.114855
0.118334 0.511147 0.100832
0.117144 0.507729 0.0991531
0.141772 0.497856 0.0566873
0.226871 0.502647 0.0329137
0.349569 0.506203 0.0512551
0.427222 0.515526 0.037232
0.504646 0.523384 0.0185855
0.594568 0.525505 0.0158846
0.687129 0.527138 0.0405127
0.797101 0.519615 0.11664
0.876265 0.507485 0.137469
0.945876 0.47071 0.148241
0.952468 0.448249 0.147677
0.951736 0.433845 0.147066
0.951202 0.421317 0.146578
0.950759 0.411307 0.146059
0.950378 0.403281 0.145602
0.950057 0.396597 0.145068
0.949813 0.391653 0.144793
0.949615 0.387594 0.144396
0.949447 0.384436 0.144137
0.949325 0.38201 0.143923
0.949248 0.380514 0.143908
0.0417182 0.594659 0.251926
0.0483406 0.594339 0.245319
0.0555276 0.593866 0.238865
0.0632029 0.593317 0.232212
0.0713664 0.592752 0.225193
0.0796521 0.592187 0.218036
0.0879072 0.591608 0.210727
0.0975967 0.590967 0.201938
0.109087 0.590127 0.190066
0.121706 0.589624 0.175341
0.135164 0.589197 0.156298
0.142199 0.586496 0.143175
0.141039 0.582238 0.140475
0.180758 0.570947 0.0753643
0.280781 0.578836 0.0558785
0.418265 0.581369 0.0677806
0.494682 0.587671 0.0519265
0.571511 0.593301 0.0310674
0.660716 0.59498 0.0283055
0.761471 0.595956 0.0401617
0.867124 0.591501 0.113451
0.935699 0.581506 0.140139
0.954528 0.568154 0.142077
0.953964 0.556771 0.143725
0.953506 0.546517 0.145174
0.953155 0.537911 0.146288
0.952895 0.530785 0.147204
0.952697 0.524773 0.14786
0.952575 0.520333 0.148318
0.952483 0.517205 0.14876
0.952422 0.514641 0.148913
0.952377 0.512627 0.149111
0.952331 0.511086 0.149264
0.0554513 0.671946 0.317662
0.0545052 0.671839 0.311925
0.053727 0.671885 0.306371
0.0592508 0.672099 0.300282
0.0659342 0.67216 0.293538
0.073106 0.672053 0.2869
0.0808423 0.671824 0.280201
0.0915389 0.671473 0.271717
0.105913 0.670985 0.259937
0.122423 0.670207 0.244709
0.141207 0.669261 0.224689
0.159167 0.669169 0.202243
0.16083 0.665385 0.196201
0.168841 0.658946 0.181567
0.234043 0.651148 0.0955367
0.349905 0.659403 0.092256
0.489006 0.658534 0.0927138
0.562676 0.660914 0.0722667
0.637949 0.663798 0.0512551
0.727108 0.665309 0.033875
0.829694 0.664897 0.0417792
0.919295 0.663706 0.100999
0.960281 0.655985 0.130083
0.959716 0.648478 0.130739
0.959167 0.641596 0.131762
0.95877 0.635935 0.132235
0.958419 0.631083 0.132723
0.95816 0.627497 0.133181
0.957946 0.624323 0.133577
0.957778 0.621897 0.133837
0.957656 0.620035 0.13402
0.957595 0.618921 0.134081
0.957519 0.617853 0.134218
0.0709087 0.7561 0.38204
0.0699626 0.756054 0.377584
0.0689555 0.756039 0.372717
0.0679942 0.756008 0.367895
0.0670024 0.755978 0.362875
0.0659953 0.756008 0.357351
0.0650187 0.756008 0.351934
0.0719615 0.755764 0.345388
0.0853285 0.755276 0.3364
0.105989 0.754269 0.324331
0.132601 0.752941 0.307164
0.159548 0.752499 0.282429
0.180835 0.750988 0.257755
0.179858 0.745785 0.253666
0.205295 0.735821 0.218311
0.300389 0.735561 0.134737
0.432517 0.741436 0.136599
0.560647 0.735866 0.126604
0.629709 0.734173 0.0971084
0.703502 0.734615 0.0704356
0.791012 0.735714 0.0425422
0.882841 0.733776 0.0533455
0.955261 0.734508 0.0891127
0.968444 0.728618 0.104601
0.967453 0.72253 0.107439
0.966613 0.717174 0.109895
0.965972 0.712993 0.111864
0.965484 0.709346 0.113542
0.965133 0.706615 0.114565
0.964858 0.704402 0.11577
0.96466 0.702708 0.116472
0.964523 0.701503 0.116991
0.964431 0.70071 0.117372
0.0806287 0.835157 0.44564
0.0797894 0.835142 0.441962
0.0788891 0.835203 0.437934
0.0780652 0.83537 0.434089
0.0771649 0.835584 0.429831
0.0762646 0.835676 0.425605
0.0753185 0.835752 0.421164
0.0741588 0.835859 0.415534
0.0726024 0.836027 0.407813
0.0705425 0.836316 0.397009
0.0805371 0.836408 0.382528
0.114336 0.835523 0.363439
0.158724 0.833722 0.336248
0.174975 0.82974 0.321904
0.176715 0.823545 0.316838
0.247272 0.811063 0.24773
0.380636 0.817685 0.18085
0.515602 0.817716 0.187869
0.627756 0.810117 0.167712
0.694377 0.80618 0.13637
0.767285 0.80499 0.113375
0.844526 0.806256 0.076463
0.919783 0.804837 0.0876936
0.97229 0.806531 0.11577
0.973831 0.800549 0.115236
0.97409 0.795316 0.113787
0.974227 0.791363 0.112581
0.974044 0.78793 0.111849
0.973846 0.785153 0.111696
0.973724 0.783093 0.110933
0.973617 0.78146 0.110582
0.973526 0.78024 0.110338
0.973465 0.779293 0.110155
0.0879225 0.900236 0.509712
0.0871748 0.900252 0.506523
0.0864729 0.900252 0.503471
0.0856947 0.900298 0.500069
0.0849317 0.900328 0.496773
0.084123 0.900404 0.493172
0.08336 0.900465 0.489754
0.0823529 0.900587 0.485191
0.0810407 0.900755 0.479164
0.0792401 0.901045 0.47071
0.0769207 0.901762 0.459037
0.0738231 0.902663 0.442512
0.0749218 0.903731 0.418845
0.123171 0.902327 0.392798
0.129244 0.897337 0.386908
0.184375 0.886198 0.353491
0.289876 0.881376 0.262486
0.464179 0.883421 0.243442
0.590097 0.877302 0.249042
0.689067 0.870802 0.230243
0.755016 0.868223 0.200153
0.827008 0.86772 0.183963
0.892393 0.867964 0.162066
0.942763 0.870512 0.166659
0.964797 0.869978 0.17615
0.965316 0.865736 0.170687
0.965911 0.862211 0.166262
0.966461 0.859571 0.163241
0.966705 0.857389 0.160098
0.96698 0.855604 0.158053
0.967193 0.854215 0.156573
0.967346 0.853132 0.155566
0.967453 0.852354 0.154681
0.103288 0.946471 0.574151
0.102663 0.946471 0.571557
0.102068 0.946441 0.56907
0.101396 0.946471 0.566293
0.10074 0.946471 0.563577
0.100069 0.946502 0.560739
0.0993668 0.946548 0.557778
0.0985428 0.946593 0.554345
0.0973526 0.946731 0.54934
0.0957961 0.946929 0.542748
0.0936599 0.94725 0.533593
0.090837 0.94789 0.521096
0.087068 0.949111 0.503441
0.0818494 0.950759 0.477638
0.0792859 0.948409 0.4645
0.0772259 0.94432 0.453483
0.199863 0.935195 0.380453
0.354223 0.935576 0.316625
0.537453 0.929107 0.318425
0.658061 0.922393 0.32578
0.747555 0.919921 0.31664
0.813245 0.919066 0.292927
0.876936 0.918486 0.283803
0.92871 0.918181 0.274327
0.960281 0.922179 0.274189
0.960937 0.919707 0.266316
0.960327 0.91725 0.258946
0.959915 0.91519 0.25301
0.959579 0.913527 0.248753
0.959426 0.912383 0.245335
0.95935 0.911543 0.242756
0.959167 0.910826 0.240558
0.959014 0.910277 0.239048
0.114382 0.964706 0.617105
0.114 0.964889 0.615381
0.113603 0.965087 0.613626
0.113191 0.965286 0.611811
0.11281 0.965469 0.610162
0.112367 0.965667 0.608225
0.111925 0.965881 0.606302
0.111391 0.966125 0.603937
0.110674 0.966461 0.60087
0.109651 0.966949 0.596429
0.108293 0.967575 0.590585
0.106401 0.968475 0.582498
0.103792 0.969711 0.571328
0.100099 0.971496 0.555245
0.0973831 0.972793 0.543206
0.0949722 0.971328 0.533913
0.0840009 0.971222 0.482475
0.218433 0.969985 0.404837
0.446921 0.964782 0.392142
0.600565 0.961089 0.397192
0.719051 0.956085 0.409552
0.802274 0.957076 0.407553
0.863966 0.957595 0.392615
0.918807 0.95668 0.388968
0.958297 0.956527 0.385046
0.970993 0.956527 0.381216
0.970275 0.954284 0.374914
0.969665 0.952499 0.36907
0.969192 0.95108 0.364385
0.968994 0.950088 0.360662
0.968917 0.949401 0.358022
0.968734 0.94873 0.355947
0.968597 0.948226 0.354284
0.115282 0.964263 0.621118
0.114931 0.964431 0.619562
0.114549 0.964614 0.617884
0.114153 0.964813 0.616083
0.113741 0.965011 0.614252
0.113329 0.965225 0.612375
0.112932 0.965408 0.610697
0.112398 0.965652 0.608347
0.111666 0.966003 0.605142
0.110704 0.966445 0.601022
0.109377 0.967071 0.5953
0.107546 0.967941 0.587396
0.104967 0.969162 0.576349
0.101396 0.970871 0.560922
0.0973831 0.972808 0.543221
0.0973831 0.972808 0.543221
0.0957961 0.975769 0.53434
0.10042 0.982544 0.486381
0.27126 0.979538 0.433707
0.522927 0.97615 0.458045
0.65713 0.973556 0.474266
0.774166 0.974365 0.49247
0.855238 0.980606 0.498238
0.908675 0.983398 0.485954
0.953506 0.983612 0.482979
0.98378 0.981308 0.484108
0.983276 0.979858 0.476387
0.982834 0.978759 0.470237
0.982315 0.977768 0.465339
0.981903 0.977005 0.461357
0.981567 0.976379 0.458427
0.981308 0.975921 0.456199
0.981109 0.97557 0.454444
0.116045 0.963897 0.624598
0.115679 0.96408 0.622904
0.115282 0.964263 0.621164
0.114916 0.964431 0.619547
0.114534 0.96463 0.617761
0.114122 0.964828 0.61593
0.113695 0.965042 0.614054
0.113176 0.965301 0.611734
0.112505 0.965606 0.608804
0.111528 0.966064 0.604532
0.110216 0.966674 0.598901
0.108415 0.967529 0.591119
0.105913 0.968719 0.580362
0.102434 0.970382 0.565393
0.0975357 0.972732 0.543877
0.0973831 0.972808 0.543221
0.096849 0.974197 0.539773
0.0920272 0.981613 0.499092
0.222904 0.980636 0.4318
0.48188 0.977234 0.459983
0.62739 0.975006 0.483268
0.728527 0.974273 0.512383
0.840421 0.980377 0.537835
0.89398 0.985168 0.546242
0.93959 0.98909 0.552789
0.976333 0.989899 0.567452
0.985977 0.989853 0.569497
0.986267 0.989807 0.565972
0.986511 0.989792 0.563043
0.986633 0.989807 0.560723
0.986709 0.989807 0.559106
0.98677 0.989807 0.557809
0.986816 0.989822 0.556771
0.11664 0.963607 0.627268
0.116289 0.963775 0.625696
0.115908 0.963958 0.623972
0.115511 0.964157 0.622202
0.115114 0.96434 0.620371
