bundles/resolve-cinematic-luts/Phantom Luts/S5ii LUTs/Standard (No WB Offset)/S5ii Utopia V-Log.cube
TITLE "Generated by Resolve"
LUT_3D_SIZE 9
0 0.0270237 0.0350347
0.0383001 0.0249027 0.0342718
0.129778 0.0189822 0.0272984
0.299672 0.0109102 0.0237278
0.509544 0.0136873 0.0536049
0.691249 0.0347753 0.159014
0.699535 0.0373541 0.171267
0.700511 0.0377356 0.175326
0.704799 0.0366369 0.176776
0 0.0416266 0.0397803
0.0105745 0.0326696 0.0359045
0.0933394 0.0318608 0.0323644
0.284382 0.0114443 0.0220951
0.496818 0.0059205 0.033463
0.667231 0.0284581 0.122087
0.683604 0.0321508 0.135439
0.691432 0.0331731 0.145876
0.697765 0.0324254 0.149889
0 0.141543 0.0343023
0.00743114 0.130297 0.0212863
0.102586 0.12314 0.029984
0.325475 0.0847639 0.0498054
0.49247 0.00747692 0.0309453
0.668055 0.0276951 0.121309
0.683238 0.031632 0.133486
0.683238 0.031632 0.133486
0.685267 0.0310063 0.133425
0 0.337423 0.0479591
0 0.328969 0
0.0260777 0.32018 0
0.314748 0.312795 0.0303502
0.611078 0.270741 0.0992752
0.729702 0.0429694 0.0614481
0.660166 0.0217594 0.0941024
0.679622 0.0298924 0.123262
0.685618 0.029984 0.129458
0 0.610117 0.214221
0.000961318 0.61529 0.173541
0.0495308 0.617868 0.12372
0.149966 0.597208 0.022858
0.60119 0.566842 0.0661021
0.867002 0.568109 0.160006
0.918578 0.492943 0.194522
0.917021 0.462745 0.193011
0.916167 0.454658 0.191211
0.0273594 0.879744 0.499046
0.0225834 0.882856 0.482353
0.0204318 0.886427 0.457969
0.0485542 0.899641 0.36611
0.465446 0.873838 0.177722
0.851743 0.808347 0.197299
0.983642 0.809369 0.227832
0.981506 0.798306 0.219593
0.980148 0.794476 0.218357
0.0673838 0.973098 0.673793
0.0628824 0.97496 0.66717
0.0611734 0.976333 0.658534
0.0572519 0.98024 0.629877
0.0540322 0.988617 0.584588
0.731151 0.994736 0.501442
0.988037 0.957778 0.553185
0.999969 0.950225 0.542641
0.999969 0.94844 0.534524
0.0654612 0.972427 0.68307
0.0670939 0.972778 0.676966
0.0669413 0.973877 0.668452
0.0635996 0.977584 0.641596
0.0584421 0.984283 0.59765
0.652293 0.999969 0.492332
0.957794 0.968963 0.611368
0.999908 0.96759 0.639612
0.999634 0.968002 0.640391
0.0619211 0.972885 0.686213
0.0632029 0.973297 0.680125
0.065507 0.97377 0.671885
0.0640726 0.977096 0.645167
0.0584726 0.984298 0.597925
0.629129 0.999969 0.485481
0.948882 0.969757 0.610285
0.999817 0.967758 0.639933
0.999496 0.968154 0.640696
0 0.0284276 0.0426642
0.0298924 0.0277256 0.0576638
0.132036 0.0277104 0.0649271
0.321782 0.0234684 0.0768444
0.529305 0.0260166 0.102403
0.698787 0.0383307 0.184054
0.706676 0.0411078 0.195102
0.707607 0.0420081 0.199237
0.710536 0.0415045 0.201129
0 0.0359655 0.0449073
0 0.0271 0.0350347
0.101259 0.0215305 0.0311284
0.287434 0.0162814 0.0334936
0.504112 0.0157626 0.0552071
0.693523 0.0344701 0.161593
0.702556 0.0369421 0.173953
0.703334 0.0372473 0.177432
0.70634 0.0366979 0.179171
0 0.131106 0.0858473
0 0.124758 0.0408484
0.0945907 0.11577 0.0306249
0.317647 0.0667582 0.0427253
0.490822 0.00650034 0.0320897
0.669703 0.0276036 0.12224
0.689204 0.0321965 0.140078
0.69192 0.032578 0.144503
0.695201 0.0320439 0.145861
0 0.331655 0.104616
0 0.328206 0.0542458
0.00563058 0.316686 0
0.309346 0.308156 0.0303655
0.612421 0.255589 0.0998245
0.725612 0.0408942 0.0652781
0.666789 0.0263981 0.106523
0.684184 0.0303349 0.128511
0.685405 0.0298772 0.129854
0 0.601572 0.254536
0 0.604578 0.21622
0.0087129 0.611048 0.160616
0.115221 0.601587 0.0513771
0.598871 0.564492 0.0651408
0.868086 0.562478 0.161318
0.918517 0.487739 0.194522
0.916213 0.458351 0.192538
0.915175 0.44979 0.190494
0.0287633 0.874769 0.513329
0.0240482 0.877516 0.498131
0.0215915 0.880583 0.475837
0.026215 0.891752 0.388418
0.434501 0.87718 0.175845
0.850248 0.806745 0.195026
0.983291 0.806378 0.22565
0.980453 0.79472 0.2168
0.979156 0.790784 0.215595
0.0678416 0.972198 0.680262
0.0636149 0.973938 0.674067
0.0619669 0.975326 0.665843
0.0584573 0.979004 0.638697
0.053727 0.986908 0.590295
0.723888 0.995758 0.497566
0.987045 0.956741 0.548455
0.999969 0.94905 0.537057
0.999969 0.946929 0.528206
0.0654307 0.97171 0.689357
0.0684825 0.971633 0.683803
0.0676432 0.972854 0.67541
0.0646983 0.976455 0.649973
0.0584726 0.984131 0.598398
0.640009 0.999969 0.488411
0.955459 0.968948 0.610849
0.999908 0.96759 0.639612
0.999634 0.968002 0.640391
0.0626383 0.971984 0.692607
0.0651102 0.972076 0.686717
0.0664683 0.972686 0.678767
0.0651255 0.976028 0.653223
0.0585336 0.984054 0.598871
0.614267 0.999969 0.481773
0.946166 0.969894 0.609781
0.999817 0.967758 0.639933
0.999496 0.968154 0.640696
0 0.0370336 0.109071
0.0502632 0.0280003 0.112047
0.134752 0.0323796 0.11902
0.329641 0.0353246 0.120455
0.542428 0.0300298 0.149722
0.707637 0.046891 0.215259
0.71458 0.0501259 0.225345
0.716579 0.0514839 0.229358
0.719966 0.0513466 0.231708
0 0.04477 0.0792248
0 0.0362554 0.1028
0.104082 0.0308232 0.103151
0.310536 0.0278019 0.0943008
0.531548 0.0247044 0.121981
0.701625 0.0408942 0.194064
0.708476 0.0434882 0.204028
0.709072 0.0440681 0.207446
0.712047 0.0436713 0.209461
0 0.123919 0.128176
0 0.115251 0.120073
0.0777752 0.111284 0.120287
0.306889 0.0756237 0.0832685
0.514519 0.0300145 0.0917678
0.696666 0.0371099 0.174228
0.702708 0.0379797 0.179675
0.703059 0.0382849 0.181308
0.705592 0.0379187 0.182818
0 0.319493 0.170245
0 0.319127 0.137163
0 0.318288 0.0659495
0.30695 0.30779 0.0671092
0.616297 0.242863 0.126741
0.721431 0.0371252 0.0807355
0.688411 0.031342 0.131502
0.698329 0.0335546 0.155566
0.697658 0.0331426 0.155474
0 0.59086 0.298192
0 0.593164 0.267323
0 0.597879 0.216983
0.0951247 0.601236 0.0652323
0.595834 0.561776 0.0639963
0.866819 0.558434 0.161563
0.918212 0.480858 0.19408
0.915434 0.452384 0.192233
0.914626 0.443839 0.190372
0.0308232 0.868955 0.529137
0.0261387 0.87097 0.515831
0.0233158 0.873411 0.495964
0.0198062 0.882719 0.419409
0.39147 0.881071 0.174655
0.848295 0.804639 0.192599
0.982422 0.802747 0.222797
0.979568 0.791257 0.214557
0.9785 0.78764 0.212436
0.0677195 0.971328 0.688212
0.0643473 0.972747 0.682475
0.0628977 0.974044 0.674617
0.0598917 0.977508 0.649302
0.053254 0.985382 0.594614
0.713939 0.996658 0.492439
0.985504 0.955352 0.542092
0.999969 0.947097 0.529091
0.999969 0.944701 0.520012
0.0655375 0.970855 0.697368
0.0675059 0.970962 0.691966
0.0686351 0.971557 0.684199
0.0659342 0.975158 0.659831
0.0585489 0.983841 0.599359
0.622477 0.999969 0.483406
0.952392 0.969253 0.610376
0.999908 0.96759 0.639612
0.999634 0.968002 0.640391
0.0635386 0.971008 0.700648
0.0637369 0.971511 0.694972
0.0681468 0.971328 0.687373
0.0663462 0.97467 0.663142
0.0585184 0.983551 0.600076
0.590066 0.999969 0.477668
0.942809 0.96994 0.608911
0.999817 0.967758 0.639933
0.999466 0.968185 0.640757
0 0.0572213 0.235309
0 0.0472114 0.269001
0.170901 0.0327001 0.251331
0.331777 0.0427863 0.246845
0.55079 0.0609598 0.271412
0.748531 0.0882734 0.300206
0.756588 0.0931563 0.309239
0.75877 0.0957504 0.313359
0.761593 0.0961624 0.316014
0 0.0669108 0.214343
0 0.0567483 0.2327
0.087953 0.0371557 0.27097
0.316594 0.0419318 0.235294
0.547723 0.0579232 0.244038
0.740368 0.0775616 0.282475
0.748333 0.0818647 0.291386
0.750484 0.0842603 0.295552
0.753536 0.0845655 0.298253
0 0.135348 0.218082
0 0.121492 0.228168
0 0.105287 0.263691
0.304662 0.0592203 0.236072
0.542458 0.0533303 0.214084
0.728923 0.0658579 0.259495
0.735439 0.0688182 0.266697
0.737484 0.0707256 0.270726
0.740108 0.0708324 0.272847
0 0.299474 0.283726
0 0.294667 0.27924
0 0.28809 0.272282
0.278355 0.306127 0.307408
0.59234 0.261906 0.243885
0.75462 0.0750744 0.231388
0.72546 0.0573739 0.240894
0.725109 0.0581674 0.244205
0.726009 0.0576791 0.244877
0 0.572549 0.39147
0 0.571649 0.376883
0 0.571694 0.353506
0 0.579828 0.238315
0.584375 0.565408 0.229618
0.879957 0.526986 0.300771
0.916991 0.469398 0.273014
0.911131 0.444404 0.263767
0.908995 0.435996 0.260655
0.0363165 0.85391 0.568307
0.0320439 0.855131 0.558526
0.029572 0.856519 0.544411
0.0222477 0.860868 0.490974
0.306874 0.885939 0.239536
0.839033 0.801419 0.249226
0.976806 0.796384 0.283619
0.974151 0.78439 0.2701
0.973114 0.780529 0.265843
0.0708171 0.968582 0.708522
0.064683 0.970336 0.703197
0.0652628 0.970779 0.696498
0.0628824 0.973724 0.67509
0.0544594 0.984375 0.599939
0.700389 0.997299 0.480583
0.982254 0.951171 0.526345
0.999969 0.942046 0.512932
0.999969 0.940047 0.50396
0.0675212 0.968627 0.717784
0.0655528 0.969497 0.712795
0.0706493 0.968902 0.706203
0.0687572 0.97142 0.685176
0.0600748 0.981582 0.613245
0.584543 0.999969 0.477821
0.946334 0.969787 0.6103
0.999908 0.967636 0.640482
0.999634 0.968063 0.641245
0.0657816 0.968704 0.721477
0.0651865 0.969253 0.716533
0.0677195 0.969299 0.709484
0.0691539 0.970977 0.688487
0.0605936 0.980987 0.617243
0.543099 0.999969 0.475013
0.935042 0.970336 0.60763
0.999817 0.967788 0.640391
0.999496 0.968185 0.641077
0 0.0988785 0.411032
0 0.0916762 0.435859
0.0322881 0.0670176 0.485145
0.369863 0.0457923 0.453666
0.559503 0.0805524 0.445838
0.753338 0.103044 0.468437
0.761074 0.103334 0.477348
0.760739 0.102007 0.480842
0.763317 0.10016 0.484672
0 0.104005 0.406424
0 0.0990158 0.411429
0 0.0842756 0.463569
0.337423 0.0424353 0.462501
0.554314 0.079408 0.441794
0.754192 0.105196 0.46125
0.76202 0.105852 0.468956
0.761944 0.104875 0.472557
0.76437 0.103319 0.476051
0 0.13196 0.389731
0 0.116518 0.400443
0 0.0982376 0.416037
0.272374 0.042771 0.476432
0.5467 0.0772259 0.435248
0.75523 0.10837 0.45034
0.762036 0.109346 0.456458
0.761959 0.108766 0.459693
0.764111 0.1075 0.462562
0 0.297047 0.418021
0 0.287877 0.418921
0 0.274388 0.421241
0.127275 0.271824 0.502968
0.573571 0.21059 0.484428
0.745968 0.112322 0.430167
0.763363 0.112016 0.435325
0.763073 0.111772 0.437095
0.764645 0.111055 0.439673
0 0.551003 0.523308
0 0.54844 0.521157
0 0.545266 0.517678
0 0.535378 0.506477
0.541527 0.558694 0.54844
0.860197 0.521309 0.490105
0.923415 0.439841 0.479301
0.916274 0.408392 0.479057
0.912749 0.398917 0.477501
0.0462654 0.830365 0.649546
0.0422675 0.830213 0.644816
0.0413062 0.829267 0.637476
0.0389868 0.826215 0.612787
0.154055 0.847272 0.532677
0.810803 0.792813 0.526955
0.975433 0.772656 0.550958
0.973739 0.757885 0.547097
0.972457 0.753124 0.54641
0.0742351 0.963333 0.758083
0.0682536 0.964965 0.754696
0.0677501 0.965484 0.749844
0.0686198 0.966506 0.734157
0.0639963 0.972229 0.684184
0.643168 0.999954 0.591241
0.972519 0.949142 0.638041
0.999786 0.93933 0.638895
0.999664 0.936477 0.63418
0.0716411 0.963745 0.76849
0.068864 0.96463 0.764843
0.0682231 0.965194 0.759304
0.0729839 0.965377 0.742748
0.0697642 0.970291 0.693736
0.483345 0.999969 0.60058
0.940383 0.975784 0.715709
0.99884 0.974884 0.748333
0.998138 0.975311 0.749264
0.0707866 0.963607 0.772778
0.0690318 0.964309 0.768795
0.0681621 0.96492 0.763165
0.0726787 0.965179 0.74609
0.0700389 0.969955 0.696391
0.43415 0.999969 0.597803
0.926497 0.977157 0.709072
0.998734 0.974792 0.746639
0.998154 0.975235 0.747845
0 0.185168 0.561898
0 0.185229 0.563714
0 0.178347 0.591226
0.182666 0.135897 0.682521
0.604257 0.138491 0.650523
0.773434 0.13109 0.63328
0.783276 0.1355 0.648127
0.786542 0.142611 0.656458
0.791653 0.143709 0.663966
0 0.185412 0.562264
0 0.185748 0.56289
0 0.183368 0.567376
0.13164 0.139895 0.679332
0.594583 0.135164 0.65301
0.772213 0.127871 0.628794
0.780133 0.129686 0.640116
0.783612 0.135164 0.648051
0.789014 0.135683 0.65565
0 0.190524 0.55256
0 0.186145 0.562158
0 0.186007 0.563043
0.0558022 0.155291 0.665095
0.579278 0.130678 0.657053
0.768048 0.128679 0.622522
0.774243 0.124941 0.62768
0.776471 0.127977 0.633356
0.78172 0.127993 0.640375
0 0.290242 0.546944
0 0.279408 0.552758
0 0.265248 0.560616
0 0.256535 0.600305
0.532769 0.152361 0.679332
0.757977 0.131685 0.613108
0.763821 0.107286 0.600229
0.764248 0.107958 0.601526
0.768215 0.106752 0.60592
0 0.542962 0.642741
0 0.539086 0.644816
0 0.533562 0.646128
0 0.514611 0.648371
0.422171 0.547234 0.755886
0.847929 0.49369 0.729686
0.898589 0.415045 0.71342
0.888838 0.389532 0.703685
0.883741 0.380453 0.701457
0.0469215 0.800076 0.759564
0.0426032 0.799283 0.759197
0.0418708 0.797192 0.757244
0.04065 0.790143 0.750118
0.0971542 0.784466 0.744701
0.772274 0.778164 0.763256
0.961486 0.755688 0.723445
0.963302 0.737621 0.720165
0.9635 0.730556 0.722332
0.0787213 0.95523 0.835172
0.0713054 0.957275 0.834195
0.0699626 0.957168 0.831098
0.0686503 0.954482 0.82034
0.0649119 0.948196 0.785321
0.603067 0.972671 0.76733
0.950744 0.939895 0.798825
0.988128 0.938704 0.813077
0.986877 0.935729 0.809598
0.0802167 0.955749 0.847852
0.0726329 0.95758 0.846174
0.0714733 0.958099 0.842542
0.0716106 0.958923 0.830945
0.076051 0.960494 0.797772
0.356039 0.986419 0.773648
0.905287 0.986725 0.847929
0.995163 0.983536 0.899977
0.994583 0.983932 0.901717
0.0748913 0.956573 0.853758
0.0729534 0.957183 0.851087
0.0717632 0.957702 0.847211
0.0715953 0.958633 0.834806
0.0760052 0.960342 0.799908
0.26453 0.983597 0.769894
0.884688 0.989654 0.839811
0.98999 0.983063 0.891875
0.993439 0.984268 0.902281
0 0.343984 0.697932
0 0.344411 0.698848
0 0.341283 0.698024
0 0.361547 0.750317
0.447089 0.354101 0.899199
0.865049 0.366995 0.862501
0.884321 0.406958 0.886641
0.886488 0.416953 0.893599
0.886122 0.420417 0.897978
0 0.343404 0.696941
0 0.343969 0.698482
0 0.342214 0.698619
0 0.359442 0.729458
0.424643 0.356283 0.898634
0.862516 0.364019 0.861295
0.88365 0.403586 0.884047
0.885145 0.411536 0.890242
0.884749 0.414313 0.893889
0 0.336477 0.6925
0 0.342351 0.697719
0 0.342519 0.697765
0 0.353536 0.710842
0.395575 0.357107 0.896666
0.858244 0.359701 0.85922
0.881987 0.394308 0.875669
0.884199 0.405142 0.884153
0.883818 0.408225 0.888579
0 0.343023 0.666773
0 0.342748 0.674876
0 0.345006 0.684031
0 0.343832 0.695125
0.320211 0.349142 0.879637
0.839124 0.342596 0.854047
0.872633 0.357 0.84799
0.873732 0.361105 0.851255
0.873777 0.362722 0.85507
0 0.547845 0.731426
0 0.545403 0.734646
0 0.541222 0.736034
0 0.531365 0.742382
0.222324 0.574228 0.836088
0.835798 0.502327 0.918929
0.918303 0.480003 0.87216
0.911971 0.461265 0.864713
0.90782 0.454719 0.863294
0 0.778317 0.835386
0 0.777966 0.83917
0 0.774701 0.839506
0 0.764324 0.839826
0 0.744152 0.847272
0.684001 0.773907 0.916213
0.956725 0.739681 0.896864
0.957763 0.726925 0.893645
0.956085 0.722911 0.893324
0.0758373 0.937285 0.901518
0.0649729 0.938247 0.9028
0.0636301 0.937026 0.901823
0.061326 0.932326 0.896666
0.0579995 0.920562 0.884169
0.575906 0.929473 0.905348
0.930922 0.929625 0.922347
0.98024 0.926833 0.914168
0.979416 0.922896 0.913191
0.0788128 0.94995 0.921355
0.0710918 0.951843 0.922164
0.070634 0.952285 0.920119
0.0719463 0.952972 0.913252
0.0764477 0.954116 0.893736
0.161776 0.973495 0.890745
0.891096 0.985931 0.936996
0.988815 0.983551 0.959396
0.99115 0.983566 0.961059
0.0785992 0.949264 0.926314
0.070222 0.951278 0.92697
0.0697948 0.951766 0.924758
0.0711986 0.95259 0.91725
0.0762188 0.95407 0.895155
0.147524 0.972274 0.889464
0.864057 0.986175 0.934356
0.983871 0.986786 0.966079
0.991852 0.988785 0.974151
0 0.397955 0.720058
0 0.398123 0.720943
0 0.400122 0.72578
0 0.42623 0.747723
0.394614 0.443809 0.935744
0.868376 0.432242 0.914305
0.889158 0.435676 0.907591
0.889403 0.435676 0.907256
0.889052 0.43566 0.907744
0 0.397879 0.719783
0 0.398154 0.721035
0 0.398398 0.722011
0 0.418631 0.736797
0.37322 0.44239 0.930526
0.86389 0.431189 0.915328
0.889158 0.435676 0.907591
0.889097 0.435676 0.907683
0.888548 0.435645 0.908461
0 0.398276 0.718837
0 0.398154 0.721019
0 0.398154 0.721035
0 0.412863 0.731411
0.342489 0.443091 0.920424
0.856703 0.429587 0.91754
0.88983 0.435691 0.906676
0.889738 0.435691 0.906798
0.888579 0.435645 0.908385
0 0.438087 0.728862
0 0.429908 0.728542
0 0.41825 0.725444
0 0.400519 0.724468
0.248142 0.447532 0.879164
0.819013 0.426627 0.929076
0.890059 0.435706 0.90634
0.890089 0.435721 0.906294
0.888899 0.43566 0.907942
0 0.576089 0.782971
0 0.57821 0.788876
0 0.579416 0.792493
0 0.56788 0.788022
0.0854963 0.602426 0.833616
0.700191 0.574914 0.987182
0.925032 0.530098 0.937636
0.92137 0.517617 0.933822
0.918517 0.513756 0.934432
0 0.771328 0.875639
0 0.770825 0.879362
0 0.767727 0.879789
0 0.758572 0.88043
0 0.739681 0.880644
0.585733 0.786374 0.951308
0.958434 0.749432 0.966415
0.964141 0.739193 0.961593
0.961715 0.735912 0.962783
0.0495613 0.925368 0.932219
0.0409857 0.925246 0.934005
0.0391699 0.923369 0.933227
0.0348669 0.917037 0.930617
0.0241855 0.899535 0.925032
0.488304 0.91519 0.961501
0.893156 0.923384 0.965988
0.980301 0.920546 0.962188
0.978027 0.917006 0.962585
0.066865 0.945205 0.944762
0.0565499 0.947417 0.94818
0.0560311 0.94754 0.948241
0.0565347 0.947738 0.947478
0.0619669 0.948638 0.940658
0.0923018 0.963058 0.943175
0.869947 0.977295 0.970153
0.986893 0.979995 0.97763
0.992233 0.980362 0.976867
0.0675822 0.945037 0.944533
0.0565499 0.947417 0.94818
0.0560006 0.947524 0.948257
0.0560006 0.94754 0.948241
0.0614023 0.948608 0.941146
0.0903792 0.96228 0.940734
0.814099 0.982177 0.966201
0.983307 0.988312 0.982254
0.996338 0.989456 0.988464
0 0.397986 0.720195
0 0.398138 0.720974
0 0.399969 0.725643
0 0.425483 0.746227
0.393484 0.443809 0.935622
0.869093 0.432364 0.914092
0.889158 0.435676 0.907591
0.889174 0.435676 0.907576
0.888869 0.43566 0.907988
0 0.397894 0.719829
0 0.398154 0.721035
0 0.398337 0.721752
0 0.417868 0.73608
0.371817 0.4421 0.930068
0.864591 0.431174 0.914809
0.889158 0.435676 0.907591
0.889036 0.435676 0.907759
0.888151 0.43563 0.90901
0 0.397772 0.718898
0 0.398138 0.721019
0 0.398154 0.721035
0 0.412329 0.730983
0.339834 0.443214 0.919509
0.856703 0.429465 0.917494
0.88983 0.435691 0.906676
0.889723 0.435691 0.906813
0.888594 0.435645 0.908385
0 0.433555 0.727443
0 0.425452 0.727413
0 0.41352 0.724529
0 0.400458 0.724376
0.242664 0.447486 0.8766
0.81651 0.426581 0.929763
0.889982 0.435706 0.906447
0.890059 0.435706 0.90634
0.888899 0.43566 0.907942
0 0.590753 0.798413
0 0.587518 0.79881
0 0.582437 0.796246
0 0.564904 0.786313
0.0720836 0.597574 0.830091
0.693233 0.571786 0.986908
0.923369 0.525963 0.936416
0.920027 0.513817 0.933059
0.917021 0.509575 0.933181
0 0.773205 0.889052
0 0.772854 0.892653
0 0.770001 0.891722
0 0.75996 0.887312
0 0.73637 0.879057
0.579736 0.783917 0.95079
0.95555 0.746792 0.969375
0.962615 0.737026 0.964233
0.961074 0.734279 0.965454
0.0453346 0.924086 0.937301
0.0384222 0.923262 0.938781
0.0364233 0.921111 0.938262
0.0312657 0.913558 0.935714
0.0175174 0.894026 0.930007
0.448524 0.910399 0.969177
0.865644 0.920119 0.971481
0.978332 0.915724 0.973907
0.977737 0.912352 0.974075
0.0664988 0.945281 0.944869
0.0565499 0.947417 0.94818
0.0560006 0.947524 0.948257
0.0560006 0.947524 0.948257
0.0560006 0.947524 0.948257
0.0684672 0.958618 0.95555
0.830457 0.971801 0.98114
0.978714 0.978347 0.98349
0.990936 0.978897 0.982422
0.0633249 0.945998 0.945708
0.0565499 0.947417 0.94818
0.0560006 0.947524 0.948257
0.0560006 0.947524 0.948257
0.0560006 0.947524 0.948257
0.0670939 0.957595 0.954879
0.746242 0.98027 0.979553
0.97731 0.988251 0.988006
0.995041 0.991958 0.99057
