bundles/resolve-cinematic-luts/Phantom Luts/S5ii LUTs/Standard (No WB Offset)/S5ii Tungsten V-Log Legacy.cube
TITLE "Generated by Resolve"
LUT_3D_SIZE 33
0.0306401 0.0310674 0.0375219
0.0306401 0.0309758 0.0373388
0.0306706 0.0307774 0.0368963
0.0322423 0.030518 0.0361486
0.0455329 0.0321813 0.0366674
0.060914 0.0345006 0.0370642
0.078233 0.0362249 0.0379492
0.0955062 0.0376898 0.0393683
0.116075 0.0383001 0.0411231
0.141848 0.0386664 0.0435187
0.175265 0.0382696 0.0476234
0.217029 0.0373388 0.0524147
0.26743 0.0379339 0.0602579
0.322469 0.0396887 0.0698253
0.378088 0.0408942 0.0818341
0.435111 0.0413367 0.0937057
0.488258 0.0406806 0.105455
0.530404 0.038056 0.11281
0.592065 0.0495003 0.149035
0.660121 0.0625925 0.192477
0.675959 0.0655528 0.202213
0.676417 0.0657816 0.203494
0.676814 0.06598 0.2047
0.67718 0.0661784 0.205646
0.677485 0.0663157 0.206546
0.677714 0.0664378 0.207263
0.677913 0.0665293 0.207828
0.678096 0.0666209 0.208347
0.678264 0.0666972 0.208804
0.678584 0.066865 0.209522
0.67892 0.0670481 0.21033
0.679484 0.0673533 0.211597
0.680095 0.067689 0.21265
0.0306706 0.0307927 0.0369268
0.0306401 0.0309758 0.0373388
0.0306401 0.0309758 0.0373388
0.0306706 0.0307774 0.0368963
0.0401465 0.031693 0.036759
0.0557565 0.033753 0.0369726
0.072343 0.0357214 0.0374304
0.0908522 0.0370947 0.0383917
0.111406 0.0378729 0.0396887
0.137453 0.0383307 0.0415198
0.171054 0.0376593 0.0442817
0.212985 0.0358434 0.0482643
0.262776 0.0352483 0.0547189
0.317632 0.0361181 0.0627756
0.372946 0.0369421 0.0735943
0.43035 0.0371405 0.0855268
0.487816 0.0380865 0.101915
0.532128 0.03682 0.113832
0.579599 0.0429389 0.135744
0.654505 0.0615549 0.185962
0.674861 0.0650797 0.198947
0.675395 0.0652934 0.200458
0.675807 0.0654765 0.20174
0.676143 0.0656443 0.202625
0.676417 0.0657816 0.203479
0.676631 0.0658732 0.204211
0.676814 0.06598 0.204685
0.676997 0.0660868 0.205066
0.67718 0.0661784 0.205539
0.677501 0.0663157 0.206241
0.677882 0.0665141 0.207004
0.678462 0.066804 0.208255
0.679042 0.0671244 0.209537
0.0306706 0.0307927 0.0369268
0.0306401 0.0309758 0.0373388
0.0306401 0.0309758 0.0373388
0.0306706 0.0307774 0.0368963
0.033463 0.0312657 0.0362707
0.0489815 0.0345769 0.0369268
0.0651408 0.0369268 0.0380407
0.0841535 0.038529 0.0388342
0.105882 0.0390326 0.0397955
0.132784 0.0388495 0.0415045
0.166613 0.0379187 0.0441444
0.208835 0.0360571 0.0477455
0.259113 0.0345769 0.0531014
0.313252 0.0347448 0.0598459
0.36846 0.035111 0.0692607
0.425559 0.035111 0.080415
0.483345 0.0352331 0.0958877
0.534173 0.0356451 0.114427
0.572763 0.0401312 0.129641
0.638926 0.0571908 0.172168
0.671946 0.0641794 0.194095
0.673548 0.064622 0.196368
0.674464 0.0649424 0.198047
0.675013 0.0651408 0.19939
0.675349 0.0652781 0.200351
0.675578 0.0653697 0.201038
0.675746 0.0654612 0.201602
0.675914 0.0655375 0.20209
0.676112 0.0656291 0.202502
0.676432 0.0657816 0.203128
0.676799 0.0659648 0.203845
0.677394 0.0662699 0.204898
0.678019 0.0665904 0.206104
0.0319371 0.0353857 0.0397955
0.0318914 0.035584 0.0401617
0.0315251 0.0350958 0.0391241
0.0317235 0.0341497 0.0382849
0.0329747 0.0329137 0.0374609
0.0432288 0.0360418 0.038117
0.0567788 0.0392615 0.0386664
0.0746166 0.0412604 0.039353
0.0977493 0.0421149 0.0403601
0.125734 0.0412451 0.0417487
0.161089 0.0394598 0.0440986
0.204669 0.0365606 0.0475013
0.255253 0.0346227 0.0527504
0.310231 0.0347906 0.0595865
0.366018 0.0351568 0.0689555
0.42356 0.0352178 0.0800641
0.480903 0.0344396 0.0938735
0.531594 0.0340734 0.111467
0.571618 0.039353 0.12813
0.624598 0.0517586 0.159106
0.665324 0.0628061 0.186816
0.667567 0.0632944 0.189105
0.670604 0.06392 0.192355
0.672297 0.064271 0.194675
0.673411 0.0645762 0.196094
0.674037 0.0647898 0.19704
0.674403 0.0649119 0.197864
0.674678 0.0650187 0.198474
0.674922 0.0651255 0.199023
0.675258 0.0652628 0.199741
0.675654 0.0654459 0.200534
0.67631 0.0657359 0.201801
0.676951 0.066041 0.203052
0.0354314 0.0490272 0.0473335
0.0353552 0.0492561 0.0477302
0.0343175 0.0477607 0.0445258
0.0343938 0.0461585 0.0426795
0.0379644 0.0432746 0.0409247
0.0437629 0.0416724 0.040589
0.0537881 0.0441749 0.0415045
0.0687572 0.0455787 0.0419471
0.0902876 0.0460822 0.0417792
0.118196 0.0454414 0.0428016
0.153353 0.042771 0.0444038
0.198276 0.0391089 0.0466163
0.251057 0.0351568 0.0521096
0.306966 0.0349126 0.0593423
0.363302 0.0352941 0.0687572
0.421714 0.0353246 0.0798505
0.479179 0.0344549 0.0935225
0.530205 0.033875 0.110842
0.569574 0.0385748 0.126635
0.616846 0.0488746 0.152438
0.660655 0.0621195 0.181933
0.663218 0.0624094 0.184222
0.664881 0.0626688 0.18613
0.665812 0.0628977 0.187335
0.66717 0.0631876 0.188678
0.669245 0.0636454 0.190616
0.670512 0.0638895 0.19205
0.671229 0.0640421 0.193103
0.671824 0.0641794 0.193942
0.672435 0.0643778 0.194888
0.672999 0.0645914 0.195834
0.673777 0.0649271 0.196994
0.674556 0.0652628 0.198352
0.0385748 0.0614939 0.0536965
0.0385138 0.0617533 0.054139
0.0371099 0.0601358 0.0503853
0.035996 0.0581674 0.0471656
0.0411231 0.0558175 0.0459449
0.0490883 0.0532082 0.0443122
0.0583658 0.0533455 0.045304
0.0712291 0.0549783 0.0464332
0.091371 0.055375 0.0466926
0.118044 0.0535744 0.046952
0.149218 0.0492561 0.0461433
0.192584 0.0443427 0.0476234
0.245441 0.0380407 0.0519875
0.303548 0.0352789 0.0585946
0.360891 0.0352789 0.0683757
0.419135 0.0354314 0.0795453
0.477241 0.0345922 0.0932937
0.528847 0.0336767 0.11043
0.568627 0.0385595 0.126452
0.615152 0.0483558 0.151324
0.659281 0.0618753 0.181064
0.659281 0.0618753 0.181048
0.659281 0.0618753 0.181048
0.660166 0.0620279 0.181689
0.662013 0.0623178 0.18291
0.663233 0.0624247 0.184161
0.664012 0.0624857 0.185016
0.664698 0.062623 0.185809
0.665171 0.0627604 0.186511
0.665766 0.0629435 0.18732
0.6663 0.0631418 0.188174
0.667018 0.063447 0.189334
0.66772 0.0637675 0.190463
0.0407721 0.076524 0.0585641
0.0407263 0.0769055 0.0590677
0.0394598 0.0750286 0.0550088
0.0380713 0.0727398 0.0514534
0.0413672 0.0698558 0.0501564
0.0507057 0.065919 0.0474403
0.0609751 0.064622 0.0460975
0.075639 0.0657664 0.0478981
0.0939803 0.0673533 0.0489815
0.122087 0.0655985 0.0520943
0.15555 0.0619059 0.0513924
0.196033 0.054902 0.0513161
0.242451 0.0448768 0.0520638
0.300252 0.0378424 0.0576181
0.358083 0.0354925 0.067628
0.417014 0.0354009 0.0790723
0.475456 0.0347295 0.0931106
0.527855 0.0338903 0.110384
0.568215 0.0387121 0.126726
0.613748 0.0480049 0.150622
0.659495 0.0619669 0.18143
0.65948 0.0619669 0.181415
0.65948 0.0619516 0.181399
0.659464 0.0619516 0.181399
0.659464 0.0619516 0.181399
0.65948 0.0619516 0.181399
0.65948 0.0619669 0.181415
0.65951 0.0619669 0.18146
0.659556 0.0619974 0.181537
0.659678 0.0620584 0.181735
0.659861 0.06215 0.18201
0.660227 0.0623331 0.182589
0.660624 0.0625162 0.183322
0.0422065 0.0938277 0.0621958
0.0420691 0.0943313 0.0628214
0.0409552 0.0928054 0.0584726
0.0398108 0.0909285 0.0552071
0.0410925 0.0888228 0.0545663
0.0524605 0.0852674 0.0521706
0.0621653 0.0820935 0.0497139
0.0786755 0.0822309 0.0484016
0.0995651 0.0834516 0.0504158
0.123766 0.0847334 0.0530251
0.161669 0.0804608 0.0567178
0.208713 0.0732738 0.058732
0.255116 0.063508 0.0577401
0.303441 0.0495155 0.058732
0.355917 0.0381933 0.0660105
0.414099 0.0355383 0.0784924
0.473274 0.0347906 0.0926223
0.526696 0.0341192 0.11014
0.567178 0.0386969 0.126513
0.611994 0.0474098 0.149874
0.659617 0.0620279 0.181659
0.659617 0.0620279 0.181659
0.659617 0.0620279 0.181659
0.659617 0.0620279 0.181659
0.659617 0.0620279 0.181659
0.659617 0.0620279 0.181659
0.659617 0.0620279 0.181659
0.659617 0.0620279 0.181659
0.659632 0.0620279 0.181674
0.659709 0.0620737 0.181796
0.659876 0.0621653 0.182025
0.660227 0.0623331 0.182589
0.660624 0.0625162 0.183322
0.0429694 0.114321 0.0671855
0.0427405 0.11487 0.0681163
0.0420539 0.11342 0.0629587
0.0412146 0.111711 0.0578317
0.0413977 0.11017 0.0561074
0.0484627 0.107698 0.0551766
0.0629129 0.104067 0.052491
0.0790723 0.102266 0.0500496
0.102296 0.103334 0.0488441
0.129549 0.104891 0.0510872
0.163317 0.105303 0.0558022
0.212375 0.0992752 0.0607767
0.275837 0.0868086 0.0663615
0.3234 0.0749065 0.0665293
0.368582 0.0572824 0.0674449
0.412375 0.0379339 0.0757763
0.47042 0.0348669 0.0915847
0.524651 0.0342718 0.109545
0.565652 0.0384985 0.12604
0.609735 0.0469825 0.148577
0.659648 0.0620432 0.181704
0.659648 0.0620432 0.181704
0.659648 0.0620432 0.181704
0.659648 0.0620432 0.181704
0.659648 0.0620432 0.181704
0.659648 0.0620432 0.181704
0.659648 0.0620432 0.181704
0.659648 0.0620432 0.181704
0.659648 0.0620432 0.181704
0.659724 0.0620737 0.181811
0.659876 0.0621653 0.18204
0.660227 0.0623331 0.182589
0.660624 0.0625162 0.183322
0.042649 0.138842 0.0728618
0.042298 0.139452 0.0738994
0.0428168 0.138201 0.0677501
0.0424048 0.136889 0.0607004
0.0429084 0.135256 0.0560922
0.0445106 0.13344 0.0556802
0.0573129 0.130709 0.0542306
0.075639 0.127398 0.051957
0.101869 0.126131 0.0487678
0.131304 0.12784 0.0470741
0.167529 0.129976 0.0499428
0.214435 0.128893 0.0585184
0.276493 0.120729 0.0658274
0.347204 0.105257 0.0737469
0.3991 0.0897688 0.0778973
0.438392 0.0689097 0.0784314
0.478645 0.0415045 0.0859388
0.523613 0.0354162 0.106889
0.563546 0.038407 0.125521
0.607294 0.0463569 0.147066
0.659648 0.0620432 0.181704
0.659648 0.0620432 0.181704
0.659648 0.0620432 0.181704
0.659648 0.0620432 0.181704
0.659648 0.0620432 0.181704
0.659648 0.0620432 0.181704
0.659648 0.0620432 0.181704
0.659648 0.0620432 0.181704
0.659648 0.0620432 0.181704
0.659724 0.0620737 0.181811
0.659876 0.0621653 0.18204
0.660227 0.0623331 0.182589
0.660624 0.0625162 0.183322
0.0399939 0.169421 0.0799878
0.0393988 0.17026 0.0810254
0.0414893 0.168994 0.0732128
0.0420844 0.167254 0.064744
0.0437781 0.165621 0.0571145
0.045243 0.163973 0.0539406
0.0480049 0.162325 0.0531624
0.0648508 0.159976 0.0508125
0.0938582 0.156832 0.0487526
0.129076 0.156207 0.0455634
0.167239 0.158282 0.0429236
0.21619 0.160906 0.0470588
0.278645 0.159213 0.062501
0.350179 0.148684 0.072755
0.42153 0.131594 0.0827649
0.479225 0.109636 0.0909133
0.513481 0.0850538 0.0911421
0.544244 0.0487831 0.0985428
0.567529 0.0363317 0.118379
0.605844 0.0451362 0.144488
0.659648 0.0620432 0.181704
0.659648 0.0620432 0.181704
0.659648 0.0620432 0.181704
0.659648 0.0620432 0.181704
0.659648 0.0620432 0.181704
0.659648 0.0620432 0.181704
0.659648 0.0620432 0.181704
0.659648 0.0620432 0.181704
0.659648 0.0620432 0.181704
0.659724 0.0620737 0.181811
0.659876 0.0621653 0.18204
0.660227 0.0623331 0.182589
0.660624 0.0625162 0.183322
0.0334478 0.20557 0.0859693
0.0329595 0.206439 0.0872358
0.0351873 0.205005 0.0789807
0.0370642 0.20322 0.0694133
0.0404212 0.201526 0.0595254
0.0445258 0.199832 0.0509194
0.0454719 0.19884 0.0486152
0.0483101 0.197375 0.0473182
0.0711376 0.194461 0.0434119
0.114382 0.192691 0.041001
0.16083 0.192996 0.0383917
0.212619 0.195956 0.0351873
0.27837 0.200458 0.0395819
0.348562 0.199634 0.0636759
0.427878 0.186938 0.081239
0.499092 0.169757 0.0940566
0.562203 0.140215 0.105898
0.592798 0.108965 0.106691
0.613153 0.0618601 0.115648
0.619318 0.0395056 0.1308
0.637675 0.052079 0.160021
0.654002 0.0608682 0.176959
0.658763 0.0618906 0.180926
0.659648 0.0620432 0.181704
0.659648 0.0620432 0.181704
0.659648 0.0620432 0.181704
0.659648 0.0620432 0.181704
0.659648 0.0620432 0.181704
0.659648 0.0620432 0.181704
0.659724 0.0620737 0.181811
0.659876 0.0621653 0.18204
0.660227 0.0623331 0.182589
0.660624 0.0625162 0.183322
0.0238041 0.246021 0.08925
0.0228885 0.246921 0.0907607
0.026688 0.245777 0.0831311
0.0298924 0.244251 0.074342
0.032929 0.243015 0.0647593
0.0381018 0.241382 0.053193
0.043946 0.239673 0.0419165
0.0453193 0.238178 0.0390784
0.0485695 0.236149 0.037232
0.0786145 0.233722 0.0301823
0.13962 0.234333 0.0273289
0.199847 0.23624 0.0256962
0.268559 0.241169 0.0225681
0.348379 0.246906 0.0293126
0.418112 0.250584 0.0603494
0.506813 0.237308 0.0916762
0.58233 0.219516 0.108934
0.647715 0.184253 0.125292
0.676341 0.142687 0.128954
0.681727 0.0811475 0.135821
0.665415 0.0448768 0.140719
0.662608 0.0459144 0.153689
0.639109 0.0436713 0.148699
0.634455 0.0485847 0.155489
0.643229 0.0555886 0.166766
0.649439 0.0599374 0.173983
0.653223 0.0610819 0.176745
0.655543 0.0615091 0.178576
0.65713 0.0617227 0.179797
0.658259 0.0619059 0.180804
0.659022 0.0621042 0.181643
0.659754 0.0623178 0.18233
0.660716 0.0620737 0.182513
0.0132906 0.288884 0.0933089
0.0122988 0.28983 0.0950484
0.0169223 0.289006 0.0874647
0.0210727 0.288396 0.0793164
0.0251621 0.287388 0.0705577
0.028687 0.286442 0.0614939
0.034287 0.28513 0.0498207
0.0421149 0.283192 0.0343175
0.0446174 0.281529 0.0295262
0.0497444 0.279026 0.0245823
0.0900282 0.27747 0.0113985
0.168658 0.280491 0.010071
0.246632 0.284749 0.0103304
0.330007 0.292363 0.00875868
0.419257 0.299275 0.0182956
0.489158 0.310063 0.0540932
0.584924 0.300282 0.101625
0.666819 0.279622 0.127184
0.736385 0.240894 0.151064
0.762036 0.192752 0.158831
0.743893 0.133974 0.158068
0.713726 0.0918441 0.147326
0.692714 0.0676432 0.141375
0.676951 0.0535744 0.13843
0.67068 0.0476692 0.142412
0.667872 0.0450446 0.146044
0.666209 0.0442054 0.147997
0.664637 0.0432898 0.150134
0.66453 0.0440528 0.152728
0.664591 0.0448157 0.154162
0.665476 0.045594 0.155703
0.666117 0.0460975 0.155413
0.672755 0.0527504 0.155947
0.0015259 0.332631 0.102403
3.0518e-05 0.333684 0.104616
0.0053254 0.333562 0.0970779
0.0107271 0.333089 0.0888991
0.0156405 0.332509 0.0804761
0.0203708 0.331777 0.0717937
0.024445 0.33109 0.0635691
0.0299535 0.330388 0.0522164
0.0406043 0.328389 0.0332189
0.0440986 0.326513 0.0268864
0.0521706 0.322896 0.0166171
0.10753 0.321706 0
0.206424 0.327611 0
0.299825 0.335561 0
0.392523 0.345861 0
0.49015 0.355062 0.0138094
0.563134 0.370962 0.0523842
0.663508 0.366873 0.112566
0.750744 0.348974 0.150774
0.822446 0.311116 0.184192
0.832731 0.269566 0.19382
0.816876 0.237507 0.186221
0.800046 0.211749 0.178637
0.784558 0.188571 0.172107
0.772015 0.170321 0.167529
0.762112 0.156512 0.163775
0.753674 0.145602 0.159808
0.749218 0.136889 0.161349
0.745769 0.132189 0.159655
0.743648 0.129305 0.158251
0.745052 0.130907 0.158328
0.751019 0.138293 0.16112
0.758892 0.150668 0.162219
0 0.380179 0.121889
0 0.381628 0.124514
0 0.381323 0.117128
0.000564584 0.381048 0.109071
0.0065919 0.380636 0.100435
0.012665 0.380148 0.0915389
0.0183261 0.379904 0.0828107
0.0238499 0.379568 0.0735943
0.0306249 0.378897 0.0611124
0.0436561 0.376806 0.038819
0.0472267 0.37464 0.0315099
0.0594797 0.369574 0.01355
0.12961 0.369909 0
0.249729 0.378866 0
0.357412 0.389731 0
0.45687 0.402426 0
0.561639 0.414694 0.0189212
0.641291 0.434348 0.0597391
0.742153 0.438148 0.132006
0.829068 0.424094 0.178943
0.883848 0.391608 0.215702
0.888609 0.36257 0.223758
0.880751 0.343832 0.220356
0.873945 0.328923 0.217212
0.86743 0.316213 0.213809
0.862272 0.307012 0.21091
0.858549 0.300786 0.208865
0.856168 0.2972 0.207416
0.855467 0.296849 0.206638
0.856046 0.299016 0.206485
0.857649 0.302892 0.206989
0.861158 0.310094 0.208667
0.866148 0.320104 0.211154
0 0.433234 0.153536
0 0.434623 0.15642
0 0.434348 0.149569
0 0.433921 0.141955
0 0.433707 0.133959
0.00315862 0.43389 0.125628
0.0102541 0.4336 0.116747
0.0178073 0.433295 0.107195
0.0268711 0.432761 0.0946365
0.0364843 0.432044 0.0792706
0.0510567 0.430533 0.0547036
0.0550546 0.428656 0.0473945
0.0738079 0.421622 0.0179294
0.153338 0.423133 0
0.298711 0.435019 0
0.419287 0.448753 0
0.525582 0.464317 0.00418097
0.63415 0.478904 0.0364233
0.717891 0.500847 0.0836805
0.814038 0.512062 0.158312
0.885237 0.502113 0.205417
0.915419 0.481376 0.230076
0.915709 0.466361 0.231739
0.91426 0.454932 0.231968
0.912795 0.445548 0.231968
0.911452 0.438972 0.231632
0.910613 0.434852 0.231464
0.910155 0.432929 0.231312
0.910124 0.433387 0.231174
0.910338 0.435004 0.231067
0.910857 0.438636 0.230976
0.912077 0.44509 0.23125
0.913375 0.454047 0.231342
0 0.494652 0.2
0 0.49633 0.204211
0 0.496117 0.197024
0 0.495857 0.1897
0 0.495827 0.182635
0 0.495277 0.17438
0 0.494759 0.165759
0.00590524 0.494408 0.15671
0.016022 0.493843 0.1449
0.0287785 0.493248 0.128222
0.0426184 0.492622 0.107546
0.0579232 0.491173 0.0836194
0.0610971 0.488518 0.076585
0.0907759 0.480232 0.0306249
0.185016 0.48423 0
0.353658 0.498451 0
0.487572 0.514443 0.0102998
0.595712 0.530037 0.0272068
0.702373 0.545144 0.0679179
0.788647 0.568368 0.120073
0.867216 0.586328 0.186816
0.909209 0.584772 0.219608
0.916426 0.575494 0.22475
0.916899 0.566705 0.22533
0.917082 0.559503 0.225711
0.917357 0.55465 0.226169
0.917357 0.551888 0.226246
0.917586 0.550134 0.226535
0.917632 0.549981 0.226566
0.917327 0.55111 0.226123
0.917342 0.55404 0.225971
0.917159 0.559182 0.225635
0.916991 0.56672 0.22536
0 0.562875 0.261326
0 0.564691 0.265278
0 0.565179 0.261326
0 0.566094 0.256458
0 0.5664 0.250782
0 0.56643 0.243458
0 0.566079 0.235309
0 0.56582 0.227359
0.00521859 0.565713 0.216678
0.0172427 0.563958 0.199939
0.0333257 0.561929 0.177768
0.0523079 0.560128 0.149187
0.066392 0.558328 0.12697
0.0701305 0.55494 0.118883
0.120165 0.547677 0.0526741
0.236728 0.554482 0.00929274
0.422858 0.569406 0.0193484
0.559457 0.584161 0.04065
0.664302 0.597772 0.0653849
0.766537 0.613413 0.110475
0.848402 0.635691 0.16788
0.902586 0.655344 0.216403
0.919341 0.655268 0.231159
0.918486 0.649958 0.229862
0.917739 0.64538 0.228748
0.917494 0.642939 0.228305
0.917189 0.640726 0.227832
0.917082 0.639506 0.227634
0.917037 0.639323 0.227588
0.917174 0.640345 0.227787
0.917418 0.642588 0.228199
0.917845 0.646418 0.228885
0.918669 0.651469 0.230152
0.00842298 0.635309 0.324788
0.00965896 0.637629 0.329366
0.0087892 0.638163 0.326207
0.00779736 0.638621 0.322728
0.00680552 0.639078 0.3187
0.00593576 0.639475 0.314778
0.00500496 0.639979 0.310185
0.00430304 0.640864 0.306447
0.00544747 0.640864 0.299199
0.0112001 0.640009 0.286717
0.0214237 0.638666 0.268772
0.0403754 0.636164 0.241489
0.0643168 0.633616 0.205814
0.074876 0.630838 0.188876
0.0846113 0.624933 0.169467
0.162844 0.618494 0.0871138
0.311574 0.628824 0.0476692
0.500633 0.641947 0.0629282
0.630701 0.654475 0.0847334
0.73109 0.666972 0.11693
0.823453 0.681361 0.1635
0.895735 0.69955 0.21709
0.934386 0.715206 0.251759
0.937423 0.7131 0.254307
0.935943 0.710033 0.252705
0.935058 0.707668 0.251667
0.934401 0.705913 0.250919
0.934096 0.704952 0.250553
0.934096 0.704829 0.250553
0.9346 0.706096 0.25124
0.935271 0.707759 0.252094
0.936507 0.710552 0.253605
0.938613 0.714672 0.256031
0.0373541 0.701335 0.392676
0.0386358 0.702968 0.396231
0.0383001 0.703548 0.394583
0.0377966 0.704067 0.392386
0.0372778 0.704601 0.389685
0.0367895 0.705135 0.387045
0.0365759 0.706065 0.384878
0.0360113 0.706432 0.381796
0.0352636 0.706691 0.377646
0.0339208 0.706645 0.371099
0.0320897 0.706218 0.360601
0.0349889 0.705882 0.343282
0.0439307 0.704189 0.314244
0.0647593 0.701625 0.278691
0.0673838 0.698207 0.270253
0.100755 0.687755 0.216556
0.218723 0.684932 0.115984
0.395422 0.695445 0.100252
0.572625 0.707088 0.117968
0.694347 0.719493 0.14316
0.791959 0.733074 0.18114
0.872648 0.746242 0.223255
0.930983 0.761547 0.267048
0.956634 0.769451 0.289021
0.95642 0.7664 0.287541
0.955978 0.763973 0.286229
0.955367 0.762295 0.285023
0.955047 0.761318 0.284382
0.955016 0.761517 0.284459
0.955139 0.762173 0.284825
0.955535 0.763684 0.285756
0.956039 0.766155 0.287144
0.956527 0.769635 0.288945
0.0729839 0.754177 0.462043
0.0745403 0.755627 0.465721
0.0744793 0.75613 0.464714
0.0743877 0.756619 0.463447
0.0747539 0.757458 0.462791
0.0746777 0.757946 0.461295
0.0745556 0.758373 0.459586
0.0745098 0.758801 0.457908
0.0740826 0.759045 0.455283
0.0731975 0.75903 0.450721
0.0719463 0.758938 0.444343
0.0695811 0.757946 0.433402
0.0661784 0.75613 0.416632
0.0656138 0.75378 0.389715
0.0666361 0.751186 0.371893
0.0689097 0.746456 0.352422
0.127687 0.736538 0.2439
0.285512 0.737163 0.164752
0.468376 0.743587 0.163195
0.6327 0.758251 0.186877
0.749905 0.774868 0.21442
0.844221 0.790753 0.252857
0.914199 0.803204 0.288716
0.953994 0.81445 0.316732
0.960632 0.81474 0.320546
0.960143 0.812451 0.318318
0.959823 0.810895 0.316793
0.959625 0.810529 0.316213
0.959487 0.810513 0.315892
0.959045 0.81091 0.315831
0.958755 0.812085 0.316503
0.958373 0.81413 0.317693
0.957946 0.817487 0.319814
0.109102 0.792721 0.526268
0.110201 0.793576 0.528786
0.110277 0.793957 0.528435
0.110262 0.794263 0.52784
0.11014 0.794446 0.527123
0.109865 0.794522 0.526085
0.109697 0.794659 0.524987
0.109514 0.794812 0.523751
0.109163 0.794842 0.52195
0.108537 0.794827 0.519356
0.107179 0.794308 0.514275
0.105013 0.793362 0.506889
0.101793 0.791791 0.495674
0.0974136 0.789517 0.47921
0.0936446 0.787289 0.464485
0.0902266 0.78436 0.454994
0.088365 0.775784 0.394034
0.165011 0.77203 0.277165
0.361791 0.769085 0.228061
0.530434 0.778378 0.236561
0.685573 0.798901 0.269276
0.797818 0.819821 0.299229
0.883909 0.836545 0.333577
0.942672 0.848127 0.360586
0.964279 0.85359 0.371435
0.964401 0.851835 0.368582
0.964126 0.850492 0.366003
0.964004 0.849622 0.364538
0.964126 0.849515 0.364096
0.964157 0.849867 0.36466
0.964263 0.850782 0.36614
0.964416 0.852552 0.369192
0.964492 0.85478 0.373266
0.126497 0.808057 0.559533
0.127031 0.808347 0.561059
0.126497 0.808164 0.559655
0.12604 0.807996 0.55848
0.125475 0.807752 0.556893
0.124865 0.807446 0.555215
0.124178 0.807126 0.553277
0.123476 0.80679 0.551247
0.122621 0.806348 0.548989
0.121309 0.805692 0.545159
0.119509 0.804791 0.539986
0.117052 0.80351 0.53254
0.113664 0.801801 0.522255
0.109209 0.799512 0.507881
0.104112 0.796719 0.489357
0.103182 0.796078 0.486686
0.0990616 0.793896 0.470314
0.104799 0.790249 0.401099
0.223148 0.787213 0.306249
0.42977 0.786267 0.294896
0.595148 0.805783 0.323415
0.743358 0.832456 0.364355
0.842542 0.854032 0.391546
0.915541 0.87042 0.419364
0.963272 0.88043 0.442603
0.96846 0.880674 0.440864
0.968719 0.879499 0.436973
0.968688 0.878752 0.434363
0.968597 0.878447 0.433051
0.968643 0.878645 0.433249
0.968765 0.879484 0.435279
0.968627 0.880552 0.43801
0.968368 0.881773 0.442573
0.128115 0.808927 0.563973
0.128588 0.809171 0.565316
0.128054 0.808957 0.563851
0.127504 0.808713 0.56257
0.126925 0.808469 0.560983
0.126345 0.808209 0.55938
0.125689 0.807904 0.557504
0.125002 0.807523 0.555627
0.124041 0.807065 0.55285
0.122759 0.806409 0.549401
0.120897 0.805493 0.543923
0.118441 0.804227 0.536538
0.115038 0.802502 0.526482
0.110567 0.800214 0.51223
0.104814 0.797147 0.492439
0.103685 0.796475 0.488029
0.103075 0.796521 0.484062
0.0995041 0.793362 0.435279
0.172351 0.791608 0.335698
0.377691 0.787182 0.313466
0.53431 0.802945 0.345937
0.69395 0.832578 0.397009
0.813245 0.859602 0.445045
0.886458 0.878386 0.476646
0.943236 0.893416 0.511086
0.96408 0.898344 0.523598
0.965255 0.898009 0.521096
0.965499 0.89778 0.519219
0.965652 0.897887 0.518853
0.965728 0.898375 0.520272
0.965805 0.899107 0.522408
0.965759 0.899519 0.523949
0.965637 0.899641 0.524742
0.129534 0.809735 0.567956
0.1299 0.809918 0.569009
0.129305 0.809628 0.567361
0.128771 0.809384 0.565911
0.12813 0.80911 0.564202
0.127489 0.808774 0.5626
0.126818 0.808454 0.560678
0.126162 0.808133 0.558907
0.1252 0.80763 0.556176
0.123842 0.806973 0.5523
0.122011 0.806043 0.547204
0.119478 0.804776 0.539895
0.11606 0.803021 0.529458
0.111635 0.800748 0.515694
0.105852 0.797711 0.496056
0.103685 0.796475 0.48806
0.103334 0.796384 0.486275
0.0999466 0.794034 0.444312
0.155764 0.792569 0.350027
0.350729 0.786801 0.31487
0.513024 0.800122 0.341741
0.666239 0.827832 0.391043
0.796353 0.856458 0.444022
0.871473 0.875883 0.477409
0.929168 0.891798 0.511315
0.960388 0.900877 0.537163
0.964172 0.901915 0.540398
0.964157 0.90193 0.540337
0.964126 0.901991 0.540566
0.96405 0.902113 0.540993
0.964019 0.902159 0.541115
0.964004 0.90219 0.541161
0.964004 0.90219 0.541161
0.130617 0.810361 0.571038
0.130953 0.810544 0.571862
0.130312 0.810178 0.570199
0.129656 0.809842 0.568383
0.129107 0.809598 0.566934
0.12842 0.809262 0.565026
0.127733 0.808896 0.563256
0.127001 0.808545 0.561212
0.12607 0.808087 0.558663
0.124697 0.80737 0.554726
0.12285 0.806455 0.549676
0.120272 0.805173 0.542336
0.116838 0.803403 0.531838
0.112367 0.801129 0.518013
0.106569 0.798077 0.498573
0.103685 0.796475 0.488029
0.103288 0.796368 0.486046
