bundles/resolve-cinematic-luts/Phantom Luts/S5ii LUTs/Standard (No WB Offset)/S5ii IceBlue V-Log Legacy.cube
TITLE "Generated by Resolve"
LUT_3D_SIZE 33
0.0413977 0.0534676 0.0553597
0.041413 0.0534524 0.0553292
0.0414282 0.0534524 0.0552987
0.0469825 0.0536812 0.0560616
0.0568551 0.0540932 0.0553597
0.0674296 0.0552987 0.054902
0.0788281 0.0560769 0.0541695
0.0914778 0.0567178 0.0542763
0.106508 0.0568246 0.0539864
0.127199 0.0569772 0.0539559
0.155612 0.0563668 0.0529335
0.191241 0.0550698 0.0514992
0.235645 0.0534981 0.0504311
0.289998 0.053254 0.0531014
0.349096 0.0539559 0.0577554
0.407309 0.0546426 0.0650187
0.462547 0.0551156 0.0731212
0.502831 0.0558938 0.0810712
0.529 0.0564279 0.0867323
0.575677 0.0661479 0.116197
0.622644 0.0797894 0.151461
0.632761 0.0824445 0.158587
0.63331 0.0825818 0.159823
0.633814 0.0827344 0.160876
0.634287 0.082887 0.161822
0.634653 0.0829938 0.1626
0.634928 0.0831006 0.163058
0.635279 0.0831159 0.163989
0.63566 0.0830243 0.16527
0.636439 0.0826734 0.168276
0.637369 0.0822003 0.171893
0.638911 0.0812848 0.178592
0.640513 0.0803235 0.18558
0.0415351 0.0533608 0.0549935
0.041474 0.0534218 0.0551766
0.0414435 0.0534524 0.0552682
0.0449226 0.0535286 0.0557717
0.0543832 0.0539864 0.0558022
0.0648356 0.0549783 0.0550393
0.0761578 0.055848 0.0543679
0.089189 0.0565957 0.0545357
0.104906 0.0567483 0.054139
0.126741 0.057023 0.0541848
0.156435 0.0563363 0.053315
0.193835 0.0549172 0.0519875
0.239704 0.0533303 0.050721
0.294362 0.0525521 0.0514534
0.352621 0.0524758 0.0538949
0.409689 0.0526741 0.0592355
0.464363 0.0532235 0.0677348
0.509667 0.0554971 0.0828107
0.528939 0.055024 0.0841077
0.579034 0.0676432 0.117296
0.624506 0.0802777 0.151278
0.631907 0.0821851 0.156802
0.632425 0.0823377 0.157855
0.632898 0.082475 0.158862
0.633295 0.0825971 0.159731
0.633631 0.0826886 0.160494
0.633906 0.0827649 0.161074
0.634241 0.0827802 0.161975
0.634607 0.0827192 0.163073
0.635386 0.0823529 0.166049
0.636332 0.0818647 0.169696
0.637934 0.0809491 0.176394
0.639506 0.0800031 0.183383
0.0415351 0.0533608 0.0549935
0.041474 0.0534218 0.0551766
0.0414435 0.0534524 0.0552682
0.041474 0.0534218 0.0551614
0.0496071 0.0544442 0.0562905
0.059968 0.055375 0.055314
0.0712902 0.0563821 0.0551308
0.0846418 0.0571145 0.0549935
0.100862 0.0570993 0.0545968
0.123415 0.0571145 0.0544442
0.153811 0.0563821 0.0535592
0.192157 0.0549477 0.0524453
0.238895 0.0533761 0.0515908
0.294118 0.0524605 0.0517586
0.352636 0.0521401 0.0534829
0.409903 0.052079 0.0574197
0.463233 0.0521096 0.064271
0.505928 0.0532387 0.0766613
0.537163 0.0565652 0.0901045
0.56614 0.0633555 0.106096
0.620081 0.0792706 0.145617
0.629801 0.0815595 0.153246
0.630961 0.0818952 0.155215
0.631662 0.0821088 0.15642
0.632136 0.0822461 0.157305
0.632441 0.0823529 0.15787
0.632685 0.082414 0.158434
0.633005 0.082414 0.159335
0.633371 0.0823377 0.160555
0.634119 0.0819867 0.163317
0.635111 0.0814679 0.167102
0.636744 0.0805371 0.17377
0.638315 0.0795911 0.180743
0.0415351 0.0533608 0.0549935
0.041474 0.0534218 0.0552071
0.0414282 0.0534524 0.0552987
0.0414282 0.0534524 0.0552834
0.0449836 0.0544594 0.0559091
0.0547189 0.0561837 0.0566873
0.0647593 0.0577554 0.0562905
0.0773938 0.0588693 0.0560311
0.0941634 0.0589609 0.0555581
0.117021 0.0585641 0.055436
0.148516 0.0572061 0.0542763
0.188388 0.0552377 0.0526589
0.236332 0.0533303 0.0518502
0.292088 0.0523537 0.0523842
0.351537 0.0520638 0.0541848
0.409812 0.0520027 0.0578622
0.463294 0.0521401 0.0644999
0.505394 0.0529946 0.075761
0.535805 0.0558938 0.0881361
0.563485 0.0616159 0.102617
0.609583 0.0760815 0.135775
0.623362 0.0801099 0.146166
0.626825 0.0809491 0.149783
0.628656 0.0813306 0.151827
0.629847 0.0815747 0.153429
0.63061 0.0817884 0.154635
0.631098 0.0819409 0.155535
0.63151 0.0819715 0.156435
0.631968 0.0819104 0.157702
0.632776 0.0815442 0.160662
0.633753 0.0810559 0.164263
0.635401 0.0801404 0.170901
0.637049 0.0791638 0.177874
0.0425116 0.059144 0.0577859
0.042298 0.0589609 0.0567788
0.0425116 0.0585489 0.0566415
0.0436866 0.0577859 0.0563668
0.0452735 0.0569924 0.0564126
0.0514839 0.0582437 0.057496
0.0594186 0.0594797 0.0576486
0.0699016 0.0603647 0.0570993
0.0861067 0.0608225 0.0567483
0.108492 0.0608072 0.0565957
0.139834 0.0594034 0.0556344
0.181827 0.0569467 0.0539559
0.231464 0.0539559 0.052018
0.289448 0.0523232 0.0525368
0.350347 0.0520333 0.0549172
0.408576 0.0518654 0.0586404
0.462516 0.0520485 0.0649729
0.504906 0.052842 0.0757
0.536004 0.0559854 0.0884413
0.561837 0.0609751 0.10135
0.607065 0.0748913 0.132891
0.61915 0.0792248 0.142031
0.620768 0.0795605 0.143496
0.622019 0.0797742 0.144976
0.623087 0.0800336 0.146044
0.625483 0.0805982 0.148394
0.626932 0.0810101 0.149966
0.627909 0.081117 0.1514
0.628672 0.0810712 0.15288
0.629755 0.080766 0.155932
0.630884 0.0802777 0.159686
0.632547 0.0793927 0.166308
0.634379 0.0784161 0.173404
0.0445411 0.068925 0.0643015
0.0440986 0.068452 0.062211
0.0438849 0.0676738 0.0615244
0.0462806 0.0661326 0.0606394
0.0493935 0.064332 0.0593118
0.0532692 0.0636301 0.0590677
0.0602579 0.0646525 0.0604257
0.0695964 0.0650339 0.0606546
0.084184 0.0653544 0.0606088
0.104662 0.064622 0.0590066
0.133379 0.0626841 0.0577554
0.173861 0.0597391 0.0555886
0.22504 0.0562905 0.0534829
0.285466 0.0530404 0.0523995
0.348119 0.0520943 0.0551156
0.406867 0.0517433 0.0593576
0.461875 0.0518044 0.06598
0.504448 0.0525673 0.0764477
0.536461 0.0560006 0.0893873
0.560571 0.0605478 0.100633
0.607477 0.0750286 0.133227
0.618662 0.0791028 0.141649
0.618662 0.0791028 0.141634
0.618662 0.0791028 0.141634
0.618891 0.0791638 0.141817
0.620386 0.0794995 0.14313
0.621302 0.0796521 0.144076
0.621866 0.0796368 0.145159
0.622415 0.0795605 0.146456
0.623316 0.0792248 0.149126
0.624491 0.0787671 0.152758
0.626276 0.0779126 0.159182
0.628122 0.0769513 0.166232
0.0459602 0.0791485 0.0696727
0.0454414 0.0787976 0.0675517
0.0451209 0.0780194 0.0663005
0.0468299 0.0762798 0.0652171
0.0517739 0.07364 0.0639353
0.0564889 0.0717021 0.0630198
0.0626993 0.0719615 0.0627909
0.0721447 0.0725567 0.0631113
0.0866255 0.0733806 0.0644541
0.108354 0.0722057 0.0641489
0.136873 0.0702525 0.061387
0.174395 0.0658732 0.0579843
0.221302 0.0602121 0.0554208
0.28098 0.055314 0.0531624
0.345068 0.0525521 0.0547951
0.404807 0.0517433 0.0593729
0.460761 0.0516823 0.0665751
0.50454 0.0523232 0.0779583
0.537133 0.0558022 0.0916152
0.560143 0.0598611 0.102281
0.608438 0.0747234 0.135927
0.619333 0.0787213 0.144167
0.619303 0.0787366 0.14406
0.619287 0.0787518 0.144015
0.619303 0.0787518 0.14403
0.619318 0.0787366 0.144106
0.619364 0.078706 0.144274
0.61944 0.0786755 0.144564
0.619532 0.0786145 0.144915
0.619852 0.0784314 0.146136
0.62034 0.0781415 0.148074
0.621302 0.0775921 0.151797
0.622385 0.0769818 0.155932
0.0473487 0.0927749 0.0742199
0.0464942 0.0924849 0.0717327
0.0459907 0.091722 0.0702983
0.0461433 0.0903639 0.0699016
0.0517128 0.0876631 0.0681926
0.057847 0.0842145 0.0666361
0.0640116 0.083299 0.0656596
0.0742046 0.0843061 0.064622
0.0889296 0.0851148 0.0654459
0.110185 0.0850538 0.0674754
0.143069 0.0826429 0.0672923
0.185855 0.0776532 0.0643015
0.23183 0.0712139 0.0596475
0.283803 0.0621653 0.0567483
0.342351 0.0548104 0.0546731
0.402762 0.0519417 0.0590372
0.459434 0.0516976 0.0664073
0.5037 0.0522774 0.0778058
0.537301 0.0558328 0.0924086
0.558648 0.059266 0.101961
0.609079 0.0746624 0.137362
0.619684 0.0785229 0.145525
0.619684 0.0785229 0.145525
0.619684 0.0785229 0.145525
0.619684 0.0785229 0.145525
0.619684 0.0785229 0.145525
0.619684 0.0785229 0.145525
0.619684 0.0785229 0.145525
0.619684 0.0785229 0.145525
0.619913 0.0784009 0.14641
0.620356 0.0781415 0.14815
0.621302 0.0775921 0.151797
0.622385 0.0769818 0.155932
0.0478065 0.110399 0.0791028
0.0469215 0.110384 0.0760662
0.0464332 0.109773 0.073167
0.0463264 0.10898 0.0722667
0.0490883 0.107179 0.0718242
0.0578927 0.10367 0.0704662
0.0650339 0.10042 0.0687724
0.0757153 0.100206 0.0674449
0.0903792 0.101442 0.0648814
0.112306 0.102846 0.0659648
0.14548 0.101991 0.0690929
0.190158 0.0973526 0.0688792
0.248341 0.0882429 0.0663767
0.302464 0.0788739 0.0617075
0.355001 0.0668498 0.0596323
0.40383 0.0553902 0.0588083
0.457221 0.0519722 0.0660258
0.502174 0.0522621 0.0772564
0.537057 0.0559396 0.0925612
0.556359 0.058732 0.10045
0.60972 0.0748608 0.13785
0.619684 0.0785229 0.145525
0.619699 0.0785229 0.145525
0.619699 0.0785229 0.145525
0.619715 0.0785229 0.145525
0.619715 0.0785229 0.145525
0.61973 0.0785229 0.145525
0.61973 0.0785229 0.145525
0.619715 0.0785229 0.145525
0.619944 0.0783856 0.14641
0.620371 0.0781262 0.14815
0.621317 0.0775921 0.151797
0.622385 0.0769818 0.155932
0.0478676 0.13402 0.0846723
0.0472725 0.134432 0.080705
0.046952 0.134356 0.0762493
0.0471504 0.133394 0.0737011
0.0469215 0.132265 0.0733196
0.0530556 0.129854 0.0725719
0.0624704 0.126299 0.0715038
0.0749828 0.122972 0.0699474
0.0919661 0.122606 0.0673075
0.112596 0.124376 0.0638437
0.144732 0.125628 0.0639658
0.191989 0.123491 0.0684215
0.249439 0.116518 0.0694896
0.320638 0.103868 0.0682994
0.380819 0.0907301 0.0661173
0.426719 0.0760357 0.0640116
0.465995 0.0586099 0.0636606
0.502419 0.0532998 0.0757
0.536477 0.0559854 0.0926223
0.553277 0.057908 0.0984512
0.609857 0.0749065 0.137957
0.619684 0.0785229 0.145525
0.619699 0.0785229 0.145525
0.619699 0.0785229 0.145525
0.619715 0.0785229 0.145525
0.61973 0.0785229 0.145525
0.61973 0.0785229 0.145525
0.61973 0.0785229 0.145525
0.61973 0.0785229 0.145525
0.619944 0.0783856 0.146395
0.620371 0.0781262 0.14815
0.621317 0.0775921 0.151797
0.622385 0.0769818 0.155932
0.0471656 0.165942 0.0915236
0.0473182 0.166842 0.0866102
0.0468757 0.166903 0.0812543
0.0476997 0.166049 0.0757153
0.0482948 0.165042 0.0733654
0.0481727 0.163897 0.0732586
0.0548562 0.161929 0.0721294
0.0670787 0.158145 0.0708476
0.0876173 0.154025 0.0690166
0.113085 0.154055 0.0657511
0.143206 0.156481 0.0613107
0.188693 0.157336 0.0604562
0.250721 0.154482 0.0673838
0.322164 0.144305 0.0715648
0.395941 0.127977 0.0719615
0.457603 0.109438 0.0731823
0.496284 0.0918135 0.0708171
0.521553 0.0675822 0.0727398
0.540932 0.0567025 0.0865339
0.551598 0.0568399 0.0957351
0.609964 0.0749371 0.138048
0.619684 0.0785229 0.145525
0.619699 0.0785229 0.145525
0.619699 0.0785229 0.145525
0.619715 0.0785229 0.145525
0.61973 0.0785229 0.145525
0.61973 0.0785229 0.145525
0.61973 0.0785077 0.145525
0.61973 0.0785229 0.145525
0.619944 0.0783856 0.14641
0.620386 0.0781262 0.14815
0.621317 0.0775921 0.151797
0.6224 0.0769818 0.155932
0.0447547 0.205692 0.0993973
0.0451514 0.206729 0.0938277
0.0454719 0.206943 0.0878004
0.0467231 0.206195 0.0805982
0.0486915 0.205234 0.0741131
0.0495918 0.204456 0.071809
0.0495155 0.203494 0.07187
0.0550546 0.20174 0.0701762
0.0709697 0.19791 0.0675975
0.102098 0.19408 0.0656901
0.140383 0.194095 0.0617533
0.183093 0.19765 0.0563973
0.243473 0.199115 0.0547799
0.31899 0.196033 0.0645457
0.3991 0.184024 0.075288
0.470558 0.166949 0.0802777
0.531441 0.142412 0.0852369
0.561639 0.120897 0.0864424
0.575387 0.0872816 0.0891127
0.584054 0.0633249 0.0979019
0.582086 0.0614633 0.108553
0.610651 0.0760662 0.138064
0.617365 0.0779736 0.14342
0.619699 0.0785229 0.145571
0.619715 0.0785229 0.145541
0.61973 0.0785229 0.145525
0.61973 0.0785077 0.145525
0.619745 0.0785077 0.145541
0.619776 0.0784924 0.145663
0.619989 0.0783398 0.146609
0.620325 0.0780652 0.148272
0.621256 0.0775464 0.151873
0.622232 0.076936 0.15584
0.0421454 0.25272 0.108583
0.043061 0.254047 0.103471
0.0439612 0.254612 0.0970016
0.045243 0.254063 0.0902876
0.0473182 0.253803 0.0821241
0.0509804 0.252674 0.0735027
0.0527352 0.251759 0.0698253
0.0528725 0.250782 0.0702678
0.0569314 0.248768 0.0681163
0.0762798 0.245289 0.0628367
0.121096 0.242512 0.0601816
0.175494 0.244007 0.0557107
0.232029 0.248142 0.0497139
0.308019 0.25066 0.0479591
0.391333 0.249302 0.0607919
0.475517 0.238132 0.0829786
0.544594 0.22118 0.0941329
0.602213 0.194873 0.106218
0.627955 0.168963 0.112261
0.637278 0.123857 0.11281
0.628885 0.0740215 0.112947
0.620417 0.0646067 0.116793
0.618509 0.0675517 0.127459
0.589899 0.0614328 0.113481
0.595682 0.0664988 0.124956
0.605951 0.0722057 0.135943
0.611154 0.0752728 0.141512
0.614557 0.076112 0.144198
0.616876 0.0761273 0.14551
0.618463 0.0757153 0.145937
0.619577 0.074876 0.145403
0.620981 0.0737774 0.145205
0.622339 0.0715496 0.144625
0.04094 0.304677 0.120455
0.0425727 0.306371 0.115541
0.0444038 0.307515 0.110079
0.0462654 0.307988 0.103761
0.0479591 0.307988 0.0971847
0.0502632 0.307683 0.0897536
0.0542306 0.306722 0.0794995
0.0581674 0.30544 0.0701762
0.0583658 0.304601 0.0698405
0.0616617 0.30219 0.0663462
0.0853285 0.299138 0.0576028
0.146029 0.298039 0.0527352
0.217685 0.301488 0.0488594
0.289876 0.307805 0.0431525
0.377142 0.311849 0.0429084
0.461936 0.313207 0.0571145
0.548058 0.305684 0.0918898
0.618173 0.2907 0.114611
0.672587 0.264424 0.136233
0.704005 0.232547 0.148638
0.705928 0.187015 0.144732
0.686091 0.133852 0.135256
0.663844 0.102403 0.122667
0.647623 0.0839857 0.115572
0.640192 0.0773632 0.117342
0.63505 0.0734569 0.118883
0.631479 0.0712291 0.119783
0.630198 0.0711833 0.120974
0.63035 0.0720073 0.122484
0.633249 0.0754864 0.125063
0.638941 0.0814374 0.127123
0.646632 0.0882277 0.129671
0.658412 0.0991379 0.134554
0.04065 0.360006 0.138262
0.0430915 0.362295 0.133928
0.0455482 0.364111 0.12871
0.0481422 0.364675 0.122896
0.0507057 0.36492 0.116701
0.0529335 0.365011 0.110796
0.0551766 0.365011 0.104997
0.0591592 0.36495 0.0958267
0.0653849 0.36347 0.0827649
0.0673381 0.362036 0.0789502
0.0704814 0.359152 0.0727092
0.0995651 0.355367 0.0558938
0.178363 0.357366 0.0479286
0.269368 0.363333 0.0460212
0.353704 0.371572 0.041062
0.445457 0.376867 0.0437324
0.530343 0.381338 0.0603037
0.618372 0.379034 0.105119
0.689632 0.370794 0.144884
0.747265 0.347646 0.175067
0.778286 0.311604 0.191272
0.774105 0.280003 0.185306
0.760983 0.258381 0.176684
0.749065 0.238743 0.169162
0.739086 0.221653 0.163104
0.730159 0.206821 0.157763
0.722942 0.195117 0.153384
0.718212 0.187289 0.15053
0.715877 0.18323 0.149142
0.717601 0.185565 0.150347
0.722408 0.193027 0.153353
0.733043 0.208865 0.160723
0.748119 0.231052 0.171572
0.042649 0.420584 0.168109
0.0452735 0.42295 0.163867
0.0482948 0.42504 0.159136
0.0519112 0.425757 0.153048
0.055375 0.426307 0.146899
0.0587167 0.426703 0.140932
0.0621653 0.427253 0.134936
0.0654612 0.427375 0.128695
0.0699626 0.427283 0.119966
0.0778515 0.426352 0.105287
0.0817273 0.424887 0.0970016
0.0859541 0.422049 0.0898604
0.120974 0.4177 0.062562
0.217716 0.421424 0.0485695
0.331716 0.429984 0.0507362
0.422339 0.439292 0.0469825
0.512398 0.44535 0.0537575
0.596643 0.452613 0.0793927
0.684642 0.45565 0.132357
0.759533 0.452476 0.183917
0.81384 0.432868 0.215778
0.83534 0.399619 0.228626
0.829755 0.381521 0.224537
0.823789 0.367849 0.220188
0.818341 0.356023 0.216312
0.813916 0.346792 0.213123
0.809934 0.33991 0.210071
0.807782 0.33611 0.208576
0.807019 0.335744 0.207935
0.807919 0.338491 0.208484
0.811154 0.345525 0.210742
0.817899 0.358282 0.216251
0.827146 0.376577 0.22385
0.0453346 0.485954 0.209964
0.0485389 0.488838 0.207019
0.0520333 0.491569 0.203281
0.0558022 0.492805 0.198169
0.0599985 0.493675 0.192279
0.0645914 0.494926 0.186603
0.0692302 0.495567 0.180758
0.0745861 0.495964 0.174029
0.080705 0.49601 0.165209
0.0876783 0.496056 0.154345
0.0978103 0.496483 0.138781
0.103746 0.495048 0.128374
0.108171 0.491112 0.119112
0.153628 0.485039 0.078172
0.269749 0.492454 0.0610208
0.403616 0.502556 0.0659342
0.493324 0.511528 0.06598
0.579339 0.517494 0.0827649
0.66215 0.524865 0.115892
0.749981 0.53225 0.171725
0.823117 0.533745 0.224659
0.86627 0.517906 0.252811
0.868879 0.501549 0.253346
0.865583 0.489784 0.250706
0.862959 0.479942 0.248753
0.86099 0.472648 0.247303
0.85951 0.46775 0.246265
0.858671 0.46511 0.245655
0.858534 0.464744 0.245594
0.859312 0.467491 0.246204
0.861067 0.474434 0.247578
0.864759 0.486824 0.25098
0.869551 0.505211 0.255604
0.0539864 0.556298 0.26952
0.0574502 0.560281 0.267643
0.0605631 0.563241 0.264485
0.0640726 0.565621 0.261143
0.0679942 0.56733 0.256092
0.0720989 0.568383 0.250416
0.0765545 0.569192 0.24416
0.082063 0.570169 0.237385
0.0892195 0.570871 0.228534
0.0991684 0.571954 0.217121
0.110765 0.572183 0.20209
0.123796 0.572229 0.184268
0.129091 0.57052 0.175021
0.136309 0.565698 0.160739
0.202197 0.559747 0.100175
0.3364 0.570871 0.0881971
0.479469 0.579095 0.0966964
0.564019 0.585077 0.104997
0.645899 0.589929 0.126558
0.727169 0.597345 0.161212
0.809674 0.608194 0.214572
0.871992 0.612207 0.261387
0.890532 0.605936 0.274464
0.889189 0.597543 0.27277
0.887907 0.590387 0.271397
0.886473 0.584527 0.269978
0.886122 0.581308 0.269734
0.885451 0.578607 0.269154
0.885267 0.578302 0.269078
0.885908 0.580804 0.26978
0.886656 0.586389 0.270558
0.888518 0.597208 0.272725
0.890944 0.611643 0.275807
0.0825513 0.629023 0.340017
0.0840925 0.633036 0.340597
0.0857252 0.63682 0.341054
0.0872358 0.639338 0.339193
0.0897841 0.641321 0.335424
0.0926528 0.643061 0.331594
0.0953994 0.644343 0.326925
0.0982528 0.645594 0.321981
0.104677 0.647562 0.31458
0.114122 0.648859 0.302846
0.127169 0.649302 0.286427
0.144366 0.650202 0.265263
0.161715 0.650462 0.242527
0.162478 0.64802 0.237827
0.180301 0.641596 0.208392
0.273304 0.640223 0.139574
0.418631 0.652125 0.135332
0.556313 0.65687 0.146151
0.635233 0.659403 0.156909
0.712093 0.663554 0.178714
0.789929 0.670268 0.212161
0.858167 0.680949 0.25687
0.899504 0.685496 0.288014
0.903227 0.680613 0.290852
0.902327 0.675868 0.289784
0.901686 0.671641 0.288991
0.90103 0.668757 0.288426
0.900618 0.667063 0.288289
0.900481 0.666911 0.288441
0.900755 0.669001 0.289097
0.90161 0.673793 0.290517
0.902785 0.681376 0.292439
0.904982 0.692241 0.295552
0.125658 0.705089 0.414038
0.128084 0.709255 0.41648
0.129961 0.712612 0.417746
0.130907 0.714611 0.417014
0.131518 0.715999 0.415885
0.132052 0.717235 0.414252
0.13283 0.718807 0.412558
0.133303 0.71989 0.41059
0.135576 0.721035 0.405722
0.138933 0.722103 0.398154
0.144472 0.722972 0.386542
0.159823 0.72517 0.367315
0.18172 0.727504 0.340688
0.196307 0.726741 0.319127
0.195361 0.722545 0.313207
0.235996 0.715419 0.258045
0.359823 0.722026 0.195407
0.50782 0.732723 0.197375
0.631251 0.734142 0.206882
0.704814 0.733654 0.217258
0.777249 0.736538 0.239017
0.844175 0.742199 0.267033
0.898589 0.751324 0.301915
0.922423 0.755566 0.320363
0.921157 0.750729 0.318364
0.920333 0.747082 0.317098
0.919371 0.744564 0.316091
0.918791 0.743008 0.315755
0.918685 0.743038 0.31606
0.91928 0.745296 0.317311
0.920272 0.748928 0.318975
0.92282 0.756191 0.32253
0.925521 0.765743 0.327901
0.175067 0.773327 0.490608
0.177295 0.776593 0.493141
0.179171 0.779583 0.494987
0.179858 0.780972 0.494957
0.180667 0.78233 0.494484
0.181537 0.783703 0.493751
0.182269 0.784848 0.492744
0.182589 0.785657 0.491173
0.182635 0.786282 0.488472
0.182239 0.786709 0.484199
0.181445 0.786938 0.477272
0.18265 0.787793 0.466926
0.186954 0.788327 0.449454
0.207355 0.791562 0.419608
0.212329 0.78967 0.408194
0.22591 0.785199 0.382971
0.295674 0.783368 0.300374
0.45034 0.795651 0.258564
0.588006 0.802167 0.26363
0.698741 0.802792 0.273411
0.769574 0.80293 0.285176
0.83769 0.806714 0.307225
0.893187 0.811872 0.332006
0.930236 0.819318 0.355779
0.939513 0.819059 0.361669
0.938811 0.815656 0.359655
0.93785 0.813397 0.358328
0.937438 0.812772 0.358541
0.937148 0.812757 0.359091
0.937316 0.814313 0.360525
0.938033 0.81796 0.363012
0.939513 0.823896 0.367269
0.941497 0.831632 0.373297
0.220447 0.827695 0.564858
0.221805 0.82974 0.566857
0.223346 0.832013 0.56875
0.224292 0.833463 0.569177
0.225269 0.834745 0.569268
0.226001 0.835492 0.568948
0.226612 0.836133 0.568246
0.226978 0.836683 0.567254
0.227008 0.83711 0.565255
0.226749 0.837613 0.56202
0.225834 0.837766 0.556878
0.224353 0.83769 0.54905
0.222263 0.837247 0.537728
0.220157 0.836393 0.520745
0.22266 0.83566 0.50312
0.220111 0.832532 0.496162
0.258396 0.832761 0.431434
0.357778 0.841688 0.350439
0.525933 0.850889 0.322942
0.657893 0.856214 0.33135
0.759258 0.86041 0.345647
0.830976 0.863554 0.360784
0.891279 0.866789 0.382116
0.933623 0.870924 0.401389
0.953826 0.875471 0.413123
0.953399 0.873182 0.410574
0.952285 0.87158 0.408576
0.951278 0.870619 0.407431
0.950393 0.870802 0.407492
0.949798 0.872496 0.408957
0.949783 0.875166 0.411688
0.951553 0.879088 0.41709
0.954757 0.884978 0.425284
0.254749 0.862776 0.624475
0.255482 0.864012 0.62562
0.256306 0.865202 0.626688
0.256825 0.866056 0.626963
0.25713 0.866575 0.626444
0.257542 0.866941 0.626093
0.257969 0.86717 0.625681
0.258259 0.867338 0.624826
0.25835 0.867613 0.623682
0.258061 0.867857 0.621653
0.257359 0.868025 0.618143
0.256031 0.86804 0.613031
0.25417 0.867918 0.605646
0.251774 0.867582 0.594949
0.249348 0.867063 0.582498
0.246693 0.865309 0.574212
0.239857 0.860487 0.546151
0.286564 0.866957 0.46775
0.428107 0.883299 0.40296
0.583749 0.891035 0.387533
0.716304 0.898634 0.40267
0.812299 0.906874 0.420264
0.879881 0.911101 0.435294
0.932311 0.914122 0.45452
0.963867 0.916915 0.468086
0.971771 0.917327 0.47097
0.970687 0.915511 0.468574
0.969787 0.914473 0.467384
0.969192 0.914275 0.467689
0.969039 0.914946 0.469322
0.969696 0.916823 0.472984
0.970748 0.919371 0.477806
0.973434 0.923842 0.485664
0.26743 0.873716 0.648768
0.266972 0.873793 0.648005
0.26659 0.873945 0.646937
0.26627 0.874067 0.645808
0.266087 0.874113 0.644572
0.266041 0.874052 0.64332
0.266087 0.873915 0.642145
0.265995 0.873716 0.640879
0.265675 0.873503 0.638987
0.265034 0.873289 0.636133
0.263935 0.873045 0.632456
0.262348 0.872755 0.627283
0.260273 0.872358 0.619898
0.257481 0.871778 0.609339
0.254398 0.871229 0.595224
0.253178 0.870954 0.590204
0.253025 0.87158 0.586007
0.253147 0.872541 0.555688
0.314672 0.884428 0.485679
0.486061 0.904112 0.44773
0.633555 0.911742 0.452003
0.770092 0.925963 0.478599
0.862394 0.939116 0.499596
0.920913 0.944396 0.509239
0.965225 0.947188 0.524361
0.987854 0.946975 0.533303
0.987213 0.945541 0.530007
0.986374 0.944564 0.528542
0.985443 0.944137 0.528557
0.984726 0.944411 0.531197
0.984344 0.94522 0.535149
0.984802 0.94696 0.542046
0.985672 0.949401 0.551431
0.268666 0.873884 0.651957
0.268055 0.874006 0.65095
0.267536 0.874128 0.649912
0.267094 0.874174 0.648783
0.266789 0.874189 0.647517
0.266651 0.874159 0.646265
0.266575 0.874083 0.645182
0.266423 0.873991 0.643763
0.265965 0.87393 0.641978
0.265064 0.873793 0.6392
0.263783 0.873579 0.63537
0.262181 0.873304 0.630121
0.260121 0.872862 0.622873
0.257618 0.872236 0.612589
0.254459 0.871443 0.598108
0.252995 0.871077 0.590234
0.253086 0.871351 0.588891
0.251438 0.872389 0.566125
0.294057 0.880613 0.497292
0.450217 0.902785 0.456764
0.600443 0.911345 0.459922
0.718013 0.921721 0.491402
0.843366 0.940154 0.529473
0.902525 0.949477 0.54873
0.949813 0.955856 0.567193
0.981781 0.959091 0.586709
0.988495 0.959258 0.590097
0.988434 0.959045 0.58941
0.987991 0.958999 0.589654
0.987091 0.95906 0.591058
0.986358 0.959106 0.592782
0.985718 0.959182 0.595148
0.98529 0.959335 0.597406
0.269429 0.874372 0.654124
0.268864 0.874403 0.653193
0.268284 0.874449 0.652369
0.267674 0.874479 0.651164
0.26714 0.87451 0.649775
0.266621 0.874495 0.648554
0.26627 0.874449 0.647318
0.265934 0.874388 0.645838
0.265538 0.874327 0.644007
0.264912 0.87422 0.641443
0.26392 0.873945 0.637629
0.262547 0.873579 0.632486
0.260639 0.873091 0.625345
0.258167 0.872419 0.615259
0.254963 0.871504 0.60087
0.253193 0.871138 0.591134
0.252964 0.871061 0.590051
0.251575 0.872282 0.571939
0.283284 0.878996 0.508736
0.427253 0.900862 0.46244
0.584802 0.910414 0.456916
0.701976 0.919875 0.486473
0.828153 0.937896 0.52401
0.891951 0.94789 0.545419
0.939574 0.954818 0.562234
0.97467 0.959106 0.583261
0.986984 0.960037 0.594385
0.986572 0.960037 0.595682
0.98587 0.960082 0.597406
0.984878 0.960174 0.599557
0.984131 0.960174 0.601724
0.983703 0.960159 0.60322
0.983612 0.960128 0.603815
0.270039 0.874678 0.655879
0.269505 0.874647 0.654978
0.268864 0.874662 0.654047
0.268269 0.874662 0.652979
0.26772 0.874678 0.651774
0.26717 0.874662 0.65037
0.266743 0.874586 0.649104
0.266377 0.874464 0.647684
0.265919 0.874372 0.645716
