bundles/resolve-cinematic-luts/Phantom Luts/S5ii LUTs/Standard (No WB Offset)/S5ii IceBlue V-Log Legacy.cube
TITLE "Generated by Resolve"
LUT_3D_SIZE 9
0.0413977 0.0534676 0.0553597
0.0568551 0.0540932 0.0553597
0.106508 0.0568246 0.0539864
0.235645 0.0534981 0.0504311
0.462547 0.0551156 0.0731212
0.622644 0.0797894 0.151461
0.634287 0.082887 0.161822
0.63566 0.0830243 0.16527
0.640513 0.0803235 0.18558
0.0425116 0.059144 0.0577859
0.0452735 0.0569924 0.0564126
0.0861067 0.0608225 0.0567483
0.231464 0.0539559 0.052018
0.462516 0.0520485 0.0649729
0.607065 0.0748913 0.132891
0.623087 0.0800336 0.146044
0.628672 0.0810712 0.15288
0.634379 0.0784161 0.173404
0.0478065 0.110399 0.0791028
0.0490883 0.107179 0.0718242
0.0903792 0.101442 0.0648814
0.248341 0.0882429 0.0663767
0.457221 0.0519722 0.0660258
0.60972 0.0748608 0.13785
0.619715 0.0785229 0.145525
0.619715 0.0785229 0.145525
0.622385 0.0769818 0.155932
0.0421454 0.25272 0.108583
0.0473182 0.253803 0.0821241
0.0569314 0.248768 0.0681163
0.232029 0.248142 0.0497139
0.544594 0.22118 0.0941329
0.628885 0.0740215 0.112947
0.595682 0.0664988 0.124956
0.616876 0.0761273 0.14551
0.622339 0.0715496 0.144625
0.0453346 0.485954 0.209964
0.0599985 0.493675 0.192279
0.080705 0.49601 0.165209
0.108171 0.491112 0.119112
0.493324 0.511528 0.06598
0.823117 0.533745 0.224659
0.862959 0.479942 0.248753
0.858534 0.464744 0.245594
0.869551 0.505211 0.255604
0.175067 0.773327 0.490608
0.180667 0.78233 0.494484
0.182635 0.786282 0.488472
0.186954 0.788327 0.449454
0.295674 0.783368 0.300374
0.769574 0.80293 0.285176
0.939513 0.819059 0.361669
0.937148 0.812757 0.359091
0.941497 0.831632 0.373297
0.268666 0.873884 0.651957
0.266789 0.874189 0.647517
0.265965 0.87393 0.641978
0.260121 0.872862 0.622873
0.253086 0.871351 0.588891
0.600443 0.911345 0.459922
0.949813 0.955856 0.567193
0.987991 0.958999 0.589654
0.98529 0.959335 0.597406
0.270726 0.874907 0.658518
0.268391 0.874495 0.654368
0.266789 0.873915 0.648432
0.261784 0.872618 0.628717
0.252995 0.870497 0.589914
0.577325 0.90956 0.455146
0.931517 0.951995 0.558267
0.989975 0.958923 0.596124
0.984176 0.960037 0.602869
0.271778 0.875135 0.660578
0.269673 0.874922 0.656001
0.266194 0.874128 0.647181
0.258106 0.871839 0.615045
0.254643 0.872663 0.557519
0.722377 0.921645 0.491737
0.967865 0.957336 0.577218
0.988144 0.959564 0.59559
0.981567 0.96025 0.608789
0.0411536 0.0538186 0.0602579
0.0550393 0.0543526 0.0673381
0.110292 0.0578775 0.0754864
0.257969 0.0585336 0.0867628
0.479622 0.0611887 0.10811
0.631403 0.0798352 0.175891
0.642344 0.0829328 0.185595
0.64361 0.0830854 0.189029
0.64686 0.0812695 0.20383
0.0421912 0.0578317 0.0599527
0.0414893 0.0536812 0.0555428
0.0923629 0.0565042 0.0573434
0.238071 0.0550546 0.0632486
0.47219 0.0552071 0.0863661
0.631556 0.0796521 0.168612
0.637964 0.0814679 0.175753
0.639155 0.0816205 0.179019
0.642374 0.0798199 0.193423
0.0490272 0.106462 0.0935225
0.0472267 0.104128 0.0799573
0.0847181 0.0981613 0.0655375
0.249531 0.0785992 0.0646372
0.459327 0.0512703 0.0697337
0.613458 0.0753033 0.143847
0.624949 0.0788739 0.153307
0.627771 0.07953 0.156268
0.631479 0.0782635 0.168292
0.037705 0.252811 0.134127
0.0390326 0.254749 0.112428
0.0503548 0.248188 0.0759289
0.22649 0.246983 0.0503853
0.548409 0.212543 0.0937972
0.627314 0.0716564 0.114229
0.605859 0.0715648 0.134508
0.62031 0.0762646 0.14728
0.618692 0.0705272 0.142443
0.035874 0.487358 0.235676
0.0431678 0.496025 0.220493
0.0627451 0.497795 0.192782
0.105608 0.494118 0.125811
0.491783 0.513115 0.0662547
0.827375 0.533074 0.227497
0.863539 0.482399 0.249271
0.859297 0.467506 0.24625
0.870451 0.507607 0.256611
0.177646 0.774395 0.502052
0.183276 0.783398 0.506157
0.184985 0.78761 0.500771
0.182193 0.78819 0.465492
0.282506 0.785885 0.318517
0.770397 0.805158 0.287221
0.939635 0.819974 0.362173
0.937179 0.813245 0.358907
0.941299 0.831876 0.373648
0.269841 0.874418 0.656855
0.268315 0.874632 0.652781
0.267491 0.873991 0.647364
0.261982 0.873167 0.628946
0.252964 0.871046 0.590066
0.597543 0.911025 0.458854
0.949584 0.955749 0.566751
0.988052 0.958938 0.588281
0.985199 0.959197 0.596567
0.273198 0.874876 0.663706
0.270115 0.874876 0.659419
0.26833 0.87425 0.65362
0.263203 0.873075 0.634577
0.252964 0.870588 0.589563
0.572442 0.909148 0.454414
0.930266 0.951873 0.557824
0.989487 0.958663 0.600122
0.983444 0.959762 0.607843
0.273259 0.87541 0.665568
0.271351 0.875227 0.661158
0.267994 0.874388 0.652613
0.25977 0.872236 0.621592
0.253559 0.872328 0.562188
0.714885 0.920592 0.489326
0.964889 0.956878 0.575448
0.988113 0.959548 0.595743
0.981674 0.960311 0.608011
0.0393378 0.0586862 0.101732
0.0668345 0.0556649 0.100404
0.114443 0.0599222 0.105501
0.265522 0.0640269 0.112993
0.497459 0.062501 0.138399
0.641947 0.0837568 0.193545
0.650889 0.0865034 0.201892
0.652354 0.0868086 0.20528
0.656382 0.0856489 0.221622
0.0417182 0.0635538 0.0856184
0.0394446 0.0588235 0.0996719
0.0990616 0.0589761 0.0992142
0.259342 0.0608225 0.102449
0.500587 0.0610208 0.128679
0.640162 0.0824903 0.186145
0.645151 0.0839857 0.191897
0.646433 0.0842145 0.19527
0.650172 0.082826 0.211414
0.0484016 0.104341 0.111635
0.0476234 0.101762 0.109438
0.076936 0.0958724 0.108537
0.242618 0.0806134 0.092546
0.480812 0.0638743 0.107546
0.635325 0.0816205 0.171984
0.638773 0.0826123 0.175357
0.639185 0.0827344 0.176287
0.642496 0.0813764 0.189456
0.0436713 0.248051 0.165484
0.0395819 0.252232 0.152102
0.0375219 0.249561 0.12398
0.220905 0.246311 0.0813458
0.551369 0.2038 0.109483
0.628077 0.0706493 0.121706
0.626917 0.0785077 0.153719
0.628992 0.0780346 0.159045
0.615167 0.070634 0.147036
0.0391089 0.484504 0.263142
0.0383307 0.494759 0.252552
0.0390173 0.497505 0.230762
0.0929427 0.493355 0.144823
0.486656 0.512062 0.0653697
0.827817 0.530602 0.227817
0.862699 0.479515 0.248676
0.858488 0.464775 0.245716
0.869612 0.504814 0.256184
0.1785 0.77232 0.512703
0.184756 0.781811 0.517601
0.186664 0.785809 0.513069
0.181201 0.785718 0.480537
0.264027 0.787243 0.341604
0.768093 0.804944 0.28658
0.939055 0.817716 0.360372
0.936797 0.811185 0.357382
0.941024 0.829206 0.371496
0.273152 0.874418 0.663813
0.271199 0.874998 0.66006
0.269764 0.874571 0.654871
0.264393 0.873808 0.637903
0.25301 0.871015 0.590082
0.585565 0.910414 0.457008
0.947784 0.955367 0.564721
0.987427 0.958221 0.5897
0.984146 0.958297 0.601556
0.274815 0.875441 0.670695
0.272923 0.875441 0.667048
0.272068 0.874403 0.661784
0.266346 0.873594 0.64416
0.252995 0.870527 0.589914
0.555047 0.908263 0.45304
0.92578 0.951141 0.555886
0.989517 0.958679 0.599893
0.983124 0.959625 0.610071
0.277836 0.875715 0.676616
0.275212 0.875959 0.672969
0.272282 0.874983 0.665095
0.264607 0.873106 0.637598
0.251896 0.871244 0.573098
0.692988 0.918318 0.482795
0.956939 0.956024 0.57116
0.98793 0.959472 0.597009
0.980957 0.960311 0.610101
0.03299 0.0704204 0.197818
0.0556649 0.0649119 0.213718
0.150591 0.0599222 0.204791
0.285954 0.0646372 0.198642
0.518441 0.0793164 0.208011
0.68188 0.105333 0.248341
0.691539 0.10927 0.25568
0.693935 0.110552 0.259968
0.701213 0.112459 0.283085
0.0338293 0.0751049 0.189746
0.0325933 0.0710155 0.204532
0.0944381 0.061677 0.229694
0.284657 0.0646067 0.204395
0.525933 0.0784314 0.203235
0.682307 0.104067 0.245762
0.688411 0.10692 0.251469
0.691066 0.10837 0.256153
0.699214 0.111116 0.280385
0.0363622 0.111025 0.189914
0.034287 0.103349 0.20473
0.0467689 0.0900282 0.222629
0.266957 0.0697032 0.207141
0.516503 0.0756542 0.186297
0.672847 0.0987106 0.22887
0.677882 0.101167 0.233951
0.680522 0.102785 0.237552
0.688502 0.105211 0.25803
0.04448 0.241505 0.231098
0.0425269 0.244785 0.234363
0.0420996 0.241062 0.233417
0.20087 0.243366 0.251972
0.543175 0.210864 0.214099
0.685756 0.106081 0.219821
0.667552 0.0958267 0.216922
0.668788 0.096437 0.219165
0.676356 0.0979019 0.235843
0.0523995 0.479164 0.331075
0.0515755 0.489662 0.331594
0.0501717 0.492638 0.321935
0.0406043 0.490043 0.268116
0.475807 0.519982 0.199252
0.853925 0.510445 0.296483
0.87837 0.464958 0.29572
0.8719 0.450553 0.289464
0.889723 0.486427 0.312322
0.181643 0.765316 0.541024
0.188556 0.774365 0.547204
0.190188 0.778485 0.544671
0.183154 0.778241 0.5187
0.222354 0.778759 0.381888
0.758648 0.803159 0.304143
0.948409 0.814374 0.387091
0.946731 0.806653 0.384237
0.952728 0.825269 0.409888
0.279866 0.875303 0.682414
0.280018 0.875608 0.6804
0.279149 0.875059 0.676677
0.273075 0.874678 0.662272
0.257206 0.87129 0.605844
0.560372 0.90988 0.46331
0.943603 0.953704 0.560922
0.988846 0.955459 0.582208
0.985763 0.956939 0.610986
0.281697 0.876387 0.690883
0.281956 0.876204 0.688792
0.280644 0.875654 0.684611
0.274907 0.874678 0.669779
0.25861 0.871458 0.613718
0.519417 0.907469 0.460594
0.915862 0.949813 0.557885
0.989044 0.958648 0.608347
0.982864 0.959991 0.62594
0.287724 0.87776 0.707591
0.288396 0.877363 0.706172
0.285939 0.876799 0.70016
0.278187 0.875074 0.678309
0.260868 0.87332 0.616388
0.657755 0.920668 0.52546
0.946258 0.957427 0.603235
0.988983 0.961608 0.630274
0.982376 0.962097 0.63679
0.0146029 0.0943618 0.371633
0.0241855 0.0903639 0.388022
0.0687572 0.0762188 0.425971
0.31017 0.0599527 0.420462
0.539712 0.0798657 0.388693
0.736522 0.141665 0.386526
0.752605 0.150683 0.393698
0.753216 0.150271 0.400412
0.752941 0.147173 0.435706
0.0141146 0.0975814 0.377935
0.0129244 0.098024 0.385992
0.0334173 0.0894484 0.413794
0.267033 0.0615244 0.451514
0.550668 0.082475 0.4038
0.746639 0.146395 0.396506
0.753475 0.149905 0.402625
0.753887 0.149279 0.408652
0.752438 0.145129 0.444724
0.0161746 0.111666 0.364889
0.0131991 0.105287 0.382071
0.0127108 0.0991989 0.39028
0.185397 0.0659953 0.466865
0.545693 0.0824292 0.405219
0.74934 0.149004 0.383597
0.753185 0.150668 0.387274
0.753704 0.150103 0.393362
0.754101 0.147173 0.429786
0.0144656 0.237583 0.379431
0.012253 0.235401 0.393484
0.011841 0.224216 0.403494
0.0765087 0.20325 0.452003
0.54931 0.156863 0.449424
0.737041 0.144015 0.370031
0.751217 0.151568 0.373022
0.752071 0.151537 0.376562
0.754253 0.149554 0.410101
0.0534066 0.478614 0.446693
0.0545968 0.488884 0.458457
0.0548714 0.491676 0.461707
0.0531014 0.486244 0.459266
0.449958 0.516213 0.519203
0.866438 0.493019 0.476493
0.926818 0.43241 0.470222
0.920134 0.41001 0.474891
0.939956 0.444129 0.51548
0.195148 0.753918 0.613901
0.202976 0.762554 0.621225
0.205112 0.765576 0.621332
0.19968 0.763928 0.608209
0.182086 0.754025 0.551461
0.728374 0.802213 0.512459
0.989868 0.797848 0.565652
0.987655 0.788006 0.56965
0.980224 0.808972 0.61059
0.299306 0.877928 0.731792
0.304753 0.876921 0.732433
0.305028 0.876646 0.730571
0.29987 0.876219 0.721218
0.282734 0.875486 0.686046
0.501656 0.920806 0.612406
0.944137 0.959503 0.683711
0.994553 0.958877 0.707103
0.989609 0.962295 0.754162
0.301579 0.879606 0.743313
0.307515 0.878126 0.743755
0.307149 0.877867 0.741573
0.301625 0.877424 0.731411
0.286015 0.87512 0.694774
0.453117 0.916106 0.618296
0.915267 0.961089 0.719875
0.993271 0.972198 0.769863
0.986725 0.973846 0.797482
0.311513 0.882582 0.774609
0.318044 0.880964 0.775021
0.318013 0.880293 0.770687
0.31014 0.879255 0.755077
0.295354 0.878767 0.717388
0.622324 0.933547 0.703624
0.948379 0.970474 0.788708
0.99379 0.976257 0.811353
0.987549 0.975814 0.816037
0.0122225 0.166812 0.519234
0.0121004 0.168933 0.521523
0.0164797 0.164965 0.531975
0.122866 0.140627 0.621927
0.528939 0.112902 0.638514
0.759152 0.168246 0.595682
0.773526 0.172427 0.604517
0.778958 0.179324 0.614282
0.787686 0.201099 0.657755
0.0129397 0.171801 0.526574
0.0128176 0.174655 0.530556
0.0129397 0.176547 0.531792
0.0928969 0.16144 0.61796
0.522133 0.123278 0.664912
0.77258 0.179065 0.614633
0.783536 0.187884 0.62916
0.787015 0.194232 0.640314
0.794903 0.21619 0.684016
0.0132753 0.172824 0.523537
0.0130159 0.176318 0.532723
0.0131838 0.177401 0.534676
0.0514229 0.173404 0.590494
0.486686 0.128161 0.680476
0.777035 0.183154 0.616083
0.78648 0.187716 0.623468
0.789975 0.193957 0.634668
0.798489 0.215824 0.677043
0.0144656 0.224628 0.524514
0.0141756 0.224887 0.533288
0.0144656 0.21912 0.539254
0.0163424 0.20914 0.549004
0.397513 0.139605 0.693736
0.767605 0.182742 0.617517
0.776257 0.172045 0.598184
0.778378 0.175113 0.603387
0.786465 0.193835 0.641642
0.0430915 0.473121 0.572717
0.0450446 0.481544 0.581567
0.0457618 0.481315 0.587243
0.0446784 0.467658 0.59527
0.309758 0.49633 0.760037
0.876005 0.46273 0.776837
0.943435 0.411109 0.730892
0.93576 0.398001 0.724651
0.948775 0.438865 0.772641
0.20589 0.739147 0.711513
0.214023 0.748058 0.719326
0.216556 0.750439 0.721874
0.214023 0.747753 0.720043
0.198398 0.731716 0.708064
0.716869 0.783062 0.792065
0.978164 0.768963 0.774487
0.981659 0.759045 0.77409
0.971466 0.781277 0.802075
0.324758 0.885786 0.809354
0.331624 0.885145 0.811276
0.332799 0.884947 0.810956
0.329824 0.88455 0.805966
0.320607 0.882353 0.786038
0.519158 0.919905 0.792477
0.940185 0.956497 0.856092
0.991257 0.95935 0.880034
0.987747 0.963363 0.90341
0.330617 0.888212 0.825864
0.337713 0.887343 0.826307
0.33846 0.886961 0.825147
0.332616 0.886854 0.818311
0.322164 0.883467 0.793835
0.392432 0.916793 0.792523
0.907683 0.973068 0.898528
0.998169 0.983642 0.934325
0.994904 0.985092 0.950744
0.339208 0.892653 0.856611
0.346777 0.890806 0.855863
0.348775 0.890089 0.853101
0.342214 0.890043 0.842832
0.329595 0.886839 0.814908
0.588418 0.938155 0.854429
0.942107 0.978393 0.934417
0.994064 0.98526 0.950774
0.991211 0.986175 0.957794
0.0330968 0.30782 0.635813
0.0328527 0.308797 0.636255
0.0328374 0.306325 0.637659
0.0380407 0.318669 0.649958
0.345968 0.342748 0.852094
0.835233 0.353368 0.876509
0.88484 0.384497 0.886671
0.886183 0.384207 0.885283
0.882139 0.385122 0.889174
0.0336004 0.310063 0.637079
0.0335546 0.312123 0.638209
0.0336767 0.312642 0.639002
0.0372168 0.327337 0.650538
0.348379 0.362615 0.86183
0.852888 0.372351 0.889479
0.885176 0.384436 0.886198
0.88455 0.384558 0.887037
0.880796 0.385412 0.890608
0.0340276 0.312154 0.638224
0.0337072 0.313573 0.638727
0.0336614 0.313603 0.638804
0.0361334 0.323171 0.647303
0.324498 0.367422 0.852445
0.849409 0.374853 0.894316
0.888426 0.383734 0.882704
0.887739 0.383871 0.883436
0.882506 0.385031 0.888808
0.0299077 0.297826 0.62063
0.0316625 0.310369 0.629038
0.0337835 0.319036 0.636652
0.0350805 0.320806 0.642649
0.248096 0.367941 0.812512
0.813962 0.368215 0.903273
0.889891 0.383398 0.881193
0.890043 0.383383 0.880842
0.883757 0.384771 0.887434
0.0614481 0.476341 0.663905
0.0639811 0.485237 0.670634
0.065568 0.487343 0.675822
0.068513 0.487037 0.6878
0.150484 0.518639 0.769787
0.71899 0.516197 0.992782
0.957153 0.491066 0.933318
0.95407 0.481834 0.925292
0.956298 0.513771 0.950256
0.178302 0.72256 0.762905
0.185351 0.729854 0.767132
0.186664 0.731411 0.769574
0.18294 0.72607 0.770047
0.16968 0.702983 0.768582
0.639857 0.779263 0.942535
0.981216 0.759609 0.945785
0.99057 0.753277 0.935439
0.975967 0.779141 0.940002
0.337804 0.888411 0.868269
0.346593 0.890944 0.869749
0.34902 0.890532 0.869429
0.346944 0.891386 0.868421
0.332784 0.878828 0.854795
0.491753 0.924117 0.907942
0.929458 0.946227 0.950668
0.990433 0.947341 0.946029
0.984848 0.953719 0.956756
0.33576 0.891386 0.879805
0.342321 0.890242 0.878096
0.34551 0.889601 0.877165
0.342992 0.89099 0.875532
0.34255 0.892821 0.86688
0.367971 0.912413 0.873259
0.900023 0.974853 0.960433
0.993454 0.985977 0.980758
0.99617 0.985351 0.983688
0.333547 0.890257 0.883375
0.339971 0.889845 0.881041
0.344259 0.888762 0.880186
0.341024 0.889937 0.880354
0.342626 0.89247 0.872587
0.451102 0.940108 0.909972
0.932494 0.978729 0.972274
0.990997 0.986725 0.985916
0.99826 0.984833 0.984009
0.0340124 0.313237 0.638651
0.0337072 0.313573 0.638743
0.0342565 0.314565 0.641733
0.0398413 0.331212 0.654887
0.336004 0.367208 0.857298
0.829389 0.373098 0.899901
0.884764 0.384527 0.886671
0.885313 0.38439 0.886168
0.884596 0.384588 0.886549
0.034165 0.313069 0.638727
0.0337072 0.313573 0.638727
0.0337072 0.313664 0.639094
0.0373541 0.328328 0.650797
0.344732 0.366506 0.861769
0.852186 0.376852 0.894621
0.884688 0.384543 0.886641
0.884291 0.384619 0.88716
0.881346 0.385306 0.889998
0.0344396 0.312764 0.63888
0.0337072 0.313573 0.638743
0.0336614 0.313603 0.638804
0.0359503 0.322332 0.646769
0.321248 0.367391 0.850889
0.848859 0.375143 0.895476
0.887312 0.383963 0.883925
0.887053 0.384039 0.884138
0.88246 0.385061 0.888838
0.0394751 0.344854 0.649409
0.0379644 0.340505 0.647639
0.0363622 0.331044 0.644556
0.0343938 0.31722 0.641016
0.241291 0.36762 0.808606
0.807324 0.368246 0.90547
0.888029 0.383795 0.883314
0.888579 0.383703 0.88246
0.883574 0.384817 0.887602
0.0785077 0.507546 0.705303
0.0808118 0.516381 0.709468
0.0805219 0.515969 0.709377
0.0763867 0.503487 0.704677
0.132647 0.515724 0.759136
0.685634 0.528511 0.998978
0.953735 0.501671 0.952102
0.952071 0.493843 0.94461
0.953658 0.517235 0.956588
0.183932 0.722499 0.788785
0.190341 0.729137 0.791867
0.193072 0.731289 0.794202
0.189822 0.726421 0.793957
0.174472 0.703639 0.784222
0.591867 0.786587 0.957488
0.963394 0.763043 0.98587
0.990387 0.756817 0.973861
0.975433 0.780606 0.969223
0.329473 0.887251 0.880812
0.339986 0.889876 0.88101
0.342473 0.88925 0.880522
0.337606 0.888334 0.879789
0.317479 0.872389 0.87039
0.441367 0.907286 0.925002
0.892638 0.936477 0.97142
0.986633 0.944488 0.972671
0.984283 0.950362 0.97406
0.333242 0.890654 0.883238
0.339956 0.889891 0.881025
0.342962 0.889113 0.880476
0.338643 0.890318 0.88127
0.334569 0.89134 0.882246
0.354162 0.90544 0.892638
0.859892 0.974533 0.973266
0.990524 0.985077 0.986877
0.993988 0.986053 0.986954
0.332815 0.891081 0.883116
0.339971 0.889891 0.881025
0.343603 0.88893 0.880323
0.340505 0.889799 0.880858
0.335164 0.891188 0.8822
0.403403 0.924346 0.913436
0.894789 0.976013 0.976181
0.990188 0.986969 0.989883
0.993637 0.986694 0.987808
0.0340124 0.313237 0.638651
0.0337072 0.313573 0.638743
0.0342565 0.31458 0.641733
0.0404517 0.332189 0.656275
0.348989 0.366232 0.863096
0.843137 0.375586 0.896849
0.884764 0.384527 0.886671
0.884764 0.384512 0.886717
0.88426 0.384649 0.88687
0.034165 0.313069 0.638727
0.0337072 0.313573 0.638727
0.0337224 0.31368 0.639124
0.0375525 0.328954 0.651484
0.358968 0.365774 0.868269
0.86833 0.378973 0.889372
0.884688 0.384543 0.886656
0.884291 0.384634 0.887144
0.881056 0.385367 0.890288
0.0344549 0.312734 0.638895
0.0337072 0.313573 0.638727
0.0336614 0.313603 0.638804
0.0361334 0.323445 0.647211
0.336751 0.367163 0.858427
0.86038 0.377066 0.892882
0.887419 0.383948 0.883803
0.887053 0.384039 0.884123
0.882445 0.385061 0.888838
0.0394903 0.345449 0.649424
0.0384375 0.343297 0.648585
0.0370184 0.334905 0.64593
0.0351873 0.321843 0.642802
0.256046 0.368399 0.816205
0.817502 0.370306 0.903532
0.888045 0.383795 0.883314
0.888563 0.383703 0.88249
0.883558 0.384817 0.887587
0.0826886 0.518654 0.711406
0.0834669 0.523888 0.712535
0.0829786 0.52314 0.712062
0.0785229 0.510292 0.707271
0.144381 0.526253 0.767987
0.703059 0.535973 0.998978
0.961196 0.509285 0.953307
0.957595 0.502892 0.948928
0.956481 0.526528 0.959106
0.191836 0.732341 0.799039
0.198108 0.738689 0.800717
0.200855 0.740276 0.801236
0.196567 0.734035 0.797955
0.179416 0.709651 0.786618
0.608042 0.793194 0.95494
0.963317 0.772396 0.983688
0.991348 0.765423 0.975158
0.975326 0.789471 0.968704
0.332296 0.891249 0.883223
0.339986 0.889876 0.88101
0.343664 0.888914 0.880308
0.341833 0.886793 0.878599
0.326604 0.874067 0.870909
0.465629 0.911208 0.928542
0.895506 0.938415 0.971984
0.986358 0.946395 0.975982
0.984604 0.952605 0.976394
0.333028 0.890639 0.88333
0.339818 0.889921 0.881041
0.343679 0.888914 0.880308
0.344366 0.888731 0.88014
0.344366 0.888731 0.88014
0.364797 0.903548 0.892073
0.859983 0.972671 0.975052
0.993103 0.983948 0.984512
0.997635 0.985077 0.983917
0.327474 0.892332 0.884535
0.338994 0.89015 0.881239
0.343725 0.888899 0.880293
0.344366 0.888731 0.88014
0.344366 0.888731 0.88014
0.41973 0.923598 0.913069
0.88838 0.974212 0.976806
0.986358 0.987396 0.992096
0.995102 0.986374 0.986435
