bundles/resolve-cinematic-luts/Phantom Luts/S5ii LUTs/Standard (No WB Offset)/S5ii IceBlue V-Log.cube
TITLE "Generated by Resolve"
LUT_3D_SIZE 9
0.0280919 0.0407263 0.0388495
0.0491951 0.0406348 0.0399023
0.125933 0.0406195 0.0384375
0.289799 0.0398566 0.0392157
0.497749 0.0477607 0.069276
0.640421 0.0755779 0.164034
0.651347 0.0790875 0.176989
0.652995 0.0793927 0.181384
0.65745 0.0767376 0.20267
0.029633 0.0483711 0.0426795
0.0321508 0.0447089 0.0404974
0.096437 0.047837 0.0424811
0.285801 0.0400092 0.0401312
0.494377 0.0439002 0.0588388
0.624811 0.0708782 0.140536
0.639109 0.0752728 0.155184
0.644556 0.0764935 0.163867
0.650034 0.0738994 0.185763
0.0353399 0.129335 0.0721294
0.0391852 0.123644 0.0615244
0.105699 0.117067 0.0516518
0.315389 0.0940108 0.0546273
0.491646 0.0439002 0.059205
0.626749 0.0702831 0.145022
0.635691 0.073579 0.153063
0.635706 0.073579 0.153048
0.638361 0.0720226 0.16405
0.0257725 0.302464 0.114778
0.0325933 0.302144 0.077409
0.0463874 0.295888 0.0562142
0.288991 0.302419 0.0362402
0.600183 0.278569 0.0993668
0.644144 0.0778973 0.10959
0.617945 0.0656748 0.137606
0.633951 0.0713664 0.154559
0.638331 0.0696422 0.15256
0.0395972 0.538216 0.265415
0.0501869 0.546487 0.24332
0.0720684 0.549401 0.208392
0.112322 0.544656 0.146944
0.550973 0.564233 0.0859083
0.836912 0.586572 0.230106
0.873304 0.5355 0.255161
0.869703 0.519661 0.251942
0.876478 0.560464 0.258839
0.188098 0.790814 0.542351
0.191974 0.797726 0.544808
0.191775 0.800229 0.537804
0.184176 0.799893 0.500221
0.287785 0.801526 0.339361
0.799863 0.824552 0.309651
0.9402 0.839643 0.376181
0.938506 0.834134 0.373175
0.942016 0.849592 0.39057
0.27219 0.871473 0.685283
0.271702 0.871199 0.681773
0.268971 0.871214 0.676249
0.261936 0.870375 0.658793
0.25243 0.868605 0.626459
0.627131 0.912047 0.499855
0.951965 0.954879 0.608469
0.982177 0.957748 0.62945
0.978744 0.95761 0.645335
0.273075 0.872587 0.691615
0.273243 0.871489 0.687999
0.271382 0.870954 0.682506
0.264622 0.869993 0.664439
0.25272 0.867658 0.627878
0.602426 0.90985 0.493309
0.937453 0.951385 0.600381
0.985794 0.957488 0.636545
0.979324 0.958419 0.646525
0.274372 0.872816 0.69337
0.274144 0.871809 0.689586
0.270802 0.871168 0.681361
0.260517 0.868955 0.651957
0.254704 0.870649 0.595483
0.750912 0.923751 0.535546
0.967697 0.95581 0.619013
0.983551 0.958114 0.637018
0.977615 0.959228 0.643702
0.0279393 0.0411078 0.0426947
0.0462959 0.041825 0.0517433
0.13106 0.0458076 0.0675364
0.317205 0.0472114 0.0867933
0.521279 0.0573281 0.117647
0.650767 0.0769055 0.194217
0.660624 0.0804303 0.205646
0.662211 0.0809339 0.209934
0.665156 0.0792859 0.225818
0.029099 0.0458076 0.0435798
0.0281834 0.04094 0.0390631
0.104463 0.0409552 0.0428321
0.293446 0.0420539 0.0540932
0.508812 0.0488136 0.0865797
0.648692 0.075639 0.183017
0.655055 0.0778668 0.192264
0.656275 0.0780652 0.196033
0.659373 0.0763409 0.211505
0.0377508 0.123568 0.0987716
0.0343786 0.11986 0.0740215
0.0963912 0.111757 0.0523537
0.315022 0.079469 0.0523537
0.493095 0.0429541 0.0634928
0.630106 0.0705272 0.151034
0.640742 0.0741436 0.162432
0.643412 0.0747692 0.166155
0.647028 0.073518 0.179355
0.0238956 0.302815 0.151019
0.0230869 0.305028 0.119921
0.0368505 0.296178 0.0669566
0.282185 0.300832 0.0361944
0.603296 0.269261 0.100404
0.644221 0.0770733 0.11281
0.626856 0.0700847 0.1467
0.636851 0.0717174 0.156863
0.634897 0.0681468 0.150408
0.0419165 0.539055 0.291508
0.0424201 0.547341 0.277501
0.0527352 0.550301 0.243732
0.107942 0.547723 0.155612
0.549981 0.565667 0.0865797
0.840208 0.585962 0.232639
0.873671 0.537438 0.255329
0.8701 0.522637 0.252308
0.876677 0.563119 0.259281
0.191257 0.791882 0.553948
0.195193 0.79881 0.556405
0.194797 0.801541 0.55021
0.186709 0.800656 0.514061
0.270542 0.802915 0.361303
0.80058 0.826474 0.312276
0.9402 0.840391 0.376837
0.938293 0.834577 0.374304
0.941543 0.849714 0.392035
0.273533 0.87187 0.689967
0.273548 0.871473 0.68661
0.271839 0.871199 0.681483
0.264347 0.870695 0.66453
0.25243 0.868284 0.627619
0.62388 0.911696 0.498619
0.951812 0.954818 0.608072
0.982269 0.95761 0.627939
0.978561 0.957305 0.645655
0.275502 0.872663 0.696162
0.275319 0.871702 0.692653
0.273426 0.871153 0.687327
0.266712 0.87039 0.669856
0.252827 0.867674 0.627573
0.596551 0.909483 0.492561
0.936599 0.951217 0.59997
0.98526 0.957305 0.639994
0.97879 0.958175 0.65066
0.275914 0.873152 0.698116
0.275975 0.872267 0.69424
0.272801 0.871382 0.686305
0.262699 0.869368 0.657984
0.253468 0.869963 0.600336
0.743633 0.922759 0.533318
0.965225 0.955428 0.617411
0.983413 0.958068 0.637995
0.976837 0.958831 0.649897
0.0252232 0.0472114 0.105974
0.0658274 0.0431373 0.105531
0.138582 0.0486305 0.114321
0.327108 0.0551156 0.125154
0.53843 0.057435 0.156832
0.663371 0.083238 0.217762
0.671351 0.0865034 0.227008
0.673442 0.0875257 0.231785
0.676997 0.0865644 0.249134
0.0273899 0.0544594 0.0833295
0.02533 0.0473945 0.103136
0.114382 0.0472114 0.105562
0.319463 0.050782 0.109392
0.537835 0.0548714 0.142901
0.659419 0.0803693 0.206928
0.664805 0.0826581 0.214679
0.666133 0.0830396 0.218677
0.669779 0.0819867 0.236088
0.0373541 0.120256 0.125521
0.0361181 0.11603 0.122393
0.0842145 0.107836 0.121752
0.309056 0.0840925 0.0997482
0.522438 0.0582284 0.114702
0.653117 0.078233 0.188739
0.656168 0.0792248 0.192691
0.656855 0.07953 0.194232
0.660151 0.0784619 0.208515
0.0310521 0.297871 0.194476
0.0265965 0.302663 0.176974
0.0232853 0.300511 0.136614
0.276158 0.301793 0.0772869
0.609735 0.25919 0.12578
0.646586 0.0760967 0.127306
0.643122 0.0738231 0.165438
0.646097 0.0741436 0.173785
0.633204 0.068101 0.158114
0.0457313 0.537026 0.320256
0.0457465 0.54609 0.310491
0.043595 0.548608 0.287343
0.0887465 0.546853 0.180819
0.54551 0.564675 0.0855726
0.840833 0.583978 0.233204
0.872847 0.534478 0.254429
0.869383 0.520409 0.251774
0.876524 0.561273 0.259754
0.193301 0.790631 0.564813
0.198108 0.797925 0.568261
0.198215 0.800473 0.562722
0.189563 0.799695 0.530114
0.246937 0.802777 0.389151
0.79823 0.826123 0.311498
0.939742 0.838437 0.375311
0.937667 0.832609 0.372686
0.940826 0.847486 0.390127
0.276692 0.872023 0.696254
0.276509 0.871809 0.693278
0.27454 0.87158 0.688487
0.267292 0.871138 0.672679
0.252583 0.868223 0.627665
0.6112 0.910979 0.49575
0.950088 0.954345 0.606088
0.981781 0.956664 0.629114
0.977584 0.956191 0.649851
0.277501 0.873304 0.702785
0.278309 0.872343 0.699611
0.277195 0.87129 0.694911
0.27013 0.870604 0.678294
0.253178 0.867536 0.62797
0.578439 0.908415 0.489647
0.933043 0.950774 0.598672
0.985199 0.957275 0.640406
0.978393 0.957992 0.65362
0.280827 0.873671 0.707988
0.280507 0.873106 0.704952
0.277516 0.871885 0.697963
0.26836 0.870314 0.672602
0.251041 0.867979 0.611292
0.72166 0.920043 0.526299
0.958694 0.954421 0.613199
0.983169 0.957946 0.639933
0.975998 0.958755 0.653101
0.0189975 0.0634012 0.234043
0.0526436 0.0547646 0.260288
0.190127 0.0484321 0.24889
0.347982 0.0567636 0.241032
0.565728 0.0751965 0.262333
0.707668 0.115572 0.282673
0.716548 0.120562 0.290562
0.719081 0.122469 0.295521
0.726909 0.126802 0.321263
0.0197147 0.071809 0.225956
0.0183566 0.0641642 0.242145
0.109621 0.0507668 0.278126
0.346075 0.0567636 0.247944
0.572381 0.0760967 0.256809
0.706935 0.113024 0.279255
0.712795 0.116915 0.285573
0.715785 0.119219 0.290806
0.723598 0.122621 0.319646
0.0218357 0.130526 0.228595
0.0199588 0.118578 0.246052
0.0392615 0.0976272 0.270191
0.329793 0.0656138 0.252735
0.564187 0.0751354 0.231296
0.696376 0.104845 0.260136
0.701503 0.108309 0.265919
0.704173 0.110414 0.26952
0.712673 0.115023 0.292363
0.0311437 0.293416 0.275532
0.0292515 0.297108 0.279332
0.0289006 0.2934 0.278096
0.253498 0.301534 0.306264
0.60766 0.263905 0.261067
0.70544 0.110002 0.249317
0.690227 0.0996109 0.249271
0.691737 0.100618 0.25185
0.698634 0.103334 0.267292
0.0567636 0.534615 0.386999
0.0578012 0.543969 0.388769
0.0569619 0.546075 0.379416
0.0473487 0.541527 0.325048
0.530755 0.57435 0.237064
0.87718 0.562875 0.3252
0.896819 0.517891 0.3196
0.891325 0.504585 0.314107
0.905425 0.5393 0.338216
0.199557 0.786465 0.592645
0.205661 0.793072 0.597131
0.206332 0.795926 0.594034
0.197253 0.795346 0.569253
0.200732 0.793423 0.438224
0.789563 0.825605 0.333516
0.949813 0.83592 0.405814
0.948302 0.829236 0.403815
0.951843 0.84477 0.436133
0.284031 0.872847 0.713436
0.28632 0.87245 0.711772
0.285222 0.872053 0.708461
0.277562 0.871809 0.695262
0.258061 0.868589 0.642618
0.585 0.910185 0.502174
0.946639 0.953079 0.60238
0.983825 0.953536 0.623178
0.979004 0.954711 0.66125
0.285283 0.87451 0.721065
0.288655 0.873228 0.719417
0.2869 0.872389 0.715511
0.280537 0.871611 0.70222
0.260731 0.868605 0.650507
0.539925 0.90753 0.496086
0.925216 0.949477 0.601816
0.984527 0.95729 0.649729
0.977752 0.958419 0.671809
0.291341 0.876326 0.736431
0.294636 0.875059 0.735363
0.292302 0.874281 0.729809
0.283818 0.872251 0.710048
0.2636 0.870253 0.653132
0.689555 0.922591 0.572717
0.950774 0.956512 0.647715
0.983902 0.960449 0.674754
0.977081 0.960647 0.684062
0.00881972 0.101503 0.417105
0.0186465 0.0952316 0.436042
0.0851759 0.073228 0.485725
0.36968 0.0561685 0.476951
0.588052 0.0893111 0.445136
0.734218 0.120821 0.440131
0.745174 0.126329 0.447929
0.743984 0.124651 0.453666
0.73785 0.119921 0.484627
0.00901808 0.106859 0.422934
0.00869764 0.107042 0.429999
0.0340887 0.0935531 0.466743
0.326406 0.0585336 0.508202
0.597955 0.0936904 0.460151
0.739483 0.122042 0.44979
0.743267 0.123552 0.455772
0.742199 0.122255 0.460975
0.734493 0.116014 0.490822
0.00953689 0.129732 0.412238
0.00865187 0.119585 0.428031
0.0087892 0.108995 0.433814
0.238727 0.0646677 0.523522
0.593835 0.0938277 0.462287
0.743084 0.124422 0.438712
0.745266 0.124834 0.442267
0.744015 0.123125 0.447471
0.736858 0.116564 0.478447
0.0132448 0.290486 0.428092
0.0122072 0.287938 0.441474
0.0117952 0.275303 0.450645
0.10367 0.254017 0.516274
0.613077 0.198505 0.518624
0.738628 0.125399 0.425177
0.747906 0.129335 0.42884
0.747555 0.128374 0.432227
0.742748 0.122988 0.462516
0.0638895 0.535348 0.505058
0.066804 0.544488 0.515145
0.0676738 0.546853 0.518532
0.0653544 0.541833 0.51577
0.504768 0.569467 0.575051
0.890944 0.543862 0.533486
0.952026 0.478035 0.529519
0.947951 0.455985 0.537774
0.960784 0.491173 0.575814
0.214725 0.780819 0.659312
0.221988 0.787427 0.664836
0.224323 0.789761 0.664988
0.21944 0.787778 0.653269
0.204364 0.780346 0.603113
0.764599 0.827619 0.563867
0.98584 0.823545 0.607187
0.983673 0.815854 0.611276
0.973892 0.834241 0.65304
0.300771 0.877363 0.758251
0.306706 0.876432 0.758694
0.30724 0.875944 0.756802
0.303853 0.87509 0.748791
0.286946 0.872953 0.716564
0.544152 0.921111 0.653834
0.950118 0.959014 0.727749
0.989731 0.958816 0.748226
0.984848 0.961929 0.793088
0.303105 0.879606 0.768734
0.310018 0.877836 0.768872
0.309941 0.877485 0.766995
0.304936 0.876341 0.757733
0.291005 0.872892 0.724697
0.494911 0.915145 0.657649
0.928664 0.961273 0.763287
0.989364 0.971618 0.809537
0.983215 0.973175 0.834516
0.312078 0.882673 0.79527
0.31928 0.880903 0.795224
0.319646 0.880079 0.791623
0.312367 0.879088 0.778805
0.299428 0.877104 0.745266
0.673732 0.934112 0.748074
0.953658 0.969467 0.826078
0.989807 0.975326 0.84593
0.983871 0.975067 0.850248
0.01561 0.195026 0.553872
0.01561 0.197711 0.556146
0.0157321 0.192676 0.558572
0.180209 0.162478 0.674098
0.580133 0.141131 0.683803
0.775036 0.188724 0.646159
0.782376 0.189227 0.653422
0.789181 0.198001 0.663462
0.802197 0.226307 0.705791
0.0166629 0.201617 0.561013
0.0166934 0.205219 0.564706
0.0169223 0.207721 0.566064
0.139452 0.189883 0.671229
0.576288 0.15523 0.709484
0.786679 0.200305 0.664149
0.796002 0.209598 0.678004
0.800717 0.217777 0.688991
0.812863 0.246281 0.732052
0.0171054 0.203906 0.558877
0.0170291 0.207263 0.566766
0.0171511 0.208469 0.568353
0.0739605 0.205646 0.636896
0.544472 0.161624 0.725109
0.79266 0.205783 0.666194
0.798993 0.209094 0.672724
0.8038 0.217227 0.683619
0.815915 0.244785 0.724941
0.0202487 0.27303 0.56347
0.0200809 0.273198 0.570703
0.0203861 0.265904 0.576349
0.0206302 0.252628 0.582422
0.463035 0.178042 0.742199
0.788357 0.208835 0.669642
0.784924 0.18819 0.647532
0.787808 0.192325 0.653132
0.799725 0.216922 0.689906
0.0630808 0.529732 0.6177
0.0656138 0.537163 0.625666
0.0665751 0.537026 0.630854
0.0645762 0.523705 0.636957
0.378805 0.557977 0.808911
0.900389 0.514839 0.817929
0.962417 0.458915 0.783368
0.95639 0.446097 0.778439
0.962371 0.487739 0.815335
0.226871 0.770871 0.74551
0.23447 0.777813 0.751583
0.236896 0.779812 0.753674
0.234592 0.777478 0.752102
0.221424 0.765179 0.742855
0.755627 0.81326 0.821424
0.97116 0.800519 0.804349
0.973999 0.791669 0.804257
0.965133 0.810819 0.82855
0.322957 0.885084 0.823056
0.329564 0.884474 0.823911
0.33051 0.884321 0.82359
0.327657 0.884092 0.819455
0.320256 0.882353 0.804196
0.564523 0.922393 0.821622
0.946624 0.956344 0.879118
0.986709 0.959365 0.899123
0.983719 0.962814 0.917845
0.327504 0.887098 0.835584
0.334432 0.886213 0.83563
0.335256 0.885939 0.834653
0.32961 0.886076 0.829587
0.320912 0.883406 0.810437
0.409552 0.919875 0.81706
0.923186 0.971496 0.914015
0.994949 0.981872 0.943313
0.992584 0.983932 0.957
0.332219 0.890074 0.858473
0.339666 0.888228 0.857481
0.341756 0.887572 0.855436
0.336568 0.888365 0.848371
0.327092 0.88603 0.827329
0.626505 0.939086 0.871748
0.949645 0.976364 0.942214
0.991714 0.983627 0.956481
0.989136 0.985306 0.963043
0.0439155 0.364019 0.662409
0.0437018 0.365072 0.66273
0.0434577 0.36199 0.663615
0.049836 0.374975 0.675059
0.420584 0.400305 0.9037
0.872404 0.40325 0.905303
0.912154 0.431373 0.913207
0.91371 0.430976 0.911849
0.908782 0.432303 0.915404
0.04448 0.366201 0.663462
0.0443427 0.36846 0.664088
0.0445411 0.368978 0.664897
0.0486152 0.384146 0.674861
0.422095 0.420172 0.912139
0.886748 0.421424 0.916304
0.912322 0.431357 0.912581
0.911925 0.431418 0.913619
0.907668 0.432563 0.916609
0.0448463 0.368444 0.664225
0.0448157 0.370352 0.665003
0.04477 0.370367 0.665095
0.0473793 0.379782 0.671962
0.397971 0.425193 0.90338
0.884596 0.424109 0.920806
0.915862 0.430488 0.909163
0.915053 0.430686 0.90988
0.909178 0.432212 0.914916
0.0405127 0.354192 0.649882
0.0428168 0.367361 0.657206
0.0452125 0.376318 0.663706
0.0462501 0.377401 0.668116
0.316823 0.427909 0.863462
0.858183 0.418875 0.928908
0.917769 0.429969 0.907698
0.917556 0.430076 0.907256
0.910628 0.431861 0.913329
0.0808576 0.530617 0.692988
0.0835889 0.538766 0.698344
0.0851911 0.540642 0.702617
0.0873426 0.539834 0.711482
0.2009 0.578424 0.804288
0.767239 0.565866 0.994827
0.971389 0.535576 0.948241
0.968795 0.526802 0.942046
0.964324 0.558816 0.957519
0.200137 0.755093 0.784436
0.208286 0.76109 0.787411
0.21001 0.762585 0.789609
0.207111 0.758434 0.790112
0.194125 0.737942 0.787793
0.684321 0.808103 0.940078
0.973632 0.792111 0.942626
0.981689 0.78645 0.933288
0.968887 0.808972 0.936385
0.330816 0.886442 0.867048
0.338827 0.88806 0.867704
0.341207 0.887633 0.867292
0.338796 0.888548 0.86688
0.32694 0.878889 0.856153
0.520165 0.929168 0.9149
0.936629 0.947967 0.951675
0.984115 0.950057 0.95021
0.98175 0.954849 0.957488
0.328252 0.888518 0.875502
0.334905 0.887282 0.873732
0.337987 0.886625 0.872831
0.334951 0.888045 0.8719
0.334691 0.89012 0.866133
0.363561 0.908827 0.874647
0.91487 0.972549 0.961349
0.991897 0.984848 0.979278
0.993286 0.986145 0.983764
0.326268 0.888258 0.878553
0.333165 0.887037 0.87628
0.337362 0.885969 0.875151
0.333806 0.887114 0.875578
0.333974 0.889479 0.86981
0.459983 0.939559 0.91313
0.940902 0.976242 0.971084
0.989227 0.986603 0.984527
0.994537 0.988266 0.987137
0.0452125 0.369879 0.665003
0.044831 0.370336 0.665019
0.0452277 0.371084 0.66717
0.0520638 0.388251 0.679332
0.408804 0.425284 0.907469
0.86894 0.422934 0.925689
0.911955 0.431449 0.913069
0.912688 0.43125 0.912642
0.911681 0.431601 0.9122
0.045304 0.369741 0.665064
0.0448157 0.370352 0.665003
0.0448157 0.370413 0.665293
0.0488136 0.385229 0.675105
0.417685 0.424231 0.911696
0.886351 0.425757 0.92047
0.911727 0.431525 0.912902
0.911437 0.431571 0.913527
0.908873 0.432288 0.915221
0.0455329 0.369436 0.665187
0.0448157 0.370336 0.665019
0.04477 0.370367 0.665095
0.0471656 0.378943 0.671504
0.39443 0.42533 0.901915
0.883818 0.424399 0.921813
0.914778 0.430747 0.910246
0.914305 0.430884 0.910399
0.909316 0.432181 0.914672
0.0516823 0.401923 0.674784
0.0499886 0.397559 0.672969
0.0480201 0.388067 0.670161
0.045594 0.373892 0.666972
0.309453 0.42739 0.858976
0.852461 0.419196 0.931487
0.915923 0.430426 0.909728
0.916136 0.430426 0.908736
0.910384 0.431937 0.913451
0.0972152 0.558328 0.725689
0.100191 0.566812 0.729335
0.100008 0.566461 0.729335
0.0952926 0.554925 0.725139
0.182742 0.575418 0.793545
0.735821 0.577707 0.998978
0.967147 0.545739 0.963561
0.966781 0.538064 0.956252
0.961227 0.56231 0.962875
0.204807 0.754147 0.804059
0.211872 0.759991 0.80647
0.214435 0.761654 0.807858
0.211948 0.758206 0.808042
0.197086 0.737774 0.798917
0.639445 0.815091 0.953307
0.958892 0.795132 0.97615
0.982269 0.789303 0.964416
0.968795 0.810422 0.961578
0.323354 0.885267 0.876493
0.333181 0.887068 0.876234
0.335561 0.886458 0.875654
0.331304 0.886381 0.875731
0.313558 0.873442 0.867582
0.468254 0.917006 0.930129
0.906722 0.939406 0.967269
0.9841 0.947234 0.968353
0.981659 0.952209 0.970367
0.326558 0.888029 0.87866
0.33315 0.887083 0.876234
0.336095 0.88632 0.875547
0.331487 0.887587 0.876432
0.327398 0.888624 0.877546
0.347677 0.901518 0.887861
0.880262 0.970687 0.970001
0.989212 0.983154 0.984756
0.996918 0.983719 0.983047
0.326299 0.888228 0.878569
0.33315 0.887068 0.876234
0.336782 0.886122 0.875395
0.33344 0.887053 0.876112
0.327947 0.888487 0.877409
0.406821 0.923217 0.912016
0.909178 0.972869 0.973602
0.988602 0.986755 0.989471
0.996658 0.988479 0.989593
0.0451667 0.36994 0.664988
0.044831 0.370336 0.665019
0.045243 0.371084 0.667185
0.0522927 0.389013 0.68014
0.422522 0.424994 0.913252
0.879713 0.425132 0.923003
0.91194 0.431449 0.913069
0.912032 0.431418 0.913161
0.911315 0.431693 0.912581
0.0452735 0.369787 0.665049
0.0448157 0.370352 0.665003
0.0448157 0.370428 0.665324
0.0489509 0.385779 0.675502
0.432517 0.423468 0.91812
0.899031 0.42707 0.915434
0.911727 0.43154 0.912886
0.91136 0.431601 0.913451
0.907683 0.432578 0.916442
0.0455177 0.369406 0.665187
0.0448157 0.370336 0.665019
0.04477 0.370367 0.665095
0.0473945 0.380102 0.671901
0.409796 0.424231 0.909041
0.892302 0.425208 0.918669
0.91487 0.430732 0.91014
0.91429 0.4309 0.910353
0.909087 0.432242 0.914824
0.0518196 0.40267 0.674968
0.0505989 0.400473 0.673915
0.0487831 0.391882 0.671366
0.0463874 0.378378 0.668269
0.32694 0.42797 0.867094
0.860197 0.421225 0.9299
0.915984 0.430411 0.909667
0.916167 0.430411 0.908736
0.910338 0.431952 0.913405
0.102022 0.5691 0.731106
0.103334 0.574228 0.732174
0.102892 0.57348 0.731701
0.0978408 0.561334 0.727474
0.200076 0.586328 0.80499
0.749554 0.584619 0.998856
0.972488 0.553368 0.963836
0.970336 0.547295 0.959442
0.96228 0.57171 0.963684
0.211643 0.762615 0.812222
0.218677 0.7682 0.813535
0.221653 0.769421 0.813748
0.21854 0.764599 0.811475
0.201968 0.742748 0.800946
0.654902 0.8206 0.95024
0.95874 0.803906 0.974395
0.98323 0.797116 0.965911
0.968612 0.818036 0.9608
0.325521 0.888563 0.878569
0.333165 0.887068 0.876234
0.336858 0.886107 0.875364
0.335973 0.88481 0.874342
0.32253 0.874372 0.86775
0.496284 0.919554 0.932845
0.908904 0.941192 0.968124
0.983185 0.948959 0.97229
0.981628 0.95407 0.972793
0.32636 0.887968 0.878782
0.333013 0.887114 0.876265
0.336858 0.886107 0.875364
0.337469 0.885954 0.875105
0.337469 0.885954 0.875105
0.359213 0.89984 0.887373
0.88011 0.968688 0.972091
0.988678 0.98233 0.984375
0.997925 0.983536 0.982437
0.320684 0.889723 0.879896
0.332128 0.887358 0.876448
0.336889 0.886091 0.875364
0.337469 0.885954 0.875105
0.337469 0.885954 0.87512
0.424857 0.922606 0.911849
0.903716 0.970886 0.974289
0.984787 0.986847 0.991516
0.997528 0.988403 0.988632
