bundles/resolve-cinematic-luts/Phantom Luts/S5ii LUTs/Standard (No WB Offset)/S5ii IceBlue V-Log.cube
TITLE "Generated by Resolve"
LUT_3D_SIZE 5
0.0280919 0.0407263 0.0388495
0.125933 0.0406195 0.0384375
0.497749 0.0477607 0.069276
0.651347 0.0790875 0.176989
0.65745 0.0767376 0.20267
0.0353399 0.129335 0.0721294
0.105699 0.117067 0.0516518
0.491646 0.0439002 0.059205
0.635691 0.073579 0.153063
0.638361 0.0720226 0.16405
0.0395972 0.538216 0.265415
0.0720684 0.549401 0.208392
0.550973 0.564233 0.0859083
0.873304 0.5355 0.255161
0.876478 0.560464 0.258839
0.27219 0.871473 0.685283
0.268971 0.871214 0.676249
0.25243 0.868605 0.626459
0.951965 0.954879 0.608469
0.978744 0.95761 0.645335
0.274372 0.872816 0.69337
0.270802 0.871168 0.681361
0.254704 0.870649 0.595483
0.967697 0.95581 0.619013
0.977615 0.959228 0.643702
0.0252232 0.0472114 0.105974
0.138582 0.0486305 0.114321
0.53843 0.057435 0.156832
0.671351 0.0865034 0.227008
0.676997 0.0865644 0.249134
0.0373541 0.120256 0.125521
0.0842145 0.107836 0.121752
0.522438 0.0582284 0.114702
0.656168 0.0792248 0.192691
0.660151 0.0784619 0.208515
0.0457313 0.537026 0.320256
0.043595 0.548608 0.287343
0.54551 0.564675 0.0855726
0.872847 0.534478 0.254429
0.876524 0.561273 0.259754
0.276692 0.872023 0.696254
0.27454 0.87158 0.688487
0.252583 0.868223 0.627665
0.950088 0.954345 0.606088
0.977584 0.956191 0.649851
0.280827 0.873671 0.707988
0.277516 0.871885 0.697963
0.251041 0.867979 0.611292
0.958694 0.954421 0.613199
0.975998 0.958755 0.653101
0.00881972 0.101503 0.417105
0.0851759 0.073228 0.485725
0.588052 0.0893111 0.445136
0.745174 0.126329 0.447929
0.73785 0.119921 0.484627
0.00953689 0.129732 0.412238
0.0087892 0.108995 0.433814
0.593835 0.0938277 0.462287
0.745266 0.124834 0.442267
0.736858 0.116564 0.478447
0.0638895 0.535348 0.505058
0.0676738 0.546853 0.518532
0.504768 0.569467 0.575051
0.952026 0.478035 0.529519
0.960784 0.491173 0.575814
0.300771 0.877363 0.758251
0.30724 0.875944 0.756802
0.286946 0.872953 0.716564
0.950118 0.959014 0.727749
0.984848 0.961929 0.793088
0.312078 0.882673 0.79527
0.319646 0.880079 0.791623
0.299428 0.877104 0.745266
0.953658 0.969467 0.826078
0.983871 0.975067 0.850248
0.0439155 0.364019 0.662409
0.0434577 0.36199 0.663615
0.420584 0.400305 0.9037
0.912154 0.431373 0.913207
0.908782 0.432303 0.915404
0.0448463 0.368444 0.664225
0.04477 0.370367 0.665095
0.397971 0.425193 0.90338
0.915862 0.430488 0.909163
0.909178 0.432212 0.914916
0.0808576 0.530617 0.692988
0.0851911 0.540642 0.702617
0.2009 0.578424 0.804288
0.971389 0.535576 0.948241
0.964324 0.558816 0.957519
0.330816 0.886442 0.867048
0.341207 0.887633 0.867292
0.32694 0.878889 0.856153
0.936629 0.947967 0.951675
0.98175 0.954849 0.957488
0.326268 0.888258 0.878553
0.337362 0.885969 0.875151
0.333974 0.889479 0.86981
0.940902 0.976242 0.971084
0.994537 0.988266 0.987137
0.0451667 0.36994 0.664988
0.045243 0.371084 0.667185
0.422522 0.424994 0.913252
0.91194 0.431449 0.913069
0.911315 0.431693 0.912581
0.0455177 0.369406 0.665187
0.04477 0.370367 0.665095
0.409796 0.424231 0.909041
0.91487 0.430732 0.91014
0.909087 0.432242 0.914824
0.102022 0.5691 0.731106
0.102892 0.57348 0.731701
0.200076 0.586328 0.80499
0.972488 0.553368 0.963836
0.96228 0.57171 0.963684
0.325521 0.888563 0.878569
0.336858 0.886107 0.875364
0.32253 0.874372 0.86775
0.908904 0.941192 0.968124
0.981628 0.95407 0.972793
0.320684 0.889723 0.879896
0.336889 0.886091 0.875364
0.337469 0.885954 0.87512
0.903716 0.970886 0.974289
0.997528 0.988403 0.988632
