bundles/resolve-cinematic-luts/Phantom Luts/S5ii LUTs/Standard (No WB Offset)/S5ii Utopia V-Log.cube
TITLE "Generated by Resolve"
LUT_3D_SIZE 33
0 0.0270237 0.0350347
0 0.0270085 0.0350042
0 0.0269627 0.0349737
0.0171359 0.0259709 0.034226
0.0383001 0.0249027 0.0342718
0.0616159 0.0233005 0.0320134
0.0811017 0.0217594 0.0298161
0.102953 0.0204318 0.0285344
0.129778 0.0189822 0.0272984
0.162463 0.0171054 0.026215
0.20148 0.014847 0.0252689
0.247684 0.0124666 0.0238804
0.299672 0.0109102 0.0237278
0.354528 0.0110475 0.0257572
0.409476 0.0114443 0.0319982
0.46302 0.0114137 0.0401617
0.509544 0.0136873 0.0536049
0.540734 0.0103914 0.0540169
0.578271 0.0135195 0.0698711
0.651072 0.0270237 0.126131
0.691249 0.0347753 0.159014
0.698451 0.0363012 0.165774
0.698848 0.0366979 0.168032
0.699214 0.0370489 0.169757
0.699535 0.0373541 0.171267
0.69984 0.037583 0.172686
0.700053 0.0377203 0.173785
0.700252 0.0377508 0.17464
0.700511 0.0377356 0.175326
0.701122 0.0376135 0.175845
0.701885 0.0374304 0.176242
0.703304 0.0370336 0.176608
0.704799 0.0366369 0.176776
0 0.026978 0.0349737
0 0.0269932 0.0349889
0 0.0269627 0.0349737
0.00965896 0.0265202 0.0337835
0.0306401 0.0251621 0.0350042
0.0533761 0.0237736 0.0327916
0.0743877 0.0221103 0.030396
0.0963607 0.0207065 0.028748
0.123445 0.0192111 0.0275273
0.15729 0.0174563 0.0263066
0.196521 0.0151369 0.0254215
0.243381 0.0126192 0.024033
0.29543 0.0102235 0.0221256
0.348699 0.00852979 0.0206455
0.402853 0.007187 0.021561
0.45481 0.00602731 0.0254978
0.501305 0.00686656 0.0367742
0.544289 0.00914015 0.0556497
0.573205 0.00921645 0.0595102
0.641047 0.024155 0.110079
0.687114 0.0333715 0.149966
0.69723 0.0353552 0.160235
0.697765 0.0357061 0.162158
0.698146 0.0360266 0.164126
0.698466 0.0363165 0.165835
0.698726 0.0365606 0.167315
0.698924 0.0367742 0.168505
0.699168 0.0369116 0.169375
0.699474 0.0369879 0.169833
0.70016 0.0369116 0.170275
0.700999 0.0367437 0.170748
0.702449 0.036347 0.17113
0.70396 0.0359045 0.171405
0 0.026978 0.0349737
0 0.0270085 0.0350042
0 0.0270085 0.0350042
0 0.0269627 0.0349737
0.019501 0.0274052 0.0344549
0.0404517 0.0266117 0.0341802
0.0637522 0.0251621 0.0318303
0.087602 0.0235447 0.0298009
0.116777 0.0201419 0.0273289
0.151446 0.0178073 0.0263218
0.191684 0.0154269 0.0255283
0.238865 0.0128328 0.0241398
0.291966 0.0105745 0.0225071
0.346075 0.0084535 0.0204166
0.400671 0.00712596 0.02121
0.453269 0.00588998 0.0250401
0.498909 0.00588998 0.0340581
0.541131 0.00672923 0.0479744
0.576837 0.00880446 0.0610056
0.624964 0.0224765 0.0970016
0.677409 0.031693 0.136675
0.693828 0.0339818 0.151232
0.69572 0.0346075 0.155093
0.696681 0.03505 0.158145
0.69723 0.0353552 0.160204
0.697581 0.035584 0.161471
0.697826 0.0357519 0.162493
0.698085 0.0358587 0.163424
0.698421 0.035935 0.164172
0.69897 0.0358892 0.164752
0.699825 0.0357061 0.165194
0.701305 0.0353246 0.16553
0.702846 0.0348821 0.165805
0 0.0269627 0.0349737
0 0.0270085 0.0350042
0 0.0270085 0.0350042
0 0.0269627 0.0349737
0.0111849 0.0279545 0.034165
0.0277409 0.0297551 0.0354925
0.0493477 0.0300145 0.0341039
0.0752575 0.0292821 0.0320134
0.105531 0.0267185 0.0298161
0.142763 0.0217746 0.0265202
0.185397 0.0168765 0.0248112
0.234287 0.0131228 0.0240635
0.288624 0.0106203 0.0225681
0.343114 0.00859083 0.0205081
0.398489 0.00723278 0.0211948
0.451667 0.00590524 0.024918
0.497887 0.00587472 0.0336767
0.539834 0.00656138 0.0471809
0.57705 0.00886549 0.0618296
0.615518 0.0176547 0.085771
0.667857 0.0287633 0.123125
0.684642 0.0323339 0.136614
0.688212 0.0326848 0.141329
0.691539 0.033341 0.146563
0.693599 0.0338903 0.150759
0.695003 0.0343328 0.15349
0.695872 0.0346532 0.155398
0.696437 0.0348363 0.156893
0.696956 0.0349432 0.157961
0.697734 0.0348669 0.15874
0.698528 0.0347448 0.15935
0.700099 0.0343633 0.159686
0.701732 0.0339208 0.159823
0 0.0416266 0.0397803
0.000457771 0.0398566 0.0376593
0.0021973 0.0375982 0.0374304
0.00636301 0.0345006 0.0364996
0.0105745 0.0326696 0.0359045
0.0218814 0.0353704 0.0363775
0.0374456 0.035172 0.036759
0.0619211 0.0332952 0.0343633
0.0933394 0.0318608 0.0323644
0.131487 0.0281376 0.0293736
0.176837 0.0220035 0.0251621
0.228183 0.0157931 0.0225071
0.284382 0.0114443 0.0220951
0.340398 0.00886549 0.0205997
0.396445 0.00743114 0.0212406
0.450248 0.00587472 0.0246433
0.496818 0.0059205 0.033463
0.53875 0.00646983 0.0466163
0.57734 0.00915541 0.0627909
0.612497 0.0161288 0.0825513
0.667231 0.0284581 0.122087
0.682704 0.0319219 0.133822
0.682979 0.0319829 0.134325
0.683146 0.0320287 0.134691
0.683604 0.0321508 0.135439
0.686061 0.0326696 0.138415
0.688396 0.0327306 0.141588
0.690105 0.03299 0.144305
0.691432 0.0331731 0.145876
0.69276 0.0332036 0.147417
0.694148 0.0330968 0.148501
0.696025 0.0327764 0.149264
0.697765 0.0324254 0.149889
0 0.0610056 0.0429847
0 0.0587625 0.0372015
0 0.0559854 0.0371252
0.00950637 0.0509804 0.0356909
0.0166018 0.0469215 0.0352483
0.0244144 0.0492409 0.0332952
0.0397192 0.0513924 0.0355383
0.0644388 0.0502174 0.041062
0.0958419 0.0456703 0.0401312
0.129885 0.0401312 0.0341497
0.17084 0.03122 0.0290837
0.221836 0.0220645 0.0237888
0.280125 0.0146029 0.0201267
0.337591 0.00976577 0.0194705
0.394186 0.00753796 0.0209659
0.448554 0.00590524 0.024445
0.495689 0.0059968 0.0332799
0.537682 0.00639353 0.0460975
0.577508 0.00947585 0.0635538
0.610773 0.0154726 0.080705
0.66746 0.0281529 0.121721
0.682765 0.0317845 0.133516
0.682734 0.0317998 0.133516
0.682719 0.0317998 0.133516
0.682841 0.0318303 0.133715
0.683131 0.0319066 0.134127
0.683284 0.0319371 0.134432
0.683436 0.0319371 0.134646
0.68365 0.0319219 0.134798
0.684169 0.0317998 0.134859
0.68481 0.0316167 0.13492
0.686046 0.0312352 0.134936
0.687465 0.030808 0.134874
0 0.0849622 0.0402838
0 0.0822003 0.0344396
0 0.0792096 0.0346227
0.00564584 0.0743572 0.0339818
0.0172122 0.0683604 0.0335546
0.0281529 0.0662699 0.0320745
0.0427558 0.0689555 0.0307164
0.0683299 0.0704967 0.0378729
0.0966201 0.0687572 0.044358
0.141054 0.0596017 0.0457313
0.183886 0.051606 0.0390478
0.228702 0.0405432 0.0308385
0.279271 0.0236973 0.0231632
0.335958 0.0136873 0.0182803
0.392615 0.00854505 0.0203708
0.447074 0.00602731 0.0242161
0.494774 0.00602731 0.0330816
0.536675 0.00631724 0.045716
0.577646 0.00984207 0.064271
0.608942 0.0146487 0.0789654
0.667918 0.0280003 0.12166
0.683146 0.0316625 0.133486
0.683146 0.0316777 0.133501
0.683131 0.0316777 0.133486
0.683116 0.0316777 0.133501
0.683116 0.0316777 0.133501
0.683116 0.0316777 0.133501
0.683116 0.0316777 0.133501
0.683146 0.0316625 0.133486
0.683375 0.0316014 0.133486
0.683742 0.0314794 0.133455
0.684504 0.0312352 0.133425
0.685252 0.0310063 0.133425
0 0.110216 0.0365759
0 0.107927 0.0294347
0 0.105623 0.0290379
0 0.102831 0.0293889
0.0147097 0.0975509 0.0291142
0.027985 0.0915236 0.028687
0.0474556 0.0930648 0.0281682
0.0712902 0.0948196 0.0306401
0.101595 0.0965591 0.0368658
0.141375 0.0926528 0.0472267
0.194018 0.079942 0.0488746
0.252064 0.0655833 0.0448615
0.299062 0.0528573 0.0350805
0.346059 0.0327153 0.0262608
0.393088 0.0140078 0.0192111
0.445716 0.0068513 0.0234226
0.493324 0.00608835 0.0328069
0.535241 0.00622568 0.0451514
0.5776 0.010193 0.0648356
0.606287 0.0133822 0.0761425
0.66807 0.0278325 0.121477
0.683238 0.031632 0.133486
0.683238 0.031632 0.133486
0.683238 0.031632 0.133486
0.683238 0.031632 0.133486
0.683238 0.031632 0.133486
0.683238 0.031632 0.133486
0.683238 0.031632 0.133486
0.683238 0.031632 0.133486
0.683421 0.0315862 0.133486
0.683757 0.0314794 0.133455
0.684504 0.0312352 0.133425
0.685267 0.0310063 0.133425
0 0.141543 0.0343023
0 0.138857 0.0246433
0 0.136126 0.0201877
0 0.133974 0.0206455
0.00743114 0.130297 0.0212863
0.0234226 0.125643 0.0218051
0.0476844 0.120287 0.0247196
0.0749371 0.121141 0.0265049
0.102586 0.12314 0.029984
0.143511 0.124956 0.0345922
0.195712 0.118975 0.0488136
0.25742 0.10341 0.0520027
0.325475 0.0847639 0.0498054
0.372763 0.0692607 0.0422522
0.415152 0.0467384 0.0330358
0.451057 0.0163272 0.022385
0.49247 0.00747692 0.0309453
0.533516 0.00608835 0.0443122
0.577081 0.0104982 0.0651865
0.602502 0.0119478 0.0729534
0.668055 0.0276951 0.121309
0.683238 0.031632 0.133486
0.683238 0.031632 0.133486
0.683238 0.031632 0.133486
0.683238 0.031632 0.133486
0.683238 0.031632 0.133486
0.683238 0.031632 0.133486
0.683238 0.031632 0.133486
0.683238 0.031632 0.133486
0.683421 0.0315862 0.133486
0.683757 0.0314794 0.133455
0.684504 0.0312352 0.133425
0.685267 0.0310063 0.133425
0 0.179583 0.0332189
0 0.177295 0.0220188
0 0.174472 0.00970474
0 0.172366 0.0093843
0 0.170001 0.00994888
0.0128786 0.166766 0.0108797
0.0346075 0.162051 0.0120241
0.0750591 0.15613 0.0193637
0.106661 0.156756 0.0237888
0.142885 0.159213 0.027863
0.194751 0.16054 0.0313878
0.258808 0.153155 0.0491493
0.329671 0.134432 0.056199
0.39881 0.11281 0.0573129
0.449149 0.0917525 0.0520485
0.485817 0.0674296 0.042237
0.511849 0.0291295 0.0310826
0.536568 0.00988785 0.0401312
0.576745 0.0108644 0.0645762
0.598596 0.0108949 0.0691844
0.668147 0.0276951 0.121218
0.683238 0.031632 0.133486
0.683238 0.031632 0.133486
0.683238 0.031632 0.133486
0.683238 0.031632 0.133486
0.683238 0.031632 0.133486
0.683238 0.031632 0.133486
0.683238 0.031632 0.133486
0.683238 0.031632 0.133486
0.683421 0.0315862 0.133486
0.683757 0.0314794 0.133455
0.684504 0.0312352 0.133425
0.685267 0.0310063 0.133425
0 0.225254 0.0362097
0 0.222599 0.0215457
0 0.219608 0.00872816
0 0.216693 0
0 0.214908 0
0 0.212909 0
0.0175174 0.210895 0
0.0486763 0.205692 0.0012665
0.104433 0.199588 0.0138705
0.144427 0.19971 0.0209659
0.191424 0.202747 0.0263371
0.255283 0.203754 0.0297856
0.328099 0.196582 0.0504005
0.40264 0.175616 0.0632792
0.470207 0.15256 0.0684672
0.525963 0.125368 0.067628
0.555047 0.100725 0.0597086
0.575219 0.0531777 0.0463111
0.593561 0.0167086 0.0494087
0.601419 0.0108186 0.0601205
0.667979 0.0273899 0.119188
0.682826 0.0315709 0.133043
0.683131 0.0316167 0.133364
0.683238 0.031632 0.133486
0.683238 0.031632 0.133486
0.683238 0.031632 0.133486
0.683238 0.031632 0.133486
0.683238 0.031632 0.133486
0.683238 0.031632 0.133486
0.683421 0.0315862 0.133486
0.683757 0.0314794 0.133455
0.684504 0.0312352 0.133425
0.685267 0.0310063 0.133425
0 0.278508 0.0407874
0 0.275868 0.0265202
0 0.273304 0.0138705
0 0.270161 0
0 0.267567 0
0 0.265766 0
0.000549325 0.264042 0
0.0203098 0.262257 0
0.0656138 0.256199 0
0.137636 0.25008 0.00848402
0.190738 0.25008 0.0197452
0.248112 0.253559 0.027924
0.32398 0.254963 0.0308995
0.396994 0.250034 0.0502022
0.474083 0.230259 0.0731518
0.541787 0.205112 0.0825971
0.598871 0.173465 0.0898756
0.625803 0.146731 0.0839094
0.648386 0.0903792 0.0634775
0.663294 0.0279393 0.0566415
0.652415 0.0157778 0.0766003
0.668849 0.0271611 0.112306
0.679133 0.0303502 0.126726
0.681758 0.0306554 0.130236
0.682643 0.0311894 0.132174
0.682963 0.0314031 0.132677
0.683085 0.0314183 0.132799
0.683238 0.0314488 0.132982
0.68336 0.0314641 0.133104
0.683574 0.0314488 0.133211
0.683909 0.0313726 0.133303
0.684581 0.0312047 0.133364
0.685298 0.0309911 0.13341
0 0.337423 0.0479591
0 0.335805 0.0367132
0 0.333608 0.0252689
0 0.331518 0.0133516
0 0.328969 0
0.00608835 0.326711 0
0.00640879 0.325231 0
0.00715648 0.323369 0
0.0260777 0.32018 0
0.0919356 0.314672 0
0.180316 0.308232 0.00613413
0.245258 0.308553 0.0197604
0.314748 0.312795 0.0303502
0.394644 0.314122 0.0336767
0.466087 0.313787 0.0490883
0.544854 0.297032 0.0809949
0.611078 0.270741 0.0992752
0.670954 0.234958 0.116548
0.708003 0.201343 0.112078
0.73257 0.144076 0.0926223
0.729702 0.0429694 0.0614481
0.717617 0.0257725 0.0697185
0.703075 0.0226139 0.0910353
0.667475 0.0177005 0.0797742
0.660166 0.0217594 0.0941024
0.667872 0.0277409 0.110567
0.673121 0.0292668 0.11696
0.676921 0.0295567 0.120317
0.679622 0.0298924 0.123262
0.681651 0.030045 0.125582
0.683101 0.0301213 0.127306
0.684413 0.0301366 0.128603
0.685618 0.029984 0.129458
0 0.399863 0.0656748
0 0.39852 0.0543679
0 0.397131 0.0431067
0 0.39588 0.032639
0 0.39501 0.0227512
0.0031281 0.393683 0.00846876
0.0145418 0.391791 0
0.0163882 0.390066 0
0.0175174 0.388052 0
0.0408637 0.382666 0
0.128191 0.376501 0
0.233112 0.368734 0.00979629
0.308782 0.369741 0.0237278
0.385473 0.375067 0.0340581
0.466575 0.376806 0.0374151
0.536385 0.380499 0.0479133
0.613413 0.369574 0.0893416
0.67657 0.349203 0.119188
0.7476 0.308537 0.14229
0.793561 0.265293 0.142733
0.811826 0.208759 0.124086
0.801114 0.151415 0.10193
0.780865 0.103746 0.0846876
0.759319 0.0638895 0.0675975
0.740719 0.0370642 0.0563516
0.732113 0.0310521 0.0610666
0.726665 0.0301671 0.0679942
0.721889 0.0294652 0.0725872
0.717998 0.0292363 0.0773632
0.714916 0.0289006 0.082887
0.712398 0.0286412 0.0877241
0.711269 0.028397 0.0914778
0.710948 0.0281071 0.0942397
0 0.467597 0.0986801
0 0.467079 0.087602
0 0.466529 0.0765545
0 0.466285 0.0662242
0.000656138 0.465797 0.0558022
0.00621042 0.465461 0.0467231
0.0141604 0.464881 0.0344091
0.0269932 0.46334 0.0160678
0.0343175 0.461143 0.00596628
0.0356909 0.45861 0.00376898
0.0671092 0.450523 0
0.173632 0.443107 0
0.29662 0.433433 0.0221408
0.381384 0.434592 0.0319066
0.45864 0.439414 0.0383764
0.537362 0.44097 0.0441749
0.605249 0.446662 0.0549783
0.680156 0.440665 0.104097
0.742428 0.426535 0.137392
0.816388 0.383856 0.162707
0.864897 0.337072 0.170657
0.870954 0.302663 0.159228
0.86215 0.279164 0.150301
0.85211 0.256596 0.142519
0.843107 0.235554 0.135378
0.834623 0.217121 0.128756
0.82768 0.201663 0.122988
0.821347 0.188739 0.117754
0.816388 0.178363 0.113497
0.81265 0.170367 0.110292
0.809323 0.163775 0.107637
0.807477 0.158892 0.105364
0.806775 0.155016 0.103273
0 0.539147 0.147845
0 0.539528 0.137346
0 0.539864 0.126787
0 0.540322 0.116228
0.0021973 0.540658 0.10573
0.0108797 0.540856 0.0950484
0.018967 0.540948 0.0850843
0.0292058 0.540963 0.0728161
0.0488594 0.539651 0.0505837
0.0623789 0.537118 0.0345617
0.0635233 0.533791 0.0306554
0.103044 0.52369 0
0.225879 0.514366 0
0.372 0.500084 0.040177
0.455833 0.500313 0.0445716
0.530556 0.503059 0.0478981
0.606226 0.505119 0.0568093
0.672831 0.510567 0.0707561
0.747997 0.509163 0.122728
0.809094 0.499336 0.150271
0.872251 0.461692 0.178317
0.90576 0.418036 0.188266
0.906706 0.397131 0.187762
0.903487 0.381826 0.185382
0.900038 0.368475 0.182437
0.89662 0.357626 0.179492
0.893812 0.349035 0.176837
0.891234 0.34229 0.174273
0.889006 0.336965 0.172152
0.887297 0.33315 0.170611
0.885893 0.330465 0.16936
0.885176 0.328237 0.168185
0.884947 0.32665 0.166842
0 0.610117 0.214221
0 0.611246 0.204273
0 0.612741 0.193957
0 0.614069 0.183703
0.000961318 0.61529 0.173541
0.0103456 0.616358 0.163363
0.0208133 0.61709 0.152697
0.0345006 0.617578 0.139193
0.0495308 0.617868 0.12372
0.0744335 0.616846 0.0982986
0.0924392 0.614298 0.078294
0.0950027 0.610666 0.0726329
0.149966 0.597208 0.022858
0.290318 0.587015 0.0146181
0.451423 0.567941 0.0620279
0.529961 0.565835 0.0659495
0.60119 0.566842 0.0661021
0.672435 0.568032 0.0754559
0.74168 0.572931 0.0862898
0.813947 0.574243 0.133165
0.867002 0.568109 0.160006
0.91043 0.542473 0.183017
0.919203 0.521248 0.191135
0.919051 0.505821 0.193576
0.918578 0.492943 0.194522
0.91812 0.482353 0.194278
0.91783 0.474128 0.193805
0.91751 0.467277 0.193301
0.917021 0.462745 0.193011
0.916289 0.459434 0.192523
0.91603 0.45716 0.192462
0.91606 0.455604 0.192081
0.916167 0.454658 0.191211
0 0.680278 0.291539
0 0.681224 0.283116
0 0.682139 0.274372
0 0.682933 0.264927
0 0.684703 0.254932
0.00199893 0.686671 0.244434
0.0112917 0.688746 0.233845
0.0247807 0.690639 0.220478
0.0438697 0.692454 0.202838
0.0686961 0.693721 0.180056
0.0956893 0.693843 0.153704
0.112398 0.691127 0.135286
0.117281 0.686549 0.125933
0.207279 0.668803 0.0480049
0.367834 0.658167 0.051606
0.529183 0.634379 0.0919356
0.601144 0.629786 0.0917525
0.668147 0.628733 0.0906691
0.737575 0.629679 0.0928969
0.808301 0.633143 0.102251
0.870604 0.636484 0.139513
0.912886 0.632792 0.167285
0.92752 0.623331 0.172824
0.927703 0.614237 0.174868
0.92665 0.606058 0.176562
0.925994 0.5991 0.178271
0.92517 0.593317 0.179187
0.924834 0.588907 0.180285
0.924346 0.585214 0.180819
0.92401 0.582681 0.181262
0.923812 0.580728 0.181552
0.923873 0.579431 0.181552
0.924147 0.578637 0.181216
0.00300603 0.751431 0.365621
0.00262455 0.752163 0.358984
0.00215152 0.753033 0.3523
0.00195315 0.753918 0.345052
0.00221256 0.754879 0.336934
0.00283818 0.755856 0.328756
0.00369268 0.756832 0.319997
0.00587472 0.75819 0.308583
0.0203861 0.761242 0.29398
0.0458839 0.764385 0.273701
0.0813153 0.767224 0.244312
0.115175 0.768902 0.21326
0.12221 0.765805 0.203754
0.145937 0.759899 0.178149
0.283604 0.741161 0.0757153
0.456413 0.72636 0.100343
0.602777 0.699214 0.125917
0.668925 0.692561 0.118898
0.733257 0.690105 0.113634
0.80061 0.690059 0.112551
0.865049 0.691661 0.12314
0.917037 0.695399 0.146777
0.945495 0.693904 0.171298
0.946914 0.688426 0.173404
0.944961 0.683116 0.172641
0.943557 0.678889 0.172076
0.942275 0.67512 0.171527
0.941512 0.672511 0.171252
0.940795 0.67013 0.171023
0.940185 0.668284 0.170809
0.939742 0.667033 0.170596
0.939498 0.666148 0.170352
0.939345 0.665522 0.170047
0.0164187 0.821607 0.43444
0.0156405 0.822477 0.429282
0.0146029 0.823423 0.423972
0.0138247 0.824247 0.418402
0.013077 0.825101 0.412299
0.0126497 0.825986 0.406027
0.0124056 0.826886 0.399344
0.0124361 0.827939 0.390585
0.0134279 0.829374 0.378653
0.015671 0.831388 0.361349
0.0320134 0.835477 0.338018
0.0764019 0.840406 0.3066
0.119738 0.841215 0.275776
0.12488 0.837324 0.269352
0.191104 0.829618 0.218997
0.368566 0.813901 0.121202
0.547189 0.791592 0.155032
0.671748 0.764294 0.164721
0.733257 0.755016 0.149264
0.794659 0.750057 0.143679
0.856016 0.749371 0.136599
0.912169 0.750317 0.154391
0.954604 0.754086 0.177798
0.966278 0.751324 0.18883
0.965942 0.746746 0.1879
0.964279 0.742412 0.18584
0.963485 0.73933 0.184649
0.962448 0.736614 0.183108
0.961685 0.734462 0.18201
0.961105 0.732876 0.181308
0.960983 0.731975 0.181064
0.960754 0.731289 0.180697
0.960555 0.730831 0.180377
0.0273594 0.879744 0.499046
0.0263676 0.880354 0.495491
0.0248875 0.881178 0.491066
0.023621 0.881971 0.487022
0.0225834 0.882856 0.482353
0.0218357 0.883574 0.478004
0.0212863 0.884321 0.472984
0.0207675 0.885176 0.466743
0.0204318 0.886427 0.457969
0.0198978 0.888075 0.445319
0.0201877 0.890333 0.427115
0.023743 0.893736 0.400992
0.0485542 0.899641 0.36611
0.0743877 0.900328 0.34789
0.088365 0.896681 0.336965
0.23859 0.891325 0.24538
0.465446 0.873838 0.177722
0.626322 0.846265 0.215793
0.731838 0.821653 0.217807
0.79089 0.812634 0.201114
0.851743 0.808347 0.197299
0.905776 0.806928 0.189929
0.948791 0.809064 0.202655
0.981048 0.812757 0.227817
0.983642 0.809369 0.227832
0.983154 0.805631 0.224948
0.982406 0.802655 0.222583
0.981826 0.800107 0.220737
0.981506 0.798306 0.219593
0.98114 0.796872 0.218509
0.980697 0.795773 0.217853
0.980377 0.79498 0.217838
0.980148 0.794476 0.218357
0.037232 0.924285 0.562249
0.0362707 0.924819 0.559075
0.0344396 0.92549 0.555978
0.0328222 0.926223 0.552483
0.0315099 0.926833 0.549218
0.0307164 0.927413 0.545663
0.0301061 0.927962 0.542016
0.029572 0.928557 0.537423
0.0288853 0.929335 0.531106
0.0281682 0.930419 0.522057
0.0273594 0.93225 0.509468
0.0264286 0.934707 0.491249
0.0272679 0.93817 0.464363
0.0286564 0.941238 0.433707
0.0307469 0.938949 0.424811
0.0924849 0.943511 0.376654
0.300237 0.943069 0.262547
0.55346 0.920485 0.253376
0.692805 0.890974 0.287602
0.784619 0.87126 0.291569
0.842649 0.863233 0.277226
0.898863 0.858839 0.276936
0.944076 0.857191 0.276844
0.973541 0.861204 0.281926
0.988434 0.861845 0.2916
0.989288 0.858946 0.288273
0.989487 0.856641 0.284871
0.989227 0.854597 0.281804
0.989059 0.852918 0.278996
0.988922 0.851591 0.276661
0.988815 0.850614 0.275364
0.988724 0.849897 0.274846
0.988693 0.849409 0.274861
0.0541695 0.956619 0.623362
0.0531472 0.957015 0.621012
0.0511025 0.957641 0.618479
0.0492103 0.958251 0.615991
0.0476387 0.958801 0.613352
0.0469215 0.959182 0.610651
0.0462806 0.959533 0.608011
0.0457923 0.959899 0.604608
0.0451057 0.960388 0.599771
0.0442054 0.961044 0.593088
0.0430304 0.96202 0.583871
0.0417792 0.963409 0.571206
0.0402838 0.965927 0.552911
0.0383307 0.968811 0.527642
0.0369879 0.968093 0.51429
0.0415045 0.967193 0.497642
0.118578 0.980774 0.404944
0.385092 0.982681 0.321263
0.621592 0.957168 0.333135
0.749249 0.929305 0.367941
0.830823 0.913695 0.378302
0.886656 0.905455 0.371633
0.934768 0.900725 0.375448
0.970382 0.898573 0.379828
0.992706 0.901274 0.383627
0.994369 0.899641 0.378851
0.993896 0.897597 0.373404
0.993362 0.895949 0.36878
0.993072 0.894652 0.365042
0.992996 0.89395 0.362325
0.993011 0.893492 0.360265
0.992981 0.89305 0.35874
0.992996 0.892683 0.358038
0.0668803 0.971832 0.665965
0.0661631 0.972229 0.664347
0.0643626 0.972885 0.662654
0.062562 0.973556 0.660838
0.0611582 0.97409 0.659159
0.060441 0.974487 0.657603
0.0599527 0.974853 0.655726
0.0597086 0.975204 0.653483
0.0593576 0.975631 0.650568
0.058854 0.976242 0.646281
0.0580606 0.977066 0.640558
0.0569772 0.978241 0.632425
0.0556497 0.979904 0.620905
0.0536812 0.982223 0.605341
0.0522316 0.983658 0.593332
0.0500801 0.982895 0.581857
0.0522164 0.987228 0.527626
0.155535 0.999969 0.433616
0.494743 0.999756 0.394278
0.679255 0.984665 0.41738
0.798688 0.959991 0.454459
0.87396 0.946746 0.467628
0.922942 0.938933 0.46183
0.964675 0.933623 0.464088
0.993591 0.930694 0.467674
0.999329 0.930129 0.467109
0.999329 0.928512 0.462043
0.999115 0.927153 0.457679
0.998932 0.926253 0.454627
0.998825 0.925719 0.452247
0.998688 0.925185 0.450446
0.998611 0.924758 0.449088
0.998596 0.924407 0.448127
0.0673838 0.973098 0.673793
0.0670634 0.973358 0.672251
0.0657206 0.973877 0.670604
0.0641947 0.974456 0.668833
0.0628824 0.97496 0.66717
0.0621958 0.975311 0.665629
0.061799 0.975616 0.663905
0.0615854 0.975937 0.66154
0.0611734 0.976333 0.658534
0.0606088 0.976898 0.654261
0.0598154 0.97763 0.64863
0.0587472 0.978698 0.640864
0.0572519 0.98024 0.629877
0.0554055 0.982406 0.614649
0.0535286 0.984741 0.5991
0.0533913 0.984924 0.598016
0.0540322 0.988617 0.584588
0.077409 0.998459 0.532723
0.252033 0.999969 0.460395
0.580224 0.999969 0.467033
0.731151 0.994736 0.501442
0.846906 0.975219 0.54226
0.912566 0.968215 0.558556
0.954009 0.962737 0.552422
0.988037 0.957778 0.553185
0.999969 0.953765 0.557549
0.999969 0.9523 0.551873
0.999969 0.951156 0.546609
0.999969 0.950225 0.542641
0.999969 0.949706 0.539651
0.999969 0.949187 0.537591
0.999969 0.94876 0.535836
0.999969 0.94844 0.534524
0.064683 0.973373 0.676707
0.0651255 0.973449 0.675212
0.0649271 0.973678 0.673762
0.0642863 0.974014 0.672175
0.0632181 0.974472 0.670497
0.0625467 0.974838 0.668788
0.0621042 0.975143 0.667079
0.0618906 0.975464 0.664942
0.0616159 0.975891 0.661875
0.0610819 0.976425 0.657786
0.0603189 0.977188 0.652049
0.0592508 0.97821 0.644327
0.0577859 0.979721 0.633539
0.0559396 0.981842 0.618555
0.0536812 0.984543 0.600336
0.0535286 0.984848 0.598901
0.0537575 0.986984 0.592432
0.0607156 0.996353 0.548714
0.169421 0.999969 0.469062
0.529 0.999969 0.471824
0.695155 0.999023 0.506844
0.801144 0.986419 0.552468
0.898436 0.973388 0.594079
0.940459 0.970092 0.607217
0.973922 0.96907 0.616464
0.997391 0.967865 0.630793
0.999802 0.967239 0.633524
0.999878 0.967056 0.630884
0.999893 0.966964 0.628672
0.999893 0.966918 0.627161
0.999908 0.966918 0.626108
0.999908 0.966888 0.625116
0.999924 0.966827 0.624247
0.0635386 0.973327 0.67924
0.0637064 0.973465 0.677806
0.063859 0.973632 0.676188
0.0638437 0.973816 0.674739
0.0633249 0.974136 0.67306
0.0628214 0.974426 0.671489
0.0623941 0.974746 0.669734
0.0621653 0.975097 0.667414
0.0618601 0.975509 0.664622
0.0614633 0.976089 0.66041
0.0607004 0.976791 0.654932
0.0596475 0.977798 0.647334
0.0581979 0.979263 0.63679
0.0563821 0.981323 0.622065
0.0540627 0.984039 0.603754
0.0535286 0.984741 0.5991
0.0533608 0.985748 0.595575
0.0572976 0.994904 0.558038
0.14258 0.999969 0.481575
0.490654 0.999969 0.47219
0.676295 0.999649 0.50103
0.785473 0.989013 0.546166
0.886748 0.974899 0.590723
0.932937 0.970626 0.606912
0.966873 0.969223 0.615137
0.993347 0.968215 0.628153
0.999649 0.96788 0.639612
0.999725 0.96788 0.640085
0.999695 0.967926 0.640131
