bundles/resolve-cinematic-luts/Gamut/Faction/Faction 03.cube
TITLE "Faction 03 by Gamut"
# Version 1.0 - 02/13/2024 - Designed for Rec.709 Color Space. Copyright 2024 Gamut, LLC
LUT_3D_SIZE 33
0.0030823200 0.0382239000 0.0417945000
0.0093537800 0.0386358000 0.0383612000
0.0234073000 0.0392615000 0.0327153000
0.0445411000 0.0386358000 0.0243076000
0.0743725000 0.0388342000 0.0144503000
0.1108420000 0.0394293000 0.0051880700
0.1444420000 0.0394293000 0.0007476920
0.1759820000 0.0402228000 0.0000000000
0.2049440000 0.0409857000 0.0000000000
0.2331880000 0.0424811000 0.0000000000
0.2615850000 0.0446326000 0.0000000000
0.2903790000 0.0473640000 0.0000000000
0.3202110000 0.0507668000 0.0000000000
0.3508810000 0.0540932000 0.0000000000
0.3806670000 0.0572061000 0.0000000000
0.4094450000 0.0601968000 0.0000000000
0.4367590000 0.0625010000 0.0000000000
0.4628670000 0.0647593000 0.0000000000
0.4881060000 0.0669413000 0.0000000000
0.5132830000 0.0687419000 0.0000000000
0.5387500000 0.0706645000 0.0000000000
0.5641260000 0.0724193000 0.0000000000
0.5897760000 0.0739452000 0.0000000000
0.6159910000 0.0754406000 0.0000000000
0.6429690000 0.0764172000 0.0000000000
0.6700240000 0.0773938000 0.0000000000
0.6972920000 0.0788281000 0.0000000000
0.7246660000 0.0797742000 0.0000000000
0.7524070000 0.0807050000 0.0000000000
0.7803620000 0.0816052000 0.0000000000
0.8093390000 0.0825971000 0.0000000000
0.8394900000 0.0838483000 0.0000000000
0.8704970000 0.0851759000 0.0000000000
0.0030823200 0.0492256000 0.0451209000
0.0100252000 0.0501411000 0.0420996000
0.0243534000 0.0509041000 0.0366217000
0.0467994000 0.0509194000 0.0282139000
0.0780499000 0.0509194000 0.0173953000
0.1159380000 0.0509957000 0.0074464000
0.1515070000 0.0516213000 0.0022735900
0.1838560000 0.0522621000 0.0000000000
0.2148780000 0.0528878000 0.0000000000
0.2441290000 0.0541695000 0.0000000000
0.2736550000 0.0560464000 0.0000000000
0.3033190000 0.0584421000 0.0000000000
0.3343400000 0.0614023000 0.0000000000
0.3660330000 0.0641794000 0.0000000000
0.3973300000 0.0664683000 0.0000000000
0.4275430000 0.0686198000 0.0000000000
0.4561990000 0.0703288000 0.0000000000
0.4829630000 0.0713664000 0.0000000000
0.5087210000 0.0725567000 0.0000000000
0.5336390000 0.0734264000 0.0000000000
0.5581600000 0.0744488000 0.0000000000
0.5824220000 0.0749371000 0.0000000000
0.6070950000 0.0756542000 0.0000000000
0.6322420000 0.0764324000 0.0000000000
0.6576490000 0.0773938000 0.0000000000
0.6833750000 0.0783551000 0.0000000000
0.7093770000 0.0793011000 0.0000000000
0.7355760000 0.0797742000 0.0000000000
0.7621730000 0.0807050000 0.0000000000
0.7892270000 0.0820630000 0.0000000000
0.8172730000 0.0829633000 0.0000000000
0.8467540000 0.0843061000 0.0000000000
0.8771340000 0.0856184000 0.0000000000
0.0030823200 0.0613260000 0.0500343000
0.0100252000 0.0627451000 0.0473487000
0.0243534000 0.0641031000 0.0422827000
0.0472419000 0.0645457000 0.0345769000
0.0798352000 0.0652476000 0.0237430000
0.1187910000 0.0656748000 0.0121462000
0.1562520000 0.0662394000 0.0046234800
0.1898370000 0.0667887000 0.0015716800
0.2216980000 0.0673381000 0.0000152590
0.2526130000 0.0684062000 0.0000000000
0.2831160000 0.0699931000 0.0000000000
0.3140150000 0.0720226000 0.0000000000
0.3460900000 0.0740520000 0.0000000000
0.3790950000 0.0760357000 0.0000000000
0.4117190000 0.0775769000 0.0000000000
0.4432590000 0.0790112000 0.0000000000
0.4733350000 0.0796063000 0.0000000000
0.5019300000 0.0804150000 0.0000000000
0.5286340000 0.0805524000 0.0000000000
0.5541010000 0.0802472000 0.0000000000
0.5786830000 0.0800793000 0.0000000000
0.6028380000 0.0795911000 0.0000000000
0.6269170000 0.0793164000 0.0000000000
0.6511640000 0.0791180000 0.0000000000
0.6755470000 0.0793622000 0.0000000000
0.7000990000 0.0798199000 0.0000000000
0.7248490000 0.0802777000 0.0000000000
0.7499350000 0.0807355000 0.0000000000
0.7755400000 0.0816510000 0.0000000000
0.8015870000 0.0825513000 0.0000000000
0.8287630000 0.0835279000 0.0000000000
0.8574200000 0.0848096000 0.0000000000
0.8871440000 0.0865187000 0.0000000000
0.0030670600 0.0745708000 0.0563211000
0.0093385200 0.0770275000 0.0540627000
0.0227359000 0.0791333000 0.0504005000
0.0457771000 0.0808728000 0.0444495000
0.0783398000 0.0818189000 0.0347601000
0.1191880000 0.0826886000 0.0223850000
0.1578390000 0.0831311000 0.0117647000
0.1929500000 0.0840467000 0.0056000600
0.2263680000 0.0849317000 0.0024872200
0.2581370000 0.0858320000 0.0016632300
0.2897230000 0.0871748000 0.0008850230
0.3220720000 0.0888685000 0.0007934690
0.3552150000 0.0897688000 0.0000152590
0.3892730000 0.0910353000 0.0000000000
0.4232090000 0.0918746000 0.0000000000
0.4563360000 0.0923781000 0.0000000000
0.4878310000 0.0924697000 0.0000000000
0.5176170000 0.0923476000 0.0000000000
0.5458920000 0.0916304000 0.0000000000
0.5727780000 0.0905013000 0.0000000000
0.5986270000 0.0892042000 0.0000000000
0.6234990000 0.0878920000 0.0000000000
0.6481420000 0.0865797000 0.0000000000
0.6722970000 0.0852522000 0.0000000000
0.6962840000 0.0841230000 0.0000000000
0.7202260000 0.0836652000 0.0000000000
0.7443500000 0.0834058000 0.0000000000
0.7687190000 0.0833906000 0.0000000000
0.7935000000 0.0835431000 0.0000000000
0.8188910000 0.0839704000 0.0000000000
0.8453650000 0.0852979000 0.0000000000
0.8735640000 0.0866560000 0.0000000000
0.9028310000 0.0883497000 0.0000000000
0.0023346300 0.0899214000 0.0644999000
0.0070801900 0.0934310000 0.0637217000
0.0193027000 0.0963149000 0.0614481000
0.0407721000 0.0986496000 0.0572671000
0.0732738000 0.1007100000 0.0501411000
0.1161820000 0.1024490000 0.0384985000
0.1576100000 0.1035930000 0.0262760000
0.1947660000 0.1047230000 0.0177768000
0.2292670000 0.1058520000 0.0122530000
0.2623480000 0.1069810000 0.0082703900
0.2951860000 0.1080800000 0.0050812500
0.3287860000 0.1091630000 0.0027008500
0.3632260000 0.1098800000 0.0009613180
0.3983830000 0.1105670000 0.0001678490
0.4333100000 0.1109640000 0.0000000000
0.4672770000 0.1107040000 0.0000000000
0.4999620000 0.1103230000 0.0000000000
0.5308160000 0.1092390000 0.0000000000
0.5603110000 0.1078970000 0.0000000000
0.5887240000 0.1060350000 0.0000000000
0.6161440000 0.1039140000 0.0000000000
0.6424200000 0.1012440000 0.0000000000
0.6682540000 0.0988785000 0.0000000000
0.6932480000 0.0964523000 0.0000000000
0.7178450000 0.0944076000 0.0000000000
0.7421380000 0.0925154000 0.0000000000
0.7662170000 0.0910048000 0.0000000000
0.7904480000 0.0897078000 0.0000000000
0.8151520000 0.0892653000 0.0000000000
0.8405130000 0.0890669000 0.0000000000
0.8669870000 0.0899214000 0.0000000000
0.8953230000 0.0916457000 0.0000000000
0.9248950000 0.0936751000 0.0000000000
0.0014801300 0.1065690000 0.0745861000
0.0055695400 0.1105520000 0.0749981000
0.0149691000 0.1145040000 0.0744182000
0.0343938000 0.1180440000 0.0723583000
0.0661784000 0.1214620000 0.0680095000
0.1105360000 0.1239340000 0.0594797000
0.1553220000 0.1261160000 0.0488594000
0.1951780000 0.1277030000 0.0386358000
0.2316170000 0.1295490000 0.0307927000
0.2664530000 0.1310600000 0.0244602000
0.3004960000 0.1319750000 0.0173648000
0.3352710000 0.1329060000 0.0102998000
0.3709770000 0.1335010000 0.0051880700
0.4068510000 0.1337910000 0.0017547900
0.4425730000 0.1338370000 0.0001983670
0.4775010000 0.1336080000 0.0000000000
0.5106430000 0.1327840000 0.0000000000
0.5423210000 0.1312890000 0.0000000000
0.5726710000 0.1293350000 0.0000000000
0.6021060000 0.1271690000 0.0000000000
0.6307930000 0.1243150000 0.0000000000
0.6585790000 0.1212020000 0.0000000000
0.6855880000 0.1178910000 0.0000000000
0.7119400000 0.1146560000 0.0000000000
0.7375600000 0.1114980000 0.0000000000
0.7626760000 0.1086140000 0.0000000000
0.7873960000 0.1058370000 0.0000000000
0.8121610000 0.1036090000 0.0000000000
0.8373390000 0.1018230000 0.0000000000
0.8630200000 0.1009080000 0.0000000000
0.8900890000 0.1010450000 0.0000000000
0.9190360000 0.1029830000 0.0000000000
0.9492330000 0.1059130000 0.0000000000
0.0011139100 0.1249870000 0.0869306000
0.0035095800 0.1291520000 0.0881666000
0.0105287000 0.1334710000 0.0887922000
0.0265660000 0.1379420000 0.0882582000
0.0561379000 0.1424730000 0.0861067000
0.1015340000 0.1468530000 0.0807813000
0.1511710000 0.1502710000 0.0725872000
0.1949490000 0.1528950000 0.0634775000
0.2339060000 0.1549550000 0.0550698000
0.2702530000 0.1564970000 0.0456245000
0.3061270000 0.1577630000 0.0356909000
0.3419390000 0.1585560000 0.0239109000
0.3788970000 0.1592890000 0.0127260000
0.4157170000 0.1597920000 0.0045929700
0.4520640000 0.1598380000 0.0011444300
0.4872820000 0.1594570000 0.0000000000
0.5208670000 0.1587090000 0.0000000000
0.5529410000 0.1571220000 0.0000000000
0.5838710000 0.1551840000 0.0000000000
0.6138250000 0.1526210000 0.0000000000
0.6434420000 0.1498280000 0.0000000000
0.6721450000 0.1463490000 0.0000000000
0.7001140000 0.1427940000 0.0000000000
0.7274590000 0.1392690000 0.0000000000
0.7541010000 0.1356680000 0.0000000000
0.7800260000 0.1321280000 0.0000000000
0.8056760000 0.1286340000 0.0000000000
0.8311130000 0.1256430000 0.0000000000
0.8568700000 0.1232320000 0.0000000000
0.8832380000 0.1217670000 0.0000000000
0.9109330000 0.1217670000 0.0000000000
0.9402910000 0.1237810000 0.0000000000
0.9707480000 0.1271380000 0.0000000000
0.0003814760 0.1441370000 0.1011520000
0.0020752300 0.1481650000 0.1024190000
0.0067902600 0.1526970000 0.1037920000
0.0188296000 0.1581750000 0.1043410000
0.0444800000 0.1641570000 0.1034410000
0.0896468000 0.1699090000 0.0995193000
0.1437250000 0.1750360000 0.0927291000
0.1933470000 0.1785760000 0.0845197000
0.2359810000 0.1814150000 0.0755322000
0.2746780000 0.1831390000 0.0655680000
0.3118330000 0.1844210000 0.0531472000
0.3492790000 0.1856870000 0.0382239000
0.3872280000 0.1863740000 0.0224918000
0.4248870000 0.1871820000 0.0096589600
0.4617230000 0.1874720000 0.0028534400
0.4972920000 0.1873040000 0.0002136260
0.5311210000 0.1865420000 0.0000000000
0.5635000000 0.1853360000 0.0000000000
0.5947510000 0.1835660000 0.0000000000
0.6252080000 0.1813080000 0.0000000000
0.6551770000 0.1785460000 0.0000000000
0.6843820000 0.1753260000 0.0000000000
0.7129470000 0.1719540000 0.0000000000
0.7407950000 0.1684900000 0.0000000000
0.7680170000 0.1649650000 0.0000000000
0.7946290000 0.1613790000 0.0000000000
0.8207980000 0.1578090000 0.0000000000
0.8469220000 0.1546650000 0.0000000000
0.8733500000 0.1520710000 0.0000000000
0.9003130000 0.1507740000 0.0000000000
0.9282520000 0.1510340000 0.0000000000
0.9572750000 0.1534750000 0.0000000000
0.9864190000 0.1576410000 0.0000000000
0.0000000000 0.1641720000 0.1165180000
0.0006561380 0.1679560000 0.1179060000
0.0040131200 0.1725800000 0.1192950000
0.0127108000 0.1785310000 0.1202870000
0.0339055000 0.1854120000 0.1194170000
0.0767224000 0.1931030000 0.1157090000
0.1347370000 0.1998320000 0.1087660000
0.1905390000 0.2047610000 0.0998398000
0.2376900000 0.2081180000 0.0896620000
0.2790110000 0.2103460000 0.0788434000
0.3181200000 0.2119630000 0.0661173000
0.3568470000 0.2132600000 0.0505531000
0.3958500000 0.2145270000 0.0327306000
0.4342870000 0.2154420000 0.0162203000
0.4715800000 0.2159910000 0.0056305800
0.5073320000 0.2160680000 0.0011444300
0.5414050000 0.2157630000 0.0000000000
0.5740900000 0.2147400000 0.0000000000
0.6055700000 0.2132450000 0.0000000000
0.6362860000 0.2113220000 0.0000000000
0.6664680000 0.2088200000 0.0000000000
0.6959940000 0.2062260000 0.0000000000
0.7247730000 0.2032810000 0.0000000000
0.7528650000 0.2002290000 0.0000000000
0.7803310000 0.1971010000 0.0000000000
0.8073090000 0.1939420000 0.0000000000
0.8338750000 0.1908290000 0.0000000000
0.8604260000 0.1880670000 0.0000000000
0.8873430000 0.1859620000 0.0000000000
0.9148390000 0.1851990000 0.0000000000
0.9425960000 0.1861140000 0.0000000000
0.9697410000 0.1894560000 0.0000000000
0.9955290000 0.1945220000 0.0000000000
0.0000000000 0.1850610000 0.1325090000
0.0006561380 0.1885710000 0.1337450000
0.0021210000 0.1929810000 0.1346300000
0.0080872800 0.1989470000 0.1350880000
0.0246128000 0.2064850000 0.1340810000
0.0643168000 0.2157470000 0.1296560000
0.1241780000 0.2243530000 0.1218890000
0.1862670000 0.2307770000 0.1115590000
0.2387880000 0.2350040000 0.0997940000
0.2832680000 0.2378730000 0.0874952000
0.3241780000 0.2397800000 0.0740063000
0.3643850000 0.2416570000 0.0593271000
0.4043790000 0.2432140000 0.0412451000
0.4434880000 0.2444650000 0.0226291000
0.4812090000 0.2454110000 0.0089570500
0.5171740000 0.2457770000 0.0020752300
0.5514760000 0.2456550000 0.0001983670
0.5843440000 0.2450750000 0.0000000000
0.6160530000 0.2438240000 0.0000000000
0.6470890000 0.2422830000 0.0000000000
0.6775160000 0.2403450000 0.0000000000
0.7071640000 0.2380250000 0.0000000000
0.7360950000 0.2356300000 0.0000000000
0.7643700000 0.2332040000 0.0000000000
0.7918820000 0.2305790000 0.0000000000
0.8189060000 0.2279240000 0.0000000000
0.8457010000 0.2254980000 0.0000000000
0.8726330000 0.2236060000 0.0000000000
0.8999470000 0.2223240000 0.0000000000
0.9275200000 0.2223850000 0.0000000000
0.9543760000 0.2242620000 0.0000000000
0.9784240000 0.2284580000 0.0000000000
0.9991760000 0.2344240000 0.0000000000
0.0000000000 0.2071870000 0.1478900000
0.0000000000 0.2104370000 0.1485010000
0.0011291700 0.2145270000 0.1491260000
0.0049744400 0.2200810000 0.1489890000
0.0178225000 0.2278480000 0.1473260000
0.0529641000 0.2380560000 0.1422600000
0.1129020000 0.2483250000 0.1335010000
0.1804070000 0.2566110000 0.1216140000
0.2387880000 0.2621810000 0.1083850000
0.2868240000 0.2658270000 0.0942855000
0.3299920000 0.2684370000 0.0803388000
0.3715720000 0.2706190000 0.0662242000
0.4125280000 0.2726630000 0.0485237000
0.4522320000 0.2742960000 0.0296483000
0.4904100000 0.2755320000 0.0130007000
0.5267410000 0.2763560000 0.0037995000
0.5612880000 0.2765390000 0.0009308000
0.5943390000 0.2762040000 0.0000000000
0.6263220000 0.2753340000 0.0000000000
0.6574960000 0.2741590000 0.0000000000
0.6881970000 0.2725870000 0.0000000000
0.7179060000 0.2708020000 0.0000000000
0.7469600000 0.2689250000 0.0000000000
0.7752190000 0.2669720000 0.0000000000
0.8028840000 0.2649880000 0.0000000000
0.8299990000 0.2630810000 0.0000000000
0.8569920000 0.2614180000 0.0000000000
0.8842450000 0.2602880000 0.0000000000
0.9117880000 0.2599830000 0.0000000000
0.9391620000 0.2610360000 0.0000000000
0.9644010000 0.2638900000 0.0000000000
0.9847260000 0.2688640000 0.0000000000
0.9999850000 0.2754710000 0.0000000000
0.0000000000 0.2301980000 0.1616850000
0.0000000000 0.2331430000 0.1617150000
0.0004272530 0.2371250000 0.1618830000
0.0031128400 0.2422220000 0.1612570000
0.0130617000 0.2497140000 0.1590750000
0.0427253000 0.2606240000 0.1535970000
0.1007400000 0.2721900000 0.1439230000
0.1719080000 0.2822160000 0.1311970000
0.2366220000 0.2894480000 0.1166860000
0.2889600000 0.2941480000 0.1014110000
0.3345690000 0.2974440000 0.0867018000
0.3778900000 0.3002060000 0.0725414000
0.4200200000 0.3027240000 0.0556954000
0.4605630000 0.3048750000 0.0359655000
0.4991530000 0.3065380000 0.0178836000
0.5357600000 0.3076220000 0.0062409400
0.5705960000 0.3081560000 0.0011139100
0.6039370000 0.3082020000 0.0000000000
0.6361330000 0.3076680000 0.0000000000
0.6675670000 0.3068740000 0.0000000000
0.6984360000 0.3058210000 0.0000000000
0.7282670000 0.3045400000 0.0000000000
0.7575040000 0.3032120000 0.0000000000
0.7858240000 0.3018230000 0.0000000000
0.8136870000 0.3005570000 0.0000000000
0.8410930000 0.2993820000 0.0000000000
0.8682990000 0.2984970000 0.0000000000
0.8957810000 0.2981770000 0.0000000000
0.9233840000 0.2987110000 0.0000000000
0.9501030000 0.3006030000 0.0000000000
0.9731440000 0.3042650000 0.0000000000
0.9895480000 0.3099410000 0.0000000000
1.0000000000 0.3167620000 0.0000000000
0.0000000000 0.2541850000 0.1739220000
0.0000000000 0.2571300000 0.1737390000
0.0001678490 0.2608840000 0.1734040000
0.0018158200 0.2656750000 0.1724730000
0.0085755700 0.2726330000 0.1700310000
0.0330205000 0.2835430000 0.1644310000
0.0868849000 0.2964220000 0.1544520000
0.1602200000 0.3080950000 0.1410240000
0.2310830000 0.3168840000 0.1254600000
0.2887770000 0.3230640000 0.1095140000
0.3377280000 0.3273980000 0.0943313000
0.3830620000 0.3309380000 0.0794385000
0.4266120000 0.3340350000 0.0628672000
0.4680710000 0.3365530000 0.0436408000
0.5073470000 0.3385820000 0.0234836000
0.5444110000 0.3400470000 0.0090028200
0.5795220000 0.3409320000 0.0020904900
0.6132750000 0.3413750000 0.0002288850
0.6458230000 0.3412530000 0.0000000000
0.6775160000 0.3408560000 0.0000000000
0.7086590000 0.3402300000 0.0000000000
0.7387960000 0.3395740000 0.0000000000
0.7682460000 0.3388720000 0.0000000000
0.7969020000 0.3382620000 0.0000000000
0.8249480000 0.3376820000 0.0000000000
0.8526590000 0.3372700000 0.0000000000
0.8802010000 0.3371480000 0.0000000000
0.9077740000 0.3375600000 0.0000000000
0.9352410000 0.3388720000 0.0000000000
0.9606010000 0.3414360000 0.0000000000
0.9807740000 0.3456930000 0.0000000000
0.9933470000 0.3515680000 0.0000000000
1.0000000000 0.3584800000 0.0000000000
0.0000000000 0.2787980000 0.1852750000
0.0000000000 0.2817730000 0.1846190000
0.0000000000 0.2853590000 0.1840240000
0.0011444300 0.2898450000 0.1828180000
0.0056916100 0.2963300000 0.1804230000
0.0246738000 0.3069660000 0.1749290000
0.0713817000 0.3205000000 0.1649040000
0.1443810000 0.3338980000 0.1511250000
0.2212560000 0.3445030000 0.1350420000
0.2857100000 0.3521630000 0.1183950000
0.3389180000 0.3576410000 0.1022050000
0.3865720000 0.3619590000 0.0867628000
0.4319070000 0.3656060000 0.0700084000
0.4746320000 0.3687190000 0.0506905000
0.5146560000 0.3711600000 0.0298466000
0.5524680000 0.3730530000 0.0124361000
0.5882200000 0.3742890000 0.0030518000
0.6224610000 0.3751130000 0.0002288850
0.6554510000 0.3755090000 0.0000000000
0.6876330000 0.3755860000 0.0000000000
0.7191880000 0.3756310000 0.0000000000
0.7497520000 0.3756010000 0.0000000000
0.7794770000 0.3755860000 0.0000000000
0.8085300000 0.3756160000 0.0000000000
0.8369270000 0.3757530000 0.0000000000
0.8648660000 0.3761040000 0.0000000000
0.8925460000 0.3766080000 0.0000000000
0.9201650000 0.3776150000 0.0000000000
0.9470050000 0.3794770000 0.0000000000
0.9702910000 0.3824980000 0.0000000000
0.9870600000 0.3869990000 0.0000000000
0.9961240000 0.3930270000 0.0000000000
1.0000000000 0.3997560000 0.0001220720
0.0000000000 0.3040970000 0.1963990000
0.0000000000 0.3072860000 0.1955750000
0.0000000000 0.3107350000 0.1945370000
0.0005035480 0.3149770000 0.1932860000
0.0034638000 0.3211410000 0.1908450000
0.0165103000 0.3311970000 0.1856260000
0.0554360000 0.3450980000 0.1757990000
0.1248800000 0.3598840000 0.1617910000
0.2065770000 0.3722590000 0.1452660000
0.2787370000 0.3813080000 0.1278710000
0.3375140000 0.3880060000 0.1109180000
0.3885100000 0.3932250000 0.0943770000
0.4359810000 0.3975430000 0.0775006000
0.4800790000 0.4011750000 0.0578164000
0.5213700000 0.4041500000 0.0355535000
0.5600210000 0.4064090000 0.0164797000
0.5966430000 0.4081640000 0.0048523700
0.6315860000 0.4093540000 0.0010223500
0.6653090000 0.4102850000 0.0000000000
0.6980540000 0.4110170000 0.0000000000
0.7302200000 0.4116880000 0.0000000000
0.7613030000 0.4123450000 0.0000000000
0.7914550000 0.4130770000 0.0000000000
0.8209050000 0.4139010000 0.0000000000
0.8495310000 0.4146640000 0.0000000000
0.8776530000 0.4154730000 0.0000000000
0.9054090000 0.4165260000 0.0000000000
0.9327540000 0.4179900000 0.0000000000
0.9582210000 0.4201880000 0.0000000000
0.9787590000 0.4234680000 0.0000000000
0.9919130000 0.4280460000 0.0000000000
0.9979400000 0.4337990000 0.0000000000
1.0000000000 0.4402690000 0.0000000000
0.0000000000 0.3302050000 0.2077970000
0.0000000000 0.3333640000 0.2066380000
0.0000000000 0.3368580000 0.2054780000
0.0000000000 0.3409480000 0.2039830000
0.0015259000 0.3467920000 0.2016020000
0.0102693000 0.3562520000 0.1963230000
0.0406806000 0.3700770000 0.1868310000
0.1032880000 0.3857330000 0.1726560000
0.1875940000 0.3997560000 0.1553980000
0.2677810000 0.4104220000 0.1373310000
0.3333640000 0.4181580000 0.1194320000
0.3885860000 0.4241700000 0.1022810000
0.4386360000 0.4292520000 0.0845655000
0.4845500000 0.4334780000 0.0648356000
0.5272910000 0.4369880000 0.0423896000
0.5672240000 0.4398570000 0.0211337000
0.6048680000 0.4421150000 0.0072022600
0.6409090000 0.4440220000 0.0018616000
0.6755170000 0.4456400000 0.0000762951
0.7090870000 0.4470130000 0.0000000000
0.7419240000 0.4483560000 0.0000000000
0.7735410000 0.4497440000 0.0000000000
0.8041050000 0.4510570000 0.0000000000
0.8337070000 0.4523840000 0.0000000000
0.8624860000 0.4536200000 0.0000000000
0.8905780000 0.4549170000 0.0000000000
0.9181960000 0.4562600000 0.0000000000
0.9448230000 0.4579690000 0.0000000000
0.9683830000 0.4603340000 0.0000000000
0.9856410000 0.4636150000 0.0000000000
0.9952540000 0.4680710000 0.0000000000
0.9989620000 0.4735330000 0.0000000000
0.9999850000 0.4795760000 0.0000000000
0.0000000000 0.3565880000 0.2188910000
0.0000000000 0.3597620000 0.2176240000
0.0000000000 0.3632410000 0.2162660000
0.0000000000 0.3673460000 0.2147400000
0.0009765770 0.3727930000 0.2121770000
0.0058747200 0.3816280000 0.2070650000
0.0277256000 0.3949650000 0.1976350000
0.0817731000 0.4112760000 0.1833070000
0.1653470000 0.4268410000 0.1655910000
0.2527500000 0.4388650000 0.1467150000
0.3262230000 0.4478680000 0.1279770000
0.3866030000 0.4547650000 0.1100020000
0.4399180000 0.4605780000 0.0919203000
0.4882120000 0.4655370000 0.0726329000
0.5326470000 0.4697640000 0.0502022000
0.5741210000 0.4733810000 0.0280919000
0.6131230000 0.4763560000 0.0118563000
0.6503700000 0.4789350000 0.0034638000
0.6860300000 0.4811780000 0.0008392460
0.7205000000 0.4832990000 0.0000000000
0.7539180000 0.4852830000 0.0000000000
0.7859460000 0.4871600000 0.0000000000
0.8168000000 0.4889600000 0.0000000000
0.8465100000 0.4906690000 0.0000000000
0.8751810000 0.4922260000 0.0000000000
0.9030900000 0.4937060000 0.0000000000
0.9302510000 0.4951860000 0.0000000000
0.9557180000 0.4969710000 0.0000000000
0.9768370000 0.4993360000 0.0000000000
0.9907380000 0.5024340000 0.0000000000
0.9973910000 0.5065390000 0.0000000000
0.9995420000 0.5115740000 0.0000000000
1.0000000000 0.5172050000 0.0001983670
0.0000000000 0.3832760000 0.2297400000
0.0000000000 0.3864040000 0.2283670000
0.0000000000 0.3897920000 0.2267950000
0.0000000000 0.3937130000 0.2250250000
0.0001831080 0.3988860000 0.2223700000
0.0030823200 0.4072020000 0.2173500000
0.0184939000 0.4199440000 0.2081790000
0.0624857000 0.4364840000 0.1939270000
0.1418020000 0.4532690000 0.1759980000
0.2342870000 0.4667430000 0.1564510000
0.3159380000 0.4769360000 0.1370870000
0.3824980000 0.4849160000 0.1182270000
0.4398870000 0.4916610000 0.1001750000
0.4909740000 0.4974290000 0.0816358000
0.5375600000 0.5025410000 0.0608377000
0.5807430000 0.5069200000 0.0392615000
0.6212860000 0.5107040000 0.0209354000
0.6598000000 0.5140610000 0.0088960100
0.6965290000 0.5169150000 0.0032349100
0.7317460000 0.5196000000 0.0008392460
0.7657430000 0.5220260000 0.0005645840
0.7980470000 0.5243760000 0.0000000000
0.8289160000 0.5264360000 0.0000000000
0.8585180000 0.5282980000 0.0000000000
0.8869610000 0.5299760000 0.0000000000
0.9145190000 0.5314720000 0.0000000000
0.9409320000 0.5329670000 0.0000000000
0.9648580000 0.5346910000 0.0000000000
0.9833220000 0.5368430000 0.0000000000
0.9941710000 0.5396660000 0.0000000000
0.9986420000 0.5432520000 0.0000000000
0.9998170000 0.5477380000 0.0000000000
1.0000000000 0.5527280000 0.0005645840
0.0000000000 0.4099640000 0.2401310000
0.0000000000 0.4130310000 0.2385900000
0.0000000000 0.4163730000 0.2368960000
0.0000000000 0.4201270000 0.2349280000
0.0000000000 0.4250250000 0.2322420000
0.0018158200 0.4328220000 0.2273750000
0.0115816000 0.4449230000 0.2185240000
0.0461128000 0.4614790000 0.2046390000
0.1179370000 0.4792250000 0.1865260000
0.2127870000 0.4942550000 0.1668420000
0.3025560000 0.5058210000 0.1468380000
0.3763180000 0.5150380000 0.1277940000
0.4383920000 0.5228960000 0.1093000000
0.4927290000 0.5296100000 0.0918135000
0.5417560000 0.5355150000 0.0738231000
0.5868160000 0.5407340000 0.0544900000
0.6290070000 0.5452660000 0.0351720000
0.6687720000 0.5492030000 0.0200351000
