bundles/resolve-cinematic-luts/Gamut/Faction/Faction 05.cube
TITLE "Faction 05 by Gamut"
# Version 1.0 - 02/29/2024 - Designed for Rec.709 Color Space. Copyright 2024 Gamut, LLC
LUT_3D_SIZE 5
0.0000000000 0.0530020000 0.0604640000
0.2152092500 0.0572842500 0.0000000000
0.4629800000 0.0878470000 0.0000000000
0.6928897500 0.1148340000 0.0675677500
0.8856940000 0.1554210000 0.1184180000
0.0000000000 0.1820755000 0.0948672500
0.2311700000 0.2209685000 0.0705285000
0.5561552500 0.2052630000 0.0299660000
0.7809642500 0.1862350000 0.0936277500
0.9016187500 0.1833817500 0.1223055000
0.0000000000 0.3942575000 0.1647095000
0.1461242500 0.4484395000 0.1599955000
0.5261570000 0.4757875000 0.1392965000
0.7764702500 0.4582522500 0.1272515000
0.8989980000 0.4188870000 0.1278060000
0.0000000000 0.6228547500 0.2666440000
0.0405310000 0.6598797500 0.2414737500
0.4525332500 0.6932297500 0.2034627500
0.7529625000 0.6967272500 0.1620032500
0.8902620000 0.6740432500 0.1286615000
0.0000000000 0.8146910000 0.3160160000
0.0305575000 0.8334210000 0.2740325000
0.3222690000 0.8538165000 0.2142400000
0.6850042500 0.8648392500 0.1555410000
0.8809200000 0.8642460000 0.1030210000
0.0000000000 0.0685267500 0.1285500000
0.2142905000 0.0640922500 0.1757417500
0.4914435000 0.0973180000 0.1501040000
0.7154137500 0.1254332500 0.1563657500
0.8805790000 0.1577100000 0.1683120000
0.0000000000 0.2013812500 0.2347867500
0.1642185000 0.2446110000 0.2709442500
0.4949620000 0.2491327500 0.2159530000
0.7262495000 0.2346080000 0.2091592500
0.8943950000 0.2165877500 0.1994640000
0.0000000000 0.4169260000 0.3924327500
0.0301630000 0.4672830000 0.3701140000
0.4987712500 0.5070425000 0.3100000000
0.7530540000 0.4826497500 0.2409900000
0.8977765000 0.4450335000 0.1970105000
0.0000000000 0.6443572500 0.4838132500
0.0281917500 0.6726285000 0.4409480000
0.3806702500 0.7030047500 0.3758125000
0.7284385000 0.7056762500 0.2700005000
0.8888682500 0.6843282500 0.1651990000
0.0000000000 0.8225440000 0.5091345000
0.0151797500 0.8391795000 0.4598740000
0.2487635000 0.8575990000 0.3906212500
0.6545395000 0.8685592500 0.2830432500
0.8805237500 0.8687450000 0.1241500000
0.0000000000 0.1137790000 0.2785135000
0.0031542500 0.0986155000 0.4242517500
0.4801045000 0.1149925000 0.4301935000
0.7354305000 0.1612562500 0.4392112500
0.9066005000 0.1883875000 0.4186755000
0.0000000000 0.2476877500 0.3597095000
0.0369942500 0.2818802500 0.4170272500
0.4759977500 0.2807342500 0.4873597500
0.7327735000 0.2809230000 0.4841895000
0.9046660000 0.2676120000 0.4601290000
0.0000000000 0.4483295000 0.5307655000
0.0523812500 0.4906667500 0.5629667500
0.4218210000 0.5460955000 0.5980000000
0.7301720000 0.5369375000 0.5346650000
0.8992145000 0.4945630000 0.4671440000
0.0000000000 0.6557260000 0.6755540000
0.0270087500 0.6859652500 0.6673080000
0.3168100000 0.7209915000 0.6300100000
0.7222372500 0.7376367500 0.5597165000
0.8864655000 0.7084507500 0.4093305000
0.0000000000 0.8282555000 0.7284735000
0.0037457500 0.8454982500 0.6989862500
0.1437355000 0.8630080000 0.6388895000
0.5896482500 0.8728927500 0.5506410000
0.8769265000 0.8758245000 0.3418130000
0.0000000000 0.1845187500 0.4667590000
0.0000000000 0.1990157500 0.5566092500
0.3844467500 0.1414430000 0.6895122500
0.7087190000 0.1850017500 0.7070292500
0.9062570000 0.2165950000 0.6920292500
0.0000000000 0.3094512500 0.5309747500
0.0005917500 0.3397000000 0.5880840000
0.3447632500 0.3206905000 0.7120750000
0.6977017500 0.3134170000 0.7302765000
0.9036077500 0.2918877500 0.7210785000
0.0000000000 0.4968277500 0.6547877500
0.0161660000 0.5321385000 0.6845547500
0.3273190000 0.5605892500 0.7408627500
0.6981132500 0.5603397500 0.7639045000
0.8953737500 0.5199292500 0.7343290000
0.0000000000 0.6785120000 0.7734662500
0.0457287500 0.7017695000 0.7831180000
0.3277962500 0.7313935000 0.7896307500
0.6656042500 0.7569765000 0.7960760000
0.8807922500 0.7414830000 0.7277127500
0.0000000000 0.8370790000 0.8487100000
0.0199112500 0.8502862500 0.8450585000
0.1861760000 0.8656435000 0.8228060000
0.5802187500 0.8764555000 0.7801457500
0.8715585000 0.8817527500 0.6765315000
0.0000000000 0.2473070000 0.6652030000
0.0000000000 0.2683465000 0.7106140000
0.3385855000 0.1595375000 0.8088715000
0.6597567500 0.1847890000 0.8812675000
0.8884610000 0.2329390000 0.9136820000
0.0000000000 0.3623342500 0.7318942500
0.0000000000 0.3833185000 0.7659872500
0.1992330000 0.3656335000 0.8369090000
0.6399837500 0.3125635000 0.8985252500
0.8861117500 0.2938937500 0.9265480000
0.0000000000 0.5445810000 0.8182450000
0.0021687500 0.5699620000 0.8396402500
0.1230670000 0.5934600000 0.8772105000
0.5858542500 0.5614652500 0.9160130000
0.8771180000 0.5178870000 0.9298945000
0.0000000000 0.7057255000 0.8733972500
0.0321347500 0.7226780000 0.8809830000
0.2793335000 0.7475132500 0.8925965000
0.6192795000 0.7553767500 0.9074097500
0.8701327500 0.7419807500 0.9034465000
0.0007890000 0.8544120000 0.9153430000
0.1477575000 0.8606977500 0.9145882500
0.5035010000 0.8700930000 0.9097400000
0.7295140000 0.8780585000 0.9017337500
0.8534530000 0.8872040000 0.8925270000
