bundles/resolve-cinematic-luts/Gamut/Faction/Faction 02.cube
TITLE "Faction 02 by Gamut"
# Version 1.0 - 02/13/2024 - Designed for Rec.709 Color Space. Copyright 2024 Gamut, LLC
LUT_3D_SIZE 5
0.0023498900 0.0585489000 0.0272221000
0.1974060000 0.0574655000 0.0004882890
0.4238800000 0.0011139100 0.0000000000
0.6339970000 0.0000000000 0.0000000000
0.8313570000 0.0000000000 0.0000000000
0.0000000000 0.1799340000 0.0913863000
0.1962770000 0.2123450000 0.0985885000
0.4757610000 0.1991450000 0.0000000000
0.7115890000 0.1570310000 0.0000000000
0.8953840000 0.1746550000 0.0000000000
0.0000000000 0.3801630000 0.1524070000
0.0000000000 0.4254980000 0.1163040000
0.4601210000 0.4652930000 0.0003356980
0.7706570000 0.5033950000 0.0000000000
0.9296560000 0.5523920000 0.0000000000
0.0000000000 0.6368660000 0.2888530000
0.0000000000 0.6815140000 0.2867020000
0.4569160000 0.7718010000 0.2931720000
0.8195470000 0.8068510000 0.2832680000
0.9703210000 0.8193330000 0.2317390000
0.0000000000 0.8950330000 0.5704130000
0.0000000000 0.9179670000 0.5773400000
0.4076450000 0.9576260000 0.5773400000
0.8058440000 0.9812770000 0.6296020000
0.9800110000 0.9861300000 0.6438390000
0.0008850230 0.0716869000 0.1367670000
0.2240180000 0.0679942000 0.1736170000
0.4781870000 0.0013122800 0.0915236000
0.6596480000 0.0000000000 0.0574350000
0.8300600000 0.0000000000 0.0019379000
0.0000000000 0.2091250000 0.2850540000
0.1826884320 0.2438507600 0.2917318720
0.5150394640 0.2510951600 0.1893922240
0.7387579600 0.2210650160 0.1012466748
0.9076520000 0.2142980000 0.0118563000
0.0000000000 0.4370790000 0.3540400000
0.0225122126 0.4950336640 0.3266246800
0.5185522400 0.5435020400 0.3256219360
0.7926632720 0.5412004160 0.2706891752
0.9352410000 0.5651940000 0.2285800000
0.0000000000 0.7009380000 0.4679480000
0.0000000000 0.7482031920 0.4661786480
0.4668307680 0.7995304800 0.4694007920
0.8181187840 0.8251392240 0.4835481440
0.9685050000 0.8363010000 0.4616620000
0.0000000000 0.9095600000 0.6625770000
0.0000000000 0.9331040000 0.6703900000
0.4263520000 0.9671320000 0.6616160000
0.8102850000 0.9821470000 0.7084310000
0.9807280000 0.9863280000 0.7246810000
0.0000000000 0.1084920000 0.3328910000
0.0021362600 0.1120470000 0.4814830000
0.5237050000 0.0773785000 0.4103300000
0.8110480000 0.0679637000 0.3104600000
0.9932100000 0.0961166000 0.3397730000
0.0000000000 0.2539710000 0.4392770000
0.0982336162 0.2907840880 0.4778453920
0.5662369040 0.3047417600 0.4821593680
0.8621542160 0.3228259280 0.3729924640
0.9968110000 0.3811700000 0.3917450000
0.1217670000 0.4797590000 0.5500720000
0.2733554400 0.5450039360 0.5778693440
0.5574284800 0.6157647680 0.6038968080
0.8560306480 0.6256969680 0.5409027040
0.9903560000 0.6476080000 0.5179370000
0.1719840000 0.7305710000 0.6991840000
0.2695601840 0.7829419520 0.7113921760
0.5148601760 0.8384043520 0.6777124400
0.8396854960 0.8584130320 0.6901446000
0.9838860000 0.8671090000 0.6768290000
0.2175480000 0.9167930000 0.8079350000
0.3276110000 0.9385670000 0.8170750000
0.5280080000 0.9737240000 0.8048220000
0.8184330000 0.9828790000 0.8159760000
0.9843750000 0.9859460000 0.8287480000
0.0000000000 0.1850920000 0.5432820000
0.0000000000 0.1862670000 0.6475010000
0.4916610000 0.1610280000 0.7435720000
0.8380710000 0.1969940000 0.7296710000
0.9999850000 0.2594950000 0.7110250000
0.0000000000 0.3111770000 0.6187530000
0.0383715560 0.3553516960 0.6717980480
0.5206530800 0.3590352000 0.8062692000
0.8734588000 0.4040676080 0.7688015680
0.9999850000 0.4498510000 0.7299760000
0.0009308000 0.5423210000 0.7259170000
0.2653891760 0.6048964160 0.7602783280
0.5457870560 0.6625702480 0.8235938320
0.8661890160 0.6712120880 0.8219516880
0.9989930000 0.6972760000 0.7550160000
0.3038530000 0.7569240000 0.8521400000
0.4322329920 0.8069681360 0.8742905920
0.6608996880 0.8519957120 0.8851553760
0.8437011920 0.8794074240 0.8791748560
0.9930570000 0.8887310000 0.8415050000
0.4580450000 0.9273370000 0.9279010000
0.5403520000 0.9455710000 0.9384760000
0.6870070000 0.9694510000 0.9435110000
0.8375370000 0.9834900000 0.9366450000
0.9860990000 0.9856870000 0.9287560000
0.0000000000 0.2290230000 0.7191270000
0.0000000000 0.2495160000 0.7890140000
0.5172050000 0.1658200000 0.9242850000
0.8105290000 0.2570690000 0.9999850000
0.9810480000 0.3388720000 0.9999850000
0.0000000000 0.3695890000 0.8086980000
0.0000000000 0.4167240000 0.8639660000
0.5116040000 0.4060120000 0.9835200000
0.8219420000 0.4563210000 0.9999850000
0.9817500000 0.5160600000 0.9999850000
0.0000000000 0.6180360000 0.9369190000
0.1333030000 0.6654610000 0.9595330000
0.5287560000 0.7051650000 0.9994660000
0.8229650000 0.7042950000 0.9999850000
0.9860070000 0.7365840000 0.9978030000
0.3621580000 0.7998320000 0.9885100000
0.4850540000 0.8378120000 0.9916690000
0.6932630000 0.8756540000 0.9921720000
0.8408330000 0.8970170000 0.9979090000
0.9845430000 0.9058820000 0.9956660000
0.6039220000 0.9498440000 0.9982150000
0.6834970000 0.9653010000 0.9983060000
0.8128790000 0.9764400000 0.9972530000
0.9152210000 0.9835360000 0.9968110000
0.9834290000 0.9888910000 0.9967350000
