bundles/resolve-cinematic-luts/Gamut/Faction/Faction 02.cube
TITLE "Faction 02 by Gamut"
# Version 1.0 - 02/13/2024 - Designed for Rec.709 Color Space. Copyright 2024 Gamut, LLC
LUT_3D_SIZE 33
0.0023498900 0.0585489000 0.0272221000
0.0050354800 0.0594186000 0.0285954000
0.0175174000 0.0604105000 0.0183719000
0.0661936000 0.0610666000 0.0139467000
0.0880751000 0.0612345000 0.0110933000
0.1109180000 0.0613718000 0.0078889100
0.1363700000 0.0609598000 0.0049134100
0.1649500000 0.0597391000 0.0023346300
0.1974060000 0.0574655000 0.0004882890
0.2271460000 0.0557565000 0.0000152590
0.2560310000 0.0538491000 0.0000000000
0.2841230000 0.0504921000 0.0000000000
0.3118640000 0.0426337000 0.0000000000
0.3407490000 0.0128481000 0.0000000000
0.3687500000 0.0061646400 0.0000000000
0.3964290000 0.0028839600 0.0000000000
0.4238800000 0.0011139100 0.0000000000
0.4500800000 0.0002441440 0.0000000000
0.4753950000 0.0000000000 0.0000000000
0.4988170000 0.0000000000 0.0000000000
0.5227590000 0.0000000000 0.0000000000
0.5511710000 0.0000000000 0.0000000000
0.5793390000 0.0000000000 0.0000000000
0.6068510000 0.0000000000 0.0000000000
0.6339970000 0.0000000000 0.0000000000
0.6602430000 0.0000000000 0.0000000000
0.6860000000 0.0000000000 0.0000000000
0.7110090000 0.0000000000 0.0000000000
0.7358970000 0.0000000000 0.0000000000
0.7596400000 0.0000000000 0.0000000000
0.7834750000 0.0000000000 0.0000000000
0.8071720000 0.0000000000 0.0000000000
0.8313570000 0.0000000000 0.0000000000
0.0021515200 0.0687266000 0.0474556000
0.0042267500 0.0697642000 0.0451514000
0.0117342000 0.0700694000 0.0433356000
0.0624399000 0.0702678000 0.0396735000
0.0900282000 0.0704662000 0.0197452000
0.1152970000 0.0704204000 0.0100252000
0.1438160000 0.0698863000 0.0056305800
0.1752800000 0.0684062000 0.0022888500
0.2085910000 0.0661479000 0.0004119940
0.2399630000 0.0643320000 0.0000152590
0.2686500000 0.0625467000 0.0000000000
0.2972920000 0.0578775000 0.0000000000
0.3256120000 0.0491493000 0.0000000000
0.3546960000 0.0164187000 0.0000000000
0.3834590000 0.0060883500 0.0000000000
0.4120090000 0.0025177400 0.0000000000
0.4402230000 0.0007934690 0.0000000000
0.4683150000 0.0000762951 0.0000000000
0.4947280000 0.0000000000 0.0000000000
0.5209740000 0.0000000000 0.0000000000
0.5450070000 0.0000000000 0.0000000000
0.5686730000 0.0000000000 0.0000000000
0.5947970000 0.0000000000 0.0000000000
0.6210270000 0.0000000000 0.0000000000
0.6471350000 0.0000000000 0.0000000000
0.6726180000 0.0000000000 0.0000000000
0.6970630000 0.0000000000 0.0000000000
0.7219350000 0.0000000000 0.0000000000
0.7454180000 0.0000000000 0.0000000000
0.7690090000 0.0000000000 0.0000000000
0.7922940000 0.0000000000 0.0000000000
0.8157170000 0.0000000000 0.0000000000
0.8396730000 0.0000000000 0.0000000000
0.0019531500 0.0775311000 0.0521859000
0.0035095800 0.0790112000 0.0514382000
0.0089570500 0.0808423000 0.0515297000
0.0603952000 0.0813764000 0.0481727000
0.0892195000 0.0814832000 0.0424964000
0.1161520000 0.0818494000 0.0254215000
0.1458610000 0.0814221000 0.0083924600
0.1791100000 0.0800031000 0.0034180200
0.2141150000 0.0781109000 0.0007629510
0.2461740000 0.0764477000 0.0001831080
0.2759590000 0.0736858000 0.0000762951
0.3053940000 0.0689097000 0.0000152590
0.3343710000 0.0609140000 0.0000000000
0.3638510000 0.0475471000 0.0000000000
0.3930420000 0.0096742200 0.0000000000
0.4226600000 0.0035858700 0.0000000000
0.4518500000 0.0011291700 0.0000000000
0.4809340000 0.0001373310 0.0000000000
0.5081410000 0.0000000000 0.0000000000
0.5352410000 0.0000000000 0.0000000000
0.5617760000 0.0000000000 0.0000000000
0.5884340000 0.0000000000 0.0000000000
0.6137940000 0.0000000000 0.0000000000
0.6388650000 0.0000000000 0.0000000000
0.6633400000 0.0000000000 0.0000000000
0.6872970000 0.0000000000 0.0000000000
0.7107350000 0.0000000000 0.0000000000
0.7338220000 0.0000000000 0.0000000000
0.7573360000 0.0000000000 0.0000000000
0.7803620000 0.0000000000 0.0000000000
0.8036470000 0.0000000000 0.0000000000
0.8267640000 0.0000000000 0.0000000000
0.8523990000 0.0000000000 0.0000000000
0.0016022000 0.0878309000 0.0576638000
0.0025177400 0.0894789000 0.0562753000
0.0057526500 0.0929885000 0.0566262000
0.0556802000 0.0955520000 0.0558175000
0.0872816000 0.0963455000 0.0529030000
0.1157400000 0.0968032000 0.0489052000
0.1469900000 0.0968338000 0.0362097000
0.1817200000 0.0960098000 0.0069276000
0.2172120000 0.0950179000 0.0023193700
0.2491040000 0.0937362000 0.0012665000
0.2798050000 0.0909743000 0.0006256200
0.3097730000 0.0861830000 0.0002288850
0.3384450000 0.0795911000 0.0000305180
0.3685660000 0.0700542000 0.0000000000
0.3991610000 0.0560922000 0.0000000000
0.4300760000 0.0136568000 0.0000000000
0.4598000000 0.0039673500 0.0000000000
0.4892960000 0.0010833900 0.0000000000
0.5168080000 0.0001220720 0.0000000000
0.5445330000 0.0000000000 0.0000000000
0.5715270000 0.0000000000 0.0000000000
0.5992980000 0.0000000000 0.0000000000
0.6258640000 0.0000000000 0.0000000000
0.6521250000 0.0000000000 0.0000000000
0.6771190000 0.0000000000 0.0000000000
0.7008160000 0.0000000000 0.0000000000
0.7238120000 0.0000000000 0.0000000000
0.7465630000 0.0000000000 0.0000000000
0.7694670000 0.0000000000 0.0000000000
0.7926450000 0.0000000000 0.0000000000
0.8156860000 0.0000000000 0.0000000000
0.8393840000 0.0000000000 0.0000000000
0.8651100000 0.0000000000 0.0000000000
0.0012970200 0.1015030000 0.0616770000
0.0017242700 0.1028920000 0.0602731000
0.0032043900 0.1067220000 0.0613413000
0.0447547000 0.1113150000 0.0632334000
0.0822766000 0.1139850000 0.0635233000
0.1139390000 0.1148550000 0.0621805000
0.1464710000 0.1156020000 0.0592660000
0.1821770000 0.1153580000 0.0446479000
0.2173040000 0.1153120000 0.0104829000
0.2502480000 0.1140610000 0.0052643600
0.2815750000 0.1116810000 0.0026703300
0.3118940000 0.1077130000 0.0011139100
0.3416340000 0.1018690000 0.0002594030
0.3714350000 0.0940566000 0.0000000000
0.4024410000 0.0854963000 0.0000000000
0.4339210000 0.0738842000 0.0000000000
0.4646520000 0.0574807000 0.0000000000
0.4949870000 0.0119020000 0.0000000000
0.5230030000 0.0032349100 0.0000000000
0.5517660000 0.0005951020 0.0000000000
0.5795220000 0.0000000000 0.0000000000
0.6069580000 0.0000000000 0.0000000000
0.6343790000 0.0000000000 0.0000000000
0.6606240000 0.0000000000 0.0000000000
0.6862130000 0.0000000000 0.0000000000
0.7109640000 0.0000000000 0.0000000000
0.7347980000 0.0000000000 0.0000000000
0.7573360000 0.0000000000 0.0000000000
0.7800720000 0.0000000000 0.0000000000
0.8028990000 0.0000000000 0.0000000000
0.8262910000 0.0000000000 0.0000000000
0.8511020000 0.0000000000 0.0000000000
0.8766160000 0.0000000000 0.0000000000
0.0009308000 0.1174330000 0.0668498000
0.0011139100 0.1191580000 0.0660410000
0.0017242700 0.1219500000 0.0666972000
0.0081635800 0.1280080000 0.0702373000
0.0728771000 0.1323870000 0.0733043000
0.1084920000 0.1354700000 0.0753948000
0.1440300000 0.1363390000 0.0743420000
0.1801020000 0.1366450000 0.0708019000
0.2160070000 0.1363850000 0.0626383000
0.2498820000 0.1353780000 0.0484932000
0.2819100000 0.1335160000 0.0100252000
0.3123220000 0.1306320000 0.0036011300
0.3424120000 0.1262530000 0.0010681300
0.3733730000 0.1205310000 0.0001068130
0.4049440000 0.1137100000 0.0000000000
0.4368660000 0.1062640000 0.0000000000
0.4682690000 0.0958419000 0.0000000000
0.4986040000 0.0841993000 0.0000000000
0.5279930000 0.0675669000 0.0000000000
0.5566800000 0.0396429000 0.0000000000
0.5848480000 0.0039673500 0.0000000000
0.6130310000 0.0006866560 0.0000000000
0.6413210000 0.0000000000 0.0000000000
0.6676130000 0.0000000000 0.0000000000
0.6941630000 0.0000000000 0.0000000000
0.7190660000 0.0000000000 0.0000000000
0.7424890000 0.0000000000 0.0000000000
0.7661100000 0.0000000000 0.0000000000
0.7889830000 0.0000000000 0.0000000000
0.8120240000 0.0000000000 0.0000000000
0.8355230000 0.0000000000 0.0000000000
0.8599070000 0.0000000000 0.0000000000
0.8882580000 0.0000000000 0.0000000000
0.0004272530 0.1359120000 0.0741741000
0.0004882890 0.1375140000 0.0738689000
0.0006713970 0.1398340000 0.0744335000
0.0020752300 0.1459070000 0.0774243000
0.0533455000 0.1524070000 0.0816815000
0.0958724000 0.1571070000 0.0853590000
0.1376060000 0.1596250000 0.0885786000
0.1744560000 0.1606620000 0.0876631000
0.2124510000 0.1602200000 0.0827039000
0.2472420000 0.1595640000 0.0731823000
0.2796220000 0.1580220000 0.0580301000
0.3111620000 0.1556120000 0.0120394000
0.3421230000 0.1523770000 0.0028839600
0.3744410000 0.1481350000 0.0005035480
0.4064390000 0.1435110000 0.0000000000
0.4394600000 0.1381400000 0.0000000000
0.4715190000 0.1314720000 0.0000000000
0.5028150000 0.1233840000 0.0000000000
0.5318990000 0.1149000000 0.0000000000
0.5610130000 0.1036240000 0.0000000000
0.5906000000 0.0894942000 0.0000000000
0.6185240000 0.0722820000 0.0000000000
0.6467690000 0.0447852000 0.0000000000
0.6741890000 0.0041199400 0.0000000000
0.7002520000 0.0008087280 0.0000000000
0.7264360000 0.0000152590 0.0000000000
0.7497670000 0.0000000000 0.0000000000
0.7734340000 0.0000000000 0.0000000000
0.7966280000 0.0000000000 0.0000000000
0.8206450000 0.0000000000 0.0000000000
0.8446940000 0.0000000000 0.0000000000
0.8705580000 0.0000000000 0.0000000000
0.8920730000 0.0000000000 0.0000000000
0.0000305180 0.1572140000 0.0829480000
0.0000305180 0.1592130000 0.0823529000
0.0000457771 0.1615010000 0.0824598000
0.0001525900 0.1668730000 0.0847486000
0.0030670600 0.1739220000 0.0890974000
0.0766308000 0.1791870000 0.0935988000
0.1230180000 0.1841610000 0.0969558000
0.1657130000 0.1861140000 0.0975357000
0.2054020000 0.1859620000 0.0943770000
0.2426950000 0.1851070000 0.0863813000
0.2761270000 0.1841150000 0.0740673000
0.3082930000 0.1825440000 0.0533913000
0.3408410000 0.1799500000 0.0067292300
0.3740900000 0.1775840000 0.0015259000
0.4074010000 0.1741510000 0.0001525900
0.4414590000 0.1703060000 0.0000000000
0.4737770000 0.1662930000 0.0000000000
0.5055920000 0.1608610000 0.0000000000
0.5358820000 0.1549710000 0.0000000000
0.5656670000 0.1485010000 0.0000000000
0.5952240000 0.1401080000 0.0000000000
0.6237280000 0.1311210000 0.0000000000
0.6527200000 0.1196770000 0.0000000000
0.6797890000 0.1092240000 0.0000000000
0.7069350000 0.0975814000 0.0000000000
0.7319600000 0.0839399000 0.0000000000
0.7557030000 0.0695811000 0.0000000000
0.7793240000 0.0493629000 0.0000000000
0.8039980000 0.0132753000 0.0000000000
0.8282290000 0.0069276000 0.0000000000
0.8532840000 0.0089723000 0.0000000000
0.8827340000 0.0609293000 0.0000000000
0.8935990000 0.0906996000 0.0000000000
0.0000000000 0.1799340000 0.0913863000
0.0000000000 0.1821620000 0.0913710000
0.0000000000 0.1842980000 0.0914778000
0.0000000000 0.1886780000 0.0925765000
0.0001983670 0.1951320000 0.0955673000
0.0137942000 0.2016330000 0.0986191000
0.1009380000 0.2072020000 0.1011060000
0.1512320000 0.2114600000 0.1011060000
0.1962770000 0.2123450000 0.0985885000
0.2360110000 0.2120700000 0.0921645000
0.2711220000 0.2116430000 0.0822614000
0.3054550000 0.2104370000 0.0662699000
0.3384760000 0.2089720000 0.0303349000
0.3732050000 0.2068970000 0.0033112100
0.4075380000 0.2049440000 0.0006256200
0.4422980000 0.2023960000 0.0000000000
0.4757610000 0.1991450000 0.0000000000
0.5084610000 0.1954070000 0.0000000000
0.5393000000 0.1913790000 0.0000000000
0.5706870000 0.1865570000 0.0000000000
0.5999540000 0.1812310000 0.0000000000
0.6292520000 0.1753570000 0.0000000000
0.6579840000 0.1691620000 0.0000000000
0.6855420000 0.1633020000 0.0000000000
0.7115890000 0.1570310000 0.0000000000
0.7365530000 0.1509580000 0.0000000000
0.7607840000 0.1458300000 0.0000000000
0.7858240000 0.1413440000 0.0000000000
0.8096740000 0.1391320000 0.0000000000
0.8355840000 0.1392390000 0.0000000000
0.8643780000 0.1500880000 0.0000000000
0.8938430000 0.1613340000 0.0000000000
0.8953840000 0.1746550000 0.0000000000
0.0000000000 0.2021970000 0.1015180000
0.0000000000 0.2039520000 0.1007100000
0.0000000000 0.2063170000 0.1004350000
0.0000000000 0.2097050000 0.1001300000
0.0000000000 0.2148010000 0.1002370000
0.0005493250 0.2230560000 0.1020070000
0.0677501000 0.2298620000 0.1022810000
0.1335770000 0.2351260000 0.1009380000
0.1860690000 0.2384530000 0.0976883000
0.2281680000 0.2393220000 0.0925917000
0.2657820000 0.2392310000 0.0845655000
0.3018080000 0.2384830000 0.0720378000
0.3369650000 0.2371710000 0.0496071000
0.3720150000 0.2359040000 0.0061951600
0.4077210000 0.2343330000 0.0014953800
0.4429240000 0.2324100000 0.0001525900
0.4774700000 0.2302430000 0.0000000000
0.5116040000 0.2275880000 0.0000000000
0.5437090000 0.2249180000 0.0000000000
0.5745630000 0.2214690000 0.0000000000
0.6040890000 0.2180060000 0.0000000000
0.6339820000 0.2137640000 0.0000000000
0.6623790000 0.2101470000 0.0000000000
0.6899060000 0.2061340000 0.0000000000
0.7156180000 0.2024410000 0.0000000000
0.7409780000 0.1987950000 0.0000000000
0.7660640000 0.1973750000 0.0000000000
0.7914850000 0.1953920000 0.0000000000
0.8164490000 0.1965060000 0.0000000000
0.8465100000 0.2030980000 0.0000000000
0.8753340000 0.2114140000 0.0000000000
0.8974140000 0.2207830000 0.0000000000
0.8978260000 0.2321050000 0.0000000000
0.0000000000 0.2238800000 0.1108110000
0.0000000000 0.2259710000 0.1094380000
0.0000000000 0.2285190000 0.1085530000
0.0000000000 0.2321200000 0.1077900000
0.0000000000 0.2369270000 0.1066150000
0.0000000000 0.2429080000 0.1051650000
0.0035858700 0.2523840000 0.1042340000
0.1124280000 0.2587780000 0.1019150000
0.1729460000 0.2637370000 0.0986496000
0.2205080000 0.2669260000 0.0935225000
0.2602120000 0.2670480000 0.0851301000
0.2981160000 0.2666670000 0.0752117000
0.3347680000 0.2657820000 0.0587930000
0.3716950000 0.2645910000 0.0114137000
0.4073700000 0.2634620000 0.0028839600
0.4440990000 0.2622870000 0.0005340660
0.4792100000 0.2609750000 0.0000000000
0.5139240000 0.2594030000 0.0000000000
0.5463950000 0.2575110000 0.0000000000
0.5772490000 0.2552380000 0.0000000000
0.6070040000 0.2529790000 0.0000000000
0.6369420000 0.2503400000 0.0000000000
0.6653540000 0.2482190000 0.0000000000
0.6929430000 0.2452120000 0.0000000000
0.7191420000 0.2433660000 0.0000000000
0.7466090000 0.2426340000 0.0000000000
0.7720760000 0.2428470000 0.0000000000
0.8000310000 0.2445870000 0.0000000000
0.8291450000 0.2496070000 0.0000000000
0.8572670000 0.2554360000 0.0000000000
0.8858320000 0.2628370000 0.0000000000
0.8999310000 0.2712290000 0.0000000000
0.9005420000 0.2819410000 0.0000000000
0.0000000000 0.2466930000 0.1187300000
0.0000000000 0.2488900000 0.1173420000
0.0000000000 0.2511330000 0.1156790000
0.0000000000 0.2549020000 0.1140310000
0.0000000000 0.2595560000 0.1117270000
0.0000000000 0.2652630000 0.1096970000
0.0000000000 0.2737770000 0.1077290000
0.0817884000 0.2827950000 0.1057450000
0.1568470000 0.2890210000 0.1013350000
0.2092620000 0.2935070000 0.0963455000
0.2536510000 0.2959330000 0.0885328000
0.2935530000 0.2957810000 0.0761273000
0.3315790000 0.2953080000 0.0631723000
0.3698630000 0.2937510000 0.0363165000
0.4066070000 0.2930500000 0.0043640800
0.4438390000 0.2920270000 0.0009918360
0.4798960000 0.2910050000 0.0000457771
0.5149770000 0.2901350000 0.0000000000
0.5472500000 0.2890210000 0.0000000000
0.5780880000 0.2880750000 0.0000000000
0.6089420000 0.2865340000 0.0000000000
0.6382390000 0.2858470000 0.0000000000
0.6666510000 0.2841690000 0.0000000000
0.6951250000 0.2831770000 0.0000000000
0.7232780000 0.2840770000 0.0000000000
0.7519490000 0.2850080000 0.0000000000
0.7816890000 0.2890210000 0.0000000000
0.8117650000 0.2937060000 0.0000000000
0.8405580000 0.2985430000 0.0000000000
0.8686660000 0.3042190000 0.0000000000
0.8972460000 0.3119100000 0.0000000000
0.9034100000 0.3190050000 0.0000000000
0.9041280000 0.3292130000 0.0000000000
0.0000000000 0.2710770000 0.1273980000
0.0000000000 0.2730140000 0.1252310000
0.0000000000 0.2757760000 0.1230330000
0.0000000000 0.2794690000 0.1212630000
0.0000000000 0.2845810000 0.1191270000
0.0000000000 0.2903790000 0.1163040000
0.0000000000 0.2977800000 0.1132980000
0.0023041100 0.3072100000 0.1095750000
0.1348740000 0.3148700000 0.1045850000
0.1949800000 0.3207900000 0.0980240000
0.2442210000 0.3246660000 0.0899825000
0.2876020000 0.3268790000 0.0790570000
0.3274430000 0.3257040000 0.0605325000
0.3660640000 0.3249260000 0.0368200000
0.4051730000 0.3234610000 0.0050660000
0.4429240000 0.3224840000 0.0011749400
0.4795300000 0.3217360000 0.0000762951
0.5138480000 0.3214160000 0.0000000000
0.5460440000 0.3210190000 0.0000000000
0.5768060000 0.3209890000 0.0000000000
0.6078890000 0.3204390000 0.0000000000
0.6372470000 0.3200890000 0.0000000000
0.6684670000 0.3200430000 0.0000000000
0.6987720000 0.3223320000 0.0000000000
0.7301290000 0.3251240000 0.0000000000
0.7622030000 0.3305260000 0.0000000000
0.7931030000 0.3353930000 0.0000000000
0.8224920000 0.3399710000 0.0000000000
0.8513010000 0.3448690000 0.0000000000
0.8802320000 0.3518120000 0.0000000000
0.9063550000 0.3589990000 0.0000000000
0.9071490000 0.3655150000 0.0000000000
0.9079420000 0.3749450000 0.0000000000
0.0000000000 0.2965290000 0.1343400000
0.0000000000 0.2986800000 0.1325250000
0.0000000000 0.3020070000 0.1303270000
0.0000000000 0.3049970000 0.1277940000
0.0000000000 0.3105060000 0.1249100000
0.0000000000 0.3164570000 0.1216750000
0.0000000000 0.3230330000 0.1175100000
0.0000000000 0.3326010000 0.1127790000
0.0983139000 0.3420920000 0.1071340000
0.1769890000 0.3491570000 0.1004650000
0.2315100000 0.3546040000 0.0917067000
0.2788280000 0.3580530000 0.0805371000
0.3211260000 0.3589530000 0.0620279000
0.3623100000 0.3577170000 0.0259403000
0.4011600000 0.3567560000 0.0046997800
0.4400850000 0.3555960000 0.0011139100
0.4762950000 0.3550470000 0.0000610361
0.5105970000 0.3547570000 0.0000000000
0.5424430000 0.3548030000 0.0000000000
0.5744870000 0.3550160000 0.0000000000
0.6060730000 0.3560690000 0.0000000000
0.6376130000 0.3578240000 0.0000000000
0.6711680000 0.3598380000 0.0000000000
0.7053330000 0.3654230000 0.0000000000
0.7397270000 0.3706110000 0.0000000000
0.7720760000 0.3761500000 0.0000000000
0.8030980000 0.3813530000 0.0000000000
0.8332190000 0.3860840000 0.0000000000
0.8625470000 0.3924770000 0.0000000000
0.8910510000 0.3985200000 0.0000000000
0.9109330000 0.4051730000 0.0000000000
0.9116040000 0.4124060000 0.0000000000
0.9125200000 0.4219580000 0.0000000000
0.0000000000 0.3229570000 0.1402610000
0.0000000000 0.3251850000 0.1383380000
0.0000000000 0.3286030000 0.1363090000
0.0000000000 0.3318380000 0.1335160000
0.0000000000 0.3375300000 0.1302660000
0.0000000000 0.3437550000 0.1262840000
0.0000000000 0.3509120000 0.1218280000
0.0000000000 0.3586630000 0.1166250000
0.0031586200 0.3697110000 0.1094990000
0.1501340000 0.3779200000 0.1019300000
0.2138400000 0.3842530000 0.0921798000
0.2665600000 0.3891510000 0.0809949000
0.3120470000 0.3921420000 0.0648508000
0.3547570000 0.3921260000 0.0361639000
0.3948120000 0.3912260000 0.0040131200
0.4334630000 0.3895170000 0.0009308000
0.4701150000 0.3891200000 0.0000152590
0.5057140000 0.3888300000 0.0000000000
0.5383540000 0.3897760000 0.0000000000
0.5731750000 0.3917450000 0.0000000000
0.6063170000 0.3941250000 0.0000000000
0.6417490000 0.3984130000 0.0000000000
0.6797590000 0.4044710000 0.0000000000
0.7146870000 0.4101320000 0.0000000000
0.7497980000 0.4150760000 0.0000000000
0.7824830000 0.4211180000 0.0000000000
0.8135650000 0.4261080000 0.0000000000
0.8440990000 0.4311740000 0.0000000000
0.8721600000 0.4370640000 0.0000000000
0.9000380000 0.4433200000 0.0000000000
0.9158310000 0.4506750000 0.0000000000
0.9165030000 0.4575110000 0.0000000000
0.9178760000 0.4671400000 0.0000000000
0.0000000000 0.3512020000 0.1464560000
0.0000000000 0.3532770000 0.1447010000
0.0000000000 0.3568780000 0.1420000000
0.0000000000 0.3606620000 0.1388880000
0.0000000000 0.3666740000 0.1354240000
0.0000000000 0.3729760000 0.1305710000
0.0000000000 0.3801480000 0.1262230000
0.0000000000 0.3874720000 0.1197070000
0.0000000000 0.3972230000 0.1128100000
0.1082630000 0.4077210000 0.1033190000
0.1918060000 0.4150000000 0.0939803000
0.2482190000 0.4206000000 0.0818494000
0.2982220000 0.4244300000 0.0649577000
0.3429770000 0.4267950000 0.0312810000
0.3848330000 0.4262000000 0.0037995000
0.4249030000 0.4254670000 0.0007019150
0.4624550000 0.4255130000 0.0000152590
0.5002520000 0.4261540000 0.0000000000
0.5365530000 0.4285190000 0.0000000000
0.5745330000 0.4321660000 0.0000000000
0.6127260000 0.4381320000 0.0000000000
0.6514230000 0.4441440000 0.0000000000
0.6893720000 0.4495310000 0.0000000000
0.7254750000 0.4546730000 0.0000000000
0.7606320000 0.4603650000 0.0000000000
0.7934230000 0.4656600000 0.0000000000
0.8237130000 0.4706800000 0.0000000000
0.8538800000 0.4757460000 0.0000000000
0.8813000000 0.4810250000 0.0000000000
0.9090100000 0.4876940000 0.0000000000
0.9211260000 0.4938580000 0.0000000000
0.9222100000 0.5009540000 0.0000000000
0.9235220000 0.5110550000 0.0000000000
0.0000000000 0.3801630000 0.1524070000
0.0000000000 0.3820710000 0.1506520000
0.0000000000 0.3862060000 0.1474330000
0.0000000000 0.3898680000 0.1447620000
0.0000000000 0.3953000000 0.1401390000
0.0000000000 0.4025480000 0.1354700000
0.0000000000 0.4097960000 0.1302360000
0.0000000000 0.4169380000 0.1235070000
0.0000000000 0.4254980000 0.1163040000
0.0001983670 0.4365610000 0.1070880000
0.1561150000 0.4451510000 0.0952621000
0.2238040000 0.4517280000 0.0831617000
0.2787060000 0.4562600000 0.0695048000
0.3271080000 0.4593120000 0.0440223000
0.3736020000 0.4622110000 0.0054627300
0.4182500000 0.4637220000 0.0018310800
0.4601210000 0.4652930000 0.0003356980
0.5006790000 0.4685590000 0.0000000000
0.5405660000 0.4730910000 0.0000000000
0.5818570000 0.4778360000 0.0000000000
0.6204470000 0.4822310000 0.0000000000
0.6604870000 0.4876170000 0.0000000000
0.6984050000 0.4927600000 0.0000000000
0.7355150000 0.4983440000 0.0000000000
0.7706570000 0.5033950000 0.0000000000
0.8032960000 0.5083390000 0.0000000000
0.8333870000 0.5136190000 0.0000000000
0.8626230000 0.5178000000 0.0000000000
0.8903490000 0.5233540000 0.0000000000
0.9169300000 0.5295640000 0.0000000000
0.9270470000 0.5350730000 0.0000000000
0.9281300000 0.5428090000 0.0000000000
0.9296560000 0.5523920000 0.0000000000
0.0000000000 0.4098120000 0.1591670000
0.0000000000 0.4111700000 0.1571530000
0.0000000000 0.4154420000 0.1540550000
0.0000000000 0.4199890000 0.1517200000
0.0000000000 0.4251770000 0.1473870000
0.0000000000 0.4323800000 0.1429620000
0.0000000000 0.4398870000 0.1371480000
0.0000000000 0.4470440000 0.1301440000
0.0000000000 0.4549320000 0.1227130000
0.0000000000 0.4661020000 0.1133130000
0.0942397000 0.4752880000 0.1037610000
0.1905240000 0.4823380000 0.0908980000
0.2556340000 0.4883960000 0.0794232000
0.3107800000 0.4938280000 0.0669261000
0.3646140000 0.4995960000 0.0545205000
0.4159300000 0.5067060000 0.0279393000
0.4626990000 0.5101090000 0.0069581100
0.5067830000 0.5142750000 0.0028839600
0.5490960000 0.5182880000 0.0010071000
0.5891050000 0.5225910000 0.0000915541
0.6300760000 0.5264360000 0.0000000000
0.6694900000 0.5308000000 0.0000000000
0.7081710000 0.5353930000 0.0000000000
0.7450980000 0.5407340000 0.0000000000
0.7799650000 0.5455100000 0.0000000000
0.8130010000 0.5507440000 0.0000000000
0.8423900000 0.5553670000 0.0000000000
0.8715500000 0.5598840000 0.0000000000
0.8986500000 0.5643240000 0.0000000000
0.9240410000 0.5700620000 0.0000000000
0.9332270000 0.5757840000 0.0000000000
0.9344010000 0.5826810000 0.0000000000
0.9356990000 0.5914090000 0.0000000000
0.0000000000 0.4395510000 0.1670710000
0.0000000000 0.4406960000 0.1655600000
0.0000000000 0.4452580000 0.1624630000
0.0000000000 0.4498210000 0.1600210000
0.0000000000 0.4548100000 0.1561150000
0.0000000000 0.4616620000 0.1515830000
0.0000000000 0.4698560000 0.1470050000
0.0000000000 0.4765090000 0.1396660000
0.0000000000 0.4843210000 0.1327690000
0.0000000000 0.4941940000 0.1240860000
0.0000000000 0.5043870000 0.1160750000
0.1490200000 0.5132830000 0.1086140000
0.2316010000 0.5221480000 0.1028610000
0.2980700000 0.5312280000 0.1004810000
0.3586940000 0.5395440000 0.0986191000
0.4150150000 0.5477840000 0.0950179000
0.4668800000 0.5541620000 0.0892500000
0.5136030000 0.5582670000 0.0774090000
