bundles/resolve-cinematic-luts/Gamut/Faction/Faction 05.cube
TITLE "Faction 05 by Gamut"
# Version 1.0 - 02/29/2024 - Designed for Rec.709 Color Space. Copyright 2024 Gamut, LLC
LUT_3D_SIZE 33
0.0000000000 0.0530020000 0.0604640000
0.0000000000 0.0530020000 0.0592857813
0.0000000000 0.0530020000 0.0575154375
0.0000000000 0.0541737813 0.0550523125
0.0069002500 0.0548541250 0.0506797500
0.1040127500 0.0548341563 0.0425610312
0.1473067500 0.0554491250 0.0277973125
0.1824343750 0.0554293125 0.0022424063
0.2152092500 0.0572842500 0.0000000000
0.2456041562 0.0590968438 0.0000000000
0.2758874375 0.0626551250 0.0000000000
0.3076208750 0.0674493750 0.0000000000
0.3390126250 0.0721605000 0.0000000000
0.3707155313 0.0766393125 0.0000000000
0.4018860625 0.0806501875 0.0000000000
0.4329852500 0.0843135937 0.0000000000
0.4629800000 0.0878470000 0.0000000000
0.4924207187 0.0908349687 0.0007392188
0.5219025000 0.0941548125 0.0062589375
0.5523110000 0.0973746562 0.0256038125
0.5822855000 0.1006476250 0.0391078750
0.6113956250 0.1040533750 0.0476134063
0.6394561250 0.1073600625 0.0546413125
0.6666755000 0.1109331875 0.0612846875
0.6928897500 0.1148340000 0.0675677500
0.7185532500 0.1188555000 0.0743080937
0.7436431250 0.1231942500 0.0807618125
0.7681145625 0.1281925625 0.0874442187
0.7921960000 0.1333432500 0.0938405000
0.8158011875 0.1388622812 0.1002070938
0.8391650625 0.1444292500 0.1062496875
0.8625730313 0.1500356875 0.1126648750
0.8856940000 0.1554210000 0.1184180000
0.0000000000 0.0620385312 0.0616061563
0.0000000000 0.0637494375 0.0593044063
0.0000000000 0.0642819375 0.0563120625
0.0021441875 0.0638041250 0.0519505625
0.0876968125 0.0637686250 0.0453114688
0.1344220625 0.0633058750 0.0337795313
0.1727773437 0.0632345000 0.0028586250
0.2071974062 0.0636805938 0.0001478437
0.2389006875 0.0647985937 0.0000000000
0.2688020937 0.0673839687 0.0000000000
0.2986455625 0.0707863437 0.0000000000
0.3299110000 0.0740077500 0.0000000000
0.3604391563 0.0773016875 0.0000000000
0.3904376250 0.0803386250 0.0000000000
0.4203986875 0.0835839688 0.0000000000
0.4499561562 0.0867256875 0.0000000000
0.4786145312 0.0897729375 0.0011583438
0.5073627188 0.0927192187 0.0049283750
0.5362172500 0.0957766250 0.0166836250
0.5654463438 0.0989492812 0.0319369375
0.5942764687 0.1020329062 0.0425963125
0.6222544062 0.1054096250 0.0507499375
0.6493557500 0.1088019375 0.0571162500
0.6756743437 0.1124302188 0.0637064375
0.7013129687 0.1161887187 0.0698221875
0.7262216875 0.1204875938 0.0763885625
0.7505693750 0.1247720625 0.0829731875
0.7745430000 0.1297101875 0.0891728125
0.7978940937 0.1348038438 0.0954674375
0.8208016563 0.1402657500 0.1013892188
0.8434322500 0.1457619062 0.1076826875
0.8661718125 0.1510713438 0.1133670312
0.8884119062 0.1561720312 0.1190775312
0.0000000000 0.0732181875 0.0632733125
0.0000000000 0.0771514688 0.0621536562
0.0000000000 0.0785993750 0.0598304375
0.0021441875 0.0786143750 0.0550519062
0.0827242500 0.0776892500 0.0479384375
0.1353124375 0.0767540312 0.0360110000
0.1763350625 0.0753103125 0.0026121875
0.2138933437 0.0752480625 0.0000000000
0.2484771875 0.0756550625 0.0000000000
0.2816478125 0.0779664687 0.0000000000
0.3142963750 0.0806996875 0.0000000000
0.3475632500 0.0827262187 0.0000000000
0.3806646875 0.0849915625 0.0000000000
0.4126618125 0.0872358125 0.0000000000
0.4437581875 0.0889965000 0.0000000000
0.4739390937 0.0907545000 0.0004191562
0.5029965625 0.0930850625 0.0034992500
0.5310914063 0.0959424375 0.0148599687
0.5580557500 0.0985255625 0.0291774375
0.5840728750 0.1012572812 0.0395003125
0.6099454375 0.1042789375 0.0473066875
0.6359045625 0.1073476563 0.0539760625
0.6613894375 0.1105626250 0.0600777500
0.6863428750 0.1141389063 0.0663130625
0.7109425625 0.1181831250 0.0722883125
0.7350473750 0.1221691562 0.0786711250
0.7585065000 0.1266450625 0.0847938750
0.7815051250 0.1315156250 0.0912728125
0.8040458750 0.1365414375 0.0970695625
0.8262857500 0.1419105938 0.1028731250
0.8480536875 0.1470981250 0.1087573750
0.8698236563 0.1523439062 0.1143917500
0.8912510625 0.1569192500 0.1197341875
0.0000000000 0.0854185625 0.0660444062
0.0000000000 0.0905704375 0.0655050312
0.0000000000 0.0946570000 0.0638091250
0.0014291563 0.0958894375 0.0598680000
0.0702349063 0.0958480000 0.0532425313
0.1302489687 0.0942940000 0.0438950312
0.1736910313 0.0919696563 0.0218337813
0.2136310312 0.0913406562 0.0013799375
0.2503200313 0.0909140000 0.0000000000
0.2856502500 0.0917300313 0.0000000000
0.3203794062 0.0929345312 0.0000000000
0.3553824375 0.0939326562 0.0000000000
0.3903086250 0.0952015937 0.0000000000
0.4247741250 0.0960476563 0.0000000000
0.4588154375 0.0969274375 0.0004438125
0.4918236562 0.0977205312 0.0016267813
0.5231084375 0.0987841563 0.0073436563
0.5520763438 0.1000219375 0.0257024063
0.5795990313 0.1023329688 0.0378954688
0.6053515000 0.1047852500 0.0459033437
0.6298327187 0.1075316562 0.0524111563
0.6536722500 0.1103941875 0.0582440000
0.6775829688 0.1136481875 0.0640451875
0.7010585938 0.1171352187 0.0700078438
0.7240311875 0.1208354062 0.0757670938
0.7464759063 0.1249806875 0.0815872813
0.7684353437 0.1293056875 0.0877332812
0.7900628125 0.1341348438 0.0933449687
0.8114199062 0.1390670313 0.0990087500
0.8324387187 0.1440652500 0.1046802812
0.8532754062 0.1489342187 0.1101602500
0.8737479375 0.1536222812 0.1154078438
0.8939584688 0.1579156563 0.1203869687
0.0000000000 0.1008643750 0.0697341250
0.0000000000 0.1071027187 0.0697341250
0.0000000000 0.1123897500 0.0686614375
0.0014291563 0.1157113438 0.0654517812
0.0635105000 0.1167613750 0.0603895000
0.1228133438 0.1160987500 0.0525880000
0.1693197500 0.1144156875 0.0381155625
0.2100855938 0.1129699687 0.0054705312
0.2484878750 0.1125480000 0.0020702500
0.2861973750 0.1119475625 0.0008135000
0.3228931875 0.1113437500 0.0001479375
0.3597670000 0.1107359062 0.0000000000
0.3964561250 0.1101731250 0.0000000000
0.4328176563 0.1096590000 0.0000000000
0.4685960000 0.1091906250 0.0004438125
0.5031705938 0.1088756250 0.0040908750
0.5364117500 0.1087876250 0.0182360000
0.5675882187 0.1090183750 0.0325286250
0.5968729375 0.1096323750 0.0434023750
0.6239679687 0.1106262812 0.0507639063
0.6492488750 0.1126906250 0.0570295000
0.6728715312 0.1154336563 0.0629145625
0.6954730625 0.1182633750 0.0685787500
0.7175444687 0.1215328125 0.0742382812
0.7390987500 0.1251180000 0.0799871250
0.7601543750 0.1290029688 0.0855280937
0.7808416875 0.1334511875 0.0910973125
0.8010379687 0.1378761250 0.0964873125
0.8209411250 0.1426363750 0.1016682500
0.8403573750 0.1474862500 0.1068867500
0.8594011250 0.1517203125 0.1118791250
0.8781947187 0.1558439375 0.1163837188
0.8964487500 0.1595920000 0.1207480000
0.0000000000 0.1186902813 0.0743449375
0.0000000000 0.1243855313 0.0751929062
0.0000000000 0.1299107500 0.0742476250
0.0021441875 0.1343555000 0.0717585938
0.0717885312 0.1376648437 0.0676109062
0.1202410937 0.1385521563 0.0615512812
0.1633463125 0.1384066875 0.0525061250
0.2049896875 0.1380382500 0.0401763125
0.2450995000 0.1375156250 0.0221046563
0.2841355313 0.1364425312 0.0056182500
0.3228277187 0.1350382813 0.0015771562
0.3610972813 0.1334759375 0.0009367500
0.3995332188 0.1317975937 0.0006657187
0.4377329375 0.1298423125 0.0006657187
0.4750666875 0.1274917500 0.0012322500
0.5113044688 0.1257870938 0.0059633750
0.5457456875 0.1242182187 0.0230165938
0.5780035625 0.1232052188 0.0366194688
0.6084180625 0.1224890937 0.0463657500
0.6368420938 0.1222701562 0.0540939375
0.6636465000 0.1228228125 0.0606861562
0.6886084375 0.1239968750 0.0670627187
0.7120697812 0.1258735938 0.0727332187
0.7339435000 0.1285328750 0.0786355313
0.7549024375 0.1319322813 0.0841927187
0.7746962813 0.1355240937 0.0894550000
0.7940820312 0.1395260938 0.0948094375
0.8129095938 0.1437818125 0.0996396563
0.8312066875 0.1480897187 0.1045848438
0.8489754375 0.1520943437 0.1093241250
0.8663337812 0.1559375313 0.1135854063
0.8829795000 0.1592005000 0.1177009063
0.8989320938 0.1619580625 0.1213547500
0.0000000000 0.1376203750 0.0799941250
0.0000000000 0.1428808750 0.0804707500
0.0000000000 0.1484913125 0.0807924375
0.0028583125 0.1540250000 0.0789876250
0.0772460000 0.1585070000 0.0756619375
0.1220330938 0.1623544688 0.0706770625
0.1586246875 0.1640215000 0.0632740000
0.1991603437 0.1646423438 0.0554636875
0.2403945625 0.1642297500 0.0458378750
0.2807781250 0.1629688125 0.0314691250
0.3207376875 0.1613524375 0.0098568750
0.3606246250 0.1594960938 0.0049039687
0.4003787500 0.1571570000 0.0023658125
0.4397466562 0.1545393750 0.0014292500
0.4786208750 0.1517734375 0.0023163125
0.5160967500 0.1489353438 0.0075157500
0.5518056250 0.1464353125 0.0249386250
0.5851234687 0.1440577813 0.0386973438
0.6163119375 0.1419301250 0.0485646875
0.6456495000 0.1403803125 0.0562079375
0.6732153750 0.1395321875 0.0632895625
0.6991138125 0.1391780625 0.0699988750
0.7233550000 0.1396666250 0.0763075625
0.7459778750 0.1409870625 0.0823738438
0.7671732500 0.1428054375 0.0878374375
0.7871698125 0.1456442500 0.0932380000
0.8060965625 0.1488990625 0.0980732500
0.8241159062 0.1524346250 0.1030142500
0.8412821250 0.1560468125 0.1075198125
0.8576610000 0.1593491250 0.1115013750
0.8730774375 0.1621061875 0.1153323750
0.8874485313 0.1643004063 0.1186790312
0.9004151250 0.1660922500 0.1217340000
0.0000000000 0.1584889688 0.0869655000
0.0000000000 0.1640129062 0.0878371250
0.0000000000 0.1699415625 0.0879504687
0.0028583125 0.1755388438 0.0867058750
0.0675044062 0.1814329375 0.0833233438
0.1200327188 0.1867556875 0.0782197812
0.1580164375 0.1901732500 0.0722783125
0.1947953438 0.1919937812 0.0663904688
0.2348083750 0.1922464063 0.0600456250
0.2760349375 0.1915117500 0.0520407500
0.3171604062 0.1901339687 0.0400630938
0.3583686563 0.1881686250 0.0244951250
0.3992081875 0.1857990312 0.0101036562
0.4399565625 0.1831443125 0.0052981250
0.4798272812 0.1801937500 0.0048298437
0.5183574063 0.1770718750 0.0103009375
0.5549651562 0.1740112813 0.0266389063
0.5892827500 0.1710537500 0.0402162812
0.6213203125 0.1682163750 0.0499145000
0.6514265625 0.1656958438 0.0582670000
0.6795697500 0.1634857813 0.0657242187
0.7061490938 0.1618117187 0.0725860937
0.7308584063 0.1608485937 0.0791931250
0.7539367500 0.1604296875 0.0852978750
0.7755266875 0.1609715312 0.0908160625
0.7957407813 0.1621127187 0.0960777500
0.8146533438 0.1637761562 0.1009491250
0.8324732500 0.1657372187 0.1056869062
0.8490320313 0.1679230625 0.1099784063
0.8644899687 0.1699652812 0.1136293125
0.8783686562 0.1712492500 0.1170015312
0.8904845625 0.1720758438 0.1197235000
0.9012385000 0.1724532187 0.1219894688
0.0000000000 0.1820755000 0.0948672500
0.0000000000 0.1880361563 0.0953705625
0.0000000000 0.1934745625 0.0950785000
0.0015524375 0.1994540938 0.0939163437
0.0221740000 0.2054971250 0.0902951250
0.1112398125 0.2112343437 0.0855883125
0.1571546250 0.2164685625 0.0801150000
0.1946454687 0.2195414375 0.0752108125
0.2311700000 0.2209685000 0.0705285000
0.2710509063 0.2212730000 0.0646186563
0.3125020000 0.2204268125 0.0576926250
0.3545385938 0.2189783750 0.0477239687
0.3965650000 0.2169101250 0.0337072500
0.4383710937 0.2143378750 0.0167572812
0.4791810625 0.2114296250 0.0127649375
0.5187175000 0.2084672500 0.0164857187
0.5561552500 0.2052630000 0.0299660000
0.5911583750 0.2021465312 0.0422818125
0.6238951875 0.1989804375 0.0520136250
0.6546510938 0.1959717187 0.0606352187
0.6834410000 0.1931653750 0.0682983750
0.7104802188 0.1906447813 0.0754750625
0.7356606250 0.1886263125 0.0821370000
0.7591076875 0.1871486875 0.0881408750
0.7809642500 0.1862350000 0.0936277500
0.8012590000 0.1856692500 0.0988447188
0.8201506875 0.1856318125 0.1035403750
0.8377810313 0.1858950000 0.1079561250
0.8540457500 0.1861473750 0.1118121250
0.8687551875 0.1860064062 0.1153107812
0.8816660000 0.1855708125 0.1180805625
0.8921436875 0.1845805000 0.1203763750
0.9016187500 0.1833817500 0.1223055000
0.0000000000 0.2070322500 0.1013735312
0.0000000000 0.2127715625 0.1017609063
0.0000000000 0.2180122187 0.1013982812
0.0007150312 0.2236746562 0.0999206563
0.0094625937 0.2300023125 0.0971550000
0.0982570625 0.2361820625 0.0924529062
0.1530617187 0.2418928125 0.0873483125
0.1950652188 0.2468559063 0.0823385625
0.2317594375 0.2492893750 0.0784923125
0.2687928438 0.2508520000 0.0740896875
0.3089358437 0.2511554687 0.0693260313
0.3507939375 0.2504236563 0.0627721875
0.3933351875 0.2488290938 0.0542394062
0.4357558437 0.2466879375 0.0431957813
0.4774095313 0.2442561250 0.0343274062
0.5175492188 0.2414596562 0.0324546875
0.5556691563 0.2385609688 0.0382530000
0.5912529375 0.2354485000 0.0466057187
0.6246108125 0.2323703750 0.0554717813
0.6557905937 0.2292270312 0.0637520000
0.6851622500 0.2262175938 0.0718135625
0.7125558125 0.2233249375 0.0790317500
0.7380839688 0.2207310000 0.0856314687
0.7618164375 0.2184513437 0.0912370937
0.7839519062 0.2165485313 0.0968629688
0.8043747812 0.2148510937 0.1015436250
0.8233250000 0.2134588438 0.1061421875
0.8407174375 0.2120563437 0.1100460625
0.8565869063 0.2105447500 0.1136397188
0.8707021875 0.2087340312 0.1166606562
0.8828989063 0.2064056875 0.1190562187
0.8927835000 0.2036697813 0.1210159062
0.9016650000 0.2007210000 0.1229448750
0.0000000000 0.2322336250 0.1076998750
0.0000000000 0.2377608125 0.1079501250
0.0000000000 0.2427556875 0.1076063750
0.0007150312 0.2480365000 0.1065445625
0.0084278750 0.2545443750 0.1042952500
0.0786001562 0.2610456250 0.0998942187
0.1442811875 0.2673182500 0.0947445625
0.1925115313 0.2728529375 0.0900089688
0.2330088750 0.2771709375 0.0864530000
0.2697144688 0.2798799062 0.0833179063
0.3073411875 0.2814966875 0.0794794375
0.3476958438 0.2818951250 0.0751206563
0.3898183750 0.2811732500 0.0695474375
0.4324584062 0.2797453437 0.0626138125
0.4745103750 0.2777849375 0.0556011875
0.5151716562 0.2753951562 0.0506215313
0.5537108750 0.2728293750 0.0507440000
0.5897681250 0.2700715625 0.0555244375
0.6235916875 0.2670090625 0.0622265625
0.6552448750 0.2639711875 0.0694047500
0.6849036250 0.2608921875 0.0765007500
0.7127285313 0.2578671563 0.0832450937
0.7385914375 0.2550011250 0.0894159375
0.7626772500 0.2521787187 0.0949580937
0.7849870000 0.2496348750 0.1000046250
0.8055888437 0.2470785625 0.1044764063
0.8245336250 0.2445587500 0.1085037500
0.8417842187 0.2420025312 0.1121550937
0.8573356250 0.2392309375 0.1153104375
0.8711374063 0.2361360937 0.1179641563
0.8828375625 0.2326187500 0.1202520625
0.8927065625 0.2287632813 0.1219892812
0.9017356875 0.2246819375 0.1235820625
0.0000000000 0.2575840625 0.1143790000
0.0000000000 0.2630631250 0.1145010312
0.0000000000 0.2680611875 0.1144011875
0.0007150312 0.2727563438 0.1137490938
0.0047558125 0.2792190625 0.1119783438
0.0285556563 0.2864537500 0.1084844375
0.1265682500 0.2929990937 0.1037094062
0.1852860312 0.2993279062 0.0990482500
0.2307792188 0.3048126250 0.0961056563
0.2704710625 0.3090257813 0.0932673125
0.3076955937 0.3118674688 0.0906284375
0.3461128750 0.3132887187 0.0874792500
0.3868226250 0.3135983437 0.0834695312
0.4288124375 0.3130412500 0.0788373125
0.4708157813 0.3117186250 0.0737691875
0.5116641250 0.3099081875 0.0692189687
0.5506093750 0.3076905000 0.0668627500
0.5870610938 0.3051418750 0.0680245000
0.6212443125 0.3023999687 0.0719081563
0.6533706875 0.2995093125 0.0772700937
0.6833238750 0.2964407187 0.0830735312
0.7114349375 0.2933419687 0.0886977187
0.7376479062 0.2902149063 0.0941652188
0.7619585000 0.2870478438 0.0989610625
0.7845559687 0.2839708750 0.1035962813
0.8053527812 0.2807405000 0.1074143437
0.8243437188 0.2774372813 0.1109864375
0.8415766250 0.2739873125 0.1141730313
0.8569570937 0.2704229375 0.1168830000
0.8704440938 0.2664554062 0.1192854063
0.8821081250 0.2622824062 0.1212411250
0.8921695938 0.2577417812 0.1229448438
0.9015639375 0.2531253438 0.1244256563
0.0000000000 0.2837182500 0.1217580000
0.0000000000 0.2891213437 0.1220851250
0.0000000000 0.2939848750 0.1218832500
0.0007150312 0.2986435312 0.1215555000
0.0028583750 0.3043148750 0.1205263750
0.0183835937 0.3122789375 0.1179066563
0.1038127500 0.3197478125 0.1137755000
0.1718048125 0.3264895625 0.1100240313
0.2236197500 0.3328965000 0.1074046250
0.2679855937 0.3384116250 0.1054383437
0.3077532500 0.3422115625 0.1032036875
0.3458178438 0.3447097812 0.1005323125
0.3849023750 0.3461008750 0.0977957500
0.4256645937 0.3463498750 0.0941834687
0.4669438750 0.3456873125 0.0904441250
0.5076264062 0.3444127812 0.0867960313
0.5465660000 0.3425720000 0.0839046250
0.5833423438 0.3403907187 0.0828140000
0.6178570000 0.3378426250 0.0838489375
0.6502722812 0.3351061250 0.0870653437
0.6806756250 0.3321348750 0.0911686250
0.7091307500 0.3289740625 0.0956107812
0.7356571250 0.3257419375 0.0997228750
0.7604051875 0.3223262188 0.1038307500
0.7832296250 0.3187973750 0.1075133750
0.8043337500 0.3151256875 0.1107841563
0.8234277500 0.3113166875 0.1137031250
0.8406417812 0.3072838125 0.1163709375
0.8559501250 0.3030990000 0.1186677500
0.8693119688 0.2986306250 0.1205925625
0.8810994375 0.2939430625 0.1225083750
0.8915041562 0.2891039687 0.1239042813
0.9012607500 0.2840607500 0.1251643750
0.0000000000 0.3105088750 0.1305378437
0.0000000000 0.3158431250 0.1307165625
0.0000000000 0.3206760000 0.1307360625
0.0000000000 0.3254915625 0.1304400313
0.0021688750 0.3308575313 0.1298757187
0.0135041562 0.3384864375 0.1281900938
0.0716717812 0.3468391562 0.1250681875
0.1526135937 0.3543061563 0.1220823125
0.2118712813 0.3612775000 0.1201733125
0.2608975625 0.3675849688 0.1184827500
0.3047427188 0.3727075625 0.1166254375
0.3446136875 0.3759618750 0.1145720625
0.3834602187 0.3781229687 0.1119579687
0.4229811250 0.3792020625 0.1089221562
0.4632479063 0.3792829062 0.1058639063
0.5032547188 0.3785149688 0.1024978125
0.5420076563 0.3771869375 0.0997831563
0.5788764688 0.3752993750 0.0980129375
0.6137091250 0.3730456562 0.0975140000
0.6464893438 0.3704750313 0.0985692187
0.6772305000 0.3676390625 0.1006014062
0.7061506562 0.3645629687 0.1033383125
0.7331727188 0.3612243750 0.1063480625
0.7583250938 0.3576324063 0.1091900000
0.7816440937 0.3539135000 0.1118166562
0.8029168750 0.3499042500 0.1143862813
0.8222731875 0.3456806562 0.1167009688
0.8395386563 0.3412948437 0.1186980938
0.8548821250 0.3366893125 0.1204678437
0.8683234687 0.3318522812 0.1221825625
0.8801510312 0.3269219375 0.1234603438
0.8907776563 0.3217391250 0.1248553125
0.9008777500 0.3166409375 0.1259778438
0.0000000000 0.3378116250 0.1407660625
0.0000000000 0.3430903125 0.1409230000
0.0000000000 0.3479794375 0.1410494375
0.0000000000 0.3527838750 0.1407660625
0.0017250625 0.3582764375 0.1402342500
0.0086002187 0.3655573125 0.1390621875
0.0372570625 0.3741871875 0.1369151875
0.1280166875 0.3825335625 0.1350690938
0.1956133125 0.3901765000 0.1336990625
0.2495820625 0.3969023750 0.1320501562
0.2968532500 0.4026081250 0.1303406875
0.3401040000 0.4069609375 0.1283180313
0.3802970000 0.4096656875 0.1258461875
0.4197642188 0.4114302187 0.1231370313
0.4593155000 0.4121127500 0.1200590625
0.4986938438 0.4119444375 0.1170777500
0.5371901875 0.4110419375 0.1142141250
0.5741045625 0.4095520313 0.1119231875
0.6091796875 0.4076458750 0.1106388750
0.6423766563 0.4053155625 0.1102358125
0.6736788125 0.4027094375 0.1108513125
0.7030579687 0.3997260000 0.1119914687
0.7305549375 0.3964073125 0.1135356875
0.7561968750 0.3928329063 0.1152137187
0.7798663750 0.3888958125 0.1167163750
0.8015195625 0.3847982500 0.1183492812
0.8210980000 0.3803408125 0.1198133125
0.8385695938 0.3757091563 0.1212602812
0.8539532500 0.3709174375 0.1225472500
0.8674529687 0.3658699687 0.1237829062
0.8793566875 0.3606850000 0.1247252500
0.8900911875 0.3554012500 0.1258000625
0.9003115000 0.3501462500 0.1267281875
0.0000000000 0.3657575312 0.1522132187
0.0000000000 0.3709685000 0.1523388438
0.0000000000 0.3760264375 0.1523388438
0.0000000000 0.3808855000 0.1523388438
0.0014785000 0.3863928750 0.1518480313
0.0060622813 0.3931713125 0.1508437500
0.0254810313 0.4023296875 0.1494557188
0.0968450000 0.4111975000 0.1479397813
0.1736849688 0.4193162812 0.1471568437
0.2339316875 0.4265237188 0.1458114375
0.2853133125 0.4325631875 0.1440767813
0.3312661562 0.4372595625 0.1417313438
0.3738282187 0.4406773125 0.1391690938
0.4144565625 0.4428319375 0.1363347500
0.4541789063 0.4439504063 0.1332457500
0.4935290937 0.4443547187 0.1301035625
0.5319322500 0.4439042813 0.1273511562
0.5690629688 0.4428575938 0.1246919063
0.6045521563 0.4413973438 0.1227678750
0.6382391875 0.4394648750 0.1214524375
0.6700556562 0.4371160937 0.1207639688
0.7000361250 0.4343844062 0.1206991875
0.7280834063 0.4312440312 0.1208562187
0.7541564062 0.4276761875 0.1211698125
0.7781811250 0.4237395000 0.1218898125
0.8001685313 0.4195599063 0.1226156563
0.8199759375 0.4151042500 0.1233067500
0.8375213438 0.4102866563 0.1239411563
0.8530321875 0.4053072500 0.1247242188
0.8666257813 0.4002326250 0.1255014375
0.8785910000 0.3950001875 0.1262744375
0.8894921562 0.3897131250 0.1267281563
0.8996809062 0.3843154063 0.1273462812
0.0000000000 0.3942575000 0.1647095000
0.0000000000 0.3994832812 0.1647095000
0.0000000000 0.4045632500 0.1645915000
0.0000000000 0.4094781875 0.1643726562
0.0014785000 0.4149718750 0.1638958750
0.0046326875 0.4215783750 0.1628488125
0.0172503125 0.4306167500 0.1616386250
0.0562500938 0.4399163125 0.1605399687
0.1461242500 0.4484395000 0.1599955000
0.2140797812 0.4558878438 0.1588982187
0.2694809375 0.4621471250 0.1571139375
0.3185382500 0.4670709687 0.1546796875
0.3635783750 0.4708182500 0.1518642500
0.4060241875 0.4733358438 0.1488315625
0.4470285625 0.4748689375 0.1457696875
0.4870982500 0.4756532187 0.1423608438
0.5261570000 0.4757875000 0.1392965000
0.5638525313 0.4753041250 0.1364442812
0.5999857500 0.4743095000 0.1339631250
0.6342702812 0.4728634375 0.1318696250
0.6666691250 0.4708397500 0.1302245000
0.6970994688 0.4683867500 0.1290256563
0.7256489375 0.4654535000 0.1282236250
0.7521091875 0.4620361250 0.1275513750
0.7764702500 0.4582522500 0.1272515000
0.7986955937 0.4540657500 0.1269502500
0.8186988750 0.4496005000 0.1268625000
0.8364343125 0.4448243437 0.1269715938
0.8520622500 0.4398660000 0.1270220000
0.8657049688 0.4347822187 0.1273360000
0.8777743750 0.4295291875 0.1274930000
0.8886470000 0.4241783437 0.1276495000
0.8989980000 0.4188870000 0.1278060000
0.0000000000 0.4231925937 0.1778061563
0.0000000000 0.4285300938 0.1775904688
0.0000000000 0.4335383125 0.1772574062
0.0000000000 0.4386052188 0.1769315000
0.0014785000 0.4440668125 0.1762873125
0.0039920937 0.4505756875 0.1752390313
0.0129130938 0.4593872500 0.1738985312
0.0409297187 0.4687051875 0.1726206875
0.1162657187 0.4773996875 0.1722410937
0.1900477500 0.4849791562 0.1712251250
0.2500190937 0.4912455000 0.1694575937
0.3022652188 0.4962697812 0.1669460625
0.3499315000 0.5000425625 0.1638482187
0.3946731562 0.5028258750 0.1606015312
0.4376724375 0.5047553750 0.1571730937
0.4793130313 0.5060127188 0.1537712813
0.5196268125 0.5066708437 0.1504127188
0.5584073125 0.5068263750 0.1472675312
0.5953210625 0.5063527187 0.1443065938
0.6303554063 0.5053774375 0.1416989375
0.6632498125 0.5037365312 0.1391567500
0.6942459375 0.5016174688 0.1371913750
0.7231185625 0.4988669063 0.1352880312
0.7499094062 0.4956701875 0.1336937187
0.7746643750 0.4920620000 0.1325429687
0.7971018438 0.4880040937 0.1314487813
0.8172632812 0.4836201250 0.1304684063
0.8351972813 0.4789808437 0.1299805938
0.8509403438 0.4741063125 0.1292790625
0.8646908125 0.4690804063 0.1291445625
0.8768164063 0.4639135000 0.1287196250
0.8878008750 0.4587065312 0.1285646250
0.8981775000 0.4535129688 0.1282637813
0.0000000000 0.4527045625 0.1911455000
0.0000000000 0.4579010000 0.1906516875
0.0000000000 0.4629392500 0.1902448125
0.0003451875 0.4679590313 0.1897476563
0.0014785000 0.4733171875 0.1889488750
0.0036965938 0.4797936875 0.1877399687
0.0112372500 0.4880360625 0.1863143125
0.0312720625 0.4973044688 0.1847549375
0.0791980000 0.5059993125 0.1839325625
0.1623537812 0.5134767188 0.1827700938
0.2278696875 0.5196252500 0.1808789375
0.2833906250 0.5245172500 0.1781074687
0.3338114375 0.5283464375 0.1748223750
0.3811802500 0.5312952500 0.1713390625
0.4266094375 0.5336513750 0.1677485000
0.4703647500 0.5354285937 0.1642411250
0.5123551250 0.5366910000 0.1607629375
0.5523836562 0.5373348125 0.1573220312
