bundles/resolve-cinematic-luts/Gamut/Faction/Faction 03.cube
TITLE "Faction 03 by Gamut"
# Version 1.0 - 02/13/2024 - Designed for Rec.709 Color Space. Copyright 2024 Gamut, LLC
LUT_3D_SIZE 5
0.0030823200 0.0382239000 0.0417945000
0.2049440000 0.0409857000 0.0000000000
0.4367590000 0.0625010000 0.0000000000
0.6429690000 0.0764172000 0.0000000000
0.8704970000 0.0851759000 0.0000000000
0.0000000000 0.1641720000 0.1165180000
0.2376900000 0.2081180000 0.0896620000
0.5414050000 0.2157630000 0.0000000000
0.7803310000 0.1971010000 0.0000000000
0.9955290000 0.1945220000 0.0000000000
0.0000000000 0.3565880000 0.2188910000
0.1653470000 0.4268410000 0.1655910000
0.6131230000 0.4763560000 0.0118563000
0.8751810000 0.4922260000 0.0000000000
1.0000000000 0.5172050000 0.0001983670
0.0000000000 0.5788050000 0.3002820000
0.0265507000 0.6381930000 0.2646070000
0.6375830000 0.7521170000 0.1450520000
0.9099720000 0.7570310000 0.0604715000
1.0000000000 0.7506980000 0.0059510200
0.0000000000 0.8512550000 0.4212250000
0.0007782100 0.8747840000 0.4009310000
0.4994430000 0.9439380000 0.3528500000
0.8190890000 0.9465320000 0.2837570000
0.9840240000 0.9370870000 0.1941560000
0.0000000000 0.0529946000 0.1656210000
0.1954830000 0.0592508000 0.1740750000
0.4641790000 0.0740215000 0.1312120000
0.6921340000 0.0901350000 0.0846418000
0.8880750000 0.0969100000 0.0598001000
0.0000000000 0.2005800000 0.2804460000
0.1415880000 0.2381320000 0.2932780000
0.5271840000 0.2540780000 0.2109410000
0.7525600000 0.2416270000 0.1523160000
0.9646140000 0.2366520000 0.1308310000
0.0000000000 0.4016330000 0.4215300000
0.0250553000 0.4532230000 0.3992520000
0.5929960000 0.5197220000 0.2748760000
0.8634930000 0.5228960000 0.1809110000
1.0000000000 0.5410090000 0.1313340000
0.0000000000 0.6225680000 0.4890820000
0.0009613180 0.6664680000 0.4604720000
0.5888610000 0.7800560000 0.3782710000
0.8829020000 0.7858700000 0.2858630000
1.0000000000 0.7785000000 0.2250860000
0.0000000000 0.8669870000 0.5522240000
0.0000000000 0.8899210000 0.5343860000
0.4402690000 0.9483180000 0.4832840000
0.8008240000 0.9514760000 0.4347300000
0.9802240000 0.9441670000 0.3645840000
0.0000000000 0.0882429000 0.3568930000
0.0375677000 0.1029830000 0.4116730000
0.4771800000 0.1179830000 0.4184630000
0.7417110000 0.1223930000 0.3365070000
0.9800410000 0.1435420000 0.3246360000
0.0000000000 0.2422370000 0.4556040000
0.0089875600 0.2766160000 0.5032580000
0.5397730000 0.3054250000 0.4840010000
0.8205840000 0.2916910000 0.3898830000
0.9995730000 0.2983600000 0.3842220000
0.0000000000 0.4437930000 0.5631490000
0.0183871000 0.4876330000 0.5788200000
0.5797050000 0.5724570000 0.5295800000
0.8708320000 0.5817500000 0.4588390000
1.0000000000 0.5977260000 0.4354470000
0.0000000000 0.6445260000 0.6682840000
0.0043030400 0.6874340000 0.6766460000
0.5234760000 0.8000920000 0.6040740000
0.8629740000 0.8131070000 0.5285880000
1.0000000000 0.8034790000 0.4801710000
0.0000000000 0.8745710000 0.7383540000
0.0000000000 0.9012280000 0.7369040000
0.2705420000 0.9568630000 0.6657660000
0.7702750000 0.9568930000 0.6222020000
0.9754640000 0.9517050000 0.5638970000
0.0000000000 0.1100790000 0.5375910000
0.0005798430 0.1517510000 0.6079350000
0.4478070000 0.1780420000 0.6809190000
0.7603720000 0.1730070000 0.6672620000
0.9992830000 0.1848480000 0.6048520000
0.0000000000 0.2734260000 0.6394140000
0.0000000000 0.3132830000 0.6872660000
0.4862590000 0.3603720000 0.7427940000
0.8288850000 0.3678030000 0.7077590000
1.0000000000 0.3637290000 0.6433970000
0.0000000000 0.4818340000 0.7184710000
0.0000000000 0.5292290000 0.7462120000
0.5233390000 0.6158850000 0.7815820000
0.8794540000 0.6283210000 0.6984970000
1.0000000000 0.6332650000 0.6270390000
0.0000000000 0.6816970000 0.8012970000
0.0533913000 0.7257500000 0.8196380000
0.6014500000 0.8110780000 0.7940950000
0.8427100000 0.8328830000 0.7222400000
1.0000000000 0.8210730000 0.6720680000
0.0000000000 0.8950030000 0.8827950000
0.0000000000 0.9141830000 0.8878920000
0.3620660000 0.9586480000 0.8589000000
0.7282370000 0.9634550000 0.7916080000
0.9724420000 0.9585410000 0.7408410000
0.0000000000 0.0821698000 0.7236290000
0.0007782100 0.1416490000 0.7756470000
0.4220800000 0.1894710000 0.8699170000
0.7303580000 0.2131690000 0.9485620000
0.9984740000 0.2297700000 0.9917750000
0.0000000000 0.2585790000 0.8065460000
0.0000000000 0.3044330000 0.8465400000
0.4133820000 0.3763330000 0.9363550000
0.7741970000 0.4111240000 0.9906310000
0.9997560000 0.4265810000 0.9993290000
0.0000000000 0.4911420000 0.9192950000
0.0000000000 0.5347370000 0.9538870000
0.3311210000 0.6327760000 0.9997410000
0.8053860000 0.6604260000 0.9993740000
0.9999390000 0.6624400000 0.9513240000
0.0000000000 0.7126570000 0.9964600000
0.0000000000 0.7465170000 0.9998630000
0.3907070000 0.8282750000 0.9995270000
0.7672850000 0.8451820000 0.9817350000
0.9991460000 0.8302740000 0.9068130000
0.0000000000 0.9360040000 0.9999850000
0.0000152590 0.9448080000 0.9999690000
0.5714960000 0.9583730000 0.9996340000
0.8130920000 0.9623250000 0.9681390000
0.9624780000 0.9697260000 0.9459980000
