bundles/resolve-cinematic-luts/Gamut/Prestige/Filmic Glam.cube
TITLE "Prestige - Filmic Glam"
# Contributor - Runaway Vows. Version 1.0 - 05/22/2023 - Designed for Rec.709 Color Space. Copyright 2023 Gamut, LLC
LUT_3D_SIZE 33
0.007886 0.013406 0.003154
0.016412 0.015746 0.003918
0.027995 0.017300 0.005471
0.041023 0.018852 0.006235
0.055754 0.018926 0.008477
0.073255 0.020380 0.010128
0.091963 0.019714 0.011681
0.113258 0.020503 0.013849
0.134121 0.021292 0.015574
0.157660 0.022647 0.017915
0.186031 0.023411 0.019468
0.218047 0.024446 0.021809
0.251278 0.024939 0.024150
0.285353 0.025234 0.024914
0.322091 0.026023 0.026467
0.361101 0.026812 0.026812
0.402010 0.026812 0.026812
0.443848 0.029128 0.025653
0.484563 0.032233 0.024889
0.524906 0.034870 0.023657
0.566560 0.038443 0.024741
0.606911 0.041517 0.026836
0.645957 0.045189 0.030459
0.681778 0.047987 0.032776
0.714065 0.050173 0.034894
0.743020 0.053563 0.037581
0.769857 0.058836 0.042721
0.795824 0.066961 0.053046
0.821985 0.076454 0.061489
0.848954 0.088295 0.068742
0.876744 0.096970 0.075914
0.904663 0.104280 0.082995
0.931502 0.110432 0.089165
0.018753 0.026590 0.010128
0.027255 0.028906 0.010917
0.040354 0.030483 0.010917
0.056972 0.031297 0.010941
0.074244 0.031321 0.012445
0.092033 0.032012 0.013898
0.111933 0.031987 0.016190
0.133601 0.032726 0.017891
0.157103 0.033687 0.019443
0.186770 0.034475 0.021021
0.218885 0.035264 0.022031
0.252281 0.035289 0.023361
0.287290 0.035289 0.024421
0.324370 0.036077 0.025234
0.362939 0.036077 0.025259
0.403597 0.037704 0.024840
0.444793 0.040742 0.024101
0.486694 0.043687 0.023682
0.528703 0.047223 0.023682
0.570104 0.050868 0.025530
0.609570 0.054709 0.027379
0.646476 0.057782 0.029399
0.680804 0.061310 0.031765
0.711934 0.064694 0.033564
0.739934 0.068064 0.036619
0.765983 0.073054 0.041157
0.791162 0.080380 0.050958
0.815935 0.087586 0.058608
0.840975 0.095205 0.066053
0.866468 0.102729 0.073386
0.892007 0.109691 0.080621
0.917076 0.115564 0.086560
0.940227 0.119907 0.091705
0.029670 0.040551 0.017940
0.038147 0.043497 0.017891
0.052203 0.044938 0.017152
0.068800 0.045010 0.015697
0.088762 0.044987 0.014934
0.109045 0.045660 0.016338
0.130831 0.046859 0.018581
0.152298 0.047680 0.020281
0.180876 0.048486 0.021243
0.213937 0.048533 0.022031
0.248481 0.048533 0.022869
0.283527 0.047886 0.023657
0.320440 0.047886 0.024446
0.358951 0.048296 0.024495
0.399271 0.050611 0.023756
0.440599 0.053172 0.022499
0.482439 0.056587 0.022129
0.524606 0.060147 0.023238
0.566026 0.064130 0.024741
0.605386 0.067935 0.026614
0.642184 0.071810 0.028635
0.675789 0.075291 0.030508
0.706147 0.079130 0.032775
0.733494 0.083251 0.035831
0.758640 0.087758 0.039130
0.782703 0.093101 0.045001
0.806765 0.099979 0.055033
0.830486 0.106350 0.062738
0.854508 0.112433 0.069827
0.878469 0.118535 0.076887
0.902019 0.123990 0.083022
0.924287 0.128379 0.088755
0.945243 0.131718 0.092985
0.036767 0.056711 0.025727
0.047700 0.059059 0.024175
0.061335 0.062429 0.021119
0.077893 0.062530 0.019640
0.099281 0.062530 0.018803
0.122330 0.062470 0.017398
0.144959 0.063569 0.017349
0.171983 0.064690 0.019615
0.204082 0.064819 0.020577
0.239082 0.064310 0.021366
0.275165 0.063350 0.022696
0.312011 0.063167 0.022943
0.350188 0.064034 0.022943
0.389099 0.065090 0.022228
0.429792 0.067599 0.021440
0.471513 0.071007 0.021366
0.513654 0.074312 0.022474
0.554796 0.078174 0.024396
0.594361 0.082087 0.026294
0.630820 0.085913 0.027847
0.664459 0.089555 0.030188
0.694675 0.093281 0.031740
0.721552 0.097286 0.034328
0.746337 0.101643 0.037654
0.769621 0.106187 0.042176
0.792197 0.111252 0.047514
0.814888 0.117147 0.054651
0.838004 0.123318 0.064080
0.860805 0.128646 0.071461
0.883450 0.133735 0.077961
0.905512 0.138315 0.083973
0.926404 0.142230 0.089246
0.946005 0.145207 0.093807
0.043629 0.075354 0.031938
0.055584 0.077357 0.030409
0.068124 0.081029 0.025826
0.083208 0.084093 0.021341
0.104034 0.085364 0.021193
0.129233 0.085816 0.019074
0.156518 0.085816 0.017497
0.188504 0.085184 0.016042
0.225024 0.085101 0.017349
0.261827 0.084386 0.018901
0.298412 0.083793 0.019911
0.335602 0.083334 0.020429
0.373974 0.083680 0.020207
0.413830 0.085239 0.019911
0.454490 0.087697 0.020256
0.495735 0.090500 0.021711
0.536337 0.093679 0.023263
0.575753 0.097068 0.024815
0.612491 0.100545 0.026368
0.646095 0.104121 0.028241
0.676687 0.107797 0.030261
0.703736 0.111432 0.032085
0.728276 0.115329 0.035190
0.751219 0.119572 0.038985
0.773265 0.124361 0.043720
0.794758 0.129151 0.048949
0.816476 0.134440 0.055553
0.838357 0.139645 0.062834
0.860463 0.144658 0.070061
0.882437 0.149608 0.076611
0.904065 0.153994 0.083110
0.924720 0.157529 0.088440
0.944176 0.160655 0.093429
0.045350 0.099021 0.036693
0.057217 0.102035 0.035166
0.069539 0.106685 0.030532
0.083990 0.110848 0.025875
0.103714 0.114819 0.020700
0.128115 0.116739 0.019714
0.159919 0.116810 0.018926
0.199060 0.114449 0.014712
0.240255 0.111253 0.010892
0.280338 0.108977 0.012888
0.318246 0.107553 0.014441
0.355419 0.107007 0.015870
0.393115 0.106927 0.016141
0.432022 0.107869 0.016806
0.471226 0.109369 0.018039
0.510614 0.111098 0.019591
0.549419 0.113712 0.021538
0.586419 0.116151 0.023362
0.620504 0.119299 0.025259
0.651644 0.122620 0.027255
0.679571 0.126090 0.029473
0.704551 0.129830 0.032085
0.727544 0.133904 0.035190
0.749356 0.138325 0.039302
0.770782 0.143057 0.044433
0.791963 0.147935 0.050148
0.813255 0.152851 0.056262
0.835087 0.158072 0.063246
0.857128 0.162917 0.069864
0.879223 0.167614 0.076487
0.901016 0.171932 0.083052
0.922190 0.175702 0.088742
0.942369 0.178923 0.093781
0.044142 0.127417 0.041322
0.057812 0.132008 0.040577
0.069089 0.137554 0.035978
0.083176 0.143281 0.031247
0.100517 0.148711 0.025826
0.123390 0.152913 0.020602
0.154461 0.154998 0.018285
0.198698 0.151711 0.015328
0.245628 0.146038 0.010695
0.290203 0.140573 0.006259
0.331120 0.136857 0.007442
0.369241 0.134637 0.009142
0.406499 0.133722 0.010547
0.443376 0.133429 0.011952
0.480609 0.133715 0.013652
0.517718 0.134363 0.015845
0.554429 0.135652 0.017792
0.589020 0.137575 0.020109
0.620787 0.140072 0.022721
0.650005 0.143141 0.024914
0.676148 0.146447 0.027699
0.700160 0.150460 0.030656
0.722538 0.154609 0.034648
0.744317 0.159332 0.039302
0.765937 0.164082 0.044727
0.787556 0.169025 0.050398
0.809428 0.173988 0.056772
0.831662 0.179200 0.063337
0.854256 0.184185 0.070359
0.876827 0.188936 0.077380
0.899103 0.193343 0.083455
0.920995 0.197226 0.089530
0.942012 0.200636 0.094933
0.043264 0.161821 0.046971
0.057676 0.166706 0.046283
0.070039 0.172567 0.041986
0.084305 0.178455 0.036669
0.099938 0.184276 0.031247
0.119829 0.189747 0.025826
0.148373 0.193057 0.021218
0.190197 0.191426 0.018137
0.241368 0.184907 0.012864
0.290324 0.178011 0.006851
0.335191 0.171362 0.002316
0.376093 0.166335 0.002095
0.413879 0.163501 0.003548
0.449669 0.161805 0.005890
0.484986 0.161027 0.007886
0.520115 0.160785 0.010202
0.554701 0.161332 0.013135
0.587174 0.162642 0.016240
0.617418 0.164662 0.019172
0.645466 0.167300 0.022278
0.671138 0.170488 0.025382
0.694922 0.174368 0.029103
0.717661 0.178656 0.033243
0.740013 0.183348 0.038517
0.762469 0.188270 0.043993
0.784873 0.193303 0.050398
0.807652 0.198499 0.057367
0.830758 0.203697 0.064352
0.853993 0.208906 0.071395
0.877144 0.213888 0.078718
0.899850 0.218400 0.085194
0.922138 0.222478 0.091569
0.943856 0.226131 0.097263
0.044005 0.197880 0.051677
0.059907 0.202400 0.051677
0.073752 0.207742 0.048751
0.086868 0.213370 0.044015
0.101490 0.219380 0.038739
0.119747 0.224719 0.032701
0.144575 0.228459 0.025826
0.181702 0.228595 0.019862
0.230264 0.224163 0.017940
0.281495 0.217123 0.011360
0.330388 0.209719 0.004928
0.374825 0.202661 0.001651
0.415283 0.196898 0.000986
0.451970 0.193657 0.001651
0.486919 0.192092 0.003204
0.520968 0.191201 0.005372
0.554126 0.191308 0.008477
0.585505 0.191961 0.011582
0.615092 0.193405 0.015278
0.642849 0.195549 0.018901
0.668522 0.198589 0.022573
0.692752 0.202266 0.027034
0.716281 0.206544 0.031937
0.739538 0.211181 0.037950
0.762840 0.216072 0.044171
0.786256 0.221307 0.051042
0.809767 0.226561 0.058573
0.833574 0.232065 0.065962
0.857260 0.237405 0.073701
0.880739 0.242464 0.081001
0.903563 0.247041 0.088064
0.926003 0.251292 0.094787
0.947861 0.255203 0.100990
0.045259 0.233360 0.057792
0.062188 0.237431 0.058227
0.076316 0.242118 0.056312
0.088325 0.247471 0.052529
0.101633 0.252725 0.047244
0.118437 0.257542 0.041695
0.141556 0.261253 0.034106
0.175131 0.262558 0.025777
0.219144 0.260547 0.020454
0.267496 0.255591 0.019838
0.318960 0.249099 0.011952
0.367689 0.241987 0.005495
0.411764 0.235121 0.002218
0.451387 0.229777 0.001355
0.488204 0.226476 0.001454
0.522707 0.224811 0.002218
0.555716 0.224295 0.004386
0.587001 0.224760 0.007492
0.616510 0.225828 0.011164
0.644392 0.227880 0.015599
0.670477 0.230607 0.020035
0.695394 0.234054 0.025185
0.719663 0.238119 0.030952
0.743905 0.242830 0.037383
0.767964 0.247799 0.044694
0.792039 0.252994 0.052348
0.815955 0.258355 0.060295
0.839857 0.263761 0.068208
0.863597 0.269125 0.076290
0.886870 0.274217 0.084251
0.909613 0.278893 0.091498
0.931864 0.283151 0.098400
0.953569 0.287067 0.104763
0.047376 0.267528 0.064960
0.064429 0.270733 0.065522
0.079170 0.274663 0.065195
0.091480 0.279286 0.062468
0.103681 0.284094 0.059259
0.118638 0.288774 0.053389
0.139114 0.292587 0.044435
0.169722 0.294502 0.034870
0.209737 0.294138 0.027157
0.255320 0.291632 0.023929
0.304847 0.287370 0.022130
0.356438 0.281680 0.014071
0.404794 0.275177 0.007541
0.448408 0.269301 0.003598
0.487977 0.264697 0.002218
0.524850 0.261799 0.002119
0.559405 0.260418 0.002760
0.591496 0.260352 0.004928
0.621698 0.261462 0.009167
0.650182 0.263379 0.013578
0.676988 0.266072 0.018778
0.702661 0.269318 0.024742
0.727657 0.273278 0.031198
0.752360 0.277744 0.038169
0.776828 0.282596 0.046288
0.800979 0.287671 0.054206
0.824889 0.292792 0.062606
0.848495 0.297969 0.070846
0.871768 0.303085 0.079177
0.894669 0.307989 0.087358
0.917000 0.312494 0.094797
0.938851 0.316587 0.101886
0.960149 0.320352 0.108530
0.050320 0.299320 0.073575
0.067875 0.302137 0.074575
0.083011 0.305477 0.075741
0.095461 0.309728 0.074977
0.106942 0.314371 0.072855
0.121047 0.319048 0.067864
0.139251 0.323042 0.058353
0.166149 0.325592 0.047170
0.202385 0.326550 0.037137
0.245179 0.325911 0.030631
0.292828 0.323848 0.028586
0.343837 0.320495 0.024421
0.395546 0.315772 0.016930
0.443379 0.310531 0.010695
0.486650 0.305710 0.007221
0.526384 0.302079 0.005496
0.563336 0.299942 0.005496
0.597478 0.299245 0.007023
0.629028 0.299748 0.010473
0.658414 0.301371 0.015131
0.686046 0.303840 0.020355
0.712480 0.306938 0.026565
0.737952 0.310534 0.033021
0.762784 0.314609 0.040236
0.787222 0.319067 0.048132
0.811160 0.323728 0.056071
0.834659 0.328481 0.064290
0.857755 0.333216 0.072896
0.880522 0.337946 0.081203
0.902842 0.342430 0.089225
0.924706 0.346599 0.096806
0.945967 0.350355 0.103781
0.966875 0.353795 0.110308
0.056260 0.329366 0.083254
0.072882 0.332220 0.085156
0.087437 0.335720 0.087369
0.099029 0.340130 0.087297
0.110450 0.344999 0.085912
0.124134 0.349538 0.082050
0.141136 0.353758 0.073216
0.165551 0.356938 0.061781
0.198073 0.359159 0.049805
0.237790 0.360192 0.040589
0.283662 0.360128 0.035831
0.333361 0.358784 0.033465
0.385633 0.356181 0.028783
0.436708 0.352482 0.021784
0.483609 0.348313 0.017250
0.526682 0.344574 0.014564
0.566185 0.341852 0.014095
0.602409 0.340422 0.015525
0.635779 0.340296 0.017841
0.666575 0.341199 0.021563
0.695123 0.342998 0.026220
0.722143 0.345532 0.031444
0.748001 0.348557 0.037161
0.773000 0.352061 0.043720
0.797289 0.355868 0.050663
0.820921 0.359937 0.057998
0.843917 0.364067 0.065595
0.866491 0.368260 0.073253
0.888610 0.372308 0.081179
0.910270 0.376199 0.088982
0.931502 0.379845 0.096414
0.952337 0.383063 0.103185
0.972745 0.386066 0.109756
0.062536 0.359100 0.094593
0.078589 0.362569 0.097007
0.092407 0.366605 0.099598
0.103355 0.371429 0.100650
0.114990 0.376397 0.099839
0.128613 0.381023 0.096456
0.145477 0.385494 0.088823
0.167793 0.389431 0.077453
0.197606 0.392663 0.064933
0.234837 0.395255 0.053937
0.278506 0.396709 0.046641
0.326838 0.396967 0.043119
0.378039 0.396213 0.041312
0.429836 0.394259 0.036397
0.479231 0.391288 0.031740
0.525051 0.388015 0.028709
0.567038 0.385035 0.027551
0.605323 0.382874 0.028241
0.640389 0.381726 0.029670
0.672501 0.381731 0.032307
0.702190 0.382591 0.035412
0.729908 0.384199 0.039600
0.756140 0.386331 0.043890
0.781392 0.388992 0.048819
0.805624 0.391994 0.054290
0.828970 0.395209 0.060021
0.851632 0.398577 0.066488
0.873652 0.401943 0.072793
0.895175 0.405237 0.079427
0.916335 0.408431 0.086192
0.937002 0.411327 0.092807
0.957368 0.413988 0.099391
0.977363 0.416440 0.105379
0.070244 0.389925 0.106952
0.085125 0.393989 0.109666
0.098127 0.398881 0.112864
0.109395 0.404083 0.114824
0.121482 0.409199 0.114129
0.135611 0.414250 0.111504
0.152796 0.419014 0.105744
0.174095 0.423545 0.095840
0.201503 0.427706 0.082700
0.236289 0.431059 0.070381
0.277950 0.433652 0.061119
0.324637 0.435185 0.055657
0.374261 0.435600 0.053595
0.424637 0.434952 0.051985
0.474316 0.433119 0.048272
0.521530 0.430503 0.045510
0.565374 0.427587 0.043671
0.605546 0.424872 0.043282
0.642231 0.422979 0.043627
0.675629 0.421793 0.044991
0.706301 0.421530 0.046739
0.734749 0.421964 0.049359
0.761545 0.423084 0.052011
0.787000 0.424675 0.055321
0.811253 0.426622 0.058978
0.834561 0.428953 0.062994
0.856952 0.431343 0.067471
0.878627 0.433865 0.071907
0.899797 0.436360 0.076906
0.920582 0.438727 0.082293
0.940972 0.441039 0.087815
0.961016 0.443149 0.093119
0.980788 0.445022 0.098462
0.079471 0.422456 0.120262
0.093508 0.427509 0.123803
0.105964 0.432808 0.127421
0.117995 0.438254 0.129924
0.130808 0.443733 0.130053
0.145244 0.449105 0.128207
0.162647 0.454292 0.123215
0.183578 0.459131 0.114649
0.209357 0.463574 0.102005
0.242055 0.467423 0.089249
0.281374 0.470481 0.078260
0.325840 0.472619 0.070842
0.373352 0.473727 0.067395
0.421747 0.473795 0.066025
0.469866 0.472784 0.064629
0.516808 0.470713 0.062372
0.561377 0.468073 0.060335
0.602748 0.465165 0.058845
0.640742 0.462514 0.057942
0.675433 0.460393 0.057887
0.707117 0.458934 0.058186
0.736382 0.458220 0.058980
0.763732 0.458198 0.060451
0.789481 0.458650 0.062055
0.813964 0.459605 0.064025
0.837255 0.460859 0.066503
0.859682 0.462356 0.069165
0.881313 0.464020 0.072022
0.902380 0.465785 0.075088
0.923061 0.467553 0.078948
0.943317 0.469177 0.082686
0.963465 0.470861 0.086703
0.983296 0.472357 0.090770
0.090627 0.456761 0.135621
0.104081 0.462414 0.139611
0.117131 0.467932 0.143499
0.129940 0.473487 0.146538
0.143224 0.479041 0.147319
0.158198 0.484539 0.145859
0.175181 0.489749 0.141488
0.195215 0.494482 0.133249
0.219685 0.498927 0.121427
0.250383 0.502769 0.108483
0.287359 0.505902 0.096694
0.329189 0.508112 0.087469
0.373969 0.509378 0.081907
0.419924 0.509746 0.079725
0.465936 0.509174 0.078778
0.511404 0.507659 0.077805
0.555450 0.505359 0.075862
0.597205 0.502500 0.073644
0.636122 0.499493 0.071862
0.671846 0.496676 0.070060
0.704583 0.494287 0.069235
0.734677 0.492527 0.068450
0.762680 0.491340 0.068202
0.788928 0.490817 0.068644
0.813817 0.490726 0.069324
0.837467 0.491111 0.070112
0.860044 0.491853 0.071512
0.881950 0.492907 0.073294
0.903150 0.494048 0.075041
0.924037 0.495360 0.077247
0.944673 0.496712 0.079881
0.965065 0.498088 0.082690
0.985302 0.499455 0.085619
0.104071 0.492003 0.152753
0.117558 0.497546 0.156670
0.130801 0.502906 0.160736
0.144151 0.508220 0.163688
0.157799 0.513555 0.165094
0.172308 0.518533 0.163718
0.188873 0.523406 0.159533
0.207785 0.527903 0.151440
0.230965 0.531984 0.140117
0.259655 0.535549 0.126969
0.294150 0.538390 0.114121
0.333204 0.540522 0.103558
0.375187 0.541731 0.096118
0.418448 0.542173 0.092294
0.462132 0.541935 0.091282
0.505511 0.540821 0.090867
0.548223 0.538874 0.089574
0.589510 0.536301 0.087449
0.628712 0.533265 0.084603
0.665237 0.530121 0.081459
0.698878 0.527170 0.079050
0.729977 0.524638 0.076906
0.758857 0.522645 0.075716
0.785922 0.521294 0.075061
0.811435 0.520485 0.074557
0.835646 0.520226 0.074829
0.858810 0.520410 0.075193
0.881102 0.520992 0.075945
0.902801 0.521878 0.077150
0.924173 0.522972 0.078678
0.945239 0.524214 0.080310
0.966255 0.525550 0.082212
0.987117 0.526907 0.084018
0.119192 0.526155 0.170400
0.132399 0.531122 0.174240
0.145637 0.536036 0.177797
0.158963 0.540885 0.180653
0.172312 0.545530 0.181842
0.186359 0.550081 0.180607
0.201976 0.554376 0.176219
0.220069 0.558412 0.168560
0.241806 0.562032 0.157163
0.268453 0.565133 0.143842
0.300554 0.567630 0.130394
0.337016 0.569475 0.118282
0.376357 0.570628 0.109033
0.417138 0.571167 0.103824
0.458385 0.570978 0.101675
0.499638 0.570239 0.101330
0.540455 0.568763 0.101114
0.580672 0.566574 0.099389
0.619530 0.563856 0.096275
0.656469 0.560812 0.092431
0.691009 0.557788 0.088602
0.723220 0.554969 0.085762
0.753169 0.552549 0.083330
0.781273 0.550676 0.081568
0.807671 0.549435 0.080435
0.832687 0.548767 0.079871
0.856598 0.548684 0.079871
0.879599 0.549068 0.080348
0.901973 0.549824 0.081207
0.923914 0.550916 0.082318
0.945747 0.552291 0.083939
0.967442 0.553795 0.085472
0.989005 0.555313 0.087234
0.134202 0.557823 0.187473
0.147134 0.562177 0.190746
0.159768 0.566435 0.193892
0.172518 0.570672 0.196296
0.185393 0.574694 0.197303
0.198752 0.578611 0.195810
0.213594 0.582325 0.191398
0.230734 0.585809 0.183483
0.251125 0.588862 0.172213
0.276168 0.591536 0.158845
0.306162 0.593716 0.145025
0.340298 0.595329 0.132019
0.377347 0.596420 0.121316
0.415903 0.596990 0.114140
0.455057 0.597069 0.110686
0.494207 0.596622 0.110009
0.533231 0.595624 0.110368
0.571915 0.594052 0.109796
0.609962 0.591842 0.107264
0.646868 0.589306 0.103412
0.682047 0.586588 0.099048
0.715255 0.583952 0.095031
0.746470 0.581601 0.091992
0.775735 0.579637 0.089539
0.803321 0.578242 0.088014
0.829336 0.577472 0.086698
0.854119 0.577296 0.086347
0.877936 0.577643 0.086347
0.901084 0.578503 0.087170
0.923803 0.579714 0.088466
0.946295 0.581218 0.089919
0.968720 0.582943 0.092032
0.991018 0.584731 0.093687
0.148030 0.586781 0.203117
0.160070 0.590368 0.205678
0.172074 0.593962 0.208214
0.184068 0.597520 0.210191
0.196498 0.600920 0.210928
0.209297 0.604237 0.209301
0.223432 0.607396 0.204843
0.239760 0.610268 0.196943
0.259212 0.612925 0.185808
0.282918 0.615270 0.172582
0.311166 0.617169 0.158307
0.343368 0.618685 0.144728
0.378480 0.619853 0.133138
0.415218 0.620616 0.124461
0.452548 0.621002 0.119555
0.490015 0.620938 0.118057
0.527315 0.620447 0.118524
0.564520 0.619562 0.119151
0.601460 0.618213 0.118272
0.637882 0.616444 0.115227
0.673333 0.614444 0.110951
0.707379 0.612334 0.106512
0.739727 0.610324 0.102539
0.770228 0.608678 0.099695
0.798958 0.607477 0.097400
0.826088 0.606853 0.096148
0.851884 0.606768 0.095342
0.876571 0.607201 0.095006
0.900518 0.608146 0.095366
0.923965 0.609518 0.096567
0.947171 0.611228 0.098154
0.970152 0.613079 0.100125
0.992984 0.615078 0.102038
0.159752 0.612780 0.216818
0.170922 0.615718 0.218858
0.182396 0.618733 0.220957
0.193889 0.621719 0.222559
0.205689 0.624583 0.222989
0.218133 0.627411 0.221322
0.231939 0.630102 0.216965
0.247741 0.632617 0.209229
0.266534 0.634957 0.198404
0.289204 0.637065 0.185248
0.316162 0.638916 0.171204
0.346853 0.640529 0.157223
0.380334 0.641887 0.144888
0.415572 0.643029 0.135140
0.451484 0.643834 0.128900
0.487559 0.644378 0.126309
0.523517 0.644617 0.126786
0.559358 0.644459 0.128228
0.595131 0.643941 0.129051
0.630747 0.643134 0.127758
0.665924 0.642000 0.124509
0.700383 0.640712 0.120228
0.733563 0.639398 0.115905
0.765192 0.638279 0.112113
0.795063 0.637456 0.109597
0.823350 0.637095 0.107764
0.850110 0.637242 0.106623
0.875650 0.637892 0.105945
0.900347 0.638985 0.106239
0.924465 0.640452 0.106971
0.948121 0.642238 0.108087
0.971630 0.644190 0.109773
0.994804 0.646203 0.111533
0.169351 0.636130 0.228802
0.180040 0.638699 0.230612
0.190993 0.641294 0.232312
0.202035 0.643904 0.233589
0.213602 0.646528 0.233965
0.225920 0.649038 0.232470
0.239662 0.651492 0.228180
0.255321 0.653778 0.220797
0.273806 0.655973 0.210331
0.295781 0.658035 0.197578
0.321797 0.660017 0.183778
0.351307 0.661846 0.170056
0.383620 0.663621 0.157367
0.417538 0.665245 0.147069
0.452274 0.666703 0.139866
0.487256 0.668002 0.136197
0.522086 0.668901 0.135841
0.556792 0.669580 0.137843
0.591430 0.669973 0.139958
0.626099 0.670052 0.140960
0.660677 0.669864 0.139490
0.694959 0.669478 0.136225
0.728571 0.668945 0.132032
0.760939 0.668526 0.127700
0.791789 0.668238 0.124244
0.821080 0.668331 0.121738
0.848714 0.668783 0.120312
0.875100 0.669627 0.119285
0.900487 0.670845 0.118960
0.925080 0.672386 0.119234
0.949237 0.674150 0.119821
0.972997 0.676070 0.120935
0.996327 0.678022 0.121711
0.177607 0.657886 0.239478
0.187998 0.660331 0.241202
0.198662 0.662782 0.242809
0.209540 0.665264 0.244072
0.221220 0.667692 0.244492
0.233726 0.670140 0.243075
0.247590 0.672461 0.239217
0.263224 0.674707 0.232146
0.281637 0.676953 0.222203
0.303371 0.679168 0.210046
0.328796 0.681374 0.196823
0.357552 0.683623 0.183526
0.388805 0.685908 0.171299
0.421663 0.688191 0.160722
0.455345 0.690371 0.152771
0.489275 0.692372 0.148140
0.523154 0.694096 0.146944
0.556893 0.695591 0.148442
0.590499 0.696758 0.151584
0.624114 0.697668 0.154374
0.657740 0.698314 0.155282
0.691510 0.698794 0.153919
0.724933 0.699125 0.150217
0.757612 0.699390 0.145891
0.789099 0.699754 0.141716
0.819080 0.700239 0.138310
0.847564 0.700974 0.136132
0.874636 0.702081 0.134657
0.900660 0.703475 0.133701
0.925812 0.705063 0.133331
0.950279 0.706823 0.133196
0.974203 0.708628 0.133105
0.997598 0.710479 0.133114
0.185376 0.679119 0.249828
0.195616 0.681487 0.251503
0.206264 0.683984 0.253176
0.217354 0.686455 0.254561
0.229372 0.689008 0.255232
0.242309 0.691468 0.254085
0.256543 0.693914 0.250473
0.272531 0.696356 0.243902
0.291036 0.698791 0.234564
0.312776 0.701229 0.223110
0.337914 0.703818 0.210772
0.365988 0.706514 0.198364
0.396431 0.709404 0.186649
0.428202 0.712345 0.176235
0.460723 0.715242 0.167832
0.493611 0.717980 0.162345
0.526512 0.720432 0.160123
0.559369 0.722605 0.160892
0.592051 0.724448 0.163872
0.624625 0.726073 0.167827
0.657300 0.727448 0.170792
0.690091 0.728682 0.171789
0.722868 0.729727 0.170105
0.755348 0.730692 0.166488
0.786950 0.731589 0.161897
0.817415 0.732558 0.157668
0.846517 0.733655 0.154308
0.874191 0.734947 0.151862
0.900773 0.736467 0.150190
0.926444 0.738117 0.149019
0.951181 0.739846 0.147855
0.975179 0.741576 0.146920
0.998576 0.743245 0.145723
0.193537 0.700558 0.260230
0.204075 0.703111 0.262144
0.215041 0.705746 0.264013
0.226677 0.708412 0.265639
0.239237 0.711114 0.266552
0.252750 0.713784 0.265736
0.267447 0.716488 0.262480
0.283750 0.719146 0.256407
0.302612 0.721863 0.247753
0.324336 0.724673 0.237337
0.349311 0.727627 0.226076
0.376874 0.730844 0.214709
0.406319 0.734259 0.203575
0.437010 0.737830 0.193511
0.468361 0.741406 0.185084
0.500044 0.744783 0.178930
0.531994 0.747868 0.175575
0.563887 0.750601 0.175112
0.595711 0.753052 0.177452
0.627371 0.755201 0.181460
0.659019 0.757160 0.185963
0.690775 0.758959 0.189265
0.722605 0.760606 0.190303
0.754299 0.762128 0.188536
0.785634 0.763562 0.184521
0.816148 0.764920 0.179733
0.845527 0.766318 0.175244
0.873729 0.767832 0.171496
0.900819 0.769430 0.168619
0.926866 0.771119 0.166378
0.951885 0.772794 0.164339
0.975976 0.774404 0.162259
0.999328 0.775953 0.160429
0.203175 0.722956 0.271465
0.214321 0.725774 0.273684
0.226015 0.728616 0.275891
0.238358 0.731522 0.277927
0.251504 0.734490 0.279090
0.265642 0.737458 0.278599
0.280771 0.740436 0.275762
0.297484 0.743327 0.270226
0.316568 0.746372 0.262320
0.338400 0.749509 0.252914
0.363078 0.752876 0.242811
0.389983 0.756505 0.232528
0.418458 0.760447 0.222347
0.447909 0.764527 0.212618
0.478017 0.768652 0.204126
0.508554 0.772558 0.197454
0.539402 0.776200 0.193202
0.570378 0.779405 0.191590
0.601363 0.782286 0.192879
0.632187 0.784855 0.196387
0.662932 0.787180 0.201462
0.693645 0.789411 0.206448
0.724349 0.791460 0.210058
0.755055 0.793457 0.210967
