bundles/resolve-cinematic-luts/Gamut/Prestige/Filmic Glam.cube
TITLE "Prestige - Filmic Glam"
# Contributor - Runaway Vows. Version 1.0 - 05/22/2023 - Designed for Rec.709 Color Space. Copyright 2023 Gamut, LLC
LUT_3D_SIZE 9
0.007886 0.013406 0.003154
0.055754 0.018926 0.008477
0.134121 0.021292 0.015574
0.251278 0.024939 0.024150
0.402010 0.026812 0.026812
0.566560 0.038443 0.024741
0.714065 0.050173 0.034894
0.821985 0.076454 0.061489
0.931502 0.110432 0.089165
0.043629 0.075354 0.031938
0.104034 0.085364 0.021193
0.225024 0.085101 0.017349
0.373974 0.083680 0.020207
0.536337 0.093679 0.023263
0.676687 0.107797 0.030261
0.773265 0.124361 0.043720
0.860463 0.144658 0.070061
0.944176 0.160655 0.093429
0.044005 0.197880 0.051677
0.101490 0.219380 0.038739
0.230264 0.224163 0.017940
0.415283 0.196898 0.000986
0.554126 0.191308 0.008477
0.668522 0.198589 0.022573
0.762840 0.216072 0.044171
0.857260 0.237405 0.073701
0.947861 0.255203 0.100990
0.056260 0.329366 0.083254
0.110450 0.344999 0.085912
0.198073 0.359159 0.049805
0.385633 0.356181 0.028783
0.566185 0.341852 0.014095
0.695123 0.342998 0.026220
0.797289 0.355868 0.050663
0.888610 0.372308 0.081179
0.972745 0.386066 0.109756
0.090627 0.456761 0.135621
0.143224 0.479041 0.147319
0.219685 0.498927 0.121427
0.373969 0.509378 0.081907
0.555450 0.505359 0.075862
0.704583 0.494287 0.069235
0.813817 0.490726 0.069324
0.903150 0.494048 0.075041
0.985302 0.499455 0.085619
0.148030 0.586781 0.203117
0.196498 0.600920 0.210928
0.259212 0.612925 0.185808
0.378480 0.619853 0.133138
0.527315 0.620447 0.118524
0.673333 0.614444 0.110951
0.798958 0.607477 0.097400
0.900518 0.608146 0.095366
0.992984 0.615078 0.102038
0.185376 0.679119 0.249828
0.229372 0.689008 0.255232
0.291036 0.698791 0.234564
0.396431 0.709404 0.186649
0.526512 0.720432 0.160123
0.657300 0.727448 0.170792
0.786950 0.731589 0.161897
0.900773 0.736467 0.150190
0.998576 0.743245 0.145723
0.231484 0.771534 0.299096
0.285550 0.784884 0.309930
0.352190 0.798919 0.297427
0.448783 0.815328 0.265448
0.560834 0.833830 0.236223
0.678005 0.846794 0.237773
0.792711 0.856016 0.258985
0.904260 0.863066 0.242259
1.000000 0.867600 0.215524
0.333078 0.875856 0.387035
0.383311 0.891676 0.400736
0.441828 0.907890 0.394915
0.525865 0.925897 0.372530
0.624536 0.945769 0.344795
0.726953 0.958245 0.331002
0.827346 0.964911 0.340697
0.922022 0.970600 0.351911
1.000000 0.972843 0.312046
0.002465 0.021095 0.026319
0.063402 0.020503 0.047284
0.148918 0.022770 0.049974
0.279485 0.028980 0.057186
0.440102 0.037457 0.071083
0.608201 0.056735 0.092964
0.741155 0.074704 0.110857
0.842988 0.099946 0.130327
0.945217 0.123598 0.147314
0.047940 0.078736 0.082078
0.109395 0.090044 0.085172
0.224862 0.092300 0.083083
0.382131 0.095062 0.085379
0.545055 0.104794 0.093818
0.681512 0.119818 0.104475
0.778619 0.137527 0.119985
0.866951 0.156465 0.139379
0.949860 0.170252 0.154814
0.060745 0.202839 0.118016
0.126010 0.217875 0.129657
0.225036 0.229763 0.108795
0.405758 0.207035 0.080573
0.548303 0.203603 0.088165
0.668541 0.210279 0.100877
0.768624 0.227598 0.120397
0.864017 0.247884 0.143153
0.949763 0.261802 0.159778
0.076699 0.330736 0.149773
0.132915 0.344750 0.160292
0.208064 0.359052 0.140166
0.379435 0.362143 0.113295
0.560425 0.352507 0.103520
0.690074 0.355319 0.114394
0.794011 0.367284 0.133561
0.886625 0.381673 0.155183
0.970487 0.390818 0.170291
0.105895 0.462108 0.192490
0.162670 0.481969 0.208348
0.238034 0.499441 0.200974
0.375128 0.511853 0.163691
0.550812 0.509794 0.156517
0.698682 0.499460 0.148865
0.807268 0.496222 0.148647
0.897194 0.499263 0.152073
0.981770 0.503183 0.155006
0.160959 0.590613 0.253033
0.209498 0.602991 0.263478
0.274512 0.612163 0.252936
0.381567 0.619315 0.205081
0.524107 0.621822 0.187058
0.669037 0.616568 0.180015
0.795480 0.610221 0.167819
0.898233 0.611843 0.167136
0.991690 0.619645 0.171246
0.196400 0.681425 0.293808
0.241424 0.690912 0.302096
0.306745 0.699289 0.293616
0.403655 0.709781 0.251509
0.526477 0.722552 0.222942
0.655670 0.730668 0.232087
0.785291 0.735244 0.226426
0.900068 0.740155 0.215676
0.998399 0.747535 0.208182
0.246911 0.775373 0.343622
0.300726 0.788629 0.357998
0.368572 0.801685 0.355900
0.456413 0.816947 0.326138
0.562374 0.835903 0.295859
0.677837 0.850199 0.294734
0.792355 0.859483 0.316124
0.903558 0.866326 0.300061
0.999876 0.870596 0.268597
0.346657 0.881673 0.433622
0.395822 0.896456 0.450414
0.454124 0.910484 0.451001
0.531246 0.925909 0.427689
0.627736 0.945585 0.399027
0.728187 0.960003 0.379988
0.827360 0.967456 0.385400
0.921107 0.973076 0.395549
1.000000 0.975313 0.355634
0.000000 0.027403 0.066706
0.035880 0.033416 0.119978
0.157075 0.019714 0.135028
0.309665 0.015279 0.127727
0.468034 0.029177 0.138827
0.631126 0.051011 0.158436
0.756579 0.080282 0.181046
0.866281 0.113832 0.208595
0.965248 0.139384 0.227922
0.032430 0.093754 0.156891
0.076268 0.111466 0.181408
0.227836 0.094838 0.228668
0.401711 0.088609 0.185923
0.557290 0.109291 0.190418
0.684903 0.134412 0.200324
0.781859 0.157262 0.215491
0.872585 0.177180 0.231575
0.955237 0.190854 0.242436
0.064370 0.211921 0.253117
0.136533 0.230331 0.250391
0.241626 0.238353 0.242293
0.398855 0.218590 0.204184
0.546940 0.214782 0.198518
0.671049 0.224041 0.203850
0.775008 0.242377 0.218573
0.871959 0.262003 0.235953
0.955318 0.272737 0.245321
0.097041 0.339805 0.258087
0.164763 0.352949 0.264802
0.254921 0.358264 0.275816
0.372223 0.369408 0.249314
0.550394 0.362977 0.219128
0.683322 0.367450 0.223488
0.789910 0.377916 0.235661
0.884776 0.389728 0.248777
0.970358 0.393835 0.250602
0.143820 0.473497 0.289800
0.202864 0.489579 0.306203
0.279676 0.500713 0.315959
0.385988 0.512678 0.288060
0.542620 0.513421 0.268775
0.688972 0.503809 0.251141
0.797286 0.501344 0.247915
0.888827 0.504122 0.248368
0.976521 0.505528 0.242050
0.189232 0.599140 0.332015
0.235243 0.608326 0.342715
0.303041 0.612279 0.347584
0.395424 0.616218 0.318062
0.519875 0.621409 0.289911
0.661789 0.617954 0.277998
0.789220 0.612517 0.263305
0.893219 0.615299 0.262394
0.988053 0.623504 0.261063
0.216884 0.688055 0.360119
0.261345 0.696100 0.371498
0.330463 0.701061 0.379072
0.419310 0.708105 0.356596
0.527047 0.721811 0.322921
0.651795 0.732665 0.325436
0.781589 0.738066 0.320613
0.897688 0.742781 0.308256
0.996652 0.750592 0.293470
0.269469 0.783152 0.409295
0.320289 0.795305 0.426867
0.389856 0.805296 0.438858
0.470488 0.816654 0.422967
0.564639 0.834253 0.390535
0.675991 0.851150 0.380722
0.789994 0.861561 0.398713
0.900950 0.868339 0.383580
0.998976 0.872471 0.344314
0.364638 0.890011 0.498322
0.412290 0.902590 0.516662
0.472581 0.912864 0.525769
0.542732 0.923841 0.509109
0.630904 0.941431 0.480312
0.728519 0.958866 0.453887
0.825839 0.968286 0.451936
0.918361 0.974247 0.459838
0.999866 0.976784 0.421721
0.000000 0.036472 0.119361
0.017940 0.048022 0.202378
0.125624 0.037458 0.284543
0.310594 0.015771 0.265520
0.490355 0.007097 0.272368
0.647064 0.025136 0.278998
0.769793 0.063352 0.290933
0.886381 0.103151 0.307236
0.976168 0.127522 0.316732
0.005125 0.120516 0.247624
0.046012 0.142314 0.301833
0.164371 0.141746 0.397422
0.389517 0.088760 0.363688
0.558870 0.081864 0.337209
0.689908 0.107791 0.321316
0.790588 0.139742 0.321415
0.882399 0.166367 0.329354
0.961966 0.186055 0.337357
0.057955 0.229609 0.372268
0.123091 0.248811 0.370468
0.199903 0.268663 0.355333
0.396668 0.226594 0.376304
0.553536 0.210565 0.337078
0.679602 0.221648 0.326878
0.786313 0.244006 0.333511
0.883871 0.266478 0.346618
0.966894 0.279707 0.357175
0.103300 0.345696 0.411019
0.173056 0.363818 0.404509
0.263432 0.378008 0.391906
0.384887 0.384159 0.374597
0.548709 0.374199 0.351387
0.684665 0.374471 0.347187
0.793396 0.383751 0.351710
0.889769 0.393624 0.358489
0.977126 0.395842 0.356661
0.166049 0.486008 0.424196
0.233214 0.504120 0.429482
0.323102 0.514495 0.438262
0.430273 0.515392 0.438282
0.536171 0.523689 0.411256
0.678520 0.508455 0.369040
0.788410 0.506089 0.357786
0.882791 0.508502 0.355099
0.973282 0.508640 0.346184
0.229789 0.610514 0.446689
0.282695 0.616869 0.454295
0.352883 0.616534 0.460999
0.437373 0.614232 0.452728
0.519472 0.620761 0.423122
0.652266 0.620125 0.403079
0.780840 0.615550 0.376263
0.886101 0.619991 0.371448
0.982848 0.628086 0.364995
0.273696 0.697599 0.463870
0.317316 0.703292 0.475723
0.377407 0.705849 0.485379
0.458636 0.708689 0.482198
0.541696 0.720089 0.456179
0.649648 0.733507 0.448524
0.776747 0.740382 0.436625
0.893692 0.744777 0.417431
0.993472 0.752752 0.392638
0.323224 0.794770 0.502950
0.365104 0.804613 0.519242
0.423774 0.811725 0.532661
0.501848 0.818116 0.532668
0.578767 0.831586 0.506969
0.676483 0.849351 0.489355
0.786274 0.862256 0.500259
0.896728 0.869332 0.484139
0.997134 0.873479 0.434179
0.398101 0.901110 0.577249
0.439452 0.911489 0.593998
0.493616 0.918649 0.603163
0.563239 0.923249 0.596805
0.637972 0.935627 0.572566
0.729162 0.954445 0.545249
0.823993 0.967407 0.535147
0.914718 0.974320 0.539172
0.999758 0.977638 0.502366
0.000000 0.051008 0.202363
0.005816 0.066256 0.292928
0.091181 0.064084 0.399774
0.290242 0.028685 0.429779
0.468832 0.013011 0.421813
0.640348 0.012124 0.437424
0.777941 0.027403 0.441698
0.895391 0.049370 0.443686
0.977061 0.074552 0.440488
0.000000 0.151133 0.349333
0.018532 0.177102 0.418400
0.127755 0.180555 0.510900
0.364849 0.115091 0.548324
0.531562 0.085553 0.485863
0.675509 0.093294 0.471344
0.788168 0.104755 0.460833
0.885306 0.123467 0.455807
0.964098 0.143567 0.454398
0.031149 0.264923 0.464740
0.089421 0.283767 0.469305
0.172364 0.296559 0.483095
0.347916 0.266675 0.542934
0.544539 0.215050 0.496410
0.679509 0.214686 0.470123
0.793692 0.228504 0.463591
0.892681 0.247139 0.467492
0.972801 0.259112 0.475189
0.108510 0.353828 0.525280
0.176949 0.371781 0.522026
0.256938 0.395721 0.505750
0.361936 0.414925 0.485580
0.553228 0.388413 0.506273
0.692225 0.379969 0.484262
0.803545 0.384033 0.478668
0.900171 0.391542 0.480501
0.985216 0.393721 0.481776
0.178850 0.483436 0.560978
0.246945 0.507059 0.559847
0.326520 0.524723 0.548095
0.441156 0.533051 0.537670
0.534922 0.537133 0.523944
0.674628 0.517768 0.488250
0.786218 0.509907 0.476554
0.884587 0.509762 0.471724
0.977711 0.510319 0.467023
0.254070 0.614227 0.570311
0.305334 0.624479 0.566885
0.371884 0.627641 0.560814
0.481032 0.618711 0.559722
0.544006 0.620659 0.548802
0.644043 0.624795 0.526317
0.771573 0.620062 0.492475
0.878833 0.625493 0.484556
0.979440 0.633669 0.479239
0.303738 0.706964 0.571256
0.350670 0.714029 0.578190
0.417549 0.716302 0.585550
0.513785 0.713302 0.593676
0.583049 0.717586 0.593360
0.653373 0.732756 0.574774
0.770365 0.742788 0.554053
0.886874 0.746127 0.528182
0.988707 0.754304 0.502383
0.373265 0.807515 0.602021
0.417730 0.816404 0.617632
0.473824 0.821812 0.627715
0.541389 0.824185 0.624016
0.611241 0.830122 0.616692
0.685802 0.845470 0.600431
0.781048 0.861909 0.603555
0.890619 0.869720 0.586564
0.994412 0.873177 0.531008
0.464028 0.913485 0.670165
0.496233 0.922536 0.681911
0.534835 0.927778 0.686239
0.588136 0.928430 0.679730
0.657599 0.932533 0.667599
0.735166 0.947213 0.644520
0.822872 0.963897 0.626991
0.910369 0.973625 0.628021
0.999544 0.978167 0.590472
0.000000 0.070458 0.292949
0.000000 0.088435 0.387124
0.064176 0.094344 0.502782
0.255771 0.056054 0.594484
0.454756 0.016462 0.562891
0.633295 0.014293 0.576585
0.784409 0.032726 0.594306
0.893705 0.042889 0.592594
0.969531 0.044280 0.579591
0.000000 0.186379 0.460333
0.013701 0.211394 0.534713
0.102313 0.218946 0.618790
0.312903 0.172411 0.706223
0.517509 0.094955 0.638275
0.664969 0.092770 0.607503
0.784386 0.109948 0.599681
0.881798 0.121251 0.593200
0.960170 0.124578 0.585946
0.020897 0.299147 0.550969
0.063785 0.318912 0.569026
0.152335 0.326029 0.591986
0.303190 0.311277 0.656592
0.525239 0.239701 0.653420
0.673083 0.223315 0.613814
0.793167 0.235605 0.605884
0.892936 0.245754 0.604743
0.971788 0.249250 0.604084
0.104245 0.377169 0.608925
0.172217 0.398038 0.608124
0.247351 0.427786 0.603066
0.345994 0.448211 0.609281
0.519796 0.419562 0.658669
0.691005 0.389554 0.630098
0.808730 0.388079 0.614874
0.905552 0.388927 0.609952
0.986587 0.386620 0.607264
0.173953 0.487807 0.666935
0.242107 0.511960 0.668133
0.320295 0.535424 0.651454
0.418808 0.549804 0.629082
0.518923 0.557125 0.614088
0.677101 0.525168 0.615306
0.788423 0.515000 0.598828
0.888340 0.512144 0.594753
0.982935 0.511353 0.593661
0.239575 0.610540 0.688338
0.297490 0.624367 0.681019
0.365513 0.633061 0.665703
0.465397 0.632263 0.647928
0.560914 0.631316 0.632184
0.643838 0.636392 0.609899
0.767456 0.631175 0.594505
0.878346 0.632341 0.595391
0.982365 0.637066 0.596121
0.311022 0.709505 0.678659
0.359891 0.720756 0.678986
0.422962 0.727820 0.676687
0.519896 0.727582 0.673698
0.613241 0.724623 0.674959
0.669939 0.737334 0.664313
0.767964 0.750457 0.646320
0.881241 0.750449 0.629066
0.984829 0.757084 0.614684
0.387248 0.819138 0.697067
0.430763 0.830540 0.706397
0.486360 0.837415 0.710972
0.566431 0.836649 0.708947
0.652453 0.832236 0.713850
0.707905 0.841873 0.705005
0.778133 0.860635 0.698524
0.881718 0.872614 0.688144
0.990686 0.871583 0.644160
0.480750 0.927756 0.754511
0.515867 0.937116 0.765014
0.561480 0.941471 0.771420
0.625569 0.938041 0.773408
0.694456 0.935239 0.770171
0.761189 0.940752 0.758388
0.829964 0.957627 0.740232
0.908514 0.972349 0.739572
0.997877 0.979247 0.709403
0.000000 0.093938 0.391663
0.000000 0.116199 0.498220
0.049310 0.128186 0.616572
0.211209 0.098498 0.721771
0.431990 0.027797 0.725235
0.631040 0.014490 0.719839
0.784477 0.030558 0.733543
0.891722 0.048637 0.728550
0.964834 0.054613 0.708790
0.000000 0.220892 0.576088
0.009759 0.242468 0.646054
0.073204 0.251806 0.720298
0.249650 0.218006 0.804825
0.488078 0.134825 0.801269
0.657108 0.097223 0.747185
0.780548 0.112294 0.731479
0.881326 0.129477 0.723004
0.961422 0.138309 0.712357
0.009266 0.329708 0.642749
0.050547 0.347472 0.664710
0.125114 0.356218 0.694550
0.265695 0.347736 0.755393
0.483001 0.291942 0.804943
0.664581 0.240773 0.760814
0.789977 0.245768 0.741700
0.892449 0.256692 0.735338
0.973079 0.262093 0.727915
0.081790 0.410984 0.686468
0.143170 0.435069 0.692552
0.224620 0.463671 0.701813
0.325574 0.484111 0.720140
0.479387 0.464202 0.777373
0.673118 0.411017 0.783041
0.804283 0.396871 0.756469
0.902233 0.395768 0.743748
0.980945 0.392003 0.733065
0.169563 0.507593 0.752991
0.236580 0.531922 0.754825
0.310455 0.558107 0.740876
0.394375 0.578692 0.716804
0.492084 0.582643 0.720882
0.647338 0.546468 0.762639
0.786724 0.521774 0.735019
0.889610 0.517125 0.723024
0.979430 0.515572 0.721103
0.214018 0.610986 0.792240
0.272657 0.625159 0.787724
0.346428 0.637769 0.768668
0.440402 0.646418 0.741434
0.540676 0.651017 0.720842
0.630557 0.657985 0.706047
0.774656 0.639993 0.712392
0.884634 0.640868 0.712568
0.984114 0.644302 0.721078
0.264626 0.704218 0.793849
0.324507 0.718583 0.791125
0.396764 0.731289 0.782948
0.495710 0.739294 0.770623
0.598967 0.744742 0.760312
0.687706 0.752653 0.744334
0.769223 0.765094 0.731438
0.883620 0.765444 0.723221
0.986716 0.767562 0.728603
0.372471 0.819741 0.804500
0.424145 0.835050 0.810593
0.483527 0.846282 0.811971
0.565911 0.851197 0.806420
0.658455 0.852551 0.796557
0.730828 0.853861 0.785271
0.788684 0.867804 0.778188
0.879350 0.883556 0.769294
0.987937 0.877244 0.760644
0.494565 0.933842 0.858103
0.529062 0.945044 0.866570
0.570680 0.952040 0.869176
0.635264 0.952194 0.865924
0.721824 0.947696 0.866511
0.798752 0.944096 0.857760
0.853934 0.954462 0.852818
0.912737 0.971311 0.847076
0.994763 0.983802 0.831769
0.000000 0.122907 0.503221
0.000000 0.146086 0.613712
0.035683 0.157358 0.718033
0.163015 0.132834 0.819409
0.397564 0.078195 0.888769
0.619212 0.026319 0.873954
0.777585 0.033908 0.869958
0.884508 0.056580 0.857057
0.962428 0.062443 0.837333
0.000000 0.254654 0.689571
0.001380 0.273737 0.753813
0.054295 0.280843 0.818617
0.193410 0.254841 0.886810
0.426260 0.193086 0.944448
0.634595 0.120228 0.896483
0.771969 0.115217 0.865307
0.877359 0.137908 0.851583
0.963172 0.147658 0.841284
0.001873 0.360717 0.739782
0.034106 0.374845 0.760733
0.094246 0.384802 0.795557
0.224919 0.376964 0.849211
0.423556 0.343084 0.920397
0.636944 0.276727 0.911659
0.780875 0.253426 0.879075
0.888712 0.263331 0.864568
0.974532 0.268987 0.854682
0.059969 0.445196 0.764092
0.106819 0.471391 0.780294
0.185927 0.494737 0.798992
0.293897 0.510326 0.828514
0.435296 0.503006 0.883174
0.633686 0.450110 0.925021
0.790162 0.407399 0.900697
0.894431 0.399076 0.878178
0.976341 0.394542 0.861640
0.143313 0.537931 0.830068
0.207509 0.560945 0.832039
0.279067 0.584959 0.826260
0.360525 0.606253 0.813957
0.456802 0.614034 0.829348
0.600803 0.587645 0.884520
0.767003 0.539522 0.887900
0.883187 0.522740 0.866908
0.973987 0.521139 0.858548
0.204609 0.620944 0.872356
0.261607 0.634745 0.869529
0.334175 0.649912 0.856246
0.420073 0.668494 0.831709
0.513704 0.689175 0.820136
0.610115 0.698106 0.836216
0.749450 0.669522 0.879677
0.882831 0.650419 0.861726
0.981935 0.652143 0.857442
0.220850 0.700530 0.889313
0.280069 0.715370 0.888990
0.364599 0.732225 0.883032
0.470323 0.749108 0.869739
0.575821 0.766400 0.858366
0.672063 0.781019 0.848410
0.756247 0.795560 0.844981
0.890761 0.777285 0.864283
0.989837 0.779236 0.861023
0.289751 0.807997 0.903948
0.356353 0.827046 0.909021
0.434523 0.843712 0.910695
0.534000 0.855904 0.906189
0.635506 0.865208 0.899245
0.726689 0.875295 0.889964
0.813398 0.884791 0.881286
0.886358 0.894979 0.877225
0.989085 0.895148 0.866561
0.439817 0.927816 0.947987
0.486789 0.942081 0.955511
0.538267 0.952495 0.957881
0.614799 0.957987 0.953700
0.709711 0.960042 0.947920
0.802928 0.962967 0.937168
0.879503 0.965543 0.930826
0.929304 0.978839 0.923635
0.993993 0.992436 0.920005
0.000000 0.154133 0.616541
0.000000 0.176847 0.717914
0.015377 0.187552 0.815360
0.118013 0.174612 0.924158
0.330852 0.118490 0.997958
0.568581 0.037457 0.998835
0.752556 0.031937 0.993891
0.872350 0.054688 0.978522
0.953042 0.073649 0.956152
0.000000 0.287638 0.795699
0.000000 0.304531 0.855569
0.033317 0.308874 0.907859
0.142451 0.288579 0.973269
0.349828 0.232636 0.999386
0.577553 0.151685 0.999437
0.745041 0.115607 0.987551
0.866756 0.134574 0.972902
0.959090 0.159130 0.961563
0.000000 0.389642 0.834342
0.014687 0.401268 0.854596
0.071719 0.410029 0.884890
0.184369 0.403910 0.935841
0.360633 0.378613 0.992028
0.581212 0.319080 0.999832
0.754277 0.264559 0.995445
0.876831 0.260075 0.983092
0.970348 0.274934 0.972697
0.033810 0.476151 0.844140
0.078010 0.501239 0.863712
0.143390 0.522457 0.887508
0.254281 0.530661 0.918883
0.390404 0.525134 0.969864
0.573728 0.488622 0.998173
0.756264 0.428086 0.999916
0.880713 0.398175 0.996716
0.969821 0.394964 0.984076
0.109444 0.569987 0.895305
0.161880 0.591846 0.898868
0.232312 0.610340 0.898889
0.320698 0.625069 0.903451
0.426281 0.632569 0.928815
0.560033 0.621583 0.979545
0.727319 0.575153 0.999503
0.870084 0.531518 0.999248
0.970586 0.524414 0.992220
0.178538 0.640246 0.931990
0.235414 0.653266 0.927977
0.303976 0.670854 0.920842
0.392424 0.694401 0.910339
0.492490 0.722413 0.914703
0.597431 0.737691 0.948835
0.718380 0.719567 0.991825
0.865852 0.673905 0.999688
0.978981 0.658943 0.995378
0.214385 0.707417 0.958467
0.271190 0.723555 0.960734
0.351724 0.743633 0.959295
0.456959 0.767637 0.950449
0.564417 0.797609 0.943365
0.658735 0.826444 0.945867
0.745221 0.837625 0.965368
0.859862 0.816050 0.999312
0.986149 0.787745 0.996079
0.223855 0.799899 0.987722
0.283357 0.818460 0.991951
0.367259 0.838435 0.993793
0.480896 0.857785 0.991744
0.600689 0.875484 0.987087
0.712033 0.892405 0.981405
0.808643 0.907121 0.975570
0.882851 0.920924 0.971302
0.990635 0.905153 0.994327
0.313454 0.911562 1.000000
0.382133 0.930555 1.000000
0.460274 0.946723 1.000000
0.557358 0.957507 1.000000
0.666389 0.964841 1.000000
0.773146 0.971437 1.000000
0.861698 0.980380 1.000000
0.935214 0.990954 1.000000
1.000000 1.000000 1.000000
