bundles/resolve-cinematic-luts/Gamut/Prestige/Filmic Glam.cube
TITLE "Prestige - Filmic Glam"
# Contributor - Runaway Vows. Version 1.0 - 05/22/2023 - Designed for Rec.709 Color Space. Copyright 2023 Gamut, LLC
LUT_3D_SIZE 5
0.007886 0.013406 0.003154
0.134121 0.021292 0.015574
0.402010 0.026812 0.026812
0.714065 0.050173 0.034894
0.931502 0.110432 0.089165
0.044005 0.197880 0.051677
0.230264 0.224163 0.017940
0.554126 0.191308 0.008477
0.762840 0.216072 0.044171
0.947861 0.255203 0.100990
0.090627 0.456761 0.135621
0.219685 0.498927 0.121427
0.555450 0.505359 0.075862
0.813817 0.490726 0.069324
0.985302 0.499455 0.085619
0.185376 0.679119 0.249828
0.291036 0.698791 0.234564
0.526512 0.720432 0.160123
0.786950 0.731589 0.161897
0.998576 0.743245 0.145723
0.333078 0.875856 0.387035
0.441828 0.907890 0.394915
0.624536 0.945769 0.344795
0.827346 0.964911 0.340697
1.000000 0.972843 0.312046
0.000000 0.027403 0.066706
0.157075 0.019714 0.135028
0.468034 0.029177 0.138827
0.756579 0.080282 0.181046
0.965248 0.139384 0.227922
0.064370 0.211921 0.253117
0.241626 0.238353 0.242293
0.546940 0.214782 0.198518
0.775008 0.242377 0.218573
0.955318 0.272737 0.245321
0.143820 0.473497 0.289800
0.279676 0.500713 0.315959
0.542620 0.513421 0.268775
0.797286 0.501344 0.247915
0.976521 0.505528 0.242050
0.216884 0.688055 0.360119
0.330463 0.701061 0.379072
0.527047 0.721811 0.322921
0.781589 0.738066 0.320613
0.996652 0.750592 0.293470
0.364638 0.890011 0.498322
0.472581 0.912864 0.525769
0.630904 0.941431 0.480312
0.825839 0.968286 0.451936
0.999866 0.976784 0.421721
0.000000 0.051008 0.202363
0.091181 0.064084 0.399774
0.468832 0.013011 0.421813
0.777941 0.027403 0.441698
0.977061 0.074552 0.440488
0.031149 0.264923 0.464740
0.172364 0.296559 0.483095
0.544539 0.215050 0.496410
0.793692 0.228504 0.463591
0.972801 0.259112 0.475189
0.178850 0.483436 0.560978
0.326520 0.524723 0.548095
0.534922 0.537133 0.523944
0.786218 0.509907 0.476554
0.977711 0.510319 0.467023
0.303738 0.706964 0.571256
0.417549 0.716302 0.585550
0.583049 0.717586 0.593360
0.770365 0.742788 0.554053
0.988707 0.754304 0.502383
0.464028 0.913485 0.670165
0.534835 0.927778 0.686239
0.657599 0.932533 0.667599
0.822872 0.963897 0.626991
0.999544 0.978167 0.590472
0.000000 0.093938 0.391663
0.049310 0.128186 0.616572
0.431990 0.027797 0.725235
0.784477 0.030558 0.733543
0.964834 0.054613 0.708790
0.009266 0.329708 0.642749
0.125114 0.356218 0.694550
0.483001 0.291942 0.804943
0.789977 0.245768 0.741700
0.973079 0.262093 0.727915
0.169563 0.507593 0.752991
0.310455 0.558107 0.740876
0.492084 0.582643 0.720882
0.786724 0.521774 0.735019
0.979430 0.515572 0.721103
0.264626 0.704218 0.793849
0.396764 0.731289 0.782948
0.598967 0.744742 0.760312
0.769223 0.765094 0.731438
0.986716 0.767562 0.728603
0.494565 0.933842 0.858103
0.570680 0.952040 0.869176
0.721824 0.947696 0.866511
0.853934 0.954462 0.852818
0.994763 0.983802 0.831769
0.000000 0.154133 0.616541
0.015377 0.187552 0.815360
0.330852 0.118490 0.997958
0.752556 0.031937 0.993891
0.953042 0.073649 0.956152
0.000000 0.389642 0.834342
0.071719 0.410029 0.884890
0.360633 0.378613 0.992028
0.754277 0.264559 0.995445
0.970348 0.274934 0.972697
0.109444 0.569987 0.895305
0.232312 0.610340 0.898889
0.426281 0.632569 0.928815
0.727319 0.575153 0.999503
0.970586 0.524414 0.992220
0.214385 0.707417 0.958467
0.351724 0.743633 0.959295
0.564417 0.797609 0.943365
0.745221 0.837625 0.965368
0.986149 0.787745 0.996079
0.313454 0.911562 1.000000
0.460274 0.946723 1.000000
0.666389 0.964841 1.000000
0.861698 0.980380 1.000000
1.000000 1.000000 1.000000
