bundles/resolve-cinematic-luts/Gamut/Prestige/Timeless Elegance.cube
TITLE "Prestige - Timeless Elegance"
# Contributor - Runaway Vows. Version 1.0 - 05/22/2023 - Designed for Rec.709 Color Space. Copyright 2023 Gamut, LLC
LUT_3D_SIZE 5
0.007886 0.010251 0.008674
0.208794 0.028980 0.032135
0.612611 0.042478 0.041376
0.899079 0.133345 0.084124
1.000000 0.236218 0.200901
0.001380 0.201057 0.006111
0.216928 0.206324 0.003548
0.683037 0.248032 0.030557
0.953096 0.353579 0.106371
1.000000 0.451427 0.215020
0.000000 0.530571 0.022080
0.098095 0.535087 0.000789
0.661924 0.527353 0.019320
0.965322 0.606479 0.096083
1.000000 0.675577 0.177255
0.080342 0.835105 0.110101
0.161798 0.821898 0.060216
0.546577 0.744425 0.004140
0.956899 0.800158 0.062503
1.000000 0.848631 0.049013
0.071060 1.000000 0.152574
0.200191 1.000000 0.098007
0.519162 0.987758 0.002365
0.934321 0.951603 0.000000
1.000000 0.967705 0.001577
0.000000 0.037457 0.239015
0.191459 0.022277 0.257630
0.600315 0.039987 0.246886
0.889459 0.125255 0.316735
1.000000 0.226944 0.447984
0.000000 0.209233 0.227204
0.181132 0.229992 0.248116
0.645897 0.262624 0.275338
0.945144 0.346380 0.355977
1.000000 0.425945 0.449578
0.009660 0.535114 0.227533
0.200882 0.563350 0.262080
0.607610 0.544649 0.239189
0.940585 0.618100 0.324454
1.000000 0.684749 0.395152
0.117538 0.834075 0.323911
0.261508 0.842024 0.320676
0.485130 0.761826 0.171044
0.926073 0.804312 0.287817
1.000000 0.848609 0.298063
0.059528 1.000000 0.403247
0.247645 1.000000 0.356795
0.488530 0.995256 0.195249
0.868825 0.946110 0.157393
1.000000 0.966892 0.144747
0.000000 0.077874 0.570577
0.173878 0.073121 0.606996
0.561330 0.036669 0.560466
0.859522 0.093307 0.594646
1.000000 0.180673 0.691094
0.013406 0.258713 0.548817
0.202857 0.293469 0.594036
0.596822 0.268061 0.594415
0.905707 0.343145 0.649509
1.000000 0.423911 0.729973
0.011828 0.551515 0.537439
0.208235 0.582468 0.571677
0.556558 0.566385 0.555732
0.895541 0.616597 0.613246
1.000000 0.687860 0.688717
0.050987 0.838568 0.589621
0.250889 0.848550 0.607338
0.545412 0.804401 0.548398
0.867365 0.799544 0.554612
1.000000 0.846653 0.580168
0.000394 1.000000 0.689538
0.180662 1.000000 0.670388
0.531902 0.999114 0.559587
0.777714 0.946058 0.405822
0.999946 0.962854 0.462884
0.040201 0.140867 0.847409
0.214467 0.138724 0.878036
0.579931 0.088930 0.854114
0.847700 0.087277 0.835878
0.999866 0.148198 0.900972
0.041750 0.332033 0.816649
0.231620 0.358536 0.859751
0.601722 0.326377 0.877552
0.889057 0.330016 0.877844
1.000000 0.402821 0.935487
0.061493 0.601101 0.811598
0.246234 0.628439 0.834790
0.562261 0.612062 0.829036
0.847807 0.600589 0.839725
1.000000 0.664320 0.901723
0.053972 0.849108 0.838521
0.245266 0.861956 0.854129
0.557020 0.831103 0.823307
0.812205 0.806392 0.799943
1.000000 0.836111 0.849481
0.000592 1.000000 0.935787
0.082078 1.000000 0.929469
0.479092 1.000000 0.851048
0.751112 0.976119 0.752224
0.998811 0.955461 0.749171
0.063953 0.188808 1.000000
0.236516 0.184904 1.000000
0.590628 0.144649 1.000000
0.879981 0.126943 0.999866
1.000000 0.158717 1.000000
0.062227 0.397677 0.999403
0.253611 0.415553 1.000000
0.602269 0.386591 1.000000
0.906020 0.371433 1.000000
1.000000 0.408921 1.000000
0.081476 0.650641 0.987774
0.262628 0.673314 0.999866
0.573722 0.658598 0.998630
0.850795 0.637153 0.999987
1.000000 0.654784 1.000000
0.075130 0.877612 0.999605
0.273471 0.885448 1.000000
0.577527 0.859223 0.994047
0.808241 0.841578 0.990265
0.989060 0.822565 0.998039
0.000789 1.000000 1.000000
0.121190 1.000000 1.000000
0.487990 0.999785 1.000000
0.757826 0.976659 0.985609
0.955098 0.954242 0.969496
