bundles/resolve-cinematic-luts/Gamut/Prestige/Timeless Elegance.cube
TITLE "Prestige - Timeless Elegance"
# Contributor - Runaway Vows. Version 1.0 - 05/22/2023 - Designed for Rec.709 Color Space. Copyright 2023 Gamut, LLC
LUT_3D_SIZE 9
0.007886 0.010251 0.008674
0.102156 0.017940 0.018729
0.208794 0.028980 0.032135
0.403799 0.027600 0.036274
0.612611 0.042478 0.041376
0.766974 0.083538 0.056728
0.899079 0.133345 0.084124
0.988522 0.192559 0.137916
1.000000 0.236218 0.200901
0.013209 0.094566 0.017250
0.092648 0.094151 0.008083
0.232906 0.094729 0.022080
0.443623 0.092410 0.024249
0.653924 0.122994 0.038246
0.803643 0.170914 0.062207
0.932907 0.227922 0.099631
0.995705 0.287826 0.158189
1.000000 0.330361 0.214113
0.001380 0.201057 0.006111
0.052571 0.211775 0.000099
0.216928 0.206324 0.003548
0.478631 0.212016 0.013406
0.683037 0.248032 0.030557
0.831425 0.296264 0.060733
0.953096 0.353579 0.106371
0.998355 0.410521 0.165597
1.000000 0.451427 0.215020
0.000000 0.354253 0.000493
0.023756 0.374885 0.000000
0.124209 0.373198 0.000000
0.454608 0.364272 0.000789
0.686509 0.388927 0.015969
0.842742 0.427914 0.051898
0.960036 0.482449 0.101633
0.998909 0.535995 0.155760
1.000000 0.574387 0.200141
0.000000 0.530571 0.022080
0.026910 0.542843 0.015574
0.098095 0.535087 0.000789
0.362902 0.509093 0.001282
0.661924 0.527353 0.019320
0.848028 0.561630 0.049378
0.965322 0.606479 0.096083
0.999232 0.647031 0.142806
1.000000 0.675577 0.177255
0.020207 0.673720 0.051643
0.064231 0.685424 0.046401
0.116934 0.673559 0.013701
0.294643 0.644208 0.000789
0.605258 0.638269 0.014391
0.833044 0.668846 0.049566
0.965069 0.707734 0.081824
0.999437 0.738646 0.113686
1.000000 0.758903 0.130725
0.080342 0.835105 0.110101
0.120515 0.843283 0.103444
0.161798 0.821898 0.060216
0.282543 0.780255 0.008083
0.546577 0.744425 0.004140
0.800202 0.758850 0.038829
0.956899 0.800158 0.062503
0.999195 0.831525 0.055435
1.000000 0.848631 0.049013
0.123157 0.976311 0.167521
0.162456 0.977543 0.153840
0.210480 0.962750 0.111904
0.309313 0.927338 0.038304
0.516679 0.878886 0.001971
0.761482 0.861270 0.010744
0.945015 0.889272 0.022080
0.998805 0.911236 0.008181
1.000000 0.918975 0.000000
0.071060 1.000000 0.152574
0.123741 1.000000 0.131572
0.200191 1.000000 0.098007
0.322794 0.999862 0.042228
0.519162 0.987758 0.002365
0.746433 0.954694 0.000000
0.934321 0.951603 0.000000
0.998130 0.961666 0.000000
1.000000 0.967705 0.001577
0.001676 0.023361 0.106188
0.093488 0.018827 0.116493
0.207480 0.022179 0.120468
0.397898 0.017250 0.111259
0.604167 0.039411 0.112478
0.761675 0.081917 0.133271
0.895881 0.129939 0.174532
0.987670 0.187591 0.241835
1.000000 0.230634 0.309554
0.007196 0.096965 0.111650
0.085080 0.096854 0.109496
0.207536 0.100538 0.118512
0.427470 0.091534 0.110925
0.646462 0.115809 0.118593
0.800972 0.162412 0.151863
0.932495 0.216684 0.199799
0.995779 0.273405 0.265473
1.000000 0.313732 0.322106
0.000099 0.205069 0.095690
0.073428 0.213703 0.105163
0.180400 0.220954 0.095889
0.450657 0.223241 0.102829
0.668285 0.252767 0.117993
0.824425 0.295381 0.153102
0.950453 0.348396 0.202249
0.998049 0.401635 0.261184
1.000000 0.440116 0.309767
0.000000 0.357653 0.087421
0.062145 0.382507 0.109976
0.148050 0.390300 0.098266
0.423793 0.377501 0.095496
0.666367 0.397121 0.115265
0.828428 0.435229 0.147738
0.954070 0.489268 0.197236
0.998405 0.540131 0.250888
1.000000 0.575138 0.294287
0.008477 0.531582 0.111477
0.074960 0.553908 0.127633
0.146413 0.554714 0.109116
0.338289 0.527394 0.074867
0.637723 0.536185 0.114366
0.831520 0.569043 0.151700
0.956722 0.612648 0.195412
0.998614 0.652701 0.239591
1.000000 0.679795 0.271537
0.051770 0.678368 0.147234
0.108462 0.695518 0.156956
0.165629 0.690584 0.130916
0.289068 0.658106 0.073499
0.570176 0.644335 0.087234
0.812757 0.673864 0.147322
0.955615 0.712671 0.189895
0.998822 0.742559 0.219805
1.000000 0.761290 0.233128
0.108793 0.835807 0.205503
0.158104 0.848457 0.208086
0.207056 0.836352 0.174379
0.289645 0.791462 0.101327
0.507470 0.750456 0.068038
0.768863 0.759537 0.118530
0.944032 0.803779 0.165822
0.998473 0.835680 0.172077
1.000000 0.849377 0.161489
0.142566 0.974575 0.266797
0.189251 0.978241 0.258123
0.246945 0.969468 0.219584
0.324181 0.935157 0.145874
0.486839 0.886465 0.077997
0.722136 0.862153 0.079621
0.924956 0.887696 0.117369
0.997339 0.910642 0.112029
1.000000 0.916898 0.072939
0.082358 1.000000 0.266082
0.139384 1.000000 0.248285
0.223637 1.000000 0.207980
0.333415 0.999966 0.148434
0.495997 0.992435 0.080317
0.706205 0.959764 0.047790
0.906463 0.949103 0.061115
0.994624 0.959387 0.048364
1.000000 0.967852 0.021193
0.000000 0.037457 0.239015
0.076068 0.031938 0.254528
0.191459 0.022277 0.257630
0.387616 0.015574 0.240381
0.600315 0.039987 0.246886
0.755729 0.080329 0.273412
0.889459 0.125255 0.316735
0.985005 0.181877 0.383331
1.000000 0.226944 0.447984
0.000197 0.111838 0.239360
0.074241 0.111643 0.245679
0.190293 0.105221 0.262577
0.405785 0.103851 0.254585
0.631483 0.129504 0.273601
0.791677 0.167820 0.308210
0.927401 0.216209 0.354880
0.994979 0.270652 0.417656
1.000000 0.310747 0.470313
0.000000 0.209233 0.227204
0.066159 0.221770 0.240330
0.181132 0.229992 0.248116
0.416377 0.236107 0.255429
0.645897 0.262624 0.275338
0.810777 0.299758 0.310167
0.945144 0.346380 0.355977
0.997665 0.393011 0.408342
1.000000 0.425945 0.449578
0.000000 0.365206 0.208623
0.053802 0.389476 0.234382
0.181552 0.400128 0.249400
0.389269 0.391099 0.229218
0.636219 0.406913 0.254090
0.806110 0.442811 0.286525
0.943119 0.494891 0.336491
0.997127 0.541898 0.386552
1.000000 0.570763 0.421507
0.009660 0.535114 0.227533
0.090764 0.557312 0.255039
0.200882 0.563350 0.262080
0.347602 0.546385 0.219722
0.607610 0.544649 0.239189
0.805635 0.573066 0.280227
0.940585 0.618100 0.324454
0.996490 0.660506 0.368595
1.000000 0.684749 0.395152
0.061222 0.680609 0.266043
0.133022 0.697774 0.287820
0.224832 0.699337 0.283227
0.326876 0.675545 0.221434
0.541454 0.654751 0.196801
0.786191 0.676069 0.267913
0.940752 0.714438 0.320264
0.997214 0.746426 0.351532
1.000000 0.764825 0.361632
0.117538 0.834075 0.323911
0.180821 0.846453 0.337646
0.261508 0.842024 0.320676
0.336084 0.807030 0.245095
0.485130 0.761826 0.171044
0.732067 0.759927 0.216180
0.926073 0.804312 0.287817
0.996723 0.837558 0.307132
1.000000 0.848609 0.298063
0.140406 0.971559 0.390176
0.201411 0.975702 0.392010
0.287021 0.970729 0.362880
0.365875 0.943909 0.283197
0.474371 0.894489 0.183940
0.678800 0.863038 0.163828
0.896152 0.883337 0.221522
0.993661 0.908418 0.240433
1.000000 0.913916 0.211871
0.059528 1.000000 0.403247
0.137141 1.000000 0.395168
0.247645 1.000000 0.356795
0.361841 1.000000 0.284024
0.488530 0.995256 0.195249
0.665776 0.964954 0.139600
0.868825 0.946110 0.157393
0.987004 0.955625 0.170689
1.000000 0.966892 0.144747
0.000000 0.054606 0.411187
0.063344 0.050587 0.428466
0.171229 0.043159 0.441218
0.369878 0.018630 0.408468
0.577539 0.040578 0.402400
0.744212 0.070718 0.425102
0.879709 0.111878 0.463996
0.980089 0.168422 0.525418
1.000000 0.214131 0.583120
0.000000 0.129910 0.403226
0.066763 0.132387 0.420187
0.178592 0.129310 0.441964
0.389328 0.106903 0.424294
0.602601 0.132652 0.429337
0.772087 0.169238 0.462346
0.915009 0.214649 0.508763
0.992781 0.268692 0.568438
1.000000 0.307415 0.614402
0.000000 0.228977 0.392280
0.075949 0.249353 0.411341
0.188247 0.260380 0.424578
0.393701 0.244704 0.429917
0.613553 0.268477 0.440514
0.786829 0.305196 0.476159
0.931386 0.351201 0.524038
0.996042 0.398860 0.576415
1.000000 0.430071 0.612817
0.000000 0.374141 0.375878
0.061001 0.397806 0.400713
0.186418 0.412672 0.415969
0.372810 0.404273 0.409372
0.603627 0.414750 0.421639
0.780036 0.447226 0.453427
0.928237 0.495767 0.502129
0.995091 0.544061 0.553418
1.000000 0.571330 0.584832
0.001972 0.543099 0.375374
0.072021 0.562758 0.400035
0.199215 0.572011 0.414896
0.369570 0.562641 0.402566
0.581001 0.554186 0.394267
0.769880 0.577275 0.427424
0.917392 0.621239 0.467949
0.991791 0.666358 0.516721
1.000000 0.689782 0.544938
0.039601 0.683192 0.402399
0.118584 0.700981 0.426610
0.238231 0.704106 0.436079
0.379579 0.690195 0.411709
0.533963 0.669472 0.361202
0.751421 0.677914 0.407684
0.915688 0.712857 0.456086
0.991991 0.749725 0.488808
1.000000 0.772075 0.503046
0.096135 0.835114 0.456158
0.168160 0.846429 0.473333
0.281772 0.841807 0.472923
0.401498 0.820299 0.435546
0.504472 0.781046 0.347444
0.697267 0.765703 0.346251
0.900533 0.801812 0.422968
0.992507 0.836305 0.449955
1.000000 0.847469 0.443500
0.102657 0.970711 0.524960
0.175529 0.973811 0.531894
0.297258 0.968199 0.518510
0.419614 0.950201 0.467080
0.503024 0.907729 0.359174
0.646331 0.869260 0.288656
0.858796 0.877974 0.342041
0.985980 0.903760 0.382661
1.000000 0.909956 0.365508
0.011730 1.000000 0.551780
0.092756 1.000000 0.549701
0.240238 1.000000 0.523948
0.391662 1.000000 0.462740
0.506637 0.997309 0.365965
0.636031 0.969361 0.271491
0.821138 0.943303 0.265373
0.971151 0.949896 0.303425
1.000000 0.965611 0.300489
0.000000 0.077874 0.570577
0.066948 0.076830 0.590534
0.173878 0.073121 0.606996
0.370445 0.046790 0.589869
0.561330 0.036669 0.560466
0.719051 0.060006 0.564939
0.859522 0.093307 0.594646
0.972244 0.141923 0.646412
1.000000 0.180673 0.691094
0.000394 0.150860 0.560695
0.078983 0.159086 0.585864
0.189176 0.160404 0.609954
0.390402 0.136502 0.606673
0.589188 0.130342 0.586138
0.746146 0.159886 0.597271
0.892669 0.203054 0.634191
0.987915 0.252842 0.686034
1.000000 0.285663 0.722123
0.013406 0.258713 0.548817
0.094205 0.282364 0.572975
0.202857 0.293469 0.594036
0.390235 0.276330 0.603932
0.596822 0.268061 0.594415
0.756465 0.296519 0.608949
0.905707 0.343145 0.649509
0.991489 0.393858 0.699113
1.000000 0.423911 0.729973
0.023460 0.402517 0.548847
0.100756 0.425611 0.570423
0.213629 0.439240 0.581012
0.379593 0.432197 0.578324
0.579578 0.418798 0.578812
0.747922 0.443960 0.598491
0.903871 0.490199 0.642034
0.989924 0.543026 0.692165
1.000000 0.573600 0.722419
0.011828 0.551515 0.537439
0.089438 0.571030 0.558740
0.208235 0.582468 0.571677
0.376039 0.576403 0.565922
0.556558 0.566385 0.555732
0.736831 0.579382 0.576843
0.895541 0.616597 0.613246
0.985836 0.661681 0.659432
1.000000 0.687860 0.688717
0.020207 0.688375 0.547526
0.099087 0.705803 0.568661
0.219345 0.712235 0.578296
0.386667 0.701513 0.569728
0.547952 0.686177 0.549099
0.719624 0.680244 0.554580
0.883778 0.709970 0.586282
0.981115 0.749084 0.618554
1.000000 0.775514 0.637250
0.050987 0.838568 0.589621
0.126658 0.851848 0.606423
0.250889 0.848550 0.607338
0.412558 0.830331 0.590659
0.545412 0.804401 0.548398
0.675095 0.779938 0.504142
0.867365 0.799544 0.554612
0.981255 0.832405 0.583981
1.000000 0.846653 0.580168
0.033515 0.972144 0.655476
0.105212 0.975948 0.662662
0.252195 0.969713 0.653060
0.426212 0.954360 0.624551
0.552218 0.926710 0.565422
0.646218 0.887482 0.475104
0.821891 0.879381 0.478553
0.971028 0.898116 0.526446
1.000000 0.905889 0.521910
0.000394 1.000000 0.689538
0.025727 1.000000 0.689892
0.180662 1.000000 0.670388
0.381837 1.000000 0.626026
0.531902 0.999114 0.559587
0.634315 0.978431 0.462926
0.777714 0.946058 0.405822
0.944867 0.943835 0.443009
0.999946 0.962854 0.462884
0.016462 0.109380 0.722207
0.094558 0.108427 0.734741
0.193749 0.105564 0.748105
0.374078 0.080874 0.738669
0.569814 0.055481 0.711243
0.713135 0.057963 0.696140
0.843302 0.083272 0.707745
0.962358 0.123068 0.746301
0.999946 0.152407 0.784054
0.022080 0.183903 0.711048
0.100629 0.190535 0.727774
0.207216 0.193614 0.747864
0.393510 0.173605 0.750438
0.597365 0.152664 0.733641
0.741836 0.159259 0.724904
0.877549 0.192470 0.742543
0.982197 0.238346 0.783818
1.000000 0.268463 0.818428
0.031543 0.296471 0.692380
0.108180 0.314647 0.710169
0.216746 0.325351 0.731297
0.393353 0.310929 0.741639
0.598465 0.290181 0.737831
0.748937 0.293930 0.732670
0.885954 0.328071 0.751268
0.984841 0.377503 0.792357
1.000000 0.409493 0.825455
0.046704 0.434785 0.686549
0.119522 0.456510 0.702907
0.227189 0.469139 0.713604
0.387186 0.460866 0.716045
0.575850 0.442014 0.718974
0.731957 0.440065 0.717965
0.874360 0.473573 0.740115
0.978478 0.525890 0.785438
1.000000 0.559805 0.821023
0.041748 0.572806 0.680226
0.117294 0.591811 0.698350
0.231477 0.602248 0.708091
0.390287 0.597150 0.702233
0.558598 0.589319 0.695800
0.710252 0.579401 0.697117
0.862966 0.608563 0.724085
0.971185 0.651995 0.771393
1.000000 0.680779 0.809439
0.035584 0.696313 0.681397
0.112532 0.713459 0.699843
0.228173 0.720598 0.708245
0.389238 0.711773 0.700121
0.555372 0.697106 0.686653
0.690646 0.687469 0.675929
0.856866 0.705160 0.699719
0.966125 0.742003 0.741493
1.000000 0.767545 0.772677
0.032332 0.842198 0.711372
0.108241 0.856368 0.726749
0.227451 0.856401 0.727852
0.391898 0.840072 0.712448
0.555496 0.819900 0.692079
0.671938 0.801919 0.665300
0.842943 0.799755 0.673465
0.960832 0.827269 0.699944
1.000000 0.843176 0.706468
0.005717 0.973470 0.774808
0.058751 0.977938 0.782495
0.198474 0.974159 0.774499
0.385977 0.959931 0.748283
0.556362 0.939004 0.714839
0.665767 0.912381 0.664754
0.795733 0.890168 0.621614
0.947726 0.893884 0.651923
1.000000 0.900968 0.658081
0.000493 1.000000 0.815952
0.004436 1.000000 0.819324
0.111140 1.000000 0.802900
0.325253 1.000000 0.760107
0.515725 0.999936 0.709785
0.640567 0.991575 0.649390
0.751397 0.959014 0.575057
0.911529 0.944046 0.576761
0.999675 0.958983 0.612182
0.040201 0.140867 0.847409
0.117052 0.140227 0.861235
0.214467 0.138724 0.878036
0.383543 0.117005 0.875711
0.579931 0.088930 0.854114
0.725977 0.076527 0.836675
0.847700 0.087277 0.835878
0.960151 0.119160 0.863855
0.999866 0.148198 0.900972
0.040979 0.217141 0.837354
0.120854 0.224531 0.856188
0.228127 0.229326 0.879462
0.404121 0.213518 0.887466
0.606117 0.190688 0.878754
0.755648 0.181841 0.867570
0.883106 0.197620 0.871752
0.981540 0.235053 0.902131
1.000000 0.266678 0.934679
0.041750 0.332033 0.816649
0.121426 0.348497 0.836086
0.231620 0.358536 0.859751
0.402339 0.346978 0.873485
0.601722 0.326377 0.877552
0.758944 0.315490 0.872837
0.889057 0.330016 0.877844
0.983100 0.369151 0.906271
1.000000 0.402821 0.935487
0.056891 0.468397 0.809839
0.129104 0.488205 0.825504
0.236211 0.499205 0.838340
0.393814 0.491234 0.845287
0.577495 0.473517 0.854218
0.737167 0.459403 0.855570
0.871060 0.469484 0.860823
0.971816 0.508020 0.889265
1.000000 0.543610 0.918896
0.061493 0.601101 0.811598
0.135551 0.619227 0.828010
0.246234 0.628439 0.834790
0.398281 0.623333 0.829200
0.562261 0.612062 0.829036
0.711123 0.597916 0.835029
0.847807 0.600589 0.839725
0.954304 0.633176 0.868849
1.000000 0.664320 0.901723
0.058804 0.716542 0.816839
0.136094 0.732766 0.834222
0.251096 0.738051 0.840135
0.406763 0.729311 0.830785
0.564386 0.718390 0.819170
0.690980 0.707047 0.815129
0.827623 0.700438 0.818649
0.940312 0.730607 0.853083
1.000000 0.756934 0.888419
0.053972 0.849108 0.838521
0.130606 0.862058 0.853045
0.245266 0.861956 0.854129
0.400056 0.847459 0.840127
0.557020 0.831103 0.823307
0.681912 0.816754 0.809242
0.812205 0.806392 0.799943
0.934036 0.826094 0.829474
1.000000 0.836111 0.849481
0.014194 0.972107 0.896189
0.073847 0.975835 0.903374
0.202769 0.973325 0.898058
0.373618 0.961570 0.876277
0.540726 0.943577 0.848277
0.674453 0.924329 0.823330
0.791395 0.903587 0.787736
0.921834 0.891852 0.787482
1.000000 0.895025 0.793111
0.000592 1.000000 0.935787
0.000197 1.000000 0.939514
0.082078 1.000000 0.929469
0.285279 1.000000 0.895622
0.479092 1.000000 0.851048
0.632436 0.997245 0.808049
0.751112 0.976119 0.752224
0.878156 0.953335 0.705146
0.998811 0.955461 0.749171
0.064731 0.175526 0.974378
0.140308 0.174707 0.980883
0.235844 0.171877 0.988146
0.396488 0.152501 0.984474
0.590000 0.126068 0.971467
0.741328 0.109028 0.959607
0.866760 0.108978 0.956236
0.968321 0.129730 0.967584
0.999946 0.154746 0.986636
0.062515 0.253784 0.961724
0.142391 0.261259 0.972172
0.248732 0.265291 0.984878
0.416326 0.250626 0.986134
0.612360 0.229378 0.981665
0.768661 0.215400 0.976531
0.899180 0.220351 0.976952
0.986003 0.245855 0.986942
1.000000 0.271927 0.996308
0.056351 0.369746 0.939396
0.137900 0.384321 0.952001
0.248490 0.392637 0.967507
0.413409 0.381971 0.973934
0.604418 0.363485 0.976864
0.766052 0.348748 0.976788
0.901102 0.352317 0.978405
0.986226 0.378126 0.987557
1.000000 0.405073 0.995752
0.063948 0.501922 0.924299
0.138616 0.519415 0.935690
0.246385 0.528920 0.947051
0.403285 0.521777 0.952686
0.581690 0.506867 0.958559
0.740687 0.491781 0.962814
0.880326 0.490418 0.965517
0.974542 0.513289 0.975769
1.000000 0.540271 0.987448
0.074599 0.628774 0.922002
0.147943 0.645615 0.933789
0.256479 0.653695 0.939161
0.405792 0.648588 0.936331
0.568317 0.638073 0.937205
0.713235 0.625030 0.942648
0.851999 0.617495 0.945998
0.953440 0.632231 0.955489
1.000000 0.654999 0.970502
0.079578 0.739726 0.927995
0.156517 0.754438 0.939957
0.270484 0.758171 0.942528
0.420857 0.750170 0.933677
0.572024 0.740714 0.924866
0.697205 0.730829 0.924253
0.827534 0.718603 0.928309
0.932997 0.725647 0.937174
0.999936 0.744464 0.954352
0.073318 0.863424 0.943530
0.151017 0.874308 0.953096
0.267242 0.873213 0.952958
0.420067 0.859549 0.941444
0.571762 0.845322 0.928103
0.692553 0.835075 0.918506
0.809677 0.827478 0.914273
0.914221 0.821934 0.919752
0.995916 0.831903 0.930393
0.022770 0.971584 0.976622
0.096030 0.974610 0.980024
0.229118 0.972462 0.978155
0.394389 0.960146 0.965143
0.551949 0.942749 0.946232
0.676781 0.925625 0.927705
0.798940 0.907206 0.911052
0.895281 0.893884 0.898784
0.993823 0.891480 0.901710
0.000000 1.000000 0.995259
0.007590 1.000000 0.996140
0.112998 1.000000 0.993126
0.303553 1.000000 0.978530
0.478969 0.999973 0.950874
0.624262 0.996898 0.922712
0.756418 0.982377 0.897498
0.866339 0.968300 0.875044
0.983841 0.954994 0.875659
0.063953 0.188808 1.000000
0.139346 0.187316 1.000000
0.236516 0.184904 1.000000
0.396166 0.167220 1.000000
0.590628 0.144649 1.000000
0.748219 0.128775 0.999946
0.879981 0.126943 0.999866
0.977241 0.143718 0.999946
1.000000 0.158717 1.000000
0.064591 0.274834 1.000000
0.144339 0.281337 1.000000
0.251379 0.283957 1.000000
0.417534 0.270326 1.000000
0.611194 0.250584 1.000000
0.772374 0.235831 1.000000
0.908443 0.238633 1.000000
0.990125 0.259692 1.000000
1.000000 0.276381 1.000000
0.062227 0.397677 0.999403
0.143504 0.409812 0.999886
0.253611 0.415553 1.000000
0.416123 0.404431 1.000000
0.602269 0.386591 1.000000
0.764727 0.371070 1.000000
0.906020 0.371433 1.000000
0.989077 0.392203 1.000000
1.000000 0.408921 1.000000
0.067441 0.529012 0.990112
0.143744 0.544079 0.997450
0.251975 0.551980 0.999987
0.408801 0.544877 1.000000
0.583365 0.530964 1.000000
0.738088 0.516095 1.000000
0.882271 0.510717 1.000000
0.977728 0.526942 1.000000
1.000000 0.542568 1.000000
0.081476 0.650641 0.987774
0.154565 0.666160 0.996659
0.262628 0.673314 0.999866
0.412180 0.668160 0.998859
0.573722 0.658598 0.998630
0.713462 0.647060 0.999594
0.850795 0.637153 0.999987
0.956385 0.643811 1.000000
1.000000 0.654784 1.000000
0.092484 0.758201 0.995104
0.167269 0.771928 0.999517
0.280022 0.775068 0.999886
0.427964 0.767828 0.996191
0.577273 0.759198 0.990268
0.701321 0.750183 0.992111
0.824956 0.738760 0.998368
0.934286 0.735398 0.999946
0.999875 0.740002 1.000000
0.075130 0.877612 0.999605
0.153493 0.887101 1.000000
0.273471 0.885448 1.000000
0.427633 0.872133 0.999134
0.577527 0.859223 0.994047
0.694980 0.849937 0.989687
0.808241 0.841578 0.990265
0.911692 0.830035 0.998772
0.989060 0.822565 0.998039
0.012026 0.977479 1.000000
0.073855 0.980054 1.000000
0.216109 0.977738 1.000000
0.390631 0.965054 1.000000
0.553769 0.945786 0.999856
0.679604 0.927722 0.998553
0.794357 0.911548 0.990255
0.888080 0.899260 0.985808
0.970268 0.886783 0.984675
0.000789 1.000000 1.000000
0.008181 1.000000 1.000000
0.121190 1.000000 1.000000
0.310752 1.000000 1.000000
0.487990 0.999785 1.000000
0.632931 0.991707 0.997938
0.757826 0.976659 0.985609
0.869107 0.966205 0.974944
0.955098 0.954242 0.969496
