bundles/resolve-cinematic-luts/Gamut/Prestige/Timeless Elegance.cube
TITLE "Prestige - Timeless Elegance"
# Contributor - Runaway Vows. Version 1.0 - 05/22/2023 - Designed for Rec.709 Color Space. Copyright 2023 Gamut, LLC
LUT_3D_SIZE 33
0.007886 0.010251 0.008674
0.026442 0.011804 0.010991
0.061677 0.011829 0.011780
0.083361 0.014835 0.015549
0.102156 0.017940 0.018729
0.123516 0.021710 0.021834
0.147377 0.024298 0.025727
0.175419 0.027255 0.029448
0.208794 0.028980 0.032135
0.250277 0.029966 0.033687
0.298438 0.028635 0.034697
0.349825 0.028389 0.035486
0.403799 0.027600 0.036274
0.457473 0.028857 0.036274
0.510590 0.030853 0.037507
0.562868 0.035585 0.039059
0.612611 0.042478 0.041376
0.657705 0.051474 0.044688
0.698537 0.062150 0.047808
0.734581 0.072822 0.052089
0.766974 0.083538 0.056728
0.798989 0.094977 0.062632
0.832031 0.106606 0.068854
0.866055 0.119595 0.075776
0.899079 0.133345 0.084124
0.929209 0.147852 0.094349
0.955047 0.163382 0.107028
0.975001 0.178539 0.121670
0.988522 0.192559 0.137916
0.995728 0.205305 0.154396
0.998837 0.216737 0.170797
0.999816 0.226729 0.186128
1.000000 0.236218 0.200901
0.009438 0.031938 0.011755
0.029547 0.031962 0.010251
0.059481 0.032701 0.010276
0.082722 0.033490 0.013997
0.103548 0.035855 0.017176
0.126156 0.037433 0.019517
0.151332 0.039010 0.023386
0.181146 0.039798 0.025752
0.215505 0.039995 0.028241
0.257551 0.039454 0.029818
0.305696 0.038689 0.030828
0.358863 0.036890 0.031617
0.413056 0.036890 0.031617
0.467007 0.037359 0.032085
0.520317 0.040137 0.033638
0.572424 0.044645 0.035954
0.621823 0.051805 0.038690
0.666746 0.061534 0.042106
0.706889 0.073009 0.046419
0.742299 0.085016 0.051426
0.774674 0.097085 0.056728
0.807355 0.109465 0.063384
0.840937 0.122665 0.070582
0.875056 0.136880 0.078457
0.907563 0.151807 0.087876
0.936690 0.167444 0.099205
0.960792 0.183322 0.112421
0.978892 0.198741 0.127427
0.990582 0.212915 0.143795
0.996667 0.225720 0.160140
0.999116 0.237005 0.175995
0.999868 0.247411 0.191049
1.000000 0.256891 0.205253
0.010251 0.053002 0.014095
0.033367 0.051733 0.012568
0.057221 0.051066 0.010991
0.080879 0.052894 0.013258
0.104518 0.054217 0.016412
0.127426 0.056038 0.018803
0.153009 0.057323 0.021144
0.183661 0.057443 0.022795
0.219931 0.057026 0.025136
0.263110 0.055344 0.025949
0.312230 0.053992 0.026171
0.366097 0.052668 0.026911
0.421025 0.052440 0.027452
0.475440 0.053856 0.028955
0.529026 0.057002 0.030952
0.581659 0.063147 0.033268
0.630595 0.071625 0.036718
0.675818 0.082406 0.041694
0.715800 0.094137 0.046702
0.750698 0.106360 0.052308
0.783552 0.118499 0.058148
0.816973 0.131212 0.065222
0.851123 0.144594 0.072950
0.884934 0.158869 0.081750
0.916330 0.174142 0.091818
0.944093 0.190056 0.103960
0.966438 0.206083 0.117663
0.982691 0.221439 0.132916
0.992584 0.235492 0.149177
0.997534 0.248185 0.165425
0.999400 0.259380 0.180805
0.999870 0.269615 0.195278
1.000000 0.279015 0.208818
0.010966 0.074170 0.016412
0.035757 0.071756 0.014145
0.055653 0.072114 0.012592
0.072072 0.072632 0.008108
0.102463 0.072238 0.016116
0.129987 0.073650 0.019468
0.156638 0.075139 0.021784
0.187766 0.075785 0.022696
0.225923 0.075362 0.022869
0.270962 0.073549 0.023583
0.321778 0.072034 0.024273
0.376286 0.070837 0.025037
0.431735 0.071032 0.025801
0.486221 0.073588 0.028068
0.540179 0.078199 0.030853
0.593124 0.085946 0.033884
0.642213 0.095891 0.037383
0.686529 0.107508 0.042405
0.725671 0.119439 0.047408
0.760114 0.131170 0.053594
0.793551 0.143444 0.059942
0.827293 0.156032 0.067404
0.861574 0.169733 0.075456
0.894682 0.184384 0.084727
0.924993 0.199719 0.095617
0.951069 0.215853 0.108437
0.971662 0.231659 0.122590
0.985937 0.246720 0.137918
0.994316 0.260494 0.153887
0.998228 0.273078 0.169887
0.999629 0.284147 0.184836
0.999948 0.294351 0.198788
1.000000 0.303571 0.211755
0.013209 0.094566 0.017250
0.036644 0.092562 0.015008
0.053309 0.093230 0.013455
0.067337 0.095589 0.008797
0.092648 0.094151 0.008083
0.127081 0.093677 0.017792
0.159349 0.094126 0.021193
0.192999 0.094996 0.022080
0.232906 0.094729 0.022080
0.279689 0.093255 0.021514
0.332300 0.091881 0.022031
0.387455 0.091260 0.022179
0.443623 0.092410 0.024249
0.498695 0.095890 0.027058
0.553094 0.102418 0.030064
0.605862 0.111567 0.033687
0.653924 0.122994 0.038246
0.697335 0.135007 0.043155
0.735494 0.146944 0.049006
0.769968 0.158805 0.055411
0.803643 0.170914 0.062207
0.837770 0.184008 0.069711
0.871664 0.197661 0.078468
0.903860 0.212398 0.088204
0.932907 0.227922 0.099631
0.957416 0.243808 0.112514
0.976188 0.259548 0.127081
0.988742 0.274292 0.142405
0.995705 0.287826 0.158189
0.998815 0.300048 0.173597
0.999763 0.310976 0.187988
0.999993 0.320983 0.201401
1.000000 0.330361 0.214113
0.012740 0.116316 0.015894
0.034549 0.114905 0.015131
0.048973 0.116755 0.012839
0.061429 0.119052 0.008896
0.080814 0.119719 0.003499
0.115513 0.116600 0.008797
0.155183 0.116211 0.018014
0.194732 0.117145 0.019961
0.238960 0.116690 0.020626
0.288714 0.115428 0.020059
0.341955 0.114299 0.019837
0.398086 0.114352 0.020355
0.454320 0.116656 0.021908
0.510433 0.122064 0.024717
0.565394 0.130150 0.028389
0.617330 0.140555 0.032923
0.664713 0.152234 0.037975
0.706818 0.164406 0.043155
0.744355 0.176570 0.049487
0.778997 0.188676 0.056448
0.813099 0.200927 0.063626
0.847227 0.213794 0.071522
0.880746 0.227787 0.080563
0.912016 0.242401 0.090939
0.939781 0.257891 0.102838
0.962802 0.273776 0.116281
0.979891 0.289202 0.130832
0.990952 0.303616 0.146295
0.996762 0.316874 0.161690
0.999157 0.328795 0.176749
0.999863 0.339757 0.190899
1.000000 0.349655 0.203834
1.000000 0.358924 0.215916
0.010547 0.141398 0.014342
0.029300 0.141076 0.012937
0.043389 0.142989 0.010596
0.055041 0.145818 0.007467
0.070772 0.147209 0.001233
0.098058 0.146845 0.000370
0.141115 0.143363 0.008034
0.188803 0.143184 0.015820
0.239422 0.143267 0.017595
0.294121 0.142295 0.017645
0.350800 0.141092 0.017645
0.407905 0.141545 0.018162
0.464338 0.144881 0.019566
0.519909 0.151242 0.022524
0.574825 0.160407 0.026270
0.626103 0.171234 0.030730
0.672765 0.183186 0.036422
0.714518 0.195435 0.042282
0.751448 0.207559 0.048536
0.786398 0.219692 0.055942
0.820968 0.232123 0.063718
0.855229 0.245201 0.072126
0.888282 0.259040 0.081567
0.918778 0.273780 0.092565
0.945429 0.289185 0.105017
0.967071 0.304900 0.118868
0.982816 0.320038 0.133850
0.992599 0.334294 0.149050
0.997479 0.347270 0.164374
0.999398 0.359047 0.178976
0.999874 0.369874 0.192605
1.000000 0.379714 0.205053
1.000000 0.388904 0.216708
0.006826 0.169598 0.010769
0.023263 0.169777 0.009216
0.035954 0.172765 0.007541
0.047824 0.175769 0.004436
0.061163 0.177534 0.000296
0.082771 0.178372 0.000000
0.119368 0.176900 0.000247
0.173352 0.173372 0.006481
0.233082 0.173384 0.012716
0.294057 0.173223 0.013923
0.355756 0.172433 0.013677
0.415872 0.173322 0.015057
0.473019 0.176644 0.017102
0.528439 0.183157 0.020207
0.582090 0.192270 0.023756
0.632726 0.203266 0.028413
0.678825 0.215134 0.033687
0.719793 0.227264 0.040028
0.756670 0.239373 0.046912
0.792030 0.251620 0.054449
0.826989 0.264072 0.062695
0.861476 0.277189 0.071721
0.894255 0.291079 0.081798
0.924084 0.305884 0.093178
0.949886 0.321263 0.106200
0.970376 0.336802 0.120574
0.984963 0.351838 0.135484
0.993781 0.365862 0.150673
0.998016 0.378542 0.165460
0.999533 0.390240 0.179755
0.999949 0.401054 0.193115
1.000000 0.410756 0.205155
1.000000 0.419836 0.216355
0.001380 0.201057 0.006111
0.016461 0.202378 0.004584
0.028241 0.205943 0.003007
0.039215 0.209504 0.000542
0.052571 0.211775 0.000099
0.070344 0.213073 0.000000
0.099447 0.212902 0.000000
0.149546 0.209686 0.000247
0.216928 0.206324 0.003548
0.287608 0.207131 0.008231
0.355792 0.207457 0.009265
0.419309 0.208526 0.010572
0.478631 0.212016 0.013406
0.535084 0.217860 0.016511
0.588487 0.226256 0.020651
0.638055 0.236629 0.025136
0.683037 0.248032 0.030557
0.723298 0.259746 0.036940
0.760257 0.271554 0.044070
0.796039 0.283663 0.051886
0.831425 0.296264 0.060733
0.866065 0.309385 0.069939
0.898683 0.323392 0.080765
0.928072 0.338143 0.092865
0.953096 0.353579 0.106371
0.972744 0.369105 0.120789
0.986468 0.384050 0.135909
0.994561 0.397911 0.151073
0.998355 0.410521 0.165597
0.999633 0.422080 0.179579
0.999949 0.432711 0.192440
1.000000 0.442363 0.203997
1.000000 0.451427 0.215020
0.000000 0.235348 0.000665
0.008798 0.237944 0.000444
0.020478 0.242398 0.000271
0.031345 0.246435 0.000000
0.044299 0.249247 0.000000
0.059346 0.251002 0.000000
0.083812 0.251968 0.000000
0.125614 0.249859 0.000000
0.193223 0.244867 0.000247
0.272738 0.242836 0.002021
0.348572 0.244317 0.004362
0.417420 0.246064 0.005914
0.480397 0.249520 0.007960
0.538527 0.255062 0.011755
0.592750 0.262523 0.016190
0.641913 0.271637 0.021267
0.685993 0.281821 0.026688
0.725755 0.292817 0.033465
0.762782 0.304219 0.040779
0.799015 0.316111 0.048963
0.834773 0.328579 0.057930
0.869561 0.341706 0.067999
0.902058 0.355651 0.079364
0.930992 0.370492 0.092035
0.955328 0.385945 0.105732
0.974289 0.401439 0.120316
0.987470 0.416300 0.135351
0.995098 0.429995 0.149972
0.998561 0.442508 0.164334
0.999728 0.453984 0.177781
0.999985 0.464508 0.190372
1.000000 0.474161 0.201864
1.000000 0.483054 0.212654
0.000000 0.271965 0.000000
0.002242 0.276109 0.000000
0.013208 0.281745 0.000000
0.023584 0.286238 0.000000
0.035930 0.289543 0.000000
0.050314 0.292211 0.000000
0.071078 0.293198 0.000000
0.105893 0.291933 0.000000
0.166430 0.286811 0.000000
0.249426 0.282136 0.000025
0.333591 0.281736 0.001035
0.409456 0.284545 0.001824
0.477114 0.288119 0.003844
0.538610 0.293183 0.006949
0.593884 0.299802 0.011533
0.643481 0.307831 0.016609
0.687676 0.316907 0.022573
0.727372 0.326937 0.029399
0.764742 0.337631 0.036915
0.801414 0.349018 0.045768
0.837519 0.361190 0.055300
0.872409 0.374112 0.066027
0.904804 0.388008 0.077787
0.933284 0.402742 0.090591
0.957096 0.418195 0.104526
0.975508 0.433561 0.119200
0.988208 0.448363 0.133766
0.995464 0.461879 0.148128
0.998731 0.474258 0.161944
0.999776 0.485648 0.175236
1.000000 0.496071 0.187598
1.000000 0.505518 0.198690
1.000000 0.514266 0.208991
0.000000 0.311884 0.000000
0.000764 0.316536 0.000000
0.006826 0.322294 0.000000
0.017127 0.327644 0.000000
0.029473 0.331992 0.000000
0.042598 0.334191 0.000000
0.061097 0.335262 0.000000
0.090869 0.334293 0.000000
0.142512 0.330032 0.000000
0.221966 0.323544 0.000000
0.311737 0.320919 0.000000
0.395373 0.322595 0.000789
0.468674 0.326833 0.001552
0.534058 0.331585 0.003105
0.591888 0.337409 0.007393
0.642867 0.344588 0.012470
0.687861 0.352840 0.018679
0.728216 0.361896 0.026047
0.766298 0.371789 0.034155
0.803529 0.382544 0.043072
0.840128 0.394229 0.053190
0.875146 0.406877 0.064360
0.907330 0.420567 0.076325
0.935365 0.435128 0.089205
0.958558 0.450311 0.103149
0.976465 0.465501 0.117469
0.988719 0.480006 0.131739
0.995703 0.493282 0.145673
0.998805 0.505484 0.159032
0.999776 0.516689 0.171991
1.000000 0.526974 0.183747
1.000000 0.536267 0.194491
1.000000 0.544835 0.204780
0.000000 0.354253 0.000493
0.000000 0.358583 0.000000
0.002021 0.364652 0.000493
0.012691 0.370930 0.000493
0.023756 0.374885 0.000000
0.036841 0.377082 0.000000
0.053628 0.377611 0.000000
0.080051 0.376716 0.000000
0.124209 0.373198 0.000000
0.195207 0.366116 0.000000
0.285659 0.360951 0.000000
0.375011 0.361014 0.000000
0.454608 0.364272 0.000789
0.524763 0.369273 0.002045
0.586302 0.374868 0.004830
0.639782 0.381425 0.009438
0.686509 0.388927 0.015969
0.728318 0.397337 0.023435
0.767469 0.406577 0.031839
0.805624 0.416774 0.041115
0.842742 0.427914 0.051898
0.877936 0.440112 0.063015
0.909840 0.453370 0.075343
0.937384 0.467599 0.088073
0.960036 0.482449 0.101633
0.977387 0.497151 0.115571
0.989218 0.511195 0.129411
0.995933 0.524145 0.142832
0.998909 0.535995 0.155760
0.999804 0.546936 0.168275
1.000000 0.556947 0.179864
1.000000 0.566058 0.190251
1.000000 0.574387 0.200141
0.000000 0.399750 0.002513
0.000000 0.402074 0.001725
0.001478 0.408257 0.002982
0.009586 0.414291 0.002513
0.020922 0.417940 0.001035
0.033441 0.419787 0.000468
0.049317 0.419910 0.000000
0.072755 0.418593 0.000000
0.111795 0.415453 0.000000
0.173820 0.408808 0.000000
0.258493 0.401408 0.000000
0.349883 0.399018 0.000000
0.435689 0.401244 0.000493
0.511159 0.405691 0.002045
0.577108 0.411397 0.004830
0.634176 0.417796 0.009142
0.683540 0.425063 0.014983
0.727420 0.432993 0.022351
0.768179 0.441729 0.030779
0.807338 0.451343 0.040371
0.845241 0.461952 0.050976
0.880656 0.473645 0.062287
0.912381 0.486468 0.074350
0.939446 0.500177 0.087203
0.961533 0.514415 0.100395
0.978360 0.528520 0.113798
0.989757 0.541871 0.127021
0.996174 0.554173 0.139733
0.998961 0.565559 0.152414
0.999825 0.576093 0.164493
1.000000 0.585758 0.175678
1.000000 0.594393 0.185705
1.000000 0.602417 0.195210
0.000000 0.444794 0.009315
0.000000 0.446812 0.008108
0.001528 0.452464 0.008379
0.008304 0.457549 0.007639
0.019714 0.460901 0.005372
0.032011 0.462389 0.002144
0.047341 0.461929 0.000592
0.069117 0.460140 0.000000
0.103722 0.456870 0.000000
0.157711 0.450593 0.000000
0.233883 0.442359 0.000000
0.323379 0.437098 0.000000
0.412383 0.437361 0.000789
0.493460 0.441129 0.002489
0.564403 0.446647 0.005717
0.625778 0.453282 0.010350
0.678612 0.460512 0.015427
0.725127 0.468321 0.022795
0.767822 0.476709 0.030557
0.808425 0.485883 0.040051
0.847204 0.496005 0.050303
0.883038 0.507163 0.061530
0.914656 0.519391 0.073478
0.941352 0.532450 0.086205
0.963007 0.545988 0.099142
0.979382 0.559275 0.112122
0.990404 0.571815 0.124907
0.996471 0.583375 0.137395
0.999066 0.594031 0.149375
0.999825 0.603909 0.160734
1.000000 0.613028 0.171410
1.000000 0.621198 0.181132
1.000000 0.628706 0.189778
0.000000 0.488930 0.015870
0.000764 0.490889 0.014317
0.002686 0.495659 0.014293
0.010646 0.500093 0.012790
0.021858 0.502928 0.010128
0.033761 0.504079 0.006235
0.048760 0.503207 0.002144
0.068348 0.500803 0.000789
0.099086 0.496975 0.000000
0.146560 0.490996 0.000000
0.214085 0.482878 0.000000
0.298102 0.475564 0.000000
0.387484 0.473328 0.001208
0.472355 0.475744 0.003253
0.548408 0.480752 0.006826
0.614574 0.487340 0.011558
0.671460 0.494758 0.017767
0.721061 0.502642 0.023978
0.766024 0.510930 0.031321
0.808392 0.519795 0.040149
0.848265 0.529427 0.049950
0.884605 0.540052 0.060960
0.916379 0.551725 0.072695
0.942945 0.564137 0.085081
0.964306 0.576792 0.097875
0.980384 0.589209 0.110531
0.990947 0.600793 0.123007
0.996745 0.611432 0.134967
0.999154 0.621291 0.146513
0.999848 0.630331 0.157237
1.000000 0.638643 0.167235
1.000000 0.646140 0.175979
1.000000 0.653051 0.184171
0.000000 0.530571 0.022080
0.001947 0.532485 0.020528
0.005766 0.536507 0.019764
0.016043 0.540348 0.018605
0.026910 0.542843 0.015574
0.039091 0.543651 0.011016
0.052736 0.542356 0.005570
0.070843 0.539259 0.002144
0.098095 0.535087 0.000789
0.139436 0.529479 0.000000
0.198920 0.521832 0.000000
0.276001 0.513773 0.000000
0.362902 0.509093 0.001282
0.449490 0.509524 0.003302
0.529703 0.513559 0.007245
0.600665 0.519816 0.012716
0.661924 0.527353 0.019320
0.714873 0.535309 0.025900
0.762488 0.543642 0.032874
0.806710 0.552306 0.040592
0.848028 0.561630 0.049378
0.885248 0.571788 0.059591
0.917385 0.582826 0.070993
0.944025 0.594565 0.083280
0.965322 0.606479 0.096083
0.981172 0.617931 0.108681
0.991504 0.628535 0.120585
0.997000 0.638187 0.132142
0.999232 0.647031 0.142806
0.999879 0.655230 0.153113
1.000000 0.662693 0.162197
1.000000 0.669386 0.170078
1.000000 0.675577 0.177255
0.000370 0.569707 0.028660
0.004978 0.571427 0.027107
0.013011 0.575234 0.026344
0.023781 0.578675 0.024421
0.034648 0.580922 0.021390
0.046171 0.581363 0.016831
0.059025 0.579741 0.010375
0.075484 0.576266 0.004411
0.099656 0.571788 0.001355
0.136178 0.566125 0.000592
0.188723 0.558877 0.000000
0.258205 0.550720 0.000000
0.340434 0.544497 0.000912
0.426607 0.542701 0.002933
0.509452 0.545158 0.006851
0.584566 0.550614 0.012716
0.650049 0.557855 0.019714
0.706686 0.565874 0.027082
0.757093 0.574260 0.034081
0.803462 0.582810 0.041337
0.846313 0.591922 0.049130
0.884669 0.601711 0.058400
0.917478 0.612256 0.069171
0.944507 0.623323 0.081227
0.965942 0.634394 0.093547
0.981736 0.644986 0.105883
0.991921 0.654652 0.117675
0.997217 0.663388 0.128388
0.999329 0.671327 0.138675
0.999879 0.678594 0.147750
1.000000 0.685240 0.155852
1.000000 0.691205 0.162664
1.000000 0.696730 0.169040
0.003746 0.606240 0.035634
0.011828 0.608268 0.034081
0.022228 0.611702 0.033317
0.033095 0.614877 0.031765
0.043749 0.616819 0.028734
0.054631 0.616962 0.023509
0.066909 0.615237 0.016658
0.082098 0.611677 0.008822
0.103914 0.606992 0.003893
0.136117 0.601212 0.001355
0.182350 0.594151 0.000592
0.244901 0.586137 0.000000
0.321387 0.578878 0.000789
0.405126 0.575182 0.002169
0.488884 0.575746 0.005717
0.566956 0.579811 0.011582
0.636240 0.586379 0.018975
0.696547 0.594170 0.027082
0.749926 0.602487 0.034845
0.798576 0.610931 0.041756
0.843163 0.619851 0.049130
0.882847 0.629360 0.057604
0.916582 0.639521 0.067103
0.944279 0.650024 0.078349
0.966093 0.660476 0.090334
0.982084 0.670306 0.102104
0.992189 0.679212 0.113170
0.997378 0.687132 0.123426
0.999383 0.694283 0.132341
0.999879 0.700895 0.140558
1.000000 0.706840 0.147604
1.000000 0.712240 0.153364
1.000000 0.717103 0.158284
0.010596 0.640173 0.043264
0.020675 0.642823 0.042078
0.031864 0.646295 0.042054
0.042659 0.649121 0.040289
0.053734 0.650881 0.036915
0.064017 0.650949 0.031592
0.075486 0.649088 0.024101
0.089982 0.645407 0.015254
0.109529 0.640544 0.007270
0.138275 0.634720 0.003450
0.179648 0.627808 0.001355
0.235735 0.619835 0.000592
0.306134 0.612093 0.000493
0.386011 0.606749 0.001405
0.468877 0.605262 0.004164
0.548684 0.607629 0.009709
0.621092 0.613031 0.017102
0.684819 0.620234 0.025555
0.741169 0.628244 0.034525
0.792218 0.636600 0.042217
0.838719 0.645418 0.049152
0.879798 0.654654 0.056840
0.914789 0.664530 0.065678
0.943344 0.674667 0.075585
0.965815 0.684688 0.086224
0.982165 0.694048 0.097113
0.992347 0.702400 0.107213
0.997490 0.709819 0.116117
0.999430 0.716486 0.124398
0.999904 0.722594 0.131127
1.000000 0.728096 0.137040
1.000000 0.733079 0.141667
1.000000 0.737646 0.145421
0.020207 0.673720 0.051643
0.031346 0.677473 0.051643
0.042862 0.680985 0.051259
0.053327 0.683837 0.049689
0.064231 0.685424 0.046401
0.074367 0.685245 0.041139
0.085567 0.683003 0.033268
0.098767 0.678895 0.023485
0.116934 0.673559 0.013701
0.142697 0.667369 0.006777
0.179679 0.660273 0.002908
0.230345 0.652332 0.000789
0.294643 0.644208 0.000789
0.369922 0.637628 0.000961
0.450609 0.634100 0.002957
0.530686 0.634451 0.007393
0.605258 0.638269 0.014391
0.671920 0.644444 0.022918
0.731158 0.651983 0.032528
0.784634 0.660173 0.041756
0.833044 0.668846 0.049566
0.875805 0.678101 0.056840
0.912046 0.687866 0.064400
0.941755 0.697891 0.072868
0.965069 0.707734 0.081824
0.981913 0.716877 0.091032
0.992369 0.725040 0.099486
0.997531 0.732162 0.107053
0.999437 0.738646 0.113686
0.999951 0.744491 0.119738
1.000000 0.749774 0.124022
1.000000 0.754551 0.127795
1.000000 0.758903 0.130725
0.032134 0.710041 0.063204
0.043785 0.714175 0.063204
0.055024 0.717829 0.062664
0.065719 0.720604 0.061176
0.075927 0.721932 0.058091
0.086037 0.721344 0.052433
0.096530 0.718618 0.044236
0.109102 0.713889 0.033859
0.125796 0.707770 0.021932
0.149164 0.700849 0.012444
0.182513 0.693222 0.006013
0.228056 0.684831 0.002390
0.286803 0.676137 0.000789
0.357041 0.668319 0.000789
0.434530 0.662918 0.002021
0.513737 0.661095 0.005076
0.589391 0.662935 0.011286
0.658242 0.667766 0.019813
0.720043 0.674536 0.029917
0.775928 0.682428 0.040001
0.826379 0.691098 0.048901
0.870843 0.700364 0.056216
0.908561 0.710292 0.063675
0.939461 0.720421 0.070527
0.963745 0.730342 0.077704
0.981298 0.739564 0.084213
0.992116 0.747698 0.090596
0.997512 0.754844 0.096262
0.999437 0.761230 0.101057
0.999951 0.767023 0.105288
1.000000 0.772208 0.108659
1.000000 0.776831 0.111694
1.000000 0.781046 0.113659
0.046405 0.749570 0.076593
0.057804 0.753702 0.076925
0.069408 0.757279 0.076446
0.079668 0.759842 0.075043
0.089491 0.760827 0.071615
0.099067 0.759721 0.065586
0.109131 0.756379 0.057227
0.121022 0.750975 0.045801
0.136379 0.744030 0.032726
0.157669 0.736176 0.020380
0.187686 0.727647 0.010892
0.228908 0.718562 0.005249
0.282401 0.709075 0.002119
0.347535 0.700008 0.000789
0.421111 0.692719 0.001232
0.498397 0.688583 0.003746
0.574005 0.688166 0.008428
0.644264 0.691247 0.016462
0.708064 0.696959 0.026368
0.766065 0.704398 0.036988
0.818697 0.713054 0.046869
0.864992 0.722514 0.055202
0.904359 0.732628 0.062365
0.936553 0.743016 0.068122
0.961861 0.753172 0.073392
0.980260 0.762541 0.077378
0.991700 0.770859 0.081108
0.997326 0.778061 0.083498
0.999383 0.784499 0.086493
0.999934 0.790235 0.089293
1.000000 0.795361 0.091279
1.000000 0.799821 0.092285
1.000000 0.803891 0.094089
0.062846 0.791692 0.092478
0.074274 0.795585 0.092774
0.084927 0.798849 0.092082
0.095211 0.801069 0.090355
0.104620 0.801621 0.086886
0.113695 0.800058 0.080890
0.123263 0.796151 0.071992
0.134236 0.790069 0.059824
0.148446 0.782282 0.045598
0.167960 0.773515 0.031370
0.195068 0.764052 0.018827
0.232272 0.754105 0.009635
0.281032 0.743748 0.004189
0.341223 0.733429 0.001331
0.410541 0.724371 0.000789
0.485032 0.717968 0.002193
0.559594 0.715107 0.006259
0.630295 0.716044 0.012814
0.695431 0.720292 0.022253
0.755313 0.727042 0.033120
0.809889 0.735494 0.043755
0.858276 0.745103 0.052481
0.899433 0.755447 0.059696
0.933076 0.766129 0.065085
0.959631 0.776500 0.068441
0.978893 0.786044 0.070534
0.991005 0.794461 0.071178
0.997027 0.801722 0.071100
0.999316 0.808116 0.071240
0.999879 0.813759 0.070607
1.000000 0.818680 0.071001
1.000000 0.822915 0.071817
1.000000 0.826688 0.071491
0.080342 0.835105 0.110101
0.091160 0.838492 0.109836
0.101674 0.841342 0.109060
0.111355 0.843127 0.107200
0.120515 0.843283 0.103444
0.129081 0.841304 0.096929
0.138170 0.836954 0.087787
0.148640 0.830281 0.075242
0.161798 0.821898 0.060216
0.179552 0.812361 0.044157
0.204332 0.802131 0.028832
0.238019 0.791437 0.016289
0.282543 0.780255 0.008083
0.337990 0.768919 0.003204
0.402895 0.758328 0.001577
0.473918 0.749738 0.001799
0.546577 0.744425 0.004140
0.616812 0.743022 0.009758
0.682638 0.745413 0.018039
0.743830 0.750951 0.028266
0.800202 0.758850 0.038829
0.850628 0.768364 0.047630
0.893769 0.778848 0.055129
0.929091 0.789695 0.060069
0.956899 0.800158 0.062503
0.977226 0.809754 0.062668
0.990134 0.818140 0.061113
0.996684 0.825300 0.057903
0.999195 0.831525 0.055435
0.999879 0.836891 0.052472
1.000000 0.841478 0.050521
1.000000 0.845330 0.049533
1.000000 0.848631 0.049013
0.097228 0.877967 0.128173
0.107877 0.880813 0.127559
0.117747 0.883095 0.126581
0.127395 0.884478 0.124302
0.136104 0.884240 0.120157
0.144580 0.881973 0.113488
0.153345 0.877364 0.103965
0.163344 0.870440 0.091444
0.175796 0.861685 0.075848
0.192280 0.851722 0.058458
0.215108 0.841029 0.041044
0.245945 0.829815 0.025555
0.286668 0.818081 0.013973
0.337669 0.806022 0.006530
0.398047 0.794183 0.002711
0.465267 0.783802 0.001577
0.535293 0.776209 0.002982
0.604339 0.772339 0.007245
0.670133 0.772556 0.013824
0.732131 0.776440 0.022672
0.789906 0.783329 0.032455
0.842195 0.792275 0.040782
0.887393 0.802554 0.048087
0.924621 0.813343 0.052542
0.953960 0.823773 0.054426
0.975456 0.833240 0.053481
0.989186 0.841388 0.049935
0.996320 0.848273 0.045062
0.999100 0.854109 0.040239
0.999872 0.858976 0.035634
1.000000 0.862987 0.032282
1.000000 0.866256 0.028216
1.000000 0.869015 0.027009
0.111840 0.917940 0.145156
0.121925 0.920096 0.144246
0.131644 0.921806 0.142579
0.140924 0.922700 0.139995
0.149676 0.922211 0.135456
0.158351 0.919909 0.128711
0.167340 0.915391 0.119031
0.177420 0.908635 0.106563
0.189740 0.900070 0.090819
0.205563 0.890208 0.072784
0.226882 0.879522 0.053892
0.255480 0.868170 0.036345
0.292969 0.856242 0.021538
0.339999 0.843768 0.011188
0.396100 0.831141 0.005126
0.459244 0.819419 0.002095
0.526297 0.809861 0.001972
0.593553 0.803697 0.004756
0.658707 0.801559 0.009758
0.720798 0.803425 0.016781
0.779487 0.808719 0.025185
0.833380 0.816643 0.032529
0.880590 0.826289 0.038586
0.919870 0.836652 0.043216
