bundles/resolve-cinematic-luts/Phantom Luts/Ursa G2 Phntm Film LUTs - V1/Gen5/Standard (No WB Offset)/Ursa G2 VisionTeal Gen5.cube
TITLE "Generated by Resolve"
LUT_3D_SIZE 9
0.0222477 0.0297856 0.0280156
0.0222324 0.0296483 0.0288853
0.0932631 0.0224918 0.0242924
0.304097 0.0201724 0.0156863
0.540398 0.0374304 0.0308537
0.704067 0.0698253 0.0642557
0.707347 0.035523 0.0749065
0.70753 0.0353857 0.0749676
0.708904 0.0343328 0.0762036
0.0222019 0.0432898 0.0307469
0.0222782 0.0416266 0.0299687
0.0973983 0.0332647 0.0274357
0.305715 0.0201114 0.0162661
0.53724 0.0414893 0.0294194
0.703075 0.0703746 0.0640421
0.706828 0.0451057 0.0720378
0.707561 0.0492714 0.071397
0.708598 0.0470893 0.0699779
0.0195773 0.12874 0.0470436
0.0195468 0.122042 0.0418555
0.0787366 0.12604 0.0431983
0.356069 0.0827344 0.0321965
0.558984 0.0568399 0.027451
0.701198 0.0835737 0.0568246
0.706371 0.0687572 0.0652171
0.705577 0.0704051 0.0640726
0.705623 0.0703746 0.0628977
0.0505684 0.398566 0.128725
0.0491035 0.397208 0.122316
0.0496071 0.378119 0.0933089
0.28159 0.383825 0.0837873
0.621378 0.390555 0.10309
0.764752 0.341375 0.126848
0.743175 0.179889 0.0781262
0.74435 0.195422 0.0776074
0.752956 0.244236 0.0930037
0.101854 0.712734 0.36347
0.1066 0.71075 0.339879
0.105806 0.703731 0.334798
0.172564 0.657252 0.208179
0.541146 0.636851 0.156085
0.779065 0.667018 0.205844
0.806577 0.658122 0.198718
0.805234 0.648112 0.191424
0.802457 0.627024 0.179324
0.193088 0.877852 0.546654
0.182879 0.87541 0.515465
0.184115 0.871077 0.499474
0.228244 0.851728 0.455497
0.508141 0.765743 0.279942
0.730632 0.79205 0.271824
0.816861 0.793973 0.331518
0.819654 0.794369 0.323659
0.820401 0.791653 0.315496
0.227893 0.874296 0.552392
0.210346 0.867811 0.504875
0.242023 0.847944 0.451972
0.248692 0.844114 0.44361
0.44625 0.770916 0.272816
0.660685 0.778317 0.275914
0.792813 0.78854 0.306981
0.819043 0.794446 0.328847
0.818814 0.794415 0.330175
0.234531 0.876295 0.56878
0.217258 0.872343 0.526436
0.245075 0.845579 0.449195
0.245441 0.845258 0.448875
0.368368 0.782498 0.273075
0.619684 0.769741 0.28336
0.768399 0.792065 0.29633
0.819333 0.794293 0.325307
0.819028 0.794476 0.327108
0.234958 0.878599 0.579171
0.219944 0.875212 0.542428
0.237385 0.85127 0.460914
0.244663 0.845869 0.449683
0.286656 0.813519 0.355474
0.583703 0.765393 0.292683
0.72401 0.791043 0.271443
0.81236 0.792798 0.317159
0.81912 0.794644 0.326665
0.0224155 0.0317235 0.0400702
0.0282597 0.03093 0.045182
0.126299 0.0239872 0.0439765
0.346441 0.0136873 0.019852
0.58024 0.0413367 0.0372168
0.705364 0.0622263 0.0655833
0.709178 0.0353399 0.0811322
0.709422 0.0352789 0.0816663
0.710262 0.0347601 0.0840009
0.0222629 0.0386969 0.0354772
0.0222629 0.0377356 0.0359045
0.103746 0.0244755 0.028809
0.308476 0.0183719 0.0184176
0.536156 0.0361028 0.0306249
0.704768 0.0664378 0.0644388
0.707927 0.0346532 0.0751202
0.70837 0.0395666 0.071931
0.708797 0.0460059 0.0697032
0.0198367 0.114641 0.0628061
0.0196841 0.113252 0.0471046
0.0726482 0.114717 0.0424659
0.349248 0.0641794 0.0287938
0.556725 0.0537118 0.0285496
0.7019 0.0820478 0.0585641
0.707042 0.0648356 0.0659495
0.706813 0.0674601 0.065156
0.706508 0.0689097 0.0636759
0.0318456 0.387518 0.146578
0.0425269 0.381888 0.124834
0.0466316 0.372442 0.100374
0.271153 0.372488 0.0803693
0.624781 0.364263 0.104646
0.760937 0.30631 0.112627
0.734859 0.150652 0.0673991
0.742565 0.18201 0.0775158
0.750164 0.223804 0.0872511
0.0960861 0.70338 0.394598
0.0909285 0.702281 0.361196
0.104341 0.694087 0.328145
0.160189 0.659998 0.232959
0.534035 0.629465 0.151995
0.782193 0.659388 0.201678
0.804944 0.64567 0.189441
0.803784 0.633768 0.184497
0.799268 0.609903 0.176455
0.202853 0.881605 0.578485
0.189395 0.880568 0.551751
0.184161 0.870878 0.498726
0.189609 0.861021 0.466514
0.488869 0.76611 0.275547
0.727687 0.791852 0.271702
0.816968 0.794079 0.330037
0.820157 0.792645 0.319341
0.819684 0.786984 0.308492
0.244312 0.878828 0.594339
0.228351 0.876127 0.559548
0.217197 0.856748 0.466423
0.234394 0.852049 0.46096
0.408804 0.776547 0.274388
0.655665 0.777722 0.277195
0.790524 0.788495 0.305638
0.818982 0.794446 0.329244
0.818692 0.794369 0.3308
0.249058 0.880064 0.607187
0.236362 0.876188 0.572961
0.208743 0.860609 0.481575
0.245487 0.845228 0.448844
0.336583 0.790051 0.284779
0.614023 0.769024 0.285023
0.766964 0.79559 0.289738
0.819425 0.794339 0.324865
0.819074 0.794491 0.327062
0.248112 0.882368 0.613794
0.237171 0.878584 0.582452
0.213428 0.870359 0.515419
0.244724 0.845838 0.449607
0.27805 0.821927 0.385397
0.575448 0.764157 0.293935
0.714107 0.788724 0.270329
0.810788 0.792233 0.315541
0.81912 0.794644 0.326665
0.0210117 0.0437629 0.123369
0.0363928 0.0399481 0.123857
0.134478 0.0306706 0.120333
0.379217 0.0189975 0.137987
0.63154 0.0274662 0.124407
0.707057 0.0564736 0.0680095
0.708568 0.03505 0.0783856
0.709361 0.0352178 0.0811017
0.710857 0.0349889 0.0867781
0.0216068 0.0388495 0.0895857
0.0211185 0.041886 0.116411
0.108949 0.0302892 0.10721
0.361898 0.0157778 0.092134
0.612665 0.0217441 0.0737469
0.706127 0.0581216 0.0669261
0.709072 0.035111 0.0804761
0.709514 0.035172 0.0817884
0.710399 0.0347295 0.0842908
0.0200351 0.106615 0.0878614
0.0202335 0.1037 0.0861372
0.0910658 0.113451 0.106981
0.377661 0.0635996 0.053666
0.5664 0.0449378 0.0339361
0.702937 0.0743267 0.0613565
0.707103 0.060853 0.0668193
0.70695 0.0630503 0.0660868
0.707179 0.0666667 0.0644541
0.0297246 0.370977 0.207645
0.0287175 0.363119 0.186053
0.0265202 0.356542 0.126116
0.275227 0.358328 0.0766766
0.625711 0.328008 0.112551
0.757122 0.273701 0.101015
0.730678 0.142382 0.0678721
0.730999 0.140597 0.0668498
0.745907 0.190723 0.0802472
0.0943465 0.686687 0.446555
0.0868696 0.684932 0.419486
0.0827955 0.679377 0.352621
0.146029 0.654994 0.252644
0.52697 0.617533 0.145342
0.785397 0.645151 0.191104
0.801724 0.625544 0.17937
0.799466 0.612726 0.177676
0.797574 0.600183 0.177157
0.217197 0.880522 0.626154
0.204791 0.882338 0.606226
0.18941 0.881514 0.557595
0.184405 0.868391 0.491646
0.448447 0.770413 0.268391
0.724514 0.791074 0.271565
0.8177 0.793347 0.326802
0.819883 0.78793 0.31078
0.819593 0.77937 0.298238
0.259663 0.887602 0.655802
0.252491 0.884718 0.631891
0.228885 0.877989 0.572641
0.211429 0.857527 0.465888
0.339971 0.7906 0.285557
0.647593 0.775662 0.278462
0.787228 0.788418 0.304006
0.81886 0.794354 0.330037
0.818647 0.794415 0.331792
0.261967 0.889464 0.66479
0.260166 0.884688 0.639567
0.239567 0.876295 0.58027
0.245487 0.845243 0.448859
0.302556 0.803281 0.324681
0.606058 0.76788 0.287404
0.762356 0.798306 0.28101
0.819532 0.794339 0.324254
0.819165 0.794522 0.32697
0.259495 0.890059 0.662516
0.257801 0.885161 0.638575
0.241672 0.878309 0.588479
0.242664 0.847425 0.453407
0.262333 0.835966 0.424628
0.557565 0.763546 0.291371
0.701015 0.786542 0.270863
0.807218 0.791165 0.313176
0.819089 0.794644 0.32665
0.019501 0.0782483 0.34638
0.0506294 0.0713817 0.352819
0.167666 0.0372168 0.34342
0.399924 0.029633 0.352071
0.648066 0.0519722 0.439628
0.712016 0.0641642 0.449516
0.714153 0.0658122 0.362631
0.719234 0.047425 0.231754
0.711696 0.0354925 0.0911116
0.0194705 0.0784314 0.333486
0.019379 0.0759594 0.341283
0.115068 0.0410315 0.345785
0.378195 0.0291905 0.333669
0.634256 0.0485542 0.408682
0.711055 0.0663157 0.402548
0.7178 0.0509499 0.268864
0.717311 0.0426032 0.185092
0.71133 0.035111 0.0882887
0.0196994 0.0999466 0.267674
0.0194705 0.0905318 0.28719
0.0390326 0.0695964 0.335271
0.338308 0.0278325 0.305211
0.604318 0.0432593 0.352392
0.714885 0.0586404 0.326421
0.717876 0.0436561 0.192615
0.711467 0.0369726 0.100908
0.708263 0.0339055 0.0731975
0.0193027 0.357687 0.289631
0.0195621 0.352178 0.286656
0.0192111 0.340841 0.276631
0.382803 0.387167 0.356008
0.681682 0.328435 0.301015
0.771435 0.261234 0.178912
0.724651 0.129564 0.0642252
0.709331 0.0951095 0.0537728
0.736721 0.152728 0.0694285
0.06009 0.679255 0.511986
0.0544137 0.676432 0.502113
0.0575418 0.663691 0.473365
0.0981613 0.655192 0.407446
0.545251 0.607156 0.225269
0.801984 0.620142 0.274571
0.799771 0.615228 0.17792
0.796872 0.598459 0.175448
0.795697 0.588403 0.174014
0.179797 0.886137 0.70013
0.178805 0.885527 0.688624
0.189395 0.879911 0.659113
0.189914 0.873655 0.581704
0.356847 0.788525 0.317845
0.73225 0.787137 0.289998
0.818341 0.789517 0.319142
0.82002 0.781826 0.300877
0.819013 0.769558 0.286641
0.260533 0.905104 0.7411
0.24036 0.906844 0.727047
0.240467 0.899168 0.692653
0.229679 0.88217 0.597925
0.296361 0.81738 0.381353
0.643839 0.774563 0.284871
0.783612 0.788891 0.302892
0.818692 0.794308 0.331579
0.818524 0.794339 0.333822
0.314076 0.898054 0.745434
0.278859 0.902129 0.730114
0.255833 0.897414 0.693446
0.246418 0.878935 0.598047
0.276265 0.824704 0.395727
0.5944 0.76553 0.289219
0.746883 0.795712 0.27538
0.819425 0.794308 0.323293
0.819242 0.794568 0.326909
0.285115 0.902159 0.735058
0.260456 0.901686 0.717342
0.255375 0.895506 0.684215
0.247227 0.879606 0.601785
0.244221 0.84596 0.450278
0.498619 0.764843 0.276265
0.670146 0.78024 0.27393
0.800397 0.789822 0.310506
0.81912 0.794644 0.326665
0.0588083 0.126314 0.576135
0.141619 0.114656 0.582559
0.261784 0.0524147 0.572427
0.463188 0.0757916 0.594263
0.677699 0.0928817 0.640513
0.737942 0.121614 0.685237
0.734112 0.106386 0.707683
0.734844 0.114137 0.69218
0.73135 0.0821698 0.595956
0.0197604 0.126696 0.560708
0.0639506 0.12459 0.573175
0.205936 0.054902 0.574029
0.436057 0.0689708 0.584939
0.667002 0.0895857 0.628702
0.743832 0.120317 0.676005
0.734859 0.112688 0.695781
0.742214 0.119692 0.674907
0.72192 0.0676738 0.547372
0.0191806 0.118242 0.515648
0.0194553 0.123049 0.542824
0.127932 0.114015 0.573907
0.38085 0.0554665 0.56495
0.64358 0.0822461 0.605066
0.74284 0.113893 0.649653
0.744411 0.11809 0.670527
0.735698 0.0972305 0.621286
0.719326 0.0677195 0.519341
0.0195926 0.327962 0.517082
0.0193484 0.31606 0.525154
0.0194095 0.293111 0.532372
0.319692 0.187854 0.643091
0.672221 0.187121 0.635935
0.757717 0.129534 0.625605
0.73051 0.0846113 0.579736
0.720119 0.0711681 0.529229
0.714473 0.0688792 0.424704
0.0700389 0.665858 0.592416
0.064332 0.662501 0.590051
0.0623331 0.655222 0.582818
0.0798962 0.645441 0.576669
0.662196 0.657023 0.629175
0.85481 0.63151 0.604456
0.837522 0.600519 0.533288
0.824338 0.587381 0.480369
0.803815 0.559701 0.351293
0.170275 0.876493 0.759976
0.16376 0.877485 0.757397
0.158007 0.874708 0.744457
0.151965 0.869871 0.718151
0.501534 0.826963 0.662272
0.751385 0.803952 0.558267
0.847257 0.804456 0.589975
0.82977 0.784131 0.49369
0.816999 0.758923 0.376425
0.421851 0.891112 0.795636
0.388083 0.89514 0.791989
0.335424 0.899763 0.783108
0.240101 0.910979 0.761868
0.400366 0.875425 0.689357
0.675975 0.829923 0.59794
0.799725 0.808743 0.492378
0.817807 0.794629 0.35407
0.818555 0.794354 0.334813
0.511223 0.887419 0.805615
0.488243 0.888395 0.800107
0.4495 0.889754 0.789395
0.352224 0.895338 0.760235
0.318929 0.885023 0.684153
0.617929 0.827298 0.584375
0.757397 0.802152 0.437797
0.817334 0.79411 0.326146
0.819013 0.794461 0.326772
0.479454 0.888228 0.797314
0.454307 0.889128 0.790005
0.412482 0.891264 0.778561
0.312917 0.899367 0.747433
0.261738 0.884733 0.643397
0.472084 0.805417 0.477668
0.698695 0.784558 0.355764
0.796155 0.788876 0.311254
0.818906 0.794507 0.326726
0.2439 0.12163 0.727001
0.270466 0.0780804 0.7205
0.379782 0.0814374 0.728511
0.538323 0.101137 0.749462
0.713176 0.120272 0.784405
0.748806 0.122393 0.799512
0.745129 0.119493 0.799619
0.746593 0.120745 0.800717
0.743709 0.117372 0.798154
0.210407 0.15819 0.725093
0.243656 0.118349 0.725567
0.339635 0.0808118 0.725338
0.511452 0.0935073 0.742428
0.70222 0.120012 0.781277
0.748592 0.121935 0.797192
0.74377 0.1178 0.798352
0.744564 0.119188 0.799298
0.741436 0.11342 0.793729
0.181064 0.162203 0.718914
0.183444 0.161837 0.719219
0.247379 0.0898909 0.7196
0.45034 0.0801862 0.729442
0.678828 0.120531 0.773678
0.748074 0.120729 0.792157
0.741161 0.112795 0.791455
0.741314 0.113436 0.791882
0.738308 0.107454 0.774868
0.0197757 0.280858 0.672236
0.0194553 0.253513 0.669261
0.0194553 0.217548 0.667338
0.340734 0.0992905 0.734478
0.64509 0.147158 0.772778
0.751842 0.124208 0.780255
0.74377 0.115297 0.780728
0.742046 0.112825 0.779858
0.736721 0.10251 0.748211
0.0209049 0.649058 0.721904
0.0210269 0.642466 0.723278
0.0209812 0.629892 0.725475
0.0209506 0.617487 0.739086
0.66244 0.575372 0.848142
0.864454 0.573678 0.834974
0.856336 0.527977 0.830259
0.844541 0.480735 0.810208
0.818936 0.376532 0.750454
0.193149 0.864851 0.803464
0.18854 0.864286 0.802884
0.183536 0.861112 0.798886
0.176165 0.855589 0.793286
0.526741 0.826688 0.78233
0.823774 0.831006 0.810162
0.895659 0.817258 0.796094
0.886229 0.799741 0.770855
0.875639 0.781994 0.725872
0.491035 0.888594 0.822049
0.472267 0.889937 0.820615
0.446418 0.89015 0.816907
0.401389 0.891859 0.810452
0.53817 0.881575 0.802487
0.77438 0.888991 0.817197
0.860838 0.890898 0.791043
0.891997 0.887877 0.797192
0.886473 0.878035 0.776318
0.619257 0.889265 0.833738
0.606699 0.890349 0.832746
0.592523 0.889204 0.828626
0.56611 0.888518 0.821256
0.552193 0.887694 0.810636
0.740398 0.895171 0.816159
0.834684 0.895201 0.799847
0.872923 0.880949 0.756817
0.871366 0.87071 0.727291
0.598856 0.889067 0.829374
0.587701 0.889082 0.8271
0.571481 0.888624 0.822904
0.540887 0.888182 0.814755
0.46389 0.889128 0.793347
0.639933 0.885222 0.784909
0.787045 0.879118 0.76408
0.846036 0.866712 0.70988
0.849531 0.843626 0.634333
0.476448 0.115755 0.769802
0.487877 0.110979 0.766903
0.549859 0.130602 0.782101
0.663035 0.180484 0.805753
0.767636 0.175341 0.822812
0.771008 0.160525 0.821653
0.76112 0.141268 0.813886
0.771954 0.162448 0.822278
0.775158 0.170687 0.824491
0.459037 0.116243 0.769039
0.466239 0.108919 0.764401
0.520546 0.118196 0.773693
0.640879 0.167865 0.80209
0.761593 0.171267 0.821408
0.768673 0.155291 0.819501
0.760479 0.139544 0.813184
0.765362 0.147997 0.816617
0.761456 0.141802 0.814099
0.430365 0.107332 0.760525
0.427802 0.10605 0.759258
0.460761 0.101427 0.758129
0.58735 0.13933 0.787793
0.742367 0.164858 0.815976
0.76524 0.147616 0.816556
0.75938 0.13724 0.811795
0.760235 0.138949 0.81265
0.759716 0.137621 0.8121
0.33518 0.211261 0.793988
0.365057 0.168353 0.790219
0.384848 0.14255 0.779156
0.506828 0.12781 0.776532
0.700557 0.173892 0.808423
0.763424 0.144976 0.815305
0.755871 0.132677 0.808637
0.755962 0.132784 0.808713
0.754879 0.13135 0.807614
0.021149 0.663127 0.789837
0.0252232 0.656992 0.794736
0.0598001 0.647272 0.804623
0.25156 0.629923 0.825681
0.722072 0.563745 0.879133
0.859358 0.563058 0.883162
0.852537 0.527855 0.875685
0.843442 0.492287 0.868742
0.828504 0.423682 0.859236
0.2448 0.848798 0.837751
0.23856 0.84651 0.837827
0.222766 0.843076 0.83827
0.21091 0.834211 0.838254
0.529274 0.811719 0.843183
0.828565 0.801495 0.898131
0.903593 0.796078 0.885283
0.901411 0.781903 0.884993
0.899077 0.746822 0.874952
0.525444 0.886809 0.836728
0.509728 0.887068 0.836362
0.488624 0.886549 0.83505
0.45948 0.886046 0.83386
0.555566 0.88014 0.832731
0.785046 0.888258 0.85359
0.888838 0.902373 0.878782
0.911696 0.898253 0.873518
0.905303 0.884123 0.857893
0.67071 0.894621 0.849485
0.661707 0.894316 0.848127
0.651728 0.893202 0.845747
0.634516 0.892103 0.841993
0.622705 0.891539 0.837736
0.785306 0.906447 0.859144
0.873899 0.922499 0.883345
0.905821 0.924163 0.874907
0.910475 0.923186 0.874937
0.661845 0.894194 0.847395
0.656046 0.893797 0.846082
0.64921 0.89308 0.84416
0.636011 0.891905 0.840513
0.610071 0.89044 0.833509
0.725475 0.897368 0.842817
0.844678 0.917174 0.871702
0.8925 0.921981 0.868605
0.907927 0.920775 0.860487
0.590219 0.217731 0.814145
0.609613 0.228046 0.816587
0.653101 0.249454 0.821973
0.732296 0.276539 0.83125
0.801648 0.289982 0.842344
0.797925 0.273472 0.83949
0.783932 0.209964 0.830533
0.783932 0.209964 0.830533
0.783932 0.209964 0.830533
0.571984 0.208087 0.81149
0.592065 0.218601 0.814343
0.634394 0.240757 0.820203
0.718349 0.27509 0.829801
0.798337 0.288029 0.841138
0.799039 0.278782 0.840558
0.783932 0.209964 0.830533
0.783932 0.209964 0.830533
0.783917 0.209964 0.830488
0.553903 0.19881 0.808469
0.55845 0.201053 0.808713
0.598169 0.222416 0.814649
0.688823 0.266712 0.826703
0.790402 0.284962 0.839551
0.800748 0.286275 0.841718
0.783932 0.209964 0.830533
0.783932 0.209964 0.830533
0.783932 0.209964 0.830533
0.566339 0.270756 0.822965
0.56173 0.240894 0.817746
0.557366 0.217212 0.812909
0.636469 0.247807 0.821225
0.763195 0.279988 0.835172
0.801801 0.292851 0.842191
0.784314 0.21236 0.830793
0.783932 0.209964 0.830533
0.783932 0.209964 0.830533
0.468482 0.66363 0.846174
0.495995 0.654414 0.850706
0.51043 0.634028 0.854093
0.580377 0.60557 0.871733
0.78117 0.581964 0.883375
0.864347 0.581125 0.885969
0.860533 0.563302 0.883024
0.855665 0.538109 0.878508
0.847333 0.503471 0.873228
0.468864 0.836423 0.84712
0.468452 0.834043 0.847074
0.471809 0.829419 0.847318
0.480186 0.819913 0.846418
0.613596 0.812146 0.85687
0.850813 0.797269 0.905287
0.900923 0.791806 0.900298
0.899107 0.780118 0.90074
0.895949 0.756039 0.901473
0.614176 0.885176 0.851118
0.605524 0.883803 0.849897
0.597513 0.881987 0.849973
0.590143 0.878462 0.850095
0.634516 0.875837 0.853513
0.784527 0.882216 0.873137
0.891249 0.891722 0.901427
0.912947 0.890761 0.901427
0.911681 0.882155 0.898711
0.703151 0.896819 0.857847
0.694682 0.896178 0.856641
0.684077 0.895811 0.854673
0.6701 0.895308 0.853239
0.658351 0.89424 0.851362
0.788647 0.906844 0.870695
0.880629 0.920729 0.896696
0.912779 0.92607 0.90428
0.91696 0.92462 0.902266
0.709804 0.896483 0.857328
0.703777 0.896849 0.856931
0.699077 0.896208 0.855406
0.691875 0.896132 0.854154
0.677882 0.895094 0.850645
0.763745 0.903746 0.862654
0.867521 0.922972 0.89398
0.907881 0.930129 0.904143
0.916991 0.931014 0.902937
0.595178 0.220752 0.814618
0.614359 0.230793 0.817029
0.657572 0.251865 0.822675
0.734874 0.276997 0.831647
0.801572 0.290364 0.842222
0.797574 0.27187 0.839307
0.783932 0.209964 0.830533
0.783932 0.209964 0.830533
0.783932 0.209964 0.830533
0.577157 0.210849 0.812497
0.596872 0.221637 0.814649
0.637995 0.242313 0.820523
0.720668 0.275441 0.830014
0.799329 0.288487 0.841535
0.798917 0.277272 0.840406
0.783932 0.209964 0.830533
0.783932 0.209964 0.830533
0.783902 0.209964 0.830472
0.553903 0.19881 0.808469
0.563592 0.203906 0.809674
0.602991 0.224369 0.815946
0.692256 0.268696 0.827237
0.790997 0.285283 0.839811
0.800626 0.285939 0.841611
0.783932 0.209964 0.830533
0.783932 0.209964 0.830533
0.783932 0.209964 0.830533
0.56051 0.231022 0.815717
0.555413 0.207462 0.810132
0.554131 0.200473 0.808698
0.634623 0.240864 0.820249
0.761776 0.279805 0.835218
0.801953 0.293172 0.842313
0.784558 0.213321 0.830976
0.783932 0.209964 0.830533
0.783932 0.209964 0.830533
0.512322 0.63209 0.855543
0.522545 0.617121 0.858396
0.539696 0.590768 0.863279
0.595468 0.557061 0.873274
0.772381 0.541222 0.872999
0.855955 0.538094 0.878676
0.850202 0.517906 0.875044
0.842847 0.48574 0.86923
0.832547 0.441962 0.861738
0.508995 0.830701 0.848447
0.502403 0.826886 0.847959
0.491127 0.819684 0.847074
0.473274 0.806882 0.845914
0.610254 0.795514 0.857862
0.852796 0.778378 0.905318
0.898253 0.772824 0.90103
0.896071 0.761593 0.900633
0.893843 0.738506 0.901823
0.648356 0.884382 0.854093
0.64361 0.882322 0.8533
0.636133 0.879835 0.85333
0.622721 0.875196 0.85304
0.649943 0.87187 0.855985
0.781598 0.877119 0.873411
0.89395 0.884092 0.901503
0.911421 0.882658 0.902358
0.91078 0.874128 0.901411
0.713619 0.89778 0.860151
0.709072 0.897246 0.85919
0.703075 0.896819 0.858701
0.695445 0.896071 0.857755
0.687755 0.89575 0.856916
0.793011 0.905547 0.875288
0.877958 0.918471 0.899886
0.912764 0.923079 0.908309
0.91696 0.922576 0.907958
0.731853 0.898833 0.861738
0.730541 0.899229 0.861494
0.73051 0.899245 0.861494
0.73051 0.899245 0.861494
0.73051 0.899245 0.861494
0.786969 0.907774 0.874083
0.869886 0.923064 0.898451
0.909987 0.930282 0.909438
0.919142 0.932799 0.911589
