bundles/resolve-cinematic-luts/Phantom Luts/Ursa G2 Phntm Film LUTs - V1/Gen5/Standard (No WB Offset)/Ursa G2 VisionTeal Legacy Gen5.cube
TITLE "Generated by Resolve"
LUT_3D_SIZE 9
0.022385 0.0343328 0.0323491
0.0252079 0.0344396 0.0334325
0.0836652 0.0293889 0.029572
0.252811 0.0198367 0.0276493
0.484291 0.0120546 0.0332799
0.636011 0.0235142 0.0614939
0.639597 0.0271153 0.101656
0.639704 0.0271 0.102205
0.640375 0.0270237 0.10631
0.0217441 0.0484016 0.0379034
0.0264134 0.047013 0.0359197
0.0830854 0.0420691 0.0352026
0.255467 0.0224613 0.0222629
0.48246 0.0121004 0.0271458
0.635493 0.0235599 0.0614786
0.638682 0.0262455 0.0915236
0.638392 0.0256046 0.0869306
0.639368 0.02533 0.0893721
0.0235904 0.108965 0.0526131
0.0226596 0.106081 0.0499733
0.0775311 0.105852 0.0478676
0.292683 0.0735943 0.0370489
0.523964 0.0364538 0.0283513
0.640269 0.0343938 0.0519417
0.63679 0.0236973 0.063859
0.636484 0.0234836 0.0610056
0.636561 0.0231632 0.0579995
0.0767529 0.320272 0.116396
0.0803082 0.319875 0.114168
0.0938888 0.308019 0.0998856
0.265003 0.338262 0.0843214
0.612772 0.364599 0.110246
0.753811 0.306477 0.122805
0.721965 0.155444 0.0827192
0.726345 0.171466 0.0884565
0.73756 0.216663 0.0957656
0.216129 0.653086 0.321935
0.244221 0.652873 0.310842
0.239322 0.644831 0.305348
0.327581 0.619486 0.229908
0.5682 0.655482 0.19884
0.807858 0.702251 0.209705
0.811551 0.685359 0.197559
0.809476 0.666636 0.184863
0.805371 0.634592 0.171252
0.247028 0.842634 0.488304
0.303349 0.821103 0.456611
0.321798 0.810376 0.439277
0.363958 0.786435 0.395987
0.566308 0.749157 0.305364
0.759152 0.784161 0.282734
0.818524 0.777935 0.301015
0.818494 0.77792 0.300282
0.818601 0.777859 0.299626
0.249149 0.846372 0.50045
0.320623 0.812985 0.446479
0.374487 0.779629 0.384131
0.379492 0.776776 0.378485
0.542168 0.74725 0.308766
0.702632 0.776486 0.273762
0.814801 0.776165 0.298268
0.818341 0.77792 0.299657
0.81828 0.777935 0.299641
0.250492 0.851667 0.51928
0.293263 0.826322 0.468299
0.376913 0.777554 0.382559
0.377325 0.777218 0.382315
0.505089 0.745525 0.306401
0.66598 0.767071 0.28397
0.79852 0.768215 0.294362
0.818296 0.777813 0.300069
0.818036 0.777859 0.299916
0.244587 0.85536 0.530694
0.26154 0.840101 0.485466
0.368856 0.783841 0.393957
0.376593 0.777783 0.382742
0.432013 0.754269 0.326467
0.626902 0.758556 0.294026
0.75462 0.777646 0.285512
0.818402 0.777905 0.299596
0.818158 0.777966 0.299565
0.0221714 0.0351415 0.0427253
0.0293431 0.036286 0.0480812
0.0996109 0.0322728 0.0501259
0.288685 0.021561 0.0401617
0.52755 0.0145418 0.0430304
0.637201 0.0238499 0.0713512
0.640253 0.027451 0.10811
0.640345 0.0274662 0.109026
0.640986 0.0274815 0.112566
0.0221561 0.04477 0.0412299
0.024445 0.0448768 0.04271
0.0897841 0.0364385 0.0388952
0.253651 0.0195163 0.031342
0.481453 0.0127413 0.0363928
0.636515 0.0236362 0.0676432
0.639887 0.0271153 0.104875
0.639719 0.0264439 0.0968795
0.639582 0.0253758 0.0910506
0.0211032 0.100282 0.0610056
0.0204166 0.100389 0.0521248
0.0698863 0.0993362 0.0468757
0.286656 0.0626535 0.0350347
0.514199 0.0302129 0.0287633
0.639872 0.0340124 0.0516976
0.637385 0.0238499 0.0685283
0.637095 0.0236667 0.0656901
0.636881 0.0231479 0.0621347
0.0393835 0.305501 0.11931
0.0603952 0.302846 0.111238
0.0829633 0.298451 0.101289
0.25388 0.326467 0.0813306
0.626291 0.3299 0.117144
0.747967 0.269703 0.109621
0.706905 0.130877 0.0777905
0.720119 0.152651 0.0839246
0.73283 0.189349 0.0906386
0.125826 0.656001 0.339834
0.18938 0.642771 0.320455
0.231739 0.634134 0.298939
0.306264 0.617014 0.240101
0.559731 0.646082 0.193515
0.808728 0.692805 0.200946
0.809873 0.6663 0.184161
0.806607 0.644785 0.174609
0.800092 0.609888 0.168872
0.232273 0.855177 0.527489
0.239841 0.847562 0.4963
0.322377 0.810056 0.438926
0.35108 0.7935 0.410712
0.557565 0.748592 0.307759
0.758038 0.785901 0.279515
0.818402 0.777951 0.301427
0.818448 0.77792 0.300145
0.818494 0.777722 0.299351
0.239765 0.858854 0.546349
0.242283 0.850828 0.508217
0.360235 0.788998 0.403723
0.368185 0.784085 0.393515
0.52256 0.747417 0.310033
0.697993 0.775341 0.27509
0.813672 0.775555 0.297627
0.818311 0.77792 0.299657
0.81825 0.77792 0.299657
0.235904 0.862608 0.560479
0.24889 0.852796 0.524361
0.345998 0.797986 0.422309
0.377356 0.777188 0.382269
0.487984 0.746654 0.309178
0.659632 0.765499 0.286458
0.794705 0.768322 0.29305
0.818311 0.777798 0.300084
0.818067 0.777859 0.299886
0.230121 0.865782 0.567071
0.243809 0.855695 0.534127
0.309651 0.819699 0.457191
0.376623 0.777752 0.382727
0.41529 0.759121 0.337835
0.61854 0.757092 0.29514
0.754711 0.786114 0.275685
0.818402 0.777905 0.299565
0.818158 0.777966 0.299565
0.0212406 0.0439765 0.102907
0.0369726 0.0420081 0.105425
0.106157 0.0363317 0.104112
0.297597 0.0255589 0.105623
0.551202 0.0191043 0.114214
0.63798 0.0245365 0.0789807
0.640116 0.0272679 0.106462
0.64033 0.0274052 0.108476
0.64097 0.0275578 0.114733
0.0217288 0.0419928 0.0780804
0.0214694 0.0429084 0.0991379
0.0890974 0.0356603 0.0957809
0.281193 0.0246128 0.0868696
0.541863 0.0172122 0.0885786
0.637598 0.0243076 0.0766613
0.640177 0.0274357 0.108095
0.640406 0.0274662 0.109712
0.641001 0.0274815 0.112947
0.0203861 0.0954757 0.0802167
0.0204166 0.0931411 0.0797436
0.0762798 0.0995346 0.093843
0.295338 0.0579995 0.0610208
0.514534 0.014374 0.0308537
0.635966 0.0230411 0.0555276
0.637736 0.0241703 0.0735943
0.637491 0.0239261 0.0707561
0.637354 0.0234836 0.0669718
0.0319982 0.285206 0.149477
0.0300755 0.278843 0.134966
0.0331731 0.275715 0.106188
0.243397 0.305013 0.0816052
0.634272 0.277363 0.109514
0.741909 0.236622 0.0999466
0.698039 0.11487 0.0770733
0.696208 0.102907 0.0659037
0.726574 0.160388 0.0869001
0.0923323 0.634638 0.378332
0.094667 0.631846 0.35613
0.152956 0.619303 0.309621
0.277073 0.606317 0.246647
0.549081 0.629816 0.181018
0.809339 0.675837 0.187991
0.80499 0.636728 0.170169
0.80148 0.614481 0.167865
0.79736 0.597848 0.169665
0.205478 0.870573 0.581872
0.211185 0.866484 0.558984
0.232898 0.851118 0.503456
0.329274 0.806653 0.433387
0.534401 0.747082 0.307088
0.756313 0.787564 0.275608
0.818433 0.777951 0.301167
0.818448 0.77792 0.299947
0.818387 0.777066 0.297841
0.232273 0.873411 0.613916
0.222431 0.870527 0.585794
0.246159 0.853254 0.523033
0.359579 0.789059 0.40354
0.486503 0.748135 0.311406
0.68925 0.772732 0.276722
0.811902 0.774594 0.2972
0.81828 0.77792 0.299702
0.818219 0.77792 0.299809
0.238743 0.874342 0.624384
0.228458 0.871763 0.596033
0.247044 0.85388 0.531975
0.377401 0.777157 0.382239
0.45301 0.749203 0.312245
0.650248 0.763485 0.287892
0.787854 0.769696 0.291035
0.818372 0.777798 0.300069
0.818158 0.777874 0.299809
0.233951 0.875608 0.622141
0.226749 0.871809 0.593439
0.242786 0.85658 0.539879
0.374334 0.779309 0.385306
0.39353 0.769757 0.364004
0.604135 0.754345 0.297734
0.743328 0.78613 0.271275
0.818418 0.777905 0.299519
0.818128 0.777966 0.29955
0.0195773 0.0684977 0.279973
0.0466621 0.0639506 0.287694
0.123308 0.041886 0.284291
0.324971 0.03505 0.275044
0.566278 0.0466621 0.321416
0.642222 0.0508736 0.35613
0.644205 0.0438392 0.281926
0.643168 0.0333257 0.190188
0.64094 0.0275883 0.115145
0.0195315 0.0677806 0.267811
0.0194095 0.0670939 0.276753
0.0898146 0.042649 0.28304
0.305882 0.0347448 0.26157
0.546304 0.0398871 0.28748
0.643336 0.0496071 0.318761
0.643671 0.0355383 0.212573
0.643 0.0314488 0.16524
0.64097 0.0275731 0.116182
0.0199435 0.0912337 0.206561
0.0198062 0.0842603 0.225895
0.0402075 0.0654459 0.277806
0.269947 0.0379492 0.239796
0.516701 0.0373083 0.253208
0.644556 0.0401007 0.253758
0.64268 0.0315862 0.165988
0.640421 0.0278935 0.116121
0.64033 0.0268711 0.104646
0.0210422 0.277302 0.219287
0.0190433 0.271061 0.215625
0.0191196 0.260212 0.207752
0.308476 0.320867 0.295308
0.633677 0.272709 0.254826
0.745571 0.218753 0.179278
0.685985 0.0975814 0.0715496
0.669871 0.0690013 0.0536202
0.710246 0.134844 0.0804913
0.0618143 0.620188 0.446265
0.0596017 0.614542 0.435309
0.0654765 0.601251 0.406531
0.0933547 0.593774 0.337591
0.52668 0.587625 0.219364
0.802823 0.607294 0.274601
0.803128 0.622278 0.167712
0.796735 0.59498 0.167803
0.795499 0.582559 0.167834
0.192081 0.88159 0.66598
0.194339 0.880507 0.654185
0.200977 0.874144 0.621408
0.222797 0.859403 0.536446
0.472953 0.752712 0.336828
0.758083 0.78645 0.289769
0.818479 0.777935 0.300557
0.818494 0.77789 0.299733
0.818235 0.775647 0.295262
0.222904 0.897856 0.719081
0.215442 0.894636 0.697826
0.225162 0.883146 0.654566
0.229923 0.860395 0.548058
0.42504 0.761593 0.351156
0.6822 0.771176 0.282948
0.809216 0.773205 0.296376
0.818265 0.77792 0.299855
0.818143 0.777935 0.300206
0.262058 0.894865 0.727977
0.240528 0.893019 0.704555
0.235721 0.882628 0.656764
0.240513 0.85861 0.549264
0.411002 0.76083 0.343664
0.638468 0.760861 0.291218
0.776471 0.774273 0.287037
0.818509 0.777813 0.299947
0.818235 0.77789 0.299733
0.242359 0.894682 0.712444
0.230549 0.890349 0.686748
0.236439 0.879973 0.645731
0.239002 0.859998 0.553597
0.376898 0.777554 0.382574
0.569635 0.748959 0.30399
0.715526 0.779065 0.271611
0.817288 0.77731 0.299214
0.818158 0.777966 0.299565
0.0401312 0.114626 0.51017
0.094377 0.108049 0.512871
0.189059 0.0564736 0.507195
0.381125 0.0652476 0.510796
0.630777 0.0984817 0.563088
0.703792 0.12639 0.615503
0.704402 0.121859 0.637659
0.699672 0.119326 0.601083
0.667521 0.0777447 0.482933
0.0191958 0.114122 0.499519
0.0431373 0.112825 0.50573
0.145159 0.0760967 0.510155
0.354345 0.0599374 0.502892
0.615702 0.0932937 0.549218
0.696651 0.116854 0.593301
0.70367 0.124788 0.61387
0.685817 0.101305 0.556558
0.660761 0.0688182 0.449393
0.0191958 0.105852 0.452796
0.0193484 0.110292 0.478965
0.08542 0.106493 0.503319
0.302327 0.0522621 0.487678
0.58349 0.0818799 0.521279
0.684886 0.101884 0.554009
0.684199 0.100816 0.553597
0.670192 0.0830549 0.500847
0.65536 0.0644236 0.428
0.0188907 0.254124 0.422644
0.0190738 0.245258 0.431022
0.0190433 0.228687 0.43743
0.240726 0.174914 0.558297
0.599054 0.171618 0.54638
0.696559 0.119844 0.522759
0.674296 0.0910201 0.496468
0.659709 0.071519 0.441688
0.646662 0.0570535 0.348562
0.0662242 0.615152 0.540841
0.0612039 0.611154 0.538277
0.0579995 0.602228 0.529747
0.075761 0.591836 0.52372
0.619394 0.612421 0.583841
0.839506 0.595728 0.573831
0.827848 0.587121 0.526421
0.816068 0.577722 0.469306
0.799146 0.557565 0.340475
0.164584 0.886473 0.750103
0.15874 0.886748 0.744442
0.154772 0.88333 0.727962
0.15314 0.87454 0.693416
0.44332 0.82829 0.625376
0.744839 0.798718 0.52015
0.830686 0.805066 0.553109
0.818936 0.792599 0.47953
0.810834 0.772091 0.373419
0.373648 0.892195 0.803281
0.33756 0.896819 0.799115
0.285527 0.901534 0.787396
0.204913 0.906065 0.747707
0.349355 0.866178 0.656275
0.662776 0.81648 0.574365
0.811048 0.79855 0.473869
0.815778 0.778714 0.319127
0.817868 0.777783 0.301259
0.454307 0.887846 0.81326
0.429038 0.889387 0.807446
0.383703 0.891676 0.794568
0.29189 0.89453 0.751354
0.286778 0.872847 0.64918
0.610849 0.815732 0.571283
0.780926 0.794064 0.448402
0.817349 0.777737 0.303181
0.818082 0.777859 0.299916
0.416693 0.889937 0.804456
0.388556 0.891264 0.796033
0.344747 0.892836 0.779919
0.260807 0.896208 0.731121
0.231281 0.871046 0.599725
0.502174 0.788418 0.472633
0.730129 0.782513 0.347478
0.815457 0.776486 0.300008
0.818036 0.777935 0.299672
0.184939 0.159808 0.697246
0.226871 0.139315 0.698009
0.296742 0.0850538 0.696544
0.462928 0.0914168 0.708858
0.680278 0.126909 0.753582
0.720439 0.12517 0.76788
0.718227 0.12253 0.769848
0.719036 0.123766 0.770748
0.717571 0.121569 0.769116
0.13051 0.167452 0.691737
0.186526 0.159106 0.695842
0.252003 0.0833448 0.692943
0.432654 0.0861372 0.703243
0.666972 0.127321 0.749477
0.720333 0.124651 0.765881
0.717418 0.121172 0.768032
0.717708 0.121798 0.768475
0.715358 0.118563 0.7635
0.108827 0.168795 0.685237
0.110399 0.168826 0.685771
0.209308 0.153109 0.695079
0.375357 0.0861067 0.698421
0.636439 0.129702 0.740475
0.719875 0.123308 0.760281
0.714977 0.118379 0.761685
0.715557 0.118914 0.762783
0.712291 0.112551 0.743252
0.0193027 0.245991 0.62414
0.0194247 0.230961 0.633829
0.019379 0.207767 0.640269
0.255573 0.106767 0.70219
0.584085 0.143511 0.734798
0.720882 0.125063 0.744961
0.717144 0.119478 0.749584
0.715084 0.117525 0.748043
0.70898 0.107332 0.708476
0.0209049 0.606149 0.715007
0.020676 0.595376 0.713817
0.0209049 0.578073 0.715251
0.0210422 0.566674 0.733593
0.615564 0.533776 0.845136
0.84593 0.531304 0.830793
0.838544 0.503014 0.828183
0.827497 0.463203 0.8121
0.796658 0.371313 0.740429
0.195438 0.884077 0.818586
0.190234 0.883726 0.818067
0.184085 0.879286 0.813519
0.175921 0.872236 0.805768
0.494606 0.835431 0.788159
0.82153 0.828656 0.807996
0.889342 0.818479 0.800855
0.882643 0.807294 0.78323
0.866987 0.786313 0.72636
0.462486 0.8925 0.833783
0.444816 0.89369 0.832456
0.420523 0.894713 0.829053
0.376867 0.896468 0.821744
0.491447 0.885283 0.808103
0.741344 0.884428 0.81033
0.855177 0.877714 0.771817
0.87512 0.883299 0.792218
0.869505 0.874174 0.769131
0.581827 0.889387 0.842069
0.56791 0.890166 0.840772
0.551293 0.889677 0.836942
0.51873 0.889036 0.829953
0.496147 0.887175 0.817639
0.694362 0.885237 0.810422
0.833951 0.883421 0.790677
0.862577 0.867643 0.74342
0.857786 0.859998 0.717342
0.558389 0.889036 0.83743
0.544625 0.889555 0.835187
0.525856 0.889296 0.831769
0.488899 0.888792 0.823667
0.400015 0.891051 0.800031
0.58146 0.876448 0.773617
0.780362 0.866926 0.749676
0.849363 0.853742 0.69633
0.841138 0.834974 0.627619
0.400763 0.121706 0.74081
0.413703 0.117266 0.738003
0.474922 0.123064 0.746517
0.607401 0.167605 0.772641
0.74049 0.173953 0.793545
0.743969 0.163043 0.792187
0.733654 0.144732 0.783642
0.747555 0.170565 0.794919
0.749233 0.17525 0.796323
0.381384 0.121569 0.739925
0.391318 0.116472 0.73608
0.445441 0.118105 0.740871
0.580346 0.15639 0.767208
0.7337 0.17055 0.791867
0.741222 0.158526 0.789685
0.726665 0.134539 0.777096
0.735271 0.147967 0.784939
0.7355 0.148257 0.784939
0.351644 0.114092 0.732311
0.349783 0.11281 0.731411
0.387121 0.110597 0.731792
0.5205 0.130831 0.752804
0.713115 0.164752 0.785351
0.736492 0.150851 0.78555
0.725643 0.132937 0.776211
0.726909 0.134859 0.777325
0.725795 0.133196 0.776364
0.263233 0.23537 0.756985
0.294713 0.203174 0.752636
0.302159 0.148028 0.749844
0.434226 0.130343 0.747753
0.660166 0.176089 0.777188
0.735866 0.149081 0.785031
0.724544 0.13077 0.775448
0.72462 0.130846 0.775479
0.724208 0.130404 0.775418
0.0264439 0.618433 0.782238
0.0358587 0.611307 0.78436
0.0545205 0.601175 0.788846
0.212497 0.588525 0.808164
0.69276 0.521004 0.860594
0.84239 0.52163 0.862974
0.832975 0.488441 0.855833
0.82295 0.454047 0.84828
0.807645 0.387717 0.837476
0.290394 0.874403 0.858885
0.28687 0.871534 0.858885
0.27985 0.866911 0.859205
0.269657 0.857588 0.8589
0.512871 0.826596 0.853498
0.834134 0.793011 0.899763
0.894896 0.784527 0.889632
0.893736 0.772488 0.890517
0.891402 0.733959 0.885618
0.503426 0.892836 0.845624
0.488716 0.894286 0.845731
0.470832 0.895064 0.845273
0.445869 0.896056 0.845014
0.528786 0.889845 0.841566
0.767758 0.889525 0.854078
0.886839 0.899763 0.876509
0.898253 0.897658 0.873213
0.895781 0.889693 0.863783
0.641245 0.892119 0.851698
0.631434 0.891951 0.850858
0.621134 0.891783 0.849485
0.603372 0.891096 0.847242
0.590036 0.890974 0.844877
0.7617 0.896025 0.855741
0.867185 0.907454 0.876387
0.894713 0.909102 0.868544
0.894896 0.9093 0.870497
0.630518 0.891859 0.850248
0.624598 0.891752 0.849439
0.616266 0.891249 0.848508
0.601953 0.891157 0.846448
0.572213 0.890227 0.841398
0.687053 0.891829 0.845182
0.832197 0.902998 0.864408
0.886732 0.907973 0.863874
0.892424 0.906935 0.859083
0.51841 0.193393 0.780728
0.54197 0.202564 0.783673
0.593362 0.22237 0.791333
0.700725 0.255741 0.804044
0.778119 0.265629 0.817853
0.775265 0.25594 0.815671
0.759762 0.20856 0.804288
0.759747 0.208576 0.804257
0.759747 0.208576 0.804257
0.497841 0.188098 0.777691
0.520455 0.194339 0.781186
0.571191 0.213016 0.788067
0.680095 0.255375 0.801175
0.777432 0.264134 0.817349
0.775891 0.259007 0.816114
0.759762 0.20856 0.804273
0.759762 0.20856 0.804273
0.759762 0.20856 0.804273
0.477958 0.182528 0.775051
0.484382 0.184405 0.776593
0.529 0.198077 0.7823
0.637339 0.239689 0.796658
0.770901 0.260624 0.81532
0.777813 0.264851 0.81767
0.759747 0.208576 0.804273
0.759747 0.208576 0.804257
0.759747 0.208576 0.804257
0.497032 0.241566 0.794186
0.489219 0.216861 0.78645
0.483482 0.198825 0.780835
0.574517 0.219837 0.790524
0.743023 0.256825 0.810193
0.779034 0.269261 0.818357
0.76022 0.210086 0.804578
0.759762 0.20856 0.804273
0.759762 0.20856 0.804288
0.422324 0.629267 0.830289
0.449943 0.619852 0.835615
0.463371 0.597528 0.839139
0.535119 0.56733 0.854353
0.771191 0.541421 0.863554
0.847898 0.540917 0.867323
0.842557 0.524605 0.863127
0.83653 0.500328 0.858656
0.826856 0.464088 0.850858
0.467033 0.859129 0.856641
0.465995 0.856535 0.856474
0.466835 0.851331 0.856565
0.472541 0.839872 0.855009
0.595956 0.821256 0.856672
0.8598 0.787305 0.89688
0.894499 0.780713 0.894194
0.892989 0.766537 0.895354
0.889708 0.736934 0.895994
0.593057 0.891112 0.849744
0.584909 0.891096 0.849409
0.576928 0.890547 0.849638
0.571557 0.888975 0.849928
0.614023 0.886381 0.852613
0.779721 0.889021 0.867979
0.891142 0.891951 0.886458
0.899779 0.890135 0.885939
0.899794 0.882948 0.885863
0.6813 0.893248 0.854795
0.672267 0.893492 0.85449
0.661341 0.892927 0.853681
0.645335 0.892302 0.852323
0.631388 0.892058 0.851255
0.775021 0.898589 0.864836
0.876936 0.90927 0.885801
0.899092 0.91249 0.889494
0.898939 0.912306 0.889357
0.685588 0.893355 0.855085
0.680873 0.893309 0.85478
0.675822 0.893568 0.854719
0.666438 0.893248 0.854139
0.651499 0.892454 0.852842
0.742351 0.895964 0.859937
0.863752 0.907881 0.88336
0.897444 0.911421 0.889433
0.899184 0.912444 0.889235
0.524315 0.195834 0.781659
0.548104 0.204501 0.784756
0.598367 0.223774 0.792309
0.704341 0.255497 0.804425
0.77821 0.265919 0.817884
0.774823 0.25478 0.815412
0.759762 0.20856 0.804288
0.759747 0.208576 0.804257
0.759747 0.208576 0.804273
0.503548 0.18996 0.778927
0.526574 0.196933 0.781933
0.575296 0.214893 0.789136
0.684688 0.255268 0.80174
0.777646 0.264546 0.817533
0.775723 0.258366 0.816007
0.759762 0.20856 0.804273
0.759762 0.20856 0.804273
0.759747 0.208576 0.804257
0.477958 0.182528 0.775051
0.489647 0.186435 0.777066
0.533608 0.19913 0.782773
0.642451 0.241627 0.797421
0.772122 0.260822 0.815442
0.777722 0.264729 0.817609
0.759747 0.208576 0.804273
0.759747 0.208576 0.804257
0.759747 0.208576 0.804257
0.487526 0.208804 0.783886
0.480919 0.190112 0.777661
0.479149 0.18436 0.776181
0.571618 0.213214 0.788205
0.741497 0.256428 0.809766
0.779065 0.269474 0.818372
0.760693 0.210971 0.804959
0.759762 0.20856 0.804273
0.759762 0.20856 0.804288
0.464866 0.594842 0.839628
0.474403 0.578927 0.841978
0.490349 0.550927 0.845426
0.548302 0.51545 0.853422
0.759091 0.500328 0.85301
0.835904 0.497444 0.858183
0.831128 0.479271 0.854429
0.822232 0.447791 0.848432
0.812161 0.40412 0.840406
0.498894 0.851286 0.856428
0.49308 0.847181 0.855985
0.481743 0.838743 0.854932
0.463661 0.820661 0.85182
0.589746 0.796078 0.853727
0.861784 0.761151 0.89781
0.891829 0.756695 0.895399
0.890578 0.743709 0.896025
0.886976 0.715862 0.895766
0.627329 0.890471 0.851926
0.62266 0.889799 0.851591
0.61471 0.888441 0.85156
0.603922 0.886213 0.851591
0.630365 0.883284 0.853864
0.776089 0.885359 0.868269
0.893172 0.885298 0.886473
0.899748 0.883497 0.886213
0.899367 0.875898 0.886839
0.693172 0.893889 0.855756
0.687892 0.893721 0.855497
0.682185 0.893187 0.854719
0.674922 0.893599 0.854719
0.666117 0.893202 0.854109
0.785672 0.899565 0.866865
0.87718 0.909331 0.885893
0.898741 0.912108 0.889418
0.898329 0.911559 0.889311
0.713603 0.893599 0.856367
0.710872 0.894453 0.856855
0.710781 0.894484 0.85687
0.710781 0.894484 0.85687
0.710781 0.894484 0.85687
0.77792 0.898802 0.865309
0.869261 0.908736 0.884703
0.898573 0.911879 0.889403
0.899184 0.912444 0.889235
