bundles/resolve-cinematic-luts/Phantom Luts/Ursa G2 Phntm Film LUTs - V1/Gen5/Standard (No WB Offset)/Ursa G2 VisionTeal Legacy Gen5.cube
TITLE "Generated by Resolve"
LUT_3D_SIZE 5
0.022385 0.0343328 0.0323491
0.0836652 0.0293889 0.029572
0.484291 0.0120546 0.0332799
0.639597 0.0271153 0.101656
0.640375 0.0270237 0.10631
0.0235904 0.108965 0.0526131
0.0775311 0.105852 0.0478676
0.523964 0.0364538 0.0283513
0.63679 0.0236973 0.063859
0.636561 0.0231632 0.0579995
0.216129 0.653086 0.321935
0.239322 0.644831 0.305348
0.5682 0.655482 0.19884
0.811551 0.685359 0.197559
0.805371 0.634592 0.171252
0.249149 0.846372 0.50045
0.374487 0.779629 0.384131
0.542168 0.74725 0.308766
0.814801 0.776165 0.298268
0.81828 0.777935 0.299641
0.244587 0.85536 0.530694
0.368856 0.783841 0.393957
0.432013 0.754269 0.326467
0.75462 0.777646 0.285512
0.818158 0.777966 0.299565
0.0212406 0.0439765 0.102907
0.106157 0.0363317 0.104112
0.551202 0.0191043 0.114214
0.640116 0.0272679 0.106462
0.64097 0.0275578 0.114733
0.0203861 0.0954757 0.0802167
0.0762798 0.0995346 0.093843
0.514534 0.014374 0.0308537
0.637736 0.0241703 0.0735943
0.637354 0.0234836 0.0669718
0.0923323 0.634638 0.378332
0.152956 0.619303 0.309621
0.549081 0.629816 0.181018
0.80499 0.636728 0.170169
0.79736 0.597848 0.169665
0.232273 0.873411 0.613916
0.246159 0.853254 0.523033
0.486503 0.748135 0.311406
0.811902 0.774594 0.2972
0.818219 0.77792 0.299809
0.233951 0.875608 0.622141
0.242786 0.85658 0.539879
0.39353 0.769757 0.364004
0.743328 0.78613 0.271275
0.818128 0.777966 0.29955
0.0401312 0.114626 0.51017
0.189059 0.0564736 0.507195
0.630777 0.0984817 0.563088
0.704402 0.121859 0.637659
0.667521 0.0777447 0.482933
0.0191958 0.105852 0.452796
0.08542 0.106493 0.503319
0.58349 0.0818799 0.521279
0.684199 0.100816 0.553597
0.65536 0.0644236 0.428
0.0662242 0.615152 0.540841
0.0579995 0.602228 0.529747
0.619394 0.612421 0.583841
0.827848 0.587121 0.526421
0.799146 0.557565 0.340475
0.373648 0.892195 0.803281
0.285527 0.901534 0.787396
0.349355 0.866178 0.656275
0.811048 0.79855 0.473869
0.817868 0.777783 0.301259
0.416693 0.889937 0.804456
0.344747 0.892836 0.779919
0.231281 0.871046 0.599725
0.730129 0.782513 0.347478
0.818036 0.777935 0.299672
0.400763 0.121706 0.74081
0.474922 0.123064 0.746517
0.74049 0.173953 0.793545
0.733654 0.144732 0.783642
0.749233 0.17525 0.796323
0.351644 0.114092 0.732311
0.387121 0.110597 0.731792
0.713115 0.164752 0.785351
0.725643 0.132937 0.776211
0.725795 0.133196 0.776364
0.0264439 0.618433 0.782238
0.0545205 0.601175 0.788846
0.69276 0.521004 0.860594
0.832975 0.488441 0.855833
0.807645 0.387717 0.837476
0.503426 0.892836 0.845624
0.470832 0.895064 0.845273
0.528786 0.889845 0.841566
0.886839 0.899763 0.876509
0.895781 0.889693 0.863783
0.630518 0.891859 0.850248
0.616266 0.891249 0.848508
0.572213 0.890227 0.841398
0.832197 0.902998 0.864408
0.892424 0.906935 0.859083
0.524315 0.195834 0.781659
0.598367 0.223774 0.792309
0.77821 0.265919 0.817884
0.759762 0.20856 0.804288
0.759747 0.208576 0.804273
0.477958 0.182528 0.775051
0.533608 0.19913 0.782773
0.772122 0.260822 0.815442
0.759747 0.208576 0.804273
0.759747 0.208576 0.804257
0.464866 0.594842 0.839628
0.490349 0.550927 0.845426
0.759091 0.500328 0.85301
0.831128 0.479271 0.854429
0.812161 0.40412 0.840406
0.627329 0.890471 0.851926
0.61471 0.888441 0.85156
0.630365 0.883284 0.853864
0.893172 0.885298 0.886473
0.899367 0.875898 0.886839
0.713603 0.893599 0.856367
0.710781 0.894484 0.85687
0.710781 0.894484 0.85687
0.869261 0.908736 0.884703
0.899184 0.912444 0.889235
