bundles/resolve-cinematic-luts/Phantom Luts/Ursa G2 Phntm Film LUTs - V1/Gen5/Standard (No WB Offset)/Ursa G2 Eastman Gen5.cube
TITLE "Generated by Resolve"
LUT_3D_SIZE 5
0.0390021 0.0390021 0.0390021
0.107805 0.0390021 0.0390021
0.420905 0.0571145 0.0390021
0.547021 0.104738 0.0500801
0.523537 0.108782 0.0509651
0.0682841 0.110369 0.0687724
0.106157 0.127108 0.0675364
0.448707 0.0983597 0.0421607
0.530022 0.111376 0.0465553
0.522408 0.112871 0.0467536
0.117632 0.569604 0.266087
0.111162 0.56405 0.248066
0.568917 0.678477 0.195071
0.831174 0.664378 0.234668
0.823651 0.64033 0.223499
0.1991 0.734585 0.440986
0.175998 0.702937 0.372107
0.4851 0.751156 0.25182
0.79939 0.821469 0.319661
0.846952 0.817029 0.356283
0.212558 0.742489 0.462943
0.177371 0.691203 0.330159
0.37673 0.708339 0.207416
0.744671 0.825666 0.293416
0.842649 0.817166 0.354696
0.0390021 0.0390021 0.068864
0.120806 0.0390021 0.0838941
0.449516 0.0390021 0.06009
0.545419 0.0847944 0.064271
0.516594 0.108003 0.0523232
0.0614176 0.0975509 0.0876936
0.116838 0.109239 0.111833
0.461143 0.0872663 0.0471351
0.527062 0.111376 0.0467536
0.518853 0.113787 0.0470741
0.131563 0.592889 0.370413
0.114519 0.566979 0.306416
0.569909 0.661402 0.190082
0.823941 0.631998 0.217884
0.81117 0.600992 0.203998
0.242786 0.791836 0.556786
0.20412 0.744472 0.461616
0.386999 0.711055 0.222736
0.791562 0.824537 0.317067
0.848539 0.816999 0.356649
0.265019 0.80177 0.586252
0.218173 0.749905 0.4636
0.236194 0.675807 0.202808
0.711009 0.822477 0.285557
0.840848 0.817472 0.355581
0.0390021 0.0531777 0.315435
0.199176 0.0430457 0.362081
0.47985 0.0743725 0.37406
0.590524 0.119341 0.444663
0.587594 0.127764 0.468696
0.0390021 0.0517281 0.291035
0.0850538 0.0514534 0.361608
0.479149 0.0767529 0.379828
0.594049 0.116274 0.439811
0.586648 0.123842 0.454994
0.124208 0.597436 0.490913
0.123064 0.594247 0.492119
0.636011 0.658305 0.638437
0.836103 0.569894 0.562081
0.816266 0.54023 0.520821
0.305074 0.824094 0.674571
0.275044 0.815244 0.656245
0.486183 0.811475 0.642252
0.829419 0.878157 0.623392
0.870298 0.853666 0.576623
0.483299 0.859236 0.748196
0.425147 0.84802 0.714427
0.421271 0.818692 0.633738
0.748272 0.862364 0.634287
0.84863 0.830442 0.45745
0.168933 0.0601053 0.470314
0.309697 0.0704814 0.501274
0.536828 0.122377 0.527596
0.621424 0.162387 0.565545
0.620996 0.162036 0.565606
0.146227 0.0612955 0.467094
0.24184 0.0641184 0.492576
0.531441 0.12192 0.532982
0.621958 0.162799 0.566308
0.617655 0.159396 0.56199
0.0997177 0.551934 0.596414
0.095552 0.538888 0.599374
0.630625 0.553994 0.825635
0.898558 0.595361 0.838331
0.895796 0.559152 0.831327
0.352453 0.82739 0.727886
0.321096 0.818402 0.715679
0.577752 0.852323 0.784863
0.866728 0.893355 0.865141
0.9019 0.88452 0.856825
0.614298 0.882689 0.814221
0.595376 0.879332 0.806592
0.644968 0.887358 0.816709
0.853971 0.923568 0.881346
0.905684 0.933181 0.872374
0.575906 0.235386 0.682689
0.64155 0.262913 0.704738
0.779934 0.315984 0.731075
0.773709 0.297948 0.712428
0.725078 0.250492 0.665873
0.535943 0.216999 0.664973
0.590234 0.241901 0.687984
0.769329 0.31191 0.729839
0.775891 0.300496 0.714595
0.724865 0.250584 0.66569
0.398672 0.601465 0.74725
0.425742 0.576638 0.75584
0.812009 0.609277 0.875044
0.901884 0.616083 0.855009
0.900893 0.590478 0.850858
0.552117 0.852461 0.80145
0.542351 0.844327 0.798444
0.651118 0.855009 0.829358
0.881987 0.882658 0.89604
0.90425 0.879362 0.895033
0.691783 0.89688 0.845808
0.677897 0.894652 0.841337
0.703273 0.899443 0.848676
0.870985 0.927565 0.900252
0.910216 0.935714 0.906905
