bundles/resolve-cinematic-luts/Phantom Luts/Ursa G2 Phntm Film LUTs - V1/Gen5/Standard (No WB Offset)/Ursa G2 Eastman RM Gen5.cube
TITLE "Generated by Resolve"
LUT_3D_SIZE 33
0.0426032 0.0360571 0.0393835
0.0427558 0.0358892 0.0391394
0.043061 0.0355535 0.0385748
0.0453651 0.0348058 0.0377356
0.0514534 0.033814 0.0367437
0.0617838 0.032578 0.0359655
0.0792706 0.0312505 0.0350195
0.10515 0.0301061 0.0347906
0.131395 0.0290074 0.0348211
0.161273 0.0271 0.0354467
0.197406 0.025803 0.0363317
0.241093 0.0248264 0.0365759
0.296376 0.0235752 0.0367895
0.35079 0.023682 0.0375067
0.398947 0.0244755 0.0381323
0.442679 0.0254368 0.0388037
0.481163 0.0261845 0.0407874
0.510445 0.0268711 0.0431678
0.530816 0.0280003 0.0463417
0.547066 0.0312352 0.0504005
0.560433 0.0343175 0.0534218
0.572656 0.0363012 0.0565652
0.578668 0.0372778 0.0597391
0.580255 0.0374609 0.0621042
0.582849 0.0377661 0.0667124
0.58584 0.0376898 0.0713054
0.586267 0.0376593 0.0720836
0.586267 0.0376593 0.0720836
0.584344 0.0378882 0.073228
0.578897 0.0384527 0.076997
0.57174 0.0392004 0.0817273
0.558053 0.0407721 0.091722
0.543984 0.0424964 0.103197
0.043061 0.0355688 0.0385901
0.0428931 0.0357366 0.03888
0.043061 0.0355535 0.0385748
0.0446326 0.0349737 0.0377508
0.0489204 0.0340887 0.0368658
0.0568399 0.0331731 0.036347
0.0703136 0.0322118 0.035935
0.0967269 0.0306706 0.0353857
0.127062 0.0291752 0.035111
0.158907 0.0272221 0.0354772
0.194522 0.0258946 0.0365301
0.237232 0.0251164 0.0372473
0.293111 0.0238651 0.0374914
0.349966 0.0238499 0.037995
0.400534 0.0245212 0.0382086
0.445121 0.0254978 0.0389563
0.483116 0.0262303 0.0409094
0.511971 0.0269017 0.0433509
0.532006 0.0281682 0.0466163
0.548135 0.0314946 0.0506447
0.561975 0.0345312 0.0537423
0.573251 0.0363928 0.0567636
0.57882 0.0372931 0.0599527
0.58053 0.0374914 0.062623
0.583001 0.0378119 0.0670787
0.58613 0.0376593 0.0717937
0.586267 0.0376593 0.0720836
0.586267 0.0376593 0.0720836
0.584344 0.0378882 0.073228
0.578897 0.0384527 0.076997
0.57174 0.0392004 0.0817426
0.558022 0.0407874 0.0917372
0.543938 0.0424964 0.103212
0.043061 0.0355535 0.0385901
0.0427405 0.0358892 0.0391394
0.0427558 0.0358892 0.0391394
0.043061 0.0355535 0.0385748
0.0456245 0.0348821 0.037705
0.0513924 0.0342412 0.0370184
0.0626078 0.0331426 0.0364691
0.0814527 0.0318456 0.0361486
0.114199 0.0299992 0.0357519
0.149462 0.027985 0.0359197
0.188754 0.025864 0.0363928
0.231571 0.0252384 0.0373388
0.288212 0.0241245 0.0381933
0.345785 0.024094 0.038941
0.398016 0.0248569 0.039353
0.444297 0.0256962 0.0397192
0.484413 0.0262913 0.0412451
0.513588 0.026978 0.043534
0.53341 0.0283818 0.0468757
0.549294 0.0316625 0.0509041
0.563058 0.0348058 0.0540475
0.573892 0.0365148 0.0569772
0.578943 0.0372931 0.0601205
0.580743 0.0375067 0.0630961
0.583215 0.0378271 0.0674754
0.586267 0.0376593 0.0720836
0.586267 0.0376593 0.0720836
0.586267 0.0376593 0.0720836
0.584344 0.0378882 0.073228
0.578897 0.0384527 0.076997
0.57174 0.0392004 0.0817426
0.557977 0.0407874 0.0917678
0.543908 0.0424964 0.103258
0.0437324 0.0392157 0.0401312
0.0433661 0.0392004 0.0403754
0.0432288 0.0383917 0.0399939
0.0437476 0.0382544 0.0396277
0.0468452 0.0385443 0.0390784
0.0519265 0.0380713 0.0381018
0.061387 0.0372168 0.0374609
0.0782025 0.0352789 0.0370184
0.105867 0.0323949 0.0366522
0.139712 0.0291905 0.0362707
0.181003 0.0265354 0.0365911
0.226307 0.0252995 0.0371099
0.284276 0.0242771 0.0382696
0.342 0.0241855 0.0391852
0.394186 0.0250553 0.0399786
0.440421 0.0259403 0.0405585
0.480339 0.026688 0.0424811
0.510307 0.0273289 0.0448463
0.530526 0.0288853 0.0483253
0.547448 0.0321355 0.0520943
0.562325 0.0352483 0.0550088
0.57351 0.0367285 0.0577096
0.578424 0.0373846 0.0604562
0.580697 0.0375525 0.0636149
0.583474 0.0378271 0.0680247
0.586267 0.0376593 0.0720836
0.586267 0.0376593 0.0720836
0.585672 0.0377203 0.0725261
0.583764 0.0379644 0.073518
0.578668 0.0384833 0.0771649
0.571649 0.0392157 0.0817884
0.557961 0.0407874 0.0917983
0.543862 0.0425116 0.103288
0.04448 0.0466316 0.0419928
0.0438392 0.0469368 0.0425116
0.0435798 0.04654 0.0422065
0.0439002 0.046067 0.0416724
0.0458381 0.0473793 0.0416876
0.0508888 0.0461128 0.0411688
0.0608377 0.0443427 0.0402075
0.0796216 0.0422065 0.0391241
0.107881 0.0379187 0.0381018
0.140322 0.0333562 0.0374914
0.181109 0.028687 0.0373541
0.226444 0.0257725 0.0377356
0.285451 0.0242466 0.0381933
0.341894 0.0241855 0.0391394
0.392935 0.0251011 0.0400702
0.438651 0.0260166 0.0407416
0.477806 0.0267491 0.0422065
0.507225 0.0274815 0.0450599
0.52755 0.0291447 0.049424
0.543175 0.0327001 0.0536812
0.558404 0.0358587 0.056733
0.568597 0.0374914 0.0604257
0.572808 0.0379644 0.0634012
0.574823 0.0382086 0.0667582
0.578378 0.0383001 0.0720531
0.580591 0.0382849 0.0757458
0.580636 0.0382849 0.0757
0.580484 0.0383001 0.0758068
0.580102 0.0383307 0.076112
0.576776 0.0386664 0.0784924
0.571054 0.0392767 0.0822309
0.557946 0.0407874 0.0917983
0.543832 0.0425116 0.103319
0.0452277 0.0563211 0.0441749
0.0444953 0.0568551 0.0449531
0.0440223 0.0565499 0.0444038
0.0441901 0.0558175 0.0434577
0.0453498 0.0565499 0.0433051
0.0488899 0.0579538 0.0433051
0.0596323 0.0562295 0.0432441
0.0794385 0.052018 0.0420996
0.110048 0.0474861 0.040528
0.141573 0.0426642 0.0400549
0.178408 0.0357824 0.0391546
0.227192 0.0289311 0.0392615
0.288151 0.0248417 0.0385443
0.345708 0.0243076 0.0390173
0.395743 0.0250706 0.0397345
0.439948 0.0260014 0.0406195
0.478462 0.0267948 0.0420081
0.5066 0.027451 0.043946
0.526299 0.0290837 0.0476997
0.541985 0.0327306 0.0525673
0.557412 0.0360266 0.0566567
0.568124 0.0377813 0.0611734
0.571267 0.0381018 0.0639811
0.573114 0.0383154 0.0671244
0.576455 0.0385138 0.0729686
0.578698 0.0384527 0.0766003
0.578851 0.0384527 0.0768902
0.578897 0.0384527 0.0769818
0.578897 0.0384527 0.076997
0.576089 0.0387274 0.078996
0.570871 0.039292 0.0823682
0.557946 0.0407874 0.0917983
0.543816 0.0425116 0.103334
0.0462501 0.0728008 0.0475013
0.0453346 0.07364 0.0483558
0.0448615 0.0735332 0.0481575
0.0450599 0.0725719 0.0465858
0.0462806 0.0720226 0.0448615
0.0503395 0.0729534 0.043595
0.0596323 0.074876 0.0434424
0.0890059 0.0708324 0.0429389
0.121477 0.0639353 0.0423133
0.156268 0.0563363 0.04094
0.193866 0.0490578 0.0408942
0.242161 0.0390021 0.0396887
0.299596 0.0298466 0.0388037
0.353124 0.0249943 0.038941
0.402426 0.0255589 0.0395361
0.44535 0.0261692 0.0401465
0.48159 0.0268406 0.0416876
0.507912 0.0274662 0.0437171
0.526741 0.0293431 0.046891
0.541863 0.032929 0.0508278
0.55758 0.0361028 0.0560311
0.5691 0.0379644 0.0607767
0.570809 0.0380865 0.0633249
0.57261 0.0382544 0.0658732
0.574609 0.038407 0.0699626
0.577554 0.0384985 0.0745098
0.57821 0.038468 0.0755322
0.578393 0.038468 0.0758526
0.57847 0.0384527 0.0760204
0.576608 0.0386511 0.0775311
0.57319 0.0390021 0.0801556
0.564996 0.0399329 0.085893
0.55581 0.0410315 0.0925917
0.0518044 0.0931563 0.0492866
0.0491646 0.0946517 0.050248
0.0471962 0.095964 0.0519112
0.0467689 0.0954452 0.0510567
0.047303 0.0945754 0.0487678
0.0500496 0.0945602 0.0453651
0.0583963 0.096849 0.0458534
0.0756237 0.0994125 0.0460212
0.118791 0.0950332 0.0458381
0.161227 0.0863813 0.0459907
0.203662 0.0758831 0.0437324
0.258 0.0614023 0.0432136
0.313695 0.0497292 0.0431678
0.365759 0.0374609 0.0411688
0.410025 0.0297398 0.0408942
0.451118 0.0268101 0.0399634
0.485283 0.0271153 0.0407416
0.51017 0.0275578 0.0426795
0.528099 0.0298314 0.0464179
0.542779 0.033341 0.0503548
0.557839 0.036286 0.0545815
0.568338 0.0379187 0.0592355
0.570184 0.038056 0.0619821
0.571786 0.0381933 0.0644999
0.573358 0.0383764 0.0673228
0.574533 0.038407 0.0694896
0.575357 0.0384985 0.0711376
0.575769 0.0384985 0.0717021
0.575845 0.0385138 0.071809
0.57435 0.0386511 0.0731518
0.571069 0.0390631 0.0762493
0.563104 0.0400244 0.0819867
0.55407 0.0411383 0.0892958
0.0563058 0.118456 0.0539864
0.0527504 0.120439 0.0557412
0.0504616 0.12192 0.0581369
0.049546 0.122057 0.0584115
0.049134 0.120577 0.0554208
0.0500496 0.120104 0.0509194
0.0548409 0.121767 0.0488899
0.0686656 0.124926 0.0495613
0.0978714 0.12903 0.0500191
0.154086 0.123537 0.0500496
0.211276 0.112444 0.0506447
0.272618 0.0953078 0.0471046
0.333104 0.0771344 0.0461585
0.383963 0.0659495 0.0459907
0.425834 0.0561532 0.0461891
0.464012 0.0418555 0.0437171
0.491814 0.0314946 0.0430304
0.512917 0.0305638 0.0437324
0.527214 0.0310826 0.0460975
0.543282 0.0341039 0.049546
0.558801 0.0366674 0.053727
0.56733 0.0377813 0.0559091
0.568917 0.037995 0.059678
0.570871 0.038117 0.0626688
0.572335 0.0382544 0.0649424
0.573129 0.0383459 0.0666056
0.573404 0.0383917 0.0671855
0.573541 0.038407 0.0674449
0.573678 0.0383612 0.0676432
0.572045 0.0385138 0.0691081
0.56846 0.0389715 0.0721141
0.560052 0.0399634 0.0774548
0.551156 0.0410468 0.0831311
0.0615396 0.149493 0.0601816
0.0570382 0.151751 0.0628824
0.0539864 0.153597 0.0649577
0.0527962 0.154665 0.0658427
0.0524758 0.153582 0.064271
0.0535744 0.152132 0.0588998
0.0561532 0.152422 0.0538643
0.0633097 0.154589 0.052018
0.0854963 0.160418 0.0536812
0.124575 0.168124 0.0559548
0.198627 0.161608 0.0551766
0.286046 0.146166 0.0555428
0.353429 0.126986 0.0524758
0.406561 0.108705 0.0498207
0.452598 0.0990921 0.049958
0.491142 0.0894789 0.0509499
0.518547 0.0760967 0.0523537
0.53373 0.0573434 0.0520333
0.538827 0.0434272 0.0511025
0.544884 0.0405737 0.0537118
0.552346 0.0382696 0.0548562
0.560616 0.0387884 0.0567025
0.56173 0.038468 0.0572519
0.56527 0.0384527 0.0614939
0.567605 0.0384833 0.0641031
0.569162 0.0384833 0.0650187
0.56994 0.038468 0.0652171
0.570336 0.0384527 0.0653391
0.570642 0.0384375 0.065507
0.568948 0.0386358 0.0667582
0.565728 0.0388952 0.0688487
0.557794 0.0397955 0.0733349
0.548669 0.0409094 0.0787671
0.0647135 0.188495 0.0664683
0.059205 0.19115 0.0674601
0.0554513 0.193576 0.0696269
0.0541695 0.194858 0.0709239
0.0535134 0.195392 0.0711833
0.0535897 0.192966 0.0669413
0.0545052 0.193118 0.0611582
0.0565652 0.194324 0.055787
0.0669566 0.198032 0.0536355
0.0995804 0.209567 0.055436
0.151843 0.225742 0.0594186
0.266697 0.221515 0.0602884
0.380758 0.210224 0.06421
0.451621 0.190234 0.0663767
0.500511 0.171725 0.0637675
0.539025 0.157626 0.064332
0.574426 0.148348 0.0657664
0.599435 0.138643 0.0710765
0.610071 0.127947 0.0773632
0.602457 0.109453 0.0787518
0.582452 0.0675669 0.0654154
0.56672 0.0487678 0.0619821
0.555673 0.0413519 0.0582437
0.553567 0.0400702 0.0601968
0.554757 0.0396429 0.064744
0.555886 0.0395514 0.067155
0.556283 0.0395209 0.0673686
0.556558 0.0395209 0.0675822
0.556771 0.0395056 0.0678264
0.556512 0.0395514 0.0682689
0.55581 0.0396429 0.0688487
0.551598 0.0401617 0.0712291
0.544945 0.0409705 0.0749218
0.0623789 0.243046 0.0685283
0.0572061 0.246937 0.0699931
0.0533913 0.249638 0.0720836
0.052079 0.251347 0.0721904
0.051545 0.252415 0.0727092
0.0515145 0.251637 0.0708476
0.0518349 0.24979 0.0659495
0.0521706 0.251011 0.0576791
0.0556039 0.253544 0.0523384
0.0717327 0.26183 0.0508583
0.118715 0.282506 0.0555734
0.193957 0.309895 0.0648966
0.347967 0.310307 0.0671855
0.472953 0.30071 0.0731975
0.543526 0.285557 0.0729992
0.597436 0.262821 0.0782025
0.638148 0.24416 0.0802167
0.670863 0.228656 0.0869764
0.697139 0.222156 0.0978561
0.709636 0.213993 0.110002
0.705425 0.195193 0.116197
0.679072 0.165499 0.109102
0.629511 0.121523 0.0907912
0.575952 0.0584878 0.0647898
0.557595 0.0440375 0.0615091
0.551553 0.0400397 0.0639353
0.551507 0.0400397 0.0635996
0.551476 0.0400397 0.0634165
0.551431 0.0400244 0.0638285
0.551324 0.0399939 0.0641337
0.551278 0.0399939 0.0641642
0.548226 0.0403449 0.0652781
0.54226 0.04094 0.068101
0.0611124 0.310826 0.0736095
0.0557259 0.31458 0.0752728
0.0522927 0.317693 0.0780957
0.0509499 0.320256 0.0785077
0.0504616 0.321675 0.079408
0.0506294 0.322148 0.0787213
0.0509041 0.319692 0.0736858
0.0514076 0.318883 0.0658732
0.0523384 0.320455 0.0556497
0.0572519 0.323735 0.0491646
0.0817731 0.335439 0.0475166
0.14168 0.359564 0.0523537
0.2589 0.397772 0.0650645
0.427939 0.399878 0.073991
0.550912 0.390051 0.0866407
0.621927 0.379492 0.0844892
0.674769 0.358511 0.0846265
0.717784 0.334432 0.0939956
0.748211 0.319753 0.105516
0.767376 0.311299 0.118441
0.776898 0.302266 0.128298
0.773114 0.284398 0.130404
0.758206 0.257832 0.128557
0.731517 0.219486 0.124086
0.677623 0.164279 0.108507
0.586084 0.067689 0.0673838
0.587259 0.0716259 0.0670481
0.589441 0.0757153 0.0684672
0.590738 0.0763867 0.0691997
0.591409 0.0761425 0.0697185
0.591806 0.0758068 0.0700389
0.589456 0.0768597 0.0716716
0.584939 0.079408 0.0751812
0.0553292 0.376745 0.0744182
0.0521706 0.380606 0.0777142
0.049897 0.384024 0.0803235
0.048661 0.386297 0.0809033
0.0478981 0.388113 0.0825971
0.0478523 0.388983 0.0831464
0.0479744 0.388861 0.0813458
0.0485847 0.385718 0.0741131
0.0486152 0.387137 0.0647135
0.0493935 0.38764 0.0510109
0.0567788 0.391684 0.0435187
0.0946365 0.40705 0.0426947
0.180484 0.435035 0.0496986
0.341665 0.484764 0.0690471
0.502449 0.484627 0.086244
0.616846 0.474815 0.105074
0.683879 0.467552 0.107012
0.731243 0.453071 0.107546
0.769543 0.431785 0.118441
0.798764 0.415396 0.134615
0.814206 0.40235 0.145937
0.816617 0.38761 0.148226
0.812177 0.371695 0.146273
0.803784 0.349767 0.140429
0.789944 0.317388 0.134997
0.770809 0.279057 0.130846
0.75874 0.258167 0.129152
0.753826 0.250324 0.128511
0.749966 0.243977 0.128038
0.746548 0.238972 0.127718
0.743099 0.234943 0.126741
0.738811 0.233402 0.129671
0.731212 0.233692 0.134981
0.0513008 0.441566 0.0821393
0.0493477 0.444968 0.0876783
0.0481727 0.4486 0.0917525
0.0475166 0.450996 0.0934615
0.0470283 0.45301 0.0966201
0.0469215 0.454292 0.0981155
0.0469215 0.4551 0.0978714
0.0472114 0.453391 0.0915694
0.0476387 0.450568 0.0811627
0.0483406 0.453361 0.0696422
0.0507057 0.452659 0.0513924
0.0670024 0.458228 0.0428779
0.126589 0.475502 0.0433814
0.255909 0.513466 0.0576486
0.427314 0.56556 0.0843977
0.567895 0.563684 0.108125
0.674159 0.552728 0.130571
0.733074 0.546273 0.142519
0.77232 0.53669 0.151583
0.800641 0.527306 0.159075
0.822812 0.514015 0.170321
0.835111 0.496635 0.177478
0.836088 0.483757 0.174823
0.834455 0.468055 0.171969
0.831296 0.445274 0.164691
0.826139 0.42002 0.157031
0.82121 0.401511 0.152712
0.82002 0.397253 0.151232
0.818677 0.394232 0.149126
0.817945 0.392142 0.148226
0.817411 0.39089 0.147601
0.813519 0.391241 0.151583
0.806485 0.392966 0.158434
0.0539712 0.503868 0.118151
0.0521096 0.506859 0.125078
0.050721 0.510445 0.130922
0.0505074 0.513451 0.132006
0.0501411 0.515526 0.1355
0.049897 0.51664 0.137209
0.0499886 0.517739 0.138125
0.0502174 0.517586 0.13521
0.0512551 0.514656 0.121614
0.0524758 0.5131 0.105516
0.0550851 0.5149 0.0877241
0.0662852 0.51487 0.063386
0.108125 0.523201 0.0520638
0.203174 0.543709 0.0546273
0.354925 0.594858 0.0841688
0.503792 0.637339 0.113161
0.628717 0.638956 0.13666
0.72343 0.625879 0.165408
0.776562 0.618524 0.194476
0.808148 0.614649 0.215824
0.828595 0.611795 0.230121
0.842313 0.604578 0.236255
0.84445 0.593378 0.229358
0.843732 0.581247 0.219516
0.842924 0.567346 0.210071
0.84123 0.550195 0.19971
0.839918 0.536675 0.192462
0.841031 0.53344 0.190372
0.840879 0.530678 0.188205
0.840696 0.527764 0.187335
0.840467 0.526024 0.186496
0.837919 0.525704 0.189548
0.832334 0.526772 0.196994
0.0656901 0.561761 0.181155
0.0628977 0.56495 0.188632
0.0613107 0.568689 0.195819
0.0611429 0.571694 0.197452
0.0608225 0.573877 0.198703
0.060853 0.575036 0.201709
0.0610513 0.576181 0.203738
0.0613107 0.576867 0.204364
0.0615702 0.575006 0.195972
0.0626535 0.570825 0.176501
0.0669566 0.569711 0.15433
0.0773022 0.570291 0.124269
0.112978 0.571038 0.0846265
0.189975 0.581628 0.0714733
0.308354 0.615915 0.087602
0.449348 0.669184 0.131792
0.572122 0.70309 0.155779
0.684779 0.710063 0.182315
0.764385 0.69398 0.219623
0.81268 0.68719 0.256626
0.839597 0.687495 0.282551
0.856367 0.68542 0.299763
0.864363 0.677668 0.303532
0.862043 0.670497 0.29604
0.859739 0.662959 0.288563
0.856901 0.654322 0.280644
0.855314 0.64773 0.274983
0.854459 0.644739 0.271839
0.854337 0.642908 0.27068
0.854429 0.641596 0.270176
0.854749 0.640894 0.270237
0.854475 0.640528 0.270924
0.85362 0.640726 0.272923
0.0911574 0.615717 0.259998
0.0901656 0.618143 0.263462
0.0892653 0.621454 0.268605
0.0894026 0.624247 0.270619
0.0893263 0.626032 0.270436
0.0895705 0.627359 0.271778
0.0902266 0.628565 0.274067
0.090959 0.629297 0.275059
0.0913405 0.62884 0.272511
0.09131 0.624979 0.258167
0.0933089 0.620325 0.235889
0.104463 0.618128 0.207248
0.129839 0.61416 0.161395
0.192279 0.616236 0.1178
0.289235 0.639216 0.117906
0.407797 0.68423 0.1552
0.525811 0.731579 0.196262
0.63238 0.760998 0.221393
0.731487 0.771511 0.250568
0.796551 0.758419 0.283543
0.840223 0.753613 0.318517
0.86569 0.754696 0.342901
0.8822 0.751263 0.358404
0.886122 0.744305 0.359762
0.88394 0.737316 0.354406
0.881437 0.730205 0.348394
0.879271 0.723995 0.343267
0.878325 0.721202 0.34078
0.878264 0.720531 0.340444
0.878202 0.720058 0.340169
0.878233 0.72018 0.340246
0.878218 0.72018 0.340215
0.878248 0.720729 0.340459
0.13576 0.661433 0.327169
0.135149 0.663081 0.327764
0.1337 0.665568 0.332448
0.133745 0.667506 0.333989
0.134783 0.669108 0.333684
0.135805 0.669841 0.332067
0.136233 0.670787 0.33373
0.136873 0.671366 0.3346
0.13756 0.671672 0.335012
0.137179 0.669947 0.32813
0.138155 0.664317 0.308888
0.144198 0.658732 0.281773
0.162127 0.654078 0.243793
0.205097 0.648768 0.184756
0.289448 0.662043 0.163821
0.389746 0.696178 0.187579
0.489113 0.739528 0.228183
0.5935 0.78233 0.265187
0.687327 0.808774 0.290303
0.771923 0.820722 0.318746
0.822354 0.812238 0.342885
0.8589 0.807263 0.370001
0.885573 0.805676 0.393408
0.900145 0.802548 0.405844
0.900862 0.798535 0.404166
0.899916 0.79382 0.400366
0.89865 0.788647 0.395972
0.89839 0.786526 0.394705
0.898299 0.786145 0.394354
0.898207 0.785931 0.394141
0.898192 0.785809 0.394064
0.898253 0.78584 0.394156
0.898436 0.78616 0.394553
0.18027 0.694438 0.376043
0.179431 0.695521 0.376806
0.177646 0.697414 0.38088
0.176211 0.69897 0.381506
0.176501 0.699931 0.380056
0.177798 0.700252 0.376104
0.178012 0.700908 0.377584
0.178622 0.701213 0.378332
0.178973 0.701411 0.378637
0.179034 0.701137 0.377066
0.177798 0.697566 0.363592
0.179721 0.692027 0.341375
0.191211 0.685649 0.306981
0.216037 0.678767 0.256077
0.291829 0.681514 0.207416
0.388998 0.709438 0.216938
0.475532 0.746899 0.253773
0.563439 0.787182 0.294606
0.655283 0.823316 0.328054
0.736355 0.846754 0.354086
0.804318 0.858152 0.37882
0.842878 0.853574 0.394919
0.874769 0.847837 0.416083
0.899229 0.84332 0.43508
0.907881 0.839887 0.439475
0.907912 0.837461 0.437583
0.907637 0.834195 0.434806
0.907256 0.832471 0.433402
0.907057 0.831937 0.432761
0.907057 0.831891 0.432746
0.907088 0.831937 0.432837
0.907134 0.832074 0.433051
0.907195 0.832303 0.433295
0.213962 0.718502 0.41149
0.212085 0.71899 0.411582
0.208667 0.720394 0.41442
0.206714 0.721096 0.414481
0.205753 0.721263 0.412253
0.205402 0.720607 0.40647
0.205249 0.720455 0.405325
0.205264 0.720485 0.405432
0.205234 0.72047 0.405478
0.205097 0.720363 0.405371
0.204242 0.718441 0.399023
0.203616 0.713558 0.381399
0.210025 0.706737 0.351583
0.227756 0.697963 0.302785
0.276204 0.693721 0.245594
0.383917 0.71635 0.236027
0.474449 0.753094 0.269581
0.548837 0.788006 0.306966
0.631006 0.824537 0.34406
0.707942 0.852583 0.374228
0.776181 0.869932 0.399802
0.826032 0.877974 0.419028
0.859831 0.871702 0.430594
0.88922 0.865507 0.448386
0.906065 0.864897 0.463142
0.910445 0.864912 0.468406
0.91014 0.864668 0.464836
0.909773 0.863569 0.462593
0.909773 0.863661 0.462531
0.909819 0.863905 0.46273
0.910002 0.863279 0.461173
0.910857 0.862562 0.457969
0.912001 0.861891 0.453727
0.236225 0.728252 0.422309
0.233631 0.727794 0.42089
0.227481 0.72845 0.423713
0.223255 0.728252 0.422873
0.21973 0.727535 0.419699
0.21796 0.725216 0.411841
0.217182 0.724102 0.407492
0.217166 0.724041 0.407248
0.217166 0.724056 0.407279
0.217197 0.724056 0.407279
0.217136 0.72372 0.406149
0.216526 0.720104 0.392172
0.220493 0.714351 0.367285
0.233967 0.705074 0.322164
0.266835 0.696605 0.261601
0.371618 0.714839 0.236454
0.480278 0.757916 0.268574
0.553552 0.791867 0.303777
0.625406 0.82443 0.337179
0.695308 0.850797 0.366522
0.755856 0.868421 0.390936
0.808042 0.878416 0.413138
0.849592 0.879866 0.43125
0.878523 0.871229 0.444434
0.900221 0.868544 0.460807
0.91046 0.868482 0.470466
0.911894 0.868482 0.469993
0.912215 0.868544 0.470161
0.911833 0.868421 0.47013
0.910857 0.868727 0.472999
0.910628 0.868864 0.473884
0.911116 0.868711 0.472236
0.912444 0.868299 0.467918
0.238727 0.732174 0.435279
0.235416 0.73106 0.4327
0.229328 0.73167 0.434562
0.224659 0.730816 0.432197
0.220493 0.729412 0.42742
0.218692 0.726955 0.417838
0.217395 0.724773 0.410117
0.21738 0.724529 0.409247
0.21738 0.724498 0.409171
0.217365 0.724498 0.40911
0.217456 0.724392 0.408606
0.217227 0.722164 0.399741
0.221332 0.717556 0.378241
0.232181 0.708843 0.338491
0.257359 0.698314 0.276539
0.33576 0.705516 0.237217
0.465766 0.751293 0.265324
0.548348 0.789548 0.302647
0.616312 0.820508 0.33344
0.681132 0.845869 0.360372
0.738094 0.863767 0.384054
0.784161 0.874525 0.404425
0.836469 0.882445 0.430716
0.867994 0.873899 0.444892
0.889982 0.868605 0.460227
0.90367 0.868696 0.474266
0.908232 0.8692 0.480507
0.908309 0.869551 0.482475
0.907958 0.86981 0.485451
0.907027 0.8701 0.488136
0.906538 0.870237 0.489937
0.906584 0.870222 0.48983
0.90721 0.870039 0.487724
0.236286 0.738964 0.457069
0.235279 0.736812 0.449821
0.231632 0.73492 0.443626
0.227878 0.733059 0.438209
0.222721 0.730663 0.430549
0.219577 0.727657 0.419654
0.218097 0.724254 0.40708
0.217975 0.723735 0.405173
0.217975 0.72369 0.404929
0.217975 0.723659 0.404746
0.21799 0.723598 0.404425
0.218891 0.722713 0.400458
0.222873 0.71873 0.380362
0.23241 0.710796 0.345998
0.254017 0.699992 0.28542
0.324102 0.704158 0.243732
0.440314 0.740841 0.260365
0.541711 0.786542 0.30399
0.609827 0.817685 0.33312
0.670253 0.84184 0.356786
0.722606 0.85951 0.377478
0.761837 0.869993 0.394659
0.819272 0.880125 0.421485
0.859144 0.876768 0.440955
0.882856 0.869154 0.454978
0.899504 0.868467 0.470512
0.906462 0.868772 0.479622
0.907149 0.869261 0.48333
0.906706 0.869734 0.486732
0.905913 0.869993 0.489799
0.905241 0.870176 0.491844
0.905241 0.870161 0.491829
0.905898 0.869947 0.489738
0.239475 0.741329 0.460914
0.2383 0.738766 0.451865
0.236179 0.735927 0.443763
0.232166 0.733791 0.436271
0.22742 0.730861 0.427375
0.223484 0.727138 0.414298
0.221637 0.722332 0.397177
0.221744 0.721202 0.392432
0.221881 0.72105 0.391714
0.221927 0.721004 0.391409
0.221942 0.720958 0.391241
0.222446 0.720577 0.388937
0.22649 0.716747 0.372
0.234684 0.710246 0.341802
0.255924 0.700252 0.285313
0.323018 0.70425 0.245075
0.431876 0.737575 0.259449
0.533089 0.782589 0.303273
0.602762 0.814542 0.334356
0.656718 0.837049 0.355535
0.704051 0.853849 0.37232
0.742657 0.86508 0.386542
0.806073 0.878386 0.414649
0.851316 0.880598 0.438392
0.876478 0.870222 0.450385
0.894713 0.868376 0.465461
0.90457 0.868254 0.476112
0.906889 0.868788 0.481468
0.906416 0.869291 0.484977
0.905669 0.869673 0.48835
0.905043 0.869841 0.490288
0.904784 0.869917 0.491341
0.904952 0.869856 0.490517
0.242878 0.741756 0.45774
0.241962 0.738689 0.447105
0.239689 0.735225 0.436286
0.236469 0.732006 0.425223
0.231708 0.727916 0.413352
0.227115 0.723568 0.397086
0.226627 0.71812 0.376547
0.227131 0.715633 0.367544
0.227024 0.715557 0.367407
0.226825 0.71577 0.368368
0.226627 0.715984 0.369268
0.227008 0.715755 0.3682
0.230304 0.712856 0.355123
0.239765 0.707057 0.325139
0.259907 0.699245 0.277485
0.328847 0.70486 0.242405
0.435035 0.738399 0.259464
0.528435 0.780423 0.301289
0.594232 0.81088 0.333089
0.636881 0.829236 0.350774
0.682048 0.846326 0.367712
0.731029 0.862135 0.385489
0.794903 0.87657 0.411139
0.843946 0.882383 0.435477
0.870054 0.872572 0.44654
0.890105 0.868132 0.460441
0.902632 0.868009 0.473304
0.906569 0.868437 0.480079
0.906249 0.86894 0.483543
0.905486 0.869352 0.487221
0.90486 0.86952 0.489174
0.904616 0.869627 0.490105
0.904601 0.869627 0.490074
0.24448 0.743374 0.461982
0.242771 0.740581 0.452842
0.240116 0.73724 0.441611
0.237095 0.733532 0.429953
0.232731 0.729091 0.416297
0.228244 0.724483 0.399802
