bundles/resolve-cinematic-luts/Phantom Luts/Ursa G2 Phntm Film LUTs - V1/Gen5/Standard (No WB Offset)/Ursa G2 Eastman RM Gen5.cube
TITLE "Generated by Resolve"
LUT_3D_SIZE 5
0.0426032 0.0360571 0.0393835
0.131395 0.0290074 0.0348211
0.481163 0.0261845 0.0407874
0.582849 0.0377661 0.0667124
0.543984 0.0424964 0.103197
0.0563058 0.118456 0.0539864
0.0978714 0.12903 0.0500191
0.491814 0.0314946 0.0430304
0.572335 0.0382544 0.0649424
0.551156 0.0410468 0.0831311
0.0656901 0.561761 0.181155
0.0615702 0.575006 0.195972
0.572122 0.70309 0.155779
0.859739 0.662959 0.288563
0.85362 0.640726 0.272923
0.239475 0.741329 0.460914
0.221881 0.72105 0.391714
0.431876 0.737575 0.259449
0.876478 0.870222 0.450385
0.904952 0.869856 0.490517
0.246754 0.751522 0.489174
0.233936 0.711711 0.351751
0.425254 0.733745 0.2374
0.861921 0.875608 0.429007
0.902739 0.870085 0.495964
0.0418708 0.0416876 0.0665446
0.1178 0.0395819 0.0673381
0.490959 0.0292821 0.0830854
0.56025 0.0403601 0.0846418
0.533364 0.0437781 0.109071
0.051606 0.105486 0.0770275
0.100618 0.117784 0.100572
0.500877 0.0311742 0.0607767
0.564965 0.0391546 0.0720836
0.545037 0.0421302 0.0936141
0.0638437 0.568093 0.303532
0.0562295 0.570169 0.243061
0.578622 0.692622 0.151781
0.852171 0.632212 0.261677
0.844358 0.6038 0.243809
0.269932 0.76939 0.559823
0.242741 0.748318 0.485374
0.339666 0.707317 0.242115
0.873625 0.871107 0.448478
0.90483 0.870008 0.49189
0.284413 0.780926 0.591882
0.263996 0.75227 0.489128
0.31957 0.701747 0.2336
0.846799 0.881376 0.422858
0.90222 0.870253 0.497459
0.0453651 0.0838178 0.320104
0.148501 0.0603189 0.377371
0.52311 0.0687572 0.370474
0.644282 0.125032 0.424079
0.616053 0.133333 0.460456
0.0416114 0.084535 0.286137
0.0746014 0.0881514 0.375067
0.525551 0.0762036 0.395758
0.652018 0.122469 0.413458
0.630365 0.129686 0.443214
0.0675364 0.559152 0.462196
0.0601968 0.568887 0.494408
0.652552 0.66569 0.634974
0.900328 0.576211 0.550591
0.890059 0.553323 0.53228
0.346578 0.799573 0.674159
0.318685 0.796384 0.674647
0.469322 0.816037 0.6383
0.88658 0.90457 0.672755
0.910079 0.889387 0.602167
0.511788 0.839979 0.752544
0.466361 0.830182 0.730022
0.484245 0.822828 0.656245
0.854444 0.90837 0.69778
0.904372 0.882567 0.563287
0.187579 0.0835126 0.519951
0.311116 0.0951858 0.539849
0.541894 0.138659 0.581521
0.6477 0.181842 0.624063
0.646403 0.182284 0.625162
0.177447 0.0831617 0.518822
0.266423 0.0900435 0.533364
0.546548 0.142412 0.586847
0.651026 0.182895 0.625345
0.646479 0.182818 0.626322
0.0502632 0.500725 0.599023
0.0517586 0.505867 0.611841
0.672282 0.556313 0.847547
0.919478 0.588846 0.902724
0.908003 0.560876 0.899748
0.409186 0.809659 0.743297
0.416068 0.812177 0.748089
0.614435 0.855833 0.803052
0.883635 0.919142 0.885557
0.894469 0.921736 0.886397
0.687968 0.881453 0.830594
0.677928 0.878996 0.828626
0.721187 0.889952 0.839902
0.883986 0.933165 0.893019
0.898283 0.937469 0.893736
0.600458 0.244587 0.739193
0.654063 0.269596 0.76321
0.791119 0.333928 0.798245
0.777096 0.299855 0.759396
0.748684 0.269917 0.730404
0.553292 0.226749 0.716594
0.609049 0.249607 0.744411
0.783749 0.331304 0.797498
0.775372 0.293828 0.753689
0.747768 0.270176 0.730648
0.462715 0.550652 0.7682
0.469139 0.537011 0.771511
0.808164 0.597086 0.893172
0.91899 0.60647 0.902327
0.909133 0.58909 0.901228
0.636988 0.856825 0.819532
0.632944 0.856123 0.820188
0.706401 0.872374 0.842313
0.8878 0.916625 0.896819
0.895293 0.919203 0.897749
0.752255 0.89749 0.855406
0.750652 0.8972 0.856062
0.780972 0.905013 0.865675
0.887419 0.935393 0.900664
0.900236 0.939788 0.903365
