bundles/resolve-cinematic-luts/Phantom Luts/Ursa G2 Phntm Film LUTs - V1/Gen5/Standard (No WB Offset)/Ursa G2 Eastman RM Legacy Gen5.cube
TITLE "Generated by Resolve"
LUT_3D_SIZE 5
0.0441596 0.0409247 0.0428779
0.122942 0.0350958 0.0366064
0.433768 0.0260624 0.0451362
0.565698 0.0331426 0.0700389
0.524529 0.0370184 0.107286
0.0590677 0.105943 0.0552224
0.0964065 0.113146 0.0514076
0.462089 0.0311437 0.0450599
0.555871 0.0339208 0.0702525
0.533867 0.0360113 0.0896162
0.107103 0.521172 0.133837
0.118914 0.544991 0.157122
0.595056 0.712551 0.191318
0.866606 0.691356 0.306111
0.853712 0.646143 0.274006
0.236393 0.725643 0.410986
0.284703 0.711589 0.322728
0.530373 0.77525 0.307012
0.90071 0.843229 0.449653
0.901762 0.845411 0.463722
0.236652 0.735286 0.44155
0.320958 0.708736 0.285145
0.53782 0.778302 0.289311
0.895155 0.840635 0.429786
0.899748 0.845838 0.470115
0.0442512 0.0451667 0.0651102
0.104067 0.0446784 0.0626383
0.423713 0.0302281 0.0754101
0.542306 0.0352331 0.0890974
0.514061 0.0381018 0.114504
0.0543679 0.0980697 0.0726787
0.088777 0.106416 0.0889601
0.462501 0.035462 0.0662699
0.548302 0.0346075 0.0774243
0.526543 0.036759 0.0991379
0.0584421 0.51075 0.226719
0.0681773 0.521492 0.183261
0.591318 0.690486 0.172381
0.854719 0.646387 0.269764
0.841642 0.597848 0.23714
0.241688 0.752544 0.520745
0.236164 0.73257 0.436851
0.465202 0.746014 0.279881
0.899413 0.842985 0.448493
0.901686 0.845426 0.464027
0.255558 0.763912 0.556786
0.246433 0.734615 0.441321
0.461799 0.743801 0.260914
0.884169 0.84361 0.421927
0.899321 0.845945 0.471595
0.0472725 0.0796521 0.262867
0.113405 0.063035 0.310735
0.471473 0.067689 0.306538
0.623178 0.109041 0.346395
0.602731 0.124865 0.39678
0.0417334 0.0801862 0.236683
0.0656443 0.0856641 0.318013
0.480476 0.0729076 0.336233
0.631754 0.107485 0.338506
0.614542 0.119448 0.377829
0.0629587 0.512825 0.412863
0.0551308 0.523064 0.447852
0.609735 0.620478 0.590921
0.888701 0.556695 0.54197
0.880461 0.540444 0.531823
0.32961 0.790738 0.670619
0.299855 0.78645 0.666285
0.397345 0.794018 0.593637
0.896376 0.886122 0.641291
0.903609 0.87454 0.580911
0.447395 0.824353 0.743496
0.404639 0.815305 0.720119
0.415747 0.80235 0.617761
0.871977 0.897139 0.680858
0.901411 0.862028 0.528313
0.13257 0.102541 0.499779
0.23505 0.0907301 0.529122
0.518471 0.136904 0.57821
0.637507 0.181033 0.61326
0.63537 0.181537 0.614572
0.128557 0.106355 0.497261
0.188785 0.0878767 0.523308
0.52697 0.143069 0.586465
0.639673 0.181521 0.613428
0.63563 0.182147 0.615595
0.0454108 0.451438 0.578439
0.0469825 0.460212 0.594202
0.640269 0.512184 0.833265
0.896971 0.552392 0.887221
0.891997 0.524514 0.882933
0.405173 0.815274 0.75172
0.410346 0.816815 0.755123
0.579263 0.852964 0.798459
0.879561 0.915862 0.88191
0.883955 0.916945 0.883574
0.653117 0.872007 0.824308
0.642451 0.869718 0.821912
0.685191 0.879179 0.832639
0.876554 0.920119 0.885222
0.885344 0.921706 0.884596
0.524407 0.219654 0.70045
0.591745 0.239506 0.727443
0.771099 0.309621 0.770764
0.763806 0.288289 0.744091
0.740063 0.266316 0.721233
0.468574 0.20148 0.675822
0.535439 0.223926 0.706294
0.763775 0.306752 0.769879
0.760861 0.282521 0.737896
0.739239 0.266545 0.721477
0.406912 0.507225 0.74641
0.41239 0.492439 0.749966
0.807767 0.559533 0.884718
0.907134 0.569162 0.889509
0.896513 0.552331 0.88719
0.61387 0.859541 0.813672
0.610162 0.858717 0.813855
0.685283 0.875105 0.835599
0.883436 0.913344 0.887816
0.885435 0.914336 0.887968
0.731228 0.89015 0.847257
0.729274 0.889876 0.847883
0.763561 0.897368 0.857542
0.880003 0.921508 0.888319
0.885512 0.922408 0.888121
