bundles/resolve-cinematic-luts/Phantom Luts/Ursa G2 Phntm Film LUTs - V1/Gen5/Standard (No WB Offset)/Ursa G2 VisionTeal Gen5.cube
TITLE "Generated by Resolve"
LUT_3D_SIZE 33
0.0222477 0.0297856 0.0280156
0.0222477 0.0297856 0.0280156
0.0222477 0.0297856 0.0280156
0.0222324 0.0296788 0.0281376
0.0222324 0.0296483 0.0288853
0.0298009 0.0294347 0.0291752
0.0431525 0.0284428 0.0282597
0.0662394 0.0252384 0.0261234
0.0932631 0.0224918 0.0242924
0.129717 0.0191348 0.0205234
0.186023 0.0186465 0.0171969
0.245151 0.0182956 0.0157778
0.304097 0.0201724 0.0156863
0.361242 0.0217441 0.017319
0.42118 0.0250858 0.0197147
0.482139 0.0293126 0.0241855
0.540398 0.0374304 0.0308537
0.6065 0.0513008 0.0411231
0.661143 0.0671092 0.052018
0.694026 0.0730907 0.0607309
0.704067 0.0698253 0.0642557
0.705898 0.0602274 0.0675059
0.706981 0.0448157 0.0720836
0.707424 0.0355535 0.0751659
0.707347 0.035523 0.0749065
0.707317 0.0355077 0.0747082
0.707362 0.035523 0.074876
0.707393 0.0355688 0.0752422
0.70753 0.0353857 0.0749676
0.707744 0.0351873 0.0749828
0.708186 0.0349737 0.076173
0.708812 0.0347448 0.0775769
0.708904 0.0343328 0.0762036
0.0222477 0.0297246 0.0279393
0.0222324 0.0297704 0.027985
0.0222324 0.0297704 0.0280003
0.0222324 0.0296941 0.0281529
0.0222324 0.0295415 0.0287022
0.0289769 0.0296025 0.0294194
0.0424506 0.0286717 0.0285191
0.06598 0.025452 0.0267796
0.0966659 0.0231785 0.0242618
0.134051 0.0187228 0.0206149
0.187961 0.018265 0.017319
0.247242 0.0181125 0.0159762
0.30486 0.0199435 0.0160525
0.361425 0.0214237 0.0173953
0.420157 0.0251926 0.0197452
0.47863 0.0300603 0.0236973
0.541329 0.0379187 0.0309453
0.608835 0.0523995 0.0418097
0.661341 0.0677806 0.0519265
0.694972 0.0733043 0.0606699
0.704128 0.0697795 0.0642863
0.705928 0.0597543 0.0676127
0.706889 0.0457313 0.0718395
0.70721 0.0354772 0.0743267
0.707134 0.035462 0.0740215
0.707164 0.035462 0.0741741
0.707286 0.0354925 0.0745708
0.707012 0.0353857 0.0735332
0.707088 0.0353246 0.0732891
0.707393 0.0350347 0.0736858
0.707774 0.0348058 0.0742199
0.707698 0.0343023 0.0729992
0.708003 0.0339513 0.0726482
0.0222324 0.0298314 0.0279393
0.0222324 0.0299077 0.027985
0.0222477 0.0299229 0.0280003
0.0222324 0.0297246 0.0278172
0.0222477 0.0297398 0.0283513
0.026627 0.030396 0.0295262
0.0407111 0.0303807 0.029221
0.0661936 0.0281834 0.0270542
0.0955978 0.0234836 0.0246738
0.130831 0.0190127 0.0218204
0.183444 0.0178988 0.0175937
0.24506 0.0178836 0.016144
0.303838 0.0197452 0.0164645
0.361501 0.0212863 0.0176242
0.418372 0.0255436 0.0196689
0.476356 0.0305791 0.0234684
0.540261 0.039292 0.0303044
0.606119 0.0543679 0.0407874
0.661128 0.0684367 0.0517586
0.695903 0.0734875 0.0607156
0.704036 0.0698863 0.06421
0.705577 0.0621042 0.0669413
0.707286 0.048127 0.0716869
0.706996 0.0374609 0.0730755
0.706935 0.0357519 0.0733501
0.706935 0.035935 0.0733349
0.706981 0.0363012 0.0733196
0.707027 0.0368048 0.0732586
0.707164 0.0366522 0.0730907
0.707347 0.0370031 0.072694
0.707942 0.0382086 0.072282
0.707927 0.0377508 0.0718395
0.70811 0.0363165 0.0716564
0.0222782 0.0353857 0.0286412
0.0223697 0.0349126 0.0287327
0.0225528 0.0337987 0.027924
0.0225223 0.033875 0.0281071
0.0223697 0.0344549 0.0288853
0.027863 0.0343633 0.0302434
0.0407263 0.0336767 0.0304265
0.0657359 0.0303197 0.0275273
0.0957656 0.0271153 0.0255436
0.132799 0.0223697 0.0221714
0.186709 0.018555 0.0179141
0.245747 0.0177615 0.0163729
0.303609 0.0194858 0.0166476
0.360479 0.0212863 0.0178225
0.417273 0.0251469 0.0198215
0.475898 0.0304417 0.0236515
0.537453 0.0406806 0.0295415
0.604013 0.055787 0.0402075
0.66128 0.06981 0.0516518
0.695476 0.0738842 0.060502
0.7037 0.070222 0.0639353
0.705547 0.0645609 0.0664073
0.707515 0.0509194 0.0708476
0.707591 0.0428779 0.0726787
0.707408 0.0409094 0.0725567
0.707652 0.0387121 0.0733654
0.707683 0.0387121 0.0733959
0.70779 0.0391699 0.0733349
0.707546 0.0417639 0.0724804
0.707851 0.043473 0.0722515
0.708034 0.0430915 0.0719463
0.708186 0.0414435 0.0716259
0.708431 0.0411688 0.0711376
0.0222019 0.0432898 0.0307469
0.0222171 0.0429389 0.0306096
0.0222477 0.0418555 0.0291447
0.0223545 0.0407416 0.0287327
0.0222782 0.0416266 0.0299687
0.0292668 0.0411231 0.0317998
0.0416724 0.0404212 0.0311894
0.0649882 0.0369879 0.0302892
0.0973983 0.0332647 0.0274357
0.136614 0.0273594 0.0233463
0.191073 0.0205844 0.0177615
0.249943 0.0193942 0.0161593
0.305715 0.0201114 0.0162661
0.35993 0.0211185 0.0179599
0.417441 0.0250095 0.0199283
0.474907 0.0309148 0.0235294
0.53724 0.0414893 0.0294194
0.603128 0.0565499 0.0401312
0.66125 0.0705272 0.0514839
0.696361 0.0742657 0.0606699
0.703075 0.0703746 0.0640421
0.704921 0.0644541 0.066392
0.706981 0.0559854 0.0697032
0.707088 0.0473487 0.0718242
0.706828 0.0451057 0.0720378
0.707179 0.0428931 0.0726787
0.70721 0.0440375 0.0726024
0.707012 0.0461585 0.071931
0.707561 0.0492714 0.071397
0.707805 0.0498054 0.0710155
0.707866 0.048249 0.0708629
0.708263 0.046891 0.0706035
0.708598 0.0470893 0.0699779
0.0213779 0.0536355 0.0332189
0.0214084 0.0532387 0.0329595
0.0214542 0.0522774 0.0318914
0.0216526 0.0502632 0.029572
0.0216831 0.0501106 0.0298619
0.0282444 0.0517891 0.0322576
0.042771 0.0505531 0.0346838
0.0652934 0.0472572 0.0318608
0.0993515 0.0419623 0.0301518
0.14052 0.0383917 0.0266117
0.198322 0.0311589 0.0205844
0.255924 0.0230869 0.0163119
0.311437 0.0227665 0.0164797
0.364614 0.0224308 0.0174716
0.421088 0.0262913 0.0199588
0.478431 0.0320287 0.0236515
0.539544 0.0429084 0.0295262
0.60444 0.0594797 0.0397803
0.661479 0.0719463 0.0505531
0.697444 0.0753185 0.0600137
0.702922 0.0708629 0.0634012
0.705013 0.0660868 0.0657206
0.706127 0.0598459 0.0675212
0.707622 0.0534829 0.0703288
0.707607 0.050309 0.071107
0.707561 0.050309 0.0710613
0.707622 0.052491 0.0704967
0.707866 0.0547189 0.0702983
0.707652 0.0560159 0.0691691
0.708247 0.0548562 0.0699168
0.708263 0.0534981 0.0696574
0.708522 0.0529946 0.0692607
0.708919 0.0538338 0.068513
0.020798 0.0719005 0.0377356
0.0207218 0.0715496 0.0369573
0.0206912 0.0705425 0.0364996
0.0209964 0.068574 0.0343328
0.0209506 0.0665599 0.0309606
0.0229343 0.0683452 0.0322271
0.037995 0.0695811 0.0358434
0.0632792 0.0681773 0.0350195
0.0986954 0.0618906 0.0333867
0.148531 0.0520333 0.0296941
0.209384 0.0451057 0.0245212
0.268208 0.0388342 0.0202945
0.322454 0.0315557 0.0177157
0.374792 0.0265507 0.0174105
0.428611 0.0299535 0.0194247
0.484092 0.0358434 0.0232242
0.543374 0.0460975 0.0298466
0.607919 0.0615244 0.0393378
0.662058 0.0746014 0.0487221
0.69958 0.0784009 0.0594339
0.702419 0.0739757 0.0622263
0.705318 0.0691691 0.0647135
0.706004 0.062623 0.0667582
0.706783 0.0596017 0.0677043
0.707103 0.0577707 0.0682994
0.706874 0.0591897 0.0679026
0.706813 0.0595254 0.0677653
0.706874 0.0601358 0.067628
0.706905 0.0600595 0.0676127
0.706935 0.0598764 0.0675212
0.707042 0.0600595 0.0673075
0.707179 0.0604257 0.0669413
0.707301 0.0605173 0.0665751
0.0202335 0.0964523 0.0422675
0.0201724 0.0961776 0.0410773
0.0200656 0.0952773 0.0408179
0.0200656 0.0936599 0.039704
0.0200656 0.0906539 0.035462
0.0200961 0.0901503 0.0313268
0.0301671 0.0924697 0.035874
0.054902 0.0937209 0.0396277
0.0896315 0.0907912 0.0363317
0.144839 0.0830243 0.0354162
0.217044 0.0645914 0.0296635
0.282185 0.0570382 0.0261387
0.337697 0.0504158 0.0247196
0.386847 0.0444038 0.021561
0.436133 0.0370031 0.0191806
0.492775 0.0413367 0.0225834
0.549508 0.0501106 0.0292058
0.611963 0.0643931 0.0382544
0.66334 0.0760662 0.047425
0.699977 0.0836347 0.0561532
0.701946 0.0764324 0.0613718
0.704219 0.0715496 0.063386
0.706294 0.0674144 0.0657969
0.706584 0.0633707 0.0667277
0.706661 0.062623 0.0668498
0.706661 0.0630503 0.066804
0.706645 0.0633097 0.0667582
0.706752 0.0639963 0.0666667
0.706737 0.065156 0.066453
0.706767 0.0651255 0.0663615
0.706813 0.0657206 0.0660105
0.70695 0.0658579 0.0656291
0.707103 0.0655985 0.0652628
0.0195773 0.12874 0.0470436
0.019501 0.127871 0.0457923
0.0194247 0.127184 0.0458839
0.01944 0.125963 0.0453803
0.0195468 0.122042 0.0418555
0.0195468 0.118791 0.0371557
0.0203555 0.11957 0.0360113
0.0392309 0.124483 0.0397955
0.0787366 0.12604 0.0431983
0.126589 0.121233 0.0369879
0.212848 0.110658 0.0365911
0.292119 0.0882277 0.035111
0.356069 0.0827344 0.0321965
0.410788 0.0776226 0.0319219
0.461769 0.0721294 0.0307927
0.508965 0.0627298 0.0277104
0.558984 0.0568399 0.027451
0.619257 0.0688029 0.0354467
0.667826 0.0786603 0.0453193
0.698878 0.0857404 0.0508431
0.701198 0.0835737 0.0568246
0.702892 0.0757916 0.0615244
0.704997 0.0712902 0.0636301
0.706111 0.0690929 0.0648356
0.706371 0.0687572 0.0652171
0.706233 0.0690013 0.0649729
0.70602 0.0693065 0.0646067
0.70576 0.0700389 0.0643168
0.705577 0.0704051 0.0640726
0.705577 0.0706645 0.063859
0.705562 0.0703441 0.0637064
0.705608 0.0703441 0.0633402
0.705623 0.0703746 0.0628977
0.0187991 0.175952 0.0480659
0.0188296 0.175647 0.0458686
0.0189059 0.174472 0.0458839
0.0189364 0.173266 0.0463417
0.0187533 0.170169 0.0445106
0.0191043 0.164584 0.0415198
0.0188602 0.161318 0.0384222
0.0223087 0.162188 0.0361944
0.0456703 0.171878 0.0396429
0.102251 0.177005 0.0458228
0.183154 0.17023 0.0370794
0.289311 0.169711 0.043122
0.373983 0.144915 0.0520333
0.438331 0.137591 0.0519875
0.494347 0.133623 0.0515145
0.548211 0.126909 0.0509194
0.599054 0.115221 0.0493019
0.642985 0.0998245 0.0461585
0.67744 0.0890059 0.0442512
0.701854 0.0909743 0.0486305
0.700298 0.086656 0.0499428
0.701915 0.0838788 0.0570077
0.703319 0.0769055 0.0615244
0.704204 0.0746471 0.0623941
0.704341 0.0741588 0.0625315
0.704402 0.0746929 0.0623941
0.704265 0.0751965 0.062089
0.704112 0.0756237 0.0617838
0.704204 0.076173 0.061677
0.704158 0.0767681 0.0615244
0.704173 0.0770275 0.0613565
0.704341 0.076463 0.0612345
0.705196 0.0782635 0.060502
0.0238346 0.245197 0.0686503
0.0239872 0.244495 0.0654459
0.0231174 0.243595 0.0651713
0.0223239 0.242237 0.0647898
0.0219425 0.24033 0.0640574
0.0213016 0.233402 0.0586404
0.0217594 0.226459 0.0526741
0.0230564 0.224125 0.0425422
0.031342 0.22652 0.042649
0.0691691 0.242634 0.0502022
0.147967 0.24831 0.0591287
0.250248 0.237049 0.0436866
0.359213 0.243793 0.0487221
0.43714 0.230289 0.0630503
0.501427 0.213138 0.0699626
0.561105 0.206348 0.0690623
0.618418 0.199237 0.0684672
0.671626 0.190265 0.0707866
0.713222 0.171923 0.0719921
0.728206 0.136355 0.0650187
0.715816 0.113741 0.0537881
0.707439 0.097734 0.0535134
0.702296 0.0852064 0.0551003
0.702831 0.0812848 0.0602884
0.703319 0.0801251 0.0608682
0.703243 0.0804456 0.0607156
0.70309 0.0807965 0.0605631
0.702953 0.0832837 0.058732
0.703532 0.0841535 0.0568856
0.703029 0.0843977 0.0563211
0.702831 0.0849012 0.0552071
0.702434 0.0850538 0.0542916
0.702449 0.0854505 0.0525673
0.0366522 0.321447 0.0946059
0.0356603 0.321508 0.0914473
0.0349279 0.321355 0.0901198
0.0341955 0.319829 0.0897078
0.0334783 0.317845 0.0888533
0.0336919 0.315618 0.087129
0.0331884 0.308125 0.0793164
0.0343481 0.302708 0.0708019
0.0359808 0.299229 0.0552987
0.0513313 0.302449 0.0561685
0.102968 0.315785 0.0647593
0.213474 0.317891 0.0716716
0.322637 0.307332 0.0559854
0.422538 0.316869 0.0620127
0.498756 0.318029 0.0730755
0.561502 0.306233 0.0882429
0.623804 0.28896 0.0988174
0.679942 0.282445 0.0995346
0.723812 0.275242 0.0988479
0.751019 0.256382 0.0944686
0.748852 0.224323 0.085771
0.741405 0.172885 0.0759747
0.727703 0.137957 0.0621195
0.709895 0.0988174 0.0564584
0.703944 0.0869154 0.0545052
0.703136 0.0865034 0.0522164
0.702739 0.0876783 0.0497597
0.701946 0.0889754 0.047364
0.701793 0.090135 0.0449226
0.711528 0.104082 0.0529488
0.721553 0.124315 0.0603037
0.730938 0.141665 0.0675364
0.732296 0.143282 0.0686351
0.0505684 0.398566 0.128725
0.0503395 0.3991 0.12607
0.0498665 0.398672 0.122377
0.0493172 0.398062 0.122301
0.0491035 0.397208 0.122316
0.0489052 0.395407 0.121675
0.0483711 0.390387 0.115785
0.0484627 0.382849 0.10605
0.0496071 0.378119 0.0933089
0.0514992 0.371359 0.0703136
0.0820935 0.376806 0.0725567
0.151385 0.38436 0.0830549
0.28159 0.383825 0.0837873
0.388449 0.375067 0.0741588
0.482856 0.385367 0.0806134
0.55639 0.394369 0.0850843
0.621378 0.390555 0.10309
0.678325 0.37882 0.121172
0.725872 0.368368 0.137224
0.758007 0.359686 0.134752
0.764752 0.341375 0.126848
0.761822 0.314534 0.11664
0.757229 0.275792 0.102083
0.747127 0.212314 0.0832685
0.743175 0.179889 0.0781262
0.742061 0.170825 0.0755627
0.74139 0.167865 0.0739605
0.74258 0.179202 0.0750744
0.74435 0.195422 0.0776074
0.746624 0.209491 0.0806134
0.749371 0.223697 0.0844587
0.750912 0.232364 0.0881208
0.752956 0.244236 0.0930037
0.0679179 0.476417 0.180819
0.0684672 0.476173 0.175647
0.0691539 0.476127 0.170336
0.0690013 0.475715 0.168948
0.0678569 0.474571 0.167987
0.0669108 0.473472 0.167254
0.0664378 0.471626 0.166079
0.0669108 0.464652 0.15404
0.0677806 0.456291 0.139284
0.0704814 0.454215 0.12221
0.0775158 0.443305 0.0881361
0.119738 0.446769 0.0905165
0.228489 0.446281 0.10248
0.351278 0.447013 0.0944991
0.449287 0.440497 0.0953841
0.541024 0.451179 0.101976
0.613901 0.462882 0.104295
0.677058 0.468696 0.12047
0.726467 0.466377 0.141817
0.760693 0.458671 0.157717
0.772549 0.444984 0.164797
0.769497 0.427161 0.164233
0.767132 0.408148 0.158587
0.765896 0.378012 0.142596
0.765026 0.351064 0.130953
0.764828 0.340581 0.126909
0.764187 0.333867 0.12459
0.763867 0.329 0.123049
0.763455 0.324224 0.121035
0.763928 0.328084 0.122942
0.765072 0.338094 0.12694
0.766033 0.348211 0.132692
0.767086 0.361669 0.139544
0.0814374 0.554467 0.239704
0.0850843 0.554376 0.235935
0.0865949 0.553841 0.230854
0.087541 0.553292 0.227146
0.0867933 0.552605 0.226749
0.0861372 0.550729 0.225574
0.0854658 0.548867 0.223728
0.085832 0.545769 0.219547
0.0876173 0.536797 0.203861
0.0909743 0.529473 0.183459
0.0970779 0.526268 0.154299
0.118013 0.513298 0.112657
0.177005 0.50985 0.110796
0.310323 0.506203 0.129366
0.418097 0.510185 0.109895
0.508644 0.508186 0.115511
0.597772 0.515755 0.124331
0.667903 0.527306 0.130861
0.724666 0.54165 0.135698
0.764324 0.54641 0.156207
0.785595 0.541604 0.169299
0.785367 0.532143 0.170443
0.78352 0.519692 0.169406
0.780743 0.502281 0.167865
0.777447 0.481651 0.165805
0.776684 0.474495 0.165515
0.77586 0.471077 0.164813
0.775433 0.467643 0.164401
0.774975 0.463294 0.164355
0.773922 0.458244 0.163241
0.77261 0.450599 0.161669
0.773754 0.456474 0.16173
0.775219 0.465492 0.162905
0.0810254 0.632868 0.295476
0.0812848 0.632029 0.288762
0.0945907 0.631464 0.288151
0.105638 0.631312 0.287388
0.104799 0.630091 0.285679
0.1037 0.628626 0.284428
0.103487 0.627527 0.28368
0.102861 0.624979 0.281804
0.105943 0.619211 0.272267
0.110063 0.60795 0.252461
0.117174 0.600809 0.228504
0.129519 0.592859 0.187533
0.172534 0.576928 0.137591
0.261723 0.568597 0.137011
0.391287 0.565667 0.16199
0.480415 0.572641 0.128344
0.566537 0.575616 0.136004
0.649012 0.578439 0.149203
0.711971 0.59147 0.159823
0.757488 0.605447 0.165881
0.790356 0.615976 0.17116
0.799176 0.613062 0.176089
0.796994 0.604776 0.175235
0.795789 0.596643 0.174411
0.794293 0.585763 0.172412
0.793896 0.581476 0.17203
0.7935 0.579553 0.170779
0.793225 0.57734 0.170733
0.792752 0.574182 0.171069
0.792126 0.570214 0.170901
0.790509 0.563592 0.170428
0.789746 0.556771 0.17116
0.789364 0.551492 0.171374
0.101854 0.712734 0.36347
0.10193 0.712596 0.357458
0.101991 0.712016 0.350652
0.102159 0.711192 0.34316
0.1066 0.71075 0.339879
0.104753 0.709163 0.338155
0.104341 0.707057 0.336965
0.104234 0.705898 0.3364
0.105806 0.703731 0.334798
0.126696 0.693111 0.324102
0.133455 0.680919 0.3019
0.150393 0.673243 0.270588
0.172564 0.657252 0.208179
0.24036 0.638422 0.1635
0.349035 0.628092 0.174533
0.459617 0.626017 0.198001
0.541146 0.636851 0.156085
0.617319 0.643793 0.167102
0.689494 0.640772 0.186358
0.742275 0.654963 0.196826
0.779065 0.667018 0.205844
0.805737 0.673365 0.210925
0.808377 0.669352 0.207141
0.808591 0.66424 0.204211
0.806577 0.658122 0.198718
0.806195 0.654353 0.19588
0.805707 0.651881 0.193896
0.805402 0.65008 0.192172
0.805234 0.648112 0.191424
0.804898 0.645792 0.190463
0.804822 0.641855 0.188678
0.803311 0.635599 0.18381
0.802457 0.627024 0.179324
0.128038 0.783764 0.429862
0.127855 0.783215 0.422919
0.127306 0.782498 0.415824
0.127626 0.781811 0.408743
0.128435 0.78117 0.400687
0.128023 0.780468 0.399023
0.127596 0.77966 0.39823
0.127245 0.778241 0.397055
0.126894 0.776593 0.395514
0.125811 0.772351 0.386755
0.15668 0.760296 0.373617
0.168139 0.748425 0.344686
0.196841 0.735378 0.299092
0.237873 0.71136 0.21944
0.327535 0.690867 0.200015
0.436774 0.682704 0.219028
0.523507 0.683604 0.223102
0.599939 0.69691 0.194507
0.670558 0.709743 0.197589
0.720424 0.700664 0.225742
0.763668 0.71281 0.231479
0.796155 0.722698 0.243503
0.81294 0.724269 0.245869
0.814832 0.720516 0.243839
0.814084 0.715084 0.239689
0.81413 0.710338 0.237491
0.812879 0.707118 0.233875
0.813153 0.705837 0.233341
0.813413 0.704356 0.232547
0.81326 0.702068 0.230732
0.812009 0.69778 0.228061
0.81207 0.693187 0.224323
0.81059 0.684565 0.218357
0.157443 0.834897 0.485756
0.156176 0.835386 0.479515
0.15613 0.834836 0.473091
0.156466 0.834226 0.466239
0.157336 0.833738 0.458839
0.158419 0.83299 0.45304
0.157946 0.83241 0.452735
0.157366 0.831449 0.451698
0.156405 0.830427 0.45005
0.155032 0.828458 0.447074
0.155764 0.822736 0.431266
0.191699 0.807919 0.41088
0.217166 0.793805 0.370993
0.246128 0.77612 0.304555
0.323903 0.745617 0.234638
0.426856 0.729427 0.239277
0.51606 0.72517 0.257435
0.585031 0.732113 0.247089
0.654597 0.746014 0.228138
0.715373 0.75787 0.23682
0.745586 0.749096 0.262592
0.781689 0.756451 0.272541
0.80827 0.761349 0.279545
0.817761 0.762325 0.279377
0.818494 0.758846 0.276219
0.817197 0.755322 0.272419
0.817655 0.752865 0.270176
0.817533 0.751797 0.268574
0.817365 0.750027 0.266392
0.816602 0.748012 0.26389
0.81706 0.745281 0.262592
0.817044 0.74136 0.259281
0.816495 0.735149 0.254505
0.181476 0.866636 0.525399
0.179477 0.86656 0.518471
0.177768 0.866972 0.512184
0.178042 0.866514 0.505455
0.178973 0.8654 0.497826
0.179965 0.863828 0.488518
0.179507 0.863264 0.486854
0.17908 0.862806 0.48632
0.178683 0.862272 0.485832
0.178454 0.861784 0.485191
0.177478 0.859373 0.478523
0.184543 0.850202 0.454276
0.230655 0.834318 0.426566
0.259968 0.814252 0.366613
0.304479 0.789471 0.280461
0.425696 0.761486 0.257237
0.510857 0.754925 0.273442
0.57911 0.756603 0.282933
0.639078 0.765743 0.266987
0.700023 0.778592 0.258625
0.747387 0.788876 0.267674
0.767971 0.781872 0.291096
0.796384 0.781033 0.305303
0.814847 0.784573 0.310384
0.820005 0.784497 0.31043
0.820203 0.783062 0.304448
0.820096 0.781674 0.301122
0.819867 0.780194 0.299443
0.819699 0.779202 0.29807
0.819593 0.77789 0.29601
0.819333 0.775784 0.294041
0.819883 0.773754 0.291691
0.819471 0.770169 0.286717
0.193088 0.877852 0.546654
0.190555 0.877668 0.540093
0.187045 0.877348 0.532601
0.184314 0.877119 0.524681
0.182879 0.87541 0.515465
0.1841 0.872892 0.50515
0.184237 0.87097 0.499504
0.184146 0.871092 0.499565
0.184115 0.871077 0.499474
0.184115 0.870985 0.499245
0.184207 0.870192 0.496696
0.186877 0.865248 0.479957
0.228244 0.851728 0.455497
0.259159 0.83154 0.404623
0.296757 0.805661 0.323873
0.400977 0.777996 0.2692
0.508141 0.765743 0.279942
0.571496 0.764126 0.292775
0.624537 0.771435 0.28336
0.681193 0.782803 0.272541
0.730632 0.79205 0.271824
0.764599 0.799756 0.282078
0.784161 0.787686 0.305043
0.805371 0.790814 0.320287
0.816861 0.793973 0.331518
0.819242 0.79443 0.331258
0.819608 0.794553 0.327123
0.819654 0.794415 0.324071
0.819654 0.794369 0.323659
0.81973 0.794202 0.322499
0.819928 0.794018 0.320928
0.82031 0.793591 0.319478
0.820401 0.791653 0.315496
0.201373 0.876707 0.553613
0.197772 0.876554 0.546731
0.194064 0.877043 0.540261
0.189899 0.876463 0.531731
0.18616 0.875746 0.521431
0.185962 0.872999 0.509117
0.186877 0.869596 0.498329
0.18677 0.869688 0.498558
0.186709 0.869703 0.49865
0.186633 0.869734 0.498787
0.186587 0.869764 0.498848
0.187854 0.866621 0.489082
0.211856 0.856229 0.463401
0.25658 0.837263 0.424109
0.288365 0.811337 0.345983
0.364126 0.784146 0.277516
0.496452 0.765148 0.277928
0.565866 0.763058 0.291844
0.614084 0.769116 0.285435
0.663645 0.77879 0.275395
0.710262 0.787945 0.270085
0.749813 0.796246 0.276692
0.776089 0.791821 0.299458
0.797269 0.789487 0.311467
0.813535 0.792874 0.324666
0.818799 0.794186 0.331838
0.819287 0.794522 0.336034
0.819318 0.794614 0.337255
0.819242 0.794553 0.336339
0.819181 0.794553 0.336019
0.81915 0.794537 0.335637
0.819089 0.794476 0.334859
0.819135 0.794186 0.331563
0.212512 0.876097 0.557153
0.208103 0.875578 0.549371
0.203189 0.875654 0.541253
0.19852 0.876036 0.533257
0.192096 0.875624 0.523033
0.189761 0.872282 0.5084
0.190661 0.867475 0.492348
0.190097 0.866606 0.489509
0.189792 0.866835 0.490196
0.189548 0.867109 0.490959
0.18938 0.867292 0.491432
0.190524 0.865873 0.487343
0.206394 0.858259 0.465843
0.255039 0.839734 0.433204
0.283131 0.815702 0.359976
0.343328 0.789303 0.283375
0.474891 0.767514 0.276722
0.559579 0.763607 0.292149
0.606104 0.76817 0.28751
0.650523 0.776104 0.278141
0.694835 0.785534 0.270695
0.729686 0.791974 0.271794
0.770932 0.799298 0.288853
0.787701 0.787961 0.304387
0.805768 0.790646 0.316686
0.816571 0.793866 0.326375
0.818936 0.794232 0.331243
0.818738 0.794247 0.33434
0.818677 0.794324 0.335348
0.818677 0.794369 0.335439
0.818662 0.794369 0.335515
0.818647 0.794369 0.335561
0.818677 0.794415 0.33547
0.221683 0.874784 0.554238
0.21767 0.874556 0.546288
0.212711 0.874083 0.537484
0.20763 0.874174 0.528008
0.202426 0.872175 0.514992
0.199039 0.867704 0.497337
0.199466 0.862135 0.476677
0.199725 0.860426 0.468986
0.199268 0.860822 0.470573
0.198947 0.861173 0.471962
0.198459 0.861662 0.473732
0.19826 0.861921 0.4748
0.227436 0.853956 0.463661
0.257649 0.839033 0.432364
0.282277 0.816861 0.366796
0.335943 0.792187 0.293004
0.455833 0.769879 0.275624
0.554009 0.764172 0.291539
0.601541 0.767529 0.288334
0.63949 0.773877 0.279698
0.677501 0.782162 0.273106
0.71136 0.788586 0.269993
0.758526 0.798062 0.279332
0.778576 0.787884 0.301335
0.799817 0.789776 0.310903
0.813748 0.793072 0.32047
0.818509 0.794202 0.32697
0.818906 0.794308 0.329992
0.818647 0.794247 0.331716
0.818601 0.794293 0.332052
0.81857 0.794293 0.332311
0.818555 0.794308 0.332753
0.81854 0.794324 0.333532
0.227893 0.874296 0.552392
0.223667 0.873442 0.543297
0.219471 0.872847 0.533303
0.214527 0.872343 0.522148
0.210346 0.867811 0.504875
0.206439 0.862348 0.483589
0.228672 0.854002 0.464576
0.241871 0.848081 0.452064
0.242023 0.847944 0.451972
0.241642 0.848157 0.452369
0.241047 0.8486 0.453162
0.240024 0.849241 0.454597
0.248692 0.844114 0.44361
0.266331 0.832715 0.414893
0.286213 0.814694 0.357366
0.335164 0.792493 0.292454
0.44625 0.770916 0.272816
0.54609 0.764248 0.288685
0.595315 0.766323 0.289296
0.628183 0.771969 0.282719
0.660685 0.778317 0.275914
0.699641 0.78645 0.270283
0.74667 0.795987 0.275547
0.772183 0.793851 0.297642
0.792813 0.78854 0.306981
0.809216 0.791821 0.315419
0.817807 0.794247 0.323476
0.819348 0.794537 0.327031
0.819043 0.794446 0.328847
0.818952 0.794461 0.329305
0.818906 0.794461 0.329442
0.81886 0.79443 0.329702
0.818814 0.794415 0.330175
0.229328 0.875792 0.558495
0.224842 0.874479 0.548745
0.221164 0.87361 0.538766
0.215732 0.873121 0.527947
0.211398 0.869627 0.511864
0.207431 0.865034 0.491188
0.214878 0.857343 0.467277
0.241032 0.848844 0.453285
0.241581 0.848341 0.452293
0.241627 0.84828 0.452247
0.241688 0.848234 0.452201
0.241688 0.848219 0.452232
0.248112 0.844404 0.443656
0.266819 0.831266 0.409995
0.286213 0.814267 0.353155
0.332006 0.7935 0.292607
0.437491 0.771786 0.271702
0.535943 0.763867 0.286656
0.586786 0.765652 0.292042
0.61326 0.769421 0.285939
0.643076 0.774853 0.279362
0.686732 0.783719 0.271107
0.734203 0.793164 0.272084
0.77026 0.799283 0.287602
0.785504 0.788434 0.303288
0.803906 0.79028 0.311711
0.816236 0.79379 0.320012
0.819425 0.794476 0.325002
0.819348 0.794598 0.326802
0.819196 0.794568 0.32755
0.819165 0.794583 0.327626
0.819135 0.794568 0.327764
0.81912 0.794553 0.328038
0.230564 0.876646 0.56289
0.226566 0.875578 0.55375
0.22208 0.874571 0.543923
0.217609 0.873625 0.532921
0.212406 0.871809 0.51809
0.208072 0.867185 0.497993
