bundles/resolve-cinematic-luts/Phantom Luts/Ursa G2 Phntm Film LUTs - V1/Gen5/Standard (No WB Offset)/Ursa G2 Eastman RM Legacy Gen5.cube
TITLE "Generated by Resolve"
LUT_3D_SIZE 9
0.0441596 0.0409247 0.0428779
0.0556649 0.0382391 0.0392615
0.122942 0.0350958 0.0366064
0.243549 0.0318761 0.0402075
0.433768 0.0260624 0.0451362
0.553857 0.0313268 0.0605478
0.565698 0.0331426 0.0700389
0.565866 0.0332494 0.0752575
0.524529 0.0370184 0.107286
0.0470283 0.052781 0.0458839
0.0486152 0.0538796 0.045594
0.101305 0.0473335 0.0412451
0.236469 0.0304875 0.0395361
0.43299 0.0260319 0.0473335
0.550134 0.0329747 0.0651408
0.559915 0.0336919 0.0752117
0.561105 0.0336614 0.0783398
0.524422 0.0370184 0.107393
0.0590677 0.105943 0.0552224
0.0514229 0.109255 0.0596475
0.0964065 0.113146 0.0514076
0.269963 0.0791028 0.0487068
0.462089 0.0311437 0.0450599
0.547799 0.0334325 0.0601205
0.555871 0.0339208 0.0702525
0.556909 0.033875 0.0724193
0.533867 0.0360113 0.0896162
0.0932326 0.237736 0.0838483
0.0787823 0.251362 0.0963607
0.1037 0.257847 0.0822003
0.256382 0.335119 0.0833906
0.641443 0.314687 0.0869306
0.763394 0.261189 0.135622
0.645258 0.135744 0.102907
0.574395 0.0602731 0.0753948
0.564141 0.0598459 0.0805524
0.107103 0.521172 0.133837
0.111971 0.541146 0.157855
0.118914 0.544991 0.157122
0.255772 0.575143 0.1093
0.595056 0.712551 0.191318
0.861524 0.71313 0.313313
0.866606 0.691356 0.306111
0.854887 0.64773 0.272053
0.853712 0.646143 0.274006
0.256947 0.714794 0.357565
0.261418 0.716075 0.353338
0.268559 0.714961 0.344671
0.310109 0.709941 0.300252
0.552254 0.785718 0.315572
0.825238 0.871595 0.415671
0.908309 0.843976 0.444511
0.908339 0.843732 0.443854
0.910796 0.843198 0.43595
0.236393 0.725643 0.410986
0.253361 0.717784 0.366552
0.284703 0.711589 0.322728
0.303014 0.710353 0.305394
0.530373 0.77525 0.307012
0.763745 0.862852 0.390249
0.90071 0.843229 0.449653
0.903761 0.844984 0.457938
0.901762 0.845411 0.463722
0.24271 0.728328 0.415641
0.266911 0.715236 0.349447
0.327123 0.708232 0.277256
0.335454 0.708766 0.272374
0.542824 0.780804 0.29131
0.739376 0.856504 0.368978
0.897856 0.841123 0.432349
0.907118 0.844099 0.447242
0.900038 0.845792 0.469062
0.236652 0.735286 0.44155
0.250401 0.721447 0.38088
0.320958 0.708736 0.285145
0.328542 0.708278 0.276417
0.53782 0.778302 0.289311
0.734142 0.855116 0.367422
0.895155 0.840635 0.429786
0.906966 0.844144 0.447623
0.899748 0.845838 0.470115
0.0437324 0.0413825 0.0463264
0.0517739 0.0411383 0.0456397
0.102052 0.0404669 0.0452735
0.219028 0.0357977 0.0503243
0.410208 0.0294804 0.059266
0.531258 0.0336919 0.077821
0.541222 0.0352789 0.0866255
0.540597 0.0354314 0.0939193
0.514687 0.038056 0.115663
0.0462196 0.0499886 0.0477913
0.0492409 0.05066 0.0488746
0.0923018 0.0460975 0.047715
0.212253 0.0365911 0.0508583
0.409552 0.0289464 0.061326
0.526528 0.0353857 0.0816358
0.535683 0.0358587 0.093019
0.536568 0.0358434 0.09691
0.514733 0.038056 0.11574
0.0556497 0.10103 0.0620584
0.0498817 0.104906 0.0618143
0.0872206 0.10985 0.0529793
0.260044 0.0730144 0.0510414
0.448798 0.0292973 0.047303
0.539147 0.0340581 0.0646067
0.54786 0.0346227 0.0765087
0.548913 0.0345769 0.0791333
0.525887 0.0367895 0.0971084
0.073579 0.227024 0.0970626
0.0685893 0.237873 0.0977188
0.0968185 0.251408 0.0862135
0.250782 0.324895 0.0821088
0.644953 0.28397 0.0888991
0.745281 0.234974 0.132509
0.601053 0.0844282 0.0783551
0.567803 0.0550546 0.075349
0.547753 0.0482643 0.076173
0.0716106 0.512978 0.160967
0.0806134 0.527581 0.172457
0.113497 0.540703 0.156329
0.234943 0.567895 0.108522
0.592309 0.707546 0.186664
0.86041 0.701717 0.30634
0.860975 0.671122 0.289067
0.850111 0.6262 0.255146
0.848371 0.626352 0.258854
0.235538 0.718502 0.394049
0.236774 0.720714 0.389044
0.268833 0.7149 0.344015
0.297246 0.710826 0.311666
0.540444 0.77998 0.309834
0.825498 0.871504 0.412924
0.908385 0.844068 0.444541
0.908339 0.843778 0.443915
0.908949 0.843748 0.442206
0.236088 0.736858 0.455299
0.237705 0.728679 0.42118
0.274769 0.713268 0.334874
0.288777 0.711238 0.318624
0.508309 0.765072 0.297337
0.757992 0.861677 0.387442
0.900328 0.843183 0.449332
0.903761 0.844984 0.457938
0.902022 0.845365 0.463004
0.239689 0.74081 0.46627
0.250629 0.727657 0.410559
0.300938 0.708949 0.300908
0.327123 0.708232 0.277256
0.520912 0.770352 0.28191
0.730388 0.854093 0.36611
0.895567 0.84062 0.429969
0.907362 0.844038 0.446586
0.900343 0.845716 0.468147
0.23595 0.745937 0.488289
0.241932 0.73402 0.438392
0.289586 0.710735 0.316014
0.327169 0.708232 0.277211
0.513558 0.766964 0.27953
0.72871 0.853712 0.365759
0.892103 0.840253 0.426719
0.906966 0.844144 0.447623
0.899748 0.845838 0.470115
0.0442512 0.0451667 0.0651102
0.051667 0.0451209 0.0704051
0.104067 0.0446784 0.0626383
0.230274 0.0419013 0.062211
0.423713 0.0302281 0.0754101
0.540948 0.0341344 0.0970626
0.542306 0.0352331 0.0890974
0.540017 0.0354772 0.0927749
0.514061 0.0381018 0.114504
0.0435798 0.0471962 0.0576638
0.0458228 0.0454566 0.0699474
0.0889601 0.0466621 0.068101
0.222354 0.0410925 0.0643168
0.424613 0.0299077 0.078172
0.536828 0.0352789 0.100694
0.536721 0.0357519 0.0906539
0.537011 0.0357671 0.095079
0.514061 0.0381018 0.114519
0.0543679 0.0980697 0.0726787
0.0489662 0.0999466 0.0798962
0.088777 0.106416 0.0889601
0.262913 0.0762036 0.0726787
0.462501 0.035462 0.0662699
0.544793 0.0341802 0.0735943
0.548302 0.0346075 0.0774243
0.549691 0.0345464 0.0806134
0.526543 0.036759 0.0991379
0.0730297 0.218265 0.120943
0.0612955 0.223224 0.125124
0.0627298 0.229206 0.10695
0.255268 0.309483 0.098497
0.634958 0.241718 0.103716
0.736584 0.223682 0.130953
0.569619 0.0561685 0.0712139
0.547051 0.0421454 0.0697642
0.529671 0.037995 0.0714122
0.0584421 0.51075 0.226719
0.0534218 0.520577 0.237232
0.0681773 0.521492 0.183261
0.185779 0.544182 0.109667
0.591318 0.690486 0.172381
0.856092 0.682155 0.292042
0.854719 0.646387 0.269764
0.845808 0.59942 0.233631
0.841642 0.597848 0.23714
0.218051 0.723751 0.447044
0.214618 0.728664 0.450538
0.22739 0.721202 0.401556
0.283421 0.711528 0.324163
0.520363 0.770779 0.301091
0.825986 0.871168 0.405982
0.908385 0.844007 0.44448
0.908339 0.843793 0.443976
0.908354 0.843824 0.444022
0.241688 0.752544 0.520745
0.233661 0.7467 0.498741
0.236164 0.73257 0.436851
0.280888 0.7122 0.327199
0.465202 0.746014 0.279881
0.746944 0.858778 0.382986
0.899413 0.842985 0.448493
0.903746 0.844984 0.457954
0.901686 0.845426 0.464027
0.254124 0.758679 0.534493
0.244739 0.751827 0.510536
0.249439 0.73048 0.423957
0.327123 0.708232 0.277256
0.480522 0.751949 0.266285
0.71841 0.850767 0.362585
0.889815 0.839826 0.424567
0.907744 0.843915 0.445579
0.900755 0.84564 0.466728
0.255558 0.763912 0.556786
0.246052 0.756985 0.529641
0.246433 0.734615 0.441321
0.327123 0.708232 0.277256
0.461799 0.743801 0.260914
0.715328 0.849836 0.36144
0.884169 0.84361 0.421927
0.906966 0.844144 0.447623
0.899321 0.845945 0.471595
0.0437629 0.0577554 0.127016
0.0530404 0.0531014 0.140261
0.104234 0.0527199 0.148806
0.248676 0.0538338 0.127977
0.441413 0.0445106 0.131487
0.556161 0.0414282 0.148074
0.560128 0.042771 0.151278
0.55584 0.0418097 0.144594
0.530419 0.0448768 0.169207
0.0424048 0.0581979 0.128069
0.0455634 0.060502 0.139223
0.0886397 0.053666 0.158953
0.243305 0.0558785 0.140566
0.451118 0.0420081 0.127504
0.553994 0.0422522 0.147997
0.553368 0.0417639 0.144442
0.551431 0.0411383 0.1402
0.529503 0.0441444 0.164294
0.0435035 0.086183 0.113985
0.0417029 0.0820325 0.132372
0.0609293 0.0738537 0.165774
0.236423 0.0705882 0.163806
0.468025 0.0415961 0.1149
0.565011 0.0395514 0.129641
0.564843 0.0389563 0.123278
0.564355 0.0387274 0.12134
0.542245 0.0419623 0.146456
0.0710918 0.214862 0.160021
0.0598764 0.218921 0.173922
0.0596628 0.218799 0.175204
0.292744 0.303502 0.280247
0.635569 0.244663 0.252766
0.771344 0.18999 0.2495
0.573007 0.0537423 0.0861982
0.548028 0.0419623 0.0723583
0.530617 0.038117 0.0725414
0.0627909 0.514092 0.321187
0.0543832 0.521935 0.347402
0.0537575 0.521767 0.3243
0.0700847 0.529519 0.263066
0.575158 0.652399 0.257038
0.86479 0.571649 0.296956
0.854475 0.621073 0.249149
0.845365 0.598169 0.232517
0.841337 0.595422 0.235447
0.215732 0.729992 0.51928
0.204318 0.735256 0.531655
0.202197 0.734188 0.510674
0.207797 0.72723 0.453193
0.424765 0.732036 0.313863
0.830945 0.874006 0.418265
0.908446 0.845792 0.447608
0.908339 0.843809 0.443992
0.908339 0.843793 0.443946
0.269718 0.771511 0.602564
0.262074 0.769848 0.594369
0.251621 0.762142 0.56054
0.233906 0.74049 0.472007
0.350835 0.722438 0.32845
0.740383 0.860487 0.407874
0.901457 0.843488 0.450599
0.903746 0.844984 0.457954
0.901686 0.845426 0.464027
0.305638 0.78732 0.630274
0.289143 0.781674 0.615808
0.266697 0.768261 0.572793
0.249989 0.736721 0.450538
0.35198 0.717113 0.300008
0.733394 0.857053 0.386648
0.89102 0.83827 0.411154
0.908812 0.843626 0.442267
0.900771 0.84564 0.466667
0.31577 0.793759 0.653452
0.300298 0.787854 0.634226
0.272969 0.773236 0.589242
0.249561 0.73994 0.464408
0.341024 0.716533 0.305608
0.717922 0.853132 0.389044
0.881941 0.845426 0.420905
0.906966 0.844144 0.447623
0.899748 0.845838 0.470115
0.0472725 0.0796521 0.262867
0.0614023 0.0799725 0.27866
0.113405 0.063035 0.310735
0.268269 0.0644541 0.325734
0.471473 0.067689 0.306538
0.613733 0.0987259 0.321324
0.623178 0.109041 0.346395
0.62594 0.115755 0.362982
0.602731 0.124865 0.39678
0.0437476 0.081117 0.266606
0.0492714 0.082414 0.285801
0.0906691 0.0627451 0.325475
0.266133 0.0657511 0.347646
0.484062 0.0709544 0.322255
0.61941 0.10277 0.328435
0.626062 0.111498 0.350317
0.624598 0.114305 0.360388
0.599802 0.122255 0.393423
0.0417334 0.0801862 0.236683
0.0417945 0.082475 0.274342
0.0656443 0.0856641 0.318013
0.243748 0.0666972 0.359564
0.480476 0.0729076 0.336233
0.625376 0.0996567 0.317891
0.631754 0.107485 0.338506
0.634852 0.111162 0.347356
0.614542 0.119448 0.377829
0.0427405 0.179538 0.268406
0.042237 0.176043 0.291722
0.0421607 0.168322 0.303349
0.187961 0.165988 0.433082
0.586831 0.212268 0.492424
0.744411 0.172686 0.405921
0.65568 0.118547 0.345541
0.649287 0.116136 0.345205
0.63064 0.121477 0.369345
0.0629587 0.512825 0.412863
0.055024 0.519783 0.441535
0.0551308 0.523064 0.447852
0.0955215 0.539818 0.472129
0.609735 0.620478 0.590921
0.877791 0.564004 0.55436
0.888701 0.556695 0.54197
0.887358 0.542641 0.520195
0.880461 0.540444 0.531823
0.218082 0.728817 0.580896
0.206638 0.733593 0.595605
0.206027 0.735195 0.591669
0.204547 0.735164 0.576135
0.425193 0.76585 0.558907
0.799069 0.865751 0.610559
0.899458 0.861219 0.662852
0.900664 0.864927 0.637491
0.900481 0.864652 0.64094
0.32961 0.790738 0.670619
0.310857 0.790158 0.676219
0.299855 0.78645 0.666285
0.27808 0.776638 0.63183
0.397345 0.794018 0.593637
0.706096 0.845365 0.63743
0.896376 0.886122 0.641291
0.903914 0.878874 0.606943
0.903609 0.87454 0.580911
0.430365 0.819944 0.730022
0.416052 0.817456 0.725902
0.386053 0.81146 0.709514
0.328557 0.796643 0.6598
0.425391 0.80119 0.610162
0.702251 0.844816 0.649729
0.88011 0.893431 0.661555
0.907546 0.87332 0.573846
0.903288 0.856641 0.489799
0.447395 0.824353 0.743496
0.43534 0.821698 0.737316
0.404639 0.815305 0.720119
0.340475 0.800153 0.67187
0.415747 0.80235 0.617761
0.691096 0.843641 0.654368
0.871977 0.897139 0.680858
0.901762 0.881453 0.623804
0.901411 0.862028 0.528313
0.0590982 0.102358 0.416236
0.0872358 0.102373 0.43154
0.14519 0.0747539 0.468696
0.309331 0.0823835 0.489204
0.475166 0.0966201 0.499672
0.6392 0.155596 0.530449
0.63064 0.156542 0.547829
0.624323 0.157305 0.557702
0.615106 0.160143 0.567224
0.0490578 0.103716 0.414649
0.0667582 0.105531 0.434104
0.124895 0.0831922 0.473716
0.30016 0.084535 0.501854
0.481697 0.10312 0.515572
0.644617 0.161517 0.545922
0.629618 0.157397 0.553765
0.624414 0.157809 0.560342
0.61445 0.160372 0.569421
0.0489052 0.104646 0.415396
0.0495155 0.106035 0.425925
0.0956741 0.107713 0.458106
0.260807 0.0833906 0.505653
0.47454 0.105776 0.52636
0.647166 0.162036 0.549722
0.638666 0.154696 0.545739
0.632334 0.155505 0.552316
0.620066 0.159045 0.563882
0.0423743 0.146624 0.387625
0.0424964 0.140322 0.395895
0.0423743 0.130465 0.400687
0.150759 0.0915389 0.508888
0.491112 0.136248 0.573983
0.672831 0.179202 0.573739
0.661082 0.163455 0.551202
0.650294 0.161151 0.554345
0.635599 0.165408 0.567758
0.0450446 0.468269 0.531319
0.0448615 0.469902 0.543008
0.0447547 0.463401 0.549798
0.0485237 0.47512 0.586053
0.540246 0.514672 0.767132
0.888441 0.580484 0.827039
0.906065 0.562387 0.830915
0.903502 0.543038 0.842008
0.898116 0.540291 0.844968
0.221653 0.722301 0.641016
0.212284 0.727428 0.654643
0.214832 0.728908 0.657496
0.216037 0.729046 0.657984
0.508003 0.792752 0.734997
0.821744 0.848798 0.816861
0.895262 0.840345 0.804166
0.896101 0.842588 0.80592
0.891249 0.84416 0.81323
0.377096 0.807279 0.722622
0.368017 0.807492 0.727977
0.364813 0.806806 0.72607
0.352285 0.803525 0.718288
0.548226 0.844984 0.764065
0.779538 0.894057 0.826246
0.878279 0.914244 0.82562
0.885847 0.916197 0.843687
0.885283 0.91632 0.846265
0.555123 0.84889 0.788922
0.550378 0.847791 0.787793
0.537545 0.844755 0.78291
0.507301 0.837781 0.770306
0.592798 0.856565 0.789639
0.778836 0.896529 0.836942
0.865385 0.913024 0.849088
0.881437 0.916579 0.839033
0.879408 0.916854 0.844892
0.576623 0.853803 0.795316
0.567987 0.851987 0.79411
0.552682 0.848478 0.789197
0.518273 0.840162 0.77496
0.588525 0.855558 0.789761
0.77435 0.896071 0.837964
0.863264 0.913008 0.853544
0.882048 0.916915 0.844007
0.880903 0.917113 0.846494
0.13257 0.102541 0.499779
0.153338 0.0860761 0.516152
0.23505 0.0907301 0.529122
0.362783 0.106081 0.550729
0.518471 0.136904 0.57821
0.636332 0.181888 0.61503
0.637507 0.181033 0.61326
0.638605 0.179706 0.611048
0.63537 0.181537 0.614572
0.126986 0.107195 0.49691
0.145312 0.0898146 0.513634
0.227192 0.0904097 0.52874
0.36408 0.106432 0.551431
0.532876 0.144106 0.586358
0.639216 0.183276 0.616617
0.6374 0.181521 0.614176
0.636316 0.18114 0.613733
0.633829 0.182544 0.616861
0.128557 0.106355 0.497261
0.130709 0.103182 0.501961
0.188785 0.0878767 0.523308
0.339742 0.103059 0.547051
0.52697 0.143069 0.586465
0.640192 0.183825 0.617304
0.639673 0.181521 0.613428
0.639017 0.18085 0.612528
0.63563 0.182147 0.615595
0.0634928 0.129 0.472114
0.0826123 0.126268 0.484215
0.109346 0.122042 0.491585
0.284749 0.106889 0.551385
0.53402 0.161273 0.616938
0.659648 0.198398 0.637263
0.642771 0.182635 0.614725
0.639643 0.180133 0.61149
0.635447 0.180865 0.613474
0.0454108 0.451438 0.578439
0.0457771 0.456687 0.584421
0.0469825 0.460212 0.594202
0.1122 0.492042 0.675837
0.640269 0.512184 0.833265
0.891859 0.573159 0.889189
0.896971 0.552392 0.887221
0.894362 0.526619 0.883513
0.891997 0.524514 0.882933
0.238895 0.720104 0.704204
0.241047 0.725032 0.711284
0.249989 0.728084 0.716838
0.257588 0.731136 0.724025
0.515358 0.776471 0.787305
0.828 0.821347 0.879713
0.898283 0.825452 0.873075
0.899748 0.821576 0.872343
0.894652 0.823407 0.876417
0.405173 0.815274 0.75172
0.407721 0.816297 0.754284
0.410346 0.816815 0.755123
0.407996 0.816373 0.754559
0.579263 0.852964 0.798459
0.807782 0.902235 0.865034
0.879561 0.915862 0.88191
0.884169 0.916884 0.883024
0.883955 0.916945 0.883574
0.635706 0.867048 0.812573
0.619135 0.863996 0.814404
0.614343 0.862913 0.812894
0.602594 0.860319 0.808865
0.672129 0.876387 0.828244
0.828626 0.909957 0.872038
0.877134 0.920104 0.884565
0.884215 0.921736 0.884062
0.884016 0.922011 0.885267
0.653117 0.872007 0.824308
0.649302 0.871321 0.823713
0.642451 0.869718 0.821912
0.62858 0.866361 0.816999
0.685191 0.879179 0.832639
0.830152 0.910414 0.873137
0.876554 0.920119 0.885222
0.885634 0.921508 0.883772
0.885344 0.921706 0.884596
0.400076 0.154742 0.614618
0.419471 0.158343 0.620233
0.486213 0.178882 0.649149
0.594553 0.215305 0.694438
0.722652 0.267247 0.732403
0.772107 0.298314 0.753597
0.746426 0.270726 0.726375
0.734936 0.256718 0.71075
0.740139 0.266285 0.721202
0.425513 0.173938 0.640269
0.455879 0.183948 0.654139
0.523903 0.206043 0.685115
0.634546 0.245945 0.730861
0.759548 0.300298 0.763516
0.792798 0.321843 0.775708
0.752529 0.277028 0.733181
0.740841 0.266072 0.720974
0.737392 0.267094 0.722072
0.447257 0.190112 0.660853
0.470726 0.202594 0.677668
0.528817 0.222065 0.704036
0.626612 0.250645 0.737667
0.752255 0.297932 0.763073
0.793301 0.317937 0.772534
0.751629 0.27303 0.728237
0.736065 0.258656 0.712627
0.736507 0.264073 0.718975
0.416602 0.193652 0.662806
0.436744 0.195605 0.667796
0.4533 0.199496 0.673045
0.580423 0.239902 0.726925
0.740795 0.30074 0.771405
0.800427 0.327047 0.78088
0.770581 0.291615 0.747387
0.741741 0.262196 0.717174
0.7337 0.260044 0.714488
0.232288 0.505592 0.705303
0.282048 0.511864 0.717754
0.374899 0.517662 0.739544
0.477806 0.519524 0.768734
0.798886 0.581476 0.884077
0.900954 0.596551 0.890822
0.908598 0.587976 0.890684
0.907515 0.569589 0.889632
0.897459 0.57084 0.888838
0.33785 0.746593 0.745434
0.34963 0.751568 0.751049
0.372915 0.755276 0.755932
0.404547 0.757961 0.762646
0.600504 0.7944 0.810239
0.858717 0.822843 0.884932
0.895949 0.825025 0.878065
0.896544 0.821393 0.878065
0.893111 0.822385 0.880735
0.517723 0.838529 0.785794
0.524254 0.840482 0.789105
0.534905 0.842832 0.792065
0.548867 0.845258 0.795682
0.657633 0.869566 0.8271
0.820081 0.904051 0.873442
0.88307 0.91429 0.887205
0.885603 0.915251 0.887541
0.885405 0.915206 0.887831
0.674342 0.876173 0.825193
0.662852 0.874327 0.827924
0.661692 0.874067 0.827665
0.656535 0.872984 0.826062
0.707332 0.884657 0.840223
0.835813 0.911681 0.87602
0.881468 0.920348 0.885252
0.891585 0.920836 0.882536
0.890822 0.921019 0.883345
0.710216 0.885191 0.84094
0.707942 0.884794 0.840909
0.703578 0.883986 0.840177
0.695903 0.882094 0.837781
0.734676 0.890898 0.848219
0.844465 0.913451 0.878325
0.88072 0.921096 0.887175
0.886336 0.92221 0.887022
0.885634 0.922393 0.887999
0.524407 0.219654 0.70045
0.54638 0.227085 0.710582
0.591745 0.239506 0.727443
0.673518 0.269383 0.752697
0.771099 0.309621 0.770764
0.798886 0.328527 0.781903
0.763806 0.288289 0.744091
0.743938 0.265156 0.719844
0.740063 0.266316 0.721233
0.500664 0.212818 0.691203
0.525414 0.22089 0.702678
0.575463 0.235386 0.721736
0.665888 0.266697 0.751247
0.771984 0.310094 0.770886
0.798886 0.328115 0.781674
0.756558 0.281682 0.736919
0.740841 0.266087 0.720974
0.737392 0.267094 0.722072
0.468574 0.20148 0.675822
0.482582 0.207431 0.684382
0.535439 0.223926 0.706294
0.637537 0.255985 0.74284
0.763775 0.306752 0.769879
0.801678 0.327596 0.781537
0.760861 0.282521 0.737896
0.743206 0.26537 0.720027
0.739239 0.266545 0.721477
0.47834 0.214527 0.690562
0.465431 0.202426 0.677028
0.476051 0.20798 0.684276
0.585397 0.238224 0.725933
0.738689 0.29572 0.765728
0.800458 0.326802 0.780697
0.77023 0.291493 0.747204
0.74432 0.265049 0.719783
0.740444 0.266194 0.721096
0.406912 0.507225 0.74641
0.405035 0.504829 0.747463
0.41239 0.492439 0.749966
0.499092 0.490547 0.776425
0.807767 0.559533 0.884718
0.903349 0.575372 0.890013
0.907134 0.569162 0.889509
0.905745 0.549966 0.88719
0.896513 0.552331 0.88719
0.44596 0.764706 0.769436
0.440833 0.76495 0.770428
0.437064 0.761456 0.769589
0.434607 0.754726 0.767651
0.618616 0.786755 0.812802
0.86511 0.813581 0.885405
0.895384 0.817304 0.879103
0.896315 0.815152 0.878965
0.892561 0.816861 0.880873
0.61387 0.859541 0.813672
0.612009 0.859434 0.814267
0.610162 0.858717 0.813855
0.605509 0.856947 0.812619
0.685283 0.875105 0.835599
0.823133 0.904372 0.874708
0.883436 0.913344 0.887816
0.885451 0.914305 0.887938
0.885435 0.914336 0.887968
0.710384 0.884565 0.835554
0.698634 0.88275 0.838499
0.697108 0.882399 0.838193
0.692943 0.881315 0.837079
0.733333 0.8907 0.849027
0.839551 0.912764 0.878386
0.883253 0.920119 0.884367
0.892393 0.920638 0.881559
0.892439 0.920638 0.881514
0.731228 0.89015 0.847257
0.7299 0.889967 0.847654
0.729274 0.889876 0.847883
0.729274 0.889876 0.847883
0.763561 0.897368 0.857542
0.848692 0.914519 0.880796
0.880003 0.921508 0.888319
0.88539 0.922438 0.888243
0.885512 0.922408 0.888121
