bundles/resolve-cinematic-luts/Phantom Luts/Ursa G2 Phntm Film LUTs - V1/Gen5/Standard (No WB Offset)/Ursa G2 Eastman Gen5.cube
TITLE "Generated by Resolve"
LUT_3D_SIZE 9
0.0390021 0.0390021 0.0390021
0.0415961 0.0390021 0.0390021
0.107805 0.0390021 0.0390021
0.276417 0.0402075 0.0390021
0.420905 0.0571145 0.0390021
0.517342 0.0954147 0.0452125
0.547021 0.104738 0.0500801
0.552834 0.0999771 0.0536355
0.523537 0.108782 0.0509651
0.0424048 0.0390021 0.0391546
0.0443427 0.0390021 0.0396582
0.0969558 0.0390021 0.0432136
0.266468 0.0414588 0.0390021
0.414237 0.0602121 0.0390021
0.513863 0.0978866 0.0446784
0.543923 0.105699 0.0498054
0.550973 0.10042 0.0534218
0.523049 0.108934 0.0509194
0.0682841 0.110369 0.0687724
0.0606699 0.110002 0.0662089
0.106157 0.127108 0.0675364
0.330938 0.0978256 0.0530098
0.448707 0.0983597 0.0421607
0.513863 0.10811 0.0438544
0.530022 0.111376 0.0465553
0.534112 0.109377 0.0478676
0.522408 0.112871 0.0467536
0.104479 0.341985 0.133562
0.0895247 0.347097 0.132494
0.0879072 0.347539 0.108019
0.334783 0.428412 0.125917
0.628244 0.397528 0.122698
0.742168 0.349157 0.150454
0.747402 0.325872 0.143908
0.710826 0.271061 0.12221
0.695109 0.263798 0.118929
0.117632 0.569604 0.266087
0.113191 0.568872 0.259937
0.111162 0.56405 0.248066
0.164248 0.562371 0.146288
0.568917 0.678477 0.195071
0.768582 0.669413 0.232288
0.831174 0.664378 0.234668
0.828214 0.646876 0.225452
0.823651 0.64033 0.223499
0.179294 0.713161 0.401999
0.173007 0.701198 0.382177
0.172061 0.699138 0.379294
0.174517 0.671748 0.282429
0.484627 0.74696 0.247791
0.717403 0.819135 0.294743
0.828061 0.810742 0.330999
0.854215 0.811383 0.337194
0.853834 0.806867 0.33051
0.1991 0.734585 0.440986
0.179873 0.710277 0.391608
0.175998 0.702937 0.372107
0.180117 0.683482 0.307851
0.4851 0.751156 0.25182
0.676951 0.817029 0.29189
0.79939 0.821469 0.319661
0.850034 0.815702 0.347173
0.846952 0.817029 0.356283
0.207996 0.737011 0.449439
0.183322 0.706447 0.380331
0.177951 0.6907 0.322042
0.186587 0.6795 0.273228
0.467262 0.744503 0.232059
0.630106 0.805097 0.2757
0.770871 0.826368 0.300191
0.85185 0.812299 0.327001
0.845136 0.816693 0.353216
0.212558 0.742489 0.462943
0.188251 0.713222 0.400336
0.177371 0.691203 0.330159
0.180087 0.685985 0.305867
0.37673 0.708339 0.207416
0.607904 0.798566 0.272892
0.744671 0.825666 0.293416
0.84033 0.81265 0.325414
0.842649 0.817166 0.354696
0.0390021 0.0390021 0.0390021
0.0431983 0.0390021 0.0390021
0.111162 0.0390021 0.0493629
0.281682 0.0390021 0.0390021
0.418936 0.0572976 0.0390021
0.508568 0.100008 0.0457465
0.528572 0.110369 0.0481575
0.534478 0.105653 0.0516518
0.513481 0.11194 0.049958
0.0393988 0.0390021 0.0390021
0.0424353 0.0390021 0.0408026
0.101228 0.0390021 0.0431983
0.264866 0.0451057 0.0390021
0.406622 0.0620584 0.0390021
0.503273 0.103166 0.0443732
0.526101 0.111055 0.0480201
0.532692 0.106081 0.0516365
0.513649 0.111788 0.0500649
0.0657511 0.10103 0.0766918
0.0598154 0.103319 0.0701915
0.10428 0.118273 0.0653391
0.32195 0.0892042 0.0466621
0.432166 0.0867781 0.0390021
0.507744 0.108888 0.0438544
0.524819 0.112352 0.0461891
0.52903 0.110811 0.0476692
0.517403 0.114199 0.0465705
0.103929 0.329915 0.158038
0.0905318 0.334051 0.140063
0.0890364 0.343008 0.115709
0.329778 0.418067 0.12488
0.628443 0.370062 0.120943
0.736782 0.327199 0.143648
0.735607 0.304295 0.133715
0.687922 0.245975 0.113146
0.670619 0.238315 0.109682
0.122606 0.577371 0.306798
0.112566 0.567605 0.285466
0.110216 0.562417 0.254597
0.147524 0.556542 0.150484
0.564279 0.671534 0.190951
0.771466 0.657145 0.225895
0.827497 0.647181 0.225528
0.822538 0.627344 0.215869
0.817517 0.620844 0.213916
0.188281 0.727657 0.439261
0.180148 0.714107 0.419089
0.170733 0.696971 0.377218
0.169665 0.675532 0.307134
0.460883 0.736049 0.239506
0.713649 0.816739 0.291295
0.829786 0.808621 0.329915
0.853437 0.805325 0.329564
0.852628 0.798871 0.323308
0.218555 0.760082 0.490623
0.20119 0.738811 0.451179
0.17612 0.703716 0.374548
0.176638 0.69102 0.337255
0.444938 0.734005 0.239689
0.669825 0.815015 0.290639
0.796201 0.823102 0.318273
0.850294 0.815671 0.34728
0.847578 0.817014 0.356451
0.232471 0.765637 0.506584
0.210254 0.740047 0.452277
0.17847 0.692744 0.327993
0.180423 0.685939 0.303532
0.414466 0.722744 0.215503
0.619638 0.801923 0.274037
0.75993 0.826322 0.296941
0.850233 0.812192 0.325719
0.845182 0.816709 0.353353
0.236011 0.769848 0.517601
0.215686 0.745617 0.468071
0.178943 0.696361 0.344564
0.178164 0.689799 0.320043
0.323049 0.691493 0.198535
0.599161 0.795727 0.270893
0.732326 0.824567 0.290211
0.836515 0.812528 0.323842
0.842573 0.817166 0.354574
0.0390021 0.0390021 0.068864
0.0546578 0.0390021 0.0776074
0.120806 0.0390021 0.0838941
0.305715 0.0390021 0.0796674
0.449516 0.0390021 0.06009
0.539712 0.0525368 0.0753796
0.545419 0.0847944 0.064271
0.535836 0.103716 0.0531167
0.516594 0.108003 0.0523232
0.0390021 0.0390021 0.0595254
0.0395361 0.0390021 0.0751202
0.108629 0.0390021 0.0815595
0.298466 0.0390021 0.0624704
0.44416 0.0390021 0.0475776
0.537591 0.0783703 0.0648814
0.53875 0.0978866 0.0571298
0.534371 0.104417 0.0529641
0.515373 0.110414 0.0512245
0.0614176 0.0975509 0.0876936
0.0563211 0.0972152 0.0890974
0.116838 0.109239 0.111833
0.341817 0.0971084 0.0860609
0.461143 0.0872663 0.0471351
0.519402 0.105119 0.0468299
0.527062 0.111376 0.0467536
0.530602 0.110292 0.0482032
0.518853 0.113787 0.0470741
0.109758 0.329763 0.208606
0.0991379 0.326848 0.197192
0.0936294 0.327703 0.161852
0.361563 0.41474 0.148425
0.635615 0.335531 0.148836
0.732403 0.309773 0.14107
0.727398 0.290822 0.128435
0.664881 0.222477 0.104204
0.637766 0.208545 0.0962997
0.131563 0.592889 0.370413
0.12697 0.587182 0.363745
0.114519 0.566979 0.306416
0.124605 0.544869 0.17023
0.569909 0.661402 0.190082
0.783398 0.632151 0.215244
0.823941 0.631998 0.217884
0.817731 0.609003 0.207462
0.81117 0.600992 0.203998
0.202106 0.746075 0.496086
0.196323 0.736767 0.483604
0.180606 0.713497 0.428458
0.16643 0.680842 0.336095
0.438743 0.725399 0.233066
0.715129 0.814557 0.2907
0.831403 0.805386 0.326802
0.852079 0.795193 0.321065
0.850629 0.786938 0.314336
0.242786 0.791836 0.556786
0.231922 0.777874 0.532555
0.20412 0.744472 0.461616
0.175494 0.699214 0.36257
0.386999 0.711055 0.222736
0.657694 0.81236 0.288548
0.791562 0.824537 0.317067
0.850874 0.815656 0.34757
0.848539 0.816999 0.356649
0.262394 0.799924 0.579065
0.248478 0.784268 0.545556
0.213413 0.744869 0.449271
0.17818 0.690135 0.319661
0.338216 0.695964 0.199435
0.610803 0.799512 0.272465
0.745205 0.825559 0.290623
0.847364 0.812024 0.324041
0.84538 0.816693 0.353445
0.265019 0.80177 0.586252
0.250843 0.78677 0.55285
0.218173 0.749905 0.4636
0.177798 0.690806 0.32372
0.236194 0.675807 0.202808
0.582895 0.790265 0.267369
0.711009 0.822477 0.285557
0.829389 0.812177 0.32134
0.840848 0.817472 0.355581
0.0390021 0.0435492 0.179629
0.0552682 0.0452277 0.196551
0.143267 0.0419318 0.21828
0.311452 0.0390021 0.218387
0.468284 0.05037 0.248066
0.56492 0.0789502 0.285725
0.573632 0.0843366 0.300954
0.575387 0.0872053 0.305806
0.561502 0.0934615 0.310613
0.0390021 0.0436103 0.180987
0.0390021 0.0453803 0.199573
0.113085 0.0440681 0.227649
0.3084 0.0390021 0.219409
0.466697 0.0500496 0.241077
0.563363 0.0758679 0.266835
0.568689 0.080705 0.282383
0.571283 0.0836652 0.289952
0.558175 0.0897993 0.296757
0.0390021 0.0790723 0.173373
0.0390021 0.0704814 0.188586
0.0637064 0.0591135 0.237324
0.310826 0.0484779 0.236454
0.469596 0.0480964 0.232059
0.565316 0.0724804 0.252781
0.569223 0.0746929 0.26157
0.569955 0.0743725 0.258473
0.560861 0.0788434 0.263554
0.0934157 0.327962 0.265446
0.085008 0.32903 0.269505
0.0841535 0.328359 0.270924
0.405631 0.409873 0.402975
0.655299 0.343771 0.361654
0.780118 0.30808 0.31754
0.760342 0.289845 0.265385
0.678096 0.226764 0.152941
0.650904 0.213092 0.144717
0.132372 0.601831 0.431601
0.130816 0.600015 0.437415
0.129915 0.595453 0.420294
0.179217 0.598474 0.393973
0.586603 0.659983 0.356023
0.789975 0.580362 0.35993
0.816541 0.564172 0.312413
0.815457 0.599573 0.20705
0.809369 0.595117 0.201602
0.211246 0.757916 0.555688
0.211017 0.754131 0.55613
0.205127 0.74641 0.533516
0.200443 0.728389 0.480079
0.364889 0.696544 0.336461
0.72433 0.804715 0.347219
0.8448 0.780667 0.364034
0.850752 0.789975 0.321141
0.849073 0.782422 0.310323
0.265171 0.816312 0.626398
0.261341 0.812604 0.619684
0.250507 0.80148 0.59057
0.229404 0.774395 0.522576
0.312444 0.711025 0.371893
0.64332 0.811429 0.35906
0.813184 0.823728 0.358434
0.853742 0.815824 0.350912
0.84863 0.817075 0.357336
0.362722 0.834806 0.672984
0.324697 0.82594 0.649424
0.274784 0.809491 0.604623
0.232715 0.768917 0.503456
0.279026 0.707576 0.363333
0.602152 0.797131 0.342199
0.776013 0.830289 0.326741
0.847227 0.812604 0.32752
0.845365 0.816709 0.353704
0.367391 0.835477 0.677317
0.330419 0.826444 0.651728
0.27892 0.810071 0.6056
0.230549 0.764446 0.495384
0.225101 0.70338 0.354971
0.550317 0.776669 0.312505
0.74316 0.828183 0.312428
0.825452 0.813321 0.321202
0.84242 0.817075 0.353933
0.0390021 0.0531777 0.315435
0.0720073 0.0512703 0.335332
0.199176 0.0430457 0.362081
0.345556 0.0484016 0.362066
0.47985 0.0743725 0.37406
0.589349 0.109926 0.413672
0.590524 0.119341 0.444663
0.590051 0.124743 0.463188
0.587594 0.127764 0.468696
0.0390021 0.0538033 0.317525
0.0410925 0.0543221 0.331807
0.160052 0.0443885 0.36817
0.340368 0.0489509 0.371496
0.48098 0.0757153 0.376989
0.590829 0.110582 0.412619
0.589914 0.118242 0.440818
0.589502 0.123354 0.458061
0.58584 0.125322 0.459754
0.0390021 0.0517281 0.291035
0.0390021 0.0531472 0.307286
0.0850538 0.0514534 0.361608
0.324132 0.0483253 0.381292
0.479149 0.0767529 0.379828
0.592721 0.109941 0.412299
0.594049 0.116274 0.439811
0.591867 0.120821 0.452232
0.586648 0.123842 0.454994
0.0390021 0.270878 0.366094
0.0390021 0.259571 0.36997
0.0390021 0.241978 0.372824
0.346456 0.262837 0.548043
0.668757 0.308614 0.578103
0.784482 0.27425 0.569085
0.735225 0.219272 0.534234
0.654185 0.160327 0.470253
0.619989 0.141207 0.444282
0.124208 0.597436 0.490913
0.123613 0.596033 0.493278
0.123064 0.594247 0.492119
0.201923 0.614069 0.523964
0.636011 0.658305 0.638437
0.798978 0.598398 0.590494
0.836103 0.569894 0.562081
0.824384 0.552209 0.531044
0.816266 0.54023 0.520821
0.211475 0.756069 0.599435
0.211139 0.752697 0.601633
0.208728 0.74931 0.59263
0.222156 0.749218 0.582376
0.528176 0.767559 0.632181
0.748226 0.819135 0.620844
0.862333 0.796582 0.637278
0.861845 0.784436 0.604974
0.855131 0.771267 0.571954
0.305074 0.824094 0.674571
0.29073 0.819944 0.669322
0.275044 0.815244 0.656245
0.268925 0.811353 0.637125
0.486183 0.811475 0.642252
0.66862 0.835416 0.638911
0.829419 0.878157 0.623392
0.879103 0.867124 0.634241
0.870298 0.853666 0.576623
0.466773 0.856718 0.739757
0.439567 0.851957 0.727871
0.39823 0.844007 0.70515
0.323217 0.827924 0.660563
0.466972 0.822782 0.651194
0.624491 0.827451 0.64419
0.780102 0.872602 0.633677
0.85391 0.858 0.577523
0.852399 0.834348 0.476371
0.483299 0.859236 0.748196
0.461143 0.854658 0.736049
0.425147 0.84802 0.714427
0.349706 0.831144 0.664744
0.421271 0.818692 0.633738
0.589426 0.816236 0.63064
0.748272 0.862364 0.634287
0.836027 0.861799 0.577432
0.84863 0.830442 0.45745
0.0732128 0.0577401 0.406287
0.139757 0.0531472 0.428656
0.250843 0.0549325 0.452659
0.383658 0.0693523 0.459525
0.501701 0.100328 0.469703
0.59939 0.141512 0.507668
0.601434 0.143572 0.520668
0.597772 0.141649 0.527077
0.598932 0.142901 0.532113
0.0436408 0.0604868 0.397726
0.0934462 0.0569619 0.419623
0.221302 0.0544289 0.45507
0.375708 0.0695811 0.466606
0.503929 0.10248 0.47657
0.60267 0.142962 0.511238
0.601892 0.143313 0.520882
0.597009 0.140551 0.525368
0.597955 0.142031 0.529488
0.0390021 0.0607919 0.392599
0.0458686 0.0606851 0.403754
0.16643 0.0551308 0.450202
0.354849 0.0685435 0.474784
0.501427 0.102632 0.482307
0.604212 0.143664 0.514549
0.600549 0.14258 0.519203
0.596475 0.1402 0.522271
0.59704 0.140963 0.52459
0.0390021 0.215869 0.418769
0.0390021 0.197131 0.41738
0.0390021 0.166354 0.412268
0.334462 0.153017 0.568124
0.613703 0.218997 0.62208
0.694133 0.219837 0.596033
0.667979 0.197238 0.571099
0.624094 0.160983 0.539284
0.621851 0.15996 0.537804
0.10425 0.565759 0.558984
0.102159 0.559915 0.560784
0.098497 0.549203 0.564095
0.138811 0.562173 0.605295
0.602274 0.584054 0.768444
0.846052 0.607889 0.771939
0.886122 0.590036 0.768261
0.887068 0.567315 0.766567
0.882002 0.553796 0.760021
0.209705 0.750591 0.63743
0.207645 0.747829 0.635904
0.205234 0.744625 0.633051
0.213901 0.743893 0.634104
0.571115 0.793301 0.734478
0.791974 0.81912 0.793439
0.871489 0.798917 0.776425
0.877684 0.78555 0.762158
0.872709 0.772381 0.748608
0.329351 0.825833 0.703548
0.3149 0.821714 0.699321
0.297627 0.817197 0.690715
0.289204 0.812955 0.6813
0.585306 0.852811 0.760739
0.758618 0.875502 0.807813
0.853071 0.8963 0.797284
0.899214 0.891539 0.808286
0.898146 0.887358 0.796811
0.515648 0.866072 0.772671
0.493919 0.861921 0.763531
0.46743 0.857862 0.7514
0.428351 0.851179 0.730983
0.584833 0.873014 0.773693
0.737652 0.891234 0.812879
0.824689 0.90724 0.814099
0.887037 0.917815 0.79733
0.904952 0.918898 0.808698
0.562051 0.872877 0.789685
0.549798 0.87097 0.784344
0.531182 0.86743 0.774838
0.494316 0.860883 0.755489
0.571115 0.871412 0.772519
0.722347 0.890959 0.812543
0.811948 0.906401 0.822232
0.871931 0.918379 0.806546
0.899763 0.914137 0.78909
0.168933 0.0601053 0.470314
0.219867 0.061677 0.483574
0.309697 0.0704814 0.501274
0.423301 0.0899977 0.512428
0.536828 0.122377 0.527596
0.620768 0.161669 0.561791
0.621424 0.162387 0.565545
0.618463 0.159869 0.562722
0.620996 0.162036 0.565606
0.142626 0.0610819 0.46511
0.189288 0.0614939 0.479072
0.289601 0.068452 0.500511
0.415076 0.0889448 0.513909
0.537881 0.123888 0.530831
0.621988 0.162615 0.564584
0.621897 0.162753 0.566262
0.618296 0.159869 0.562631
0.620218 0.161517 0.564813
0.146227 0.0612955 0.467094
0.150607 0.0611887 0.468605
0.24184 0.0641184 0.492576
0.391806 0.0847181 0.514397
0.531441 0.12192 0.532982
0.622827 0.163546 0.56672
0.621958 0.162799 0.566308
0.616541 0.158526 0.560922
0.617655 0.159396 0.56199
0.0390021 0.160662 0.437171
0.0390021 0.146838 0.442237
0.0480354 0.139925 0.469215
0.395575 0.148898 0.591806
0.59733 0.192599 0.620111
0.678462 0.210849 0.617578
0.675288 0.206806 0.616083
0.633371 0.171817 0.576135
0.631785 0.170687 0.575158
0.0997177 0.551934 0.596414
0.0983444 0.547036 0.597391
0.095552 0.538888 0.599374
0.18616 0.560815 0.66952
0.630625 0.553994 0.825635
0.872602 0.601389 0.850248
0.898558 0.595361 0.838331
0.897581 0.574121 0.834607
0.895796 0.559152 0.831327
0.195499 0.737148 0.661326
0.19202 0.732311 0.660319
0.186084 0.725185 0.658854
0.221881 0.730312 0.680278
0.544549 0.7691 0.777401
0.793072 0.791547 0.860288
0.885725 0.795911 0.851087
0.894774 0.784787 0.847196
0.893202 0.770672 0.843137
0.352453 0.82739 0.727886
0.337316 0.822873 0.721935
0.321096 0.818402 0.715679
0.309361 0.813642 0.70988
0.577752 0.852323 0.784863
0.777554 0.881483 0.844907
0.866728 0.893355 0.865141
0.901717 0.888594 0.860761
0.9019 0.88452 0.856825
0.538277 0.869581 0.788418
0.519722 0.866682 0.781796
0.497932 0.863218 0.772549
0.471351 0.859037 0.761044
0.618387 0.880522 0.804532
0.7823 0.905409 0.856092
0.857939 0.918486 0.87715
0.894652 0.926558 0.871168
0.909941 0.92665 0.877607
0.614298 0.882689 0.814221
0.606287 0.881315 0.811109
0.595376 0.879332 0.806592
0.57557 0.875624 0.79707
0.644968 0.887358 0.816709
0.781216 0.910582 0.860365
0.853971 0.923568 0.881346
0.886381 0.929808 0.879774
0.905684 0.933181 0.872374
0.309331 0.0721447 0.507347
0.338415 0.0763867 0.511177
0.395575 0.0861067 0.517647
0.483436 0.111238 0.533028
0.589334 0.153262 0.563363
0.65127 0.187381 0.594751
0.644282 0.181064 0.588052
0.642267 0.179339 0.585809
0.655116 0.190127 0.598444
0.304524 0.0715953 0.506767
0.329137 0.0751354 0.510323
0.386984 0.084596 0.516991
0.477089 0.109667 0.532509
0.602457 0.16524 0.576623
0.663142 0.197375 0.606378
0.641794 0.179019 0.585367
0.653223 0.188693 0.596674
0.672862 0.205432 0.615656
0.311818 0.0744945 0.509667
0.318929 0.0772106 0.513146
0.37293 0.0884108 0.523247
0.47921 0.121187 0.548424
0.61239 0.17641 0.590875
0.66717 0.200763 0.610071
0.656489 0.19176 0.59971
0.644602 0.181491 0.588418
0.646464 0.183154 0.590311
0.287068 0.202762 0.615518
0.344579 0.200214 0.63093
0.392264 0.202731 0.643503
0.563729 0.237217 0.685389
0.703365 0.2701 0.69894
0.760067 0.284657 0.699474
0.74667 0.271504 0.686412
0.679057 0.211154 0.62153
0.644297 0.181079 0.588083
0.128176 0.572931 0.641932
0.150103 0.57435 0.657313
0.201404 0.571832 0.683879
0.366018 0.563714 0.738125
0.743999 0.587442 0.865873
0.887144 0.604181 0.858152
0.902113 0.606134 0.853574
0.901747 0.586358 0.851072
0.900038 0.571817 0.847776
0.280659 0.751263 0.71751
0.278721 0.746609 0.717159
0.283421 0.741558 0.71957
0.327596 0.739559 0.734279
0.564248 0.765698 0.799191
0.817365 0.780987 0.882261
0.894881 0.791058 0.878462
0.90042 0.78439 0.876051
0.899245 0.77084 0.872969
0.430915 0.836851 0.763027
0.419898 0.832807 0.760235
0.411734 0.828443 0.758114
0.40943 0.822965 0.757717
0.60444 0.849195 0.812543
0.767605 0.874113 0.860151
0.874311 0.885863 0.891905
0.903059 0.884276 0.888563
0.904372 0.880171 0.888304
0.566781 0.874708 0.803174
0.549981 0.871366 0.798611
0.532479 0.868299 0.79234
0.511131 0.864042 0.784894
0.626963 0.881514 0.819043
0.782254 0.906508 0.86627
0.864485 0.91783 0.890654
0.898863 0.924422 0.895644
0.910903 0.925185 0.895979
0.655589 0.89044 0.831617
0.649241 0.88922 0.829435
0.642756 0.888136 0.826673
0.627802 0.885069 0.820813
0.68069 0.895125 0.837232
0.80293 0.916671 0.875624
0.870817 0.927733 0.89662
0.897063 0.934356 0.902586
0.90898 0.936599 0.899428
0.575906 0.235386 0.682689
0.597726 0.244877 0.690898
0.64155 0.262913 0.704738
0.710979 0.28954 0.721645
0.779934 0.315984 0.731075
0.798566 0.327993 0.736767
0.773709 0.297948 0.712428
0.72491 0.250553 0.665736
0.725078 0.250492 0.665873
0.555901 0.226444 0.674174
0.578729 0.236866 0.68394
0.625711 0.256474 0.70013
0.702708 0.286366 0.720821
0.77731 0.314839 0.730785
0.798489 0.327901 0.73669
0.771832 0.296101 0.710628
0.724865 0.250584 0.66569
0.72491 0.250553 0.665736
0.535943 0.216999 0.664973
0.541329 0.219608 0.667536
0.590234 0.241901 0.687984
0.680186 0.277958 0.715358
0.769329 0.31191 0.729839
0.798825 0.328237 0.73695
0.775891 0.300496 0.714595
0.724865 0.250584 0.66569
0.724865 0.250584 0.66569
0.580545 0.321279 0.764767
0.578698 0.298604 0.746441
0.583856 0.287633 0.736736
0.673732 0.308659 0.750546
0.769894 0.331762 0.751385
0.816587 0.35436 0.75462
0.813306 0.348623 0.751171
0.754376 0.278294 0.693874
0.737026 0.261952 0.677348
0.398672 0.601465 0.74725
0.417502 0.593149 0.752468
0.425742 0.576638 0.75584
0.530465 0.570245 0.793835
0.812009 0.609277 0.875044
0.89485 0.611749 0.856168
0.901884 0.616083 0.855009
0.902098 0.601755 0.852872
0.900893 0.590478 0.850858
0.418769 0.772717 0.760952
0.424659 0.768505 0.762432
0.428428 0.761685 0.763668
0.456107 0.754971 0.769848
0.636057 0.773938 0.820615
0.853086 0.787198 0.886473
0.897398 0.789212 0.877302
0.900282 0.786313 0.876295
0.899214 0.774899 0.873594
0.552117 0.852461 0.80145
0.546181 0.848249 0.799634
0.542351 0.844327 0.798444
0.541543 0.839017 0.797543
0.651118 0.855009 0.829358
0.779095 0.873732 0.867735
0.881987 0.882658 0.89604
0.903838 0.88191 0.895323
0.90425 0.879362 0.895033
0.628244 0.884321 0.825513
0.616464 0.881575 0.823072
0.606332 0.878523 0.819471
0.598459 0.87538 0.816785
0.674662 0.886992 0.839979
0.793851 0.906157 0.875792
0.864881 0.915801 0.896483
0.901701 0.922271 0.903975
0.911086 0.923384 0.904036
0.691783 0.89688 0.845808
0.685206 0.895705 0.843702
0.677897 0.894652 0.841337
0.666773 0.892699 0.837659
0.703273 0.899443 0.848676
0.806073 0.917693 0.880415
0.870985 0.927565 0.900252
0.898985 0.93373 0.906752
0.910216 0.935714 0.906905
