bundles/resolve-cinematic-luts/Phantom Luts/Ursa G2 Phntm Film LUTs - V1/Gen5/Standard (No WB Offset)/Ursa G2 Eastman RM Legacy Gen5.cube
TITLE "Generated by Resolve"
LUT_3D_SIZE 33
0.0441596 0.0409247 0.0428779
0.0444038 0.0406806 0.0425269
0.0449989 0.0401617 0.0416724
0.0487984 0.0391241 0.0404212
0.0556649 0.0382391 0.0392615
0.0649119 0.0374762 0.0380255
0.0800946 0.0363622 0.0367895
0.10135 0.0356298 0.0365454
0.122942 0.0350958 0.0366064
0.144854 0.0345464 0.0371557
0.172351 0.0334478 0.0378271
0.20499 0.0328069 0.0387579
0.243549 0.0318761 0.0402075
0.290227 0.0304875 0.0414282
0.340505 0.0288701 0.0424201
0.388815 0.0272526 0.0436561
0.433768 0.0260624 0.0451362
0.475013 0.026215 0.0476387
0.512047 0.0271305 0.0510109
0.537926 0.0283207 0.0556802
0.553857 0.0313268 0.0605478
0.561379 0.0330205 0.0634012
0.562799 0.0332341 0.0649271
0.563958 0.0332189 0.0666972
0.565698 0.0331426 0.0700389
0.5673 0.0331273 0.0735027
0.567681 0.0331121 0.073991
0.567681 0.0331121 0.073991
0.565866 0.0332494 0.0752575
0.559991 0.033753 0.0791333
0.552544 0.0344091 0.0840314
0.538689 0.0356298 0.0953689
0.524529 0.0370184 0.107286
0.0449989 0.0401617 0.0416724
0.0446632 0.0404517 0.0421302
0.0449989 0.0401617 0.0416724
0.0480201 0.0392462 0.0403601
0.0528878 0.038407 0.0394598
0.0603494 0.0379034 0.0386664
0.0721141 0.0372015 0.0378882
0.0939345 0.0358892 0.0368353
0.119326 0.0353399 0.036759
0.14255 0.0347143 0.0372778
0.169055 0.033753 0.0382849
0.20087 0.0332189 0.0396429
0.240269 0.0323491 0.0410925
0.290272 0.0305486 0.0418097
0.343374 0.028748 0.0425116
0.391379 0.0271763 0.0438087
0.436927 0.0259251 0.0451972
0.477348 0.0262303 0.047776
0.51426 0.0272068 0.0512245
0.539788 0.0286412 0.0562295
0.554971 0.0315709 0.0608988
0.56141 0.0330205 0.0634928
0.56289 0.0332494 0.0650034
0.564157 0.0332036 0.0669871
0.56582 0.0331426 0.0703288
0.567544 0.0331273 0.0737926
0.567681 0.0331121 0.073991
0.567681 0.0331121 0.073991
0.565866 0.0332494 0.0752575
0.559991 0.033753 0.0791333
0.552529 0.0344091 0.0840314
0.538674 0.0356451 0.0953841
0.524514 0.0370184 0.107317
0.0449989 0.0401617 0.0416724
0.0444038 0.0406806 0.0425269
0.0444038 0.0406806 0.0425269
0.0449989 0.0401617 0.0416724
0.0492409 0.0393225 0.0404517
0.0554818 0.0389868 0.0396887
0.0651713 0.0384985 0.03888
0.081239 0.0375067 0.0383459
0.109041 0.0359808 0.0374609
0.135348 0.0346685 0.037171
0.164965 0.0334936 0.0378729
0.196811 0.0331731 0.0395972
0.235294 0.0325475 0.0416876
0.285359 0.0310521 0.0432746
0.340902 0.0290532 0.0436255
0.392035 0.0273899 0.0445258
0.439002 0.025864 0.0453956
0.480095 0.0263218 0.0480812
0.516625 0.0272679 0.0514839
0.541482 0.0289616 0.0566415
0.555718 0.0318608 0.0612497
0.561502 0.0330205 0.0635996
0.562966 0.0332494 0.0651255
0.564324 0.0332036 0.0672465
0.565942 0.0331426 0.0706035
0.567681 0.0331121 0.073991
0.567681 0.0331121 0.073991
0.567681 0.0331121 0.073991
0.565866 0.0332494 0.0752575
0.559991 0.033753 0.0791333
0.552529 0.0344091 0.0840314
0.538643 0.0356451 0.0953994
0.524483 0.0370184 0.107347
0.0460822 0.045716 0.0434272
0.0452277 0.0457465 0.0439002
0.0448463 0.0446174 0.0437171
0.0456092 0.0446479 0.0435645
0.0493172 0.0462043 0.0433356
0.0547799 0.0458991 0.0419776
0.0633707 0.0457618 0.0411841
0.0780804 0.0438392 0.0400702
0.102571 0.041062 0.0392309
0.131044 0.0372778 0.0382696
0.159945 0.0341802 0.0377508
0.194766 0.0330053 0.038941
0.233143 0.0315099 0.0408179
0.282536 0.0301976 0.0429389
0.336614 0.0290684 0.0442817
0.388205 0.0275731 0.0462806
0.43447 0.0260471 0.0473945
0.477348 0.0267491 0.0500496
0.514214 0.0276493 0.0537423
0.540627 0.0294194 0.0587778
0.555123 0.0322728 0.0624399
0.561074 0.0330816 0.0640421
0.563058 0.0332341 0.0652781
0.564431 0.0331884 0.0675212
0.566094 0.0331426 0.0708934
0.567681 0.0331121 0.073991
0.567681 0.0331121 0.073991
0.567559 0.0331273 0.0740673
0.565789 0.0332494 0.0753033
0.55993 0.033753 0.0791791
0.552514 0.0344091 0.0840467
0.538628 0.0356451 0.0954299
0.524453 0.0370184 0.107378
0.0470283 0.052781 0.0458839
0.0460059 0.0532082 0.0466773
0.0455024 0.0526436 0.0462501
0.0460059 0.0522774 0.0455634
0.0486152 0.0538796 0.045594
0.0531167 0.0530709 0.0450141
0.0624857 0.051545 0.0436866
0.0776989 0.0501717 0.0426947
0.101305 0.0473335 0.0412451
0.128557 0.0437934 0.0403754
0.161898 0.0384833 0.0388495
0.197726 0.0343633 0.0385901
0.236469 0.0304875 0.0395361
0.284932 0.0287785 0.0414588
0.33753 0.0273747 0.0434272
0.387076 0.0263981 0.0451514
0.43299 0.0260319 0.0473335
0.475425 0.0269474 0.0505531
0.512001 0.0279088 0.0550088
0.536324 0.0299229 0.0609445
0.550134 0.0329747 0.0651408
0.554604 0.0337072 0.0674754
0.556512 0.0337987 0.0692454
0.558099 0.0337377 0.0715648
0.559915 0.0336919 0.0752117
0.561471 0.0336309 0.0780346
0.561502 0.0336309 0.0780041
0.561379 0.0336461 0.0781109
0.561105 0.0336614 0.0783398
0.557778 0.0339361 0.0806897
0.551858 0.0344549 0.0846876
0.538613 0.0356451 0.0954147
0.524422 0.0370184 0.107393
0.0483253 0.0603799 0.0485542
0.0468757 0.0612192 0.0496681
0.0464637 0.0610208 0.0493782
0.0468452 0.0605325 0.0482185
0.0484474 0.0610208 0.0476997
0.0512093 0.0620737 0.0471962
0.059678 0.060914 0.046891
0.0768292 0.0581216 0.0457618
0.101442 0.0549935 0.0439765
0.127916 0.0513008 0.0428016
0.156237 0.0471656 0.0420081
0.193866 0.040528 0.0401465
0.239536 0.0340429 0.0399023
0.291737 0.0299687 0.0403906
0.341665 0.0266728 0.0415808
0.389868 0.0251469 0.0428016
0.435996 0.0260166 0.0447089
0.477897 0.0269322 0.0484627
0.511894 0.0278477 0.0531624
0.535302 0.0298924 0.0594949
0.549981 0.0330968 0.0649424
0.554086 0.0337987 0.0678111
0.555306 0.0339055 0.069749
0.556649 0.0338598 0.0719768
0.558679 0.0337835 0.0760204
0.559853 0.0337682 0.0788586
0.55996 0.033753 0.0790723
0.559991 0.033753 0.0791333
0.559991 0.033753 0.0791333
0.557214 0.0339818 0.0810559
0.551659 0.0344701 0.0848554
0.538613 0.0356451 0.0954299
0.524407 0.0370184 0.107393
0.0493477 0.0730602 0.051194
0.0480049 0.074052 0.0524147
0.0474098 0.0742046 0.0527047
0.047776 0.0733043 0.0513008
0.0495003 0.0726177 0.0498054
0.0551919 0.0730755 0.0480812
0.0627909 0.0740826 0.0468299
0.0840314 0.0705577 0.0452888
0.112062 0.0657664 0.0449378
0.139513 0.0617227 0.0437781
0.167712 0.0565805 0.0432746
0.200824 0.0505226 0.0431525
0.243214 0.0419623 0.0411688
0.295232 0.0348516 0.041001
0.3467 0.0299992 0.0414435
0.394125 0.0261387 0.0417487
0.437354 0.0260014 0.0432136
0.47808 0.0268711 0.0456855
0.511345 0.0277409 0.0497902
0.534463 0.0300298 0.0567025
0.549416 0.0330968 0.064332
0.554223 0.0339208 0.0675059
0.555047 0.0339208 0.0692302
0.556161 0.033875 0.0710155
0.557549 0.0338293 0.0737621
0.559182 0.0337835 0.0773175
0.559487 0.0337835 0.0782025
0.559609 0.0337835 0.0784772
0.559655 0.0337682 0.0785534
0.557961 0.0339055 0.079881
0.554009 0.0342718 0.0822309
0.545953 0.0349584 0.0891127
0.536706 0.0358282 0.0964065
0.0555276 0.0876326 0.0514229
0.0521401 0.0895705 0.0539101
0.0499428 0.0911116 0.0557717
0.0495003 0.0906539 0.0554971
0.0503853 0.0895857 0.0534981
0.0558175 0.08925 0.0506142
0.0644999 0.0903182 0.0497597
0.0771954 0.0923476 0.0485389
0.107591 0.0884871 0.0469673
0.139879 0.0825208 0.0471046
0.17232 0.0768139 0.0462654
0.209323 0.068452 0.0459754
0.251606 0.0594186 0.0461128
0.305776 0.0461585 0.0440223
0.357259 0.03682 0.0434424
0.405341 0.0302434 0.0427558
0.445441 0.0263218 0.0428321
0.483284 0.0270237 0.0450752
0.513863 0.0278325 0.0494698
0.533532 0.0299992 0.0551156
0.54786 0.0331884 0.0611582
0.553582 0.0339513 0.0656901
0.554589 0.0339513 0.0683909
0.555566 0.0339055 0.0700084
0.556771 0.0338598 0.0721447
0.557443 0.0338598 0.0735027
0.558129 0.033814 0.0747082
0.558312 0.033814 0.0750896
0.558328 0.033814 0.0751202
0.556451 0.0339818 0.0765087
0.552773 0.0343175 0.0796826
0.545083 0.0349737 0.0866407
0.535561 0.0359045 0.0943008
0.0590677 0.105943 0.0552224
0.0552224 0.107836 0.0579538
0.0521706 0.109575 0.0602121
0.0512856 0.110033 0.0610208
0.0514229 0.109255 0.0596475
0.0547036 0.108095 0.0562295
0.0629282 0.108064 0.0527352
0.0762341 0.110613 0.0532845
0.0964065 0.113146 0.0514076
0.133028 0.10808 0.0500038
0.170397 0.104173 0.0503853
0.214557 0.0937667 0.0497902
0.269963 0.0791028 0.0487068
0.319509 0.0692454 0.0492561
0.369863 0.0564126 0.047715
0.421317 0.0403601 0.0450141
0.462089 0.0311437 0.0450599
0.495567 0.027863 0.0460365
0.520958 0.0288396 0.0502632
0.5393 0.0316472 0.0564584
0.547799 0.0334325 0.0601205
0.551934 0.0341344 0.0617533
0.553841 0.0339971 0.0660258
0.554788 0.0339513 0.0686198
0.555871 0.0339208 0.0702525
0.556558 0.0338903 0.0715496
0.556771 0.0338903 0.0720073
0.556832 0.033875 0.072221
0.556909 0.033875 0.0724193
0.554955 0.0340734 0.0736706
0.551507 0.0343786 0.0766003
0.543481 0.0350805 0.0826276
0.533867 0.0360113 0.0896162
0.0642863 0.126986 0.059968
0.0601053 0.129061 0.0632486
0.0569009 0.130877 0.0660105
0.0555581 0.131792 0.067277
0.0554208 0.131426 0.066804
0.0573434 0.130526 0.0644236
0.0623789 0.130419 0.0602121
0.0741131 0.131212 0.0576333
0.0940871 0.135653 0.0584726
0.119875 0.139528 0.0568551
0.164599 0.133822 0.0549935
0.212894 0.128985 0.0559854
0.277333 0.114794 0.05449
0.341497 0.0976883 0.0521859
0.395575 0.0857862 0.051606
0.444312 0.0760204 0.0522316
0.485573 0.0574655 0.0511482
0.514031 0.0395056 0.0508431
0.527489 0.0365759 0.0559701
0.534691 0.0352178 0.0598001
0.542351 0.0357824 0.0631113
0.545647 0.0353246 0.0645609
0.547097 0.0347448 0.064271
0.550866 0.0343175 0.0675669
0.553109 0.0341039 0.068986
0.554391 0.0340429 0.0699168
0.55491 0.0340124 0.0700999
0.555184 0.0339818 0.070222
0.555383 0.0339818 0.0703441
0.553628 0.0341344 0.0717327
0.550149 0.0344244 0.0741588
0.542016 0.0351415 0.0800183
0.532418 0.0360876 0.086244
0.0728923 0.153079 0.0678874
0.0679637 0.155459 0.071458
0.0636759 0.157595 0.0745861
0.0617075 0.158755 0.0760204
0.0610513 0.159258 0.0764324
0.0626688 0.158068 0.074876
0.0665141 0.158511 0.0717937
0.0752728 0.159289 0.0670481
0.0919509 0.160861 0.0643015
0.117144 0.16907 0.0653697
0.147753 0.176486 0.0639048
0.212055 0.169207 0.0611887
0.28867 0.164294 0.0611582
0.36144 0.153613 0.0633402
0.427115 0.138521 0.0600595
0.488762 0.122377 0.0594644
0.534951 0.114366 0.0625162
0.567102 0.103471 0.0672007
0.57171 0.0734875 0.0661784
0.561288 0.052903 0.0677806
0.554803 0.0465553 0.0669871
0.547478 0.0421454 0.0663005
0.538796 0.0371099 0.0660716
0.537469 0.0361181 0.068574
0.53872 0.0355993 0.0730907
0.539513 0.0353094 0.0746777
0.540108 0.0352636 0.0750744
0.54049 0.0352331 0.0754559
0.540703 0.0352178 0.0756237
0.540429 0.0352331 0.0759899
0.539742 0.0353094 0.0764324
0.535698 0.0357061 0.0791485
0.529305 0.036347 0.0827649
0.0835279 0.186343 0.0768292
0.0778821 0.189761 0.0807355
0.0724651 0.19237 0.0834669
0.0704814 0.194171 0.085481
0.0694896 0.194903 0.0863355
0.0706035 0.194553 0.0853437
0.0735027 0.19379 0.0826429
0.0808728 0.195956 0.0781262
0.0943923 0.198322 0.0734417
0.115358 0.204532 0.0718242
0.142443 0.221958 0.073106
0.187076 0.243168 0.0731365
0.289036 0.236255 0.073106
0.391745 0.238651 0.0725414
0.470176 0.235019 0.0733959
0.538689 0.215839 0.078996
0.602228 0.192874 0.0823682
0.651942 0.182498 0.0923018
0.675959 0.174319 0.107454
0.674586 0.162753 0.113008
0.659373 0.147768 0.108049
0.627131 0.115679 0.0919661
0.587732 0.0735332 0.0737163
0.554696 0.0464637 0.0667277
0.542596 0.0396429 0.0688182
0.536324 0.0363775 0.0691234
0.53669 0.0363317 0.0701915
0.536828 0.0362554 0.0711986
0.536797 0.0361791 0.0717174
0.53669 0.0361028 0.0720684
0.536599 0.0360266 0.0723735
0.533562 0.0362402 0.0741741
0.527703 0.036759 0.0778668
0.0932326 0.237736 0.0838483
0.0864424 0.242527 0.088777
0.0812848 0.246784 0.093019
0.079942 0.25008 0.0952621
0.0787823 0.251362 0.0963607
0.07953 0.251743 0.0958877
0.0829633 0.25095 0.0933089
0.0908827 0.252796 0.0898299
0.1037 0.257847 0.0822003
0.121187 0.265095 0.0795758
0.147509 0.280293 0.0802014
0.184344 0.306111 0.0822919
0.256382 0.335119 0.0833906
0.378592 0.326604 0.0871595
0.496101 0.330739 0.081651
0.574624 0.332418 0.0778821
0.641443 0.314687 0.0869306
0.706004 0.294881 0.0983749
0.755871 0.280705 0.121752
0.769238 0.2748 0.134905
0.763394 0.261189 0.135622
0.751003 0.242588 0.133532
0.734951 0.220935 0.131121
0.704494 0.188128 0.123537
0.645258 0.135744 0.102907
0.572076 0.0586404 0.0713512
0.573663 0.0599527 0.0737621
0.574701 0.0605325 0.0749981
0.574395 0.0602731 0.0753948
0.573709 0.0598611 0.0755169
0.572961 0.0593118 0.0754253
0.569635 0.0590982 0.0767834
0.564141 0.0598459 0.0805524
0.107759 0.309087 0.0944228
0.101747 0.314168 0.0988937
0.0978408 0.319661 0.104082
0.0954757 0.323308 0.106706
0.0920882 0.325017 0.108614
0.0913405 0.326177 0.108766
0.0935073 0.326558 0.107958
0.10042 0.325704 0.104341
0.110292 0.33164 0.0992599
0.125322 0.33875 0.0882277
0.147509 0.348455 0.0819257
0.185061 0.367575 0.0826429
0.239765 0.398337 0.0840925
0.337789 0.43418 0.0892653
0.470665 0.42295 0.100359
0.586648 0.428733 0.0970016
0.663355 0.435233 0.0944533
0.72282 0.425696 0.101061
0.775418 0.407599 0.124575
0.811536 0.397864 0.146517
0.817075 0.384802 0.151751
0.810056 0.362142 0.147189
0.802274 0.341878 0.143679
0.793545 0.321035 0.140475
0.779751 0.291157 0.138079
0.760418 0.256794 0.135149
0.745159 0.234852 0.13254
0.739162 0.226474 0.131456
0.733577 0.21912 0.130861
0.728634 0.21323 0.130037
0.724987 0.209277 0.129427
0.719707 0.207233 0.131228
0.712184 0.207324 0.136446
0.108156 0.381842 0.0972763
0.102327 0.387457 0.103792
0.0973526 0.39263 0.108659
0.0958572 0.396887 0.111315
0.0936294 0.399542 0.113817
0.0923629 0.401007 0.115068
0.0928817 0.402106 0.114916
0.0974136 0.401953 0.111849
0.106035 0.402655 0.106203
0.119509 0.411032 0.0982071
0.142336 0.418112 0.0823987
0.181323 0.431754 0.0775464
0.233997 0.45655 0.0813001
0.31342 0.495354 0.0920272
0.428107 0.534157 0.10782
0.554284 0.522423 0.119142
0.663584 0.52665 0.123537
0.732143 0.531868 0.131685
0.780041 0.529503 0.148211
0.813642 0.522164 0.167132
0.833814 0.513466 0.180941
0.836591 0.496986 0.178088
0.833829 0.468833 0.173388
0.831067 0.44358 0.166155
0.826123 0.418723 0.159182
0.82089 0.39823 0.15433
0.816632 0.384482 0.150622
0.815045 0.381231 0.149035
0.813519 0.377661 0.147738
0.812421 0.375158 0.14728
0.811353 0.373327 0.146426
0.80795 0.373465 0.149783
0.801205 0.374792 0.156863
0.101137 0.452461 0.102907
0.0972915 0.45774 0.111559
0.094789 0.463188 0.118883
0.0953536 0.467781 0.121553
0.0947738 0.471153 0.124468
0.0934005 0.472709 0.126116
0.0937819 0.473732 0.127489
0.0959029 0.474098 0.125872
0.104555 0.474067 0.119631
0.117403 0.477211 0.110506
0.139559 0.486137 0.100679
0.1832 0.495476 0.0853285
0.239857 0.516045 0.0871748
0.306416 0.547417 0.0993668
0.404089 0.591867 0.121157
0.515908 0.625437 0.13727
0.627909 0.622034 0.146548
0.727993 0.620508 0.166613
0.789456 0.621408 0.198566
0.823636 0.623392 0.230304
0.841413 0.624964 0.246662
0.848112 0.622293 0.249012
0.847486 0.610788 0.239536
0.844175 0.586984 0.222065
0.840803 0.558572 0.204273
0.838514 0.531701 0.19028
0.837995 0.515801 0.182956
0.838956 0.512703 0.181109
0.838849 0.509941 0.179828
0.838193 0.507225 0.178576
0.838315 0.505684 0.178363
0.835447 0.505608 0.181918
0.829633 0.506783 0.189853
0.107103 0.521172 0.133837
0.105745 0.526879 0.144121
0.104829 0.531899 0.152316
0.108629 0.536873 0.155016
0.111971 0.541146 0.157855
0.111742 0.542611 0.159838
0.111879 0.543893 0.161227
0.112627 0.544961 0.162036
0.118914 0.544991 0.157122
0.13257 0.544656 0.146517
0.157321 0.54995 0.133028
0.193622 0.558984 0.118303
0.255772 0.575143 0.1093
0.320943 0.601633 0.121752
0.399344 0.640055 0.14551
0.49807 0.683467 0.172534
0.595056 0.712551 0.191318
0.695811 0.719966 0.202594
0.783841 0.707485 0.242359
0.836286 0.705806 0.285267
0.861524 0.71313 0.313313
0.8719 0.713695 0.32398
0.872343 0.710552 0.322606
0.870481 0.704265 0.317052
0.866606 0.691356 0.306111
0.860395 0.670512 0.289296
0.855726 0.655222 0.277333
0.854749 0.649958 0.27303
0.854887 0.64773 0.272053
0.854536 0.646448 0.271183
0.854475 0.645472 0.271
0.854261 0.64564 0.272114
0.853712 0.646143 0.274006
0.130114 0.589273 0.19234
0.135058 0.593118 0.196094
0.139071 0.59791 0.203174
0.146822 0.602335 0.206546
0.154726 0.606409 0.207782
0.157809 0.608774 0.210086
0.158602 0.61001 0.211933
0.159411 0.610742 0.212345
0.162585 0.61146 0.211261
0.171878 0.611063 0.203265
0.191409 0.611521 0.188952
0.226764 0.619257 0.175647
0.27744 0.631678 0.160311
0.34432 0.653956 0.166949
0.411841 0.684764 0.192035
0.493202 0.724651 0.222995
0.579293 0.761639 0.250401
0.667414 0.787823 0.272206
0.756848 0.8 0.293126
0.827771 0.783383 0.326345
0.869734 0.780407 0.3626
0.88806 0.788373 0.383551
0.894469 0.79089 0.390753
0.893721 0.790326 0.389197
0.893599 0.787915 0.38764
0.89218 0.779736 0.38114
0.890059 0.76939 0.372976
0.888853 0.763226 0.368078
0.888258 0.76141 0.366155
0.888045 0.759777 0.365393
0.887785 0.758877 0.36466
0.887495 0.757885 0.36408
0.887541 0.757824 0.364126
0.185809 0.650034 0.257176
0.191333 0.653178 0.259281
0.196429 0.656672 0.264927
0.202945 0.660182 0.267292
0.211536 0.663615 0.269093
0.218082 0.666041 0.269215
0.218585 0.666819 0.271321
0.21973 0.667643 0.272572
0.220111 0.66804 0.273014
0.224369 0.667979 0.269261
0.239155 0.666911 0.255909
0.263752 0.668925 0.241032
0.30576 0.67657 0.227832
0.368643 0.693248 0.220188
0.431495 0.717891 0.238941
0.493919 0.747738 0.266346
0.567452 0.782666 0.29546
0.648585 0.815076 0.322148
0.730678 0.838956 0.343496
0.809476 0.850233 0.369177
0.859678 0.830777 0.388846
0.888884 0.824338 0.410819
0.902556 0.827695 0.424735
0.904631 0.827375 0.426551
0.904753 0.826505 0.426093
0.904692 0.826001 0.425635
0.904128 0.824323 0.423514
0.903746 0.82298 0.422263
0.903532 0.822553 0.421775
0.903365 0.822248 0.421485
0.903212 0.821958 0.421195
0.90312 0.821775 0.421012
0.903059 0.821714 0.42092
0.235172 0.693111 0.316991
0.238941 0.694957 0.3178
0.241978 0.697078 0.321798
0.24596 0.699077 0.323003
0.251987 0.700847 0.322011
0.25951 0.701717 0.31928
0.259327 0.702129 0.320653
0.25948 0.702373 0.32108
0.259541 0.70251 0.321355
0.260746 0.702434 0.320226
0.270191 0.70135 0.310063
0.287968 0.700389 0.294102
0.317098 0.701274 0.274311
0.364996 0.708156 0.255634
0.434928 0.730663 0.262425
0.495232 0.757244 0.286152
0.556924 0.786099 0.313451
0.627283 0.817441 0.342412
0.70573 0.845838 0.367758
0.783139 0.863554 0.387381
0.843427 0.861555 0.404944
0.879103 0.843275 0.417426
0.899702 0.839979 0.432715
0.907881 0.841794 0.442039
0.907866 0.841764 0.44184
0.908003 0.842145 0.442145
0.908141 0.842588 0.442496
0.908232 0.843122 0.442893
0.908248 0.843305 0.44303
0.908217 0.843107 0.442832
0.908171 0.842786 0.442573
0.908141 0.842527 0.442374
0.908049 0.842283 0.442161
0.256947 0.714794 0.357565
0.257618 0.715023 0.356558
0.256794 0.71606 0.358389
0.258213 0.71632 0.357061
0.261418 0.716075 0.353338
0.267247 0.715129 0.346288
0.26865 0.714946 0.344503
0.268605 0.714961 0.34461
0.268559 0.714961 0.344671
0.268544 0.714961 0.344686
0.272526 0.714153 0.338888
0.287068 0.71191 0.322576
0.310109 0.709941 0.300252
0.351354 0.711192 0.27454
0.415457 0.726406 0.265766
0.490517 0.75697 0.289494
0.552254 0.785718 0.315572
0.614328 0.813855 0.34287
0.684352 0.841016 0.370901
0.756802 0.861662 0.392905
0.825238 0.871595 0.415671
0.863096 0.850919 0.418921
0.891096 0.841367 0.430945
0.905333 0.842954 0.44184
0.908309 0.843976 0.444511
0.908431 0.844312 0.445014
0.90837 0.843946 0.444266
0.908339 0.843763 0.4439
0.908339 0.843732 0.443854
0.908324 0.843748 0.44387
0.908751 0.843671 0.442542
0.90956 0.843503 0.439933
0.910796 0.843198 0.43595
0.254429 0.715602 0.366705
0.255482 0.715587 0.36408
0.254108 0.716457 0.365255
0.254932 0.716533 0.362875
0.257801 0.716213 0.357397
0.263935 0.715007 0.348363
0.268299 0.714321 0.343282
0.268482 0.71429 0.342962
0.268467 0.71429 0.342977
0.268482 0.71429 0.342947
0.269352 0.714137 0.341405
0.281743 0.712001 0.326085
0.301915 0.709926 0.304585
0.34078 0.710048 0.27657
0.40235 0.722438 0.262516
0.485298 0.754116 0.281071
0.55874 0.788449 0.310094
0.619944 0.815824 0.336309
0.68098 0.839414 0.36112
0.744823 0.858198 0.381857
0.807233 0.869505 0.404517
0.851652 0.862913 0.419776
0.882094 0.843778 0.429038
0.901137 0.842344 0.442084
0.90724 0.8439 0.44593
0.908644 0.84387 0.44332
0.909758 0.843763 0.439963
0.910399 0.843854 0.438422
0.910201 0.843992 0.439139
0.9093 0.844282 0.442374
0.90901 0.844388 0.443366
0.909483 0.844266 0.442008
0.910765 0.843915 0.437827
0.248188 0.717815 0.38085
0.249149 0.717601 0.377188
0.248112 0.718563 0.377752
0.249363 0.718486 0.3738
0.252552 0.717647 0.366659
0.260151 0.715892 0.354772
0.266926 0.71458 0.34519
0.267887 0.714397 0.343969
0.267964 0.714382 0.343862
0.268025 0.714366 0.343771
0.268376 0.71429 0.343145
0.276188 0.712963 0.332967
0.294026 0.710628 0.312139
0.330053 0.70985 0.28455
0.388342 0.718273 0.263478
0.462501 0.744701 0.276005
0.550774 0.784756 0.30956
0.618219 0.815198 0.336736
0.675944 0.837613 0.359182
0.735332 0.856153 0.379767
0.791852 0.867796 0.399359
0.835828 0.869947 0.417838
0.872374 0.84593 0.427207
0.895384 0.842283 0.444419
0.903471 0.844129 0.453117
0.90486 0.844709 0.45449
0.905058 0.844739 0.454063
0.904936 0.844892 0.454734
0.904494 0.845075 0.456352
0.903593 0.845258 0.458869
0.902937 0.845396 0.460838
0.903014 0.845365 0.460609
0.903853 0.845182 0.458122
0.236408 0.724193 0.407218
0.238849 0.722545 0.398596
0.242145 0.721309 0.390402
0.245365 0.720165 0.381994
0.250217 0.718318 0.370687
0.25922 0.716075 0.356176
0.269673 0.714046 0.340856
0.271794 0.713741 0.338491
0.271992 0.71371 0.338277
0.272145 0.71368 0.338079
0.27245 0.713634 0.337697
0.276188 0.712978 0.333028
0.293675 0.710826 0.313268
0.325856 0.709987 0.288228
0.382193 0.716899 0.264363
0.45185 0.74049 0.275196
0.535409 0.77763 0.307546
0.615518 0.814282 0.339467
0.673655 0.836896 0.360204
0.727611 0.854154 0.377798
0.778271 0.865553 0.394263
0.818631 0.870848 0.41088
0.86215 0.851667 0.422644
0.890593 0.841398 0.439826
0.902144 0.843717 0.45156
0.904784 0.844694 0.454734
0.904768 0.844739 0.45478
0.904494 0.844831 0.455894
0.903761 0.845014 0.458
0.902647 0.845228 0.461387
0.902037 0.84538 0.462989
0.902052 0.845365 0.462989
0.902647 0.845212 0.461341
0.236393 0.725643 0.410986
0.239261 0.723812 0.401282
0.243717 0.72192 0.390768
0.247578 0.71986 0.379461
0.253361 0.717784 0.366552
0.262882 0.715373 0.35053
0.279377 0.712444 0.328878
0.284047 0.711635 0.323568
0.284703 0.711589 0.322728
0.284825 0.711574 0.322515
0.284932 0.711559 0.322377
0.287587 0.711299 0.31957
0.303014 0.710353 0.305394
0.331746 0.71014 0.284703
0.386633 0.717662 0.262974
0.452155 0.740612 0.27628
0.530373 0.77525 0.307012
0.610269 0.812024 0.340764
0.670649 0.835904 0.363592
0.71902 0.851789 0.377997
0.763745 0.862852 0.390249
0.802258 0.869169 0.403632
0.854231 0.858213 0.421164
0.885451 0.84242 0.436149
0.90071 0.843229 0.449653
0.904509 0.844556 0.454307
0.904768 0.844739 0.45478
0.904463 0.8448 0.455833
0.903761 0.844984 0.457938
0.902647 0.845212 0.461326
0.902037 0.84535 0.462959
0.901686 0.845426 0.464027
0.901762 0.845411 0.463722
0.239307 0.726223 0.408103
0.243885 0.724163 0.396429
0.249989 0.721111 0.381994
0.256809 0.718395 0.366171
0.266239 0.715877 0.34992
0.280247 0.712856 0.330159
0.30016 0.710735 0.308736
0.309209 0.709987 0.300221
0.309422 0.709957 0.299977
0.308583 0.709987 0.300725
0.307622 0.710048 0.301289
0.308553 0.710002 0.300786
0.320943 0.709911 0.291752
0.349371 0.711315 0.275715
0.397589 0.720546 0.26183
0.459983 0.743603 0.277501
0.533852 0.776867 0.307927
0.609201 0.811566 0.341161
0.666102 0.834516 0.36492
0.704219 0.847395 0.377798
0.746227 0.859007 0.388998
0.792264 0.868086 0.403174
0.850065 0.866316 0.424506
0.881178 0.842618 0.432761
0.898161 0.842695 0.447196
0.904189 0.844388 0.453849
0.904784 0.844724 0.454765
0.904463 0.8448 0.455833
0.903761 0.844984 0.457938
0.902647 0.845197 0.461326
0.902037 0.84535 0.462959
0.901686 0.845426 0.464027
0.901686 0.845426 0.464027
0.238376 0.727016 0.412116
0.241993 0.725139 0.400992
0.24773 0.722606 0.387686
0.254994 0.719524 0.371725
0.263859 0.716747 0.354482
0.277485 0.713451 0.333501
