bundles/resolve-cinematic-luts/Phantom Luts/Ursa G2 Phntm Film LUTs - V1/Gen5/Standard (No WB Offset)/Ursa G2 Eterna Legacy Gen5.cube
TITLE "Generated by Resolve"
LUT_3D_SIZE 9
0.0167697 0.0444648 0.0445106
0.0352941 0.0466163 0.0464332
0.0886854 0.0496986 0.0453651
0.204181 0.0608225 0.0691386
0.413947 0.0692302 0.110231
0.576852 0.0879988 0.144594
0.583703 0.0881971 0.168872
0.5897 0.0867475 0.170565
0.619257 0.0795911 0.178973
0.0241855 0.056733 0.0516365
0.030457 0.0572213 0.0504616
0.0855116 0.0581064 0.050248
0.21471 0.0586709 0.0702983
0.443427 0.0690623 0.116808
0.589883 0.0852216 0.149279
0.595575 0.0853285 0.172107
0.597025 0.0849775 0.172519
0.623941 0.0784772 0.180224
0.0456855 0.114427 0.0774243
0.0419623 0.124361 0.0820935
0.0946059 0.122988 0.069337
0.264591 0.100999 0.0794995
0.47921 0.0695659 0.10193
0.598672 0.0827955 0.145602
0.600961 0.0831311 0.157626
0.597925 0.0838941 0.158877
0.609079 0.0812543 0.163668
0.105547 0.300938 0.157137
0.11458 0.342214 0.159564
0.126848 0.354101 0.15819
0.290929 0.382681 0.114565
0.731334 0.390539 0.142336
0.821118 0.339376 0.179522
0.759274 0.241733 0.155764
0.728847 0.20676 0.147066
0.693736 0.164446 0.136645
0.188388 0.755062 0.355016
0.228229 0.802548 0.355016
0.270985 0.83122 0.348608
0.32253 0.813931 0.301762
0.660349 0.831769 0.262837
0.919417 0.82356 0.306508
0.920256 0.803708 0.29099
0.911803 0.766644 0.263188
0.904112 0.731472 0.243565
0.253132 0.896223 0.514122
0.240986 0.901778 0.488838
0.287831 0.908827 0.437736
0.304646 0.907774 0.425925
0.578347 0.904585 0.306096
0.867521 0.914427 0.348455
0.941527 0.89398 0.371359
0.941085 0.894316 0.370382
0.942489 0.892973 0.37261
0.244968 0.904524 0.532021
0.256321 0.904097 0.501869
0.303609 0.90692 0.437659
0.367514 0.905165 0.379919
0.459159 0.900359 0.318074
0.757031 0.911543 0.331212
0.934432 0.887053 0.368658
0.942184 0.893141 0.371695
0.941421 0.893782 0.370214
0.228809 0.906172 0.553933
0.249226 0.904387 0.524788
0.28304 0.900465 0.473457
0.38088 0.900252 0.38265
0.3935 0.899489 0.374716
0.673564 0.904585 0.320272
0.887861 0.899855 0.357
0.943099 0.892363 0.373419
0.938781 0.89601 0.365225
0.221286 0.906935 0.56936
0.235111 0.9066 0.540215
0.257954 0.903563 0.497032
0.366415 0.901534 0.393362
0.380179 0.900511 0.382483
0.543908 0.899001 0.310109
0.785977 0.911406 0.336339
0.942458 0.892805 0.371969
0.93785 0.896803 0.363317
0.0168002 0.0446632 0.0527962
0.0368353 0.0477913 0.0552529
0.0865644 0.0518807 0.0595865
0.197864 0.0595712 0.0796826
0.410788 0.0703136 0.124346
0.601328 0.0819867 0.151003
0.60827 0.0822156 0.17525
0.612543 0.0811933 0.176562
0.634318 0.0759289 0.182696
0.0207523 0.049836 0.0485237
0.0262913 0.0493935 0.0508888
0.0896773 0.0537575 0.0588235
0.220752 0.060853 0.0809186
0.43978 0.0644694 0.122774
0.611719 0.079942 0.152728
0.617807 0.0799115 0.178302
0.618204 0.0798199 0.178347
0.634424 0.0759136 0.182757
0.0437476 0.105623 0.0825666
0.0393835 0.114031 0.0823835
0.0913252 0.118074 0.068864
0.264118 0.0912642 0.0779431
0.4654 0.065095 0.100923
0.610132 0.0799573 0.147372
0.611383 0.0805371 0.160815
0.607721 0.0815747 0.163439
0.619715 0.0787366 0.166888
0.0851759 0.277256 0.163882
0.0886702 0.311376 0.163806
0.120745 0.345006 0.15874
0.285206 0.373449 0.113893
0.723781 0.366567 0.145724
0.815915 0.327901 0.176715
0.750195 0.228626 0.152499
0.712047 0.185443 0.14255
0.667842 0.133776 0.12903
0.131151 0.714534 0.366506
0.145418 0.751095 0.359731
0.23856 0.794064 0.335637
0.30135 0.799405 0.302403
0.644877 0.81825 0.251575
0.914107 0.814191 0.29482
0.916518 0.792721 0.278935
0.906966 0.74934 0.249058
0.898238 0.710338 0.230488
0.229709 0.892653 0.552636
0.226413 0.900999 0.531289
0.246464 0.905943 0.476173
0.302678 0.908095 0.426703
0.555947 0.903929 0.305211
0.864302 0.915007 0.346929
0.941131 0.894362 0.370779
0.941009 0.894438 0.370382
0.942672 0.892851 0.373083
0.231189 0.903487 0.590219
0.234775 0.902464 0.560281
0.253941 0.905104 0.500664
0.364981 0.905104 0.38204
0.449348 0.901045 0.327138
0.751263 0.911086 0.330236
0.933135 0.886687 0.367758
0.942031 0.893278 0.371374
0.941268 0.893919 0.369955
0.229725 0.907423 0.617227
0.236637 0.90219 0.586496
0.258778 0.89958 0.532723
0.362921 0.901045 0.398108
0.393179 0.899199 0.375433
0.660121 0.903655 0.318257
0.880476 0.902449 0.355596
0.943099 0.892363 0.373419
0.938781 0.89601 0.365209
0.228992 0.909163 0.634989
0.229313 0.906401 0.605615
0.2392 0.902022 0.556527
0.308431 0.902342 0.446387
0.380209 0.900496 0.382483
0.544961 0.899138 0.311528
0.778485 0.911177 0.335393
0.942473 0.892775 0.371923
0.937942 0.896742 0.363485
0.0267338 0.0471809 0.0842908
0.0492866 0.0505379 0.0912795
0.0991073 0.0560159 0.0795758
0.211795 0.0610819 0.0970932
0.411353 0.0699321 0.141039
0.608408 0.082063 0.181949
0.606867 0.0821393 0.169223
0.611963 0.081178 0.173709
0.634333 0.0759442 0.182589
0.0215 0.0526589 0.0620432
0.0270848 0.0475166 0.0914321
0.0969558 0.0570077 0.0856947
0.224384 0.0619516 0.101762
0.42417 0.0687419 0.144823
0.617777 0.0797589 0.184543
0.617121 0.0799268 0.175204
0.618067 0.0798657 0.178378
0.635599 0.0759289 0.188388
0.043183 0.101335 0.090898
0.039292 0.105715 0.0987716
0.0928359 0.108705 0.106203
0.269337 0.100923 0.117891
0.47335 0.0695964 0.139666
0.613642 0.0799573 0.164599
0.60679 0.0818341 0.163531
0.604242 0.082536 0.164614
0.622171 0.0789044 0.179553
0.0814832 0.254841 0.180529
0.0744182 0.280674 0.190341
0.0813153 0.304204 0.173968
0.281605 0.352819 0.117052
0.721248 0.317235 0.153811
0.811002 0.318471 0.174075
0.729412 0.204868 0.147158
0.667109 0.139345 0.130785
0.645243 0.112551 0.125261
0.0810407 0.661189 0.404608
0.0720531 0.688655 0.407431
0.105821 0.721325 0.37055
0.267414 0.768551 0.300481
0.626383 0.794324 0.236851
0.907576 0.789075 0.275227
0.910842 0.765148 0.259419
0.899382 0.716777 0.230182
0.890059 0.677028 0.215839
0.227497 0.890517 0.621683
0.209522 0.897093 0.612573
0.20444 0.899031 0.55964
0.2925 0.90779 0.436118
0.508965 0.901534 0.308507
0.853178 0.916091 0.34432
0.941329 0.894148 0.370993
0.942489 0.893126 0.373083
0.943633 0.891981 0.374533
0.248753 0.906447 0.689036
0.246021 0.905898 0.670542
0.235584 0.903075 0.615351
0.265232 0.904784 0.475013
0.424399 0.901732 0.339696
0.738003 0.909987 0.329198
0.930312 0.88539 0.366247
0.942031 0.893294 0.37142
0.941238 0.893996 0.370001
0.272251 0.916655 0.729763
0.260624 0.911818 0.70341
0.258534 0.901091 0.646662
0.261219 0.899367 0.52845
0.385 0.899214 0.382055
0.629297 0.901915 0.315022
0.86392 0.909987 0.352316
0.943099 0.892363 0.373419
0.938766 0.896025 0.365194
0.284169 0.920043 0.750881
0.267872 0.915999 0.724224
0.256977 0.905715 0.672724
0.246555 0.898421 0.571008
0.38088 0.900252 0.38265
0.521553 0.898299 0.312261
0.763317 0.910536 0.333883
0.941375 0.892103 0.37113
0.938003 0.896696 0.363607
0.0435645 0.0524605 0.170687
0.0701152 0.056199 0.19794
0.126284 0.0593576 0.167437
0.248524 0.0751354 0.150027
0.444282 0.0694591 0.18819
0.620569 0.0827192 0.230625
0.621118 0.0828412 0.230228
0.630472 0.0823377 0.257115
0.655787 0.0768292 0.294636
0.0312505 0.049546 0.137392
0.0400702 0.0527504 0.181476
0.116793 0.0603647 0.21004
0.254261 0.0764935 0.165072
0.44448 0.0695659 0.194949
0.633158 0.0807202 0.252613
0.63624 0.081239 0.267216
0.644999 0.0842145 0.303471
0.667414 0.084123 0.346044
0.0339361 0.0921798 0.121004
0.028748 0.0883803 0.155062
0.0448615 0.0631418 0.210575
0.272999 0.0874037 0.195956
0.465446 0.0796063 0.21883
0.625666 0.0847181 0.273808
0.633112 0.0853285 0.302144
0.644617 0.0946517 0.338582
0.668406 0.097673 0.376043
0.0804456 0.242084 0.204105
0.0748913 0.262181 0.225238
0.0760967 0.27718 0.242084
0.304494 0.321233 0.294392
0.681926 0.30901 0.316548
0.844388 0.299229 0.333608
0.770916 0.211765 0.252049
0.717571 0.160678 0.244785
0.670039 0.113527 0.241764
0.0716259 0.614862 0.452171
0.0599374 0.638666 0.476051
0.0631876 0.655192 0.474784
0.0754864 0.670008 0.40856
0.593179 0.727184 0.251698
0.922484 0.679332 0.340429
0.915862 0.707668 0.276326
0.896193 0.704112 0.223407
0.887358 0.66627 0.210986
0.234104 0.880858 0.688106
0.216922 0.887831 0.695445
0.206851 0.889036 0.675227
0.196201 0.89099 0.601511
0.382361 0.910597 0.416403
0.855161 0.914641 0.370718
0.945632 0.893889 0.391943
0.943526 0.892134 0.374487
0.943923 0.891661 0.374868
0.315129 0.916411 0.805035
0.306676 0.918151 0.804013
0.279728 0.910704 0.769085
0.241398 0.901915 0.670268
0.282628 0.910185 0.5252
0.694652 0.912001 0.399802
0.932494 0.886885 0.370764
0.942046 0.893309 0.371572
0.940963 0.894286 0.369619
0.412604 0.925048 0.854505
0.400122 0.925307 0.848478
0.376471 0.919295 0.815732
0.288701 0.906813 0.713314
0.256214 0.898939 0.563836
0.581247 0.907439 0.427878
0.855436 0.908507 0.350805
0.943099 0.892363 0.373419
0.938766 0.896025 0.365179
0.430426 0.925673 0.865873
0.417823 0.92549 0.858503
0.38175 0.92462 0.835081
0.312306 0.912673 0.748455
0.247303 0.898741 0.582849
0.464546 0.9084 0.438239
0.788922 0.91194 0.340261
0.938827 0.890242 0.369985
0.938689 0.896086 0.365011
0.0951858 0.0650492 0.348287
0.123415 0.0691844 0.3841
0.193088 0.0752422 0.381079
0.320119 0.0842908 0.323613
0.522957 0.1037 0.319463
0.641367 0.0893416 0.331044
0.651041 0.0997482 0.357107
0.663981 0.106752 0.388067
0.692729 0.110414 0.440574
0.0650645 0.06009 0.29514
0.0756085 0.0624399 0.336461
0.15288 0.0722057 0.385321
0.312261 0.0835889 0.360357
0.510704 0.107317 0.328145
0.650553 0.0959487 0.349844
0.668498 0.111116 0.403403
0.684886 0.121309 0.447044
0.708461 0.120821 0.505226
0.0307164 0.0625772 0.218585
0.0302281 0.0558785 0.276051
0.0759136 0.0627756 0.354498
0.298726 0.0840467 0.419638
0.529335 0.110842 0.364233
0.659251 0.107424 0.379736
0.676982 0.12137 0.437125
0.689662 0.129091 0.483146
0.70544 0.125322 0.532189
0.0751049 0.22771 0.268879
0.0585336 0.232959 0.309972
0.0482185 0.234424 0.368719
0.147265 0.221485 0.467964
0.64683 0.223941 0.497215
0.799481 0.216373 0.51014
0.734035 0.159045 0.497688
0.708644 0.138354 0.50518
0.712917 0.136126 0.526345
0.0808576 0.584237 0.496574
0.06392 0.604852 0.525399
0.0653391 0.620584 0.545113
0.0774395 0.621805 0.55201
0.592645 0.631205 0.586954
0.912856 0.624125 0.606821
0.925093 0.631662 0.626596
0.923278 0.62179 0.626734
0.918791 0.586709 0.622385
0.233845 0.862821 0.730236
0.216922 0.867933 0.741238
0.207736 0.866728 0.737713
0.200885 0.864591 0.713619
0.440452 0.897108 0.681147
0.828641 0.907454 0.608392
0.942672 0.891066 0.680644
0.942306 0.898207 0.675395
0.940963 0.892576 0.663233
0.394598 0.916945 0.856031
0.380987 0.922499 0.864485
0.352956 0.922621 0.856352
0.303502 0.911742 0.810269
0.446128 0.925689 0.775128
0.682948 0.923156 0.698589
0.933288 0.917723 0.651576
0.944778 0.91841 0.641794
0.943282 0.917388 0.609567
0.534981 0.92311 0.897124
0.526101 0.925444 0.899794
0.501549 0.92665 0.896239
0.452461 0.921767 0.864637
0.462348 0.920394 0.815854
0.666087 0.92314 0.75967
0.881773 0.923461 0.697856
0.948989 0.907866 0.536141
0.943328 0.899535 0.405798
0.541726 0.926162 0.905409
0.539071 0.926452 0.905486
0.518395 0.927077 0.901595
0.47335 0.92343 0.878645
0.399969 0.918212 0.819379
0.609155 0.923095 0.77496
0.809522 0.923552 0.727657
0.941604 0.913756 0.588724
0.938949 0.896834 0.368505
0.179736 0.0793622 0.544869
0.209293 0.0841382 0.57763
0.276921 0.0900282 0.599084
0.414252 0.0952621 0.585809
0.622507 0.115343 0.541054
0.699931 0.131228 0.523751
0.698543 0.127977 0.529061
0.703349 0.126574 0.538369
0.715877 0.123262 0.573053
0.126436 0.0713664 0.494636
0.148287 0.0751202 0.535576
0.222019 0.0852064 0.575051
0.376059 0.0945449 0.601007
0.614511 0.113329 0.575357
0.704768 0.131746 0.548287
0.703685 0.128176 0.568383
0.708141 0.127321 0.596063
0.718029 0.125231 0.641871
0.092195 0.0658732 0.414374
0.112108 0.0691234 0.477501
0.139651 0.07364 0.528069
0.304524 0.0910048 0.594461
0.6 0.110521 0.617853
0.701091 0.135363 0.554376
0.69546 0.131502 0.571649
0.700771 0.131258 0.608789
0.710384 0.129091 0.653254
0.0468452 0.196262 0.405432
0.0419928 0.196735 0.44564
0.0428473 0.193729 0.501152
0.0865949 0.159197 0.576104
0.554986 0.131121 0.675074
0.729427 0.154314 0.585626
0.711543 0.145174 0.567285
0.71043 0.141894 0.60705
0.716976 0.136477 0.646677
0.0753033 0.580941 0.593927
0.0662394 0.590875 0.623713
0.0679179 0.595987 0.658976
0.0673381 0.576303 0.70013
0.462959 0.575357 0.818784
0.910903 0.559991 0.797909
0.922881 0.564553 0.80058
0.924147 0.531228 0.827512
0.921691 0.486809 0.845853
0.235889 0.848295 0.768765
0.215 0.851804 0.778256
0.208484 0.848157 0.778912
0.204379 0.843671 0.773251
0.489876 0.865125 0.808865
0.830106 0.859068 0.825437
0.945556 0.853422 0.832654
0.945632 0.856474 0.843824
0.941985 0.848951 0.845945
0.42269 0.919631 0.884413
0.403967 0.924285 0.890379
0.383978 0.924163 0.887373
0.350088 0.920638 0.871702
0.569284 0.923766 0.876417
0.771481 0.928603 0.878721
0.93579 0.931517 0.833326
0.950134 0.932937 0.875532
0.948409 0.933745 0.883482
0.602121 0.924987 0.91458
0.597116 0.927138 0.917861
0.588067 0.927794 0.917678
0.560494 0.927169 0.911635
0.630579 0.923491 0.902892
0.772885 0.927413 0.902052
0.89041 0.932387 0.879713
0.948913 0.933501 0.847654
0.945495 0.936522 0.868925
0.620706 0.924758 0.916838
0.616114 0.927001 0.920256
0.60557 0.92813 0.920729
0.580682 0.927794 0.916213
0.5832 0.924575 0.905623
0.757137 0.927443 0.908431
0.878828 0.934478 0.902861
0.940932 0.935851 0.869123
0.946273 0.934356 0.84268
0.289509 0.0937209 0.640635
0.318608 0.0956588 0.650828
0.367437 0.0986343 0.664546
0.469764 0.104509 0.690944
0.678141 0.130358 0.717586
0.725872 0.139422 0.711971
0.716838 0.131395 0.70277
0.716304 0.130434 0.696025
0.715862 0.130114 0.692531
0.236988 0.08925 0.624231
0.267857 0.0920882 0.636439
0.324529 0.096025 0.652567
0.428107 0.102007 0.680476
0.661738 0.128298 0.72195
0.725277 0.1411 0.720104
0.718395 0.135286 0.71487
0.717937 0.134508 0.712428
0.718105 0.135363 0.714672
0.197421 0.0835737 0.601236
0.224704 0.087602 0.619425
0.254688 0.0910811 0.633005
0.356176 0.0979782 0.661433
0.612863 0.120409 0.719478
0.725383 0.142443 0.725231
0.719631 0.136706 0.716152
0.719249 0.135958 0.715343
0.71986 0.137148 0.718029
0.0407721 0.171008 0.557229
0.0410925 0.16231 0.582803
0.0624094 0.146059 0.613367
0.152178 0.128756 0.641138
0.506264 0.128679 0.72137
0.728267 0.144335 0.725322
0.725277 0.140291 0.713893
0.722454 0.137285 0.710369
0.723308 0.138888 0.716091
0.0706188 0.551949 0.728466
0.0758221 0.544915 0.744823
0.0805676 0.535866 0.759823
0.0858015 0.522454 0.777203
0.37203 0.549447 0.894759
0.909499 0.514809 0.92784
0.926467 0.494743 0.90985
0.926329 0.491127 0.904753
0.920439 0.444678 0.911635
0.227726 0.848127 0.833219
0.226246 0.844358 0.837751
0.222629 0.836164 0.840101
0.220508 0.827115 0.847608
0.387503 0.849119 0.902739
0.747524 0.82887 0.905806
0.938445 0.815137 0.914488
0.940307 0.816495 0.915236
0.938125 0.796201 0.920546
0.426703 0.925566 0.906538
0.414557 0.925734 0.906218
0.39379 0.92462 0.903792
0.364385 0.921767 0.896986
0.516808 0.92398 0.902892
0.79028 0.926131 0.915923
0.927214 0.931563 0.927001
0.94052 0.93135 0.928359
0.9393 0.931838 0.929808
0.653727 0.924437 0.919829
0.637064 0.92845 0.925124
0.624231 0.928435 0.924575
0.597543 0.928191 0.922225
0.650324 0.928725 0.922072
0.828168 0.934127 0.929381
0.914946 0.938415 0.933059
0.945876 0.938567 0.924651
0.948455 0.938216 0.929717
0.656809 0.928496 0.926162
0.658549 0.928878 0.926879
0.657755 0.928893 0.92697
0.647196 0.928801 0.925933
0.661418 0.928862 0.925261
0.832944 0.934508 0.932143
0.913802 0.938552 0.936034
0.937804 0.939635 0.933227
0.944228 0.939742 0.928618
0.460502 0.144564 0.729961
0.5187 0.177386 0.774151
0.574853 0.199527 0.804669
0.658106 0.213901 0.825666
0.790936 0.216327 0.80647
0.744533 0.159762 0.744533
0.727703 0.144488 0.727703
0.726329 0.143221 0.726329
0.725322 0.142351 0.725322
0.386297 0.112581 0.68162
0.461067 0.152102 0.737621
0.537865 0.186572 0.786343
0.617685 0.207126 0.816922
0.811399 0.244923 0.83473
0.786343 0.200031 0.786343
0.730388 0.147066 0.730388
0.729076 0.145892 0.729076
0.728115 0.144961 0.728115
0.327489 0.0963149 0.653483
0.375647 0.111238 0.677989
0.446357 0.146563 0.72813
0.559915 0.1953 0.798566
0.756115 0.22945 0.832258
0.825177 0.241062 0.825177
0.737194 0.153216 0.737194
0.730144 0.146853 0.730144
0.728893 0.145724 0.728893
0.157778 0.17084 0.679454
0.230884 0.185138 0.713344
0.339025 0.189502 0.742321
0.425452 0.188067 0.761669
0.604547 0.194583 0.803143
0.812436 0.226902 0.812436
0.734707 0.150698 0.734707
0.727626 0.144381 0.727626
0.726284 0.143191 0.726284
0.0966506 0.547402 0.795178
0.0998703 0.55198 0.801877
0.10901 0.549889 0.810666
0.154894 0.54403 0.837339
0.418509 0.541436 0.90045
0.881315 0.519173 0.929107
0.924346 0.478126 0.924346
0.915724 0.415061 0.915724
0.911376 0.393668 0.911376
0.273594 0.856245 0.893385
0.281605 0.854841 0.900908
0.285908 0.848325 0.905531
0.289845 0.832761 0.910292
0.370703 0.822599 0.924269
0.691783 0.812802 0.913832
0.935866 0.789593 0.936461
0.936629 0.770077 0.936629
0.936751 0.772213 0.936751
0.459464 0.926848 0.921477
0.453391 0.926436 0.921782
0.439185 0.925612 0.921706
0.413733 0.923064 0.920531
0.448432 0.921645 0.923339
0.736049 0.922087 0.929397
0.911131 0.92607 0.934905
0.937926 0.925048 0.937392
0.937911 0.924712 0.937377
0.65565 0.928923 0.927993
0.65098 0.929046 0.9281
0.638575 0.928801 0.927611
0.611551 0.928588 0.92636
0.603601 0.928405 0.925383
0.802976 0.933318 0.931731
0.920684 0.939208 0.938827
0.941222 0.941054 0.941268
0.941436 0.941207 0.94139
0.691737 0.929671 0.929671
0.694591 0.929732 0.929702
0.69456 0.929732 0.929671
0.688365 0.92961 0.92961
0.684993 0.929656 0.929183
0.847379 0.935317 0.935317
0.926558 0.939757 0.939757
0.940002 0.940963 0.941176
0.941604 0.9411 0.941039
0.554726 0.195438 0.797894
0.557397 0.196033 0.798901
0.574777 0.199496 0.804623
0.637201 0.21033 0.821698
0.813123 0.245426 0.834928
0.837964 0.255818 0.837964
0.796063 0.209537 0.796063
0.796063 0.209537 0.796063
0.785153 0.198672 0.785153
0.534569 0.19118 0.790387
0.536645 0.191745 0.791318
0.552605 0.19501 0.797147
0.602396 0.204471 0.812955
0.782254 0.237476 0.834882
0.839445 0.257603 0.839445
0.796063 0.209537 0.796063
0.796063 0.209537 0.796063
0.796063 0.209537 0.796063
0.520012 0.187503 0.784405
0.520012 0.187503 0.784405
0.520012 0.187503 0.784421
0.551064 0.194629 0.796521
0.715343 0.224063 0.83299
0.840864 0.259266 0.840864
0.796063 0.209537 0.796063
0.796063 0.209537 0.796063
0.796063 0.209537 0.796063
0.461357 0.245228 0.819654
0.530571 0.276768 0.853071
0.557687 0.265202 0.851102
0.541863 0.224384 0.820111
0.604501 0.206821 0.815305
0.832181 0.252399 0.836225
0.814359 0.228962 0.814359
0.796063 0.209537 0.796063
0.796063 0.209537 0.796063
0.22681 0.606561 0.876219
0.283055 0.616922 0.889418
0.370535 0.616785 0.89691
0.474952 0.598657 0.902007
0.53846 0.542214 0.908186
0.849546 0.501427 0.927993
0.923201 0.469764 0.923201
0.917159 0.424887 0.917159
0.9084 0.384649 0.9084
0.396887 0.876341 0.928069
0.415793 0.874952 0.929076
0.431098 0.8692 0.929732
0.440665 0.856275 0.929503
0.470222 0.822538 0.924117
0.68043 0.795651 0.913863
0.932097 0.772946 0.936782
0.936599 0.749752 0.936599
0.936568 0.721172 0.936568
0.540566 0.927443 0.928512
0.545037 0.926909 0.928603
0.543038 0.925978 0.928557
0.538933 0.923537 0.928466
0.547021 0.917754 0.928573
0.712627 0.91751 0.930251
0.888548 0.922835 0.934524
0.937682 0.919783 0.937682
0.937224 0.915557 0.937224
0.682277 0.929625 0.929625
0.678416 0.929503 0.929503
0.669383 0.92932 0.92932
0.652338 0.929046 0.929046
0.630976 0.92871 0.92871
0.756069 0.931624 0.931624
0.90367 0.938201 0.938216
0.939574 0.940887 0.941131
0.941344 0.941344 0.941375
0.728481 0.930739 0.930739
0.731243 0.930831 0.930831
0.731991 0.930846 0.930846
0.728206 0.930724 0.930724
0.720104 0.93048 0.93048
0.814984 0.933974 0.933974
0.919738 0.939193 0.939193
0.940459 0.941009 0.941268
0.941405 0.941405 0.941405
