bundles/resolve-cinematic-luts/Phantom Luts/Ursa G2 Phntm Film LUTs - V1/Gen5/Standard (No WB Offset)/Ursa G2 VisionTeal Gen5.cube
TITLE "Generated by Resolve"
LUT_3D_SIZE 5
0.0222477 0.0297856 0.0280156
0.0932631 0.0224918 0.0242924
0.540398 0.0374304 0.0308537
0.707347 0.035523 0.0749065
0.708904 0.0343328 0.0762036
0.0195773 0.12874 0.0470436
0.0787366 0.12604 0.0431983
0.558984 0.0568399 0.027451
0.706371 0.0687572 0.0652171
0.705623 0.0703746 0.0628977
0.101854 0.712734 0.36347
0.105806 0.703731 0.334798
0.541146 0.636851 0.156085
0.806577 0.658122 0.198718
0.802457 0.627024 0.179324
0.227893 0.874296 0.552392
0.242023 0.847944 0.451972
0.44625 0.770916 0.272816
0.792813 0.78854 0.306981
0.818814 0.794415 0.330175
0.234958 0.878599 0.579171
0.237385 0.85127 0.460914
0.286656 0.813519 0.355474
0.72401 0.791043 0.271443
0.81912 0.794644 0.326665
0.0210117 0.0437629 0.123369
0.134478 0.0306706 0.120333
0.63154 0.0274662 0.124407
0.708568 0.03505 0.0783856
0.710857 0.0349889 0.0867781
0.0200351 0.106615 0.0878614
0.0910658 0.113451 0.106981
0.5664 0.0449378 0.0339361
0.707103 0.060853 0.0668193
0.707179 0.0666667 0.0644541
0.0943465 0.686687 0.446555
0.0827955 0.679377 0.352621
0.52697 0.617533 0.145342
0.801724 0.625544 0.17937
0.797574 0.600183 0.177157
0.259663 0.887602 0.655802
0.228885 0.877989 0.572641
0.339971 0.7906 0.285557
0.787228 0.788418 0.304006
0.818647 0.794415 0.331792
0.259495 0.890059 0.662516
0.241672 0.878309 0.588479
0.262333 0.835966 0.424628
0.701015 0.786542 0.270863
0.819089 0.794644 0.32665
0.0588083 0.126314 0.576135
0.261784 0.0524147 0.572427
0.677699 0.0928817 0.640513
0.734112 0.106386 0.707683
0.73135 0.0821698 0.595956
0.0191806 0.118242 0.515648
0.127932 0.114015 0.573907
0.64358 0.0822461 0.605066
0.744411 0.11809 0.670527
0.719326 0.0677195 0.519341
0.0700389 0.665858 0.592416
0.0623331 0.655222 0.582818
0.662196 0.657023 0.629175
0.837522 0.600519 0.533288
0.803815 0.559701 0.351293
0.421851 0.891112 0.795636
0.335424 0.899763 0.783108
0.400366 0.875425 0.689357
0.799725 0.808743 0.492378
0.818555 0.794354 0.334813
0.479454 0.888228 0.797314
0.412482 0.891264 0.778561
0.261738 0.884733 0.643397
0.698695 0.784558 0.355764
0.818906 0.794507 0.326726
0.476448 0.115755 0.769802
0.549859 0.130602 0.782101
0.767636 0.175341 0.822812
0.76112 0.141268 0.813886
0.775158 0.170687 0.824491
0.430365 0.107332 0.760525
0.460761 0.101427 0.758129
0.742367 0.164858 0.815976
0.75938 0.13724 0.811795
0.759716 0.137621 0.8121
0.021149 0.663127 0.789837
0.0598001 0.647272 0.804623
0.722072 0.563745 0.879133
0.852537 0.527855 0.875685
0.828504 0.423682 0.859236
0.525444 0.886809 0.836728
0.488624 0.886549 0.83505
0.555566 0.88014 0.832731
0.888838 0.902373 0.878782
0.905303 0.884123 0.857893
0.661845 0.894194 0.847395
0.64921 0.89308 0.84416
0.610071 0.89044 0.833509
0.844678 0.917174 0.871702
0.907927 0.920775 0.860487
0.595178 0.220752 0.814618
0.657572 0.251865 0.822675
0.801572 0.290364 0.842222
0.783932 0.209964 0.830533
0.783932 0.209964 0.830533
0.553903 0.19881 0.808469
0.602991 0.224369 0.815946
0.790997 0.285283 0.839811
0.783932 0.209964 0.830533
0.783932 0.209964 0.830533
0.512322 0.63209 0.855543
0.539696 0.590768 0.863279
0.772381 0.541222 0.872999
0.850202 0.517906 0.875044
0.832547 0.441962 0.861738
0.648356 0.884382 0.854093
0.636133 0.879835 0.85333
0.649943 0.87187 0.855985
0.89395 0.884092 0.901503
0.91078 0.874128 0.901411
0.731853 0.898833 0.861738
0.73051 0.899245 0.861494
0.73051 0.899245 0.861494
0.869886 0.923064 0.898451
0.919142 0.932799 0.911589
