bundles/resolve-cinematic-luts/Phantom Luts/Ursa G2 Phntm Film LUTs - V1/Gen5/Standard (No WB Offset)/Ursa G2 Eterna Legacy Gen5.cube
TITLE "Generated by Resolve"
LUT_3D_SIZE 5
0.0167697 0.0444648 0.0445106
0.0886854 0.0496986 0.0453651
0.413947 0.0692302 0.110231
0.583703 0.0881971 0.168872
0.619257 0.0795911 0.178973
0.0456855 0.114427 0.0774243
0.0946059 0.122988 0.069337
0.47921 0.0695659 0.10193
0.600961 0.0831311 0.157626
0.609079 0.0812543 0.163668
0.188388 0.755062 0.355016
0.270985 0.83122 0.348608
0.660349 0.831769 0.262837
0.920256 0.803708 0.29099
0.904112 0.731472 0.243565
0.244968 0.904524 0.532021
0.303609 0.90692 0.437659
0.459159 0.900359 0.318074
0.934432 0.887053 0.368658
0.941421 0.893782 0.370214
0.221286 0.906935 0.56936
0.257954 0.903563 0.497032
0.380179 0.900511 0.382483
0.785977 0.911406 0.336339
0.93785 0.896803 0.363317
0.0267338 0.0471809 0.0842908
0.0991073 0.0560159 0.0795758
0.411353 0.0699321 0.141039
0.606867 0.0821393 0.169223
0.634333 0.0759442 0.182589
0.043183 0.101335 0.090898
0.0928359 0.108705 0.106203
0.47335 0.0695964 0.139666
0.60679 0.0818341 0.163531
0.622171 0.0789044 0.179553
0.0810407 0.661189 0.404608
0.105821 0.721325 0.37055
0.626383 0.794324 0.236851
0.910842 0.765148 0.259419
0.890059 0.677028 0.215839
0.248753 0.906447 0.689036
0.235584 0.903075 0.615351
0.424399 0.901732 0.339696
0.930312 0.88539 0.366247
0.941238 0.893996 0.370001
0.284169 0.920043 0.750881
0.256977 0.905715 0.672724
0.38088 0.900252 0.38265
0.763317 0.910536 0.333883
0.938003 0.896696 0.363607
0.0951858 0.0650492 0.348287
0.193088 0.0752422 0.381079
0.522957 0.1037 0.319463
0.651041 0.0997482 0.357107
0.692729 0.110414 0.440574
0.0307164 0.0625772 0.218585
0.0759136 0.0627756 0.354498
0.529335 0.110842 0.364233
0.676982 0.12137 0.437125
0.70544 0.125322 0.532189
0.0808576 0.584237 0.496574
0.0653391 0.620584 0.545113
0.592645 0.631205 0.586954
0.925093 0.631662 0.626596
0.918791 0.586709 0.622385
0.394598 0.916945 0.856031
0.352956 0.922621 0.856352
0.446128 0.925689 0.775128
0.933288 0.917723 0.651576
0.943282 0.917388 0.609567
0.541726 0.926162 0.905409
0.518395 0.927077 0.901595
0.399969 0.918212 0.819379
0.809522 0.923552 0.727657
0.938949 0.896834 0.368505
0.289509 0.0937209 0.640635
0.367437 0.0986343 0.664546
0.678141 0.130358 0.717586
0.716838 0.131395 0.70277
0.715862 0.130114 0.692531
0.197421 0.0835737 0.601236
0.254688 0.0910811 0.633005
0.612863 0.120409 0.719478
0.719631 0.136706 0.716152
0.71986 0.137148 0.718029
0.0706188 0.551949 0.728466
0.0805676 0.535866 0.759823
0.37203 0.549447 0.894759
0.926467 0.494743 0.90985
0.920439 0.444678 0.911635
0.426703 0.925566 0.906538
0.39379 0.92462 0.903792
0.516808 0.92398 0.902892
0.927214 0.931563 0.927001
0.9393 0.931838 0.929808
0.656809 0.928496 0.926162
0.657755 0.928893 0.92697
0.661418 0.928862 0.925261
0.913802 0.938552 0.936034
0.944228 0.939742 0.928618
0.554726 0.195438 0.797894
0.574777 0.199496 0.804623
0.813123 0.245426 0.834928
0.796063 0.209537 0.796063
0.785153 0.198672 0.785153
0.520012 0.187503 0.784405
0.520012 0.187503 0.784421
0.715343 0.224063 0.83299
0.796063 0.209537 0.796063
0.796063 0.209537 0.796063
0.22681 0.606561 0.876219
0.370535 0.616785 0.89691
0.53846 0.542214 0.908186
0.923201 0.469764 0.923201
0.9084 0.384649 0.9084
0.540566 0.927443 0.928512
0.543038 0.925978 0.928557
0.547021 0.917754 0.928573
0.888548 0.922835 0.934524
0.937224 0.915557 0.937224
0.728481 0.930739 0.930739
0.731991 0.930846 0.930846
0.720104 0.93048 0.93048
0.919738 0.939193 0.939193
0.941405 0.941405 0.941405
