bundles/resolve-cinematic-luts/Phantom Luts/Ursa G2 Phntm Film LUTs - V1/Gen5/Standard (No WB Offset)/Ursa G2 Eastman Gen5.cube
TITLE "Generated by Resolve"
LUT_3D_SIZE 33
0.0390021 0.0390021 0.0390021
0.0390021 0.0390021 0.0390021
0.0390021 0.0390021 0.0390021
0.0390021 0.0390021 0.0390021
0.0415961 0.0390021 0.0390021
0.0491798 0.0390021 0.0390021
0.0637827 0.0390021 0.0390021
0.0836957 0.0390021 0.0390021
0.107805 0.0390021 0.0390021
0.138552 0.0390021 0.0390021
0.180896 0.0390021 0.0390021
0.230732 0.0390021 0.0390021
0.276417 0.0402075 0.0390021
0.317479 0.0442969 0.0390021
0.355825 0.048249 0.0390021
0.390463 0.0523537 0.0390021
0.420905 0.0571145 0.0390021
0.449165 0.0657206 0.0390021
0.474418 0.0754864 0.0405432
0.497475 0.0859998 0.0431678
0.517342 0.0954147 0.0452125
0.533165 0.102464 0.0468757
0.542031 0.105379 0.0483101
0.544625 0.105379 0.049134
0.547021 0.104738 0.0500801
0.550607 0.10312 0.0513924
0.553338 0.100313 0.0530098
0.554025 0.0996109 0.053727
0.552834 0.0999771 0.0536355
0.549447 0.101015 0.0531777
0.544244 0.102571 0.0529183
0.534539 0.105501 0.0518807
0.523537 0.108782 0.0509651
0.0390021 0.0390021 0.0390021
0.0390021 0.0390021 0.0390021
0.0390021 0.0390021 0.0390021
0.0390021 0.0390021 0.0390021
0.0392615 0.0390021 0.0390021
0.0449989 0.0390021 0.0390021
0.0585489 0.0390021 0.0390021
0.0787518 0.0390021 0.0390021
0.103883 0.0390021 0.0390021
0.135668 0.0390021 0.0390021
0.177478 0.0390021 0.0390021
0.22768 0.0390021 0.0390021
0.274037 0.0404974 0.0390021
0.315755 0.0445716 0.0390021
0.354238 0.0483101 0.0390021
0.389548 0.0523842 0.0390021
0.420233 0.0572824 0.0390021
0.448463 0.065919 0.0390021
0.473564 0.0755474 0.0404212
0.496818 0.0861219 0.0430457
0.516518 0.095613 0.0451209
0.532036 0.102525 0.0467689
0.541665 0.10576 0.0483406
0.54377 0.105638 0.0490883
0.546273 0.104952 0.0500191
0.549889 0.103365 0.0512551
0.55259 0.10045 0.0529793
0.553231 0.099855 0.053666
0.552377 0.100114 0.0535744
0.549218 0.101076 0.0531624
0.544121 0.102602 0.052903
0.534463 0.105516 0.0518654
0.52343 0.108812 0.0509651
0.0390021 0.0390021 0.0390021
0.0390021 0.0390021 0.0390021
0.0390021 0.0390021 0.0390021
0.0390021 0.0390021 0.0390021
0.0390021 0.0390021 0.0390021
0.0419928 0.0390021 0.0390021
0.051957 0.0390021 0.0390021
0.0704509 0.0390021 0.0390021
0.09514 0.0390021 0.0390021
0.126406 0.0390021 0.0390021
0.168811 0.0390021 0.0390021
0.221241 0.0390021 0.0390021
0.270191 0.0407416 0.0390021
0.314107 0.0449683 0.0390021
0.353536 0.0488594 0.0390021
0.389731 0.0527657 0.0390021
0.420371 0.0576333 0.0390021
0.448875 0.0664988 0.0390021
0.473854 0.0762798 0.0404822
0.497337 0.0869764 0.0431678
0.516548 0.0962234 0.0450141
0.531502 0.102831 0.0467079
0.541527 0.106264 0.0483864
0.543114 0.105837 0.0490272
0.545678 0.105135 0.0499886
0.549249 0.103471 0.0512245
0.552163 0.100389 0.0530861
0.552499 0.100084 0.0535897
0.551888 0.100267 0.0534981
0.548928 0.101167 0.0531624
0.544015 0.102632 0.0528878
0.534371 0.105547 0.0518654
0.523293 0.108843 0.0509499
0.0390021 0.0390021 0.0390021
0.0390021 0.0390021 0.0390021
0.0390021 0.0390021 0.0390021
0.0390021 0.0390021 0.0390021
0.040589 0.0390021 0.0390021
0.0453651 0.0390021 0.0390021
0.0539712 0.0390021 0.0390021
0.0703746 0.0390021 0.0393835
0.0928054 0.0390021 0.0393378
0.123522 0.0390021 0.0390021
0.163699 0.0390021 0.0390021
0.216434 0.0390021 0.0390021
0.266117 0.0406195 0.0390021
0.310689 0.0451972 0.0390021
0.349706 0.0491188 0.0390021
0.386358 0.0536202 0.0390021
0.418311 0.0583352 0.0390021
0.447837 0.067277 0.0390021
0.473808 0.0770886 0.0406348
0.497536 0.0878309 0.0432288
0.51664 0.0969711 0.0450904
0.531182 0.103197 0.0466926
0.540871 0.106462 0.0483711
0.542611 0.105989 0.049012
0.545159 0.105287 0.0499886
0.54873 0.103517 0.0513008
0.551873 0.100313 0.0532845
0.551965 0.100237 0.0535134
0.551385 0.10042 0.0534524
0.548684 0.101244 0.0531472
0.543923 0.102663 0.0528878
0.53431 0.105562 0.0518654
0.523171 0.108888 0.0509499
0.0424048 0.0390021 0.0391546
0.0409705 0.0390021 0.0393225
0.0400549 0.0390021 0.0390021
0.0409857 0.0390021 0.0390021
0.0443427 0.0390021 0.0396582
0.0501259 0.0390021 0.0402838
0.0593729 0.0390021 0.0416571
0.0756085 0.0390021 0.0431067
0.0969558 0.0390021 0.0432136
0.127337 0.0390021 0.0420844
0.168948 0.0390021 0.0390021
0.21944 0.0390021 0.0390021
0.266468 0.0414588 0.0390021
0.30927 0.0457008 0.0390021
0.347646 0.0496071 0.0390021
0.383856 0.0545815 0.0390021
0.414237 0.0602121 0.0390021
0.442939 0.0687419 0.0390021
0.46865 0.0782483 0.0402075
0.493339 0.088304 0.0426032
0.513863 0.0978866 0.0446784
0.529412 0.103883 0.0465553
0.539452 0.106889 0.0481575
0.541604 0.106294 0.0488289
0.543923 0.105699 0.0498054
0.547707 0.104005 0.0510567
0.550988 0.10074 0.0530098
0.551415 0.100313 0.0534218
0.550973 0.10042 0.0534218
0.548501 0.101289 0.0531472
0.543862 0.102678 0.0528878
0.534249 0.105592 0.0518502
0.523049 0.108934 0.0509194
0.0476692 0.0467842 0.0457771
0.046067 0.046891 0.0457771
0.0451057 0.0462501 0.0449531
0.0451209 0.0456397 0.0437324
0.0479133 0.0474098 0.0443275
0.0529183 0.0497749 0.0453498
0.0650645 0.0506905 0.0462959
0.0828717 0.0492256 0.0477302
0.104814 0.0471962 0.0478981
0.134798 0.0467384 0.0462348
0.175204 0.047715 0.0419318
0.225772 0.0451209 0.0390021
0.27158 0.0451972 0.0390021
0.3131 0.0478981 0.0390021
0.350317 0.0512856 0.0390021
0.38378 0.0555734 0.0390021
0.413626 0.0611124 0.0390021
0.441032 0.0705577 0.0390021
0.4654 0.080705 0.039826
0.488579 0.0911116 0.0420996
0.510613 0.100206 0.0440528
0.526177 0.105684 0.0462348
0.534905 0.108293 0.047425
0.537255 0.107668 0.0482032
0.540032 0.106844 0.0491188
0.543084 0.106035 0.0501411
0.54638 0.104067 0.0514534
0.547951 0.102434 0.052369
0.548089 0.102052 0.0525673
0.545907 0.102541 0.0524453
0.542092 0.103639 0.0519875
0.532937 0.106294 0.0513924
0.522087 0.109529 0.0505531
0.054612 0.0652476 0.0545968
0.0527657 0.0653544 0.0543832
0.0516213 0.0649577 0.0539101
0.0510262 0.0639048 0.0519417
0.0519722 0.0644083 0.0507057
0.0575723 0.0674449 0.0521248
0.0670634 0.0708476 0.0533761
0.0876631 0.0710155 0.053193
0.11284 0.0659342 0.0542
0.146578 0.0615396 0.0526131
0.189364 0.0582132 0.0456092
0.238743 0.057145 0.0390021
0.283482 0.0554665 0.0390021
0.323857 0.0526589 0.0390021
0.359609 0.0549935 0.0390021
0.390738 0.0585489 0.0390021
0.419379 0.0640421 0.0390021
0.444877 0.0719463 0.0390021
0.469535 0.0825208 0.0399939
0.491981 0.0923323 0.0420386
0.512154 0.101549 0.0442206
0.526955 0.107271 0.0460365
0.533578 0.108934 0.0471656
0.535149 0.108507 0.0476234
0.536873 0.108064 0.0482948
0.538964 0.107561 0.0490425
0.541039 0.106905 0.0498512
0.542458 0.106203 0.0503853
0.542458 0.106233 0.05037
0.541466 0.106538 0.0502785
0.539437 0.107103 0.0501411
0.534356 0.108553 0.0496834
0.52874 0.109865 0.0496223
0.063447 0.0853285 0.0618143
0.0612039 0.0856947 0.0616159
0.0588388 0.0861372 0.0621347
0.0575875 0.0852674 0.0609445
0.0568856 0.0850538 0.0584421
0.0585946 0.0871595 0.0574502
0.0666361 0.0900435 0.0584726
0.0836957 0.0940871 0.0595102
0.113802 0.0930953 0.0586099
0.154513 0.0855573 0.0594492
0.206668 0.0760662 0.0538796
0.259663 0.071809 0.0447547
0.304677 0.0712749 0.0395972
0.34107 0.0704814 0.0390021
0.372076 0.0705119 0.0390021
0.399786 0.0675822 0.0390021
0.42472 0.0692149 0.0390021
0.449561 0.0779583 0.0390021
0.47277 0.0865644 0.0401923
0.494041 0.0954147 0.042298
0.512505 0.103929 0.0443275
0.526497 0.109895 0.0456397
0.530007 0.110872 0.0463722
0.532372 0.109682 0.0470588
0.534157 0.109087 0.0475776
0.535683 0.108675 0.0480964
0.537011 0.108232 0.0486915
0.537972 0.10808 0.0489815
0.538186 0.107988 0.0490578
0.537377 0.108217 0.0490272
0.535775 0.108675 0.0489052
0.531258 0.110002 0.0486
0.525444 0.111727 0.0478828
0.0682841 0.110369 0.0687724
0.0657054 0.11078 0.068452
0.0630961 0.111376 0.068925
0.0617075 0.110933 0.0683146
0.0606699 0.110002 0.0662089
0.060853 0.111147 0.0634623
0.0634623 0.113725 0.0622263
0.0776074 0.1196 0.064622
0.106157 0.127108 0.0675364
0.151568 0.125917 0.0671092
0.217319 0.113741 0.0671092
0.281209 0.10251 0.0606699
0.330938 0.0978256 0.0530098
0.370672 0.0994583 0.0480201
0.403571 0.101701 0.045594
0.428473 0.100679 0.0438849
0.448707 0.0983597 0.0421607
0.466392 0.0981155 0.0419165
0.480613 0.0936294 0.0413062
0.498329 0.100862 0.0426642
0.513863 0.10811 0.0438544
0.527993 0.113497 0.0457313
0.527871 0.113466 0.0457313
0.527428 0.11252 0.0457008
0.530022 0.111376 0.0465553
0.532128 0.109972 0.0472877
0.533257 0.109682 0.0475929
0.533959 0.109422 0.0478218
0.534112 0.109377 0.0478676
0.533516 0.109545 0.0478523
0.53228 0.109895 0.047776
0.528054 0.111162 0.0473182
0.522408 0.112871 0.0467536
0.0738537 0.147951 0.0776226
0.0703746 0.148547 0.0760815
0.0674601 0.149447 0.0766155
0.0658885 0.150286 0.0771191
0.064622 0.148684 0.0752575
0.0642405 0.148013 0.0713512
0.0645609 0.150408 0.0683909
0.068574 0.15433 0.0675517
0.0926833 0.166155 0.0723125
0.135973 0.180026 0.0796216
0.207752 0.178546 0.0786297
0.29366 0.169375 0.0805219
0.360952 0.151919 0.0786603
0.411032 0.146624 0.074464
0.447257 0.145251 0.0710002
0.479744 0.14757 0.0684825
0.505074 0.147997 0.0656748
0.526177 0.147921 0.0633555
0.543526 0.148089 0.06215
0.546654 0.141772 0.0576181
0.541802 0.132815 0.0518959
0.534981 0.122927 0.0471199
0.536233 0.125216 0.0475929
0.527398 0.115831 0.0454566
0.527184 0.114519 0.0457465
0.527871 0.113237 0.0459602
0.52929 0.111437 0.0466011
0.529824 0.111147 0.0467384
0.529961 0.111055 0.0467689
0.529458 0.111177 0.0467536
0.528588 0.111421 0.0466316
0.524865 0.112535 0.0462806
0.519615 0.114046 0.0459449
0.0808881 0.200702 0.0901045
0.0768139 0.201892 0.0879835
0.0728771 0.203815 0.088014
0.0709239 0.204593 0.0883955
0.06981 0.204395 0.0875715
0.0688487 0.201404 0.0836652
0.0687724 0.203265 0.0785229
0.0697795 0.206592 0.0748302
0.0814984 0.21503 0.0766461
0.121691 0.236286 0.0882124
0.188006 0.258427 0.101061
0.290059 0.259449 0.0997482
0.383322 0.256336 0.100008
0.446052 0.238178 0.100847
0.495369 0.224552 0.102815
0.532891 0.217472 0.0999161
0.563546 0.21265 0.0966659
0.590799 0.211368 0.0963302
0.614954 0.211536 0.0963912
0.63447 0.212345 0.0978714
0.641962 0.206027 0.0957198
0.641047 0.197971 0.0917372
0.620462 0.183368 0.082475
0.592462 0.164157 0.0686198
0.557412 0.141436 0.0548104
0.554894 0.140093 0.0545205
0.526513 0.11548 0.045655
0.527169 0.114824 0.0457771
0.527138 0.115023 0.0457465
0.526558 0.115282 0.0456855
0.525567 0.115023 0.0456397
0.521706 0.115953 0.0453803
0.516777 0.11722 0.0451362
0.0968643 0.271473 0.113298
0.0919356 0.273396 0.111086
0.0866102 0.275639 0.110414
0.0842145 0.276555 0.110674
0.0830701 0.277073 0.111208
0.0823377 0.275471 0.108141
0.0814679 0.273579 0.102556
0.0814832 0.276951 0.0950332
0.0844434 0.28011 0.0890211
0.1075 0.293309 0.0932021
0.162676 0.318044 0.106111
0.260731 0.346563 0.11902
0.370901 0.345892 0.115618
0.461982 0.342611 0.115526
0.521859 0.329274 0.114534
0.5682 0.312505 0.113039
0.606378 0.293355 0.121263
0.639323 0.284489 0.119326
0.667216 0.280186 0.119509
0.690593 0.279072 0.122454
0.705592 0.27744 0.122881
0.712047 0.273808 0.12221
0.707683 0.266377 0.119387
0.697108 0.254108 0.115648
0.68452 0.241032 0.110536
0.658747 0.21651 0.101472
0.617655 0.184497 0.0820935
0.586252 0.163256 0.0669566
0.592203 0.166583 0.0687877
0.597238 0.170474 0.0711833
0.596201 0.170092 0.0711376
0.591333 0.169986 0.0706188
0.586313 0.17116 0.0706035
0.104479 0.341985 0.133562
0.0990463 0.343069 0.131868
0.0935073 0.344991 0.131182
0.0907912 0.346258 0.131792
0.0895247 0.347097 0.132494
0.0895094 0.347265 0.13193
0.0889296 0.345098 0.126955
0.088365 0.345342 0.119554
0.0879072 0.347539 0.108019
0.09514 0.350713 0.0977188
0.130495 0.367315 0.101061
0.207111 0.393866 0.113756
0.334783 0.428412 0.125917
0.439902 0.424414 0.126268
0.5252 0.418341 0.127932
0.583337 0.410422 0.124666
0.628244 0.397528 0.122698
0.664469 0.379126 0.129686
0.695171 0.362478 0.139864
0.722789 0.353964 0.147845
0.742168 0.349157 0.150454
0.751736 0.344167 0.1514
0.754498 0.338491 0.151278
0.751675 0.333669 0.147936
0.747402 0.325872 0.143908
0.740261 0.313817 0.137194
0.727153 0.292576 0.128283
0.715999 0.277592 0.124193
0.710826 0.271061 0.12221
0.708171 0.268269 0.121141
0.706233 0.266239 0.120424
0.702296 0.265064 0.119738
0.695109 0.263798 0.118929
0.103273 0.405692 0.152422
0.0995651 0.406546 0.150729
0.0954604 0.408499 0.149737
0.0934462 0.409689 0.150591
0.091722 0.41091 0.152911
0.0908217 0.411337 0.15349
0.0903792 0.410666 0.151095
0.089189 0.407431 0.142718
0.0892042 0.409445 0.133776
0.0893416 0.408347 0.113497
0.108553 0.415137 0.101762
0.159411 0.43241 0.103426
0.271168 0.464363 0.119478
0.404242 0.49929 0.132326
0.496635 0.494011 0.140063
0.576577 0.486534 0.146258
0.632456 0.482139 0.14464
0.676066 0.474922 0.144533
0.709392 0.461921 0.148455
0.736126 0.450889 0.153658
0.756558 0.444297 0.16112
0.769329 0.435065 0.165698
0.776852 0.428687 0.169589
0.775631 0.425055 0.169406
0.774166 0.417288 0.169253
0.772747 0.407446 0.169238
0.768582 0.388937 0.167636
0.765469 0.375662 0.162921
0.762753 0.367636 0.160006
0.76228 0.366537 0.159152
0.761486 0.36495 0.157885
0.758953 0.363989 0.157351
0.753735 0.364263 0.157046
0.0991531 0.463523 0.179446
0.0969711 0.463584 0.177111
0.093904 0.464256 0.175677
0.0918441 0.465568 0.175357
0.0903182 0.466636 0.177142
0.0898146 0.467201 0.178622
0.0894636 0.466758 0.177081
0.0895705 0.464744 0.170642
0.089662 0.462562 0.159487
0.0903639 0.464286 0.146212
0.0975967 0.46247 0.118975
0.131609 0.471733 0.108827
0.210956 0.491447 0.113024
0.347646 0.534478 0.137774
0.466194 0.563928 0.147799
0.545235 0.559762 0.158343
0.622217 0.552926 0.166583
0.673365 0.547448 0.169177
0.715023 0.542855 0.170962
0.746761 0.539376 0.172412
0.76994 0.5355 0.175311
0.785977 0.531106 0.178393
0.793957 0.525521 0.179721
0.794842 0.521828 0.179995
0.793744 0.517525 0.179171
0.79237 0.512276 0.1785
0.790295 0.503594 0.177295
0.78732 0.490166 0.17525
0.785779 0.483284 0.17435
0.785306 0.481147 0.173846
0.784909 0.47834 0.173617
0.78291 0.476493 0.173693
0.778256 0.474952 0.173892
0.105943 0.517494 0.221302
0.104051 0.516884 0.218326
0.102327 0.517433 0.217655
0.101228 0.517922 0.215259
0.0999313 0.518593 0.21677
0.099443 0.519081 0.218296
0.0992447 0.519448 0.219196
0.0990311 0.517723 0.213916
0.098436 0.513817 0.199573
0.100145 0.51223 0.183459
0.104234 0.512566 0.163928
0.126482 0.514 0.134005
0.177066 0.525002 0.124224
0.290745 0.554574 0.13547
0.420066 0.600671 0.162127
0.520867 0.623301 0.169329
0.591119 0.622827 0.179446
0.66154 0.616114 0.189425
0.708629 0.608042 0.19678
0.745998 0.607874 0.200351
0.774044 0.607858 0.201419
0.79527 0.608194 0.204395
0.809079 0.604852 0.204639
0.815152 0.600595 0.204044
0.81442 0.598825 0.202472
0.813703 0.595438 0.200748
0.811856 0.590661 0.197818
0.810193 0.585016 0.194751
0.808835 0.581231 0.193072
0.808148 0.578775 0.192767
0.808072 0.576913 0.192935
0.806241 0.574853 0.192966
0.802945 0.573297 0.193454
0.117632 0.569604 0.266087
0.116045 0.568734 0.263661
0.114794 0.568627 0.262806
0.114092 0.568597 0.259998
0.113191 0.568872 0.259937
0.112749 0.569146 0.261418
0.11249 0.569482 0.262058
0.112535 0.569009 0.260487
0.111162 0.56405 0.248066
0.111192 0.559564 0.229267
0.115175 0.557824 0.204593
0.127062 0.55761 0.175387
0.164248 0.562371 0.146288
0.252445 0.579767 0.144015
0.370565 0.619394 0.16669
0.482002 0.659541 0.189868
0.568917 0.678477 0.195071
0.63357 0.681712 0.204288
0.695033 0.674632 0.216312
0.737865 0.667079 0.227756
0.768582 0.669413 0.232288
0.792065 0.671855 0.234943
0.813107 0.671901 0.23743
0.826474 0.66807 0.236332
0.831174 0.664378 0.234668
0.831464 0.660853 0.232822
0.830365 0.656489 0.229969
0.829236 0.65153 0.227665
0.828214 0.646876 0.225452
0.827543 0.644251 0.224216
0.827298 0.642771 0.223407
0.826139 0.641505 0.223194
0.823651 0.64033 0.223499
0.134295 0.618738 0.308141
0.132891 0.61706 0.305608
0.131884 0.61648 0.305119
0.131151 0.615885 0.302647
0.130694 0.615869 0.302037
0.130617 0.616251 0.302571
0.130556 0.616403 0.303441
0.130571 0.616388 0.30341
0.129427 0.612894 0.295476
0.127565 0.606439 0.277882
0.129244 0.602075 0.253483
0.138155 0.598962 0.215839
0.159106 0.598459 0.178393
0.232029 0.608164 0.160494
0.335195 0.637308 0.174228
0.443839 0.680125 0.200732
0.536202 0.711955 0.219013
0.611551 0.728496 0.223697
0.669718 0.732952 0.232792
0.723186 0.72845 0.245563
0.761105 0.720607 0.258747
0.787152 0.72462 0.261784
0.808469 0.725383 0.26598
0.82681 0.724956 0.269261
0.83624 0.721981 0.268818
0.838788 0.719295 0.267643
0.838437 0.715267 0.265049
0.838376 0.710735 0.261921
0.837827 0.705531 0.258488
0.838148 0.702937 0.256794
0.8383 0.701656 0.255894
0.837705 0.700404 0.255375
0.836637 0.699245 0.255222
0.151263 0.658946 0.34548
0.15021 0.657099 0.342306
0.14905 0.655924 0.341299
0.148211 0.654765 0.338674
0.14789 0.654063 0.336828
0.147738 0.653773 0.336202
0.147677 0.653758 0.337057
0.147585 0.653559 0.336797
0.147341 0.652735 0.33521
0.144823 0.646357 0.319585
0.143832 0.639857 0.297246
0.148775 0.63444 0.263554
0.1682 0.631266 0.215808
0.222431 0.635233 0.182361
0.322332 0.656214 0.185336
0.415763 0.691951 0.208759
0.507546 0.729473 0.232715
0.588144 0.755718 0.246036
0.651255 0.769558 0.25066
0.702754 0.774823 0.260822
0.746761 0.772564 0.272892
0.778042 0.765789 0.283619
0.802472 0.76611 0.289342
0.824216 0.766537 0.295644
0.840131 0.765362 0.297887
0.845472 0.763317 0.29604
0.84593 0.761166 0.294408
0.845289 0.756909 0.291402
0.844297 0.752651 0.288869
0.844221 0.750011 0.287007
0.844205 0.748867 0.286183
0.843931 0.747448 0.284977
0.843748 0.745922 0.284031
0.166751 0.690867 0.377493
0.165194 0.688151 0.372946
0.164096 0.686229 0.370123
0.163607 0.684764 0.367575
0.163149 0.683116 0.363104
0.162844 0.682506 0.362234
0.162737 0.682429 0.362829
0.162707 0.682353 0.362768
0.162402 0.681712 0.362188
0.160082 0.676905 0.351446
0.157122 0.669383 0.331731
0.159609 0.662379 0.301839
0.169497 0.656001 0.253162
0.213626 0.656123 0.20531
0.316182 0.672206 0.195209
0.406867 0.704433 0.21709
0.490181 0.7402 0.243183
0.567025 0.770123 0.262318
0.637293 0.790722 0.272084
0.68751 0.801236 0.276753
0.730388 0.806226 0.286519
0.767178 0.806058 0.29662
0.79234 0.801205 0.306142
0.81593 0.799481 0.315679
0.836637 0.796902 0.323766
0.847623 0.794827 0.321172
0.851972 0.792844 0.319432
0.851316 0.790768 0.316213
0.851316 0.787549 0.314473
0.850813 0.785321 0.312093
0.85034 0.783398 0.310277
0.850141 0.782132 0.309239
0.850172 0.781003 0.308415
0.179294 0.713161 0.401999
0.177386 0.710246 0.396506
0.175998 0.707195 0.392935
0.174411 0.704173 0.387884
0.173007 0.701198 0.382177
0.172229 0.699397 0.378805
0.172213 0.699443 0.379721
0.172168 0.699336 0.379568
0.172061 0.699138 0.379294
0.170321 0.695842 0.37258
0.167178 0.688533 0.355016
0.167697 0.68072 0.327886
0.174517 0.671748 0.282429
0.203784 0.668742 0.227039
0.307698 0.681117 0.204349
0.406622 0.714183 0.223804
0.484627 0.74696 0.247791
0.553216 0.775219 0.269612
0.619425 0.798077 0.282429
0.675135 0.811978 0.289036
0.717403 0.819135 0.294743
0.751232 0.821942 0.303456
0.781826 0.821515 0.310185
0.806622 0.813657 0.320287
0.828061 0.810742 0.330999
0.845106 0.812039 0.339986
0.851637 0.812268 0.342184
0.854475 0.812177 0.341939
0.854215 0.811383 0.337194
0.854231 0.809491 0.333913
0.85391 0.808377 0.331899
0.85391 0.807568 0.331212
0.853834 0.806867 0.33051
0.186725 0.725704 0.41854
0.184131 0.72166 0.411704
0.181796 0.717708 0.405127
0.179644 0.713222 0.397223
0.177157 0.708766 0.387533
0.175677 0.705501 0.380087
0.175525 0.705089 0.378561
0.175509 0.705028 0.378119
0.175509 0.704997 0.378027
0.175021 0.703975 0.375875
0.172595 0.697414 0.359319
0.172473 0.689662 0.335485
0.177844 0.679072 0.292241
0.203861 0.673579 0.234089
0.2981 0.684565 0.205295
0.414633 0.721874 0.22443
0.493629 0.755215 0.248096
0.556985 0.781094 0.266987
0.616175 0.801129 0.280461
0.670954 0.815015 0.287938
0.709789 0.822858 0.292302
0.744137 0.82591 0.299168
0.774151 0.826337 0.305211
0.805295 0.821027 0.312367
0.826871 0.81413 0.321828
0.844984 0.81323 0.331579
0.857343 0.814054 0.339284
0.860075 0.814313 0.343023
0.858503 0.814374 0.342504
0.856031 0.814466 0.344762
0.85449 0.814343 0.344259
0.853803 0.814176 0.344427
0.853849 0.813825 0.343664
0.190478 0.729976 0.429374
0.187091 0.725963 0.421363
0.184207 0.721401 0.413901
0.181064 0.716182 0.403693
0.178058 0.710658 0.392721
0.176013 0.706218 0.382177
0.175875 0.705913 0.381018
0.17586 0.705852 0.380255
0.175845 0.705837 0.380133
0.175433 0.704768 0.377676
0.173968 0.700053 0.365255
0.17377 0.692241 0.342321
0.178515 0.682155 0.304295
0.193729 0.672496 0.240375
0.282536 0.681422 0.209033
0.400748 0.716152 0.223743
0.492882 0.754726 0.249851
0.553017 0.779324 0.267582
0.609476 0.7991 0.279652
0.660075 0.812802 0.287739
0.697002 0.820935 0.291997
0.727428 0.824994 0.298756
0.758724 0.826871 0.307729
0.793256 0.823713 0.314549
0.817502 0.817304 0.321309
0.836225 0.813321 0.329213
0.850645 0.813901 0.336461
0.857969 0.81442 0.342535
0.857313 0.815106 0.346578
0.855344 0.815641 0.349706
0.854002 0.815915 0.351553
0.8533 0.81593 0.351385
0.853361 0.8159 0.350942
0.19469 0.733425 0.436118
0.191348 0.72874 0.427512
0.187381 0.72369 0.418509
0.182864 0.717708 0.407187
0.178943 0.711269 0.394293
0.176486 0.706554 0.383001
0.175906 0.705196 0.37882
0.17586 0.705165 0.378317
0.175814 0.705196 0.378332
0.175784 0.705257 0.378515
0.17496 0.700923 0.367193
0.175418 0.693202 0.344717
0.179156 0.683238 0.307378
0.193469 0.673579 0.24744
0.265553 0.678706 0.209659
0.388113 0.711467 0.223758
0.486809 0.751949 0.251438
0.54844 0.777432 0.269657
0.602075 0.796811 0.280217
0.65066 0.810513 0.287602
0.687877 0.819135 0.291295
0.714611 0.823362 0.296574
0.744396 0.826246 0.304326
0.784024 0.827573 0.313893
0.80647 0.819699 0.321233
0.825315 0.813611 0.329152
0.840925 0.814267 0.336294
0.849515 0.815198 0.34258
0.852934 0.815564 0.347494
0.851453 0.816114 0.35201
0.850629 0.816464 0.354345
0.850233 0.816617 0.35494
0.850507 0.816571 0.354757
0.1991 0.734585 0.440986
0.194751 0.729641 0.431205
0.190356 0.724529 0.420554
0.184802 0.717662 0.407233
0.179873 0.710277 0.391608
0.177066 0.704479 0.377752
0.176043 0.702724 0.372122
0.176028 0.702815 0.371588
0.175998 0.702937 0.372107
0.175998 0.703105 0.372808
0.17586 0.700191 0.364904
0.176761 0.693294 0.344579
0.180117 0.683482 0.307851
0.195087 0.674723 0.251591
0.26302 0.678721 0.211872
0.379904 0.708553 0.222126
0.4851 0.751156 0.25182
0.546639 0.776593 0.271397
0.594797 0.794385 0.281407
0.639765 0.808026 0.287739
0.676951 0.817029 0.29189
0.700206 0.821759 0.294621
0.732723 0.825803 0.301808
0.770108 0.827375 0.311925
0.79939 0.821469 0.319661
0.818708 0.815015 0.327062
0.835294 0.813977 0.333745
0.846494 0.815152 0.34139
0.850034 0.815702 0.347173
0.848676 0.816297 0.352239
0.847517 0.816785 0.35494
0.846845 0.817029 0.356283
0.846952 0.817029 0.356283
0.202487 0.734539 0.442664
0.197955 0.729183 0.431617
0.192554 0.723323 0.418921
0.18674 0.715938 0.403204
0.180957 0.707729 0.385077
0.177401 0.700816 0.367178
0.17644 0.698299 0.360098
0.176425 0.698573 0.360143
0.176379 0.698863 0.361013
0.176333 0.699214 0.362066
0.176638 0.697215 0.356298
0.177691 0.691554 0.33817
0.181048 0.682887 0.304463
0.197864 0.675471 0.253864
0.26006 0.678431 0.212421
0.373816 0.706401 0.221744
0.477958 0.748028 0.24976
0.544869 0.77586 0.271519
0.589639 0.792615 0.281437
0.628763 0.805035 0.288258
0.664515 0.814252 0.292195
0.686717 0.819196 0.294087
0.71899 0.824231 0.299413
0.756329 0.827024 0.310323
0.789258 0.823514 0.318166
0.812299 0.815946 0.32575
0.829862 0.814282 0.332082
0.841138 0.81471 0.338903
0.848417 0.815732 0.346151
0.84773 0.81622 0.350942
0.846479 0.816663 0.354055
0.845869 0.816953 0.355306
0.845945 0.816968 0.355459
0.204364 0.733471 0.440482
0.19971 0.727825 0.429068
0.194217 0.721141 0.414939
0.187823 0.7131 0.396872
0.181689 0.704112 0.375891
0.177996 0.696056 0.353902
0.176959 0.692958 0.34342
0.176974 0.693126 0.343496
0.176898 0.693355 0.344228
0.176745 0.69369 0.345235
0.177081 0.693278 0.34406
0.178607 0.688273 0.327291
0.183337 0.680812 0.294606
