bundles/resolve-cinematic-luts/Phantom Luts/Ursa G2 Phntm Film LUTs - V1/Gen5/Standard (No WB Offset)/Ursa G2 Eastman RM Gen5.cube
TITLE "Generated by Resolve"
LUT_3D_SIZE 9
0.0426032 0.0360571 0.0393835
0.0514534 0.033814 0.0367437
0.131395 0.0290074 0.0348211
0.296376 0.0235752 0.0367895
0.481163 0.0261845 0.0407874
0.560433 0.0343175 0.0534218
0.582849 0.0377661 0.0667124
0.584344 0.0378882 0.073228
0.543984 0.0424964 0.103197
0.04448 0.0466316 0.0419928
0.0458381 0.0473793 0.0416876
0.107881 0.0379187 0.0381018
0.285451 0.0242466 0.0381933
0.477806 0.0267491 0.0422065
0.558404 0.0358587 0.056733
0.578378 0.0383001 0.0720531
0.580102 0.0383307 0.076112
0.543832 0.0425116 0.103319
0.0563058 0.118456 0.0539864
0.049134 0.120577 0.0554208
0.0978714 0.12903 0.0500191
0.333104 0.0771344 0.0461585
0.491814 0.0314946 0.0430304
0.558801 0.0366674 0.053727
0.572335 0.0382544 0.0649424
0.573678 0.0383612 0.0676432
0.551156 0.0410468 0.0831311
0.0611124 0.310826 0.0736095
0.0504616 0.321675 0.079408
0.0523384 0.320455 0.0556497
0.2589 0.397772 0.0650645
0.674769 0.358511 0.0846265
0.776898 0.302266 0.128298
0.677623 0.164279 0.108507
0.590738 0.0763867 0.0691997
0.584939 0.079408 0.0751812
0.0656901 0.561761 0.181155
0.0608225 0.573877 0.198703
0.0615702 0.575006 0.195972
0.112978 0.571038 0.0846265
0.572122 0.70309 0.155779
0.839597 0.687495 0.282551
0.859739 0.662959 0.288563
0.854337 0.642908 0.27068
0.85362 0.640726 0.272923
0.213962 0.718502 0.41149
0.205753 0.721263 0.412253
0.205234 0.72047 0.405478
0.210025 0.706737 0.351583
0.474449 0.753094 0.269581
0.776181 0.869932 0.399802
0.906065 0.864897 0.463142
0.909773 0.863661 0.462531
0.912001 0.861891 0.453727
0.239475 0.741329 0.460914
0.22742 0.730861 0.427375
0.221881 0.72105 0.391714
0.22649 0.716747 0.372
0.431876 0.737575 0.259449
0.704051 0.853849 0.37232
0.876478 0.870222 0.450385
0.906416 0.869291 0.484977
0.904952 0.869856 0.490517
0.249378 0.744717 0.465415
0.241993 0.728344 0.410788
0.239078 0.709529 0.341772
0.241398 0.708232 0.333639
0.435386 0.737423 0.237446
0.675242 0.843427 0.346929
0.866758 0.875593 0.432029
0.90956 0.867704 0.470787
0.903227 0.869932 0.494636
0.246754 0.751522 0.489174
0.235859 0.735424 0.436927
0.233936 0.711711 0.351751
0.23946 0.709224 0.340505
0.425254 0.733745 0.2374
0.669825 0.841337 0.344594
0.861921 0.875608 0.429007
0.909133 0.86772 0.471962
0.902739 0.870085 0.495964
0.0424659 0.0365301 0.0428016
0.049134 0.0363012 0.0428931
0.114641 0.0344244 0.0437018
0.283497 0.0263676 0.0490883
0.46453 0.0283513 0.0548257
0.540017 0.0372931 0.06981
0.558709 0.0402533 0.081239
0.559472 0.0406195 0.0901656
0.534249 0.0437324 0.110948
0.0439612 0.0433204 0.043534
0.0455482 0.0429389 0.0439155
0.0990311 0.0360418 0.0427558
0.26949 0.0260319 0.045655
0.45687 0.0288853 0.053315
0.535103 0.0389105 0.071046
0.554009 0.041062 0.0882429
0.555917 0.0410315 0.0932784
0.53431 0.0437171 0.111131
0.0534524 0.110735 0.0632029
0.0486915 0.114702 0.0606088
0.0890364 0.123308 0.0504005
0.323964 0.0658427 0.0480354
0.481147 0.0297856 0.0438239
0.550866 0.037705 0.0576791
0.56434 0.0391089 0.0706645
0.566018 0.0392767 0.0740978
0.543725 0.0420691 0.0906386
0.0590829 0.300252 0.0988785
0.0508431 0.309773 0.0889448
0.0531319 0.317372 0.0623331
0.255772 0.389181 0.0652323
0.676005 0.330358 0.0867323
0.767193 0.279957 0.127794
0.640986 0.132021 0.0952316
0.587274 0.0696727 0.0683909
0.572274 0.0648966 0.0712596
0.0629435 0.562875 0.222049
0.0577096 0.571206 0.22565
0.0607919 0.57322 0.197253
0.0977188 0.569314 0.0930648
0.569726 0.699565 0.153094
0.840406 0.678065 0.279072
0.855848 0.650309 0.27631
0.851209 0.627298 0.258091
0.84921 0.625437 0.260822
0.214252 0.723659 0.44181
0.203342 0.726253 0.441093
0.204059 0.719265 0.404211
0.207126 0.710536 0.367666
0.459953 0.746639 0.262928
0.776837 0.870069 0.397711
0.907027 0.865751 0.46482
0.90959 0.859831 0.458595
0.910063 0.858305 0.45594
0.250797 0.753368 0.501747
0.24094 0.744137 0.471092
0.221424 0.72372 0.402197
0.222538 0.720409 0.387442
0.401892 0.725994 0.24979
0.698909 0.852094 0.369299
0.875822 0.870604 0.449943
0.906432 0.869307 0.485115
0.904982 0.869841 0.490562
0.260655 0.758938 0.511864
0.258228 0.743679 0.46041
0.237873 0.716167 0.367895
0.239078 0.709529 0.341772
0.401434 0.724254 0.229831
0.665339 0.839689 0.342718
0.863615 0.878157 0.431388
0.909712 0.867597 0.470222
0.903426 0.869856 0.49398
0.261707 0.764324 0.53196
0.254536 0.75111 0.486183
0.23473 0.720073 0.382635
0.239109 0.709514 0.341726
0.385916 0.719066 0.226291
0.664027 0.839292 0.342229
0.856641 0.877226 0.426581
0.909117 0.867674 0.471717
0.902739 0.870085 0.495964
0.0418708 0.0416876 0.0665446
0.0497292 0.0400092 0.0736553
0.1178 0.0395819 0.0673381
0.304036 0.0341802 0.0681621
0.490959 0.0292821 0.0830854
0.563424 0.0387884 0.1037
0.56025 0.0403601 0.0846418
0.558785 0.0406195 0.0884718
0.533364 0.0437781 0.109071
0.041886 0.0419165 0.0581369
0.0433814 0.04271 0.0730755
0.101839 0.0412146 0.0730907
0.297978 0.0328222 0.0685283
0.486763 0.0300145 0.0826276
0.556893 0.0402686 0.100893
0.554162 0.0409094 0.0855879
0.555703 0.0410163 0.0906539
0.533379 0.0437781 0.109133
0.051606 0.105486 0.0770275
0.0474098 0.107103 0.0847486
0.100618 0.117784 0.100572
0.342611 0.0721447 0.0731518
0.500877 0.0311742 0.0607767
0.555581 0.0376898 0.0660258
0.564965 0.0391546 0.0720836
0.567071 0.0393683 0.0763256
0.545037 0.0421302 0.0936141
0.0643931 0.293736 0.145602
0.0549172 0.298589 0.146288
0.0525978 0.302556 0.11136
0.295842 0.387167 0.0886702
0.676539 0.298833 0.103426
0.754482 0.255009 0.126955
0.597848 0.0826123 0.0728923
0.56968 0.0525216 0.066041
0.544289 0.0421454 0.0661784
0.0638437 0.568093 0.303532
0.0570687 0.576776 0.315847
0.0562295 0.570169 0.243061
0.0761883 0.562341 0.113924
0.578622 0.692622 0.151781
0.839841 0.659846 0.269581
0.852171 0.632212 0.261677
0.847288 0.605997 0.240497
0.844358 0.6038 0.243809
0.215961 0.729564 0.490257
0.204303 0.733761 0.493721
0.20119 0.727642 0.451865
0.204288 0.713924 0.383459
0.430747 0.734234 0.250767
0.777508 0.870161 0.3935
0.907683 0.862791 0.46273
0.909224 0.852979 0.451942
0.909239 0.852171 0.451377
0.269932 0.76939 0.559823
0.260197 0.764523 0.540932
0.242741 0.748318 0.485374
0.2206 0.721798 0.395666
0.339666 0.707317 0.242115
0.688746 0.848447 0.364187
0.873625 0.871107 0.448478
0.906493 0.869413 0.485512
0.90483 0.870008 0.49189
0.28333 0.775937 0.571908
0.273289 0.770214 0.551141
0.261723 0.747707 0.472358
0.239078 0.709529 0.341772
0.33431 0.7037 0.224521
0.652445 0.834791 0.337118
0.854612 0.879438 0.42591
0.909911 0.86746 0.469062
0.903731 0.869764 0.492943
0.284413 0.780926 0.591882
0.274861 0.774563 0.56788
0.263996 0.75227 0.489128
0.239078 0.709529 0.341772
0.31957 0.701747 0.2336
0.648295 0.833341 0.335668
0.846799 0.881376 0.422858
0.908385 0.867536 0.47042
0.90222 0.870253 0.497459
0.0419013 0.0610819 0.15523
0.0526284 0.0581979 0.169345
0.120455 0.0518044 0.188495
0.323247 0.0465705 0.176135
0.51368 0.0444648 0.202579
0.587808 0.0553292 0.203128
0.592203 0.0562448 0.199817
0.58761 0.0538338 0.186633
0.562509 0.0582284 0.212604
0.0407416 0.061677 0.157504
0.0432288 0.0631876 0.172229
0.0984665 0.0525216 0.204181
0.318379 0.0486915 0.193927
0.518791 0.0439155 0.200122
0.585763 0.055024 0.197375
0.584634 0.0536507 0.185946
0.582116 0.0521096 0.177813
0.560494 0.0560769 0.2038
0.0420081 0.0912337 0.13991
0.0409094 0.0846265 0.16173
0.0587625 0.0740826 0.208774
0.307805 0.0580301 0.219669
0.529534 0.0406806 0.173388
0.594995 0.0505074 0.170336
0.593683 0.0483864 0.155917
0.593256 0.0479286 0.151965
0.573587 0.0529793 0.183307
0.0620127 0.284855 0.216114
0.0532845 0.290196 0.233326
0.052903 0.290211 0.235676
0.371908 0.378607 0.354788
0.711055 0.298558 0.305379
0.822919 0.233143 0.273548
0.596948 0.0716259 0.0839399
0.565393 0.0480201 0.0695659
0.543572 0.0412909 0.0670787
0.0671702 0.570016 0.389487
0.0584421 0.577569 0.416388
0.0579995 0.578134 0.396429
0.0794995 0.587137 0.339422
0.606638 0.683375 0.289601
0.856474 0.601038 0.323415
0.854429 0.61648 0.248905
0.847593 0.605386 0.24033
0.84387 0.602365 0.242725
0.221286 0.733471 0.552651
0.209506 0.738231 0.563867
0.206317 0.738079 0.546075
0.202686 0.733059 0.496834
0.345357 0.716136 0.295201
0.803113 0.869673 0.408621
0.909957 0.851713 0.457618
0.909026 0.849378 0.448692
0.909056 0.849088 0.448447
0.296635 0.785885 0.629053
0.288762 0.784085 0.622187
0.278187 0.778027 0.594476
0.252552 0.757168 0.517128
0.291203 0.725109 0.35021
0.70045 0.855131 0.396033
0.879545 0.870207 0.454215
0.906538 0.86949 0.485756
0.904875 0.870115 0.492363
0.339437 0.802304 0.650645
0.319615 0.796979 0.639368
0.295995 0.785046 0.604959
0.27158 0.755306 0.497658
0.282383 0.717433 0.332113
0.6878 0.850187 0.373327
0.853468 0.878538 0.413367
0.910338 0.867201 0.465705
0.903731 0.869749 0.492775
0.355459 0.808011 0.669734
0.333318 0.80238 0.654139
0.302068 0.788998 0.618173
0.275334 0.759136 0.510033
0.279545 0.719219 0.341222
0.673793 0.844831 0.368109
0.844343 0.882109 0.421744
0.907027 0.867369 0.468635
0.902724 0.8701 0.495842
0.0453651 0.0838178 0.320104
0.0663005 0.0831922 0.339834
0.148501 0.0603189 0.377371
0.336294 0.0591592 0.392523
0.52311 0.0687572 0.370474
0.635493 0.117311 0.386297
0.644282 0.125032 0.424079
0.64184 0.126452 0.429557
0.616053 0.133333 0.460456
0.0426032 0.0863355 0.322225
0.0481422 0.0867475 0.342397
0.118914 0.0599374 0.390463
0.333654 0.0611124 0.411475
0.530571 0.0736706 0.383337
0.639735 0.120043 0.393622
0.644495 0.125292 0.425269
0.641733 0.126314 0.428687
0.615839 0.133211 0.458869
0.0416114 0.084535 0.286137
0.0418708 0.0873426 0.323659
0.0746014 0.0881514 0.375067
0.312413 0.0609598 0.42182
0.525551 0.0762036 0.395758
0.647364 0.117983 0.385473
0.652018 0.122469 0.413458
0.652247 0.122774 0.414878
0.630365 0.129686 0.443214
0.0429084 0.22501 0.339071
0.0429084 0.218128 0.360678
0.0426947 0.203525 0.369009
0.272419 0.191608 0.527489
0.679973 0.246891 0.592477
0.767742 0.192767 0.478431
0.680308 0.132448 0.391791
0.671305 0.12694 0.387793
0.6486 0.132372 0.415259
0.0675364 0.559152 0.462196
0.0599222 0.566293 0.489448
0.0601968 0.568887 0.494408
0.0965133 0.583032 0.513634
0.652552 0.66569 0.634974
0.879133 0.606607 0.587243
0.900328 0.576211 0.550591
0.89546 0.555932 0.520119
0.890059 0.553323 0.53228
0.222644 0.727352 0.597238
0.2094 0.732021 0.612787
0.20885 0.733776 0.609812
0.209781 0.735531 0.599374
0.497124 0.783169 0.615335
0.800732 0.862547 0.643229
0.903243 0.848722 0.688945
0.905562 0.844266 0.650492
0.90544 0.844175 0.654841
0.346578 0.799573 0.674159
0.328801 0.799207 0.681605
0.318685 0.796384 0.674647
0.300832 0.788769 0.650309
0.469322 0.816037 0.6383
0.724865 0.859998 0.668879
0.88658 0.90457 0.672755
0.910628 0.893309 0.630076
0.910079 0.889387 0.602167
0.493782 0.835843 0.740017
0.47921 0.832883 0.7355
0.446784 0.826459 0.720043
0.371649 0.810849 0.674968
0.494133 0.822339 0.650614
0.721019 0.859236 0.675914
0.864729 0.908309 0.679164
0.911635 0.888106 0.595712
0.906645 0.876509 0.525963
0.511788 0.839979 0.752544
0.498939 0.837217 0.74641
0.466361 0.830182 0.730022
0.387884 0.814252 0.684855
0.484245 0.822828 0.656245
0.715587 0.859678 0.68368
0.854444 0.90837 0.69778
0.90457 0.895094 0.639612
0.904372 0.882567 0.563287
0.0766155 0.103105 0.44509
0.113466 0.0903487 0.470817
0.213169 0.0745708 0.49958
0.370321 0.0829938 0.514397
0.505653 0.10605 0.518685
0.637095 0.15436 0.549187
0.631128 0.154314 0.560037
0.625483 0.154177 0.56614
0.618006 0.15671 0.574594
0.0570535 0.104463 0.436957
0.0916915 0.105409 0.460365
0.184482 0.075288 0.502739
0.362936 0.0861372 0.520989
0.511421 0.1122 0.529686
0.642344 0.158694 0.560143
0.631434 0.154726 0.563531
0.626886 0.154665 0.568246
0.617807 0.157183 0.576989
0.0569772 0.104997 0.434867
0.059266 0.106249 0.445014
0.125032 0.0884413 0.489998
0.331167 0.0872969 0.523751
0.505852 0.113787 0.537026
0.646769 0.159442 0.562173
0.637675 0.152712 0.55787
0.632227 0.152743 0.561761
0.622248 0.155688 0.571527
0.0425574 0.158999 0.414572
0.0426032 0.148379 0.414572
0.0424201 0.132464 0.406607
0.227344 0.0893263 0.525734
0.527977 0.143038 0.583215
0.677729 0.180621 0.589364
0.66389 0.164828 0.568292
0.651423 0.159792 0.566308
0.637156 0.162707 0.576669
0.0509194 0.514672 0.558556
0.0501106 0.516487 0.568444
0.0495918 0.511788 0.573678
0.0571298 0.52256 0.604395
0.598535 0.565362 0.784344
0.893248 0.616861 0.827314
0.922301 0.583337 0.827558
0.921111 0.555367 0.83122
0.914229 0.553994 0.836088
0.216251 0.717922 0.640253
0.207553 0.721706 0.652537
0.209384 0.723323 0.654414
0.210498 0.723445 0.654963
0.548898 0.796475 0.743343
0.822126 0.852262 0.820722
0.901167 0.839246 0.800549
0.900511 0.834012 0.793652
0.895872 0.835645 0.801236
0.38909 0.807706 0.715908
0.380026 0.808103 0.721843
0.377646 0.808011 0.720424
0.364065 0.805127 0.712718
0.603204 0.856016 0.775341
0.804242 0.90193 0.836179
0.8804 0.921736 0.838041
0.897612 0.923598 0.85037
0.896986 0.923369 0.85156
0.611658 0.862394 0.795087
0.601328 0.860609 0.795087
0.5906 0.858076 0.790845
0.564355 0.851942 0.778424
0.65449 0.873182 0.802243
0.808728 0.909438 0.846723
0.868544 0.923049 0.85391
0.891569 0.928725 0.847715
0.893446 0.929885 0.852659
0.623972 0.865705 0.802487
0.616403 0.864118 0.801663
0.602838 0.86099 0.796338
0.574105 0.854154 0.783276
0.649348 0.871992 0.801556
0.805631 0.908782 0.847349
0.865705 0.923445 0.858274
0.888411 0.92874 0.851438
0.893935 0.930129 0.854017
0.187579 0.0835126 0.519951
0.230045 0.0864118 0.527413
0.311116 0.0951858 0.539849
0.419348 0.106859 0.556176
0.541894 0.138659 0.581521
0.647013 0.182559 0.625696
0.6477 0.181842 0.624063
0.648005 0.179934 0.620935
0.646403 0.182284 0.625162
0.175418 0.0831159 0.51902
0.218112 0.0856489 0.526192
0.303746 0.0943465 0.538857
0.420066 0.107195 0.556634
0.550744 0.143374 0.587182
0.651011 0.185046 0.628748
0.648234 0.182666 0.625483
0.646967 0.182071 0.624643
0.645289 0.183825 0.628046
0.177447 0.0831617 0.518822
0.185733 0.0838178 0.521645
0.266423 0.0900435 0.533364
0.399954 0.105028 0.553109
0.546548 0.142412 0.586847
0.652857 0.186023 0.630289
0.651026 0.182895 0.625345
0.648875 0.181552 0.623499
0.646479 0.182818 0.626322
0.0893416 0.128481 0.489433
0.117617 0.119448 0.495415
0.138247 0.0962234 0.510567
0.362905 0.11545 0.566583
0.561303 0.16495 0.620661
0.666865 0.196521 0.644251
0.65687 0.184939 0.62739
0.651209 0.180713 0.621653
0.645991 0.181338 0.623804
0.0502632 0.500725 0.599023
0.0508278 0.505028 0.606134
0.0517586 0.505867 0.611841
0.140063 0.535744 0.696666
0.672282 0.556313 0.847547
0.896803 0.612589 0.902113
0.919478 0.588846 0.902724
0.918791 0.56083 0.901137
0.908003 0.560876 0.899748
0.195163 0.69778 0.674266
0.193759 0.701411 0.683314
0.200137 0.703182 0.687526
0.217899 0.707301 0.698283
0.539315 0.7738 0.78706
0.822553 0.829007 0.876967
0.902983 0.834852 0.869902
0.904921 0.82768 0.869078
0.900496 0.829313 0.873304
0.409186 0.809659 0.743297
0.413458 0.811292 0.747051
0.416068 0.812177 0.748089
0.41355 0.811353 0.747219
0.614435 0.855833 0.803052
0.817288 0.903197 0.866392
0.883635 0.919142 0.885557
0.894896 0.92195 0.886229
0.894469 0.921736 0.886397
0.670954 0.876265 0.818814
0.655741 0.873655 0.821057
0.651438 0.872786 0.819532
0.641306 0.870222 0.815106
0.709728 0.887053 0.835538
0.839582 0.919188 0.877424
0.883879 0.932235 0.89134
0.900053 0.935164 0.887633
0.90193 0.935637 0.89012
0.687968 0.881453 0.830594
0.683757 0.880583 0.830411
0.677928 0.878996 0.828626
0.666545 0.876402 0.824125
0.721187 0.889952 0.839902
0.841001 0.919799 0.878386
0.883986 0.933165 0.893019
0.895354 0.936034 0.892744
0.898283 0.937469 0.893736
0.474327 0.164736 0.63328
0.487434 0.166537 0.636591
0.544854 0.188891 0.666911
0.635447 0.230121 0.712566
0.739178 0.281209 0.751369
0.790814 0.315892 0.773785
0.756893 0.277516 0.73785
0.743114 0.259876 0.719661
0.74876 0.269886 0.730388
0.506264 0.190723 0.669398
0.531258 0.20032 0.683268
0.588922 0.224598 0.714549
0.680446 0.270329 0.75816
0.778363 0.322591 0.789151
0.816907 0.347112 0.801328
0.764508 0.285237 0.745403
0.749416 0.269703 0.730175
0.745907 0.270726 0.731151
0.533196 0.212665 0.698878
0.555047 0.227558 0.717998
0.603067 0.247135 0.742092
0.68162 0.280079 0.770169
0.772946 0.320943 0.789425
0.8159 0.341787 0.797009
0.762997 0.280842 0.741238
0.744045 0.261372 0.721492
0.744991 0.267659 0.727565
0.514412 0.224063 0.710857
0.528771 0.223148 0.711116
0.541207 0.224918 0.713924
0.643809 0.267643 0.762081
0.765896 0.326329 0.798993
0.824475 0.353521 0.806775
0.787243 0.305653 0.764874
0.750439 0.265782 0.726131
0.74197 0.262989 0.723278
0.281666 0.54612 0.724712
0.335027 0.553719 0.737011
0.431937 0.560922 0.760845
0.526864 0.563684 0.789197
0.798428 0.616785 0.889632
0.90631 0.634363 0.900771
0.9187 0.624475 0.901579
0.919509 0.606027 0.902541
0.909651 0.60708 0.901808
0.320211 0.73019 0.735576
0.335073 0.734783 0.741985
0.36495 0.739864 0.748882
0.405661 0.745464 0.7579
0.620905 0.792813 0.815854
0.846555 0.82948 0.88751
0.900893 0.835645 0.884413
0.90248 0.831174 0.883421
0.898695 0.832395 0.885954
0.535134 0.83389 0.788602
0.542809 0.836408 0.792721
0.553735 0.838392 0.796292
0.568582 0.841123 0.800931
0.680949 0.867689 0.833997
0.821439 0.901503 0.876661
0.886824 0.917418 0.895644
0.895979 0.920607 0.897307
0.89572 0.920455 0.897353
0.701595 0.883833 0.832868
0.69099 0.882353 0.835889
0.689784 0.882139 0.835706
0.685054 0.880888 0.833936
0.732952 0.892775 0.847684
0.84184 0.919783 0.882277
0.88716 0.931731 0.894255
0.901732 0.934447 0.894835
0.9028 0.935103 0.89659
0.734066 0.892866 0.848844
0.731853 0.892485 0.848966
0.728542 0.891814 0.848219
0.72195 0.890288 0.846021
0.758907 0.89955 0.856245
0.849454 0.922225 0.884825
0.888334 0.935225 0.898604
0.898619 0.938018 0.900862
0.900191 0.939147 0.9019
0.600458 0.244587 0.739193
0.617395 0.25272 0.748135
0.654063 0.269596 0.76321
0.716594 0.298192 0.782788
0.791119 0.333928 0.798245
0.823102 0.355276 0.807889
0.777096 0.299855 0.759396
0.752331 0.268864 0.729061
0.748684 0.269917 0.730404
0.580133 0.237964 0.73109
0.600381 0.246067 0.740932
0.640345 0.263294 0.757671
0.71104 0.295964 0.781491
0.791287 0.334249 0.79826
0.823026 0.354589 0.807446
0.769512 0.291432 0.7514
0.749386 0.269703 0.73019
0.745907 0.270726 0.731151
0.553292 0.226749 0.716594
0.565301 0.232654 0.724498
0.609049 0.249607 0.744411
0.690333 0.286091 0.775189
0.783749 0.331304 0.797498
0.826001 0.354177 0.807645
0.775372 0.293828 0.753689
0.751812 0.269017 0.729274
0.747768 0.270176 0.730648
0.566415 0.245121 0.737301
0.551354 0.228229 0.718669
0.561166 0.235355 0.726772
0.648692 0.267628 0.76141
0.763256 0.321248 0.793515
0.824659 0.353536 0.806836
0.786969 0.305623 0.764813
0.753033 0.268666 0.728756
0.74902 0.26981 0.730312
0.462715 0.550652 0.7682
0.461204 0.548837 0.768414
0.469139 0.537011 0.771511
0.547356 0.535424 0.797711
0.808164 0.597086 0.893172
0.908522 0.614801 0.901411
0.91899 0.60647 0.902327
0.919051 0.586572 0.902098
0.909133 0.58909 0.901228
0.456855 0.755367 0.767361
0.450355 0.754879 0.768292
0.44593 0.751583 0.766964
0.446204 0.747463 0.767056
0.640436 0.790494 0.821622
0.854429 0.82359 0.889326
0.900481 0.829236 0.884474
0.902083 0.826444 0.883726
0.898344 0.82797 0.886183
0.636988 0.856825 0.819532
0.634607 0.856825 0.820554
0.632944 0.856123 0.820188
0.627054 0.853498 0.818463
0.706401 0.872374 0.842313
0.823285 0.901305 0.87805
0.8878 0.916625 0.896819
0.895262 0.919188 0.897642
0.895293 0.919203 0.897749
0.73344 0.891615 0.844068
0.722606 0.890333 0.84712
0.72137 0.890028 0.84683
0.717937 0.888991 0.845823
0.75555 0.898528 0.85774
0.843976 0.919936 0.885618
0.886076 0.931243 0.896406
0.903075 0.933852 0.895598
0.904677 0.934417 0.896056
0.752255 0.89749 0.855406
0.75111 0.897307 0.855924
0.750652 0.8972 0.856062
0.750652 0.8972 0.856062
0.780972 0.905013 0.865675
0.853071 0.923842 0.888365
0.887419 0.935393 0.900664
0.8981 0.938476 0.902663
0.900236 0.939788 0.903365
