bundles/resolve-cinematic-luts/Phantom Luts/Ursa G2 Phntm Film LUTs - V1/Gen5/Standard (No WB Offset)/Ursa G2 VisionTeal Legacy Gen5.cube
TITLE "Generated by Resolve"
LUT_3D_SIZE 33
0.022385 0.0343328 0.0323491
0.022385 0.0343328 0.0323491
0.022385 0.0343328 0.0323491
0.022385 0.0343481 0.0325475
0.0252079 0.0344396 0.0334325
0.0317845 0.0340887 0.0335241
0.0419318 0.0342412 0.0335241
0.0598917 0.0325475 0.0321965
0.0836652 0.0293889 0.029572
0.110613 0.0277409 0.0290074
0.150378 0.0244602 0.0269322
0.199893 0.0213626 0.0269322
0.252811 0.0198367 0.0276493
0.308583 0.017731 0.0292363
0.365255 0.0152895 0.0294194
0.422217 0.012253 0.0316777
0.484291 0.0120546 0.0332799
0.558053 0.0158083 0.0397345
0.612619 0.0208591 0.0464637
0.632593 0.0231327 0.0542763
0.636011 0.0235142 0.0614939
0.637415 0.0243076 0.0731518
0.638727 0.0260319 0.0905318
0.639612 0.0271305 0.101869
0.639597 0.0271153 0.101656
0.639597 0.0271 0.101488
0.639597 0.0271153 0.101686
0.639612 0.0271305 0.101976
0.639704 0.0271 0.102205
0.639811 0.0270695 0.102785
0.640009 0.0271 0.104067
0.640238 0.0271611 0.106188
0.640375 0.0270237 0.10631
0.022385 0.0342565 0.0322881
0.022385 0.0343175 0.0323339
0.022385 0.0343175 0.0323339
0.022385 0.0343328 0.0325475
0.0248264 0.0345159 0.0335088
0.0310674 0.0343023 0.0337224
0.04094 0.0346685 0.0341039
0.0597543 0.0327916 0.0324254
0.0844587 0.0321965 0.0313726
0.114275 0.0296025 0.029984
0.151369 0.0242161 0.0267796
0.200961 0.0210727 0.0267796
0.2533 0.0197452 0.027985
0.309148 0.0176089 0.0289311
0.364691 0.0150301 0.0287175
0.419501 0.012192 0.0302281
0.485512 0.0120394 0.0327001
0.560311 0.0159152 0.0397803
0.613214 0.0212253 0.0463417
0.632975 0.0231174 0.0540475
0.636042 0.0235142 0.0615854
0.63743 0.0243381 0.0738079
0.638636 0.0258946 0.0889143
0.639597 0.0271 0.101122
0.639582 0.0270848 0.100893
0.639597 0.0270848 0.101061
0.639582 0.0271 0.101335
0.639582 0.0270695 0.100542
0.639673 0.0270237 0.100618
0.63978 0.026978 0.101534
0.639918 0.0269627 0.102754
0.640055 0.0268559 0.102815
0.640253 0.0268101 0.1037
0.022385 0.0343938 0.0323186
0.022385 0.0344701 0.0323796
0.022385 0.0344854 0.0323949
0.022385 0.0343175 0.0322118
0.02327 0.0347601 0.0332494
0.0297246 0.0356603 0.0342718
0.0400549 0.0368963 0.0349279
0.0589456 0.0368658 0.034226
0.0845655 0.0343481 0.0318761
0.112078 0.0301976 0.0293278
0.147723 0.0242161 0.0255589
0.200687 0.022797 0.0251926
0.252277 0.0176089 0.0242618
0.308949 0.0162509 0.025742
0.363043 0.0147555 0.0282139
0.417227 0.012192 0.0294347
0.485588 0.0120241 0.0311284
0.558618 0.0157931 0.0367895
0.613626 0.0219883 0.0463722
0.633219 0.0231022 0.0539254
0.636011 0.0234989 0.0612192
0.637079 0.024094 0.0707408
0.638468 0.0256657 0.0872358
0.639506 0.0269322 0.0982986
0.639567 0.0270542 0.100145
0.639551 0.027039 0.0999924
0.639521 0.0269932 0.0994888
0.639521 0.0269627 0.0989242
0.639612 0.0269322 0.0992599
0.639704 0.0268406 0.0991073
0.63975 0.0266728 0.0984665
0.639918 0.0266117 0.0991226
0.640146 0.0265965 0.100908
0.0222019 0.042298 0.0342565
0.0221866 0.0417334 0.0341497
0.0223087 0.039826 0.0327459
0.0223392 0.0400702 0.0332799
0.0250553 0.0418708 0.0347601
0.0313878 0.0421149 0.0363928
0.0398871 0.0421607 0.0365911
0.05626 0.0406653 0.0357824
0.0835889 0.037995 0.0336461
0.112428 0.0337835 0.0308843
0.152331 0.0298924 0.0275883
0.20145 0.0233616 0.0234989
0.25211 0.0168307 0.0209659
0.308614 0.0168612 0.0250401
0.361791 0.0135195 0.0253758
0.418326 0.0121157 0.0255131
0.484565 0.0120851 0.0294804
0.557519 0.0164645 0.0362554
0.613687 0.0229496 0.0462196
0.63267 0.0231022 0.053193
0.635935 0.0234684 0.0603037
0.636805 0.0239567 0.0676432
0.638285 0.025391 0.0848859
0.639094 0.0263981 0.0935073
0.639307 0.0266423 0.0951095
0.639475 0.0268559 0.0971237
0.639475 0.0268711 0.0972
0.639475 0.0268406 0.096849
0.639261 0.0264897 0.0944228
0.639155 0.0261845 0.0928359
0.639277 0.0260929 0.0932174
0.639628 0.0261692 0.0947433
0.639841 0.0260929 0.0955062
0.0217441 0.0484016 0.0379034
0.0217288 0.0480659 0.0377203
0.0217594 0.0471504 0.0350042
0.0218509 0.0462196 0.0345769
0.0264134 0.047013 0.0359197
0.0322271 0.0469368 0.0368505
0.0418555 0.0463722 0.0375677
0.0585184 0.0453651 0.0374456
0.0830854 0.0420691 0.0352026
0.114778 0.0382849 0.0320592
0.155734 0.0344854 0.0289616
0.205127 0.0287175 0.0243381
0.255467 0.0224613 0.0222629
0.309148 0.0178836 0.0221561
0.362249 0.0125277 0.0205386
0.419059 0.0120241 0.0220035
0.48246 0.0121004 0.0271458
0.554269 0.0209964 0.0351568
0.614084 0.0228885 0.0464942
0.632944 0.0231785 0.05449
0.635493 0.0235599 0.0614786
0.636484 0.0240635 0.0686503
0.637858 0.0249943 0.0797284
0.638437 0.0258793 0.0884413
0.638682 0.0262455 0.0915236
0.638987 0.026627 0.0947127
0.638849 0.0264439 0.0936141
0.63859 0.0260166 0.0898299
0.638392 0.0256046 0.0869306
0.638407 0.0254215 0.0863203
0.638743 0.0254673 0.0877089
0.639124 0.0254826 0.0891737
0.639368 0.02533 0.0893721
0.021561 0.0567483 0.0404974
0.0215457 0.0565347 0.0404822
0.0213931 0.055787 0.0397345
0.0213779 0.0542153 0.036759
0.0263676 0.0539712 0.0377661
0.0324559 0.0546731 0.0385443
0.0419623 0.0535744 0.0391699
0.0618601 0.0520333 0.0387427
0.0850385 0.0489204 0.0384222
0.115068 0.0452583 0.0348974
0.155291 0.0408942 0.0308385
0.208026 0.0349432 0.0261692
0.259815 0.0293584 0.0243534
0.31136 0.0232242 0.0227512
0.363348 0.0160983 0.0211948
0.417975 0.013901 0.0225223
0.483116 0.0189212 0.0261997
0.556649 0.0272068 0.0348211
0.614527 0.0266423 0.0464485
0.6336 0.0230259 0.0529793
0.635859 0.0233768 0.0601511
0.636652 0.0238499 0.0672313
0.637522 0.0243534 0.0747234
0.638224 0.0251774 0.0827955
0.638422 0.0255283 0.0865034
0.638422 0.0255436 0.0866102
0.6383 0.02533 0.0839551
0.638209 0.0250706 0.0809491
0.638132 0.024918 0.0796521
0.63827 0.024979 0.0808118
0.638468 0.024979 0.0822919
0.638697 0.0249027 0.0831006
0.638819 0.0247349 0.0827955
0.0208286 0.0704662 0.043183
0.0208286 0.0700389 0.042771
0.020798 0.0693828 0.0425116
0.0211032 0.0680858 0.0413977
0.0218204 0.0663462 0.0393378
0.0320745 0.0666056 0.0402991
0.0418402 0.0677806 0.041825
0.0578927 0.0662089 0.0408331
0.0863203 0.0624399 0.0396887
0.118715 0.0565652 0.0386816
0.164202 0.0507973 0.0335393
0.21709 0.0446937 0.028809
0.26775 0.0389258 0.026627
0.318822 0.0310063 0.024445
0.369985 0.0227512 0.0222477
0.423514 0.0183871 0.021973
0.487236 0.0221714 0.0259709
0.554711 0.0290379 0.0338903
0.616983 0.0340581 0.0455634
0.634501 0.0241703 0.0511482
0.635767 0.0232395 0.0561074
0.636316 0.0235599 0.0633555
0.637232 0.024033 0.0703593
0.637751 0.0244602 0.0748913
0.63801 0.0246891 0.0766918
0.637858 0.0245365 0.0754406
0.637812 0.0244755 0.0748913
0.637705 0.0243992 0.0741894
0.637751 0.0244144 0.0745861
0.637797 0.0244297 0.074876
0.637797 0.0243381 0.0746319
0.637766 0.0242161 0.0741131
0.637797 0.0241093 0.0742199
0.0206455 0.0880903 0.047303
0.0204318 0.088014 0.0469825
0.0204929 0.087541 0.0469368
0.0205234 0.0865949 0.0461738
0.0205386 0.0847028 0.0441749
0.0273747 0.0826276 0.0403296
0.0412757 0.0837262 0.0434424
0.05626 0.0852369 0.0442054
0.0776989 0.0837873 0.0401007
0.111666 0.0804456 0.0396277
0.169406 0.0665599 0.0386358
0.223346 0.0597086 0.0330358
0.279835 0.0522621 0.0311894
0.334279 0.0447089 0.0281529
0.386481 0.0351873 0.0251926
0.436439 0.0242313 0.0227207
0.497505 0.0254368 0.0266575
0.565866 0.0314031 0.0354314
0.621241 0.038407 0.04654
0.639551 0.0355077 0.0511025
0.63563 0.0230869 0.0526741
0.636088 0.0233616 0.0587625
0.636881 0.0238499 0.0656138
0.637354 0.024033 0.0695506
0.637415 0.024094 0.0707256
0.637385 0.0240635 0.0702373
0.637385 0.0240482 0.069688
0.637354 0.0240177 0.0688487
0.637247 0.0239719 0.0681468
0.637263 0.0239261 0.0679942
0.637201 0.0238499 0.0674754
0.637247 0.0237736 0.0674601
0.637369 0.023682 0.0677501
0.0235904 0.108965 0.0526131
0.0230716 0.108965 0.0522621
0.0224918 0.108843 0.0525673
0.0221866 0.108141 0.0522469
0.0226596 0.106081 0.0499733
0.0254063 0.10396 0.0474403
0.0372168 0.102266 0.0457008
0.0535592 0.104128 0.0484474
0.0775311 0.105852 0.0478676
0.102251 0.101579 0.0409094
0.149554 0.10135 0.0404212
0.230472 0.0804303 0.0400397
0.292683 0.0735943 0.0370489
0.34995 0.06804 0.0344091
0.409033 0.0600748 0.032105
0.464958 0.0481727 0.029572
0.523964 0.0364538 0.0283513
0.592309 0.0409857 0.0391852
0.631434 0.0444038 0.0484169
0.645533 0.0448005 0.0522774
0.640269 0.0343938 0.0519417
0.635782 0.0231022 0.0525978
0.636225 0.0233921 0.0591287
0.636667 0.023621 0.0632334
0.63679 0.0236973 0.063859
0.636683 0.023621 0.0634012
0.636622 0.0235904 0.062623
0.636561 0.0235294 0.061677
0.636484 0.0234836 0.0610056
0.636484 0.0234073 0.0597543
0.636454 0.0233463 0.0594186
0.636515 0.0232548 0.0585794
0.636561 0.0231632 0.0579995
0.0267185 0.137682 0.0576486
0.0270695 0.137407 0.0568551
0.026215 0.136645 0.0570535
0.0257725 0.136263 0.0573434
0.0266423 0.13489 0.056672
0.0288243 0.131228 0.0541695
0.035523 0.129625 0.0521248
0.0493629 0.128771 0.051606
0.0707408 0.132937 0.0538186
0.099794 0.137407 0.0519875
0.138323 0.130556 0.0429389
0.210239 0.132647 0.0414588
0.29807 0.113588 0.0491188
0.377447 0.10602 0.0469368
0.44416 0.105653 0.0482795
0.507515 0.101106 0.0485542
0.57023 0.0862287 0.0458686
0.625742 0.0695201 0.0460059
0.658366 0.0657969 0.0526741
0.656031 0.0547951 0.0535744
0.649119 0.0484016 0.0523842
0.641138 0.034287 0.0522164
0.636347 0.0245365 0.051606
0.636027 0.023209 0.0542
0.636103 0.0232242 0.0547341
0.636057 0.0231479 0.0527504
0.636118 0.0231327 0.0518502
0.636194 0.0233158 0.0517586
0.636515 0.0241093 0.0516365
0.637079 0.0250248 0.0517128
0.637263 0.0258335 0.0514382
0.637201 0.0251926 0.0514992
0.638529 0.0271763 0.0516365
0.0286259 0.180194 0.0617685
0.0309758 0.180072 0.0613718
0.0294041 0.179553 0.0608835
0.0287327 0.179034 0.0609903
0.0284428 0.177554 0.0608225
0.0323949 0.174182 0.060502
0.037705 0.169604 0.0590982
0.0497444 0.168215 0.053727
0.0654459 0.169024 0.0550698
0.0936446 0.180972 0.0587625
0.13344 0.193454 0.0576944
0.200488 0.182559 0.0474708
0.289036 0.19559 0.0471656
0.371176 0.189944 0.0638285
0.470588 0.170413 0.0679026
0.54519 0.166873 0.0684825
0.61976 0.160449 0.0716564
0.68127 0.145006 0.0737926
0.704143 0.125368 0.0713207
0.691402 0.0992905 0.0630961
0.68014 0.0869154 0.0631266
0.659266 0.0584268 0.0553597
0.648386 0.041413 0.053727
0.639582 0.0326085 0.0520943
0.639704 0.0335241 0.0521401
0.639811 0.0335851 0.0521859
0.639857 0.0335088 0.0522164
0.641474 0.0348058 0.052018
0.644831 0.037232 0.0525521
0.648829 0.0417639 0.0536965
0.650416 0.0439918 0.0535439
0.648341 0.0416571 0.053315
0.648386 0.0416571 0.0531319
0.0506142 0.244373 0.0872969
0.0529183 0.245472 0.0868544
0.0538033 0.245823 0.0866865
0.0520027 0.244221 0.0859846
0.0506142 0.242481 0.0852064
0.0510109 0.240208 0.0843671
0.0547341 0.234699 0.0803998
0.0606546 0.231662 0.0759136
0.0772106 0.229969 0.0668803
0.0970474 0.235325 0.0713054
0.135317 0.25098 0.0775006
0.195804 0.263661 0.0699016
0.275669 0.25243 0.0610208
0.371298 0.269368 0.0538643
0.44741 0.275242 0.0706188
0.542107 0.259968 0.0941787
0.639704 0.249622 0.0949722
0.712276 0.243534 0.0972305
0.739391 0.230198 0.0965896
0.735668 0.21181 0.0931411
0.731319 0.184634 0.0884565
0.714549 0.137911 0.0770428
0.698207 0.114183 0.074464
0.662715 0.0614176 0.0558785
0.656687 0.0548714 0.0534218
0.658381 0.0560922 0.0534218
0.659556 0.0564584 0.0535592
0.660487 0.057145 0.0535744
0.661006 0.0581064 0.0536355
0.674556 0.0809339 0.0654002
0.686763 0.101366 0.0729381
0.69897 0.119188 0.0806134
0.700023 0.118959 0.0801404
0.0767529 0.320272 0.116396
0.0795148 0.321462 0.115541
0.082002 0.321584 0.114214
0.0812085 0.321096 0.114275
0.0803082 0.319875 0.114168
0.0792096 0.318303 0.112886
0.0809339 0.314153 0.110658
0.0850996 0.308614 0.105608
0.0938888 0.308019 0.0998856
0.109957 0.305287 0.0865797
0.143221 0.313024 0.0936751
0.196979 0.326604 0.0969558
0.265003 0.338262 0.0843214
0.35172 0.327184 0.0799115
0.448127 0.347158 0.0671702
0.524956 0.362753 0.0790875
0.612772 0.364599 0.110246
0.710201 0.351553 0.135744
0.755856 0.344182 0.137224
0.756634 0.326375 0.130205
0.753811 0.306477 0.122805
0.75021 0.283955 0.113848
0.743023 0.247486 0.102449
0.730495 0.181445 0.0890059
0.721965 0.155444 0.0827192
0.719799 0.151415 0.0819104
0.71783 0.149447 0.0816358
0.720836 0.157565 0.085359
0.726345 0.171466 0.0884565
0.729839 0.184298 0.0901656
0.733501 0.195468 0.090486
0.734279 0.203357 0.0916457
0.73756 0.216663 0.0957656
0.103975 0.400488 0.155032
0.107744 0.400992 0.153719
0.110979 0.40209 0.152346
0.110979 0.401907 0.152102
0.109529 0.400839 0.151766
0.109071 0.399634 0.151232
0.109026 0.398001 0.150362
0.112139 0.392386 0.144549
0.118334 0.386557 0.137697
0.133135 0.38909 0.129183
0.158755 0.383688 0.11017
0.211612 0.390524 0.117082
0.269947 0.402594 0.120348
0.342321 0.415259 0.102785
0.428077 0.405921 0.100832
0.52253 0.426398 0.0900435
0.605585 0.446906 0.0935836
0.68574 0.460166 0.12694
0.749249 0.460792 0.159182
0.767407 0.450523 0.172091
0.76466 0.423941 0.172641
0.761608 0.404456 0.165774
0.76083 0.383459 0.155276
0.758495 0.355398 0.142412
0.757321 0.330816 0.133059
0.755581 0.320974 0.12845
0.75494 0.315068 0.126253
0.753506 0.309758 0.124041
0.75314 0.305486 0.122805
0.753582 0.309117 0.124239
0.755688 0.319875 0.128283
0.757565 0.330755 0.133364
0.758862 0.34548 0.140612
0.13312 0.48246 0.208743
0.137697 0.483833 0.208042
0.141787 0.484047 0.206195
0.145129 0.483986 0.204364
0.143816 0.483497 0.204364
0.143038 0.482139 0.203769
0.142275 0.480171 0.202594
0.143023 0.476982 0.19913
0.150347 0.471138 0.190433
0.162875 0.466346 0.179049
0.187457 0.466361 0.162005
0.235508 0.459419 0.1402
0.284077 0.468605 0.148196
0.348318 0.4804 0.151553
0.421241 0.493721 0.129931
0.499321 0.487968 0.12398
0.594507 0.506065 0.117296
0.685832 0.529976 0.115953
0.750515 0.550866 0.140993
0.781582 0.556039 0.163149
0.786786 0.548547 0.170016
0.782559 0.527626 0.171328
0.778515 0.504921 0.171771
0.773556 0.481178 0.172137
0.770184 0.460655 0.172457
0.769223 0.454673 0.172045
0.768444 0.452506 0.17113
0.767636 0.449317 0.170413
0.767224 0.446143 0.170565
0.766064 0.440513 0.169802
0.765255 0.433555 0.169604
0.765286 0.438087 0.168124
0.767193 0.446784 0.168597
0.168734 0.565103 0.264271
0.175921 0.565316 0.262745
0.183276 0.565423 0.259861
0.190417 0.56553 0.256703
0.190417 0.565103 0.256199
0.189151 0.563546 0.255573
0.187854 0.561975 0.255222
0.185885 0.559442 0.253635
0.191943 0.554299 0.246586
0.202319 0.546105 0.234745
0.221195 0.543191 0.221256
0.252186 0.541054 0.199252
0.310964 0.536614 0.181827
0.359945 0.54757 0.19147
0.425025 0.559731 0.187411
0.495613 0.572686 0.156481
0.568261 0.574044 0.148608
0.663233 0.584512 0.152804
0.748714 0.612467 0.149126
0.790143 0.631281 0.158373
0.805081 0.63769 0.163409
0.805035 0.632044 0.164553
0.801968 0.619257 0.166186
0.79765 0.601251 0.169039
0.793652 0.580911 0.167391
0.791791 0.573022 0.165866
0.791669 0.570733 0.16524
0.791363 0.568154 0.16582
0.789761 0.563943 0.165393
0.789822 0.559319 0.167468
0.788128 0.551598 0.167742
0.785885 0.542855 0.16849
0.785565 0.538186 0.169879
0.216129 0.653086 0.321935
0.223957 0.653361 0.319646
0.231434 0.653574 0.31667
0.239719 0.653162 0.312932
0.244221 0.652873 0.310842
0.242985 0.651576 0.310475
0.24094 0.64947 0.309071
0.239963 0.647578 0.307378
0.239322 0.644831 0.305348
0.2477 0.636164 0.292988
0.26038 0.627497 0.278645
0.28574 0.625711 0.259739
0.327581 0.619486 0.229908
0.385534 0.620172 0.227527
0.44033 0.631632 0.233249
0.499687 0.642695 0.224628
0.5682 0.655482 0.19884
0.637354 0.66601 0.188098
0.721233 0.662318 0.204181
0.779629 0.689708 0.207218
0.807858 0.702251 0.209705
0.814023 0.703792 0.209934
0.81323 0.701045 0.207492
0.813214 0.695674 0.205127
0.811551 0.685359 0.197559
0.81088 0.675486 0.190478
0.810498 0.671077 0.188525
0.809079 0.669139 0.185855
0.809476 0.666636 0.184863
0.809491 0.663432 0.183642
0.808576 0.656703 0.181125
0.807141 0.64741 0.17673
0.805371 0.634592 0.171252
0.26009 0.740856 0.38436
0.269688 0.738857 0.379385
0.278584 0.737224 0.37496
0.287312 0.736004 0.370733
0.295476 0.734798 0.365682
0.295918 0.734112 0.364263
0.295109 0.733318 0.363699
0.294423 0.731823 0.362615
0.292836 0.729732 0.360754
0.295186 0.725048 0.355001
0.306752 0.715373 0.339055
0.324773 0.707118 0.32047
0.356374 0.702541 0.296559
0.411337 0.694667 0.268437
0.462455 0.696818 0.271427
0.51809 0.705089 0.275761
0.570047 0.713314 0.262806
0.6374 0.727001 0.240635
0.705715 0.744335 0.231403
0.76199 0.728405 0.254566
0.796521 0.744442 0.261707
0.813245 0.753414 0.26453
0.814298 0.75288 0.26305
0.813825 0.751675 0.261387
0.813581 0.748882 0.257664
0.814511 0.745159 0.252308
0.814801 0.74136 0.247898
0.814527 0.739681 0.246387
0.814878 0.737728 0.244907
0.815473 0.735317 0.241657
0.814466 0.73109 0.237232
0.81474 0.725292 0.230259
0.814603 0.716655 0.220905
0.283696 0.801312 0.439185
0.294713 0.797208 0.432227
0.304326 0.79411 0.425635
0.313191 0.791363 0.420233
0.322255 0.788861 0.414328
0.328542 0.786801 0.409888
0.328237 0.786465 0.409522
0.328161 0.785885 0.409018
0.327916 0.78529 0.40856
0.327779 0.783764 0.406897
0.337789 0.776028 0.393851
0.352392 0.764904 0.372839
0.37586 0.755001 0.346441
0.414954 0.744121 0.313451
0.478279 0.735241 0.298131
0.526543 0.738628 0.299687
0.574792 0.743923 0.295705
0.628717 0.753445 0.284321
0.693233 0.768475 0.265766
0.750271 0.777676 0.272297
0.784161 0.759747 0.284306
0.808621 0.768994 0.290196
0.818372 0.773098 0.291661
0.818357 0.772534 0.290379
0.818097 0.771923 0.289174
0.817777 0.771267 0.287861
0.817594 0.770397 0.287053
0.817456 0.76994 0.28658
0.817273 0.769085 0.28542
0.817273 0.768246 0.284291
0.817075 0.767132 0.282597
0.816922 0.76527 0.27982
0.816114 0.762905 0.276143
0.275242 0.830777 0.472007
0.28896 0.826108 0.465583
0.300313 0.821881 0.458885
0.309316 0.817227 0.451057
0.318715 0.812009 0.442481
0.32903 0.806714 0.433555
0.330327 0.806088 0.432731
0.330556 0.805997 0.432486
0.330877 0.805844 0.432135
0.331334 0.805615 0.4318
0.336904 0.803189 0.42681
0.354498 0.791135 0.406485
0.375326 0.777905 0.378347
0.407126 0.761852 0.339773
0.461753 0.748791 0.308522
0.526146 0.747234 0.307118
0.569741 0.749294 0.304219
0.61622 0.756878 0.295811
0.676112 0.769848 0.281529
0.734539 0.783703 0.270771
0.771252 0.773281 0.286915
0.796933 0.767514 0.293843
0.816022 0.776425 0.299351
0.818586 0.777859 0.29987
0.81857 0.777905 0.300328
0.818601 0.77789 0.299886
0.818631 0.777844 0.299443
0.818616 0.777844 0.299367
0.818616 0.777829 0.299275
0.818631 0.777829 0.299168
0.818677 0.777829 0.29897
0.818723 0.777813 0.298665
0.818738 0.777752 0.298131
0.247028 0.842634 0.488304
0.255085 0.837491 0.478965
0.271962 0.831983 0.472633
0.28867 0.826642 0.465614
0.303349 0.821103 0.456611
0.315679 0.814008 0.44567
0.321843 0.81033 0.439261
0.321767 0.810391 0.439307
0.321798 0.810376 0.439277
0.32192 0.810315 0.439185
0.324575 0.808896 0.437354
0.341863 0.800336 0.422629
0.363958 0.786435 0.395987
0.394125 0.768887 0.357443
0.441611 0.752377 0.319158
0.510964 0.746471 0.306554
0.566308 0.749157 0.305364
0.607263 0.755703 0.297612
0.658701 0.765759 0.285878
0.712566 0.7785 0.27158
0.759152 0.784161 0.282734
0.782559 0.763973 0.290166
0.809216 0.773114 0.296269
0.817548 0.777371 0.299596
0.818524 0.777935 0.301015
0.818433 0.777951 0.301717
0.818448 0.777951 0.301213
0.818509 0.777905 0.300313
0.818494 0.77792 0.300282
0.818509 0.777905 0.300221
0.81854 0.777905 0.300114
0.818586 0.77789 0.299855
0.818601 0.777859 0.299626
0.237293 0.848142 0.500389
0.245716 0.843259 0.490105
0.254978 0.837385 0.479179
0.275166 0.830976 0.472221
0.295003 0.824094 0.462455
0.311666 0.815854 0.448936
0.325399 0.808209 0.437034
0.325093 0.808347 0.437293
0.324895 0.808423 0.437476
0.324681 0.808499 0.437705
0.324514 0.80856 0.437873
0.33431 0.804013 0.429862
0.358679 0.789258 0.403815
0.387747 0.772534 0.368002
0.431586 0.754574 0.326421
0.497093 0.746822 0.309148
0.563317 0.748425 0.306386
0.605325 0.754482 0.297337
0.64976 0.763546 0.28748
0.700801 0.775372 0.274723
0.746578 0.785351 0.272572
0.773098 0.772824 0.287449
0.80119 0.768872 0.294911
0.815534 0.776135 0.299168
0.818479 0.777661 0.300053
0.818631 0.777798 0.300618
0.818555 0.777829 0.301564
0.818479 0.77789 0.302388
0.818418 0.77792 0.302556
0.818357 0.777935 0.302586
0.818311 0.777951 0.302678
0.81828 0.777951 0.302693
0.818311 0.777951 0.302342
0.23357 0.850401 0.505013
0.242695 0.845899 0.495735
0.252445 0.839918 0.483909
0.266499 0.833448 0.473121
0.293278 0.824857 0.463752
0.312764 0.81529 0.448203
0.332326 0.804791 0.431144
0.335683 0.80351 0.428748
0.335134 0.803738 0.429374
0.334234 0.804074 0.429923
0.333333 0.804395 0.430472
0.337438 0.802701 0.426947
0.35697 0.790051 0.405798
0.384115 0.774289 0.373816
0.423545 0.757061 0.331716
0.485649 0.748028 0.31107
0.554299 0.74815 0.310033
0.601633 0.753902 0.298772
0.643717 0.761959 0.288899
0.689403 0.77258 0.277073
0.731701 0.782879 0.27068
0.758938 0.781872 0.285222
0.791409 0.764569 0.292744
0.811643 0.774319 0.297841
0.817334 0.777234 0.299916
0.81828 0.777752 0.300298
0.818235 0.777768 0.30045
0.818173 0.777768 0.300862
0.818082 0.777783 0.301274
0.818036 0.777798 0.301335
0.818021 0.777813 0.301457
0.81799 0.777829 0.301656
0.817975 0.777844 0.301961
0.24271 0.847822 0.502632
0.252293 0.842893 0.491585
0.261997 0.836103 0.478202
0.287388 0.82768 0.469688
0.306584 0.81976 0.45568
0.326894 0.807843 0.436606
0.348638 0.79527 0.414862
0.354589 0.791165 0.407721
0.353445 0.791928 0.409262
0.352743 0.792355 0.410254
0.351278 0.793271 0.41149
0.350286 0.793988 0.41265
0.363333 0.787152 0.399313
0.386709 0.773419 0.371603
0.421836 0.757671 0.33341
0.478691 0.74844 0.312001
0.545907 0.747738 0.310552
0.599145 0.753567 0.299413
0.639841 0.761654 0.290455
0.680659 0.771191 0.27982
0.71667 0.779599 0.271153
0.749691 0.784085 0.273777
0.781323 0.764721 0.289891
0.8065 0.771801 0.295369
0.816785 0.776913 0.299077
0.818418 0.777859 0.299733
0.818372 0.777874 0.299794
0.818311 0.777874 0.299809
0.818235 0.77789 0.29987
0.818204 0.77789 0.299886
0.818158 0.777905 0.299916
0.818128 0.77789 0.300053
0.818112 0.77789 0.300252
0.249149 0.846372 0.50045
0.259907 0.840864 0.487922
0.276432 0.832898 0.475883
0.300496 0.823468 0.463645
0.320623 0.812985 0.446479
0.343969 0.800107 0.424125
0.364019 0.787213 0.399603
0.374411 0.779706 0.384207
0.374487 0.779629 0.384131
0.374212 0.779843 0.384573
0.373785 0.780087 0.385412
0.372778 0.780789 0.386618
0.379492 0.776776 0.378485
0.399008 0.767742 0.357717
0.428626 0.755596 0.327535
0.479881 0.748501 0.31136
0.542168 0.74725 0.308766
0.595743 0.753033 0.299626
0.636637 0.760937 0.292073
0.670344 0.768643 0.28278
0.702632 0.776486 0.273762
0.738216 0.782605 0.27155
0.77348 0.771588 0.287327
0.800031 0.769146 0.294194
0.814801 0.776165 0.298268
0.818265 0.777798 0.29958
0.818433 0.777905 0.299687
0.818387 0.777905 0.299657
0.818341 0.77792 0.299657
0.81828 0.777935 0.299626
0.818265 0.777935 0.299626
0.818265 0.777935 0.299626
0.81828 0.777935 0.299641
0.244022 0.850065 0.507042
0.253742 0.844327 0.495003
0.264103 0.837659 0.481758
0.291234 0.827573 0.470451
0.313542 0.817685 0.453666
0.33637 0.80383 0.430915
0.35903 0.789609 0.405097
0.373739 0.780255 0.38555
0.374273 0.779873 0.384405
0.374289 0.779843 0.38436
0.374319 0.779812 0.384329
0.374289 0.779828 0.384375
0.379492 0.776715 0.378042
0.401038 0.766232 0.353765
0.431586 0.754742 0.324956
0.479042 0.748241 0.310323
0.538491 0.747112 0.307973
0.591699 0.752758 0.300847
0.629953 0.759533 0.293767
0.657267 0.765774 0.287404
0.68835 0.772671 0.277501
0.72842 0.781903 0.270878
0.767163 0.778302 0.286061
0.794705 0.767514 0.293019
0.811704 0.774426 0.297108
0.817868 0.777584 0.299428
0.818433 0.777905 0.299657
0.818402 0.777905 0.299657
0.818326 0.77792 0.299626
0.818311 0.777935 0.299611
0.81828 0.777935 0.299611
0.818265 0.777935 0.299596
0.81828 0.777935 0.299611
0.241474 0.852644 0.512612
0.248188 0.846891 0.500893
0.259724 0.841001 0.487739
0.280247 0.832029 0.475746
0.305989 0.821256 0.4598
0.328679 0.807675 0.437598
0.353735 0.792874 0.411276
0.372854 0.780926 0.386542
0.374212 0.77995 0.384512
0.374228 0.779904 0.384421
