bundles/resolve-cinematic-luts/Phantom Luts/Ursa G2 Phntm Film LUTs - V1/Gen5/Standard (No WB Offset)/Ursa G2 Eterna Legacy Gen5.cube
TITLE "Generated by Resolve"
LUT_3D_SIZE 33
0.0167697 0.0444648 0.0445106
0.0167697 0.0444648 0.0444953
0.0169223 0.0444038 0.0442512
0.026566 0.045594 0.0457313
0.0352941 0.0466163 0.0464332
0.0465248 0.0471656 0.0456092
0.0587472 0.0474708 0.044007
0.0729076 0.0486763 0.0437934
0.0886854 0.0496986 0.0453651
0.107729 0.0511635 0.0487984
0.133059 0.0534829 0.0545205
0.163989 0.0561379 0.0610666
0.204181 0.0608225 0.0691386
0.25066 0.065095 0.0782635
0.301747 0.0672465 0.0887617
0.355444 0.0676585 0.0988632
0.413947 0.0692302 0.110231
0.479759 0.076173 0.122683
0.53904 0.0825513 0.133623
0.573053 0.0873884 0.140627
0.576852 0.0879988 0.144594
0.578607 0.0881514 0.148882
0.580499 0.0882124 0.155764
0.58233 0.0880446 0.163256
0.583703 0.0881971 0.168872
0.583719 0.0881971 0.168872
0.584314 0.0880598 0.169039
0.58613 0.0876173 0.169558
0.5897 0.0867475 0.170565
0.595056 0.0854505 0.171969
0.602396 0.0836805 0.174151
0.6103 0.0817731 0.176379
0.619257 0.0795911 0.178973
0.0178378 0.043946 0.042771
0.0170901 0.0443122 0.0439918
0.0169528 0.0443732 0.0442054
0.0235142 0.0453651 0.0448768
0.0324407 0.0462654 0.0449989
0.0428779 0.0468757 0.0440681
0.0570077 0.0476692 0.0430457
0.0725567 0.0489204 0.0433356
0.0892042 0.0499275 0.044831
0.108812 0.0515602 0.0483558
0.135241 0.0538643 0.0543984
0.167193 0.0564126 0.0617533
0.208042 0.0609751 0.0712291
0.256336 0.0648051 0.0809949
0.309453 0.0664225 0.0914626
0.364279 0.0662699 0.10164
0.423621 0.0688029 0.112596
0.489235 0.0757916 0.124453
0.5449 0.0826429 0.13463
0.574182 0.0872206 0.141176
0.577554 0.088014 0.145129
0.578775 0.0881666 0.149401
0.580682 0.0881971 0.156725
0.582788 0.0880903 0.164645
0.583719 0.0881971 0.168872
0.583719 0.0881971 0.168872
0.584314 0.0880598 0.169039
0.58613 0.0876173 0.169543
0.5897 0.0867475 0.170565
0.595071 0.0854505 0.171969
0.602426 0.0836652 0.174151
0.610452 0.0817273 0.176425
0.619348 0.0795758 0.178988
0.0177615 0.044007 0.0429084
0.0170443 0.0443275 0.0440528
0.016907 0.0444038 0.0442664
0.0196384 0.0449226 0.0446479
0.0281071 0.0458228 0.0449531
0.0380865 0.0467384 0.04477
0.0528725 0.0475624 0.0440375
0.0705425 0.0486763 0.0440986
0.0885023 0.0502174 0.0460517
0.110643 0.0519417 0.0496986
0.13785 0.054078 0.0553445
0.170886 0.0568856 0.0625315
0.21207 0.0612955 0.0720836
0.260105 0.0648814 0.0819715
0.313497 0.0658885 0.0923629
0.370748 0.0656138 0.103441
0.434485 0.0684215 0.115145
0.502861 0.0748455 0.127428
0.558602 0.0809033 0.137301
0.585138 0.0846723 0.143725
0.589273 0.0852827 0.148196
0.590494 0.0854505 0.152514
0.591684 0.0854505 0.160342
0.593393 0.0856336 0.169284
0.593301 0.0858778 0.171481
0.592432 0.0860914 0.171298
0.591745 0.0862593 0.171145
0.591928 0.0862135 0.171191
0.593683 0.0858015 0.171572
0.597482 0.0848707 0.172656
0.603555 0.0833906 0.174472
0.611124 0.0815747 0.176608
0.620203 0.0793774 0.179187
0.0190433 0.0465553 0.044831
0.018616 0.0470893 0.0457618
0.0181582 0.0466316 0.0455024
0.0186465 0.0464332 0.0455024
0.0256504 0.0475929 0.046128
0.0337224 0.0486763 0.0463874
0.0454871 0.0497597 0.046067
0.0644999 0.0502174 0.0456703
0.0844739 0.0500954 0.0460517
0.106966 0.0505837 0.048188
0.135897 0.0530861 0.0541238
0.171786 0.0565042 0.0623789
0.214115 0.0614328 0.0724346
0.263798 0.0650645 0.0827955
0.317113 0.0659037 0.0930648
0.374487 0.0653544 0.104173
0.439139 0.068925 0.116152
0.508492 0.0754559 0.128313
0.56202 0.0814527 0.137942
0.585397 0.0846571 0.144137
0.589731 0.0852216 0.148775
0.591318 0.0853437 0.15375
0.592874 0.0851606 0.161654
0.595422 0.0852979 0.171344
0.595666 0.0853132 0.172137
0.595666 0.0853132 0.172137
0.595666 0.0853132 0.172137
0.595972 0.0852369 0.172213
0.597101 0.0849622 0.172534
0.599588 0.0843519 0.173358
0.604746 0.0831159 0.174777
0.612146 0.0813306 0.176898
0.621607 0.0790417 0.179492
0.0241855 0.056733 0.0516365
0.0233768 0.0574807 0.0516976
0.0229496 0.0570993 0.0510262
0.0239719 0.054902 0.0495003
0.030457 0.0572213 0.0504616
0.0379797 0.0588693 0.0513466
0.048249 0.0595865 0.051133
0.0652476 0.0598154 0.0506905
0.0855116 0.0581064 0.050248
0.108354 0.0552987 0.0505379
0.137377 0.0538643 0.0539559
0.171984 0.0538186 0.0603799
0.21471 0.0586709 0.0702983
0.264729 0.064332 0.0822919
0.318853 0.0656443 0.0929885
0.376776 0.0648508 0.104295
0.443427 0.0690623 0.116808
0.514122 0.0760662 0.129519
0.565347 0.0818799 0.138384
0.585611 0.0846723 0.144488
0.589883 0.0852216 0.149279
0.591501 0.0853742 0.154788
0.593103 0.0851453 0.162936
0.59556 0.0853437 0.172107
0.595575 0.0853285 0.172107
0.59559 0.0853285 0.172122
0.59559 0.0853285 0.172107
0.59588 0.0852522 0.172198
0.597025 0.0849775 0.172519
0.600061 0.0842451 0.17348
0.606043 0.0828107 0.175097
0.614359 0.0807813 0.177523
0.623941 0.0784772 0.180224
0.0283818 0.0649882 0.057496
0.0275273 0.0662089 0.0581216
0.0272984 0.0668345 0.0587167
0.0268254 0.06598 0.0555886
0.0325628 0.0650492 0.0540627
0.0405585 0.0665599 0.0544442
0.0518349 0.0667124 0.0543679
0.0693065 0.0665751 0.0542
0.0897231 0.0659342 0.0541238
0.113237 0.0632334 0.0537575
0.143191 0.0597086 0.0550088
0.178683 0.0551003 0.0589456
0.220493 0.0565957 0.0673991
0.267399 0.0594339 0.0771649
0.320638 0.0622568 0.0892348
0.378592 0.0639811 0.102373
0.445289 0.0690623 0.115663
0.516732 0.0763104 0.129366
0.567834 0.0822919 0.138369
0.586145 0.0847486 0.144869
0.590021 0.0852369 0.14963
0.591684 0.085359 0.155642
0.593576 0.0851606 0.164309
0.595666 0.0853132 0.172137
0.595666 0.0853132 0.172137
0.595636 0.0853285 0.172137
0.595621 0.0853285 0.172122
0.595895 0.0852522 0.172198
0.597025 0.0849775 0.172519
0.600092 0.0842451 0.173495
0.606058 0.0827955 0.175097
0.615015 0.0806287 0.177707
0.625147 0.0781872 0.18056
0.033463 0.0764172 0.0638132
0.0322576 0.0785687 0.0643626
0.0314946 0.0800031 0.0656596
0.0314946 0.0803845 0.0652171
0.0316777 0.0783551 0.0609293
0.0425116 0.0779278 0.0587472
0.052842 0.0784619 0.0580758
0.0730755 0.0773785 0.0572976
0.0966354 0.0754101 0.0577554
0.120119 0.0733654 0.0571298
0.150149 0.0699321 0.0572366
0.185748 0.0644999 0.0585184
0.227024 0.0618601 0.0643015
0.272099 0.0599985 0.0720684
0.323293 0.0588235 0.0818647
0.379919 0.0630045 0.0948653
0.44448 0.0696727 0.10721
0.514015 0.0772564 0.122103
0.566751 0.0836805 0.136553
0.582406 0.0858473 0.143587
0.585473 0.0862898 0.148196
0.587137 0.0863966 0.153429
0.589151 0.0861677 0.162478
0.591028 0.0862898 0.169574
0.591272 0.0863203 0.170748
0.591302 0.0863203 0.170825
0.591272 0.0863203 0.170779
0.591424 0.0862898 0.17084
0.592157 0.0861219 0.171054
0.594293 0.0856184 0.171572
0.598291 0.0846571 0.172793
0.604105 0.0832532 0.174578
0.611414 0.0815137 0.176684
0.0404669 0.0928511 0.0685435
0.0386816 0.0959945 0.0699016
0.0372015 0.0985122 0.0718547
0.0364996 0.100267 0.0730907
0.0360113 0.0999008 0.0721752
0.038056 0.0969863 0.0664988
0.0548714 0.0971847 0.0636606
0.0709697 0.0978714 0.063035
0.0989395 0.0956436 0.0624247
0.129015 0.0918441 0.0647898
0.163073 0.0868238 0.0658427
0.198825 0.0816968 0.0653544
0.241169 0.0758984 0.0683909
0.286717 0.0701762 0.07393
0.335836 0.0632944 0.080415
0.390661 0.0621195 0.0905318
0.454429 0.0678264 0.102129
0.521553 0.0750744 0.11632
0.574365 0.0822309 0.132296
0.58822 0.0849622 0.143221
0.587701 0.0856336 0.14696
0.587549 0.0860609 0.150988
0.588281 0.0862745 0.156329
0.589105 0.086183 0.161273
0.589868 0.0862135 0.164416
0.589944 0.0862287 0.164721
0.58996 0.0862287 0.164782
0.590219 0.0861982 0.165133
0.591119 0.0860456 0.166339
0.593378 0.0855726 0.168032
0.597604 0.0846265 0.170108
0.60354 0.083238 0.172076
0.61088 0.0814832 0.174243
0.0456855 0.114427 0.0774243
0.0442817 0.117891 0.0790112
0.0428473 0.120775 0.0804608
0.0422675 0.123125 0.0816052
0.0419623 0.124361 0.0820935
0.0422522 0.123049 0.07953
0.049134 0.120134 0.071931
0.0700847 0.121202 0.0697337
0.0946059 0.122988 0.069337
0.128786 0.121035 0.0689403
0.170825 0.11606 0.0741588
0.218875 0.106783 0.0768444
0.264591 0.100999 0.0794995
0.312413 0.0913558 0.0810864
0.3626 0.0784924 0.0828565
0.415564 0.0681926 0.0885176
0.47921 0.0695659 0.10193
0.541207 0.0756085 0.115846
0.58024 0.0805524 0.127001
0.595148 0.0826886 0.133104
0.598672 0.0827955 0.145602
0.599619 0.0829023 0.149844
0.600839 0.0829938 0.154391
0.601267 0.0830243 0.156954
0.600961 0.0831311 0.157626
0.600336 0.0832837 0.157824
0.599466 0.0834974 0.157961
0.598657 0.083711 0.158068
0.597925 0.0838941 0.158877
0.598077 0.0838788 0.159716
0.599573 0.0834974 0.160784
0.603296 0.0826276 0.162066
0.609079 0.0812543 0.163668
0.0540169 0.141161 0.0889906
0.0532082 0.145281 0.0898146
0.0519722 0.149371 0.0909133
0.0519875 0.152514 0.0919661
0.0516365 0.154772 0.0930953
0.0520943 0.155612 0.0931563
0.0549783 0.152819 0.0892653
0.0645457 0.150896 0.0815137
0.0903944 0.152926 0.0787518
0.123781 0.156939 0.0792859
0.168429 0.154955 0.0790417
0.228702 0.149981 0.0872969
0.292576 0.138933 0.0943923
0.349081 0.132036 0.0964828
0.406683 0.120912 0.0974746
0.461463 0.100664 0.0958267
0.519402 0.0847486 0.0992599
0.568765 0.0795605 0.108003
0.595468 0.08365 0.120684
0.59791 0.0837262 0.127657
0.595834 0.0832837 0.129183
0.597482 0.0830701 0.140917
0.598566 0.0830091 0.147021
0.599496 0.0830854 0.150118
0.599954 0.0830549 0.151095
0.60029 0.0830091 0.151537
0.600549 0.0829633 0.151934
0.600717 0.082948 0.152285
0.600763 0.082948 0.15259
0.601038 0.0829175 0.153079
0.601953 0.0827344 0.153704
0.604471 0.0821088 0.154604
0.608957 0.0809796 0.155947
0.0659037 0.177569 0.105516
0.0658274 0.182574 0.105867
0.0662547 0.188174 0.106737
0.0679942 0.192767 0.106844
0.0685588 0.196384 0.1084
0.0693523 0.198871 0.1093
0.0711681 0.199268 0.108492
0.0753643 0.194507 0.102892
0.09131 0.194034 0.0920119
0.12137 0.198383 0.0907301
0.162585 0.207507 0.0924086
0.226566 0.205524 0.0926833
0.307851 0.208621 0.101457
0.392126 0.195727 0.113054
0.472618 0.18468 0.115923
0.545235 0.174395 0.117922
0.608927 0.155734 0.120317
0.637919 0.132708 0.121965
0.63743 0.116594 0.121599
0.623743 0.103456 0.116976
0.614939 0.0956588 0.120272
0.601358 0.084947 0.121187
0.599145 0.0837262 0.132326
0.59649 0.0829786 0.137209
0.597284 0.082948 0.139269
0.597818 0.082887 0.140597
0.598108 0.0828412 0.141238
0.59826 0.082826 0.14168
0.598306 0.082826 0.142061
0.59852 0.0827955 0.142519
0.599298 0.0826276 0.143328
0.601999 0.0820172 0.144533
0.606989 0.0808728 0.14609
0.083772 0.226886 0.127672
0.084062 0.234501 0.128893
0.0851301 0.241581 0.129473
0.087892 0.248432 0.129946
0.0909438 0.255451 0.131258
0.0933852 0.260945 0.132876
0.094789 0.264607 0.13402
0.0980392 0.263523 0.131792
0.105272 0.257893 0.12369
0.128573 0.257298 0.106508
0.162676 0.265934 0.107118
0.219669 0.283528 0.106966
0.30985 0.281605 0.108934
0.411368 0.295323 0.0994736
0.512551 0.285756 0.11931
0.620981 0.267338 0.132982
0.711879 0.253895 0.141253
0.751858 0.246387 0.151659
0.756054 0.237675 0.154528
0.747387 0.227131 0.152377
0.726925 0.204028 0.147234
0.695872 0.172213 0.138842
0.670115 0.147585 0.135454
0.604761 0.0861219 0.115007
0.604089 0.0856031 0.118776
0.604059 0.0853285 0.120592
0.603464 0.0850233 0.121904
0.602518 0.0846418 0.123247
0.601404 0.0842756 0.124804
0.600259 0.0839551 0.126604
0.600534 0.0838941 0.128038
0.602548 0.0833143 0.129213
0.606958 0.0823377 0.130236
0.105547 0.300938 0.157137
0.105592 0.311177 0.157855
0.106889 0.321828 0.15903
0.110674 0.332189 0.15935
0.11458 0.342214 0.159564
0.1187 0.350439 0.160479
0.120256 0.355947 0.161807
0.121614 0.358068 0.162295
0.126848 0.354101 0.15819
0.140322 0.348623 0.147127
0.170001 0.350576 0.120256
0.216342 0.363363 0.120363
0.290929 0.382681 0.114565
0.401083 0.373602 0.124636
0.519203 0.397757 0.0915541
0.620996 0.402441 0.10663
0.731334 0.390539 0.142336
0.810803 0.3776 0.173602
0.83331 0.36997 0.186831
0.827802 0.354849 0.183536
0.821118 0.339376 0.179522
0.813107 0.323308 0.175402
0.799619 0.299062 0.16968
0.776623 0.2645 0.161105
0.759274 0.241733 0.155764
0.753124 0.234287 0.153994
0.746532 0.226322 0.151827
0.738186 0.216876 0.149645
0.728847 0.20676 0.147066
0.719814 0.196658 0.14461
0.711086 0.186892 0.142229
0.701778 0.175875 0.139574
0.693736 0.164446 0.136645
0.121996 0.399527 0.189868
0.123064 0.412299 0.190112
0.124773 0.424369 0.190387
0.127306 0.436683 0.190509
0.131319 0.448768 0.190646
0.135515 0.459419 0.190631
0.138842 0.468009 0.191318
0.140032 0.472023 0.192645
0.141344 0.471946 0.192615
0.151202 0.464591 0.184405
0.17351 0.46334 0.168582
0.219791 0.464927 0.130312
0.280262 0.479728 0.130663
0.376577 0.49752 0.131579
0.494621 0.485008 0.142245
0.611948 0.507378 0.110506
0.714519 0.520027 0.115038
0.799039 0.52459 0.157061
0.851545 0.521599 0.189456
0.864912 0.51191 0.199008
0.863111 0.490227 0.198871
0.859281 0.467597 0.198199
0.855497 0.44535 0.197498
0.851423 0.422095 0.197955
0.846464 0.403067 0.195605
0.843565 0.395285 0.193652
0.841154 0.389685 0.191638
0.838773 0.382864 0.18967
0.835859 0.375372 0.187762
0.832792 0.367376 0.186206
0.83003 0.359792 0.184268
0.826658 0.351415 0.182223
0.823667 0.343282 0.180331
0.128054 0.516472 0.232074
0.131914 0.529259 0.232578
0.136187 0.5411 0.232563
0.140902 0.552804 0.233021
0.146929 0.564065 0.233158
0.154971 0.575463 0.23331
0.164263 0.585977 0.232578
0.165454 0.590448 0.23418
0.166949 0.591714 0.234974
0.170016 0.589227 0.232883
0.187579 0.580118 0.21854
0.221271 0.581674 0.195468
0.291493 0.583551 0.156191
0.364782 0.599817 0.161181
0.470832 0.613733 0.164752
0.586664 0.607675 0.166354
0.69456 0.616358 0.154162
0.791867 0.626825 0.162478
0.849104 0.636088 0.187503
0.875639 0.638132 0.20177
0.881514 0.632258 0.205203
0.879499 0.617746 0.203891
0.87657 0.597757 0.202808
0.873213 0.570794 0.201907
0.870512 0.549615 0.201099
0.86949 0.541497 0.200763
0.869108 0.535882 0.200809
0.868086 0.528878 0.200473
0.867338 0.521492 0.200473
0.866407 0.512871 0.200534
0.865507 0.503716 0.200778
0.864164 0.494423 0.200137
0.862165 0.485298 0.198932
0.147051 0.634104 0.288869
0.156588 0.646845 0.289433
0.164584 0.659052 0.289326
0.171695 0.670756 0.288823
0.1794 0.682704 0.289021
0.189883 0.69485 0.288685
0.204105 0.706233 0.287175
0.211658 0.713314 0.287419
0.213581 0.716075 0.28838
0.214725 0.715175 0.288182
0.22118 0.707866 0.280507
0.244953 0.697551 0.258671
0.297932 0.701503 0.222858
0.380743 0.704143 0.199466
0.467628 0.722469 0.203418
0.569879 0.730236 0.20734
0.67718 0.729473 0.206378
0.774411 0.720653 0.213886
0.850217 0.728206 0.228305
0.890486 0.736507 0.240803
0.90425 0.735683 0.243732
0.904723 0.730282 0.241291
0.902663 0.721309 0.236789
0.898878 0.706157 0.228916
0.891707 0.680705 0.21619
0.887999 0.667674 0.210452
0.886152 0.660502 0.208545
0.884962 0.654276 0.207767
0.883436 0.646555 0.206653
0.882063 0.638071 0.205707
0.88098 0.629053 0.204837
0.879835 0.620279 0.204059
0.878767 0.612467 0.203418
0.188388 0.755062 0.355016
0.200885 0.767651 0.355962
0.210895 0.779858 0.356054
0.21976 0.792294 0.356054
0.228229 0.802548 0.355016
0.23978 0.81268 0.353643
0.254185 0.821744 0.350958
0.266865 0.828763 0.34902
0.270985 0.83122 0.348608
0.271717 0.830777 0.348638
0.271626 0.826581 0.346517
0.285176 0.817823 0.330632
0.32253 0.813931 0.301762
0.395361 0.817319 0.255467
0.481178 0.822095 0.252064
0.569055 0.830274 0.256367
0.660349 0.831769 0.262837
0.757473 0.831601 0.269078
0.840146 0.81529 0.283558
0.894804 0.814588 0.297505
0.919417 0.82356 0.306508
0.925292 0.823453 0.306981
0.923735 0.819379 0.303578
0.922057 0.814649 0.299321
0.920256 0.803708 0.29099
0.916945 0.78793 0.279255
0.915251 0.780957 0.273671
0.913664 0.774685 0.268757
0.911803 0.766644 0.263188
0.909804 0.757794 0.257801
0.907805 0.748775 0.252598
0.905791 0.739727 0.247822
0.904112 0.731472 0.243565
0.238895 0.848478 0.424659
0.249241 0.858686 0.425727
0.25452 0.866224 0.423865
0.258885 0.873137 0.42092
0.264454 0.879255 0.417044
0.27332 0.884321 0.412573
0.285008 0.889128 0.407507
0.298497 0.893019 0.401587
0.305318 0.894026 0.397528
0.305669 0.893736 0.397559
0.306523 0.891798 0.396399
0.311513 0.888594 0.390661
0.340093 0.883268 0.365454
0.394339 0.883619 0.329397
0.490349 0.882155 0.291798
0.56846 0.886946 0.29337
0.649607 0.889067 0.300435
0.734768 0.890471 0.311192
0.824063 0.891295 0.323308
0.888884 0.874174 0.336873
0.92221 0.864576 0.346288
0.937499 0.869566 0.351736
0.939116 0.867643 0.349783
0.938125 0.864652 0.346181
0.937179 0.861234 0.342519
0.935683 0.856947 0.337652
0.934279 0.852003 0.332509
0.933089 0.848737 0.328435
0.931914 0.844282 0.324193
0.930571 0.839338 0.3196
0.92932 0.833494 0.315068
0.928222 0.828092 0.311284
0.926879 0.822599 0.306661
0.260639 0.892332 0.476127
0.264256 0.896056 0.473121
0.266056 0.899382 0.468681
0.266987 0.902663 0.462898
0.269932 0.905455 0.456519
0.276417 0.907301 0.448997
0.284977 0.908583 0.439994
0.295979 0.908782 0.430381
0.3066 0.908736 0.421393
0.309026 0.90866 0.419623
0.310582 0.908232 0.419425
0.313726 0.907393 0.419059
0.333303 0.906126 0.405341
0.375509 0.903777 0.371572
0.447288 0.89955 0.317723
0.552529 0.902037 0.305104
0.627588 0.904616 0.309178
0.705333 0.907042 0.321386
0.789425 0.909148 0.33463
0.867002 0.905791 0.349813
0.911833 0.887144 0.35993
0.934585 0.882231 0.368444
0.945006 0.886641 0.374273
0.944732 0.88542 0.37258
0.944411 0.884535 0.370901
0.943862 0.883543 0.36878
0.943191 0.882506 0.366461
0.942504 0.881529 0.364523
0.941817 0.880323 0.362203
0.941497 0.87866 0.360265
0.941054 0.876387 0.358343
0.940688 0.873976 0.356512
0.939925 0.871946 0.353918
0.257069 0.89601 0.500069
0.254994 0.896666 0.495277
0.253117 0.898466 0.489937
0.251911 0.900832 0.483589
0.252857 0.903456 0.476493
0.25861 0.905486 0.467323
0.268498 0.907301 0.456092
0.281376 0.9084 0.443778
0.29543 0.908858 0.431083
0.302052 0.908782 0.425345
0.302739 0.908568 0.425345
0.304524 0.908003 0.425406
0.31104 0.907134 0.422309
0.346166 0.905623 0.395392
0.408621 0.902312 0.347784
0.510765 0.900908 0.307195
0.606729 0.905699 0.307439
0.676036 0.908934 0.316381
0.751278 0.9122 0.32813
0.831037 0.914839 0.340932
0.891371 0.905058 0.35404
0.918502 0.883391 0.360494
0.940337 0.889891 0.372671
0.944595 0.891112 0.376608
0.945083 0.890959 0.378744
0.94522 0.890562 0.378134
0.945098 0.89041 0.377111
0.94493 0.890517 0.376654
0.944854 0.890562 0.376287
0.9449 0.890394 0.376242
0.945037 0.889982 0.376242
0.945251 0.889479 0.376349
0.945174 0.889204 0.375891
0.253132 0.896223 0.514122
0.253574 0.897459 0.509255
0.250629 0.898955 0.503136
0.243961 0.900008 0.496361
0.240986 0.901778 0.488838
0.246082 0.904372 0.47924
0.256001 0.906325 0.46743
0.270222 0.907942 0.453361
0.287831 0.908827 0.437736
0.302388 0.908827 0.424872
0.3028 0.908721 0.424842
0.303334 0.9084 0.425299
0.304646 0.907774 0.425925
0.325902 0.906844 0.410407
0.375814 0.904524 0.371969
0.462272 0.901061 0.320699
0.578347 0.904585 0.306096
0.655879 0.90808 0.312901
0.723812 0.911177 0.324407
0.796429 0.914244 0.334585
0.867521 0.914427 0.348455
0.902617 0.893065 0.354543
0.930083 0.888212 0.363272
0.940734 0.893187 0.369787
0.941527 0.89398 0.371359
0.941405 0.89424 0.371588
0.941192 0.894347 0.370993
0.94107 0.894377 0.370428
0.941085 0.894316 0.370382
0.941283 0.894118 0.370657
0.941619 0.893797 0.37116
0.942046 0.8934 0.371847
0.942489 0.892973 0.37261
0.245151 0.89749 0.52401
0.248997 0.897642 0.518456
0.25182 0.898268 0.511788
0.253452 0.899275 0.505043
0.247883 0.898619 0.496269
0.251133 0.900008 0.486534
0.261219 0.902251 0.474037
0.27599 0.903853 0.458946
0.29546 0.904952 0.44155
0.316976 0.905013 0.422873
0.321279 0.904982 0.419455
0.320653 0.90486 0.420356
0.320272 0.904509 0.421653
0.325841 0.903868 0.418723
0.364065 0.902617 0.38996
0.43592 0.899123 0.340352
0.539239 0.89955 0.312734
0.643381 0.904494 0.315648
0.709743 0.907439 0.326223
0.775586 0.910643 0.335973
0.843046 0.912795 0.347036
0.891295 0.906844 0.357885
0.922393 0.884398 0.363867
0.939986 0.889311 0.372488
0.94403 0.891356 0.375113
0.943954 0.891783 0.375372
0.943618 0.892363 0.375662
0.943053 0.89308 0.375265
0.942351 0.893751 0.374105
0.941665 0.894362 0.373205
0.941207 0.894774 0.372488
0.941024 0.894957 0.372213
0.94107 0.894896 0.372168
0.241382 0.901396 0.528496
0.245548 0.90132 0.522576
0.250034 0.901274 0.515602
0.253727 0.901518 0.507927
0.251621 0.900801 0.498619
0.254154 0.901488 0.487312
0.263706 0.903075 0.473793
0.279347 0.904707 0.456947
0.299916 0.905547 0.4383
0.327047 0.90544 0.413962
0.338308 0.905211 0.404334
0.337285 0.905135 0.405356
0.33547 0.904967 0.407172
0.33341 0.904601 0.409979
0.356863 0.903914 0.393484
0.4103 0.901503 0.355123
0.500557 0.899413 0.314992
0.610864 0.903822 0.313298
0.692439 0.906996 0.322683
0.752468 0.90959 0.33257
0.813535 0.912062 0.341024
0.866011 0.913481 0.352316
0.908598 0.889784 0.359777
0.933272 0.886137 0.368429
0.942885 0.890715 0.374151
0.943923 0.891661 0.374838
0.943526 0.892058 0.374212
0.942946 0.892683 0.373648
0.942229 0.89337 0.372671
0.941543 0.89398 0.371496
0.9411 0.894408 0.370794
0.940917 0.894606 0.370565
0.940948 0.894621 0.370748
0.247181 0.903441 0.527535
0.251514 0.903441 0.520577
0.255772 0.903441 0.513054
0.256046 0.902785 0.504631
0.257877 0.902907 0.495262
0.26125 0.903532 0.483787
0.273304 0.905119 0.469306
0.290593 0.906249 0.451713
0.313237 0.90631 0.429694
0.34287 0.905791 0.402502
0.364294 0.904936 0.383612
0.365896 0.904875 0.381994
0.365118 0.904768 0.383093
0.362036 0.904784 0.386175
0.368277 0.90428 0.381888
0.405127 0.902724 0.356893
0.475029 0.90013 0.315618
0.572549 0.90341 0.310353
0.669184 0.907317 0.318044
0.73228 0.909651 0.328481
0.784894 0.911589 0.335943
0.836103 0.9131 0.345052
0.888777 0.898817 0.355383
0.923888 0.885695 0.364446
0.939971 0.88954 0.372213
0.943847 0.891676 0.374533
0.943481 0.892042 0.373983
0.94287 0.892546 0.373053
0.942168 0.893172 0.37174
0.941497 0.893782 0.370504
0.94107 0.894148 0.369772
0.94107 0.894179 0.369848
0.941421 0.893904 0.370581
0.244968 0.904524 0.532021
0.248814 0.904356 0.525551
0.252674 0.904189 0.518547
0.256046 0.904219 0.510628
0.256321 0.904097 0.501869
0.254704 0.903716 0.490578
0.264927 0.905318 0.476738
0.281056 0.906691 0.459358
0.303609 0.90692 0.437659
0.332799 0.906493 0.410407
0.362448 0.905425 0.383993
0.367575 0.905226 0.379705
0.367514 0.905165 0.379919
0.367773 0.904982 0.380209
0.370031 0.904631 0.37937
0.404547 0.903075 0.355184
0.459159 0.900359 0.318074
0.542962 0.902922 0.307622
0.639368 0.907362 0.311162
0.709895 0.909957 0.322988
0.757031 0.911543 0.331212
0.806958 0.912734 0.33843
0.866285 0.908812 0.350545
0.912764 0.89247 0.361196
0.934432 0.887053 0.368658
0.942885 0.891173 0.37377
0.943465 0.892058 0.373968
0.942885 0.892531 0.373068
0.942184 0.893141 0.371695
0.941543 0.893675 0.370459
0.941176 0.893996 0.369726
0.941176 0.893996 0.369726
0.941421 0.893782 0.370214
0.241886 0.904616 0.537942
0.24538 0.904524 0.53164
0.249241 0.904387 0.52462
0.252354 0.904601 0.517037
0.254337 0.904982 0.508598
0.251072 0.904189 0.49749
0.256855 0.905058 0.484703
0.271229 0.906447 0.468406
0.293477 0.907301 0.446799
0.321965 0.906828 0.420233
0.355703 0.905867 0.390295
0.367758 0.905196 0.379644
0.367758 0.905196 0.379644
0.367971 0.905104 0.379675
0.36849 0.904921 0.379782
0.390112 0.903899 0.364935
0.439994 0.901106 0.328084
0.514809 0.901732 0.307774
0.606012 0.906203 0.306798
0.687755 0.910002 0.318257
0.733303 0.912077 0.325795
0.769696 0.913405 0.330663
0.835645 0.914672 0.341024
0.898604 0.904982 0.355367
0.925399 0.885115 0.362341
0.939818 0.890898 0.370581
0.942946 0.892454 0.373114
0.942657 0.892744 0.372595
0.942092 0.893217 0.371527
0.941527 0.89369 0.370413
0.941176 0.893996 0.369726
0.941161 0.894011 0.369711
0.941375 0.893828 0.370108
0.239124 0.904463 0.543709
0.242741 0.904463 0.537163
0.246189 0.904509 0.530221
0.24921 0.904753 0.522774
0.251713 0.905257 0.514443
0.252171 0.905486 0.504326
0.252674 0.90544 0.492012
0.262486 0.906355 0.476295
0.282933 0.907454 0.45568
0.310033 0.907301 0.430167
0.34432 0.906401 0.399573
0.367041 0.905287 0.380087
0.367666 0.905226 0.379629
0.367742 0.905196 0.379644
0.368002 0.905104 0.379675
0.375982 0.904723 0.374228
0.418235 0.902632 0.343954
