bundles/resolve-cinematic-luts/Phantom Luts/DJI/DJI Phntm Film LUTs - G3/Mavic 3 Pro D-Log-M/Eastman RM - M3P D-LogM.cube
TITLE "Generated by Resolve"
LUT_3D_SIZE 5
0.0444648 0.0326848 0.0362097
0.170886 0.0273136 0.0353246
0.307607 0.0254215 0.0346838
0.421347 0.0279393 0.0380865
0.475837 0.0297856 0.0415198
0.0539254 0.160601 0.0449531
0.195315 0.178378 0.0496071
0.413306 0.151751 0.0523995
0.547707 0.117113 0.0662852
0.502083 0.0379034 0.0502937
0.0465858 0.379736 0.0359655
0.0525216 0.390738 0.0363317
0.531823 0.505592 0.0927291
0.732128 0.488838 0.158419
0.796094 0.45098 0.197818
0.11902 0.602884 0.10779
0.116701 0.596262 0.0980392
0.440406 0.690745 0.160601
0.770825 0.757855 0.275929
0.884367 0.764935 0.385763
0.200153 0.675303 0.155703
0.194873 0.675563 0.162173
0.280003 0.687449 0.166552
0.81828 0.873777 0.404425
0.908476 0.895232 0.486641
0.0402838 0.0449226 0.101106
0.149676 0.0369573 0.102922
0.31104 0.0299687 0.075639
0.432074 0.0310216 0.0986801
0.482155 0.0314183 0.0941482
0.0499733 0.158221 0.125551
0.197101 0.193011 0.16321
0.440452 0.128618 0.126665
0.518441 0.0449531 0.106615
0.484062 0.0315251 0.0679789
0.0455482 0.400259 0.111742
0.0496529 0.401907 0.0859693
0.517021 0.51516 0.171069
0.7205 0.501778 0.198871
0.799283 0.451484 0.19469
0.106203 0.604395 0.135882
0.106493 0.593942 0.1075
0.422019 0.68072 0.15642
0.766964 0.748135 0.266911
0.88127 0.757321 0.379034
0.200153 0.675303 0.155703
0.194873 0.675563 0.162173
0.278538 0.687144 0.166842
0.811749 0.873442 0.413962
0.90692 0.895247 0.485695
0.04065 0.0612345 0.207431
0.0929427 0.0429694 0.254902
0.306081 0.0406958 0.217075
0.467643 0.039292 0.190906
0.505196 0.0393835 0.164233
0.0419928 0.158465 0.238025
0.111315 0.145632 0.326833
0.40557 0.107866 0.33077
0.528359 0.0619974 0.253773
0.512047 0.0390478 0.161685
0.0471656 0.417533 0.356756
0.0481575 0.406943 0.341421
0.503319 0.50634 0.46949
0.756237 0.455116 0.430854
0.839979 0.362951 0.388586
0.102113 0.655711 0.461463
0.09691 0.642695 0.403861
0.311086 0.655634 0.381216
0.74139 0.766705 0.502693
0.880537 0.764202 0.537362
0.214771 0.742611 0.498894
0.201526 0.728389 0.444846
0.239551 0.729046 0.417823
0.73492 0.872679 0.581308
0.892103 0.926787 0.648783
0.0418708 0.0821698 0.325704
0.0488899 0.0811627 0.367742
0.28394 0.0482032 0.396521
0.466728 0.0554971 0.369314
0.534157 0.0775769 0.355795
0.0422217 0.126513 0.373373
0.0436408 0.0979324 0.390372
0.285756 0.0509194 0.417456
0.467536 0.0587625 0.386542
0.534218 0.0801556 0.371496
0.0443732 0.436774 0.482063
0.0437629 0.403967 0.473335
0.384451 0.43949 0.634409
0.767681 0.454337 0.697475
0.848157 0.409293 0.657893
0.119738 0.653269 0.594217
0.112749 0.642145 0.577203
0.326558 0.678386 0.625513
0.727733 0.752728 0.721325
0.879164 0.732174 0.687648
0.244404 0.766186 0.656214
0.237629 0.761685 0.638865
0.268772 0.769894 0.623438
0.698314 0.865232 0.719188
0.874525 0.919432 0.789029
0.0422217 0.099855 0.385077
0.0424353 0.103029 0.41239
0.199176 0.0707408 0.50634
0.432975 0.0770275 0.494072
0.532464 0.103593 0.492088
0.0426184 0.13695 0.435691
0.0426032 0.128344 0.446799
0.218784 0.0770275 0.517983
0.439124 0.079881 0.498222
0.53164 0.104829 0.497276
0.0460822 0.46331 0.586755
0.0454261 0.441413 0.582376
0.316228 0.44947 0.71957
0.743297 0.472236 0.846738
0.847715 0.426749 0.823011
0.136294 0.667353 0.658457
0.12398 0.656504 0.654978
0.251774 0.671794 0.700633
0.680171 0.724788 0.826535
0.89192 0.736278 0.856672
0.243214 0.765545 0.701106
0.233814 0.758495 0.694804
0.319081 0.783749 0.72221
0.716808 0.879011 0.836423
0.873976 0.908995 0.875212
