bundles/resolve-cinematic-luts/Phantom Luts/DJI/DJI Phntm Film LUTs - G3/Mavic 3 Pro D-Log-M/Eastman RM - M3P D-LogM.cube
TITLE "Generated by Resolve"
LUT_3D_SIZE 9
0.0444648 0.0326848 0.0362097
0.102007 0.0281071 0.0348211
0.170886 0.0273136 0.0353246
0.23241 0.0262608 0.035462
0.307607 0.0254215 0.0346838
0.354665 0.0276188 0.0372625
0.421347 0.0279393 0.0380865
0.469047 0.0285039 0.0390021
0.475837 0.0297856 0.0415198
0.0462959 0.090013 0.039353
0.0874189 0.0982223 0.0419165
0.197055 0.082475 0.0406653
0.274479 0.0707408 0.0392309
0.353353 0.0546273 0.0399786
0.405631 0.0352483 0.0406043
0.432792 0.0289158 0.0390478
0.46717 0.0288396 0.0394293
0.478889 0.029572 0.0410468
0.0539254 0.160601 0.0449531
0.0791791 0.174701 0.0476844
0.195315 0.178378 0.0496071
0.339406 0.158236 0.0484779
0.413306 0.151751 0.0523995
0.47985 0.143633 0.0574655
0.547707 0.117113 0.0662852
0.54406 0.0678416 0.0660105
0.502083 0.0379034 0.0502937
0.0490272 0.251087 0.0422065
0.0485847 0.247288 0.0421302
0.172351 0.309758 0.0523537
0.368002 0.324254 0.053666
0.517998 0.33077 0.0733501
0.607645 0.320363 0.102037
0.67892 0.290364 0.11603
0.721218 0.250584 0.14229
0.699413 0.222232 0.153811
0.0465858 0.379736 0.0359655
0.0461128 0.375174 0.0368963
0.0525216 0.390738 0.0363317
0.380041 0.491188 0.0704509
0.531823 0.505592 0.0927291
0.655711 0.50605 0.132418
0.732128 0.488838 0.158419
0.784756 0.456382 0.189517
0.796094 0.45098 0.197818
0.057908 0.50544 0.0523384
0.0568093 0.501381 0.0505074
0.0580148 0.496529 0.0471962
0.194415 0.542535 0.0581064
0.551843 0.626261 0.12903
0.65304 0.63418 0.153414
0.764477 0.629297 0.211475
0.81387 0.632685 0.263462
0.829892 0.635447 0.290349
0.11902 0.602884 0.10779
0.119692 0.599603 0.101976
0.116701 0.596262 0.0980392
0.116518 0.593149 0.0934462
0.440406 0.690745 0.160601
0.685786 0.7458 0.222583
0.770825 0.757855 0.275929
0.852293 0.76112 0.348623
0.884367 0.764935 0.385763
0.187304 0.67216 0.163912
0.182879 0.67126 0.16762
0.182132 0.668055 0.162432
0.180514 0.664332 0.157412
0.356786 0.700374 0.195453
0.669017 0.825513 0.319921
0.807584 0.84712 0.366705
0.862852 0.85977 0.414343
0.910307 0.863279 0.463279
0.200153 0.675303 0.155703
0.194873 0.675563 0.162173
0.194873 0.675563 0.162173
0.196567 0.675502 0.159915
0.280003 0.687449 0.166552
0.626703 0.826429 0.345647
0.81828 0.873777 0.404425
0.869245 0.888853 0.448768
0.908476 0.895232 0.486641
0.0406195 0.0366827 0.059617
0.0829023 0.0334325 0.0603799
0.159472 0.0309911 0.0540017
0.231586 0.0276646 0.0556344
0.308003 0.0269932 0.058793
0.361089 0.0292668 0.0721904
0.428168 0.0296788 0.0690318
0.469627 0.0303807 0.0613413
0.46392 0.030808 0.043534
0.0437171 0.0846113 0.0664225
0.0823682 0.0963149 0.0798352
0.191058 0.0758373 0.0662547
0.277241 0.049897 0.0567788
0.340871 0.0285039 0.0523537
0.38883 0.02916 0.0500954
0.428962 0.0296178 0.0501411
0.471809 0.0294652 0.0442206
0.473365 0.029984 0.0419318
0.0522621 0.162737 0.0713207
0.0622416 0.178134 0.0695506
0.192386 0.191913 0.0778363
0.337163 0.174212 0.0733501
0.412909 0.154864 0.0693675
0.486519 0.127001 0.0719463
0.532555 0.0921187 0.0760204
0.508644 0.0419013 0.0535134
0.481575 0.034699 0.0474403
0.0487221 0.257481 0.0493324
0.0487068 0.250462 0.0439155
0.14081 0.308965 0.0647746
0.366842 0.334844 0.0716869
0.518593 0.340566 0.0938277
0.600504 0.332555 0.113725
0.679759 0.292683 0.116899
0.72047 0.251102 0.141299
0.698146 0.220554 0.153567
0.0464485 0.380514 0.0365148
0.046128 0.37438 0.0369421
0.0514382 0.389197 0.0379339
0.366415 0.488304 0.0743267
0.528572 0.502998 0.0952621
0.653681 0.502983 0.134447
0.726955 0.489906 0.156207
0.779843 0.468315 0.184833
0.797086 0.454734 0.199466
0.0573281 0.503288 0.0520943
0.0561532 0.49836 0.0499123
0.0567941 0.494499 0.0464179
0.189197 0.539666 0.057145
0.549981 0.623484 0.127657
0.65275 0.630732 0.152438
0.762371 0.625376 0.208637
0.811399 0.629877 0.259846
0.831388 0.64181 0.29395
0.117632 0.600855 0.106096
0.114519 0.597803 0.103822
0.114565 0.594293 0.0968795
0.114763 0.591638 0.0929274
0.437552 0.688502 0.15758
0.683223 0.742885 0.218814
0.770031 0.754376 0.273228
0.850843 0.757214 0.345235
0.88333 0.762493 0.383154
0.186404 0.670848 0.16286
0.180636 0.668742 0.165194
0.181491 0.666285 0.158907
0.178988 0.662684 0.155856
0.357137 0.699428 0.194629
0.65832 0.820905 0.32491
0.80528 0.844007 0.362173
0.86157 0.856046 0.410681
0.909453 0.860243 0.459907
0.200153 0.675303 0.155703
0.194873 0.675563 0.162173
0.194873 0.675563 0.162173
0.198718 0.67541 0.157198
0.283497 0.688136 0.167529
0.627466 0.826764 0.345953
0.818021 0.873594 0.403372
0.868727 0.888655 0.448127
0.908553 0.895277 0.48716
0.0402838 0.0449226 0.101106
0.0622721 0.0370947 0.119371
0.149676 0.0369573 0.102922
0.230915 0.0338445 0.080705
0.31104 0.0299687 0.075639
0.367987 0.0304112 0.0885481
0.432074 0.0310216 0.0986801
0.491905 0.0312047 0.102281
0.482155 0.0314183 0.0941482
0.0413062 0.087068 0.102617
0.0591897 0.086656 0.138155
0.173205 0.0690471 0.133715
0.272312 0.0473945 0.102144
0.343145 0.0325933 0.0926375
0.39202 0.0308232 0.0991073
0.447807 0.0303044 0.0926528
0.499641 0.0303807 0.0912642
0.487205 0.0305333 0.0800031
0.0499733 0.158221 0.125551
0.0573129 0.172717 0.138003
0.197101 0.193011 0.16321
0.359609 0.166476 0.138415
0.440452 0.128618 0.126665
0.497978 0.0958114 0.129137
0.518441 0.0449531 0.106615
0.509331 0.0342718 0.0950179
0.484062 0.0315251 0.0679789
0.0500038 0.266621 0.136141
0.0486763 0.262684 0.117327
0.129992 0.320623 0.138628
0.364721 0.350362 0.153765
0.517113 0.340856 0.161318
0.603113 0.317159 0.173404
0.700221 0.257542 0.171878
0.715953 0.193973 0.179812
0.671214 0.181567 0.156542
0.0455482 0.400259 0.111742
0.0450446 0.390753 0.088777
0.0496529 0.401907 0.0859693
0.283665 0.471794 0.134463
0.517021 0.51516 0.171069
0.649042 0.507866 0.206714
0.7205 0.501778 0.198871
0.785916 0.460761 0.205097
0.799283 0.451484 0.19469
0.0528572 0.521462 0.111833
0.0536507 0.511635 0.0832227
0.0542763 0.506065 0.0739605
0.156146 0.53756 0.0787976
0.5205 0.626566 0.162341
0.647059 0.637171 0.179721
0.766445 0.629099 0.231342
0.812055 0.634974 0.26685
0.831373 0.642267 0.294133
0.106203 0.604395 0.135882
0.108598 0.598199 0.115328
0.106493 0.593942 0.1075
0.109468 0.590402 0.0966201
0.422019 0.68072 0.15642
0.677943 0.73872 0.214191
0.766964 0.748135 0.266911
0.84744 0.750454 0.338659
0.88127 0.757321 0.379034
0.184604 0.66894 0.161456
0.177935 0.665858 0.162783
0.175067 0.66244 0.159869
0.174655 0.658549 0.152178
0.35108 0.695262 0.188602
0.655909 0.816541 0.318318
0.795972 0.839124 0.365759
0.857786 0.849531 0.402762
0.907088 0.853483 0.451759
0.200153 0.675303 0.155703
0.194873 0.675563 0.162173
0.194873 0.675563 0.162173
0.200153 0.675303 0.155703
0.278538 0.687144 0.166842
0.62652 0.826383 0.345602
0.811749 0.873442 0.413962
0.867475 0.888212 0.446601
0.90692 0.895247 0.485695
0.0402228 0.0537728 0.145769
0.0478676 0.0520638 0.164675
0.129992 0.0401465 0.172534
0.21915 0.0397498 0.149172
0.314931 0.0366827 0.125948
0.380529 0.0341802 0.123125
0.443122 0.0325628 0.121584
0.492348 0.033814 0.126696
0.49543 0.0327001 0.118776
0.0407263 0.0842451 0.156252
0.044831 0.0739757 0.1879
0.135515 0.047364 0.206348
0.240085 0.0402991 0.172625
0.33051 0.037644 0.139208
0.382528 0.0341802 0.123461
0.445319 0.032517 0.121569
0.502113 0.0331731 0.119493
0.504662 0.0318608 0.110674
0.0452735 0.158953 0.166354
0.0435798 0.159823 0.186358
0.153216 0.172625 0.264012
0.340246 0.150896 0.254368
0.440192 0.134951 0.23003
0.51017 0.110765 0.223148
0.563226 0.0830854 0.215305
0.553445 0.0501564 0.171893
0.513878 0.0339513 0.11899
0.0476539 0.261952 0.216327
0.0474403 0.254673 0.206485
0.125017 0.317098 0.266346
0.367636 0.348302 0.305364
0.537011 0.32842 0.290364
0.636469 0.30428 0.293706
0.724483 0.238743 0.288609
0.747921 0.187762 0.266743
0.64799 0.119554 0.205661
0.0482032 0.416999 0.269627
0.0471199 0.409827 0.251682
0.0500649 0.416876 0.237842
0.256718 0.47483 0.269734
0.500786 0.514977 0.311971
0.634882 0.498711 0.323384
0.725429 0.468574 0.308125
0.82153 0.406027 0.289631
0.812711 0.364889 0.274784
0.0600748 0.552392 0.308492
0.0571908 0.54081 0.261265
0.0549935 0.531151 0.229801
0.137484 0.550866 0.233219
0.421286 0.594873 0.290318
0.626734 0.64213 0.329931
0.755154 0.623301 0.371954
0.809216 0.635142 0.350256
0.841764 0.642435 0.337636
0.0880598 0.635172 0.315587
0.0845045 0.624857 0.278782
0.0825208 0.615106 0.24564
0.0813153 0.608682 0.23122
0.318044 0.638773 0.224674
0.629602 0.743297 0.333272
0.75494 0.765362 0.364935
0.856001 0.758251 0.418448
0.892546 0.766079 0.421378
0.15964 0.690242 0.341558
0.154818 0.681086 0.306447
0.151568 0.67364 0.28188
0.147982 0.668162 0.267399
0.28983 0.691112 0.252598
0.581674 0.786999 0.362905
0.7738 0.848386 0.399664
0.851743 0.858305 0.431312
0.907698 0.854948 0.461524
0.184665 0.70074 0.335119
0.18117 0.695094 0.308125
0.181628 0.691066 0.286
0.182437 0.687984 0.267369
0.25536 0.692485 0.256016
0.566003 0.801312 0.364034
0.800565 0.884886 0.435264
0.860807 0.895048 0.464408
0.904753 0.895247 0.483589
0.04065 0.0612345 0.207431
0.041886 0.0617227 0.225544
0.0929427 0.0429694 0.254902
0.198566 0.0427405 0.241047
0.306081 0.0406958 0.217075
0.388251 0.0422675 0.211933
0.467643 0.039292 0.190906
0.509041 0.0402533 0.175769
0.505196 0.0393835 0.164233
0.041062 0.0682841 0.215503
0.0409705 0.0630961 0.223743
0.0712444 0.0428473 0.259617
0.191333 0.0428931 0.244846
0.30399 0.0408789 0.221271
0.390402 0.0425879 0.217166
0.471717 0.0395361 0.19353
0.510323 0.0408179 0.178027
0.513039 0.0389105 0.160739
0.0419928 0.158465 0.238025
0.0419165 0.146746 0.258885
0.111315 0.145632 0.326833
0.293111 0.12079 0.351171
0.40557 0.107866 0.33077
0.487175 0.0959945 0.311986
0.528359 0.0619974 0.253773
0.518761 0.043473 0.190143
0.512047 0.0390478 0.161685
0.0435035 0.263401 0.277531
0.0434577 0.256199 0.267552
0.064332 0.290562 0.320638
0.306981 0.320394 0.428351
0.527352 0.314092 0.444327
0.638315 0.30338 0.42855
0.734539 0.26746 0.417609
0.787808 0.235935 0.411551
0.750423 0.197848 0.372335
0.0471656 0.417533 0.356756
0.0462043 0.408377 0.348241
0.0481575 0.406943 0.341421
0.260533 0.482002 0.426154
0.503319 0.50634 0.46949
0.651576 0.485695 0.447883
0.756237 0.455116 0.430854
0.835019 0.407782 0.415412
0.839979 0.362951 0.388586
0.0682689 0.558785 0.427192
0.0642252 0.55256 0.414908
0.0628519 0.547692 0.398932
0.14049 0.575784 0.412894
0.405753 0.600488 0.429526
0.613199 0.639323 0.46952
0.742855 0.614191 0.467918
0.805722 0.606271 0.444984
0.849515 0.589593 0.431403
0.102113 0.655711 0.461463
0.0986343 0.649821 0.435569
0.09691 0.642695 0.403861
0.0911574 0.63534 0.378073
0.311086 0.655634 0.381216
0.551247 0.709575 0.445914
0.74139 0.766705 0.502693
0.844373 0.755474 0.546578
0.880537 0.764202 0.537362
0.176699 0.716899 0.480262
0.167193 0.711254 0.459266
0.158953 0.703609 0.434134
0.150912 0.695308 0.408301
0.258732 0.710826 0.391287
0.510109 0.752331 0.435584
0.729793 0.838407 0.534676
0.836316 0.865522 0.56907
0.90193 0.863767 0.605493
0.214771 0.742611 0.498894
0.209918 0.736431 0.474571
0.201526 0.728389 0.444846
0.196033 0.723598 0.42623
0.239551 0.729046 0.417823
0.5037 0.780179 0.455573
0.73492 0.872679 0.581308
0.837507 0.913298 0.622507
0.892103 0.926787 0.648783
0.0415961 0.0711833 0.271595
0.0416876 0.0722667 0.284672
0.0658579 0.0648203 0.312078
0.176867 0.0465858 0.331701
0.289311 0.0440986 0.311528
0.38204 0.045655 0.307378
0.470314 0.0498817 0.289311
0.529946 0.0553292 0.265797
0.527184 0.0557565 0.261021
0.0415503 0.0707256 0.266224
0.0416114 0.071458 0.274784
0.0545968 0.0689555 0.308034
0.165652 0.0466773 0.337301
0.288396 0.0441444 0.316518
0.384726 0.0461585 0.313634
0.475227 0.051194 0.296086
0.530083 0.0582742 0.27602
0.527779 0.0571298 0.268421
0.0419471 0.144823 0.321248
0.0419776 0.125383 0.322194
0.0662852 0.118791 0.371878
0.226337 0.0832532 0.406546
0.346654 0.0633707 0.380514
0.413245 0.0499886 0.346242
0.476936 0.0519417 0.300954
0.531411 0.059266 0.278813
0.527489 0.0580301 0.272267
0.0427863 0.270115 0.341588
0.0428321 0.252323 0.340002
0.046128 0.272068 0.382605
0.24625 0.285161 0.488136
0.490074 0.286061 0.555611
0.626612 0.286915 0.556176
0.732326 0.270314 0.532799
0.774762 0.232349 0.487541
0.699809 0.180285 0.436118
0.0445411 0.423377 0.428794
0.0444495 0.416205 0.413153
0.0445869 0.407736 0.400671
0.177127 0.461418 0.486473
0.451575 0.474098 0.57499
0.650614 0.477592 0.591791
0.764675 0.4495 0.554971
0.83621 0.417609 0.546883
0.84004 0.394156 0.534844
0.0644541 0.560601 0.507713
0.0651713 0.552026 0.489647
0.0630045 0.544274 0.480629
0.132937 0.570611 0.507881
0.415656 0.608148 0.563973
0.611688 0.631952 0.602243
0.755032 0.606394 0.569528
0.830427 0.589136 0.55256
0.860319 0.576089 0.542977
0.110445 0.654368 0.541665
0.108736 0.649882 0.525246
0.104524 0.645792 0.513176
0.0998703 0.641764 0.499596
0.327382 0.680262 0.530037
0.543755 0.716274 0.558404
0.730495 0.760449 0.603265
0.832746 0.748974 0.618067
0.869627 0.747417 0.603738
0.184756 0.723476 0.572244
0.177646 0.720943 0.559853
0.171649 0.716838 0.539666
0.169223 0.709957 0.512901
0.266758 0.733486 0.51252
0.515221 0.768231 0.547951
0.689738 0.816907 0.609903
0.826719 0.861814 0.658106
0.895476 0.860792 0.694987
0.240223 0.764614 0.600351
0.235294 0.7617 0.584268
0.233722 0.756558 0.559136
0.227863 0.751858 0.536751
0.257481 0.75819 0.529809
0.517678 0.806806 0.570642
0.695415 0.855238 0.64097
0.818967 0.904967 0.701686
0.881529 0.925933 0.738659
0.0418708 0.0821698 0.325704
0.0419013 0.0822156 0.331426
0.0488899 0.0811627 0.367742
0.13344 0.0491798 0.403861
0.28394 0.0482032 0.396521
0.368688 0.0498054 0.388342
0.466728 0.0554971 0.369314
0.534783 0.0724346 0.350637
0.534157 0.0775769 0.355795
0.0418555 0.0823377 0.323949
0.0419013 0.0825666 0.331106
0.0442054 0.0832532 0.366873
0.122988 0.0491493 0.408728
0.283482 0.0492256 0.404501
0.371572 0.0504311 0.394553
0.466316 0.0576333 0.380224
0.533288 0.0762036 0.364096
0.534798 0.0791333 0.365774
0.0422217 0.126513 0.373373
0.0422065 0.106981 0.362463
0.0436408 0.0979324 0.390372
0.13579 0.0513313 0.431144
0.285756 0.0509194 0.417456
0.37174 0.0509651 0.399573
0.467536 0.0587625 0.386542
0.53431 0.0770886 0.368658
0.534218 0.0801556 0.371496
0.0435798 0.272908 0.41239
0.0434424 0.249302 0.417426
0.0435035 0.256077 0.449912
0.189883 0.259129 0.54226
0.426322 0.247776 0.623667
0.590661 0.253742 0.640146
0.697734 0.238834 0.620859
0.724712 0.209537 0.562707
0.585138 0.117647 0.429389
0.0443732 0.436774 0.482063
0.0440223 0.421027 0.479912
0.0437629 0.403967 0.473335
0.119936 0.442863 0.551873
0.384451 0.43949 0.634409
0.617792 0.45774 0.707958
0.767681 0.454337 0.697475
0.844999 0.434806 0.671199
0.848157 0.409293 0.657893
0.0644236 0.564385 0.562493
0.0610819 0.558633 0.555795
0.0619669 0.552285 0.541573
0.0747845 0.557137 0.546471
0.34699 0.586786 0.624079
0.563897 0.599191 0.693965
0.757214 0.604181 0.704631
0.838071 0.584314 0.673411
0.864607 0.567514 0.666957
0.119738 0.653269 0.594217
0.112032 0.64828 0.590188
0.112749 0.642145 0.577203
0.106996 0.636149 0.570031
0.326558 0.678386 0.625513
0.554025 0.725704 0.684855
0.727733 0.752728 0.721325
0.835615 0.738476 0.693965
0.879164 0.732174 0.687648
0.188296 0.720119 0.627405
0.179934 0.717189 0.622477
0.179873 0.711818 0.607187
0.173678 0.707362 0.598032
0.282338 0.743267 0.626184
0.533211 0.789807 0.672251
0.690044 0.82295 0.70164
0.818616 0.854582 0.735637
0.885908 0.856428 0.75848
0.244404 0.766186 0.656214
0.240406 0.765591 0.652277
0.237629 0.761685 0.638865
0.235935 0.757519 0.620645
0.268772 0.769894 0.623438
0.534859 0.826871 0.674189
0.698314 0.865232 0.719188
0.804547 0.894194 0.757275
0.874525 0.919432 0.789029
0.0420539 0.0924544 0.356603
0.0420691 0.0923629 0.358694
0.0429999 0.0946975 0.403204
0.0997024 0.0819867 0.445716
0.249287 0.0595254 0.474571
0.364233 0.0579538 0.464439
0.446372 0.065156 0.447059
0.526833 0.0843214 0.429648
0.536828 0.0915999 0.434821
0.0420386 0.0928969 0.355825
0.0420844 0.0927138 0.359823
0.0422675 0.0959029 0.396262
0.0963302 0.0884108 0.44596
0.250217 0.060914 0.480186
0.366354 0.0592203 0.469566
0.449409 0.0669718 0.452079
0.526436 0.0872663 0.438819
0.535958 0.0932326 0.444022
0.0423896 0.116945 0.390707
0.0421302 0.100053 0.373114
0.0422827 0.0982986 0.393393
0.0983139 0.094316 0.443915
0.245777 0.0621347 0.484276
0.367376 0.060029 0.474037
0.450278 0.0682536 0.45478
0.526146 0.0888991 0.444678
0.535729 0.0940414 0.44828
0.0437324 0.27509 0.474189
0.0435035 0.253559 0.47158
0.0433356 0.250324 0.481132
0.148043 0.259724 0.588998
0.359731 0.227802 0.666194
0.569863 0.240314 0.706615
0.650309 0.21976 0.66305
0.65713 0.183795 0.585412
0.538521 0.096376 0.452811
0.044007 0.444862 0.539315
0.0441444 0.428122 0.539986
0.0441901 0.412573 0.535653
0.0940566 0.443122 0.616297
0.338308 0.426734 0.682719
0.551293 0.428305 0.755657
0.750027 0.45214 0.78735
0.842298 0.436484 0.774762
0.851514 0.405722 0.764981
0.0726482 0.574716 0.600809
0.0662242 0.566155 0.599344
0.0630655 0.555352 0.595499
0.0640879 0.545663 0.594598
0.298863 0.568582 0.673259
0.516289 0.57409 0.738827
0.732158 0.597406 0.799298
0.842557 0.59527 0.788647
0.87686 0.582635 0.779355
0.129076 0.656123 0.632654
0.12166 0.651942 0.630335
0.118624 0.647135 0.625025
0.118822 0.640467 0.614618
0.259815 0.670192 0.657542
0.512352 0.710384 0.733745
0.697688 0.731441 0.793713
0.838956 0.735729 0.800397
0.887434 0.727321 0.787823
0.195041 0.720699 0.656733
0.184237 0.717037 0.655756
0.178302 0.712032 0.650706
0.177707 0.705364 0.639902
0.291249 0.741436 0.681025
0.542306 0.792813 0.744976
0.699275 0.830137 0.791623
0.818341 0.848753 0.816876
0.885145 0.845014 0.806165
0.243137 0.763958 0.685252
0.237797 0.762448 0.682857
0.232242 0.758038 0.67686
0.235035 0.751812 0.663478
0.302815 0.77847 0.689982
0.555566 0.8383 0.755718
0.705379 0.875196 0.795743
0.809339 0.896559 0.816648
0.869978 0.912108 0.836423
0.0422217 0.099855 0.385077
0.0422217 0.0997177 0.385641
0.0424353 0.103029 0.41239
0.078645 0.102724 0.459541
0.199176 0.0707408 0.50634
0.345861 0.0778058 0.514672
0.432975 0.0770275 0.494072
0.511788 0.0957809 0.488182
0.532464 0.103593 0.492088
0.0422217 0.10013 0.385657
0.042237 0.10016 0.387717
0.0423896 0.102922 0.40618
0.0770275 0.10367 0.460563
0.206271 0.0728923 0.509468
0.351644 0.0794232 0.517357
0.437797 0.0789654 0.49633
0.513939 0.0971542 0.491661
0.531731 0.104448 0.495415
0.0426184 0.13695 0.435691
0.0425422 0.129213 0.430579
0.0426032 0.128344 0.446799
0.093843 0.111116 0.481743
0.218784 0.0770275 0.517983
0.353964 0.0804303 0.518624
0.439124 0.079881 0.498222
0.514046 0.0979324 0.49427
0.53164 0.104829 0.497276
0.044358 0.303304 0.519921
0.0439307 0.289235 0.516808
0.0439612 0.283787 0.516991
0.129763 0.307057 0.633204
0.331701 0.285496 0.700542
0.559167 0.286778 0.772
0.675029 0.266575 0.746014
0.686854 0.225071 0.672511
0.55227 0.117082 0.519341
0.0460822 0.46331 0.586755
0.045594 0.452644 0.58497
0.0454261 0.441413 0.582376
0.0913405 0.471794 0.662623
0.316228 0.44947 0.71957
0.50454 0.433906 0.781949
0.743297 0.472236 0.846738
0.8318 0.456794 0.833799
0.847715 0.426749 0.823011
0.0776226 0.581811 0.633265
0.0727092 0.573907 0.634134
0.0681163 0.563745 0.633036
0.0690166 0.557931 0.636301
0.292653 0.576226 0.712505
0.496406 0.579873 0.769635
0.697932 0.594415 0.834211
0.832242 0.608011 0.850889
0.881285 0.595758 0.845792
0.136294 0.667353 0.658457
0.130114 0.663493 0.656733
0.12398 0.656504 0.654978
0.119265 0.647074 0.652232
0.251774 0.671794 0.700633
0.508293 0.706676 0.770932
0.680171 0.724788 0.826535
0.82652 0.739132 0.862593
0.89192 0.736278 0.856672
0.19881 0.725689 0.680552
0.192126 0.722042 0.679835
0.186816 0.717647 0.675929
0.18233 0.712184 0.671016
0.252918 0.73637 0.69926
0.519814 0.789288 0.763516
0.690974 0.828397 0.822477
0.816999 0.843549 0.858656
0.887144 0.842741 0.859968
0.243214 0.765545 0.701106
0.239643 0.763134 0.698848
0.233814 0.758495 0.694804
0.228275 0.753491 0.689937
0.319081 0.783749 0.72221
0.570123 0.841627 0.78996
0.716808 0.879011 0.836423
0.813947 0.898604 0.862669
0.873976 0.908995 0.875212
