bundles/resolve-cinematic-luts/Phantom Luts/DJI/DJI Phntm Film LUTs - G3/Mavic 3 Pro D-Log-M/Eastman RM - M3P D-LogM.cube
TITLE "Generated by Resolve"
LUT_3D_SIZE 65
0.0444648 0.0326848 0.0362097
0.045655 0.0327153 0.0362249
0.047837 0.0322576 0.0359655
0.0536202 0.03093 0.0354467
0.0607156 0.0296483 0.0350347
0.0683757 0.0286107 0.0348821
0.0782025 0.0282292 0.0347601
0.0904097 0.0283055 0.0348211
0.102007 0.0281071 0.0348211
0.113939 0.0281071 0.0350347
0.123812 0.0278477 0.0349432
0.133196 0.0278477 0.0351263
0.141176 0.0278019 0.0352941
0.148989 0.0275883 0.0353094
0.156359 0.0274357 0.035172
0.163531 0.0273136 0.0352026
0.170886 0.0273136 0.0353246
0.178531 0.0272526 0.0354009
0.185428 0.0272221 0.0354772
0.192615 0.0270085 0.0354009
0.199527 0.0267491 0.0351873
0.207263 0.0267033 0.0352941
0.215534 0.026627 0.0354009
0.224231 0.0264286 0.0355077
0.23241 0.0262608 0.035462
0.242344 0.025803 0.0348974
0.251255 0.0256199 0.0345617
0.261799 0.025452 0.0344854
0.271626 0.02533 0.0345617
0.280568 0.0251621 0.0346227
0.289403 0.0251011 0.0345006
0.29691 0.0251774 0.0345159
0.307607 0.0254215 0.0346838
0.314336 0.0256504 0.0348974
0.31812 0.0260166 0.0352331
0.321294 0.0264134 0.0359503
0.327459 0.0269322 0.0366522
0.332891 0.0272831 0.0368811
0.339605 0.0274815 0.0370184
0.346624 0.0274357 0.0369879
0.354665 0.0276188 0.0372625
0.362081 0.027863 0.0376135
0.369055 0.0281071 0.0379644
0.375845 0.0282597 0.0381323
0.381628 0.0281987 0.0380865
0.390723 0.0283818 0.0383307
0.399619 0.0284123 0.0383764
0.410544 0.0284886 0.0384985
0.421347 0.0279393 0.0380865
0.429175 0.0277562 0.037644
0.437491 0.0279393 0.0374762
0.442908 0.0280613 0.0376898
0.44918 0.028275 0.0380255
0.454826 0.028397 0.0384222
0.459083 0.0282902 0.0383764
0.464164 0.0283818 0.0385748
0.469047 0.0285039 0.0390021
0.474342 0.0286412 0.0392004
0.478447 0.028809 0.0395514
0.48159 0.0289158 0.0399786
0.483558 0.0290837 0.0402228
0.483742 0.0291295 0.0402533
0.483742 0.0291295 0.0402533
0.481498 0.0293126 0.0406195
0.475837 0.0297856 0.0415198
0.0434577 0.0354772 0.0370336
0.0444038 0.0354009 0.0369726
0.0465705 0.0346532 0.0365148
0.053254 0.0336461 0.035935
0.0608835 0.0327916 0.0354772
0.0682536 0.0317998 0.0352636
0.0775769 0.0306096 0.0348821
0.088426 0.0293431 0.0347906
0.0994888 0.0287633 0.0348058
0.111376 0.0285191 0.0349584
0.121096 0.0277867 0.0348516
0.129839 0.0278935 0.0350958
0.138476 0.0278477 0.0352789
0.146654 0.0276951 0.0353399
0.154253 0.0275578 0.0353094
0.161456 0.0273289 0.0351568
0.168963 0.0272984 0.0352636
0.176638 0.0272526 0.0353704
0.183902 0.0272068 0.035462
0.191043 0.0270695 0.0354314
0.197971 0.0267643 0.0352026
0.204807 0.0267185 0.0352636
0.212955 0.0266423 0.0353704
0.221027 0.0265049 0.0354772
0.229496 0.0263676 0.0355688
0.238193 0.0260166 0.0352789
0.24686 0.0257572 0.0348058
0.25655 0.0256046 0.034638
0.267109 0.0254063 0.0345464
0.276051 0.0252384 0.0346075
0.2851 0.0251316 0.0345617
0.29305 0.0251316 0.0345006
0.301946 0.0253147 0.0346075
0.309346 0.0256046 0.0348821
0.31371 0.0260014 0.0352789
0.315938 0.0264134 0.0359808
0.321904 0.0267338 0.0364996
0.327382 0.0271458 0.036759
0.334936 0.0273442 0.0369421
0.342229 0.0275578 0.0371252
0.349157 0.0274662 0.0370489
0.357259 0.0277104 0.0373999
0.364691 0.027924 0.0378424
0.370977 0.0281682 0.037995
0.377356 0.0282444 0.0381018
0.384115 0.028275 0.0381933
0.392233 0.0284886 0.0384527
0.401038 0.028809 0.0384527
0.412146 0.0286717 0.0387121
0.421729 0.027985 0.0382696
0.430945 0.0280003 0.0376287
0.43949 0.0280308 0.0376135
0.445136 0.0281529 0.0378271
0.451865 0.028336 0.0382086
0.456703 0.0283207 0.0383612
0.461784 0.0283207 0.0384375
0.46717 0.0284428 0.0388647
0.472068 0.0285649 0.0390936
0.476173 0.0287022 0.0393378
0.480201 0.0288548 0.0397498
0.482322 0.0289311 0.0400549
0.483742 0.0291295 0.0402533
0.483742 0.0291295 0.0402533
0.481498 0.0293126 0.0406195
0.475807 0.0297856 0.0415351
0.0435187 0.0383307 0.0375219
0.0442664 0.0386664 0.0379187
0.0459754 0.0383001 0.0375067
0.0525673 0.0374151 0.0368353
0.0597391 0.0371252 0.0362554
0.0676127 0.03682 0.0359197
0.0754559 0.0363775 0.0357366
0.0850233 0.0355993 0.0356146
0.096025 0.034287 0.0355993
0.107073 0.0329442 0.0356146
0.117891 0.0310979 0.0350805
0.127489 0.0308995 0.0350347
0.135821 0.0305791 0.035172
0.14406 0.0301823 0.0351263
0.152316 0.0297551 0.0352331
0.160571 0.0293278 0.0352331
0.168627 0.0289006 0.0354162
0.176394 0.0282902 0.035523
0.184222 0.0272526 0.0354772
0.192004 0.0270085 0.0354009
0.198825 0.0267338 0.035172
0.206394 0.0267033 0.0352789
0.214649 0.0266117 0.0353857
0.223194 0.0264439 0.0354772
0.231525 0.0263218 0.0355688
0.239536 0.0259709 0.0352636
0.247807 0.0257877 0.0349584
0.256901 0.0256962 0.0348211
0.266194 0.0255283 0.0347295
0.275715 0.0253147 0.0346075
0.28484 0.0251621 0.0346075
0.292622 0.0251164 0.0345006
0.301015 0.0252995 0.0346075
0.307973 0.0255741 0.0348669
0.312612 0.0259861 0.0352636
0.314794 0.0264286 0.035996
0.318608 0.0267033 0.0364691
0.324422 0.0271 0.0367285
0.332067 0.0272526 0.0368505
0.339208 0.0274815 0.0370184
0.346181 0.0274357 0.0370031
0.353216 0.0275578 0.0372015
0.360357 0.0277867 0.0375219
0.367437 0.0280461 0.0379187
0.374334 0.0282902 0.0381323
0.380621 0.0281834 0.0380713
0.387396 0.028397 0.0383307
0.394827 0.0285801 0.0385595
0.40383 0.0289311 0.0385901
0.41384 0.0287633 0.038819
0.423972 0.0280919 0.0384985
0.434089 0.0280766 0.0378424
0.442496 0.0280919 0.0377203
0.448768 0.028275 0.0380102
0.45452 0.028397 0.0384222
0.459815 0.0282902 0.0383917
0.465171 0.028397 0.0386511
0.469841 0.0285191 0.0390478
0.474159 0.0286412 0.0392004
0.47834 0.028809 0.0395514
0.481575 0.0289158 0.0399786
0.483085 0.0290227 0.0401617
0.483742 0.0291295 0.0402533
0.481468 0.0293126 0.0406195
0.475746 0.0297856 0.0415351
0.043473 0.0468757 0.0372473
0.043473 0.0476692 0.0377966
0.0447852 0.0480964 0.0383154
0.0508888 0.0476234 0.0377356
0.0594186 0.0462043 0.0378271
0.0691234 0.0457008 0.0373999
0.0787671 0.0446479 0.0367437
0.0889296 0.0442969 0.0365148
0.0989853 0.0436713 0.0363622
0.109499 0.0431373 0.0363165
0.118669 0.0421149 0.036286
0.127352 0.0414282 0.0362249
0.1355 0.0407416 0.0363165
0.143923 0.0398413 0.0364843
0.15201 0.0389258 0.0366674
0.159854 0.038056 0.03682
0.167727 0.0362097 0.0364385
0.176455 0.0340887 0.0361334
0.185336 0.031693 0.0357061
0.194125 0.0306554 0.0355383
0.202304 0.0295567 0.0353857
0.210941 0.0283513 0.0355535
0.219501 0.0271458 0.0355077
0.228717 0.0266575 0.035584
0.2374 0.0260929 0.0353857
0.245609 0.0258335 0.0350652
0.254292 0.0257877 0.0349737
0.262928 0.0257115 0.0349737
0.271916 0.0255436 0.0349126
0.281041 0.0254215 0.0348363
0.289677 0.0252384 0.0346227
0.298695 0.0252842 0.034638
0.307332 0.0254215 0.034699
0.313298 0.0256809 0.0349584
0.317052 0.0260471 0.0352941
0.318791 0.0264286 0.0360113
0.323369 0.0268101 0.0365454
0.328649 0.0271611 0.0367895
0.335241 0.0273594 0.0369573
0.341436 0.0275731 0.0371405
0.347555 0.027451 0.0370184
0.354086 0.0276188 0.0372625
0.361044 0.0278325 0.037583
0.367468 0.0280613 0.0379187
0.374014 0.0282902 0.0381323
0.380148 0.0281682 0.0380407
0.386648 0.0283818 0.0383154
0.392996 0.0285954 0.0385901
0.400137 0.0290532 0.0387579
0.408545 0.0290684 0.0391394
0.418128 0.0284733 0.038819
0.429252 0.0282597 0.0383612
0.438514 0.0282292 0.0381476
0.446555 0.0282597 0.0380255
0.453269 0.028397 0.0383917
0.458701 0.0282902 0.0383459
0.463859 0.0283665 0.0385595
0.468864 0.0284886 0.0390021
0.473503 0.0286259 0.0391699
0.477562 0.028748 0.0394446
0.481239 0.0289158 0.0399481
0.482841 0.0289616 0.040116
0.483742 0.0291295 0.0402533
0.481453 0.0293126 0.0406195
0.475685 0.0297856 0.0415503
0.0437324 0.05449 0.037232
0.0433509 0.0552987 0.0376135
0.044358 0.0561227 0.0382391
0.0505531 0.0563668 0.0385901
0.055848 0.0564584 0.0383612
0.0657511 0.0543984 0.0386969
0.0776989 0.0523384 0.0377966
0.0919051 0.0509346 0.0373388
0.104906 0.049958 0.0369116
0.11426 0.0496071 0.0367132
0.122972 0.0491951 0.0366064
0.131548 0.0484016 0.0366522
0.13991 0.0476997 0.0365606
0.148058 0.0470893 0.0366979
0.155917 0.0463111 0.0367742
0.16405 0.0456703 0.0370184
0.172 0.0450294 0.0373083
0.179934 0.0442664 0.037583
0.188067 0.0430915 0.0376593
0.195377 0.0419776 0.0376898
0.203418 0.0404212 0.0378271
0.213046 0.0380255 0.0374151
0.222797 0.0354467 0.0367132
0.233265 0.0326696 0.0363165
0.243458 0.0302739 0.035523
0.253574 0.0286412 0.0354467
0.262562 0.0274205 0.0354925
0.271199 0.026154 0.0354009
0.279942 0.0255589 0.03505
0.288991 0.0254063 0.0347906
0.298924 0.0255436 0.0348058
0.307683 0.0256809 0.0350042
0.316258 0.025803 0.03505
0.322805 0.0258488 0.0350958
0.325978 0.0261234 0.0354162
0.328405 0.0266575 0.0362097
0.331289 0.0270695 0.0367285
0.335546 0.0273899 0.0369879
0.341176 0.0275883 0.0371557
0.346914 0.027451 0.0370336
0.353124 0.0275731 0.037232
0.358968 0.0277714 0.0375067
0.365194 0.027985 0.0378729
0.370932 0.0281987 0.037995
0.376883 0.0282597 0.038117
0.38262 0.0282597 0.0381781
0.388998 0.0284886 0.0384375
0.395346 0.0286717 0.0386664
0.401434 0.0291447 0.0389105
0.40795 0.029221 0.0393835
0.415396 0.028809 0.039292
0.42504 0.0286717 0.0387121
0.43534 0.0284276 0.0385748
0.44477 0.0283055 0.0383459
0.452476 0.0283818 0.0383917
0.458244 0.0282902 0.0382849
0.463218 0.0283665 0.0385138
0.468376 0.0284733 0.0389563
0.473152 0.0286107 0.0391394
0.477333 0.028748 0.0394293
0.480949 0.0289006 0.0398871
0.482887 0.0289769 0.0401312
0.483742 0.0291295 0.0402533
0.481422 0.0293126 0.0406195
0.475624 0.0297856 0.0415656
0.044358 0.0629892 0.0378882
0.0436866 0.0635538 0.0382391
0.0446021 0.0644388 0.0386511
0.0489052 0.065156 0.0391699
0.0547646 0.0658732 0.0389258
0.0606851 0.06598 0.0390021
0.073228 0.0634165 0.0392615
0.0888533 0.0609751 0.0387427
0.106035 0.0587167 0.0382086
0.119692 0.0573434 0.038056
0.129427 0.0568093 0.0376898
0.138018 0.0563668 0.0374456
0.145266 0.0556802 0.0373236
0.152987 0.0552529 0.037232
0.161044 0.0547951 0.0373846
0.169268 0.0542611 0.037583
0.177157 0.053315 0.037644
0.185138 0.051957 0.0378119
0.193378 0.0509957 0.0378729
0.202304 0.0503395 0.0381323
0.2112 0.0488289 0.038117
0.220417 0.0475166 0.0380102
0.229938 0.0458076 0.0381323
0.239597 0.0441901 0.0382849
0.248478 0.0425116 0.038117
0.258427 0.0403754 0.0378882
0.267964 0.0375067 0.0373083
0.277897 0.0350195 0.0368353
0.287449 0.0322271 0.036408
0.298085 0.0299077 0.035935
0.307805 0.0274968 0.0355993
0.316197 0.0261997 0.0353857
0.324956 0.0259403 0.0352483
0.332509 0.0261082 0.0353857
0.337819 0.0265202 0.035874
0.340566 0.0270542 0.0366827
0.343389 0.0274662 0.0370184
0.347387 0.0274968 0.0371099
0.352865 0.0276036 0.0372778
0.357977 0.0277714 0.0375067
0.362997 0.0279393 0.0377356
0.36788 0.0281071 0.0379339
0.372412 0.0282444 0.038056
0.377096 0.0282597 0.038117
0.381964 0.0282444 0.0381628
0.38761 0.0284428 0.0383764
0.392737 0.0286107 0.0386206
0.39852 0.0290379 0.0387732
0.404807 0.0291905 0.0393072
0.410483 0.0292668 0.0394751
0.416312 0.0289464 0.0395209
0.423835 0.0290074 0.0392004
0.433417 0.0288396 0.0389563
0.443214 0.0286259 0.03888
0.451972 0.0285039 0.0388037
0.458122 0.0282902 0.0383459
0.462745 0.0283513 0.0384985
0.467979 0.0284581 0.0389258
0.472892 0.0285954 0.0391241
0.476814 0.0287327 0.0393988
0.48069 0.0288853 0.0398566
0.483131 0.0290227 0.0401617
0.483742 0.0291295 0.0402533
0.481392 0.0293126 0.0406348
0.475532 0.0298009 0.0415808
0.0449836 0.0717632 0.0383917
0.0441901 0.0723888 0.0389105
0.0442359 0.0737621 0.0392157
0.0477455 0.074464 0.0393378
0.0549935 0.0756085 0.039765
0.060029 0.0763409 0.0396887
0.0678264 0.0763561 0.0397803
0.082826 0.0737621 0.0403449
0.100893 0.0706645 0.0396582
0.117845 0.068452 0.0391394
0.132235 0.0662547 0.038941
0.143236 0.0652781 0.0388952
0.151812 0.0649424 0.0386206
0.160647 0.064683 0.0384527
0.168002 0.0642557 0.0383307
0.175418 0.0634775 0.0382086
0.183581 0.0627298 0.0382086
0.191775 0.0618143 0.0382849
0.200015 0.0607614 0.0383154
0.20853 0.0591897 0.0383001
0.218662 0.057908 0.0383764
0.22858 0.0565805 0.038468
0.238712 0.0552529 0.0384833
0.248829 0.0537423 0.0384833
0.259358 0.0517586 0.0386206
0.269108 0.0496986 0.0386053
0.278248 0.0476844 0.0386206
0.287739 0.0457313 0.0387884
0.296544 0.0440528 0.0387579
0.305409 0.0422065 0.038819
0.315251 0.0394141 0.0383154
0.324254 0.0367132 0.0377356
0.333516 0.0339055 0.0370947
0.341619 0.0317998 0.0370184
0.346868 0.0296788 0.0367285
0.349783 0.0275883 0.0368658
0.353918 0.0276188 0.0375219
0.359365 0.0279088 0.0376898
0.366094 0.0281529 0.0380255
0.372183 0.0283055 0.0381476
0.376745 0.0282902 0.0381476
0.380682 0.0282444 0.0381323
0.384451 0.0283818 0.0383001
0.388052 0.0284733 0.0384222
0.391516 0.0285649 0.0385595
0.395499 0.0287022 0.0387121
0.399527 0.0291142 0.0388647
0.404639 0.0291905 0.0393225
0.408927 0.0292821 0.0394903
0.41387 0.0290074 0.0396124
0.419699 0.0291142 0.0393835
0.425742 0.029221 0.0395514
0.433112 0.0292058 0.0395666
0.442237 0.0290837 0.039353
0.451423 0.0288243 0.0390784
0.458656 0.0284428 0.0387732
0.464836 0.028397 0.0386969
0.468956 0.0285039 0.0390021
0.473167 0.0286107 0.0391394
0.476875 0.0287327 0.0393988
0.480568 0.0288853 0.039826
0.483467 0.0290837 0.0402075
0.483711 0.0291142 0.0402533
0.481346 0.0293278 0.0406348
0.47541 0.0298161 0.0415961
0.0455634 0.0808728 0.038941
0.0446326 0.0808118 0.0391852
0.0445716 0.0825971 0.0397955
0.0470283 0.0844739 0.0401312
0.0536812 0.0852979 0.0407874
0.0616159 0.086183 0.0406348
0.0664988 0.0872053 0.0405432
0.0758373 0.0870527 0.0406348
0.0940108 0.085069 0.0415961
0.110689 0.0817731 0.0412146
0.128099 0.0793774 0.0403296
0.143969 0.0772564 0.0400854
0.155734 0.0756695 0.0400244
0.165331 0.0746777 0.0397955
0.17406 0.0743725 0.0395819
0.181811 0.0735485 0.0393835
0.190356 0.0730449 0.0392309
0.198672 0.0721752 0.0391546
0.207385 0.0706035 0.038941
0.216114 0.0698558 0.038819
0.225452 0.0684367 0.0387121
0.235615 0.0665446 0.0387884
0.246281 0.0652628 0.0389105
0.256764 0.0634928 0.0388342
0.26714 0.0619669 0.0386816
0.277378 0.0605783 0.0388952
0.288365 0.0582742 0.0390021
0.297414 0.0559091 0.0388342
0.306615 0.053666 0.0390173
0.315984 0.0514839 0.0391241
0.32491 0.049546 0.0389868
0.334417 0.047425 0.0392004
0.343343 0.045655 0.0394293
0.349386 0.0440986 0.0399634
0.354482 0.0421302 0.0401312
0.357931 0.0392615 0.040238
0.363043 0.0359655 0.0398566
0.369574 0.0332494 0.0395209
0.37731 0.0299687 0.038529
0.383536 0.0284581 0.0384985
0.388937 0.0286107 0.038819
0.39382 0.0287175 0.0388037
0.398108 0.0290837 0.0388495
0.402029 0.029221 0.0390173
0.405386 0.0292515 0.0393988
0.40734 0.0292821 0.0394903
0.410163 0.0292821 0.0395056
0.413199 0.0290227 0.0396277
0.4159 0.0290227 0.0396429
0.420386 0.0291447 0.0394293
0.42417 0.0292821 0.0396582
0.428931 0.0293431 0.039826
0.434958 0.0294652 0.0400244
0.442008 0.0294804 0.0401617
0.449866 0.0291905 0.0396124
0.458442 0.0287938 0.0391241
0.465904 0.0286412 0.0390478
0.471458 0.0285801 0.0391089
0.475257 0.0286717 0.0392462
0.478447 0.028809 0.0395514
0.481422 0.0289158 0.0399634
0.484108 0.0291752 0.0402991
0.483818 0.0291295 0.0402533
0.4813 0.0293278 0.04065
0.475288 0.0298161 0.0416114
0.0462959 0.090013 0.039353
0.0452735 0.090013 0.0399481
0.0449989 0.0918288 0.0402686
0.0454414 0.0945144 0.0406043
0.0508278 0.0958724 0.0411383
0.0606088 0.097261 0.0420691
0.0688334 0.0972763 0.0417182
0.0753796 0.0982986 0.0416266
0.0874189 0.0982223 0.0419165
0.104433 0.0959793 0.0424811
0.121431 0.0936294 0.0428626
0.138064 0.0902724 0.0420539
0.153719 0.0878004 0.0412146
0.167636 0.0860304 0.0411383
0.178439 0.0841535 0.0412451
0.188296 0.0832532 0.0410773
0.197055 0.082475 0.0406653
0.206043 0.0816205 0.0405127
0.215305 0.0802167 0.0399939
0.225208 0.0790875 0.0397955
0.234699 0.0777142 0.0396277
0.24332 0.0762951 0.0394446
0.253117 0.0742962 0.0393988
0.263951 0.0723583 0.0392004
0.274479 0.0707408 0.0392309
0.28423 0.0692454 0.0391852
0.294926 0.0679484 0.0391546
0.305715 0.066453 0.0393072
0.315114 0.0639048 0.0393225
0.324804 0.0615549 0.0394141
0.334646 0.0591745 0.0396582
0.344305 0.0569162 0.0398718
0.353353 0.0546273 0.0399786
0.361578 0.0528115 0.0404822
0.367041 0.0509499 0.0412757
0.371603 0.0494698 0.041825
0.377371 0.0475929 0.0422827
0.38352 0.0455634 0.0425269
0.390829 0.0423438 0.0419623
0.398993 0.0392615 0.0416571
0.405631 0.0352483 0.0406043
0.411826 0.0314183 0.0394598
0.416678 0.0286259 0.038941
0.420996 0.0285801 0.0390173
0.423926 0.0287327 0.0388037
0.427253 0.0287785 0.0388495
0.429435 0.028809 0.03888
0.431022 0.0288853 0.0389868
0.432792 0.0289158 0.0390478
0.435416 0.0289616 0.0391546
0.437751 0.0290379 0.0392767
0.44065 0.0291447 0.0394598
0.444266 0.029221 0.0396887
0.448493 0.0292668 0.0396582
0.4533 0.0290532 0.0395056
0.460044 0.0289769 0.0395209
0.46717 0.0288396 0.0394293
0.472984 0.0287785 0.0393835
0.477562 0.0287785 0.0394751
0.480735 0.0288853 0.0398566
0.483391 0.0290532 0.0401923
0.485298 0.0292821 0.0403754
0.485176 0.0292821 0.0403601
0.483253 0.0293431 0.0405585
0.478889 0.029572 0.0410468
0.0483101 0.0984817 0.0392004
0.0474098 0.0978103 0.0394141
0.0473182 0.0993973 0.0398108
0.0476692 0.101976 0.040116
0.0520333 0.103929 0.040589
0.0641184 0.105333 0.0417334
0.0771496 0.105821 0.0417487
0.0861372 0.106203 0.0413672
0.0948653 0.106996 0.0413977
0.107836 0.106325 0.0415656
0.123537 0.104372 0.0423438
0.138521 0.102403 0.0429541
0.153338 0.100206 0.0427253
0.166705 0.0977798 0.0422217
0.179599 0.0958572 0.0420233
0.191577 0.0942855 0.0422522
0.202548 0.0926833 0.0425269
0.212696 0.0917678 0.0422827
0.222827 0.0902571 0.0416571
0.23267 0.0883955 0.04094
0.242588 0.0866102 0.0405127
0.252171 0.0852522 0.0403449
0.261036 0.0834516 0.0400244
0.27158 0.0818189 0.0399481
0.281605 0.0803388 0.0397498
0.291676 0.0785992 0.0397345
0.301747 0.0768902 0.0395209
0.312581 0.0757763 0.0396582
0.320775 0.0751812 0.040116
0.326299 0.07364 0.0408942
0.332113 0.0720531 0.0413672
0.341238 0.0698711 0.0414893
0.355901 0.0662242 0.0415045
0.367437 0.0636149 0.0409857
0.37612 0.0615854 0.0412909
0.380941 0.0603494 0.0417182
0.387167 0.0584268 0.0422065
0.393652 0.05626 0.0424048
0.401846 0.0536812 0.04271
0.409018 0.051133 0.0428473
0.415686 0.0485542 0.0430304
0.421393 0.0451972 0.0428626
0.428489 0.0405737 0.0420539
0.433555 0.0356603 0.04094
0.437812 0.0312352 0.0399481
0.44062 0.029221 0.0396124
0.443351 0.0292515 0.0398108
0.445426 0.0293126 0.0398718
0.44625 0.0293431 0.0398566
0.447364 0.0293278 0.0397498
0.448386 0.0293126 0.0397498
0.449363 0.0292821 0.0397498
0.451225 0.0292058 0.0397192
0.453071 0.0292058 0.0398566
0.45623 0.0292668 0.0400397
0.460807 0.0292821 0.0401923
0.466133 0.0292058 0.0401465
0.472206 0.0291142 0.0400854
0.477928 0.0290532 0.040116
0.48246 0.0290532 0.0402533
0.485634 0.0293278 0.0403143
0.486625 0.0294194 0.0404059
0.486748 0.0294194 0.0404059
0.484871 0.0295109 0.040589
0.480201 0.0298009 0.0411841
0.0495766 0.107149 0.0399023
0.0486 0.106615 0.0403449
0.0480964 0.107118 0.0405127
0.0484779 0.11017 0.0408331
0.0495766 0.113222 0.0412451
0.0611276 0.114641 0.0421149
0.0759442 0.115694 0.0431067
0.0898451 0.115908 0.0426795
0.0984817 0.116777 0.0424811
0.107134 0.117433 0.0423133
0.120241 0.116258 0.0426184
0.135348 0.114565 0.0435035
0.149416 0.112428 0.0437934
0.163836 0.110018 0.0438544
0.178729 0.107576 0.0435035
0.192447 0.105608 0.0431678
0.205051 0.103746 0.0432136
0.216785 0.101396 0.043183
0.228519 0.0994278 0.0430457
0.239246 0.0976425 0.0425727
0.250416 0.0959182 0.0420691
0.260624 0.0941939 0.0416571
0.270466 0.0928054 0.0412909
0.279377 0.0911574 0.0408637
0.289555 0.0898604 0.0406958
0.299168 0.0882277 0.0403601
0.309148 0.0864424 0.0403754
0.319097 0.0845197 0.0402991
0.327474 0.0836194 0.0406958
0.332982 0.08365 0.0414435
0.336797 0.0829175 0.042237
0.344427 0.0811322 0.0426032
0.35639 0.0788128 0.0421912
0.37113 0.0755169 0.041474
0.38201 0.0731823 0.0414282
0.38854 0.0715496 0.0416419
0.395148 0.0701152 0.0421912
0.402472 0.0677348 0.0426947
0.410742 0.0652628 0.0429236
0.418479 0.0626535 0.0432288
0.425925 0.0598459 0.0436713
0.433097 0.0568093 0.0439612
0.439475 0.0533455 0.0442817
0.444312 0.0496834 0.0441596
0.44918 0.0452277 0.0437171
0.453437 0.0398566 0.042649
0.457023 0.0346685 0.0416876
0.458213 0.0298314 0.0402533
0.459373 0.0294194 0.0404974
0.460136 0.0294194 0.0405585
0.460533 0.0294194 0.0404822
0.460716 0.0294194 0.0404822
0.461097 0.0294194 0.0404822
0.461814 0.0294347 0.0405127
0.462776 0.0294804 0.0406195
0.464851 0.0295109 0.0406958
0.467597 0.0294957 0.0407721
0.471855 0.0294804 0.0408331
0.476753 0.0294041 0.0408789
0.482017 0.0295872 0.0408789
0.485847 0.0295872 0.0406653
0.488136 0.0297551 0.04065
0.488914 0.0297856 0.0406653
0.486442 0.0297398 0.0407416
0.482002 0.029984 0.0413672
0.0508736 0.115938 0.0408484
0.0498054 0.115373 0.0411231
0.0492256 0.114977 0.0412451
0.049424 0.117922 0.0412909
0.0500649 0.121126 0.0417029
0.057496 0.124086 0.0425574
0.0724956 0.125216 0.0437781
0.0895857 0.125872 0.0439612
0.102419 0.126085 0.0433356
0.110033 0.126787 0.0432136
0.118944 0.127428 0.0432746
0.131395 0.126467 0.0435645
0.146014 0.124117 0.0445258
0.161257 0.122011 0.0454414
0.176013 0.119677 0.0452583
0.191531 0.11693 0.044831
0.206104 0.114488 0.0442206
0.219974 0.112306 0.0436255
0.232837 0.109621 0.0437171
0.244968 0.107424 0.0438849
0.256641 0.105592 0.0434119
0.267903 0.103731 0.0431525
0.27863 0.101686 0.0428931
0.289158 0.100481 0.0424506
0.298497 0.0992142 0.0419928
0.307988 0.0976425 0.0416419
0.317174 0.0965896 0.0416114
0.326543 0.0948806 0.0413825
0.333791 0.0934005 0.0414282
0.339879 0.0922713 0.0417029
0.343404 0.0929732 0.0423438
0.349187 0.0927901 0.0428779
0.358297 0.0915084 0.043061
0.370245 0.0889906 0.0429847
0.381842 0.086305 0.0425574
0.392264 0.0837568 0.0424659
0.401572 0.0814679 0.0426337
0.410285 0.0797131 0.0429389
0.419287 0.077348 0.0434272
0.427787 0.0747234 0.043946
0.43537 0.0719615 0.0444495
0.442786 0.068925 0.045243
0.449699 0.0655222 0.0459144
0.456001 0.061677 0.0463111
0.462135 0.0581979 0.0469062
0.466194 0.0542763 0.046891
0.469917 0.0494698 0.0462348
0.472358 0.0435798 0.0448463
0.473548 0.0380255 0.043534
0.472969 0.0317845 0.0420081
0.473014 0.0303655 0.0420233
0.472282 0.0298466 0.041825
0.472297 0.0298161 0.0417945
0.472053 0.0298009 0.0417334
0.471611 0.0297856 0.0416571
0.472206 0.0297856 0.0417182
0.472847 0.0298314 0.0417792
0.474586 0.0299382 0.041825
0.477119 0.030045 0.0417029
0.480659 0.0300908 0.0415961
0.484886 0.0301823 0.041474
0.488029 0.0302892 0.0414282
0.489845 0.0302739 0.0412451
0.487938 0.0302434 0.0413214
0.483726 0.0303502 0.0418708
0.0519722 0.124147 0.0413977
0.0507973 0.124086 0.041825
0.050309 0.123537 0.0420386
0.0504005 0.125566 0.0420386
0.0506294 0.128893 0.0423743
0.0539254 0.132357 0.0429236
0.0689403 0.134707 0.0442359
0.0854353 0.136019 0.0454261
0.102922 0.13576 0.0447242
0.113771 0.135821 0.0442512
0.121721 0.136828 0.0442359
0.130419 0.137392 0.0443732
0.143297 0.136019 0.0446174
0.158099 0.133608 0.0458076
0.173617 0.131365 0.0467079
0.18912 0.129015 0.0466163
0.205768 0.126268 0.0461891
0.222141 0.122972 0.0452125
0.235355 0.120455 0.0443427
0.25005 0.118517 0.0444038
0.262135 0.116045 0.0446021
0.274434 0.114229 0.0449226
0.28632 0.112428 0.0445411
0.297383 0.110567 0.0442359
0.307439 0.108629 0.0436561
0.316899 0.107027 0.043061
0.326223 0.105394 0.0425422
0.335363 0.104387 0.0419776
0.342153 0.103426 0.0420081
0.347448 0.10251 0.0423285
0.350912 0.102281 0.0428931
0.356497 0.102525 0.0434272
0.364004 0.101946 0.043534
0.373083 0.100832 0.0434882
0.382696 0.0990005 0.0436561
0.392386 0.0971237 0.0437171
0.404242 0.0945296 0.0433814
0.415991 0.0919661 0.0437171
0.427482 0.0890059 0.0440375
0.436133 0.0866407 0.0448005
0.44448 0.0835431 0.0456703
0.452033 0.0809186 0.0463569
0.459815 0.0779736 0.047364
0.467414 0.0746471 0.0481575
0.473243 0.0707408 0.0486
0.478431 0.0669871 0.0494698
0.482444 0.0625925 0.0495918
0.485679 0.0586099 0.049958
0.487755 0.0526131 0.0489967
0.488396 0.0459602 0.0471962
0.487175 0.0404212 0.0454566
0.485267 0.0343328 0.0438697
0.483467 0.0322271 0.0433967
0.481987 0.031281 0.0430915
0.481651 0.0311742 0.0429694
