bundles/resolve-cinematic-luts/Phantom Luts/Apple Log Phantom LUTS/iPhone 15 Phantom ARRI LUTs/WDR Pre-LUT/Apple Log to WDR Pre-LUT.cube
TITLE "Generated by Resolve"
LUT_3D_SIZE 5
0.00932326 0.00932326 0.00932326
0.172885 0.013138 0.0170901
0.560571 0.0380102 0.0948806
0.907851 0.0679179 0.239124
0.958694 0.0037232 0.74583
0.00166323 0.0910811 0.0211948
0.0763714 0.0744182 0.0151522
0.517266 0.0103151 0.0305333
0.84741 0 0.0941482
0.954681 0.0176852 0.720378
0 0.448646 0.149737
0 0.507134 0
0.464942 0.470024 0.0152895
0.924773 0.377615 0.160845
0.919448 0.0598917 0.512245
0 0.872602 0.486488
0 0.890791 0.448478
0.0818189 0.994141 0.0102998
0.824521 0.858534 0.0495613
0.968933 0.779828 0.0755169
0 0.930571 0.904082
0 0.931212 0.899687
0 0.936095 0.867643
0.234257 0.998184 0.640894
0.989242 0.991348 0.611673
0.0118868 0.00428779 0.0982986
0.209888 0.00856031 0.169543
0.613458 0.0359808 0.231113
0.90724 0.0537728 0.324575
0.962097 0 0.766278
0.00166323 0.119554 0.118822
0.0914473 0.0914473 0.0914473
0.584329 0.0471809 0.140536
0.90808 0.0698558 0.248997
0.958785 0.0033875 0.746395
0 0.428138 0.238285
0 0.459968 0.159625
0.463523 0.467948 0.0148775
0.924208 0.368978 0.160204
0.929244 0.0531014 0.56376
0 0.867979 0.525673
0 0.881529 0.495689
0 0.974823 0.144701
0.821759 0.853147 0.0535134
0.967544 0.766354 0.137499
0 0.929931 0.90837
0 0.930617 0.903777
0 0.935042 0.873854
0.145357 0.988785 0.645441
0.98996 0.991592 0.627253
0.00849927 0 0.532921
0.254154 0 0.534066
0.641794 0 0.524346
0.934218 0.0506447 0.58735
0.970993 0 0.824887
0 0.112413 0.378424
0 0.0410773 0.424109
0.602441 0 0.494255
0.92784 0.0539406 0.556878
0.970199 0 0.818906
0 0.392981 0.398566
0 0.395163 0.400778
0.462165 0.462165 0.462165
0.960128 0.43534 0.479652
0.957763 0.00721752 0.739986
0 0.834272 0.628504
0 0.846494 0.621012
0 0.863584 0.496727
0.807248 0.829572 0.4094
0.995865 0.757885 0.518959
0 0.928054 0.928145
0 0.928222 0.92491
0 0.930785 0.902632
0 0.963806 0.722042
0.993332 0.992325 0.690791
0 0.138399 0.81146
0 0.0822309 0.807172
0.532799 0.00645457 0.803967
0.979629 0 0.914717
0.981369 0 0.981582
0 0.241886 0.778561
0 0.221454 0.802976
0.464836 0.146273 0.780301
0.973434 0.00343328 0.843168
0.981369 0 0.981582
0 0.475639 0.730419
0 0.467384 0.754803
0.324559 0.433356 0.718395
0.881148 0.315953 0.77763
0.981369 0 0.981582
0 0.795453 0.813931
0 0.799084 0.817533
0 0.786648 0.804715
0.801862 0.801862 0.801862
1 0.712718 0.838041
0 0.936019 0.98909
0 0.936019 0.98909
0 0.926802 0.957153
0.0151827 0.923903 0.82565
0.991547 0.996948 0.834791
0.292714 0.762127 0.887236
0.359258 0.760754 0.887678
0.551675 0.768856 0.909941
0.839292 0.810864 0.977386
0.974212 0.683909 0.955535
0.279927 0.767315 0.889097
0.348638 0.765255 0.888334
0.55584 0.773434 0.911498
0.853452 0.816312 0.980072
0.976837 0.695583 0.958694
0.209598 0.789746 0.900603
0.292638 0.783703 0.892805
0.520211 0.788434 0.908217
0.843198 0.841581 0.973922
0.986954 0.744106 0.97113
0 0.864073 0.931258
0 0.860838 0.926879
0.35021 0.835508 0.899687
0.810025 0.89012 0.97055
0.998291 0.868635 0.989593
0 0.936019 0.98909
0 0.936019 0.98909
0 0.936019 0.98909
0.411719 0.891157 0.911284
0.995911 0.995911 0.995911
