bundles/resolve-cinematic-luts/Phantom Luts/Apple Log Phantom LUTS/iPhone 15 Phantom ARRI LUTs/WDR Pre-LUT/Apple Log to WDR Pre-LUT.cube
TITLE "Generated by Resolve"
LUT_3D_SIZE 9
0.00932326 0.00932326 0.00932326
0.00932326 0.00932326 0.00932326
0.172885 0.013138 0.0170901
0.367697 0.0146487 0.0272526
0.560571 0.0380102 0.0948806
0.769512 0.0561379 0.163897
0.907851 0.0679179 0.239124
0.906966 0.0554665 0.334997
0.958694 0.0037232 0.74583
0.00932326 0.00932326 0.00932326
0.00932326 0.00932326 0.00932326
0.0751507 0.0185092 0.012665
0.286595 0.0248417 0.0146334
0.547127 0.00943008 0.0401465
0.742535 0 0.0597848
0.879728 0.0563821 0.179095
0.90808 0.05066 0.292622
0.956466 0.011902 0.731685
0.00166323 0.0910811 0.0211948
0.0108186 0.0634318 0.01561
0.0763714 0.0744182 0.0151522
0.256123 0.0672313 0.0243229
0.517266 0.0103151 0.0305333
0.738094 0 0.0593881
0.84741 0 0.0941482
0.908949 0.0499886 0.261463
0.954681 0.0176852 0.720378
0 0.250278 0.0729686
0 0.261616 0
0 0.236759 0
0.248646 0.248875 0.00216678
0.525612 0.220951 0.0711376
0.717205 0.134432 0.0850843
0.836423 0 0.0632944
0.859098 0.0192111 0.128801
0.948013 0.0343938 0.67747
0 0.448646 0.149737
0 0.485435 0.0946975
0 0.507134 0
0 0.47689 0
0.464942 0.470024 0.0152895
0.73373 0.455741 0.105501
0.924773 0.377615 0.160845
0.93138 0.245609 0.14287
0.919448 0.0598917 0.512245
0 0.672358 0.30753
0 0.698405 0.273472
0 0.718257 0.250904
0 0.766506 0.0410468
0.151888 0.742687 0
0.660044 0.677821 0.0475319
0.915679 0.671199 0.0844282
0.956374 0.624964 0.134478
0.93225 0.257649 0.148241
0 0.872602 0.486488
0 0.884001 0.465644
0 0.890791 0.448478
0 0.920577 0.389624
0.0818189 0.994141 0.0102998
0.352056 0.951858 0.00222782
0.824521 0.858534 0.0495613
0.977676 0.842359 0.0695811
0.968933 0.779828 0.0755169
0 0.981079 0.66537
0 0.982986 0.655787
0 0.984466 0.646372
0 0.989059 0.60911
0.0016022 0.997147 0.480125
0.0427405 0.994507 0.0675669
0.589441 0.980575 0.00477607
0.939666 0.973632 0.0715038
0.989761 0.966751 0.128511
0 0.930571 0.904082
0 0.930861 0.902113
0 0.931212 0.899687
0 0.932418 0.891356
0 0.936095 0.867643
0 0.945769 0.807691
0.234257 0.998184 0.640894
0.752911 0.993454 0.608057
0.989242 0.991348 0.611673
0.00932326 0.00932326 0.00932326
0.00973526 0.00935378 0.00932326
0.205066 0.0130312 0.12842
0.407279 0.0229648 0.157214
0.606073 0.0371405 0.18613
0.811383 0.0481422 0.233433
0.908049 0.050721 0.293614
0.906111 0.0686809 0.387198
0.960861 0 0.759106
0.00932326 0.00932326 0.00932326
0.00932326 0.00932326 0.00932326
0.166812 0.013901 0.018616
0.369223 0.0269627 0.0516823
0.573495 0.0443732 0.113802
0.784649 0.0583963 0.176562
0.908064 0.0700694 0.248875
0.906645 0.0576944 0.346365
0.958755 0.00352483 0.746166
0.00187686 0.115602 0.0906233
0 0.119875 0.030869
0.0991989 0.0988174 0.0154726
0.298833 0.0524605 0.0181582
0.550332 0.00813306 0.0370336
0.755032 0.0213779 0.107149
0.900832 0.0623789 0.211658
0.907423 0.0528115 0.317632
0.957015 0.00996414 0.735241
0 0.248783 0.147204
0 0.261814 0.0783398
0 0.27631 0
0.257923 0.258183 0.00138857
0.544366 0.210941 0.0739147
0.722225 0.126513 0.0829023
0.835767 0 0.0643168
0.906691 0.0641337 0.221912
0.950805 0.0283055 0.695537
0 0.43444 0.207416
0 0.458076 0.156359
0 0.479408 0.120882
0 0.487648 0
0.467796 0.472374 0.0155184
0.741192 0.450004 0.108186
0.926772 0.373938 0.161166
0.930953 0.241657 0.141161
0.924834 0.0559091 0.54168
0 0.66244 0.349279
0 0.680232 0.314794
0 0.693462 0.290211
0.00602731 0.739895 0.208347
0.122133 0.743603 0
0.659739 0.676341 0.0492256
0.917174 0.667048 0.0888075
0.956374 0.621958 0.135348
0.932067 0.261036 0.149645
0 0.870054 0.512337
0 0.879683 0.493675
0 0.884611 0.479149
0 0.904219 0.420249
0.0539101 0.992294 0.0518654
0.345113 0.951171 0.00128176
0.823789 0.855879 0.0526894
0.977295 0.839887 0.0700847
0.968643 0.777554 0.0755322
0 0.977844 0.679698
0 0.979873 0.671168
0 0.98172 0.662226
0 0.986938 0.627848
0 0.998138 0.507988
0 0.994934 0.154803
0.586297 0.981689 0.0777905
0.941909 0.974838 0.139422
0.989975 0.963241 0.195483
0 0.930282 0.906004
0 0.930587 0.903929
0 0.930907 0.901701
0 0.932082 0.89366
0 0.935607 0.870619
0 0.944778 0.813169
0.196551 0.994339 0.642466
0.745678 0.99353 0.618555
0.989609 0.991485 0.620569
0.0118868 0.00428779 0.0982986
0.11162 0.00646983 0.114427
0.209888 0.00856031 0.169543
0.404044 0.0121004 0.230167
0.613458 0.0359808 0.231113
0.821805 0.047837 0.269245
0.90724 0.0537728 0.324575
0.907881 0.0708171 0.419715
0.962097 0 0.766278
0.0096437 0.0270848 0.0463417
0.0125124 0.00303655 0.110903
0.187228 0.00976577 0.152041
0.401083 0.0233158 0.139651
0.601434 0.0430152 0.165377
0.807767 0.0648051 0.219318
0.908583 0.0499733 0.274174
0.905898 0.0650339 0.375128
0.960357 0 0.756161
0.00166323 0.119554 0.118822
0.00218204 0.1149 0.114214
0.0914473 0.0914473 0.0914473
0.303868 0.0651713 0.0841993
0.584329 0.0471809 0.140536
0.784695 0.0581674 0.174975
0.90808 0.0698558 0.248997
0.9066 0.0581216 0.348333
0.958785 0.0033875 0.746395
0 0.245014 0.179782
0 0.254093 0.139757
0 0.260227 0.0892195
0.253513 0.250858 0.0576944
0.541863 0.207645 0.110399
0.714427 0.133074 0.106401
0.873228 0.0540475 0.169986
0.908721 0.0600595 0.254124
0.952926 0.0228428 0.709117
0 0.428138 0.238285
0 0.445518 0.194308
0 0.459968 0.159625
0 0.485664 0
0.463523 0.467948 0.0148775
0.738628 0.445151 0.10782
0.924208 0.368978 0.160204
0.929778 0.235294 0.142031
0.929244 0.0531014 0.56376
0 0.658396 0.370489
0 0.673228 0.34107
0 0.682658 0.316808
0 0.720287 0.240208
0.117235 0.742336 0
0.659129 0.674678 0.0506752
0.916182 0.664683 0.0900282
0.95642 0.619211 0.135836
0.931975 0.275731 0.207141
0 0.867979 0.525673
0 0.877226 0.508934
0 0.881529 0.495689
0 0.895811 0.44062
0 0.974823 0.144701
0.337865 0.945098 0.000518807
0.821759 0.853147 0.0535134
0.976791 0.836515 0.0705882
0.967544 0.766354 0.137499
0 0.976013 0.687465
0 0.97792 0.679393
0 0.979889 0.671092
0 0.985458 0.639277
0 0.998886 0.525246
0 0.995178 0.200275
0.584161 0.982513 0.1252
0.942199 0.975891 0.1794
0.98883 0.959762 0.237903
0 0.929931 0.90837
0 0.930251 0.906264
0 0.930617 0.903777
0 0.931762 0.895888
0 0.935042 0.873854
0 0.943862 0.818601
0.145357 0.988785 0.645441
0.738659 0.993576 0.627558
0.98996 0.991592 0.627253
0.0102693 0 0.292744
0.188464 0 0.326696
0.289937 0 0.327474
0.406332 0 0.328664
0.612177 0.0198215 0.360479
0.831601 0.0619211 0.358129
0.906615 0.0720226 0.397482
0.916915 0.0619364 0.496895
0.965103 0 0.784436
0.00419623 0.0646372 0.203555
0.00970474 0 0.308156
0.190188 0 0.337407
0.396262 0 0.320943
0.613901 0.0297704 0.316182
0.837247 0.0517739 0.312581
0.906294 0.0604715 0.358297
0.912001 0.0662394 0.46215
0.964004 0 0.777707
0 0.139879 0.201205
0 0.099794 0.239582
0.0559854 0.0731212 0.242924
0.310964 0.0339208 0.256886
0.608209 0.0304875 0.30605
0.83331 0.0497444 0.29575
0.907027 0.0550851 0.332815
0.909087 0.0692149 0.434867
0.963058 0 0.771923
0 0.236027 0.237095
0 0.236118 0.237247
0 0.234195 0.235172
0.254017 0.254017 0.254017
0.565286 0.235798 0.254078
0.76437 0.18172 0.253834
0.908202 0.05037 0.287892
0.906737 0.0570382 0.343252
0.958618 0.00399786 0.745373
0 0.408118 0.301213
0 0.419287 0.287816
0 0.426139 0.270985
0 0.43331 0.190845
0.460105 0.465446 0.204944
0.748562 0.459556 0.268849
0.935241 0.388663 0.307897
0.936965 0.284916 0.283696
0.939788 0.0464332 0.623514
0 0.646006 0.424155
0 0.6589 0.404593
0 0.66479 0.387366
0 0.675029 0.322881
0.0729839 0.707958 0.151232
0.65214 0.663081 0.179904
0.902419 0.646265 0.274876
0.962982 0.62121 0.289845
0.938399 0.310765 0.327596
0 0.859632 0.562707
0 0.869413 0.549416
0 0.873564 0.537621
0 0.880323 0.49485
0.0210575 0.930694 0.338399
0.34374 0.921309 0.149599
0.815991 0.839628 0.19118
0.979431 0.810666 0.280018
0.977005 0.746136 0.336675
0 0.971298 0.706935
0 0.972885 0.700557
0 0.974472 0.693996
0 0.980377 0.668788
0 0.993072 0.569635
0.027924 0.99472 0.366781
0.57406 0.985565 0.235874
0.940017 0.979278 0.273136
0.986389 0.952026 0.342855
0 0.928923 0.915297
0 0.929213 0.913359
0 0.929595 0.910826
0 0.930678 0.903288
0 0.933623 0.883192
0 0.941772 0.832181
0.061265 0.979294 0.66714
0.726024 0.993729 0.652888
0.990753 0.991867 0.646922
0.00849927 0 0.532921
0.116854 0 0.541161
0.254154 0 0.534066
0.459525 0 0.528008
0.641794 0 0.524346
0.843061 0.0351873 0.560784
0.934218 0.0506447 0.58735
0.941894 0.0440986 0.637446
0.970993 0 0.824887
0 0.0509651 0.402213
0 0 0.490425
0.104387 0 0.51809
0.413916 0 0.534707
0.634058 0 0.519005
0.844938 0.0386358 0.543267
0.930892 0.0521859 0.571694
0.939971 0.0462654 0.624674
0.970657 0 0.8224
0 0.112413 0.378424
0 0.0680705 0.422049
0 0.0410773 0.424109
0.282628 0 0.45449
0.602441 0 0.494255
0.841474 0.0383001 0.540673
0.92784 0.0539406 0.556878
0.938201 0.0479591 0.612848
0.970199 0 0.818906
0 0.233829 0.345296
0 0.2177 0.366537
0 0.205264 0.380316
0.180438 0.217746 0.418433
0.534035 0.157076 0.461967
0.785901 0.146212 0.458564
0.92224 0.0577554 0.527901
0.929747 0.0528115 0.566217
0.967788 0 0.801907
0 0.392981 0.398566
0 0.395636 0.40116
0 0.395163 0.400778
0 0.388617 0.394934
0.462165 0.462165 0.462165
0.771298 0.463386 0.472511
0.960128 0.43534 0.479652
0.936538 0.311101 0.458717
0.957763 0.00721752 0.739986
0 0.618906 0.500175
0 0.62649 0.49752
0 0.628992 0.493904
0 0.629618 0.474876
0.105119 0.640848 0.41352
0.64828 0.653727 0.425361
0.919738 0.667628 0.480751
0.986175 0.651591 0.495109
0.937514 0.314672 0.492958
0 0.834272 0.628504
0 0.84271 0.625681
0 0.846494 0.621012
0 0.853101 0.59826
0 0.863584 0.496727
0.375143 0.885451 0.434852
0.807248 0.829572 0.4094
0.996719 0.798886 0.481407
0.995865 0.757885 0.518959
0 0.960281 0.746868
0 0.961334 0.743282
0 0.962539 0.73904
0 0.966964 0.723232
0 0.982254 0.659632
0.000869764 0.997864 0.501183
0.550607 0.992615 0.427604
0.931487 0.969146 0.440009
0.997452 0.935424 0.50338
0 0.928054 0.928145
0 0.92813 0.926787
0 0.928222 0.92491
0 0.928481 0.919646
0 0.930785 0.902632
0 0.937133 0.861585
0 0.963806 0.722042
0.715282 0.994553 0.705272
0.993332 0.992325 0.690791
0 0 0.689525
0.0197147 0 0.774136
0.170977 0 0.741665
0.409995 0 0.728115
0.692775 0 0.727901
0.879652 0 0.727901
0.96405 0 0.777981
0.966995 0 0.796658
0.979049 0 0.905348
0 0.0832837 0.614801
0 0.0436103 0.660822
0 0.0174105 0.6495
0.251209 0 0.635065
0.63592 0 0.692317
0.880186 0 0.730846
0.963424 0 0.774197
0.967086 0 0.797238
0.979263 0 0.908736
0 0.135424 0.58497
0 0.103899 0.630091
0 0.0933547 0.64004
0.198642 0.0455787 0.611627
0.562478 0 0.641016
0.865064 0 0.719173
0.963561 0 0.774945
0.966384 0 0.792615
0.979217 0 0.907988
0 0.244572 0.545632
0 0.224537 0.57435
0 0.213474 0.591714
0.0961013 0.189181 0.559518
0.490532 0.149035 0.618692
0.763836 0.0956588 0.646387
0.950103 0.0341802 0.691249
0.964294 0 0.779477
0.97821 0 0.893675
0 0.428077 0.539559
0 0.425452 0.548775
0 0.422492 0.55552
0 0.408606 0.568063
0.402975 0.43508 0.61146
0.712108 0.369696 0.643641
0.957977 0.374884 0.642954
0.94757 0.263355 0.658732
0.97409 0 0.850217
0 0.608362 0.619471
0 0.61239 0.624079
0 0.6121 0.623804
0 0.608072 0.619272
0.0879225 0.566369 0.569146
0.643763 0.643763 0.643763
0.935805 0.652399 0.665522
1 0.62916 0.678965
0.952468 0.254871 0.695689
0 0.80972 0.706706
0 0.815 0.707622
0 0.816434 0.705318
0 0.815122 0.692287
0 0.813962 0.652201
0.391012 0.826505 0.633997
0.810086 0.811933 0.61767
1 0.816175 0.663523
1 0.770397 0.697612
0 0.94786 0.796765
0 0.948165 0.79527
0 0.94873 0.792554
0 0.950683 0.783444
0 0.958419 0.753338
0 0.960403 0.645426
0.590478 0.993271 0.64799
0.932158 0.951629 0.615396
1 0.91545 0.66128
0 0.927214 0.946746
0 0.927275 0.945449
0 0.927352 0.943481
0 0.927565 0.938842
0 0.928038 0.92871
0 0.930846 0.90219
0 0.944488 0.773663
0.736446 0.993271 0.787579
0.994553 0.993683 0.754086
0 0.138399 0.81146
0 0.118013 0.826001
0 0.0822309 0.807172
0.203189 0.0466468 0.773007
0.532799 0.00645457 0.803967
0.836637 0 0.836927
0.979629 0 0.914717
0.980194 0 0.92546
0.981369 0 0.981582
0 0.209339 0.790127
0 0.192187 0.808743
0 0.181598 0.809583
0.155367 0.148699 0.759838
0.488289 0.104265 0.788342
0.793729 0.0449989 0.812726
0.973846 0 0.84802
0.980484 0 0.931899
0.981369 0 0.981582
0 0.241886 0.778561
0 0.224918 0.799558
0 0.221454 0.802976
0.130694 0.18851 0.756008
0.464836 0.146273 0.780301
0.775845 0.0937972 0.804303
0.973434 0.00343328 0.843168
0.980575 0 0.934066
0.981369 0 0.981582
0 0.318822 0.759213
0 0.307134 0.779599
0 0.301289 0.786709
0.0513619 0.272236 0.743755
0.407385 0.246082 0.759472
0.726635 0.189624 0.778927
0.959319 0.132601 0.820829
0.974365 0 0.852552
0.981369 0 0.981582
0 0.475639 0.730419
0 0.471672 0.746471
0 0.467384 0.754803
0 0.452949 0.766537
0.324559 0.433356 0.718395
0.671427 0.388556 0.782513
0.881148 0.315953 0.77763
0.969741 0.252323 0.814359
0.981369 0 0.981582
0 0.633951 0.747463
0 0.634333 0.753033
0 0.633204 0.755642
0 0.62594 0.75816
0.0356603 0.571176 0.695644
0.605875 0.625116 0.784695
0.863645 0.56408 0.80383
0.992782 0.53489 0.814939
0.966552 0.261646 0.824628
0 0.795453 0.813931
0 0.799069 0.817517
0 0.799084 0.817533
0 0.795514 0.814008
0 0.786648 0.804715
0.393881 0.754696 0.759258
0.801862 0.801862 0.801862
1 0.808621 0.823651
1 0.712718 0.838041
0 0.933593 0.875807
0 0.934585 0.876814
0 0.934691 0.87538
0 0.934752 0.869703
0 0.934462 0.845136
0 0.898482 0.766247
0.619989 0.941421 0.803037
0.92755 0.933761 0.783703
1 0.910246 0.817151
0 0.936019 0.98909
0 0.936019 0.98909
0 0.936019 0.98909
0 0.935683 0.984085
0 0.926802 0.957153
0 0.927367 0.943389
0.0151827 0.923903 0.82565
0.743587 0.992142 0.873381
0.991547 0.996948 0.834791
0 0.369833 0.918547
0 0.363653 0.919707
0 0.33637 0.897719
0.14905 0.333989 0.88658
0.402609 0.30251 0.874693
0.684276 0.251225 0.898268
0.920699 0.19826 0.914076
0.985901 0.107103 0.945541
0.981369 0 0.981582
0 0.402914 0.918654
0 0.401816 0.921355
0 0.373693 0.897154
0.128038 0.374838 0.88603
0.395392 0.355581 0.869673
0.673304 0.302922 0.897673
0.907774 0.252064 0.906569
0.988678 0.178119 0.934783
0.981369 0 0.981582
0 0.418067 0.916976
0 0.4177 0.920684
0 0.392416 0.899229
0.112917 0.393164 0.885847
0.391348 0.379934 0.867475
0.668391 0.327108 0.898848
0.900984 0.273686 0.902571
0.989548 0.207172 0.928542
0.981369 0 0.981582
0 0.466941 0.905516
0 0.464454 0.914183
0 0.46363 0.91545
0.0484169 0.432288 0.884001
0.370565 0.429572 0.85626
0.650065 0.3823 0.899855
0.880674 0.320806 0.891432
0.975006 0.26247 0.912596
0.981369 0 0.981582
0 0.565377 0.885496
0 0.563149 0.896483
0 0.560159 0.901213
0 0.525322 0.871153
0.30367 0.514092 0.835935
0.609705 0.503182 0.902007
0.852827 0.431891 0.888884
0.947021 0.367697 0.885893
0.987762 0.132769 0.957732
0 0.68452 0.872724
0 0.684138 0.879759
0 0.682338 0.883543
0 0.673533 0.891508
0.110124 0.628656 0.835126
0.555413 0.643137 0.866819
0.830411 0.603754 0.915282
0.952499 0.531884 0.890135
0.945739 0.384787 0.896513
0 0.80882 0.904997
0 0.809873 0.908309
0 0.809003 0.909163
0 0.803693 0.90959
0 0.779293 0.897231
0.407019 0.741512 0.850217
0.774533 0.790814 0.911421
0.978897 0.741985 0.932265
0.974487 0.657725 0.921187
0 0.922972 0.947005
0 0.92398 0.948501
0 0.923705 0.948104
0 0.920546 0.944778
0 0.914046 0.937758
0 0.867247 0.879637
0.633433 0.884031 0.894133
0.923171 0.923171 0.923171
1 0.899626 0.933639
0 0.936019 0.98909
0 0.936019 0.98909
0 0.936019 0.98909
0 0.936019 0.98909
0 0.936019 0.98909
0 0.936019 0.98909
0.0683452 0.908644 0.901686
0.740322 0.961395 0.933043
0.991684 0.997711 0.924285
0.292714 0.762127 0.887236
0.33521 0.761318 0.887221
0.359258 0.760754 0.887678
0.422568 0.76109 0.89189
0.551675 0.768856 0.909941
0.705287 0.791074 0.940246
0.839292 0.810864 0.977386
0.980957 0.771572 0.976059
0.974212 0.683909 0.955535
0.285634 0.76527 0.888319
0.327993 0.763958 0.887633
0.353002 0.763485 0.888121
0.420218 0.763607 0.892256
0.555352 0.771801 0.910887
0.713802 0.795621 0.942794
0.850004 0.81384 0.979385
0.988006 0.772702 0.976272
0.975616 0.69073 0.957259
0.279927 0.767315 0.889097
0.322988 0.765667 0.887892
0.348638 0.765255 0.888334
0.417563 0.765362 0.892348
0.55584 0.773434 0.911498
0.715969 0.797955 0.943465
0.853452 0.816312 0.980072
0.990188 0.775006 0.976745
0.976837 0.695583 0.958694
0.262043 0.773388 0.891981
0.307561 0.770855 0.889281
0.333974 0.770459 0.889387
0.404776 0.77026 0.892485
0.548226 0.777783 0.911208
0.712749 0.801709 0.94345
0.851606 0.823682 0.979568
0.9897 0.784665 0.977996
0.979828 0.710323 0.962402
0.209598 0.789746 0.900603
0.262028 0.785382 0.894942
0.292638 0.783703 0.892805
0.368078 0.78201 0.892592
0.520211 0.788434 0.908217
0.699626 0.810834 0.942626
0.843198 0.841581 0.973922
0.984802 0.810147 0.981506
0.986954 0.744106 0.97113
0.0894484 0.819684 0.915923
0.160342 0.815808 0.910506
0.199313 0.812757 0.906661
0.294881 0.804486 0.896956
0.463218 0.806195 0.904173
0.669749 0.826123 0.940642
0.831556 0.865797 0.96733
0.975418 0.85037 0.987289
0.99295 0.797177 0.979965
0 0.864073 0.931258
0 0.862669 0.928908
0 0.860838 0.926879
0.129046 0.852155 0.917876
0.35021 0.835508 0.899687
0.589578 0.853727 0.92871
0.810025 0.89012 0.97055
0.953124 0.905821 0.994232
0.998291 0.868635 0.989593
0 0.936019 0.98909
0 0.917159 0.95465
0 0.912886 0.948516
0 0.906218 0.938628
0.128161 0.894438 0.92549
0.442786 0.882734 0.912566
0.727535 0.925017 0.963516
0.923827 0.959106 0.99089
0.999374 0.945464 0.996262
0 0.936019 0.98909
0 0.936019 0.98909
0 0.936019 0.98909
0 0.936019 0.98909
0 0.936019 0.98909
0 0.919051 0.955062
0.411719 0.891157 0.911284
0.78854 0.960769 0.977203
0.995911 0.995911 0.995911
