bundles/resolve-cinematic-luts/Phantom Luts/Apple Log Phantom LUTS/iPhone 15 Phantom ARRI LUTs/WDR Pre-LUT/Apple Log to WDR Pre-LUT.cube
TITLE "Generated by Resolve"
LUT_3D_SIZE 33
0.00932326 0.00932326 0.00932326
0.00932326 0.00932326 0.00932326
0.00932326 0.00932326 0.00932326
0.00932326 0.00932326 0.00932326
0.00932326 0.00932326 0.00932326
0.0301061 0.00965896 0.00941482
0.0821393 0.0107729 0.0116579
0.128298 0.0122988 0.0145418
0.172885 0.013138 0.0170901
0.215274 0.0129854 0.0183261
0.264866 0.0128328 0.0202029
0.315663 0.0135805 0.0236667
0.367697 0.0146487 0.0272526
0.415702 0.0158541 0.0330663
0.463249 0.0188602 0.0457313
0.510765 0.0271611 0.0687724
0.560571 0.0380102 0.0948806
0.607141 0.045304 0.112505
0.661891 0.0496834 0.130144
0.712856 0.0529183 0.146059
0.769512 0.0561379 0.163897
0.822126 0.0587167 0.18117
0.881727 0.0610666 0.20206
0.905989 0.0639048 0.220676
0.907851 0.0679179 0.239124
0.908721 0.0599832 0.25417
0.908598 0.049958 0.273594
0.907835 0.0512856 0.301991
0.906966 0.0554665 0.334997
0.905898 0.0654765 0.376638
0.910155 0.06804 0.445853
0.924819 0.0559091 0.541604
0.958694 0.0037232 0.74583
0.00932326 0.00932326 0.00932326
0.00932326 0.00932326 0.00932326
0.00932326 0.00932326 0.00932326
0.00932326 0.00932326 0.00932326
0.00932326 0.00932326 0.00932326
0.0188296 0.00975052 0.00923171
0.0631418 0.0100557 0.0105592
0.112581 0.0117494 0.0128939
0.15993 0.0128939 0.0155795
0.206714 0.0126192 0.0164645
0.25919 0.0125734 0.0193942
0.311543 0.0128939 0.0217288
0.36495 0.0129854 0.0239719
0.414603 0.0126345 0.0262455
0.462348 0.0120241 0.0308843
0.508064 0.0106813 0.0355688
0.553872 0.0090486 0.0408484
0.597253 0.00988785 0.0514229
0.648371 0.019791 0.0807965
0.700145 0.032639 0.110628
0.756725 0.0449226 0.137102
0.810071 0.0540932 0.159884
0.870954 0.057435 0.181674
0.894408 0.0606851 0.201434
0.906584 0.0641031 0.221714
0.907942 0.0689555 0.243427
0.908995 0.051545 0.258061
0.908248 0.0503243 0.28661
0.907347 0.0532387 0.320851
0.906126 0.0619059 0.363851
0.908888 0.0694743 0.432471
0.923598 0.0567636 0.535241
0.958083 0.00601205 0.742016
0.00932326 0.00932326 0.00932326
0.00932326 0.00932326 0.00932326
0.00932326 0.00932326 0.00932326
0.00932326 0.00932326 0.00932326
0.00932326 0.00932326 0.00932326
0.0105287 0.00943008 0.00933852
0.0349584 0.00970474 0.00952163
0.0766613 0.0107729 0.0110628
0.122286 0.014023 0.0133364
0.165743 0.0154269 0.0146334
0.221515 0.0140536 0.014435
0.283009 0.0128176 0.0159915
0.345235 0.0125429 0.0192111
0.407462 0.0128481 0.0258335
0.457267 0.0120699 0.0303349
0.50454 0.0107576 0.0351568
0.551797 0.00915541 0.0406195
0.596262 0.0074464 0.0462959
0.645365 0.0039826 0.0513313
0.692973 0 0.0563973
0.746517 0.0105592 0.0899977
0.800717 0.0272984 0.124926
0.860761 0.0463569 0.159304
0.882856 0.0574044 0.183688
0.896284 0.0611887 0.20444
0.907698 0.0654154 0.228077
0.908263 0.0674907 0.250294
0.908629 0.0499428 0.272496
0.907652 0.0519265 0.308812
0.906447 0.0592508 0.353445
0.907973 0.0706798 0.421012
0.922454 0.0576028 0.529107
0.957427 0.00849927 0.737835
0.00932326 0.00932326 0.00932326
0.00932326 0.00932326 0.00932326
0.00932326 0.00932326 0.00932326
0.00932326 0.00932326 0.00932326
0.00932326 0.00932326 0.00932326
0.00933852 0.00933852 0.00933852
0.0205844 0.00972 0.00924697
0.0519265 0.0110018 0.0101472
0.0962844 0.0166781 0.0130922
0.134615 0.0214847 0.0146944
0.185519 0.0223392 0.0145876
0.247181 0.0206455 0.0143587
0.316716 0.0166323 0.0160372
0.382574 0.0147402 0.0200198
0.445136 0.0116274 0.0255741
0.501442 0.0108186 0.0347906
0.54902 0.009308 0.0403143
0.593896 0.00756847 0.0460059
0.644388 0.0040589 0.0512398
0.691997 0 0.0556039
0.743755 0 0.0598764
0.79295 0.000228885 0.0868544
0.853986 0.0227665 0.131762
0.872801 0.0530251 0.16878
0.887388 0.0589303 0.190738
0.902647 0.0629282 0.214893
0.907881 0.0683299 0.240879
0.908919 0.0499733 0.262455
0.907897 0.0511177 0.299733
0.906661 0.0575723 0.3458
0.907378 0.0716564 0.411673
0.921691 0.0581674 0.524956
0.956893 0.0104067 0.734432
0.00932326 0.00932326 0.00932326
0.00932326 0.00932326 0.00932326
0.00932326 0.00932326 0.00932326
0.00932326 0.00932326 0.00932326
0.00932326 0.00932326 0.00932326
0.00932326 0.00932326 0.00932326
0.0135042 0.00965896 0.00932326
0.0357977 0.0117647 0.0100862
0.0751507 0.0185092 0.012665
0.113237 0.0254826 0.0150607
0.161166 0.0296635 0.0153201
0.219394 0.0290532 0.0144961
0.286595 0.0248417 0.0146334
0.35993 0.0195926 0.0178225
0.427482 0.0146029 0.0228428
0.490043 0.0103609 0.0296025
0.547127 0.00943008 0.0401465
0.592477 0.00762951 0.0458381
0.642466 0.00424201 0.0510719
0.691051 0 0.0555123
0.742535 0 0.0597848
0.789731 0 0.0635538
0.847486 0.00062562 0.102892
0.865309 0.033341 0.146136
0.879728 0.0563821 0.179095
0.896284 0.0611734 0.20441
0.907744 0.0663462 0.232105
0.908888 0.0559396 0.256107
0.90808 0.05066 0.292622
0.906844 0.0563058 0.339574
0.906996 0.0723583 0.404685
0.920867 0.0587778 0.520394
0.956466 0.011902 0.731685
0.00932326 0.00932326 0.00932326
0.00932326 0.00932326 0.00932326
0.00932326 0.00932326 0.00932326
0.00932326 0.00932326 0.00932326
0.00932326 0.00932326 0.00932326
0.00932326 0.00932326 0.00932326
0.0105135 0.00955215 0.00936904
0.0249485 0.0125277 0.0100557
0.0584726 0.0201419 0.0128328
0.0981308 0.0289616 0.0160983
0.145464 0.0344396 0.0167544
0.202289 0.0357977 0.0151675
0.266835 0.0320592 0.0141299
0.33698 0.0263066 0.0165408
0.411566 0.0179141 0.0211948
0.476753 0.0124514 0.0271305
0.539208 0.00886549 0.0359045
0.590066 0.00773632 0.0455329
0.641688 0.0043183 0.0510109
0.689509 0 0.0553597
0.742 0 0.0597391
0.789471 0 0.0635386
0.840146 0 0.070634
0.857282 0.0152743 0.123705
0.872251 0.0513924 0.166964
0.889418 0.0594339 0.193652
0.907317 0.064332 0.222995
0.908461 0.0645457 0.251865
0.908278 0.0502785 0.285222
0.907027 0.0551308 0.333059
0.906645 0.0721599 0.397894
0.920302 0.0592203 0.517143
0.9561 0.013138 0.729397
0.00909438 0.0112306 0.0096437
0.00920119 0.0107118 0.00959792
0.00950637 0.00952163 0.009308
0.00933852 0.00933852 0.00933852
0.00932326 0.00932326 0.00932326
0.00933852 0.00933852 0.00933852
0.0119326 0.0112917 0.00978103
0.024918 0.0171817 0.0112154
0.0522774 0.0277256 0.0139925
0.0877546 0.035935 0.016434
0.135119 0.0382391 0.018204
0.191516 0.0390936 0.0161898
0.258122 0.0348363 0.0142977
0.327306 0.0292821 0.0159915
0.40206 0.0204929 0.0206149
0.470069 0.0133211 0.0263371
0.533181 0.00907912 0.0342412
0.588754 0.00776684 0.0453498
0.64036 0.0043946 0.0508583
0.68896 0 0.055314
0.741009 0 0.0596323
0.78909 0 0.063508
0.838758 0 0.0674144
0.8486 0 0.0982528
0.866606 0.0364538 0.149828
0.884031 0.0578012 0.185412
0.902525 0.0628824 0.214664
0.908034 0.0702831 0.24831
0.908446 0.0500801 0.278813
0.907179 0.0540932 0.326848
0.906371 0.0705882 0.393118
0.919509 0.0598306 0.512627
0.955703 0.014435 0.72694
0.00587472 0.0483406 0.0140841
0.00582895 0.0490425 0.0141146
0.00646983 0.0375677 0.0126192
0.00733959 0.0286259 0.0118105
0.00865187 0.0235294 0.0110628
0.0115053 0.0229953 0.0106508
0.023331 0.0303197 0.0109865
0.0415503 0.0392157 0.0128939
0.0649577 0.0488441 0.0162203
0.0961471 0.056611 0.01944
0.138003 0.0589151 0.0216068
0.190967 0.0530251 0.0212558
0.252003 0.0464637 0.0163119
0.315373 0.0372778 0.0154726
0.390692 0.0237583 0.019791
0.464271 0.0140993 0.0256809
0.527184 0.00929274 0.0328222
0.58378 0.00683604 0.0413214
0.638224 0.00456245 0.05066
0.687312 0.000137331 0.0551614
0.739956 0 0.0595407
0.788586 0 0.0634623
0.838758 0 0.0674144
0.839796 0 0.069749
0.859144 0.0193027 0.128923
0.876844 0.055375 0.175036
0.897093 0.061387 0.205722
0.907881 0.0682078 0.240345
0.908644 0.0499428 0.271992
0.907332 0.0532998 0.321233
0.906126 0.0687724 0.387503
0.9187 0.0604868 0.50782
0.955261 0.0158846 0.724071
0.00166323 0.0910811 0.0211948
0.00134279 0.0942092 0.0186618
0.00242618 0.0859236 0.0180819
0.00494392 0.0725261 0.016968
0.0108186 0.0634318 0.01561
0.0189822 0.0590829 0.0135958
0.0347906 0.0624399 0.0133059
0.0534524 0.0652476 0.0131075
0.0763714 0.0744182 0.0151522
0.106828 0.08159 0.0200198
0.145281 0.0858167 0.0248722
0.194949 0.0808576 0.0258183
0.256123 0.0672313 0.0243229
0.314763 0.0559701 0.0204013
0.372213 0.0431373 0.0199588
0.433051 0.0276036 0.0234684
0.517266 0.0103151 0.0305333
0.578927 0.00724804 0.0408331
0.635645 0.00486763 0.0504768
0.684672 0.000396735 0.0549325
0.738094 0 0.0593881
0.786862 0 0.0633249
0.838758 0 0.0674144
0.838758 0 0.0674144
0.84741 0 0.0941482
0.868284 0.0405432 0.154589
0.889189 0.0593729 0.193317
0.907713 0.0658579 0.230045
0.908949 0.0499886 0.261463
0.907546 0.0523079 0.312978
0.905928 0.0666209 0.380468
0.917754 0.0612497 0.502098
0.954681 0.0176852 0.720378
0 0.12726 0.032105
0 0.132784 0.019852
0 0.129091 0.0198062
0 0.116045 0.0194705
0.00691234 0.105058 0.0183108
0.019852 0.0988937 0.0169833
0.0323186 0.101396 0.0130617
0.0584421 0.102342 0.0142519
0.0852522 0.103548 0.0137636
0.11017 0.110002 0.015259
0.153216 0.114656 0.0231785
0.202396 0.111666 0.0286717
0.260197 0.100496 0.0302129
0.322469 0.0829328 0.0308385
0.380682 0.0683452 0.029572
0.43064 0.0532845 0.0273747
0.482979 0.0339666 0.0288701
0.55082 0.0124208 0.0337835
0.624613 0.00517281 0.0462043
0.682521 0.000579843 0.0547189
0.736202 0 0.0592355
0.785031 0 0.0631571
0.838758 0 0.0674144
0.838758 0 0.0674144
0.838804 0 0.0674296
0.856764 0.0141604 0.122255
0.877684 0.0556649 0.176211
0.903014 0.0630198 0.215503
0.90866 0.0611124 0.253605
0.907881 0.051194 0.300725
0.905959 0.063508 0.369711
0.916136 0.0625772 0.49192
0.953918 0.0200198 0.715526
0 0.164935 0.0487984
0 0.172625 0.0206455
0 0.172213 0.016968
0 0.164569 0.0178836
0 0.151949 0.0179446
0.00608835 0.143084 0.0169833
0.0193179 0.143587 0.0136873
0.0390021 0.145617 0.00968948
0.0804761 0.145937 0.012604
0.11397 0.145693 0.0104677
0.150896 0.150927 0.0133059
0.208209 0.152056 0.0238499
0.268086 0.145266 0.0324865
0.329366 0.13518 0.0380255
0.391791 0.120226 0.0432898
0.451469 0.0985885 0.0470741
0.500298 0.0805219 0.0452125
0.539818 0.0585794 0.0425116
0.580301 0.0311437 0.0408789
0.639643 0.00726329 0.0433509
0.721325 0 0.0547341
0.781445 0 0.0628824
0.836484 0 0.0672313
0.838788 0 0.0674144
0.838804 0 0.0674296
0.838804 0 0.0674296
0.858839 0.018616 0.128054
0.885573 0.05832 0.187808
0.907805 0.0670939 0.235462
0.9084 0.0501259 0.280278
0.906493 0.0588388 0.351598
0.913481 0.0648966 0.473564
0.952636 0.023621 0.707301
0 0.205051 0.0594492
0 0.212192 0.0297704
0 0.217395 0.00943008
0 0.213367 0.0100404
0 0.205066 0.0109712
0 0.192615 0.0112917
0 0.187228 0.010071
0.00593576 0.188067 0.00454719
0.0340734 0.190829 0.000259403
0.0852979 0.193545 0.00535592
0.144259 0.192935 0.00317388
0.196796 0.196902 0.00770581
0.270573 0.197391 0.0224765
0.33489 0.190524 0.0377203
0.398611 0.18056 0.0479591
0.460136 0.168231 0.056611
0.520623 0.147219 0.0650187
0.57084 0.126177 0.067277
0.610895 0.102235 0.0634623
0.641703 0.0744488 0.0601663
0.675181 0.0384222 0.0547494
0.724269 0.0030518 0.0504005
0.817975 0 0.0623789
0.838788 0 0.0674296
0.838804 0 0.0674296
0.838804 0 0.0674296
0.838804 0 0.0674296
0.859907 0.0209659 0.131044
0.893996 0.0605936 0.200763
0.908736 0.0594186 0.254444
0.90721 0.0539559 0.325872
0.910185 0.0680247 0.446082
0.950744 0.0284581 0.695155
0 0.250278 0.0729686
0 0.256229 0.0456245
0 0.26479 0.00457771
0 0.264134 0
0 0.261616 0
0 0.257954 0
0 0.246204 0.00190738
0 0.2374 0
0 0.236759 0
0.0131075 0.241459 0
0.0910506 0.248081 0
0.178943 0.246784 0
0.248646 0.248875 0.00216678
0.330007 0.251789 0.0192569
0.401312 0.242695 0.0425116
0.464454 0.234287 0.0560616
0.525612 0.220951 0.0711376
0.58117 0.207538 0.0813611
0.635431 0.179995 0.090074
0.678248 0.159823 0.0901045
0.717205 0.134432 0.0850843
0.748806 0.102831 0.0780652
0.781811 0.0537118 0.0694133
0.818936 0 0.0579995
0.836423 0 0.0632944
0.838804 0 0.0674296
0.838804 0 0.0674296
0.838804 0 0.0674296
0.859098 0.0192111 0.128801
0.902739 0.0629435 0.21503
0.908202 0.0504005 0.288151
0.906935 0.0724956 0.403449
0.948013 0.0343938 0.67747
0 0.295171 0.0858778
0 0.301671 0.0612345
0 0.310582 0.0290227
0 0.314366 0
0 0.315053 0
0 0.312398 0
0 0.310292 0
0 0.306706 0
0 0.292165 0
0 0.286442 0
0.00334173 0.29305 0
0.103243 0.302846 0
0.220493 0.301747 0
0.301762 0.302205 0
0.388281 0.308278 0.016495
0.462943 0.297154 0.0446784
0.527794 0.289387 0.0641794
0.584665 0.276417 0.0834363
0.639933 0.261036 0.0974899
0.686625 0.246418 0.105943
0.737484 0.215396 0.11284
0.782574 0.191592 0.110185
0.823957 0.162676 0.102083
0.856657 0.123095 0.0928817
0.874403 0.0688945 0.0818494
0.850752 0.00383001 0.0633402
0.836774 0 0.0628977
0.838804 0 0.0674296
0.838804 0 0.0674296
0.860945 0.0232853 0.133959
0.907988 0.0696117 0.24593
0.906188 0.0614328 0.362081
0.944305 0.0408179 0.6533
0 0.343252 0.10045
0 0.351019 0.0805524
0 0.360311 0.0547799
0 0.365789 0.0204929
0 0.369604 0
0 0.373098 0
0 0.371832 0
0 0.369741 0
0 0.368872 0
0 0.356451 0
0 0.342596 0
0.00383001 0.350408 0
0.131365 0.361105 0
0.263874 0.358251 0
0.355581 0.357015 0
0.442542 0.366979 0.0144198
0.5205 0.356909 0.0430457
0.581674 0.347448 0.0713054
0.641413 0.334661 0.0934768
0.69073 0.318135 0.110597
0.740963 0.302968 0.122026
0.786114 0.284382 0.128374
0.836973 0.251759 0.133379
0.885008 0.22005 0.12874
0.91696 0.189212 0.118578
0.904921 0.153704 0.104585
0.885145 0.0993515 0.0895399
0.854368 0.0129244 0.0661021
0.835874 0 0.0642252
0.838804 0 0.0674296
0.87248 0.0520638 0.167712
0.907774 0.0515297 0.304479
0.939254 0.0469673 0.619913
0 0.393698 0.119829
0 0.402335 0.103136
0 0.412695 0.0847944
0 0.421073 0.066865
0 0.425635 0.0305943
0 0.428275 0
0 0.435309 0
0 0.439399 0
0 0.43769 0
0 0.436576 0
0 0.419852 0
0 0.405753 0
0.0327916 0.414984 0
0.17116 0.423102 0
0.313741 0.416693 0
0.409827 0.413016 0.00556954
0.496971 0.424674 0.0171511
0.571054 0.419196 0.0404364
0.635096 0.406714 0.0794537
0.688319 0.395361 0.0985733
0.738949 0.379644 0.118669
0.787945 0.359869 0.134218
0.836469 0.340398 0.142504
0.882246 0.318181 0.14873
0.925139 0.286656 0.152651
0.931899 0.253956 0.146548
0.928206 0.223087 0.133196
0.915633 0.179583 0.114519
0.888304 0.107836 0.0918288
0.840436 0 0.0606394
0.838804 0 0.0674296
0.907774 0.0666514 0.233448
0.931731 0.0517586 0.575647
0 0.448646 0.149737
0 0.458701 0.134371
0 0.469932 0.119677
0 0.47837 0.106874
0 0.485435 0.0946975
0 0.491676 0.0719158
0 0.494285 0.0359503
0 0.497719 0.00479133
0 0.507134 0
0 0.512901 0
0 0.510689 0
0 0.486595 0
0 0.47689 0
0.0716564 0.484871 0
0.222919 0.487648 0
0.367453 0.477104 0
0.464942 0.470024 0.0152895
0.546578 0.479194 0.0247349
0.622873 0.478035 0.0447395
0.679179 0.468849 0.0781262
0.73373 0.455741 0.105501
0.783368 0.44004 0.122255
0.834806 0.421256 0.140246
0.883848 0.394369 0.154757
0.924773 0.377615 0.160845
0.940108 0.357183 0.162432
0.936355 0.332357 0.159701
0.933532 0.297276 0.155535
0.93138 0.245609 0.14287
0.916487 0.181994 0.115526
0.859297 0.0269169 0.070161
0.838804 0 0.0674296
0.919448 0.0598917 0.512245
0 0.504662 0.184741
0 0.515023 0.171527
0 0.526787 0.159091
0 0.535424 0.148836
0 0.542641 0.138918
0 0.548943 0.130205
0 0.554665 0.121233
0 0.559274 0.093019
0 0.561257 0.0455482
0 0.56965 0.00955215
0 0.584085 0
0 0.581521 0
0 0.549035 0
0 0.545815 0
0.118349 0.551934 0
0.285451 0.547814 0
0.424536 0.53283 0
0.515801 0.522683 0.026276
0.599405 0.529824 0.0364233
0.667063 0.529152 0.0513924
0.727459 0.524071 0.0758526
0.777295 0.512047 0.108171
0.832303 0.496269 0.124971
0.881285 0.477165 0.144244
0.924941 0.455421 0.159533
0.953735 0.432197 0.168887
0.951476 0.413718 0.16849
0.946441 0.392416 0.165743
0.940902 0.362463 0.162799
0.93463 0.314794 0.157656
0.928359 0.224964 0.133867
0.846235 0 0.0602579
0.906874 0.0726329 0.40209
0 0.563867 0.22533
0 0.573724 0.214191
0 0.584009 0.202823
0 0.591928 0.194217
0 0.598856 0.186099
0 0.604807 0.178668
0 0.611017 0.17229
0 0.616464 0.163729
0 0.622721 0.151583
0 0.628168 0.102647
0 0.638254 0.0356756
0 0.655894 0
0 0.652888 0
0 0.616815 0
0.0302129 0.615351 0
0.16994 0.61915 0
0.348913 0.608042 0
0.472526 0.591684 0
0.567697 0.577737 0.0372778
0.635706 0.578897 0.0490883
0.714595 0.581277 0.0583505
0.772442 0.579843 0.0703441
0.826505 0.568246 0.105974
0.876051 0.555108 0.12784
0.923949 0.53698 0.142229
0.955795 0.520974 0.156344
0.95523 0.505028 0.159533
0.95462 0.484199 0.163134
0.95404 0.45597 0.166873
0.952499 0.418555 0.168811
0.942046 0.369528 0.163394
0.931029 0.242359 0.141466
0.90869 0.0499275 0.270268
0 0.616663 0.264302
0 0.624903 0.253101
0 0.634073 0.242664
0 0.641382 0.234928
0 0.647532 0.228275
0 0.652873 0.222095
0 0.658213 0.216648
0 0.663645 0.210163
0 0.669886 0.200687
0 0.678584 0.187411
0 0.687572 0.126772
0 0.700404 0.0429541
0.00932326 0.717266 0
0.0084535 0.713695 0
0.00598154 0.677562 0
0.0989242 0.678492 0
0.24094 0.677653 0
0.412055 0.659831 0
0.530007 0.641291 0
0.613809 0.627497 0.0435798
0.684077 0.625269 0.0565347
0.758862 0.627939 0.0630503
0.821668 0.6262 0.071519
0.87396 0.617456 0.100786
0.918441 0.605402 0.127352
0.957046 0.591455 0.140551
0.957427 0.580499 0.142153
0.957809 0.563806 0.144442
0.95671 0.542489 0.151278
0.955581 0.515251 0.157519
0.954299 0.470375 0.165087
0.945922 0.388937 0.165606
0.838804 0 0.0674296
0 0.672358 0.30753
0 0.678828 0.29572
0 0.686397 0.286473
0 0.692897 0.279423
0 0.698405 0.273472
0 0.703014 0.268086
0 0.707729 0.263813
0 0.712474 0.258289
0 0.718257 0.250904
0 0.726207 0.240833
0 0.739178 0.22121
0 0.749096 0.147738
0 0.766506 0.0410468
0.0254673 0.780697 0
0.0200961 0.751476 0
0.0230259 0.739834 0
0.151888 0.742687 0
0.30106 0.736095 0
0.470848 0.712673 0
0.572305 0.695354 0
0.660044 0.677821 0.0475319
0.726543 0.674846 0.0569314
0.804532 0.676539 0.0661936
0.866117 0.674708 0.0699626
0.915679 0.671199 0.0844282
0.956863 0.657877 0.118685
0.956817 0.65127 0.127062
0.956558 0.639597 0.130922
0.956374 0.624964 0.134478
0.95668 0.60499 0.138598
0.957732 0.572595 0.142885
0.955474 0.512566 0.158129
0.93225 0.257649 0.148241
0 0.721981 0.349096
0 0.727611 0.337942
0 0.734401 0.327901
0 0.739452 0.32195
0 0.743877 0.316274
0 0.748028 0.311284
0 0.751888 0.307073
0 0.756222 0.302495
0 0.761059 0.295857
0 0.768017 0.28777
0 0.779446 0.272114
0.0103151 0.79411 0.247868
0 0.806256 0.139834
0.0320897 0.833356 0.00779736
0.0402686 0.837049 0
0.0364996 0.801785 0
0.0720073 0.798657 0
0.200412 0.79765 0
0.374151 0.786297 0.00317388
0.518212 0.761059 0
0.622522 0.739712 0
0.702296 0.723949 0.049546
0.772686 0.718074 0.0613413
0.847242 0.720165 0.0673686
0.905898 0.718135 0.0695811
0.953735 0.71487 0.0780041
0.959548 0.709316 0.092195
0.958785 0.700298 0.0979171
0.958129 0.68835 0.107042
0.957519 0.673899 0.116518
0.956817 0.651759 0.126879
0.956558 0.610956 0.137407
0.953948 0.449928 0.167437
0 0.775555 0.39556
0 0.780194 0.386267
0 0.785489 0.37702
0 0.789425 0.370321
0 0.793332 0.365148
0 0.796414 0.360357
0 0.799573 0.356878
0 0.802609 0.352209
0 0.806973 0.346319
0 0.812543 0.338811
0 0.822034 0.325597
0 0.836622 0.306279
0.0224918 0.852796 0.276158
0 0.868086 0.151537
0.0572366 0.900664 0.002533
0.0564584 0.897505 0.002121
0.0554818 0.864851 0
0.127398 0.860563 0
0.250736 0.85597 0
0.41384 0.840925 0.0081178
0.563745 0.811261 0
0.659144 0.791089 0
0.746227 0.772045 0.050248
0.812772 0.76495 0.0621042
0.88188 0.769177 0.0655528
0.938918 0.764385 0.0694133
0.966155 0.760403 0.0739757
0.965255 0.753567 0.0771496
0.964202 0.746212 0.0783398
0.96289 0.736812 0.0814679
0.961059 0.72253 0.086656
0.958602 0.697078 0.100298
0.956619 0.607889 0.137987
0 0.8262 0.441962
0 0.829801 0.434211
0 0.834318 0.426917
0 0.838056 0.421469
0 0.840604 0.416114
0 0.842634 0.411353
0 0.845045 0.407584
0 0.847471 0.403296
0 0.849989 0.39678
0 0.853956 0.389471
0 0.861433 0.377371
0 0.87303 0.36025
0.00479133 0.889418 0.335439
0.0343938 0.906813 0.299687
0 0.926833 0.154742
0.0720226 0.956603 0.00758373
0.0704051 0.950835 0.00729381
0.0716259 0.91989 0
0.180941 0.916442 0
0.290684 0.909483 0
0.464088 0.886336 0.0103761
0.600931 0.85774 0
0.704479 0.835203 0
0.786862 0.816815 0.0500801
0.850126 0.810025 0.0636912
0.898604 0.805844 0.0865644
0.969039 0.809003 0.0692454
0.97174 0.801129 0.074342
0.970855 0.794614 0.074876
0.969818 0.786755 0.075227
0.968444 0.776074 0.0758068
0.966033 0.758877 0.0766003
0.959884 0.712489 0.0908064
0 0.872602 0.486488
0 0.875898 0.480354
0 0.879545 0.474479
0 0.882124 0.469703
0 0.884001 0.465644
0 0.885649 0.461662
0 0.887282 0.458305
0 0.889128 0.454475
0 0.890791 0.448478
0 0.893584 0.441169
0 0.898268 0.428199
0 0.906645 0.412436
0 0.920577 0.389624
0.0108492 0.936385 0.359823
0.0476997 0.956603 0.316152
0 0.981842 0.145342
0.0818189 0.994141 0.0102998
0.0827802 0.976486 0
0.0966506 0.969955 0
0.215244 0.965301 0
0.352056 0.951858 0.00222782
0.50988 0.926863 0.0101167
0.64979 0.897017 0
0.747875 0.875364 0
0.824521 0.858534 0.0495613
0.884657 0.850278 0.0665599
0.930999 0.846876 0.0793774
0.978668 0.848783 0.0678416
0.977676 0.842359 0.0695811
0.976623 0.835355 0.0707713
0.975265 0.82623 0.0720836
0.97322 0.811749 0.0733501
0.968933 0.779828 0.0755169
0 0.914351 0.529732
0 0.917342 0.524804
0 0.920394 0.520088
0 0.922377 0.515908
0 0.92398 0.512551
0 0.925063 0.509087
0 0.926345 0.506477
0 0.927596 0.503105
0 0.928603 0.498253
0 0.930327 0.491768
0 0.933654 0.480949
0 0.938827 0.46453
0 0.947951 0.442145
0 0.962264 0.415076
0.0166629 0.979309 0.379232
0.0491646 0.993881 0.324514
0 0.994781 0.116838
0.0816052 0.994156 0.0106508
0.0907149 0.994034 0
0.148943 0.994842 0
0.257572 0.994003 0
0.40882 0.988342 0.00741588
0.576257 0.958633 0.00463874
0.696437 0.93257 0
0.786664 0.913314 0
0.858763 0.897047 0.048188
0.916274 0.888167 0.0707103
0.962188 0.884932 0.0751507
0.97438 0.879225 0.0877699
0.971557 0.872999 0.090837
0.968505 0.864942 0.0936141
0.969635 0.856336 0.0876783
0.977386 0.840391 0.0700542
0 0.951293 0.572656
0 0.953872 0.56846
0 0.956313 0.564523
0 0.957702 0.561028
0 0.958846 0.557977
0 0.95996 0.555291
0 0.961212 0.553384
0 0.961913 0.55024
0 0.962661 0.545815
0 0.96408 0.540581
0 0.966293 0.531273
0 0.969345 0.517037
0 0.974853 0.496193
0.00062562 0.984436 0.468925
0 0.996323 0.437537
0.0112764 0.995407 0.393317
0.0416114 0.994125 0.318364
0.0405127 0.994537 0.0704356
0.0844129 0.99411 0.00575265
0.0912032 0.994034 0
0.200534 0.994797 0
0.302632 0.992782 0
0.483116 0.98497 0.0115816
0.635966 0.97879 0
0.738811 0.965591 0
0.823026 0.947738 0
0.889723 0.932036 0.0467689
0.947265 0.922866 0.0746319
0.985641 0.919875 0.0716716
0.985489 0.9149 0.0728161
0.985351 0.909194 0.0746014
0.98471 0.900649 0.0780957
0.978058 0.886 0.0844892
0 0.984161 0.618235
0 0.985702 0.614618
0 0.987182 0.611353
0 0.988083 0.608392
0 0.9888 0.60589
0 0.989334 0.603204
0 0.989822 0.601282
0 0.990051 0.59881
0 0.990402 0.595041
