bundles/resolve-cinematic-luts/Phantom Luts/S5ii LUTs/WB Offset - Green & Warm Boost/S5ii Tungsten V-Log WBO.cube
TITLE "Generated by Resolve"
LUT_3D_SIZE 33
0.00746166 0.00784314 0.0142672
0.00746166 0.00776684 0.0140841
0.00749218 0.00756847 0.0136416
0.00946059 0.00737011 0.0129854
0.0294041 0.00885023 0.0143435
0.0577859 0.00993362 0.0164797
0.0851911 0.0104067 0.0184939
0.10959 0.0110781 0.0209659
0.138308 0.0120241 0.0251621
0.174212 0.0131838 0.0304265
0.216571 0.0142977 0.0375372
0.266712 0.0153964 0.0453803
0.32343 0.0181277 0.0546731
0.378912 0.0217136 0.0655375
0.434531 0.0245823 0.0792706
0.489143 0.0266423 0.0938888
0.534737 0.0276036 0.107805
0.569284 0.0250401 0.115206
0.632837 0.0411078 0.163073
0.687373 0.0553445 0.211444
0.696071 0.05832 0.220249
0.696712 0.0587167 0.222065
0.697246 0.0590524 0.22385
0.697704 0.0593423 0.225177
0.698054 0.0595712 0.226307
0.698283 0.0596933 0.227207
0.698451 0.0597848 0.227893
0.698634 0.0598917 0.228412
0.698817 0.0599985 0.228901
0.699123 0.0601358 0.229633
0.699504 0.0603189 0.230472
0.700114 0.0606241 0.231724
0.70074 0.0609445 0.232914
0.00749218 0.00758373 0.0136873
0.00746166 0.00776684 0.0140993
0.00746166 0.00776684 0.0140841
0.00749218 0.00756847 0.0136416
0.0206149 0.00863661 0.0141604
0.0487678 0.00987259 0.0159915
0.0772717 0.0101778 0.0178531
0.103273 0.0101472 0.0194858
0.132464 0.0105287 0.0225071
0.168612 0.0111543 0.0272831
0.210956 0.0115969 0.033341
0.261845 0.0124361 0.0403601
0.318059 0.0139925 0.0483711
0.373419 0.0165408 0.0564126
0.428794 0.0186618 0.0680858
0.483116 0.0202945 0.0822003
0.532906 0.0230869 0.102129
0.570703 0.0232242 0.115785
0.619913 0.0337224 0.146075
0.683558 0.0538949 0.203861
0.694636 0.057496 0.215732
0.695323 0.0578622 0.217823
0.695842 0.0581826 0.219455
0.6963 0.0584573 0.220935
0.696681 0.0587015 0.222004
0.696986 0.0588846 0.222995
0.697215 0.0590219 0.223743
0.697429 0.0591592 0.224369
0.697643 0.059266 0.224918
0.697963 0.0594644 0.225528
0.69836 0.0596628 0.226383
0.698985 0.059968 0.227634
0.699626 0.0602731 0.228885
0.00749218 0.00758373 0.0136873
0.00746166 0.00776684 0.0140993
0.00746166 0.00776684 0.0140841
0.00749218 0.00756847 0.0136416
0.0112154 0.00827039 0.0133364
0.036408 0.0118715 0.0156405
0.0655528 0.0130007 0.0176242
0.0940719 0.0133822 0.019379
0.12517 0.0126802 0.0220035
0.162646 0.0113527 0.0262913
0.206256 0.0115511 0.0326696
0.257389 0.0122072 0.0395819
0.31426 0.013077 0.0466926
0.369482 0.0148318 0.053315
0.424552 0.0161746 0.0626993
0.478874 0.0175174 0.0759289
0.527993 0.0187533 0.0940871
0.572854 0.0224765 0.116487
0.61268 0.0296635 0.135897
0.67364 0.0509804 0.190097
0.691676 0.0561837 0.208881
0.693187 0.0568093 0.212146
0.694179 0.0572519 0.214664
0.694835 0.0576028 0.216327
0.695247 0.0578164 0.217624
0.695537 0.0579995 0.218402
0.69575 0.0581369 0.219165
0.695979 0.0582589 0.219837
0.696193 0.058381 0.220417
0.696529 0.0585489 0.22118
0.696925 0.058732 0.222004
0.697551 0.0590372 0.223285
0.698207 0.0593423 0.224537
0.00927749 0.0139467 0.0174716
0.00924697 0.0141451 0.017792
0.00892653 0.0131838 0.0163272
0.00926223 0.0118105 0.0154879
0.0104982 0.0102541 0.0144961
0.0260014 0.0145876 0.016434
0.0502937 0.0180209 0.0180056
0.0809796 0.0192874 0.019852
0.11458 0.0187991 0.0217288
0.154421 0.0155947 0.0256046
0.200549 0.0129854 0.0308537
0.253101 0.0123598 0.0388037
0.310704 0.0129854 0.0464179
0.366842 0.0147555 0.0530709
0.422293 0.0161593 0.0624247
0.477211 0.0175174 0.0755322
0.526085 0.0179294 0.0919356
0.570764 0.0207828 0.112444
0.610986 0.0292668 0.134234
0.663615 0.0484474 0.178561
0.685954 0.0542306 0.19881
0.688075 0.0549477 0.202304
0.690532 0.0557717 0.206607
0.691981 0.0563058 0.209567
0.692973 0.0567178 0.211612
0.693614 0.0569924 0.213169
0.694041 0.0571756 0.214267
0.694362 0.0573281 0.214984
0.694636 0.0574807 0.215579
0.695003 0.0576638 0.216373
0.695415 0.057847 0.217258
0.696056 0.0581826 0.218372
0.696727 0.0584878 0.219623
0.0148623 0.0354162 0.0285496
0.0148318 0.0356603 0.0288396
0.0138552 0.0327306 0.0236973
0.0144503 0.0295109 0.0214389
0.0188602 0.0242161 0.0189212
0.0264744 0.0232853 0.0188754
0.0441749 0.0279545 0.0210727
0.0711986 0.0282444 0.0227359
0.104936 0.0271458 0.0232853
0.145357 0.0241245 0.0254063
0.192676 0.0175631 0.0295567
0.24744 0.0141451 0.0367132
0.306889 0.0134432 0.045594
0.363958 0.0146944 0.052781
0.420233 0.0161746 0.0622263
0.475822 0.0175174 0.0753033
0.524971 0.0179599 0.0915389
0.569665 0.0206455 0.111864
0.609247 0.0287175 0.133318
0.657511 0.0465858 0.171862
0.682185 0.0531319 0.192325
0.684367 0.0537881 0.195621
0.685573 0.0540932 0.197894
0.686351 0.0543374 0.199496
0.687587 0.0547799 0.201419
0.689311 0.0553445 0.20412
0.690288 0.0556802 0.205921
0.690913 0.0558938 0.20734
0.691432 0.0560922 0.208392
0.691997 0.0563363 0.209354
0.692531 0.0565499 0.210391
0.693278 0.0569162 0.211643
0.694026 0.0572366 0.212985
0.0194247 0.0582589 0.0392004
0.0193637 0.0585641 0.0396582
0.0179294 0.0554818 0.0330663
0.0180209 0.0519875 0.0294041
0.0266423 0.0468605 0.0266117
0.0383154 0.042649 0.0238193
0.053193 0.0453651 0.0251469
0.0751049 0.0480049 0.0281529
0.107424 0.0462043 0.0307012
0.146014 0.0400549 0.0310063
0.189181 0.0307164 0.0307927
0.242847 0.0216068 0.034699
0.302602 0.0156252 0.0426337
0.361349 0.0151675 0.0519417
0.418463 0.0162966 0.0621195
0.47422 0.0174868 0.0749065
0.523796 0.0180972 0.091371
0.568704 0.0205844 0.111559
0.608377 0.0282597 0.133181
0.65565 0.0451972 0.16994
0.681208 0.052842 0.191043
0.681193 0.052842 0.191012
0.681193 0.052842 0.190997
0.681804 0.0530404 0.191852
0.683284 0.0534829 0.193881
0.684382 0.0538338 0.195483
0.684977 0.0539864 0.196521
0.685466 0.0540932 0.197436
0.685802 0.0541848 0.198215
0.686244 0.0543374 0.199069
0.686702 0.0545052 0.199893
0.687373 0.0547951 0.201099
0.68806 0.0551003 0.202335
0.022797 0.0827649 0.0468452
0.0227207 0.0832532 0.0473182
0.0216373 0.0800488 0.040177
0.0214084 0.0764324 0.035523
0.0276188 0.07187 0.0336461
0.0435187 0.065568 0.0300603
0.0612192 0.0647288 0.027512
0.0842908 0.0683604 0.0298466
0.111254 0.0708019 0.0324712
0.15375 0.064683 0.0395056
0.200244 0.0554208 0.0384375
0.249683 0.0435187 0.0384527
0.303075 0.0252842 0.0416571
0.360174 0.0188296 0.049897
0.416297 0.0167239 0.0616312
0.472374 0.0174716 0.074464
0.522789 0.0182345 0.0911116
0.567758 0.0205234 0.111284
0.608057 0.0280003 0.133425
0.653819 0.0440833 0.168276
0.681407 0.0529335 0.191394
0.681407 0.0529335 0.191379
0.681407 0.0529335 0.191379
0.681407 0.0529335 0.191379
0.681407 0.0529335 0.191379
0.681407 0.0529335 0.191379
0.681407 0.0529335 0.191394
0.681422 0.0529335 0.191409
0.681437 0.0529488 0.19144
0.681529 0.0529946 0.191608
0.681712 0.0530709 0.191913
0.682094 0.0532387 0.192569
0.682506 0.0534218 0.193286
0.0243687 0.107149 0.052369
0.0241398 0.107713 0.0532387
0.0241855 0.105211 0.0449989
0.0242161 0.102617 0.0395819
0.0269322 0.0995804 0.0390784
0.0456703 0.094667 0.0363928
0.0650492 0.0907454 0.0325475
0.0917678 0.0929122 0.0301366
0.121981 0.0965438 0.032166
0.155627 0.0979171 0.0370947
0.211337 0.0868391 0.0466926
0.269169 0.0742199 0.0489204
0.321706 0.059617 0.0480507
0.367681 0.0363317 0.0505837
0.416358 0.0210727 0.0591592
0.470115 0.0175021 0.0738079
0.521538 0.0183261 0.0906844
0.566644 0.0204318 0.110842
0.607065 0.0274205 0.133013
0.65182 0.0427863 0.16611
0.681468 0.0529641 0.191485
0.681468 0.0529641 0.191485
0.681468 0.0529641 0.191485
0.681468 0.0529641 0.191485
0.681468 0.0529641 0.191485
0.681468 0.0529641 0.191485
0.681468 0.0529641 0.191485
0.681468 0.0529641 0.191485
0.681468 0.0529641 0.191501
0.681559 0.0529946 0.191638
0.681727 0.0530709 0.191928
0.682094 0.0532387 0.192569
0.682506 0.0534218 0.193286
0.0238804 0.135439 0.0598154
0.0235294 0.136095 0.0608988
0.0243534 0.133791 0.0509499
0.024918 0.13106 0.0419013
0.0260777 0.12874 0.0398871
0.0386664 0.125399 0.0385901
0.0632792 0.120989 0.0357977
0.0946517 0.119066 0.0320592
0.126879 0.121965 0.0286259
0.165591 0.125887 0.0301823
0.213397 0.124788 0.0412604
0.278553 0.112322 0.0518807
0.348684 0.0948653 0.0598459
0.394217 0.0792859 0.0599069
0.435142 0.0522316 0.060502
0.470222 0.0212863 0.0702983
0.519493 0.0185245 0.0900587
0.564782 0.0202945 0.109941
0.605646 0.0271458 0.132418
0.648859 0.041001 0.163485
0.681468 0.0529641 0.191501
0.681468 0.0529641 0.191501
0.681468 0.0529641 0.191501
0.681468 0.0529641 0.191501
0.681468 0.0529641 0.191501
0.681468 0.0529641 0.191501
0.681468 0.0529641 0.191501
0.681468 0.0529641 0.191501
0.681468 0.0529641 0.191501
0.681559 0.0529946 0.191638
0.681727 0.0530709 0.191928
0.682094 0.0532387 0.192569
0.682506 0.0534218 0.193286
0.0208133 0.16849 0.0679942
0.0202487 0.169253 0.0693675
0.021973 0.166766 0.0572366
0.0230106 0.164599 0.0442969
0.0252232 0.162112 0.0366827
0.029221 0.159792 0.0364691
0.0512245 0.156725 0.0345312
0.0857252 0.153109 0.0309606
0.128618 0.152667 0.0270085
0.16846 0.15642 0.0225223
0.21973 0.160662 0.0251011
0.28101 0.157443 0.045182
0.354238 0.143633 0.0583047
0.425544 0.123247 0.0697795
0.471519 0.104189 0.0732586
0.506264 0.0722057 0.0747539
0.529213 0.0288548 0.0815747
0.564385 0.0203861 0.107012
0.603876 0.0269322 0.131685
0.645609 0.0392157 0.160235
0.681468 0.0529641 0.191501
0.681468 0.0529641 0.191501
0.681468 0.0529641 0.191501
0.681468 0.0529641 0.191501
0.681468 0.0529641 0.191501
0.681468 0.0529641 0.191501
0.681468 0.0529641 0.191501
0.681468 0.0529641 0.191501
0.681468 0.0529641 0.191501
0.681559 0.0529946 0.191638
0.681727 0.0530709 0.191928
0.682094 0.0532387 0.192569
0.682506 0.0534218 0.193286
0.0124361 0.204822 0.0767529
0.0116732 0.205921 0.0783551
0.0157778 0.203906 0.0643473
0.0185855 0.200977 0.0487526
0.0235294 0.198352 0.0353857
0.025452 0.196277 0.0307164
0.0320592 0.194537 0.0297856
0.061677 0.192401 0.0256657
0.111284 0.190356 0.0213321
0.165209 0.191257 0.0174868
0.217792 0.195651 0.0139467
0.283116 0.200519 0.0184482
0.355566 0.198337 0.0486152
0.429908 0.183566 0.0657816
0.502281 0.161975 0.08159
0.552636 0.135149 0.0895857
0.578119 0.0983139 0.0897993
0.592004 0.0438697 0.0977646
0.607004 0.0259098 0.122881
0.640253 0.0364233 0.153719
0.681483 0.0529641 0.191501
0.681468 0.0529641 0.191501
0.681468 0.0529641 0.191501
0.681468 0.0529641 0.191501
0.681468 0.0529641 0.191501
0.681468 0.0529641 0.191501
0.681468 0.0529641 0.191501
0.681468 0.0529641 0.191501
0.681468 0.0529641 0.191501
0.681559 0.0529946 0.191638
0.681727 0.0530709 0.191928
0.682094 0.0532387 0.192569
0.682506 0.0534218 0.193286
0 0.244388 0.0820478
0 0.245319 0.0838636
0.00273136 0.243473 0.071458
0.00607309 0.241154 0.056672
0.0131228 0.238483 0.039765
0.0205081 0.235813 0.0247196
0.022034 0.234363 0.0221256
0.030457 0.232822 0.0186007
0.0710002 0.230915 0.0116426
0.139864 0.230945 0.00813306
0.207828 0.23331 0.00550851
0.274159 0.239597 0.00691234
0.354559 0.246509 0.0113985
0.426703 0.247196 0.0483864
0.502647 0.234089 0.0750591
0.578332 0.210376 0.0954604
0.63209 0.17641 0.109987
0.653208 0.13341 0.109819
0.656657 0.0655375 0.119249
0.651728 0.0375372 0.141054
0.66688 0.0461891 0.173541
0.678828 0.0522621 0.188357
0.681315 0.0529488 0.191318
0.681666 0.0530404 0.191821
0.681651 0.0530404 0.191806
0.681636 0.0530404 0.191775
0.681636 0.0530404 0.191775
0.681651 0.0530404 0.191791
0.681666 0.0530404 0.191836
0.681743 0.0530861 0.191974
0.68188 0.0531319 0.192203
0.68217 0.0532692 0.192706
0.682536 0.0534218 0.193332
0 0.285573 0.0868544
0 0.286458 0.088426
0 0.285115 0.0779278
0 0.283253 0.0657206
0 0.281666 0.052018
0.00729381 0.279454 0.0330358
0.0168307 0.277028 0.0163424
0.0187991 0.275319 0.0130159
0.0285649 0.273136 0.00634775
0.0852979 0.272419 0
0.175113 0.27541 0
0.25658 0.280507 0
0.338857 0.289769 0
0.424933 0.297444 0.00788891
0.494636 0.304494 0.0435492
0.574685 0.294163 0.0834211
0.654353 0.268284 0.113359
0.711177 0.229236 0.134722
0.730343 0.178012 0.134554
0.710307 0.0964218 0.141787
0.682353 0.0497902 0.147463
0.677409 0.0461433 0.160555
0.660487 0.0395666 0.157275
0.666682 0.0476997 0.17293
0.672435 0.0507973 0.181109
0.675395 0.0514534 0.184146
0.677852 0.052079 0.187076
0.679316 0.0524758 0.188983
0.6804 0.052781 0.190097
0.681224 0.0529793 0.191226
0.681743 0.0531472 0.19205
0.682124 0.0532845 0.192691
0.682521 0.0532235 0.192599
0 0.327306 0.0975509
0 0.328206 0.0996719
0 0.327214 0.0891737
0 0.326299 0.0772869
0 0.325109 0.0656291
0 0.323903 0.0530709
0.00173953 0.322393 0.0364996
0.0133822 0.320089 0.0162356
0.0165255 0.318273 0.0107576
0.0306249 0.315068 0
0.105913 0.315419 0
0.215702 0.321157 0
0.312627 0.32961 0
0.401877 0.34168 0
0.494026 0.351476 0.00708019
0.56376 0.364935 0.0410773
0.647547 0.358831 0.0937514
0.72871 0.333913 0.136065
0.790555 0.293019 0.163058
0.798093 0.237491 0.166766
0.770474 0.168505 0.160327
0.738735 0.118975 0.152605
0.70724 0.078584 0.141665
0.687175 0.056733 0.135622
0.686137 0.0535134 0.145129
0.685054 0.0519112 0.150057
0.683558 0.0504158 0.153017
0.683314 0.0492714 0.158404
0.68275 0.0483558 0.16231
0.682811 0.0476844 0.16585
0.681941 0.0468452 0.166217
0.682261 0.0471809 0.166003
0.690425 0.0567788 0.166186
0 0.372335 0.117769
0 0.373434 0.120546
0 0.373175 0.110613
0 0.372396 0.0995651
0 0.371588 0.0885023
0 0.370733 0.0764477
0 0.36994 0.0652018
0.00317388 0.36907 0.0492256
0.0163119 0.366979 0.0256046
0.0195926 0.36495 0.0186465
0.0403296 0.359701 0
0.130907 0.36141 0
0.266224 0.370336 0
0.373617 0.382712 0
0.467414 0.396735 0
0.563516 0.408743 0.0113375
0.635096 0.425879 0.0486305
0.718837 0.424567 0.112642
0.8 0.403922 0.160342
0.856031 0.363928 0.195224
0.858457 0.322606 0.199359
0.842832 0.290822 0.190173
0.827176 0.261616 0.182956
0.812451 0.235126 0.176684
0.800397 0.214481 0.172152
0.79176 0.200473 0.169162
0.784695 0.189242 0.166552
0.779782 0.181735 0.164584
0.776501 0.176928 0.162982
0.775555 0.175525 0.16202
0.776913 0.177783 0.161608
0.782971 0.18645 0.164691
0.791623 0.199222 0.168994
0 0.423331 0.15108
0 0.424887 0.154635
0 0.424033 0.144701
0 0.423178 0.134478
0 0.422385 0.123644
0 0.421637 0.112428
0 0.421332 0.100893
0 0.420935 0.0893873
0.00856031 0.420035 0.0709544
0.0268254 0.417838 0.0428016
0.0310369 0.415747 0.0353552
0.0579995 0.408957 0
0.16202 0.412711 0
0.321706 0.424735 0
0.435035 0.439353 0
0.533928 0.454688 0
0.631296 0.467964 0.0247959
0.705364 0.487343 0.070161
0.788464 0.493126 0.137942
0.856687 0.4757 0.182467
0.89926 0.440635 0.219303
0.902312 0.414603 0.22533
0.89662 0.39707 0.222553
0.891478 0.3832 0.219928
0.886427 0.371359 0.216892
0.882246 0.362936 0.214069
0.879606 0.357458 0.212436
0.877791 0.354757 0.21088
0.877134 0.354635 0.209995
0.877699 0.356741 0.21004
0.878981 0.360678 0.210437
0.881575 0.367483 0.211719
0.885298 0.377249 0.213596
0 0.480812 0.199207
0 0.482261 0.203174
0 0.482017 0.194705
0 0.481315 0.184588
0 0.480262 0.17351
0 0.479652 0.162982
0 0.478721 0.151995
0 0.477882 0.140032
0.000579843 0.476753 0.124147
0.0157015 0.475715 0.102831
0.0369268 0.473945 0.0719921
0.04094 0.471656 0.0645914
0.0800336 0.463447 0.0111849
0.198413 0.468956 0
0.375814 0.483268 0
0.499916 0.500511 0
0.600931 0.51545 0.0115053
0.696742 0.52932 0.0553445
0.773449 0.550362 0.103593
0.843061 0.56144 0.164508
0.88986 0.551095 0.199893
0.913756 0.530541 0.222171
0.914611 0.517082 0.224338
0.915129 0.504891 0.225925
0.915236 0.495338 0.226749
0.915007 0.48835 0.226947
0.914641 0.484489 0.226871
0.914229 0.482963 0.226566
0.913863 0.483665 0.22594
0.913588 0.485359 0.22533
0.913436 0.489204 0.224567
0.913314 0.495476 0.223606
0.913176 0.504417 0.222461
0 0.542901 0.258717
0 0.544533 0.263081
0 0.544427 0.256519
0 0.54435 0.24921
0 0.544503 0.241596
0 0.54403 0.232136
0 0.543313 0.221485
0 0.542367 0.209415
0 0.540719 0.193469
0.00503548 0.538811 0.172091
0.0237125 0.536782 0.14432
0.0426642 0.534295 0.115709
0.0455329 0.531411 0.108766
0.110018 0.523369 0.0290379
0.245563 0.53048 0
0.438102 0.547402 0
0.565942 0.563409 0.019791
0.664485 0.576486 0.0458076
0.757824 0.590814 0.0949416
0.830228 0.611811 0.147066
0.88217 0.626642 0.19408
0.904738 0.62565 0.211917
0.907774 0.617197 0.213581
0.907561 0.609674 0.213138
0.907622 0.6038 0.213016
0.907744 0.599481 0.213062
0.907897 0.597452 0.213184
0.907973 0.596094 0.213199
0.907958 0.596002 0.213138
0.907927 0.597177 0.213123
0.907805 0.599573 0.213001
0.907744 0.604273 0.213046
0.907774 0.610925 0.213336
0 0.607538 0.320165
0 0.609201 0.324117
0 0.6094 0.319768
0 0.609995 0.314717
0 0.61004 0.308934
0 0.609995 0.302739
0 0.609873 0.295796
0 0.609689 0.288502
0 0.609598 0.278096
0 0.607797 0.259236
0.00972 0.604807 0.232639
0.0336461 0.601801 0.196612
0.0479286 0.598917 0.174945
0.0603342 0.594018 0.154238
0.148714 0.587167 0.0634775
0.311711 0.596643 0.0208743
0.509911 0.61297 0.0361639
0.631251 0.626459 0.057023
0.726284 0.638132 0.0911879
0.812665 0.652903 0.143709
0.877211 0.671199 0.192432
0.914794 0.684825 0.226825
0.922576 0.684382 0.234058
0.920928 0.679805 0.231861
0.9196 0.676341 0.230076
0.918685 0.674113 0.228855
0.917845 0.672297 0.227802
0.917464 0.671321 0.227283
0.917479 0.671382 0.227283
0.917708 0.67216 0.227558
0.918456 0.673961 0.228458
0.919509 0.67715 0.229786
0.92108 0.681285 0.231785
0.0187381 0.671244 0.384222
0.0199893 0.672969 0.388296
0.0189364 0.673182 0.385031
0.0177005 0.673274 0.381292
0.0165255 0.673304 0.376974
0.0152743 0.67332 0.372549
0.0140536 0.673442 0.367987
0.0129244 0.673823 0.363394
0.0110323 0.673472 0.356222
0.00825513 0.672557 0.344915
0.00607309 0.671244 0.327932
0.0150301 0.669306 0.29836
0.0356909 0.666194 0.259846
0.044358 0.663188 0.245151
0.0696574 0.655055 0.205859
0.198306 0.649378 0.0942702
0.394537 0.66096 0.0652018
0.583078 0.675868 0.0846113
0.694545 0.688121 0.108202
0.784924 0.699855 0.147921
0.857466 0.713085 0.193576
0.913939 0.728328 0.237964
0.943053 0.737728 0.264622
0.943877 0.734829 0.26453
0.942733 0.732052 0.262638
0.941833 0.729671 0.261128
0.941253 0.728328 0.260182
0.940917 0.72755 0.259648
0.940948 0.727565 0.259678
0.941466 0.728832 0.260487
0.942107 0.730358 0.261509
0.943175 0.73312 0.263233
0.944778 0.737011 0.265843
0.0501259 0.723674 0.449653
0.0515145 0.725093 0.453361
0.0509651 0.725383 0.451331
0.0503243 0.725643 0.449256
0.0496681 0.72578 0.44651
0.0488746 0.725856 0.443458
0.0483558 0.726329 0.441245
0.0475776 0.726482 0.438025
0.0463264 0.72636 0.433463
0.0443275 0.725826 0.4262
0.0413214 0.72462 0.414908
0.0371557 0.723003 0.39794
0.0349737 0.720439 0.368963
0.0375525 0.717876 0.340581
0.0396735 0.71487 0.329122
0.0904402 0.704997 0.239841
0.261418 0.703456 0.128283
0.478386 0.713344 0.123339
0.645701 0.730053 0.14699
0.749905 0.744213 0.172198
0.836698 0.757671 0.212299
0.896483 0.769162 0.248905
0.938872 0.781537 0.282612
0.95523 0.785107 0.296635
0.954955 0.782269 0.294804
0.955077 0.780484 0.293889
0.954772 0.77908 0.292851
0.95462 0.778286 0.292363
0.954574 0.778485 0.292439
0.95465 0.77911 0.292836
0.954833 0.780453 0.293706
0.954696 0.782452 0.294713
0.95494 0.785657 0.296651
0.0846418 0.765896 0.514733
0.0861372 0.767208 0.518074
0.0860609 0.767514 0.517052
0.085832 0.767773 0.515709
0.0859693 0.768322 0.515206
0.0857099 0.768566 0.513588
0.0853437 0.768719 0.511574
0.0849012 0.76878 0.509499
0.0840772 0.768627 0.506554
0.0826123 0.768154 0.501488
0.080766 0.767651 0.494682
0.0772869 0.766064 0.482887
0.0720226 0.763424 0.464424
0.0653239 0.75964 0.439338
0.0615091 0.756573 0.427649
0.0628061 0.751415 0.392554
0.126284 0.744396 0.264958
0.343099 0.741466 0.187854
0.545983 0.753994 0.192325
0.696559 0.774227 0.223087
0.797787 0.791821 0.249409
0.877272 0.805997 0.284123
0.928557 0.816114 0.313313
0.954406 0.824125 0.330724
0.957168 0.823026 0.33109
0.956893 0.82118 0.32874
0.956832 0.819974 0.32726
0.956878 0.819745 0.326818
0.956695 0.819638 0.326467
0.956573 0.820111 0.326909
0.95642 0.821195 0.327962
0.956451 0.822995 0.329931
0.956069 0.825711 0.33283
0.119921 0.798703 0.574456
0.121141 0.799603 0.576959
0.121218 0.799893 0.57673
0.121218 0.800137 0.576272
0.121035 0.800275 0.57525
0.120806 0.800351 0.574151
0.120638 0.800458 0.573159
0.120424 0.800549 0.572015
0.119875 0.800443 0.570214
0.119005 0.800244 0.567254
0.117205 0.799481 0.562249
0.114473 0.798199 0.554314
0.110246 0.79617 0.542336
0.10428 0.793179 0.524453
0.099382 0.790356 0.510613
0.0944076 0.786648 0.499001
0.0857404 0.776272 0.42414
0.177554 0.771786 0.296849
0.421958 0.768368 0.255558
0.604395 0.787411 0.278447
0.743038 0.810483 0.314015
0.836622 0.829999 0.340398
0.907347 0.844099 0.369039
0.951202 0.853193 0.391394
0.96199 0.855436 0.394415
0.961624 0.854032 0.390448
0.961303 0.853056 0.387869
0.961242 0.852583 0.386358
0.961059 0.852445 0.385809
0.960891 0.852766 0.386374
0.960815 0.853559 0.388098
0.960662 0.854856 0.391684
0.96083 0.85687 0.396841
0.13843 0.813504 0.6065
0.138994 0.813794 0.607889
0.13846 0.813596 0.606592
0.137926 0.813367 0.605478
0.137301 0.813107 0.603891
0.136721 0.812848 0.602441
0.135973 0.812497 0.600565
0.135195 0.8121 0.598764
0.134127 0.811566 0.596048
0.132647 0.810819 0.592233
0.13048 0.809705 0.586847
0.127474 0.808148 0.579126
0.123323 0.806058 0.56846
0.117601 0.80325 0.55317
0.112352 0.800534 0.538308
0.111177 0.799741 0.535637
0.103777 0.796017 0.51043
0.112154 0.792691 0.428351
0.27921 0.783139 0.340139
0.501091 0.794217 0.345388
0.675441 0.822644 0.384955
0.797787 0.847105 0.4215
0.873274 0.86247 0.441154
0.931594 0.874357 0.465232
0.961624 0.880201 0.480217
0.964157 0.879499 0.476295
0.964157 0.878309 0.471962
0.964233 0.877592 0.469078
0.964294 0.877363 0.467872
0.96434 0.877546 0.468132
0.964401 0.878355 0.470649
0.964614 0.879484 0.474434
0.964477 0.880934 0.480125
0.140154 0.81442 0.610849
0.140627 0.814649 0.61207
0.140047 0.814404 0.610636
0.139528 0.814176 0.609354
0.138903 0.813916 0.607797
0.138247 0.813581 0.606256
0.137514 0.81323 0.604471
0.136828 0.812909 0.602716
0.135714 0.812375 0.599908
0.134127 0.811566 0.596094
0.132052 0.810483 0.590875
0.129046 0.808942 0.583261
0.12488 0.806836 0.572351
0.119203 0.804059 0.557549
0.112612 0.800702 0.53901
0.112123 0.800443 0.537514
0.109941 0.8 0.528099
0.107485 0.796521 0.465507
0.212406 0.790921 0.368322
0.451896 0.793851 0.364294
0.608087 0.820005 0.412497
0.759899 0.852033 0.468116
0.853254 0.874647 0.508644
0.911223 0.88983 0.538048
0.953063 0.901411 0.567254
0.961654 0.903075 0.570764
0.96199 0.902525 0.567605
0.962097 0.90219 0.56553
0.962158 0.902342 0.565454
0.962112 0.902831 0.566964
0.96202 0.903517 0.569375
0.96202 0.90396 0.571038
0.961944 0.904097 0.571969
0.14168 0.81529 0.614649
0.142031 0.815457 0.615534
0.141405 0.815137 0.613916
0.140749 0.814786 0.612406
0.140124 0.814496 0.61088
0.139483 0.814206 0.609277
0.138781 0.81387 0.607492
0.138003 0.813458 0.605692
0.136934 0.81297 0.602991
0.135409 0.812192 0.599298
0.133288 0.811139 0.593912
0.13022 0.809567 0.586191
0.12604 0.807416 0.57554
0.120409 0.804654 0.560876
0.112947 0.80087 0.540063
0.112123 0.800443 0.537514
0.110796 0.800214 0.531258
0.104448 0.796124 0.476646
0.174868 0.793439 0.374792
0.424445 0.79144 0.361059
0.586542 0.816449 0.408576
0.735546 0.847822 0.463645
0.841581 0.873213 0.510826
0.899428 0.888808 0.540475
0.943313 0.901717 0.572274
0.960143 0.907149 0.588739
0.961242 0.907576 0.589975
0.961212 0.907576 0.589975
0.961181 0.907668 0.59028
0.961135 0.90782 0.590799
0.961105 0.907866 0.590921
0.961089 0.907897 0.590967
0.961089 0.907897 0.590967
0.142763 0.815854 0.617472
0.143145 0.816022 0.618387
0.142428 0.815671 0.616587
0.141756 0.815335 0.614832
0.141085 0.815 0.613214
0.140368 0.814633 0.61149
0.139727 0.814328 0.609888
0.138918 0.813947 0.607874
0.137819 0.813382 0.605234
0.136339 0.81268 0.601495
0.134066 0.811536 0.595895
0.131044 0.809979 0.588281
0.126909 0.807858 0.577905
0.121248 0.805051 0.563119
0.113756 0.801266 0.542458
0.112123 0.800443 0.537514
0.110964 0.800107 0.532998
0.102815 0.795819 0.483253
0.159167 0.794842 0.384939
0.405524 0.789792 0.359411
0.574594 0.814298 0.404639
0.724651 0.845457 0.458473
0.832181 0.870848 0.506477
0.891371 0.886442 0.535729
0.935973 0.899214 0.565362
0.95877 0.906645 0.587518
0.961227 0.907683 0.590524
0.961212 0.907698 0.590585
