bundles/resolve-cinematic-luts/Phantom Luts/S5ii LUTs/WB Offset - Green & Warm Boost/S5ii Tungsten V-Log WBO.cube
TITLE "Generated by Resolve"
LUT_3D_SIZE 5
0.00746166 0.00784314 0.0142672
0.138308 0.0120241 0.0251621
0.534737 0.0276036 0.107805
0.698054 0.0595712 0.226307
0.70074 0.0609445 0.232914
0.0238804 0.135439 0.0598154
0.126879 0.121965 0.0286259
0.519493 0.0185245 0.0900587
0.681468 0.0529641 0.191501
0.682506 0.0534218 0.193286
0 0.480812 0.199207
0.000579843 0.476753 0.124147
0.600931 0.51545 0.0115053
0.915236 0.495338 0.226749
0.913176 0.504417 0.222461
0.140154 0.81442 0.610849
0.135714 0.812375 0.599908
0.109941 0.8 0.528099
0.953063 0.901411 0.567254
0.961944 0.904097 0.571969
0.146136 0.817578 0.62562
0.139025 0.813901 0.608072
0.107301 0.798657 0.519066
0.933867 0.89839 0.563333
0.960998 0.908049 0.591287
0.000732433 0.0210269 0.094667
0.140917 0.0307164 0.106645
0.570871 0.0487984 0.19675
0.71342 0.0717327 0.269154
0.716747 0.0740673 0.275761
0.0348363 0.125612 0.122957
0.0978103 0.114214 0.114763
0.541329 0.0496681 0.141146
0.699519 0.0603342 0.230472
0.701259 0.0613413 0.234562
0 0.481315 0.2654
0 0.479728 0.208652
0.601419 0.513695 0.0111849
0.914809 0.493996 0.225727
0.912657 0.50515 0.22182
0.145724 0.817227 0.624491
0.141405 0.815183 0.613977
0.111086 0.800046 0.533974
0.952316 0.900938 0.564233
0.962753 0.900984 0.559625
0.151965 0.820661 0.639567
0.145144 0.816922 0.623056
0.110338 0.799908 0.529992
0.926925 0.896269 0.557733
0.960983 0.90808 0.591363
0 0.095079 0.387457
0.103868 0.0652934 0.463081
0.585962 0.0863508 0.44564
0.771054 0.121599 0.481117
0.771008 0.12079 0.489296
0 0.134646 0.37113
0 0.0952468 0.387243
0.571374 0.0825666 0.429664
0.772747 0.126009 0.460166
0.773037 0.125597 0.470695
0.0378882 0.509529 0.472847
0.036759 0.510689 0.472206
0.579065 0.556512 0.515236
0.969848 0.486503 0.488075
0.974792 0.485405 0.51458
0.173495 0.832013 0.687282
0.171862 0.83125 0.683803
0.139666 0.814435 0.609354
0.952636 0.910918 0.628763
0.97348 0.913314 0.640543
0.186862 0.839292 0.715724
0.182345 0.836912 0.70631
0.144808 0.816724 0.622217
0.921965 0.919554 0.672328
0.97203 0.934478 0.708095
0.017258 0.380179 0.714336
0.0171054 0.377417 0.714794
0.540597 0.410758 0.986633
0.908125 0.406561 0.919982
0.910094 0.420035 0.930495
0.0142519 0.371618 0.709941
0.0165255 0.378286 0.71339
0.505684 0.41471 0.983017
0.905715 0.39234 0.90869
0.907698 0.405905 0.92018
0.0567941 0.550515 0.728237
0.0603494 0.550851 0.736416
0.388128 0.622187 0.931365
0.937255 0.478386 0.903975
0.939116 0.490242 0.912657
0.25597 0.873762 0.849958
0.258793 0.876371 0.853452
0.243702 0.863844 0.833204
0.95491 0.948913 0.935592
0.976974 0.949981 0.938262
0.267872 0.88188 0.874739
0.268086 0.881971 0.872999
0.254871 0.875105 0.843565
0.944869 0.980163 0.959609
0.991547 0.990082 0.979751
0.0245823 0.402182 0.724025
0.0260624 0.403311 0.726558
0.526543 0.477882 1
0.910369 0.420798 0.930709
0.910338 0.420874 0.930877
0.024506 0.402029 0.723827
0.0246433 0.402274 0.724147
0.489525 0.47715 1
0.910536 0.420417 0.929931
0.910246 0.421073 0.931289
0.0927138 0.590845 0.780545
0.0916304 0.588403 0.779965
0.299519 0.642054 0.918502
0.941436 0.52192 0.957717
0.942061 0.527855 0.959457
0.26421 0.878538 0.881102
0.26833 0.882719 0.883604
0.249042 0.863111 0.87364
0.92958 0.942718 0.97496
0.975814 0.942992 0.974685
0.268498 0.882918 0.883146
0.268925 0.883299 0.883894
0.268925 0.883299 0.883894
0.908812 0.978027 0.977325
0.994003 0.993057 0.992401
