bundles/resolve-cinematic-luts/Phantom Luts/S5ii LUTs/WB Offset - Green & Warm Boost/S5ii Jamaica V-Log WBO Legacy.cube
TITLE "Generated by Resolve"
LUT_3D_SIZE 5
0.0315099 0.0431373 0.0315099
0.133318 0.0471962 0.0318303
0.508324 0.043122 0.0726635
0.647578 0.0710155 0.172107
0.648478 0.071458 0.174014
0.0307164 0.123995 0.0522164
0.105928 0.106737 0.0365759
0.49015 0.04065 0.0592203
0.634501 0.0668803 0.148592
0.634256 0.0669566 0.148104
0.0541695 0.561608 0.238468
0.104601 0.560235 0.164294
0.548608 0.531518 0.0573739
0.872679 0.448722 0.264897
0.851743 0.405966 0.253681
0.383963 0.959442 0.761791
0.383062 0.96022 0.749813
0.387503 0.968978 0.711696
0.995895 0.99707 0.590814
1 0.99147 0.575433
0.385885 0.960433 0.769085
0.383261 0.958999 0.758541
0.383032 0.964843 0.713726
0.959854 0.998932 0.628153
1 0.998932 0.656901
0.0328679 0.0469368 0.0819715
0.142916 0.0500954 0.0982986
0.545052 0.0520638 0.138903
0.661601 0.0757458 0.202869
0.662898 0.0766155 0.204974
0.0429847 0.110018 0.101152
0.0915999 0.096437 0.0803998
0.493904 0.0495308 0.0813458
0.64828 0.0712749 0.173632
0.648707 0.0715038 0.174548
0.040238 0.545983 0.289509
0.047303 0.545769 0.225071
0.543832 0.524834 0.0548257
0.867643 0.437278 0.262287
0.845426 0.39411 0.250172
0.38407 0.957916 0.769528
0.3832 0.95874 0.75874
0.385916 0.967407 0.714214
0.993744 0.9953 0.582849
1 0.989166 0.564996
0.385382 0.958236 0.776547
0.383413 0.957366 0.767437
0.383032 0.964843 0.713726
0.954116 0.998932 0.6271
1 0.998932 0.656703
0.0146029 0.0647593 0.328725
0.119707 0.0504768 0.376181
0.581781 0.0630655 0.3991
0.755734 0.141207 0.383047
0.755871 0.141344 0.383642
0.0220951 0.0927901 0.311772
0.0260166 0.0662089 0.325963
0.566629 0.0627146 0.372732
0.747448 0.138674 0.345403
0.747845 0.139605 0.343938
0.0668956 0.493919 0.443824
0.0621042 0.487114 0.426505
0.526787 0.503395 0.42269
0.914397 0.40441 0.386648
0.890288 0.357565 0.36907
0.38436 0.949432 0.801984
0.3841 0.951202 0.793805
0.383032 0.960128 0.750225
0.987579 0.987518 0.6121
1 0.979004 0.595422
0.385183 0.949264 0.807614
0.384375 0.949722 0.799603
0.382879 0.958938 0.756542
0.937026 0.998932 0.669688
1 0.998932 0.696651
0.0244297 0.195972 0.620661
0.0229648 0.194293 0.618189
0.475654 0.201816 0.793561
0.845106 0.303532 0.840192
0.851713 0.313085 0.851972
0.020676 0.186587 0.61297
0.0216983 0.188983 0.615381
0.431281 0.197711 0.782238
0.828244 0.280537 0.809995
0.832181 0.285161 0.815518
0.0526589 0.425757 0.660502
0.0496071 0.4112 0.659312
0.317174 0.415885 0.782681
0.921019 0.372686 0.855879
0.897749 0.339101 0.826429
0.38674 0.910826 0.88661
0.382315 0.910353 0.878538
0.362676 0.900114 0.854978
0.945556 0.942458 0.894636
0.990951 0.937179 0.897444
0.39498 0.913787 0.898146
0.394003 0.91606 0.89369
0.390356 0.923842 0.872862
0.893126 0.997299 0.936584
0.994736 0.989883 0.963836
0.046479 0.259922 0.655665
0.0485237 0.261326 0.657649
0.413153 0.318502 0.858625
0.883467 0.366415 0.91635
0.883497 0.366415 0.916365
0.0470893 0.260578 0.656291
0.0462654 0.260029 0.655497
0.36997 0.316274 0.841962
0.88365 0.366354 0.916594
0.883284 0.366491 0.916197
0.106188 0.454612 0.723018
0.099855 0.441855 0.717296
0.191577 0.445289 0.798245
0.937316 0.447013 0.966918
0.925505 0.427237 0.956024
0.358297 0.875898 0.903868
0.352041 0.871199 0.89984
0.317998 0.836088 0.881056
0.886854 0.912718 0.973648
0.987472 0.915587 0.989837
0.380911 0.895933 0.916304
0.380087 0.896712 0.91487
0.380087 0.896712 0.91487
0.799908 0.989334 0.992309
0.996628 0.988373 0.995682
