bundles/resolve-cinematic-luts/Phantom Luts/S5ii LUTs/WB Offset - Green & Warm Boost/S5ii Utopia V-Log WBO.cube
TITLE "Generated by Resolve"
LUT_3D_SIZE 9
0 0.0270237 0.0350347
0.0386358 0.0248722 0.034226
0.130999 0.0189517 0.0272679
0.302953 0.0108034 0.023682
0.51252 0.0137942 0.0544594
0.693034 0.0351415 0.16051
0.69955 0.0373541 0.171374
0.700511 0.0377356 0.175311
0.704784 0.0366217 0.176715
0 0.0415198 0.0396277
0.0109255 0.0327306 0.0358434
0.0952926 0.0316625 0.0321508
0.289494 0.0111238 0.0220493
0.501228 0.00581369 0.0344854
0.670771 0.0301823 0.125887
0.683772 0.0321813 0.135653
0.691386 0.0331426 0.1458
0.697612 0.0323949 0.149599
0 0.141131 0.0334783
0.00898756 0.129625 0.0213474
0.105837 0.123125 0.0303197
0.331823 0.0824292 0.0491646
0.497719 0.00698863 0.0330663
0.670619 0.0285801 0.123812
0.683238 0.031632 0.133486
0.683238 0.031632 0.133486
0.685267 0.0310063 0.133425
0 0.336721 0.0466163
0 0.327825 0
0.0331579 0.318959 0
0.3252 0.312703 0.0315099
0.621134 0.264652 0.102281
0.729946 0.0401617 0.067628
0.663783 0.0259861 0.103548
0.680598 0.0300145 0.124575
0.685924 0.030045 0.130083
0 0.609155 0.21149
0.00268559 0.614313 0.170397
0.0529641 0.616495 0.119066
0.168322 0.592447 0.010544
0.614099 0.565667 0.0652934
0.876204 0.563363 0.164355
0.918502 0.487724 0.19469
0.916274 0.459098 0.192569
0.915633 0.451514 0.190921
0.0269932 0.878874 0.497444
0.0223087 0.88188 0.480446
0.020264 0.885695 0.454078
0.061265 0.900023 0.356497
0.507134 0.867308 0.185138
0.865965 0.806271 0.190036
0.983429 0.806928 0.225986
0.980957 0.796231 0.217914
0.979782 0.792813 0.217227
0.0674144 0.973159 0.673335
0.0628214 0.975021 0.666789
0.0610361 0.976455 0.657557
0.0569009 0.980713 0.626551
0.054963 0.990753 0.575662
0.762173 0.989807 0.510933
0.994781 0.955535 0.55172
0.999969 0.949538 0.538979
0.999969 0.947753 0.531548
0.0654154 0.972488 0.682628
0.0670634 0.972854 0.676417
0.0668345 0.974029 0.66743
0.0631571 0.978012 0.638483
0.058381 0.984863 0.595346
0.688396 0.999283 0.504601
0.967132 0.968887 0.614435
0.999908 0.96759 0.639612
0.999634 0.968002 0.640391
0.0618753 0.972946 0.685786
0.0633402 0.973327 0.679652
0.0654765 0.973922 0.670771
0.0635996 0.977584 0.64155
0.0583963 0.984756 0.595865
0.670832 0.999771 0.498512
0.958175 0.969039 0.611795
0.999817 0.967758 0.639933
0.999496 0.968154 0.640696
0 0.0281071 0.0408637
0.0305333 0.0276493 0.0572824
0.133776 0.0272221 0.0636912
0.325231 0.0232853 0.0761273
0.532036 0.0264439 0.101396
0.699687 0.0383764 0.184253
0.706569 0.0409705 0.194614
0.707485 0.0418555 0.198566
0.710384 0.0413214 0.200351
0 0.035935 0.0446784
9.15541e-05 0.0270237 0.0348821
0.103334 0.0209049 0.0292821
0.291539 0.0145571 0.030518
0.508995 0.0153658 0.0559548
0.695369 0.0346685 0.162188
0.702449 0.0368658 0.173373
0.703212 0.0371557 0.177005
0.706188 0.0365301 0.178332
0 0.131243 0.0838636
0 0.124529 0.0374456
0.0991684 0.115755 0.0310979
0.322271 0.0654917 0.0415808
0.496818 0.00646983 0.0335851
0.671809 0.0284276 0.124453
0.68748 0.0321202 0.137942
0.690669 0.0323186 0.142168
0.693919 0.0318151 0.143709
0 0.331533 0.101503
0 0.327474 0.0504005
0.00650034 0.315755 0
0.322133 0.30782 0.0316167
0.622873 0.248981 0.102724
0.725643 0.0378424 0.0707256
0.668452 0.0269169 0.109346
0.684596 0.030457 0.12958
0.685039 0.0298314 0.12958
0 0.601175 0.251011
0 0.603998 0.211719
0.0133822 0.610529 0.154665
0.131884 0.596368 0.0345464
0.612909 0.563592 0.0645762
0.878004 0.557153 0.166629
0.918105 0.482261 0.194171
0.915908 0.455024 0.192554
0.915068 0.447166 0.190585
0.0285649 0.874189 0.51133
0.0238651 0.876951 0.49572
0.0211185 0.880003 0.471885
0.0305333 0.892134 0.377554
0.486091 0.869566 0.17995
0.8654 0.804608 0.187808
0.982696 0.803952 0.223651
0.980041 0.792889 0.215641
0.978759 0.789303 0.214755
0.068101 0.972213 0.679667
0.0635386 0.974044 0.673365
0.0618753 0.975494 0.664714
0.0580148 0.979461 0.635309
0.0547494 0.989273 0.582162
0.756664 0.99089 0.507424
0.9944 0.954818 0.547402
0.999969 0.948165 0.533349
0.999969 0.94641 0.525856
0.065568 0.97174 0.688746
0.0684367 0.971725 0.683116
0.0674907 0.973007 0.674464
0.0642557 0.976898 0.64654
0.0583963 0.984527 0.596582
0.678889 0.999588 0.501183
0.965225 0.968856 0.613779
0.999908 0.96759 0.639612
0.999634 0.968002 0.640391
0.062562 0.972061 0.692088
0.0651102 0.972137 0.686152
0.066392 0.972869 0.677531
0.0646525 0.976486 0.649683
0.0584421 0.984527 0.596948
0.660365 0.999939 0.495079
0.955856 0.969055 0.611246
0.999817 0.967758 0.639933
0.999496 0.968154 0.640696
0 0.036408 0.104662
0.049836 0.0278325 0.106401
0.135775 0.0322423 0.116167
0.333333 0.0337835 0.117388
0.545983 0.0296941 0.147829
0.707683 0.0461433 0.213169
0.713252 0.049134 0.22266
0.715404 0.0506142 0.227039
0.718441 0.0502174 0.228809
0 0.0439918 0.0746471
0 0.0356451 0.097673
0.106035 0.0305333 0.0984054
0.315328 0.0265507 0.0905165
0.536019 0.0247196 0.119722
0.701732 0.0402838 0.192111
0.707912 0.042771 0.201785
0.708812 0.043595 0.205097
0.711589 0.0429999 0.20679
0 0.124041 0.125277
0 0.115297 0.11574
0.0860914 0.110277 0.114046
0.314611 0.071397 0.0777142
0.515724 0.0325628 0.0867323
0.696834 0.0366217 0.171893
0.702129 0.0375067 0.177157
0.702419 0.0377203 0.178302
0.704967 0.0373083 0.179797
0 0.320073 0.164523
0 0.319646 0.128634
0 0.317037 0.0520485
0.321523 0.305913 0.0558175
0.625528 0.236866 0.120623
0.719234 0.0336461 0.078172
0.684596 0.0307164 0.12755
0.697627 0.0331273 0.152895
0.696483 0.0322576 0.151659
0 0.591028 0.292836
0 0.593469 0.260716
0 0.598215 0.206912
0.0994736 0.599237 0.0614023
0.611109 0.560739 0.0634623
0.877394 0.553048 0.167071
0.918242 0.476402 0.194064
0.914809 0.449546 0.191821
0.914153 0.441749 0.190051
0.030396 0.868772 0.526406
0.0256809 0.870802 0.512444
0.022797 0.873335 0.491295
0.0214847 0.883726 0.406638
0.456153 0.87306 0.17554
0.86453 0.802472 0.184802
0.981888 0.800488 0.221057
0.979049 0.789593 0.21326
0.978134 0.786313 0.211551
0.0677043 0.97145 0.687099
0.0643015 0.972915 0.681224
0.0627146 0.974289 0.672877
0.0593423 0.978012 0.645365
0.0542611 0.987289 0.589059
0.748928 0.99205 0.50277
0.993637 0.953475 0.541711
0.999969 0.946487 0.526345
0.999969 0.944228 0.518471
0.0654002 0.971008 0.696162
0.0681163 0.970962 0.690745
0.0684215 0.971786 0.682521
0.0654765 0.975662 0.656092
0.0584573 0.984283 0.597757
0.666239 0.999878 0.496941
0.962676 0.968841 0.612848
0.999908 0.96759 0.639612
0.999634 0.968002 0.640391
0.0634012 0.971115 0.699641
0.0639811 0.971572 0.693721
0.0679484 0.971557 0.685695
0.0658274 0.97528 0.658946
0.0585184 0.984161 0.59855
0.645945 0.999969 0.490547
0.95285 0.969284 0.610758
0.999817 0.967758 0.639933
0.999466 0.968185 0.640757
0 0.0549935 0.222309
0.00631724 0.0455787 0.254795
0.171878 0.0330053 0.233082
0.334401 0.0420996 0.236164
0.557183 0.059144 0.254551
0.745617 0.0825513 0.291402
0.752514 0.0874189 0.30016
0.754726 0.0897993 0.304433
0.757259 0.0897841 0.306645
0 0.0648051 0.200504
0 0.0541695 0.219028
0.107759 0.0344244 0.249317
0.320729 0.0411383 0.222156
0.554482 0.0539406 0.223545
0.73695 0.0720989 0.273014
0.743221 0.0759899 0.281254
0.745602 0.0782483 0.285267
0.748608 0.078294 0.287739
0 0.134325 0.206699
0 0.121263 0.214893
0.0138399 0.104677 0.255085
0.311254 0.0598917 0.221759
0.547555 0.0458686 0.196841
0.723766 0.0603494 0.248249
0.729534 0.0631571 0.255344
0.731594 0.0650645 0.259327
0.734356 0.0650187 0.261234
0 0.301183 0.27248
0 0.29659 0.265339
0 0.290379 0.25359
0.30396 0.304356 0.282567
0.605783 0.251926 0.232227
0.756115 0.0683452 0.220386
0.719676 0.052491 0.228824
0.719493 0.0533608 0.232105
0.720073 0.0528573 0.232593
0 0.573648 0.38024
0 0.573037 0.364141
0 0.573495 0.336385
0 0.583261 0.207828
0.604974 0.563272 0.198154
0.88835 0.523934 0.28423
0.916732 0.46482 0.257877
0.910918 0.442679 0.246952
0.90866 0.434897 0.243519
0.0353704 0.85481 0.561944
0.03093 0.856245 0.551568
0.0284428 0.857786 0.53576
0.0206302 0.863111 0.474357
0.395773 0.87892 0.210147
0.858427 0.798444 0.216632
0.978851 0.794629 0.24683
0.97615 0.783123 0.231464
0.975235 0.779721 0.227115
0.0704967 0.968917 0.705486
0.0644999 0.970672 0.700191
0.0648966 0.971283 0.692638
0.0621958 0.974609 0.669108
0.0540169 0.985275 0.594339
0.737331 0.993027 0.491539
0.991394 0.949828 0.526711
0.999969 0.941741 0.510674
0.999954 0.940078 0.502785
0.0672618 0.968948 0.714733
0.0653239 0.969833 0.709346
0.0706188 0.969253 0.702235
0.06804 0.97232 0.678965
0.0585641 0.983948 0.599176
0.639673 0.999969 0.488319
0.956863 0.968826 0.611048
0.999908 0.96759 0.639612
0.999634 0.968002 0.640391
0.0653849 0.9691 0.717968
0.0648051 0.96965 0.712917
0.0681621 0.969528 0.705547
0.0683757 0.971847 0.682124
0.0588083 0.983246 0.602502
0.614008 0.999969 0.48191
0.946471 0.969879 0.609842
0.999817 0.967758 0.639933
0.999496 0.968154 0.640696
0 0.0928664 0.392889
0 0.084947 0.420783
0.049073 0.0616465 0.465507
0.374151 0.0472725 0.425895
0.560174 0.0745861 0.427314
0.756924 0.107805 0.453361
0.762814 0.107851 0.461372
0.762707 0.107027 0.46511
0.764935 0.105623 0.468482
0 0.0981918 0.386404
0 0.0927291 0.392416
0 0.0755322 0.451148
0.353902 0.0437781 0.431235
0.555367 0.0726177 0.420813
0.758099 0.109545 0.444129
0.763714 0.10988 0.451514
0.763745 0.1093 0.455055
0.765728 0.10808 0.458366
0 0.131609 0.371756
0 0.113863 0.380835
0 0.0922408 0.403159
0.314122 0.040116 0.440879
0.549264 0.0704051 0.412467
0.758175 0.11107 0.430014
0.763348 0.111742 0.435767
0.763302 0.111543 0.439155
0.765301 0.110613 0.4421
0 0.297108 0.40383
0 0.288151 0.40473
0 0.274647 0.406271
0.171511 0.273594 0.501823
0.583627 0.209781 0.463935
0.758511 0.115099 0.406561
0.764584 0.112871 0.412741
0.764233 0.112703 0.414267
0.765698 0.112001 0.416526
0 0.553063 0.507729
0 0.550698 0.504448
0 0.547402 0.498955
0 0.538552 0.479774
0.571405 0.557336 0.517998
0.879652 0.510384 0.476295
0.915419 0.458869 0.431678
0.911559 0.428244 0.434012
0.910216 0.415869 0.435874
0.0457008 0.832883 0.637522
0.0415198 0.832761 0.632364
0.0401465 0.831952 0.623636
0.0366979 0.829557 0.593851
0.215091 0.867247 0.493202
0.840925 0.787778 0.494987
0.975128 0.774899 0.518425
0.974472 0.760479 0.513939
0.973556 0.756344 0.513588
0.0739452 0.96405 0.750179
0.0679179 0.965713 0.746395
0.0675212 0.966247 0.740963
0.0677806 0.967605 0.723354
0.0624704 0.974365 0.670085
0.694087 0.99855 0.576837
0.9841 0.946807 0.620264
0.999924 0.937972 0.617014
0.999878 0.93547 0.612329
0.0708934 0.964538 0.760143
0.0685435 0.965362 0.756146
0.0681315 0.965896 0.75024
0.0727245 0.966308 0.731655
0.0677195 0.972824 0.676143
0.558221 0.999969 0.590585
0.95021 0.974075 0.699748
0.999176 0.973388 0.727855
0.998581 0.973861 0.728832
0.0704509 0.96434 0.763973
0.0686961 0.965072 0.759747
0.0679332 0.965698 0.753506
0.0726329 0.96611 0.734524
0.0679942 0.972351 0.678752
0.529488 0.999969 0.582895
0.940169 0.975174 0.695766
0.999084 0.973342 0.726482
0.99852 0.973754 0.726986
0 0.172625 0.541955
0 0.170886 0.545083
0 0.16257 0.582467
0.21532 0.117403 0.659129
0.607736 0.133776 0.617899
0.761944 0.108949 0.601068
0.770779 0.113725 0.614542
0.772503 0.117861 0.620356
0.777646 0.117678 0.62707
0 0.17261 0.541939
0 0.172869 0.542504
0 0.16788 0.552666
0.165759 0.122026 0.658381
0.602228 0.131991 0.61912
0.760174 0.104997 0.595117
0.768048 0.108919 0.60647
0.770352 0.112062 0.612345
0.775677 0.111574 0.618952
0 0.179202 0.532128
0 0.17351 0.541207
0 0.172686 0.542458
0.0978714 0.129549 0.653101
0.592874 0.128573 0.620569
0.755199 0.100908 0.585229
0.761715 0.10367 0.593042
0.7635 0.105867 0.59794
0.76875 0.104814 0.603967
0 0.289586 0.529168
0 0.277958 0.534508
0 0.262043 0.542092
0 0.251301 0.600534
0.573968 0.15639 0.642329
0.748501 0.103029 0.574456
0.755093 0.0933394 0.570077
0.755169 0.0934768 0.570993
0.759045 0.0920729 0.57467
0 0.542535 0.626841
0 0.538903 0.628367
0 0.533501 0.629084
0 0.513863 0.631769
0.470298 0.544549 0.748104
0.860548 0.486275 0.703792
0.89752 0.406928 0.689128
0.887327 0.381445 0.679713
0.882612 0.372702 0.67715
0.0484779 0.803616 0.743175
0.0446937 0.803143 0.742763
0.0439307 0.801053 0.739879
0.0425574 0.793927 0.729549
0.190753 0.796292 0.722667
0.800443 0.778424 0.730785
0.963912 0.750622 0.708827
0.963516 0.737591 0.702678
0.961822 0.734722 0.69958
0.0773785 0.956573 0.823423
0.0706493 0.95848 0.821805
0.069688 0.959182 0.818448
0.0690013 0.957046 0.805966
0.0646525 0.951568 0.764065
0.648981 0.98291 0.739132
0.964508 0.939956 0.774655
0.991424 0.938018 0.789837
0.990433 0.935302 0.787213
0.0792554 0.956863 0.835035
0.0717937 0.95874 0.832944
0.0706645 0.959289 0.828977
0.0714122 0.960143 0.815763
0.0755932 0.962127 0.777981
0.467811 0.997269 0.75436
0.926467 0.982895 0.839384
0.995789 0.98262 0.881682
0.994873 0.98294 0.882475
0.0739452 0.957702 0.840421
0.0720684 0.958328 0.837613
0.0708782 0.958953 0.832868
0.0713207 0.959915 0.818998
0.0756237 0.96202 0.7794
0.42266 0.996094 0.750607
0.90927 0.985718 0.829618
0.9935 0.982483 0.875669
0.99411 0.983154 0.882094
0 0.308843 0.68101
0 0.309163 0.681926
0 0.31014 0.680583
0.0152285 0.321492 0.757946
0.488029 0.304982 0.870237
0.858991 0.333349 0.833631
0.876478 0.37351 0.862089
0.88043 0.389105 0.87277
0.880812 0.394614 0.879011
0 0.308049 0.680156
0 0.308431 0.681468
0 0.308278 0.681407
0 0.324834 0.735027
0.470069 0.306935 0.870604
0.858427 0.330068 0.831128
0.873899 0.363912 0.854902
0.877272 0.377203 0.865034
0.877775 0.381949 0.870863
0 0.302663 0.674693
0 0.306966 0.680415
0 0.307012 0.680446
0 0.321645 0.707546
0.445823 0.308064 0.8701
0.85565 0.325444 0.8271
0.871061 0.351705 0.844373
0.873915 0.362066 0.852415
0.874128 0.365469 0.857694
0 0.327947 0.650828
0 0.325292 0.659129
0 0.32369 0.668086
0 0.321538 0.679026
0.373114 0.30454 0.861631
0.841352 0.310155 0.817716
0.85861 0.312734 0.814267
0.859449 0.315679 0.816861
0.860365 0.316854 0.821286
0 0.544823 0.719997
0 0.541772 0.722652
0 0.536919 0.723857
0 0.523064 0.728511
0.301442 0.560754 0.845701
0.869047 0.493675 0.880522
0.912688 0.462455 0.848173
0.905684 0.443168 0.840467
0.901564 0.436591 0.838972
0 0.780179 0.824704
0 0.779767 0.828077
0 0.776516 0.827863
0 0.765332 0.827329
0.00440986 0.754711 0.845365
0.726543 0.770199 0.912718
0.956512 0.734951 0.879347
0.955856 0.722637 0.875975
0.955093 0.719265 0.875914
0.0786603 0.940215 0.892134
0.0677348 0.941283 0.893263
0.0660716 0.939818 0.891371
0.063859 0.935256 0.885374
0.0609598 0.92401 0.869352
0.629984 0.933623 0.890089
0.942321 0.93022 0.906752
0.980301 0.927123 0.903212
0.979339 0.923705 0.902052
0.0806744 0.951019 0.911498
0.0731518 0.952895 0.91165
0.0726787 0.953338 0.909392
0.0737469 0.95407 0.900847
0.0767834 0.955016 0.876844
0.227405 0.976165 0.872663
0.91252 0.987533 0.928191
0.991684 0.98439 0.954086
0.991928 0.983978 0.95404
0.0777447 0.950942 0.917067
0.072221 0.952392 0.916762
0.0718242 0.952911 0.913878
0.0734264 0.953765 0.904372
0.0767376 0.955001 0.87747
0.207065 0.975647 0.87187
0.890761 0.988815 0.926146
0.986938 0.986587 0.960922
0.99115 0.98822 0.96759
0 0.39794 0.720012
0 0.398123 0.720943
0 0.400305 0.725933
0 0.428763 0.751263
0.408576 0.444587 0.938933
0.874052 0.433036 0.912779
0.889158 0.435676 0.907591
0.889479 0.435676 0.907164
0.889052 0.43566 0.907729
0 0.397879 0.719768
0 0.398154 0.721035
0 0.398489 0.722347
0 0.420508 0.738674
0.391394 0.443626 0.935607
0.87335 0.433021 0.91284
0.889158 0.435676 0.907591
0.889097 0.43566 0.907683
0.888319 0.43563 0.908766
0 0.398474 0.718975
0 0.398154 0.721019
0 0.398154 0.721035
0 0.414496 0.732464
0.365576 0.441962 0.928618
0.868696 0.431479 0.913725
0.889876 0.435706 0.906615
0.889754 0.435691 0.906767
0.888594 0.435645 0.908385
0 0.429511 0.724071
0 0.431327 0.729
0 0.419181 0.72575
0 0.401297 0.725811
0.281071 0.446494 0.89485
0.841199 0.427222 0.922606
0.890105 0.435721 0.906279
0.89012 0.435721 0.906264
0.888899 0.43566 0.907942
0 0.569741 0.775296
0 0.570611 0.780468
0 0.572305 0.78529
0 0.567285 0.787732
0.141939 0.60795 0.845197
0.742168 0.56936 0.984176
0.925185 0.5299 0.937377
0.92163 0.518105 0.933883
0.918593 0.514443 0.934478
0 0.771481 0.870634
0 0.770809 0.874556
0 0.767346 0.874632
0 0.756649 0.875196
0 0.739986 0.880903
0.626596 0.781384 0.9561
0.962448 0.746853 0.958892
0.964736 0.736416 0.954238
0.962478 0.733608 0.955596
0.0528878 0.92639 0.9281
0.0436255 0.926497 0.929808
0.0416876 0.92462 0.928923
0.0373388 0.918181 0.925643
0.027039 0.901061 0.919692
0.56144 0.918212 0.956054
0.915755 0.923674 0.965759
0.978576 0.919799 0.957229
0.976837 0.91664 0.957275
0.0680705 0.945144 0.943832
0.057145 0.947646 0.947204
0.0568246 0.947845 0.946975
0.0585641 0.948409 0.944106
0.0671397 0.949722 0.934356
0.132372 0.968688 0.93904
0.900832 0.978836 0.967147
0.989517 0.980346 0.975555
0.992355 0.980652 0.974624
0.0677806 0.944991 0.944472
0.0565957 0.947402 0.94818
0.0561532 0.947585 0.948104
0.0571298 0.947951 0.946441
0.0670939 0.949783 0.934432
0.11426 0.967544 0.93579
0.860349 0.983185 0.964218
0.985992 0.988479 0.981765
0.997497 0.988525 0.986099
0 0.397986 0.72018
0 0.398123 0.720958
0 0.400107 0.72575
0 0.427512 0.74966
0.407645 0.444495 0.938796
0.874617 0.433158 0.912627
0.889158 0.435676 0.907591
0.889296 0.435676 0.907408
0.888945 0.43566 0.907881
0 0.397894 0.719814
0 0.398154 0.721035
0 0.398398 0.722026
0 0.419821 0.737957
0.390173 0.443397 0.935302
0.874327 0.433188 0.912245
0.889158 0.435676 0.907591
0.889036 0.435676 0.907759
0.888228 0.43563 0.908904
0 0.397757 0.718807
0 0.398138 0.721019
0 0.398154 0.721035
0 0.414008 0.732097
0.363622 0.442283 0.928206
0.868879 0.431449 0.913695
0.88983 0.435691 0.906676
0.889723 0.435691 0.906813
0.888594 0.435645 0.90837
0 0.434089 0.727596
0 0.425895 0.72752
0 0.413428 0.724514
0 0.401099 0.725734
0.275715 0.446189 0.892088
0.839307 0.427131 0.923476
0.890028 0.435706 0.906401
0.890059 0.435706 0.90634
0.888899 0.43566 0.907942
0 0.590951 0.798489
0 0.587686 0.798901
0 0.582315 0.796185
0 0.563745 0.785672
0.127947 0.602716 0.841321
0.734691 0.565133 0.983948
0.923232 0.524865 0.935988
0.920012 0.513497 0.933013
0.917052 0.509636 0.933211
0 0.772503 0.887678
0 0.772213 0.891402
0 0.769512 0.891264
0 0.758846 0.886824
0 0.737545 0.881575
0.611063 0.781186 0.957061
0.960021 0.746395 0.967391
0.962722 0.736461 0.964172
0.961059 0.734051 0.965423
0.0451362 0.923827 0.937209
0.0382391 0.922988 0.938689
0.0361639 0.920775 0.938155
0.0305943 0.912673 0.935439
0.0162814 0.892027 0.929473
0.506722 0.910536 0.969085
0.884092 0.919936 0.974578
0.978317 0.915236 0.973785
0.977752 0.912322 0.97409
0.0669718 0.945174 0.944732
0.0565499 0.947417 0.94818
0.0560006 0.947524 0.948257
0.0560006 0.947524 0.948257
0.0560006 0.947524 0.948257
0.0773022 0.961303 0.957748
0.863676 0.972915 0.981094
0.983261 0.978866 0.982834
0.99147 0.979095 0.981857
0.0633402 0.945998 0.945708
0.0565499 0.947417 0.94818
0.0560006 0.947524 0.948257
0.0560006 0.947524 0.948257
0.0560006 0.947524 0.948257
0.0731518 0.960418 0.955962
0.80148 0.981491 0.979294
0.982116 0.988846 0.987915
0.995071 0.991684 0.990417
