bundles/resolve-cinematic-luts/Phantom Luts/S5ii LUTs/WB Offset - Green & Warm Boost/S5ii Jamaica V-Log WBO.cube
TITLE "Generated by Resolve"
LUT_3D_SIZE 9
0.00825513 0.0293278 0.00825513
0.0536812 0.0299535 0.0081178
0.16347 0.029633 0.0112001
0.344884 0.0290532 0.0235904
0.542702 0.0354314 0.0717021
0.649058 0.068574 0.184482
0.651881 0.0694438 0.190814
0.653162 0.0698405 0.193698
0.653407 0.0699779 0.193729
0.00952163 0.0471962 0.0172274
0.0211185 0.0376287 0.00988785
0.120348 0.0394141 0.0131991
0.328283 0.0295109 0.0199435
0.532006 0.0315709 0.055848
0.636744 0.0639658 0.158389
0.636088 0.0638895 0.156771
0.641566 0.0661326 0.167971
0.642725 0.0666819 0.169879
0.00889601 0.150958 0.0417945
0.021561 0.139452 0.0222782
0.127596 0.128527 0.0146181
0.357275 0.0936141 0.0424811
0.526619 0.0317082 0.0533303
0.637354 0.064271 0.159487
0.637354 0.064271 0.159487
0.637369 0.064271 0.159487
0.637263 0.0642863 0.15903
0 0.34818 0.103044
0.016022 0.342229 0.0472725
0.0458076 0.332296 0.0140841
0.328969 0.322759 0.00967422
0.644984 0.275517 0.107485
0.621515 0.0701152 0.11075
0.627955 0.0601968 0.141405
0.634989 0.0633402 0.154452
0.637003 0.0641947 0.158495
0.0500801 0.62034 0.30631
0.0698558 0.623987 0.267033
0.106874 0.62742 0.22005
0.17879 0.613306 0.109239
0.607965 0.590082 0.0807813
0.879927 0.589715 0.258045
0.892592 0.511223 0.273945
0.881804 0.478935 0.267765
0.875959 0.466529 0.264073
0.270039 0.8757 0.628244
0.268803 0.875624 0.615366
0.267277 0.875288 0.599115
0.277806 0.884474 0.542641
0.503212 0.914763 0.351034
0.855528 0.845869 0.3393
0.954986 0.853605 0.408515
0.951385 0.840497 0.399817
0.950332 0.835096 0.39733
0.376394 0.946273 0.784085
0.375891 0.946807 0.778607
0.375692 0.94789 0.773587
0.375051 0.950713 0.759182
0.377188 0.956924 0.737011
0.768963 0.998932 0.634989
0.994125 0.992996 0.625834
1 0.989929 0.616571
1 0.988678 0.608057
0.377386 0.946517 0.788693
0.376135 0.945525 0.784527
0.375738 0.946273 0.780179
0.374884 0.948882 0.766506
0.374228 0.953567 0.740368
0.682445 0.998932 0.647852
0.970245 0.994171 0.668147
1 0.995758 0.698161
1 0.997192 0.69633
0.377722 0.946731 0.789441
0.376791 0.946075 0.785443
0.376059 0.946258 0.781613
0.37496 0.948623 0.767971
0.373846 0.953216 0.740124
0.663203 0.998932 0.644282
0.963958 0.994568 0.665492
1 0.996353 0.697246
1 0.997772 0.695277
0.00817884 0.0296178 0.0156405
0.0499123 0.0308995 0.0341802
0.16788 0.035111 0.0497444
0.365942 0.0383154 0.0782025
0.563531 0.046479 0.115297
0.657847 0.0715343 0.203479
0.660441 0.0723583 0.209415
0.661768 0.0729229 0.212268
0.662104 0.0730907 0.212451
0.0111696 0.0406653 0.0248264
0.00885023 0.0312047 0.0087129
0.130587 0.0304265 0.0101625
0.328405 0.0306859 0.0276951
0.537728 0.035874 0.0700847
0.649516 0.0687572 0.185199
0.652308 0.0695964 0.191394
0.653635 0.0699931 0.194247
0.653971 0.0701457 0.194522
0.0178683 0.139849 0.0843061
0.00888075 0.132952 0.0387579
0.117937 0.121035 0.0153964
0.350988 0.075639 0.035935
0.526177 0.031632 0.0535134
0.637324 0.0642863 0.159319
0.638422 0.0647746 0.161425
0.639719 0.0653544 0.163973
0.640009 0.0654917 0.16434
0 0.342016 0.14699
0 0.337911 0.100679
0.023743 0.328115 0.0266728
0.323735 0.317464 0.00924697
0.644984 0.258839 0.107515
0.621744 0.068925 0.114565
0.630426 0.061326 0.1458
0.636912 0.0641184 0.158434
0.637247 0.0642863 0.159014
0.0523232 0.613916 0.332525
0.0447089 0.613672 0.299611
0.0753948 0.617472 0.250233
0.153918 0.613367 0.135882
0.60557 0.58703 0.0787976
0.880598 0.581765 0.258061
0.890913 0.505211 0.272999
0.879911 0.473625 0.266789
0.873854 0.461158 0.262974
0.26746 0.872602 0.634226
0.265782 0.872358 0.621683
0.263813 0.871824 0.60618
0.265812 0.874708 0.555383
0.482719 0.914717 0.356039
0.854139 0.843885 0.337148
0.953872 0.85034 0.40618
0.95021 0.836469 0.39704
0.94902 0.830976 0.394324
0.376562 0.945449 0.787472
0.376043 0.945968 0.782238
0.375891 0.947051 0.777661
0.375143 0.949737 0.763775
0.376562 0.956085 0.738628
0.762356 0.998932 0.634119
0.993301 0.992447 0.622003
1 0.989227 0.611704
1 0.987762 0.602426
0.377447 0.945586 0.791562
0.376242 0.944579 0.788128
0.375921 0.945418 0.783932
0.375174 0.948058 0.77116
0.374197 0.953521 0.740398
0.669474 0.998932 0.648524
0.968093 0.994095 0.667475
1 0.995758 0.698161
1 0.997192 0.696345
0.377752 0.945769 0.792554
0.376684 0.944793 0.789105
0.376226 0.945373 0.785351
0.375265 0.947814 0.772473
0.373846 0.953216 0.740124
0.64892 0.998932 0.644617
0.961685 0.994644 0.664973
1 0.996353 0.697261
1 0.997772 0.695277
0.00939956 0.0338293 0.0885786
0.0788281 0.0316625 0.0936599
0.17525 0.0376898 0.113497
0.37966 0.0434424 0.119951
0.586435 0.0461433 0.162081
0.668421 0.0760815 0.225727
0.671565 0.0777447 0.231617
0.673243 0.0787671 0.234623
0.673625 0.0790417 0.234745
0.0126192 0.0446479 0.0595865
0.00967422 0.0343481 0.0763561
0.140002 0.0357977 0.0862898
0.355093 0.0387579 0.0897688
0.568841 0.0444953 0.129854
0.659846 0.0721904 0.207996
0.662379 0.0731823 0.213565
0.663645 0.0737774 0.216083
0.66392 0.0739452 0.216098
0.0270237 0.131014 0.118166
0.0251774 0.121309 0.104097
0.105715 0.113664 0.0903944
0.341512 0.0762493 0.0702831
0.538598 0.0444495 0.0861067
0.651987 0.0695048 0.19086
0.652964 0.06981 0.192996
0.653513 0.0699931 0.194186
0.653758 0.0700999 0.194415
0.00784314 0.329976 0.192676
0 0.328878 0.15993
0 0.324483 0.0954604
0.32015 0.312993 0.0283055
0.645304 0.246509 0.115572
0.622278 0.0671702 0.119799
0.63592 0.0636759 0.156435
0.643565 0.0667582 0.171923
0.643885 0.0669261 0.172396
0.0559091 0.604837 0.358862
0.0477302 0.605615 0.331167
0.0416571 0.605676 0.290303
0.132082 0.611795 0.162097
0.603494 0.583902 0.076997
0.880156 0.576852 0.257298
0.88867 0.498268 0.271672
0.876936 0.466361 0.265049
0.871229 0.454917 0.261524
0.263966 0.868467 0.63978
0.262516 0.868559 0.628367
0.260548 0.868223 0.614374
0.258534 0.868605 0.566918
0.458961 0.914199 0.3635
0.852522 0.841581 0.334615
0.953017 0.846662 0.403815
0.949264 0.832792 0.394614
0.947265 0.8271 0.391104
0.376806 0.94461 0.791028
0.376303 0.945083 0.786206
0.376089 0.94612 0.781811
0.375387 0.948821 0.768719
0.375998 0.955367 0.739834
0.754452 0.998932 0.632929
0.992233 0.99173 0.616922
1 0.98822 0.60557
1 0.986786 0.596078
0.377584 0.944625 0.794949
0.376471 0.943694 0.791531
0.376135 0.944518 0.787778
0.375494 0.947173 0.775921
0.374166 0.95349 0.740383
0.65211 0.998932 0.649226
0.966003 0.994095 0.666835
1 0.995758 0.698161
1 0.997192 0.696345
0.377874 0.944793 0.796048
0.376806 0.943816 0.792065
0.37641 0.944381 0.789349
0.375555 0.946899 0.777157
0.373846 0.953216 0.740124
0.629953 0.998932 0.645197
0.959182 0.994629 0.664347
1 0.996353 0.697261
1 0.997894 0.695155
0.00910964 0.0441138 0.207691
0.070634 0.0390326 0.229709
0.215473 0.0379034 0.234775
0.393942 0.0454566 0.254887
0.613214 0.0629435 0.253285
0.707515 0.104738 0.2878
0.712001 0.108476 0.294087
0.713787 0.110018 0.29659
0.713893 0.110155 0.296071
0.0124208 0.054902 0.183642
0.00955215 0.0437324 0.200351
0.157458 0.0364538 0.235767
0.375906 0.0451209 0.233188
0.602304 0.0579995 0.223529
0.695109 0.0945754 0.26949
0.699031 0.0976577 0.27541
0.700755 0.0990616 0.277882
0.700771 0.0991379 0.277195
0.018265 0.129488 0.20267
0.0173495 0.112963 0.207355
0.0776379 0.0941787 0.225528
0.35848 0.0623941 0.223072
0.588922 0.052018 0.196704
0.680385 0.0835584 0.246693
0.683009 0.0854963 0.250721
0.684642 0.086656 0.253315
0.684672 0.0867475 0.252872
0.0255283 0.308553 0.270069
0.0248112 0.303517 0.258335
0.0243534 0.29688 0.242496
0.309316 0.304845 0.24773
0.636881 0.249729 0.218219
0.678721 0.0919051 0.224674
0.669978 0.0772106 0.228122
0.670909 0.0776684 0.230015
0.670649 0.0775616 0.229297
0.0675669 0.586603 0.414786
0.0607004 0.586603 0.396689
0.0536049 0.585794 0.372259
0.0445716 0.589944 0.267002
0.605051 0.58378 0.159823
0.908141 0.549096 0.297414
0.902739 0.479316 0.294041
0.887068 0.450889 0.282353
0.879942 0.439429 0.276982
0.257557 0.85922 0.654521
0.255558 0.859205 0.644205
0.253162 0.8589 0.632059
0.247959 0.858534 0.592294
0.420386 0.910567 0.379248
0.849622 0.837278 0.330007
0.953079 0.840497 0.400626
0.948653 0.826535 0.390829
0.94667 0.821393 0.387701
0.37731 0.942565 0.799069
0.376883 0.943221 0.794217
0.376577 0.944015 0.790707
0.375967 0.946654 0.7794
0.374975 0.954025 0.741924
0.736248 0.998932 0.629984
0.990448 0.990051 0.605814
1 0.985733 0.59295
1 0.983658 0.582925
0.378012 0.94255 0.802533
0.37734 0.94229 0.798566
0.376852 0.94255 0.796475
0.376013 0.945068 0.785443
0.374151 0.952377 0.746563
0.611902 0.998932 0.65005
0.961288 0.994018 0.665492
1 0.995758 0.698192
1 0.997192 0.696345
0.378286 0.942641 0.8038
0.377554 0.941955 0.800198
0.377066 0.942458 0.797299
0.376074 0.944732 0.786847
0.374075 0.952209 0.74699
0.584726 0.998932 0.643046
0.953262 0.994675 0.662989
1 0.996353 0.697292
1 0.997772 0.695293
0 0.0637522 0.379873
0.0360723 0.0577096 0.395911
0.147402 0.0442054 0.436744
0.42359 0.0467536 0.449088
0.618647 0.0650187 0.460349
0.745617 0.127062 0.445502
0.744625 0.126299 0.45211
0.744289 0.126101 0.45391
0.744595 0.126177 0.452338
0 0.0708324 0.371313
0 0.0632334 0.375738
0.0829023 0.0503243 0.417136
0.402716 0.0439002 0.448631
0.613245 0.063035 0.451133
0.747326 0.128573 0.432029
0.746868 0.128099 0.437705
0.746624 0.12784 0.439216
0.746807 0.127871 0.437491
0 0.106249 0.364111
0 0.0882887 0.366384
0.00953689 0.0662699 0.377829
0.365164 0.0405127 0.449165
0.605432 0.0602731 0.43801
0.747631 0.129473 0.412787
0.747753 0.129366 0.41767
0.74786 0.129412 0.418738
0.747936 0.129473 0.417319
0 0.283589 0.397177
0 0.271702 0.397986
0 0.253803 0.402121
0.240146 0.249805 0.457557
0.639612 0.192767 0.473594
0.748058 0.132799 0.381476
0.745846 0.129778 0.386435
0.745754 0.129809 0.385336
0.745602 0.129839 0.383307
0.0740826 0.555795 0.510155
0.0699016 0.553368 0.501091
0.0673075 0.54905 0.492531
0.0607156 0.538567 0.465156
0.5832 0.560723 0.479408
0.930114 0.523735 0.463371
0.944472 0.459556 0.4365
0.932647 0.425559 0.428794
0.926162 0.414008 0.420905
0.251331 0.839445 0.696269
0.248524 0.839338 0.687404
0.245121 0.838178 0.67863
0.237446 0.836591 0.653849
0.297871 0.884916 0.568246
0.855802 0.832181 0.469612
0.998672 0.82153 0.527825
0.998581 0.805142 0.516457
0.997269 0.798886 0.512001
0.379446 0.936934 0.820157
0.379141 0.938003 0.815869
0.37882 0.938903 0.812589
0.377905 0.941009 0.804166
0.375616 0.947738 0.773922
0.704524 0.998932 0.69131
0.987335 0.983917 0.650019
1 0.978439 0.643305
1 0.976394 0.633906
0.379889 0.93666 0.822446
0.379492 0.937041 0.819333
0.379187 0.937972 0.816068
0.37818 0.939727 0.808713
0.375601 0.946532 0.77879
0.552865 0.998932 0.700526
0.954452 0.993057 0.710338
1 0.994369 0.740963
1 0.995834 0.738308
0.380041 0.936629 0.824552
0.37969 0.936477 0.821271
0.379339 0.937514 0.81767
0.378347 0.939345 0.810254
0.375677 0.946288 0.77995
0.518853 0.998932 0.698466
0.944427 0.994278 0.706813
1 0.994812 0.738521
1 0.996155 0.735836
0.000274662 0.12578 0.535973
9.15541e-05 0.123934 0.535958
0.0645762 0.113512 0.560494
0.298604 0.0857862 0.633997
0.639139 0.121111 0.641962
0.706065 0.121523 0.582742
0.707713 0.12546 0.591455
0.707683 0.126192 0.593759
0.70692 0.124788 0.590997
0.000137331 0.12491 0.534554
0 0.124483 0.53312
0.00622568 0.119295 0.538201
0.257527 0.0868086 0.625437
0.631937 0.117922 0.640116
0.705577 0.119387 0.577005
0.706508 0.122179 0.583856
0.706325 0.122316 0.584604
0.706127 0.121355 0.582116
0 0.131609 0.525185
0 0.12517 0.529351
0 0.122774 0.529854
0.204105 0.0890669 0.612253
0.62211 0.113802 0.638254
0.704387 0.116411 0.570047
0.705348 0.118593 0.574975
0.705379 0.118791 0.575525
0.705379 0.11812 0.573312
0.00534066 0.243565 0.542016
0.00427253 0.230426 0.542397
0.00408942 0.212573 0.545525
0.100069 0.194903 0.577981
0.609232 0.139132 0.656977
0.703197 0.112108 0.558511
0.704295 0.112062 0.555261
0.704463 0.111925 0.554376
0.704784 0.11165 0.552544
0.0499123 0.517906 0.61178
0.0454261 0.513069 0.607202
0.0430762 0.50518 0.606119
0.0380255 0.48011 0.606836
0.517723 0.513405 0.716686
0.935119 0.465187 0.738827
0.950515 0.378393 0.719081
0.932113 0.346593 0.704402
0.923445 0.33402 0.69546
0.245792 0.799527 0.758068
0.2421 0.798657 0.75111
0.238071 0.79588 0.745983
0.229831 0.790417 0.734737
0.276371 0.812482 0.730205
0.821012 0.798383 0.716213
0.983825 0.786114 0.712474
0.983474 0.770596 0.703838
0.981949 0.765408 0.698405
0.383474 0.924697 0.856199
0.383124 0.926009 0.852888
0.382895 0.92694 0.850446
0.382177 0.928771 0.844999
0.373877 0.93022 0.821012
0.671778 0.998932 0.81149
0.971084 0.96701 0.782788
1 0.964889 0.796017
1 0.962234 0.790478
0.384024 0.923415 0.860044
0.383429 0.924758 0.856107
0.383169 0.92575 0.853529
0.382574 0.927901 0.847761
0.380499 0.933562 0.830442
0.484504 0.998932 0.82649
0.932143 0.992447 0.847608
1 0.988739 0.881178
0.997757 0.989822 0.878889
0.383902 0.923384 0.86041
0.383642 0.923964 0.858106
0.383368 0.924971 0.855512
0.382788 0.92726 0.849561
0.380636 0.933227 0.83154
0.479347 0.998932 0.827558
0.919371 0.995483 0.845243
0.99736 0.989166 0.876844
0.996368 0.990417 0.877272
0.0398718 0.239094 0.645853
0.0390631 0.237675 0.644862
0.0382696 0.237247 0.644022
0.172976 0.247105 0.723415
0.547356 0.252659 0.83946
0.857542 0.315038 0.849989
0.880293 0.346105 0.884718
0.886519 0.35555 0.894759
0.88687 0.356878 0.894835
0.0390478 0.236225 0.644541
0.0382086 0.235111 0.64358
0.037705 0.233478 0.642786
0.125322 0.24535 0.700847
0.52842 0.250935 0.835248
0.852781 0.308858 0.84268
0.872312 0.33463 0.872374
0.877638 0.342245 0.880476
0.877699 0.343069 0.879896
0.0355688 0.228077 0.639536
0.0370336 0.2318 0.64181
0.0366522 0.230625 0.641199
0.0682231 0.239765 0.666621
0.502953 0.24831 0.828794
0.846342 0.301885 0.835187
0.862104 0.320958 0.857404
0.866011 0.32604 0.863005
0.866133 0.326253 0.862287
0.0325017 0.258579 0.638834
0.0324559 0.253483 0.639048
0.0342565 0.247959 0.641001
0.0366064 0.240803 0.642817
0.434867 0.24033 0.810117
0.830137 0.285801 0.818433
0.831815 0.283894 0.813291
0.832288 0.284413 0.81387
0.831724 0.283085 0.811627
0.082475 0.48333 0.692592
0.0796979 0.477729 0.690333
0.0781109 0.468635 0.690196
0.0772412 0.445594 0.692973
0.38117 0.478614 0.823896
0.913405 0.463081 0.91873
0.943877 0.419776 0.899123
0.930907 0.395468 0.884581
0.924025 0.385687 0.875685
0.233753 0.743709 0.791333
0.229358 0.741176 0.785992
0.225254 0.736049 0.783169
0.215244 0.722972 0.776761
0.212131 0.705348 0.783963
0.771038 0.763821 0.892668
0.98735 0.738888 0.91429
0.988159 0.723293 0.911665
0.987274 0.71754 0.909056
0.38378 0.905303 0.891142
0.38172 0.905913 0.88658
0.379873 0.905074 0.884077
0.37586 0.902785 0.879255
0.364736 0.896574 0.865599
0.648676 0.961624 0.910521
0.951125 0.946715 0.911406
0.988922 0.945205 0.919356
0.987442 0.94255 0.914427
0.389654 0.907652 0.898116
0.388235 0.909468 0.895109
0.388205 0.910338 0.893416
0.387976 0.912123 0.889632
0.386358 0.91603 0.879072
0.423423 0.954803 0.896559
0.921569 0.989044 0.946181
0.994873 0.986419 0.966964
0.995636 0.986725 0.96611
0.389288 0.907012 0.898619
0.388083 0.908263 0.897185
0.388174 0.909255 0.895521
0.38822 0.911345 0.891585
0.386481 0.915694 0.879942
0.414893 0.94612 0.889769
0.909834 0.990539 0.943801
0.989807 0.987076 0.96466
0.993103 0.989013 0.968963
0.0643168 0.312871 0.679011
0.0638437 0.313146 0.678645
0.0657664 0.314412 0.680369
0.0916762 0.338384 0.706477
0.484886 0.377295 0.897826
0.913207 0.412116 0.945998
0.914488 0.41236 0.946166
0.914702 0.412253 0.946426
0.914397 0.412406 0.946059
0.0642252 0.312917 0.678935
0.0637827 0.313161 0.678599
0.06421 0.313283 0.678965
0.0733959 0.331182 0.688701
0.467109 0.37496 0.89247
0.91223 0.411414 0.945708
0.914488 0.41236 0.946166
0.914473 0.41236 0.946151
0.914076 0.412558 0.945693
0.0647898 0.314458 0.679622
0.0637827 0.313161 0.678599
0.0637827 0.313161 0.678599
0.0699321 0.325475 0.685206
0.441794 0.371817 0.883452
0.90631 0.408728 0.945571
0.914992 0.4121 0.946761
0.9149 0.412161 0.946654
0.914153 0.412528 0.945769
0.0712444 0.344442 0.688502
0.0717479 0.345129 0.688975
0.0688334 0.333516 0.685313
0.065507 0.314748 0.680217
0.368994 0.36994 0.852766
0.880385 0.400381 0.946044
0.915145 0.412039 0.946929
0.915129 0.412039 0.946929
0.914351 0.412421 0.946014
0.112978 0.489693 0.726925
0.112596 0.487404 0.726696
0.113481 0.484825 0.727916
0.115389 0.479301 0.730434
0.247044 0.51429 0.838788
0.786053 0.522271 0.978988
0.956237 0.499229 0.983108
0.95198 0.484916 0.97969
0.948104 0.479942 0.976349
0.231571 0.720058 0.811612
0.228794 0.716777 0.809171
0.225315 0.710964 0.806897
0.218585 0.697688 0.803647
0.206821 0.6701 0.799847
0.681483 0.740658 0.938704
0.980713 0.746944 0.982437
0.984207 0.730968 0.985031
0.981323 0.726177 0.981903
0.365377 0.883177 0.90045
0.363302 0.88275 0.897642
0.361349 0.88098 0.895979
0.356725 0.876585 0.89247
0.340383 0.860822 0.882017
0.562661 0.924468 0.957412
0.936385 0.936294 0.964752
0.987274 0.932982 0.973739
0.985656 0.92929 0.97116
0.377081 0.894087 0.913603
0.376654 0.895872 0.910918
0.377554 0.89633 0.910338
0.379812 0.897414 0.9093
0.385351 0.90135 0.907103
0.408408 0.920302 0.917098
0.909346 0.982666 0.975525
0.991302 0.984115 0.985611
0.99527 0.983536 0.987167
0.380148 0.892897 0.912215
0.374868 0.895048 0.911528
0.375219 0.895323 0.911254
0.378012 0.896513 0.910063
0.384985 0.900999 0.907362
0.406241 0.919158 0.915236
0.885863 0.985336 0.975616
0.989105 0.988418 0.988312
0.998062 0.989334 0.99353
0.0640574 0.313008 0.678813
0.0638132 0.313161 0.678614
0.0656596 0.31426 0.680247
0.0885634 0.337301 0.703502
0.482612 0.37705 0.897108
0.91281 0.411978 0.945998
0.914488 0.41236 0.946166
0.914504 0.412345 0.946181
0.914565 0.412314 0.946273
0.0641794 0.312932 0.67892
0.0637827 0.313161 0.678599
0.0641184 0.313252 0.678874
0.0730297 0.330602 0.688334
0.464408 0.374594 0.891569
0.912047 0.411261 0.945968
0.914488 0.41236 0.946166
0.914427 0.41239 0.94609
0.914031 0.412573 0.945632
0.0646677 0.313695 0.679423
0.063798 0.313161 0.678599
0.0637827 0.313161 0.678599
0.0697185 0.32491 0.684962
0.438285 0.371893 0.882338
0.905379 0.408484 0.945434
0.91487 0.412177 0.946609
0.914809 0.412207 0.946532
0.914199 0.412497 0.945815
0.0735637 0.34844 0.690867
0.070573 0.339849 0.687449
0.0673991 0.327611 0.683436
0.0653391 0.314153 0.679988
0.362737 0.36965 0.849958
0.876967 0.399802 0.946212
0.914977 0.412116 0.946746
0.915007 0.4121 0.946777
0.914351 0.412436 0.945998
0.129076 0.508675 0.741863
0.125719 0.503624 0.738766
0.122545 0.496147 0.736248
0.114046 0.475471 0.729397
0.234928 0.506966 0.832334
0.77583 0.515633 0.976974
0.953994 0.493233 0.981247
0.949157 0.478721 0.977386
0.945739 0.473228 0.974212
0.234668 0.715923 0.821866
0.231693 0.712352 0.819165
0.229099 0.70782 0.817487
0.222461 0.69601 0.812634
0.20676 0.667155 0.801419
0.657694 0.737316 0.942107
0.977035 0.746426 0.988678
0.980285 0.731594 0.992569
0.97792 0.726726 0.990585
0.355718 0.878294 0.902678
0.352834 0.876967 0.900557
0.349889 0.874601 0.898939
0.342031 0.867674 0.895003
0.320409 0.847333 0.884047
0.490196 0.902129 0.96492
0.904601 0.924132 0.972244
0.984817 0.930449 0.986206
0.984344 0.926543 0.98587
0.375631 0.893843 0.913542
0.374502 0.894942 0.911589
0.374441 0.894987 0.911498
0.374441 0.894987 0.911498
0.374441 0.894987 0.911498
0.386313 0.903883 0.917601
0.874128 0.976791 0.98381
0.98851 0.982574 0.990463
0.996368 0.981582 0.994308
0.375341 0.894148 0.912993
0.374502 0.894942 0.911589
0.374441 0.894987 0.911498
0.374441 0.894987 0.911498
0.374441 0.894987 0.911498
0.38613 0.903883 0.916701
0.828519 0.98378 0.986313
0.986954 0.989258 0.990723
0.999359 0.990021 0.998474
