bundles/resolve-cinematic-luts/Phantom Luts/S5ii LUTs/WB Offset - Green & Warm Boost/S5ii IceBlue V-Log WBO.cube
TITLE "Generated by Resolve"
LUT_3D_SIZE 9
0.0280919 0.0407263 0.0388495
0.0494087 0.0406653 0.0399176
0.126925 0.0406195 0.0384222
0.292729 0.0398413 0.0392615
0.500252 0.0479896 0.0702525
0.642802 0.0763409 0.166308
0.651408 0.0791028 0.177127
0.65301 0.079408 0.181399
0.657435 0.0767376 0.202655
0.029633 0.0483101 0.0426184
0.0321813 0.04477 0.040528
0.0981308 0.0478523 0.0425422
0.290471 0.0399939 0.0402533
0.497536 0.0441138 0.0596323
0.627771 0.0723583 0.143374
0.639246 0.0753185 0.155367
0.644541 0.0764782 0.163836
0.649958 0.0738842 0.185611
0.0354009 0.128985 0.0716411
0.040177 0.123033 0.061326
0.10811 0.117189 0.0514534
0.321843 0.0924392 0.0544289
0.495705 0.0439155 0.0611429
0.628794 0.0712749 0.14696
0.635691 0.073579 0.153063
0.635706 0.073579 0.153048
0.638361 0.0720226 0.16405
0.0260014 0.301823 0.113817
0.0335546 0.301427 0.0752117
0.0488289 0.294865 0.0553597
0.299504 0.302327 0.0363317
0.608499 0.274311 0.102449
0.645731 0.0769513 0.115908
0.624384 0.0696117 0.145708
0.634531 0.0715343 0.155352
0.637858 0.0694133 0.153231
0.0392309 0.537255 0.263386
0.0509041 0.545602 0.240757
0.0734569 0.54815 0.20499
0.114763 0.542718 0.141649
0.564248 0.564202 0.0874495
0.845457 0.584039 0.236622
0.872602 0.531319 0.254505
0.868879 0.516411 0.251255
0.875959 0.557504 0.258396
0.187274 0.78996 0.540749
0.191058 0.796857 0.542931
0.190799 0.79942 0.535515
0.182437 0.79852 0.494285
0.323476 0.803235 0.312428
0.813642 0.82414 0.312047
0.939788 0.837369 0.374304
0.93814 0.832303 0.371618
0.941756 0.848203 0.389197
0.272068 0.871443 0.685023
0.271534 0.871199 0.681407
0.268681 0.871183 0.675608
0.26125 0.870237 0.656825
0.252216 0.868986 0.623636
0.658488 0.914412 0.507927
0.960464 0.955856 0.613779
0.98233 0.95761 0.627878
0.978836 0.957565 0.644465
0.272969 0.872572 0.691279
0.273075 0.871489 0.687648
0.271077 0.870939 0.681788
0.263752 0.869825 0.662028
0.252613 0.867689 0.627771
0.638178 0.912398 0.501625
0.947829 0.952697 0.605753
0.985794 0.957488 0.636545
0.979339 0.958419 0.646494
0.274235 0.872786 0.692927
0.273945 0.871794 0.689174
0.270359 0.871107 0.680156
0.25922 0.868605 0.647776
0.258503 0.872236 0.57911
0.790372 0.9299 0.546838
0.974395 0.956771 0.624933
0.983551 0.958114 0.636973
0.97763 0.959228 0.643549
0.0279545 0.041001 0.0417487
0.0466316 0.0418402 0.0516365
0.132372 0.0456245 0.0666514
0.320348 0.0471962 0.0864271
0.522881 0.0569314 0.115724
0.652445 0.0773785 0.195102
0.660487 0.0803388 0.205402
0.662028 0.0808423 0.209506
0.664942 0.0791638 0.225299
0.029099 0.0457771 0.0434272
0.0284123 0.04094 0.0390326
0.105852 0.0408179 0.0422217
0.297368 0.0413062 0.0521401
0.511681 0.0486305 0.0866407
0.649531 0.0758984 0.18349
0.654871 0.0778058 0.191836
0.656107 0.0779889 0.195575
0.659113 0.0762188 0.210864
0.0375677 0.123568 0.0977951
0.0347601 0.119554 0.0720226
0.0999313 0.112062 0.052018
0.320775 0.0784161 0.0518959
0.49778 0.0432898 0.0651713
0.631525 0.0713054 0.152544
0.639551 0.0738537 0.160647
0.642344 0.0745403 0.164477
0.646021 0.0732738 0.177569
0.0238956 0.302464 0.148959
0.0235904 0.304417 0.11725
0.0380865 0.295216 0.0646677
0.295048 0.301137 0.036347
0.611688 0.264424 0.103578
0.645502 0.0760967 0.118532
0.627802 0.0702525 0.147768
0.63711 0.0717784 0.157443
0.633234 0.0677653 0.149126
0.0415656 0.538552 0.289464
0.0420691 0.546563 0.274662
0.0544594 0.549264 0.238895
0.109789 0.545495 0.150393
0.564569 0.565759 0.0883803
0.849088 0.583154 0.239445
0.872816 0.533349 0.254536
0.869383 0.519799 0.251713
0.876554 0.560876 0.25922
0.190478 0.791165 0.552407
0.194232 0.798001 0.554635
0.193683 0.800687 0.547692
0.185489 0.799878 0.50869
0.305577 0.804181 0.327245
0.815137 0.826017 0.314733
0.939803 0.838254 0.375036
0.937896 0.833066 0.372976
0.941344 0.8486 0.390753
0.273396 0.871839 0.68954
0.273304 0.871458 0.686076
0.271519 0.871183 0.680674
0.263539 0.870542 0.662318
0.252445 0.868727 0.625727
0.656397 0.914199 0.507103
0.960479 0.955749 0.612604
0.982391 0.957458 0.626383
0.978637 0.957137 0.644495
0.275257 0.872648 0.695659
0.27509 0.871672 0.692149
0.27306 0.871122 0.686488
0.265797 0.870207 0.667308
0.252659 0.867704 0.626993
0.634302 0.912093 0.500816
0.946822 0.95256 0.605127
0.985306 0.957305 0.63978
0.978866 0.958206 0.650019
0.275731 0.873106 0.69752
0.275715 0.872221 0.693599
0.272297 0.87129 0.684993
0.261265 0.869032 0.653758
0.25774 0.87187 0.583993
0.781765 0.928344 0.54406
0.972396 0.956542 0.623438
0.983413 0.958068 0.637964
0.976822 0.958831 0.649927
0.0255283 0.046891 0.101884
0.0652018 0.0429389 0.100649
0.139315 0.0485237 0.112413
0.330129 0.0545205 0.122484
0.540581 0.0572366 0.155337
0.663386 0.0829786 0.216953
0.670298 0.0858778 0.225528
0.672419 0.0868849 0.229938
0.675868 0.0858778 0.24741
0.0278019 0.0539864 0.0792706
0.0256809 0.0469673 0.0986191
0.115068 0.0471046 0.101671
0.323888 0.049958 0.10634
0.540993 0.0551614 0.141176
0.658946 0.0800031 0.20557
0.663966 0.0821698 0.212833
0.665354 0.0826429 0.216846
0.668696 0.0813458 0.233906
0.0376898 0.119966 0.123659
0.0367437 0.11574 0.119127
0.090074 0.107424 0.116411
0.3178 0.0806134 0.0956893
0.522896 0.0602884 0.109789
0.652613 0.0779126 0.187213
0.655268 0.0788281 0.190646
0.655909 0.0791028 0.192065
0.659358 0.0780804 0.2065
0.0303349 0.297749 0.190829
0.0256962 0.302541 0.171588
0.0232853 0.299245 0.127474
0.29015 0.300847 0.0637064
0.616602 0.254093 0.120851
0.644984 0.0747539 0.126131
0.640162 0.0731365 0.161501
0.644923 0.0737621 0.171298
0.628794 0.0662394 0.151492
0.0451362 0.536522 0.31693
0.0450294 0.545495 0.306554
0.0429236 0.547967 0.281743
0.0958724 0.545739 0.16997
0.561944 0.564843 0.0877089
0.849973 0.581247 0.240116
0.872465 0.53109 0.254108
0.868879 0.518181 0.251362
0.876204 0.559335 0.259449
0.192447 0.790127 0.5626
0.197208 0.797375 0.565927
0.197131 0.799847 0.559747
0.188037 0.798886 0.524025
0.27834 0.803418 0.352956
0.813733 0.825696 0.314076
0.939498 0.836728 0.3738
0.93753 0.831342 0.371527
0.940642 0.846479 0.388952
0.276402 0.871962 0.695476
0.276081 0.871748 0.692302
0.27396 0.87155 0.687221
0.266377 0.871107 0.670222
0.252506 0.868238 0.627649
0.64683 0.913527 0.504479
0.959472 0.955291 0.609369
0.981994 0.956436 0.627329
0.977707 0.956115 0.648768
0.277165 0.873228 0.70193
0.277836 0.872251 0.698528
0.276478 0.871244 0.693416
0.268971 0.870527 0.67541
0.252964 0.867643 0.627314
0.620981 0.910979 0.497475
0.943679 0.952026 0.603265
0.985214 0.957275 0.640345
0.978378 0.957977 0.653696
0.279866 0.873655 0.706432
0.279606 0.872984 0.703304
0.27657 0.871717 0.695537
0.266499 0.869917 0.667063
0.254795 0.870054 0.598123
0.75758 0.924788 0.537423
0.967376 0.955764 0.619165
0.983215 0.957961 0.639506
0.97612 0.958831 0.652049
0.0197604 0.0618448 0.221698
0.0547036 0.0538033 0.246326
0.191684 0.0488136 0.23125
0.349722 0.0565499 0.231281
0.567987 0.0755016 0.248508
0.704234 0.111589 0.276509
0.711284 0.115694 0.283574
0.71426 0.117922 0.288823
0.721065 0.120958 0.312963
0.0207065 0.0702525 0.212085
0.0194858 0.0621958 0.22887
0.123796 0.049485 0.258152
0.348989 0.0564431 0.235218
0.574273 0.0753643 0.23801
0.701518 0.108049 0.271199
0.706966 0.111757 0.277562
0.709789 0.113756 0.282658
0.717952 0.117922 0.308354
0.0232242 0.13019 0.215747
0.0210727 0.119097 0.232166
0.047303 0.0979629 0.259815
0.333898 0.0666819 0.23711
0.565621 0.072282 0.212894
0.690105 0.100038 0.251148
0.694347 0.102678 0.256428
0.697276 0.104875 0.260182
0.70489 0.108202 0.281559
0.0325475 0.292988 0.266896
0.030808 0.29662 0.26865
0.0310216 0.292805 0.265156
0.277134 0.300847 0.290898
0.621454 0.256184 0.250217
0.70341 0.106508 0.242466
0.683452 0.0946365 0.240665
0.684581 0.0952621 0.242908
0.690517 0.0972763 0.25565
0.0554208 0.533959 0.378576
0.0562753 0.543282 0.379278
0.0549325 0.545357 0.367864
0.0440681 0.540841 0.303304
0.553002 0.572564 0.207568
0.879454 0.561746 0.314199
0.893309 0.514199 0.309972
0.888014 0.501472 0.304585
0.903212 0.535439 0.329458
0.198077 0.786191 0.587839
0.20383 0.792889 0.592126
0.20415 0.795819 0.588067
0.194141 0.794842 0.560037
0.236378 0.798199 0.398703
0.808789 0.824079 0.326284
0.945129 0.833494 0.390204
0.943847 0.827924 0.388846
0.947723 0.843671 0.41825
0.282979 0.872816 0.710903
0.28481 0.87248 0.709102
0.283497 0.871916 0.70515
0.27538 0.871641 0.690455
0.25539 0.868132 0.635065
0.625849 0.91223 0.502739
0.956436 0.953918 0.600427
0.983017 0.953079 0.615198
0.978515 0.95462 0.651347
0.284123 0.87422 0.718074
0.286763 0.873091 0.716136
0.285267 0.872297 0.712123
0.278004 0.871351 0.696757
0.256764 0.867796 0.638071
0.595453 0.9093 0.49247
0.936416 0.950729 0.601221
0.984375 0.956954 0.646052
0.977554 0.9579 0.665553
0.289479 0.875837 0.731685
0.292119 0.874693 0.73022
0.289525 0.873793 0.723842
0.28014 0.871611 0.701625
0.259709 0.869963 0.63624
0.728161 0.924483 0.565789
0.959319 0.956558 0.638224
0.983291 0.959167 0.660883
0.97641 0.959579 0.671962
0.0089723 0.0959487 0.400854
0.0220493 0.0885786 0.422553
0.0953384 0.0678721 0.469902
0.389715 0.0557717 0.446326
0.588586 0.0856641 0.424964
0.73901 0.126818 0.425269
0.747616 0.130999 0.432746
0.747204 0.129976 0.438499
0.741711 0.124544 0.469825
0.00906386 0.100908 0.40557
0.00866712 0.100053 0.413153
0.0422522 0.0848554 0.457008
0.361486 0.0555276 0.47538
0.599283 0.0892958 0.436744
0.743832 0.128359 0.433478
0.747051 0.129488 0.439506
0.74612 0.128023 0.444755
0.7393 0.121508 0.475868
0.00979629 0.126711 0.394202
0.0087129 0.115053 0.410376
0.00917067 0.101167 0.417777
0.284382 0.0576181 0.49543
0.596628 0.0893111 0.43508
0.746441 0.130587 0.421057
0.748516 0.131151 0.424949
0.747951 0.129885 0.430106
0.743175 0.124498 0.461219
0.0134585 0.292897 0.410224
0.012253 0.290791 0.423682
0.0116732 0.277897 0.433036
0.142535 0.257206 0.50956
0.621759 0.202502 0.489723
0.747005 0.134798 0.404486
0.74934 0.134447 0.407996
0.749462 0.133898 0.411337
0.747204 0.129625 0.442863
0.064271 0.53489 0.491279
0.0670481 0.544091 0.500984
0.0677348 0.546395 0.503227
0.0650187 0.541039 0.496681
0.537652 0.567849 0.54905
0.910552 0.537331 0.516793
0.941146 0.492821 0.47866
0.937972 0.476265 0.482002
0.949996 0.512428 0.515267
0.212512 0.780972 0.649699
0.219684 0.787579 0.655116
0.221683 0.789807 0.654627
0.215488 0.787869 0.640253
0.204517 0.783123 0.57644
0.790524 0.826551 0.531563
0.985718 0.824063 0.577951
0.983078 0.817487 0.581155
0.974853 0.83534 0.625513
0.298543 0.876738 0.751629
0.304265 0.875578 0.75169
0.304677 0.875181 0.749554
0.300191 0.874113 0.739757
0.281071 0.872175 0.702983
0.587564 0.923934 0.643595
0.959457 0.958755 0.709651
0.989471 0.957473 0.727581
0.984771 0.961013 0.774655
0.300465 0.878752 0.761669
0.30721 0.876936 0.761624
0.306722 0.876554 0.758862
0.301549 0.875334 0.748501
0.285283 0.871916 0.710597
0.548928 0.918578 0.642237
0.939788 0.961501 0.743893
0.988998 0.969696 0.78616
0.982498 0.971054 0.811521
0.308919 0.881651 0.786465
0.315847 0.87982 0.786191
0.315908 0.879255 0.782269
0.307683 0.877592 0.766934
0.294499 0.876814 0.731716
0.706538 0.937667 0.737316
0.959213 0.968719 0.803021
0.988556 0.973098 0.822156
0.982376 0.972778 0.826963
0.0139467 0.181842 0.538903
0.0138247 0.184085 0.540749
0.021622 0.17641 0.556374
0.204807 0.134005 0.660471
0.604547 0.133028 0.648127
0.759274 0.16231 0.608225
0.762493 0.159899 0.612757
0.768414 0.167422 0.621836
0.779477 0.191196 0.662486
0.0148013 0.187442 0.54551
0.0147097 0.190707 0.549004
0.0148928 0.191333 0.550683
0.169863 0.15845 0.66569
0.60972 0.143389 0.670481
0.76704 0.169177 0.623484
0.773419 0.175784 0.634852
0.777218 0.182376 0.644511
0.787198 0.206271 0.685878
0.0151827 0.190784 0.542733
0.0148775 0.192203 0.550561
0.0150301 0.19321 0.552163
0.10341 0.178973 0.641611
0.589685 0.143709 0.682918
0.769985 0.168399 0.618601
0.77557 0.174166 0.627817
0.7794 0.180575 0.637476
0.790249 0.204974 0.678309
0.0185702 0.270588 0.549599
0.0183108 0.269459 0.557183
0.0184329 0.260121 0.562753
0.0291905 0.246036 0.585214
0.526009 0.157397 0.709453
0.768811 0.172061 0.619013
0.764035 0.157488 0.603662
0.766247 0.160662 0.608301
0.776379 0.181598 0.644816
0.0605783 0.530892 0.60354
0.063035 0.538201 0.611551
0.0638285 0.538125 0.61651
0.0617533 0.524758 0.622507
0.430472 0.556573 0.797879
0.910933 0.512169 0.782437
0.959655 0.450355 0.756344
0.95404 0.437964 0.750698
0.96199 0.480339 0.788891
0.228489 0.77319 0.736171
0.235981 0.779965 0.742382
0.238529 0.781964 0.744045
0.236316 0.779522 0.741253
0.229328 0.771054 0.730953
0.78352 0.813016 0.798749
0.976074 0.798779 0.783001
0.974838 0.790188 0.785992
0.964675 0.810452 0.811353
0.320043 0.88423 0.814252
0.326436 0.883513 0.815076
0.327108 0.883299 0.814359
0.3243 0.882856 0.809537
0.31487 0.880858 0.790829
0.615732 0.925597 0.808118
0.955108 0.957702 0.860441
0.987472 0.959625 0.881941
0.984436 0.963211 0.904219
0.324117 0.885664 0.826215
0.330938 0.884825 0.82623
0.331029 0.884596 0.82504
0.325429 0.884459 0.818509
0.316152 0.881437 0.796643
0.506493 0.926055 0.807095
0.934615 0.971374 0.903059
0.99559 0.981445 0.934005
0.991516 0.982788 0.946349
0.33135 0.889708 0.851087
0.338766 0.887846 0.85008
0.340307 0.887312 0.847578
0.333211 0.887282 0.838224
0.324498 0.885908 0.816693
0.698772 0.94107 0.869184
0.956558 0.976349 0.934066
0.992752 0.983276 0.948211
0.988495 0.984131 0.952499
0.039765 0.343282 0.653223
0.0400244 0.347021 0.654643
0.0399329 0.345327 0.655665
0.0556039 0.35581 0.677775
0.442466 0.368811 0.894133
0.875776 0.38378 0.880247
0.908293 0.417517 0.899931
0.912718 0.42681 0.907515
0.908705 0.431815 0.9149
0.0424964 0.356725 0.659129
0.0433509 0.363699 0.661921
0.0439155 0.365881 0.663645
0.0466163 0.373083 0.670954
0.444694 0.39794 0.910262
0.8934 0.409125 0.898589
0.911818 0.427771 0.908995
0.911894 0.429877 0.911955
0.906752 0.432792 0.917571
0.0427558 0.358083 0.659754
0.0447852 0.37026 0.664973
0.0446174 0.369558 0.66482
0.045594 0.371695 0.668421
0.424369 0.403265 0.906188
0.893736 0.409506 0.89984
0.916838 0.430228 0.908186
0.915984 0.430442 0.909041
0.909316 0.432166 0.914809
0.0363317 0.334676 0.638529
0.0380713 0.345754 0.645594
0.0405585 0.355291 0.653132
0.0424048 0.359014 0.660075
0.357702 0.401801 0.876631
0.876219 0.397604 0.897658
0.912154 0.410544 0.888258
0.913375 0.41474 0.892042
0.909438 0.427359 0.909117
0.0777905 0.52726 0.684382
0.080354 0.535042 0.689967
0.0816205 0.535927 0.694163
0.0826734 0.531319 0.702708
0.259037 0.580636 0.837385
0.845563 0.537682 0.974105
0.972152 0.518303 0.926055
0.968261 0.510002 0.921233
0.966461 0.544137 0.941131
0.200122 0.756115 0.778943
0.208057 0.762112 0.782193
0.209308 0.763409 0.784024
0.205493 0.758618 0.784039
0.191959 0.737697 0.781384
0.720165 0.807126 0.932723
0.976638 0.790433 0.926894
0.978027 0.783963 0.922057
0.9673 0.806607 0.925536
0.331121 0.886748 0.862654
0.339727 0.888395 0.863661
0.342245 0.888121 0.863478
0.338994 0.888838 0.86215
0.327565 0.879499 0.850263
0.605173 0.930739 0.911116
0.946487 0.94931 0.946502
0.984527 0.950149 0.944121
0.981949 0.954879 0.953033
0.331182 0.88896 0.872206
0.33753 0.88777 0.87068
0.340169 0.887022 0.869474
0.337774 0.88896 0.868467
0.334005 0.88986 0.859052
0.403647 0.923354 0.881178
0.934859 0.975143 0.961944
0.993332 0.984985 0.977432
0.993622 0.986221 0.982147
0.326284 0.888258 0.878553
0.333165 0.887037 0.87628
0.337575 0.886061 0.874708
0.335348 0.887419 0.873091
0.335622 0.890379 0.865538
0.547677 0.950591 0.919997
0.95465 0.978515 0.972335
0.990539 0.986801 0.983108
0.991821 0.988479 0.986786
0.0452583 0.369818 0.665034
0.044831 0.370336 0.665019
0.0452583 0.371145 0.667277
0.0526894 0.388708 0.680201
0.420539 0.425101 0.912505
0.877119 0.423621 0.923247
0.912032 0.431418 0.913146
0.912993 0.431159 0.91249
0.91191 0.43154 0.911955
0.045304 0.369741 0.665064
0.0448157 0.370352 0.665003
0.044831 0.370443 0.6654
0.0490425 0.386389 0.6757
0.432853 0.424735 0.917998
0.895125 0.428077 0.918395
0.911803 0.43151 0.912963
0.911528 0.43154 0.913619
0.909331 0.432166 0.914717
0.0455482 0.369482 0.665202
0.044831 0.370336 0.665019
0.04477 0.370367 0.665095
0.0475166 0.380392 0.672267
0.413581 0.423957 0.910155
0.894972 0.427054 0.918471
0.914855 0.430732 0.910185
0.914351 0.430869 0.910445
0.909331 0.432166 0.914687
0.0518502 0.40267 0.675029
0.0501869 0.398352 0.673289
0.0481575 0.388571 0.670405
0.0457008 0.373999 0.667414
0.338186 0.427222 0.874754
0.87155 0.42118 0.92578
0.916152 0.430365 0.909468
0.916167 0.430411 0.908751
0.91043 0.431907 0.913481
0.0944991 0.552911 0.72137
0.0981613 0.563134 0.72636
0.0998856 0.566262 0.729107
0.0949416 0.554025 0.724819
0.216907 0.585504 0.816358
0.77026 0.574502 0.998978
0.968399 0.544701 0.96202
0.967208 0.537926 0.955978
0.961471 0.56228 0.963058
0.203876 0.753796 0.801556
0.210895 0.759533 0.803937
0.213519 0.761135 0.805554
0.21062 0.756954 0.806088
0.195651 0.735683 0.798138
0.66273 0.815427 0.957092
0.970962 0.793805 0.975341
0.983001 0.788769 0.963958
0.968917 0.8103 0.9617
0.323247 0.885267 0.876341
0.333135 0.887083 0.876249
0.335393 0.886503 0.8757
0.330846 0.886 0.87509
0.313298 0.872724 0.866316
0.544533 0.929381 0.943755
0.923995 0.942733 0.966857
0.985321 0.947692 0.964981
0.981704 0.953246 0.968917
0.326558 0.888014 0.878676
0.33315 0.887083 0.876234
0.335973 0.886351 0.875578
0.331121 0.887694 0.876478
0.327733 0.888655 0.877058
0.3617 0.907347 0.890867
0.912856 0.973175 0.971847
0.992264 0.983307 0.983459
0.997406 0.983291 0.982681
0.326513 0.888045 0.878676
0.33315 0.887068 0.876249
0.336721 0.886152 0.87541
0.333211 0.887114 0.876173
0.328176 0.888609 0.87744
0.447776 0.937224 0.924727
0.934188 0.975662 0.975845
0.990478 0.987366 0.989776
0.998886 0.987778 0.987396
0.045182 0.36994 0.664988
0.044831 0.370336 0.665019
0.0452583 0.371145 0.667277
0.0539712 0.389883 0.68217
0.433997 0.424887 0.917967
0.886427 0.425834 0.920867
0.912001 0.431434 0.91313
0.912276 0.431342 0.913146
0.91133 0.431693 0.912596
0.0452888 0.369772 0.665049
0.0448157 0.370352 0.665003
0.0448463 0.370443 0.665431
0.0493172 0.387198 0.676463
0.447303 0.423774 0.923552
0.907088 0.430274 0.914168
0.911772 0.43151 0.912932
0.911467 0.431571 0.913558
0.907744 0.432547 0.916411
0.0455329 0.369406 0.665171
0.044831 0.370336 0.665019
0.04477 0.370367 0.665095
0.0476997 0.381308 0.672618
0.429664 0.423331 0.917372
0.902296 0.428489 0.916365
0.914931 0.430716 0.910094
0.914336 0.430884 0.910399
0.909087 0.432242 0.914931
0.0519722 0.403204 0.675196
0.05066 0.40087 0.674022
0.0487831 0.391928 0.671366
0.0464027 0.378058 0.668544
0.354925 0.42739 0.882399
0.876646 0.423041 0.924895
0.916274 0.430335 0.909361
0.916197 0.430411 0.908751
0.910399 0.431922 0.913466
0.102098 0.569314 0.731167
0.103395 0.574365 0.732235
0.102846 0.573373 0.73164
0.0973373 0.560098 0.72697
0.238987 0.596704 0.829984
0.782666 0.58146 0.996033
0.973098 0.552377 0.962829
0.970291 0.546868 0.959411
0.96257 0.571374 0.963973
0.210895 0.762081 0.810773
0.218128 0.767758 0.812634
0.221424 0.769116 0.81355
0.217777 0.763638 0.810941
0.2009 0.741024 0.800549
0.677562 0.821012 0.953811
0.969131 0.802029 0.973144
0.983688 0.796384 0.965469
0.968734 0.81767 0.960922
0.325307 0.888624 0.878599
0.333074 0.887098 0.876265
0.336858 0.886107 0.875364
0.33518 0.884199 0.87393
0.321263 0.873365 0.86717
0.567163 0.927535 0.943999
0.918654 0.942977 0.969436
0.984039 0.948409 0.971588
0.981628 0.954055 0.972808
0.32636 0.887984 0.878782
0.333013 0.887114 0.876265
0.336858 0.886107 0.875364
0.337469 0.885954 0.875105
0.337469 0.885954 0.875105
0.368597 0.9037 0.891279
0.906722 0.971023 0.974807
0.993362 0.982651 0.982666
0.99794 0.983642 0.982361
0.320684 0.889723 0.879896
0.332113 0.887358 0.876432
0.336889 0.886091 0.875364
0.337469 0.885954 0.875105
0.337697 0.886091 0.875273
0.464546 0.933745 0.924132
0.926329 0.974105 0.977386
0.98761 0.987701 0.991882
0.998291 0.988434 0.988418
