bundles/resolve-cinematic-luts/Phantom Luts/S5ii LUTs/WB Offset - Green & Warm Boost/S5ii Utopia V-Log WBO.cube
TITLE "Generated by Resolve"
LUT_3D_SIZE 33
0 0.0270237 0.0350347
0 0.0270085 0.0350042
0 0.0269627 0.0349737
0.01738 0.0259709 0.0342565
0.0386358 0.0248722 0.034226
0.0621958 0.0232548 0.0319524
0.0817121 0.0217288 0.0297704
0.103853 0.0203861 0.0284886
0.130999 0.0189517 0.0272679
0.164111 0.0170138 0.0261845
0.203586 0.0147555 0.0252079
0.250263 0.012253 0.0237125
0.302953 0.0108034 0.023682
0.357473 0.0108797 0.0257877
0.413153 0.01149 0.0324712
0.466636 0.0115511 0.0408484
0.51252 0.0137942 0.0544594
0.542992 0.00981155 0.0533913
0.583337 0.0152438 0.0743572
0.657465 0.028809 0.13135
0.693034 0.0351415 0.16051
0.698482 0.0363317 0.165942
0.698878 0.0367285 0.168185
0.699245 0.0370794 0.169833
0.69955 0.0373541 0.171374
0.699855 0.037583 0.172763
0.700069 0.0377356 0.173846
0.700252 0.0377508 0.174655
0.700511 0.0377356 0.175311
0.701122 0.0376135 0.175814
0.701885 0.0374151 0.176211
0.703288 0.0370336 0.176562
0.704784 0.0366217 0.176715
0 0.026978 0.0349737
0 0.0269932 0.0349889
0 0.0269627 0.0349737
0.0104372 0.0264744 0.033753
0.0312047 0.0251621 0.0349889
0.054139 0.0237278 0.0327153
0.0751202 0.0220798 0.0303502
0.0974746 0.0206455 0.0287633
0.125002 0.0191348 0.0274662
0.15903 0.0174105 0.0263371
0.198917 0.0150301 0.0254063
0.246418 0.0125124 0.0239261
0.298863 0.00999466 0.0218509
0.352651 0.0084535 0.0205997
0.40679 0.00712596 0.0218051
0.458518 0.00602731 0.0260777
0.504906 0.0068513 0.0378424
0.547921 0.00943008 0.0569924
0.57673 0.00962844 0.0618296
0.6486 0.0248722 0.115557
0.690089 0.0338293 0.152392
0.697292 0.0353857 0.160372
0.697795 0.0357366 0.16231
0.698161 0.0360418 0.164248
0.698497 0.036347 0.165957
0.698741 0.0365759 0.167391
0.698924 0.0367742 0.168551
0.699168 0.0369116 0.169406
0.699489 0.0370031 0.169848
0.70016 0.0369116 0.17026
0.700999 0.0367285 0.170703
0.702434 0.0363317 0.171054
0.703944 0.035874 0.171313
0 0.026978 0.0349737
0 0.0269932 0.0349889
0 0.0269627 0.0349737
0 0.0268559 0.0348211
0.0201419 0.0273594 0.0345006
0.0412909 0.0266117 0.0341192
0.0644541 0.0252079 0.0318456
0.0888838 0.0234684 0.0296941
0.118563 0.0200046 0.0272831
0.153674 0.0177005 0.0263066
0.194293 0.0152285 0.025452
0.242374 0.012665 0.0240635
0.29575 0.0101778 0.0220645
0.350042 0.00846876 0.0205234
0.405035 0.0071107 0.021561
0.457481 0.00595102 0.0256199
0.502678 0.00587472 0.03505
0.545022 0.00668345 0.0496529
0.578683 0.00895705 0.0601358
0.635187 0.0234531 0.101976
0.681331 0.0322576 0.139086
0.694011 0.0340276 0.151629
0.695827 0.034638 0.155352
0.696727 0.0350805 0.158328
0.697261 0.0353704 0.160296
0.697597 0.0355993 0.161532
0.697826 0.0357671 0.162509
0.6981 0.035874 0.163439
0.698421 0.035935 0.164157
0.69897 0.035874 0.164736
0.699809 0.0356909 0.165133
0.701289 0.0352941 0.165454
0.702831 0.0348669 0.165698
0 0.0269627 0.0349737
0 0.0270085 0.0350042
0 0.0270085 0.0350042
0 0.0269627 0.0349737
0.0123293 0.0280156 0.0341039
0.028748 0.0297856 0.035584
0.0507515 0.0299229 0.0339208
0.0766003 0.02916 0.0318608
0.107424 0.026566 0.0297246
0.14522 0.0215152 0.0263981
0.188647 0.0166018 0.0247196
0.238178 0.0129549 0.0240177
0.292729 0.0105287 0.022446
0.347662 0.00851453 0.0205234
0.403311 0.00712596 0.0214237
0.456291 0.00598154 0.0254826
0.50193 0.00578317 0.034638
0.544335 0.00663767 0.049012
0.578897 0.00898756 0.060502
0.626413 0.0225834 0.0958419
0.671412 0.0304875 0.127016
0.684977 0.0323949 0.13698
0.688518 0.0326848 0.141802
0.691707 0.0333867 0.146944
0.693706 0.0339208 0.150973
0.695048 0.0343633 0.153597
0.695888 0.0346532 0.155459
0.696452 0.0348363 0.156893
0.696941 0.0349432 0.157931
0.697734 0.0348669 0.158694
0.698512 0.0347295 0.159274
0.700084 0.0343328 0.159609
0.701701 0.0339055 0.159716
0 0.0415198 0.0396277
0.000457771 0.0397498 0.0376593
0.00242618 0.0374304 0.0373846
0.00653086 0.0342718 0.0365148
0.0109255 0.0327306 0.0358434
0.0224002 0.0354009 0.0365454
0.0385443 0.03505 0.0365911
0.0637827 0.0331579 0.034165
0.0952926 0.0316625 0.0321508
0.134569 0.0278172 0.02916
0.18056 0.0214847 0.0248569
0.232395 0.0154269 0.0224613
0.289494 0.0111238 0.0220493
0.345373 0.00857557 0.0204318
0.401511 0.00715648 0.0213321
0.455055 0.00598154 0.0253605
0.501228 0.00581369 0.0344854
0.543664 0.00666819 0.0487678
0.578958 0.00898756 0.0609293
0.624689 0.0223392 0.0945754
0.670771 0.0301823 0.125887
0.682704 0.0319219 0.133837
0.682979 0.0319829 0.134325
0.683162 0.0320287 0.134691
0.683772 0.0321813 0.135653
0.686213 0.0326848 0.138582
0.688472 0.0327306 0.141665
0.69012 0.03299 0.144305
0.691386 0.0331426 0.1458
0.692699 0.0331731 0.14728
0.694072 0.0330816 0.148348
0.695933 0.0327459 0.149065
0.697612 0.0323949 0.149599
0 0.060853 0.0427558
0 0.0585794 0.037171
0 0.0557565 0.0371405
0.0101167 0.0506294 0.0356756
0.0167849 0.0466773 0.0352483
0.0249027 0.0493629 0.0332341
0.0412757 0.0512398 0.0362097
0.0664836 0.0497902 0.041474
0.0977798 0.0454108 0.0396735
0.13257 0.0396277 0.0337377
0.174395 0.0302129 0.0285496
0.226535 0.0211795 0.023209
0.285054 0.0139925 0.0198978
0.342992 0.00947585 0.0196994
0.399863 0.00730907 0.0211948
0.453864 0.00598154 0.0252537
0.50042 0.00587472 0.0343938
0.543053 0.00671397 0.0485237
0.57911 0.0089723 0.0614633
0.622873 0.0210117 0.0923476
0.670817 0.0296635 0.125246
0.68275 0.0317845 0.133516
0.682719 0.0317998 0.133516
0.682704 0.0317998 0.133516
0.682811 0.0318456 0.1337
0.683085 0.0319066 0.134096
0.683253 0.0319371 0.134386
0.683406 0.0319371 0.1346
0.683619 0.0319219 0.134752
0.684123 0.0317845 0.134829
0.684779 0.0316014 0.134859
0.686015 0.0312352 0.134874
0.687434 0.030808 0.134798
0 0.0847334 0.0399329
0 0.0819409 0.0344549
0 0.0789807 0.0347143
0.00698863 0.0738231 0.0338293
0.0176699 0.0678569 0.0336461
0.0290074 0.0663462 0.0319677
0.0439612 0.0690318 0.030808
0.0702068 0.0704051 0.0386358
0.099321 0.0683299 0.0443885
0.144579 0.0588846 0.0456092
0.187167 0.0508125 0.0381781
0.232868 0.0392767 0.0299535
0.283986 0.0217746 0.0222019
0.341558 0.0130922 0.0183261
0.398322 0.00808728 0.0207218
0.452781 0.00601205 0.0251011
0.499672 0.00596628 0.0343023
0.542367 0.00671397 0.0482032
0.579263 0.00895705 0.0620432
0.620859 0.0198062 0.0901961
0.670954 0.0292973 0.12488
0.683146 0.0316777 0.133501
0.683131 0.0316777 0.133486
0.683116 0.0316777 0.133501
0.683116 0.0316777 0.133501
0.683101 0.0316777 0.133501
0.683101 0.0316777 0.133501
0.683116 0.0316777 0.133501
0.683146 0.0316625 0.133501
0.68336 0.0316014 0.133486
0.683742 0.0314794 0.133455
0.684504 0.0312352 0.133425
0.685252 0.0310063 0.133425
0 0.109941 0.0361334
0 0.107622 0.0289158
0 0.105318 0.0291142
0 0.102235 0.0293736
0.0157778 0.0969711 0.0290684
0.0303807 0.0909895 0.0289158
0.0491798 0.0928969 0.0282444
0.0733349 0.0948653 0.0311131
0.104433 0.0964218 0.0377813
0.145434 0.0918135 0.047776
0.199481 0.0784772 0.0487526
0.256672 0.0643015 0.0441291
0.303624 0.0510567 0.0340887
0.350622 0.0299687 0.0250858
0.399191 0.0131533 0.0195773
0.451514 0.00656138 0.0244297
0.498695 0.00596628 0.0339971
0.54136 0.00660716 0.0476081
0.579248 0.00898756 0.0627298
0.618097 0.0181277 0.0872053
0.670848 0.0289006 0.124346
0.683238 0.031632 0.133486
0.683238 0.031632 0.133486
0.683238 0.031632 0.133486
0.683238 0.031632 0.133486
0.683238 0.031632 0.133486
0.683238 0.031632 0.133486
0.683238 0.031632 0.133486
0.683238 0.031632 0.133486
0.683421 0.0315862 0.133486
0.683757 0.0314794 0.133455
0.684504 0.0312352 0.133425
0.685267 0.0310063 0.133425
0 0.141131 0.0334783
0 0.13843 0.0238499
0 0.135714 0.0202487
0 0.133486 0.0207523
0.00898756 0.129625 0.0213474
0.024979 0.124865 0.0218357
0.0507973 0.119753 0.02533
0.0775921 0.120928 0.0271305
0.105837 0.123125 0.0303197
0.147158 0.125002 0.0356603
0.202396 0.117098 0.0499428
0.26453 0.101396 0.052079
0.331823 0.0824292 0.0491646
0.377295 0.0672618 0.0412146
0.419821 0.043183 0.0315709
0.455375 0.0146334 0.0233921
0.497719 0.00698863 0.0330663
0.539528 0.00648508 0.0467842
0.579446 0.00943008 0.0640269
0.614313 0.0163272 0.0832227
0.670619 0.0285801 0.123812
0.683238 0.031632 0.133486
0.683238 0.031632 0.133486
0.683238 0.031632 0.133486
0.683238 0.031632 0.133486
0.683238 0.031632 0.133486
0.683238 0.031632 0.133486
0.683238 0.031632 0.133486
0.683238 0.031632 0.133486
0.683421 0.0315862 0.133486
0.683757 0.0314794 0.133455
0.684504 0.0312352 0.133425
0.685267 0.0310063 0.133425
0 0.17908 0.0322576
0 0.176822 0.0209506
0 0.174014 0.00935378
0 0.171847 0.00953689
0 0.169421 0.010071
0.0150149 0.165957 0.0112001
0.0374456 0.161013 0.0121309
0.0790417 0.15552 0.0201267
0.110475 0.156374 0.0248112
0.147326 0.159258 0.0280308
0.19939 0.160662 0.0325017
0.268055 0.150317 0.0515297
0.337652 0.131914 0.056611
0.406104 0.109422 0.0569162
0.452995 0.0894026 0.0509041
0.489525 0.0628977 0.040589
0.513649 0.0237736 0.0300755
0.541939 0.00848402 0.041474
0.579919 0.0101015 0.0642557
0.609903 0.0147402 0.0791943
0.670436 0.0283665 0.123339
0.683238 0.031632 0.133486
0.683238 0.031632 0.133486
0.683238 0.031632 0.133486
0.683238 0.031632 0.133486
0.683238 0.031632 0.133486
0.683238 0.031632 0.133486
0.683238 0.031632 0.133486
0.683238 0.031632 0.133486
0.683421 0.0315862 0.133486
0.683757 0.0314794 0.133455
0.684504 0.0312352 0.133425
0.685267 0.0310063 0.133425
0 0.224765 0.0347143
0 0.221912 0.0201877
0 0.21886 0.00737011
0 0.216159 0
0 0.214282 0
0 0.212192 0
0.020325 0.210056 0
0.0531777 0.204288 0.00172427
0.108873 0.198672 0.0150149
0.149828 0.199222 0.0222629
0.197635 0.202792 0.0272679
0.261753 0.203937 0.0306096
0.339025 0.193256 0.0534676
0.410864 0.172183 0.0635386
0.478935 0.147951 0.0687266
0.530114 0.121843 0.066392
0.557778 0.0939956 0.0574197
0.577279 0.0436866 0.042649
0.595514 0.015198 0.0530861
0.605005 0.0111543 0.065568
0.668757 0.0276646 0.12047
0.682902 0.0315862 0.133104
0.683207 0.031632 0.133455
0.683238 0.031632 0.133486
0.683238 0.031632 0.133486
0.683238 0.031632 0.133486
0.683238 0.031632 0.133486
0.683238 0.031632 0.133486
0.683238 0.031632 0.133486
0.683421 0.0315862 0.133486
0.683757 0.0314794 0.133455
0.684504 0.0312352 0.133425
0.685267 0.0310063 0.133425
0 0.277699 0.0392462
0 0.275151 0.0251011
0 0.272511 0.0122377
0 0.269139 0
0 0.266712 0
0 0.264912 0
0.000747692 0.263218 0
0.0250095 0.261234 0
0.0742046 0.255085 0
0.144701 0.248798 0.011017
0.198184 0.249393 0.0213931
0.256748 0.253483 0.0289921
0.331823 0.254765 0.0303197
0.409812 0.246311 0.0552529
0.482124 0.226932 0.0740368
0.551629 0.199359 0.0836805
0.604013 0.168002 0.0894179
0.628611 0.13904 0.0816205
0.651484 0.0755474 0.0614328
0.665812 0.025803 0.0614328
0.656214 0.0185245 0.0862593
0.67097 0.0279698 0.11577
0.68043 0.030518 0.128222
0.681849 0.0306859 0.130663
0.682857 0.0313726 0.13257
0.682994 0.0314183 0.132738
0.683131 0.0314336 0.132891
0.683284 0.0314641 0.133059
0.683391 0.0314794 0.133181
0.683604 0.0314641 0.133288
0.683955 0.0313878 0.133364
0.684611 0.0312047 0.133425
0.685298 0.0309911 0.13341
0 0.336721 0.0466163
0 0.334951 0.035172
0 0.332616 0.0236667
0 0.330663 0.0112154
0 0.327825 0
0.00601205 0.325765 0
0.00622568 0.324208 0
0.00747692 0.322271 0
0.0331579 0.318959 0
0.104204 0.313481 0
0.189502 0.306889 0.00961318
0.254902 0.307622 0.0216373
0.3252 0.312703 0.0315099
0.404074 0.31368 0.0329747
0.478843 0.310735 0.0551308
0.553017 0.294286 0.0833143
0.621134 0.264652 0.102281
0.677836 0.227375 0.117296
0.711452 0.19324 0.108904
0.733318 0.126955 0.0860761
0.729946 0.0401617 0.067628
0.714855 0.0250248 0.0750134
0.695399 0.0216068 0.0899977
0.660822 0.0166018 0.0804608
0.663783 0.0259861 0.103548
0.670558 0.0292058 0.114656
0.674479 0.0294041 0.118395
0.678019 0.0297398 0.12166
0.680598 0.0300145 0.124575
0.682414 0.0301518 0.126802
0.683864 0.0302281 0.12842
0.684871 0.0302129 0.129641
0.685924 0.030045 0.130083
0 0.398932 0.0639658
0 0.397528 0.0527047
0 0.396155 0.0413214
0 0.395056 0.0311284
0 0.394064 0.020676
0.00469978 0.392554 0.00569162
0.0153201 0.390555 0
0.0163272 0.388952 0
0.0178683 0.386633 0
0.0489204 0.380591 0
0.141527 0.375479 0
0.244709 0.3673 0.0140536
0.32134 0.369268 0.0261692
0.397223 0.374868 0.035172
0.47744 0.376471 0.0368811
0.548867 0.378286 0.0555276
0.623178 0.36672 0.0941024
0.688472 0.340093 0.123583
0.757885 0.298787 0.144045
0.79646 0.256886 0.139391
0.811139 0.190677 0.117601
0.795956 0.138613 0.0964218
0.774945 0.0916609 0.0797131
0.752895 0.0534981 0.0628672
0.737514 0.034638 0.0579843
0.729732 0.0304265 0.0636912
0.724315 0.029572 0.0699321
0.719539 0.0291295 0.0744793
0.715877 0.0286564 0.0805676
0.712688 0.0282597 0.0862745
0.710521 0.0280308 0.0911421
0.709117 0.0277409 0.0945449
0.708537 0.0275273 0.0959487
0 0.466636 0.0965744
0 0.466117 0.0854963
0 0.465568 0.0746929
0 0.465187 0.0639811
0.00149538 0.464714 0.0537118
0.007187 0.464347 0.0444495
0.0158999 0.463676 0.0314183
0.0292058 0.461936 0.0125734
0.0339055 0.459663 0.00547799
0.0359045 0.456916 0.00244144
0.0783856 0.447486 0
0.187015 0.441718 0
0.31104 0.431708 0.0252842
0.394476 0.433661 0.0326696
0.471244 0.438911 0.0392157
0.549279 0.440543 0.0447242
0.617746 0.445762 0.0642405
0.691341 0.437751 0.11136
0.756115 0.41854 0.143801
0.828 0.373861 0.165835
0.868299 0.326513 0.167788
0.868315 0.295201 0.15639
0.858793 0.271977 0.147875
0.848875 0.249271 0.140017
0.839765 0.228229 0.132769
0.831586 0.210178 0.126238
0.824231 0.194644 0.120134
0.818387 0.182254 0.115114
0.813565 0.172168 0.111055
0.809339 0.163928 0.107622
0.806226 0.157748 0.105013
0.804623 0.153063 0.102861
0.804425 0.149889 0.101259
0 0.538369 0.145556
0 0.538521 0.134844
0 0.538918 0.124041
0 0.5393 0.113527
0.00358587 0.53959 0.102876
0.0122377 0.539818 0.0922866
0.0203708 0.539956 0.0824903
0.0316167 0.539605 0.0687419
0.0523537 0.538003 0.0456245
0.0616312 0.535378 0.0336461
0.0636606 0.531868 0.0289464
0.117601 0.519463 0
0.243397 0.512367 0
0.38706 0.498756 0.0404974
0.469215 0.499687 0.0435035
0.543481 0.502602 0.0496529
0.618738 0.50425 0.0578012
0.685191 0.510597 0.0775769
0.76141 0.506004 0.130953
0.821286 0.492653 0.156481
0.883009 0.4486 0.181201
0.906325 0.411078 0.188296
0.905745 0.391455 0.187121
0.902068 0.376242 0.184146
0.898543 0.363607 0.181262
0.895308 0.353124 0.178302
0.892042 0.344427 0.175067
0.88957 0.338201 0.172671
0.887388 0.333272 0.170733
0.885679 0.329763 0.169177
0.884291 0.326787 0.167987
0.883406 0.324559 0.166659
0.883635 0.323552 0.165789
0 0.609155 0.21149
0 0.610513 0.20145
0 0.612055 0.19118
0 0.61326 0.180804
0.00268559 0.614313 0.170397
0.012314 0.615259 0.160128
0.0231174 0.6159 0.149203
0.0369726 0.616281 0.135531
0.0529641 0.616495 0.119066
0.0798352 0.615183 0.09131
0.0919509 0.612528 0.0770886
0.0956436 0.608331 0.0699016
0.168322 0.592447 0.010544
0.31342 0.583688 0.0206302
0.464637 0.56614 0.0614786
0.54284 0.564828 0.0632944
0.614099 0.565667 0.0652934
0.685695 0.566949 0.0776532
0.755444 0.573114 0.090898
0.826886 0.571572 0.143221
0.876204 0.563363 0.164355
0.915969 0.532799 0.187671
0.919524 0.514565 0.192401
0.919066 0.50013 0.194446
0.918502 0.487724 0.19469
0.918257 0.477653 0.1944
0.917662 0.469123 0.19353
0.917128 0.46331 0.193164
0.916274 0.459098 0.192569
0.916045 0.456123 0.192599
0.91574 0.453819 0.192477
0.915557 0.452247 0.191867
0.915633 0.451514 0.190921
0 0.679637 0.288869
0 0.680385 0.280171
0 0.681163 0.271015
0 0.68191 0.261387
0 0.684016 0.251286
0.00401312 0.686 0.240711
0.0138247 0.687892 0.229801
0.0279698 0.689723 0.21619
0.0480049 0.6916 0.197787
0.0731518 0.692409 0.174334
0.102831 0.692058 0.145129
0.111894 0.688975 0.133227
0.124941 0.683894 0.117861
0.238087 0.665629 0.035523
0.397009 0.653574 0.0600137
0.542367 0.632349 0.0911879
0.613947 0.628229 0.0890516
0.681758 0.627466 0.0871138
0.752377 0.628199 0.0950027
0.821469 0.63331 0.10631
0.88188 0.634501 0.150561
0.918364 0.630198 0.168383
0.927581 0.619699 0.173587
0.927398 0.610498 0.175814
0.926131 0.602167 0.17731
0.925399 0.595331 0.178759
0.924773 0.589807 0.179965
0.924361 0.585321 0.180819
0.923934 0.582025 0.181384
0.923766 0.579553 0.181872
0.923812 0.57792 0.182437
0.92372 0.576516 0.182284
0.923751 0.575799 0.181613
0.00273136 0.750347 0.363638
0.0024567 0.751186 0.356771
0.00195315 0.751965 0.349569
0.00167849 0.752697 0.342229
0.00205997 0.753628 0.334295
0.00282292 0.75465 0.325444
0.0037232 0.755627 0.316304
0.00825513 0.757321 0.304707
0.0246891 0.760418 0.288975
0.0523537 0.763439 0.267506
0.0892042 0.766445 0.236149
0.120317 0.767163 0.206744
0.123476 0.763378 0.199832
0.169574 0.75555 0.157168
0.318944 0.737942 0.0746014
0.490593 0.71902 0.110674
0.61529 0.696727 0.12369
0.681285 0.690272 0.114778
0.747021 0.688121 0.108324
0.816068 0.687999 0.115373
0.877882 0.691707 0.126406
0.925887 0.694179 0.153948
0.945998 0.691356 0.171786
0.9458 0.685603 0.172702
0.94432 0.680705 0.172564
0.942657 0.676188 0.171679
0.941588 0.672908 0.171283
0.94078 0.670069 0.171038
0.939986 0.667765 0.170718
0.939483 0.666178 0.170504
0.93901 0.664988 0.17026
0.938766 0.664073 0.170108
0.938766 0.663645 0.169955
0.0163729 0.820752 0.432715
0.0154421 0.8215 0.427466
0.0144045 0.822324 0.421775
0.0135348 0.823133 0.415824
0.0127871 0.823972 0.409735
0.0124056 0.824826 0.403342
0.0121614 0.825742 0.396353
0.0124361 0.82681 0.387121
0.0135348 0.828367 0.373922
0.0165866 0.830579 0.355566
0.0401007 0.835355 0.330709
0.0878462 0.839567 0.298085
0.12076 0.839185 0.273701
0.127779 0.83473 0.264469
0.221927 0.823865 0.192157
0.413855 0.807889 0.121782
0.583413 0.781292 0.16408
0.683848 0.76112 0.161089
0.745892 0.75227 0.144045
0.809476 0.747753 0.13547
0.870161 0.747173 0.141741
0.92314 0.749813 0.157931
0.960647 0.752667 0.183398
0.966262 0.748913 0.188312
0.964858 0.743954 0.186679
0.963806 0.74023 0.185092
0.962554 0.736889 0.183261
0.961639 0.734249 0.181872
0.961044 0.732372 0.181125
0.960693 0.731136 0.180575
0.960342 0.730144 0.179995
0.960113 0.729412 0.179568
0.95996 0.729015 0.179324
0.0269932 0.878874 0.497444
0.0260777 0.879591 0.493355
0.0246738 0.880323 0.489479
0.0234684 0.881132 0.484794
0.0223087 0.88188 0.480446
0.0216831 0.882719 0.475593
0.021149 0.883513 0.47071
0.020737 0.884535 0.463722
0.020264 0.885695 0.454078
0.0195926 0.887266 0.440696
0.0203708 0.889708 0.420935
0.0254215 0.893538 0.392309
0.061265 0.900023 0.356497
0.0776379 0.898268 0.344915
0.115053 0.895354 0.320363
0.285557 0.886107 0.208362
0.507134 0.867308 0.185138
0.664546 0.833143 0.222324
0.744335 0.818204 0.213794
0.803571 0.809903 0.195499
0.865965 0.806271 0.190036
0.915816 0.806424 0.18941
0.957916 0.808591 0.207248
0.982101 0.810468 0.227253
0.983429 0.806928 0.225986
0.982589 0.803265 0.223056
0.981872 0.80029 0.220768
0.981506 0.798108 0.219364
0.980957 0.796231 0.217914
0.980468 0.794781 0.216785
0.980209 0.79379 0.216419
0.979965 0.793133 0.216571
0.979782 0.792813 0.217227
0.0368048 0.923583 0.560265
0.0358434 0.924025 0.557519
0.0340429 0.924773 0.55404
0.0324102 0.925475 0.5505
0.0310979 0.926101 0.547051
0.0302739 0.92668 0.543374
0.0296178 0.927184 0.539803
0.029099 0.927871 0.53463
0.0284428 0.928771 0.527886
0.0279088 0.930144 0.518349
0.0269322 0.93193 0.504814
0.0259861 0.934386 0.484688
0.0275425 0.93814 0.455833
0.0282902 0.939773 0.430243
0.0339666 0.937957 0.419959
0.139208 0.943526 0.351492
0.361669 0.939712 0.240223
0.591287 0.912856 0.259754
0.729793 0.879591 0.289723
0.797482 0.867826 0.287251
0.856443 0.861006 0.273213
0.91133 0.856931 0.272541
0.952331 0.856535 0.275227
0.980194 0.860838 0.284443
0.988724 0.859754 0.288991
0.989395 0.857099 0.285405
0.989273 0.854749 0.282094
0.989059 0.852674 0.27895
0.988891 0.851041 0.276432
0.988678 0.84979 0.274525
0.988571 0.848875 0.273198
0.988556 0.848356 0.272618
0.988602 0.848112 0.272892
0.0536965 0.956085 0.621668
0.0527504 0.956451 0.619303
0.0505989 0.957092 0.616815
0.0487373 0.957702 0.614054
0.0472572 0.958236 0.611383
0.0464332 0.958648 0.608576
0.0457771 0.958984 0.605966
0.0452583 0.959381 0.602106
0.0445258 0.959869 0.597086
0.0435645 0.960586 0.58999
0.0423896 0.961639 0.580041
0.0413062 0.963607 0.566049
0.0394598 0.965911 0.545998
0.0375067 0.968948 0.519173
0.0363012 0.967025 0.509285
0.0451362 0.967926 0.478202
0.177447 0.983429 0.378882
0.465248 0.975708 0.317388
0.65568 0.949645 0.339483
0.782971 0.920241 0.370489
0.843961 0.910018 0.374975
0.89926 0.903044 0.36936
0.945296 0.899046 0.372854
0.976959 0.897612 0.377874
0.993683 0.900038 0.380087
0.994018 0.898024 0.374624
0.993454 0.896056 0.369223
0.993118 0.894484 0.364843
0.993149 0.893675 0.361669
0.993042 0.892989 0.358785
0.992813 0.892332 0.356878
0.992737 0.891844 0.355444
0.992798 0.891569 0.354955
0.0667887 0.971832 0.665354
0.0660716 0.972229 0.663752
0.0642557 0.972885 0.662013
0.0624552 0.973541 0.660258
0.0610513 0.974075 0.65864
0.0603189 0.974517 0.656901
0.0598306 0.974884 0.654978
0.0595712 0.975235 0.652674
0.0591745 0.975692 0.649516
0.0586404 0.976333 0.644968
0.0578012 0.977249 0.638651
0.0566415 0.978546 0.629877
0.0552071 0.980346 0.617441
0.0530709 0.982757 0.60061
0.0514382 0.983154 0.589899
0.0495003 0.982834 0.575845
0.0598306 0.990402 0.505776
0.220371 0.999969 0.407752
0.560662 0.997406 0.392508
0.711025 0.978042 0.424857
0.829908 0.952514 0.459586
0.886442 0.94342 0.462806
0.934493 0.936309 0.459205
0.9738 0.931838 0.462501
0.997177 0.929885 0.466163
0.999283 0.928847 0.463035
0.999161 0.92726 0.458167
0.998978 0.926162 0.454444
0.998871 0.925475 0.451499
0.998672 0.924758 0.449149
0.998489 0.924208 0.447501
0.998413 0.923766 0.446235
0.998413 0.923537 0.44564
0.0674144 0.973159 0.673335
0.0670634 0.973419 0.671855
0.0656901 0.973938 0.670146
0.0641489 0.974533 0.668345
0.0628214 0.975021 0.666789
0.0621347 0.975387 0.66508
0.061738 0.975692 0.663264
0.0614939 0.976043 0.660761
0.0610361 0.976455 0.657557
0.060441 0.97705 0.653025
0.0596017 0.977859 0.646967
0.0584421 0.979019 0.638514
0.0569009 0.980713 0.626551
0.0549477 0.982986 0.610803
0.0534676 0.98471 0.598917
0.0532845 0.985061 0.597116
0.054963 0.990753 0.575662
0.101045 0.999863 0.514839
0.35491 0.999969 0.468132
0.630472 0.999969 0.472084
0.762173 0.989807 0.510933
0.876188 0.971511 0.550607
0.923995 0.965911 0.55407
0.963577 0.960906 0.548898
0.994781 0.955535 0.55172
0.999969 0.952651 0.552972
0.999969 0.951324 0.547509
0.999969 0.95021 0.542626
0.999969 0.949538 0.538979
0.999969 0.948882 0.536309
0.999969 0.948333 0.534066
0.999969 0.947967 0.532418
0.999969 0.947753 0.531548
0.064683 0.973434 0.676265
0.065095 0.973495 0.674846
0.0648814 0.973754 0.673274
0.0642405 0.974075 0.671733
0.0631723 0.974548 0.669993
0.0624857 0.974914 0.668254
0.0620279 0.975219 0.666621
0.0618296 0.97557 0.66424
0.0615091 0.976028 0.660853
0.0608988 0.976577 0.656565
0.0600748 0.977386 0.650462
0.0589456 0.978546 0.641962
0.0573587 0.980133 0.630655
0.0554055 0.982406 0.614649
0.0535286 0.984741 0.5991
0.0535134 0.985046 0.598367
0.0548409 0.989303 0.585351
0.0814527 0.998962 0.532799
0.278309 0.999969 0.466728
0.586297 0.999969 0.476127
0.725856 0.997024 0.518685
0.82591 0.982162 0.564263
0.91223 0.972152 0.59939
0.950317 0.969589 0.608927
0.98201 0.968307 0.619562
0.99942 0.967254 0.632776
0.999863 0.967041 0.631312
0.999908 0.966888 0.628672
0.999924 0.966796 0.626673
0.999924 0.966796 0.625345
0.999924 0.966796 0.624323
0.999924 0.966766 0.623423
0.999924 0.966659 0.622553
0.0635233 0.973373 0.678904
0.0637064 0.97351 0.677348
0.0638895 0.973678 0.675715
0.063859 0.973846 0.674296
0.0632944 0.974197 0.672587
0.0627756 0.974517 0.670954
0.0623331 0.974838 0.669123
0.0620737 0.975189 0.666865
0.0617838 0.975647 0.663691
0.0612955 0.976242 0.659159
0.0604715 0.97702 0.653223
0.0593271 0.978134 0.644984
0.0577707 0.979736 0.633478
0.0558022 0.98201 0.617395
0.0535744 0.984695 0.599374
0.0535286 0.984939 0.598703
0.0542458 0.987869 0.589944
0.0690929 0.997589 0.541833
0.210193 0.999969 0.463172
0.556909 0.999969 0.47364
0.709133 0.998322 0.513115
0.810529 0.985046 0.558602
0.90367 0.972961 0.597757
0.943343 0.970138 0.609369
0.975235 0.96907 0.618448
0.99733 0.968093 0.633127
0.999695 0.967865 0.639826
0.999725 0.96788 0.64004
0.999695 0.967926 0.640085
0.999664 0.967987 0.640223
