bundles/resolve-cinematic-luts/Phantom Luts/S5ii LUTs/WB Offset - Green & Warm Boost/S5ii Utopia V-Log WBO Legacy.cube
TITLE "Generated by Resolve"
LUT_3D_SIZE 9
0.0141146 0.0405585 0.0500801
0.0385748 0.0418097 0.0517433
0.105196 0.0419318 0.0475929
0.2495 0.0320439 0.0414435
0.470695 0.0263523 0.060853
0.660121 0.0457923 0.14551
0.667597 0.0472114 0.153521
0.668498 0.0475624 0.156435
0.670573 0.0470283 0.157916
0.0155489 0.0525368 0.0557259
0.0221714 0.0467384 0.0521553
0.0784772 0.0489815 0.0505226
0.2365 0.0326696 0.040177
0.460395 0.0209354 0.0469673
0.634455 0.0403449 0.119097
0.649744 0.0442206 0.129213
0.658778 0.0447089 0.136294
0.662959 0.0444953 0.139147
0.00691234 0.11751 0.0534981
0.0174411 0.110628 0.0459449
0.0821241 0.103944 0.0462959
0.263401 0.0769818 0.0588388
0.455558 0.0218204 0.0460365
0.634684 0.0400092 0.118837
0.648478 0.0439002 0.127764
0.648478 0.0439002 0.127764
0.649241 0.0436103 0.127916
0 0.277897 0.0506294
0.0120089 0.271672 0.0136416
0.0341039 0.263218 0.00300603
0.257694 0.25391 0.0382696
0.561242 0.205249 0.0971542
0.693828 0.0316472 0.071809
0.623011 0.0308385 0.0958877
0.644144 0.0416876 0.120851
0.650034 0.0420539 0.124971
0 0.551461 0.151766
0.0255589 0.552041 0.119158
0.0637522 0.550088 0.0784009
0.139086 0.527016 0.000595102
0.552666 0.51136 0.0580301
0.861997 0.503517 0.17998
0.913802 0.425086 0.19472
0.90988 0.398596 0.192233
0.909239 0.390356 0.190326
0.0366369 0.859251 0.437873
0.0335546 0.862348 0.420356
0.0349279 0.866041 0.393729
0.146517 0.876554 0.299916
0.468421 0.840589 0.157229
0.833402 0.77673 0.176867
0.979339 0.777722 0.208545
0.975067 0.76553 0.203433
0.973251 0.761807 0.203555
0.0775769 0.98439 0.628428
0.071931 0.986542 0.620935
0.0700694 0.988281 0.61062
0.0666972 0.993317 0.577173
0.0668345 0.999344 0.522774
0.73843 0.995224 0.464286
0.997208 0.959182 0.511086
0.999969 0.95259 0.498146
0.999969 0.950896 0.491463
0.074815 0.983734 0.638224
0.0765087 0.984176 0.631861
0.0758831 0.98558 0.622003
0.0724956 0.990555 0.590173
0.0697337 0.996811 0.543969
0.664927 0.999969 0.458595
0.965713 0.972244 0.571511
0.999969 0.969879 0.596368
0.999969 0.97026 0.59707
0.0716106 0.984009 0.641505
0.073167 0.984497 0.634974
0.0747387 0.985382 0.62536
0.0728161 0.990021 0.593652
0.0697185 0.99675 0.544488
0.647959 0.999969 0.452873
0.954772 0.972625 0.569284
0.999969 0.970016 0.596643
0.999969 0.970413 0.59736
0.0116426 0.0414588 0.0559243
0.0324865 0.0432593 0.0680552
0.106188 0.0441749 0.072221
0.268803 0.0403601 0.078996
0.487114 0.0376135 0.0957504
0.665431 0.0477607 0.162493
0.672801 0.0489204 0.169986
0.673548 0.0493935 0.172915
0.675059 0.0491646 0.17435
0.0142214 0.0490883 0.0586862
0.0147707 0.040589 0.0499886
0.0851911 0.0426642 0.0491951
0.238163 0.0350195 0.0473335
0.465263 0.0275578 0.061738
0.660822 0.0455482 0.147036
0.669078 0.0469825 0.155108
0.669947 0.0473335 0.158022
0.671489 0.0470283 0.159045
0.00933852 0.110735 0.0824598
0.00817884 0.106111 0.0568399
0.0775006 0.0989242 0.046952
0.255726 0.0654612 0.0530556
0.454826 0.0217594 0.0466926
0.635737 0.0401007 0.119402
0.652583 0.044007 0.130663
0.656657 0.0443122 0.134005
0.658976 0.0440986 0.135042
0 0.273167 0.088365
0 0.268696 0.0537881
0.0157168 0.2607 0.00881972
0.254322 0.249287 0.0383459
0.562249 0.192065 0.0956588
0.687953 0.0284276 0.0720836
0.629129 0.0349432 0.104173
0.649088 0.0422217 0.124514
0.64892 0.0418097 0.124544
0 0.543664 0.183261
0 0.546014 0.15201
0.0344549 0.546365 0.106157
0.113985 0.529625 0.0183871
0.551141 0.508934 0.0573129
0.864393 0.496315 0.181613
0.913191 0.420508 0.194369
0.909041 0.394064 0.191623
0.908049 0.385534 0.189441
0.0368048 0.8533 0.452506
0.0334173 0.855985 0.435782
0.032517 0.85922 0.411475
0.114931 0.871641 0.319997
0.450996 0.841978 0.152773
0.832822 0.775036 0.175113
0.978195 0.774365 0.206821
0.973602 0.761837 0.201984
0.971969 0.758221 0.202136
0.0783551 0.983352 0.63537
0.0727398 0.985443 0.628077
0.0708629 0.987091 0.618479
0.0674144 0.99202 0.586679
0.0664225 0.998886 0.529442
0.733272 0.996078 0.461051
0.996796 0.958312 0.506966
0.999969 0.951354 0.492988
0.999969 0.949447 0.485969
0.0752117 0.982742 0.644923
0.0778821 0.983001 0.638956
0.0767071 0.984451 0.629435
0.0733959 0.989166 0.598901
0.0697032 0.996612 0.54522
0.655711 0.999969 0.45539
0.963394 0.972213 0.570886
0.999969 0.969879 0.596368
0.999969 0.97026 0.59707
0.0725414 0.982757 0.648524
0.074815 0.983261 0.64213
0.0757916 0.984222 0.632715
0.0737316 0.988602 0.602335
0.0697337 0.996597 0.545586
0.637583 0.999969 0.449775
0.952178 0.972839 0.568948
0.999969 0.970016 0.596643
0.999969 0.970413 0.59736
0.000350958 0.0485237 0.096376
0.0462043 0.0441138 0.100008
0.108461 0.0475166 0.108171
0.275883 0.0469978 0.106905
0.501884 0.0388037 0.127825
0.67332 0.0517433 0.183703
0.679622 0.0534066 0.190829
0.681544 0.0540169 0.193561
0.68368 0.0539712 0.195422
0.00842298 0.0542306 0.076585
0.00181582 0.0475929 0.0912032
0.0870375 0.0458381 0.0950179
0.258564 0.0426337 0.0891737
0.492363 0.0364233 0.108751
0.66714 0.0485695 0.167895
0.674128 0.0498207 0.175235
0.675074 0.0503243 0.177722
0.676509 0.0501106 0.179095
0.0124666 0.106035 0.111223
0.0131075 0.10013 0.104494
0.0680552 0.0946822 0.100786
0.248142 0.0681773 0.074876
0.464363 0.0385138 0.0800946
0.662745 0.0466316 0.153582
0.66949 0.0475624 0.158099
0.669779 0.047715 0.158999
0.671061 0.0474556 0.160082
0 0.265064 0.135805
0 0.263096 0.108293
0 0.258717 0.0560616
0.252491 0.246662 0.0592508
0.56289 0.181491 0.104494
0.682414 0.0258335 0.0762493
0.648569 0.0412299 0.121767
0.664118 0.0438849 0.140398
0.662104 0.0432746 0.139483
0 0.534829 0.223163
0 0.536553 0.19266
0 0.539712 0.148333
0.0917372 0.531716 0.0375525
0.549569 0.50602 0.0564889
0.863874 0.491569 0.181765
0.912337 0.415137 0.193835
0.908171 0.388403 0.191043
0.907149 0.380072 0.189014
0.0372778 0.846159 0.467979
0.0336767 0.848539 0.453468
0.0323491 0.851545 0.431312
0.0691997 0.862959 0.347265
0.422461 0.84448 0.150057
0.831556 0.772396 0.172595
0.976791 0.770367 0.205264
0.972366 0.758511 0.200641
0.970794 0.75462 0.19971
0.0780499 0.982391 0.643412
0.0736553 0.984176 0.636667
0.071931 0.985687 0.627512
0.068513 0.99028 0.597574
0.0656748 0.998062 0.53698
0.725795 0.996719 0.456565
0.996017 0.956771 0.50164
0.999969 0.949538 0.486473
0.999969 0.947311 0.47892
0.075227 0.981552 0.65304
0.0776837 0.981888 0.647242
0.0778058 0.983093 0.638331
0.0745556 0.987488 0.609415
0.0697185 0.996445 0.546395
0.642908 0.999969 0.451392
0.960204 0.972213 0.570031
0.999969 0.969879 0.596368
0.999969 0.97026 0.59707
0.0736553 0.981353 0.656748
0.0738384 0.982238 0.650309
0.0774853 0.982742 0.641749
0.0748913 0.986984 0.61268
0.0697642 0.996368 0.547066
0.624033 0.999969 0.445838
0.948577 0.973037 0.568429
0.999969 0.970016 0.596643
0.999969 0.970459 0.597421
0 0.0632944 0.184955
0.0130617 0.0575418 0.207538
0.135195 0.0484474 0.194736
0.280934 0.0531472 0.194553
0.515755 0.0602426 0.196445
0.714504 0.0741131 0.248112
0.722805 0.0774395 0.256306
0.725017 0.0791791 0.260182
0.727306 0.0791333 0.261784
0 0.0685893 0.167361
0 0.0631113 0.182147
0.0857404 0.0500954 0.206851
0.267445 0.0533608 0.183368
0.508507 0.0529488 0.179385
0.70489 0.0673533 0.232074
0.712764 0.0701762 0.239841
0.715145 0.0716259 0.243351
0.717449 0.0716259 0.245228
0 0.114458 0.171511
0 0.104997 0.179049
0.0159457 0.0923018 0.206271
0.253376 0.0628061 0.180835
0.499611 0.0470283 0.1626
0.691218 0.0599985 0.211231
0.697749 0.0617685 0.217243
0.700008 0.0630198 0.220447
0.701946 0.063035 0.222141
0 0.248631 0.226902
0 0.244694 0.221241
0 0.238788 0.211002
0.236286 0.242985 0.226413
0.541924 0.194995 0.185168
0.727184 0.0664683 0.189837
0.687404 0.0557107 0.195758
0.686946 0.0560616 0.198215
0.686915 0.0556497 0.198611
0 0.515465 0.313664
0 0.515206 0.297169
0 0.516014 0.268254
0 0.523522 0.14963
0.545907 0.508293 0.163622
0.875853 0.463737 0.259419
0.90866 0.406455 0.237858
0.900694 0.382681 0.227527
0.89778 0.37467 0.224063
0.0404517 0.828824 0.505455
0.0366217 0.830365 0.494469
0.0344701 0.832105 0.477775
0.0302434 0.838163 0.413596
0.373037 0.846403 0.176165
0.825208 0.767147 0.196368
0.973281 0.763653 0.227924
0.968856 0.750927 0.216358
0.96788 0.7476 0.213535
0.0805371 0.978943 0.663508
0.0744488 0.980896 0.657404
0.0746166 0.981918 0.649363
0.0713054 0.985946 0.623529
0.0653391 0.997055 0.542611
0.714794 0.997055 0.446067
0.993606 0.952407 0.487755
0.999969 0.944472 0.471672
0.999969 0.94226 0.464454
0.0777295 0.978332 0.673503
0.0755627 0.979568 0.667521
0.0805524 0.979492 0.659922
0.0773175 0.983688 0.634485
0.069749 0.996216 0.547921
0.618051 0.999969 0.443854
0.953323 0.972641 0.568689
0.999969 0.969879 0.596368
0.999969 0.97026 0.59707
0.0764477 0.978164 0.676997
0.0753796 0.979095 0.671412
0.0782483 0.979522 0.663447
0.0777447 0.983169 0.637888
0.0697032 0.995712 0.551553
0.593179 0.999969 0.439002
0.94049 0.973358 0.567361
0.999969 0.970016 0.596643
0.999969 0.970413 0.59736
0 0.088014 0.342748
0 0.0841688 0.363821
0.0251774 0.0674601 0.406363
0.317098 0.0510872 0.371084
0.513909 0.0683909 0.371481
0.754177 0.124697 0.389151
0.763149 0.126787 0.397925
0.763424 0.127062 0.402426
0.764584 0.126635 0.405615
0 0.0909438 0.336904
0 0.0879377 0.342397
0 0.0783703 0.388586
0.297261 0.049546 0.377707
0.509209 0.0675059 0.364996
0.754406 0.123873 0.377951
0.763592 0.126268 0.386038
0.763622 0.126467 0.390204
0.764477 0.126024 0.393164
0 0.112978 0.323949
0 0.10013 0.332036
0 0.0882124 0.352056
0.258167 0.0486305 0.388266
0.503105 0.0666972 0.356161
0.753704 0.121996 0.361395
0.761654 0.124178 0.368078
0.76228 0.124895 0.371481
0.76347 0.124651 0.374212
0 0.243565 0.345373
0 0.235904 0.346975
0 0.224109 0.350561
0.114137 0.218067 0.431678
0.520516 0.165545 0.397406
0.748699 0.118944 0.335225
0.75935 0.119478 0.342382
0.759228 0.119814 0.343984
0.760281 0.119692 0.345754
0 0.491035 0.445228
0 0.488487 0.441657
0 0.485298 0.436515
0 0.476173 0.416999
0.516274 0.503227 0.464759
0.858473 0.458183 0.42443
0.899321 0.407156 0.381781
0.89453 0.377005 0.383093
0.892317 0.363378 0.38471
0.0504311 0.799481 0.586419
0.0474708 0.799176 0.580957
0.0458076 0.798245 0.571572
0.0407721 0.795422 0.539101
0.180789 0.833936 0.436072
0.809277 0.755856 0.447135
0.975631 0.741207 0.479377
0.973297 0.726207 0.474174
0.972137 0.721767 0.473655
0.0859846 0.971206 0.712169
0.0801099 0.972946 0.707927
0.0792859 0.973892 0.701808
0.0788128 0.976272 0.682994
0.0716259 0.985672 0.624414
0.669581 0.999969 0.532372
0.987335 0.946914 0.578164
0.999969 0.936416 0.573129
0.999969 0.933745 0.567819
0.0841535 0.971023 0.722866
0.081239 0.972183 0.718242
0.0804456 0.973083 0.711818
0.0836194 0.974792 0.692027
0.0769207 0.984237 0.631556
0.529351 0.999969 0.545113
0.944747 0.978744 0.65922
0.999969 0.97525 0.685939
0.999969 0.975723 0.686931
0.0834821 0.970718 0.726741
0.0815595 0.971633 0.722377
0.0804913 0.972625 0.715633
0.0836957 0.97438 0.695247
0.0772717 0.983719 0.634226
0.502968 0.999969 0.538277
0.931975 0.97995 0.655055
0.999969 0.975174 0.68423
0.999969 0.975601 0.684947
0 0.148074 0.498589
0 0.146624 0.502556
0 0.140093 0.533532
0.143008 0.0988479 0.606058
0.552895 0.107164 0.563653
0.751095 0.108965 0.552178
0.762829 0.113268 0.565408
0.764324 0.116289 0.571038
0.768383 0.116121 0.576593
0 0.148074 0.498589
0 0.148257 0.498955
0 0.143862 0.510857
0.0962234 0.103578 0.603632
0.547158 0.105684 0.564996
0.75024 0.10663 0.547112
0.76141 0.110491 0.558602
0.762829 0.112306 0.563653
0.766583 0.111574 0.568551
0 0.152453 0.488701
0 0.148653 0.497459
0 0.14815 0.498833
0.0387579 0.11603 0.595529
0.537591 0.102846 0.56669
0.747967 0.105104 0.538964
0.756512 0.107088 0.546853
0.758038 0.108415 0.551156
0.761654 0.107637 0.555734
0 0.233555 0.48452
0 0.224201 0.490654
0 0.211917 0.498726
0 0.202121 0.545922
0.51313 0.122072 0.586587
0.735058 0.105455 0.526787
0.754223 0.10486 0.526467
0.754147 0.104677 0.527199
0.756436 0.103456 0.530068
0 0.480049 0.569268
0 0.476097 0.570199
0 0.4701 0.571237
0 0.449912 0.572747
0.406134 0.486595 0.697261
0.83566 0.432944 0.655055
0.88275 0.357 0.633356
0.871092 0.332204 0.62269
0.866239 0.32401 0.619974
0.05243 0.762325 0.698192
0.0499733 0.76109 0.6972
0.0490578 0.758495 0.694011
0.0471351 0.749905 0.682582
0.155261 0.753353 0.675792
0.765972 0.742382 0.692515
0.965545 0.714183 0.669551
0.964263 0.699992 0.662562
0.963165 0.697185 0.659648
0.090074 0.960357 0.793744
0.0839094 0.962158 0.791608
0.0830549 0.963027 0.787503
0.0827344 0.960647 0.772961
0.0791943 0.953979 0.726726
0.609155 0.989837 0.699687
0.965835 0.935897 0.736751
0.997345 0.932662 0.753079
0.996536 0.929305 0.750027
0.0912947 0.960418 0.807904
0.0845655 0.962203 0.804959
0.0836194 0.96286 0.799954
0.0846113 0.964157 0.784207
0.0885481 0.967788 0.742245
0.420798 0.999969 0.715831
0.915694 0.988861 0.808728
0.998871 0.985122 0.856245
0.998383 0.985473 0.857069
0.0865949 0.961013 0.814038
0.0847791 0.961715 0.810391
0.0837568 0.962371 0.804761
0.0843824 0.963806 0.788144
0.0885786 0.967605 0.743709
0.381872 0.999847 0.713222
0.894697 0.992554 0.797498
0.997269 0.984741 0.849058
0.997726 0.985809 0.856367
0 0.257038 0.646357
0 0.257267 0.647105
0 0.257725 0.64538
0 0.268635 0.712444
0.407858 0.247807 0.828931
0.838346 0.285283 0.798611
0.859754 0.323629 0.834623
0.86363 0.338857 0.848432
0.864591 0.343816 0.856382
0 0.256489 0.645655
0 0.256764 0.646677
0 0.256626 0.646677
0 0.2701 0.695109
0.389013 0.249348 0.829007
0.838148 0.28246 0.795453
0.856992 0.314534 0.825803
0.861036 0.327245 0.838605
0.862226 0.331548 0.846006
0 0.251682 0.638926
0 0.255558 0.645624
0 0.255573 0.64567
0 0.266972 0.674495
0.36376 0.250141 0.827832
0.834958 0.278096 0.790524
0.853193 0.302983 0.812131
0.856565 0.312917 0.822507
0.857816 0.315785 0.829053
0 0.269703 0.610025
0 0.268055 0.618906
0 0.267552 0.630182
0 0.26685 0.643427
0.28893 0.246494 0.816495
0.815518 0.263035 0.778988
0.839567 0.267826 0.775097
0.84097 0.270863 0.778653
0.842557 0.27155 0.783658
0 0.485222 0.668833
0 0.482109 0.67155
0 0.477394 0.673671
0 0.463844 0.682185
0.223163 0.501472 0.807294
0.842298 0.442329 0.854414
0.895735 0.414481 0.814771
0.887541 0.394583 0.804227
0.883513 0.387655 0.80209
0 0.738979 0.793606
0 0.737484 0.795911
0 0.733745 0.795331
0 0.721798 0.794598
0 0.709056 0.812573
0.683833 0.736339 0.900847
0.957046 0.698161 0.862608
0.956451 0.685267 0.858946
0.955139 0.681315 0.858228
0.0931716 0.939223 0.880156
0.0831311 0.939681 0.880552
0.0815137 0.937728 0.877836
0.0798199 0.931579 0.870283
0.0769665 0.916762 0.850065
0.586114 0.92874 0.874174
0.938537 0.923598 0.89398
0.984466 0.918807 0.888594
0.983825 0.914946 0.887678
0.0944381 0.953079 0.904631
0.0871595 0.954925 0.904219
0.0867628 0.955383 0.901015
0.0881819 0.956191 0.889632
0.0890822 0.957565 0.859174
0.209964 0.981399 0.85272
0.897093 0.993072 0.918868
0.994827 0.986893 0.948837
0.995026 0.986389 0.948653
0.090959 0.952987 0.912139
0.0860609 0.954376 0.911055
0.085832 0.95494 0.907073
0.087892 0.955871 0.894652
0.0890211 0.957534 0.859953
0.194766 0.98088 0.851682
0.870634 0.994354 0.916426
0.9897 0.988174 0.957031
0.992187 0.988495 0.965362
0 0.335607 0.693278
0 0.335744 0.694118
0 0.33814 0.700725
0 0.365255 0.729931
0.326772 0.383062 0.906462
0.852049 0.381765 0.898482
0.872602 0.385122 0.893019
0.872755 0.385183 0.892515
0.872511 0.385077 0.893294
0 0.335576 0.693111
0 0.33576 0.694209
0 0.33611 0.695918
0 0.358282 0.716472
0.309056 0.382177 0.901946
0.851286 0.38175 0.898405
0.872602 0.385122 0.893019
0.872557 0.385107 0.893126
0.872435 0.385046 0.893507
0 0.335988 0.692226
0 0.33576 0.694209
0 0.33576 0.694209
0 0.352255 0.708141
0.282399 0.383429 0.893156
0.845777 0.380133 0.899672
0.872999 0.385275 0.891814
0.872938 0.385245 0.891997
0.872267 0.385 0.893996
0 0.367025 0.695949
0 0.368933 0.701549
0 0.356558 0.698848
0 0.339071 0.700359
0.197299 0.387503 0.858579
0.808255 0.373953 0.909422
0.873121 0.385321 0.891417
0.873137 0.385321 0.891356
0.872465 0.385061 0.893462
0 0.515557 0.738857
0 0.516655 0.744854
0 0.518822 0.751171
0 0.513771 0.755856
0.06804 0.551095 0.81886
0.68893 0.521385 0.982757
0.913069 0.485008 0.927642
0.908721 0.47303 0.923095
0.905364 0.469078 0.923171
0 0.732464 0.850309
0 0.731395 0.853605
0 0.727901 0.854047
0 0.716442 0.855253
0 0.697169 0.863569
0.574578 0.750607 0.955505
0.96466 0.712123 0.961364
0.965972 0.701167 0.957305
0.963638 0.697719 0.957778
0.0603189 0.92253 0.928679
0.0505531 0.922347 0.93019
0.0483101 0.919951 0.929061
0.0431373 0.911589 0.925109
0.0307469 0.89012 0.917815
0.511437 0.909865 0.957183
0.905211 0.915618 0.969879
0.984085 0.909911 0.958099
0.981399 0.90602 0.958434
0.0756085 0.947112 0.948928
0.0640116 0.949752 0.952331
0.0637827 0.949966 0.95201
0.0665751 0.95053 0.948455
0.0785992 0.951614 0.935164
0.133867 0.973465 0.938476
0.883024 0.983291 0.968887
0.990951 0.983536 0.97792
0.994644 0.983337 0.976913
0.0700999 0.948028 0.951354
0.0632181 0.949462 0.953658
0.0627909 0.949676 0.953552
0.0642863 0.950103 0.951293
0.0786908 0.951659 0.935241
0.1196 0.972381 0.934844
0.834806 0.98822 0.965743
0.988785 0.988327 0.984833
0.992828 0.988525 0.987091
0 0.335637 0.693507
0 0.33576 0.694133
0 0.337896 0.700435
0 0.364431 0.728557
0.325933 0.383001 0.90634
0.852979 0.381888 0.898253
0.872602 0.385122 0.893019
0.872679 0.385153 0.89279
0.872465 0.385061 0.893431
0 0.335561 0.693049
0 0.33576 0.694209
0 0.336019 0.695506
0 0.357595 0.715587
0.307637 0.382193 0.901518
0.85243 0.381994 0.897795
0.872602 0.385122 0.893019
0.872541 0.385092 0.893217
0.872068 0.384909 0.894652
0 0.335454 0.692256
0 0.33576 0.694209
0 0.33576 0.694209
0 0.351736 0.707713
0.280156 0.383764 0.892424
0.846067 0.380102 0.899687
0.872969 0.38526 0.891875
0.872923 0.385245 0.892058
0.872282 0.384985 0.893996
0 0.371542 0.700114
0 0.363043 0.700008
0 0.350545 0.69723
0 0.338872 0.700252
0.191714 0.387213 0.855985
0.805554 0.373693 0.910323
0.873075 0.385306 0.891554
0.873121 0.385321 0.891447
0.87245 0.385061 0.893462
0 0.53962 0.767788
0 0.535882 0.76759
0 0.530159 0.764782
0 0.509926 0.753948
0.0555123 0.545373 0.814847
0.680247 0.51667 0.98175
0.911177 0.48014 0.925933
0.906325 0.467918 0.921233
0.903029 0.463813 0.921019
0 0.73521 0.87248
0 0.734447 0.876234
0 0.73135 0.876463
0 0.719036 0.871397
0 0.695186 0.864729
0.557656 0.751217 0.955306
0.961181 0.711467 0.97055
0.964096 0.701167 0.96733
0.962219 0.698192 0.967895
0.0494698 0.919814 0.940887
0.0415961 0.918944 0.942535
0.0391699 0.915969 0.941787
0.0327611 0.905715 0.93846
0.0170901 0.879499 0.930877
0.450935 0.900755 0.971771
0.865873 0.911162 0.980041
0.983017 0.90425 0.978851
0.982116 0.900557 0.978882
0.0740063 0.947158 0.950103
0.0631571 0.949477 0.953674
0.0625772 0.949599 0.953872
0.0625772 0.949599 0.953872
0.0625772 0.949599 0.953872
0.0825513 0.965286 0.962921
0.838972 0.976669 0.985763
0.986191 0.981628 0.986084
0.994049 0.98172 0.984955
0.0702525 0.947982 0.951308
0.0631723 0.949477 0.953674
0.0625772 0.949599 0.953872
0.0625772 0.949599 0.953872
0.0625772 0.949599 0.953872
0.0793469 0.96437 0.961196
0.76553 0.986877 0.984024
0.984298 0.989425 0.989349
0.992432 0.988724 0.987259
