bundles/resolve-cinematic-luts/Phantom Luts/S5ii LUTs/WB Offset - Green & Warm Boost/S5ii Utopia V-Log WBO Legacy.cube
TITLE "Generated by Resolve"
LUT_3D_SIZE 5
0.0141146 0.0405585 0.0500801
0.105196 0.0419318 0.0475929
0.470695 0.0263523 0.060853
0.667597 0.0472114 0.153521
0.670573 0.0470283 0.157916
0.00691234 0.11751 0.0534981
0.0821241 0.103944 0.0462959
0.455558 0.0218204 0.0460365
0.648478 0.0439002 0.127764
0.649241 0.0436103 0.127916
0 0.551461 0.151766
0.0637522 0.550088 0.0784009
0.552666 0.51136 0.0580301
0.913802 0.425086 0.19472
0.909239 0.390356 0.190326
0.0775769 0.98439 0.628428
0.0700694 0.988281 0.61062
0.0668345 0.999344 0.522774
0.997208 0.959182 0.511086
0.999969 0.950896 0.491463
0.0716106 0.984009 0.641505
0.0747387 0.985382 0.62536
0.0697185 0.99675 0.544488
0.954772 0.972625 0.569284
0.999969 0.970413 0.59736
0.000350958 0.0485237 0.096376
0.108461 0.0475166 0.108171
0.501884 0.0388037 0.127825
0.679622 0.0534066 0.190829
0.68368 0.0539712 0.195422
0.0124666 0.106035 0.111223
0.0680552 0.0946822 0.100786
0.464363 0.0385138 0.0800946
0.66949 0.0475624 0.158099
0.671061 0.0474556 0.160082
0 0.534829 0.223163
0 0.539712 0.148333
0.549569 0.50602 0.0564889
0.912337 0.415137 0.193835
0.907149 0.380072 0.189014
0.0780499 0.982391 0.643412
0.071931 0.985687 0.627512
0.0656748 0.998062 0.53698
0.996017 0.956771 0.50164
0.999969 0.947311 0.47892
0.0736553 0.981353 0.656748
0.0774853 0.982742 0.641749
0.0697642 0.996368 0.547066
0.948577 0.973037 0.568429
0.999969 0.970459 0.597421
0 0.088014 0.342748
0.0251774 0.0674601 0.406363
0.513909 0.0683909 0.371481
0.763149 0.126787 0.397925
0.764584 0.126635 0.405615
0 0.112978 0.323949
0 0.0882124 0.352056
0.503105 0.0666972 0.356161
0.761654 0.124178 0.368078
0.76347 0.124651 0.374212
0 0.491035 0.445228
0 0.485298 0.436515
0.516274 0.503227 0.464759
0.899321 0.407156 0.381781
0.892317 0.363378 0.38471
0.0859846 0.971206 0.712169
0.0792859 0.973892 0.701808
0.0716259 0.985672 0.624414
0.987335 0.946914 0.578164
0.999969 0.933745 0.567819
0.0834821 0.970718 0.726741
0.0804913 0.972625 0.715633
0.0772717 0.983719 0.634226
0.931975 0.97995 0.655055
0.999969 0.975601 0.684947
0 0.257038 0.646357
0 0.257725 0.64538
0.407858 0.247807 0.828931
0.859754 0.323629 0.834623
0.864591 0.343816 0.856382
0 0.251682 0.638926
0 0.255573 0.64567
0.36376 0.250141 0.827832
0.853193 0.302983 0.812131
0.857816 0.315785 0.829053
0 0.485222 0.668833
0 0.477394 0.673671
0.223163 0.501472 0.807294
0.895735 0.414481 0.814771
0.883513 0.387655 0.80209
0.0931716 0.939223 0.880156
0.0815137 0.937728 0.877836
0.0769665 0.916762 0.850065
0.938537 0.923598 0.89398
0.983825 0.914946 0.887678
0.090959 0.952987 0.912139
0.085832 0.95494 0.907073
0.0890211 0.957534 0.859953
0.870634 0.994354 0.916426
0.992187 0.988495 0.965362
0 0.335637 0.693507
0 0.337896 0.700435
0.325933 0.383001 0.90634
0.872602 0.385122 0.893019
0.872465 0.385061 0.893431
0 0.335454 0.692256
0 0.33576 0.694209
0.280156 0.383764 0.892424
0.872969 0.38526 0.891875
0.872282 0.384985 0.893996
0 0.53962 0.767788
0 0.530159 0.764782
0.0555123 0.545373 0.814847
0.911177 0.48014 0.925933
0.903029 0.463813 0.921019
0.0494698 0.919814 0.940887
0.0391699 0.915969 0.941787
0.0170901 0.879499 0.930877
0.865873 0.911162 0.980041
0.982116 0.900557 0.978882
0.0702525 0.947982 0.951308
0.0625772 0.949599 0.953872
0.0625772 0.949599 0.953872
0.76553 0.986877 0.984024
0.992432 0.988724 0.987259
