bundles/resolve-cinematic-luts/Phantom Luts/S5ii LUTs/WB Offset - Green & Warm Boost/S5ii Tungsten V-Log WBO.cube
TITLE "Generated by Resolve"
LUT_3D_SIZE 9
0.00746166 0.00784314 0.0142672
0.0294041 0.00885023 0.0143435
0.138308 0.0120241 0.0251621
0.32343 0.0181277 0.0546731
0.534737 0.0276036 0.107805
0.696071 0.05832 0.220249
0.698054 0.0595712 0.226307
0.698817 0.0599985 0.228901
0.70074 0.0609445 0.232914
0.0148623 0.0354162 0.0285496
0.0188602 0.0242161 0.0189212
0.104936 0.0271458 0.0232853
0.306889 0.0134432 0.045594
0.524971 0.0179599 0.0915389
0.682185 0.0531319 0.192325
0.687587 0.0547799 0.201419
0.691432 0.0560922 0.208392
0.694026 0.0572366 0.212985
0.0238804 0.135439 0.0598154
0.0260777 0.12874 0.0398871
0.126879 0.121965 0.0286259
0.348684 0.0948653 0.0598459
0.519493 0.0185245 0.0900587
0.681468 0.0529641 0.191501
0.681468 0.0529641 0.191501
0.681468 0.0529641 0.191501
0.682506 0.0534218 0.193286
0 0.285573 0.0868544
0 0.281666 0.052018
0.0285649 0.273136 0.00634775
0.338857 0.289769 0
0.654353 0.268284 0.113359
0.682353 0.0497902 0.147463
0.672435 0.0507973 0.181109
0.6804 0.052781 0.190097
0.682521 0.0532235 0.192599
0 0.480812 0.199207
0 0.480262 0.17351
0.000579843 0.476753 0.124147
0.0800336 0.463447 0.0111849
0.600931 0.51545 0.0115053
0.88986 0.551095 0.199893
0.915236 0.495338 0.226749
0.913863 0.483665 0.22594
0.913176 0.504417 0.222461
0.0501259 0.723674 0.449653
0.0496681 0.72578 0.44651
0.0463264 0.72636 0.433463
0.0349737 0.720439 0.368963
0.261418 0.703456 0.128283
0.836698 0.757671 0.212299
0.954955 0.782269 0.294804
0.954574 0.778485 0.292439
0.95494 0.785657 0.296651
0.140154 0.81442 0.610849
0.138903 0.813916 0.607797
0.135714 0.812375 0.599908
0.12488 0.806836 0.572351
0.109941 0.8 0.528099
0.608087 0.820005 0.412497
0.953063 0.901411 0.567254
0.962158 0.902342 0.565454
0.961944 0.904097 0.571969
0.144137 0.816541 0.620645
0.142092 0.815396 0.615686
0.138659 0.813657 0.607095
0.127337 0.807919 0.578622
0.110338 0.799588 0.531228
0.565454 0.811994 0.400351
0.927077 0.895888 0.556878
0.961486 0.907225 0.589593
0.96112 0.907851 0.59089
0.146136 0.817578 0.62562
0.143267 0.816114 0.618708
0.139025 0.813901 0.608072
0.125078 0.806775 0.572763
0.107301 0.798657 0.519066
0.623911 0.823529 0.420783
0.933867 0.89839 0.563333
0.961318 0.907515 0.590173
0.960998 0.908049 0.591287
0.0061799 0.0101167 0.027985
0.0279088 0.0110018 0.0311131
0.139269 0.0242924 0.0619516
0.341283 0.0321508 0.10338
0.558877 0.0418708 0.155322
0.702861 0.0627146 0.240482
0.704753 0.06421 0.246555
0.705745 0.0649882 0.249393
0.707118 0.0657511 0.252491
0.0141146 0.028336 0.0335088
0.010132 0.0163424 0.0229038
0.110826 0.0160372 0.0289921
0.310079 0.0216068 0.0594034
0.531518 0.0293126 0.109331
0.697536 0.0590524 0.223453
0.699382 0.0602121 0.229435
0.700175 0.0606699 0.231968
0.701564 0.0614176 0.23476
0.0325933 0.128985 0.0948959
0.0255589 0.123293 0.0692912
0.115038 0.115969 0.0313573
0.33904 0.0789654 0.0551308
0.520088 0.0190738 0.0919814
0.684398 0.0539254 0.196002
0.687556 0.0548409 0.201114
0.689525 0.0555123 0.204211
0.6907 0.0560159 0.206317
0 0.285679 0.130205
0 0.282368 0.0991379
0.0148165 0.271855 0.0216831
0.336538 0.28661 0
0.655695 0.256291 0.114946
0.68365 0.0499733 0.154116
0.675364 0.0514534 0.18407
0.682063 0.0532235 0.192523
0.681819 0.0526894 0.191012
0 0.481468 0.231083
0 0.481666 0.210224
0 0.477577 0.160906
0.0603799 0.465415 0.0358892
0.601083 0.514702 0.0113222
0.892134 0.54818 0.201923
0.915022 0.495079 0.226139
0.913497 0.484764 0.225269
0.912902 0.505547 0.222019
0.0541085 0.724605 0.46215
0.0534524 0.726894 0.459052
0.0504921 0.727871 0.447776
0.035462 0.721996 0.389059
0.241947 0.704265 0.134493
0.837736 0.75819 0.21323
0.95494 0.781933 0.294652
0.954452 0.777661 0.29189
0.954833 0.785351 0.296254
0.142702 0.815702 0.617212
0.141421 0.815167 0.613962
0.138369 0.813657 0.6065
0.127703 0.80827 0.579721
0.110689 0.800168 0.530739
0.60293 0.819196 0.411734
0.952712 0.90135 0.566552
0.962341 0.902159 0.564034
0.962448 0.902815 0.566461
0.146761 0.817838 0.627131
0.14464 0.816678 0.621805
0.141192 0.814923 0.613336
0.130129 0.809369 0.585794
0.110582 0.799725 0.531945
0.558968 0.810758 0.397971
0.924926 0.895262 0.555154
0.961486 0.907225 0.589593
0.96112 0.907851 0.59089
0.148577 0.81886 0.631464
0.145678 0.817273 0.624414
0.141527 0.815152 0.614237
0.127947 0.80824 0.58024
0.108492 0.799146 0.523247
0.615106 0.82179 0.417365
0.930587 0.897475 0.561105
0.961318 0.907515 0.590173
0.960998 0.908049 0.591287
0.000732433 0.0210269 0.094667
0.0487373 0.0163882 0.10309
0.140917 0.0307164 0.106645
0.345525 0.0452583 0.139971
0.570871 0.0487984 0.19675
0.710506 0.0693065 0.263035
0.71342 0.0717327 0.269154
0.715053 0.0730449 0.27216
0.716747 0.0740673 0.275761
0.00975052 0.0383764 0.0696117
0.0037995 0.026978 0.0824903
0.112932 0.0263676 0.0906996
0.329259 0.035874 0.115404
0.560739 0.0421912 0.172473
0.704768 0.0642252 0.24654
0.706661 0.0657969 0.251942
0.707546 0.0664988 0.254475
0.708888 0.0673075 0.257633
0.0348363 0.125612 0.122957
0.033753 0.119005 0.116991
0.0978103 0.114214 0.114763
0.333242 0.0835126 0.104723
0.541329 0.0496681 0.141146
0.699031 0.060029 0.228779
0.699519 0.0603342 0.230472
0.700008 0.0606546 0.232013
0.701259 0.0613413 0.234562
0.00663767 0.28452 0.17882
0 0.282307 0.158846
0 0.275319 0.102358
0.335714 0.288945 0.0437324
0.658381 0.247684 0.13727
0.683268 0.0482948 0.16289
0.691188 0.0560922 0.207233
0.694972 0.0575875 0.215656
0.691417 0.0556649 0.210422
0 0.481315 0.2654
0 0.482094 0.248829
0 0.479728 0.208652
0.037995 0.466896 0.0649271
0.601419 0.513695 0.0111849
0.892989 0.546517 0.20264
0.914809 0.493996 0.225727
0.913054 0.48333 0.224872
0.912657 0.50515 0.22182
0.0578317 0.72517 0.474876
0.0580606 0.728084 0.473426
0.0552377 0.729305 0.463218
0.039353 0.723308 0.409155
0.21738 0.705058 0.148623
0.838315 0.758312 0.213535
0.95491 0.780957 0.294057
0.954223 0.776623 0.291127
0.954589 0.784283 0.295338
0.145724 0.817227 0.624491
0.144427 0.816678 0.621393
0.141405 0.815183 0.613977
0.131197 0.810056 0.588708
0.111086 0.800046 0.533974
0.595132 0.817792 0.409918
0.952316 0.900938 0.564233
0.962875 0.900832 0.558221
0.962753 0.900984 0.559625
0.149798 0.819425 0.634287
0.147951 0.818433 0.629816
0.14435 0.816495 0.621057
0.133684 0.811185 0.594781
0.111147 0.799954 0.533806
0.548501 0.808865 0.394736
0.921782 0.894331 0.55288
0.961486 0.907225 0.589593
0.96112 0.907851 0.59089
0.151965 0.820661 0.639567
0.149401 0.819272 0.633463
0.145144 0.816922 0.623056
0.132143 0.810376 0.590951
0.110338 0.799908 0.529992
0.600305 0.818753 0.412238
0.926925 0.896269 0.557733
0.961318 0.907515 0.590173
0.960983 0.90808 0.591363
0 0.0453956 0.210422
0.0303807 0.0384985 0.234165
0.189212 0.0308995 0.229221
0.343923 0.0535134 0.242206
0.577493 0.0794995 0.28307
0.751354 0.103395 0.328405
0.754162 0.106294 0.333013
0.755505 0.107637 0.335225
0.758404 0.110292 0.340566
0 0.0590372 0.189639
0 0.0444953 0.205173
0.120546 0.0298924 0.246616
0.329534 0.0519722 0.228916
0.574105 0.0739147 0.258518
0.740734 0.0935225 0.312139
0.743679 0.0963149 0.316823
0.745007 0.0975052 0.318975
0.748196 0.100114 0.324712
0.00962844 0.136858 0.203693
0.00550851 0.126452 0.210803
0.0485237 0.106767 0.2374
0.31899 0.0719615 0.226169
0.564904 0.0648966 0.234531
0.726329 0.0816663 0.289998
0.729229 0.0839857 0.294408
0.730892 0.0852674 0.296773
0.734081 0.0877089 0.302281
0.024567 0.285573 0.262638
0.024506 0.283452 0.259815
0.0254673 0.277272 0.250599
0.315557 0.30222 0.279774
0.647044 0.258198 0.257603
0.736004 0.0811933 0.272099
0.716762 0.074052 0.273808
0.71751 0.0746624 0.275364
0.720363 0.0763714 0.279149
0.00239567 0.486549 0.340047
0 0.487327 0.332586
0 0.484474 0.311009
0 0.469673 0.201801
0.595209 0.522362 0.145769
0.929931 0.53312 0.288197
0.936004 0.489433 0.278676
0.932555 0.478965 0.275212
0.939635 0.497307 0.288075
0.0676432 0.725704 0.503746
0.0678111 0.728878 0.503624
0.0658274 0.730663 0.496269
0.0509194 0.724865 0.453086
0.177188 0.704295 0.185595
0.836988 0.756222 0.216175
0.95552 0.778042 0.29453
0.954513 0.773602 0.290806
0.95697 0.781933 0.299016
0.152804 0.820905 0.641215
0.151995 0.820661 0.639582
0.149325 0.819181 0.633204
0.140093 0.814511 0.610834
0.111162 0.800061 0.534173
0.57702 0.81445 0.40415
0.949828 0.898314 0.552163
0.963561 0.895933 0.539544
0.963409 0.896666 0.543191
0.157443 0.823514 0.651911
0.155978 0.822797 0.6486
0.152636 0.820798 0.640848
0.142702 0.815671 0.617166
0.111666 0.800107 0.53579
0.524422 0.804562 0.386236
0.91368 0.892119 0.547387
0.961486 0.907225 0.589593
0.96112 0.907851 0.59089
0.161273 0.825574 0.660609
0.158938 0.824323 0.65539
0.155154 0.822263 0.646754
0.143023 0.815824 0.61796
0.111864 0.800214 0.536294
0.574075 0.813687 0.403159
0.917617 0.893431 0.550896
0.961318 0.907515 0.590173
0.960998 0.908049 0.591287
0 0.095079 0.387457
0 0.0908064 0.399512
0.103868 0.0652934 0.463081
0.397986 0.0538338 0.433021
0.585962 0.0863508 0.44564
0.771466 0.12256 0.478309
0.771054 0.121599 0.481117
0.771054 0.121477 0.482155
0.771008 0.12079 0.489296
0 0.101549 0.380926
0 0.0943008 0.385275
0.0346685 0.081178 0.430076
0.379614 0.0486458 0.438056
0.580148 0.0849012 0.439353
0.772534 0.124758 0.470329
0.772198 0.124025 0.472847
0.772045 0.123766 0.474022
0.772198 0.123262 0.482124
0 0.134646 0.37113
0 0.120119 0.375967
0 0.0952468 0.387243
0.341741 0.042298 0.448096
0.571374 0.0825666 0.429664
0.772931 0.126314 0.458
0.772747 0.126009 0.460166
0.772717 0.125841 0.461631
0.773037 0.125597 0.470695
0 0.303044 0.405341
0 0.297887 0.411551
0 0.28455 0.418616
0.229755 0.275715 0.514488
0.601389 0.204929 0.471229
0.772641 0.128847 0.438422
0.773434 0.12813 0.440528
0.773373 0.128023 0.442573
0.773632 0.127611 0.453986
0.0378882 0.509529 0.472847
0.0373999 0.511467 0.474632
0.036759 0.510689 0.472206
0.0321508 0.500282 0.455207
0.579065 0.556512 0.515236
0.955566 0.536004 0.507713
0.969848 0.486503 0.488075
0.969619 0.465446 0.500053
0.974792 0.485405 0.51458
0.0958267 0.732845 0.578683
0.0973831 0.737026 0.581979
0.0970016 0.739116 0.579797
0.0873732 0.733562 0.555962
0.114031 0.716274 0.432959
0.840574 0.771801 0.460121
0.976944 0.801099 0.524254
0.977035 0.79649 0.523033
0.976989 0.806134 0.535119
0.173495 0.832013 0.687282
0.173617 0.832197 0.687602
0.171862 0.83125 0.683803
0.164309 0.827146 0.667277
0.139666 0.814435 0.609354
0.556603 0.836118 0.520623
0.952636 0.910918 0.628763
0.973068 0.910185 0.627649
0.97348 0.913314 0.640543
0.179461 0.835355 0.700038
0.178836 0.835065 0.698726
0.17673 0.833906 0.694286
0.167941 0.828992 0.675181
0.142061 0.815366 0.615595
0.485466 0.821668 0.498344
0.91809 0.914733 0.653361
0.971664 0.931716 0.698177
0.971801 0.933623 0.70489
0.186862 0.839292 0.715724
0.185214 0.838453 0.712276
0.182345 0.836912 0.70631
0.171862 0.831128 0.683696
0.144808 0.816724 0.622217
0.542535 0.837308 0.535378
0.921965 0.919554 0.672328
0.972595 0.934554 0.709728
0.97203 0.934478 0.708095
0 0.200488 0.574945
0 0.200519 0.575036
0 0.194278 0.590463
0.265003 0.154986 0.716182
0.648859 0.144656 0.670192
0.775021 0.129488 0.637751
0.781018 0.137652 0.64979
0.783185 0.14052 0.653162
0.788128 0.148074 0.665934
0 0.199512 0.573297
0 0.199817 0.573907
0 0.198856 0.574853
0.225162 0.161456 0.70753
0.641306 0.141955 0.671717
0.772702 0.126406 0.632792
0.776822 0.13196 0.641611
0.778119 0.133745 0.644358
0.784527 0.143099 0.658808
0 0.202335 0.5635
0 0.199451 0.570077
0 0.198337 0.571679
0.163943 0.172702 0.686122
0.629694 0.138155 0.674372
0.769528 0.121798 0.624506
0.772107 0.125307 0.630243
0.773693 0.12755 0.633982
0.780911 0.137575 0.650019
0 0.296651 0.574838
0 0.290089 0.580667
0 0.276005 0.586542
0.0459297 0.263798 0.632303
0.595544 0.144381 0.686793
0.764858 0.117968 0.612253
0.76376 0.113436 0.607446
0.765515 0.115648 0.611017
0.77174 0.124544 0.6271
0.0253605 0.540398 0.623102
0.0263218 0.542077 0.628168
0.0268711 0.541009 0.632929
0.0261387 0.527794 0.643549
0.525368 0.5691 0.812787
0.900572 0.483513 0.751324
0.91632 0.41619 0.738872
0.911589 0.403693 0.735836
0.917815 0.42678 0.751736
0.145068 0.751934 0.707973
0.148348 0.756695 0.713527
0.150118 0.759396 0.71603
0.147463 0.756741 0.711192
0.192782 0.755993 0.701717
0.824872 0.804578 0.76289
0.981384 0.800961 0.76231
0.9832 0.79353 0.763088
0.982055 0.803098 0.77409
0.216129 0.854704 0.773281
0.21738 0.855467 0.775677
0.2168 0.855192 0.774609
0.212024 0.852644 0.765713
0.195117 0.843732 0.732601
0.608255 0.875471 0.724514
0.96318 0.94258 0.815656
0.986297 0.947112 0.833417
0.986633 0.949462 0.842603
0.224155 0.858854 0.788144
0.22472 0.859266 0.789227
0.223362 0.858595 0.786725
0.217136 0.855344 0.775235
0.197024 0.844678 0.736355
0.489174 0.858778 0.706081
0.937179 0.963714 0.866926
0.989563 0.976654 0.902296
0.989441 0.977844 0.906447
0.234806 0.864515 0.807401
0.23389 0.864073 0.805768
0.231724 0.862943 0.801938
0.22359 0.858701 0.787152
0.201266 0.846906 0.744762
0.555383 0.875593 0.741131
0.937667 0.966262 0.87866
0.989776 0.977981 0.908675
0.989334 0.978149 0.907347
0.017258 0.380179 0.714336
0.0173037 0.380316 0.714458
0.0171054 0.377417 0.714794
0.0818952 0.400854 0.771038
0.540597 0.410758 0.986633
0.90251 0.380377 0.900587
0.908125 0.406561 0.919982
0.909773 0.416083 0.92636
0.910094 0.420035 0.930495
0.0169223 0.379248 0.713848
0.0171664 0.379904 0.71426
0.0173495 0.379873 0.714656
0.039826 0.391684 0.737697
0.525933 0.413352 0.985901
0.902022 0.379431 0.899702
0.906905 0.399222 0.914733
0.90808 0.406439 0.920058
0.908278 0.411139 0.924468
0.0142519 0.371618 0.709941
0.0166323 0.3785 0.713497
0.0165255 0.378286 0.71339
0.0211643 0.385046 0.720211
0.505684 0.41471 0.983017
0.898787 0.374777 0.896635
0.905715 0.39234 0.90869
0.906935 0.398032 0.913161
0.907698 0.405905 0.92018
0.00331121 0.356008 0.68893
0.00531014 0.358999 0.693385
0.00921645 0.364782 0.700633
0.0126497 0.366186 0.708003
0.445945 0.408515 0.963134
0.889281 0.358984 0.887587
0.899001 0.364935 0.887526
0.900511 0.370871 0.892027
0.903243 0.384207 0.903655
0.0567941 0.550515 0.728237
0.0588846 0.552056 0.732326
0.0603494 0.550851 0.736416
0.063508 0.54432 0.747356
0.388128 0.622187 0.931365
0.907301 0.501411 0.929
0.937255 0.478386 0.903975
0.935103 0.470878 0.902113
0.939116 0.490242 0.912657
0.154009 0.752621 0.785672
0.158236 0.757137 0.790677
0.16051 0.759518 0.793576
0.160174 0.756466 0.796246
0.169421 0.750362 0.811612
0.78938 0.814023 0.950347
0.95906 0.772778 0.910842
0.958953 0.765682 0.910155
0.959106 0.776623 0.915114
0.25597 0.873762 0.849958
0.258 0.875471 0.852903
0.258793 0.876371 0.853452
0.257969 0.876402 0.85066
0.243702 0.863844 0.833204
0.658763 0.913191 0.887633
0.95491 0.948913 0.935592
0.976928 0.948989 0.934829
0.976974 0.949981 0.938262
0.26537 0.880385 0.865553
0.266285 0.880949 0.866697
0.265476 0.880644 0.865522
0.262577 0.879118 0.859403
0.252598 0.873899 0.839139
0.385107 0.908095 0.851575
0.944427 0.97966 0.956847
0.990616 0.987778 0.975097
0.991119 0.987869 0.975692
0.267872 0.88188 0.874739
0.268254 0.882094 0.874586
0.268086 0.881971 0.872999
0.265751 0.880735 0.866056
0.254871 0.875105 0.843565
0.457893 0.910857 0.860029
0.944869 0.980163 0.959609
0.98883 0.988678 0.976867
0.991547 0.990082 0.979751
0.024567 0.402136 0.723964
0.0246433 0.402274 0.724132
0.0261234 0.403357 0.726665
0.0515602 0.430564 0.753628
0.523384 0.47808 1
0.910292 0.420951 0.931014
0.910369 0.420798 0.930709
0.910506 0.420478 0.930037
0.910384 0.420768 0.930663
0.0245518 0.402121 0.723949
0.0246433 0.402274 0.724147
0.0247654 0.40238 0.724376
0.0340734 0.421973 0.737224
0.508064 0.477134 1
0.909377 0.420401 0.931212
0.910369 0.420798 0.930709
0.910353 0.420829 0.930755
0.910307 0.42092 0.930968
0.0245518 0.402213 0.723857
0.0246433 0.402274 0.724147
0.0246433 0.402274 0.724147
0.0310063 0.416281 0.732876
0.485832 0.476493 1
0.905699 0.418799 0.932158
0.910536 0.420417 0.929915
0.910506 0.420493 0.930053
0.910262 0.421027 0.931182
0.0352789 0.438209 0.734844
0.033402 0.432364 0.733196
0.0298466 0.420447 0.729625
0.0261692 0.403571 0.726696
0.415122 0.479698 0.969772
0.893156 0.415351 0.936202
0.910628 0.420233 0.929534
0.910628 0.420249 0.929564
0.910307 0.42092 0.930968
0.084062 0.577417 0.771023
0.0869306 0.581567 0.774472
0.0892805 0.584329 0.77763
0.0849622 0.572839 0.775372
0.294942 0.640024 0.91603
0.852476 0.548196 0.998001
0.941329 0.520165 0.957137
0.940017 0.514168 0.955734
0.941726 0.526101 0.959197
0.173556 0.757565 0.824353
0.176806 0.761685 0.827665
0.179019 0.76405 0.830304
0.178836 0.760845 0.832853
0.17261 0.74551 0.833127
0.73579 0.840482 1
0.966018 0.777722 0.970367
0.966415 0.770687 0.968963
0.965957 0.780468 0.970489
0.262638 0.876921 0.877684
0.264927 0.879179 0.880049
0.266773 0.881071 0.881636
0.265675 0.879973 0.880003
0.249668 0.863508 0.870085
0.620356 0.937011 0.959045
0.94049 0.944274 0.970306
0.975158 0.94345 0.965896
0.975219 0.945312 0.968078
0.268315 0.882734 0.882887
0.26891 0.883284 0.883833
0.268925 0.883299 0.883894
0.26894 0.883299 0.883894
0.268452 0.882582 0.879225
0.310536 0.909697 0.897429
0.936904 0.97818 0.974014
0.987884 0.985214 0.984451
0.990387 0.985138 0.984405
0.268391 0.882811 0.883009
0.26891 0.883268 0.883833
0.268925 0.883299 0.883894
0.268925 0.883299 0.883894
0.268513 0.882658 0.879728
0.314244 0.911406 0.89929
0.931975 0.979324 0.974151
0.988495 0.990616 0.989349
0.99379 0.990707 0.990753
0.0245823 0.402182 0.724025
0.0246433 0.402274 0.724147
0.0260624 0.403311 0.726558
0.0499733 0.430213 0.752361
0.526543 0.477882 1
0.910307 0.420951 0.931014
0.910369 0.420798 0.930709
0.910399 0.420737 0.930571
0.910338 0.420874 0.930877
0.024567 0.402136 0.723964
0.0246433 0.402274 0.724147
0.0247501 0.40235 0.724346
0.0340429 0.421927 0.737179
0.51162 0.477104 1
0.909575 0.420279 0.930846
0.910369 0.420798 0.930709
0.910338 0.420859 0.930816
0.910185 0.42121 0.931579
0.024506 0.402029 0.723827
0.0246433 0.402274 0.724147
0.0246433 0.402274 0.724147
0.0310216 0.416403 0.73286
0.489525 0.47715 1
0.905867 0.418875 0.932113
0.910536 0.420417 0.929931
0.910506 0.420493 0.930068
0.910246 0.421073 0.931289
0.0345159 0.435889 0.734081
0.0327306 0.429862 0.732525
0.0290684 0.417594 0.728847
0.0262913 0.403769 0.726879
0.418128 0.479957 0.971191
0.893858 0.415824 0.936095
0.910613 0.420279 0.929625
0.910613 0.420279 0.929625
0.910307 0.42092 0.930968
0.0927138 0.590845 0.780545
0.0928664 0.59089 0.78088
0.0916304 0.588403 0.779965
0.0851453 0.573556 0.775433
0.299519 0.642054 0.918502
0.856016 0.54844 0.997208
0.941436 0.52192 0.957717
0.940154 0.516258 0.956481
0.942061 0.527855 0.959457
0.182147 0.764019 0.837095
0.184878 0.76788 0.839551
0.185992 0.769726 0.840299
0.183215 0.764996 0.838575
0.173251 0.746548 0.833616
0.73785 0.84123 1
0.965881 0.77937 0.970901
0.966217 0.772488 0.969543
0.966278 0.78204 0.970764
0.26421 0.878538 0.881102
0.266438 0.880781 0.882551
0.26833 0.882719 0.883604
0.265415 0.87985 0.881926
0.249042 0.863111 0.87364
0.604669 0.939376 0.970184
0.92958 0.942718 0.97496
0.975555 0.941604 0.974029
0.975814 0.942992 0.974685
0.26836 0.882795 0.882963
0.26891 0.883284 0.883833
0.268925 0.883299 0.883894
0.268925 0.883299 0.883894
0.268925 0.883299 0.883894
0.301869 0.904585 0.902419
0.918776 0.976257 0.978149
0.986236 0.985946 0.987381
0.98822 0.986893 0.988098
0.268498 0.882918 0.883146
0.26891 0.883268 0.883833
0.268925 0.883299 0.883894
0.268925 0.883299 0.883894
0.268925 0.883299 0.883894
0.310689 0.909407 0.907103
0.908812 0.978027 0.977325
0.989151 0.991012 0.991272
0.994003 0.993057 0.992401
