bundles/resolve-cinematic-luts/Phantom Luts/S5ii LUTs/WB Offset - Green & Warm Boost/S5ii Utopia V-Log WBO Legacy.cube
TITLE "Generated by Resolve"
LUT_3D_SIZE 33
0.0141146 0.0405585 0.0500801
0.0141146 0.040528 0.0500496
0.0140993 0.0404822 0.0500038
0.0251774 0.0413519 0.050309
0.0385748 0.0418097 0.0517433
0.0547189 0.042237 0.0505684
0.0695964 0.0426032 0.0499123
0.0855116 0.0422065 0.0485695
0.105196 0.0419318 0.0475929
0.130236 0.0403906 0.0457923
0.162463 0.0380255 0.0440375
0.201877 0.0347448 0.0416571
0.2495 0.0320439 0.0414435
0.30367 0.0307469 0.0432898
0.359442 0.029572 0.0480812
0.416114 0.0278172 0.0533761
0.470695 0.0263523 0.060853
0.507134 0.0228428 0.0611734
0.545693 0.0253452 0.0747997
0.621012 0.0390936 0.121523
0.660121 0.0457923 0.14551
0.666529 0.0466316 0.14995
0.66688 0.0468452 0.151278
0.667262 0.0470436 0.152346
0.667597 0.0472114 0.153521
0.667857 0.0473487 0.154452
0.668086 0.0474556 0.15523
0.668284 0.0475319 0.155886
0.668498 0.0475624 0.156435
0.668833 0.0475319 0.156893
0.66923 0.0474403 0.157275
0.669902 0.0472572 0.157626
0.670573 0.0470283 0.157916
0.0140993 0.0404822 0.0500038
0.0140993 0.0404974 0.0500343
0.0140993 0.0404822 0.0500038
0.0213169 0.0409247 0.0500038
0.0329747 0.0416876 0.0509804
0.0497902 0.0420996 0.0513161
0.0644541 0.0425116 0.0501564
0.0809949 0.0425727 0.0491493
0.101061 0.0419776 0.0477302
0.126085 0.0408026 0.0461891
0.158679 0.0385138 0.0444495
0.198734 0.0350347 0.0419165
0.24625 0.031754 0.0400092
0.298772 0.0287022 0.0387274
0.353384 0.0263523 0.0398108
0.409018 0.0240024 0.0428016
0.464637 0.0219425 0.0501411
0.512596 0.0224002 0.0636149
0.540078 0.0215763 0.0677043
0.612268 0.0364385 0.111696
0.656779 0.0450141 0.140154
0.665568 0.0461433 0.145922
0.66601 0.0463264 0.147478
0.6663 0.0464942 0.148806
0.666545 0.0466316 0.14995
0.666743 0.0467689 0.150851
0.666941 0.0468757 0.151461
0.66717 0.046952 0.151949
0.667399 0.0469978 0.152361
0.66775 0.0469673 0.152819
0.668147 0.0468757 0.153185
0.668818 0.0466773 0.153552
0.669505 0.0464637 0.153872
0.0140993 0.0404822 0.0500038
0.0140993 0.0404974 0.0500343
0.0140993 0.0404822 0.0500038
0.0142519 0.0403601 0.0498817
0.0267338 0.0428168 0.0501869
0.0406043 0.0437171 0.0517891
0.0567483 0.0440681 0.050782
0.0747692 0.0440986 0.0498207
0.0959029 0.0427863 0.0481575
0.122057 0.0411078 0.0463569
0.154955 0.0387579 0.0445716
0.195254 0.0353094 0.0421607
0.243107 0.0318914 0.0400397
0.296452 0.0287175 0.0385595
0.351827 0.0262455 0.0395209
0.407675 0.0240177 0.0425422
0.462333 0.0208896 0.0472419
0.50956 0.0200961 0.0587015
0.541909 0.0210575 0.0669566
0.596979 0.035584 0.101778
0.646983 0.0440375 0.130999
0.661875 0.0453193 0.140124
0.66389 0.0457008 0.142901
0.664988 0.0459602 0.144472
0.665553 0.046128 0.14583
0.665858 0.0462501 0.146838
0.666056 0.0463417 0.147616
0.666209 0.0464027 0.148272
0.666377 0.0464485 0.14876
0.666651 0.0464179 0.149187
0.667063 0.0463264 0.149523
0.66775 0.046128 0.149859
0.668452 0.0459144 0.150134
0.0140993 0.0404822 0.0500038
0.0141146 0.040528 0.0500496
0.0141146 0.040528 0.0500496
0.0140993 0.0404822 0.0500038
0.0225681 0.0429694 0.0505379
0.0323339 0.0457771 0.0510872
0.0468757 0.0466621 0.0520638
0.0654459 0.0472419 0.0508278
0.0872969 0.0463569 0.0493935
0.114443 0.0439307 0.0475013
0.149538 0.0403906 0.045304
0.191653 0.0357214 0.0424048
0.240101 0.0320134 0.0400702
0.294163 0.0288396 0.0386206
0.349905 0.0263523 0.0395514
0.40647 0.0240635 0.0424201
0.461372 0.0208591 0.047013
0.508751 0.0198978 0.0583352
0.542153 0.0211948 0.0672923
0.586557 0.0300908 0.0906539
0.635248 0.0406043 0.119753
0.651026 0.0442206 0.129824
0.655406 0.0444343 0.133547
0.659403 0.0448768 0.136873
0.66157 0.0452583 0.139666
0.663035 0.0455177 0.141634
0.663966 0.0457008 0.142962
0.664576 0.0458228 0.143755
0.665034 0.0458839 0.144305
0.665522 0.0458686 0.144793
0.66598 0.0457923 0.145251
0.666621 0.0456397 0.145693
0.667369 0.0454108 0.146029
0.0155489 0.0525368 0.0557259
0.0152132 0.0514229 0.0537575
0.0162814 0.0500038 0.0533608
0.0191501 0.0479896 0.0525216
0.0221714 0.0467384 0.0521553
0.0295872 0.0489815 0.0532692
0.0386816 0.0495766 0.0528573
0.0560464 0.0492714 0.0522469
0.0784772 0.0489815 0.0505226
0.105745 0.0471656 0.0487221
0.141451 0.0439002 0.0466621
0.185336 0.0388647 0.043595
0.2365 0.0326696 0.040177
0.291676 0.02916 0.038819
0.34789 0.0264744 0.0395514
0.40502 0.0241245 0.0423438
0.460395 0.0209354 0.0469673
0.508095 0.0197452 0.0580301
0.542306 0.0213474 0.0676127
0.584039 0.0289006 0.0884413
0.634455 0.0403449 0.119097
0.648493 0.0440375 0.127932
0.64889 0.0440681 0.128252
0.649104 0.0440986 0.128481
0.649744 0.0442206 0.129213
0.652369 0.0441749 0.130861
0.65536 0.0444648 0.133455
0.657389 0.0446326 0.135027
0.658778 0.0447089 0.136294
0.659876 0.0448005 0.137209
0.660883 0.0447852 0.138018
0.661967 0.0446479 0.138659
0.662959 0.0444953 0.139147
0.0146944 0.0635386 0.0595254
0.0141146 0.0623789 0.0558328
0.0146334 0.0610361 0.0558022
0.0204318 0.0587167 0.0550088
0.0252689 0.0563058 0.0545663
0.0313878 0.0568856 0.0546578
0.0413214 0.0573434 0.0563211
0.0581216 0.0572824 0.0569772
0.078996 0.0560616 0.0552529
0.103609 0.0536812 0.0518349
0.134951 0.0482795 0.0482032
0.178561 0.0427405 0.0450141
0.231327 0.0362097 0.0413214
0.28893 0.029984 0.0387579
0.346136 0.0266117 0.0395056
0.403525 0.0242313 0.0423285
0.45951 0.0209964 0.0469062
0.507378 0.0195926 0.0577401
0.542428 0.0215 0.0679026
0.582101 0.0281987 0.0870832
0.63444 0.0402228 0.118959
0.648219 0.0439918 0.127733
0.648203 0.044007 0.127718
0.648203 0.044007 0.127718
0.648356 0.0440223 0.12784
0.648737 0.0440528 0.128115
0.648981 0.0440833 0.128313
0.649119 0.0440833 0.12845
0.649271 0.0440681 0.128573
0.649531 0.044007 0.128679
0.649821 0.0439155 0.128771
0.650324 0.0437476 0.128893
0.650858 0.0435645 0.128985
0.0124361 0.0780041 0.0591135
0.01178 0.0764324 0.054902
0.0121157 0.0744488 0.0551766
0.0176089 0.0715648 0.0548104
0.0244144 0.068101 0.0549477
0.03093 0.0667887 0.0541238
0.0412299 0.0674449 0.053315
0.0592966 0.067628 0.055375
0.0806134 0.0670176 0.058381
0.110063 0.0632944 0.05832
0.142519 0.0591897 0.0537575
0.181094 0.0514992 0.0485695
0.226795 0.0407416 0.0428931
0.285695 0.0324254 0.038468
0.344594 0.0270848 0.0393072
0.402106 0.0243229 0.0422675
0.458534 0.0211185 0.046891
0.506584 0.0194858 0.0575265
0.54258 0.0216831 0.0682689
0.58024 0.0275883 0.0856489
0.634623 0.0401617 0.118975
0.648356 0.043946 0.127749
0.648341 0.043946 0.127749
0.648341 0.043946 0.127749
0.648341 0.043946 0.127733
0.648341 0.043946 0.127733
0.648325 0.043946 0.127733
0.648341 0.043946 0.127749
0.648371 0.0439307 0.127764
0.648493 0.0438849 0.127764
0.648646 0.0438392 0.127794
0.648936 0.0437171 0.127855
0.649241 0.0436103 0.127916
0.0096437 0.0959182 0.0564279
0.00894179 0.094377 0.0517739
0.00929274 0.0928664 0.0521401
0.0118715 0.0907912 0.052491
0.0223239 0.0871748 0.051606
0.0303044 0.0829328 0.0511177
0.0408942 0.0836805 0.0493935
0.0585489 0.0845045 0.0480659
0.0833295 0.0831159 0.0564736
0.110842 0.0814984 0.060441
0.149966 0.0752575 0.0603799
0.197452 0.0665446 0.0568399
0.240177 0.0564431 0.0493477
0.289082 0.0418708 0.0418708
0.343267 0.0301213 0.038468
0.400366 0.0246586 0.0418708
0.457313 0.0212406 0.0467842
0.50544 0.0193179 0.0570993
0.542672 0.0218814 0.0687419
0.577752 0.0267643 0.0837415
0.63476 0.0400549 0.118914
0.648463 0.0439002 0.127764
0.648463 0.0439002 0.127764
0.648463 0.0439002 0.127764
0.648463 0.0439002 0.127764
0.648447 0.0439002 0.127764
0.648447 0.0439002 0.127764
0.648447 0.0439002 0.127764
0.648463 0.0439002 0.127764
0.648539 0.0438697 0.127794
0.648661 0.0438239 0.12781
0.648936 0.0437171 0.127855
0.649241 0.0436103 0.127916
0.00691234 0.11751 0.0534981
0.00633249 0.116091 0.0476997
0.0071107 0.114504 0.0453193
0.0077821 0.113176 0.046128
0.0174411 0.110628 0.0459449
0.0272984 0.10692 0.0455177
0.0410925 0.103456 0.0451514
0.0585184 0.103746 0.0443885
0.0821241 0.103944 0.0462959
0.112139 0.103365 0.055024
0.152468 0.099855 0.0618601
0.201633 0.0911116 0.0622263
0.263401 0.0769818 0.0588388
0.309987 0.0645151 0.0507362
0.356146 0.0467994 0.0433814
0.400427 0.0288853 0.0403601
0.455558 0.0218204 0.0460365
0.503777 0.019089 0.0563211
0.542596 0.0221408 0.069276
0.574685 0.0261997 0.0820325
0.634684 0.0400092 0.118837
0.648478 0.0439002 0.127764
0.648478 0.0439002 0.127764
0.648478 0.0439002 0.127764
0.648478 0.0439002 0.127764
0.648478 0.0439002 0.127764
0.648478 0.0439002 0.127764
0.648478 0.0439002 0.127764
0.648478 0.0439002 0.127764
0.648539 0.0438697 0.127779
0.648661 0.0438239 0.12781
0.648936 0.0437171 0.127855
0.649241 0.0436103 0.127916
0.00488289 0.144778 0.0512856
0.00422675 0.143435 0.0441749
0.00646983 0.142061 0.0368658
0.00650034 0.140444 0.0371557
0.00726329 0.138689 0.0376135
0.0211948 0.135805 0.0376745
0.033341 0.131838 0.0377508
0.0585489 0.12784 0.0400092
0.0816205 0.128038 0.0408637
0.110735 0.128435 0.045182
0.150103 0.12813 0.0526589
0.205295 0.121508 0.0630198
0.266285 0.109865 0.0649577
0.334844 0.092134 0.0621195
0.384665 0.0762951 0.055436
0.426154 0.0561074 0.0483864
0.465721 0.0308385 0.04271
0.505638 0.0212253 0.0529488
0.542901 0.0226291 0.0693065
0.570291 0.0252537 0.0794995
0.634562 0.0399786 0.118761
0.648478 0.0439002 0.127764
0.648478 0.0439002 0.127764
0.648478 0.0439002 0.127764
0.648478 0.0439002 0.127764
0.648478 0.0439002 0.127764
0.648478 0.0439002 0.127764
0.648478 0.0439002 0.127764
0.648478 0.0439002 0.127764
0.648539 0.0438697 0.127779
0.648661 0.0438239 0.12781
0.648936 0.0437171 0.127855
0.649241 0.0436103 0.127916
0.0018616 0.180194 0.0491493
0.00309758 0.178515 0.0406195
0.00508125 0.176959 0.0327306
0.00769055 0.175448 0.027863
0.00766003 0.173907 0.0279545
0.00862135 0.172213 0.0283207
0.0248722 0.169543 0.0278782
0.0425879 0.164401 0.0283665
0.0800488 0.159609 0.034638
0.110277 0.159792 0.0387884
0.148074 0.160418 0.0432441
0.199603 0.160296 0.0507515
0.270329 0.151095 0.0659037
0.3393 0.135943 0.0697642
0.408377 0.115816 0.069276
0.462379 0.0950484 0.0642557
0.499733 0.0720531 0.0569009
0.527962 0.038468 0.047364
0.553414 0.0226291 0.0612802
0.564965 0.0217441 0.0709087
0.632975 0.0394598 0.11693
0.648066 0.0438544 0.12752
0.648432 0.0438849 0.127733
0.648478 0.0439002 0.127764
0.648478 0.0439002 0.127764
0.648478 0.0439002 0.127764
0.648478 0.0439002 0.127764
0.648478 0.0439002 0.127764
0.648478 0.0439002 0.127764
0.648539 0.0438697 0.127779
0.648661 0.0438239 0.12781
0.648936 0.0437171 0.127855
0.649241 0.0436103 0.127916
0 0.224308 0.0488594
0 0.222538 0.0391546
0.00259403 0.220768 0.0311894
0.00740063 0.219226 0.021622
0.0100862 0.217762 0.0177005
0.0102235 0.216358 0.0178836
0.0110628 0.214847 0.0179446
0.0280003 0.212238 0.016144
0.0559091 0.206577 0.0174868
0.106722 0.201129 0.028687
0.146731 0.200351 0.03682
0.196948 0.202182 0.0411231
0.261875 0.202441 0.0477302
0.341527 0.192187 0.0686046
0.415259 0.174853 0.0776684
0.483299 0.153323 0.0815137
0.542519 0.125505 0.079118
0.571771 0.101503 0.0711376
0.596216 0.057145 0.0593576
0.621332 0.0254215 0.0662852
0.616251 0.0255894 0.0843061
0.633524 0.0391241 0.11281
0.644587 0.0427253 0.123568
0.64625 0.0429236 0.125566
0.647318 0.0434272 0.126848
0.647593 0.0436561 0.127169
0.647837 0.0438392 0.127413
0.648051 0.0438544 0.12752
0.648188 0.0438697 0.127581
0.648371 0.0438544 0.127657
0.6486 0.0438239 0.127749
0.648936 0.0437171 0.127855
0.649241 0.0436103 0.127916
0 0.277897 0.0506294
0 0.27628 0.0421454
0.00122072 0.274586 0.0336767
0.00482185 0.273381 0.0249638
0.0120089 0.271672 0.0136416
0.0156558 0.270069 0.00810254
0.0157015 0.268635 0.00787366
0.016495 0.266758 0.00773632
0.0341039 0.263218 0.00300603
0.0771954 0.257969 0.00569162
0.140719 0.251957 0.0231479
0.194705 0.251438 0.0350958
0.257694 0.25391 0.0382696
0.333272 0.254383 0.0441749
0.413779 0.247486 0.0704509
0.491783 0.227756 0.0888685
0.561242 0.205249 0.0971542
0.620905 0.173022 0.102449
0.651392 0.144625 0.0959487
0.680446 0.0870375 0.0776837
0.693828 0.0316472 0.071809
0.680049 0.0200656 0.0754101
0.660594 0.0241093 0.0858625
0.62182 0.0234684 0.0805371
0.623011 0.0308385 0.0958877
0.630976 0.0364538 0.10753
0.63653 0.040116 0.114809
0.641062 0.0413977 0.118822
0.644144 0.0416876 0.120851
0.64625 0.0419776 0.122393
0.648035 0.0421607 0.123735
0.649256 0.0421607 0.124575
0.650034 0.0420539 0.124971
0 0.338659 0.0566262
0 0.337575 0.0486305
0.00263981 0.336461 0.0408942
0.00660716 0.335531 0.033341
0.0104219 0.334707 0.0256504
0.0174868 0.333227 0.014374
0.0253147 0.331258 0.00335698
0.0260166 0.329763 0.00225834
0.0266728 0.327672 0.00144961
0.0458991 0.322103 0
0.106706 0.318029 0
0.185962 0.311559 0.0208743
0.254017 0.311101 0.0351873
0.328649 0.315038 0.0370336
0.408118 0.315373 0.0412909
0.485359 0.313817 0.0703593
0.567864 0.296666 0.101411
0.637568 0.272755 0.116793
0.704479 0.236011 0.130739
0.74902 0.198138 0.124651
0.771282 0.137591 0.102495
0.757809 0.0903029 0.0855879
0.73785 0.0589151 0.0720989
0.721492 0.0407263 0.0671244
0.708675 0.0320897 0.0688487
0.6981 0.0262913 0.0709697
0.691051 0.0239261 0.0734875
0.684977 0.0228122 0.0750439
0.680751 0.0226749 0.0784772
0.678111 0.0242618 0.082414
0.676585 0.0263828 0.0862135
0.6757 0.0278019 0.0888685
0.674937 0.0285191 0.0901656
0 0.403891 0.0726787
0 0.403342 0.064744
0.00486763 0.402899 0.0572976
0.00996414 0.402182 0.0495918
0.0145724 0.401511 0.0422522
0.0186465 0.400977 0.0356603
0.0256046 0.399969 0.0255131
0.0364996 0.39794 0.0114748
0.040116 0.395727 0.00639353
0.041474 0.393393 0.00502022
0.0670024 0.385031 0
0.144533 0.381918 0
0.243198 0.374289 0.0265049
0.323476 0.374655 0.0393378
0.401968 0.378698 0.0389715
0.483879 0.379904 0.0429999
0.558907 0.38323 0.0715343
0.643992 0.370489 0.114183
0.713893 0.347799 0.139849
0.792721 0.309712 0.15819
0.841489 0.262959 0.155886
0.841535 0.232609 0.144427
0.829221 0.210727 0.135058
0.817136 0.190082 0.126574
0.806226 0.171145 0.118364
0.79675 0.154711 0.11107
0.788464 0.140703 0.105013
0.782544 0.128588 0.102525
0.777096 0.119432 0.0985122
0.772732 0.112276 0.0954299
0.769024 0.106325 0.0927596
0.767422 0.102281 0.0911269
0.766949 0.0995193 0.0896773
0 0.475364 0.104417
0.00170901 0.475212 0.096376
0.00828565 0.474922 0.0882734
0.0148928 0.474449 0.0801556
0.0215152 0.47393 0.0720989
0.0281834 0.473381 0.0640269
0.033875 0.473091 0.0568246
0.0413367 0.472435 0.0469062
0.0549325 0.470466 0.0300298
0.0610361 0.467887 0.0211643
0.0622568 0.464561 0.018143
0.0978256 0.453422 0
0.191516 0.45066 0
0.313359 0.440452 0.0395972
0.399023 0.441321 0.0488289
0.477546 0.444602 0.0440986
0.558511 0.445716 0.0518044
0.631754 0.45243 0.0806287
0.719844 0.443656 0.134401
0.791791 0.4262 0.1635
0.86743 0.386511 0.180636
0.895628 0.34931 0.184176
0.893584 0.329412 0.180438
0.888579 0.314015 0.176287
0.883635 0.30074 0.172183
0.879164 0.290089 0.168582
0.874464 0.281376 0.165103
0.870741 0.275013 0.162463
0.867613 0.270115 0.160418
0.865003 0.266453 0.158755
0.863035 0.263478 0.157321
0.862135 0.261189 0.156115
0.862257 0.26009 0.155322
0 0.551461 0.151766
0.00155642 0.551904 0.144259
0.00891127 0.552285 0.136461
0.0171054 0.5523 0.127916
0.0255589 0.552041 0.119158
0.0337682 0.551659 0.110323
0.0425269 0.551354 0.101457
0.0529335 0.550713 0.0907759
0.0637522 0.550088 0.0784009
0.0809491 0.548531 0.0581216
0.0881361 0.545663 0.0478676
0.090425 0.541497 0.0433051
0.139086 0.527016 0.000595102
0.252216 0.524056 0.0103914
0.392996 0.509926 0.056733
0.475608 0.509789 0.0595102
0.552666 0.51136 0.0580301
0.632029 0.512627 0.0690318
0.70425 0.520745 0.0964828
0.795316 0.515846 0.155169
0.861997 0.503517 0.17998
0.91339 0.466484 0.195804
0.916884 0.449348 0.196277
0.915419 0.43621 0.195682
0.913802 0.425086 0.19472
0.912398 0.415961 0.193866
0.911406 0.408713 0.193225
0.910506 0.403128 0.19266
0.90988 0.398596 0.192233
0.909056 0.395071 0.191546
0.908919 0.392859 0.191562
0.908995 0.391257 0.191165
0.909239 0.390356 0.190326
0 0.628428 0.216281
0.00170901 0.629572 0.208591
0.00859083 0.630243 0.2009
0.0167544 0.630976 0.19295
0.0258335 0.631617 0.184558
0.0353704 0.632105 0.175921
0.0458228 0.632502 0.166537
0.0584573 0.632609 0.15523
0.0738231 0.632563 0.140612
0.0914931 0.631952 0.122499
0.111666 0.63032 0.0995041
0.117342 0.627161 0.0906996
0.124804 0.621363 0.0794537
0.201144 0.606195 0.01944
0.329519 0.6 0.0375677
0.474647 0.582086 0.0793927
0.552392 0.57818 0.0800183
0.626322 0.578241 0.0796826
0.703059 0.578882 0.0928817
0.779446 0.586801 0.108904
0.861585 0.586023 0.167788
0.913741 0.5785 0.190829
0.925307 0.565637 0.195865
0.925139 0.554711 0.196948
0.924239 0.545281 0.19765
0.923613 0.537362 0.198184
0.923308 0.531151 0.198764
0.922698 0.525765 0.198871
0.92253 0.522286 0.199222
0.922347 0.519463 0.199344
0.922194 0.517205 0.199435
0.922148 0.515648 0.199084
0.922179 0.514977 0.19823
0.005066 0.704479 0.293538
0.00572213 0.705211 0.287053
0.00737011 0.706004 0.280156
0.0132906 0.707515 0.272953
0.0203708 0.708995 0.265309
0.028809 0.71046 0.256916
0.0380407 0.711543 0.24802
0.0512093 0.712947 0.236316
0.0693675 0.714183 0.220676
0.0913863 0.71487 0.200473
0.117906 0.714824 0.175067
0.139757 0.71339 0.151843
0.141711 0.709316 0.146319
0.171313 0.699641 0.113283
0.277943 0.686137 0.0538949
0.423728 0.674891 0.0838636
0.555718 0.653407 0.112322
0.627176 0.646494 0.108995
0.697719 0.644648 0.106432
0.774807 0.644648 0.113252
0.847959 0.651286 0.127855
0.913039 0.653941 0.175174
0.936156 0.648997 0.191073
0.9364 0.642267 0.192081
0.935409 0.636576 0.19237
0.934401 0.631373 0.19202
0.933959 0.62768 0.192248
0.93341 0.624231 0.192203
0.932845 0.621576 0.19205
0.932586 0.619776 0.192065
0.932708 0.618677 0.192401
0.932586 0.617594 0.192187
0.93254 0.617029 0.191638
0.0229343 0.78439 0.368307
0.0224613 0.785046 0.363073
0.0220951 0.785718 0.357671
0.0223087 0.78648 0.351949
0.0226596 0.787289 0.345876
0.0232548 0.788067 0.339803
0.0246891 0.788952 0.333104
0.0343786 0.790646 0.324224
0.0498512 0.792462 0.312032
0.0744182 0.79469 0.294713
0.106584 0.796811 0.269673
0.141482 0.797803 0.237522
0.162142 0.795636 0.215564
0.165393 0.790097 0.207446
0.224231 0.775494 0.147448
0.368338 0.765728 0.0995041
0.527245 0.746181 0.140307
0.633326 0.724422 0.152316
0.698741 0.714321 0.141222
0.767224 0.710353 0.131701
0.841245 0.709438 0.137835
0.905241 0.714168 0.151873
0.951156 0.718212 0.179187
0.956085 0.714061 0.186404
0.95462 0.709148 0.18793
0.953079 0.704829 0.188418
0.951888 0.701289 0.188937
0.951171 0.698604 0.189456
0.950408 0.696361 0.189837
0.949798 0.694789 0.190036
0.949447 0.693675 0.190158
0.949218 0.692851 0.190188
0.949111 0.692409 0.190143
0.0366369 0.859251 0.437873
0.0359197 0.860029 0.433845
0.0349584 0.860868 0.429496
0.034165 0.861601 0.425071
0.0335546 0.862348 0.420356
0.033341 0.863066 0.415518
0.0332341 0.863844 0.410285
0.0339208 0.86482 0.403372
0.0349279 0.866041 0.393729
0.0379034 0.86772 0.38024
0.0571603 0.871138 0.361593
0.097322 0.874861 0.334646
0.146517 0.876554 0.299916
0.157931 0.87274 0.288533
0.18088 0.86566 0.265538
0.293385 0.851423 0.172564
0.468421 0.840589 0.157229
0.62121 0.81236 0.199832
0.704509 0.793683 0.198688
0.766491 0.782086 0.184771
0.833402 0.77673 0.176867
0.89691 0.776043 0.176135
0.95079 0.779141 0.191089
0.978164 0.781826 0.208911
0.979339 0.777722 0.208545
0.977966 0.773571 0.206363
0.976761 0.770123 0.205005
0.975967 0.767681 0.204334
0.975067 0.76553 0.203433
0.974441 0.763912 0.202792
0.973953 0.762829 0.202686
0.973526 0.762142 0.202899
0.973251 0.761807 0.203555
0.0486305 0.919921 0.505577
0.0477913 0.920455 0.502678
0.0464942 0.921187 0.499001
0.0451667 0.921874 0.495613
0.0440375 0.922606 0.491798
0.0434577 0.923278 0.487984
0.043061 0.923873 0.484215
0.0429999 0.92462 0.478843
0.0427863 0.925612 0.47155
0.0427405 0.927199 0.461585
0.0439002 0.929259 0.44773
0.0473487 0.932036 0.427131
0.066865 0.936584 0.398016
0.105516 0.939071 0.373236
0.116793 0.93492 0.362799
0.208804 0.927489 0.298848
0.366323 0.921172 0.206287
0.560235 0.901701 0.228229
0.697658 0.867506 0.264195
0.766903 0.8533 0.261311
0.827802 0.842893 0.248432
0.891661 0.8383 0.246845
0.942596 0.838071 0.24567
0.981292 0.841001 0.259083
0.990845 0.840146 0.262882
0.990997 0.836683 0.259495
0.990936 0.834165 0.256703
0.990433 0.831815 0.25362
0.990097 0.829892 0.251347
0.989868 0.828428 0.249302
0.9897 0.82739 0.24802
0.9897 0.826856 0.247669
0.98967 0.826551 0.248127
0.0648203 0.963561 0.572244
0.0638285 0.964004 0.569787
0.0620279 0.964721 0.566674
0.0602731 0.965362 0.563912
0.058854 0.965957 0.561074
0.0581369 0.966461 0.558114
0.0576638 0.966842 0.555291
0.0573587 0.96733 0.55108
0.0568246 0.967956 0.545693
0.0561685 0.968887 0.538079
0.0554055 0.970214 0.527443
0.0548409 0.972274 0.512489
0.0554513 0.975372 0.491279
0.0574807 0.978775 0.463584
0.0573434 0.975891 0.453407
0.0760204 0.975097 0.421454
0.24332 0.979782 0.327718
0.456184 0.971023 0.27866
0.631022 0.947112 0.304784
0.75874 0.915984 0.33901
0.821439 0.903944 0.342885
0.882185 0.894743 0.333715
0.936797 0.890135 0.336095
0.976928 0.888945 0.337804
0.995956 0.891936 0.34078
0.996323 0.88954 0.334997
0.995773 0.88719 0.329473
0.995499 0.885451 0.32549
0.995361 0.884276 0.322499
0.995102 0.883207 0.31957
0.994858 0.882368 0.317784
0.99472 0.881743 0.316548
0.99469 0.881437 0.316228
0.0758984 0.982864 0.619501
0.0751965 0.983322 0.6177
0.0734112 0.984024 0.615808
0.0716259 0.984741 0.613916
0.0701762 0.985367 0.611963
0.0695506 0.985855 0.609964
0.0690929 0.986328 0.607874
0.0688334 0.98674 0.605615
0.068513 0.987366 0.601968
0.0679789 0.988205 0.597177
0.0672618 0.989395 0.590173
0.0664378 0.990967 0.580819
0.0653544 0.992966 0.567407
0.0642863 0.995361 0.549523
0.0634623 0.995804 0.537881
0.0629129 0.995453 0.522942
0.0813764 0.999039 0.450538
0.277623 0.999969 0.357687
0.545525 0.998306 0.355673
0.689357 0.981964 0.385473
0.810437 0.954101 0.421271
0.870405 0.94345 0.428443
0.92546 0.935241 0.425208
0.971435 0.930587 0.428931
0.998245 0.92958 0.430884
0.999878 0.928145 0.42797
0.999893 0.926314 0.42327
0.999817 0.924575 0.419013
0.999771 0.923415 0.415702
0.999695 0.922454 0.413138
0.999634 0.921706 0.410986
0.999603 0.921157 0.409491
0.999603 0.920821 0.408942
0.0775769 0.98439 0.628428
0.0769055 0.984741 0.626764
0.0751812 0.985367 0.624659
0.0733959 0.985977 0.622904
0.071931 0.986542 0.620935
0.0711681 0.986969 0.618906
0.0706951 0.98732 0.616907
0.0704509 0.987686 0.614359
0.0700694 0.988281 0.61062
0.0694896 0.989013 0.60592
0.0687572 0.990112 0.599084
0.0677653 0.991516 0.590021
0.0666972 0.993317 0.577173
0.0652781 0.995407 0.560159
0.0644541 0.996719 0.547265
0.0644236 0.996918 0.545464
0.0668345 0.999344 0.522774
0.11104 0.999969 0.460655
0.35964 0.999969 0.419806
0.609949 0.999969 0.428901
0.73843 0.995224 0.464286
0.859525 0.975769 0.507149
0.914626 0.969207 0.511406
0.961685 0.963897 0.507942
0.997208 0.959182 0.511086
0.999969 0.956313 0.51165
0.999969 0.954849 0.506264
0.999969 0.953552 0.501762
0.999969 0.95259 0.498146
0.999969 0.952087 0.495705
0.999969 0.951553 0.493584
0.999969 0.951141 0.492073
0.999969 0.950896 0.491463
0.0754253 0.984421 0.631693
0.0754559 0.984649 0.629969
0.0746166 0.985046 0.628107
0.0735637 0.985489 0.626337
0.072343 0.986007 0.624445
0.0716106 0.986374 0.622675
0.071107 0.986755 0.620569
0.0708019 0.987167 0.617975
0.0704662 0.987686 0.614496
0.0699474 0.988449 0.609537
0.0691691 0.989487 0.602945
0.0681621 0.990921 0.593927
0.0669718 0.992737 0.581537
0.0655985 0.994949 0.564065
0.0644846 0.996719 0.547509
0.0645151 0.996902 0.546777
0.0661479 0.998886 0.532937
0.0922103 0.999969 0.478706
0.301427 0.999969 0.416388
0.566384 0.999969 0.433265
0.701549 0.999603 0.472618
0.804883 0.988235 0.520058
0.900923 0.976043 0.55758
0.945281 0.973083 0.566247
0.983749 0.97174 0.576242
0.999969 0.969711 0.589334
0.999969 0.969345 0.58761
0.999969 0.969192 0.584772
0.999969 0.969162 0.582635
0.999969 0.969177 0.581231
0.999969 0.969238 0.580102
0.999969 0.969253 0.57908
0.999969 0.969162 0.578119
0.0733043 0.984558 0.63415
0.0734264 0.984741 0.632532
0.0734722 0.984939 0.630884
0.073228 0.985214 0.629084
0.0725567 0.985595 0.627253
0.0719463 0.985946 0.625452
