bundles/resolve-cinematic-luts/Phantom Luts/S5ii LUTs/WB Offset - Green & Warm Boost/S5ii Utopia V-Log WBO.cube
TITLE "Generated by Resolve"
LUT_3D_SIZE 5
0 0.0270237 0.0350347
0.130999 0.0189517 0.0272679
0.51252 0.0137942 0.0544594
0.69955 0.0373541 0.171374
0.704784 0.0366217 0.176715
0 0.141131 0.0334783
0.105837 0.123125 0.0303197
0.497719 0.00698863 0.0330663
0.683238 0.031632 0.133486
0.685267 0.0310063 0.133425
0 0.609155 0.21149
0.0529641 0.616495 0.119066
0.614099 0.565667 0.0652934
0.918502 0.487724 0.19469
0.915633 0.451514 0.190921
0.0674144 0.973159 0.673335
0.0610361 0.976455 0.657557
0.054963 0.990753 0.575662
0.994781 0.955535 0.55172
0.999969 0.947753 0.531548
0.0618753 0.972946 0.685786
0.0654765 0.973922 0.670771
0.0583963 0.984756 0.595865
0.958175 0.969039 0.611795
0.999496 0.968154 0.640696
0 0.036408 0.104662
0.135775 0.0322423 0.116167
0.545983 0.0296941 0.147829
0.713252 0.049134 0.22266
0.718441 0.0502174 0.228809
0 0.124041 0.125277
0.0860914 0.110277 0.114046
0.515724 0.0325628 0.0867323
0.702129 0.0375067 0.177157
0.704967 0.0373083 0.179797
0 0.591028 0.292836
0 0.598215 0.206912
0.611109 0.560739 0.0634623
0.918242 0.476402 0.194064
0.914153 0.441749 0.190051
0.0677043 0.97145 0.687099
0.0627146 0.974289 0.672877
0.0542611 0.987289 0.589059
0.993637 0.953475 0.541711
0.999969 0.944228 0.518471
0.0634012 0.971115 0.699641
0.0679484 0.971557 0.685695
0.0585184 0.984161 0.59855
0.95285 0.969284 0.610758
0.999466 0.968185 0.640757
0 0.0928664 0.392889
0.049073 0.0616465 0.465507
0.560174 0.0745861 0.427314
0.762814 0.107851 0.461372
0.764935 0.105623 0.468482
0 0.131609 0.371756
0 0.0922408 0.403159
0.549264 0.0704051 0.412467
0.763348 0.111742 0.435767
0.765301 0.110613 0.4421
0 0.553063 0.507729
0 0.547402 0.498955
0.571405 0.557336 0.517998
0.915419 0.458869 0.431678
0.910216 0.415869 0.435874
0.0739452 0.96405 0.750179
0.0675212 0.966247 0.740963
0.0624704 0.974365 0.670085
0.9841 0.946807 0.620264
0.999878 0.93547 0.612329
0.0704509 0.96434 0.763973
0.0679332 0.965698 0.753506
0.0679942 0.972351 0.678752
0.940169 0.975174 0.695766
0.99852 0.973754 0.726986
0 0.308843 0.68101
0 0.31014 0.680583
0.488029 0.304982 0.870237
0.876478 0.37351 0.862089
0.880812 0.394614 0.879011
0 0.302663 0.674693
0 0.307012 0.680446
0.445823 0.308064 0.8701
0.871061 0.351705 0.844373
0.874128 0.365469 0.857694
0 0.544823 0.719997
0 0.536919 0.723857
0.301442 0.560754 0.845701
0.912688 0.462455 0.848173
0.901564 0.436591 0.838972
0.0786603 0.940215 0.892134
0.0660716 0.939818 0.891371
0.0609598 0.92401 0.869352
0.942321 0.93022 0.906752
0.979339 0.923705 0.902052
0.0777447 0.950942 0.917067
0.0718242 0.952911 0.913878
0.0767376 0.955001 0.87747
0.890761 0.988815 0.926146
0.99115 0.98822 0.96759
0 0.397986 0.72018
0 0.400107 0.72575
0.407645 0.444495 0.938796
0.889158 0.435676 0.907591
0.888945 0.43566 0.907881
0 0.397757 0.718807
0 0.398154 0.721035
0.363622 0.442283 0.928206
0.88983 0.435691 0.906676
0.888594 0.435645 0.90837
0 0.590951 0.798489
0 0.582315 0.796185
0.127947 0.602716 0.841321
0.923232 0.524865 0.935988
0.917052 0.509636 0.933211
0.0451362 0.923827 0.937209
0.0361639 0.920775 0.938155
0.0162814 0.892027 0.929473
0.884092 0.919936 0.974578
0.977752 0.912322 0.97409
0.0633402 0.945998 0.945708
0.0560006 0.947524 0.948257
0.0560006 0.947524 0.948257
0.80148 0.981491 0.979294
0.995071 0.991684 0.990417
