bundles/resolve-cinematic-luts/Phantom Luts/S5ii LUTs/WB Offset - Green & Warm Boost/S5ii Jamaica V-Log WBO Legacy.cube
TITLE "Generated by Resolve"
LUT_3D_SIZE 33
0.0315099 0.0431373 0.0315099
0.0315099 0.0431067 0.0315099
0.0315251 0.0430457 0.0314946
0.0433051 0.0436713 0.0313268
0.0593576 0.0447089 0.0311589
0.0770123 0.0460059 0.0312505
0.0939803 0.0466621 0.031281
0.111879 0.0469215 0.0314641
0.133318 0.0471962 0.0318303
0.159991 0.0468147 0.0317388
0.193835 0.0458228 0.0314183
0.235615 0.044007 0.0327611
0.285634 0.0428779 0.0356603
0.341955 0.0430304 0.0413214
0.399893 0.0431067 0.0502785
0.45687 0.0428321 0.0595407
0.508324 0.043122 0.0726635
0.541863 0.0421454 0.0795605
0.570703 0.0455787 0.0948959
0.634867 0.0655833 0.154757
0.645609 0.0705577 0.16762
0.646143 0.0706798 0.168841
0.646677 0.0708019 0.170077
0.64715 0.0709087 0.171145
0.647578 0.0710155 0.172107
0.647913 0.071107 0.172839
0.648157 0.0711681 0.173419
0.648371 0.0712291 0.173892
0.648508 0.0712596 0.174212
0.6486 0.0713054 0.17438
0.648615 0.0713664 0.174411
0.648585 0.0714122 0.174273
0.648478 0.071458 0.174014
0.0315251 0.043061 0.0315099
0.0315099 0.0430762 0.0315099
0.0315251 0.0430457 0.0314946
0.0387579 0.0433204 0.0313878
0.0528115 0.0445869 0.0312047
0.0699016 0.0459907 0.0313115
0.0875563 0.0467994 0.0313573
0.106645 0.0472877 0.0316777
0.128542 0.0472725 0.0317388
0.15584 0.0469673 0.0318151
0.189944 0.0460365 0.0318303
0.232273 0.0442054 0.03299
0.282399 0.0427405 0.0348211
0.338064 0.0413519 0.0357824
0.3944 0.0405432 0.0406958
0.449363 0.039826 0.0476844
0.503136 0.0403143 0.0626688
0.549752 0.0428931 0.0867933
0.560891 0.0413825 0.0833295
0.630014 0.0643931 0.147005
0.644221 0.0703441 0.164279
0.644831 0.0704356 0.165743
0.645289 0.0704662 0.166934
0.645747 0.070573 0.167971
0.646097 0.0706645 0.168765
0.646418 0.0707256 0.169482
0.646677 0.0707866 0.170077
0.64686 0.0708476 0.170489
0.647013 0.0708934 0.170809
0.647074 0.0709239 0.170962
0.647105 0.0709697 0.171008
0.647059 0.0710155 0.17084
0.646967 0.0710765 0.170596
0.0315251 0.043061 0.0315099
0.0315099 0.0430762 0.0315099
0.0315251 0.0430457 0.0314946
0.0317082 0.0429389 0.0314488
0.0446326 0.0450141 0.0317693
0.0609903 0.0467994 0.0318914
0.0783398 0.0479286 0.0318608
0.0986038 0.0485542 0.0320897
0.121996 0.0481422 0.0320134
0.149874 0.0476692 0.0320592
0.185 0.0464027 0.0319219
0.228275 0.0443732 0.0328985
0.278904 0.0428779 0.034699
0.335546 0.0420539 0.0376593
0.393286 0.0414282 0.0434119
0.44947 0.0408026 0.0512245
0.500481 0.0400244 0.060502
0.543114 0.0403754 0.0776684
0.567819 0.043183 0.0889143
0.611719 0.0598001 0.128038
0.640391 0.0690623 0.157214
0.642481 0.06981 0.160861
0.643717 0.0702373 0.163149
0.644343 0.0703593 0.164553
0.644739 0.0704204 0.165515
0.645014 0.0704509 0.166232
0.645243 0.0704662 0.166812
0.645426 0.0704967 0.167254
0.645548 0.0705425 0.167514
0.645624 0.070573 0.167651
0.64564 0.0706035 0.167681
0.645579 0.0706645 0.167514
0.645472 0.0707103 0.167269
0.0317693 0.0445258 0.0328832
0.0313573 0.0441138 0.0314641
0.0320134 0.0438849 0.0317082
0.0325017 0.0437324 0.0315862
0.0405585 0.0454261 0.0320745
0.0528267 0.0480049 0.0324102
0.0679484 0.0497139 0.0327764
0.0876326 0.0508583 0.0328832
0.111925 0.0508888 0.0330053
0.141039 0.0498665 0.0329137
0.178332 0.0479286 0.032639
0.222995 0.0452125 0.0330358
0.274617 0.0429847 0.0343938
0.332067 0.0420844 0.0373693
0.39028 0.041474 0.0431525
0.447364 0.0408331 0.0509804
0.499992 0.0403449 0.0614328
0.54255 0.0407568 0.0783551
0.566766 0.043122 0.0886397
0.599878 0.0517739 0.113512
0.632456 0.0661479 0.145525
0.634989 0.0671244 0.148806
0.638437 0.0683757 0.153964
0.640543 0.0691081 0.157488
0.641978 0.0696422 0.159976
0.642863 0.0699931 0.161486
0.643473 0.0701762 0.162646
0.643824 0.0702831 0.163394
0.644038 0.0703288 0.163867
0.644144 0.0703593 0.164096
0.644205 0.0704051 0.164218
0.64416 0.0704509 0.16408
0.644083 0.0704967 0.163806
0.0321508 0.0564889 0.0379797
0.0311437 0.0555581 0.0346838
0.0320592 0.0542306 0.0342565
0.0368658 0.0521401 0.0328527
0.0410925 0.0504005 0.0328985
0.0495766 0.0514229 0.0339818
0.0606088 0.0522774 0.0344701
0.0776532 0.0527352 0.0340887
0.10251 0.0529946 0.0346227
0.132174 0.0524453 0.0340276
0.169085 0.0508125 0.0336309
0.214939 0.0478218 0.0331579
0.269474 0.044007 0.034287
0.328511 0.0421302 0.0370031
0.387518 0.0414893 0.0428626
0.445182 0.0408484 0.05066
0.498192 0.0403754 0.0610361
0.541299 0.04065 0.0778668
0.566613 0.0431983 0.088838
0.600931 0.0526741 0.115373
0.63386 0.0665904 0.147738
0.632883 0.0662699 0.146304
0.632334 0.0660716 0.145525
0.632151 0.066041 0.145159
0.633387 0.0665293 0.146609
0.635966 0.0675059 0.150195
0.637583 0.0680552 0.152682
0.638514 0.0683909 0.154147
0.639261 0.0686656 0.155322
0.639765 0.0688792 0.15613
0.64007 0.0690318 0.156619
0.640208 0.0691691 0.156741
0.640177 0.0692607 0.156588
0.0328985 0.0674601 0.0436408
0.0313726 0.0661936 0.0388342
0.0312352 0.0647135 0.0377966
0.0383307 0.0622873 0.0360266
0.045243 0.059617 0.0352789
0.0531777 0.0588998 0.0357519
0.0638437 0.0596017 0.0374456
0.0802777 0.0603037 0.0390021
0.10312 0.0598917 0.0395056
0.129702 0.0584573 0.0373083
0.162905 0.0547951 0.0358434
0.207156 0.0510262 0.0342107
0.262608 0.0467231 0.0348058
0.324742 0.0430915 0.0363317
0.385016 0.0415656 0.0424964
0.442863 0.0408637 0.050248
0.496422 0.0404059 0.0606699
0.540078 0.0404974 0.0773327
0.566613 0.0433051 0.0891432
0.598672 0.0517128 0.113054
0.634592 0.0668498 0.148775
0.634592 0.0668498 0.148775
0.634592 0.0668498 0.148775
0.634256 0.0667277 0.148302
0.633463 0.0664378 0.147173
0.633036 0.0663157 0.146548
0.632822 0.0662547 0.146197
0.632593 0.0661784 0.145907
0.632441 0.0661173 0.145678
0.632273 0.0661173 0.145403
0.632105 0.0661173 0.145144
0.631907 0.0661479 0.144778
0.631754 0.0661936 0.144503
0.0324865 0.0819867 0.0461433
0.0309606 0.0805066 0.0414435
0.0308537 0.0784314 0.0405737
0.0360723 0.0754559 0.0391089
0.0452277 0.0714427 0.0373236
0.055314 0.0686351 0.0369116
0.0661479 0.0688945 0.0374914
0.0824598 0.0697795 0.0397803
0.104494 0.0700999 0.0417945
0.135058 0.0676738 0.0442817
0.16875 0.0646983 0.0420233
0.209964 0.0587625 0.03888
0.257725 0.0509804 0.0354314
0.320348 0.0455024 0.0359503
0.382025 0.0421454 0.0416876
0.440482 0.0409094 0.0498512
0.494514 0.0404974 0.0603037
0.538766 0.0403601 0.0766613
0.566598 0.0434424 0.0894484
0.596368 0.0508888 0.11107
0.634562 0.066865 0.148714
0.634562 0.066865 0.14873
0.634577 0.066865 0.14873
0.634577 0.066865 0.148745
0.634577 0.066865 0.148745
0.634577 0.066865 0.148745
0.634577 0.066865 0.148745
0.634562 0.066865 0.14873
0.634562 0.066865 0.148699
0.634501 0.0668803 0.148608
0.634455 0.0668956 0.148501
0.634348 0.0669261 0.148318
0.634256 0.0669566 0.148104
0.0316777 0.100603 0.0486305
0.0298924 0.0991531 0.0431373
0.0298009 0.0971847 0.0416114
0.0312963 0.0948196 0.0418402
0.0446632 0.0905928 0.0390784
0.0552224 0.085832 0.037583
0.0677806 0.0840009 0.0374609
0.0839399 0.0852522 0.037644
0.105852 0.085893 0.0402533
0.135607 0.0848249 0.0451057
0.174289 0.0805829 0.047303
0.223102 0.0731975 0.0477607
0.269291 0.0651102 0.0424811
0.321492 0.0536049 0.0381933
0.379187 0.0449378 0.0401312
0.437781 0.0410773 0.0492256
0.493065 0.0404822 0.0598764
0.537484 0.040177 0.0759442
0.566476 0.043595 0.0897688
0.593652 0.0499123 0.108339
0.634501 0.0668803 0.148592
0.634501 0.0668803 0.148592
0.634501 0.0668803 0.148608
0.634501 0.0668803 0.148608
0.634501 0.0668803 0.148608
0.634516 0.0668803 0.148608
0.634501 0.0668803 0.148608
0.634501 0.0668803 0.148608
0.634501 0.0668803 0.148608
0.634485 0.0668803 0.148562
0.63444 0.0668956 0.148486
0.634348 0.0669261 0.148318
0.634256 0.0669566 0.148104
0.0307164 0.123995 0.0522164
0.0289464 0.122698 0.0454566
0.0292668 0.120912 0.0408484
0.0292821 0.118975 0.0418402
0.0375525 0.116014 0.0408789
0.0524605 0.111238 0.0383001
0.0669413 0.106401 0.0371862
0.0856641 0.10518 0.0378271
0.105928 0.106737 0.0365759
0.134127 0.107866 0.0393072
0.176013 0.104936 0.0475319
0.22501 0.0981613 0.0503853
0.288441 0.0848859 0.0518502
0.338979 0.0736858 0.0475929
0.38883 0.0588235 0.0428779
0.43621 0.0448768 0.0463722
0.49015 0.04065 0.0592203
0.535317 0.0399481 0.0749065
0.566339 0.0437476 0.0902113
0.590143 0.0487526 0.10515
0.634501 0.0668803 0.148592
0.634501 0.0668803 0.148592
0.634501 0.0668803 0.148592
0.634501 0.0668803 0.148592
0.634501 0.0668803 0.148592
0.634501 0.0668803 0.148592
0.634501 0.0668803 0.148592
0.634501 0.0668803 0.148592
0.634501 0.0668803 0.148592
0.634485 0.0668956 0.148562
0.63444 0.0668956 0.148486
0.634348 0.0669261 0.148318
0.634256 0.0669566 0.148104
0.0296941 0.152667 0.0573281
0.0286717 0.151278 0.0494698
0.028809 0.150027 0.0418708
0.0299382 0.148608 0.039353
0.0290227 0.146639 0.0405737
0.0410925 0.142992 0.0390173
0.0593423 0.137819 0.0366064
0.082887 0.132326 0.0366369
0.107668 0.131319 0.0369116
0.133181 0.133501 0.0345006
0.171221 0.134279 0.037644
0.227131 0.128939 0.0499428
0.288365 0.119142 0.0543832
0.360235 0.1019 0.0572824
0.41474 0.0864271 0.0555734
0.45774 0.0680247 0.0508583
0.495995 0.0464942 0.0519417
0.534447 0.0410925 0.0706951
0.566064 0.043946 0.0905318
0.585992 0.0475013 0.101732
0.634501 0.0668803 0.148592
0.634501 0.0668803 0.148592
0.634501 0.0668803 0.148592
0.634501 0.0668803 0.148592
0.634501 0.0668803 0.148592
0.634501 0.0668803 0.148592
0.634501 0.0668803 0.148592
0.634501 0.0668803 0.148592
0.634501 0.0668803 0.148592
0.634485 0.0668956 0.148562
0.63444 0.0668956 0.148486
0.634348 0.0669261 0.148318
0.634256 0.0669566 0.148104
0.0281071 0.189456 0.0648203
0.0284428 0.188327 0.055436
0.028748 0.186679 0.0471199
0.0314031 0.185016 0.0391394
0.0316472 0.183322 0.0382849
0.0311589 0.181476 0.0395514
0.0446479 0.178256 0.036759
0.0673686 0.172412 0.0333562
0.101976 0.165759 0.0345922
0.133333 0.164477 0.0354009
0.16733 0.167071 0.0316167
0.219226 0.167514 0.0365759
0.29073 0.160113 0.0541085
0.361975 0.147387 0.0608682
0.434928 0.127291 0.0656596
0.491173 0.105791 0.0666209
0.52491 0.0839094 0.0622263
0.548547 0.0524605 0.0598917
0.569726 0.0427405 0.0836194
0.577569 0.0445411 0.0932326
0.634501 0.0668803 0.148592
0.634501 0.0668803 0.148592
0.634501 0.0668803 0.148592
0.634501 0.0668803 0.148592
0.634501 0.0668803 0.148592
0.634501 0.0668803 0.148592
0.634501 0.0668803 0.148592
0.634501 0.0668803 0.148592
0.634501 0.0668803 0.148592
0.634485 0.0668956 0.148562
0.63444 0.0668956 0.148486
0.634348 0.0669261 0.148318
0.634256 0.0669566 0.148104
0.0245212 0.235111 0.0754864
0.0262303 0.23357 0.0660563
0.0274052 0.231769 0.0564889
0.0306249 0.23006 0.0460822
0.0347448 0.228336 0.0366979
0.0347143 0.226825 0.0367437
0.0337682 0.22533 0.0380865
0.0478981 0.222126 0.0340429
0.0774548 0.215595 0.0281529
0.125154 0.207996 0.0311894
0.165576 0.206317 0.0329442
0.21181 0.209873 0.0275731
0.279225 0.210712 0.0337987
0.362249 0.201846 0.0586252
0.438743 0.186252 0.0701152
0.509941 0.165072 0.0787823
0.566629 0.137316 0.0842756
0.590387 0.113619 0.0812695
0.597543 0.0705272 0.0772869
0.60119 0.0497902 0.0969863
0.606058 0.0517891 0.112306
0.628092 0.0647898 0.140291
0.633341 0.0664836 0.146944
0.634501 0.0668803 0.148592
0.634501 0.0668803 0.148592
0.634501 0.0668803 0.148592
0.634501 0.0668803 0.148592
0.634501 0.0668803 0.148592
0.634501 0.0668803 0.148592
0.634485 0.0668956 0.148562
0.63444 0.0668956 0.148486
0.634348 0.0669261 0.148318
0.634256 0.0669566 0.148104
0.0234379 0.288594 0.0896773
0.0263981 0.287236 0.080827
0.0283207 0.285603 0.0711833
0.0306249 0.284184 0.0617685
0.0355383 0.283101 0.0493629
0.0412146 0.281285 0.0382239
0.0424506 0.279637 0.0350195
0.0403143 0.277577 0.0381476
0.0536965 0.273808 0.0309606
0.0928664 0.267506 0.0216373
0.154086 0.259419 0.0270085
0.207172 0.257832 0.0292363
0.266941 0.26247 0.0230106
0.348013 0.263096 0.0303044
0.436454 0.255253 0.0630961
0.517708 0.23801 0.0843519
0.58555 0.217014 0.0975509
0.639963 0.185565 0.110933
0.655192 0.158145 0.110887
0.64123 0.105837 0.105745
0.615274 0.0625772 0.111376
0.61416 0.0575113 0.116152
0.617121 0.0569009 0.120577
0.602747 0.0496681 0.106828
0.615839 0.0571756 0.125048
0.622599 0.061387 0.133577
0.627832 0.0646983 0.140002
0.630137 0.0654459 0.142733
0.631464 0.0658274 0.144533
0.632471 0.0661784 0.145815
0.633204 0.0664836 0.1467
0.633814 0.066743 0.147509
0.633967 0.0668498 0.147677
0.0257267 0.348486 0.108461
0.029984 0.347494 0.0997787
0.0332952 0.346517 0.0913405
0.0364385 0.34583 0.082887
0.0390631 0.344823 0.0743267
0.0435035 0.343709 0.0628519
0.0509041 0.342138 0.0469673
0.0539864 0.340475 0.0404517
0.0516976 0.338247 0.0434882
0.0641794 0.334035 0.030457
0.116533 0.327886 0.016968
0.19086 0.318639 0.0249943
0.258534 0.317968 0.0273289
0.331655 0.324331 0.0198062
0.420203 0.325353 0.0271305
0.511543 0.320607 0.0676127
0.595529 0.304967 0.103395
0.66186 0.282597 0.12314
0.7122 0.249134 0.14667
0.718471 0.216693 0.153475
0.687663 0.164965 0.144045
0.657984 0.122011 0.128161
0.634958 0.0914168 0.114
0.622385 0.0747539 0.108812
0.618524 0.0674296 0.11104
0.615457 0.0619974 0.112535
0.614313 0.0594492 0.11368
0.613596 0.0576944 0.114458
0.614679 0.0570382 0.117449
0.616587 0.0577096 0.119768
0.619181 0.0589609 0.123156
0.62089 0.0598459 0.125231
0.621012 0.0598154 0.125322
0.0310521 0.413336 0.137392
0.0359808 0.41265 0.128649
0.040238 0.412421 0.120165
0.0443885 0.411353 0.111559
0.0480049 0.410346 0.103166
0.0511177 0.40943 0.0954452
0.0552071 0.408881 0.0859541
0.0634318 0.408209 0.0702983
0.0691234 0.406653 0.0596323
0.067628 0.404166 0.0603647
0.0831159 0.397375 0.0376898
0.147189 0.391775 0.0180514
0.23827 0.381476 0.0292821
0.32047 0.382391 0.0298466
0.40145 0.390051 0.0224765
0.494331 0.391302 0.0326238
0.584909 0.389868 0.0771801
0.675456 0.377493 0.127352
0.737774 0.357656 0.158694
0.783185 0.326421 0.192706
0.776486 0.287053 0.204395
0.75758 0.26006 0.192599
0.741344 0.237583 0.181323
0.725628 0.215686 0.170748
0.711635 0.196384 0.161349
0.700298 0.180804 0.153887
0.690105 0.166964 0.147143
0.681498 0.155276 0.141558
0.675563 0.145418 0.139498
0.670161 0.138048 0.136172
0.66598 0.13228 0.133654
0.663539 0.128969 0.132158
0.661616 0.126299 0.131014
0.0404059 0.484627 0.180407
0.0457771 0.48452 0.172061
0.0509041 0.483909 0.162829
0.0560006 0.483101 0.153429
0.0611734 0.482368 0.144289
0.0661173 0.481758 0.1355
0.0706493 0.481865 0.127794
0.0755474 0.481682 0.118761
0.0843519 0.480797 0.102556
0.0917067 0.478721 0.0878767
0.0901656 0.475578 0.0870527
0.110887 0.46685 0.0538338
0.186709 0.462455 0.0287785
0.297887 0.450004 0.040177
0.390005 0.451987 0.0403601
0.47393 0.458946 0.0338903
0.566842 0.460548 0.0497292
0.657664 0.462821 0.0967727
0.753368 0.4542 0.16347
0.811719 0.44126 0.20325
0.843458 0.408591 0.239734
0.835874 0.374426 0.24567
0.824598 0.355489 0.23917
0.815076 0.340169 0.233478
0.805753 0.325856 0.227634
0.797635 0.314076 0.222156
0.790799 0.304372 0.217411
0.784924 0.296345 0.213138
0.780194 0.289982 0.209659
0.777325 0.286152 0.207553
0.774258 0.281941 0.205386
0.771618 0.278416 0.203433
0.769711 0.275883 0.201999
0.0541695 0.561608 0.238468
0.0594034 0.561898 0.230426
0.0650797 0.561761 0.22182
0.0711223 0.561349 0.212863
0.0773785 0.560769 0.203525
0.0838483 0.560906 0.195056
0.0903487 0.560586 0.186053
0.0974899 0.560342 0.17583
0.104601 0.560235 0.164294
0.115587 0.559853 0.145068
0.123491 0.558358 0.130236
0.121767 0.554726 0.128405
0.15108 0.543664 0.0794232
0.240131 0.539513 0.0522774
0.369635 0.524895 0.0594034
0.463844 0.525795 0.057557
0.548608 0.531518 0.0573739
0.638743 0.533364 0.0828717
0.726879 0.537911 0.133242
0.824109 0.533257 0.209369
0.870695 0.526146 0.248524
0.889189 0.492058 0.273518
0.883299 0.476112 0.270161
0.877699 0.461128 0.267384
0.872679 0.448722 0.264897
0.868238 0.438682 0.262577
0.864424 0.430243 0.260639
0.861082 0.423255 0.258869
0.859052 0.418692 0.257877
0.85655 0.414145 0.256535
0.854978 0.410956 0.255833
0.853178 0.408225 0.254643
0.851743 0.405966 0.253681
0.0769818 0.641611 0.311604
0.0787366 0.642206 0.304936
0.0834669 0.642863 0.296788
0.0900282 0.643641 0.288655
0.0962997 0.644404 0.280583
0.103029 0.644465 0.271641
0.110201 0.64448 0.262592
0.118395 0.644602 0.252064
0.128695 0.645228 0.239322
0.1402 0.64593 0.223606
0.155169 0.64686 0.201846
0.160647 0.644297 0.189822
0.161624 0.639368 0.181918
0.209033 0.629221 0.11545
0.31104 0.623407 0.0891432
0.45008 0.604593 0.0898604
0.541665 0.601984 0.0886702
0.621973 0.603998 0.0978561
0.707103 0.605417 0.132631
0.790784 0.611978 0.185946
0.876295 0.612177 0.257908
0.910353 0.609125 0.289799
0.91281 0.595117 0.291447
0.910903 0.582956 0.289097
0.908888 0.572106 0.286915
0.907103 0.562432 0.285206
0.90576 0.555215 0.284062
0.904402 0.548959 0.282933
0.903395 0.544152 0.2822
0.902235 0.540169 0.28127
0.901579 0.537072 0.280888
0.900542 0.534569 0.280018
0.89987 0.533486 0.279408
0.119463 0.719676 0.395544
0.118624 0.719738 0.3906
0.118059 0.719738 0.384802
0.120119 0.720882 0.378714
0.12343 0.721935 0.371389
0.12755 0.722927 0.36376
0.132418 0.723857 0.355673
0.141268 0.725612 0.345724
0.152132 0.728298 0.333959
0.165774 0.730098 0.316945
0.182239 0.732128 0.295369
0.198779 0.733333 0.272236
0.199802 0.729854 0.264836
0.211887 0.723507 0.239216
0.281315 0.716777 0.167346
0.400763 0.707805 0.142428
0.534142 0.683528 0.135943
0.617914 0.676112 0.137301
0.692927 0.675364 0.154757
0.771908 0.677394 0.19559
0.844953 0.68481 0.249683
0.910094 0.689616 0.303899
0.925353 0.68481 0.316213
0.924453 0.676524 0.313573
0.923735 0.669245 0.311421
0.92282 0.663264 0.309422
0.922042 0.658473 0.30782
0.921553 0.654017 0.306615
0.920867 0.650294 0.305364
0.920409 0.647547 0.304555
0.919966 0.645502 0.303883
0.919402 0.644205 0.303258
0.9187 0.642985 0.30248
0.181445 0.79736 0.484947
0.181567 0.79794 0.48188
0.180957 0.79765 0.477302
0.180362 0.797269 0.472511
0.179721 0.79678 0.467796
0.179141 0.796246 0.462882
0.178759 0.795773 0.457588
0.181613 0.797467 0.451545
0.187076 0.800137 0.441962
0.196536 0.803769 0.428336
0.213352 0.809262 0.408713
0.233936 0.81384 0.382254
0.249622 0.815122 0.359289
0.248798 0.811337 0.352102
0.273915 0.803677 0.303532
0.369879 0.803342 0.23447
0.503563 0.787243 0.208759
0.617578 0.76054 0.198428
0.692378 0.74931 0.201114
0.760372 0.746288 0.223606
0.829786 0.748211 0.265187
0.889143 0.754467 0.310521
0.930358 0.761181 0.345388
0.933501 0.755718 0.345602
0.932769 0.749813 0.342626
0.931899 0.744579 0.339895
0.931487 0.740093 0.337881
0.930907 0.736156 0.335958
0.93077 0.733135 0.334813
0.930251 0.73106 0.333867
0.929915 0.729671 0.333288
0.929366 0.728161 0.332555
0.929061 0.727092 0.332082
0.252171 0.86392 0.576059
0.252033 0.86389 0.57319
0.251774 0.863737 0.569757
0.251469 0.863523 0.566217
0.251087 0.863218 0.562585
0.25066 0.862867 0.558663
0.25069 0.862882 0.555627
0.250278 0.862486 0.551186
0.249973 0.862119 0.54522
0.250065 0.861982 0.537636
0.254292 0.865202 0.525826
0.265888 0.87303 0.507225
0.286976 0.882963 0.477638
0.294423 0.883543 0.46125
0.29839 0.880766 0.444831
0.349401 0.880583 0.371511
0.469108 0.885542 0.313985
0.602914 0.859846 0.284306
0.696406 0.834028 0.272847
0.762371 0.82121 0.277516
0.825055 0.816678 0.301915
0.879927 0.81857 0.336873
0.926299 0.824369 0.373053
0.950683 0.829572 0.393744
0.950317 0.823972 0.39089
0.949081 0.819043 0.387549
0.947906 0.814908 0.384604
0.947188 0.811444 0.382361
0.94641 0.808789 0.380484
0.945678 0.806775 0.37908
0.945327 0.805051 0.378134
0.945205 0.80383 0.377676
0.94519 0.802762 0.377295
0.315175 0.913817 0.658625
0.314855 0.91371 0.656382
0.314473 0.913573 0.653574
0.314107 0.913451 0.650538
0.314 0.913497 0.648188
0.31368 0.91339 0.64538
0.313207 0.91313 0.642634
0.312703 0.912902 0.63917
0.312154 0.912642 0.634882
0.311955 0.912734 0.629313
0.312383 0.913314 0.622415
0.31284 0.913802 0.612177
0.316869 0.917037 0.59649
0.326787 0.924193 0.576013
0.329259 0.925429 0.564294
0.34696 0.931121 0.522179
0.426352 0.945968 0.444495
0.562997 0.951629 0.397055
0.684581 0.917662 0.363119
0.764538 0.89456 0.353231
0.82565 0.883619 0.35758
0.883909 0.880293 0.379492
0.928679 0.88307 0.406088
0.95993 0.888869 0.428977
0.968444 0.888823 0.434592
0.967636 0.884657 0.432059
0.966812 0.881498 0.430014
0.965789 0.878935 0.428122
0.964874 0.876631 0.426413
0.963912 0.87483 0.424964
0.963302 0.873457 0.424033
0.963027 0.872251 0.423606
0.962997 0.871321 0.423453
0.363775 0.947219 0.72636
0.363363 0.94699 0.724544
0.362951 0.946853 0.722316
0.362829 0.947005 0.720272
0.362615 0.947097 0.718181
0.362295 0.947066 0.716121
0.361944 0.947036 0.713939
0.361532 0.946944 0.711727
0.361044 0.946929 0.708339
0.360784 0.947112 0.704814
0.360418 0.947387 0.699413
0.360372 0.948043 0.692287
0.36051 0.948913 0.682383
0.361013 0.950027 0.667811
0.359747 0.949371 0.658381
0.357168 0.947707 0.644434
0.386847 0.966537 0.591318
0.491936 0.998703 0.517662
0.636805 0.998932 0.474174
0.747738 0.968582 0.441978
0.822248 0.946258 0.433143
0.88101 0.937484 0.434028
0.932448 0.934554 0.447593
0.967941 0.935866 0.463844
0.985245 0.939864 0.474678
0.986236 0.937758 0.47335
0.985 0.935332 0.470832
0.983429 0.933013 0.468299
0.982147 0.931304 0.466361
0.980819 0.930129 0.464729
0.979995 0.929137 0.463447
0.979522 0.928237 0.462379
0.979782 0.927764 0.462043
0.383825 0.959747 0.759274
0.383215 0.959213 0.757443
0.382925 0.959152 0.755535
0.382986 0.959457 0.75407
0.383062 0.959716 0.752819
0.383078 0.959945 0.751583
0.383062 0.960128 0.750393
0.383047 0.960357 0.748943
0.383032 0.960601 0.747311
0.383001 0.960983 0.744854
0.383062 0.961532 0.74168
0.383276 0.962386 0.737316
0.383703 0.963592 0.731456
0.384314 0.965148 0.722972
0.384634 0.966171 0.715724
0.383719 0.965927 0.710216
0.383062 0.966735 0.686992
0.416861 0.991684 0.633646
0.542412 0.998932 0.573861
0.697978 0.998932 0.546609
0.801572 0.998932 0.523018
0.873823 0.982879 0.513436
0.926436 0.975845 0.511223
0.969985 0.973892 0.517815
0.997284 0.975128 0.526314
1 0.974548 0.527718
1 0.972595 0.523995
1 0.97081 0.520317
1 0.969512 0.517388
1 0.968704 0.515328
1 0.968078 0.513802
1 0.96733 0.512139
1 0.96669 0.511009
0.383963 0.959442 0.761791
0.383291 0.958877 0.759731
0.382956 0.95874 0.757931
0.383017 0.958999 0.75671
0.383093 0.959319 0.755199
0.383108 0.959564 0.753902
0.383124 0.959762 0.75285
0.383093 0.959945 0.751675
0.383062 0.96022 0.749813
0.383032 0.960571 0.747555
0.383001 0.961059 0.74432
0.383078 0.961776 0.740108
0.383337 0.962844 0.734356
0.383871 0.964355 0.72636
0.384588 0.96585 0.718349
0.385214 0.966735 0.715053
0.387503 0.968978 0.711696
0.396658 0.977798 0.690623
0.451606 0.998932 0.652384
0.606058 0.998932 0.616358
0.749645 0.998932 0.602716
0.844968 0.998932 0.589685
0.917006 0.998932 0.587884
0.962081 0.997177 0.586358
0.995895 0.99707 0.590814
1 0.99588 0.595438
1 0.994659 0.59176
1 0.993866 0.587259
1 0.993103 0.583093
1 0.99263 0.580346
1 0.992187 0.57792
1 0.991775 0.576028
1 0.99147 0.575433
0.384146 0.959304 0.763531
0.383474 0.958709 0.761746
0.383124 0.958541 0.759915
0.383062 0.95874 0.758389
0.383108 0.958968 0.757259
0.383139 0.959197 0.756069
0.383124 0.959426 0.754757
0.383124 0.959655 0.753475
0.383108 0.959869 0.752087
0.383062 0.96025 0.749645
0.383017 0.960693 0.74667
0.382971 0.961349 0.742336
0.383093 0.96228 0.73669
0.383459 0.963653 0.728847
0.384161 0.965347 0.719265
0.384863 0.966415 0.714672
0.386664 0.968139 0.713115
0.393225 0.974685 0.697643
0.433082 0.998932 0.658122
0.562875 0.998932 0.620264
0.716625 0.998932 0.616312
0.809857 0.998932 0.615579
0.889891 0.998932 0.616587
0.947158 0.998932 0.625696
0.982757 0.998932 0.635416
1 0.998932 0.649699
1 0.998932 0.653834
1 0.998932 0.651728
1 0.998932 0.649454
1 0.998932 0.647654
1 0.998932 0.646387
1 0.998932 0.645808
1 0.998932 0.645609
0.384512 0.959472 0.764279
0.383932 0.958953 0.762737
0.383459 0.958602 0.761257
0.383261 0.958633 0.75993
0.383154 0.958755 0.758587
0.383154 0.958938 0.757534
0.383154 0.959121 0.756497
0.383124 0.95935 0.755123
0.383108 0.95964 0.753445
0.383093 0.959976 0.751415
0.383032 0.960433 0.748379
0.383001 0.961059 0.744259
0.382971 0.961898 0.738415
0.383169 0.963119 0.730739
0.383688 0.964828 0.719905
