bundles/resolve-cinematic-luts/Phantom Luts/S5ii LUTs/WB Offset - Green & Warm Boost/S5ii IceBlue V-Log WBO.cube
TITLE "Generated by Resolve"
LUT_3D_SIZE 5
0.0280919 0.0407263 0.0388495
0.126925 0.0406195 0.0384222
0.500252 0.0479896 0.0702525
0.651408 0.0791028 0.177127
0.657435 0.0767376 0.202655
0.0354009 0.128985 0.0716411
0.10811 0.117189 0.0514534
0.495705 0.0439155 0.0611429
0.635691 0.073579 0.153063
0.638361 0.0720226 0.16405
0.0392309 0.537255 0.263386
0.0734569 0.54815 0.20499
0.564248 0.564202 0.0874495
0.872602 0.531319 0.254505
0.875959 0.557504 0.258396
0.272068 0.871443 0.685023
0.268681 0.871183 0.675608
0.252216 0.868986 0.623636
0.960464 0.955856 0.613779
0.978836 0.957565 0.644465
0.274235 0.872786 0.692927
0.270359 0.871107 0.680156
0.258503 0.872236 0.57911
0.974395 0.956771 0.624933
0.97763 0.959228 0.643549
0.0255283 0.046891 0.101884
0.139315 0.0485237 0.112413
0.540581 0.0572366 0.155337
0.670298 0.0858778 0.225528
0.675868 0.0858778 0.24741
0.0376898 0.119966 0.123659
0.090074 0.107424 0.116411
0.522896 0.0602884 0.109789
0.655268 0.0788281 0.190646
0.659358 0.0780804 0.2065
0.0451362 0.536522 0.31693
0.0429236 0.547967 0.281743
0.561944 0.564843 0.0877089
0.872465 0.53109 0.254108
0.876204 0.559335 0.259449
0.276402 0.871962 0.695476
0.27396 0.87155 0.687221
0.252506 0.868238 0.627649
0.959472 0.955291 0.609369
0.977707 0.956115 0.648768
0.279866 0.873655 0.706432
0.27657 0.871717 0.695537
0.254795 0.870054 0.598123
0.967376 0.955764 0.619165
0.97612 0.958831 0.652049
0.0089723 0.0959487 0.400854
0.0953384 0.0678721 0.469902
0.588586 0.0856641 0.424964
0.747616 0.130999 0.432746
0.741711 0.124544 0.469825
0.00979629 0.126711 0.394202
0.00917067 0.101167 0.417777
0.596628 0.0893111 0.43508
0.748516 0.131151 0.424949
0.743175 0.124498 0.461219
0.064271 0.53489 0.491279
0.0677348 0.546395 0.503227
0.537652 0.567849 0.54905
0.941146 0.492821 0.47866
0.949996 0.512428 0.515267
0.298543 0.876738 0.751629
0.304677 0.875181 0.749554
0.281071 0.872175 0.702983
0.959457 0.958755 0.709651
0.984771 0.961013 0.774655
0.308919 0.881651 0.786465
0.315908 0.879255 0.782269
0.294499 0.876814 0.731716
0.959213 0.968719 0.803021
0.982376 0.972778 0.826963
0.039765 0.343282 0.653223
0.0399329 0.345327 0.655665
0.442466 0.368811 0.894133
0.908293 0.417517 0.899931
0.908705 0.431815 0.9149
0.0427558 0.358083 0.659754
0.0446174 0.369558 0.66482
0.424369 0.403265 0.906188
0.916838 0.430228 0.908186
0.909316 0.432166 0.914809
0.0777905 0.52726 0.684382
0.0816205 0.535927 0.694163
0.259037 0.580636 0.837385
0.972152 0.518303 0.926055
0.966461 0.544137 0.941131
0.331121 0.886748 0.862654
0.342245 0.888121 0.863478
0.327565 0.879499 0.850263
0.946487 0.94931 0.946502
0.981949 0.954879 0.953033
0.326284 0.888258 0.878553
0.337575 0.886061 0.874708
0.335622 0.890379 0.865538
0.95465 0.978515 0.972335
0.991821 0.988479 0.986786
0.045182 0.36994 0.664988
0.0452583 0.371145 0.667277
0.433997 0.424887 0.917967
0.912001 0.431434 0.91313
0.91133 0.431693 0.912596
0.0455329 0.369406 0.665171
0.04477 0.370367 0.665095
0.429664 0.423331 0.917372
0.914931 0.430716 0.910094
0.909087 0.432242 0.914931
0.102098 0.569314 0.731167
0.102846 0.573373 0.73164
0.238987 0.596704 0.829984
0.973098 0.552377 0.962829
0.96257 0.571374 0.963973
0.325307 0.888624 0.878599
0.336858 0.886107 0.875364
0.321263 0.873365 0.86717
0.918654 0.942977 0.969436
0.981628 0.954055 0.972808
0.320684 0.889723 0.879896
0.336889 0.886091 0.875364
0.337697 0.886091 0.875273
0.926329 0.974105 0.977386
0.998291 0.988434 0.988418
