bundles/resolve-cinematic-luts/Phantom Luts/S5ii LUTs/WB Offset - Green & Warm Boost/S5ii Jamaica V-Log WBO Legacy.cube
TITLE "Generated by Resolve"
LUT_3D_SIZE 9
0.0315099 0.0431373 0.0315099
0.0593576 0.0447089 0.0311589
0.133318 0.0471962 0.0318303
0.285634 0.0428779 0.0356603
0.508324 0.043122 0.0726635
0.645609 0.0705577 0.16762
0.647578 0.0710155 0.172107
0.648508 0.0712596 0.174212
0.648478 0.071458 0.174014
0.0321508 0.0564889 0.0379797
0.0410925 0.0504005 0.0328985
0.10251 0.0529946 0.0346227
0.269474 0.044007 0.034287
0.498192 0.0403754 0.0610361
0.63386 0.0665904 0.147738
0.633387 0.0665293 0.146609
0.639261 0.0686656 0.155322
0.640177 0.0692607 0.156588
0.0307164 0.123995 0.0522164
0.0375525 0.116014 0.0408789
0.105928 0.106737 0.0365759
0.288441 0.0848859 0.0518502
0.49015 0.04065 0.0592203
0.634501 0.0668803 0.148592
0.634501 0.0668803 0.148592
0.634501 0.0668803 0.148592
0.634256 0.0669566 0.148104
0.0234379 0.288594 0.0896773
0.0355383 0.283101 0.0493629
0.0536965 0.273808 0.0309606
0.266941 0.26247 0.0230106
0.58555 0.217014 0.0975509
0.615274 0.0625772 0.111376
0.615839 0.0571756 0.125048
0.631464 0.0658274 0.144533
0.633967 0.0668498 0.147677
0.0541695 0.561608 0.238468
0.0773785 0.560769 0.203525
0.104601 0.560235 0.164294
0.15108 0.543664 0.0794232
0.548608 0.531518 0.0573739
0.870695 0.526146 0.248524
0.872679 0.448722 0.264897
0.859052 0.418692 0.257877
0.851743 0.405966 0.253681
0.252171 0.86392 0.576059
0.251087 0.863218 0.562585
0.249973 0.862119 0.54522
0.286976 0.882963 0.477638
0.469108 0.885542 0.313985
0.825055 0.816678 0.301915
0.950317 0.823972 0.39089
0.94641 0.808789 0.380484
0.94519 0.802762 0.377295
0.383963 0.959442 0.761791
0.383093 0.959319 0.755199
0.383062 0.96022 0.749813
0.383337 0.962844 0.734356
0.387503 0.968978 0.711696
0.749645 0.998932 0.602716
0.995895 0.99707 0.590814
1 0.993103 0.583093
1 0.99147 0.575433
0.385031 0.959701 0.767315
0.383307 0.958389 0.761929
0.382895 0.958907 0.756786
0.382681 0.961181 0.741985
0.383612 0.965331 0.71426
0.665125 0.998932 0.614786
0.967376 0.998932 0.630671
1 0.998932 0.659876
1 0.998932 0.658137
0.385885 0.960433 0.769085
0.3841 0.958999 0.763394
0.383261 0.958999 0.758541
0.382712 0.960983 0.743481
0.383032 0.964843 0.713726
0.646967 0.998932 0.61062
0.959854 0.998932 0.628153
1 0.998932 0.659022
1 0.998932 0.656901
0.0315557 0.0434119 0.037583
0.0577096 0.0445869 0.0493019
0.136797 0.0484016 0.0565042
0.303777 0.0503243 0.0754864
0.522332 0.0520027 0.10425
0.651774 0.0722667 0.18146
0.653712 0.0728313 0.185977
0.654658 0.0731212 0.188067
0.654688 0.0732738 0.188144
0.0336614 0.0525216 0.0437476
0.0320287 0.044892 0.0318914
0.109483 0.0474556 0.0317693
0.270069 0.04477 0.0391852
0.500481 0.0436408 0.071107
0.645762 0.0706798 0.167941
0.647715 0.0711833 0.172366
0.648661 0.0714427 0.174502
0.648692 0.0715953 0.174548
0.0363622 0.11635 0.0768902
0.0307774 0.111284 0.0504463
0.0992142 0.101472 0.0370642
0.283818 0.0730449 0.0470893
0.489418 0.0406348 0.059266
0.634409 0.0669108 0.148425
0.63563 0.0673686 0.150118
0.637064 0.0678874 0.152224
0.637232 0.0680705 0.152392
0.0131533 0.283818 0.121386
0.0209506 0.278447 0.0882429
0.0396582 0.270237 0.0385595
0.262394 0.257923 0.0233005
0.586175 0.202701 0.0968948
0.613977 0.0599985 0.112474
0.622232 0.0610513 0.133043
0.634012 0.0667277 0.14789
0.634256 0.0669566 0.148104
0.0371099 0.55491 0.264042
0.0490272 0.554757 0.232776
0.0810407 0.552575 0.189395
0.133608 0.543313 0.0995193
0.546014 0.528145 0.0560464
0.870527 0.517327 0.248844
0.870192 0.443168 0.263554
0.856123 0.413001 0.256321
0.848966 0.400534 0.252216
0.24831 0.860075 0.581872
0.246677 0.859205 0.568566
0.245121 0.858091 0.552178
0.267918 0.872419 0.492271
0.4533 0.885008 0.317418
0.823621 0.814466 0.299611
0.949279 0.820264 0.388296
0.945327 0.804501 0.377478
0.943725 0.798199 0.373892
0.384024 0.958709 0.765652
0.383169 0.958633 0.759289
0.383124 0.959533 0.754177
0.383093 0.961929 0.739208
0.386664 0.968139 0.713039
0.743175 0.998932 0.601816
0.994873 0.996338 0.587366
1 0.992203 0.578866
1 0.990402 0.570367
0.384863 0.958724 0.770672
0.383261 0.957519 0.765988
0.382986 0.95819 0.761028
0.382727 0.960464 0.746883
0.383536 0.96527 0.71426
0.652995 0.998932 0.615183
0.964889 0.998917 0.629969
1 0.998932 0.659876
1 0.998932 0.658152
0.385565 0.959304 0.772595
0.383703 0.957671 0.767269
0.383337 0.958251 0.762783
0.382742 0.96025 0.748333
0.383032 0.964843 0.713726
0.63389 0.998932 0.610773
0.957137 0.998932 0.627649
1 0.998932 0.659022
1 0.998932 0.656901
0.0328679 0.0469368 0.0819715
0.0751049 0.045304 0.0842298
0.142916 0.0500954 0.0982986
0.31519 0.0537423 0.104234
0.545052 0.0520638 0.138903
0.659113 0.0745708 0.198032
0.661601 0.0757458 0.202869
0.662852 0.0763714 0.205097
0.662898 0.0766155 0.204974
0.0357366 0.054612 0.0628824
0.0330816 0.0472877 0.0738842
0.117723 0.0486458 0.0792706
0.291997 0.0507362 0.083299
0.527428 0.0517281 0.116182
0.653239 0.072694 0.184802
0.655055 0.0732738 0.188861
0.655955 0.073579 0.19089
0.655955 0.0737316 0.19086
0.0429847 0.110018 0.101152
0.0413519 0.103319 0.0908827
0.0915999 0.096437 0.0803998
0.275059 0.0727398 0.0658732
0.493904 0.0495308 0.0813458
0.647593 0.071107 0.172045
0.64828 0.0712749 0.173632
0.648676 0.0713817 0.174517
0.648707 0.0715038 0.174548
0.0248417 0.274418 0.155489
0.0178225 0.271778 0.130541
0.0213169 0.265782 0.0846723
0.258396 0.2533 0.0395514
0.585412 0.191974 0.101213
0.614343 0.0586404 0.115099
0.632593 0.0662089 0.146105
0.640742 0.0691081 0.158389
0.640909 0.0693217 0.15848
0.040238 0.545983 0.289509
0.0327916 0.546563 0.262943
0.047303 0.545769 0.225071
0.118349 0.542046 0.119692
0.543832 0.524834 0.0548257
0.869566 0.511986 0.24828
0.867643 0.437278 0.262287
0.852491 0.405905 0.254429
0.845426 0.39411 0.250172
0.243534 0.855009 0.587579
0.242237 0.854765 0.575586
0.240101 0.853544 0.559777
0.248005 0.858991 0.507469
0.431922 0.884092 0.324102
0.821866 0.811719 0.296757
0.948318 0.815946 0.385397
0.944015 0.800122 0.374334
0.942397 0.793988 0.370748
0.38407 0.957916 0.769528
0.383276 0.95787 0.763668
0.3832 0.95874 0.75874
0.383047 0.961074 0.744549
0.385916 0.967407 0.714214
0.735454 0.998932 0.600748
0.993744 0.9953 0.582849
1 0.990921 0.573556
1 0.989166 0.564996
0.384665 0.957687 0.774334
0.383215 0.956619 0.769574
0.383108 0.957412 0.765454
0.382803 0.959686 0.751995
0.383474 0.965225 0.714183
0.637339 0.998932 0.616037
0.962341 0.998932 0.629343
1 0.998932 0.659876
1 0.998932 0.658167
0.385382 0.958236 0.776547
0.38349 0.956619 0.770428
0.383413 0.957366 0.767437
0.382818 0.959457 0.753384
0.383032 0.964843 0.713726
0.616129 0.998932 0.610758
0.954116 0.998932 0.6271
1 0.998932 0.659037
1 0.998932 0.656703
0.0322728 0.05449 0.170443
0.0691386 0.0512245 0.18439
0.174014 0.0502785 0.187869
0.332906 0.0556191 0.200259
0.566659 0.0639048 0.200595
0.690791 0.0944228 0.250706
0.69427 0.0970626 0.256092
0.69572 0.0981918 0.258289
0.695613 0.0983444 0.257572
0.0346685 0.0609598 0.150958
0.0324865 0.05449 0.164569
0.130053 0.0494087 0.188434
0.314534 0.0558328 0.182589
0.555383 0.0588693 0.182315
0.680659 0.0872206 0.234562
0.68397 0.0895552 0.239765
0.685344 0.090547 0.241901
0.685206 0.0906691 0.241184
0.0394141 0.109972 0.164736
0.0384833 0.0979324 0.168505
0.0732433 0.0840925 0.181277
0.294697 0.0651408 0.174762
0.542062 0.0549172 0.163958
0.668711 0.0795605 0.215167
0.670878 0.0809339 0.21857
0.67219 0.0817426 0.220722
0.672099 0.0818494 0.220233
0.0436561 0.255848 0.221546
0.0427405 0.25095 0.211505
0.0416419 0.244541 0.197559
0.249409 0.245472 0.198764
0.570901 0.195727 0.174273
0.672694 0.0915389 0.202502
0.660761 0.0754864 0.200488
0.661509 0.0757763 0.202121
0.661173 0.0757458 0.201282
0.0555428 0.526574 0.347265
0.0481117 0.526864 0.329076
0.0407721 0.526482 0.304524
0.048127 0.527352 0.20557
0.543709 0.522713 0.129488
0.887541 0.485176 0.279805
0.874617 0.421042 0.277226
0.856443 0.391302 0.265522
0.847944 0.379431 0.25948
0.234638 0.843549 0.602625
0.232425 0.843122 0.591501
0.229816 0.842145 0.577935
0.22533 0.840589 0.534707
0.399725 0.879332 0.334768
0.818006 0.806149 0.291173
0.947967 0.808728 0.381262
0.943572 0.793225 0.370336
0.941421 0.787182 0.366583
0.38378 0.955596 0.778485
0.383398 0.955947 0.7729
0.383352 0.956863 0.768795
0.383139 0.959197 0.7561
0.384543 0.965972 0.716411
0.71783 0.998932 0.598291
0.991241 0.992874 0.572671
1 0.988144 0.562905
1 0.985702 0.553704
0.384558 0.955413 0.783139
0.383429 0.954849 0.777661
0.383108 0.955337 0.774884
0.383032 0.9579 0.762722
0.383032 0.964187 0.720729
0.60061 0.998932 0.615885
0.956481 0.998917 0.628107
1 0.998932 0.659907
1 0.998932 0.658198
0.385153 0.955871 0.785245
0.38349 0.954482 0.779431
0.383276 0.955154 0.77612
0.383062 0.95758 0.764416
0.382864 0.963989 0.721065
0.577585 0.998932 0.608362
0.946914 0.998932 0.626154
1 0.998932 0.659052
1 0.998932 0.656886
0.0146029 0.0647593 0.328725
0.0408331 0.0612039 0.34049
0.119707 0.0504768 0.376181
0.365591 0.0506447 0.386191
0.581781 0.0630655 0.3991
0.754376 0.140856 0.375448
0.755734 0.141207 0.383047
0.75613 0.141283 0.385275
0.755871 0.141344 0.383642
0.0162661 0.0689555 0.319753
0.0153048 0.0644083 0.324575
0.072755 0.0562142 0.356497
0.345434 0.0491951 0.385885
0.575433 0.062974 0.387823
0.751461 0.140337 0.359915
0.75288 0.140749 0.366415
0.753124 0.140719 0.368261
0.752758 0.140719 0.366537
0.0220951 0.0927901 0.311772
0.0187381 0.0798505 0.314488
0.0260166 0.0662089 0.325963
0.308721 0.0475319 0.385962
0.566629 0.0627146 0.372732
0.745342 0.13695 0.341802
0.747448 0.138674 0.345403
0.748058 0.139376 0.345785
0.747845 0.139605 0.343938
0.0147555 0.233127 0.341787
0.0136416 0.222553 0.342809
0.012314 0.207126 0.346593
0.190112 0.199588 0.389212
0.577035 0.154589 0.399771
0.734524 0.129519 0.318563
0.735363 0.129763 0.321431
0.734936 0.129503 0.320439
0.734295 0.129198 0.31873
0.0668956 0.493919 0.443824
0.0634623 0.491539 0.435004
0.0621042 0.487114 0.426505
0.0586709 0.47657 0.399832
0.526787 0.503395 0.42269
0.905409 0.467597 0.411627
0.914397 0.40441 0.386648
0.898711 0.370092 0.377218
0.890288 0.357565 0.36907
0.225238 0.818875 0.647669
0.221851 0.818357 0.63772
0.218112 0.81648 0.627649
0.209766 0.813367 0.599466
0.267933 0.852049 0.506127
0.822431 0.800595 0.415991
1 0.786252 0.490959
0.998581 0.768582 0.478325
0.996643 0.76257 0.473594
0.38436 0.949432 0.801984
0.384253 0.950286 0.797421
0.3841 0.951202 0.793805
0.383459 0.953399 0.783734
0.383032 0.960128 0.750225
0.684657 0.998932 0.658351
0.987579 0.987518 0.6121
1 0.981704 0.604562
1 0.979004 0.595422
0.384833 0.949111 0.805005
0.38436 0.949233 0.80119
0.384283 0.95024 0.797635
0.383551 0.952148 0.789029
0.382849 0.959152 0.755215
0.539361 0.998932 0.665385
0.948333 0.998932 0.672801
1 0.998932 0.70193
1 0.998932 0.699046
0.385183 0.949264 0.807614
0.384451 0.948638 0.803296
0.384375 0.949722 0.799603
0.383658 0.951766 0.790784
0.382879 0.958938 0.756542
0.5084 0.998932 0.664515
0.937026 0.998932 0.669688
1 0.998932 0.699535
1 0.998932 0.696651
0 0.105852 0.492958
0 0.104311 0.493523
0.0498207 0.0957351 0.513573
0.240269 0.0694591 0.579522
0.595117 0.0943313 0.593362
0.720821 0.12134 0.547494
0.721431 0.12398 0.556466
0.72134 0.124636 0.558892
0.721141 0.123659 0.556435
0 0.105119 0.491493
0 0.104784 0.489982
0.00860609 0.100389 0.496574
0.201648 0.070985 0.570901
0.587518 0.0917372 0.591623
0.720745 0.119799 0.541466
0.721019 0.121736 0.548562
0.720974 0.121828 0.549462
0.721035 0.121157 0.547402
0 0.110033 0.480293
0 0.105257 0.485786
0 0.103441 0.486946
0.155505 0.0761883 0.558007
0.576928 0.0885939 0.5897
0.722332 0.119463 0.535042
0.720851 0.119417 0.539315
0.720836 0.119509 0.53991
0.721096 0.119112 0.537926
0 0.193881 0.490639
0 0.182986 0.49218
0 0.168795 0.496757
0.073518 0.153979 0.521721
0.553903 0.1066 0.601114
0.722805 0.116274 0.523537
0.730892 0.122774 0.520958
0.731289 0.122881 0.519966
0.73196 0.122896 0.517693
0.030869 0.459815 0.559457
0.0267338 0.454719 0.555627
0.0237736 0.446052 0.554513
0.0171817 0.420096 0.555322
0.456565 0.45301 0.66183
0.911467 0.412222 0.678813
0.929656 0.337102 0.643748
0.91014 0.308644 0.626368
0.901595 0.298116 0.616464
0.213672 0.770123 0.717235
0.209705 0.768887 0.709789
0.205509 0.765103 0.703716
0.197345 0.757565 0.690349
0.240131 0.770077 0.677333
0.787228 0.761791 0.67155
0.98912 0.751507 0.670497
0.989044 0.734203 0.661418
0.988281 0.728161 0.656825
0.386557 0.935347 0.842603
0.386358 0.936721 0.838895
0.38616 0.937835 0.835935
0.385534 0.940017 0.829404
0.377157 0.941466 0.802441
0.637476 0.998932 0.78407
0.970733 0.968795 0.745617
1 0.965148 0.759808
1 0.961807 0.754742
0.386969 0.934112 0.84741
0.386694 0.935225 0.842908
0.386404 0.936416 0.839689
0.385931 0.938964 0.832853
0.384619 0.945571 0.813107
0.469047 0.998932 0.797848
0.921355 0.998932 0.818372
1 0.992493 0.853208
1 0.993469 0.851026
0.386969 0.933989 0.848432
0.386999 0.934401 0.845396
0.386618 0.935439 0.842252
0.386069 0.938247 0.834836
0.384695 0.94519 0.814374
0.465003 0.998932 0.799329
0.905379 0.998932 0.816464
1 0.993317 0.847196
1 0.994736 0.848219
0.0244297 0.195972 0.620661
0.023743 0.194797 0.619593
0.0229648 0.194293 0.618189
0.126558 0.201785 0.678462
0.475654 0.201816 0.793561
0.824094 0.274723 0.801999
0.845106 0.303532 0.840192
0.85098 0.312184 0.851545
0.851713 0.313085 0.851972
0.0236667 0.193759 0.619211
0.0231022 0.192996 0.61825
0.0226902 0.191608 0.61735
0.0912642 0.199924 0.66099
0.456641 0.200336 0.789258
0.820371 0.269474 0.794705
0.837598 0.293065 0.826444
0.842313 0.299687 0.835065
0.842893 0.300221 0.835126
0.020676 0.186587 0.61297
0.0220188 0.18996 0.616053
0.0216983 0.188983 0.615381
0.0500343 0.195895 0.63743
0.431281 0.197711 0.782238
0.814649 0.262806 0.786572
0.828244 0.280537 0.809995
0.831769 0.285191 0.816114
0.832181 0.285161 0.815518
0.0167849 0.209766 0.604547
0.0169528 0.205859 0.606317
0.0187076 0.201862 0.610651
0.0209964 0.196536 0.615045
0.364965 0.189807 0.761822
0.79707 0.246052 0.770077
0.802991 0.247333 0.764935
0.803326 0.247745 0.765499
0.803082 0.246464 0.763104
0.0526589 0.425757 0.660502
0.0503853 0.420264 0.65864
0.0496071 0.4112 0.659312
0.0509957 0.389029 0.665187
0.317174 0.415885 0.782681
0.887007 0.40972 0.887449
0.921019 0.372686 0.855879
0.905272 0.348898 0.836789
0.897749 0.339101 0.826429
0.20238 0.709316 0.766583
0.197787 0.706477 0.7608
0.193408 0.700755 0.757748
0.183032 0.68603 0.75082
0.174563 0.661158 0.753552
0.730266 0.723186 0.876066
0.994858 0.699687 0.900786
0.995361 0.682582 0.896971
0.994644 0.676692 0.893782
0.38674 0.910826 0.88661
0.384421 0.911238 0.881437
0.382315 0.910353 0.878538
0.377188 0.907683 0.872389
0.362676 0.900114 0.854978
0.611734 0.962493 0.896223
0.945556 0.942458 0.894636
0.992721 0.940948 0.903166
0.990951 0.937179 0.897444
0.39498 0.914611 0.896956
0.393881 0.91632 0.893019
0.393378 0.917113 0.890745
0.392477 0.91899 0.885527
0.390188 0.924285 0.871717
0.423407 0.961212 0.884733
0.907118 0.995315 0.938872
0.997772 0.988418 0.960754
0.99855 0.988571 0.959686
0.39498 0.913787 0.898146
0.394339 0.914961 0.896178
0.394003 0.91606 0.89369
0.392874 0.918044 0.888029
0.390356 0.923842 0.872862
0.416312 0.95404 0.87924
0.893126 0.997299 0.936584
0.992172 0.989059 0.958709
0.994736 0.989883 0.963836
0.0467384 0.2598 0.655863
0.0463111 0.259998 0.655528
0.0486 0.261479 0.657755
0.0736553 0.283589 0.68249
0.415351 0.318761 0.859464
0.881971 0.366018 0.91635
0.883467 0.366415 0.91635
0.883543 0.3664 0.916472
0.883314 0.366476 0.916259
0.0466621 0.259831 0.655802
0.0462654 0.260029 0.655497
0.0467689 0.260212 0.65597
0.056199 0.277119 0.666712
0.398169 0.316716 0.853101
0.880598 0.365225 0.91606
0.883467 0.366415 0.91635
0.883436 0.36643 0.916335
0.883055 0.366567 0.916014
0.0471656 0.26128 0.656489
0.0462654 0.260029 0.655497
0.0462654 0.260029 0.655497
0.0525521 0.271763 0.662867
0.373327 0.316152 0.843259
0.873137 0.361791 0.915557
0.883696 0.366339 0.916686
0.88365 0.366354 0.916609
0.883223 0.366506 0.916152
0.0525673 0.289845 0.665797
0.0533761 0.290562 0.666636
0.0507668 0.279179 0.662638
0.0482185 0.261692 0.657481
0.304341 0.314061 0.812863
0.839338 0.350744 0.916259
0.883757 0.366308 0.916777
0.883757 0.366308 0.916777
0.883391 0.366445 0.916304
0.0877394 0.434623 0.705684
0.0880446 0.432456 0.706065
0.0896468 0.430106 0.707759
0.0935683 0.424872 0.711742
0.201572 0.452811 0.805249
0.735622 0.46717 0.968978
0.940841 0.4533 0.970062
0.933471 0.438834 0.96347
0.929351 0.433936 0.959564
0.205081 0.680079 0.790158
0.201999 0.676127 0.787518
0.198718 0.6701 0.785504
0.19205 0.65536 0.782559
0.181781 0.621973 0.78172
0.6318 0.698543 0.936568
0.986221 0.707118 0.989059
0.989639 0.689723 0.991806
0.986572 0.684932 0.988251
0.369055 0.882506 0.901259
0.36669 0.881773 0.897963
0.364462 0.879622 0.896101
0.35848 0.873854 0.891463
0.338796 0.853727 0.878386
0.520058 0.913497 0.954025
0.927108 0.928374 0.964492
0.993072 0.923445 0.976959
0.989502 0.919432 0.972442
0.38291 0.895979 0.91693
0.382788 0.897963 0.914092
0.383948 0.89865 0.913619
0.38674 0.900328 0.912566
0.392248 0.905409 0.909331
0.415534 0.927123 0.919585
0.892744 0.987137 0.977676
0.993088 0.986023 0.986587
0.996094 0.985794 0.987396
0.381552 0.895659 0.916945
0.380575 0.896819 0.914885
0.381003 0.897154 0.914595
0.384573 0.898985 0.913375
0.391943 0.904997 0.909728
0.41384 0.926268 0.917739
0.864881 0.99057 0.978134
0.990677 0.988907 0.989761
1 0.985855 0.999298
0.046479 0.259922 0.655665
0.0462806 0.260029 0.655512
0.0485237 0.261326 0.657649
0.0710307 0.282689 0.680156
0.413153 0.318502 0.858625
0.881392 0.36582 0.916396
0.883467 0.366415 0.91635
0.883482 0.366415 0.91635
0.883497 0.366415 0.916365
0.0466468 0.259846 0.655787
0.0462654 0.260029 0.655497
0.0466468 0.260166 0.655863
0.0557565 0.276509 0.666255
0.395544 0.316609 0.852049
0.880293 0.365087 0.916197
0.883467 0.366415 0.91635
0.883436 0.366445 0.91632
0.883223 0.366506 0.916091
0.0470893 0.260578 0.656291
0.0462654 0.260029 0.655497
0.0462654 0.260029 0.655497
0.0524147 0.271321 0.662684
0.36997 0.316274 0.841962
0.871885 0.361425 0.915557
0.88365 0.366354 0.916594
0.883619 0.366369 0.916548
0.883284 0.366491 0.916197
0.0547799 0.293751 0.668315
0.0519265 0.285176 0.664561
0.0492256 0.273289 0.660334
0.0480964 0.261173 0.657282
0.298558 0.31371 0.810239
0.835019 0.350042 0.916838
0.883696 0.366339 0.916671
0.883711 0.366339 0.916701
0.883375 0.366461 0.916289
0.106188 0.454612 0.723018
0.102724 0.449317 0.719783
0.099855 0.441855 0.717296
0.0921035 0.420676 0.710399
0.191577 0.445289 0.798245
0.723461 0.459998 0.965911
0.937316 0.447013 0.966918
0.929824 0.432898 0.960113
0.925505 0.427237 0.956024
0.211353 0.675624 0.804318
0.208133 0.671229 0.801511
0.205875 0.666087 0.800443
0.198383 0.65185 0.795041
0.182177 0.618784 0.783642
0.605997 0.696284 0.939223
0.982208 0.706523 0.996338
0.985046 0.690532 0.999924
0.982879 0.68545 0.99826
0.358297 0.875898 0.903868
0.355077 0.874052 0.901488
0.352041 0.871199 0.89984
0.342763 0.862211 0.89482
0.317998 0.836088 0.881056
0.446097 0.884321 0.959701
0.886854 0.912718 0.973648
0.988144 0.920638 0.990341
0.987472 0.915587 0.989837
0.381292 0.895567 0.916976
0.380133 0.896666 0.914977
0.380087 0.896712 0.91487
0.380087 0.896712 0.91487
0.380087 0.896712 0.91487
0.393942 0.907927 0.922103
0.85066 0.980484 0.988479
0.990677 0.984436 0.992981
0.998947 0.983261 0.996048
0.380911 0.895933 0.916304
0.380148 0.896666 0.914977
0.380087 0.896712 0.91487
0.380087 0.896712 0.91487
0.380087 0.896712 0.91487
0.39411 0.908049 0.921324
0.799908 0.989334 0.992309
0.988174 0.989868 0.992081
0.996628 0.988373 0.995682
