bundles/resolve-cinematic-luts/Phantom Luts/S5ii LUTs/WB Offset - Green & Warm Boost/S5ii Jamaica V-Log WBO.cube
TITLE "Generated by Resolve"
LUT_3D_SIZE 33
0.00825513 0.0293278 0.00825513
0.00822461 0.0292973 0.00822461
0.00819409 0.0292668 0.00817884
0.0251926 0.029633 0.00807202
0.0536812 0.0299535 0.0081178
0.0840772 0.0298924 0.00827039
0.108659 0.0297704 0.0083772
0.133684 0.0296788 0.00958267
0.16347 0.029633 0.0112001
0.199039 0.0294041 0.0134127
0.240742 0.0291905 0.016846
0.289937 0.0288243 0.0195163
0.344884 0.0290532 0.0235904
0.399893 0.0301976 0.0292668
0.45452 0.031693 0.0405432
0.50338 0.0329747 0.053315
0.542702 0.0354314 0.0717021
0.566064 0.0355993 0.0798962
0.59147 0.0420844 0.101427
0.64065 0.063447 0.169879
0.649058 0.068574 0.184482
0.649912 0.0688182 0.186465
0.650706 0.0690471 0.18822
0.651316 0.0692607 0.189502
0.651881 0.0694438 0.190814
0.652323 0.0695811 0.191821
0.652689 0.069688 0.192615
0.652949 0.0697642 0.19324
0.653162 0.0698405 0.193698
0.6533 0.0698863 0.193957
0.653391 0.0699168 0.194064
0.653437 0.0699626 0.193973
0.653407 0.0699779 0.193729
0.00817884 0.0292668 0.00817884
0.00820935 0.0292821 0.00820935
0.00819409 0.0292668 0.00817884
0.01738 0.0295109 0.00808728
0.0420081 0.0301518 0.00813306
0.072221 0.0304112 0.0080415
0.0995193 0.0303349 0.00842298
0.125841 0.0301823 0.009308
0.156939 0.0296483 0.0105745
0.193454 0.0295262 0.0130617
0.235767 0.0292363 0.0164645
0.28603 0.0290074 0.0196078
0.341436 0.0288243 0.0225223
0.395758 0.0284581 0.0230716
0.448051 0.0287022 0.0280156
0.495308 0.0293736 0.0377508
0.534722 0.0309453 0.0558633
0.573571 0.0370184 0.0901808
0.578683 0.0363012 0.0825971
0.635691 0.0618448 0.159228
0.647181 0.0681468 0.180011
0.647974 0.0682689 0.182025
0.648615 0.0684367 0.183536
0.649287 0.0686351 0.185046
0.649882 0.0688029 0.186389
0.650355 0.0689403 0.187442
0.650721 0.0690471 0.188251
0.65095 0.0691539 0.188708
0.651148 0.0692302 0.189105
0.651286 0.069276 0.189349
0.651377 0.0693065 0.189471
0.651392 0.069337 0.189364
0.651377 0.0693523 0.189136
0.00819409 0.0292668 0.00817884
0.00820935 0.0292821 0.00820935
0.00819409 0.0292668 0.00817884
0.00828565 0.0291905 0.00805676
0.0276188 0.0307927 0.00865187
0.0564279 0.032105 0.00909438
0.0855116 0.032517 0.00906386
0.114687 0.0323491 0.00929274
0.14786 0.0308995 0.010132
0.186191 0.0301823 0.0121004
0.229984 0.0293584 0.0155184
0.281376 0.0289921 0.0193484
0.337575 0.0287785 0.0222629
0.393668 0.02916 0.025452
0.447486 0.0296025 0.0317235
0.496071 0.0305943 0.0423438
0.533425 0.031342 0.0555123
0.56524 0.0339818 0.0755169
0.586023 0.038941 0.0914778
0.622568 0.0562142 0.13611
0.64271 0.0665904 0.170306
0.645029 0.0674449 0.175235
0.646464 0.0679484 0.178347
0.647334 0.0681773 0.180377
0.647852 0.0682689 0.181689
0.648203 0.0683299 0.182574
0.648539 0.0684062 0.183368
0.648814 0.0684977 0.183993
0.649027 0.0685588 0.184405
0.649149 0.0686046 0.184634
0.649256 0.0686503 0.184771
0.649287 0.0686809 0.18468
0.649271 0.0686961 0.184451
0.0083772 0.0312657 0.0100404
0.0083772 0.0305486 0.00820935
0.00907912 0.0302434 0.00848402
0.00956741 0.030045 0.00831617
0.0200198 0.0315251 0.00889601
0.0411536 0.0343481 0.00967422
0.0686503 0.0358587 0.0107729
0.0994125 0.0362707 0.010956
0.133669 0.035584 0.0109865
0.174823 0.0332341 0.0108034
0.222446 0.0309453 0.0139162
0.275517 0.0294499 0.0180819
0.33312 0.0288243 0.021912
0.390326 0.0291142 0.0251469
0.444755 0.0295872 0.0312963
0.494408 0.0305638 0.0418708
0.533272 0.0315862 0.0563973
0.565469 0.0343938 0.0774395
0.585321 0.0387121 0.09131
0.618402 0.0543221 0.130404
0.635355 0.0635386 0.155413
0.637461 0.0645151 0.159457
0.640681 0.0658274 0.166033
0.642863 0.0666514 0.170657
0.64445 0.0672465 0.173999
0.645502 0.067628 0.176242
0.646189 0.0678721 0.177691
0.646662 0.0680247 0.178729
0.646998 0.0681315 0.179461
0.64715 0.0681621 0.179828
0.647257 0.0681926 0.180026
0.647303 0.0682231 0.17998
0.647272 0.0682383 0.179767
0.00952163 0.0471962 0.0172274
0.00936904 0.0453346 0.012192
0.0104677 0.0430457 0.0117494
0.0167697 0.0397192 0.00991836
0.0211185 0.0376287 0.00988785
0.0343328 0.0396887 0.0112917
0.0551766 0.0407416 0.0124514
0.0840467 0.0402228 0.0124819
0.120348 0.0394141 0.0131991
0.162585 0.0379797 0.0125429
0.211963 0.035111 0.0121767
0.267567 0.0317998 0.0157015
0.328283 0.0295109 0.0199435
0.386847 0.029099 0.0248112
0.442069 0.0295567 0.0309148
0.492592 0.030518 0.0413367
0.532006 0.0315709 0.055848
0.564401 0.034226 0.0764935
0.585214 0.0386511 0.0915847
0.618204 0.0539559 0.130632
0.636744 0.0639658 0.158389
0.635843 0.0636301 0.156512
0.635355 0.0634928 0.155474
0.635157 0.063447 0.155001
0.636088 0.0638895 0.156771
0.638376 0.0649119 0.161227
0.639918 0.0655222 0.164218
0.640818 0.0658427 0.166354
0.641566 0.0661326 0.167971
0.64213 0.0663462 0.169085
0.642481 0.0664988 0.169757
0.642664 0.0666209 0.16997
0.642725 0.0666819 0.169879
0.0101778 0.0664988 0.0261234
0.00994888 0.0639353 0.0190585
0.0101167 0.0613718 0.01738
0.021561 0.0568246 0.0142672
0.0317235 0.0521401 0.0130007
0.0430762 0.0522774 0.0128328
0.0602884 0.0544289 0.0154726
0.0874342 0.0547799 0.0192111
0.121935 0.0523995 0.0212253
0.15967 0.0484321 0.0181888
0.204639 0.0422217 0.0158999
0.259113 0.0366369 0.0141146
0.322423 0.0324712 0.0175174
0.383902 0.030045 0.0224613
0.439994 0.0295872 0.0303655
0.490639 0.0304723 0.0408484
0.530877 0.0315557 0.0553292
0.563333 0.0341039 0.0755932
0.585199 0.0386053 0.0920272
0.615732 0.0525826 0.127398
0.6374 0.064271 0.15964
0.6374 0.064271 0.159655
0.6374 0.064271 0.159655
0.637095 0.0641337 0.159075
0.636378 0.0638132 0.157687
0.636011 0.0636759 0.156893
0.635767 0.0636301 0.156329
0.635569 0.0635538 0.155917
0.635447 0.0635233 0.155642
0.635355 0.063508 0.155398
0.635264 0.0634775 0.155123
0.635157 0.0634928 0.154757
0.635096 0.063508 0.154498
0.00994888 0.0904097 0.0301213
0.0100099 0.0879225 0.0227207
0.0100557 0.0845502 0.0216831
0.0182345 0.0797284 0.0199741
0.0340734 0.0731212 0.0170748
0.0511788 0.0687114 0.0162966
0.0666514 0.0707866 0.0154116
0.0908675 0.0736095 0.0177462
0.123095 0.0729381 0.024033
0.168521 0.0662699 0.0295262
0.213764 0.0598917 0.0259251
0.26392 0.0510109 0.0213474
0.318944 0.038407 0.0182193
0.380636 0.0333104 0.0201724
0.437598 0.030396 0.0287022
0.488853 0.0304417 0.0402686
0.529656 0.0315557 0.0548867
0.562264 0.0339818 0.0747082
0.585245 0.0385595 0.0925154
0.613062 0.0511025 0.124056
0.637369 0.064271 0.159503
0.637369 0.064271 0.159518
0.637369 0.064271 0.159518
0.637369 0.064271 0.159518
0.637369 0.064271 0.159533
0.637369 0.064271 0.159533
0.637369 0.064271 0.159533
0.637369 0.064271 0.159533
0.637369 0.064271 0.159518
0.637354 0.064271 0.159472
0.637339 0.0642863 0.15938
0.637293 0.0642863 0.159213
0.637263 0.0642863 0.15903
0.0103304 0.117845 0.035111
0.00981155 0.115358 0.0251774
0.0102541 0.112505 0.0226902
0.012314 0.109453 0.0236362
0.0326543 0.103532 0.020737
0.05243 0.0958267 0.0181582
0.0743877 0.0939193 0.0181582
0.0957504 0.0975967 0.0161898
0.125246 0.10074 0.0175784
0.168658 0.0974441 0.0291447
0.222156 0.0870222 0.0344701
0.282582 0.0742809 0.0353246
0.334386 0.0627909 0.0286107
0.384634 0.0464942 0.0232853
0.436576 0.0347295 0.0264286
0.486625 0.0305791 0.0392615
0.528572 0.0315251 0.0544442
0.561135 0.0338293 0.0737774
0.585245 0.038468 0.0930953
0.609812 0.0492256 0.120134
0.637354 0.064271 0.159487
0.637354 0.064271 0.159487
0.637354 0.064271 0.159487
0.637354 0.064271 0.159487
0.637354 0.064271 0.159487
0.637354 0.064271 0.159487
0.637354 0.064271 0.159487
0.637354 0.064271 0.159487
0.637354 0.064271 0.159487
0.637354 0.064271 0.159457
0.637339 0.0642863 0.15938
0.637293 0.0642863 0.159213
0.637263 0.0642863 0.15903
0.00889601 0.150958 0.0417945
0.0080415 0.148592 0.0299229
0.0101167 0.145953 0.0216526
0.00987259 0.143343 0.0235752
0.021561 0.139452 0.0222782
0.0458686 0.132967 0.0191196
0.074403 0.125551 0.0187533
0.101808 0.124727 0.0188449
0.127596 0.128527 0.0146181
0.166766 0.131991 0.0154116
0.223789 0.125643 0.0327153
0.286442 0.112474 0.0389258
0.357275 0.0936141 0.0424811
0.406928 0.0787366 0.0386053
0.451072 0.0580148 0.0329442
0.487678 0.036408 0.0349432
0.526619 0.0317082 0.0533303
0.559396 0.0335851 0.0725261
0.585443 0.0386816 0.0938277
0.606226 0.0472877 0.11574
0.637354 0.064271 0.159487
0.637354 0.064271 0.159487
0.637354 0.064271 0.159487
0.637354 0.064271 0.159487
0.637354 0.064271 0.159487
0.637369 0.064271 0.159487
0.637369 0.064271 0.159487
0.637369 0.064271 0.159487
0.637369 0.064271 0.159487
0.637354 0.064271 0.159457
0.637339 0.064271 0.15938
0.637293 0.0642863 0.159213
0.637263 0.0642863 0.15903
0.00703441 0.190402 0.0514229
0.00688182 0.188449 0.037583
0.00860609 0.186282 0.0238346
0.0102846 0.184009 0.0190585
0.00936904 0.181491 0.0214389
0.0267185 0.177111 0.0191501
0.0580148 0.170306 0.0143435
0.0995651 0.162509 0.0157778
0.132601 0.162371 0.0158694
0.166476 0.166827 0.0106355
0.217075 0.16936 0.0115663
0.287953 0.160586 0.0356146
0.358999 0.144427 0.0449226
0.431113 0.12192 0.0509804
0.481636 0.101976 0.0509499
0.515938 0.0760815 0.0466926
0.535012 0.0424506 0.0425422
0.558343 0.0340887 0.0671702
0.58555 0.038941 0.0944381
0.601846 0.0450904 0.11017
0.637354 0.064271 0.159487
0.637354 0.064271 0.159487
0.637354 0.064271 0.159487
0.637354 0.064271 0.159487
0.637354 0.064271 0.159487
0.637354 0.064271 0.159487
0.637354 0.064271 0.159487
0.637354 0.064271 0.159487
0.637354 0.064271 0.159487
0.637354 0.064271 0.159457
0.637339 0.0642863 0.15938
0.637293 0.0642863 0.159213
0.637263 0.0642863 0.15903
0.0027924 0.236683 0.0649119
0.00471504 0.234913 0.0500954
0.00782788 0.23238 0.0348974
0.0132906 0.229923 0.0200656
0.0135042 0.227878 0.0182498
0.0123293 0.225742 0.0201267
0.0324407 0.22211 0.0161135
0.071931 0.215045 0.00910964
0.125246 0.206744 0.0118563
0.16759 0.20647 0.0121157
0.212131 0.211398 0.00737011
0.277272 0.213458 0.00981155
0.359213 0.203754 0.040589
0.434073 0.185565 0.0542306
0.504448 0.161791 0.0645304
0.553811 0.135561 0.0696117
0.576898 0.108141 0.0659037
0.580362 0.0595254 0.0599069
0.586557 0.0411688 0.0835737
0.593057 0.0416114 0.0971389
0.637369 0.064271 0.159487
0.637354 0.064271 0.159487
0.637354 0.064271 0.159487
0.637354 0.064271 0.159487
0.637354 0.064271 0.159487
0.637354 0.064271 0.159487
0.637354 0.064271 0.159487
0.637354 0.064271 0.159487
0.637354 0.064271 0.159487
0.637354 0.064271 0.159457
0.637339 0.0642863 0.15938
0.637293 0.0642863 0.159213
0.637263 0.0642863 0.15903
0 0.290028 0.0820935
0.00077821 0.288319 0.0688945
0.00311284 0.285924 0.0540932
0.00961318 0.283482 0.0362249
0.0178683 0.281025 0.0197604
0.017792 0.279286 0.0187228
0.0161746 0.278004 0.0209354
0.0371252 0.274434 0.0128176
0.0883955 0.266545 0.0027924
0.155291 0.257206 0.00866712
0.209689 0.257023 0.00889601
0.266148 0.262745 0.00787366
0.345006 0.265003 0.0101778
0.431586 0.25565 0.0452583
0.50724 0.238254 0.0677653
0.574655 0.212161 0.0827802
0.623499 0.18146 0.0960098
0.637095 0.153948 0.0935531
0.624231 0.0925917 0.0862898
0.605737 0.0550851 0.100053
0.61416 0.0520943 0.123522
0.632334 0.06215 0.149477
0.636362 0.063859 0.157443
0.637369 0.064271 0.159472
0.637369 0.064271 0.159487
0.637369 0.064271 0.159487
0.637354 0.064271 0.159487
0.637354 0.064271 0.159487
0.637354 0.064271 0.159487
0.637354 0.064271 0.159457
0.637339 0.0642863 0.15938
0.637293 0.0642863 0.159213
0.637263 0.0642863 0.15903
0 0.34818 0.103044
0.00187686 0.346792 0.0910353
0.004654 0.34493 0.0785229
0.0077821 0.343618 0.0658122
0.016022 0.342229 0.0472725
0.0255436 0.340032 0.0288853
0.0282139 0.338201 0.0228428
0.0248722 0.336263 0.0273594
0.0458076 0.332296 0.0140841
0.110826 0.324559 0
0.192584 0.314977 0.00694286
0.259892 0.315587 0.00691234
0.328969 0.322759 0.00967422
0.414389 0.324407 0.0146029
0.502968 0.317922 0.049958
0.579751 0.3028 0.0843061
0.644984 0.275517 0.107485
0.690333 0.240482 0.129915
0.698955 0.209766 0.130526
0.669749 0.150011 0.121462
0.621515 0.0701152 0.11075
0.62211 0.06598 0.122087
0.621195 0.0593576 0.130968
0.610147 0.0513924 0.115267
0.627955 0.0601968 0.141405
0.630396 0.0613107 0.145754
0.632151 0.0620737 0.149065
0.633875 0.0628824 0.152255
0.634989 0.0633402 0.154452
0.635599 0.0635843 0.155795
0.63624 0.0638437 0.157107
0.63682 0.0640879 0.15819
0.637003 0.0641947 0.158495
0.00132753 0.409293 0.133181
0.00747692 0.40853 0.12134
0.0127871 0.407446 0.10956
0.0168765 0.40679 0.0982986
0.0202487 0.405707 0.0872816
0.0267185 0.404562 0.0719158
0.037995 0.40296 0.0501411
0.0423133 0.401404 0.0411536
0.0392767 0.399313 0.0444343
0.0613107 0.394751 0.021912
0.14081 0.386938 0.00157168
0.237812 0.375677 0.0101778
0.318273 0.377569 0.0101778
0.395315 0.385794 0.0143893
0.485206 0.388251 0.0230869
0.572381 0.386282 0.0584726
0.652873 0.374121 0.105333
0.713191 0.349813 0.139452
0.758465 0.313191 0.170153
0.756756 0.276326 0.177249
0.722423 0.216907 0.164431
0.689738 0.169223 0.143771
0.658808 0.123476 0.125551
0.631785 0.0861372 0.108232
0.621607 0.0718242 0.106477
0.621927 0.0698253 0.112993
0.621744 0.0680858 0.11664
0.621332 0.066453 0.119341
0.622446 0.0650797 0.124575
0.62298 0.0638743 0.127947
0.624308 0.0631723 0.132418
0.625177 0.0625925 0.135546
0.62504 0.0621958 0.135851
0.0102693 0.476127 0.176547
0.0171054 0.475914 0.165576
0.0239414 0.475929 0.154376
0.0304723 0.475059 0.142885
0.0362554 0.47422 0.130983
0.0410773 0.473457 0.120531
0.0471199 0.472953 0.108598
0.0580911 0.472786 0.0884413
0.0654154 0.471244 0.0745098
0.0630961 0.468711 0.0751812
0.0893873 0.461799 0.041001
0.178988 0.454246 0.0111696
0.293721 0.441505 0.021088
0.385168 0.445045 0.0192569
0.466972 0.4533 0.0249027
0.555062 0.455909 0.0391241
0.639658 0.456916 0.0773175
0.722927 0.447242 0.137285
0.780041 0.430808 0.177066
0.818998 0.391455 0.214252
0.812863 0.348959 0.224521
0.793606 0.320485 0.21207
0.77702 0.295918 0.200931
0.760586 0.27129 0.190311
0.746242 0.249805 0.181216
0.734722 0.232929 0.1738
0.724056 0.21767 0.166751
0.715236 0.20502 0.161013
0.70808 0.194659 0.156497
0.702266 0.186297 0.152865
0.697734 0.179858 0.149996
0.695048 0.175891 0.148425
0.692561 0.172457 0.146838
0.0255131 0.547845 0.234623
0.0301213 0.548669 0.225101
0.0377966 0.54873 0.213931
0.0451972 0.548363 0.20293
0.0525368 0.548119 0.19144
0.0598764 0.547906 0.180026
0.0667887 0.548363 0.170382
0.0746319 0.54873 0.15845
0.0885176 0.548608 0.13695
0.099321 0.54667 0.117952
0.0969558 0.543404 0.116793
0.128222 0.535134 0.0713664
0.22797 0.527916 0.0347295
0.361547 0.513268 0.0399634
0.456825 0.515755 0.038468
0.537957 0.521767 0.0449989
0.621698 0.524041 0.0671702
0.702373 0.527459 0.110674
0.789563 0.521599 0.179065
0.837461 0.511482 0.216327
0.868177 0.470665 0.252598
0.864012 0.434669 0.258518
0.854673 0.415686 0.2533
0.846647 0.400473 0.248798
0.838422 0.386267 0.243717
0.831006 0.374426 0.238849
0.824582 0.364675 0.23444
0.819455 0.356817 0.230976
0.815061 0.350423 0.227909
0.812238 0.346654 0.225788
0.809339 0.342306 0.22388
0.806668 0.338689 0.221897
0.804639 0.335836 0.220447
0.0500801 0.62034 0.30631
0.0510567 0.621088 0.298039
0.0551308 0.622156 0.288258
0.0608682 0.622904 0.277913
0.0698558 0.623987 0.267033
0.0780499 0.625147 0.257023
0.0863355 0.625727 0.246433
0.0960555 0.626657 0.234485
0.106874 0.62742 0.22005
0.124681 0.628489 0.195514
0.137224 0.627115 0.176135
0.135012 0.62359 0.173404
0.17879 0.613306 0.109239
0.292531 0.605386 0.0705272
0.437064 0.587304 0.0693828
0.530465 0.586572 0.0696574
0.607965 0.590082 0.0807813
0.68629 0.592615 0.113756
0.763333 0.597284 0.16112
0.843336 0.59527 0.225742
0.879927 0.589715 0.258045
0.902373 0.559213 0.280278
0.899336 0.541344 0.277958
0.896101 0.524971 0.27599
0.892592 0.511223 0.273945
0.889143 0.499962 0.271916
0.88603 0.490394 0.270191
0.883635 0.483497 0.268864
0.881804 0.478935 0.267765
0.880095 0.474647 0.266804
0.878767 0.471397 0.266087
0.877272 0.468696 0.26508
0.875959 0.466529 0.264073
0.095201 0.69247 0.385122
0.0939193 0.692622 0.378805
0.0925612 0.692454 0.371054
0.0913863 0.69221 0.363485
0.0936904 0.693462 0.355108
0.098436 0.695033 0.345357
0.104295 0.696696 0.335622
0.113008 0.698665 0.32372
0.126986 0.701854 0.308812
0.143023 0.704707 0.289738
0.163928 0.707759 0.26305
0.171878 0.705898 0.248463
0.174807 0.701869 0.23859
0.243717 0.692668 0.152468
0.370459 0.682628 0.116777
0.517266 0.659892 0.110842
0.60322 0.655833 0.115251
0.674861 0.656489 0.133562
0.74696 0.658671 0.171267
0.816556 0.66421 0.22121
0.881163 0.666133 0.27306
0.908263 0.663828 0.296681
0.912261 0.651621 0.298009
0.911528 0.640757 0.295399
0.910735 0.631006 0.293156
0.909957 0.622293 0.291234
0.909529 0.615808 0.290044
0.908705 0.609995 0.28864
0.908248 0.605722 0.287816
0.907576 0.602152 0.286915
0.907027 0.599084 0.286229
0.906218 0.59678 0.285374
0.905638 0.595865 0.284779
0.147982 0.762539 0.466865
0.147311 0.762661 0.462043
0.146487 0.762585 0.456519
0.146029 0.762737 0.451026
0.145129 0.762341 0.444938
0.144244 0.761898 0.438422
0.143709 0.761532 0.431815
0.144549 0.761913 0.423606
0.151369 0.765545 0.412116
0.163256 0.770123 0.394369
0.18497 0.776989 0.369085
0.206882 0.781582 0.341924
0.208408 0.778943 0.333257
0.22652 0.775982 0.302663
0.321584 0.771847 0.210529
0.463905 0.755795 0.175174
0.596002 0.729747 0.164965
0.672908 0.722454 0.172442
0.738613 0.721172 0.197131
0.803983 0.723705 0.236866
0.862089 0.729183 0.280308
0.908095 0.733486 0.317281
0.924346 0.730816 0.329335
0.922927 0.723659 0.32578
0.921721 0.717128 0.322683
0.920638 0.712062 0.320241
0.919676 0.707866 0.318181
0.91899 0.703868 0.316472
0.918425 0.700633 0.315129
0.917632 0.698268 0.313954
0.917021 0.696239 0.313069
0.916533 0.695064 0.312551
0.916304 0.694072 0.312215
0.210742 0.826185 0.550927
0.21088 0.826581 0.547967
0.210391 0.826429 0.543481
0.209873 0.826215 0.538857
0.209323 0.82591 0.534264
0.208774 0.825589 0.529351
0.208362 0.825345 0.524498
0.208515 0.825559 0.519371
0.208408 0.825452 0.511666
0.208484 0.82533 0.501228
0.214603 0.829816 0.484047
0.231235 0.839567 0.457694
0.250462 0.846693 0.431312
0.251255 0.844755 0.424277
0.288685 0.845869 0.368261
0.413382 0.848234 0.276875
0.56051 0.823407 0.240543
0.671611 0.797787 0.230503
0.739574 0.787366 0.239689
0.798825 0.784436 0.266178
0.85275 0.786801 0.300816
0.900374 0.791989 0.337133
0.934707 0.797101 0.365591
0.938262 0.792401 0.366079
0.93669 0.78674 0.362158
0.935576 0.782238 0.359152
0.934432 0.777951 0.356283
0.933486 0.774731 0.354147
0.932647 0.771862 0.352285
0.931945 0.770047 0.351095
0.931487 0.768811 0.350423
0.930922 0.767407 0.349569
0.9308 0.766644 0.349203
0.270039 0.8757 0.628244
0.269841 0.875776 0.625559
0.269474 0.875807 0.622263
0.269215 0.875746 0.618906
0.268803 0.875624 0.615366
0.268315 0.875456 0.611872
0.268208 0.875547 0.608774
0.26775 0.875395 0.604669
0.267277 0.875288 0.599115
0.267018 0.87541 0.591775
0.266972 0.875639 0.58146
0.267643 0.876219 0.566995
0.277806 0.884474 0.542641
0.283467 0.888258 0.527535
0.289158 0.890944 0.511223
0.353262 0.906752 0.426215
0.503212 0.914763 0.351034
0.646372 0.879652 0.310719
0.738247 0.85713 0.302983
0.79939 0.847974 0.31281
0.855528 0.845869 0.3393
0.897612 0.848478 0.366827
0.9337 0.853712 0.393759
0.955383 0.858213 0.41088
0.954986 0.853605 0.408515
0.953643 0.849302 0.40557
0.952758 0.845716 0.40322
0.952163 0.842802 0.401434
0.951385 0.840497 0.399817
0.950805 0.838666 0.398672
0.950301 0.837079 0.397757
0.950164 0.835889 0.397406
0.950332 0.835096 0.39733
0.319387 0.911711 0.696635
0.318944 0.91162 0.694484
0.318486 0.911589 0.691768
0.318059 0.91162 0.688914
0.317861 0.911757 0.68661
0.317464 0.911772 0.683986
0.31696 0.911665 0.681468
0.316396 0.911604 0.678203
0.315785 0.911574 0.674281
0.315358 0.911849 0.669123
0.315312 0.912581 0.662562
0.315053 0.913283 0.652705
0.314885 0.914137 0.638025
0.314427 0.914382 0.621012
0.31194 0.912566 0.612543
0.329366 0.926314 0.57612
0.420096 0.958572 0.487022
0.585184 0.966201 0.423392
0.715618 0.927687 0.384741
0.795682 0.908034 0.378317
0.8542 0.900954 0.384421
0.90518 0.899123 0.403922
0.941299 0.901213 0.424445
0.963928 0.907195 0.441291
0.971405 0.907347 0.446021
0.970504 0.903944 0.44361
0.969863 0.901274 0.441779
0.968994 0.899138 0.440116
0.968154 0.897231 0.438575
0.967208 0.895766 0.437232
0.966583 0.89453 0.436225
0.966171 0.893477 0.435538
0.966201 0.892805 0.435431
0.358862 0.937133 0.753063
0.358419 0.936919 0.751476
0.357931 0.936873 0.749187
0.357733 0.937057 0.747387
0.357473 0.937224 0.745449
0.357092 0.937285 0.74342
0.35668 0.937301 0.741558
0.356222 0.937301 0.739437
0.355657 0.937362 0.736584
0.355261 0.937667 0.733181
0.354665 0.938079 0.728161
0.354208 0.938857 0.721477
0.353643 0.939818 0.712032
0.353048 0.9411 0.698146
0.351293 0.940612 0.688869
0.347723 0.938811 0.676417
0.369299 0.95761 0.62948
0.478721 0.998932 0.551034
0.654429 0.998932 0.498604
0.77052 0.970825 0.464134
0.844846 0.951507 0.457465
0.899336 0.945296 0.458412
0.944289 0.943389 0.468727
0.973709 0.944305 0.48101
0.988449 0.947402 0.488899
0.989563 0.945754 0.486839
0.988388 0.943648 0.483787
0.986847 0.941909 0.480919
0.98584 0.940597 0.478813
0.984878 0.939651 0.477028
0.984054 0.938766 0.475486
0.983612 0.937987 0.474067
0.98378 0.937682 0.473457
0.376287 0.946746 0.781918
0.375921 0.946441 0.780713
0.375738 0.946563 0.779034
0.375769 0.946944 0.777676
0.375814 0.947265 0.776532
0.375769 0.947555 0.775219
0.375723 0.947784 0.774121
0.375631 0.948043 0.772778
0.375525 0.948302 0.771298
0.375372 0.948714 0.769009
0.37525 0.949325 0.766049
0.375174 0.950225 0.761913
0.375219 0.951522 0.756329
0.375174 0.953079 0.748363
0.374884 0.954131 0.741161
0.373526 0.953826 0.735836
0.371817 0.955398 0.713451
0.399145 0.981048 0.66453
0.531991 0.998932 0.604044
0.715923 0.998932 0.574945
0.819974 0.998932 0.551766
0.88957 0.981582 0.542565
0.936996 0.976806 0.539162
0.974533 0.975174 0.54287
0.998596 0.975555 0.550134
1 0.974701 0.550423
1 0.97322 0.545876
1 0.971847 0.541558
1 0.970901 0.538262
1 0.970214 0.535714
1 0.969741 0.534005
1 0.969162 0.532341
1 0.968643 0.531289
0.376394 0.946273 0.784085
0.376013 0.946029 0.782589
0.37583 0.946059 0.781277
0.37586 0.94641 0.780011
0.375891 0.946807 0.778607
0.375875 0.947097 0.777447
0.375845 0.947341 0.776349
0.375784 0.947555 0.775265
0.375692 0.94789 0.773587
0.37554 0.948257 0.771588
0.375357 0.948806 0.768551
0.375189 0.949584 0.764645
0.375051 0.950713 0.759182
0.375051 0.952331 0.751446
0.375128 0.953841 0.743893
0.375372 0.954681 0.740505
0.377188 0.956924 0.737011
0.387778 0.96907 0.71751
0.443076 0.998932 0.682567
0.61651 0.998932 0.650721
0.768963 0.998932 0.634989
0.861753 0.998932 0.623316
0.927382 0.995499 0.623407
0.965591 0.993545 0.621729
0.994125 0.992996 0.625834
1 0.992142 0.630701
1 0.991226 0.626535
1 0.990494 0.62121
1 0.989929 0.616571
1 0.989593 0.613352
1 0.989273 0.61062
1 0.988952 0.608743
1 0.988678 0.608057
0.376715 0.946303 0.785
0.376303 0.945953 0.78381
0.376043 0.945907 0.78262
0.375982 0.946105 0.781552
0.375952 0.946365 0.780453
0.375952 0.946654 0.779355
0.375921 0.946929 0.77821
0.375875 0.947188 0.777081
0.375814 0.947478 0.775647
0.375677 0.947921 0.773434
0.375494 0.948425 0.770687
0.375219 0.949142 0.766598
0.37499 0.950179 0.761227
0.374884 0.951614 0.753994
0.374899 0.953399 0.744854
0.375128 0.954467 0.740185
0.376608 0.956115 0.738735
0.383597 0.964569 0.724147
0.420386 0.998871 0.688151
0.563684 0.998932 0.653437
0.735607 0.998932 0.648295
0.828168 0.998932 0.647913
0.90341 0.998932 0.652399
0.953201 0.995148 0.662562
0.983047 0.995895 0.673167
1 0.996933 0.687999
1 0.996841 0.692164
1 0.996979 0.689754
1 0.997162 0.687465
1 0.997391 0.685817
1 0.997543 0.684443
1 0.997604 0.683665
1 0.997589 0.683406
0.376944 0.946288 0.785931
0.376593 0.946014 0.784817
0.376303 0.945846 0.783795
0.376135 0.945953 0.782696
0.376043 0.94612 0.781704
0.376028 0.946365 0.780667
0.375982 0.946578 0.779751
0.375921 0.946853 0.778515
0.375875 0.947188 0.777066
0.375769 0.947601 0.775051
0.375586 0.948135 0.772259
0.375341 0.948806 0.76849
0.375021 0.949767 0.763043
0.374807 0.951125 0.75584
0.374609 0.952972 0.74548
0.374792 0.954147 0.739986
0.375875 0.955291 0.739376
