bundles/resolve-cinematic-luts/Phantom Luts/S5ii LUTs/WB Offset - Green & Warm Boost/S5ii Jamaica V-Log WBO.cube
TITLE "Generated by Resolve"
LUT_3D_SIZE 5
0.00825513 0.0293278 0.00825513
0.16347 0.029633 0.0112001
0.542702 0.0354314 0.0717021
0.651881 0.0694438 0.190814
0.653407 0.0699779 0.193729
0.00889601 0.150958 0.0417945
0.127596 0.128527 0.0146181
0.526619 0.0317082 0.0533303
0.637354 0.064271 0.159487
0.637263 0.0642863 0.15903
0.0500801 0.62034 0.30631
0.106874 0.62742 0.22005
0.607965 0.590082 0.0807813
0.892592 0.511223 0.273945
0.875959 0.466529 0.264073
0.376394 0.946273 0.784085
0.375692 0.94789 0.773587
0.377188 0.956924 0.737011
0.994125 0.992996 0.625834
1 0.988678 0.608057
0.377722 0.946731 0.789441
0.376059 0.946258 0.781613
0.373846 0.953216 0.740124
0.963958 0.994568 0.665492
1 0.997772 0.695277
0.00939956 0.0338293 0.0885786
0.17525 0.0376898 0.113497
0.586435 0.0461433 0.162081
0.671565 0.0777447 0.231617
0.673625 0.0790417 0.234745
0.0270237 0.131014 0.118166
0.105715 0.113664 0.0903944
0.538598 0.0444495 0.0861067
0.652964 0.06981 0.192996
0.653758 0.0700999 0.194415
0.0559091 0.604837 0.358862
0.0416571 0.605676 0.290303
0.603494 0.583902 0.076997
0.88867 0.498268 0.271672
0.871229 0.454917 0.261524
0.376806 0.94461 0.791028
0.376089 0.94612 0.781811
0.375998 0.955367 0.739834
0.992233 0.99173 0.616922
1 0.986786 0.596078
0.377874 0.944793 0.796048
0.37641 0.944381 0.789349
0.373846 0.953216 0.740124
0.959182 0.994629 0.664347
1 0.997894 0.695155
0 0.0637522 0.379873
0.147402 0.0442054 0.436744
0.618647 0.0650187 0.460349
0.744625 0.126299 0.45211
0.744595 0.126177 0.452338
0 0.106249 0.364111
0.00953689 0.0662699 0.377829
0.605432 0.0602731 0.43801
0.747753 0.129366 0.41767
0.747936 0.129473 0.417319
0.0740826 0.555795 0.510155
0.0673075 0.54905 0.492531
0.5832 0.560723 0.479408
0.944472 0.459556 0.4365
0.926162 0.414008 0.420905
0.379446 0.936934 0.820157
0.37882 0.938903 0.812589
0.375616 0.947738 0.773922
0.987335 0.983917 0.650019
1 0.976394 0.633906
0.380041 0.936629 0.824552
0.379339 0.937514 0.81767
0.375677 0.946288 0.77995
0.944427 0.994278 0.706813
1 0.996155 0.735836
0.0398718 0.239094 0.645853
0.0382696 0.237247 0.644022
0.547356 0.252659 0.83946
0.880293 0.346105 0.884718
0.88687 0.356878 0.894835
0.0355688 0.228077 0.639536
0.0366522 0.230625 0.641199
0.502953 0.24831 0.828794
0.862104 0.320958 0.857404
0.866133 0.326253 0.862287
0.082475 0.48333 0.692592
0.0781109 0.468635 0.690196
0.38117 0.478614 0.823896
0.943877 0.419776 0.899123
0.924025 0.385687 0.875685
0.38378 0.905303 0.891142
0.379873 0.905074 0.884077
0.364736 0.896574 0.865599
0.951125 0.946715 0.911406
0.987442 0.94255 0.914427
0.389288 0.907012 0.898619
0.388174 0.909255 0.895521
0.386481 0.915694 0.879942
0.909834 0.990539 0.943801
0.993103 0.989013 0.968963
0.0640574 0.313008 0.678813
0.0656596 0.31426 0.680247
0.482612 0.37705 0.897108
0.914488 0.41236 0.946166
0.914565 0.412314 0.946273
0.0646677 0.313695 0.679423
0.0637827 0.313161 0.678599
0.438285 0.371893 0.882338
0.91487 0.412177 0.946609
0.914199 0.412497 0.945815
0.129076 0.508675 0.741863
0.122545 0.496147 0.736248
0.234928 0.506966 0.832334
0.953994 0.493233 0.981247
0.945739 0.473228 0.974212
0.355718 0.878294 0.902678
0.349889 0.874601 0.898939
0.320409 0.847333 0.884047
0.904601 0.924132 0.972244
0.984344 0.926543 0.98587
0.375341 0.894148 0.912993
0.374441 0.894987 0.911498
0.374441 0.894987 0.911498
0.828519 0.98378 0.986313
0.999359 0.990021 0.998474
