bundles/resolve-cinematic-luts/Phantom Luts/S5ii LUTs/WB Offset - Green & Warm Boost/S5ii IceBlue V-Log WBO.cube
TITLE "Generated by Resolve"
LUT_3D_SIZE 33
0.0280919 0.0407263 0.0388495
0.0280919 0.0407263 0.038819
0.0281376 0.0406958 0.0386969
0.0349584 0.0407111 0.0402991
0.0494087 0.0406653 0.0399176
0.0668345 0.0407416 0.0394141
0.0850843 0.0407721 0.0387732
0.103563 0.0408331 0.0387579
0.126925 0.0406195 0.0384222
0.158053 0.0404974 0.0385901
0.195804 0.040238 0.038941
0.240253 0.0398566 0.0390326
0.292729 0.0398413 0.0392615
0.349996 0.0409705 0.0414588
0.405997 0.0430457 0.0473335
0.45832 0.0451972 0.0574197
0.500252 0.0479896 0.0702525
0.529885 0.0500954 0.0807202
0.552651 0.0517128 0.0881971
0.60116 0.06421 0.127993
0.642802 0.0763409 0.166308
0.649424 0.0783398 0.172717
0.650156 0.078645 0.174319
0.650828 0.0789044 0.17583
0.651408 0.0791028 0.177127
0.651865 0.0793011 0.178042
0.652232 0.0794385 0.178866
0.652628 0.079469 0.180026
0.65301 0.079408 0.181399
0.653666 0.0790875 0.184375
0.654536 0.0785992 0.188403
0.655955 0.0776989 0.195224
0.657435 0.0767376 0.202655
0.0281987 0.04065 0.038529
0.0281376 0.0407111 0.0387121
0.0281071 0.0407263 0.0387884
0.0319066 0.0408179 0.0396887
0.0451514 0.0406043 0.040116
0.0626993 0.0406195 0.0399481
0.0817578 0.0407874 0.039704
0.100633 0.0406958 0.0390631
0.124636 0.0405432 0.0386969
0.157656 0.0405127 0.038819
0.197116 0.0401617 0.0393225
0.243763 0.0398566 0.039765
0.297719 0.0397955 0.0396735
0.353979 0.0402991 0.0400702
0.408606 0.0414588 0.0425879
0.458595 0.0428473 0.0498512
0.498909 0.0451667 0.0624552
0.535988 0.0500801 0.0839246
0.550866 0.0497139 0.0830396
0.605661 0.0653544 0.128985
0.64329 0.0764324 0.164752
0.648219 0.0778668 0.16997
0.64892 0.0781415 0.171557
0.649577 0.0784009 0.173037
0.650111 0.0786297 0.174166
0.650553 0.0787976 0.175189
0.650919 0.0789349 0.176028
0.651301 0.0789807 0.177081
0.651682 0.0789349 0.178363
0.652445 0.0785992 0.181567
0.6533 0.0781262 0.185489
0.654795 0.0772259 0.192523
0.656321 0.0762798 0.199969
0.0281987 0.04065 0.038529
0.0281376 0.0407111 0.0387121
0.0281071 0.0407263 0.0387884
0.0282139 0.0406806 0.0386816
0.0380865 0.0412299 0.0406043
0.0545815 0.0417182 0.0402533
0.0738994 0.0420691 0.0403906
0.0939803 0.0418555 0.0397192
0.119127 0.0410163 0.0391546
0.153582 0.0406958 0.0392615
0.194263 0.0402991 0.0396124
0.242313 0.0397955 0.0401007
0.297337 0.0397955 0.0404364
0.354131 0.040177 0.04065
0.408942 0.0410163 0.0422217
0.458854 0.042359 0.0481575
0.49723 0.0442359 0.0584726
0.530709 0.0471809 0.0744335
0.55845 0.0515755 0.089601
0.595621 0.0622873 0.117113
0.639002 0.0751354 0.157259
0.645747 0.0770581 0.165103
0.647074 0.0774853 0.167651
0.647913 0.0777752 0.169314
0.648508 0.0780041 0.170535
0.648936 0.0781567 0.171527
0.649271 0.0782788 0.172351
0.649653 0.0783246 0.173434
0.65005 0.0782635 0.174838
0.650782 0.0779431 0.177783
0.651713 0.0774701 0.18175
0.653178 0.0765698 0.188693
0.654658 0.075639 0.195834
0.0281987 0.04065 0.0385443
0.0281224 0.0407111 0.0387427
0.0280919 0.0407263 0.038819
0.0281071 0.0407263 0.038819
0.0323491 0.0416724 0.0401465
0.0460365 0.0434272 0.0415656
0.0631571 0.0445716 0.0416571
0.0839094 0.0449531 0.0414282
0.109606 0.0442817 0.0407568
0.145266 0.042359 0.0396887
0.188846 0.0410468 0.0395666
0.237995 0.0399176 0.0400244
0.294713 0.0396887 0.0407568
0.352712 0.0400092 0.0413214
0.408331 0.0408637 0.0430457
0.459266 0.0422675 0.0487984
0.497581 0.0442512 0.0588693
0.530266 0.0469673 0.0737011
0.557244 0.0507668 0.0872816
0.593774 0.0621805 0.115373
0.630014 0.0728161 0.146014
0.639521 0.0753948 0.155581
0.642786 0.0762646 0.160098
0.644633 0.0767529 0.163195
0.645747 0.0770733 0.165209
0.646616 0.0773327 0.166812
0.647196 0.0775311 0.16791
0.647684 0.0775921 0.16907
0.648157 0.0775769 0.170474
0.648966 0.0772412 0.173663
0.649912 0.0767681 0.177508
0.651438 0.0758679 0.184527
0.652979 0.0749218 0.191852
0.029633 0.0483101 0.0426184
0.0296178 0.0478065 0.0417487
0.0299535 0.0469673 0.0414435
0.0308995 0.045594 0.0408331
0.0321813 0.04477 0.040528
0.0404669 0.0463111 0.0424659
0.0537728 0.0477302 0.042771
0.0724193 0.0481117 0.0428016
0.0981308 0.0478523 0.0425422
0.133364 0.0464332 0.0416266
0.179461 0.0436561 0.0399329
0.23154 0.0412604 0.0393378
0.290471 0.0399939 0.0402533
0.350317 0.0399023 0.0415045
0.407568 0.0406958 0.0438392
0.458732 0.0420386 0.0496834
0.497536 0.0441138 0.0596323
0.530114 0.0468452 0.0740063
0.557443 0.050782 0.0876783
0.592844 0.0619821 0.114778
0.627771 0.0723583 0.143374
0.635233 0.0742962 0.149706
0.63679 0.0747234 0.151583
0.638239 0.0750744 0.153674
0.639246 0.0753185 0.155367
0.641337 0.0759136 0.158099
0.642802 0.0762951 0.160189
0.643778 0.0764324 0.162036
0.644541 0.0764782 0.163836
0.645533 0.0762036 0.167224
0.646601 0.0757305 0.171191
0.648249 0.0748608 0.178149
0.649958 0.0738842 0.185611
0.0320745 0.0629587 0.051194
0.0322728 0.0621805 0.0490883
0.0321813 0.0609445 0.0481727
0.0355688 0.0581521 0.0466926
0.0392615 0.0550546 0.0449836
0.0441291 0.0549935 0.0446937
0.0547799 0.057023 0.0461433
0.070985 0.0573892 0.0470893
0.0955367 0.0561532 0.046891
0.128496 0.0537118 0.0451667
0.172061 0.0496376 0.0429236
0.224537 0.0449531 0.0403449
0.285451 0.0417792 0.0397192
0.347723 0.0404059 0.0407874
0.406088 0.0406348 0.0438239
0.457801 0.0418708 0.050309
0.497536 0.0438697 0.0610513
0.530373 0.04654 0.0757458
0.558358 0.0505531 0.0899672
0.59205 0.0609903 0.115175
0.628244 0.0721141 0.144884
0.635065 0.0739452 0.150561
0.635035 0.0739605 0.150439
0.635019 0.0739757 0.150378
0.635309 0.0740673 0.150698
0.636652 0.0744182 0.152209
0.637644 0.0746319 0.153674
0.6383 0.0746624 0.155001
0.638834 0.0746624 0.156237
0.63949 0.0744182 0.158541
0.640391 0.0740368 0.162036
0.642008 0.073167 0.168734
0.643687 0.072221 0.175937
0.0339208 0.0812848 0.0594644
0.0339361 0.0802167 0.056611
0.0338903 0.0784161 0.0549325
0.0365606 0.0755779 0.053727
0.0442206 0.071107 0.0520638
0.0509194 0.0684672 0.0502785
0.0598459 0.0700999 0.0490578
0.0755016 0.0723735 0.050309
0.0990311 0.0724346 0.0523537
0.13547 0.0682841 0.0517739
0.178912 0.0631723 0.047364
0.227314 0.0560311 0.0436866
0.283101 0.0471809 0.0407263
0.345037 0.0423438 0.0397803
0.404211 0.0410925 0.0432593
0.45658 0.0418402 0.0501411
0.497047 0.0437781 0.0612497
0.530404 0.0464027 0.0764019
0.558892 0.0503395 0.0918288
0.59115 0.0600137 0.11574
0.628656 0.0715648 0.146899
0.63563 0.0736095 0.15285
0.635615 0.0736248 0.152804
0.635615 0.0736248 0.152789
0.63563 0.0736248 0.152804
0.63563 0.0736095 0.152834
0.635645 0.0736095 0.15288
0.63566 0.0735943 0.152956
0.635676 0.0735943 0.153002
0.635904 0.0734569 0.153918
0.636316 0.0732128 0.155718
0.637293 0.0726482 0.159655
0.638361 0.0720226 0.164034
0.0351415 0.102235 0.0651713
0.0351568 0.101671 0.0618296
0.0350652 0.100465 0.0600595
0.0357824 0.0982681 0.0595254
0.0442054 0.0940719 0.0577554
0.0541695 0.0888685 0.0558022
0.0656596 0.0883192 0.0536965
0.0808576 0.0910658 0.0516823
0.103899 0.0938277 0.0521401
0.138872 0.0924086 0.0554971
0.190249 0.0848402 0.0556649
0.244999 0.0759594 0.0509651
0.299153 0.0662547 0.0456703
0.35137 0.0528725 0.0431067
0.404715 0.0443885 0.0427558
0.455604 0.0420539 0.0497444
0.496406 0.0437476 0.0610208
0.529564 0.0462959 0.0760052
0.558923 0.0503243 0.0922713
0.589227 0.0589914 0.113817
0.628641 0.0713817 0.146944
0.635676 0.073579 0.153063
0.635676 0.073579 0.153063
0.635676 0.073579 0.153063
0.635676 0.073579 0.153063
0.635691 0.073579 0.153063
0.635691 0.073579 0.153063
0.635691 0.073579 0.153063
0.635706 0.073579 0.153063
0.635904 0.0734569 0.153933
0.636316 0.0732128 0.155718
0.637293 0.0726482 0.159655
0.638361 0.0720226 0.164034
0.0354009 0.128985 0.0716411
0.0352026 0.128511 0.0664073
0.0354314 0.127214 0.062974
0.0354925 0.125841 0.0622568
0.040177 0.123033 0.061326
0.0530556 0.118029 0.0597696
0.0677043 0.113268 0.0578775
0.0860914 0.113817 0.054612
0.10811 0.117189 0.0514534
0.142031 0.120439 0.0509346
0.192859 0.116915 0.0558785
0.253819 0.106493 0.0570077
0.321843 0.0924392 0.0544289
0.375235 0.0802319 0.0500649
0.420951 0.0635233 0.0474708
0.459373 0.0470741 0.0494087
0.495705 0.0439155 0.0611429
0.528481 0.0461433 0.0756237
0.559121 0.0505837 0.0928817
0.586084 0.0575418 0.111055
0.628794 0.0712749 0.14696
0.635676 0.073579 0.153063
0.635676 0.073579 0.153063
0.635691 0.073579 0.153063
0.635691 0.073579 0.153063
0.635706 0.073579 0.153063
0.635706 0.073579 0.153048
0.635721 0.073579 0.153048
0.635706 0.073579 0.153048
0.63592 0.0734569 0.153933
0.636332 0.0731975 0.155718
0.637293 0.0726482 0.159655
0.638361 0.0720226 0.16405
0.0345769 0.163638 0.0791028
0.0339666 0.16376 0.0722972
0.0347143 0.163287 0.0652628
0.0353399 0.16173 0.0623789
0.0353857 0.160006 0.0622568
0.0450141 0.156512 0.0612497
0.0602579 0.151843 0.0589761
0.0850385 0.147112 0.0567636
0.112673 0.148486 0.0524605
0.144106 0.15256 0.0484474
0.191318 0.155627 0.0471351
0.256001 0.149615 0.0537575
0.32636 0.136522 0.0585946
0.398764 0.117922 0.0594034
0.450538 0.101152 0.0579995
0.487526 0.0802167 0.0554055
0.507042 0.0540322 0.0585031
0.52903 0.0468452 0.0732891
0.559182 0.0508125 0.0937209
0.582727 0.0562142 0.107897
0.628534 0.0710613 0.146685
0.635676 0.073579 0.153063
0.635676 0.073579 0.153063
0.635691 0.073579 0.153063
0.635691 0.073579 0.153063
0.635706 0.073579 0.153063
0.635721 0.073579 0.153048
0.635737 0.073579 0.153048
0.635737 0.073579 0.153048
0.635935 0.0734569 0.153933
0.636347 0.0731975 0.155718
0.637308 0.0726329 0.159655
0.638376 0.0720226 0.16405
0.0323033 0.204623 0.0892195
0.0328832 0.205173 0.0803998
0.033402 0.204456 0.071107
0.0354772 0.202884 0.0629435
0.036347 0.201373 0.0606394
0.0364843 0.200061 0.0608835
0.0469062 0.197452 0.0590677
0.0676585 0.192996 0.0560159
0.104921 0.189273 0.0536049
0.145327 0.191012 0.0484016
0.18909 0.195422 0.0439307
0.248859 0.198184 0.042649
0.326619 0.192905 0.0517586
0.401801 0.17818 0.0624704
0.471321 0.156863 0.067689
0.52253 0.133379 0.0711986
0.547631 0.107805 0.0711528
0.556054 0.0696574 0.0722972
0.565606 0.0530556 0.0885634
0.576028 0.0535744 0.100282
0.62829 0.0708019 0.146609
0.635676 0.073579 0.153063
0.635676 0.073579 0.153063
0.635691 0.073579 0.153063
0.635691 0.073579 0.153063
0.635706 0.073579 0.153063
0.635721 0.073579 0.153048
0.635737 0.073579 0.153048
0.635737 0.073579 0.153048
0.635935 0.0734417 0.153933
0.636347 0.0731975 0.155718
0.637324 0.0726329 0.159655
0.638392 0.0720073 0.164034
0.0284276 0.251194 0.100404
0.0290074 0.252049 0.0919661
0.029984 0.251652 0.082063
0.0328374 0.249882 0.0702678
0.0363928 0.248219 0.0610513
0.0374609 0.247257 0.0587015
0.0374762 0.246052 0.058854
0.046952 0.243702 0.0563668
0.0750286 0.239597 0.0517128
0.127352 0.237186 0.0480812
0.184237 0.239429 0.0430762
0.240711 0.245289 0.0396429
0.314397 0.248356 0.0393835
0.397696 0.243885 0.0502327
0.47364 0.230838 0.0702678
0.540398 0.20911 0.0815747
0.589426 0.181491 0.0926986
0.60798 0.153994 0.0944991
0.609873 0.0990616 0.0914778
0.608057 0.0637522 0.104128
0.607217 0.0612039 0.123293
0.63032 0.0716259 0.14931
0.635294 0.0728923 0.154711
0.636316 0.0732128 0.155718
0.636255 0.0732433 0.155474
0.63624 0.0732586 0.155337
0.636271 0.0732433 0.155367
0.636332 0.0732128 0.155581
0.636454 0.0731518 0.156054
0.636652 0.0730144 0.156878
0.636927 0.0728161 0.158175
0.637659 0.0724346 0.161105
0.638468 0.0719463 0.164569
0.0260014 0.301823 0.113817
0.0271305 0.302815 0.1066
0.0282139 0.303014 0.0978866
0.0301823 0.302266 0.0886702
0.0335546 0.301427 0.0752117
0.0387579 0.299535 0.0633249
0.0409094 0.298375 0.0591745
0.0408637 0.297215 0.0593423
0.0488289 0.294865 0.0553597
0.0855116 0.292103 0.0472114
0.157534 0.29131 0.0424659
0.229419 0.295354 0.0379644
0.299504 0.302327 0.0363317
0.382162 0.306081 0.0383307
0.466224 0.304845 0.0510109
0.543221 0.295979 0.0799268
0.608499 0.274311 0.102449
0.654826 0.243626 0.12256
0.674144 0.213672 0.126375
0.670619 0.152758 0.119081
0.645731 0.0769513 0.115908
0.637858 0.0693065 0.124071
0.629862 0.0656748 0.134356
0.608301 0.0603037 0.12166
0.624384 0.0696117 0.145708
0.62768 0.0703288 0.149172
0.630488 0.0708934 0.152087
0.632898 0.0713054 0.154269
0.634531 0.0715343 0.155352
0.635767 0.0715496 0.155673
0.636652 0.0713207 0.155062
0.636927 0.0704662 0.154055
0.637858 0.0694133 0.153231
0.0251011 0.354009 0.132753
0.0271916 0.355734 0.126497
0.0294499 0.356649 0.118883
0.0315557 0.356649 0.110353
0.0335851 0.356313 0.101732
0.0366827 0.355581 0.090959
0.0420386 0.354116 0.0763714
0.0468299 0.352651 0.0648814
0.0469062 0.351843 0.0650187
0.0544137 0.348852 0.0576333
0.0993515 0.345998 0.0442359
0.19202 0.34789 0.0390021
0.281559 0.354284 0.0353552
0.362325 0.362982 0.0353399
0.450126 0.368475 0.0405585
0.532601 0.371008 0.0553445
0.610361 0.366201 0.0945144
0.673564 0.349783 0.130785
0.723842 0.319432 0.15845
0.743496 0.284352 0.165652
0.73489 0.224842 0.154818
0.710765 0.173129 0.139055
0.685771 0.125032 0.127596
0.661982 0.0915999 0.114046
0.651484 0.0796368 0.11284
0.650843 0.0797131 0.119249
0.649485 0.0792706 0.122896
0.648829 0.0796216 0.125643
0.650401 0.0814221 0.130144
0.653712 0.0852064 0.134051
0.660609 0.0932021 0.13724
0.669657 0.104005 0.139864
0.682811 0.121004 0.144488
0.0260319 0.410468 0.162112
0.0288396 0.412528 0.156207
0.0320287 0.414557 0.149905
0.0355993 0.414893 0.141711
0.0391394 0.414939 0.133242
0.0425422 0.41474 0.125078
0.0454414 0.414466 0.117037
0.0509194 0.41384 0.103914
0.0578164 0.412253 0.0876478
0.059205 0.410941 0.0845197
0.0677348 0.407507 0.0716564
0.120058 0.404135 0.0460365
0.231586 0.409323 0.038468
0.342077 0.417868 0.0369726
0.429206 0.428061 0.0383612
0.51632 0.434134 0.0495308
0.595224 0.439521 0.07393
0.673121 0.4392 0.121492
0.737865 0.430198 0.166339
0.787137 0.401526 0.196139
0.806653 0.362127 0.206241
0.798291 0.332631 0.197086
0.78613 0.310018 0.188037
0.775372 0.289158 0.180743
0.765652 0.271015 0.174075
0.757412 0.255497 0.16875
0.750713 0.24329 0.164462
0.746365 0.235264 0.161624
0.744106 0.231067 0.16022
0.745724 0.233524 0.161486
0.750637 0.24184 0.164843
0.7608 0.258778 0.172305
0.775372 0.282918 0.183703
0.029099 0.472648 0.205203
0.0320745 0.475456 0.200427
0.0355993 0.477424 0.194171
0.0398413 0.478096 0.186542
0.0440375 0.478309 0.178363
0.0486152 0.478569 0.170306
0.0533455 0.479118 0.162661
0.0578622 0.479316 0.154772
0.0652628 0.479042 0.141604
0.0768597 0.478004 0.122271
0.0806897 0.476432 0.114565
0.0892805 0.472801 0.0999771
0.151247 0.468879 0.0579843
0.2804 0.476555 0.0453803
0.409674 0.486229 0.04654
0.496941 0.495186 0.0534676
0.579339 0.501381 0.0744335
0.656413 0.508782 0.106355
0.73463 0.512734 0.157321
0.796963 0.508629 0.202426
0.838849 0.482673 0.229862
0.851453 0.450416 0.238544
0.846555 0.433387 0.235019
0.84152 0.42005 0.231128
0.837156 0.408698 0.227726
0.83299 0.399527 0.224277
0.830152 0.393378 0.221897
0.827939 0.389838 0.219913
0.827558 0.389868 0.219425
0.828534 0.39263 0.220111
0.83125 0.399558 0.222202
0.836881 0.412207 0.227039
0.844556 0.429892 0.233967
0.0392309 0.537255 0.263386
0.04065 0.540291 0.260166
0.0434272 0.543221 0.255482
0.0471046 0.544808 0.248753
0.0509041 0.545602 0.240757
0.0552987 0.546731 0.233326
0.0601358 0.547463 0.225544
0.066041 0.547936 0.216403
0.0734569 0.54815 0.20499
0.0837873 0.548486 0.190188
0.0990616 0.548455 0.168322
0.104921 0.546731 0.158343
0.114763 0.542718 0.141649
0.195453 0.537453 0.07953
0.34342 0.547814 0.0667582
0.481376 0.556924 0.0744945
0.564248 0.564202 0.0874495
0.642451 0.569467 0.113008
0.718044 0.577111 0.147799
0.791196 0.583856 0.195987
0.845457 0.584039 0.236622
0.875944 0.566918 0.257694
0.876478 0.552956 0.25771
0.874434 0.541131 0.256138
0.872602 0.531319 0.254505
0.870924 0.523629 0.252979
0.869871 0.518746 0.252003
0.86923 0.516472 0.251514
0.868879 0.516411 0.251255
0.869307 0.519509 0.251667
0.870497 0.526619 0.252674
0.872923 0.539147 0.255085
0.875959 0.557504 0.258396
0.0648508 0.603342 0.329595
0.0659648 0.606729 0.328756
0.0665599 0.609186 0.326467
0.0668345 0.611048 0.323262
0.0675517 0.612375 0.318654
0.0704662 0.613901 0.31223
0.0736858 0.615106 0.30518
0.0772869 0.616022 0.297139
0.08365 0.61709 0.286015
0.0943313 0.61825 0.270649
0.109346 0.619196 0.250523
0.127062 0.619547 0.226246
0.130297 0.617334 0.218936
0.152331 0.612726 0.188434
0.261433 0.610147 0.113069
0.42089 0.621866 0.108827
0.553155 0.627588 0.11931
0.630259 0.631647 0.132631
0.704234 0.636378 0.158236
0.776287 0.644007 0.193439
0.839612 0.652598 0.235523
0.881025 0.654932 0.265919
0.891951 0.648035 0.273625
0.890913 0.64065 0.27219
0.889921 0.634272 0.271031
0.888869 0.629435 0.269917
0.888136 0.626413 0.269245
0.887739 0.624445 0.269108
0.887648 0.624506 0.269306
0.887678 0.62652 0.26978
0.888365 0.631846 0.271015
0.889693 0.641459 0.273136
0.891203 0.654276 0.275837
0.099855 0.670726 0.398291
0.101534 0.674449 0.399268
0.102922 0.677607 0.399542
0.103288 0.679316 0.397421
0.103502 0.680629 0.394995
0.103624 0.681651 0.391745
0.103578 0.682368 0.388296
0.103456 0.68304 0.383749
0.104707 0.684153 0.376883
0.109499 0.685283 0.364935
0.119661 0.686748 0.346914
0.139879 0.688685 0.319829
0.158907 0.689128 0.295079
0.160067 0.686595 0.289555
0.20264 0.681239 0.236698
0.342382 0.684504 0.160388
0.506767 0.694636 0.162768
0.622889 0.697459 0.172
0.69482 0.699275 0.184604
0.76434 0.703059 0.208942
0.828153 0.70959 0.24094
0.879316 0.717617 0.274739
0.906722 0.71989 0.296635
0.907317 0.714931 0.296239
0.906126 0.710719 0.294499
0.904921 0.707225 0.292897
0.90399 0.704494 0.291844
0.903212 0.702953 0.291356
0.902998 0.702937 0.29163
0.903471 0.704921 0.292882
0.904356 0.709178 0.294804
0.906004 0.715877 0.297841
0.908705 0.725353 0.302388
0.144137 0.736477 0.470253
0.146166 0.739712 0.471992
0.147524 0.742214 0.472694
0.148241 0.74374 0.472145
0.148608 0.74493 0.470466
0.148821 0.745769 0.468315
0.148989 0.746761 0.466545
0.148852 0.747433 0.463508
0.148226 0.74786 0.459022
0.147204 0.748104 0.451881
0.145251 0.747784 0.441413
0.148898 0.748455 0.423545
0.166033 0.751202 0.39411
0.177508 0.750988 0.375601
0.182559 0.747906 0.364416
0.259632 0.745235 0.276402
0.430457 0.754986 0.216571
0.591211 0.761578 0.223377
0.688457 0.763561 0.231708
0.756283 0.764324 0.243961
0.820417 0.767987 0.267414
0.871946 0.774151 0.293217
0.912734 0.780896 0.321706
0.92726 0.78204 0.333333
0.926101 0.777798 0.330846
0.925322 0.774914 0.329274
0.924407 0.772427 0.328054
0.923674 0.771237 0.327733
0.923552 0.771359 0.328481
0.924178 0.773587 0.330678
0.925185 0.777447 0.333684
0.927108 0.784131 0.33846
0.929091 0.792416 0.344793
0.187274 0.78996 0.540749
0.188861 0.792416 0.542626
0.19028 0.794659 0.544152
0.190707 0.79585 0.54377
0.191058 0.796857 0.542931
0.191379 0.797772 0.542275
0.191592 0.798566 0.540856
0.19147 0.799069 0.538705
0.190799 0.79942 0.535515
0.18967 0.799619 0.530587
0.187945 0.799573 0.522744
0.185763 0.799527 0.511742
0.182437 0.79852 0.494285
0.185916 0.798642 0.469657
0.185107 0.796185 0.461402
0.211688 0.796368 0.419394
0.323476 0.803235 0.312428
0.511727 0.813611 0.278691
0.663401 0.818402 0.287587
0.74725 0.82182 0.298039
0.813642 0.82414 0.312047
0.869947 0.828138 0.333608
0.910964 0.833478 0.355428
0.935729 0.839109 0.372641
0.939788 0.837369 0.374304
0.939284 0.834714 0.372274
0.93875 0.832822 0.371069
0.938384 0.832242 0.371099
0.93814 0.832303 0.371618
0.938155 0.833768 0.373388
0.938476 0.836942 0.376226
0.939437 0.841856 0.381308
0.941756 0.848203 0.389197
0.225132 0.832013 0.607004
0.226673 0.833722 0.608835
0.228199 0.835447 0.610391
0.228901 0.836576 0.610346
0.229603 0.837568 0.610239
0.229953 0.838132 0.609476
0.230259 0.838621 0.608469
0.230289 0.838972 0.60737
0.22977 0.8392 0.60499
0.228916 0.839445 0.60148
0.227405 0.839521 0.596063
0.225055 0.839246 0.587823
0.221836 0.83856 0.575616
0.217578 0.837308 0.556863
0.213596 0.834882 0.543175
0.209476 0.83154 0.53077
0.247028 0.835599 0.456687
0.400427 0.851102 0.36231
0.578088 0.857954 0.341741
0.723674 0.865675 0.356054
0.800412 0.871122 0.370367
0.865293 0.874678 0.386908
0.912963 0.877485 0.405982
0.943038 0.881224 0.42153
0.954681 0.883711 0.427771
0.953765 0.881544 0.424933
0.952941 0.880278 0.423331
0.952224 0.879606 0.422583
0.951644 0.879896 0.423209
0.950988 0.881224 0.425238
0.951019 0.883482 0.428962
0.95227 0.886534 0.435233
0.955169 0.891737 0.445319
0.258213 0.861189 0.660182
0.25951 0.862135 0.661509
0.260487 0.86305 0.662394
0.260792 0.863508 0.662211
0.260899 0.863874 0.661585
0.261097 0.864225 0.661112
0.261295 0.8645 0.660487
0.26128 0.864713 0.659663
0.26099 0.865003 0.658595
0.260166 0.865278 0.656489
0.258656 0.865339 0.652796
0.256718 0.865522 0.647608
0.254246 0.8654 0.640238
0.250813 0.864836 0.628962
0.247303 0.863859 0.616617
0.244343 0.862028 0.609628
0.23444 0.856382 0.571267
0.278676 0.864881 0.485466
0.478218 0.885634 0.413443
0.63473 0.893004 0.413733
0.775189 0.90457 0.434089
0.847471 0.911482 0.446616
0.904646 0.914519 0.459419
0.946746 0.916442 0.475257
0.969573 0.9178 0.48539
0.972061 0.917113 0.484703
0.971435 0.916197 0.482979
0.970474 0.915572 0.482261
0.969711 0.915633 0.483131
0.969039 0.916228 0.48574
0.968841 0.917388 0.490318
0.96994 0.919768 0.498207
0.97232 0.923308 0.509926
0.271183 0.87097 0.682383
0.271321 0.870832 0.681651
0.271321 0.870848 0.680812
0.271168 0.870878 0.679652
0.270909 0.870893 0.678599
0.270604 0.870863 0.677516
0.270298 0.870756 0.676204
0.269886 0.870634 0.67483
0.269154 0.870588 0.672923
0.26804 0.870588 0.670436
0.2663 0.870451 0.666484
0.26392 0.870207 0.661204
0.260914 0.869749 0.65388
0.257282 0.869047 0.643046
0.253651 0.86833 0.631006
0.252445 0.868193 0.627482
0.251499 0.868833 0.619898
0.256535 0.872206 0.579782
0.344274 0.890776 0.514397
0.545541 0.905837 0.477302
0.6925 0.915236 0.495903
0.830503 0.933837 0.527642
0.889952 0.941238 0.535653
0.937377 0.944289 0.541497
0.971771 0.94432 0.553384
0.984421 0.943542 0.556878
0.984207 0.942245 0.553506
0.983536 0.941375 0.551812
0.982742 0.9411 0.552621
0.981659 0.941451 0.557015
0.980972 0.942336 0.563882
0.980606 0.944167 0.574731
0.980499 0.946853 0.590417
0.272068 0.871443 0.685023
0.272114 0.871321 0.684245
0.272084 0.871244 0.683574
0.27187 0.871199 0.682521
0.271534 0.871199 0.681407
0.271031 0.871214 0.680125
0.270588 0.871183 0.678981
0.270085 0.871077 0.677607
0.268681 0.871183 0.675608
0.267567 0.871092 0.672953
0.266117 0.871061 0.669398
0.263981 0.870741 0.664134
0.26125 0.870237 0.656825
0.257877 0.869429 0.646387
0.253803 0.868421 0.63241
0.252476 0.868284 0.627634
0.252216 0.868986 0.623636
0.253376 0.871214 0.592096
0.311681 0.885374 0.521889
0.506249 0.905043 0.483207
0.658488 0.914412 0.507927
0.772915 0.927367 0.544091
0.877928 0.944503 0.579873
0.923796 0.951019 0.595193
0.960464 0.955856 0.613779
0.981979 0.958114 0.628717
0.983047 0.957992 0.627924
0.982864 0.957763 0.627085
0.98233 0.95761 0.627878
0.981216 0.95758 0.630732
0.980301 0.957534 0.633967
0.979477 0.957534 0.638865
0.978836 0.957565 0.644465
0.272602 0.871931 0.687129
0.272663 0.871733 0.686366
0.272618 0.87155 0.685573
0.272389 0.871412 0.684642
0.272038 0.871412 0.683558
0.271473 0.871458 0.682368
0.270863 0.871473 0.681163
0.270176 0.871458 0.679667
0.269291 0.871366 0.677791
0.268147 0.871275 0.67512
0.266651 0.871199 0.671458
0.264683 0.870939 0.666377
0.261967 0.87042 0.659083
0.258595 0.869642 0.648859
0.254185 0.868467 0.633921
0.252491 0.868269 0.627649
0.252399 0.868757 0.625742
0.25069 0.8701 0.599451
0.285451 0.879805 0.529137
0.482368 0.904326 0.484321
0.642847 0.913283 0.503563
0.759152 0.925704 0.539605
0.867887 0.942855 0.575753
0.91603 0.950088 0.592889
0.952834 0.955001 0.609033
0.977295 0.957992 0.628183
0.982574 0.958633 0.634791
0.982147 0.958618 0.636286
0.981369 0.958633 0.638453
0.98024 0.958663 0.64152
0.979278 0.958572 0.645258
0.978561 0.958419 0.64889
0.978134 0.958206 0.65214
0.273335 0.872038 0.688975
0.273335 0.871824 0.688228
0.273182 0.871672 0.687404
0.272847 0.871611 0.686336
0.272389 0.871595 0.685176
0.271763 0.871641 0.683955
0.271153 0.871672 0.682795
0.270481 0.871641 0.681422
0.269596 0.871565 0.679454
0.268467 0.871473 0.676799
0.266911 0.871305 0.673014
