bundles/resolve-cinematic-luts/Phantom Luts/Canon Film LUT/ATOMOS Monitoring LUTs/C-Log 3/Bleach Canon-Legacy CL3 AML.cube
TITLE "Generated by Resolve"
LUT_3D_SIZE 33
0.09514 0.106615 0.096437
0.09514 0.106615 0.096437
0.09514 0.106615 0.096437
0.0966659 0.106691 0.0966506
0.099794 0.106874 0.0972
0.136461 0.107469 0.0991684
0.16228 0.108049 0.101122
0.185977 0.108888 0.102052
0.212024 0.11014 0.102724
0.239445 0.111772 0.104372
0.272175 0.112932 0.106401
0.302922 0.114229 0.109178
0.337789 0.115358 0.113298
0.375647 0.116289 0.1196
0.421592 0.117952 0.124712
0.467842 0.117891 0.128054
0.509239 0.118456 0.133928
0.544244 0.119844 0.141695
0.574853 0.121691 0.150851
0.603403 0.124132 0.160281
0.632105 0.126986 0.172229
0.661006 0.129885 0.185885
0.69131 0.133318 0.2009
0.720714 0.137118 0.217472
0.74258 0.139651 0.232776
0.754284 0.14107 0.244602
0.755962 0.141131 0.251408
0.757015 0.141161 0.257282
0.757977 0.141176 0.262684
0.758968 0.141299 0.267857
0.75993 0.141268 0.273152
0.760815 0.141253 0.277378
0.76173 0.141283 0.281682
0.09514 0.106615 0.096437
0.09514 0.106615 0.096437
0.09514 0.106615 0.096437
0.0963607 0.106661 0.0966049
0.104997 0.107424 0.0979477
0.137758 0.107546 0.0991836
0.163622 0.108034 0.101152
0.1897 0.109361 0.102495
0.217609 0.11078 0.103273
0.25037 0.112093 0.104845
0.286183 0.113512 0.107683
0.321843 0.114916 0.111635
0.359991 0.116075 0.117433
0.404623 0.118013 0.122301
0.452293 0.117922 0.12546
0.496574 0.118349 0.13077
0.533761 0.119402 0.138552
0.566751 0.121218 0.146593
0.596216 0.12343 0.15552
0.624811 0.126177 0.166598
0.654215 0.129335 0.179751
0.684535 0.132723 0.193729
0.713863 0.136248 0.209293
0.736614 0.13904 0.223926
0.752224 0.141176 0.237079
0.753643 0.141054 0.242924
0.754986 0.1411 0.247913
0.756008 0.141146 0.252232
0.756802 0.141131 0.256291
0.757382 0.141131 0.260044
0.758022 0.141176 0.263188
0.758801 0.141268 0.266941
0.759426 0.141314 0.270329
0.09514 0.106615 0.096437
0.09514 0.106615 0.096437
0.09514 0.106615 0.096437
0.09514 0.106615 0.096437
0.102251 0.107179 0.097612
0.128176 0.107942 0.0985275
0.15697 0.108446 0.100893
0.185107 0.109255 0.102144
0.214694 0.110277 0.102541
0.24773 0.111559 0.103197
0.28574 0.113222 0.104936
0.323583 0.114611 0.108263
0.363653 0.11693 0.110796
0.40766 0.118212 0.114519
0.45539 0.118013 0.118029
0.499046 0.118471 0.125872
0.53756 0.119814 0.132418
0.571313 0.121798 0.139895
0.601556 0.124269 0.148547
0.630076 0.127062 0.159304
0.660945 0.130236 0.172137
0.6916 0.133791 0.186923
0.719722 0.137469 0.201755
0.740826 0.140002 0.21593
0.748699 0.140795 0.223346
0.749828 0.140826 0.227054
0.750652 0.140978 0.2309
0.751568 0.14107 0.234272
0.752377 0.141161 0.237537
0.753094 0.141131 0.240375
0.753719 0.141054 0.243061
0.75433 0.141054 0.24535
0.755093 0.1411 0.248188
0.09514 0.106615 0.096437
0.09514 0.106615 0.096437
0.09514 0.106615 0.096437
0.09514 0.106615 0.096437
0.0961166 0.106996 0.0966354
0.115801 0.108843 0.0972457
0.139467 0.109468 0.0984817
0.167315 0.109865 0.0995956
0.198642 0.110658 0.100679
0.234272 0.111589 0.101427
0.273335 0.112764 0.102205
0.312657 0.11397 0.102861
0.35259 0.116075 0.104234
0.394644 0.117021 0.106172
0.441779 0.117357 0.110079
0.489006 0.118181 0.113832
0.527642 0.119631 0.118791
0.560204 0.121477 0.12546
0.590158 0.123842 0.133883
0.618631 0.126101 0.143145
0.649683 0.129274 0.154833
0.680095 0.132876 0.166644
0.707835 0.136339 0.179995
0.733135 0.139498 0.19443
0.738003 0.139925 0.199527
0.741512 0.140337 0.204242
0.743542 0.140475 0.208087
0.745052 0.140688 0.211505
0.746044 0.140795 0.214176
0.74641 0.14078 0.215915
0.746868 0.140764 0.217777
0.747524 0.140795 0.219547
0.748012 0.14081 0.220783
0.0956588 0.111009 0.0973068
0.0956283 0.110903 0.0972152
0.0954452 0.10959 0.0966964
0.0958114 0.107805 0.0967727
0.0957351 0.10721 0.0966354
0.101381 0.110277 0.0977798
0.127398 0.114199 0.0982834
0.152178 0.115389 0.0991531
0.181964 0.115602 0.0997482
0.217853 0.11458 0.101289
0.259419 0.115053 0.102327
0.301534 0.115724 0.1028
0.34316 0.116411 0.10309
0.38587 0.116396 0.102846
0.432883 0.117525 0.104158
0.478553 0.117433 0.105928
0.517037 0.118761 0.109209
0.548302 0.120546 0.114534
0.578027 0.122805 0.122454
0.60531 0.125246 0.130129
0.634165 0.128161 0.139635
0.663935 0.131273 0.149493
0.693523 0.134722 0.161791
0.720226 0.138262 0.172122
0.723766 0.138705 0.176471
0.726467 0.138964 0.17969
0.728527 0.139116 0.182345
0.730556 0.139391 0.185061
0.731899 0.139559 0.187366
0.733516 0.139742 0.189044
0.735286 0.139818 0.19086
0.73608 0.139895 0.192172
0.736568 0.13994 0.193164
0.100572 0.135088 0.102129
0.10132 0.140063 0.102373
0.101274 0.140719 0.101793
0.101305 0.134859 0.100816
0.103899 0.127977 0.100832
0.111727 0.125872 0.10074
0.127489 0.132586 0.102037
0.14995 0.134798 0.100481
0.182483 0.135607 0.101137
0.217365 0.134401 0.101961
0.254139 0.130602 0.102953
0.298283 0.127062 0.104967
0.339773 0.123629 0.105287
0.380194 0.119875 0.104067
0.427085 0.118868 0.103319
0.473487 0.118059 0.103197
0.511849 0.117983 0.105272
0.544503 0.119768 0.109224
0.5729 0.122164 0.115816
0.598703 0.124559 0.122942
0.624887 0.127047 0.130205
0.651179 0.129885 0.138064
0.680034 0.133516 0.147494
0.702358 0.13637 0.157
0.710094 0.137392 0.160983
0.713481 0.137819 0.162448
0.714717 0.137896 0.163882
0.713756 0.137865 0.163012
0.714763 0.137881 0.164294
0.714412 0.137881 0.163531
0.714473 0.137865 0.1635
0.714672 0.137881 0.1635
0.714397 0.137881 0.163043
0.104753 0.167163 0.104967
0.105318 0.170382 0.105196
0.105348 0.170657 0.104128
0.105364 0.166583 0.102724
0.1084 0.160845 0.102998
0.119249 0.158602 0.104128
0.141268 0.159289 0.105501
0.156069 0.162768 0.103731
0.188052 0.164385 0.100908
0.230915 0.16289 0.102663
0.273121 0.159976 0.104707
0.312535 0.158618 0.105653
0.355077 0.153903 0.107378
0.39855 0.146975 0.108843
0.444114 0.13698 0.108003
0.486549 0.128298 0.106416
0.518669 0.124422 0.104967
0.544854 0.120592 0.10428
0.573938 0.122774 0.108843
0.596887 0.124056 0.115648
0.62063 0.126482 0.122637
0.644617 0.129351 0.131441
0.671046 0.132448 0.14136
0.690044 0.134905 0.147723
0.706706 0.136965 0.153628
0.708461 0.137179 0.155062
0.708324 0.137148 0.155016
0.70837 0.137163 0.155001
0.708354 0.137163 0.154986
0.708614 0.137209 0.155077
0.708751 0.13724 0.155123
0.708644 0.137209 0.154742
0.708751 0.13724 0.154986
0.107073 0.197559 0.106538
0.107301 0.202029 0.1066
0.107408 0.203189 0.105898
0.106767 0.200015 0.10454
0.108736 0.19379 0.103944
0.118486 0.189548 0.104784
0.143908 0.187991 0.107805
0.166461 0.188388 0.107836
0.188174 0.191806 0.103136
0.228611 0.193759 0.101213
0.279042 0.192447 0.10248
0.330571 0.188968 0.105669
0.380346 0.182071 0.108614
0.427619 0.175509 0.108751
0.472129 0.170443 0.108949
0.511543 0.16466 0.110903
0.544701 0.158434 0.113298
0.571023 0.15111 0.114519
0.591257 0.139666 0.112245
0.611231 0.136019 0.112703
0.630014 0.128298 0.11107
0.651408 0.130129 0.117983
0.673396 0.132769 0.128038
0.691722 0.13518 0.136294
0.707347 0.137224 0.143496
0.709026 0.137285 0.145342
0.710262 0.137682 0.146212
0.711604 0.137972 0.144686
0.71136 0.137957 0.143923
0.711711 0.138018 0.143313
0.710018 0.137819 0.143114
0.708659 0.137499 0.143038
0.710506 0.13785 0.143206
0.107683 0.231937 0.106874
0.107408 0.23772 0.106569
0.107622 0.240146 0.105211
0.10753 0.237522 0.103288
0.109087 0.231067 0.103777
0.113558 0.225818 0.104768
0.130556 0.224338 0.106233
0.163912 0.223453 0.109239
0.197635 0.224201 0.108812
0.226429 0.227527 0.103563
0.274678 0.230457 0.101762
0.333349 0.229282 0.103792
0.39202 0.22475 0.105272
0.452262 0.214084 0.107713
0.49929 0.207294 0.109957
0.538369 0.201099 0.113436
0.566735 0.198474 0.115633
0.591714 0.192859 0.118013
0.614755 0.187503 0.120851
0.636545 0.178531 0.124224
0.655467 0.170367 0.126009
0.675715 0.161196 0.125963
0.695659 0.158511 0.127749
0.709285 0.145205 0.123171
0.719219 0.140459 0.123903
0.723461 0.143542 0.128511
0.724346 0.143542 0.129122
0.726574 0.147585 0.130968
0.725521 0.144594 0.12813
0.726635 0.145983 0.128099
0.726925 0.144518 0.125872
0.726955 0.142901 0.124178
0.728649 0.145571 0.125948
0.106355 0.269444 0.106661
0.105699 0.27538 0.105943
0.105425 0.279118 0.102342
0.105669 0.278065 0.0998093
0.105348 0.271687 0.100328
0.109575 0.265538 0.101564
0.117815 0.264134 0.102724
0.146273 0.264515 0.105196
0.189227 0.2636 0.109987
0.235004 0.265141 0.108415
0.270726 0.268818 0.103212
0.323293 0.272343 0.102129
0.390402 0.272221 0.103456
0.459037 0.267704 0.104021
0.513207 0.26099 0.108232
0.554986 0.254978 0.113375
0.589837 0.248249 0.119371
0.614298 0.245701 0.122545
0.638621 0.239063 0.126757
0.65864 0.235538 0.129595
0.678157 0.229358 0.133013
0.69926 0.222492 0.137102
0.721279 0.212253 0.142306
0.738384 0.203052 0.143938
0.748379 0.195239 0.144381
0.756512 0.190387 0.144045
0.756634 0.189746 0.144045
0.758373 0.191867 0.145037
0.758785 0.194018 0.145602
0.759762 0.196124 0.146456
0.761624 0.201785 0.147967
0.763348 0.207538 0.149462
0.764782 0.212711 0.150408
0.102251 0.30692 0.104158
0.101457 0.313207 0.102831
0.100984 0.316945 0.0982834
0.101091 0.317296 0.0946212
0.101427 0.313558 0.0947433
0.102571 0.306249 0.0959487
0.109834 0.301732 0.0972305
0.12903 0.303395 0.0991836
0.169314 0.304875 0.103624
0.218906 0.306035 0.108995
0.277989 0.312383 0.107027
0.318914 0.316579 0.10248
0.374472 0.321645 0.100816
0.449821 0.323339 0.101366
0.517052 0.32607 0.104997
0.562005 0.323293 0.111376
0.599527 0.319387 0.118425
0.632258 0.312367 0.12636
0.660471 0.307424 0.133883
0.687266 0.302815 0.14107
0.707027 0.301717 0.145052
0.731289 0.294377 0.151949
0.750637 0.289433 0.155886
0.767849 0.283879 0.159152
0.780789 0.277348 0.162188
0.789639 0.274189 0.16492
0.791379 0.275608 0.166018
0.792966 0.278859 0.166995
0.794873 0.282963 0.167834
0.797253 0.288182 0.169299
0.799954 0.29395 0.170977
0.802213 0.300069 0.17229
0.805005 0.30663 0.173816
0.0973678 0.342779 0.099733
0.0962997 0.34905 0.0980545
0.0959029 0.353017 0.0945754
0.0957504 0.354528 0.0911727
0.0965744 0.352132 0.0883803
0.0979782 0.346242 0.0892805
0.102724 0.34023 0.090486
0.110369 0.337484 0.0917525
0.147173 0.342794 0.0950484
0.197757 0.346609 0.100725
0.255589 0.351598 0.107729
0.324178 0.362371 0.105043
0.371344 0.368093 0.101289
0.433371 0.373831 0.099733
0.499779 0.38114 0.101823
0.556832 0.390097 0.108309
0.603387 0.396399 0.118212
0.643183 0.40145 0.129091
0.675868 0.400412 0.140505
0.706706 0.397421 0.151995
0.737514 0.394156 0.163958
0.766125 0.388998 0.174975
0.794034 0.384375 0.186892
0.813382 0.381643 0.192874
0.832151 0.376837 0.200366
0.83888 0.376318 0.203021
0.839963 0.379873 0.203021
0.841382 0.383871 0.203876
0.842618 0.388525 0.204746
0.845396 0.394507 0.207492
0.848707 0.400519 0.210544
0.851377 0.406546 0.213947
0.854444 0.411597 0.216693
0.0911574 0.377981 0.0950179
0.0904555 0.384985 0.0942855
0.0899825 0.38912 0.0919509
0.0901656 0.390906 0.0877699
0.0906996 0.390433 0.0827649
0.0912337 0.386084 0.0827192
0.0936446 0.37882 0.0835431
0.103807 0.374075 0.0849622
0.117769 0.376013 0.0863203
0.170214 0.385504 0.0906844
0.232044 0.392752 0.0985428
0.297154 0.40238 0.105486
0.372091 0.418418 0.102892
0.428046 0.424674 0.0992752
0.488396 0.435431 0.100237
0.541222 0.451331 0.106081
0.591089 0.465934 0.114824
0.634684 0.476188 0.124743
0.671504 0.485527 0.133898
0.703105 0.484688 0.14641
0.735073 0.485527 0.158801
0.766369 0.483696 0.171283
0.795941 0.481239 0.184207
0.822736 0.477302 0.196246
0.844556 0.473671 0.207111
0.854902 0.470893 0.213718
0.859998 0.471275 0.217151
0.861524 0.475334 0.21828
0.860685 0.481132 0.216693
0.85977 0.486534 0.21474
0.858976 0.492302 0.213046
0.858213 0.498192 0.211353
0.857542 0.504906 0.209781
0.0851606 0.415976 0.0913405
0.0838483 0.423331 0.090837
0.0834058 0.427832 0.090486
0.083711 0.430518 0.0843061
0.0848249 0.431937 0.0771496
0.0856336 0.428901 0.0765698
0.0862745 0.420615 0.0772259
0.0950484 0.413413 0.0787671
0.106874 0.411841 0.0799573
0.130831 0.418463 0.0808423
0.19794 0.436042 0.0872969
0.272328 0.447684 0.0979324
0.345144 0.461006 0.105516
0.434241 0.480446 0.105486
0.491691 0.490364 0.105608
0.540658 0.503151 0.110018
0.580301 0.515679 0.115221
0.622263 0.527886 0.122942
0.6598 0.537545 0.131014
0.693812 0.545342 0.138933
0.72575 0.54844 0.14963
0.757092 0.552407 0.160281
0.785977 0.551553 0.170886
0.810697 0.550393 0.18027
0.833555 0.547555 0.1897
0.849729 0.546685 0.196979
0.854963 0.54786 0.199832
0.854475 0.551583 0.198596
0.854444 0.555901 0.197864
0.854231 0.559686 0.19704
0.854139 0.564324 0.196368
0.854017 0.568536 0.196002
0.853635 0.572976 0.195041
0.0809949 0.455787 0.0918746
0.0806134 0.463096 0.0923934
0.0806897 0.468605 0.0926528
0.0819409 0.471565 0.0875257
0.0836347 0.473945 0.0784314
0.0843824 0.47306 0.0746929
0.0844282 0.465843 0.0746624
0.0890364 0.456962 0.0748455
0.0981003 0.451713 0.0751354
0.116365 0.454643 0.0758373
0.157259 0.466407 0.079881
0.252399 0.494652 0.0941482
0.334432 0.508949 0.109422
0.416526 0.521965 0.115755
0.500633 0.538628 0.116274
0.546456 0.546807 0.117159
0.584955 0.556771 0.121004
0.615396 0.56614 0.125322
0.650828 0.576104 0.131807
0.683833 0.584421 0.13901
0.713893 0.591089 0.14548
0.746136 0.596658 0.154299
0.777829 0.601007 0.163622
0.802991 0.601556 0.172412
0.826261 0.602335 0.18027
0.845197 0.602167 0.187594
0.851759 0.603342 0.190173
0.854063 0.605493 0.190875
0.854047 0.608865 0.190417
0.854307 0.61236 0.190311
0.854109 0.615961 0.189883
0.854002 0.618921 0.189868
0.853742 0.622415 0.189487
0.0820172 0.497261 0.096437
0.0833143 0.505348 0.0984817
0.0839246 0.511009 0.0996109
0.085481 0.51368 0.094789
0.0874495 0.516274 0.0853437
0.0892195 0.516869 0.0780804
0.0886244 0.511315 0.077348
0.0897841 0.502083 0.076524
0.10161 0.495293 0.0764324
0.114748 0.494606 0.0765698
0.144945 0.502815 0.0799725
0.229541 0.527474 0.0935988
0.330236 0.558816 0.114519
0.408133 0.564614 0.125109
0.490562 0.570077 0.125978
0.554086 0.585657 0.127535
0.59147 0.592859 0.128878
0.622827 0.59997 0.131502
0.646311 0.607553 0.135058
0.676326 0.615885 0.13991
0.705104 0.623026 0.145083
0.736171 0.629129 0.153109
0.765515 0.634531 0.161044
0.793103 0.639033 0.168688
0.816449 0.641917 0.175723
0.83798 0.643732 0.182528
0.848722 0.645975 0.186084
0.852628 0.646891 0.188144
0.852491 0.649546 0.187778
0.851957 0.652323 0.187335
0.85243 0.655711 0.187472
0.852323 0.658595 0.187182
0.852216 0.6607 0.187213
0.0892653 0.542641 0.107942
0.0910658 0.551492 0.110582
0.0931716 0.557412 0.1122
0.0939956 0.560067 0.10956
0.0973068 0.563943 0.100603
0.100801 0.567422 0.0895399
0.0990463 0.561395 0.086183
0.098558 0.550179 0.0838483
0.109178 0.542397 0.0833753
0.123278 0.538506 0.0833448
0.139986 0.544045 0.0860914
0.212253 0.564431 0.0977951
0.322484 0.59382 0.118639
0.40676 0.609873 0.1337
0.484977 0.606119 0.13727
0.548104 0.610544 0.137621
0.59646 0.625284 0.138125
0.629221 0.632044 0.139544
0.65539 0.637675 0.141649
0.675563 0.64332 0.144091
0.701381 0.650065 0.147601
0.727642 0.657069 0.153964
0.756176 0.662669 0.160769
0.782879 0.667613 0.167788
0.80528 0.671412 0.173663
0.826032 0.674754 0.179828
0.841291 0.676997 0.184573
0.848722 0.679271 0.186831
0.84918 0.68127 0.187243
0.849027 0.683436 0.187366
0.848508 0.685283 0.18706
0.848325 0.687297 0.187274
0.847883 0.68957 0.187366
0.104097 0.597299 0.128222
0.107485 0.607523 0.13254
0.109667 0.613581 0.133303
0.11136 0.617548 0.132097
0.114794 0.621439 0.123003
0.119234 0.624903 0.11046
0.119554 0.62269 0.104112
0.114107 0.608438 0.0991531
0.125338 0.596918 0.0963302
0.139696 0.590249 0.096376
0.157122 0.590768 0.0986954
0.194934 0.60351 0.105547
0.307439 0.628687 0.123781
0.406332 0.645106 0.139391
0.482124 0.646632 0.146044
0.545388 0.642054 0.149004
0.594491 0.646479 0.150118
0.632578 0.660807 0.148455
0.66067 0.666407 0.149599
0.685237 0.671504 0.150546
0.705196 0.676585 0.153765
0.728847 0.682719 0.158206
0.74992 0.68809 0.16286
0.773526 0.693049 0.168215
0.796155 0.697475 0.173983
0.816876 0.700938 0.17937
0.835019 0.704799 0.184619
0.841764 0.706996 0.186938
0.844877 0.70901 0.188128
0.845106 0.711025 0.18854
0.844587 0.712902 0.188403
0.844556 0.71487 0.188739
0.844465 0.716731 0.188968
0.121553 0.651255 0.153292
0.124727 0.659968 0.157031
0.126635 0.665095 0.156207
0.12871 0.668299 0.155978
0.131823 0.672114 0.146929
0.136904 0.675807 0.132052
0.138231 0.673945 0.122103
0.135027 0.663035 0.117403
0.142947 0.650919 0.113893
0.162646 0.643519 0.112703
0.179568 0.641947 0.114885
0.212192 0.648188 0.119799
0.287495 0.662486 0.128389
0.400748 0.682506 0.145251
0.490227 0.684398 0.152224
0.543221 0.678843 0.156756
0.592737 0.67303 0.162051
0.63238 0.680446 0.161624
0.663813 0.694072 0.15903
0.689921 0.699657 0.159091
0.715099 0.704646 0.161166
0.734554 0.709438 0.164553
0.754086 0.714 0.168383
0.770138 0.717845 0.172076
0.788632 0.722164 0.176318
0.807279 0.726711 0.180774
0.824262 0.730388 0.185229
0.834363 0.733486 0.187976
0.841871 0.735805 0.190341
0.841443 0.737316 0.190417
0.841215 0.739178 0.190753
0.841398 0.741268 0.191608
0.840986 0.742763 0.191684
0.136721 0.696162 0.175402
0.13872 0.703578 0.178042
0.140154 0.707454 0.176852
0.141787 0.710338 0.176471
0.145281 0.714 0.166155
0.150896 0.717281 0.147204
0.153384 0.717052 0.136584
0.151095 0.708095 0.132433
0.158831 0.695781 0.129091
0.182834 0.687785 0.127718
0.195636 0.681376 0.127977
0.223728 0.686107 0.132586
0.292332 0.696818 0.139193
0.406195 0.711452 0.149462
0.497368 0.719814 0.157412
0.550134 0.715358 0.164858
0.590387 0.70782 0.171191
0.6309 0.704768 0.175479
0.664088 0.713848 0.173816
0.691829 0.726787 0.169574
0.718608 0.731716 0.170825
0.742077 0.735759 0.172549
0.760037 0.739742 0.175219
0.776135 0.743191 0.178607
0.790433 0.746868 0.181994
0.805676 0.750683 0.18558
0.820539 0.754391 0.189242
0.830198 0.757351 0.192554
0.836652 0.760098 0.194888
0.838087 0.762264 0.195697
0.837919 0.763622 0.195651
0.837415 0.765515 0.19585
0.837903 0.767163 0.196506
0.146761 0.730678 0.192264
0.147219 0.733471 0.193118
0.148486 0.73521 0.191592
0.149157 0.737118 0.19089
0.152697 0.73933 0.178546
0.157656 0.740719 0.156924
0.160266 0.7393 0.145006
0.160449 0.736339 0.141939
0.172488 0.72961 0.14049
0.198306 0.722759 0.139223
0.215534 0.717098 0.139437
0.236835 0.718135 0.143954
0.288579 0.72575 0.148562
0.387579 0.73753 0.1561
0.503349 0.744503 0.160723
0.557107 0.747066 0.168154
0.594446 0.739086 0.178363
0.62887 0.732937 0.187442
0.662547 0.733623 0.189395
0.691936 0.743038 0.186221
0.719036 0.755611 0.181338
0.743282 0.760143 0.182101
0.766155 0.764309 0.183795
0.782971 0.767987 0.186694
0.798306 0.77113 0.189593
0.810666 0.774075 0.192874
0.822095 0.777493 0.196292
0.832319 0.780682 0.2
0.838148 0.782864 0.202655
0.84094 0.785214 0.203967
0.841688 0.786862 0.2047
0.842435 0.788312 0.205829
0.842481 0.789807 0.206302
0.149874 0.744381 0.201419
0.149844 0.744381 0.201526
0.150072 0.744381 0.200076
0.150637 0.74432 0.196918
0.153964 0.744152 0.180484
0.158648 0.744305 0.159106
0.161151 0.744411 0.148241
0.162158 0.744549 0.145861
0.180072 0.745266 0.146807
0.210315 0.745953 0.147494
0.230762 0.741619 0.148547
0.247929 0.741482 0.153353
0.294606 0.746944 0.157946
0.379767 0.756634 0.160739
0.503334 0.762661 0.163668
0.564218 0.767346 0.170947
0.599802 0.767178 0.182574
0.630655 0.758587 0.195926
0.662058 0.75523 0.205936
0.691783 0.759121 0.205081
0.71841 0.769726 0.200336
0.743816 0.781338 0.193011
0.766064 0.785504 0.193835
0.786862 0.789517 0.195743
0.802274 0.793317 0.19852
0.817456 0.796643 0.202609
0.827619 0.799527 0.205707
0.837629 0.802701 0.210651
0.842832 0.804852 0.21355
0.847242 0.806882 0.216678
0.847623 0.808072 0.217716
0.848356 0.809308 0.218967
0.848829 0.810956 0.220172
0.149432 0.744472 0.204028
0.149264 0.744503 0.204929
0.14934 0.744488 0.204547
0.150301 0.744366 0.198688
0.154177 0.744198 0.178912
0.15848 0.744289 0.159899
0.160708 0.744335 0.150774
0.162356 0.744579 0.148013
0.181994 0.746593 0.149676
0.214099 0.749828 0.150988
0.238788 0.7523 0.154391
0.256336 0.753887 0.159884
0.296605 0.758404 0.165301
0.382483 0.767483 0.167575
0.499657 0.772961 0.166445
0.570794 0.781094 0.173434
0.605447 0.782406 0.186007
0.633448 0.781994 0.202029
0.662272 0.77496 0.217441
0.691676 0.776165 0.221958
0.719554 0.78323 0.219959
0.744595 0.794232 0.212802
0.766186 0.803967 0.206729
0.786984 0.808225 0.208606
0.805463 0.8121 0.211429
0.820111 0.815351 0.2159
0.83241 0.818433 0.221439
0.841459 0.821073 0.225711
0.849302 0.823697 0.230396
0.853315 0.825666 0.233127
0.853986 0.82707 0.234211
0.854582 0.828229 0.233524
0.855238 0.829343 0.233066
0.149371 0.744488 0.204318
0.149294 0.744488 0.204822
0.149157 0.744503 0.205524
0.150393 0.744366 0.198123
0.154543 0.744228 0.176852
0.159655 0.74432 0.155032
0.161288 0.744442 0.147402
0.165591 0.744762 0.148013
0.182498 0.746609 0.15288
0.219791 0.750561 0.154986
0.245899 0.753033 0.159136
0.267262 0.755261 0.165438
0.30013 0.758511 0.171374
0.372061 0.766064 0.173556
0.490089 0.772168 0.17026
0.571878 0.781323 0.175647
0.61117 0.789258 0.187503
0.637446 0.793362 0.205966
0.664057 0.7944 0.223835
0.693446 0.791028 0.234928
0.721035 0.796338 0.236439
0.745968 0.805966 0.233143
0.767575 0.815213 0.227192
0.787106 0.823178 0.223682
0.805493 0.826856 0.226688
0.821942 0.830381 0.230869
0.833982 0.832837 0.235782
0.844739 0.835798 0.237644
0.853284 0.838682 0.240864
0.857496 0.840955 0.236378
0.859922 0.842924 0.230564
0.860502 0.844038 0.230732
0.860929 0.845106 0.231571
0.148882 0.744549 0.207248
0.149187 0.744503 0.205402
0.149355 0.744488 0.204395
0.149981 0.744381 0.200702
0.154269 0.744183 0.178332
0.160037 0.744289 0.153704
0.161608 0.744442 0.146227
0.162554 0.744595 0.147173
0.184375 0.7467 0.153811
0.22417 0.750881 0.157671
0.254398 0.753628 0.162249
0.274022 0.755764 0.169451
0.310307 0.75967 0.176562
0.376013 0.766262 0.179629
0.498589 0.772519 0.174136
0.57789 0.782071 0.185031
0.617807 0.790478 0.199405
0.643381 0.796689 0.21265
0.667384 0.80238 0.22948
0.69395 0.804608 0.242374
0.724651 0.807843 0.251392
0.74934 0.815747 0.249958
0.769757 0.824537 0.245212
0.788098 0.831632 0.242847
0.805493 0.837568 0.242222
0.821118 0.840909 0.245884
0.835401 0.843656 0.249958
0.84593 0.846098 0.251255
0.855985 0.848615 0.252308
0.860349 0.849653 0.248829
0.863447 0.851026 0.242374
0.864057 0.851362 0.242634
0.864042 0.851255 0.24535
0.147906 0.744717 0.212741
0.148272 0.74464 0.210422
0.149523 0.744457 0.20351
0.149676 0.744427 0.20264
0.15404 0.744137 0.179797
0.160494 0.744305 0.151766
0.161639 0.744442 0.146105
0.162631 0.744595 0.147433
0.185489 0.746853 0.153399
0.228199 0.751049 0.159289
0.262135 0.754589 0.165438
0.280491 0.756405 0.17322
0.321004 0.760266 0.181155
0.385657 0.766644 0.188327
0.509163 0.772732 0.182574
0.58439 0.78233 0.201419
0.623819 0.791302 0.214405
0.648234 0.798016 0.225681
0.672023 0.80499 0.234485
0.697551 0.812314 0.25005
0.72755 0.816938 0.262303
0.753002 0.822568 0.265705
0.773983 0.830961 0.262028
0.791623 0.83537 0.2607
0.808316 0.840543 0.259236
0.822507 0.843534 0.256809
0.836118 0.846082 0.260777
0.847776 0.848844 0.266178
0.856703 0.850874 0.267613
0.861646 0.852064 0.266438
0.865171 0.853086 0.264652
0.865217 0.853208 0.265461
0.865232 0.853208 0.265095
0.146838 0.7449 0.219226
0.147845 0.744717 0.213092
0.14934 0.744488 0.204578
0.149645 0.744427 0.202853
0.153872 0.744106 0.181018
0.15996 0.744289 0.153918
0.161501 0.744427 0.146624
0.162173 0.744579 0.147066
0.190433 0.747417 0.154345
0.231434 0.751461 0.159442
0.262638 0.75465 0.166278
0.28246 0.756649 0.174594
0.329046 0.761303 0.185519
0.405005 0.767758 0.194827
0.514122 0.771954 0.202319
0.594308 0.782712 0.228977
0.628656 0.79144 0.237415
0.652491 0.798581 0.237766
0.675654 0.805997 0.242145
0.702251 0.813748 0.255741
0.731365 0.821851 0.271778
0.755383 0.828412 0.274189
0.776837 0.834043 0.274311
0.793988 0.838224 0.272435
0.810346 0.841901 0.268498
0.825147 0.845014 0.265034
0.836316 0.847395 0.269474
0.847776 0.849607 0.274357
0.856931 0.851637 0.2757
0.862623 0.852766 0.273701
0.865232 0.853346 0.272816
0.865568 0.853437 0.272908
0.865599 0.853437 0.272816
0.145983 0.744976 0.225422
0.147173 0.744762 0.216922
