bundles/resolve-cinematic-luts/Phantom Luts/Canon Film LUT/ATOMOS Monitoring LUTs/C-Log 3/Bleach Canon-Legacy CL3 AML.cube
TITLE "Generated by Resolve"
LUT_3D_SIZE 9
0.09514 0.106615 0.096437
0.099794 0.106874 0.0972
0.212024 0.11014 0.102724
0.337789 0.115358 0.113298
0.509239 0.118456 0.133928
0.632105 0.126986 0.172229
0.74258 0.139651 0.232776
0.757977 0.141176 0.262684
0.76173 0.141283 0.281682
0.0956588 0.111009 0.0973068
0.0957351 0.10721 0.0966354
0.181964 0.115602 0.0997482
0.34316 0.116411 0.10309
0.517037 0.118761 0.109209
0.634165 0.128161 0.139635
0.723766 0.138705 0.176471
0.731899 0.139559 0.187366
0.736568 0.13994 0.193164
0.107683 0.231937 0.106874
0.109087 0.231067 0.103777
0.197635 0.224201 0.108812
0.39202 0.22475 0.105272
0.566735 0.198474 0.115633
0.655467 0.170367 0.126009
0.719219 0.140459 0.123903
0.725521 0.144594 0.12813
0.728649 0.145571 0.125948
0.0911574 0.377981 0.0950179
0.0906996 0.390433 0.0827649
0.117769 0.376013 0.0863203
0.372091 0.418418 0.102892
0.591089 0.465934 0.114824
0.735073 0.485527 0.158801
0.844556 0.473671 0.207111
0.860685 0.481132 0.216693
0.857542 0.504906 0.209781
0.0892653 0.542641 0.107942
0.0973068 0.563943 0.100603
0.109178 0.542397 0.0833753
0.322484 0.59382 0.118639
0.59646 0.625284 0.138125
0.701381 0.650065 0.147601
0.80528 0.671412 0.173663
0.84918 0.68127 0.187243
0.847883 0.68957 0.187366
0.146761 0.730678 0.192264
0.152697 0.73933 0.178546
0.172488 0.72961 0.14049
0.288579 0.72575 0.148562
0.594446 0.739086 0.178363
0.719036 0.755611 0.181338
0.798306 0.77113 0.189593
0.838148 0.782864 0.202655
0.842481 0.789807 0.206302
0.148882 0.744549 0.207248
0.154269 0.744183 0.178332
0.184375 0.7467 0.153811
0.310307 0.75967 0.176562
0.617807 0.790478 0.199405
0.724651 0.807843 0.251392
0.805493 0.837568 0.242222
0.855985 0.848615 0.252308
0.864042 0.851255 0.24535
0.145144 0.745129 0.231342
0.15375 0.744106 0.181796
0.195026 0.747997 0.154971
0.341176 0.762417 0.18822
0.634546 0.793164 0.238529
0.735988 0.822705 0.271656
0.812329 0.842298 0.267033
0.856062 0.851514 0.279622
0.865812 0.853544 0.276249
0.14258 0.745693 0.249882
0.154162 0.744183 0.178927
0.219593 0.750546 0.158556
0.377157 0.765621 0.195361
0.646525 0.796963 0.235447
0.747173 0.824628 0.277043
0.814786 0.842786 0.267552
0.855726 0.851408 0.280003
0.865812 0.853544 0.276249
0.0950027 0.106798 0.0979019
0.0962539 0.106752 0.0972915
0.216892 0.110445 0.143954
0.35581 0.115648 0.168933
0.527016 0.11635 0.194797
0.6486 0.126284 0.244358
0.75697 0.139986 0.308736
0.769024 0.140002 0.340352
0.773983 0.141878 0.371847
0.09514 0.106615 0.096437
0.09514 0.106615 0.096437
0.203525 0.110536 0.104387
0.372839 0.116716 0.123354
0.552941 0.120317 0.146624
0.671565 0.13106 0.192523
0.754498 0.141009 0.248188
0.759335 0.141329 0.269673
0.762509 0.141344 0.28484
0.106493 0.217243 0.132723
0.107698 0.2262 0.109438
0.192172 0.216785 0.108476
0.4103 0.201282 0.108095
0.568963 0.175479 0.115923
0.65214 0.142443 0.117464
0.715267 0.139193 0.137011
0.716594 0.138369 0.143252
0.71841 0.140612 0.146212
0.090425 0.370794 0.1234
0.0906233 0.381674 0.0978866
0.105394 0.372869 0.08542
0.369802 0.414389 0.103227
0.605234 0.456245 0.118181
0.748455 0.46276 0.166766
0.852232 0.440253 0.215579
0.861067 0.443885 0.221836
0.859373 0.465232 0.217182
0.0830549 0.530648 0.12961
0.0898909 0.547921 0.112169
0.098558 0.547509 0.0835126
0.277729 0.582605 0.109819
0.594278 0.622995 0.13753
0.704646 0.646464 0.147997
0.812467 0.664988 0.175097
0.849989 0.672145 0.186755
0.848585 0.677989 0.18674
0.136004 0.71899 0.229725
0.144823 0.727733 0.196231
0.159976 0.735332 0.14284
0.25655 0.720516 0.146075
0.583352 0.738476 0.17409
0.71429 0.751369 0.179202
0.795743 0.765042 0.187533
0.837568 0.774899 0.199451
0.839521 0.779568 0.201724
0.139162 0.7467 0.273854
0.148028 0.744686 0.211948
0.161196 0.744427 0.148058
0.279561 0.756313 0.170336
0.598932 0.786633 0.18352
0.714305 0.80206 0.248219
0.799924 0.833997 0.236881
0.850599 0.842603 0.24918
0.861631 0.846189 0.246555
0.134813 0.748943 0.31603
0.144488 0.745266 0.236713
0.161471 0.744457 0.147295
0.293172 0.757763 0.177127
0.61648 0.78764 0.239307
0.717983 0.817472 0.264881
0.802853 0.840345 0.269856
0.850324 0.850111 0.278264
0.865888 0.853559 0.276219
0.131914 0.75079 0.347387
0.141756 0.745876 0.255024
0.163226 0.744579 0.147601
0.301854 0.758495 0.179278
0.622232 0.789471 0.236912
0.722393 0.819364 0.267063
0.802197 0.840208 0.27039
0.846906 0.84947 0.277989
0.865782 0.853544 0.276265
0.0905013 0.110475 0.145418
0.127092 0.110262 0.153216
0.211887 0.111452 0.18793
0.357794 0.115877 0.247395
0.54725 0.119005 0.300374
0.6645 0.128679 0.357397
0.772381 0.141222 0.42855
0.784497 0.142962 0.472602
0.789807 0.14435 0.504921
0.0943313 0.114488 0.129854
0.0922866 0.110719 0.152361
0.209628 0.111315 0.1879
0.403861 0.116564 0.232944
0.578073 0.12015 0.270115
0.695659 0.131914 0.325444
0.774578 0.141817 0.384588
0.778988 0.142092 0.422278
0.782208 0.142809 0.451926
0.100954 0.195254 0.174426
0.101518 0.198215 0.177203
0.200015 0.208209 0.195956
0.442069 0.181704 0.175494
0.588174 0.153735 0.181735
0.683803 0.133089 0.210575
0.760128 0.141649 0.257694
0.7635 0.141711 0.274632
0.765682 0.141848 0.289754
0.0904402 0.349081 0.191318
0.0897078 0.359289 0.174502
0.0940108 0.366857 0.117342
0.372671 0.408133 0.146639
0.6448 0.427527 0.195438
0.769009 0.401297 0.244068
0.851789 0.348608 0.267964
0.860212 0.35906 0.284916
0.871092 0.38909 0.308278
0.0729534 0.500221 0.188098
0.0757763 0.512489 0.169284
0.0839704 0.522545 0.111879
0.166491 0.544167 0.0963912
0.581308 0.609232 0.137758
0.716228 0.633097 0.162005
0.834195 0.645716 0.201541
0.860883 0.646922 0.216953
0.863035 0.654704 0.2271
0.115221 0.683574 0.29836
0.121859 0.695277 0.273579
0.136172 0.706096 0.197055
0.201312 0.707546 0.135149
0.53727 0.731624 0.163867
0.701305 0.736843 0.173617
0.790387 0.748577 0.182422
0.840177 0.757 0.194583
0.841154 0.760143 0.195636
0.130297 0.752331 0.369299
0.133867 0.749722 0.328298
0.146105 0.744991 0.22475
0.211414 0.749554 0.153979
0.513726 0.773526 0.171862
0.682994 0.79411 0.2327
0.787213 0.823407 0.223926
0.844266 0.83151 0.236042
0.857633 0.835904 0.233036
0.127474 0.754589 0.41619
0.1308 0.751797 0.36144
0.14342 0.745556 0.244785
0.206622 0.748928 0.157519
0.514488 0.771649 0.206821
0.682246 0.807889 0.243305
0.784375 0.836042 0.273976
0.839216 0.84802 0.27303
0.865141 0.853315 0.273533
0.125658 0.756313 0.456611
0.12903 0.753384 0.386892
0.140597 0.746319 0.263645
0.206638 0.748928 0.157702
0.517723 0.771893 0.210925
0.680125 0.807263 0.242298
0.778927 0.834638 0.275532
0.8327 0.846403 0.268391
0.863722 0.852979 0.27715
0.0886702 0.113359 0.216892
0.139528 0.112764 0.2421
0.225559 0.113603 0.266453
0.364034 0.117662 0.315084
0.547036 0.119951 0.39028
0.670909 0.131243 0.477226
0.787503 0.145235 0.542779
0.792889 0.14757 0.571145
0.79086 0.14844 0.593011
0.0901961 0.121187 0.209094
0.0917525 0.114107 0.249393
0.206897 0.11487 0.311055
0.40708 0.118349 0.34847
0.584405 0.123369 0.420371
0.709484 0.135302 0.493629
0.793362 0.145998 0.54229
0.793286 0.147158 0.56257
0.792279 0.147768 0.57821
0.0970626 0.180941 0.247211
0.0951705 0.177172 0.270802
0.149859 0.168429 0.329641
0.434531 0.151934 0.365728
0.590585 0.128817 0.380972
0.700572 0.132982 0.421866
0.78497 0.143099 0.476555
0.789517 0.144137 0.498787
0.792416 0.144793 0.517098
0.090013 0.32256 0.294713
0.0889143 0.328862 0.301488
0.0901961 0.323995 0.296895
0.426627 0.414679 0.396155
0.668223 0.40737 0.399329
0.800427 0.399786 0.423713
0.877943 0.363592 0.449134
0.882033 0.366903 0.47512
0.886656 0.385565 0.505211
0.0691539 0.475746 0.28809
0.0691691 0.483116 0.282414
0.0696269 0.481651 0.241611
0.193774 0.553597 0.267277
0.600671 0.615503 0.336904
0.760998 0.628382 0.40734
0.863722 0.630289 0.453605
0.883848 0.629267 0.474189
0.884749 0.635004 0.492088
0.0977035 0.641505 0.381201
0.100099 0.648753 0.370062
0.103593 0.652903 0.320287
0.153475 0.686168 0.239353
0.454932 0.689128 0.274037
0.69337 0.718563 0.318944
0.814511 0.734295 0.365484
0.87538 0.745357 0.41059
0.879988 0.748562 0.432105
0.122377 0.747051 0.474479
0.124376 0.748882 0.446494
0.12874 0.750118 0.380316
0.14435 0.745327 0.238117
0.403861 0.762921 0.245624
0.650248 0.773587 0.283742
0.777508 0.810544 0.300954
0.852705 0.827619 0.309636
0.869047 0.833799 0.312917
0.122515 0.756466 0.525917
0.123919 0.757046 0.4916
0.127626 0.754498 0.413916
0.142901 0.745647 0.24802
0.337819 0.761212 0.208408
0.652873 0.797375 0.262074
0.769207 0.831525 0.275883
0.833997 0.846845 0.276448
0.86656 0.853986 0.31693
0.121324 0.752804 0.555413
0.122896 0.757244 0.518776
0.12639 0.755642 0.437217
0.140078 0.746471 0.267094
0.371267 0.762936 0.237049
0.648569 0.795926 0.259693
0.761273 0.829572 0.281071
0.827817 0.845579 0.278264
0.862165 0.853101 0.332174
0.0887007 0.117128 0.303975
0.141558 0.116472 0.337499
0.240894 0.117678 0.383032
0.380362 0.119844 0.42472
0.553872 0.120729 0.485237
0.673075 0.133913 0.556039
0.78883 0.149935 0.617243
0.793378 0.152255 0.640818
0.797559 0.154589 0.663478
0.0876631 0.127001 0.315557
0.0937209 0.118502 0.350881
0.20209 0.119539 0.434577
0.414054 0.120928 0.489586
0.590509 0.123873 0.52784
0.707835 0.138918 0.583017
0.791821 0.151202 0.626734
0.7935 0.152346 0.641962
0.79617 0.153918 0.656931
0.0913405 0.168917 0.337819
0.0899672 0.161868 0.361898
0.120592 0.136355 0.409735
0.366003 0.13022 0.50515
0.581598 0.124361 0.51809
0.69633 0.136751 0.562997
0.787808 0.148608 0.601678
0.791394 0.150103 0.615
0.791775 0.151064 0.625025
0.0896468 0.306935 0.402457
0.0892042 0.307378 0.425238
0.0898756 0.28571 0.44715
0.335119 0.345174 0.562631
0.671504 0.35375 0.618067
0.800488 0.324849 0.637797
0.86247 0.260182 0.627604
0.863279 0.256947 0.638529
0.874662 0.283909 0.66067
0.0706798 0.450965 0.406714
0.0704662 0.456184 0.413138
0.0708782 0.449378 0.407797
0.189258 0.509407 0.469017
0.621881 0.607828 0.589776
0.771725 0.608728 0.5944
0.872389 0.607965 0.600443
0.890227 0.604105 0.607858
0.891386 0.609537 0.617807
0.0893111 0.607004 0.473808
0.090074 0.61033 0.470832
0.0882582 0.603784 0.439658
0.102342 0.611475 0.391333
0.476036 0.698375 0.518563
0.716701 0.721996 0.561517
0.848829 0.725338 0.608682
0.896986 0.730938 0.624659
0.901061 0.732891 0.633188
0.114672 0.718853 0.554345
0.114244 0.717403 0.541436
0.113985 0.714122 0.505211
0.117693 0.719493 0.419974
0.351476 0.749142 0.431144
0.623133 0.762737 0.48571
0.785428 0.801785 0.55787
0.868986 0.813519 0.587518
0.88954 0.818738 0.601587
0.120577 0.746395 0.594812
0.120806 0.749142 0.577798
0.12192 0.754284 0.543923
0.125658 0.756268 0.456168
0.304204 0.752712 0.404379
0.616983 0.783795 0.481926
0.751431 0.821256 0.53846
0.837552 0.847196 0.581689
0.875639 0.856062 0.593637
0.120912 0.743999 0.618112
0.120607 0.746227 0.595499
0.121233 0.752102 0.559487
0.124865 0.756756 0.472297
0.295354 0.752499 0.397131
0.638682 0.792752 0.527733
0.749264 0.824445 0.546975
0.833463 0.848417 0.563729
0.870909 0.860136 0.605219
0.0906844 0.120912 0.388754
0.148287 0.119921 0.440482
0.247013 0.121721 0.502007
0.401556 0.123995 0.543359
0.562249 0.123415 0.565316
0.681025 0.136873 0.615198
0.799146 0.155642 0.677134
0.804456 0.157977 0.703502
0.806867 0.159609 0.727062
0.0866712 0.132677 0.413687
0.0969406 0.1234 0.453758
0.202625 0.124163 0.534691
0.423377 0.126467 0.585519
0.595865 0.127199 0.603906
0.716793 0.142809 0.647745
0.802136 0.156847 0.691081
0.805295 0.158328 0.708476
0.806592 0.159274 0.723339
0.0881056 0.160891 0.427787
0.0873579 0.151598 0.445975
0.107195 0.125505 0.484108
0.341848 0.128252 0.585885
0.580423 0.127504 0.6047
0.703243 0.140368 0.635874
0.797604 0.155444 0.675196
0.801541 0.156512 0.687465
0.803403 0.157443 0.697337
0.0889601 0.288716 0.502113
0.0886854 0.290547 0.520531
0.0886397 0.266423 0.536965
0.264561 0.283818 0.617075
0.636606 0.302876 0.688136
0.780118 0.299153 0.708049
0.857389 0.261677 0.716243
0.866972 0.261616 0.726589
0.876539 0.282658 0.745129
0.0728771 0.452018 0.499077
0.0732738 0.455421 0.508995
0.0747387 0.440513 0.521904
0.137316 0.44651 0.555611
0.584604 0.582025 0.678447
0.775036 0.590417 0.71986
0.882338 0.581811 0.729335
0.902403 0.57261 0.738277
0.903136 0.581186 0.746303
0.0889906 0.586892 0.55523
0.0897383 0.588846 0.558129
0.087068 0.578912 0.548379
0.090837 0.568505 0.536156
0.509224 0.674815 0.645747
0.730739 0.713054 0.693843
0.850889 0.713283 0.698894
0.900313 0.713771 0.701442
0.903136 0.714992 0.706035
0.113313 0.699443 0.609812
0.112306 0.696254 0.60119
0.10959 0.686839 0.579141
0.106371 0.678065 0.545556
0.337087 0.716609 0.571191
0.655894 0.780514 0.652903
0.809873 0.807401 0.680949
0.88719 0.809354 0.71075
0.904799 0.813214 0.718242
0.12256 0.74168 0.647807
0.121584 0.742626 0.6336
0.120577 0.741863 0.611032
0.119158 0.738964 0.572183
0.25832 0.748852 0.537072
0.60351 0.797269 0.616922
0.752209 0.83003 0.658732
0.853498 0.854078 0.690074
0.89247 0.856992 0.70042
0.123629 0.740276 0.672251
0.122896 0.74139 0.652354
0.121187 0.743496 0.623972
0.120897 0.749676 0.582422
0.213779 0.75758 0.540627
0.589395 0.794339 0.614069
0.760464 0.841413 0.663981
0.834653 0.860395 0.683177
0.884962 0.875807 0.723812
0.0925612 0.125872 0.476265
0.154513 0.124971 0.528649
0.252338 0.128115 0.57792
0.420768 0.129412 0.615534
0.580499 0.130129 0.639353
0.68603 0.139361 0.67393
0.803021 0.15903 0.729717
0.808362 0.161807 0.758297
0.807401 0.162325 0.767239
0.0858473 0.140749 0.502708
0.09897 0.131212 0.532387
0.204807 0.131807 0.597147
0.42945 0.133883 0.651942
0.60589 0.134798 0.676753
0.719036 0.145998 0.70631
0.807965 0.160937 0.745861
0.808301 0.162066 0.761593
0.807813 0.162341 0.766918
0.0873426 0.164721 0.513573
0.0863661 0.156924 0.524681
0.106813 0.133227 0.550301
0.335225 0.136721 0.647028
0.581216 0.134554 0.675914
0.703777 0.142519 0.700069
0.806516 0.159976 0.734401
0.808026 0.160952 0.745907
0.808331 0.161593 0.755169
0.0886854 0.284016 0.56228
0.0888228 0.284092 0.576562
0.0891737 0.259907 0.5906
0.226627 0.257664 0.655344
0.598718 0.269505 0.738903
0.758679 0.268223 0.765835
0.846021 0.231312 0.762585
0.857557 0.232654 0.770504
0.871077 0.257649 0.789212
0.0772869 0.442542 0.564279
0.077821 0.444648 0.573571
0.0804913 0.426566 0.588785
0.121569 0.417884 0.614542
0.542657 0.551751 0.732189
0.767941 0.581628 0.795071
0.879393 0.580774 0.8065
0.904921 0.574456 0.813718
0.904814 0.581888 0.817838
0.0947738 0.593805 0.605829
0.0955367 0.595499 0.61033
0.0937209 0.585184 0.608454
0.0910201 0.568292 0.610376
0.472618 0.650553 0.700877
0.710506 0.698573 0.762997
0.851484 0.703227 0.790646
0.90457 0.700801 0.796933
0.904433 0.701503 0.802792
0.116548 0.689799 0.661768
0.114961 0.685191 0.657633
0.112322 0.673915 0.646662
0.108782 0.660136 0.632944
0.340398 0.691371 0.658534
0.685756 0.775921 0.744778
0.822095 0.800702 0.77467
0.887602 0.8009 0.781033
0.904692 0.800381 0.783734
0.125032 0.738338 0.690913
0.124163 0.736324 0.681544
0.12224 0.731319 0.664973
0.118975 0.721386 0.638575
0.239307 0.717601 0.613977
0.623224 0.797589 0.698833
0.785138 0.84683 0.76347
0.870054 0.857069 0.771801
0.902251 0.857176 0.787564
0.127596 0.740444 0.70782
0.125841 0.73962 0.695857
0.124163 0.740017 0.67602
0.122225 0.742824 0.642664
0.168307 0.748119 0.613886
0.573617 0.798383 0.669764
0.763378 0.857069 0.752392
0.847791 0.872312 0.77113
0.89305 0.881514 0.786709
0.0941176 0.133791 0.539147
0.158373 0.132799 0.586755
0.257618 0.136858 0.633036
0.431998 0.138003 0.675837
0.593118 0.138811 0.704311
0.700359 0.143771 0.730892
0.802838 0.161257 0.764416
0.80708 0.16231 0.768612
0.80708 0.16231 0.768612
0.0859388 0.152651 0.559289
0.0978866 0.144701 0.583886
0.20383 0.143313 0.645701
0.430808 0.145113 0.70576
0.613352 0.144411 0.733852
0.727687 0.148455 0.755032
0.807233 0.162371 0.768643
0.80708 0.16231 0.768612
0.80708 0.16231 0.768612
0.0873426 0.173236 0.566125
0.0869001 0.164538 0.57351
0.102342 0.146624 0.595315
0.330343 0.149004 0.695598
0.583078 0.143969 0.72987
0.706004 0.146166 0.747036
0.807553 0.162371 0.768063
0.807095 0.16231 0.768612
0.807095 0.16231 0.768627
0.0894026 0.285069 0.60267
0.0898604 0.283742 0.615457
0.0901961 0.259495 0.628687
0.202457 0.249668 0.687007
0.572 0.256184 0.77499
0.743313 0.256413 0.803738
0.83827 0.223087 0.796765
0.853147 0.225452 0.799908
0.865873 0.250507 0.812741
0.0808728 0.44213 0.607065
0.0819562 0.443244 0.616892
0.0837568 0.4262 0.630274
0.107652 0.411002 0.655818
0.507942 0.53109 0.765515
0.749157 0.571801 0.832288
0.87747 0.577966 0.843503
0.905119 0.572412 0.846418
0.904936 0.579263 0.848676
0.100526 0.601007 0.644251
0.100999 0.599695 0.648508
0.0981765 0.584283 0.649378
0.0952926 0.560204 0.658457
0.42681 0.632731 0.733913
0.689418 0.684916 0.799725
0.851164 0.702296 0.834257
0.904463 0.703655 0.84361
0.904494 0.704341 0.84741
0.119158 0.690364 0.685817
0.118669 0.686183 0.683803
0.116289 0.675532 0.678355
0.113924 0.662684 0.674632
0.295048 0.675822 0.693385
0.674296 0.759411 0.780682
0.812451 0.791043 0.812421
0.885451 0.791516 0.824231
0.90457 0.789395 0.826276
0.128359 0.739605 0.713787
0.127291 0.73608 0.708095
0.125475 0.726696 0.699641
0.122789 0.714382 0.687907
0.231891 0.705364 0.67364
0.634699 0.789166 0.753735
0.808133 0.845747 0.811414
0.873854 0.853193 0.819913
0.90251 0.853452 0.823224
0.130144 0.744427 0.724773
0.129152 0.742519 0.717983
0.127825 0.740368 0.707408
0.124498 0.738582 0.688945
0.148501 0.739574 0.667582
0.579507 0.793347 0.717372
0.779614 0.86157 0.796231
0.864027 0.87808 0.823392
0.897963 0.881468 0.82327
0.0936141 0.147631 0.589059
0.156786 0.145647 0.634546
0.258076 0.149874 0.680812
0.439414 0.150683 0.726253
0.606332 0.149538 0.753353
0.717083 0.148852 0.76141
0.806104 0.162051 0.768505
0.80708 0.16231 0.768612
0.80708 0.16231 0.768612
0.087068 0.163546 0.601724
0.0948043 0.15761 0.618845
0.201526 0.157046 0.680461
0.43566 0.155581 0.739025
0.622583 0.150393 0.758709
0.738003 0.150835 0.763119
0.80708 0.16231 0.768612
0.80708 0.16231 0.768612
0.80708 0.16231 0.768612
0.088014 0.185016 0.606455
0.0875868 0.173678 0.608484
0.0991379 0.15819 0.624628
0.330617 0.159716 0.723171
0.588129 0.151003 0.754879
0.711864 0.148196 0.761151
0.807095 0.16231 0.768627
0.807095 0.16231 0.768612
0.807095 0.16231 0.768627
0.0904555 0.289723 0.63505
0.0905165 0.288014 0.64538
0.0907912 0.262379 0.654368
0.189883 0.245991 0.701686
0.559014 0.247868 0.787915
0.73434 0.246555 0.812512
0.832807 0.215137 0.797345
0.849088 0.217411 0.797635
0.853284 0.227619 0.802426
0.0833295 0.447013 0.636393
0.0838331 0.44802 0.644373
0.0853895 0.430167 0.65684
0.10602 0.413016 0.683162
0.480629 0.519661 0.785367
0.7337 0.566262 0.848783
0.872908 0.576516 0.861799
0.905241 0.570489 0.860868
0.905211 0.57702 0.861234
0.10428 0.603662 0.671443
0.104112 0.600626 0.674876
0.101915 0.584192 0.678126
0.0986343 0.557839 0.687816
0.393896 0.620447 0.756542
0.671824 0.674174 0.819226
0.84387 0.700099 0.857816
0.904463 0.704997 0.8636
0.904341 0.705577 0.866224
0.122164 0.695842 0.703716
0.121065 0.69099 0.702251
0.119539 0.680064 0.699657
0.117372 0.664027 0.699214
0.276722 0.66775 0.717525
0.655909 0.744488 0.797467
0.800305 0.783642 0.835325
0.884749 0.790143 0.850202
0.904707 0.788434 0.856199
0.130175 0.742535 0.725856
0.129015 0.737255 0.721599
0.127535 0.727214 0.715938
0.125307 0.71519 0.709407
0.200122 0.708156 0.705715
0.613077 0.777432 0.7729
0.801328 0.839765 0.829236
0.868208 0.849393 0.837705
0.899763 0.849378 0.840375
0.131914 0.747753 0.734447
0.130938 0.745953 0.730022
0.1299 0.743938 0.723415
0.12871 0.740841 0.714519
0.131106 0.735592 0.707561
0.57734 0.784283 0.748821
0.787869 0.859953 0.822034
0.871458 0.876616 0.842954
0.89839 0.879408 0.844007
