bundles/resolve-cinematic-luts/Phantom Luts/Canon Film LUT/ATOMOS Monitoring LUTs/C-Log 3/Bleach Canon-Legacy CL3 AML.cube
TITLE "Generated by Resolve"
LUT_3D_SIZE 5
0.09514 0.106615 0.096437
0.212024 0.11014 0.102724
0.509239 0.118456 0.133928
0.74258 0.139651 0.232776
0.76173 0.141283 0.281682
0.107683 0.231937 0.106874
0.197635 0.224201 0.108812
0.566735 0.198474 0.115633
0.719219 0.140459 0.123903
0.728649 0.145571 0.125948
0.0892653 0.542641 0.107942
0.109178 0.542397 0.0833753
0.59646 0.625284 0.138125
0.80528 0.671412 0.173663
0.847883 0.68957 0.187366
0.148882 0.744549 0.207248
0.184375 0.7467 0.153811
0.617807 0.790478 0.199405
0.805493 0.837568 0.242222
0.864042 0.851255 0.24535
0.14258 0.745693 0.249882
0.219593 0.750546 0.158556
0.646525 0.796963 0.235447
0.814786 0.842786 0.267552
0.865812 0.853544 0.276249
0.0905013 0.110475 0.145418
0.211887 0.111452 0.18793
0.54725 0.119005 0.300374
0.772381 0.141222 0.42855
0.789807 0.14435 0.504921
0.100954 0.195254 0.174426
0.200015 0.208209 0.195956
0.588174 0.153735 0.181735
0.760128 0.141649 0.257694
0.765682 0.141848 0.289754
0.0729534 0.500221 0.188098
0.0839704 0.522545 0.111879
0.581308 0.609232 0.137758
0.834195 0.645716 0.201541
0.863035 0.654704 0.2271
0.130297 0.752331 0.369299
0.146105 0.744991 0.22475
0.513726 0.773526 0.171862
0.787213 0.823407 0.223926
0.857633 0.835904 0.233036
0.125658 0.756313 0.456611
0.140597 0.746319 0.263645
0.517723 0.771893 0.210925
0.778927 0.834638 0.275532
0.863722 0.852979 0.27715
0.0887007 0.117128 0.303975
0.240894 0.117678 0.383032
0.553872 0.120729 0.485237
0.78883 0.149935 0.617243
0.797559 0.154589 0.663478
0.0913405 0.168917 0.337819
0.120592 0.136355 0.409735
0.581598 0.124361 0.51809
0.787808 0.148608 0.601678
0.791775 0.151064 0.625025
0.0706798 0.450965 0.406714
0.0708782 0.449378 0.407797
0.621881 0.607828 0.589776
0.872389 0.607965 0.600443
0.891386 0.609537 0.617807
0.114672 0.718853 0.554345
0.113985 0.714122 0.505211
0.351476 0.749142 0.431144
0.785428 0.801785 0.55787
0.88954 0.818738 0.601587
0.120912 0.743999 0.618112
0.121233 0.752102 0.559487
0.295354 0.752499 0.397131
0.749264 0.824445 0.546975
0.870909 0.860136 0.605219
0.0925612 0.125872 0.476265
0.252338 0.128115 0.57792
0.580499 0.130129 0.639353
0.803021 0.15903 0.729717
0.807401 0.162325 0.767239
0.0873426 0.164721 0.513573
0.106813 0.133227 0.550301
0.581216 0.134554 0.675914
0.806516 0.159976 0.734401
0.808331 0.161593 0.755169
0.0772869 0.442542 0.564279
0.0804913 0.426566 0.588785
0.542657 0.551751 0.732189
0.879393 0.580774 0.8065
0.904814 0.581888 0.817838
0.116548 0.689799 0.661768
0.112322 0.673915 0.646662
0.340398 0.691371 0.658534
0.822095 0.800702 0.77467
0.904692 0.800381 0.783734
0.127596 0.740444 0.70782
0.124163 0.740017 0.67602
0.168307 0.748119 0.613886
0.763378 0.857069 0.752392
0.89305 0.881514 0.786709
0.0936141 0.147631 0.589059
0.258076 0.149874 0.680812
0.606332 0.149538 0.753353
0.806104 0.162051 0.768505
0.80708 0.16231 0.768612
0.088014 0.185016 0.606455
0.0991379 0.15819 0.624628
0.588129 0.151003 0.754879
0.807095 0.16231 0.768627
0.807095 0.16231 0.768627
0.0833295 0.447013 0.636393
0.0853895 0.430167 0.65684
0.480629 0.519661 0.785367
0.872908 0.576516 0.861799
0.905211 0.57702 0.861234
0.122164 0.695842 0.703716
0.119539 0.680064 0.699657
0.276722 0.66775 0.717525
0.800305 0.783642 0.835325
0.904707 0.788434 0.856199
0.131914 0.747753 0.734447
0.1299 0.743938 0.723415
0.131106 0.735592 0.707561
0.787869 0.859953 0.822034
0.89839 0.879408 0.844007
