bundles/resolve-cinematic-luts/Phantom Luts/Canon Film LUT/ATOMOS Monitoring LUTs/C-Log 3/EastmanRM Canon CL3 AML.cube
TITLE "Generated by Resolve"
LUT_3D_SIZE 33
0.103593 0.0986038 0.101061
0.103944 0.0982376 0.100465
0.107179 0.0974136 0.0996262
0.137179 0.0948043 0.100603
0.189532 0.0914778 0.10164
0.229129 0.0898604 0.103044
0.271519 0.0886854 0.10309
0.315694 0.087541 0.103105
0.357458 0.0867628 0.104204
0.391302 0.0872969 0.107134
0.421576 0.0883345 0.11017
0.451331 0.0886549 0.113405
0.478492 0.089128 0.117113
0.502632 0.0894942 0.121401
0.523354 0.0898299 0.125856
0.540398 0.090959 0.131899
0.554238 0.0933394 0.140383
0.566278 0.0966354 0.150103
0.579553 0.100267 0.162646
0.593378 0.104387 0.176699
0.603128 0.107805 0.188327
0.606058 0.109148 0.194369
0.607309 0.109957 0.199237
0.608179 0.111025 0.203067
0.60911 0.111757 0.207324
0.60943 0.112215 0.210834
0.610086 0.112932 0.214557
0.611154 0.11368 0.21799
0.61001 0.114488 0.222477
0.606027 0.115831 0.230259
0.600137 0.117617 0.239612
0.589471 0.120394 0.25478
0.578012 0.123384 0.270085
0.103929 0.0982681 0.100511
0.103731 0.0984665 0.100786
0.103944 0.0982376 0.100465
0.116609 0.0965438 0.099733
0.158022 0.0940414 0.100206
0.202335 0.091722 0.101091
0.240436 0.0900435 0.101869
0.284627 0.0879988 0.10074
0.332433 0.0865187 0.100053
0.373526 0.0868849 0.100984
0.407279 0.0874647 0.102464
0.437446 0.0882429 0.104463
0.464286 0.0887617 0.108171
0.487968 0.0892348 0.112718
0.510674 0.0899062 0.118517
0.529793 0.0901808 0.123507
0.546014 0.0915389 0.130312
0.560296 0.0940871 0.137514
0.573388 0.0977493 0.149493
0.587625 0.101457 0.163348
0.598703 0.104845 0.175845
0.602182 0.10634 0.181674
0.603433 0.107149 0.184451
0.604334 0.10782 0.187762
0.605234 0.108492 0.191546
0.606394 0.109331 0.195483
0.607324 0.109987 0.199329
0.607935 0.11075 0.202182
0.60708 0.111681 0.206882
0.602853 0.11284 0.214374
0.596948 0.114107 0.223301
0.585931 0.116396 0.237934
0.57467 0.119265 0.252903
0.103914 0.0982528 0.100496
0.103731 0.0984665 0.100786
0.103944 0.0982376 0.100465
0.106264 0.0987411 0.099855
0.134249 0.0974746 0.0988632
0.177523 0.0966354 0.0993057
0.212726 0.0953231 0.100298
0.252949 0.0937209 0.100679
0.304006 0.0910353 0.0999008
0.353735 0.0885023 0.098558
0.393744 0.0873732 0.0987411
0.426902 0.088014 0.100221
0.453925 0.0884565 0.102403
0.47892 0.0890059 0.105806
0.500481 0.0894789 0.111345
0.518898 0.090074 0.116655
0.535561 0.0912795 0.123476
0.550179 0.0931716 0.13106
0.564553 0.0957351 0.138918
0.580072 0.0988785 0.150622
0.59205 0.101946 0.162783
0.597253 0.103746 0.170138
0.599161 0.104448 0.1738
0.600748 0.105211 0.177401
0.601923 0.106157 0.180758
0.60293 0.106767 0.183093
0.603952 0.107515 0.186069
0.604273 0.108003 0.188952
0.603494 0.10869 0.193256
0.599771 0.109911 0.200488
0.594308 0.111467 0.209384
0.583429 0.113771 0.224094
0.572122 0.116335 0.238834
0.103899 0.111009 0.10219
0.103792 0.105333 0.101747
0.104204 0.102007 0.101778
0.104463 0.0994736 0.100801
0.111666 0.102495 0.100465
0.147189 0.103532 0.0997482
0.191287 0.10457 0.10016
0.227344 0.105425 0.101152
0.273625 0.101488 0.100603
0.327871 0.0955825 0.0993973
0.375967 0.0902876 0.0992294
0.415366 0.0884871 0.0992294
0.448112 0.0883803 0.0998245
0.474037 0.0887922 0.101839
0.495781 0.0893568 0.10547
0.513085 0.0900435 0.111635
0.527276 0.0909285 0.116899
0.541451 0.092668 0.125628
0.555169 0.0953841 0.134157
0.570245 0.098024 0.144503
0.582879 0.0999008 0.154269
0.58732 0.101244 0.160037
0.589471 0.102174 0.164309
0.59147 0.103151 0.168841
0.594018 0.104005 0.173434
0.595254 0.104662 0.17644
0.596674 0.10547 0.179797
0.597223 0.106188 0.182742
0.59765 0.107012 0.185946
0.595315 0.107836 0.190646
0.590875 0.109026 0.198093
0.58024 0.111147 0.210986
0.568658 0.113375 0.225437
0.105653 0.157458 0.105806
0.104295 0.151263 0.103517
0.105028 0.143801 0.103273
0.107225 0.135775 0.103822
0.113283 0.128481 0.102495
0.144533 0.134768 0.104585
0.18172 0.134081 0.104997
0.217426 0.130785 0.102541
0.258549 0.12285 0.101976
0.305303 0.114351 0.102037
0.354192 0.107149 0.102541
0.401068 0.0981308 0.100755
0.438743 0.0911269 0.100069
0.467826 0.0889448 0.100481
0.491066 0.0891585 0.102556
0.510109 0.0897078 0.107179
0.524849 0.0906844 0.113832
0.537758 0.0926375 0.121172
0.549416 0.0948959 0.129351
0.563272 0.0971695 0.138521
0.576623 0.0992142 0.148257
0.58027 0.099855 0.152392
0.582147 0.100252 0.155413
0.583688 0.100847 0.158343
0.585489 0.101564 0.161959
0.587274 0.102373 0.165789
0.589181 0.10309 0.169741
0.591043 0.10396 0.173816
0.592157 0.104555 0.176577
0.590524 0.105272 0.181338
0.586419 0.106493 0.1879
0.576455 0.10837 0.200458
0.565362 0.110628 0.214527
0.109621 0.193027 0.109728
0.108034 0.18883 0.10631
0.108095 0.182696 0.105348
0.110887 0.176287 0.105394
0.117098 0.171237 0.105699
0.14638 0.170581 0.104799
0.178134 0.17116 0.10695
0.219577 0.168673 0.1084
0.270558 0.160937 0.108003
0.31722 0.153338 0.104738
0.356176 0.146166 0.103197
0.393301 0.135805 0.102571
0.427741 0.113909 0.103639
0.46154 0.0987716 0.102037
0.486732 0.091249 0.102296
0.504585 0.0897078 0.104311
0.521141 0.0906081 0.11017
0.535393 0.0926528 0.11809
0.546822 0.0946975 0.125414
0.559594 0.0966659 0.134844
0.573678 0.0987106 0.144976
0.57731 0.0993515 0.147753
0.577539 0.0993973 0.148165
0.578012 0.0994888 0.148928
0.579339 0.099794 0.150896
0.58117 0.100038 0.153872
0.582879 0.100557 0.156847
0.584054 0.101015 0.15935
0.58529 0.101549 0.161746
0.583978 0.102373 0.166522
0.580789 0.103349 0.173419
0.571344 0.105226 0.186664
0.560143 0.107454 0.200351
0.111559 0.224674 0.112734
0.10959 0.221454 0.109377
0.108995 0.215488 0.108568
0.112535 0.20911 0.107622
0.127047 0.203723 0.107607
0.158404 0.202075 0.108782
0.195941 0.200153 0.106996
0.232532 0.197147 0.107408
0.287129 0.192401 0.106722
0.340841 0.183932 0.106416
0.386053 0.173953 0.105715
0.419669 0.165011 0.10428
0.446952 0.157198 0.102541
0.474098 0.145388 0.102953
0.498314 0.129427 0.104494
0.513726 0.106325 0.105165
0.521935 0.0939803 0.107362
0.529488 0.0922713 0.112978
0.543984 0.094667 0.121828
0.556344 0.0966506 0.130312
0.569146 0.0986954 0.140246
0.577295 0.099321 0.1467
0.577523 0.099382 0.147082
0.577783 0.0994278 0.147601
0.577935 0.0994583 0.148104
0.577905 0.0994583 0.148241
0.578073 0.0994888 0.148592
0.578195 0.0995346 0.148898
0.578332 0.0995499 0.14931
0.577173 0.099855 0.151293
0.574975 0.100389 0.155566
0.56846 0.101259 0.162875
0.561379 0.102342 0.17116
0.11371 0.258366 0.108339
0.110719 0.255406 0.105394
0.108995 0.251011 0.105821
0.110964 0.245136 0.107164
0.11812 0.240314 0.107897
0.137545 0.237415 0.109255
0.178332 0.23949 0.111147
0.22916 0.23801 0.109331
0.282261 0.232837 0.110079
0.348302 0.229313 0.110323
0.403296 0.221302 0.110185
0.44654 0.207324 0.110094
0.477028 0.196521 0.109087
0.500206 0.187655 0.108049
0.520226 0.178851 0.107424
0.537148 0.16492 0.108385
0.546548 0.144167 0.111116
0.54931 0.118669 0.112886
0.546883 0.10071 0.116609
0.55227 0.0971237 0.125032
0.565896 0.0988022 0.134539
0.576135 0.099443 0.142168
0.576226 0.0993362 0.143221
0.576318 0.0993057 0.143923
0.576471 0.0993057 0.144533
0.576623 0.0992905 0.145235
0.576761 0.0992752 0.145769
0.576852 0.0992752 0.146151
0.576928 0.0992905 0.146334
0.575753 0.0993973 0.147799
0.572869 0.0998093 0.15082
0.56585 0.100679 0.157504
0.558114 0.101625 0.164477
0.112322 0.300801 0.10724
0.109422 0.298939 0.103548
0.107622 0.295186 0.103365
0.107408 0.288182 0.103685
0.111635 0.283116 0.104509
0.123049 0.280171 0.10486
0.158618 0.282078 0.108217
0.206943 0.289616 0.111635
0.278141 0.289952 0.11162
0.342382 0.284001 0.11342
0.410315 0.281453 0.115084
0.466224 0.273793 0.113863
0.508141 0.25864 0.114748
0.538552 0.24123 0.115999
0.560891 0.228656 0.116533
0.577569 0.222004 0.115755
0.589792 0.209018 0.117708
0.595544 0.19234 0.121401
0.58912 0.165179 0.125902
0.58146 0.131395 0.123415
0.567422 0.104799 0.127428
0.573938 0.102281 0.135164
0.574273 0.100893 0.137194
0.573541 0.0999771 0.137865
0.57467 0.100267 0.138903
0.574929 0.100084 0.140124
0.575479 0.0998856 0.14197
0.575418 0.0997024 0.142672
0.575509 0.0996262 0.142992
0.573861 0.099794 0.144289
0.570932 0.100114 0.146731
0.56408 0.100862 0.152514
0.556374 0.101884 0.159213
0.111421 0.344518 0.106844
0.108659 0.343191 0.101457
0.106752 0.341573 0.101061
0.10634 0.336492 0.102022
0.107347 0.329458 0.102358
0.113924 0.326223 0.102953
0.132265 0.327016 0.103746
0.181521 0.334432 0.108141
0.243503 0.346044 0.112154
0.337972 0.348455 0.11252
0.403372 0.341039 0.114687
0.469276 0.339483 0.117693
0.523186 0.334356 0.117037
0.563973 0.321157 0.116747
0.594858 0.299336 0.11986
0.61944 0.280446 0.12311
0.63563 0.268513 0.125338
0.646967 0.25948 0.129229
0.652857 0.245045 0.135805
0.652323 0.225483 0.144503
0.638193 0.194629 0.149325
0.611185 0.145785 0.137972
0.594842 0.124712 0.137209
0.590539 0.11989 0.138293
0.589609 0.11841 0.139651
0.587304 0.115511 0.140902
0.58204 0.110811 0.140764
0.57641 0.1066 0.140093
0.572671 0.10425 0.1393
0.570321 0.103395 0.139925
0.567636 0.102907 0.140505
0.562585 0.102785 0.143786
0.55555 0.102876 0.148562
0.108873 0.385748 0.104921
0.107317 0.385504 0.100145
0.105959 0.385443 0.0998093
0.105318 0.382162 0.0994125
0.105333 0.375967 0.10013
0.108324 0.370672 0.100511
0.113573 0.367956 0.101045
0.140612 0.372 0.102724
0.20174 0.385504 0.106294
0.28983 0.401892 0.11136
0.399069 0.404944 0.111803
0.462409 0.397299 0.115084
0.521798 0.396078 0.120226
0.570825 0.394553 0.122393
0.611475 0.383963 0.121996
0.643122 0.363958 0.122667
0.668635 0.34139 0.130037
0.687053 0.322988 0.136065
0.697185 0.314061 0.141375
0.703426 0.301595 0.149279
0.705638 0.284764 0.158099
0.702708 0.262043 0.166995
0.694133 0.242451 0.170321
0.684382 0.230304 0.168978
0.671672 0.215274 0.167285
0.663554 0.206256 0.166339
0.650904 0.194034 0.162951
0.638605 0.180117 0.156527
0.628901 0.168078 0.150072
0.622492 0.160357 0.145769
0.618387 0.154223 0.143908
0.614694 0.153185 0.146258
0.608286 0.152941 0.149966
0.10782 0.425315 0.103685
0.106767 0.425879 0.101228
0.105837 0.426307 0.100847
0.105608 0.424018 0.0986801
0.105241 0.42002 0.098909
0.105318 0.413306 0.0989853
0.109606 0.41004 0.0988327
0.117266 0.409461 0.0990768
0.155337 0.418692 0.100771
0.237644 0.438025 0.105394
0.348226 0.457008 0.111772
0.455528 0.458534 0.112627
0.515419 0.450889 0.117433
0.566796 0.450843 0.125566
0.609903 0.449989 0.13138
0.648386 0.443275 0.133944
0.679194 0.428046 0.135119
0.703502 0.404776 0.140841
0.72517 0.383856 0.150942
0.738262 0.367773 0.16054
0.744244 0.357946 0.166232
0.747585 0.343908 0.172305
0.746365 0.330755 0.174487
0.74229 0.322866 0.173648
0.738491 0.315022 0.173281
0.734478 0.307271 0.172885
0.730907 0.300587 0.172534
0.727703 0.29482 0.172183
0.724926 0.289601 0.171969
0.722576 0.285451 0.172015
0.720653 0.281727 0.172152
0.715755 0.279362 0.174365
0.708553 0.278447 0.179339
0.109346 0.462882 0.10547
0.108278 0.464332 0.105898
0.1075 0.464805 0.105043
0.107485 0.463508 0.102678
0.107347 0.461219 0.101549
0.107485 0.456123 0.100664
0.109957 0.451118 0.09897
0.114855 0.447639 0.0979629
0.130816 0.450675 0.098024
0.187366 0.464302 0.100298
0.301656 0.494728 0.108614
0.412558 0.508751 0.114855
0.50721 0.508644 0.117128
0.561013 0.501442 0.12398
0.606867 0.501122 0.134874
0.644724 0.500603 0.144915
0.678431 0.497337 0.153063
0.707713 0.487694 0.158312
0.729549 0.467918 0.161425
0.749935 0.446326 0.169986
0.76582 0.426886 0.179629
0.774823 0.409995 0.187335
0.778286 0.399329 0.191669
0.776913 0.394049 0.190478
0.774197 0.389929 0.188144
0.771923 0.385687 0.186038
0.769726 0.381628 0.184451
0.767834 0.377981 0.183139
0.766705 0.374319 0.182681
0.765652 0.371389 0.182284
0.765133 0.368551 0.182239
0.761425 0.367391 0.185473
0.755032 0.367468 0.191272
0.114748 0.49865 0.112001
0.113161 0.500511 0.115251
0.113344 0.500481 0.112169
0.11371 0.500175 0.110475
0.113817 0.498436 0.108675
0.112535 0.494743 0.107652
0.111513 0.488533 0.105745
0.119722 0.486564 0.102541
0.129046 0.484932 0.101091
0.159152 0.491341 0.100984
0.243732 0.512428 0.105379
0.372213 0.549584 0.119036
0.472602 0.554116 0.122698
0.553063 0.554116 0.128038
0.602579 0.546471 0.136522
0.642817 0.54583 0.149905
0.676493 0.545342 0.164218
0.705806 0.543999 0.177401
0.729183 0.537758 0.186465
0.749691 0.52607 0.190585
0.766323 0.505913 0.193225
0.781369 0.485405 0.199756
0.791135 0.469886 0.207218
0.793484 0.461326 0.20708
0.793423 0.456626 0.206409
0.79263 0.452171 0.205249
0.792203 0.448493 0.204547
0.791745 0.444968 0.203708
0.791287 0.44239 0.203204
0.790448 0.440314 0.202319
0.790311 0.438819 0.20209
0.786984 0.438453 0.205234
0.781262 0.439292 0.211612
0.126329 0.532403 0.124529
0.12343 0.535256 0.132586
0.122927 0.535897 0.131868
0.125566 0.534768 0.125856
0.12726 0.533333 0.121782
0.125887 0.531289 0.120485
0.123354 0.526024 0.118395
0.128069 0.522148 0.113024
0.142992 0.521202 0.108812
0.157046 0.521691 0.106798
0.211872 0.532509 0.10753
0.32372 0.566186 0.119997
0.434379 0.595682 0.135836
0.523629 0.594125 0.137362
0.592569 0.595285 0.145708
0.639048 0.588129 0.156359
0.673564 0.587015 0.17113
0.704234 0.587289 0.187533
0.730495 0.586862 0.205005
0.751507 0.58378 0.219532
0.770031 0.577188 0.229206
0.782879 0.561639 0.230594
0.792828 0.543252 0.229175
0.797177 0.534676 0.226459
0.798749 0.530236 0.223316
0.798245 0.526299 0.221103
0.798306 0.523171 0.219577
0.798291 0.520333 0.21857
0.798047 0.517708 0.217395
0.79794 0.515892 0.216968
0.798062 0.514672 0.216861
0.796033 0.514504 0.219867
0.790997 0.515206 0.226505
0.145663 0.563836 0.149203
0.141085 0.566796 0.160342
0.139559 0.568612 0.163348
0.143236 0.567971 0.152621
0.147875 0.566567 0.142397
0.14818 0.565499 0.140291
0.14464 0.561532 0.138201
0.145632 0.556588 0.132601
0.162264 0.55436 0.124392
0.177737 0.552682 0.118395
0.202152 0.556161 0.116686
0.288396 0.578119 0.124041
0.403265 0.618463 0.148455
0.491814 0.637064 0.161135
0.568322 0.631388 0.162325
0.628946 0.63476 0.172488
0.67187 0.627955 0.1832
0.701839 0.626215 0.197391
0.729412 0.626612 0.21648
0.753643 0.627039 0.238422
0.772229 0.625177 0.25507
0.78645 0.621408 0.266651
0.798184 0.613794 0.272099
0.802533 0.605371 0.271656
0.803769 0.600961 0.269291
0.8038 0.597818 0.266941
0.803235 0.59527 0.264759
0.80293 0.593286 0.26334
0.802792 0.59147 0.26215
0.802243 0.589899 0.261097
0.802136 0.589105 0.260365
0.801266 0.588876 0.26154
0.799573 0.589181 0.264012
0.167483 0.594507 0.191623
0.165454 0.597025 0.199069
0.163684 0.599252 0.203418
0.166506 0.599588 0.196063
0.172946 0.59826 0.177035
0.17583 0.597452 0.166827
0.173342 0.594705 0.164279
0.170169 0.589059 0.157275
0.18471 0.585199 0.14847
0.207843 0.583124 0.139391
0.219837 0.582712 0.135592
0.266773 0.593439 0.136324
0.374166 0.629831 0.158404
0.47393 0.666285 0.186206
0.542672 0.674296 0.19263
0.609628 0.667369 0.194415
0.661509 0.672816 0.20708
0.701122 0.666148 0.21799
0.728191 0.66389 0.233173
0.752544 0.664134 0.253162
0.773892 0.664912 0.272984
0.791241 0.663844 0.289189
0.803296 0.661265 0.301076
0.811521 0.657267 0.307424
0.812329 0.654932 0.307057
0.811933 0.653361 0.305852
0.811765 0.651896 0.304677
0.81181 0.650782 0.304036
0.811688 0.649744 0.303532
0.811551 0.648875 0.303075
0.811414 0.648508 0.302663
0.811276 0.64831 0.302617
0.81117 0.64831 0.302892
0.193759 0.623011 0.230304
0.193225 0.624903 0.234226
0.19147 0.626932 0.238483
0.193057 0.627878 0.233722
0.196948 0.627359 0.217456
0.202243 0.626184 0.196994
0.201282 0.625315 0.194095
0.197574 0.62005 0.186419
0.205585 0.614878 0.178882
0.233753 0.612253 0.169543
0.248981 0.611276 0.165667
0.271077 0.614939 0.165515
0.350896 0.638178 0.175326
0.459892 0.682475 0.211673
0.533745 0.707576 0.231617
0.590738 0.708263 0.230442
0.647242 0.702449 0.234012
0.692012 0.709087 0.251316
0.727764 0.703349 0.263828
0.753536 0.700755 0.276631
0.774075 0.700435 0.291188
0.791226 0.700404 0.306355
0.806622 0.700099 0.321447
0.818982 0.698421 0.333516
0.821561 0.696635 0.335119
0.821591 0.695552 0.334752
0.821134 0.694575 0.333944
0.821225 0.693935 0.333425
0.821103 0.693248 0.332815
0.820996 0.692851 0.332448
0.821027 0.692714 0.332433
0.821012 0.692622 0.332357
0.821012 0.692744 0.332403
0.220096 0.648188 0.261006
0.219806 0.649912 0.264805
0.217288 0.651942 0.27013
0.217105 0.653376 0.26743
0.219532 0.652827 0.250782
0.224796 0.651408 0.222843
0.224247 0.650752 0.22089
0.221973 0.647227 0.214771
0.225742 0.642222 0.209522
0.252277 0.638453 0.201724
0.275105 0.637186 0.196857
0.289113 0.637507 0.197177
0.33431 0.648875 0.202762
0.440925 0.687938 0.230411
0.528206 0.725933 0.264851
0.584482 0.740017 0.275517
0.632822 0.73875 0.274174
0.6822 0.736522 0.281849
0.720714 0.742702 0.297963
0.751919 0.737469 0.308797
0.775158 0.735027 0.319127
0.792111 0.734142 0.329015
0.806638 0.733913 0.340581
0.819257 0.7337 0.351965
0.827802 0.73341 0.360174
0.827771 0.732494 0.359731
0.827665 0.731792 0.359228
0.827665 0.73106 0.358831
0.827634 0.730541 0.358495
0.827588 0.73022 0.358221
0.827634 0.730083 0.35819
0.827695 0.730022 0.358206
0.827695 0.730068 0.358282
0.241718 0.668086 0.286473
0.240223 0.669871 0.290166
0.237568 0.671702 0.295293
0.236057 0.672236 0.292699
0.236133 0.670878 0.275517
0.238804 0.668513 0.24799
0.238819 0.667826 0.242588
0.238605 0.666423 0.236942
0.239002 0.662058 0.231846
0.267613 0.659968 0.228855
0.296742 0.659113 0.225269
0.312367 0.659037 0.226169
0.339315 0.664561 0.230594
0.413001 0.688304 0.24596
0.516289 0.732769 0.284153
0.584466 0.760006 0.308812
0.629313 0.766644 0.314336
0.671931 0.765652 0.317296
0.714549 0.765682 0.326833
0.747723 0.771542 0.341878
0.773632 0.767651 0.352422
0.793149 0.765286 0.361547
0.808545 0.764004 0.368765
0.820966 0.763439 0.375662
0.828824 0.762661 0.380591
0.830274 0.762356 0.381125
0.830304 0.762158 0.380896
0.830304 0.761944 0.380667
0.830365 0.7617 0.380529
0.830549 0.761517 0.380545
0.830686 0.761486 0.380636
0.830747 0.761532 0.380728
0.8309 0.761639 0.380957
0.250217 0.676966 0.300374
0.247456 0.677867 0.30605
0.243687 0.678325 0.308797
0.240558 0.677791 0.304006
0.239292 0.675166 0.286763
0.240604 0.67187 0.25861
0.241276 0.670985 0.250278
0.24184 0.67039 0.244968
0.244587 0.670542 0.243748
0.275013 0.671717 0.245136
0.310643 0.672877 0.244388
0.332555 0.67541 0.248432
0.350942 0.679271 0.255634
0.402335 0.693996 0.26714
0.498436 0.732952 0.295857
0.58204 0.770596 0.330632
0.629786 0.785534 0.3449
0.666407 0.788418 0.350332
0.707134 0.788113 0.355856
0.743496 0.79118 0.368322
0.771282 0.796094 0.381277
0.792676 0.793469 0.392218
0.808988 0.791363 0.400702
0.821912 0.790478 0.407752
0.83093 0.789731 0.411963
0.835431 0.789441 0.413016
0.835966 0.78912 0.411353
0.836103 0.788815 0.410376
0.836133 0.788617 0.409705
0.836454 0.788464 0.407889
0.837415 0.788174 0.405341
0.838636 0.7879 0.401511
0.839567 0.787839 0.399161
0.255985 0.675654 0.292653
0.252659 0.676753 0.299382
0.248615 0.676951 0.300267
0.245335 0.676234 0.294804
0.24387 0.674128 0.279957
0.244663 0.671458 0.256092
0.245808 0.670237 0.242786
0.24625 0.669917 0.239002
0.247105 0.670008 0.239811
0.275685 0.672084 0.243565
0.320058 0.677607 0.248707
0.352255 0.684352 0.254795
0.366201 0.688334 0.264775
0.404898 0.699748 0.276234
0.481376 0.729397 0.298741
0.581582 0.77438 0.334569
0.637156 0.797391 0.359533
0.671855 0.80557 0.370672
0.706386 0.807736 0.375723
0.744411 0.807279 0.381903
0.772992 0.81239 0.395972
0.794049 0.81622 0.408621
0.811765 0.814725 0.419471
0.825284 0.81323 0.428931
0.83592 0.812696 0.436515
0.84181 0.812345 0.440421
0.842115 0.812207 0.439078
0.841962 0.812207 0.439536
0.84152 0.81239 0.441444
0.840787 0.812665 0.444175
0.840558 0.812894 0.445075
0.841031 0.812879 0.443931
0.841932 0.812772 0.440833
0.248844 0.677745 0.306386
0.248478 0.677928 0.307424
0.246281 0.678264 0.3084
0.244465 0.677317 0.301762
0.243641 0.67483 0.286473
0.244007 0.672129 0.261845
0.246296 0.669886 0.238514
0.246693 0.669596 0.235157
0.245975 0.669703 0.235859
0.264393 0.67129 0.243397
0.317678 0.677699 0.254383
0.356069 0.685557 0.259617
0.370642 0.68986 0.271626
0.402487 0.699901 0.281483
0.464027 0.722896 0.300801
0.557504 0.765026 0.337407
0.631022 0.797009 0.369329
0.66949 0.812741 0.389303
0.702327 0.820264 0.398657
0.740108 0.82266 0.405081
0.771939 0.825345 0.41503
0.793652 0.830213 0.427329
0.810437 0.832853 0.438849
0.825147 0.8327 0.449561
0.837659 0.832502 0.458228
0.845273 0.832334 0.463127
0.846784 0.832135 0.463066
0.846555 0.832197 0.463523
0.846052 0.832425 0.464881
0.845335 0.83267 0.467826
0.845167 0.832853 0.468803
0.845533 0.832914 0.468025
0.846372 0.832898 0.46511
0.245426 0.679896 0.319478
0.245609 0.678752 0.312184
0.24509 0.678859 0.313085
0.244297 0.678538 0.310445
0.243091 0.676631 0.29752
0.243641 0.673152 0.273106
0.246113 0.670008 0.240238
0.246632 0.669657 0.235477
0.246632 0.669657 0.235508
0.264317 0.671168 0.242023
0.31046 0.676493 0.252293
0.352544 0.684993 0.261677
0.374487 0.691325 0.274495
0.401038 0.699718 0.283833
0.454124 0.719356 0.303792
0.539849 0.757763 0.338903
0.618509 0.794507 0.378378
0.664668 0.812665 0.396887
0.699336 0.824872 0.411536
0.734173 0.832013 0.422889
0.768795 0.83418 0.43183
0.792508 0.839139 0.442359
0.810101 0.843458 0.453117
0.824125 0.846036 0.46392
0.83653 0.846235 0.474037
0.846555 0.846647 0.480964
0.849607 0.846494 0.482918
0.849348 0.84683 0.484154
0.848737 0.84715 0.486183
0.847807 0.847517 0.489372
0.847318 0.847745 0.491234
0.847303 0.847898 0.491508
0.847807 0.847944 0.490043
0.244266 0.68217 0.331548
0.245243 0.679469 0.317113
0.24506 0.678935 0.313558
0.24416 0.67892 0.313375
0.242649 0.678203 0.307591
0.242893 0.6748 0.285771
0.245396 0.670558 0.24625
0.246357 0.669841 0.237949
0.246632 0.669642 0.235462
0.258991 0.670665 0.240467
0.298817 0.674815 0.249851
0.347799 0.683833 0.26099
0.37406 0.691096 0.273594
0.398291 0.69868 0.283238
0.448051 0.717357 0.305196
0.532021 0.754559 0.338979
0.60943 0.791592 0.379858
0.658595 0.8121 0.401236
0.695567 0.824277 0.413077
0.730068 0.833753 0.428626
0.764599 0.837613 0.440558
0.789563 0.8421 0.450172
0.808118 0.846143 0.459586
0.823117 0.848859 0.468238
0.835187 0.850446 0.478523
0.845624 0.850004 0.485481
0.849653 0.849515 0.487541
0.849393 0.849577 0.488609
0.848768 0.849729 0.490501
0.847913 0.849973 0.493019
0.847425 0.85005 0.494972
0.847227 0.850111 0.495872
0.84744 0.85005 0.494926
0.242542 0.685008 0.343755
0.244083 0.680888 0.325444
0.24477 0.679179 0.315236
0.24419 0.679179 0.315053
0.242588 0.679103 0.31397
0.2421 0.676204 0.294942
0.243595 0.672251 0.263737
0.246174 0.669963 0.239612
0.246677 0.669627 0.235264
0.253117 0.670268 0.239475
0.293111 0.674067 0.249012
0.345022 0.683268 0.260563
0.373831 0.690898 0.272709
0.397574 0.698466 0.283207
0.442481 0.715343 0.302632
0.524147 0.750881 0.335332
0.604456 0.789471 0.378241
0.655589 0.810987 0.400565
0.692668 0.823407 0.412528
0.727443 0.833158 0.427924
0.760952 0.837781 0.440925
0.786191 0.841489 0.452064
0.805432 0.84593 0.462684
0.820935 0.848997 0.470466
0.832639 0.850553 0.479637
0.844511 0.850126 0.486015
0.849363 0.849577 0.487694
0.849393 0.849577 0.488624
0.848783 0.849729 0.490501
0.847929 0.849973 0.493034
0.84744 0.85005 0.494987
0.847257 0.850111 0.495888
0.847257 0.850111 0.495888
0.241154 0.687358 0.355627
0.241413 0.683833 0.338674
0.241856 0.680766 0.323827
0.242542 0.67985 0.318639
0.241993 0.679805 0.318074
0.241688 0.677501 0.302342
0.243534 0.672892 0.27039
0.24625 0.669932 0.239002
0.246677 0.669612 0.235233
0.249744 0.669902 0.238254
0.290547 0.673869 0.248737
0.343465 0.682979 0.259983
0.37322 0.690623 0.271672
0.396429 0.698222 0.283177
0.43975 0.714046 0.300999
0.515633 0.74696 0.332326
0.603098 0.788769 0.376989
0.652842 0.809934 0.399191
0.691432 0.823011 0.411872
0.725811 0.83238 0.426505
0.759106 0.837736 0.440543
0.784665 0.841245 0.451972
0.803357 0.845655 0.463493
0.819226 0.849027 0.47245
0.830701 0.851102 0.482872
0.842344 0.850416 0.489143
0.848096 0.849867 0.490715
0.848722 0.84976 0.490715
0.848325 0.849851 0.491814
0.847608 0.850034 0.494316
0.847227 0.850111 0.495964
0.847456 0.850065 0.494942
0.848554 0.84979 0.491264
0.247059 0.686152 0.350927
0.249912 0.681895 0.330114
