bundles/resolve-cinematic-luts/Phantom Luts/Canon Film LUT/ATOMOS Monitoring LUTs/C-Log 3/EastmanRM Canon CL3 AML.cube
TITLE "Generated by Resolve"
LUT_3D_SIZE 9
0.103593 0.0986038 0.101061
0.189532 0.0914778 0.10164
0.357458 0.0867628 0.104204
0.478492 0.089128 0.117113
0.554238 0.0933394 0.140383
0.603128 0.107805 0.188327
0.60911 0.111757 0.207324
0.61001 0.114488 0.222477
0.578012 0.123384 0.270085
0.105653 0.157458 0.105806
0.113283 0.128481 0.102495
0.258549 0.12285 0.101976
0.438743 0.0911269 0.100069
0.524849 0.0906844 0.113832
0.576623 0.0992142 0.148257
0.585489 0.101564 0.161959
0.592157 0.104555 0.176577
0.565362 0.110628 0.214527
0.112322 0.300801 0.10724
0.111635 0.283116 0.104509
0.278141 0.289952 0.11162
0.508141 0.25864 0.114748
0.589792 0.209018 0.117708
0.567422 0.104799 0.127428
0.57467 0.100267 0.138903
0.575509 0.0996262 0.142992
0.556374 0.101884 0.159213
0.109346 0.462882 0.10547
0.107347 0.461219 0.101549
0.130816 0.450675 0.098024
0.50721 0.508644 0.117128
0.678431 0.497337 0.153063
0.76582 0.426886 0.179629
0.774197 0.389929 0.188144
0.766705 0.374319 0.182681
0.755032 0.367468 0.191272
0.167483 0.594507 0.191623
0.172946 0.59826 0.177035
0.18471 0.585199 0.14847
0.374166 0.629831 0.158404
0.661509 0.672816 0.20708
0.773892 0.664912 0.272984
0.812329 0.654932 0.307057
0.811688 0.649744 0.303532
0.81117 0.64831 0.302892
0.250217 0.676966 0.300374
0.239292 0.675166 0.286763
0.244587 0.670542 0.243748
0.350942 0.679271 0.255634
0.629786 0.785534 0.3449
0.771282 0.796094 0.381277
0.83093 0.789731 0.411963
0.836133 0.788617 0.409705
0.839567 0.787839 0.399161
0.244266 0.68217 0.331548
0.242649 0.678203 0.307591
0.246632 0.669642 0.235462
0.37406 0.691096 0.273594
0.60943 0.791592 0.379858
0.764599 0.837613 0.440558
0.835187 0.850446 0.478523
0.848768 0.849729 0.490501
0.84744 0.85005 0.494926
0.242054 0.690776 0.369863
0.248066 0.677897 0.306676
0.26041 0.668849 0.216953
0.388037 0.693919 0.25742
0.621042 0.796017 0.364889
0.766079 0.837919 0.422538
0.833753 0.849531 0.464515
0.851102 0.849165 0.481346
0.846113 0.850507 0.499367
0.239994 0.698009 0.397772
0.239521 0.681208 0.325994
0.25275 0.669123 0.226215
0.387503 0.69395 0.260945
0.621225 0.796307 0.366476
0.769162 0.837552 0.423789
0.832898 0.849027 0.4636
0.851072 0.84918 0.481529
0.845624 0.850645 0.501183
0.101762 0.102907 0.116381
0.160815 0.100984 0.144961
0.326757 0.0975204 0.165896
0.457496 0.0964218 0.189258
0.540352 0.101549 0.217777
0.592325 0.121324 0.263066
0.600137 0.129274 0.286275
0.601144 0.134325 0.304555
0.581537 0.142611 0.340536
0.104692 0.11635 0.109712
0.103685 0.098909 0.102434
0.264744 0.0918135 0.11751
0.432822 0.0907759 0.130922
0.521385 0.0949111 0.1617
0.577356 0.111818 0.215808
0.58291 0.116121 0.234913
0.58526 0.118853 0.248463
0.568841 0.124681 0.277363
0.111742 0.274998 0.1514
0.107225 0.269261 0.114702
0.250187 0.266743 0.112428
0.480888 0.206836 0.112688
0.541039 0.146639 0.116518
0.560128 0.10013 0.144549
0.571817 0.100496 0.155825
0.576394 0.101503 0.163775
0.559731 0.104784 0.186923
0.105852 0.452277 0.145586
0.105043 0.451469 0.118303
0.112093 0.439216 0.0977188
0.496925 0.49659 0.11519
0.68275 0.469947 0.14641
0.760967 0.39089 0.176165
0.758267 0.355306 0.1785
0.74934 0.333867 0.17702
0.735317 0.32726 0.183368
0.146426 0.591363 0.234882
0.144717 0.592309 0.214939
0.167803 0.586877 0.155093
0.316991 0.606683 0.142031
0.659159 0.665705 0.196902
0.774762 0.655085 0.269932
0.809873 0.640803 0.296895
0.808865 0.63386 0.291676
0.807828 0.631083 0.291463
0.249058 0.68658 0.357244
0.238407 0.68159 0.32845
0.241001 0.671214 0.252201
0.331167 0.67332 0.244862
0.615595 0.780606 0.338262
0.767758 0.791897 0.373968
0.83064 0.78323 0.401099
0.83473 0.780987 0.399207
0.834745 0.780316 0.398032
0.245792 0.699321 0.403967
0.242527 0.684199 0.340581
0.243534 0.672465 0.266621
0.350378 0.684489 0.261799
0.578866 0.77702 0.363836
0.755047 0.837125 0.435126
0.831662 0.849332 0.474952
0.84892 0.849042 0.489479
0.847288 0.849973 0.495506
0.247684 0.707027 0.434607
0.248035 0.688838 0.362646
0.253223 0.672816 0.271366
0.357824 0.685023 0.243992
0.583078 0.778744 0.345617
0.754055 0.836683 0.418082
0.82974 0.848524 0.460243
0.851209 0.849134 0.480903
0.845777 0.850614 0.500465
0.249134 0.712306 0.453849
0.245212 0.696254 0.392004
0.246311 0.676005 0.293568
0.357763 0.6851 0.245747
0.582177 0.778607 0.347143
0.75433 0.837049 0.418357
0.828199 0.848447 0.459083
0.851072 0.84918 0.481529
0.845624 0.850645 0.501183
0.100572 0.118502 0.185824
0.170413 0.106493 0.229282
0.30425 0.101747 0.24744
0.457527 0.101381 0.270329
0.547616 0.114672 0.296117
0.6065 0.141497 0.329412
0.613809 0.149096 0.350469
0.614603 0.154345 0.367269
0.595148 0.163317 0.402518
0.101152 0.130999 0.154421
0.100816 0.116533 0.181201
0.249805 0.104143 0.222339
0.44094 0.0999313 0.224079
0.533211 0.104982 0.247166
0.592554 0.128206 0.285588
0.598581 0.134859 0.307057
0.602014 0.140429 0.324758
0.585107 0.148028 0.357488
0.110826 0.249744 0.200458
0.107073 0.240162 0.204837
0.249714 0.26511 0.247578
0.493584 0.171984 0.196887
0.548943 0.106752 0.182757
0.587518 0.108995 0.200183
0.596506 0.114 0.221805
0.598733 0.116533 0.235004
0.581796 0.122621 0.265385
0.107271 0.444175 0.24213
0.104845 0.441672 0.214237
0.104967 0.435889 0.131838
0.479332 0.488548 0.155764
0.69572 0.412329 0.171954
0.759869 0.322484 0.204746
0.732052 0.252705 0.21828
0.703975 0.213474 0.205081
0.688182 0.205844 0.214282
0.1337 0.589426 0.30309
0.12575 0.591852 0.291096
0.132067 0.582162 0.21471
0.227848 0.578897 0.129976
0.651942 0.654566 0.185107
0.776287 0.63621 0.263478
0.805341 0.60972 0.276356
0.804181 0.597162 0.267979
0.801343 0.593057 0.268635
0.243137 0.693446 0.418738
0.233875 0.694194 0.407828
0.231769 0.680537 0.338888
0.27512 0.665827 0.233738
0.578393 0.765698 0.32018
0.762707 0.784466 0.358846
0.82887 0.771374 0.385702
0.83122 0.767437 0.38529
0.831632 0.766094 0.384787
0.258686 0.717876 0.475761
0.249851 0.709484 0.444205
0.241138 0.687037 0.353979
0.265187 0.671077 0.240604
0.506722 0.742687 0.328054
0.737652 0.834455 0.423423
0.827588 0.84831 0.469444
0.848829 0.847745 0.487449
0.847166 0.847623 0.491676
0.26424 0.723949 0.499229
0.254795 0.716548 0.469688
0.248951 0.691249 0.37232
0.266331 0.669535 0.219181
0.496895 0.737881 0.306783
0.7308 0.833631 0.408896
0.822354 0.847745 0.454398
0.851804 0.848966 0.479103
0.846448 0.850431 0.499016
0.2645 0.729427 0.519783
0.257115 0.721431 0.488991
0.248997 0.697017 0.394812
0.26949 0.669734 0.220706
0.496895 0.737804 0.306081
0.727626 0.833127 0.407828
0.818875 0.846998 0.451682
0.85098 0.849195 0.481453
0.845441 0.850736 0.5028
0.101793 0.134417 0.280324
0.151324 0.110018 0.343297
0.293675 0.107012 0.364508
0.432273 0.106538 0.366217
0.540658 0.122423 0.368963
0.618875 0.162966 0.405219
0.624582 0.167163 0.423911
0.622919 0.168948 0.438148
0.601129 0.175875 0.470741
0.101717 0.156771 0.258762
0.101808 0.133425 0.282704
0.217838 0.110246 0.358038
0.414466 0.105577 0.35903
0.53814 0.120577 0.35314
0.617502 0.158953 0.382574
0.622583 0.163928 0.400763
0.62153 0.166262 0.414984
0.600519 0.173373 0.448356
0.103075 0.229313 0.27779
0.102434 0.211048 0.296376
0.136294 0.196155 0.353323
0.425299 0.152941 0.386603
0.542916 0.117174 0.317082
0.611475 0.141375 0.328725
0.622217 0.149187 0.348516
0.624353 0.153399 0.361181
0.607111 0.16173 0.393072
0.107591 0.419898 0.346792
0.105257 0.414786 0.356268
0.105257 0.40676 0.35108
0.478874 0.488304 0.463157
0.720241 0.392172 0.418448
0.813275 0.292393 0.42034
0.780896 0.247471 0.396109
0.751995 0.225498 0.374899
0.721553 0.217975 0.381003
0.130159 0.582818 0.400336
0.120287 0.587289 0.414694
0.118898 0.585367 0.380835
0.17995 0.594888 0.304402
0.629236 0.654017 0.354376
0.795682 0.586435 0.360891
0.836149 0.546532 0.347524
0.836408 0.53611 0.34641
0.830335 0.534081 0.359335
0.230274 0.691478 0.486488
0.220539 0.69543 0.490105
0.218463 0.692866 0.46006
0.218997 0.672755 0.341192
0.452461 0.708476 0.292302
0.755886 0.777813 0.347509
0.836103 0.759747 0.401312
0.842145 0.753857 0.406531
0.843061 0.751293 0.408682
0.284398 0.732601 0.535042
0.269551 0.732967 0.535378
0.260197 0.724315 0.500084
0.241474 0.690745 0.369772
0.397253 0.698817 0.284703
0.705272 0.828031 0.411887
0.82179 0.843763 0.458412
0.850156 0.839094 0.470466
0.848966 0.836957 0.470375
0.278508 0.737652 0.563439
0.273808 0.736584 0.552529
0.264897 0.728786 0.517754
0.249042 0.695811 0.39118
0.394888 0.696757 0.267063
0.688518 0.822812 0.396918
0.814527 0.846113 0.439109
0.854353 0.848173 0.471275
0.848539 0.849882 0.494575
0.274464 0.739254 0.57911
0.274434 0.738872 0.565316
0.267811 0.731563 0.529229
0.251225 0.699458 0.405295
0.381247 0.69218 0.260014
0.680873 0.820905 0.396704
0.804715 0.845151 0.443229
0.846082 0.849592 0.478508
0.846662 0.850507 0.501778
0.102235 0.15108 0.362463
0.141405 0.14168 0.414405
0.281788 0.120943 0.456001
0.40943 0.118486 0.460258
0.512352 0.134676 0.452949
0.618143 0.175158 0.485801
0.621897 0.181018 0.509026
0.617761 0.184283 0.526009
0.602197 0.18909 0.546639
0.102266 0.173495 0.353719
0.102296 0.150973 0.368902
0.175662 0.119966 0.44506
0.389746 0.119097 0.464775
0.507027 0.132586 0.45034
0.61767 0.171984 0.471962
0.624781 0.177401 0.49192
0.621759 0.180728 0.507301
0.603159 0.18703 0.533761
0.102342 0.210376 0.356023
0.102342 0.190143 0.366033
0.103075 0.157092 0.388815
0.352331 0.124773 0.469017
0.496086 0.129015 0.447333
0.618463 0.165362 0.444572
0.637293 0.170901 0.45687
0.633066 0.173007 0.470375
0.609552 0.180407 0.501686
0.103593 0.397116 0.426429
0.103487 0.382605 0.437736
0.103319 0.356863 0.438376
0.319692 0.391592 0.553399
0.679301 0.378882 0.638895
0.775921 0.27689 0.562295
0.691386 0.203784 0.466682
0.684123 0.200855 0.467247
0.640406 0.190478 0.470436
0.123735 0.558862 0.483299
0.116609 0.559152 0.498711
0.115404 0.555398 0.497139
0.164691 0.568826 0.511513
0.627939 0.641306 0.613977
0.820066 0.570138 0.577401
0.871321 0.521569 0.576074
0.87068 0.512566 0.582498
0.86273 0.511498 0.594827
0.216922 0.676036 0.53518
0.199145 0.680003 0.550408
0.196323 0.679301 0.540871
0.191821 0.676326 0.508492
0.431144 0.717952 0.503212
0.739437 0.774945 0.561379
0.841871 0.732631 0.572442
0.848646 0.714107 0.557794
0.845121 0.710674 0.563088
0.286046 0.734936 0.592203
0.274678 0.738079 0.599069
0.273274 0.738354 0.587655
0.270024 0.734493 0.550637
0.311208 0.719341 0.440818
0.617426 0.786648 0.503853
0.81709 0.851102 0.588876
0.854414 0.847593 0.599832
0.853773 0.845487 0.605509
0.277409 0.735393 0.611414
0.273655 0.737011 0.60943
0.273533 0.738598 0.596979
0.274296 0.737865 0.562692
0.271229 0.705699 0.422644
0.614008 0.787045 0.502831
0.798245 0.856916 0.553689
0.84976 0.864713 0.589929
0.850111 0.866468 0.610178
0.275441 0.734829 0.62063
0.273152 0.736126 0.616983
0.273121 0.738018 0.603967
0.275166 0.738766 0.569467
0.260884 0.708339 0.438605
0.614878 0.787137 0.510582
0.785214 0.85481 0.566766
0.840208 0.865675 0.597009
0.849439 0.868269 0.626459
0.102571 0.170443 0.417838
0.136065 0.16405 0.467796
0.24535 0.138277 0.513924
0.400336 0.148501 0.532311
0.485893 0.152224 0.52343
0.599207 0.190417 0.564065
0.603906 0.195315 0.581613
0.60441 0.196704 0.589227
0.601144 0.197955 0.594446
0.102632 0.187839 0.412573
0.102602 0.170581 0.425437
0.164416 0.164645 0.484306
0.366415 0.148348 0.53196
0.479744 0.152377 0.525994
0.595666 0.188479 0.560021
0.606729 0.193973 0.575387
0.604532 0.195697 0.583246
0.59942 0.197665 0.591608
0.102586 0.208591 0.416739
0.102586 0.192065 0.414557
0.102632 0.17023 0.431937
0.296483 0.143374 0.52462
0.467536 0.15108 0.527703
0.590066 0.184817 0.550851
0.612787 0.191592 0.563241
0.609812 0.192905 0.570764
0.601114 0.195407 0.581048
0.104021 0.371389 0.482765
0.104189 0.357183 0.484581
0.104158 0.329046 0.48101
0.194751 0.318807 0.57351
0.602426 0.314305 0.713909
0.673106 0.250843 0.629786
0.639719 0.203632 0.56083
0.615106 0.187289 0.542458
0.604089 0.190326 0.553643
0.11725 0.549508 0.54818
0.114168 0.544839 0.555459
0.112062 0.533867 0.557473
0.11574 0.521477 0.574487
0.52256 0.575097 0.693889
0.799115 0.581003 0.764111
0.886656 0.533059 0.751736
0.888197 0.521553 0.755352
0.869718 0.523873 0.766293
0.196231 0.656046 0.593744
0.185351 0.656901 0.602335
0.182055 0.653407 0.599802
0.174533 0.646433 0.592752
0.443839 0.701854 0.652125
0.738613 0.758923 0.730144
0.851972 0.717388 0.706813
0.865599 0.701259 0.709499
0.859129 0.699809 0.718166
0.278645 0.727001 0.630732
0.265385 0.728389 0.638086
0.262867 0.727749 0.631968
0.257725 0.724254 0.61709
0.296849 0.736751 0.59675
0.647852 0.81117 0.682994
0.807935 0.843397 0.723751
0.852705 0.836561 0.738476
0.853117 0.833539 0.741573
0.284993 0.729519 0.64271
0.271977 0.73254 0.650034
0.27129 0.73373 0.642664
0.27158 0.735393 0.627726
0.276829 0.740322 0.595041
0.600977 0.808347 0.652094
0.778836 0.857313 0.73434
0.846601 0.880156 0.786816
0.85275 0.88159 0.790738
0.274052 0.730373 0.659373
0.272068 0.731456 0.65713
0.27126 0.733013 0.648249
0.271427 0.735149 0.630549
0.276722 0.740261 0.596841
0.589456 0.803189 0.637079
0.771023 0.854551 0.732189
0.833661 0.877745 0.778759
0.846433 0.883391 0.806592
0.102739 0.195102 0.447013
0.131365 0.195895 0.503914
0.22678 0.186511 0.554742
0.399817 0.19408 0.600305
0.516274 0.193164 0.598581
0.592187 0.196262 0.595041
0.599237 0.198383 0.59649
0.601175 0.197894 0.595407
0.600015 0.198184 0.595956
0.102754 0.205158 0.442298
0.10277 0.195163 0.452155
0.15436 0.19855 0.518135
0.352453 0.187045 0.589853
0.506355 0.191943 0.597436
0.586786 0.194827 0.593179
0.599588 0.198291 0.596262
0.599359 0.198337 0.596399
0.597848 0.198734 0.597314
0.102892 0.226917 0.450141
0.102663 0.209537 0.444694
0.102785 0.194965 0.453956
0.261357 0.177584 0.571466
0.491783 0.195987 0.605188
0.576852 0.191882 0.590143
0.600168 0.198169 0.595895
0.600229 0.198138 0.595865
0.598596 0.19855 0.596887
0.104509 0.357122 0.510933
0.104509 0.341512 0.508431
0.103899 0.310765 0.497719
0.139345 0.291722 0.56585
0.507134 0.273777 0.700969
0.599557 0.225132 0.63035
0.601984 0.197848 0.5944
0.601892 0.198001 0.595193
0.599741 0.198489 0.596536
0.113939 0.528237 0.584344
0.11223 0.522698 0.586389
0.110124 0.510765 0.586603
0.106996 0.485725 0.583703
0.416052 0.515846 0.709834
0.759136 0.555795 0.837446
0.865431 0.523857 0.846296
0.863828 0.511635 0.845029
0.853071 0.509911 0.84329
0.196704 0.654612 0.630137
0.190646 0.654002 0.635462
0.186755 0.649653 0.634913
0.170642 0.636713 0.634363
0.342916 0.656214 0.687358
0.680949 0.721752 0.785229
0.840452 0.719707 0.816968
0.864607 0.703975 0.813275
0.861616 0.702922 0.817746
0.26804 0.717754 0.662501
0.258061 0.718532 0.66865
0.254231 0.715572 0.665751
0.247898 0.709773 0.660212
0.26096 0.707027 0.656413
0.661768 0.806592 0.767224
0.807553 0.837308 0.809552
0.858839 0.825605 0.796765
0.856229 0.823835 0.80029
0.281971 0.728313 0.67332
0.271702 0.730251 0.679088
0.27013 0.729656 0.675441
0.27013 0.730312 0.667826
0.27245 0.734188 0.654154
0.580255 0.814664 0.725917
0.793317 0.866911 0.806363
0.844709 0.877562 0.821958
0.850126 0.876387 0.819928
0.27718 0.730388 0.682277
0.273381 0.730678 0.682826
0.271382 0.730205 0.678889
0.269917 0.730114 0.669749
0.272389 0.734401 0.653178
0.560403 0.810361 0.717266
0.785946 0.867323 0.802853
0.832349 0.879179 0.821515
0.852125 0.887785 0.844739
0.102922 0.197696 0.463355
0.143252 0.202396 0.51632
0.238148 0.190997 0.565484
0.414191 0.200183 0.609216
0.522255 0.192874 0.597299
0.596109 0.197543 0.595911
0.599207 0.198383 0.59649
0.59942 0.198337 0.596384
0.599054 0.198444 0.596597
0.102907 0.203449 0.442466
0.103044 0.19794 0.465461
0.163455 0.204257 0.527581
0.364401 0.193347 0.599298
0.514 0.194491 0.601221
0.590768 0.196078 0.594903
0.599268 0.198383 0.596475
0.599145 0.198413 0.596551
0.599054 0.198444 0.596597
0.102815 0.236789 0.46099
0.102678 0.209842 0.44683
0.103075 0.19794 0.465705
0.271229 0.181811 0.577981
0.497154 0.197208 0.607248
0.582269 0.193973 0.592538
0.60029 0.198138 0.59585
0.600229 0.198154 0.59588
0.598566 0.198566 0.596902
0.104799 0.35201 0.525093
0.104417 0.333822 0.517052
0.103624 0.292393 0.493538
0.125978 0.2542 0.535195
0.467216 0.239567 0.661341
0.573251 0.206851 0.610513
0.599725 0.198306 0.596231
0.599954 0.19826 0.596078
0.599054 0.198474 0.596674
0.113787 0.520516 0.601785
0.112322 0.515679 0.602808
0.110506 0.504173 0.60145
0.106584 0.473381 0.587655
0.377859 0.491188 0.709529
0.737667 0.532326 0.844373
0.849836 0.507652 0.854627
0.849454 0.494163 0.851301
0.843961 0.491234 0.849042
0.18497 0.650645 0.650874
0.181094 0.647593 0.652338
0.174914 0.640757 0.652094
0.162524 0.623224 0.648692
0.279774 0.632761 0.697078
0.631006 0.68716 0.791623
0.822919 0.709285 0.851957
0.8533 0.697444 0.854994
0.852277 0.695674 0.855665
0.266651 0.717571 0.676127
0.259022 0.718074 0.680644
0.255787 0.715038 0.679515
0.24976 0.709163 0.677256
0.245182 0.70219 0.676844
0.622003 0.787808 0.784192
0.79443 0.828214 0.833738
0.853697 0.822766 0.835325
0.852644 0.820203 0.836759
0.279377 0.733516 0.690089
0.276265 0.73344 0.690959
0.275303 0.732952 0.689708
0.273732 0.731945 0.687083
0.274769 0.732815 0.685084
0.535576 0.794324 0.747707
0.796475 0.863294 0.83151
0.843091 0.876036 0.845396
0.850523 0.876799 0.845624
0.286687 0.732097 0.685435
0.277195 0.734081 0.691859
0.276555 0.733806 0.691402
0.273899 0.732128 0.687465
0.273732 0.732311 0.683085
0.490181 0.786954 0.729107
0.788861 0.867903 0.827268
0.843961 0.885908 0.850721
0.855238 0.890501 0.85745
0.103929 0.198489 0.472465
0.155428 0.203494 0.523278
0.245029 0.184573 0.569772
0.423713 0.201144 0.610498
0.525673 0.191943 0.595895
0.597696 0.198138 0.59646
0.599207 0.198383 0.59649
0.599207 0.198398 0.596506
0.598688 0.198535 0.596826
0.102724 0.201984 0.441398
0.103944 0.19852 0.472831
0.172656 0.204929 0.53254
0.374456 0.195132 0.601785
0.517403 0.193851 0.599817
0.594095 0.196414 0.595071
0.599283 0.198367 0.59646
0.599145 0.198413 0.596551
0.598962 0.198459 0.596643
0.102907 0.234516 0.460212
0.1028 0.206317 0.444953
0.103838 0.198459 0.472023
0.281071 0.182742 0.580575
0.499687 0.196887 0.606485
0.585626 0.194812 0.5935
0.600275 0.198138 0.59585
0.600275 0.198138 0.59585
0.598566 0.198566 0.596887
0.104479 0.340459 0.519768
0.104067 0.316838 0.507057
0.103319 0.272984 0.48217
0.120317 0.229694 0.51722
0.455406 0.22623 0.644236
0.549569 0.188464 0.588418
0.599893 0.19826 0.596109
0.599954 0.198245 0.596063
0.599039 0.198474 0.596674
0.113725 0.517693 0.60679
0.111833 0.511223 0.604318
0.109041 0.49688 0.597284
0.105898 0.463203 0.582681
0.37116 0.479225 0.707256
0.735012 0.519249 0.843748
0.845853 0.491768 0.849546
0.843458 0.478584 0.845533
0.838773 0.476234 0.843214
0.182452 0.647349 0.657893
0.178149 0.644511 0.657435
0.171664 0.636515 0.654215
0.158755 0.617166 0.647196
0.271702 0.62501 0.695476
0.624308 0.677455 0.789776
0.821271 0.700938 0.852537
0.860136 0.688533 0.855207
0.853483 0.6878 0.856397
0.266499 0.71957 0.682826
0.260426 0.718776 0.685115
0.256947 0.715618 0.683589
0.249485 0.708736 0.680613
0.244694 0.699611 0.679194
0.607401 0.7776 0.784253
0.785473 0.820294 0.836332
0.849775 0.818509 0.843931
0.850675 0.814817 0.843763
0.279225 0.733669 0.690455
0.277119 0.734081 0.69192
0.276967 0.734127 0.692027
0.276967 0.734127 0.692042
0.277012 0.734157 0.69221
0.494957 0.782849 0.747906
0.788327 0.860868 0.837476
0.841703 0.873762 0.850736
0.850797 0.87483 0.852628
0.290135 0.731365 0.683421
0.27718 0.734066 0.691875
0.276967 0.734127 0.692027
0.276997 0.734157 0.692042
0.278386 0.735348 0.692821
0.391257 0.76524 0.721096
0.78024 0.866285 0.834852
0.846265 0.886839 0.856626
0.863935 0.890623 0.854353
