bundles/resolve-cinematic-luts/Phantom Luts/Canon Film LUT/ATOMOS Monitoring LUTs/C-Log 3/EastmanRM Canon CL3 AML.cube
TITLE "Generated by Resolve"
LUT_3D_SIZE 5
0.103593 0.0986038 0.101061
0.357458 0.0867628 0.104204
0.554238 0.0933394 0.140383
0.60911 0.111757 0.207324
0.578012 0.123384 0.270085
0.112322 0.300801 0.10724
0.278141 0.289952 0.11162
0.589792 0.209018 0.117708
0.57467 0.100267 0.138903
0.556374 0.101884 0.159213
0.167483 0.594507 0.191623
0.18471 0.585199 0.14847
0.661509 0.672816 0.20708
0.812329 0.654932 0.307057
0.81117 0.64831 0.302892
0.244266 0.68217 0.331548
0.246632 0.669642 0.235462
0.60943 0.791592 0.379858
0.835187 0.850446 0.478523
0.84744 0.85005 0.494926
0.239994 0.698009 0.397772
0.25275 0.669123 0.226215
0.621225 0.796307 0.366476
0.832898 0.849027 0.4636
0.845624 0.850645 0.501183
0.100572 0.118502 0.185824
0.30425 0.101747 0.24744
0.547616 0.114672 0.296117
0.613809 0.149096 0.350469
0.595148 0.163317 0.402518
0.110826 0.249744 0.200458
0.249714 0.26511 0.247578
0.548943 0.106752 0.182757
0.596506 0.114 0.221805
0.581796 0.122621 0.265385
0.1337 0.589426 0.30309
0.132067 0.582162 0.21471
0.651942 0.654566 0.185107
0.805341 0.60972 0.276356
0.801343 0.593057 0.268635
0.258686 0.717876 0.475761
0.241138 0.687037 0.353979
0.506722 0.742687 0.328054
0.827588 0.84831 0.469444
0.847166 0.847623 0.491676
0.2645 0.729427 0.519783
0.248997 0.697017 0.394812
0.496895 0.737804 0.306081
0.818875 0.846998 0.451682
0.845441 0.850736 0.5028
0.102235 0.15108 0.362463
0.281788 0.120943 0.456001
0.512352 0.134676 0.452949
0.621897 0.181018 0.509026
0.602197 0.18909 0.546639
0.102342 0.210376 0.356023
0.103075 0.157092 0.388815
0.496086 0.129015 0.447333
0.637293 0.170901 0.45687
0.609552 0.180407 0.501686
0.123735 0.558862 0.483299
0.115404 0.555398 0.497139
0.627939 0.641306 0.613977
0.871321 0.521569 0.576074
0.86273 0.511498 0.594827
0.286046 0.734936 0.592203
0.273274 0.738354 0.587655
0.311208 0.719341 0.440818
0.81709 0.851102 0.588876
0.853773 0.845487 0.605509
0.275441 0.734829 0.62063
0.273121 0.738018 0.603967
0.260884 0.708339 0.438605
0.785214 0.85481 0.566766
0.849439 0.868269 0.626459
0.102739 0.195102 0.447013
0.22678 0.186511 0.554742
0.516274 0.193164 0.598581
0.599237 0.198383 0.59649
0.600015 0.198184 0.595956
0.102892 0.226917 0.450141
0.102785 0.194965 0.453956
0.491783 0.195987 0.605188
0.600168 0.198169 0.595895
0.598596 0.19855 0.596887
0.113939 0.528237 0.584344
0.110124 0.510765 0.586603
0.416052 0.515846 0.709834
0.865431 0.523857 0.846296
0.853071 0.509911 0.84329
0.26804 0.717754 0.662501
0.254231 0.715572 0.665751
0.26096 0.707027 0.656413
0.807553 0.837308 0.809552
0.856229 0.823835 0.80029
0.27718 0.730388 0.682277
0.271382 0.730205 0.678889
0.272389 0.734401 0.653178
0.785946 0.867323 0.802853
0.852125 0.887785 0.844739
0.103929 0.198489 0.472465
0.245029 0.184573 0.569772
0.525673 0.191943 0.595895
0.599207 0.198383 0.59649
0.598688 0.198535 0.596826
0.102907 0.234516 0.460212
0.103838 0.198459 0.472023
0.499687 0.196887 0.606485
0.600275 0.198138 0.59585
0.598566 0.198566 0.596887
0.113725 0.517693 0.60679
0.109041 0.49688 0.597284
0.37116 0.479225 0.707256
0.845853 0.491768 0.849546
0.838773 0.476234 0.843214
0.266499 0.71957 0.682826
0.256947 0.715618 0.683589
0.244694 0.699611 0.679194
0.785473 0.820294 0.836332
0.850675 0.814817 0.843763
0.290135 0.731365 0.683421
0.276967 0.734127 0.692027
0.278386 0.735348 0.692821
0.78024 0.866285 0.834852
0.863935 0.890623 0.854353
