bundles/resolve-cinematic-luts/Phantom Luts/Canon Film LUT/ATOMOS Monitoring LUTs/C-Log 3/Eterna Canon CL3 AML.cube
TITLE "Generated by Resolve"
LUT_3D_SIZE 33
0.0768444 0.101061 0.100801
0.0772106 0.100877 0.100175
0.0916609 0.100954 0.1019
0.159884 0.102434 0.116793
0.200412 0.104326 0.128038
0.23299 0.10605 0.139361
0.259403 0.108431 0.146532
0.282963 0.110674 0.151171
0.309819 0.11223 0.158404
0.340475 0.115709 0.171237
0.371954 0.118883 0.184482
0.40676 0.122591 0.199451
0.447715 0.128893 0.219181
0.489967 0.13283 0.239765
0.534813 0.137148 0.261128
0.577493 0.141649 0.282612
0.616098 0.146792 0.303655
0.645106 0.152789 0.32221
0.663417 0.158358 0.337469
0.666514 0.159335 0.344198
0.66714 0.159564 0.34966
0.667659 0.15993 0.35433
0.666575 0.158785 0.357275
0.668971 0.16022 0.362615
0.669779 0.160403 0.366827
0.670512 0.160586 0.370962
0.669367 0.159487 0.373754
0.671824 0.159991 0.3785
0.674998 0.159533 0.384131
0.679881 0.158251 0.390799
0.686992 0.157198 0.398688
0.694743 0.154833 0.407797
0.702937 0.152712 0.417304
0.0777905 0.100587 0.099382
0.0776684 0.100649 0.0995804
0.0839551 0.100786 0.0993057
0.128893 0.100587 0.102907
0.175311 0.100267 0.108095
0.210468 0.102068 0.113024
0.241871 0.104601 0.118853
0.271092 0.107149 0.126055
0.300114 0.109697 0.135592
0.330831 0.113451 0.148608
0.364431 0.117647 0.162295
0.40061 0.123644 0.175814
0.439597 0.127428 0.193927
0.480873 0.131365 0.21265
0.524742 0.135332 0.233295
0.56936 0.13962 0.255772
0.611063 0.144381 0.278935
0.64448 0.150256 0.302098
0.664683 0.155764 0.320119
0.669245 0.157321 0.328588
0.670542 0.157275 0.334279
0.671534 0.157259 0.33933
0.672282 0.157397 0.344152
0.672862 0.157443 0.348592
0.673472 0.15761 0.352178
0.673899 0.157794 0.355917
0.673243 0.157107 0.358679
0.672877 0.156222 0.36173
0.674189 0.156008 0.365164
0.677897 0.155047 0.370748
0.683879 0.153597 0.377966
0.694041 0.153552 0.386984
0.702266 0.151431 0.39559
0.07776 0.100603 0.099443
0.0773632 0.100801 0.0999924
0.0776074 0.100694 0.0996872
0.101656 0.102754 0.0998398
0.149035 0.103944 0.103426
0.188159 0.103731 0.107088
0.222049 0.103609 0.110338
0.253681 0.104433 0.11339
0.286183 0.107301 0.118608
0.318425 0.11075 0.124575
0.352682 0.116518 0.135531
0.387137 0.121294 0.148714
0.423926 0.125322 0.166186
0.465141 0.129519 0.187167
0.510033 0.133745 0.207507
0.555261 0.138308 0.228916
0.59968 0.143343 0.252735
0.636194 0.14902 0.277455
0.657938 0.154574 0.298039
0.664347 0.156481 0.30869
0.666056 0.156771 0.315343
0.667567 0.156985 0.32134
0.66894 0.157198 0.326848
0.670146 0.157336 0.331777
0.670848 0.157229 0.336187
0.671656 0.15729 0.340017
0.672267 0.157382 0.343969
0.672999 0.157336 0.347494
0.674449 0.157244 0.351385
0.678431 0.15639 0.356725
0.684398 0.154925 0.363272
0.692515 0.152804 0.370901
0.700725 0.150652 0.378698
0.0786297 0.107012 0.102235
0.0778515 0.105913 0.101289
0.0792401 0.104417 0.101289
0.0822919 0.103593 0.100099
0.118242 0.110582 0.101686
0.162463 0.115068 0.104601
0.201007 0.116747 0.106966
0.238483 0.117571 0.11043
0.274708 0.117281 0.113573
0.310674 0.114855 0.117128
0.345159 0.113664 0.122438
0.380484 0.117357 0.132311
0.416373 0.122484 0.14641
0.4551 0.127687 0.166262
0.495842 0.132082 0.184192
0.539239 0.13666 0.205539
0.583871 0.141756 0.228061
0.623102 0.147555 0.252277
0.64918 0.152834 0.274296
0.659464 0.155108 0.288121
0.661952 0.155398 0.295918
0.664363 0.15552 0.303029
0.666423 0.155901 0.309682
0.667582 0.156298 0.31548
0.668299 0.156695 0.320714
0.668833 0.157015 0.325078
0.669642 0.157244 0.329412
0.670665 0.157244 0.333257
0.672145 0.156909 0.337499
0.67599 0.156115 0.34287
0.68188 0.154498 0.348959
0.690394 0.152346 0.356481
0.699184 0.150103 0.364233
0.0805829 0.146426 0.112779
0.0796979 0.144564 0.107439
0.0842756 0.138155 0.104585
0.0895857 0.126253 0.105211
0.101472 0.121004 0.104204
0.140017 0.127382 0.10602
0.179873 0.131395 0.107851
0.21915 0.132433 0.109377
0.259236 0.129519 0.112367
0.301381 0.126146 0.116472
0.341711 0.123796 0.121004
0.379324 0.120638 0.126085
0.415961 0.120439 0.135073
0.453407 0.125063 0.150759
0.490532 0.130159 0.168658
0.529122 0.134768 0.18822
0.569986 0.139895 0.209506
0.609293 0.145663 0.231266
0.636774 0.150988 0.25066
0.648035 0.15346 0.264042
0.652705 0.154162 0.273243
0.656718 0.154788 0.281468
0.6598 0.155093 0.289342
0.662348 0.155428 0.296605
0.664607 0.155581 0.303197
0.666239 0.155856 0.308949
0.667628 0.156115 0.314366
0.669276 0.156268 0.31931
0.671321 0.15613 0.323781
0.674617 0.155566 0.32903
0.680217 0.154314 0.3346
0.688014 0.152209 0.341497
0.696712 0.149798 0.348882
0.094728 0.201297 0.127031
0.0918441 0.201175 0.118654
0.0902266 0.197452 0.111269
0.0999466 0.188846 0.110658
0.121843 0.175082 0.111406
0.151614 0.172564 0.112169
0.18526 0.176364 0.117052
0.224445 0.174228 0.119875
0.262394 0.166278 0.12018
0.30161 0.15935 0.119905
0.340795 0.150408 0.121736
0.378698 0.135958 0.125048
0.41677 0.127047 0.131151
0.454307 0.124086 0.14049
0.493004 0.127672 0.158343
0.5308 0.132189 0.178408
0.566598 0.137255 0.196735
0.601083 0.142947 0.217853
0.63064 0.149752 0.237659
0.638376 0.151827 0.245304
0.641718 0.15259 0.251637
0.64564 0.153201 0.258915
0.648997 0.153567 0.265354
0.653071 0.154314 0.273289
0.657298 0.154986 0.28101
0.659983 0.155261 0.287816
0.661982 0.15555 0.293629
0.663844 0.155505 0.298711
0.666026 0.155444 0.303563
0.669825 0.154894 0.308736
0.675486 0.15378 0.314763
0.683864 0.151843 0.321935
0.693202 0.149599 0.329274
0.102205 0.244114 0.138415
0.0996719 0.246281 0.128252
0.0976272 0.24535 0.119127
0.0975052 0.237934 0.118959
0.118288 0.228229 0.117144
0.160845 0.212985 0.116228
0.194888 0.210422 0.117006
0.22887 0.212222 0.118837
0.275059 0.209613 0.124163
0.318166 0.203891 0.127321
0.356359 0.19556 0.128679
0.388754 0.178866 0.128695
0.422202 0.162768 0.131746
0.454459 0.146715 0.135286
0.487251 0.133654 0.146426
0.522438 0.131685 0.165957
0.561898 0.136995 0.18703
0.596689 0.141909 0.20798
0.627359 0.147906 0.23064
0.636667 0.150622 0.238422
0.636454 0.151019 0.238972
0.636637 0.151308 0.240391
0.637995 0.151904 0.244144
0.640146 0.152651 0.248768
0.642527 0.153307 0.253422
0.644373 0.153704 0.257877
0.646708 0.154192 0.262791
0.649439 0.154559 0.267704
0.652277 0.154925 0.273121
0.656153 0.154833 0.27808
0.661311 0.15433 0.283635
0.667674 0.153048 0.289311
0.675059 0.151507 0.295308
0.112917 0.283528 0.147799
0.109621 0.288212 0.137591
0.106126 0.290623 0.127718
0.104738 0.288441 0.124208
0.115251 0.280583 0.123796
0.1364 0.268956 0.123384
0.191592 0.2551 0.123262
0.235599 0.250843 0.124071
0.273716 0.251148 0.123934
0.329442 0.249546 0.126513
0.379294 0.240742 0.132342
0.417823 0.231052 0.134188
0.45243 0.218692 0.135851
0.485374 0.20354 0.138949
0.509987 0.173922 0.143053
0.537484 0.156771 0.154406
0.563684 0.1411 0.17055
0.594278 0.140658 0.19498
0.622965 0.145525 0.217441
0.6421 0.149065 0.235004
0.643809 0.148974 0.237171
0.644877 0.148898 0.238514
0.64538 0.148806 0.239292
0.645548 0.148775 0.239979
0.645624 0.14876 0.240436
0.645655 0.148775 0.240848
0.645518 0.148821 0.241123
0.645533 0.148898 0.241733
0.646159 0.149157 0.243397
0.64741 0.149355 0.245533
0.649805 0.149386 0.248341
0.65362 0.149203 0.252338
0.65922 0.148501 0.256489
0.116976 0.329503 0.157397
0.111727 0.336431 0.146517
0.106966 0.341985 0.133135
0.104829 0.34342 0.124926
0.107378 0.338933 0.125124
0.120851 0.329046 0.125231
0.156329 0.316304 0.125505
0.220752 0.303578 0.125444
0.279332 0.296849 0.125292
0.325521 0.296635 0.124971
0.386114 0.295735 0.124453
0.44184 0.285374 0.130282
0.485863 0.272084 0.137133
0.524041 0.261112 0.139757
0.556329 0.247593 0.142214
0.585718 0.22855 0.147539
0.603525 0.196139 0.157321
0.61912 0.17467 0.174395
0.621973 0.150607 0.188998
0.639216 0.150744 0.213962
0.641642 0.15024 0.22182
0.641855 0.149371 0.223362
0.642802 0.149569 0.22443
0.643198 0.149462 0.226108
0.643732 0.149233 0.229404
0.643351 0.148898 0.231189
0.643336 0.148852 0.232029
0.643259 0.148836 0.232639
0.643198 0.148821 0.233326
0.643488 0.14876 0.234226
0.644373 0.148577 0.235431
0.646113 0.148211 0.236744
0.650065 0.147341 0.23859
0.115373 0.382315 0.171359
0.109316 0.390066 0.155978
0.103655 0.39791 0.137804
0.100954 0.403769 0.119661
0.0998398 0.40412 0.121309
0.105089 0.394491 0.122408
0.12845 0.383185 0.122652
0.171603 0.371099 0.122576
0.252445 0.359152 0.121355
0.329961 0.350851 0.120027
0.381506 0.349371 0.118898
0.443839 0.350393 0.117128
0.504097 0.341222 0.122133
0.555688 0.325704 0.132418
0.598413 0.311925 0.14049
0.632166 0.298177 0.145525
0.658915 0.284657 0.150744
0.678355 0.2654 0.16199
0.685145 0.238224 0.176638
0.6804 0.2065 0.189502
0.66688 0.184619 0.193469
0.665248 0.18265 0.196277
0.666636 0.182895 0.200214
0.665644 0.180606 0.202808
0.657618 0.171313 0.202594
0.65069 0.163195 0.202457
0.647135 0.15845 0.20296
0.644434 0.154681 0.202792
0.643351 0.153231 0.203693
0.642985 0.152316 0.205661
0.643336 0.151308 0.207813
0.644831 0.150851 0.209995
0.648447 0.14992 0.21239
0.110063 0.441474 0.182849
0.103746 0.450065 0.167498
0.0978866 0.4589 0.149264
0.0952316 0.467704 0.125261
0.093843 0.471855 0.116014
0.0949874 0.468437 0.116686
0.100206 0.457755 0.117784
0.130709 0.444389 0.117494
0.18793 0.433036 0.115892
0.289845 0.419974 0.113268
0.38349 0.408942 0.11191
0.437293 0.406546 0.111803
0.498589 0.410117 0.11191
0.558923 0.404746 0.114061
0.613016 0.391745 0.12578
0.660594 0.37554 0.142748
0.696925 0.361959 0.154665
0.723384 0.348486 0.167987
0.737545 0.337728 0.175799
0.749722 0.320272 0.186084
0.751629 0.302251 0.191959
0.747723 0.294224 0.192416
0.743236 0.285023 0.193515
0.740108 0.279454 0.193744
0.736934 0.27454 0.1935
0.732143 0.26804 0.192828
0.72842 0.263447 0.191852
0.724361 0.258762 0.190845
0.72166 0.254322 0.191409
0.717556 0.248981 0.191394
0.714351 0.243198 0.191836
0.711498 0.237064 0.192752
0.71075 0.231388 0.193576
0.105745 0.503059 0.198291
0.0995041 0.511315 0.182452
0.0949416 0.519951 0.16112
0.092607 0.52842 0.14403
0.0928664 0.534569 0.125887
0.0932326 0.536522 0.117617
0.0930495 0.532799 0.11603
0.105516 0.522606 0.114687
0.134539 0.50898 0.112459
0.209232 0.499809 0.109758
0.335698 0.483787 0.107515
0.434363 0.470237 0.108446
0.492119 0.466178 0.110796
0.546548 0.470237 0.114382
0.604227 0.46978 0.120241
0.656306 0.462165 0.132906
0.700969 0.44921 0.151202
0.738918 0.435431 0.171542
0.768063 0.421363 0.190219
0.78819 0.407248 0.205524
0.797223 0.394553 0.210773
0.796521 0.38883 0.210636
0.793606 0.384253 0.208637
0.791241 0.381476 0.206302
0.788846 0.379141 0.203754
0.786572 0.376318 0.20206
0.785229 0.37351 0.2009
0.783047 0.369696 0.1991
0.781521 0.365545 0.198444
0.779034 0.360555 0.196948
0.777401 0.355947 0.196536
0.775402 0.351156 0.19588
0.774517 0.347631 0.195727
0.109087 0.562646 0.219364
0.103517 0.570596 0.200778
0.0995499 0.579095 0.18381
0.0988785 0.586679 0.174212
0.100832 0.592981 0.151186
0.105821 0.596658 0.137392
0.109651 0.596628 0.12932
0.109804 0.590234 0.127703
0.129198 0.578515 0.121767
0.165301 0.565316 0.116808
0.261906 0.559136 0.112505
0.393057 0.543175 0.111925
0.487617 0.527459 0.114687
0.544671 0.523323 0.1187
0.591501 0.526925 0.125048
0.644388 0.529335 0.134874
0.690883 0.527398 0.148791
0.731792 0.520775 0.165698
0.766979 0.510216 0.186191
0.795727 0.497673 0.203586
0.816129 0.483299 0.218173
0.823896 0.474571 0.224491
0.823194 0.470802 0.224582
0.823178 0.467613 0.225345
0.823346 0.463935 0.226474
0.823011 0.459602 0.227207
0.823148 0.455543 0.228275
0.822034 0.451072 0.228077
0.821347 0.446723 0.228138
0.819837 0.441489 0.227634
0.819059 0.437461 0.227283
0.817456 0.433051 0.226169
0.816648 0.429648 0.22562
0.124254 0.619776 0.246235
0.12192 0.627329 0.228901
0.120607 0.633875 0.213001
0.11989 0.641199 0.207218
0.122713 0.648203 0.197406
0.129229 0.651896 0.179599
0.139895 0.652995 0.157107
0.141299 0.651392 0.155932
0.138857 0.642023 0.151537
0.167987 0.632059 0.138064
0.202518 0.6215 0.127703
0.335653 0.617166 0.121202
0.45127 0.599344 0.121126
0.538598 0.582361 0.125109
0.593591 0.578882 0.132601
0.631952 0.580758 0.140963
0.679393 0.584085 0.155596
0.720272 0.585443 0.170855
0.758816 0.583902 0.185351
0.78999 0.57641 0.200732
0.815152 0.566262 0.213535
0.830228 0.556832 0.222141
0.830945 0.553994 0.222644
0.83061 0.551659 0.222461
0.830167 0.548699 0.222187
0.82977 0.545785 0.221988
0.82974 0.542229 0.222171
0.82916 0.538079 0.221836
0.829404 0.533852 0.22237
0.828779 0.52903 0.222095
0.828641 0.524987 0.222354
0.828244 0.520241 0.222385
0.827939 0.515923 0.222507
0.143252 0.679896 0.281422
0.146029 0.685481 0.26685
0.148867 0.690898 0.252049
0.150851 0.696834 0.243137
0.15169 0.704158 0.244999
0.157565 0.709575 0.23267
0.169848 0.712276 0.202594
0.176455 0.712337 0.189395
0.174868 0.705898 0.186633
0.181369 0.693904 0.178027
0.21944 0.682429 0.159319
0.256855 0.675395 0.145937
0.414618 0.675227 0.13872
0.508675 0.649958 0.136614
0.587198 0.633616 0.14493
0.638544 0.631434 0.155383
0.671702 0.631342 0.165545
0.710887 0.634302 0.180194
0.748455 0.635859 0.193744
0.78024 0.635676 0.204959
0.807858 0.632685 0.214862
0.828168 0.62826 0.222705
0.83563 0.624109 0.226368
0.835538 0.621592 0.226566
0.83563 0.618891 0.226841
0.834989 0.615747 0.226368
0.835081 0.612497 0.226383
0.834699 0.609003 0.22591
0.834485 0.604807 0.22562
0.834577 0.600961 0.225635
0.834241 0.596033 0.225223
0.834287 0.591775 0.225193
0.833631 0.587335 0.22443
0.18088 0.735119 0.324514
0.183383 0.740536 0.310384
0.185061 0.746532 0.295949
0.185351 0.752087 0.283131
0.184909 0.759503 0.284306
0.187839 0.765713 0.278935
0.194949 0.769726 0.259297
0.204822 0.770291 0.230182
0.208988 0.768566 0.222568
0.207446 0.756497 0.212161
0.238514 0.743862 0.198505
0.26334 0.731762 0.189075
0.343008 0.729885 0.172335
0.490501 0.730266 0.16936
0.565957 0.695338 0.164141
0.634058 0.680552 0.173419
0.68127 0.680049 0.185351
0.712581 0.67837 0.195529
0.743511 0.679805 0.206165
0.774441 0.680644 0.21677
0.801663 0.6804 0.22678
0.823926 0.679057 0.234928
0.837888 0.676814 0.239918
0.837903 0.674693 0.239185
0.83743 0.672526 0.238117
0.837125 0.670253 0.236927
0.837354 0.668284 0.236149
0.836957 0.665705 0.234806
0.836683 0.662333 0.233753
0.836896 0.658946 0.23299
0.83682 0.654749 0.232105
0.836851 0.651026 0.231403
0.836759 0.647425 0.230793
0.213367 0.786633 0.364401
0.215274 0.792233 0.35111
0.215122 0.79762 0.335821
0.214923 0.803525 0.322057
0.213504 0.809323 0.319493
0.214694 0.815061 0.318364
0.219059 0.818936 0.30425
0.228321 0.819928 0.2701
0.233234 0.818555 0.253391
0.233448 0.812573 0.246845
0.24361 0.798978 0.23798
0.291539 0.786206 0.220462
0.31841 0.778332 0.216907
0.451286 0.778927 0.198596
0.556298 0.775128 0.201129
0.61709 0.737148 0.194797
0.675975 0.726787 0.203311
0.718944 0.726528 0.21384
0.749249 0.72372 0.222614
0.772808 0.722805 0.230686
0.796719 0.722744 0.240269
0.820478 0.722408 0.25008
0.838239 0.720913 0.256794
0.842603 0.718639 0.25774
0.841978 0.716258 0.256199
0.841581 0.71429 0.254856
0.841245 0.712291 0.253666
0.840711 0.709438 0.252125
0.840101 0.706554 0.250431
0.839887 0.703075 0.249088
0.839246 0.699443 0.247425
0.839597 0.696315 0.246799
0.838987 0.693202 0.245228
0.240635 0.829313 0.399924
0.241413 0.834333 0.386145
0.239857 0.838453 0.370245
0.23772 0.841978 0.354482
0.23563 0.845411 0.348943
0.235386 0.84831 0.347127
0.238132 0.850263 0.336675
0.244053 0.850294 0.306538
0.248631 0.8486 0.279088
0.248615 0.846296 0.271168
0.246418 0.839292 0.264775
0.300282 0.833661 0.253559
0.329686 0.823255 0.246921
0.391592 0.821347 0.238911
0.543862 0.822354 0.228702
0.610681 0.806165 0.227909
0.664073 0.774319 0.227451
0.714931 0.767956 0.23238
0.752834 0.767926 0.238834
0.780224 0.76463 0.247623
0.800336 0.762707 0.257008
0.81883 0.76141 0.265873
0.836789 0.760662 0.273594
0.847852 0.75903 0.277745
0.847242 0.756481 0.27599
0.846616 0.754177 0.27425
0.845975 0.75198 0.272877
0.845487 0.749783 0.271107
0.844923 0.746609 0.2692
0.84445 0.743358 0.26743
0.84419 0.740108 0.266255
0.843885 0.736751 0.265064
0.843656 0.733974 0.263752
0.256626 0.8542 0.42652
0.254932 0.855283 0.409308
0.251102 0.855955 0.390616
0.247166 0.856962 0.373388
0.243793 0.857877 0.364996
0.24155 0.858549 0.362203
0.242115 0.857908 0.351736
0.245487 0.855573 0.323568
0.250553 0.852171 0.28983
0.252461 0.850828 0.279698
0.252384 0.85005 0.276753
0.300008 0.855207 0.275074
0.350011 0.854459 0.268162
0.380148 0.851545 0.27068
0.497383 0.852232 0.253773
0.610819 0.853971 0.257649
0.658366 0.829282 0.256626
0.706538 0.804593 0.259754
0.750805 0.802014 0.262882
0.783902 0.802701 0.267643
0.807675 0.799893 0.275135
0.824582 0.797498 0.282353
0.839429 0.795972 0.289708
0.850736 0.794018 0.295613
0.851575 0.791379 0.295171
0.851194 0.788678 0.293782
0.850797 0.786526 0.292134
0.850294 0.784314 0.29044
0.849851 0.781323 0.288472
0.849607 0.778515 0.286931
0.849317 0.775677 0.285557
0.849119 0.772381 0.284413
0.849027 0.769696 0.283223
0.257404 0.855222 0.434501
0.255695 0.855055 0.414801
0.252537 0.855634 0.395239
0.248981 0.856519 0.378729
0.245319 0.85742 0.368673
0.242542 0.858473 0.368704
0.241886 0.858289 0.358419
0.244358 0.856458 0.332433
0.249104 0.853162 0.298024
0.252201 0.85095 0.27953
0.253071 0.850446 0.277363
0.277836 0.854261 0.280079
0.346426 0.862699 0.279713
0.381949 0.867201 0.287419
0.44625 0.871824 0.286976
0.589029 0.872587 0.268849
0.658869 0.868498 0.277455
0.698817 0.847608 0.285679
0.744823 0.829816 0.290227
0.783093 0.831205 0.293538
0.811017 0.831922 0.296818
0.831586 0.829755 0.303288
0.846159 0.828 0.309087
0.856321 0.82681 0.314687
0.859297 0.824796 0.315526
0.858412 0.822248 0.313191
0.857328 0.819806 0.310552
0.856184 0.817334 0.308049
0.855146 0.814786 0.305455
0.854246 0.812421 0.303227
0.853254 0.809476 0.301122
0.852476 0.806775 0.299214
0.851835 0.804318 0.297597
0.244327 0.860288 0.442344
0.245365 0.859098 0.422522
0.245914 0.858396 0.402441
0.24538 0.857862 0.384726
0.244312 0.857877 0.370581
0.242222 0.858595 0.368887
0.240681 0.859098 0.367056
0.242267 0.857557 0.345022
0.246418 0.854932 0.311833
0.251774 0.850965 0.276692
0.25275 0.850385 0.273747
0.259113 0.85185 0.279194
0.329931 0.862287 0.286976
0.384283 0.868498 0.289082
0.42089 0.873228 0.298466
0.531334 0.877409 0.28368
0.647791 0.87808 0.279286
0.695827 0.877623 0.304692
0.736034 0.861219 0.313146
0.779385 0.850523 0.318914
0.811063 0.85481 0.322286
0.835019 0.85594 0.32784
0.852995 0.854673 0.335332
0.864668 0.853498 0.341833
0.871 0.852049 0.344793
0.87071 0.849943 0.34287
0.869154 0.84741 0.339162
0.868055 0.845075 0.3364
0.866972 0.842741 0.333181
0.86569 0.84007 0.330297
0.865034 0.837552 0.328328
0.864469 0.834958 0.326345
0.864012 0.83212 0.324788
0.249317 0.858854 0.457099
0.251164 0.857694 0.439536
0.251926 0.856596 0.419913
0.252338 0.855985 0.400824
0.252079 0.855512 0.383032
0.251164 0.855299 0.370901
0.24979 0.855833 0.370855
0.249989 0.855314 0.360693
0.252781 0.853101 0.331456
0.258488 0.848829 0.288457
0.260471 0.847379 0.277134
0.261448 0.847257 0.278202
0.31426 0.856336 0.289769
0.383856 0.864912 0.291676
0.416785 0.870771 0.305745
0.489082 0.877226 0.308385
0.620615 0.881849 0.308797
0.693248 0.883345 0.320058
0.735088 0.880873 0.333791
0.777981 0.869001 0.345785
0.81442 0.866743 0.351446
0.840085 0.870375 0.357443
0.859632 0.871519 0.364569
0.872999 0.871092 0.372457
0.882506 0.871077 0.375433
0.883909 0.869856 0.374243
0.882643 0.868193 0.371099
0.880858 0.866621 0.367208
0.879164 0.864912 0.363638
0.877379 0.863081 0.35964
0.876204 0.861265 0.357794
0.875425 0.859144 0.356176
0.874937 0.856931 0.354314
0.248447 0.859663 0.469612
0.249897 0.85861 0.4533
0.250385 0.857801 0.43476
0.250034 0.85713 0.415717
0.249836 0.856733 0.397009
0.249805 0.856229 0.379004
0.249317 0.85597 0.370047
0.248936 0.856077 0.368978
0.250568 0.854536 0.348928
0.256092 0.850645 0.303716
0.259144 0.848051 0.279377
0.259937 0.847562 0.276387
0.287922 0.852583 0.285374
0.363897 0.862974 0.290562
0.402548 0.869337 0.30338
0.456275 0.876081 0.311513
0.569665 0.883711 0.316472
0.674662 0.887892 0.336858
0.723339 0.886915 0.336507
0.766598 0.885161 0.355962
0.808392 0.877729 0.371008
0.837644 0.879606 0.37702
0.858854 0.882597 0.383169
0.873823 0.884047 0.392905
0.885908 0.884916 0.398276
0.891218 0.885313 0.396307
0.89102 0.884779 0.392477
0.889967 0.884276 0.387366
0.888823 0.883513 0.381811
0.887098 0.882109 0.376715
0.885756 0.880385 0.372778
0.884962 0.87866 0.37052
0.884611 0.876982 0.369192
0.247242 0.860273 0.480003
0.248737 0.859342 0.464317
0.249134 0.858778 0.447669
0.248341 0.85832 0.429648
0.247303 0.857954 0.41088
0.246815 0.857557 0.391165
0.247028 0.857038 0.374258
0.247105 0.856748 0.368719
0.247745 0.856199 0.362051
0.251423 0.853422 0.32665
0.256733 0.849363 0.284916
0.257679 0.848493 0.276066
0.269429 0.85095 0.281483
0.343069 0.861234 0.28957
0.393851 0.868177 0.298665
0.432685 0.87332 0.307378
0.52195 0.882155 0.317052
0.646159 0.887404 0.331182
0.707301 0.888594 0.342199
0.751446 0.888426 0.349752
0.79588 0.883436 0.373388
0.830274 0.882979 0.385458
0.854765 0.886137 0.393072
0.871855 0.889067 0.403967
0.884886 0.890669 0.419425
0.892485 0.891203 0.425299
0.894133 0.891661 0.425284
0.893568 0.891829 0.423087
0.892638 0.891661 0.418158
0.891859 0.891402 0.412573
0.891051 0.890837 0.407355
0.890654 0.890043 0.403433
0.890593 0.889189 0.400168
0.246113 0.860883 0.489021
0.247745 0.86009 0.474342
0.247868 0.859403 0.458351
0.247105 0.859251 0.441901
0.24535 0.859159 0.423636
0.244083 0.859052 0.40351
0.243748 0.858427 0.382773
0.244129 0.857862 0.368338
0.246754 0.856931 0.370016
0.249424 0.854704 0.342504
0.25565 0.850263 0.293523
0.257618 0.848539 0.276417
0.261173 0.849577 0.279118
0.320119 0.858824 0.288273
0.383246 0.866865 0.293614
0.418372 0.871855 0.30454
0.483238 0.879423 0.315587
0.609293 0.885466 0.319417
0.691142 0.889342 0.34609
0.73463 0.888334 0.343114
0.779675 0.886305 0.365179
0.818555 0.882216 0.381079
0.845548 0.885908 0.388785
0.865232 0.889204 0.397299
0.879454 0.891096 0.4121
0.88957 0.891829 0.422705
0.893309 0.89218 0.423468
0.892989 0.892363 0.422827
0.892561 0.892653 0.421759
0.892134 0.892927 0.420844
0.891768 0.893126 0.420218
0.891737 0.893141 0.420188
0.892103 0.892927 0.420844
0.244038 0.861936 0.497276
0.245396 0.860914 0.482811
0.246433 0.860273 0.46804
0.24622 0.859831 0.452445
0.244862 0.8598 0.435447
0.24332 0.859571 0.415351
0.242863 0.859174 0.393668
0.243915 0.858183 0.372885
0.244175 0.857908 0.370138
0.245914 0.85658 0.355489
0.252033 0.852674 0.311406
0.256947 0.848844 0.27689
0.257191 0.848737 0.276753
0.29688 0.855711 0.286671
0.36965 0.865354 0.290929
0.406561 0.870909 0.301762
0.45658 0.877195 0.311162
0.561395 0.883772 0.31426
0.670649 0.889418 0.344289
0.717678 0.888685 0.341482
0.762646 0.888655 0.357046
0.805676 0.882826 0.376699
0.836149 0.884565 0.38529
0.858396 0.88835 0.392996
0.87393 0.891066 0.403845
0.885603 0.892409 0.419226
0.891707 0.893111 0.420218
0.891081 0.893492 0.419135
0.890349 0.893919 0.417731
0.889738 0.89427 0.416587
0.889464 0.894438 0.415885
0.889372 0.894514 0.415656
0.889433 0.894469 0.415824
0.233524 0.865782 0.505119
0.234211 0.865019 0.490486
0.235615 0.864134 0.475715
0.237415 0.863142 0.461479
0.238926 0.862181 0.44506
0.239887 0.861204 0.426215
0.240635 0.860227 0.405158
0.241993 0.859022 0.382467
0.243244 0.858228 0.369085
0.243992 0.857679 0.36318
0.248325 0.854627 0.326543
0.255177 0.849653 0.278782
0.256229 0.849058 0.274907
0.277668 0.852949 0.282628
0.351003 0.863584 0.290181
0.396979 0.869673 0.298085
0.436164 0.875135 0.30779
0.516182 0.882124 0.313298
0.632975 0.888014 0.329335
0.700389 0.889296 0.34374
0.744396 0.889128 0.347707
0.790478 0.884657 0.370748
0.826566 0.883223 0.382376
0.850904 0.886915 0.39086
0.869398 0.89041 0.397391
0.881483 0.891981 0.41709
0.8907 0.892989 0.420066
0.891081 0.893492 0.41912
0.890349 0.893919 0.417731
0.889738 0.89427 0.416602
0.889479 0.894438 0.41593
0.889464 0.894438 0.415885
0.889708 0.894286 0.416541
0.237583 0.864698 0.512825
0.240558 0.863157 0.49807
0.243992 0.861448 0.484001
0.246998 0.860182 0.470161
0.249561 0.858747 0.454734
0.252644 0.857084 0.437522
0.255467 0.855192 0.417853
