bundles/resolve-cinematic-luts/Phantom Luts/Canon Film LUT/ATOMOS Monitoring LUTs/C-Log 3/Eterna Canon CL3 AML.cube
TITLE "Generated by Resolve"
LUT_3D_SIZE 9
0.0768444 0.101061 0.100801
0.200412 0.104326 0.128038
0.309819 0.11223 0.158404
0.447715 0.128893 0.219181
0.616098 0.146792 0.303655
0.66714 0.159564 0.34966
0.669779 0.160403 0.366827
0.674998 0.159533 0.384131
0.702937 0.152712 0.417304
0.0805829 0.146426 0.112779
0.101472 0.121004 0.104204
0.259236 0.129519 0.112367
0.415961 0.120439 0.135073
0.569986 0.139895 0.209506
0.652705 0.154162 0.273243
0.664607 0.155581 0.303197
0.671321 0.15613 0.323781
0.696712 0.149798 0.348882
0.116976 0.329503 0.157397
0.107378 0.338933 0.125124
0.279332 0.296849 0.125292
0.485863 0.272084 0.137133
0.603525 0.196139 0.157321
0.641642 0.15024 0.22182
0.643732 0.149233 0.229404
0.643198 0.148821 0.233326
0.650065 0.147341 0.23859
0.109087 0.562646 0.219364
0.100832 0.592981 0.151186
0.129198 0.578515 0.121767
0.487617 0.527459 0.114687
0.690883 0.527398 0.148791
0.816129 0.483299 0.218173
0.823346 0.463935 0.226474
0.821347 0.446723 0.228138
0.816648 0.429648 0.22562
0.213367 0.786633 0.364401
0.213504 0.809323 0.319493
0.233234 0.818555 0.253391
0.31841 0.778332 0.216907
0.675975 0.726787 0.203311
0.796719 0.722744 0.240269
0.841978 0.716258 0.256199
0.840101 0.706554 0.250431
0.838987 0.693202 0.245228
0.244327 0.860288 0.442344
0.244312 0.857877 0.370581
0.246418 0.854932 0.311833
0.329931 0.862287 0.286976
0.647791 0.87808 0.279286
0.811063 0.85481 0.322286
0.871 0.852049 0.344793
0.866972 0.842741 0.333181
0.864012 0.83212 0.324788
0.246113 0.860883 0.489021
0.24535 0.859159 0.423636
0.246754 0.856931 0.370016
0.261173 0.849577 0.279118
0.483238 0.879423 0.315587
0.779675 0.886305 0.365179
0.879454 0.891096 0.4121
0.892561 0.892653 0.421759
0.892103 0.892927 0.420844
0.237568 0.864744 0.520104
0.246647 0.859983 0.462455
0.258793 0.852918 0.38172
0.270207 0.843641 0.28072
0.417838 0.867353 0.307118
0.715099 0.886961 0.348013
0.859663 0.885969 0.396567
0.893797 0.891875 0.42446
0.889906 0.894179 0.416892
0.230777 0.867765 0.543679
0.232822 0.865309 0.485283
0.245258 0.858763 0.413153
0.258213 0.849867 0.30573
0.383688 0.862226 0.295445
0.639445 0.884428 0.328664
0.824292 0.880507 0.386069
0.893202 0.892012 0.423774
0.888716 0.894865 0.414435
0.0745098 0.104906 0.139681
0.201114 0.108003 0.187091
0.314702 0.111742 0.222065
0.449424 0.126268 0.283253
0.622202 0.140429 0.359625
0.694774 0.15639 0.409827
0.695659 0.15671 0.428763
0.700328 0.15639 0.445991
0.717769 0.151888 0.472328
0.0813458 0.114199 0.110719
0.087602 0.101381 0.104692
0.287221 0.108598 0.155505
0.445914 0.120851 0.212436
0.608789 0.136965 0.287007
0.69221 0.151507 0.35288
0.694575 0.151415 0.372946
0.697856 0.15201 0.390448
0.712871 0.148775 0.41384
0.110185 0.290806 0.208591
0.102693 0.303151 0.152316
0.26247 0.275853 0.124529
0.472572 0.230213 0.137331
0.570947 0.136995 0.161639
0.653361 0.146883 0.240757
0.662242 0.14815 0.259342
0.670939 0.149279 0.278172
0.683345 0.148852 0.297459
0.0975662 0.530999 0.265919
0.0893721 0.560784 0.205997
0.105715 0.578515 0.128359
0.475547 0.515908 0.112734
0.688319 0.506416 0.143709
0.811429 0.456901 0.216266
0.817716 0.434043 0.226017
0.808057 0.419944 0.217105
0.798291 0.401816 0.208789
0.186984 0.761944 0.39057
0.185931 0.780468 0.347539
0.205493 0.795926 0.2981
0.285832 0.766461 0.207996
0.662226 0.713726 0.193759
0.791699 0.710262 0.23151
0.838941 0.705104 0.248432
0.837156 0.693294 0.243091
0.836561 0.678233 0.237934
0.246235 0.861082 0.495048
0.238605 0.862272 0.442298
0.239536 0.859632 0.370382
0.288014 0.856718 0.282551
0.617517 0.876646 0.276188
0.801907 0.84799 0.311742
0.866392 0.843503 0.333715
0.862013 0.833341 0.322255
0.858228 0.822705 0.31281
0.243671 0.86363 0.543389
0.242573 0.862425 0.496742
0.242924 0.85951 0.410468
0.257786 0.848554 0.278035
0.458854 0.876585 0.311757
0.763684 0.887373 0.356313
0.876829 0.890272 0.408423
0.892653 0.892226 0.420798
0.89134 0.891905 0.411948
0.236271 0.866896 0.574685
0.24596 0.862333 0.530495
0.254215 0.857359 0.463371
0.265049 0.848081 0.323278
0.409689 0.865721 0.302144
0.69984 0.887129 0.349493
0.853269 0.884642 0.394995
0.893797 0.891875 0.42446
0.889723 0.894286 0.416556
0.233768 0.868254 0.595819
0.240406 0.864729 0.552377
0.242924 0.862181 0.493446
0.252293 0.854871 0.370809
0.365835 0.859495 0.29305
0.607965 0.883696 0.327108
0.810742 0.881575 0.380667
0.890562 0.891722 0.423178
0.888701 0.894881 0.414405
0.0724041 0.108064 0.2309
0.205951 0.109667 0.267338
0.322377 0.114244 0.278614
0.455863 0.126925 0.322866
0.614496 0.140597 0.389822
0.697429 0.157382 0.443412
0.700069 0.158938 0.467338
0.703548 0.159136 0.489113
0.717998 0.154589 0.521096
0.0832074 0.132891 0.161563
0.0767224 0.112062 0.22208
0.292988 0.111696 0.253544
0.442466 0.124514 0.284672
0.59794 0.13576 0.34992
0.700465 0.153323 0.414008
0.704067 0.155016 0.444923
0.70663 0.155993 0.46772
0.719905 0.153429 0.496025
0.108293 0.26688 0.239292
0.0986954 0.260685 0.235004
0.26128 0.255482 0.252094
0.484154 0.18764 0.252979
0.601267 0.136141 0.288609
0.692851 0.15169 0.354116
0.692836 0.150637 0.378759
0.695476 0.154253 0.399893
0.705821 0.152544 0.424247
0.0969558 0.492668 0.322164
0.0849775 0.515129 0.29868
0.0881819 0.54023 0.219165
0.460349 0.502129 0.113817
0.710124 0.459037 0.18732
0.813794 0.394247 0.247852
0.815763 0.364675 0.26041
0.808103 0.329717 0.26807
0.794629 0.293385 0.273213
0.154498 0.72015 0.440314
0.147021 0.736431 0.416983
0.163348 0.755917 0.354559
0.23357 0.754696 0.204196
0.647669 0.697688 0.184268
0.784833 0.686687 0.220661
0.836912 0.678508 0.238239
0.836484 0.664836 0.233494
0.835996 0.645212 0.228626
0.249699 0.856184 0.563775
0.235431 0.862867 0.540856
0.232227 0.863569 0.477546
0.250553 0.852613 0.29868
0.538109 0.871809 0.274235
0.784634 0.833249 0.294438
0.856626 0.825254 0.313329
0.854643 0.814954 0.305303
0.851423 0.802655 0.297337
0.245136 0.865415 0.616953
0.24242 0.865644 0.593393
0.242603 0.863813 0.53904
0.248005 0.856596 0.371893
0.421637 0.871992 0.305394
0.739345 0.887739 0.344762
0.871626 0.888701 0.403754
0.892378 0.891096 0.413535
0.889281 0.888624 0.394614
0.239796 0.865385 0.645121
0.241077 0.866865 0.621134
0.254765 0.860914 0.575433
0.254932 0.856626 0.446052
0.362402 0.858076 0.296391
0.665873 0.884733 0.339239
0.840391 0.881682 0.391791
0.893858 0.891844 0.424598
0.889769 0.894286 0.416541
0.239155 0.861982 0.660029
0.238621 0.866896 0.637003
0.245304 0.864805 0.59881
0.251896 0.859266 0.49781
0.287526 0.847547 0.284016
0.553933 0.880354 0.318837
0.786999 0.884108 0.371069
0.884459 0.891234 0.421012
0.888426 0.895018 0.414023
0.0875715 0.114855 0.33753
0.192599 0.115129 0.379049
0.333104 0.115084 0.378332
0.469123 0.126772 0.392676
0.631952 0.143984 0.44416
0.700771 0.15996 0.483803
0.697841 0.160952 0.510552
0.696056 0.161364 0.537469
0.708186 0.157855 0.577173
0.0833295 0.14963 0.27924
0.0799878 0.123644 0.328634
0.266346 0.116197 0.390829
0.450782 0.123369 0.382284
0.609964 0.138415 0.421134
0.703075 0.157885 0.47306
0.699718 0.160296 0.505257
0.697917 0.160815 0.535027
0.709743 0.157244 0.57615
0.109346 0.26038 0.294652
0.0991684 0.236103 0.331106
0.10309 0.188174 0.376959
0.452888 0.133944 0.395132
0.595087 0.139361 0.404288
0.695384 0.159274 0.45536
0.697108 0.161257 0.487007
0.694926 0.161913 0.512413
0.704662 0.158633 0.545083
0.099443 0.456916 0.38555
0.088304 0.464012 0.395041
0.0881208 0.464347 0.404715
0.459586 0.473564 0.443656
0.73785 0.416114 0.44654
0.869062 0.360281 0.478233
0.868605 0.326558 0.501762
0.849271 0.288655 0.512078
0.816312 0.247715 0.510658
0.139818 0.670726 0.498741
0.118181 0.680858 0.502174
0.120165 0.688151 0.486595
0.147555 0.719203 0.369467
0.623774 0.67892 0.298604
0.822705 0.651865 0.388281
0.888167 0.627054 0.424628
0.888243 0.611353 0.43209
0.886671 0.588937 0.427832
0.231052 0.821302 0.617548
0.212894 0.824521 0.612924
0.205631 0.826307 0.586267
0.216373 0.843778 0.487922
0.428611 0.870298 0.318608
0.763561 0.811902 0.294957
0.861616 0.798901 0.349935
0.86923 0.788708 0.361288
0.868864 0.775113 0.358297
0.247959 0.852964 0.681483
0.239521 0.858137 0.675517
0.241367 0.863691 0.650446
0.244724 0.863813 0.565972
0.28304 0.854261 0.310048
0.690013 0.888304 0.361028
0.857816 0.882826 0.385794
0.887968 0.880964 0.381826
0.88307 0.874968 0.366476
0.249195 0.846113 0.704234
0.240726 0.85182 0.695308
0.24358 0.85742 0.672236
0.257389 0.861189 0.605798
0.26038 0.852598 0.387442
0.531777 0.88072 0.334981
0.805997 0.882231 0.384543
0.892638 0.890517 0.427161
0.893095 0.892653 0.422156
0.238727 0.846525 0.718166
0.237385 0.850217 0.705974
0.237354 0.855985 0.685374
0.257557 0.861097 0.63003
0.254185 0.85745 0.46508
0.441428 0.872389 0.320378
0.738506 0.886778 0.354864
0.872023 0.890181 0.403082
0.890166 0.89424 0.416846
0.105379 0.129 0.45655
0.183078 0.129732 0.495186
0.349264 0.132601 0.531502
0.492073 0.125277 0.517815
0.639033 0.148165 0.533227
0.691447 0.163424 0.547433
0.689723 0.164691 0.564843
0.694881 0.163668 0.597101
0.704509 0.160922 0.63888
0.0911727 0.166598 0.410239
0.0878157 0.146792 0.435691
0.216297 0.12842 0.492393
0.455589 0.125292 0.520134
0.611765 0.14107 0.519936
0.694606 0.161898 0.538918
0.692149 0.163775 0.565698
0.694484 0.163958 0.60441
0.70399 0.16144 0.648707
0.103838 0.229953 0.389303
0.0982528 0.212909 0.419745
0.0918441 0.167254 0.445502
0.404639 0.132158 0.540063
0.600305 0.137972 0.525185
0.692012 0.162524 0.527993
0.688106 0.164965 0.556481
0.687892 0.166247 0.59028
0.699413 0.162844 0.632807
0.0982681 0.436728 0.469017
0.0917983 0.44036 0.497902
0.094377 0.429938 0.536522
0.246021 0.387488 0.606622
0.711482 0.336294 0.630365
0.821225 0.271778 0.596506
0.785351 0.234485 0.583795
0.76051 0.216114 0.588632
0.722728 0.176333 0.585748
0.127565 0.635019 0.554391
0.112352 0.636698 0.562829
0.112123 0.63566 0.568353
0.115602 0.626963 0.558663
0.6112 0.639399 0.602457
0.840253 0.602487 0.604898
0.902922 0.577966 0.621332
0.9037 0.562509 0.636393
0.902953 0.533089 0.64625
0.220111 0.783505 0.653559
0.195773 0.785321 0.655634
0.187564 0.778073 0.644785
0.180041 0.774823 0.606348
0.430961 0.843732 0.580514
0.743679 0.794934 0.534707
0.877256 0.766354 0.59443
0.892943 0.751934 0.614374
0.893385 0.736812 0.611017
0.257206 0.837964 0.723339
0.238682 0.845045 0.724651
0.233799 0.848768 0.711833
0.238331 0.853727 0.667414
0.278004 0.872435 0.574151
0.660349 0.893339 0.56556
0.855436 0.875578 0.583688
0.895659 0.871153 0.617166
0.893385 0.86566 0.612238
0.250172 0.835218 0.748455
0.241321 0.839475 0.745266
0.235401 0.844755 0.732387
0.241398 0.852354 0.692775
0.257771 0.860853 0.596582
0.561074 0.891432 0.568414
0.792004 0.891005 0.527214
0.892638 0.893843 0.564553
0.899031 0.895949 0.597971
0.251164 0.832456 0.75996
0.243549 0.836515 0.755444
0.236118 0.842069 0.743236
0.238819 0.849104 0.708278
0.257191 0.860029 0.629664
0.436362 0.890288 0.560647
0.725902 0.893751 0.583291
0.867262 0.893416 0.477882
0.895293 0.896864 0.560494
0.11693 0.160891 0.554696
0.155108 0.165423 0.588922
0.330709 0.160143 0.644266
0.513771 0.148623 0.665873
0.647807 0.151705 0.64802
0.697566 0.164309 0.65391
0.697841 0.164218 0.663584
0.699367 0.163973 0.676875
0.698482 0.164294 0.687892
0.097673 0.185061 0.52256
0.0978866 0.182376 0.540429
0.184253 0.15555 0.582315
0.443565 0.152422 0.657252
0.619287 0.14522 0.644556
0.696193 0.164553 0.644892
0.69604 0.164889 0.655619
0.697749 0.164614 0.676204
0.698695 0.164355 0.696117
0.100557 0.216724 0.489265
0.100908 0.210849 0.508324
0.097322 0.182269 0.527184
0.317296 0.151278 0.615625
0.589517 0.139422 0.64741
0.694499 0.164401 0.634501
0.693156 0.165713 0.639475
0.693919 0.165805 0.66154
0.698741 0.164263 0.691554
0.0979934 0.417319 0.567239
0.0988174 0.411765 0.586984
0.102312 0.399985 0.615518
0.11281 0.353964 0.647868
0.612467 0.281483 0.763577
0.755093 0.224903 0.674144
0.760174 0.2177 0.651316
0.706416 0.172183 0.63032
0.703517 0.161944 0.652293
0.125475 0.6121 0.623392
0.120302 0.611856 0.634379
0.124193 0.611887 0.647013
0.126238 0.597559 0.665858
0.492103 0.591959 0.73547
0.82446 0.556512 0.752194
0.902235 0.523705 0.741024
0.900191 0.505074 0.748028
0.896666 0.479469 0.770459
0.205661 0.760037 0.693675
0.187701 0.755245 0.693843
0.182132 0.744671 0.688869
0.173205 0.731121 0.673289
0.399802 0.757961 0.690867
0.729381 0.758892 0.723842
0.882338 0.73138 0.723995
0.901411 0.715953 0.731899
0.901198 0.704433 0.737575
0.255131 0.830884 0.756802
0.236805 0.835752 0.757794
0.232334 0.832731 0.748806
0.222934 0.824292 0.719554
0.267124 0.844114 0.68893
0.637537 0.881514 0.72221
0.835492 0.862119 0.705852
0.892866 0.848859 0.738933
0.89276 0.842069 0.749828
0.268879 0.822049 0.778836
0.244297 0.830961 0.78262
0.238636 0.834913 0.773846
0.236393 0.841184 0.74699
0.238392 0.854536 0.702037
0.547936 0.897322 0.704601
0.799741 0.897612 0.74287
0.898695 0.897642 0.790814
0.908827 0.895933 0.818402
0.254444 0.824384 0.798245
0.24622 0.82797 0.796704
0.240162 0.831678 0.787701
0.237507 0.837797 0.76144
0.23772 0.849165 0.716243
0.472984 0.895201 0.706661
0.760098 0.897536 0.75436
0.875135 0.896727 0.748653
0.90399 0.899351 0.808759
0.113985 0.191913 0.620005
0.115785 0.19263 0.62681
0.299046 0.192477 0.700191
0.500267 0.188022 0.748775
0.63827 0.156863 0.7075
0.694408 0.16585 0.712154
0.693629 0.166033 0.714473
0.693812 0.166003 0.71426
0.692882 0.166339 0.712642
0.105745 0.208728 0.606622
0.108537 0.216953 0.623835
0.143496 0.190951 0.638743
0.40235 0.192706 0.732158
0.610895 0.162692 0.719127
0.694194 0.166033 0.713588
0.69337 0.166125 0.713161
0.693843 0.165972 0.714519
0.693614 0.165988 0.714611
0.106294 0.234531 0.580728
0.108034 0.23798 0.598459
0.106569 0.212222 0.610483
0.223346 0.188006 0.665492
0.569619 0.17525 0.737331
0.694224 0.16611 0.714046
0.693797 0.166155 0.710643
0.694133 0.166018 0.713054
0.693828 0.165988 0.714839
0.104891 0.411765 0.645777
0.107881 0.408087 0.660487
0.112673 0.387289 0.678264
0.118502 0.348013 0.689754
0.484047 0.27921 0.80116
0.675349 0.173342 0.713283
0.696788 0.163714 0.687266
0.69868 0.164294 0.68632
0.699886 0.163897 0.693172
0.139452 0.614343 0.684352
0.138888 0.607324 0.694667
0.139849 0.594644 0.705852
0.141802 0.570245 0.723552
0.324742 0.542245 0.797284
0.747066 0.523552 0.861311
0.891875 0.480369 0.824399
0.892775 0.482109 0.812833
0.888884 0.45034 0.835615
0.205081 0.743053 0.744427
0.193027 0.736095 0.744656
0.188296 0.725185 0.741085
0.18323 0.711574 0.738705
0.207095 0.702937 0.753643
0.652918 0.723445 0.815473
0.874342 0.6972 0.825986
0.901152 0.68043 0.818738
0.899611 0.662409 0.826383
0.262898 0.817487 0.786648
0.237232 0.8224 0.790539
0.231739 0.814817 0.783062
0.221958 0.800824 0.764767
0.218219 0.792157 0.742123
0.616327 0.837369 0.792325
0.828397 0.841779 0.821057
0.901503 0.82565 0.81825
0.901579 0.82005 0.821561
0.265721 0.818372 0.808789
0.245487 0.825772 0.812818
0.242847 0.827619 0.806745
0.240162 0.831693 0.787701
0.238773 0.841093 0.760601
0.518807 0.884138 0.784283
0.784451 0.896193 0.829358
0.894163 0.892348 0.839521
0.905577 0.888457 0.8477
0.273976 0.816831 0.816129
0.25095 0.824216 0.822782
0.24477 0.825254 0.819791
0.242374 0.828397 0.803296
0.238956 0.836759 0.77116
0.450935 0.877958 0.784588
0.756497 0.896849 0.829389
0.867002 0.897856 0.838544
0.90663 0.902235 0.882597
0.108949 0.192065 0.624323
0.0777447 0.191577 0.610025
0.281209 0.19205 0.693996
0.466941 0.191333 0.746899
0.636133 0.162707 0.718303
0.693767 0.165927 0.714977
0.693767 0.165927 0.714977
0.693736 0.165942 0.714946
0.692988 0.166232 0.713146
0.110155 0.22121 0.634836
0.112108 0.231342 0.643137
0.125002 0.19237 0.632624
0.354269 0.193164 0.718456
0.596841 0.17084 0.731563
0.693767 0.165927 0.714977
0.693767 0.165927 0.714977
0.693767 0.165927 0.714977
0.693538 0.166003 0.714473
0.11429 0.257908 0.650553
0.117296 0.268116 0.664897
0.112459 0.233051 0.644404
0.150729 0.192569 0.643259
0.532189 0.184787 0.749096
0.69369 0.165911 0.714961
0.693767 0.165927 0.714977
0.693767 0.165927 0.714977
0.693736 0.165942 0.714931
0.118685 0.412131 0.702159
0.123018 0.414252 0.710857
0.127001 0.391714 0.720394
0.129381 0.355505 0.719707
0.352117 0.258076 0.762768
0.633936 0.169207 0.726207
0.693812 0.165942 0.714977
0.693812 0.165942 0.714977
0.693874 0.165942 0.714977
0.15436 0.604593 0.737453
0.156405 0.600931 0.745434
0.155749 0.582727 0.753536
0.154376 0.557748 0.761349
0.163287 0.51165 0.779141
0.636103 0.51136 0.879866
0.874846 0.436866 0.890105
0.876844 0.418128 0.876768
0.875288 0.405524 0.875608
0.206073 0.743236 0.777691
0.20325 0.739223 0.780056
0.199969 0.72929 0.778912
0.194339 0.710781 0.778454
0.18558 0.669566 0.786419
0.553704 0.684428 0.859602
0.825986 0.672694 0.889494
0.894743 0.644602 0.869627
0.894255 0.643915 0.86891
0.251835 0.817243 0.817975
0.239658 0.81413 0.817853
0.235264 0.805936 0.812863
0.227283 0.791333 0.803372
0.217731 0.771664 0.793881
0.497688 0.802838 0.837095
0.775479 0.820539 0.867414
0.893309 0.806332 0.869749
0.897047 0.799298 0.865919
0.266606 0.821195 0.828351
0.248569 0.826352 0.832792
0.247318 0.826093 0.82945
0.244953 0.82536 0.82031
0.241352 0.827115 0.801755
0.395987 0.85774 0.813581
0.76939 0.880934 0.862791
0.885359 0.888151 0.882307
0.9037 0.884657 0.88101
0.267918 0.823209 0.835431
0.252155 0.827573 0.839612
0.249958 0.827359 0.837354
0.247242 0.826017 0.829297
0.243732 0.827283 0.811337
0.343008 0.859434 0.818112
0.753185 0.887907 0.866026
0.878004 0.899077 0.886839
0.911116 0.901564 0.895827
0.116716 0.192325 0.628321
0.12784 0.192325 0.634073
0.259022 0.191562 0.686107
0.427863 0.192676 0.739208
0.611215 0.163256 0.721325
0.693767 0.165927 0.714977
0.693767 0.165927 0.714977
0.693767 0.165927 0.714977
0.693706 0.165942 0.71487
0.10985 0.219226 0.633249
0.109621 0.217197 0.631861
0.107805 0.192416 0.623041
0.302296 0.192401 0.701244
0.566155 0.178424 0.742473
0.693767 0.165927 0.714977
0.693767 0.165927 0.714977
0.693767 0.165927 0.714977
0.693767 0.165927 0.714977
0.118486 0.269871 0.671824
0.118502 0.269383 0.671519
0.114015 0.24097 0.650675
0.107897 0.193927 0.623087
0.482353 0.190555 0.749218
0.68687 0.164935 0.714809
0.693767 0.165927 0.714977
0.693767 0.165927 0.714977
0.693767 0.165927 0.714977
0.132525 0.418357 0.734966
0.135348 0.426566 0.741634
0.135912 0.403296 0.741802
0.131334 0.364645 0.725521
0.206546 0.252445 0.705989
0.598886 0.178058 0.740017
0.693797 0.165942 0.714977
0.693812 0.165942 0.714977
0.693812 0.165942 0.714977
0.166323 0.601328 0.773129
0.16817 0.601572 0.778851
0.167407 0.585077 0.784695
0.164813 0.563333 0.787015
0.151827 0.506722 0.772503
0.540825 0.48571 0.865538
0.844663 0.401343 0.886534
0.849561 0.351736 0.864775
0.837308 0.332952 0.852979
0.213626 0.750332 0.805554
0.212726 0.745251 0.807889
0.208927 0.732509 0.808042
0.202487 0.709789 0.808133
0.191104 0.664576 0.808591
0.423606 0.652522 0.864698
0.751369 0.659098 0.889693
0.888106 0.609369 0.896208
0.887694 0.594797 0.896361
0.245563 0.818601 0.835065
0.24361 0.814008 0.833677
0.240009 0.807065 0.830686
0.234653 0.795514 0.826398
0.225895 0.775036 0.821424
0.303838 0.771603 0.851148
0.70338 0.794141 0.880552
0.874968 0.790188 0.8916
0.889174 0.774472 0.892638
0.253254 0.829984 0.846845
0.252918 0.82974 0.846067
0.252247 0.82919 0.844205
0.251057 0.828122 0.840818
0.247776 0.824369 0.834043
0.255253 0.818784 0.83447
0.682246 0.864103 0.876295
0.864805 0.880461 0.89192
0.894759 0.880201 0.894392
0.253849 0.830625 0.848127
0.253849 0.830625 0.848127
0.253849 0.83061 0.848096
0.252384 0.829252 0.844785
0.249485 0.827161 0.836011
0.250736 0.831128 0.834058
0.667048 0.876005 0.870375
0.876081 0.897383 0.895109
0.904631 0.904921 0.904616
