bundles/resolve-cinematic-luts/Phantom Luts/Canon Film LUT/ATOMOS Monitoring LUTs/C-Log 3/Eterna Canon CL3 AML.cube
TITLE "Generated by Resolve"
LUT_3D_SIZE 5
0.0768444 0.101061 0.100801
0.309819 0.11223 0.158404
0.616098 0.146792 0.303655
0.669779 0.160403 0.366827
0.702937 0.152712 0.417304
0.116976 0.329503 0.157397
0.279332 0.296849 0.125292
0.603525 0.196139 0.157321
0.643732 0.149233 0.229404
0.650065 0.147341 0.23859
0.213367 0.786633 0.364401
0.233234 0.818555 0.253391
0.675975 0.726787 0.203311
0.841978 0.716258 0.256199
0.838987 0.693202 0.245228
0.246113 0.860883 0.489021
0.246754 0.856931 0.370016
0.483238 0.879423 0.315587
0.879454 0.891096 0.4121
0.892103 0.892927 0.420844
0.230777 0.867765 0.543679
0.245258 0.858763 0.413153
0.383688 0.862226 0.295445
0.824292 0.880507 0.386069
0.888716 0.894865 0.414435
0.0724041 0.108064 0.2309
0.322377 0.114244 0.278614
0.614496 0.140597 0.389822
0.700069 0.158938 0.467338
0.717998 0.154589 0.521096
0.108293 0.26688 0.239292
0.26128 0.255482 0.252094
0.601267 0.136141 0.288609
0.692836 0.150637 0.378759
0.705821 0.152544 0.424247
0.154498 0.72015 0.440314
0.163348 0.755917 0.354559
0.647669 0.697688 0.184268
0.836912 0.678508 0.238239
0.835996 0.645212 0.228626
0.245136 0.865415 0.616953
0.242603 0.863813 0.53904
0.421637 0.871992 0.305394
0.871626 0.888701 0.403754
0.889281 0.888624 0.394614
0.239155 0.861982 0.660029
0.245304 0.864805 0.59881
0.287526 0.847547 0.284016
0.786999 0.884108 0.371069
0.888426 0.895018 0.414023
0.105379 0.129 0.45655
0.349264 0.132601 0.531502
0.639033 0.148165 0.533227
0.689723 0.164691 0.564843
0.704509 0.160922 0.63888
0.103838 0.229953 0.389303
0.0918441 0.167254 0.445502
0.600305 0.137972 0.525185
0.688106 0.164965 0.556481
0.699413 0.162844 0.632807
0.127565 0.635019 0.554391
0.112123 0.63566 0.568353
0.6112 0.639399 0.602457
0.902922 0.577966 0.621332
0.902953 0.533089 0.64625
0.257206 0.837964 0.723339
0.233799 0.848768 0.711833
0.278004 0.872435 0.574151
0.855436 0.875578 0.583688
0.893385 0.86566 0.612238
0.251164 0.832456 0.75996
0.236118 0.842069 0.743236
0.257191 0.860029 0.629664
0.725902 0.893751 0.583291
0.895293 0.896864 0.560494
0.113985 0.191913 0.620005
0.299046 0.192477 0.700191
0.63827 0.156863 0.7075
0.693629 0.166033 0.714473
0.692882 0.166339 0.712642
0.106294 0.234531 0.580728
0.106569 0.212222 0.610483
0.569619 0.17525 0.737331
0.693797 0.166155 0.710643
0.693828 0.165988 0.714839
0.139452 0.614343 0.684352
0.139849 0.594644 0.705852
0.324742 0.542245 0.797284
0.891875 0.480369 0.824399
0.888884 0.45034 0.835615
0.262898 0.817487 0.786648
0.231739 0.814817 0.783062
0.218219 0.792157 0.742123
0.828397 0.841779 0.821057
0.901579 0.82005 0.821561
0.273976 0.816831 0.816129
0.24477 0.825254 0.819791
0.238956 0.836759 0.77116
0.756497 0.896849 0.829389
0.90663 0.902235 0.882597
0.116716 0.192325 0.628321
0.259022 0.191562 0.686107
0.611215 0.163256 0.721325
0.693767 0.165927 0.714977
0.693706 0.165942 0.71487
0.118486 0.269871 0.671824
0.114015 0.24097 0.650675
0.482353 0.190555 0.749218
0.693767 0.165927 0.714977
0.693767 0.165927 0.714977
0.166323 0.601328 0.773129
0.167407 0.585077 0.784695
0.151827 0.506722 0.772503
0.844663 0.401343 0.886534
0.837308 0.332952 0.852979
0.245563 0.818601 0.835065
0.240009 0.807065 0.830686
0.225895 0.775036 0.821424
0.70338 0.794141 0.880552
0.889174 0.774472 0.892638
0.253849 0.830625 0.848127
0.253849 0.83061 0.848096
0.249485 0.827161 0.836011
0.667048 0.876005 0.870375
0.904631 0.904921 0.904616
