bundles/resolve-cinematic-luts/Phantom Luts/Canon Film LUT/ATOMOS Monitoring LUTs/C-Log 3/VisionTeal Canon-Legacy CL3 AML.cube
TITLE "Generated by Resolve"
LUT_3D_SIZE 5
0.0856794 0.103044 0.101244
0.266468 0.100069 0.0874189
0.577386 0.111513 0.112215
0.677852 0.111986 0.152193
0.679744 0.110689 0.144976
0.0986343 0.31043 0.117723
0.223636 0.252293 0.10164
0.582879 0.211597 0.112383
0.708278 0.181125 0.134493
0.718212 0.220859 0.135912
0.224735 0.710048 0.283497
0.222827 0.667094 0.209232
0.566567 0.588388 0.156603
0.763485 0.627237 0.193027
0.764675 0.612802 0.189273
0.274815 0.808362 0.39144
0.279194 0.793423 0.288563
0.593423 0.752712 0.318257
0.77998 0.783978 0.320165
0.79118 0.786374 0.319905
0.266148 0.820798 0.434012
0.279698 0.792721 0.288197
0.478676 0.75584 0.302037
0.756237 0.785382 0.297658
0.79118 0.786542 0.319524
0.0831464 0.12604 0.260121
0.303944 0.0913405 0.306935
0.660899 0.127779 0.434302
0.709087 0.141222 0.451728
0.711055 0.139803 0.377646
0.0821851 0.234989 0.191867
0.210727 0.231708 0.218296
0.599084 0.101961 0.174075
0.704555 0.12015 0.219409
0.700832 0.128389 0.146624
0.1505 0.667781 0.386877
0.189151 0.645518 0.264881
0.540383 0.55935 0.152041
0.764538 0.590539 0.188693
0.76318 0.572839 0.188403
0.221271 0.852781 0.552514
0.273381 0.812055 0.401831
0.496773 0.754818 0.30602
0.765789 0.782528 0.315328
0.793301 0.787991 0.306249
0.223636 0.85597 0.573312
0.264576 0.82266 0.443061
0.372702 0.772778 0.293095
0.734569 0.778607 0.299016
0.791165 0.786557 0.319493
0.0826734 0.187274 0.520943
0.300801 0.120317 0.575509
0.642008 0.14052 0.665019
0.718547 0.16231 0.748898
0.722438 0.164767 0.698726
0.0822461 0.235676 0.46067
0.0826734 0.177462 0.504356
0.572198 0.124865 0.591959
0.72253 0.181079 0.668498
0.72253 0.153872 0.618906
0.11902 0.601434 0.547021
0.111849 0.580987 0.528557
0.601343 0.594461 0.571557
0.814633 0.510414 0.532555
0.80351 0.504509 0.471046
0.188174 0.865843 0.704158
0.217823 0.865827 0.669764
0.281407 0.822095 0.455955
0.737163 0.768383 0.41062
0.781491 0.762203 0.37705
0.18677 0.866667 0.705058
0.223514 0.865324 0.663737
0.25655 0.829206 0.462837
0.672175 0.765988 0.300069
0.792142 0.786313 0.32134
0.0827802 0.259937 0.652796
0.319692 0.212299 0.748913
0.672068 0.207736 0.79379
0.723262 0.187961 0.797253
0.723125 0.187991 0.797162
0.0827344 0.308461 0.649744
0.0827955 0.259876 0.652155
0.574975 0.174578 0.775967
0.723262 0.187961 0.797253
0.723262 0.187961 0.797253
0.0837568 0.604639 0.700984
0.0837873 0.570062 0.705959
0.43682 0.518837 0.779797
0.78529 0.431357 0.818173
0.775113 0.366735 0.807385
0.202884 0.86537 0.817914
0.197024 0.850446 0.804974
0.1785 0.807401 0.763836
0.797864 0.805463 0.78703
0.865187 0.762585 0.759121
0.201846 0.867369 0.824079
0.207111 0.86331 0.806943
0.175738 0.867277 0.747219
0.668559 0.838254 0.716899
0.855863 0.866545 0.791074
0.0829175 0.260075 0.667262
0.329763 0.188159 0.751446
0.687892 0.204334 0.79588
0.723262 0.187961 0.797253
0.723217 0.187976 0.797238
0.0825208 0.306691 0.652201
0.0829175 0.260197 0.665583
0.582574 0.176577 0.777676
0.723262 0.187961 0.797253
0.723262 0.187961 0.797253
0.0839094 0.596551 0.746456
0.0835431 0.559823 0.734264
0.395819 0.480323 0.778607
0.771664 0.373373 0.817395
0.762097 0.307332 0.813703
0.186206 0.869017 0.837842
0.174594 0.851698 0.833509
0.122957 0.806912 0.816342
0.749615 0.770657 0.866133
0.855573 0.725093 0.867887
0.190967 0.876722 0.838621
0.190967 0.876722 0.838621
0.191043 0.876905 0.838712
0.588296 0.84744 0.817227
0.873655 0.885023 0.866941
