bundles/resolve-cinematic-luts/Phantom Luts/Canon Film LUT/ATOMOS Monitoring LUTs/C-Log 3/VisionTeal Canon-Legacy CL3 AML.cube
TITLE "Generated by Resolve"
LUT_3D_SIZE 33
0.0856794 0.103044 0.101244
0.0858015 0.103014 0.101183
0.0878462 0.102785 0.101213
0.104768 0.101106 0.100984
0.138033 0.0977646 0.0981613
0.162951 0.0978561 0.0961624
0.190936 0.0994583 0.0937667
0.226841 0.0996414 0.0901198
0.266468 0.100069 0.0874189
0.309636 0.100084 0.0849928
0.350591 0.101549 0.0862135
0.391852 0.101686 0.0867628
0.430274 0.103532 0.087602
0.46833 0.108171 0.090898
0.505501 0.11249 0.0962081
0.538598 0.112154 0.103517
0.577386 0.111513 0.112215
0.614481 0.114046 0.122866
0.664942 0.108598 0.142687
0.672221 0.113268 0.142123
0.678584 0.111955 0.149844
0.677867 0.112078 0.153109
0.677928 0.112078 0.152956
0.678019 0.112093 0.152804
0.677852 0.111986 0.152193
0.677668 0.11191 0.151476
0.677638 0.111879 0.150973
0.677852 0.111925 0.150835
0.677867 0.111711 0.149569
0.677607 0.111437 0.148486
0.677378 0.111116 0.147539
0.677287 0.110796 0.147265
0.679744 0.110689 0.144976
0.0859083 0.102983 0.101106
0.085771 0.103029 0.101198
0.0861067 0.102968 0.101106
0.100908 0.101778 0.101137
0.129412 0.100389 0.099733
0.157549 0.0995346 0.0969406
0.186709 0.100587 0.094377
0.223972 0.100542 0.0905013
0.26482 0.10132 0.0885176
0.308904 0.1019 0.0869459
0.3505 0.102159 0.0865797
0.391913 0.10248 0.0867475
0.428428 0.103914 0.0867781
0.465522 0.108309 0.0895552
0.503807 0.112459 0.0953384
0.540154 0.115801 0.103258
0.577279 0.113359 0.112001
0.612146 0.116808 0.121447
0.654658 0.111757 0.136095
0.677577 0.11162 0.14786
0.678737 0.111894 0.149081
0.678904 0.11191 0.148959
0.676509 0.111177 0.145205
0.67776 0.111894 0.151003
0.677546 0.111803 0.150088
0.677485 0.111727 0.149645
0.677531 0.111696 0.149203
0.677226 0.111421 0.146258
0.676982 0.111147 0.144747
0.676829 0.110826 0.143938
0.677028 0.110628 0.143679
0.67985 0.111666 0.143587
0.682017 0.11371 0.143267
0.0860151 0.103258 0.101137
0.085832 0.103166 0.101183
0.0858473 0.103014 0.101167
0.0879683 0.103166 0.100847
0.113207 0.102998 0.100221
0.144396 0.102007 0.0978103
0.173678 0.102708 0.095613
0.210788 0.103288 0.0921798
0.255207 0.103334 0.0894942
0.301976 0.103456 0.0872358
0.344121 0.103777 0.0860914
0.385061 0.105364 0.0869612
0.42443 0.107332 0.0868544
0.463447 0.108232 0.0889143
0.501167 0.112764 0.0935683
0.537453 0.117128 0.101213
0.576715 0.118395 0.111528
0.616709 0.119249 0.122438
0.651026 0.113832 0.134218
0.677073 0.11136 0.14583
0.676966 0.113512 0.143557
0.676646 0.112413 0.143496
0.675837 0.111055 0.143023
0.676555 0.111681 0.14342
0.677104 0.111513 0.148104
0.676982 0.11133 0.145785
0.676905 0.111421 0.143481
0.677455 0.113222 0.143725
0.677424 0.113527 0.143557
0.678218 0.113909 0.143465
0.679942 0.114839 0.143008
0.681941 0.116335 0.142855
0.684382 0.118685 0.143114
0.0839857 0.116487 0.0992142
0.0844129 0.111116 0.0988022
0.0863966 0.107561 0.100313
0.0872206 0.104799 0.100862
0.0953841 0.106081 0.100999
0.123842 0.106722 0.0996719
0.155947 0.106462 0.09691
0.194965 0.107393 0.0941939
0.242603 0.107713 0.0907759
0.289158 0.107454 0.0888685
0.335363 0.10692 0.0873426
0.380072 0.106889 0.0869764
0.420401 0.10721 0.0858625
0.460243 0.110475 0.0893416
0.497719 0.113191 0.0924086
0.535241 0.118166 0.09897
0.574411 0.120241 0.110842
0.614786 0.121584 0.121141
0.655283 0.120974 0.1346
0.673152 0.117006 0.141039
0.676204 0.115923 0.142535
0.676509 0.114229 0.143221
0.676066 0.113069 0.143236
0.680186 0.123339 0.142306
0.678416 0.125093 0.140795
0.677455 0.114305 0.143374
0.677028 0.115862 0.142687
0.676783 0.116686 0.142535
0.678798 0.117998 0.142596
0.681071 0.119478 0.142916
0.68333 0.12105 0.143236
0.685466 0.122118 0.143435
0.68751 0.123903 0.142626
0.0847791 0.150942 0.100359
0.0845655 0.145983 0.0983597
0.0863508 0.137957 0.0987716
0.090486 0.130495 0.100084
0.104326 0.123247 0.101808
0.121843 0.128313 0.101701
0.147173 0.129854 0.0995041
0.182513 0.125338 0.0988022
0.228519 0.119524 0.0934005
0.276265 0.113848 0.0901045
0.32871 0.114809 0.089189
0.374975 0.114549 0.0885481
0.416358 0.112947 0.0879225
0.455344 0.11194 0.0877394
0.494331 0.113558 0.090013
0.531838 0.119173 0.0963912
0.571649 0.122988 0.107759
0.612634 0.124483 0.119615
0.651987 0.125216 0.131746
0.673671 0.119539 0.140566
0.675776 0.118776 0.141711
0.681285 0.124025 0.142397
0.681285 0.12607 0.141573
0.680446 0.127489 0.140734
0.678965 0.129442 0.139895
0.677317 0.130648 0.139437
0.679713 0.121538 0.142626
0.681315 0.123003 0.143023
0.682567 0.123934 0.142489
0.68426 0.125017 0.142535
0.686549 0.126207 0.142535
0.689006 0.12784 0.142626
0.691752 0.130022 0.142763
0.0880903 0.179294 0.103319
0.0881514 0.173907 0.100572
0.0851606 0.165225 0.0998093
0.0923934 0.158495 0.10132
0.106783 0.151263 0.103166
0.132342 0.150072 0.102342
0.143221 0.152071 0.101228
0.176394 0.151858 0.0984054
0.227588 0.144564 0.0977646
0.280766 0.138094 0.0948043
0.327108 0.135103 0.0920882
0.371756 0.129885 0.0904707
0.413748 0.124697 0.090013
0.455604 0.125368 0.0912032
0.49337 0.124361 0.0919203
0.528725 0.120516 0.0945754
0.568368 0.124132 0.105013
0.610239 0.128588 0.118364
0.649424 0.129137 0.130175
0.680949 0.126345 0.14107
0.684199 0.127245 0.142214
0.684184 0.129946 0.141649
0.683848 0.13225 0.140948
0.688243 0.13167 0.142519
0.689326 0.133257 0.142351
0.691051 0.135271 0.142168
0.693263 0.137575 0.142702
0.686168 0.128389 0.142489
0.687922 0.130861 0.142504
0.68925 0.132342 0.14229
0.691051 0.133272 0.142016
0.693019 0.134508 0.142
0.697246 0.139254 0.142626
0.0862898 0.212802 0.102113
0.0866865 0.20705 0.100603
0.0869001 0.198077 0.101549
0.0914778 0.189487 0.102388
0.0983444 0.184634 0.1037
0.130114 0.176257 0.107057
0.154833 0.175174 0.102739
0.172564 0.173327 0.100389
0.219577 0.174182 0.0969253
0.279042 0.167407 0.0979324
0.337881 0.15874 0.097261
0.384237 0.155398 0.0962844
0.423041 0.153964 0.0959182
0.462425 0.150851 0.0964065
0.499901 0.144884 0.0976425
0.53492 0.141619 0.0992294
0.572122 0.139422 0.101915
0.611154 0.13611 0.113207
0.649912 0.134722 0.128191
0.685634 0.13315 0.141115
0.6907 0.136782 0.141497
0.692195 0.139712 0.141619
0.691829 0.136202 0.142321
0.693278 0.138109 0.142443
0.695399 0.139788 0.142672
0.695659 0.141314 0.139757
0.699031 0.148089 0.14139
0.699596 0.149477 0.140978
0.693599 0.139956 0.142153
0.694255 0.140597 0.141955
0.697368 0.14609 0.142214
0.702693 0.156313 0.142565
0.706081 0.161044 0.139986
0.0898451 0.255848 0.105821
0.0888533 0.250782 0.102281
0.0870069 0.241337 0.101015
0.0874189 0.230655 0.100237
0.0910964 0.224033 0.100389
0.106615 0.215656 0.103365
0.145174 0.209186 0.10808
0.181628 0.208042 0.101244
0.210407 0.20351 0.0991684
0.267277 0.208011 0.0994125
0.333639 0.206607 0.102312
0.389349 0.196445 0.106737
0.439887 0.190326 0.106432
0.475654 0.188602 0.105913
0.509102 0.18291 0.105104
0.54316 0.17438 0.105364
0.578485 0.164157 0.107073
0.615167 0.15848 0.110689
0.654612 0.15494 0.123949
0.692103 0.151492 0.135683
0.700099 0.14963 0.141115
0.699718 0.155535 0.145922
0.70074 0.157702 0.141802
0.701823 0.156603 0.138369
0.702174 0.153506 0.138567
0.70277 0.151553 0.136889
0.705257 0.1552 0.13846
0.707469 0.178408 0.147219
0.709804 0.186358 0.145693
0.706416 0.167407 0.14197
0.709514 0.170748 0.139696
0.712245 0.172686 0.13666
0.715206 0.175662 0.134661
0.0986343 0.31043 0.117723
0.0974289 0.3066 0.111315
0.0959487 0.299886 0.110994
0.0926528 0.285039 0.108125
0.0968185 0.275288 0.107454
0.100114 0.267994 0.106538
0.13344 0.26154 0.110658
0.173663 0.254017 0.113039
0.223636 0.252293 0.10164
0.259022 0.246586 0.10013
0.318807 0.252201 0.10164
0.378744 0.253086 0.105638
0.431022 0.243702 0.109545
0.478492 0.232944 0.112245
0.520272 0.22565 0.11313
0.549355 0.221546 0.111467
0.582879 0.211597 0.112383
0.619089 0.196857 0.114961
0.661875 0.184588 0.12134
0.695247 0.181552 0.131319
0.711192 0.181704 0.137484
0.711788 0.175082 0.137987
0.710842 0.169757 0.131548
0.710292 0.17322 0.133776
0.708278 0.181125 0.134493
0.708217 0.188342 0.135866
0.711543 0.197818 0.138109
0.714397 0.206821 0.139452
0.718624 0.211536 0.138567
0.7205 0.209079 0.136843
0.717968 0.200061 0.135439
0.718151 0.208682 0.135531
0.718212 0.220859 0.135912
0.107454 0.36054 0.128939
0.106188 0.358236 0.120119
0.104311 0.354162 0.119127
0.101701 0.342229 0.117159
0.102541 0.331151 0.115465
0.105226 0.323873 0.114626
0.113573 0.316869 0.114275
0.157595 0.312764 0.1187
0.209537 0.299931 0.118242
0.267781 0.296941 0.101518
0.310903 0.291493 0.101915
0.36582 0.299229 0.105226
0.421454 0.304448 0.10927
0.472053 0.297902 0.114244
0.514412 0.284474 0.120562
0.556497 0.273365 0.122072
0.592142 0.263844 0.120928
0.620676 0.255802 0.119829
0.656489 0.243854 0.121645
0.692592 0.22562 0.127871
0.717021 0.214862 0.135225
0.716731 0.211872 0.135592
0.714458 0.215152 0.134722
0.712581 0.218647 0.133135
0.711696 0.223621 0.132555
0.713771 0.226368 0.133257
0.716243 0.23331 0.134707
0.716716 0.241489 0.135027
0.71693 0.249897 0.135164
0.716487 0.259556 0.135225
0.716686 0.271107 0.136385
0.714488 0.262882 0.135149
0.717556 0.272618 0.136995
0.11873 0.409262 0.142367
0.116976 0.406836 0.131411
0.115648 0.403754 0.128985
0.113146 0.395804 0.127092
0.110201 0.385809 0.125322
0.114794 0.375738 0.123568
0.117922 0.369467 0.122484
0.133745 0.363409 0.121996
0.192935 0.360815 0.128237
0.256352 0.343297 0.122377
0.317998 0.343969 0.103227
0.360479 0.337972 0.1066
0.410712 0.346624 0.110445
0.461219 0.353429 0.114305
0.509285 0.35317 0.119249
0.550439 0.343252 0.126543
0.590082 0.329702 0.135073
0.632914 0.313878 0.136919
0.665415 0.306645 0.136248
0.694621 0.29575 0.136385
0.71635 0.282261 0.138033
0.71577 0.27393 0.136202
0.715496 0.269276 0.135836
0.715984 0.271565 0.136065
0.716014 0.275471 0.136553
0.716396 0.280049 0.137362
0.716472 0.286534 0.138521
0.719478 0.291752 0.141192
0.721859 0.30013 0.143999
0.724651 0.309514 0.147463
0.726421 0.319677 0.14966
0.7243 0.314992 0.147372
0.726574 0.323323 0.149676
0.131136 0.454551 0.155535
0.129809 0.452918 0.146441
0.128374 0.450752 0.140063
0.126741 0.446464 0.139101
0.124346 0.437919 0.137057
0.125017 0.428748 0.135012
0.128862 0.419821 0.133013
0.134646 0.412985 0.13164
0.161273 0.40882 0.13286
0.240848 0.403525 0.137469
0.303181 0.385382 0.124437
0.364981 0.387655 0.107103
0.407462 0.382452 0.112184
0.450599 0.390723 0.116777
0.498161 0.398611 0.121126
0.544686 0.404425 0.126833
0.586343 0.397452 0.135195
0.626108 0.387167 0.144015
0.668162 0.374853 0.156115
0.706996 0.362554 0.160998
0.727916 0.353216 0.159762
0.732158 0.344518 0.157855
0.730602 0.337484 0.155245
0.7299 0.332738 0.154437
0.727886 0.328466 0.15259
0.730175 0.333425 0.154757
0.731289 0.338491 0.156054
0.733211 0.344732 0.159121
0.734371 0.353048 0.161822
0.7337 0.361059 0.162463
0.734829 0.370321 0.165743
0.73695 0.380972 0.16878
0.738445 0.37406 0.167865
0.14522 0.499275 0.173205
0.144701 0.49926 0.164782
0.143847 0.497032 0.152987
0.142596 0.494148 0.151324
0.140444 0.488212 0.149874
0.13669 0.479133 0.147356
0.141344 0.469505 0.144594
0.147021 0.461372 0.142458
0.155917 0.453666 0.140658
0.205478 0.448539 0.142611
0.29366 0.442649 0.147478
0.354452 0.425071 0.124239
0.406897 0.426444 0.115587
0.450584 0.424475 0.119326
0.48925 0.43241 0.125261
0.534051 0.441566 0.130678
0.576837 0.448859 0.135821
0.620493 0.449302 0.143709
0.662486 0.443748 0.155047
0.699199 0.433631 0.164263
0.731807 0.423438 0.18056
0.746853 0.41471 0.186603
0.746029 0.408927 0.183734
0.745647 0.405631 0.182132
0.744884 0.401053 0.180529
0.744106 0.398062 0.17882
0.743832 0.394858 0.177493
0.74316 0.39855 0.178302
0.74374 0.405722 0.181262
0.744793 0.413138 0.18407
0.746868 0.421668 0.188632
0.747234 0.429328 0.189517
0.747845 0.438468 0.188327
0.160998 0.545296 0.1953
0.160922 0.545815 0.188083
0.160555 0.542626 0.168032
0.159838 0.540902 0.164599
0.157366 0.536751 0.163867
0.154269 0.529397 0.161822
0.153933 0.519478 0.158984
0.161105 0.508522 0.155154
0.165835 0.500755 0.152789
0.179934 0.49398 0.15021
0.269047 0.485054 0.154025
0.350072 0.479408 0.157321
0.404196 0.462806 0.124697
0.447807 0.465003 0.127169
0.492058 0.465644 0.129519
0.525475 0.471901 0.134218
0.568933 0.482078 0.140795
0.609842 0.490394 0.144686
0.655634 0.497993 0.15227
0.695308 0.495918 0.163684
0.729305 0.490944 0.174792
0.751415 0.483543 0.183612
0.752361 0.47953 0.184405
0.751431 0.475822 0.183627
0.751537 0.472404 0.183871
0.750912 0.469902 0.183566
0.750576 0.466758 0.183474
0.750393 0.464607 0.184024
0.749905 0.462669 0.184344
0.750195 0.465293 0.183642
0.751568 0.472663 0.183917
0.752956 0.480659 0.184634
0.75375 0.49041 0.184833
0.176776 0.593347 0.220905
0.17734 0.59649 0.219165
0.178836 0.594339 0.193088
0.17763 0.591882 0.182986
0.176318 0.589395 0.182025
0.173434 0.581628 0.17937
0.169345 0.572045 0.175692
0.173556 0.559701 0.170947
0.183307 0.547601 0.16672
0.188815 0.538766 0.1626
0.216968 0.533165 0.160784
0.331731 0.523552 0.167208
0.398367 0.515511 0.160876
0.448783 0.499519 0.128908
0.486778 0.504189 0.138674
0.530373 0.505028 0.138979
0.560952 0.510826 0.142535
0.601984 0.520867 0.149706
0.642741 0.530312 0.154421
0.686107 0.540566 0.162036
0.725231 0.546059 0.173251
0.752804 0.544076 0.183993
0.760296 0.541558 0.187152
0.760327 0.539193 0.187335
0.760174 0.537057 0.187381
0.759945 0.535378 0.187121
0.759777 0.533639 0.187228
0.758968 0.531518 0.186542
0.758877 0.529854 0.186618
0.759014 0.52755 0.187076
0.757778 0.52369 0.185931
0.758831 0.528527 0.186709
0.759945 0.53518 0.187091
0.197436 0.64828 0.250629
0.197543 0.651957 0.25214
0.19971 0.652033 0.227649
0.20061 0.65124 0.208545
0.197986 0.647807 0.204135
0.19704 0.643702 0.20264
0.191577 0.630884 0.19646
0.191012 0.61706 0.190723
0.200351 0.601801 0.184192
0.207416 0.589654 0.179553
0.217197 0.579797 0.175601
0.281544 0.570138 0.173419
0.39411 0.564752 0.181125
0.443 0.55227 0.162463
0.490242 0.53637 0.136919
0.525551 0.543511 0.148486
0.568276 0.544976 0.147799
0.597986 0.550591 0.151781
0.633997 0.559426 0.159213
0.676631 0.570428 0.165866
0.712123 0.580453 0.172824
0.745937 0.589319 0.180285
0.763592 0.59263 0.188296
0.764431 0.591455 0.188769
0.764065 0.589899 0.18883
0.7635 0.58854 0.188586
0.76318 0.586984 0.188388
0.763119 0.585733 0.188342
0.763287 0.584207 0.18854
0.763684 0.582284 0.188891
0.762829 0.578882 0.188235
0.763195 0.575189 0.188663
0.763592 0.574578 0.188968
0.224735 0.710048 0.283497
0.225757 0.715068 0.287892
0.227802 0.71606 0.270542
0.230518 0.715373 0.243687
0.228565 0.713619 0.237446
0.226322 0.71017 0.234134
0.221927 0.701274 0.227787
0.215671 0.686732 0.220813
0.222827 0.667094 0.209232
0.23595 0.648524 0.198795
0.238529 0.636515 0.195972
0.260914 0.626581 0.190707
0.364889 0.610895 0.189487
0.450477 0.612222 0.198489
0.487221 0.591821 0.167605
0.531411 0.576669 0.147601
0.566567 0.588388 0.156603
0.60618 0.587839 0.159152
0.635508 0.593347 0.161913
0.66656 0.600824 0.170047
0.702464 0.609812 0.178363
0.734005 0.618906 0.185428
0.759426 0.627024 0.192172
0.763134 0.627649 0.192981
0.763485 0.627237 0.193027
0.763745 0.626307 0.193027
0.76347 0.62501 0.192508
0.763378 0.623972 0.192004
0.763867 0.623209 0.191989
0.76405 0.622187 0.191897
0.763989 0.619791 0.191302
0.763897 0.616617 0.190127
0.764675 0.612802 0.189273
0.258412 0.767178 0.323964
0.258991 0.770443 0.327947
0.260533 0.770901 0.309575
0.263325 0.770871 0.284688
0.262364 0.768872 0.27187
0.260227 0.765866 0.267552
0.259312 0.764324 0.266529
0.252018 0.751842 0.257984
0.251438 0.733349 0.245792
0.263706 0.713054 0.230228
0.267689 0.69865 0.22327
0.277333 0.685878 0.217411
0.326894 0.675044 0.210681
0.443519 0.661509 0.215457
0.502937 0.658595 0.217975
0.533135 0.634852 0.179706
0.572839 0.620417 0.160235
0.608515 0.635813 0.165454
0.642451 0.63328 0.172824
0.673426 0.637583 0.177813
0.697383 0.642817 0.185153
0.725658 0.650446 0.195102
0.750439 0.657603 0.201602
0.762448 0.661707 0.205234
0.763958 0.661204 0.205554
0.764324 0.660563 0.205615
0.764599 0.659739 0.20557
0.764843 0.658763 0.205203
0.764157 0.65745 0.204059
0.763638 0.655695 0.20296
0.763943 0.653193 0.202335
0.764675 0.650599 0.201587
0.76434 0.645396 0.198779
0.278813 0.800305 0.35407
0.277577 0.801282 0.356435
0.278401 0.798657 0.334508
0.278553 0.795438 0.310307
0.279088 0.794278 0.292226
0.278828 0.794232 0.289967
0.278508 0.793957 0.28777
0.278523 0.793515 0.286732
0.280171 0.784695 0.280888
0.293385 0.767147 0.266423
0.30251 0.752697 0.254337
0.307362 0.741268 0.25095
0.329183 0.728771 0.242283
0.421881 0.713832 0.237446
0.512489 0.710506 0.248539
0.548592 0.69688 0.231891
0.580102 0.672694 0.195087
0.6159 0.666987 0.17792
0.651576 0.684855 0.179126
0.679759 0.679713 0.194278
0.707088 0.682414 0.198199
0.727611 0.686076 0.206348
0.745464 0.690578 0.215381
0.760449 0.694896 0.223301
0.763821 0.695308 0.224109
0.763577 0.694286 0.223789
0.763394 0.693294 0.223056
0.762936 0.692393 0.222034
0.762509 0.690776 0.220554
0.763012 0.689281 0.219974
0.763516 0.687419 0.21886
0.76347 0.683833 0.216999
0.763745 0.679316 0.214878
0.278126 0.802045 0.362005
0.277882 0.80264 0.363119
0.278645 0.799558 0.340047
0.278416 0.795972 0.316167
0.279332 0.794644 0.29723
0.279072 0.79469 0.295155
0.278798 0.794324 0.290166
0.278965 0.7944 0.290379
0.28368 0.793606 0.290135
0.304997 0.788312 0.284627
0.324392 0.783352 0.278294
0.334874 0.777142 0.277272
0.350454 0.768475 0.273884
0.408057 0.75642 0.266545
0.512581 0.744381 0.266163
0.568856 0.743145 0.277424
0.590951 0.724041 0.24892
0.62153 0.703624 0.214359
0.654582 0.706447 0.201022
0.690654 0.724514 0.200702
0.712947 0.720119 0.222522
0.735668 0.721263 0.226719
0.75201 0.7234 0.234348
0.76434 0.725582 0.242039
0.768399 0.725948 0.244816
0.768658 0.725261 0.244541
0.768139 0.724376 0.24358
0.767834 0.723674 0.243107
0.767575 0.722454 0.242298
0.767117 0.7205 0.241016
0.76556 0.717556 0.238209
0.765576 0.714885 0.237018
0.763561 0.710124 0.233112
0.277974 0.802792 0.364721
0.277684 0.802686 0.362631
0.278401 0.799832 0.341848
0.278141 0.79649 0.319615
0.27921 0.794705 0.29868
0.278981 0.794324 0.291752
0.278798 0.794354 0.29044
0.278843 0.794507 0.291234
0.281437 0.794278 0.294163
0.302312 0.789242 0.290547
0.326253 0.783322 0.283986
0.344411 0.779522 0.282551
0.359243 0.777035 0.286412
0.40061 0.769314 0.283864
0.490455 0.75758 0.277607
0.568597 0.754192 0.28426
0.603937 0.754253 0.281285
0.628031 0.742336 0.26511
0.658061 0.729 0.238895
0.691203 0.739895 0.233021
0.722835 0.755444 0.233158
0.738033 0.751812 0.25391
0.757443 0.75227 0.259312
0.770367 0.753201 0.265782
0.777768 0.754192 0.270237
0.779355 0.753994 0.270695
0.779293 0.753414 0.269871
0.779019 0.75259 0.26862
0.778225 0.751064 0.267002
0.777829 0.749599 0.265782
0.777584 0.748028 0.264347
0.776333 0.74519 0.26038
0.775051 0.740398 0.256947
0.278874 0.801633 0.364172
0.278706 0.802197 0.365225
0.278782 0.800214 0.351934
0.279133 0.797101 0.330388
0.279957 0.794476 0.306249
0.27985 0.793011 0.290425
0.279637 0.793088 0.289143
0.27953 0.79292 0.288151
0.280583 0.793011 0.289479
0.294942 0.790402 0.293217
0.326879 0.782666 0.288487
0.350744 0.777508 0.286473
0.365347 0.774914 0.291707
0.400336 0.768444 0.292454
0.472557 0.758038 0.287846
0.561456 0.752499 0.290532
0.606973 0.756405 0.286152
0.635233 0.758892 0.285344
0.665156 0.757122 0.276585
0.694011 0.752667 0.26389
0.723186 0.765682 0.261326
0.745892 0.776562 0.265675
0.757946 0.77319 0.285008
0.77258 0.773281 0.290166
0.785336 0.775784 0.29308
0.788251 0.776349 0.29366
0.787579 0.775387 0.292988
0.786999 0.774517 0.292287
0.78648 0.773251 0.291539
0.785229 0.77171 0.289952
0.784756 0.770184 0.289021
0.78436 0.767987 0.287694
0.782315 0.764111 0.282567
0.27834 0.803403 0.37171
0.278462 0.802258 0.364767
0.278035 0.802106 0.361639
0.278676 0.79971 0.344076
0.278676 0.796277 0.321798
0.279866 0.794095 0.297414
0.279591 0.793194 0.289403
0.279438 0.792935 0.287892
0.279789 0.793133 0.288853
0.289052 0.79176 0.2934
0.322316 0.783764 0.289387
0.348623 0.778073 0.287068
0.367025 0.774777 0.293126
0.400977 0.7682 0.297551
0.465904 0.758389 0.302281
0.54934 0.751736 0.309957
0.60415 0.754467 0.310887
0.633585 0.759106 0.296803
0.664439 0.764828 0.292042
0.697887 0.769039 0.291859
0.723445 0.773312 0.287373
0.744747 0.781704 0.287068
0.759854 0.78558 0.294209
0.770947 0.783886 0.308553
0.788037 0.786984 0.305623
0.793439 0.788067 0.304036
0.794034 0.788327 0.303304
0.794293 0.788479 0.302678
0.794507 0.788632 0.302022
0.794308 0.788464 0.30132
0.793744 0.787625 0.299977
0.792752 0.785779 0.297932
0.79144 0.782895 0.29604
0.277592 0.806058 0.382086
0.278141 0.802502 0.364874
0.277882 0.803204 0.366201
0.277256 0.80148 0.354726
0.27834 0.798596 0.33315
0.27895 0.795056 0.309102
0.279469 0.793332 0.289448
0.279377 0.793194 0.288533
0.279362 0.79324 0.288609
0.285084 0.792767 0.292866
0.316686 0.785321 0.29073
0.345251 0.778775 0.286488
0.364645 0.77528 0.292607
0.394003 0.769924 0.297276
0.453086 0.759991 0.302907
0.538003 0.752102 0.311604
0.598367 0.75346 0.31751
0.630045 0.758602 0.303136
0.660975 0.76434 0.293706
0.694209 0.769299 0.297307
0.720684 0.773617 0.299001
0.74197 0.780835 0.297154
0.758389 0.784787 0.300206
0.767468 0.782681 0.315618
0.78265 0.78471 0.319707
0.789914 0.785916 0.318944
0.79147 0.786343 0.318624
0.791455 0.786389 0.318395
0.791531 0.786511 0.317678
0.791638 0.786648 0.316716
0.791836 0.786786 0.315816
0.792187 0.786954 0.314229
0.792782 0.787366 0.310536
0.274815 0.808362 0.39144
0.277424 0.804105 0.36907
0.277531 0.803662 0.366003
0.277302 0.803403 0.363485
0.277424 0.800443 0.344488
0.278004 0.796658 0.319615
0.279316 0.793744 0.291142
0.27924 0.793683 0.289784
0.279194 0.793423 0.288563
0.281788 0.793637 0.292348
0.310018 0.786999 0.292058
0.342061 0.779477 0.286061
0.362142 0.775891 0.291905
0.389532 0.770962 0.296864
0.444038 0.761303 0.30312
0.527001 0.752422 0.30901
0.593423 0.752712 0.318257
0.6262 0.75787 0.305791
0.656504 0.763485 0.293523
0.689998 0.768536 0.29749
0.716747 0.772488 0.300816
0.738659 0.780102 0.298131
0.756283 0.785229 0.298741
0.765286 0.78262 0.313771
0.77998 0.783978 0.320165
0.788907 0.785779 0.320378
0.791348 0.786297 0.320012
0.791302 0.786313 0.319982
0.791272 0.786343 0.319936
0.791226 0.786374 0.31989
0.791196 0.786404 0.31986
0.79118 0.786404 0.319875
0.79118 0.786374 0.319905
0.274067 0.811383 0.400946
0.276524 0.806455 0.376165
0.277058 0.804105 0.365377
0.276799 0.804547 0.367269
0.276753 0.801816 0.352972
0.277653 0.798016 0.327138
0.279377 0.7944 0.295674
0.27921 0.793713 0.289784
0.279088 0.793454 0.288411
0.2804 0.793637 0.291157
0.305562 0.788037 0.292668
0.338369 0.780423 0.286732
0.359686 0.77644 0.291402
0.384909 0.772 0.296178
0.43415 0.762692 0.302373
0.515541 0.753521 0.307881
0.588159 0.752224 0.319814
0.622385 0.757168 0.308827
0.652033 0.762737 0.294148
0.684718 0.768124 0.297719
0.712779 0.771847 0.301503
0.73547 0.779339 0.298482
0.753658 0.784527 0.297841
0.762966 0.78265 0.311696
0.77705 0.783612 0.319905
0.788312 0.785626 0.320363
0.791394 0.786343 0.31989
0.791379 0.786374 0.319844
0.791348 0.786419 0.319768
0.791302 0.78645 0.319722
0.791302 0.786465 0.319661
0.791302 0.786465 0.319692
0.791287 0.78645 0.319707
0.272572 0.813764 0.408377
0.274876 0.807904 0.382361
0.276524 0.80473 0.366705
0.276478 0.804883 0.367391
0.276677 0.803372 0.360113
0.277684 0.799802 0.336339
0.278492 0.795346 0.306661
0.279103 0.793851 0.289754
0.278996 0.793515 0.288228
0.279835 0.793729 0.290257
0.301366 0.789166 0.29308
0.334417 0.781216 0.287282
0.357824 0.77702 0.290608
0.380194 0.772854 0.295399
0.425147 0.763943 0.301305
0.504295 0.754604 0.306554
0.582361 0.751736 0.320745
0.618418 0.756405 0.312306
0.647791 0.762036 0.295399
0.678904 0.767361 0.296773
0.709514 0.771496 0.30164
0.732296 0.77821 0.298726
0.750713 0.78349 0.298116
0.761975 0.783932 0.307454
0.773739 0.783078 0.318868
0.786725 0.78526 0.320592
0.791363 0.786343 0.31989
0.791348 0.786374 0.319844
0.791333 0.786404 0.319753
0.791318 0.78645 0.319707
0.791302 0.786465 0.319677
0.791318 0.78645 0.319692
0.791333 0.786404 0.319753
0.272511 0.814115 0.41355
0.275685 0.807584 0.386862
0.278035 0.803433 0.368017
