bundles/resolve-cinematic-luts/Phantom Luts/Canon Film LUT/ATOMOS Monitoring LUTs/C-Log 3/VisionTeal Canon-Legacy CL3 AML.cube
TITLE "Generated by Resolve"
LUT_3D_SIZE 9
0.0856794 0.103044 0.101244
0.138033 0.0977646 0.0981613
0.266468 0.100069 0.0874189
0.430274 0.103532 0.087602
0.577386 0.111513 0.112215
0.678584 0.111955 0.149844
0.677852 0.111986 0.152193
0.677867 0.111711 0.149569
0.679744 0.110689 0.144976
0.0847791 0.150942 0.100359
0.104326 0.123247 0.101808
0.228519 0.119524 0.0934005
0.416358 0.112947 0.0879225
0.571649 0.122988 0.107759
0.675776 0.118776 0.141711
0.678965 0.129442 0.139895
0.682567 0.123934 0.142489
0.691752 0.130022 0.142763
0.0986343 0.31043 0.117723
0.0968185 0.275288 0.107454
0.223636 0.252293 0.10164
0.431022 0.243702 0.109545
0.582879 0.211597 0.112383
0.711192 0.181704 0.137484
0.708278 0.181125 0.134493
0.718624 0.211536 0.138567
0.718212 0.220859 0.135912
0.14522 0.499275 0.173205
0.140444 0.488212 0.149874
0.155917 0.453666 0.140658
0.406897 0.426444 0.115587
0.576837 0.448859 0.135821
0.731807 0.423438 0.18056
0.744884 0.401053 0.180529
0.74374 0.405722 0.181262
0.747845 0.438468 0.188327
0.224735 0.710048 0.283497
0.228565 0.713619 0.237446
0.222827 0.667094 0.209232
0.364889 0.610895 0.189487
0.566567 0.588388 0.156603
0.702464 0.609812 0.178363
0.763485 0.627237 0.193027
0.763867 0.623209 0.191989
0.764675 0.612802 0.189273
0.277974 0.802792 0.364721
0.27921 0.794705 0.29868
0.281437 0.794278 0.294163
0.359243 0.777035 0.286412
0.603937 0.754253 0.281285
0.722835 0.755444 0.233158
0.777768 0.754192 0.270237
0.778225 0.751064 0.267002
0.775051 0.740398 0.256947
0.274815 0.808362 0.39144
0.277424 0.800443 0.344488
0.279194 0.793423 0.288563
0.362142 0.775891 0.291905
0.593423 0.752712 0.318257
0.716747 0.772488 0.300816
0.77998 0.783978 0.320165
0.791272 0.786343 0.319936
0.79118 0.786374 0.319905
0.270832 0.815442 0.418723
0.277729 0.803372 0.365621
0.280644 0.791363 0.287663
0.354757 0.775769 0.287358
0.565484 0.75079 0.315541
0.701869 0.770733 0.300282
0.7682 0.78265 0.316258
0.791257 0.78613 0.320333
0.791089 0.786343 0.320012
0.266148 0.820798 0.434012
0.275929 0.805829 0.368811
0.279698 0.792721 0.288197
0.328542 0.781521 0.2869
0.478676 0.75584 0.302037
0.663447 0.76466 0.292729
0.756237 0.785382 0.297658
0.791394 0.786389 0.319844
0.79118 0.786542 0.319524
0.0841688 0.108171 0.138445
0.153353 0.0985428 0.166644
0.323491 0.0902571 0.191119
0.484154 0.091783 0.20763
0.658152 0.116075 0.263554
0.708034 0.124819 0.270146
0.706844 0.123598 0.255589
0.703029 0.12015 0.229496
0.684565 0.112734 0.172412
0.0838636 0.117952 0.111681
0.0869612 0.10454 0.102678
0.263386 0.0898909 0.0945449
0.431006 0.0869001 0.099382
0.58378 0.0958267 0.14023
0.694865 0.117342 0.204562
0.693248 0.116762 0.196048
0.684657 0.113313 0.172351
0.679225 0.110979 0.152255
0.0832685 0.272038 0.145266
0.0879683 0.254749 0.108553
0.194675 0.224277 0.101381
0.441932 0.189807 0.107225
0.584619 0.154345 0.107973
0.692531 0.134173 0.142458
0.691768 0.135058 0.141726
0.70164 0.148394 0.140734
0.716045 0.191806 0.138399
0.127794 0.484825 0.22298
0.132448 0.470756 0.164477
0.134829 0.444831 0.139071
0.391699 0.411902 0.112413
0.58265 0.422782 0.134356
0.73521 0.376532 0.168734
0.734859 0.351797 0.161578
0.74052 0.363912 0.167727
0.74612 0.396414 0.17908
0.19791 0.689555 0.334356
0.204517 0.68069 0.273884
0.210956 0.677745 0.217639
0.275319 0.610834 0.184939
0.553918 0.574151 0.154452
0.704097 0.596704 0.174853
0.764355 0.611322 0.188952
0.764675 0.605905 0.187854
0.765423 0.592874 0.188342
0.266346 0.821378 0.441794
0.276112 0.805142 0.36672
0.278813 0.794919 0.295125
0.338415 0.780575 0.280293
0.587655 0.752438 0.281514
0.71136 0.7449 0.219135
0.773266 0.742229 0.257374
0.77348 0.737636 0.253498
0.768658 0.724346 0.243244
0.247501 0.833326 0.476081
0.274296 0.81033 0.396216
0.277806 0.79733 0.322438
0.335714 0.780743 0.287343
0.558923 0.751186 0.315557
0.705028 0.771542 0.300633
0.773205 0.783032 0.31873
0.791211 0.786328 0.319677
0.791714 0.786801 0.315984
0.217136 0.841962 0.492027
0.269734 0.816068 0.421454
0.278279 0.800351 0.350622
0.317037 0.784222 0.289143
0.50779 0.753323 0.307362
0.683513 0.767514 0.297108
0.761669 0.783047 0.309911
0.791318 0.78613 0.320333
0.791119 0.786358 0.319951
0.215686 0.847456 0.511925
0.265766 0.821591 0.437903
0.276936 0.80441 0.367193
0.283436 0.791638 0.290776
0.415106 0.764843 0.298528
0.643473 0.760983 0.295033
0.745174 0.781598 0.297917
0.790829 0.786252 0.319951
0.79118 0.786542 0.319509
0.0831464 0.12604 0.260121
0.151278 0.1028 0.289097
0.303944 0.0913405 0.306935
0.481102 0.0980697 0.373709
0.660899 0.127779 0.434302
0.710063 0.140902 0.457069
0.709087 0.141222 0.451728
0.708476 0.14461 0.435599
0.711055 0.139803 0.377646
0.0835126 0.1308 0.17995
0.0834058 0.120363 0.232654
0.244556 0.0933394 0.256352
0.450767 0.0920577 0.286976
0.636133 0.123125 0.34432
0.709163 0.1411 0.38613
0.709773 0.141176 0.381521
0.71014 0.137469 0.363333
0.712551 0.129244 0.309422
0.0821851 0.234989 0.191867
0.0823072 0.217273 0.180316
0.210727 0.231708 0.218296
0.471015 0.140581 0.159182
0.599084 0.101961 0.174075
0.705409 0.121096 0.232029
0.704555 0.12015 0.219409
0.69749 0.116976 0.189425
0.700832 0.128389 0.146624
0.104768 0.462089 0.279591
0.100923 0.455329 0.233234
0.121019 0.439963 0.163439
0.375601 0.396338 0.11487
0.596902 0.376059 0.15285
0.730129 0.310369 0.161105
0.727703 0.301793 0.151904
0.725383 0.322927 0.151308
0.736385 0.355474 0.162264
0.1505 0.667781 0.386877
0.174075 0.658686 0.335882
0.189151 0.645518 0.264881
0.225528 0.605173 0.184573
0.540383 0.55935 0.152041
0.706813 0.582879 0.172595
0.764538 0.590539 0.188693
0.763714 0.580407 0.188617
0.76318 0.572839 0.188403
0.218662 0.846494 0.515496
0.256657 0.829358 0.462852
0.274876 0.807691 0.377111
0.300359 0.789441 0.286397
0.561028 0.751751 0.280079
0.699855 0.733181 0.207843
0.766964 0.726955 0.244251
0.767239 0.720378 0.240528
0.763226 0.705898 0.231296
0.221271 0.852781 0.552514
0.216327 0.84271 0.494072
0.273381 0.812055 0.401831
0.282246 0.793225 0.291417
0.496773 0.754818 0.30602
0.68925 0.768826 0.297353
0.765789 0.782528 0.315328
0.792294 0.786923 0.314
0.793301 0.787991 0.306249
0.224018 0.854551 0.568017
0.215747 0.848417 0.516747
0.268254 0.817945 0.427482
0.28072 0.791577 0.288777
0.438911 0.76051 0.300786
0.662379 0.763943 0.293782
0.75697 0.784497 0.301122
0.791424 0.786145 0.320302
0.791257 0.786389 0.319875
0.223636 0.85597 0.573312
0.215244 0.848875 0.517937
0.264576 0.82266 0.443061
0.280476 0.793851 0.303685
0.372702 0.772778 0.293095
0.62501 0.757076 0.308782
0.734569 0.778607 0.299016
0.787457 0.785473 0.3205
0.791165 0.786557 0.319493
0.0823835 0.154452 0.404364
0.150225 0.139681 0.441032
0.30248 0.103487 0.440681
0.46392 0.101106 0.473747
0.659709 0.142901 0.566598
0.718532 0.147829 0.601831
0.716701 0.141634 0.586892
0.71664 0.135714 0.568887
0.72105 0.137316 0.541512
0.0826734 0.163577 0.352163
0.0827039 0.150164 0.389685
0.202594 0.107561 0.430182
0.429709 0.0963912 0.438071
0.624979 0.126162 0.515358
0.718135 0.137285 0.551949
0.719142 0.138201 0.538506
0.719585 0.138491 0.528542
0.71841 0.138857 0.501518
0.0822461 0.226108 0.32961
0.082414 0.207431 0.349065
0.0995346 0.18645 0.412711
0.403754 0.10425 0.407614
0.588281 0.110811 0.442496
0.714076 0.140536 0.487541
0.712688 0.141115 0.478172
0.71014 0.1411 0.459815
0.709895 0.147707 0.421195
0.0852674 0.428565 0.370779
0.0829328 0.414252 0.35993
0.0826734 0.397742 0.344228
0.433982 0.432547 0.405661
0.652857 0.339849 0.35642
0.766476 0.264408 0.375921
0.763622 0.244358 0.3514
0.765637 0.242283 0.310414
0.76553 0.291676 0.278325
0.130587 0.6309 0.45977
0.134707 0.624262 0.438483
0.138567 0.617197 0.402396
0.201404 0.617151 0.314031
0.534401 0.552895 0.257511
0.736233 0.566064 0.312428
0.780346 0.548241 0.329351
0.774807 0.538216 0.307713
0.773037 0.531685 0.267384
0.224094 0.827878 0.58706
0.214405 0.831647 0.564202
0.207492 0.83592 0.524498
0.271702 0.808255 0.390997
0.427726 0.754421 0.27425
0.677607 0.711223 0.197864
0.761105 0.702373 0.233005
0.766018 0.693645 0.229007
0.766735 0.677867 0.214954
0.244556 0.858213 0.629191
0.231693 0.858183 0.604257
0.218967 0.855314 0.560159
0.271153 0.814801 0.412543
0.378668 0.772702 0.29836
0.652995 0.76257 0.294224
0.759838 0.783825 0.298161
0.79324 0.786511 0.299397
0.790097 0.780224 0.294163
0.245686 0.860029 0.639307
0.235431 0.859007 0.61442
0.222599 0.856046 0.571511
0.265705 0.821256 0.438117
0.354147 0.776226 0.287938
0.62594 0.757061 0.309438
0.74081 0.780285 0.299504
0.791211 0.786007 0.320668
0.791501 0.786419 0.319829
0.242695 0.860471 0.637232
0.232349 0.858549 0.60705
0.221057 0.855787 0.566781
0.260517 0.825269 0.452399
0.313405 0.785367 0.290623
0.589883 0.751751 0.320989
0.712825 0.772732 0.301167
0.773953 0.78294 0.320272
0.791333 0.786526 0.319585
0.0826734 0.187274 0.520943
0.144533 0.178836 0.564019
0.300801 0.120317 0.575509
0.476967 0.138689 0.602701
0.642008 0.14052 0.665019
0.719921 0.16022 0.727901
0.718547 0.16231 0.748898
0.719371 0.161776 0.741085
0.722438 0.164767 0.698726
0.0822766 0.20444 0.486412
0.0822461 0.181979 0.511513
0.201419 0.16669 0.564965
0.432929 0.128511 0.580667
0.609293 0.13315 0.630808
0.72047 0.164126 0.698726
0.719036 0.158648 0.71664
0.718914 0.15903 0.705287
0.73286 0.176074 0.66833
0.0822461 0.235676 0.46067
0.082414 0.207279 0.468956
0.0826734 0.177462 0.504356
0.356207 0.113939 0.55024
0.572198 0.124865 0.591959
0.730602 0.177096 0.665034
0.72253 0.181079 0.668498
0.731044 0.178622 0.660075
0.72253 0.153872 0.618906
0.0832074 0.423728 0.491798
0.082536 0.397986 0.496605
0.0826429 0.370809 0.504601
0.280201 0.351919 0.589166
0.604501 0.269673 0.598306
0.744579 0.179141 0.611795
0.724437 0.147326 0.58584
0.717708 0.136797 0.561898
0.720439 0.138613 0.524895
0.11902 0.601434 0.547021
0.114687 0.591943 0.538842
0.111849 0.580987 0.528557
0.125444 0.567071 0.514214
0.601343 0.594461 0.571557
0.785565 0.545403 0.545998
0.814633 0.510414 0.532555
0.811994 0.503258 0.512123
0.80351 0.504509 0.471046
0.157824 0.789456 0.638102
0.154345 0.783536 0.623178
0.157519 0.773465 0.600351
0.174411 0.75848 0.554223
0.418814 0.765713 0.528756
0.666377 0.699702 0.456977
0.8 0.701915 0.502205
0.809201 0.690227 0.504799
0.80444 0.670329 0.474662
0.188174 0.865843 0.704158
0.198627 0.866819 0.690501
0.217823 0.865827 0.669764
0.236851 0.860075 0.624613
0.281407 0.822095 0.455955
0.591089 0.757137 0.417578
0.737163 0.768383 0.41062
0.781613 0.770321 0.39646
0.781491 0.762203 0.37705
0.185489 0.864668 0.711666
0.193637 0.866957 0.697047
0.21294 0.866255 0.674388
0.238193 0.860639 0.628977
0.262882 0.823819 0.446128
0.54435 0.752773 0.372
0.721401 0.774227 0.308614
0.781826 0.78117 0.361257
0.786923 0.782422 0.351293
0.18677 0.866667 0.705058
0.202945 0.866224 0.684825
0.223514 0.865324 0.663737
0.235035 0.85948 0.618799
0.25655 0.829206 0.462837
0.424353 0.764813 0.314122
0.672175 0.765988 0.300069
0.76231 0.782284 0.31519
0.792142 0.786313 0.32134
0.0824903 0.246891 0.624109
0.130098 0.238392 0.674754
0.302937 0.17882 0.715114
0.477791 0.155138 0.735088
0.655055 0.199893 0.776852
0.723125 0.187976 0.797177
0.723095 0.187991 0.797162
0.723125 0.188006 0.797192
0.723079 0.188006 0.797131
0.0822919 0.251453 0.592859
0.0825818 0.236912 0.611948
0.180941 0.229496 0.680934
0.425772 0.153597 0.718257
0.615564 0.183566 0.75581
0.723857 0.185702 0.795071
0.72282 0.188052 0.797101
0.722972 0.188022 0.797147
0.723293 0.187945 0.797238
0.0826429 0.267414 0.568582
0.0825818 0.246952 0.576623
0.0825818 0.22443 0.598398
0.336568 0.149477 0.691417
0.572183 0.168353 0.729931
0.72079 0.171328 0.776867
0.722789 0.181796 0.789776
0.723491 0.185718 0.794675
0.722652 0.17789 0.785962
0.0834211 0.415702 0.589242
0.0828565 0.396353 0.596536
0.0826581 0.369482 0.605768
0.157473 0.330114 0.669413
0.540154 0.231006 0.722698
0.713466 0.170092 0.741527
0.7205 0.161624 0.742107
0.720302 0.161746 0.745159
0.721798 0.158877 0.722515
0.0838788 0.605997 0.626215
0.0838788 0.594491 0.626307
0.0836042 0.581155 0.628916
0.0835126 0.544457 0.63917
0.512215 0.538476 0.725734
0.755947 0.495491 0.740764
0.801053 0.466438 0.731472
0.794842 0.441657 0.714733
0.785229 0.378714 0.675013
0.160632 0.758694 0.708965
0.154604 0.748302 0.698299
0.149584 0.735149 0.684443
0.142641 0.713909 0.662791
0.369848 0.699886 0.653941
0.718547 0.719661 0.698146
0.84567 0.687663 0.680888
0.854139 0.66183 0.66807
0.846204 0.65185 0.641123
0.185595 0.8636 0.773404
0.173541 0.867414 0.76321
0.174777 0.865217 0.747402
0.175036 0.853742 0.717174
0.201816 0.837446 0.661036
0.61091 0.817105 0.663645
0.765164 0.793072 0.636057
0.828077 0.785824 0.645212
0.829328 0.77409 0.636072
0.194751 0.862425 0.785794
0.179629 0.866178 0.772366
0.17467 0.867185 0.753918
0.179095 0.867033 0.72343
0.221561 0.866346 0.666682
0.530373 0.82002 0.621912
0.719173 0.807553 0.620066
0.806851 0.820218 0.652735
0.808362 0.814908 0.631601
0.186007 0.864576 0.777798
0.174289 0.867033 0.760494
0.176074 0.866941 0.741955
0.180987 0.867903 0.712963
0.229511 0.864317 0.65713
0.376852 0.825055 0.554711
0.659419 0.796567 0.580926
0.76524 0.796017 0.552789
0.795895 0.802045 0.573831
0.0827802 0.259937 0.652796
0.136858 0.261204 0.710964
0.319692 0.212299 0.748913
0.490822 0.167987 0.765881
0.672068 0.207736 0.79379
0.723262 0.187961 0.797253
0.723262 0.187961 0.797253
0.723232 0.187976 0.797238
0.723125 0.187991 0.797162
0.0825666 0.268055 0.629084
0.0828107 0.26009 0.653101
0.177966 0.258686 0.722744
0.432609 0.171878 0.761059
0.627283 0.190539 0.785473
0.723262 0.187961 0.797253
0.723262 0.187961 0.797253
0.723262 0.187961 0.797253
0.723171 0.187976 0.797208
0.0827344 0.308461 0.649744
0.0825818 0.275212 0.633356
0.0827955 0.259876 0.652155
0.331945 0.180362 0.751827
0.574975 0.174578 0.775967
0.723262 0.187961 0.797253
0.723262 0.187961 0.797253
0.723262 0.187961 0.797253
0.723262 0.187961 0.797253
0.0832074 0.426261 0.661097
0.0833753 0.406882 0.669398
0.0831311 0.377646 0.676097
0.0950942 0.325673 0.710582
0.497536 0.208164 0.779675
0.702907 0.201358 0.797406
0.723308 0.18793 0.797238
0.723339 0.187915 0.797253
0.723339 0.18793 0.797253
0.0837568 0.604639 0.700984
0.0839246 0.587991 0.702403
0.0837873 0.570062 0.705959
0.0836652 0.539757 0.717998
0.43682 0.518837 0.779797
0.704616 0.475303 0.813504
0.78529 0.431357 0.818173
0.781186 0.410849 0.815457
0.775113 0.366735 0.807385
0.129824 0.765225 0.758785
0.119814 0.755611 0.753552
0.11014 0.743542 0.747127
0.0954299 0.723339 0.739864
0.253315 0.693172 0.747982
0.664302 0.686488 0.808423
0.834714 0.657328 0.820966
0.850507 0.637552 0.814649
0.842191 0.606561 0.790021
0.202884 0.86537 0.817914
0.200549 0.86038 0.813214
0.197024 0.850446 0.804974
0.189563 0.832563 0.789227
0.1785 0.807401 0.763836
0.607919 0.795758 0.762982
0.797864 0.805463 0.78703
0.866117 0.782971 0.774899
0.865187 0.762585 0.759121
0.200763 0.868635 0.826535
0.200504 0.867369 0.820905
0.20444 0.86482 0.812039
0.197742 0.863767 0.79527
0.173892 0.868406 0.760342
0.456107 0.841657 0.720989
0.735821 0.852186 0.761456
0.836332 0.857466 0.772137
0.848951 0.845319 0.756695
0.201846 0.867369 0.824079
0.20264 0.866133 0.816922
0.207111 0.86331 0.806943
0.190845 0.864713 0.787488
0.175738 0.867277 0.747219
0.247623 0.865141 0.697215
0.668559 0.838254 0.716899
0.790494 0.842527 0.732799
0.855863 0.866545 0.791074
0.0829786 0.260578 0.662409
0.158236 0.261082 0.717769
0.326635 0.197177 0.751461
0.499809 0.166598 0.766293
0.683879 0.205905 0.796017
0.723262 0.187961 0.797253
0.723262 0.187961 0.797253
0.723262 0.187961 0.797253
0.723171 0.187976 0.797177
0.082826 0.264454 0.626459
0.0829786 0.260594 0.662242
0.195117 0.256596 0.726513
0.442252 0.171649 0.761669
0.637903 0.193515 0.787274
0.723262 0.187961 0.797253
0.723262 0.187961 0.797253
0.723262 0.187961 0.797253
0.723186 0.187991 0.797223
0.082887 0.309133 0.653193
0.0826581 0.271931 0.632288
0.0829633 0.260548 0.660731
0.339239 0.174456 0.752804
0.58117 0.176333 0.777569
0.723262 0.187961 0.797253
0.723262 0.187961 0.797253
0.723262 0.187961 0.797253
0.723262 0.187961 0.797253
0.0833906 0.433951 0.699321
0.0832532 0.402914 0.689342
0.0830701 0.357687 0.674586
0.08542 0.296162 0.69929
0.483238 0.184802 0.771801
0.696544 0.200381 0.796094
0.723339 0.18793 0.797269
0.723339 0.18793 0.797269
0.723323 0.18793 0.797269
0.0839551 0.603601 0.742229
0.0835889 0.588907 0.742626
0.0835889 0.571298 0.737865
0.0833143 0.531304 0.72697
0.413657 0.500053 0.782147
0.684916 0.450935 0.817639
0.77731 0.40441 0.821759
0.773281 0.381079 0.81857
0.766949 0.342748 0.815747
0.108156 0.778149 0.794003
0.0983444 0.766201 0.789578
0.0904097 0.752285 0.786831
0.0840925 0.725658 0.782483
0.19498 0.684489 0.782284
0.625177 0.667735 0.846357
0.802563 0.641154 0.864729
0.831525 0.616587 0.861646
0.825116 0.591028 0.858091
0.187671 0.870619 0.837079
0.184482 0.864012 0.834821
0.179858 0.854246 0.830182
0.169177 0.837903 0.822354
0.13814 0.816373 0.815702
0.555093 0.781826 0.815427
0.766171 0.784604 0.854963
0.863279 0.760983 0.859617
0.86154 0.742199 0.85597
0.193393 0.875471 0.837736
0.190967 0.8766 0.838422
0.19144 0.875456 0.836683
0.194888 0.872389 0.831403
0.200641 0.868452 0.821515
0.392645 0.826673 0.787076
0.737301 0.851194 0.818418
0.857206 0.868315 0.849226
0.872343 0.856748 0.841871
0.191852 0.876234 0.838437
0.190997 0.876707 0.838621
0.191577 0.875273 0.836469
0.195605 0.871214 0.829221
0.204517 0.865064 0.812497
0.199542 0.869322 0.790631
0.646647 0.8551 0.781064
0.825299 0.87744 0.834806
0.871992 0.883299 0.859648
0.0829175 0.260075 0.667262
0.170565 0.259709 0.720699
0.329763 0.188159 0.751446
0.503777 0.166003 0.76614
0.687892 0.204334 0.79588
0.723262 0.187961 0.797253
0.723262 0.187961 0.797253
0.723262 0.187961 0.797253
0.723217 0.187976 0.797238
0.0827039 0.262745 0.625452
0.0829175 0.260105 0.667002
0.203082 0.255756 0.728099
0.445548 0.171572 0.76199
0.641428 0.195911 0.788251
0.723262 0.187961 0.797253
0.723262 0.187961 0.797253
0.723262 0.187961 0.797253
0.723262 0.187961 0.797253
0.0825208 0.306691 0.652201
0.0825666 0.268116 0.628977
0.0829175 0.260197 0.665583
0.343938 0.173968 0.752895
0.582574 0.176577 0.777676
0.723262 0.187961 0.797253
0.723262 0.187961 0.797253
0.723262 0.187961 0.797253
0.723262 0.187961 0.797253
0.0829786 0.418692 0.694057
0.0830396 0.384695 0.684092
0.0829023 0.336797 0.666575
0.0829023 0.277317 0.688701
0.476249 0.176211 0.767605
0.695064 0.200931 0.796017
0.723323 0.18793 0.797253
0.723323 0.18793 0.797269
0.723323 0.187915 0.797253
0.0839094 0.596551 0.746456
0.0834669 0.579324 0.740658
0.0835431 0.559823 0.734264
0.0836652 0.517571 0.723354
0.395819 0.480323 0.778607
0.669886 0.425376 0.812696
0.771664 0.373373 0.817395
0.767605 0.349447 0.815961
0.762097 0.307332 0.813703
0.0993973 0.774609 0.800443
0.0928054 0.761288 0.795163
0.0844129 0.745266 0.788693
0.0839551 0.711849 0.779828
0.176287 0.667781 0.777081
0.614008 0.649744 0.844083
0.792813 0.622492 0.861799
0.826825 0.595422 0.858778
0.819409 0.568215 0.853651
0.186206 0.869017 0.837842
0.18172 0.86215 0.837369
0.174594 0.851698 0.833509
0.161044 0.834058 0.826169
0.122957 0.806912 0.816342
0.53225 0.767361 0.820676
0.749615 0.770657 0.866133
0.856199 0.745068 0.86656
0.855573 0.725093 0.867887
0.191318 0.876509 0.838514
0.190967 0.876753 0.838651
0.190967 0.876753 0.838651
0.190967 0.876753 0.838651
0.188403 0.872526 0.838483
0.315022 0.834485 0.816464
0.705394 0.843366 0.840452
0.841215 0.855528 0.86424
0.871412 0.842039 0.865095
0.190967 0.876722 0.838621
0.190967 0.876753 0.838651
0.190967 0.876722 0.838621
0.190967 0.876753 0.838651
0.191043 0.876905 0.838712
0.194095 0.879469 0.838941
0.588296 0.84744 0.817227
0.827359 0.880903 0.85948
0.873655 0.885023 0.866941
