bundles/resolve-cinematic-luts/Phantom Luts/Canon Film LUT/ATOMOS Monitoring LUTs/C-Log 3/Vision Canon CL3 AML.cube
TITLE "Generated by Resolve"
LUT_3D_SIZE 5
0.084947 0.0922713 0.084947
0.300389 0.0964065 0.0806592
0.601083 0.10248 0.113405
0.69424 0.108721 0.178317
0.697215 0.105898 0.165057
0.105928 0.355352 0.146838
0.257481 0.305898 0.0962081
0.596551 0.227924 0.118563
0.72108 0.176074 0.137758
0.724895 0.203479 0.137697
0.215549 0.719997 0.366644
0.226688 0.6925 0.286351
0.608911 0.645457 0.144121
0.766171 0.618265 0.158373
0.764248 0.597604 0.167514
0.259174 0.786358 0.450828
0.245731 0.776013 0.358099
0.545022 0.792081 0.410895
0.773678 0.796948 0.310124
0.784802 0.795361 0.300694
0.265385 0.792081 0.487511
0.245991 0.775814 0.357961
0.459846 0.785443 0.4065
0.746975 0.797757 0.309056
0.784878 0.795422 0.299809
0.090959 0.103105 0.302068
0.339315 0.0864576 0.296223
0.67863 0.138598 0.435477
0.71873 0.148638 0.458076
0.721248 0.147066 0.40177
0.082002 0.276371 0.262272
0.266117 0.282322 0.260609
0.637476 0.108858 0.216938
0.716075 0.121767 0.270497
0.704662 0.105257 0.156802
0.191073 0.682017 0.464775
0.19205 0.672724 0.346441
0.588708 0.620066 0.136614
0.762463 0.568856 0.17879
0.75964 0.547463 0.187701
0.27248 0.80705 0.587182
0.259373 0.787549 0.458122
0.47306 0.786068 0.408774
0.765133 0.799359 0.303761
0.787243 0.789685 0.268284
0.266224 0.809155 0.603555
0.267674 0.793652 0.495415
0.377188 0.781689 0.392248
0.718425 0.793103 0.331579
0.784894 0.795422 0.299611
0.135195 0.150546 0.567422
0.397345 0.133974 0.561563
0.673198 0.150423 0.622461
0.729747 0.163302 0.685023
0.730495 0.149035 0.639872
0.113878 0.227314 0.545708
0.149783 0.142351 0.541131
0.610727 0.135454 0.560143
0.729961 0.153979 0.628397
0.732097 0.160983 0.574975
0.0972152 0.604288 0.626703
0.0953384 0.58558 0.607614
0.618616 0.633768 0.614755
0.836881 0.54374 0.569207
0.822675 0.517998 0.510246
0.142153 0.809369 0.742473
0.174472 0.814694 0.703136
0.302449 0.79498 0.509468
0.744228 0.796551 0.467079
0.786709 0.775341 0.396109
0.141512 0.809522 0.742519
0.182559 0.814908 0.696086
0.271931 0.796185 0.511513
0.627817 0.799329 0.365011
0.78677 0.795544 0.302434
0.176883 0.217395 0.715404
0.443854 0.195987 0.732586
0.703929 0.18201 0.723598
0.735592 0.168673 0.721614
0.735515 0.168704 0.721508
0.150439 0.282628 0.734264
0.174853 0.217334 0.715068
0.645411 0.200443 0.72604
0.735592 0.168673 0.721614
0.735592 0.168673 0.721599
0.0912947 0.582422 0.77821
0.109651 0.553979 0.786358
0.524773 0.525277 0.814237
0.809979 0.483543 0.797772
0.80177 0.427649 0.783383
0.136614 0.802899 0.843732
0.132891 0.793118 0.830564
0.123171 0.765255 0.799573
0.791562 0.814466 0.799664
0.843534 0.782376 0.775753
0.137636 0.803815 0.850156
0.135973 0.803342 0.833173
0.104021 0.807065 0.781186
0.711025 0.842786 0.759335
0.83975 0.878416 0.819242
0.203708 0.218158 0.720958
0.459037 0.196521 0.732769
0.714397 0.176318 0.723781
0.735592 0.168673 0.721614
0.735592 0.168673 0.721614
0.150362 0.280049 0.734951
0.200305 0.218524 0.720729
0.651118 0.200656 0.726314
0.735592 0.168673 0.721614
0.735592 0.168673 0.721614
0.119112 0.573922 0.816968
0.133333 0.539757 0.809598
0.49778 0.484092 0.81149
0.799039 0.425834 0.791043
0.785641 0.35108 0.774945
0.134249 0.801083 0.860731
0.126604 0.787747 0.855497
0.0998398 0.750286 0.844984
0.760952 0.778546 0.864622
0.843458 0.752331 0.851942
0.137346 0.807568 0.86389
0.137346 0.807568 0.86389
0.137499 0.807706 0.863981
0.599054 0.828199 0.838804
0.859129 0.890837 0.876509
