bundles/resolve-cinematic-luts/Phantom Luts/Canon Film LUT/ATOMOS Monitoring LUTs/C-Log 3/Vision Canon CL3 AML.cube
TITLE "Generated by Resolve"
LUT_3D_SIZE 9
0.084947 0.0922713 0.084947
0.151492 0.0911727 0.0831159
0.300389 0.0964065 0.0806592
0.452628 0.102434 0.0878157
0.601083 0.10248 0.113405
0.684886 0.104311 0.148425
0.69424 0.108721 0.178317
0.694514 0.108064 0.174975
0.697215 0.105898 0.165057
0.087953 0.162173 0.0994125
0.104921 0.134554 0.0891127
0.26331 0.12372 0.0844129
0.438239 0.118273 0.0876326
0.600977 0.117128 0.108385
0.691844 0.10515 0.152148
0.691402 0.103685 0.139467
0.695048 0.105287 0.150729
0.702327 0.106401 0.139071
0.105928 0.355352 0.146838
0.108049 0.324712 0.127413
0.257481 0.305898 0.0962081
0.462425 0.271504 0.107744
0.596551 0.227924 0.118563
0.724605 0.184985 0.141375
0.72108 0.176074 0.137758
0.722148 0.217075 0.146746
0.724895 0.203479 0.137697
0.149874 0.539559 0.24921
0.144427 0.527214 0.196796
0.174807 0.50338 0.185962
0.4589 0.48658 0.111376
0.617807 0.461982 0.135927
0.721752 0.41706 0.176837
0.72781 0.398123 0.189975
0.727596 0.400229 0.187839
0.731884 0.412543 0.188586
0.215549 0.719997 0.366644
0.210224 0.720851 0.312871
0.226688 0.6925 0.286351
0.360922 0.671748 0.275898
0.608911 0.645457 0.144121
0.730159 0.626139 0.10811
0.766171 0.618265 0.158373
0.766049 0.61326 0.161105
0.764248 0.597604 0.167514
0.257038 0.782864 0.428382
0.24712 0.777325 0.369574
0.250278 0.777249 0.364965
0.361761 0.781521 0.381643
0.540337 0.785031 0.351431
0.724529 0.766567 0.218845
0.778881 0.753399 0.211261
0.77998 0.750744 0.204974
0.778286 0.74139 0.189563
0.259174 0.786358 0.450828
0.25362 0.781415 0.410391
0.245731 0.776013 0.358099
0.365057 0.781308 0.387289
0.545022 0.792081 0.410895
0.692241 0.790463 0.347601
0.773678 0.796948 0.310124
0.784772 0.795331 0.30106
0.784802 0.795361 0.300694
0.264851 0.790219 0.476524
0.25687 0.783032 0.428702
0.246601 0.775509 0.35816
0.355001 0.780697 0.382956
0.521202 0.788022 0.415274
0.662806 0.791882 0.358038
0.766247 0.800443 0.306661
0.784695 0.7953 0.301732
0.784802 0.795377 0.30045
0.265385 0.792081 0.487511
0.256077 0.783764 0.429633
0.245991 0.775814 0.357961
0.318807 0.7785 0.37319
0.459846 0.785443 0.4065
0.613123 0.797192 0.360403
0.746975 0.797757 0.309056
0.784726 0.795316 0.301366
0.784878 0.795422 0.299809
0.0851606 0.095491 0.143328
0.178637 0.0907912 0.15938
0.351537 0.0887465 0.202487
0.510338 0.0971847 0.241443
0.684993 0.126162 0.313176
0.719524 0.130648 0.318563
0.718791 0.127184 0.301564
0.715846 0.12166 0.272877
0.70486 0.110155 0.195468
0.0838636 0.118212 0.104128
0.0863813 0.0951858 0.0871901
0.303319 0.0826581 0.0837873
0.463279 0.0829328 0.103166
0.628305 0.099382 0.166857
0.710399 0.116182 0.239872
0.709621 0.115282 0.232502
0.703166 0.111101 0.198856
0.699077 0.105531 0.1635
0.09308 0.318334 0.186389
0.0978561 0.30103 0.132555
0.230991 0.274815 0.0931868
0.464759 0.211383 0.111925
0.612757 0.161532 0.109789
0.702586 0.111421 0.138582
0.700755 0.106691 0.13991
0.708721 0.126009 0.13492
0.726864 0.18088 0.14139
0.141772 0.520562 0.298039
0.140841 0.51075 0.233341
0.14609 0.488487 0.180636
0.443366 0.469566 0.108095
0.619577 0.429664 0.142962
0.720272 0.377157 0.181415
0.720684 0.356115 0.174273
0.72488 0.362997 0.180667
0.728359 0.38471 0.188693
0.20882 0.704631 0.414511
0.202472 0.698085 0.354238
0.198627 0.696025 0.291646
0.295613 0.662287 0.266514
0.599496 0.6336 0.139696
0.729702 0.608331 0.120729
0.764416 0.596338 0.168414
0.763745 0.588739 0.171252
0.763195 0.571649 0.177218
0.268818 0.793362 0.496849
0.256062 0.783475 0.428305
0.246372 0.776913 0.365225
0.334218 0.780026 0.367498
0.522789 0.783276 0.353552
0.717098 0.759457 0.205737
0.776654 0.743252 0.19173
0.777111 0.738369 0.183703
0.775616 0.72726 0.167483
0.275898 0.798413 0.525338
0.259113 0.78677 0.453834
0.250217 0.778927 0.390616
0.331838 0.780194 0.376989
0.517906 0.788357 0.415915
0.669535 0.791516 0.355428
0.770794 0.800229 0.307729
0.78468 0.795163 0.300084
0.785321 0.793942 0.293202
0.280247 0.801297 0.542321
0.264973 0.790433 0.479164
0.255467 0.781353 0.416037
0.305745 0.778424 0.374121
0.480385 0.785916 0.410819
0.639261 0.796368 0.360601
0.758755 0.799634 0.305013
0.784695 0.795285 0.301869
0.784802 0.795361 0.300587
0.283238 0.803876 0.556603
0.26659 0.792813 0.491371
0.256519 0.783429 0.429313
0.254932 0.776486 0.363317
0.415564 0.783261 0.399924
0.590784 0.797055 0.369833
0.73228 0.794812 0.32166
0.784222 0.795377 0.301778
0.784878 0.795422 0.299794
0.090959 0.103105 0.302068
0.206134 0.0955215 0.287297
0.339315 0.0864576 0.296223
0.51014 0.107729 0.371801
0.67863 0.138598 0.435477
0.718853 0.148547 0.458808
0.71873 0.148638 0.458076
0.718669 0.149798 0.448936
0.721248 0.147066 0.40177
0.0863203 0.125734 0.218341
0.0946365 0.100908 0.271153
0.287007 0.0865644 0.249882
0.474983 0.096788 0.297032
0.658213 0.131197 0.356008
0.718807 0.14725 0.401099
0.718654 0.147372 0.401205
0.719676 0.145022 0.387915
0.723537 0.135195 0.347143
0.082002 0.276371 0.262272
0.0823224 0.253147 0.239506
0.266117 0.282322 0.260609
0.532235 0.174304 0.19292
0.637476 0.108858 0.216938
0.717647 0.123415 0.280079
0.716075 0.121767 0.270497
0.711116 0.116686 0.23975
0.704662 0.105257 0.156802
0.112764 0.492546 0.355459
0.1243 0.487922 0.308782
0.132631 0.479561 0.225742
0.429206 0.455283 0.116594
0.620874 0.391959 0.167681
0.720974 0.320302 0.176226
0.719448 0.304509 0.165362
0.713527 0.321248 0.161028
0.718105 0.344762 0.166873
0.191073 0.682017 0.464775
0.197498 0.680171 0.415656
0.19205 0.672724 0.346441
0.245701 0.650736 0.264042
0.588708 0.620066 0.136614
0.728985 0.587366 0.138994
0.762463 0.568856 0.17879
0.760586 0.557321 0.184894
0.75964 0.547463 0.187701
0.282597 0.803647 0.561151
0.272297 0.796277 0.51252
0.257069 0.785214 0.437629
0.284153 0.777462 0.362219
0.499001 0.777935 0.359503
0.708431 0.751064 0.195239
0.773281 0.729793 0.171527
0.773861 0.723415 0.162692
0.772915 0.710719 0.146822
0.27248 0.80705 0.587182
0.28011 0.801648 0.542931
0.259373 0.787549 0.458122
0.2542 0.776898 0.362737
0.47306 0.786068 0.408774
0.645685 0.795224 0.359304
0.765133 0.799359 0.303761
0.785641 0.792584 0.286595
0.787243 0.789685 0.268284
0.267201 0.808454 0.600687
0.282841 0.804257 0.559976
0.265293 0.791119 0.482795
0.246983 0.775769 0.359518
0.43299 0.784161 0.404578
0.612482 0.79881 0.364767
0.748974 0.79765 0.309102
0.78468 0.795285 0.302068
0.784772 0.795346 0.300847
0.266224 0.809155 0.603555
0.282597 0.804486 0.560479
0.267674 0.793652 0.495415
0.249409 0.777173 0.375616
0.377188 0.781689 0.392248
0.574533 0.79559 0.392935
0.718425 0.793103 0.331579
0.781353 0.795712 0.304814
0.784894 0.795422 0.299611
0.107851 0.120256 0.444282
0.231327 0.103899 0.429679
0.361089 0.107012 0.417334
0.500954 0.109117 0.451774
0.684855 0.155596 0.546838
0.729412 0.162325 0.575341
0.726024 0.15285 0.555398
0.723949 0.145006 0.538888
0.723064 0.13695 0.517082
0.0985122 0.148348 0.411765
0.110857 0.117052 0.427802
0.287221 0.100786 0.406119
0.465156 0.10071 0.418036
0.655192 0.13875 0.498543
0.72079 0.138567 0.521614
0.720882 0.139834 0.508064
0.721263 0.140307 0.505135
0.723583 0.143893 0.486198
0.0856489 0.248661 0.41886
0.0955215 0.210651 0.429953
0.181262 0.180972 0.468711
0.454261 0.122621 0.40708
0.619898 0.120211 0.43444
0.718975 0.147082 0.470527
0.718853 0.147601 0.466987
0.71873 0.148852 0.457542
0.719402 0.15201 0.428901
0.0830091 0.453834 0.458824
0.082887 0.440955 0.445274
0.0827497 0.425605 0.429633
0.470146 0.483314 0.460517
0.705928 0.392691 0.402411
0.789853 0.305211 0.4206
0.781964 0.268528 0.405722
0.78024 0.253895 0.379553
0.787625 0.279728 0.324865
0.120897 0.642741 0.530587
0.132799 0.63743 0.503853
0.155001 0.634028 0.469718
0.250813 0.647639 0.396353
0.573678 0.618463 0.30959
0.737621 0.579507 0.351003
0.761395 0.553903 0.353017
0.75761 0.539574 0.331624
0.755093 0.519554 0.281849
0.234897 0.789029 0.620447
0.243977 0.788891 0.594965
0.261769 0.789319 0.561379
0.253986 0.781247 0.447501
0.413718 0.770016 0.368566
0.69369 0.737285 0.193393
0.771725 0.708721 0.153658
0.77528 0.698985 0.14229
0.774441 0.680659 0.132723
0.237842 0.814969 0.660548
0.258412 0.812558 0.633036
0.269749 0.80795 0.592218
0.262562 0.789242 0.468818
0.384894 0.782391 0.39646
0.602853 0.797055 0.36405
0.757046 0.79527 0.286351
0.786877 0.783993 0.251804
0.785351 0.775753 0.244388
0.220691 0.815579 0.67129
0.255879 0.813916 0.642939
0.266682 0.808927 0.601495
0.266712 0.79263 0.491218
0.354757 0.780758 0.382055
0.576364 0.795483 0.392187
0.727123 0.794293 0.326802
0.784894 0.795224 0.302083
0.785061 0.7953 0.30071
0.226062 0.815946 0.667674
0.257816 0.812848 0.635569
0.267567 0.808576 0.597772
0.270527 0.795102 0.503792
0.301976 0.778119 0.373083
0.543084 0.791577 0.414511
0.684718 0.791287 0.350637
0.771481 0.800076 0.309377
0.785092 0.795392 0.299504
0.135195 0.150546 0.567422
0.25742 0.1252 0.559075
0.397345 0.133974 0.561563
0.53138 0.148318 0.576547
0.673198 0.150423 0.622461
0.730388 0.163836 0.669718
0.729747 0.163302 0.685023
0.729671 0.165072 0.675822
0.730495 0.149035 0.639872
0.115282 0.174884 0.552605
0.139361 0.145663 0.553643
0.304829 0.125154 0.548272
0.494362 0.145205 0.559701
0.646799 0.145022 0.595865
0.72845 0.151232 0.647837
0.729519 0.157809 0.662058
0.728161 0.152148 0.648768
0.734173 0.15938 0.61857
0.113878 0.227314 0.545708
0.113878 0.181872 0.539635
0.149783 0.142351 0.541131
0.433555 0.13312 0.535424
0.610727 0.135454 0.560143
0.731395 0.156024 0.624582
0.729961 0.153979 0.628397
0.733013 0.163546 0.613382
0.732097 0.160983 0.574975
0.0831464 0.431693 0.587488
0.0831922 0.411215 0.593683
0.0955978 0.385061 0.603922
0.386954 0.378164 0.646586
0.658289 0.332387 0.610712
0.759884 0.216205 0.599725
0.739864 0.167727 0.560265
0.723491 0.139666 0.525475
0.724117 0.141436 0.500313
0.0972152 0.604288 0.626703
0.0960861 0.595331 0.617563
0.0953384 0.58558 0.607614
0.115633 0.577554 0.592142
0.618616 0.633768 0.614755
0.805631 0.573816 0.580392
0.836881 0.54374 0.569207
0.834028 0.530465 0.551125
0.822675 0.517998 0.510246
0.12636 0.759655 0.689555
0.125154 0.755489 0.67274
0.131426 0.75079 0.651087
0.16611 0.744518 0.60415
0.4972 0.770443 0.601343
0.690578 0.746059 0.524773
0.791989 0.720775 0.533043
0.794629 0.708934 0.533883
0.789349 0.688792 0.505348
0.142153 0.809369 0.742473
0.146838 0.811505 0.725841
0.174472 0.814694 0.703136
0.247608 0.814771 0.652171
0.302449 0.79498 0.509468
0.593973 0.797971 0.525124
0.744228 0.796551 0.467079
0.786984 0.785458 0.423117
0.786709 0.775341 0.396109
0.134127 0.808011 0.751034
0.141924 0.810834 0.733288
0.167544 0.814252 0.708888
0.24271 0.815534 0.657023
0.267689 0.794186 0.497368
0.541695 0.794049 0.486534
0.699535 0.793423 0.354665
0.780118 0.800336 0.376989
0.785672 0.799191 0.357931
0.141512 0.809522 0.742519
0.151781 0.811963 0.720592
0.182559 0.814908 0.696086
0.254337 0.814191 0.646281
0.271931 0.796185 0.511513
0.429862 0.785382 0.415961
0.627817 0.799329 0.365011
0.761212 0.801282 0.307866
0.78677 0.795544 0.302434
0.158923 0.206271 0.692653
0.303975 0.195697 0.698329
0.428626 0.177935 0.699458
0.562997 0.179629 0.701106
0.692058 0.179355 0.712673
0.735546 0.168688 0.721538
0.735546 0.168688 0.721538
0.735561 0.168688 0.721584
0.735485 0.168704 0.721447
0.139071 0.218952 0.671809
0.165362 0.200015 0.680858
0.332509 0.17026 0.688197
0.518364 0.172839 0.690013
0.665873 0.18323 0.699962
0.735424 0.167758 0.719631
0.735454 0.168719 0.721401
0.735485 0.168704 0.721447
0.735622 0.168673 0.721538
0.134401 0.246006 0.654795
0.135439 0.216709 0.655467
0.171298 0.192126 0.665034
0.45098 0.168139 0.675029
0.631785 0.181003 0.684123
0.732464 0.162493 0.705745
0.734737 0.166125 0.715236
0.735134 0.167651 0.719295
0.73254 0.16257 0.706233
0.121294 0.418585 0.694652
0.137331 0.396826 0.70457
0.142275 0.366049 0.712459
0.322621 0.321874 0.729152
0.61268 0.279133 0.710491
0.733059 0.178912 0.688197
0.73048 0.163973 0.680064
0.730663 0.163943 0.681514
0.730785 0.15407 0.655192
0.0836042 0.593317 0.715221
0.0834363 0.579965 0.716426
0.0836194 0.565209 0.720256
0.0927596 0.533455 0.735042
0.570199 0.563684 0.763867
0.781323 0.549065 0.751461
0.815167 0.518471 0.74168
0.810285 0.499031 0.725277
0.803204 0.443336 0.684565
0.115541 0.733547 0.764721
0.113771 0.725948 0.757061
0.111437 0.716899 0.747509
0.109483 0.701305 0.733181
0.407156 0.70837 0.709484
0.729229 0.746868 0.731701
0.839155 0.710552 0.708965
0.85304 0.690578 0.695796
0.845212 0.676097 0.669841
0.102678 0.804898 0.805905
0.100221 0.805402 0.794598
0.102083 0.804929 0.781491
0.117418 0.79826 0.754055
0.160967 0.794644 0.698085
0.667872 0.815549 0.723751
0.767239 0.812848 0.694575
0.82005 0.800732 0.677638
0.820478 0.788754 0.66746
0.111986 0.80351 0.815488
0.0995651 0.805341 0.802808
0.101091 0.806134 0.787045
0.123552 0.807614 0.759503
0.179049 0.815366 0.699718
0.593301 0.82002 0.684443
0.736187 0.837018 0.702098
0.799115 0.851987 0.708843
0.806607 0.843931 0.683238
0.103182 0.804929 0.808743
0.100603 0.805493 0.792767
0.107729 0.806867 0.776501
0.134463 0.808774 0.749081
0.193027 0.816037 0.690379
0.451133 0.806516 0.611246
0.695323 0.825071 0.671687
0.763149 0.830045 0.617456
0.798947 0.833707 0.62501
0.176883 0.217395 0.715404
0.320104 0.213748 0.730144
0.443854 0.195987 0.732586
0.57818 0.191592 0.726452
0.703929 0.18201 0.723598
0.735592 0.168673 0.721614
0.735592 0.168673 0.721614
0.735576 0.168688 0.721584
0.735515 0.168704 0.721508
0.144854 0.234974 0.705684
0.177493 0.217456 0.715694
0.344732 0.192065 0.732448
0.533913 0.194827 0.729732
0.681208 0.200137 0.726558
0.735592 0.168673 0.721614
0.735592 0.168673 0.721614
0.735592 0.168673 0.721614
0.735561 0.168688 0.721584
0.150439 0.282628 0.734264
0.145922 0.243641 0.711833
0.174853 0.217334 0.715068
0.463813 0.196704 0.73286
0.645411 0.200443 0.72604
0.735607 0.168688 0.721599
0.735592 0.168673 0.721614
0.735592 0.168673 0.721614
0.735592 0.168673 0.721599
0.154192 0.416068 0.75935
0.15494 0.393393 0.763287
0.156039 0.359625 0.765515
0.280217 0.300481 0.764035
0.585168 0.238972 0.74696
0.725872 0.176425 0.725994
0.735653 0.168673 0.721614
0.735653 0.168673 0.721614
0.735653 0.168673 0.721614
0.0912947 0.582422 0.77821
0.0995193 0.56875 0.781216
0.109651 0.553979 0.786358
0.135058 0.523033 0.798184
0.524773 0.525277 0.814237
0.752377 0.520195 0.799451
0.809979 0.483543 0.797772
0.806409 0.463569 0.793667
0.80177 0.427649 0.783383
0.106188 0.730465 0.803784
0.102556 0.72253 0.801373
0.0974441 0.711543 0.798367
0.0909133 0.690898 0.795895
0.305745 0.676585 0.795377
0.696239 0.705852 0.82118
0.829725 0.695262 0.812238
0.846983 0.678172 0.808042
0.843534 0.653025 0.788449
0.136614 0.802899 0.843732
0.134813 0.799542 0.837903
0.132891 0.793118 0.830564
0.127993 0.781277 0.817121
0.123171 0.765255 0.799573
0.622156 0.796033 0.788785
0.791562 0.814466 0.799664
0.842222 0.797742 0.789563
0.843534 0.782376 0.775753
0.13753 0.804273 0.85243
0.135897 0.803494 0.845884
0.135866 0.803326 0.838026
0.12137 0.803494 0.822858
0.100557 0.806516 0.792676
0.462821 0.819074 0.754437
0.757565 0.853803 0.790875
0.820813 0.863783 0.802243
0.827405 0.854292 0.781781
0.137636 0.803815 0.850156
0.136019 0.803281 0.842969
0.135973 0.803342 0.833173
0.109972 0.803998 0.815671
0.104021 0.807065 0.781186
0.213397 0.818372 0.734859
0.711025 0.842786 0.759335
0.794003 0.860609 0.780011
0.83975 0.878416 0.819242
0.195285 0.218479 0.719738
0.331685 0.20061 0.73196
0.453742 0.196307 0.732631
0.586496 0.19292 0.72665
0.711116 0.177096 0.723491
0.735592 0.168673 0.721614
0.735592 0.168673 0.721614
0.735592 0.168673 0.721614
0.735576 0.168673 0.721599
0.143893 0.228656 0.70161
0.195026 0.218418 0.7196
0.357717 0.192493 0.732326
0.540536 0.194003 0.728923
0.686564 0.197269 0.725643
0.735592 0.168673 0.721614
0.735592 0.168673 0.721614
0.735592 0.168673 0.721614
0.735576 0.168673 0.721599
0.15082 0.282322 0.73669
0.145159 0.238193 0.708522
0.192126 0.218219 0.719097
0.470527 0.196872 0.73283
0.649958 0.200549 0.726223
0.735592 0.168673 0.721614
0.735592 0.168673 0.721614
0.735592 0.168673 0.721614
0.735592 0.168673 0.721614
0.161257 0.415091 0.785901
0.159258 0.385138 0.776974
0.156085 0.338201 0.761837
0.264057 0.265705 0.749722
0.575204 0.212528 0.738643
0.719707 0.171313 0.723064
0.735653 0.168673 0.721614
0.735653 0.168673 0.721614
0.735622 0.168673 0.721614
0.112139 0.580575 0.812406
0.120836 0.567468 0.814679
0.128679 0.55082 0.812451
0.146853 0.512047 0.805203
0.508309 0.503548 0.815778
0.740383 0.496742 0.801419
0.803738 0.456382 0.797604
0.800061 0.433616 0.792874
0.792859 0.392248 0.78349
0.0947127 0.729793 0.830228
0.0923934 0.718898 0.829938
0.088304 0.70489 0.829541
0.0839399 0.678569 0.830076
0.257435 0.657679 0.829343
0.671 0.680247 0.855451
0.813886 0.677211 0.843366
0.839002 0.657176 0.839612
0.83595 0.633738 0.835126
0.134508 0.802197 0.860456
0.1337 0.797635 0.857664
0.130617 0.79089 0.853147
0.122332 0.778531 0.846159
0.109651 0.761425 0.844251
0.580102 0.774533 0.836408
0.771313 0.792676 0.854368
0.84416 0.78233 0.846159
0.84477 0.766644 0.840879
0.137728 0.807477 0.863798
0.137148 0.807538 0.863676
0.136553 0.80705 0.861952
0.136599 0.805463 0.856794
0.136156 0.80412 0.847013
0.397894 0.796536 0.813687
0.740154 0.844663 0.830869
0.832715 0.864576 0.847547
0.847013 0.856794 0.843717
0.137346 0.807568 0.86389
0.137346 0.807584 0.863874
0.136584 0.806958 0.861799
0.1364 0.804852 0.854597
0.135866 0.803388 0.838392
0.122225 0.809171 0.819944
0.656016 0.842481 0.801419
0.815625 0.877241 0.842512
0.859236 0.885573 0.864607
0.203708 0.218158 0.720958
0.338521 0.191836 0.732052
0.459037 0.196521 0.732769
0.589593 0.19292 0.726131
0.714397 0.176318 0.723781
0.735592 0.168673 0.721614
0.735592 0.168673 0.721614
0.735592 0.168673 0.721614
0.735592 0.168673 0.721614
0.144045 0.224567 0.69894
0.202914 0.218265 0.720897
0.362646 0.192203 0.731991
0.543191 0.193729 0.728573
0.687816 0.194232 0.724651
0.735592 0.168673 0.721614
0.735592 0.168673 0.721614
0.735592 0.168673 0.721614
0.735592 0.168673 0.721614
0.150362 0.280049 0.734951
0.144762 0.234241 0.705379
0.200305 0.218524 0.720729
0.473136 0.19678 0.732586
0.651118 0.200656 0.726314
0.735592 0.168673 0.721614
0.735592 0.168673 0.721614
0.735592 0.168673 0.721614
0.735592 0.168673 0.721614
0.160479 0.400198 0.78175
0.15816 0.365774 0.77174
0.153948 0.315022 0.752407
0.2495 0.238422 0.735225
0.567193 0.198795 0.731762
0.719097 0.171984 0.722972
0.735622 0.168673 0.721599
0.735622 0.168688 0.721614
0.735622 0.168673 0.721599
0.119112 0.573922 0.816968
0.125368 0.557839 0.813748
0.133333 0.539757 0.809598
0.152132 0.498405 0.802853
0.49778 0.484092 0.81149
0.730739 0.472419 0.796307
0.799039 0.425834 0.791043
0.794217 0.398474 0.785138
0.785641 0.35108 0.774945
0.0925307 0.724498 0.837125
0.0894484 0.71162 0.835142
0.0856794 0.696193 0.832761
0.0838026 0.666957 0.829465
0.239597 0.64184 0.827558
0.662013 0.663249 0.854231
0.807843 0.659403 0.840284
0.836301 0.637629 0.835843
0.832349 0.612421 0.830503
0.134249 0.801083 0.860731
0.131991 0.795499 0.858839
0.126604 0.787747 0.855497
0.117144 0.774914 0.850538
0.0998398 0.750286 0.844984
0.559716 0.76022 0.843412
0.760952 0.778546 0.864622
0.841093 0.767971 0.853834
0.843458 0.752331 0.851942
0.137346 0.807568 0.86389
0.137346 0.807568 0.86389
0.137346 0.807568 0.86389
0.137346 0.807568 0.86389
0.135286 0.803861 0.862303
0.316884 0.79411 0.841352
0.715953 0.833524 0.851225
0.818738 0.853803 0.863233
0.845029 0.845899 0.865049
0.137346 0.807568 0.86389
0.137346 0.807568 0.86389
0.137346 0.807568 0.86389
0.137346 0.807568 0.86389
0.137499 0.807706 0.863981
0.140383 0.809476 0.864744
0.599054 0.828199 0.838804
0.809323 0.878416 0.864607
0.859129 0.890837 0.876509
