bundles/resolve-cinematic-luts/Phantom Luts/Canon Film LUT/ATOMOS Monitoring LUTs/C-Log 3/Vision Canon CL3 AML.cube
TITLE "Generated by Resolve"
LUT_3D_SIZE 33
0.084947 0.0922713 0.084947
0.084947 0.0922713 0.084947
0.0860761 0.0923934 0.0848859
0.108598 0.0916152 0.0847639
0.151492 0.0911727 0.0831159
0.184253 0.0926833 0.0821546
0.221698 0.0938125 0.081529
0.259953 0.0958724 0.0809949
0.300389 0.0964065 0.0806592
0.337789 0.0950027 0.0803235
0.374624 0.0951095 0.0802167
0.414435 0.0995041 0.084535
0.452628 0.102434 0.0878157
0.492668 0.104662 0.092958
0.530739 0.101839 0.0986954
0.566384 0.104936 0.104814
0.601083 0.10248 0.113405
0.643809 0.0979477 0.133455
0.685817 0.106783 0.167895
0.689784 0.106462 0.161517
0.684886 0.104311 0.148425
0.694209 0.108034 0.173159
0.691157 0.106996 0.163806
0.686168 0.104662 0.151247
0.69424 0.108721 0.178317
0.693797 0.108507 0.17705
0.69369 0.108385 0.176013
0.693767 0.108278 0.175341
0.694514 0.108064 0.174975
0.695506 0.107759 0.174136
0.695796 0.107179 0.17084
0.69633 0.106538 0.167788
0.697215 0.105898 0.165057
0.0849317 0.0922713 0.0849317
0.0849317 0.0922713 0.0849317
0.0849165 0.0923323 0.0849165
0.106172 0.0924697 0.0848096
0.146075 0.0926833 0.083299
0.178729 0.0950484 0.082536
0.216846 0.0961624 0.0820478
0.25687 0.0975357 0.081239
0.298177 0.098024 0.0809949
0.337331 0.097673 0.0804456
0.375357 0.0989853 0.0804456
0.412192 0.100343 0.0826276
0.450141 0.101961 0.0856031
0.489799 0.108492 0.0911727
0.528786 0.107454 0.0970321
0.56672 0.105241 0.104891
0.607385 0.105928 0.114595
0.6392 0.0966506 0.125048
0.685908 0.106355 0.165164
0.693721 0.107851 0.172061
0.69456 0.107973 0.172473
0.694713 0.107912 0.172213
0.691691 0.107042 0.16347
0.693523 0.10753 0.168521
0.693782 0.108232 0.175082
0.69369 0.108141 0.174472
0.693721 0.10808 0.173907
0.69395 0.108064 0.173678
0.694331 0.107683 0.171633
0.694881 0.107118 0.168154
0.695613 0.10663 0.165698
0.696223 0.106157 0.163226
0.697826 0.105394 0.159197
0.0849165 0.0925612 0.0849165
0.0849165 0.0924086 0.0849165
0.084947 0.0923171 0.084947
0.0869001 0.0948196 0.0852674
0.124834 0.0961166 0.0840925
0.161196 0.0981765 0.0833753
0.198306 0.100114 0.0828412
0.243473 0.10103 0.0821393
0.288808 0.101823 0.0816968
0.329992 0.101015 0.081117
0.369192 0.103182 0.0810712
0.406638 0.103716 0.0823682
0.44625 0.106706 0.0856641
0.48513 0.107424 0.0884565
0.527352 0.112902 0.0960861
0.564935 0.108583 0.103746
0.606699 0.11104 0.113039
0.642817 0.104372 0.124331
0.675013 0.103304 0.150225
0.693797 0.107698 0.170062
0.694759 0.10782 0.171038
0.693324 0.107317 0.165743
0.693202 0.107347 0.166323
0.69337 0.107347 0.166064
0.693629 0.107362 0.165988
0.693568 0.107851 0.172107
0.693645 0.10779 0.170932
0.693553 0.107485 0.168078
0.693874 0.107149 0.165454
0.694621 0.106722 0.162707
0.695293 0.106096 0.160754
0.696712 0.105425 0.156832
0.698528 0.104509 0.151568
0.0840925 0.115145 0.088838
0.0847181 0.105516 0.0862745
0.0862745 0.100603 0.0866712
0.0863508 0.0966659 0.0856184
0.0937819 0.10132 0.0857099
0.136767 0.102342 0.0842908
0.176776 0.104952 0.0835889
0.226673 0.106264 0.0827649
0.274525 0.107881 0.0822919
0.319005 0.107866 0.0818494
0.361654 0.108232 0.082475
0.401755 0.107729 0.0830854
0.441245 0.107912 0.0835889
0.477897 0.106874 0.0840009
0.523476 0.114717 0.0935683
0.5626 0.113436 0.10071
0.604776 0.112566 0.112154
0.642252 0.110185 0.122499
0.67126 0.101884 0.143771
0.690318 0.105791 0.156741
0.692729 0.106508 0.159243
0.692988 0.106874 0.161395
0.692943 0.107042 0.163012
0.693172 0.107088 0.162997
0.691859 0.105013 0.149004
0.693355 0.107317 0.165743
0.693416 0.107134 0.163226
0.69337 0.106859 0.161212
0.69337 0.106355 0.158801
0.694469 0.105806 0.156252
0.695842 0.105364 0.153582
0.697673 0.104646 0.149569
0.699351 0.103593 0.144091
0.087953 0.162173 0.0994125
0.0869917 0.152712 0.0936446
0.089189 0.14461 0.0918441
0.0929274 0.139651 0.0924239
0.104921 0.134554 0.0891127
0.133639 0.141192 0.0855573
0.176074 0.135622 0.0878157
0.220005 0.129366 0.0872206
0.26331 0.12372 0.0844129
0.307881 0.116243 0.0823682
0.352972 0.117266 0.0837568
0.396933 0.118914 0.0869001
0.438239 0.118273 0.0876326
0.47599 0.113115 0.0866865
0.513313 0.113252 0.0877241
0.558434 0.117052 0.0979477
0.600977 0.117128 0.108385
0.641443 0.114946 0.120684
0.672541 0.103593 0.13193
0.690028 0.104692 0.14934
0.691844 0.10515 0.152148
0.69218 0.105623 0.155123
0.694347 0.104814 0.146609
0.692927 0.104433 0.143435
0.691402 0.103685 0.139467
0.690776 0.104952 0.13756
0.692531 0.10544 0.153536
0.693477 0.105394 0.152087
0.695048 0.105287 0.150729
0.695964 0.105089 0.14876
0.697429 0.104524 0.145083
0.699046 0.103624 0.141009
0.702327 0.106401 0.139071
0.0884413 0.20267 0.104677
0.0889754 0.193713 0.099382
0.0890669 0.18204 0.099443
0.0954757 0.177356 0.0977188
0.111604 0.169207 0.0972152
0.134524 0.16907 0.088838
0.167437 0.167468 0.084123
0.22237 0.161135 0.0865187
0.271962 0.152728 0.0885786
0.31902 0.145739 0.0919356
0.355673 0.141924 0.0889601
0.393622 0.138003 0.0894636
0.433921 0.132509 0.0905623
0.476997 0.132296 0.093019
0.516457 0.129519 0.0930495
0.557092 0.124132 0.0967727
0.598444 0.122255 0.106813
0.639414 0.121218 0.118379
0.672023 0.112947 0.1299
0.69398 0.104158 0.142199
0.696117 0.104662 0.142992
0.695476 0.104265 0.140139
0.695628 0.106279 0.138872
0.695613 0.1084 0.138445
0.699565 0.106584 0.140154
0.700908 0.108507 0.139605
0.695186 0.104692 0.144701
0.696178 0.104723 0.143496
0.696986 0.104555 0.141833
0.698375 0.104662 0.139605
0.701198 0.108003 0.139162
0.702632 0.111131 0.138094
0.706554 0.11548 0.137865
0.0898146 0.249302 0.112245
0.0880446 0.239933 0.104463
0.0871595 0.228077 0.102449
0.0930953 0.220813 0.101366
0.100206 0.21503 0.101091
0.127047 0.20856 0.100893
0.162982 0.207706 0.0899367
0.212772 0.20119 0.0842145
0.272206 0.195056 0.0883345
0.327489 0.186954 0.0929274
0.372427 0.179507 0.100343
0.411337 0.174701 0.101213
0.44448 0.170077 0.0997482
0.480919 0.161791 0.100465
0.52047 0.15787 0.102617
0.559182 0.148989 0.102327
0.600595 0.144671 0.105577
0.640253 0.136828 0.114534
0.671595 0.121401 0.126696
0.6981 0.108003 0.139666
0.70164 0.11574 0.138262
0.702617 0.117296 0.138079
0.701381 0.110338 0.139269
0.70248 0.111681 0.139284
0.703655 0.113298 0.139483
0.705287 0.115618 0.139895
0.707073 0.129366 0.13492
0.701015 0.111498 0.13875
0.702296 0.113817 0.13872
0.703471 0.116457 0.138659
0.70457 0.118868 0.137682
0.70605 0.121157 0.136782
0.713451 0.137987 0.138064
0.0981918 0.30428 0.129412
0.0966201 0.296986 0.119524
0.0947585 0.286046 0.116976
0.0972915 0.275242 0.114549
0.101534 0.269642 0.113191
0.121218 0.263416 0.112398
0.150011 0.26038 0.109377
0.207187 0.258564 0.0936599
0.266514 0.247822 0.0855421
0.325734 0.243503 0.0932021
0.377951 0.23386 0.0979324
0.418357 0.223758 0.103151
0.460502 0.212848 0.111772
0.49163 0.206607 0.110048
0.525246 0.198688 0.11046
0.559106 0.186389 0.110201
0.601602 0.177218 0.113207
0.642267 0.164233 0.114656
0.6813 0.160678 0.128038
0.704448 0.135805 0.131655
0.709743 0.134188 0.134508
0.707271 0.128939 0.13518
0.714794 0.143633 0.143877
0.711727 0.137224 0.137835
0.709407 0.131792 0.133135
0.710567 0.133822 0.131884
0.712398 0.143389 0.130739
0.712657 0.144488 0.131273
0.710002 0.133471 0.13753
0.716075 0.148379 0.141238
0.721431 0.162066 0.14284
0.724865 0.169528 0.14168
0.726345 0.171969 0.138354
0.105928 0.355352 0.146838
0.103639 0.349371 0.132921
0.102144 0.342077 0.130892
0.0999161 0.329732 0.127733
0.108049 0.324712 0.127413
0.113252 0.319554 0.125536
0.145174 0.315999 0.125032
0.176974 0.311559 0.119097
0.257481 0.305898 0.0962081
0.319982 0.293629 0.0864424
0.373587 0.290578 0.094728
0.424414 0.282445 0.105959
0.462425 0.271504 0.107744
0.49868 0.258518 0.116213
0.535622 0.247929 0.121523
0.562982 0.241337 0.118639
0.596551 0.227924 0.118563
0.635233 0.210346 0.121416
0.679637 0.195682 0.127886
0.711116 0.183276 0.13463
0.724605 0.184985 0.141375
0.726421 0.181323 0.142504
0.72398 0.172549 0.135119
0.720745 0.164675 0.130724
0.72108 0.176074 0.137758
0.719188 0.183673 0.137758
0.720226 0.193256 0.140642
0.721294 0.205753 0.143893
0.722148 0.217075 0.146746
0.725475 0.192294 0.139742
0.726528 0.192248 0.137224
0.726238 0.197269 0.137682
0.724895 0.203479 0.137697
0.115648 0.40441 0.168383
0.113664 0.400702 0.149584
0.111681 0.395407 0.146685
0.109468 0.384604 0.14342
0.113115 0.375753 0.140948
0.118273 0.371237 0.139925
0.130175 0.366934 0.139513
0.172137 0.367407 0.138766
0.213993 0.360037 0.128115
0.312566 0.35378 0.0987411
0.371099 0.340932 0.0882277
0.418753 0.338689 0.0942702
0.466407 0.331701 0.110414
0.505791 0.321309 0.114336
0.538262 0.310094 0.122774
0.57322 0.295384 0.133974
0.605768 0.284321 0.133913
0.632242 0.273182 0.129854
0.663828 0.256733 0.131044
0.695521 0.235492 0.135073
0.720211 0.221698 0.141665
0.719875 0.215732 0.140322
0.717617 0.216739 0.139071
0.71577 0.220783 0.139361
0.712139 0.226169 0.137957
0.710811 0.231998 0.137743
0.715755 0.233112 0.142016
0.714809 0.238087 0.142229
0.713497 0.246479 0.143481
0.712902 0.256168 0.145388
0.712749 0.245396 0.142107
0.711681 0.253147 0.142519
0.710597 0.262592 0.142794
0.126711 0.451789 0.193256
0.124132 0.448264 0.167971
0.122728 0.444511 0.163394
0.12137 0.437522 0.161028
0.118074 0.426932 0.157
0.127642 0.421012 0.155428
0.133165 0.416388 0.154055
0.152697 0.413718 0.152758
0.207889 0.416022 0.153826
0.258808 0.404288 0.133883
0.365454 0.399893 0.101884
0.418433 0.385336 0.0897841
0.462257 0.385214 0.0932326
0.505989 0.379828 0.112642
0.547021 0.370764 0.126162
0.577768 0.35993 0.132906
0.609384 0.345785 0.13991
0.643671 0.331121 0.153094
0.669261 0.321096 0.150881
0.692134 0.30631 0.148775
0.709133 0.289738 0.148775
0.708934 0.281193 0.146975
0.709117 0.276051 0.146059
0.709361 0.277104 0.146471
0.709194 0.280324 0.146944
0.709606 0.284413 0.147997
0.709255 0.290501 0.148898
0.710506 0.294606 0.151171
0.712413 0.300786 0.154482
0.713359 0.308049 0.156497
0.71516 0.316213 0.160525
0.712825 0.308415 0.154772
0.71368 0.315145 0.156146
0.137484 0.495644 0.220157
0.137041 0.494316 0.197803
0.134524 0.491066 0.180896
0.13344 0.486671 0.179675
0.130831 0.477989 0.175433
0.135042 0.47126 0.173526
0.14374 0.465354 0.171435
0.152438 0.460761 0.168841
0.182345 0.460334 0.167636
0.251575 0.461234 0.168383
0.308385 0.447517 0.137881
0.414084 0.444587 0.106401
0.46389 0.428672 0.0927901
0.504067 0.429343 0.0917372
0.544244 0.424872 0.113161
0.584207 0.417914 0.135134
0.616709 0.40647 0.142794
0.645701 0.395041 0.150118
0.674754 0.380697 0.158694
0.700923 0.368429 0.175555
0.715373 0.357946 0.172137
0.718517 0.34934 0.169986
0.718349 0.343709 0.168276
0.717296 0.338231 0.166796
0.71667 0.334356 0.165148
0.717693 0.337758 0.167041
0.718807 0.34168 0.168383
0.719738 0.346654 0.17084
0.720104 0.353033 0.173526
0.718395 0.359792 0.172488
0.7187 0.366659 0.173831
0.720073 0.362051 0.174548
0.720806 0.365972 0.175586
0.149874 0.539559 0.24921
0.149508 0.53962 0.235615
0.147097 0.536553 0.203372
0.146578 0.534096 0.200641
0.144427 0.527214 0.196796
0.141207 0.51841 0.19321
0.153445 0.513512 0.191592
0.162615 0.508095 0.188891
0.174807 0.50338 0.185962
0.230594 0.503288 0.183841
0.293767 0.504219 0.183062
0.357183 0.488182 0.143343
0.4589 0.48658 0.111376
0.505531 0.47039 0.0959793
0.542718 0.470909 0.0863966
0.580591 0.467277 0.111833
0.617807 0.461982 0.135927
0.65362 0.451453 0.150622
0.680964 0.442222 0.160693
0.70277 0.431174 0.166964
0.721752 0.41706 0.176837
0.730816 0.408621 0.189822
0.72958 0.404303 0.190219
0.728969 0.401175 0.190295
0.72781 0.398123 0.189975
0.727031 0.395315 0.189761
0.726452 0.392645 0.18967
0.726589 0.395178 0.1888
0.727596 0.400229 0.187839
0.728603 0.405646 0.186572
0.730449 0.411994 0.186419
0.732692 0.419364 0.186618
0.731884 0.412543 0.188586
0.163622 0.583978 0.276814
0.163424 0.585031 0.270176
0.161624 0.582727 0.233722
0.160433 0.580331 0.225467
0.15906 0.576104 0.223926
0.156435 0.568536 0.219501
0.160388 0.560525 0.215427
0.176013 0.554543 0.211246
0.184985 0.548745 0.207538
0.202106 0.545205 0.204227
0.282048 0.545937 0.2056
0.336385 0.545892 0.195483
0.405997 0.525032 0.149111
0.499763 0.525063 0.118929
0.546044 0.510979 0.0992142
0.579477 0.510552 0.086305
0.616495 0.508095 0.109133
0.651377 0.50425 0.135668
0.686732 0.496864 0.158709
0.711437 0.487419 0.168978
0.729961 0.47834 0.17554
0.739422 0.468894 0.180606
0.73991 0.465324 0.181582
0.738933 0.462119 0.181048
0.738552 0.459266 0.18114
0.73846 0.457099 0.181643
0.737423 0.454459 0.181201
0.73695 0.451972 0.181125
0.73695 0.45034 0.181308
0.737118 0.452567 0.181277
0.738735 0.458213 0.181582
0.740047 0.464088 0.181613
0.741451 0.470329 0.181079
0.178775 0.630076 0.305287
0.178607 0.632212 0.303395
0.177356 0.63122 0.274861
0.174884 0.628412 0.252857
0.173953 0.626093 0.250294
0.171618 0.619211 0.247379
0.169223 0.61004 0.242878
0.183185 0.602701 0.239185
0.201068 0.595071 0.232517
0.208042 0.588098 0.22594
0.246006 0.587243 0.224765
0.330632 0.589502 0.23209
0.377264 0.584054 0.204334
0.4533 0.561471 0.155703
0.538018 0.565545 0.125826
0.582101 0.550362 0.105257
0.61387 0.548882 0.0906233
0.649653 0.548211 0.102724
0.682734 0.5449 0.131731
0.711131 0.539483 0.15404
0.734798 0.531319 0.173785
0.750469 0.523613 0.183612
0.753857 0.519799 0.184985
0.753765 0.517983 0.185336
0.752926 0.51548 0.184771
0.752483 0.513695 0.184558
0.752346 0.512489 0.18497
0.751797 0.510964 0.184878
0.751598 0.509483 0.185122
0.750851 0.507103 0.184741
0.749447 0.504021 0.184192
0.751034 0.5075 0.184771
0.752453 0.512123 0.184863
0.196246 0.676646 0.335714
0.196902 0.679408 0.336263
0.195346 0.679026 0.314427
0.192096 0.67747 0.286061
0.191089 0.675181 0.280247
0.189181 0.671031 0.274907
0.185397 0.661982 0.270115
0.192172 0.652415 0.263752
0.215305 0.643717 0.259586
0.224628 0.634882 0.252628
0.239811 0.628382 0.250736
0.298238 0.629206 0.248905
0.375586 0.632822 0.258259
0.417639 0.621927 0.212665
0.499794 0.597757 0.166964
0.574777 0.60618 0.133883
0.617243 0.589075 0.11281
0.647669 0.587793 0.0977188
0.680034 0.5879 0.0972305
0.709209 0.585 0.121141
0.731548 0.581552 0.145602
0.751705 0.576654 0.166247
0.762112 0.572396 0.176562
0.762371 0.570184 0.17821
0.762142 0.568536 0.179278
0.761807 0.567239 0.180133
0.761822 0.566171 0.181247
0.761501 0.564477 0.181704
0.76144 0.562539 0.182788
0.760815 0.55967 0.184314
0.760342 0.556344 0.186496
0.759655 0.552468 0.188159
0.759274 0.550607 0.187808
0.215549 0.719997 0.366644
0.216403 0.722713 0.368277
0.214847 0.723064 0.351156
0.21181 0.722683 0.322118
0.210224 0.720851 0.312871
0.208347 0.718349 0.307973
0.204303 0.711543 0.298192
0.200992 0.7019 0.293385
0.226688 0.6925 0.286351
0.246845 0.682368 0.278431
0.254871 0.676051 0.281163
0.282521 0.671977 0.277592
0.360922 0.671748 0.275898
0.417594 0.677791 0.280095
0.457008 0.659968 0.224964
0.53846 0.636225 0.181506
0.608911 0.645457 0.144121
0.650202 0.628931 0.123949
0.679133 0.627024 0.106676
0.705516 0.627451 0.0933547
0.730159 0.626139 0.10811
0.749538 0.623957 0.131853
0.76376 0.621027 0.153704
0.766339 0.619333 0.157778
0.766171 0.618265 0.158373
0.76614 0.617075 0.159213
0.766079 0.616053 0.159792
0.766155 0.614923 0.160372
0.766049 0.61326 0.161105
0.765866 0.611368 0.1617
0.765179 0.60824 0.162585
0.765301 0.604227 0.16556
0.764248 0.597604 0.167514
0.238636 0.756512 0.396597
0.238773 0.758556 0.398917
0.237247 0.758907 0.380957
0.234714 0.758709 0.358419
0.231632 0.757382 0.343114
0.229816 0.755261 0.337911
0.228092 0.753246 0.335088
0.224018 0.745113 0.326528
0.240223 0.735744 0.321202
0.264546 0.725872 0.309285
0.275013 0.718273 0.308644
0.290196 0.712673 0.308476
0.336797 0.712001 0.303166
0.414527 0.712551 0.305943
0.456077 0.71371 0.294499
0.498268 0.694621 0.242313
0.576318 0.674571 0.197375
0.641047 0.684001 0.156634
0.679713 0.668849 0.139361
0.707744 0.666255 0.120623
0.726345 0.665278 0.113024
0.747189 0.666651 0.107652
0.76321 0.66537 0.125734
0.770581 0.664271 0.134997
0.77113 0.663172 0.136019
0.770977 0.661952 0.136309
0.770886 0.660578 0.136904
0.770916 0.659159 0.137758
0.770733 0.657603 0.137758
0.770459 0.65594 0.138918
0.770825 0.653056 0.140703
0.769604 0.64892 0.141344
0.769467 0.643397 0.14435
0.25449 0.779309 0.418784
0.25507 0.780728 0.421134
0.252781 0.779995 0.403265
0.24921 0.777966 0.382406
0.246403 0.776547 0.363058
0.245914 0.77641 0.360281
0.243809 0.775067 0.354971
0.242023 0.772625 0.351568
0.253697 0.767559 0.348974
0.281865 0.760311 0.341848
0.298482 0.753185 0.334249
0.309209 0.747845 0.33698
0.336965 0.744411 0.335042
0.402319 0.744884 0.328359
0.463493 0.747326 0.334722
0.495445 0.740581 0.303212
0.542779 0.722271 0.259831
0.61503 0.709545 0.217594
0.672648 0.718135 0.170108
0.705562 0.703853 0.154955
0.729747 0.701167 0.146166
0.746395 0.700542 0.141604
0.759854 0.700343 0.138415
0.77113 0.700435 0.135286
0.77348 0.699779 0.133928
0.773404 0.699306 0.133272
0.773266 0.698314 0.131884
0.772976 0.697261 0.130282
0.773083 0.695766 0.128283
0.773571 0.694469 0.126757
0.773724 0.692302 0.125566
0.773037 0.688396 0.126711
0.773129 0.684062 0.128344
0.256977 0.782559 0.427085
0.256779 0.782742 0.427604
0.253651 0.780926 0.407721
0.250004 0.778347 0.38677
0.247044 0.777203 0.368795
0.246677 0.776867 0.365896
0.245792 0.776394 0.359823
0.245975 0.776471 0.359991
0.256397 0.777066 0.361715
0.290929 0.777188 0.361578
0.314443 0.775525 0.357855
0.329473 0.772946 0.361227
0.349874 0.769421 0.363516
0.396582 0.769802 0.359045
0.463478 0.769955 0.349874
0.504753 0.772519 0.345892
0.537072 0.759991 0.315297
0.587045 0.743313 0.282353
0.650401 0.737743 0.241901
0.701244 0.745342 0.191623
0.728084 0.733761 0.181048
0.747494 0.730663 0.172824
0.761547 0.729824 0.170687
0.771878 0.729503 0.171313
0.775158 0.728862 0.171542
0.775387 0.728252 0.170672
0.775067 0.727535 0.169253
0.774929 0.726726 0.168078
0.774548 0.725551 0.166842
0.773785 0.723629 0.164019
0.773739 0.721569 0.161532
0.773602 0.719127 0.158602
0.772915 0.714519 0.152773
0.257038 0.782864 0.428382
0.256565 0.782635 0.426505
0.253727 0.781094 0.408515
0.250248 0.778592 0.38912
0.24712 0.777325 0.369574
0.246189 0.776486 0.361563
0.245792 0.77641 0.359838
0.245533 0.776471 0.360311
0.250278 0.777249 0.364965
0.288334 0.77789 0.368322
0.319219 0.77911 0.368307
0.342901 0.780194 0.372641
0.361761 0.781521 0.381643
0.397681 0.782147 0.381186
0.455085 0.783764 0.372747
0.507027 0.785779 0.364675
0.540337 0.785031 0.351431
0.577081 0.77351 0.326085
0.628611 0.759136 0.299428
0.682918 0.760662 0.264698
0.724529 0.766567 0.218845
0.744793 0.758175 0.213809
0.761303 0.755215 0.209323
0.772839 0.753994 0.210376
0.778881 0.753399 0.211261
0.780041 0.753017 0.211398
0.780148 0.752499 0.209934
0.779965 0.751675 0.207889
0.77998 0.750744 0.204974
0.780041 0.749554 0.20296
0.779583 0.747616 0.20061
0.778393 0.745007 0.195377
0.778286 0.74139 0.189563
0.258442 0.782498 0.429374
0.258305 0.782773 0.430121
0.256001 0.781399 0.418219
0.252644 0.7794 0.398444
0.249256 0.777417 0.377997
0.246677 0.776165 0.361288
0.246357 0.776043 0.359701
0.245914 0.775845 0.357961
0.248127 0.776318 0.360372
0.27686 0.777951 0.370092
0.320836 0.779232 0.37583
0.350805 0.780758 0.379721
0.368536 0.781247 0.388235
0.400549 0.782635 0.392355
0.448417 0.784024 0.388037
0.506188 0.786297 0.381598
0.543191 0.790921 0.362203
0.578332 0.791974 0.354772
0.618936 0.782986 0.333989
0.672343 0.77351 0.311162
0.711528 0.777462 0.280385
0.741054 0.7823 0.256199
0.757137 0.775769 0.255543
0.770565 0.773434 0.254185
0.780621 0.773083 0.247974
0.783352 0.772671 0.246067
0.783062 0.771862 0.245808
0.782544 0.771237 0.245472
0.782025 0.770352 0.245197
0.781842 0.768872 0.244678
0.781857 0.767666 0.243961
0.781323 0.765667 0.240543
0.780957 0.762097 0.233417
0.259037 0.783612 0.435264
0.257832 0.782696 0.429099
0.256855 0.782467 0.426398
0.254551 0.781186 0.410849
0.250935 0.778653 0.390967
0.247272 0.77705 0.368978
0.246387 0.776089 0.359945
0.245762 0.775799 0.357595
0.246342 0.776043 0.358846
0.26566 0.777142 0.367285
0.313848 0.778622 0.375174
0.348196 0.780667 0.379583
0.370947 0.781552 0.389715
0.40383 0.783001 0.397147
0.451057 0.785168 0.405081
0.509041 0.78761 0.410727
0.551659 0.79263 0.399588
0.580652 0.79585 0.374762
0.615717 0.795987 0.357626
0.656718 0.789258 0.34786
0.703883 0.786938 0.322942
0.731975 0.790631 0.302113
0.755673 0.794339 0.283711
0.767056 0.790631 0.288731
0.781125 0.78854 0.270512
0.786496 0.788037 0.262684
0.787091 0.787762 0.260441
0.787228 0.787488 0.259083
0.78761 0.787198 0.256382
0.787289 0.78648 0.253559
0.786954 0.785199 0.252094
0.786603 0.783154 0.250736
0.785931 0.780362 0.249027
0.259541 0.78526 0.443534
0.257023 0.78291 0.428534
0.257023 0.783154 0.429358
0.255528 0.781765 0.419516
0.252491 0.77995 0.400427
0.249088 0.777676 0.380087
0.246311 0.776135 0.359899
0.245945 0.775982 0.358267
0.24593 0.775998 0.358267
0.258701 0.776761 0.365148
0.307668 0.778714 0.374701
0.343496 0.780133 0.378012
0.36762 0.781277 0.388464
0.397711 0.782757 0.396139
0.443122 0.78471 0.405951
0.501976 0.787167 0.413703
0.549203 0.79263 0.408957
0.578988 0.795834 0.383062
0.611154 0.797833 0.361181
0.651835 0.793896 0.358221
0.6981 0.790402 0.343023
0.728054 0.793881 0.323125
0.7514 0.797787 0.303609
0.765942 0.800427 0.304707
0.776974 0.795666 0.306325
0.783642 0.79469 0.299443
0.784817 0.794522 0.297871
0.784894 0.794491 0.29723
0.785183 0.794339 0.295399
0.785321 0.793957 0.294148
0.78529 0.793408 0.290501
0.785641 0.79263 0.286793
0.786191 0.791257 0.27892
0.259174 0.786358 0.450828
0.256931 0.783627 0.431739
0.256565 0.783185 0.428565
0.256184 0.782818 0.426352
0.25362 0.781415 0.410391
0.249989 0.778576 0.388434
0.246418 0.776318 0.36141
0.246159 0.776226 0.359915
0.245731 0.776013 0.358099
0.251026 0.776883 0.363455
0.298787 0.778485 0.374075
0.33962 0.780301 0.376883
0.365057 0.781308 0.387289
0.393378 0.782376 0.395056
0.437232 0.784695 0.405844
0.495003 0.787045 0.411658
0.545022 0.792081 0.410895
0.575296 0.795834 0.387549
0.6065 0.797971 0.362036
0.646876 0.794797 0.35935
0.692241 0.790463 0.347601
0.723949 0.793759 0.327703
0.747539 0.797726 0.309285
0.763821 0.800412 0.302892
0.773678 0.796948 0.310124
0.782956 0.795499 0.302876
0.78471 0.7953 0.301534
0.784741 0.795331 0.30135
0.784772 0.795331 0.30106
0.784787 0.795346 0.300816
0.784802 0.795361 0.300664
0.784817 0.795361 0.300618
0.784802 0.795361 0.300694
0.259495 0.787442 0.458106
0.257801 0.784756 0.437247
0.256214 0.783078 0.427634
0.256489 0.783444 0.429297
0.25478 0.781796 0.417197
0.251072 0.779492 0.394888
0.24686 0.776883 0.366506
0.246113 0.776226 0.359884
0.24564 0.775967 0.35787
0.248249 0.776562 0.361639
0.29221 0.777951 0.372091
0.335256 0.780087 0.376242
0.362463 0.781369 0.386618
0.389487 0.782483 0.394308
0.43093 0.784558 0.404517
0.486351 0.786862 0.40972
0.540688 0.791562 0.413123
0.57229 0.795438 0.392615
0.601404 0.798154 0.364935
0.641367 0.795911 0.359762
0.686564 0.790387 0.350423
0.719448 0.793362 0.330327
0.744411 0.796872 0.31252
0.761547 0.800259 0.301442
0.77232 0.79852 0.309438
0.782193 0.795621 0.303807
0.784726 0.795316 0.301534
0.784741 0.795316 0.301335
0.784772 0.795331 0.30106
0.784787 0.795346 0.300801
0.784802 0.795361 0.300649
0.784802 0.795361 0.300633
0.784802 0.795346 0.30074
0.261967 0.788525 0.465385
0.25832 0.785687 0.442588
0.256229 0.783368 0.428443
0.256336 0.78349 0.429221
0.255482 0.782467 0.422721
0.252277 0.780438 0.402609
0.248249 0.777829 0.378439
0.246036 0.776257 0.359701
0.245502 0.775952 0.357519
0.246998 0.776455 0.360311
0.286351 0.777646 0.370901
0.330571 0.780163 0.376242
0.360128 0.781521 0.386099
0.385977 0.782422 0.393332
0.424842 0.784253 0.402533
0.47776 0.786328 0.408255
0.536171 0.791074 0.414496
0.568719 0.79527 0.397818
0.59646 0.798077 0.368643
0.634775 0.797345 0.35993
0.679728 0.790616 0.351827
0.714809 0.792676 0.332525
0.73991 0.79617 0.315953
0.758923 0.799802 0.300343
0.771099 0.799832 0.308156
0.780743 0.795819 0.305898
0.78471 0.795316 0.301488
0.784726 0.795316 0.30132
0.784772 0.795331 0.301045
0.784787 0.795346 0.300832
0.784802 0.795361 0.30074
0.784787 0.795346 0.300801
0.784772 0.795331 0.301045
