bundles/resolve-cinematic-luts/Gamut/_Conversion/Sony/Sony A7IV BaseLUTs/BaseLUTs - Sony A7IV - S-Log3 to Rec709 (Bold).cube
TITLE "BaseLUT - Sony A7IV - S-Log3 to Rec709 (Bold)"
# Developed for converting Sony S-Log3 / S-Gamut3.Cine to Rec.709. Version 1.0 - 05/01/2025 - Copyright 2025 Gamut, LLC.
LUT_3D_SIZE 5
0.0000000000 0.0000000000 0.0000000000
0.0324290456 0.0000000000 0.0000000000
0.6166116194 0.0090751603 0.0082860377
0.9727392159 0.0689632382 0.1248989993
1.0000000000 0.4537908396 0.5996981358
0.0000000000 0.0679733195 0.0000000000
0.0885645483 0.1391594935 0.0000000000
0.6509232292 0.0144021133 0.0084834434
0.9747147494 0.0724788536 0.1185821919
1.0000000000 0.4546395032 0.5991505137
0.0000000000 0.5513155149 0.0000000000
0.0000000000 0.5669463267 0.0000000000
0.5138010536 0.5846388021 0.0000000000
0.9798474368 0.2561800189 0.1072308551
1.0000000000 0.4641369741 0.5954568079
0.4570729396 0.8825371490 0.1508047662
0.4597439918 0.8834454739 0.1520055841
0.4841147412 0.8911543790 0.1636395186
0.8752489994 0.9147558341 0.2573593026
1.0000000000 0.7070246024 0.5625918563
0.9600295466 0.9969254085 0.6894563576
0.9601426208 0.9969254085 0.6895338453
0.9609506510 0.9969917329 0.6909411144
0.9687990516 0.9976204930 0.7043886926
1.0000000000 1.0000000000 0.7427150502
0.0021697119 0.0021697119 0.0927654589
0.1125659039 0.0000000000 0.1273852541
0.6266457990 0.0069051982 0.0890374544
0.9738953392 0.0674930565 0.1774998026
1.0000000000 0.4530140587 0.6061947888
0.0000000000 0.1539997869 0.1336794017
0.1612269241 0.1612242320 0.1612263388
0.6671562562 0.0098642829 0.0674189395
0.9758398761 0.0709312908 0.1702914212
1.0000000000 0.4539943000 0.6056798345
0.0000000000 0.5780190408 0.0000000000
0.0000000000 0.5921651175 0.0000000000
0.5375542968 0.5977612814 0.0000000000
0.9812838801 0.2343762165 0.1269410292
1.0000000000 0.4635437553 0.6017656834
0.4624766721 0.8842651878 0.1533807830
0.4659950454 0.8853280203 0.1549351373
0.4893149177 0.8928292755 0.1664241702
0.8767595323 0.9156960325 0.2587889432
1.0000000000 0.7063585446 0.5691321931
0.9602424363 0.9969254085 0.6896825677
0.9603199872 0.9969254085 0.6899012173
0.9611132578 0.9969983653 0.6913803962
0.9689321390 0.9976204930 0.7045810677
1.0000000000 1.0000000000 0.7427150502
0.0185456325 0.0542305617 0.6018746592
0.0986490174 0.0399245495 0.6036756275
0.5693859351 0.0138103964 0.5929785437
0.9731439216 0.0725879252 0.5022318656
1.0000000000 0.4507105787 0.6524265588
0.0177565099 0.0632304179 0.6263843298
0.0847792915 0.0476248190 0.6304527340
0.5884643951 0.0159808589 0.6080713170
0.9752021960 0.0744792516 0.5002726622
1.0000000000 0.4517525048 0.6520170616
0.0000000000 0.5919038131 0.5593537214
0.0000000000 0.5978818064 0.5687673117
0.5812391025 0.5812345979 0.5812355804
0.9859493067 0.1438161305 0.4547009402
1.0000000000 0.4590370332 0.6481810468
0.5005143662 0.8964888561 0.1842881362
0.5032027407 0.8974592567 0.1855107153
0.5243011680 0.9046118575 0.1949691582
0.8889967615 0.9229428651 0.2729882058
1.0000000000 0.7012217807 0.6183712076
0.9616716242 0.9970580572 0.6926967270
0.9617571803 0.9970580572 0.6928936464
0.9626467641 0.9971111181 0.6945336319
0.9704033648 0.9977599501 0.7074669474
1.0000000000 1.0000000000 0.7443699753
0.1925665233 0.3183086814 0.9451994990
0.2329613695 0.3185829737 0.9438881689
0.4772715146 0.2919256890 0.9424234187
0.9069198857 0.2514797875 0.9455957380
1.0000000000 0.4918862234 0.9055607586
0.1875152642 0.3212374067 0.9473654717
0.2277654627 0.3210528644 0.9459567335
0.4765797041 0.2953256890 0.9440932004
0.9079383645 0.2528325003 0.9464252220
1.0000000000 0.4923853840 0.9055144099
0.1086907431 0.3558446138 0.9626903641
0.1433919142 0.3510445437 0.9620051827
0.4658532757 0.3273358713 0.9564145250
0.9166188657 0.2644228612 0.9538480336
1.0000000000 0.4965583594 0.9049335562
0.5840103213 0.9063702543 0.8840216525
0.5852393171 0.9067683866 0.8846625226
0.5936250223 0.9099674761 0.8899599145
0.9109595783 0.9109581556 0.9109609627
1.0000000000 0.6318221880 0.8861673268
0.9748622332 0.9980445213 0.7269414361
0.9749589726 0.9980445213 0.7271345868
0.9757501359 0.9981571692 0.7283520592
0.9817500328 0.9987962518 0.7376405603
1.0000000000 1.0000000000 0.7552943303
0.7049640658 0.7578922031 1.0000000000
0.7084353281 0.7584191693 1.0000000000
0.7346401454 0.7625534453 1.0000000000
0.8698487617 0.7473022065 1.0000000000
1.0000000000 0.7550840344 1.0000000000
0.7046803236 0.7580451773 1.0000000000
0.7082055612 0.7585438334 1.0000000000
0.7342088514 0.7627436697 1.0000000000
0.8698084051 0.7476560562 1.0000000000
1.0000000000 0.7552293102 1.0000000000
0.7010788271 0.7594437983 1.0000000000
0.7048486872 0.7599697712 1.0000000000
0.7310056847 0.7640737503 1.0000000000
0.8691482516 0.7503438132 1.0000000000
1.0000000000 0.7563743815 1.0000000000
0.6324851870 0.7713315801 1.0000000000
0.6361199338 0.7716596303 1.0000000000
0.6670703933 0.7748614426 1.0000000000
0.8667390648 0.7746100020 1.0000000000
1.0000000000 0.7681109275 1.0000000000
0.9865264764 1.0000000000 1.0000000000
0.9865264764 1.0000000000 1.0000000000
0.9867703300 1.0000000000 1.0000000000
0.9891288207 1.0000000000 1.0000000000
1.0000000000 1.0000000000 1.0000000000
