bundles/resolve-cinematic-luts/Gamut/_Conversion/Sony/Sony A7IV BaseLUTs/BaseLUTs - Sony A7IV - S-Log3 to Rec709 (Bold).cube
TITLE "BaseLUT - Sony A7IV - S-Log3 to Rec709 (Bold)"
# Developed for converting Sony S-Log3 / S-Gamut3.Cine to Rec.709. Version 1.0 - 05/01/2025 - Copyright 2025 Gamut, LLC.
LUT_3D_SIZE 33
0.0000000000 0.0000000000 0.0000000000
0.0000000000 0.0000000000 0.0000000000
0.0000000000 0.0000000000 0.0000000000
0.0000000000 0.0000000000 0.0000000000
0.0000000000 0.0000000000 0.0000000000
0.0000000000 0.0000000000 0.0000000000
0.0000000000 0.0000000000 0.0000000000
0.0044884164 0.0002590465 0.0002590465
0.0324290456 0.0000000000 0.0000000000
0.1017618338 0.0000000000 0.0000000000
0.1848795193 0.0013314880 0.0013314880
0.2681486516 0.0023668675 0.0023668675
0.3451394577 0.0036493794 0.0036493794
0.4140573205 0.0052035744 0.0044139514
0.4831655816 0.0059679587 0.0059679587
0.5501764147 0.0075215595 0.0071026040
0.6166116194 0.0090751603 0.0082860377
0.6803358966 0.0106292302 0.0102097430
0.7363426600 0.0129719849 0.0125278220
0.7849987699 0.0156353988 0.0170657774
0.8263398445 0.0193350053 0.0246625400
0.8642543339 0.0258095424 0.0380875653
0.9017586316 0.0349507728 0.0580258308
0.9375766006 0.0490734041 0.0872320190
0.9727392159 0.0689632382 0.1248989993
0.9958530662 0.0964161438 0.1695663430
1.0000000000 0.1316904071 0.2166557637
1.0000000000 0.1734489222 0.2691698892
1.0000000000 0.2193766362 0.3299680883
1.0000000000 0.2706861774 0.3947337127
1.0000000000 0.3267766353 0.4623705211
1.0000000000 0.3876527446 0.5325802893
1.0000000000 0.4537908396 0.5996981358
0.0000000000 0.0000000000 0.0000000000
0.0000000000 0.0000000000 0.0000000000
0.0000000000 0.0000000000 0.0000000000
0.0000000000 0.0000000000 0.0000000000
0.0000000000 0.0000000000 0.0000000000
0.0000000000 0.0000000000 0.0000000000
0.0000000000 0.0000000000 0.0000000000
0.0106538434 0.0000000000 0.0000000000
0.0575894989 0.0000000000 0.0000000000
0.1303585857 0.0000000000 0.0000000000
0.2085175949 0.0015535695 0.0015535695
0.2852499812 0.0028850576 0.0028850576
0.3563753918 0.0039204682 0.0036493794
0.4225125884 0.0052035744 0.0047347357
0.4891666725 0.0062883365 0.0059679587
0.5546577696 0.0075215595 0.0071026040
0.6198619655 0.0090751603 0.0082860377
0.6827443377 0.0113936756 0.0102097430
0.7381721204 0.0129719849 0.0125278220
0.7858808349 0.0156353988 0.0167453996
0.8269295676 0.0198278942 0.0241690837
0.8646116888 0.0258095424 0.0372989313
0.9020321909 0.0349507728 0.0574171491
0.9378125184 0.0490734041 0.0866742575
0.9729241957 0.0689632382 0.1242653329
0.9959160811 0.0967383159 0.1691024749
1.0000000000 0.1319823043 0.2163036955
1.0000000000 0.1736716575 0.2689187903
1.0000000000 0.2197030796 0.3298734833
1.0000000000 0.2708321465 0.3945664933
1.0000000000 0.3268942431 0.4622327351
1.0000000000 0.3877426123 0.5324642871
1.0000000000 0.4538621626 0.5996965148
0.0000000000 0.0000000000 0.0000000000
0.0000000000 0.0000000000 0.0000000000
0.0000000000 0.0000000000 0.0000000000
0.0000000000 0.0000000000 0.0000000000
0.0000000000 0.0000000000 0.0000000000
0.0000000000 0.0000000000 0.0000000000
0.0003896474 0.0000000000 0.0000000000
0.0201982802 0.0000000000 0.0000000000
0.0786089392 0.0000000000 0.0000000000
0.1501833316 0.0006189366 0.0006189366
0.2263501829 0.0021204230 0.0021204230
0.2999699095 0.0028850576 0.0028850576
0.3681281028 0.0039451127 0.0039451127
0.4316222595 0.0052035744 0.0052035744
0.4958676280 0.0067571439 0.0059679587
0.5596212393 0.0078419373 0.0075215595
0.6232051272 0.0094699718 0.0082860377
0.6854464125 0.0114183495 0.0102097430
0.7397631703 0.0129719849 0.0125278220
0.7867278041 0.0156353988 0.0163259124
0.8275373933 0.0198278942 0.0238729608
0.8651002958 0.0258095424 0.0364965987
0.9023906654 0.0354353420 0.0566256773
0.9379261210 0.0495258709 0.0859155479
0.9731436716 0.0694940533 0.1237002066
0.9959907040 0.0971365020 0.1686368818
1.0000000000 0.1322917385 0.2159498827
1.0000000000 0.1741036160 0.2687699240
1.0000000000 0.2198930297 0.3297478438
1.0000000000 0.2709751443 0.3944884408
1.0000000000 0.3270064307 0.4621587670
1.0000000000 0.3879233177 0.5324642871
1.0000000000 0.4538644634 0.5995933993
0.0000000000 0.0000000000 0.0000000000
0.0000000000 0.0000000000 0.0000000000
0.0000000000 0.0000000000 0.0000000000
0.0000000000 0.0000000000 0.0000000000
0.0000000000 0.0000000000 0.0000000000
0.0000000000 0.0000000000 0.0000000000
0.0044885415 0.0000000000 0.0000000000
0.0412938044 0.0000000000 0.0000000000
0.1021412067 0.0001284456 0.0001284456
0.1711686097 0.0013561638 0.0013561638
0.2415010981 0.0021204230 0.0021204230
0.3111992543 0.0030824633 0.0028850576
0.3761582469 0.0044386271 0.0039451127
0.4390891061 0.0052035744 0.0052035744
0.5019846569 0.0067571439 0.0059679587
0.5641664203 0.0083107134 0.0075215595
0.6268854312 0.0098642829 0.0082860377
0.6878646868 0.0114183495 0.0102097430
0.7413039325 0.0133174450 0.0125278220
0.7878108211 0.0156353988 0.0159557766
0.8281855381 0.0198278942 0.0230837130
0.8656303493 0.0258095424 0.0357669564
0.9028081225 0.0357227013 0.0559432394
0.9382037096 0.0497409300 0.0853645128
0.9733155278 0.0698507926 0.1230607397
0.9960537189 0.0974179591 0.1681693444
1.0000000000 0.1325626538 0.2157590519
1.0000000000 0.1741178069 0.2684840523
1.0000000000 0.2201814957 0.3295267234
1.0000000000 0.2712245772 0.3943868443
1.0000000000 0.3272289150 0.4620888963
1.0000000000 0.3880047056 0.5323996992
1.0000000000 0.4540127059 0.5995415298
0.0000000000 0.0000000000 0.0000000000
0.0000000000 0.0000000000 0.0000000000
0.0000000000 0.0000000000 0.0000000000
0.0000000000 0.0000000000 0.0000000000
0.0000000000 0.0000000000 0.0000000000
0.0013316444 0.0005202482 0.0000000000
0.0148462137 0.0033040444 0.0000000000
0.0596399112 0.0022189695 0.0000000000
0.1229490325 0.0013809646 0.0001284456
0.1897644766 0.0014795424 0.0013561638
0.2560378066 0.0022682897 0.0021204230
0.3232231849 0.0036740238 0.0031564905
0.3843701925 0.0044386271 0.0044386271
0.4455613816 0.0055243587 0.0052035744
0.5081495447 0.0067571439 0.0062144032
0.5688932135 0.0083107134 0.0075215595
0.6307289346 0.0098642829 0.0082860377
0.6903505378 0.0117812726 0.0102097430
0.7431034342 0.0137610450 0.0125278220
0.7889618498 0.0164246153 0.0159557766
0.8287549435 0.0198278942 0.0226894019
0.8661493172 0.0265858369 0.0354177620
0.9031510125 0.0357227013 0.0552971674
0.9383944530 0.0499115079 0.0845804618
0.9734358896 0.0700206057 0.1226304674
0.9960827389 0.0978784006 0.1677010856
1.0000000000 0.1325914959 0.2153919066
1.0000000000 0.1745311321 0.2682276300
1.0000000000 0.2202344511 0.3293320073
1.0000000000 0.2713601311 0.3942203449
1.0000000000 0.3273206819 0.4619461439
1.0000000000 0.3881686390 0.5323388886
1.0000000000 0.4540771267 0.5994961440
0.0000000000 0.0000000000 0.0000000000
0.0000000000 0.0000000000 0.0000000000
0.0000000000 0.0000000000 0.0000000000
0.0013316444 0.0013316444 0.0013316444
0.0005202482 0.0033286888 0.0005202482
0.0019970444 0.0102343562 0.0000000000
0.0230099048 0.0176579634 0.0000000000
0.0650528642 0.0245385191 0.0041181242
0.1262038748 0.0178548687 0.0030578501
0.1976691716 0.0064117464 0.0014548666
0.2670881073 0.0038218905 0.0022436452
0.3328575003 0.0038218905 0.0031564905
0.3916517425 0.0046113571 0.0044386271
0.4519069059 0.0059926032 0.0052035744
0.5138698685 0.0069792254 0.0063129809
0.5742760584 0.0083107134 0.0075215595
0.6347259021 0.0102590944 0.0086808492
0.6930938407 0.0121952272 0.0102097430
0.7448252385 0.0141060672 0.0125278220
0.7901869094 0.0164246153 0.0159557766
0.8295240774 0.0204941386 0.0222947155
0.8667220315 0.0265858369 0.0346050152
0.9035425059 0.0361351077 0.0544635034
0.9386228675 0.0504020969 0.0840228254
0.9736377424 0.0705449016 0.1220285941
0.9961710647 0.0979293256 0.1672317292
1.0000000000 0.1331404355 0.2150388415
1.0000000000 0.1747485612 0.2679290881
1.0000000000 0.2205574165 0.3291143907
1.0000000000 0.2716095954 0.3941198755
1.0000000000 0.3275635868 0.4619484408
1.0000000000 0.3882696463 0.5322763610
1.0000000000 0.4542105699 0.5994458955
0.0000000000 0.0033532707 0.0000000000
0.0000000000 0.0068307645 0.0000000000
0.0000000000 0.0109004755 0.0000000000
0.0000000000 0.0164984548 0.0000000000
0.0000000000 0.0265611472 0.0000000000
0.0000000000 0.0377088051 0.0000000000
0.0206665559 0.0465281319 0.0000000000
0.0644699260 0.0510635885 0.0000000000
0.1215843378 0.0521448246 0.0065106369
0.1913441238 0.0431534299 0.0090256838
0.2683220472 0.0210118909 0.0039451752
0.3386165324 0.0094942097 0.0031564905
0.3994938763 0.0069545496 0.0044386271
0.4592639658 0.0069545496 0.0052035744
0.5197576847 0.0075462040 0.0063129809
0.5796150444 0.0090998047 0.0075215595
0.6397284832 0.0106539059 0.0086808492
0.6968887696 0.0125771421 0.0098396072
0.7470502979 0.0148956902 0.0121690652
0.7916787116 0.0172142383 0.0153150211
0.8305339237 0.0206175172 0.0215050925
0.8674255310 0.0268523499 0.0334043717
0.9041568230 0.0364916166 0.0534580615
0.9390492806 0.0509292702 0.0831063930
0.9739020885 0.0709648899 0.1213801286
0.9962684251 0.0983996658 0.1667605538
1.0000000000 0.1336680174 0.2145308937
1.0000000000 0.1751424511 0.2676753742
1.0000000000 0.2209008119 0.3288841351
1.0000000000 0.2717763323 0.3938781415
1.0000000000 0.3276811316 0.4617342036
1.0000000000 0.3884644014 0.5321185905
1.0000000000 0.4542942050 0.5993849239
0.0000000000 0.0257371953 0.0000000000
0.0000000000 0.0329142604 0.0000000000
0.0000000000 0.0413547988 0.0000000000
0.0000000000 0.0519536595 0.0000000000
0.0000000000 0.0636563225 0.0000000000
0.0000000000 0.0765708873 0.0000000000
0.0049570048 0.0866561646 0.0000000000
0.0507362279 0.0900473454 0.0000000000
0.1126620954 0.0894923066 0.0000000000
0.1817423443 0.0863392219 0.0073980245
0.2572801840 0.0763649990 0.0157098638
0.3352534790 0.0471945156 0.0097904434
0.4015620017 0.0235028875 0.0054254995
0.4654656916 0.0126761577 0.0052035744
0.5264151603 0.0100865833 0.0063129809
0.5853874786 0.0105058516 0.0075215595
0.6451191662 0.0118295922 0.0086808492
0.7015526284 0.0136132096 0.0098396072
0.7504890288 0.0156847503 0.0121690652
0.7937537571 0.0180028605 0.0151671544
0.8318442017 0.0214067649 0.0205924662
0.8682027684 0.0273617932 0.0323319476
0.9047327589 0.0370877965 0.0521399014
0.9395278752 0.0515426741 0.0820793748
0.9742521751 0.0714665251 0.1201366040
0.9963000446 0.0990952775 0.1658606978
1.0000000000 0.1340123690 0.2138516468
1.0000000000 0.1756011254 0.2670469108
1.0000000000 0.2212637602 0.3285557706
1.0000000000 0.2721959739 0.3936948920
1.0000000000 0.3279913176 0.4615435257
1.0000000000 0.3886945466 0.5319875105
1.0000000000 0.4544232332 0.5992811849
0.0000000000 0.0679733195 0.0000000000
0.0000000000 0.0771640111 0.0000000000
0.0000000000 0.0864287453 0.0000000000
0.0000000000 0.0974129786 0.0000000000
0.0000000000 0.1087423141 0.0000000000
0.0000000000 0.1203369184 0.0000000000
0.0000000000 0.1339811782 0.0000000000
0.0225878843 0.1396584890 0.0000000000
0.0885645483 0.1391594935 0.0000000000
0.1656363505 0.1336380792 0.0000000000
0.2433779235 0.1249887040 0.0068558468
0.3222855917 0.1151398647 0.0222946217
0.3956611904 0.0833962385 0.0176580572
0.4649388740 0.0484277021 0.0107525463
0.5313539048 0.0240207649 0.0070530649
0.5914745935 0.0155123017 0.0075215595
0.6509232292 0.0144021133 0.0084834434
0.7060760396 0.0155369462 0.0098396072
0.7546191523 0.0173125971 0.0117329529
0.7964501389 0.0201733230 0.0148463700
0.8337755339 0.0230833378 0.0201240028
0.8694234297 0.0281374420 0.0307227446
0.9055061192 0.0378252199 0.0501552353
0.9401737423 0.0521781213 0.0803245925
0.9747147494 0.0724788536 0.1185821919
0.9964435522 0.0998612067 0.1646812540
1.0000000000 0.1349368196 0.2128947825
1.0000000000 0.1762476131 0.2664721476
1.0000000000 0.2218906707 0.3280732350
1.0000000000 0.2726950901 0.3933054438
1.0000000000 0.3284744489 0.4613772450
1.0000000000 0.3890718219 0.5318678246
1.0000000000 0.4546395032 0.5991505137
0.0000000000 0.1229221248 0.0000000000
0.0000000000 0.1317669436 0.0000000000
0.0000000000 0.1403913521 0.0000000000
0.0000000000 0.1498642296 0.0000000000
0.0000000000 0.1591120856 0.0000000000
0.0000000000 0.1684385806 0.0000000000
0.0000000000 0.1809430094 0.0000000000
0.0000000000 0.1931170052 0.0000000000
0.0492646280 0.1943052237 0.0000000000
0.1332335604 0.1912447492 0.0000000000
0.2216886600 0.1818008181 0.0000000000
0.3063671826 0.1684597744 0.0048826962
0.3824084445 0.1576049143 0.0250118159
0.4571024855 0.1264942557 0.0266365992
0.5284455544 0.0836086507 0.0183482580
0.5948213655 0.0440189138 0.0103330278
0.6561015052 0.0250807779 0.0084587677
0.7110910480 0.0203953732 0.0098396072
0.7585656823 0.0209873090 0.0113937069
0.7998340817 0.0230833378 0.0140567470
0.8362004437 0.0259556818 0.0190635724
0.8710945524 0.0305377502 0.0288331692
0.9065985694 0.0393276810 0.0479789329
0.9410208325 0.0535783801 0.0774681592
0.9752859993 0.0738376725 0.1162771653
0.9965431814 0.1008855988 0.1628206067
1.0000000000 0.1361473739 0.2116888661
1.0000000000 0.1772661799 0.2656718748
1.0000000000 0.2228503544 0.3275156786
1.0000000000 0.2731955198 0.3928430777
1.0000000000 0.3288662229 0.4609901157
1.0000000000 0.3894675903 0.5315837191
1.0000000000 0.4549303918 0.5990198425
0.0000000000 0.1831000893 0.0000000000
0.0000000000 0.1906158326 0.0000000000
0.0000000000 0.1980581746 0.0000000000
0.0000000000 0.2060737790 0.0000000000
0.0000000000 0.2131661886 0.0000000000
0.0000000000 0.2209271016 0.0000000000
0.0000000000 0.2309525634 0.0000000000
0.0000000000 0.2435800414 0.0000000000
0.0046851966 0.2539726045 0.0000000000
0.0830091867 0.2524115189 0.0000000000
0.1827063747 0.2467515680 0.0000000000
0.2802694442 0.2341416128 0.0000000000
0.3653699836 0.2163782946 0.0024163440
0.4428080319 0.2015448077 0.0230590373
0.5192195350 0.1731430159 0.0342982798
0.5896987284 0.1273512828 0.0277602268
0.6570445206 0.0752337261 0.0171643552
0.7148536878 0.0415484662 0.0116841430
0.7624368447 0.0305382422 0.0113937069
0.8033309354 0.0292287371 0.0132681248
0.8393523644 0.0313137372 0.0180032045
0.8735096557 0.0351686445 0.0269428811
0.9081644492 0.0416103879 0.0440987346
0.9420517209 0.0554067694 0.0740464102
0.9758709977 0.0754179568 0.1132534954
0.9966879299 0.1028586858 0.1603315828
1.0000000000 0.1375976214 0.2099036663
1.0000000000 0.1785500855 0.2646138100
1.0000000000 0.2237780768 0.3267465749
1.0000000000 0.2741384233 0.3921444567
1.0000000000 0.3295338018 0.4605160747
1.0000000000 0.3899975656 0.5312411441
1.0000000000 0.4553445257 0.5988074395
0.0000000000 0.2469687576 0.0000000000
0.0000000000 0.2528631553 0.0000000000
0.0000000000 0.2591177741 0.0000000000
0.0000000000 0.2652849452 0.0000000000
0.0000000000 0.2708571054 0.0000000000
0.0000000000 0.2774643733 0.0000000000
0.0000000000 0.2852443134 0.0000000000
0.0000000000 0.2954899910 0.0000000000
0.0000000000 0.3073359226 0.0000000000
0.0189173008 0.3145241795 0.0000000000
0.1237899566 0.3109540829 0.0000000000
0.2361577197 0.3035631437 0.0000000000
0.3380269706 0.2887919285 0.0000000000
0.4236817329 0.2681386459 0.0017506938
0.5046150557 0.2489092190 0.0191622440
0.5800065770 0.2226887934 0.0391449164
0.6506634846 0.1766679721 0.0379575501
0.7133066142 0.1169786059 0.0264323356
0.7646675800 0.0688210690 0.0174853272
0.8063186492 0.0476919574 0.0149694984
0.8423429596 0.0424825394 0.0171892185
0.8765583115 0.0437879884 0.0245388408
0.9104701999 0.0483595450 0.0405516456
0.9436540952 0.0591365444 0.0687860962
0.9767542759 0.0782523136 0.1088589731
0.9968742154 0.1050632685 0.1569760439
1.0000000000 0.1397401906 0.2077908190
1.0000000000 0.1801789532 0.2632034408
1.0000000000 0.2251424776 0.3257043868
1.0000000000 0.2752432471 0.3913300563
1.0000000000 0.3303650296 0.4597549770
1.0000000000 0.3907641947 0.5307822860
1.0000000000 0.4558519952 0.5984991215
0.0000000000 0.3113347661 0.0000000000
0.0000000000 0.3163949698 0.0000000000
0.0000000000 0.3209588916 0.0000000000
0.0000000000 0.3249157086 0.0000000000
0.0000000000 0.3289023372 0.0000000000
0.0000000000 0.3336667154 0.0000000000
0.0000000000 0.3393330967 0.0000000000
0.0000000000 0.3464461482 0.0000000000
0.0000000000 0.3555805507 0.0000000000
0.0000000000 0.3664316167 0.0000000000
0.0428407069 0.3709587869 0.0000000000
0.1703961944 0.3665538340 0.0000000000
0.2924684016 0.3577363305 0.0000000000
0.3938749289 0.3419172064 0.0000000000
0.4834696984 0.3198307765 0.0006839503
0.5652425299 0.2979402451 0.0154874383
0.6406496673 0.2723087583 0.0391894359
0.7062294239 0.2293999045 0.0468580478
0.7611341906 0.1666931933 0.0378671035
0.8062530149 0.1082554322 0.0266367611
0.8441236280 0.0751412033 0.0220969345
0.8791348141 0.0639727017 0.0254637840
0.9130311441 0.0623007946 0.0375672680
0.9458227894 0.0674373672 0.0626137678
0.9780362603 0.0831649295 0.1025826356
0.9971872876 0.1087475659 0.1524494206
1.0000000000 0.1427094220 0.2048988190
1.0000000000 0.1823335010 0.2614270698
1.0000000000 0.2269411755 0.3241079585
1.0000000000 0.2767826628 0.3900585184
1.0000000000 0.3314818945 0.4588836876
1.0000000000 0.3918103461 0.5301907558
1.0000000000 0.4566435133 0.5981055181
0.0000000000 0.3711939358 0.0000000000
0.0000000000 0.3747060359 0.0000000000
0.0000000000 0.3782443679 0.0000000000
0.0000000000 0.3813486390 0.0000000000
0.0000000000 0.3843906603 0.0000000000
0.0000000000 0.3875649734 0.0000000000
0.0000000000 0.3919858260 0.0000000000
0.0000000000 0.3979122128 0.0000000000
0.0000000000 0.4050058159 0.0000000000
0.0000000000 0.4143081609 0.0000000000
0.0020468337 0.4247656922 0.0000000000
0.0743380981 0.4282546777 0.0000000000
0.2210548553 0.4221669918 0.0000000000
0.3467384253 0.4122574248 0.0000000000
0.4511311037 0.3957467830 0.0000000000
0.5431099115 0.3717031592 0.0005864605
0.6253611236 0.3476135521 0.0132429174
0.6967465890 0.3211903887 0.0365460857
0.7537587920 0.2827697731 0.0520872372
0.8011513347 0.2219579774 0.0493089332
0.8423410960 0.1569205679 0.0396791502
0.8797151624 0.1134290412 0.0347324573
0.9146541863 0.0942874109 0.0399176981
0.9481933725 0.0875021544 0.0577669474
0.9797153888 0.0940383889 0.0941761939
0.9975715586 0.1150793444 0.1453210253
1.0000000000 0.1469997346 0.2005231042
1.0000000000 0.1855437161 0.2585706870
1.0000000000 0.2295422575 0.3218036820
1.0000000000 0.2787506967 0.3883151592
1.0000000000 0.3332358018 0.4576144981
1.0000000000 0.3933190408 0.5293745259
1.0000000000 0.4577118669 0.5975784381
0.0000000000 0.4312057978 0.0000000000
0.0000000000 0.4335696884 0.0000000000
0.0000000000 0.4360813558 0.0000000000
0.0000000000 0.4385533995 0.0000000000
0.0000000000 0.4412354889 0.0000000000
0.0000000000 0.4439449614 0.0000000000
0.0000000000 0.4471291910 0.0000000000
0.0000000000 0.4514971222 0.0000000000
0.0000000000 0.4574106560 0.0000000000
0.0000000000 0.4646603312 0.0000000000
0.0000000000 0.4738028102 0.0000000000
0.0093960072 0.4835914909 0.0000000000
0.1132369735 0.4857273057 0.0000000000
0.2722379173 0.4792185044 0.0000000000
0.4007802020 0.4692097516 0.0000000000
0.5093613498 0.4512246706 0.0000000000
0.6020399892 0.4256078742 0.0005864605
0.6820679815 0.3987392335 0.0099135718
0.7451336364 0.3706596373 0.0308759018
0.7943467958 0.3344405574 0.0522130280
0.8364981219 0.2784541608 0.0598381744
0.8766185526 0.2109764668 0.0549721466
0.9141200772 0.1585237234 0.0521951274
0.9494610345 0.1302652751 0.0617880428
0.9813571053 0.1194073106 0.0881669610
0.9980667540 0.1285918066 0.1354754587
1.0000000000 0.1547758620 0.1937335174
1.0000000000 0.1905984839 0.2543091166
1.0000000000 0.2332523654 0.3186470844
1.0000000000 0.2816042409 0.3861711455
1.0000000000 0.3357314659 0.4561630425
1.0000000000 0.3952128962 0.5282862714
1.0000000000 0.4593463278 0.5969532301
0.0000000000 0.4912433651 0.0000000000
0.0000000000 0.4930451352 0.0000000000
0.0000000000 0.4947730108 0.0000000000
0.0000000000 0.4966196540 0.0000000000
0.0000000000 0.4984479673 0.0000000000
0.0000000000 0.5006619186 0.0000000000
0.0000000000 0.5032939843 0.0000000000
0.0000000000 0.5069336353 0.0000000000
0.0000000000 0.5114006665 0.0000000000
0.0000000000 0.5171321762 0.0000000000
0.0000000000 0.5245984211 0.0000000000
0.0000000000 0.5339994442 0.0000000000
0.0213615418 0.5431326144 0.0000000000
0.1552645096 0.5442239059 0.0000000000
0.3228752800 0.5374583980 0.0000000000
0.4565044977 0.5263859723 0.0000000000
0.5672114295 0.5074481436 0.0000000000
0.6594640188 0.4811499930 0.0000000000
0.7316705732 0.4523927334 0.0062638797
0.7865877636 0.4215841755 0.0242429663
0.8301254153 0.3850257592 0.0490071694
0.8706077203 0.3333955745 0.0685374361
0.9101025064 0.2665323915 0.0735425563
0.9482585715 0.2071785125 0.0765333236
0.9817577715 0.1710416223 0.0920899693
0.9983558035 0.1577616887 0.1279656812
1.0000000000 0.1699382495 0.1843254244
1.0000000000 0.1996552657 0.2479764432
1.0000000000 0.2390000456 0.3147394344
1.0000000000 0.2858938825 0.3836739602
1.0000000000 0.3390803884 0.4543854198
1.0000000000 0.3977335726 0.5270489247
1.0000000000 0.4613991199 0.5962322006
0.0000000000 0.5513155149 0.0000000000
0.0000000000 0.5529041284 0.0000000000
0.0000000000 0.5544810169 0.0000000000
0.0000000000 0.5559444994 0.0000000000
0.0000000000 0.5574312328 0.0000000000
0.0000000000 0.5589874669 0.0000000000
0.0000000000 0.5608253579 0.0000000000
0.0000000000 0.5634131688 0.0000000000
0.0000000000 0.5669463267 0.0000000000
0.0000000000 0.5714530602 0.0000000000
0.0000000000 0.5773090382 0.0000000000
0.0000000000 0.5846852180 0.0000000000
0.0001304345 0.5938602200 0.0000000000
0.0408265488 0.6022802525 0.0000000000
0.2010668507 0.6026779290 0.0000000000
0.3748749252 0.5957131366 0.0000000000
0.5138010536 0.5846388021 0.0000000000
0.6249177757 0.5657477404 0.0006109772
0.7108047988 0.5386381521 0.0000000000
0.7741685065 0.5080836461 0.0033288139
0.8223946420 0.4743731998 0.0178553379
0.8643680859 0.4367712218 0.0453749906
0.9041755118 0.3864120247 0.0760306263
0.9440730228 0.3205371169 0.0954458616
0.9798474368 0.2561800189 0.1072308551
0.9980033462 0.2137424939 0.1308414794
1.0000000000 0.2002602454 0.1762757000
1.0000000000 0.2161372065 0.2390292018
1.0000000000 0.2495515003 0.3088185270
1.0000000000 0.2925147719 0.3800933365
1.0000000000 0.3438733302 0.4521018472
1.0000000000 0.4012089681 0.5254447787
1.0000000000 0.4641369741 0.5954568079
0.0000000000 0.6106259224 0.0000000000
0.0000000000 0.6117569723 0.0000000000
0.0000000000 0.6128403963 0.0000000000
0.0000000000 0.6139570839 0.0000000000
0.0000000000 0.6150629219 0.0000000000
0.0000000000 0.6162698870 0.0000000000
0.0000000000 0.6177466589 0.0000000000
0.0000000000 0.6196977301 0.0000000000
0.0000000000 0.6223136967 0.0000000000
0.0000000000 0.6256550859 0.0000000000
0.0000000000 0.6299411255 0.0000000000
0.0000000000 0.6355413502 0.0000000000
0.0011834963 0.6425249887 0.0000000000
0.0077434221 0.6510453191 0.0000000000
0.0751256750 0.6581656416 0.0000000000
0.2498761350 0.6578416154 0.0000000000
0.4291436708 0.6515995957 0.0006026986
0.5706082719 0.6415229021 0.0061157003
0.6791787021 0.6232081721 0.0081385463
0.7553034485 0.5973685747 0.0051541604
0.8105099278 0.5666292262 0.0045621620
0.8562627978 0.5306031317 0.0159562145
0.8975892654 0.4898523237 0.0446269214
0.9381352194 0.4392491287 0.0868655696
0.9755727804 0.3720146900 0.1216707497
0.9968910196 0.3028446041 0.1456031069
1.0000000000 0.2582540636 0.1778194705
1.0000000000 0.2491098731 0.2305543298
1.0000000000 0.2690949046 0.2998470555
1.0000000000 0.3046078766 0.3741855410
1.0000000000 0.3513822556 0.4485822356
1.0000000000 0.4064966122 0.5231788200
1.0000000000 0.4676109030 0.5945780503
0.0076448443 0.6663340747 0.0000000000
0.0076448443 0.6670899930 0.0000000000
0.0079903044 0.6678212256 0.0000000000
0.0079903044 0.6685087053 0.0000000000
0.0087789266 0.6691796437 0.0000000000
0.0091243866 0.6698738473 0.0000000000
0.0099140097 0.6708357445 0.0000000000
0.0102590319 0.6723059752 0.0000000000
0.0110486473 0.6741869006 0.0000000000
0.0121689989 0.6765787166 0.0000000000
0.0133173824 0.6795381184 0.0000000000
0.0154871881 0.6834113715 0.0000000000
0.0185953592 0.6882632211 0.0000000000
0.0231084513 0.6943876093 0.0000000000
0.0393172801 0.7015288113 0.0000000000
0.1239379408 0.7070049627 0.0000000000
