bundles/resolve-cinematic-luts/Gamut/_Conversion/Sony/Sony A7IV BaseLUTs/BaseLUTs - Sony A7IV - S-Log3 to DWG.cube
TITLE "BaseLUT - Sony A7IV - S-Log3 to DWG"
# Developed for converting Sony S-Log3 / S-Gamut3.Cine to DaVinci Intermediate / DaVinci Wide Gamut. Version 1.0 - 05/01/2025 - Copyright 2025 Gamut, LLC.
LUT_3D_SIZE 5
0.0000000000 0.0000000000 0.0000000000
0.1549250000 0.0000000000 0.0000000000
0.4009610000 0.0000000000 0.0618449735
0.6388800000 0.0000000000 0.3304800000
0.8759750000 0.0000000000 0.5703519883
0.0000000000 0.1827730000 0.0000000000
0.1617760000 0.1771420000 0.0000000000
0.4041960000 0.1390860000 0.0768597000
0.6394140000 0.0000000000 0.3313650000
0.8760360000 0.0000000000 0.5704429840
0.1338220000 0.4256200000 0.0681621000
0.2250710000 0.4250710000 0.0693523000
0.4069580143 0.4205840000 0.0783856000
0.6420540000 0.3858090000 0.3409020000
0.8764930000 0.0000000000 0.5711759436
0.3877620000 0.6632330000 0.3351640000
0.4001370000 0.6631720000 0.3352710000
0.4666360321 0.6627150000 0.3360190000
0.6448000254 0.6582440000 0.3429160000
0.8791490000 0.6237890000 0.5804070000
0.6264130000 0.8969710000 0.5749140000
0.6277870000 0.8969710000 0.5749290000
0.6380250000 0.8969710000 0.5750060000
0.7041119405 0.8969710000 0.5757380000
0.8818950026 0.8953230000 0.5824670000
0.0000000000 0.0000000000 0.1728240000
0.1288620000 0.0000000000 0.1754790000
0.3983980000 0.0000000000 0.2126800000
0.6386050000 0.0000000000 0.3540250000
0.8759440000 0.0000000000 0.5730370000
0.0000000000 0.1845430000 0.1766080000
0.1790203756 0.1790203756 0.1790203756
0.4035710000 0.1387500000 0.2153660000
0.6391550000 0.0000000000 0.3547420000
0.8760050000 0.0000000000 0.5731290000
0.1536130000 0.4258030000 0.2160070000
0.2348820000 0.4252540000 0.2167090000
0.4087890000 0.4207680000 0.2190280000
0.6422520000 0.3873350000 0.3615010000
0.8764630000 0.0000000000 0.5738460000
0.3899440000 0.6632490000 0.3583580000
0.4020750000 0.6631880000 0.3584340000
0.4676890018 0.6627300000 0.3590450000
0.6449841025 0.6582590000 0.3646300000
0.8791790000 0.6239570000 0.5827420000
0.6266420000 0.8969710000 0.5775690000
0.6280160000 0.8969710000 0.5775690000
0.6382240000 0.8969710000 0.5776460000
0.7042338937 0.8969710000 0.5783780000
0.8819100029 0.8953230000 0.5849390000
0.0966659000 0.0000000000 0.4167240000
0.1935000000 0.0000000000 0.4169830000
0.3786070000 0.0000000000 0.4190890000
0.6364690000 0.0000000000 0.4543830000
0.8757310000 0.0000000000 0.5922790000
0.1385980000 0.1976650000 0.4170900000
0.2236060000 0.1904940000 0.4173500000
0.3844970000 0.0157168000 0.4194400000
0.6370180000 0.0000000000 0.4546580000
0.8757760000 0.0000000000 0.5923550000
0.2219420000 0.4272220000 0.4201110000
0.2737620000 0.4266730000 0.4203560000
0.4222480000 0.4222480000 0.4222480000
0.6413370000 0.3847560000 0.4568250000
0.8762490000 0.0000000000 0.5929500000
0.4042880000 0.6634010000 0.4575270000
0.4155790000 0.6633400000 0.4576940000
0.4756080000 0.6628820000 0.4581060000
0.6465250000 0.6584270000 0.4603340000
0.8793470000 0.6252380000 0.5996490000
0.6284580000 0.8969710000 0.5965360000
0.6298009877 0.8969710000 0.5965510000
0.6398570000 0.8969710000 0.5966130000
0.7051039957 0.8969710000 0.5972080000
0.8820780066 0.8953380000 0.6027310000
0.3572140000 0.1868010000 0.6544290000
0.3698940000 0.1749900000 0.6544590000
0.4376130211 0.0000000000 0.6546880000
0.6168920000 0.0000000000 0.6567640000
0.8735790000 0.0000000000 0.6918750000
0.3643700000 0.2674300000 0.6544750000
0.3762720000 0.2620890000 0.6545050000
0.4410320000 0.2060270000 0.6547190000
0.6175170000 0.0000000000 0.6568090000
0.8736400000 0.0000000000 0.6919050000
0.3912110000 0.4396890000 0.6547800000
0.4038910000 0.4392000000 0.6548100000
0.4647440000 0.4331120000 0.6550240000
0.6224150000 0.2786600000 0.6571150000
0.8741130000 0.0000000000 0.6921340000
0.4663310000 0.6648050000 0.6577710000
0.4727700000 0.6647440000 0.6578010000
0.5133590000 0.6643020000 0.6580000000
0.6598918739 0.6598918739 0.6598918739
0.8784160000 0.6226750000 0.6942860000
0.6426490000 0.8969710000 0.6950030000
0.6438850000 0.8969710000 0.6950180000
0.6532690000 0.8969710000 0.6951550000
0.7129930000 0.8969710000 0.6955670000
0.8836040000 0.8954910000 0.6977800000
0.5964290000 0.4347140000 0.8915080000
0.5978180000 0.4336460000 0.8915080000
0.6082860000 0.4246890000 0.8915390000
0.6753490086 0.2363160000 0.8917680000
0.8540170000 0.0000000000 0.8938430000
0.5971920000 0.4457160000 0.8915080000
0.5985810000 0.4447550000 0.8915240000
0.6089720000 0.4367280000 0.8915390000
0.6757150000 0.2934160000 0.8917680000
0.8540930000 0.0000000000 0.8938580000
0.6030980000 0.5069200000 0.8915540000
0.6044100000 0.5063860000 0.8915540000
0.6142670000 0.5019760000 0.8915690000
0.6785690000 0.4478980000 0.8917980000
0.8546270000 0.0000000000 0.8938890000
0.6297399952 0.6772110000 0.8918590000
0.6311439998 0.6771650000 0.8918590000
0.6416570000 0.6767530000 0.8918750000
0.7021740000 0.6706950000 0.8921030000
0.8595100000 0.5181350000 0.8941790000
0.7040969463 0.8969710000 0.8948500000
0.7047839675 0.8969710000 0.8948500000
0.7101700000 0.8969710000 0.8948810000
0.7506220000 0.8969710000 0.8950790000
0.8969271751 0.8969271751 0.8969271751
