bundles/resolve-cinematic-luts/Gamut/_Conversion/Sony/Sony A7IV BaseLUTs/BaseLUTs - Sony A7IV - S-Log3 to DWG.cube
TITLE "BaseLUT - Sony A7IV - S-Log3 to DWG"
# Developed for converting Sony S-Log3 / S-Gamut3.Cine to DaVinci Intermediate / DaVinci Wide Gamut. Version 1.0 - 05/01/2025 - Copyright 2025 Gamut, LLC.
LUT_3D_SIZE 65
0.0000000000 0.0000000000 0.0000000000
0.0000000000 0.0000000000 0.0000000000
0.0000000000 0.0000000000 0.0000000000
0.0000000000 0.0000000000 0.0000000000
0.0000000000 0.0000000000 0.0000000000
0.0000000000 0.0000000000 0.0000000000
0.0000000000 0.0000000000 0.0000000000
0.0000000000 0.0000000000 0.0000000000
0.0128939000 0.0000000000 0.0000000000
0.0320134000 0.0000000000 0.0000000000
0.0511482000 0.0000000000 0.0000000000
0.0695811000 0.0000000000 0.0000000000
0.0874342000 0.0000000000 0.0000000000
0.1048290000 0.0000000000 0.0000000000
0.1218280000 0.0000000000 0.0000000000
0.1385060000 0.0000000000 0.0000000000
0.1549250000 0.0000000000 0.0000000000
0.1711150000 0.0000000000 0.0000000000
0.1870910000 0.0000000000 0.0000000000
0.2029140000 0.0000000000 0.0000000000
0.2186010000 0.0000000000 0.0000000000
0.2341650000 0.0000000000 0.0000000000
0.2496380000 0.0000000000 0.0000000000
0.2650030000 0.0000000000 0.0000000000
0.2803080000 0.0000000000 0.0000000000
0.2955370000 0.0000000000 0.0000000000
0.3107190000 0.0000000000 0.0000000000
0.3258410000 0.0000000000 0.0000000000
0.3409320000 0.0000000000 0.0000000000
0.3559780000 0.0000000000 0.0000000000
0.3709930000 0.0000000000 0.0183719000
0.3859920000 0.0000000000 0.0406348000
0.4009610000 0.0000000000 0.0618449735
0.4159000000 0.0000000000 0.0819257000
0.4308380000 0.0000000000 0.1011060000
0.4457470000 0.0000000000 0.1195700000
0.4606550000 0.0000000000 0.1374690000
0.4755320000 0.0000000000 0.1548790000
0.4904250000 0.0000000000 0.1719080000
0.5052870000 0.0000000000 0.1886020000
0.5201500000 0.0000000000 0.2050350000
0.5350120000 0.0000000000 0.2212250000
0.5498590000 0.0000000000 0.2372320000
0.5647060000 0.0000000000 0.2530710000
0.5795380000 0.0000000000 0.2687570000
0.5943850000 0.0000000000 0.2843370000
0.6092160000 0.0000000000 0.2997940000
0.6240480000 0.0000000000 0.3151750000
0.6388800000 0.0000000000 0.3304800000
0.6537120000 0.0000000000 0.3457240000
0.6685280000 0.0000000000 0.3608910000
0.6833600000 0.0000000000 0.3760280000
0.6981770000 0.0000000000 0.3911190000
0.7129930000 0.0000000000 0.4061650000
0.7278100000 0.0000000000 0.4211950000
0.7426410000 0.0000000000 0.4361790000
0.7574580000 0.0000000000 0.4511480000
0.7722740000 0.0000000000 0.4661020000
0.7870910000 0.0000000000 0.4810250000
0.8019070000 0.0000000000 0.4959490000
0.8167240000 0.0000000000 0.5108420007
0.8315400000 0.0000000000 0.5257339997
0.8463420000 0.0000000000 0.5406120004
0.8611580000 0.0000000000 0.5554890060
0.8759750000 0.0000000000 0.5703519883
0.0000000000 0.0000000000 0.0000000000
0.0000000000 0.0000000000 0.0000000000
0.0000000000 0.0000000000 0.0000000000
0.0000000000 0.0000000000 0.0000000000
0.0000000000 0.0000000000 0.0000000000
0.0000000000 0.0000000000 0.0000000000
0.0000000000 0.0000000000 0.0000000000
0.0000000000 0.0000000000 0.0000000000
0.0175479000 0.0000000000 0.0000000000
0.0368505000 0.0000000000 0.0000000000
0.0556649000 0.0000000000 0.0000000000
0.0738231000 0.0000000000 0.0000000000
0.0914778000 0.0000000000 0.0000000000
0.1086290000 0.0000000000 0.0000000000
0.1250780000 0.0000000000 0.0000000000
0.1412830000 0.0000000000 0.0000000000
0.1573050000 0.0000000000 0.0000000000
0.1731590000 0.0000000000 0.0000000000
0.1888610000 0.0000000000 0.0000000000
0.2044400000 0.0000000000 0.0000000000
0.2199130000 0.0000000000 0.0000000000
0.2353090000 0.0000000000 0.0000000000
0.2506140000 0.0000000000 0.0000000000
0.2658580000 0.0000000000 0.0000000000
0.2810410000 0.0000000000 0.0000000000
0.2961780000 0.0000000000 0.0000000000
0.3112690000 0.0000000000 0.0000000000
0.3263140000 0.0000000000 0.0000000000
0.3413440000 0.0000000000 0.0000000000
0.3563440000 0.0000000000 0.0000000000
0.3713130000 0.0000000000 0.0190890000
0.3862670000 0.0000000000 0.0412757000
0.4011900000 0.0000000000 0.0623651243
0.4161140000 0.0000000000 0.0823377000
0.4310060000 0.0000000000 0.1014570000
0.4458990000 0.0000000000 0.1198750000
0.4607770000 0.0000000000 0.1377130000
0.4756540000 0.0000000000 0.1550930000
0.4905170000 0.0000000000 0.1720910000
0.5053790000 0.0000000000 0.1887690000
0.5202260000 0.0000000000 0.2051730000
0.5350730000 0.0000000000 0.2213470000
0.5499200000 0.0000000000 0.2373240000
0.5647520000 0.0000000000 0.2531470000
0.5795830000 0.0000000000 0.2688330000
0.5944150000 0.0000000000 0.2843980000
0.6092470000 0.0000000000 0.2998550000
0.6240790000 0.0000000000 0.3152210000
0.6388950000 0.0000000000 0.3305260000
0.6537270000 0.0000000000 0.3457540000
0.6685440000 0.0000000000 0.3609220000
0.6833750000 0.0000000000 0.3760590000
0.6981920000 0.0000000000 0.3911350000
0.7130080000 0.0000000000 0.4061950000
0.7278250000 0.0000000000 0.4212100000
0.7426410000 0.0000000000 0.4361940000
0.7574580000 0.0000000000 0.4511640000
0.7722740000 0.0000000000 0.4661170000
0.7870910000 0.0000000000 0.4810410000
0.8019070000 0.0000000000 0.4959490000
0.8167240000 0.0000000000 0.5108570007
0.8315400000 0.0000000000 0.5257499997
0.8463570000 0.0000000000 0.5406270004
0.8611730000 0.0000000000 0.5554890060
0.8759750000 0.0000000000 0.5703519883
0.0000000000 0.0000000000 0.0000000000
0.0000000000 0.0000000000 0.0000000000
0.0000000000 0.0000000000 0.0000000000
0.0000000000 0.0000000000 0.0000000000
0.0000000000 0.0000000000 0.0000000000
0.0000000000 0.0000000000 0.0000000000
0.0000000000 0.0000000000 0.0000000000
0.0000000000 0.0000000000 0.0000000000
0.0185550000 0.0000000000 0.0000000000
0.0376593000 0.0000000000 0.0000000000
0.0562600000 0.0000000000 0.0000000000
0.0742809000 0.0000000000 0.0000000000
0.0918135000 0.0000000000 0.0000000000
0.1089490000 0.0000000000 0.0000000000
0.1257650000 0.0000000000 0.0000000000
0.1422750000 0.0000000000 0.0000000000
0.1585560000 0.0000000000 0.0000000000
0.1746400000 0.0000000000 0.0000000000
0.1905390000 0.0000000000 0.0000000000
0.2059360000 0.0000000000 0.0000000000
0.2212100000 0.0000000000 0.0000000000
0.2364230000 0.0000000000 0.0000000000
0.2515750000 0.0000000000 0.0000000000
0.2666970000 0.0000000000 0.0000000000
0.2817730000 0.0000000000 0.0000000000
0.2968030000 0.0000000000 0.0000000000
0.3118180000 0.0000000000 0.0000000000
0.3268020000 0.0000000000 0.0000000000
0.3417560000 0.0000000000 0.0000000000
0.3566950000 0.0000000000 0.0000000000
0.3716180000 0.0000000000 0.0198062000
0.3865260000 0.0000000000 0.0418860000
0.4014340000 0.0000000000 0.0628691142
0.4163120000 0.0000000000 0.0827649000
0.4311890000 0.0000000000 0.1018080000
0.4460520000 0.0000000000 0.1201650000
0.4609140000 0.0000000000 0.1379720000
0.4757760000 0.0000000000 0.1553060000
0.4906230000 0.0000000000 0.1722740000
0.5054700000 0.0000000000 0.1889220000
0.5203020000 0.0000000000 0.2052950000
0.5351340000 0.0000000000 0.2214540000
0.5499660000 0.0000000000 0.2374300000
0.5647970000 0.0000000000 0.2532390000
0.5796290000 0.0000000000 0.2689100000
0.5944610000 0.0000000000 0.2844590000
0.6092770000 0.0000000000 0.2999010000
0.6241090000 0.0000000000 0.3152670000
0.6389260000 0.0000000000 0.3305560000
0.6537420000 0.0000000000 0.3457850000
0.6685740000 0.0000000000 0.3609520000
0.6833910000 0.0000000000 0.3760740000
0.6982070000 0.0000000000 0.3911650000
0.7130240000 0.0000000000 0.4062100000
0.7278400000 0.0000000000 0.4212250000
0.7426570000 0.0000000000 0.4362100000
0.7574730000 0.0000000000 0.4511790000
0.7722900000 0.0000000000 0.4661170000
0.7871060000 0.0000000000 0.4810560000
0.8019070000 0.0000000000 0.4959640000
0.8167240000 0.0000000000 0.5108570007
0.8315400000 0.0000000000 0.5257499997
0.8463570000 0.0000000000 0.5406270004
0.8611730000 0.0000000000 0.5554890060
0.8759900000 0.0000000000 0.5703519883
0.0000000000 0.0000000000 0.0000000000
0.0000000000 0.0000000000 0.0000000000
0.0000000000 0.0000000000 0.0000000000
0.0000000000 0.0000000000 0.0000000000
0.0000000000 0.0000000000 0.0000000000
0.0000000000 0.0000000000 0.0000000000
0.0000000000 0.0000000000 0.0000000000
0.0006103610 0.0000000000 0.0000000000
0.0199893000 0.0000000000 0.0000000000
0.0390326000 0.0000000000 0.0000000000
0.0572671000 0.0000000000 0.0000000000
0.0750286000 0.0000000000 0.0000000000
0.0923781000 0.0000000000 0.0000000000
0.1093770000 0.0000000000 0.0000000000
0.1260700000 0.0000000000 0.0000000000
0.1425190000 0.0000000000 0.0000000000
0.1587400000 0.0000000000 0.0000000000
0.1747770000 0.0000000000 0.0000000000
0.1906460000 0.0000000000 0.0000000000
0.2063780000 0.0000000000 0.0000000000
0.2219880000 0.0000000000 0.0000000000
0.2374760000 0.0000000000 0.0000000000
0.2525370000 0.0000000000 0.0000000000
0.2675210000 0.0000000000 0.0000000000
0.2824900000 0.0000000000 0.0000000000
0.2974290000 0.0000000000 0.0000000000
0.3123520000 0.0000000000 0.0000000000
0.3272760000 0.0000000000 0.0000000000
0.3421680000 0.0000000000 0.0000000000
0.3570610000 0.0000000000 0.0000000000
0.3719390000 0.0000000000 0.0205081000
0.3868010000 0.0000000000 0.0425116000
0.4016630000 0.0000000000 0.0633860594
0.4165100000 0.0000000000 0.0831922000
0.4313730000 0.0000000000 0.1021590000
0.4462040000 0.0000000000 0.1204550000
0.4610510000 0.0000000000 0.1382160000
0.4758830000 0.0000000000 0.1555200000
0.4907150000 0.0000000000 0.1724570000
0.5055470000 0.0000000000 0.1890750000
0.5203780000 0.0000000000 0.2054320000
0.5352100000 0.0000000000 0.2215760000
0.5500270000 0.0000000000 0.2375220000
0.5648580000 0.0000000000 0.2533150000
0.5796750000 0.0000000000 0.2689710000
0.5944910000 0.0000000000 0.2845200000
0.6093080000 0.0000000000 0.2999620000
0.6241400000 0.0000000000 0.3153120000
0.6389560000 0.0000000000 0.3306020000
0.6537730000 0.0000000000 0.3458150000
0.6685890000 0.0000000000 0.3609830000
0.6834060000 0.0000000000 0.3761040000
0.6982220000 0.0000000000 0.3911800000
0.7130390000 0.0000000000 0.4062260000
0.7278400000 0.0000000000 0.4212410000
0.7426570000 0.0000000000 0.4362250000
0.7574730000 0.0000000000 0.4511940000
0.7722900000 0.0000000000 0.4661330000
0.7871060000 0.0000000000 0.4810560000
0.8019230000 0.0000000000 0.4959640000
0.8167390000 0.0000000000 0.5108720007
0.8315400000 0.0000000000 0.5257499997
0.8463570000 0.0000000000 0.5406270004
0.8611730000 0.0000000000 0.5555050083
0.8759900000 0.0000000000 0.5703669876
0.0000000000 0.0000000000 0.0000000000
0.0000000000 0.0000000000 0.0000000000
0.0000000000 0.0000000000 0.0000000000
0.0000000000 0.0000000000 0.0000000000
0.0000000000 0.0000000000 0.0000000000
0.0000000000 0.0000000000 0.0000000000
0.0000000000 0.0000000000 0.0000000000
0.0008850230 0.0000000000 0.0000000000
0.0204623000 0.0000000000 0.0000000000
0.0397345000 0.0000000000 0.0000000000
0.0582284000 0.0000000000 0.0000000000
0.0760815000 0.0000000000 0.0000000000
0.0931563000 0.0000000000 0.0000000000
0.1099570000 0.0000000000 0.0000000000
0.1265130000 0.0000000000 0.0000000000
0.1428400000 0.0000000000 0.0000000000
0.1589840000 0.0000000000 0.0000000000
0.1749600000 0.0000000000 0.0000000000
0.1907840000 0.0000000000 0.0000000000
0.2064850000 0.0000000000 0.0000000000
0.2220650000 0.0000000000 0.0000000000
0.2375520000 0.0000000000 0.0000000000
0.2529490000 0.0000000000 0.0000000000
0.2682540000 0.0000000000 0.0000000000
0.2832070000 0.0000000000 0.0000000000
0.2980540000 0.0000000000 0.0000000000
0.3129010000 0.0000000000 0.0000000000
0.3277490000 0.0000000000 0.0000000000
0.3425800000 0.0000000000 0.0000000000
0.3574120000 0.0000000000 0.0011139100
0.3722440000 0.0000000000 0.0212253000
0.3870760000 0.0000000000 0.0431373950
0.4018920000 0.0000000000 0.0638895000
0.4167240000 0.0000000000 0.0836042000
0.4315400000 0.0000000000 0.1025100000
0.4463570000 0.0000000000 0.1207600000
0.4611890000 0.0000000000 0.1384600000
0.4760050000 0.0000000000 0.1557340000
0.4908220000 0.0000000000 0.1726250000
0.5056380000 0.0000000000 0.1892270000
0.5204550000 0.0000000000 0.2055700000
0.5352710000 0.0000000000 0.2216830000
0.5500880000 0.0000000000 0.2376290000
0.5649040000 0.0000000000 0.2534070000
0.5797210000 0.0000000000 0.2690470000
0.5945370000 0.0000000000 0.2845810000
0.6093540000 0.0000000000 0.3000080000
0.6241550000 0.0000000000 0.3153580000
0.6389720000 0.0000000000 0.3306480000
0.6537880000 0.0000000000 0.3458610000
0.6686050000 0.0000000000 0.3610130000
0.6834210000 0.0000000000 0.3761350000
0.6982380000 0.0000000000 0.3912110000
0.7130390000 0.0000000000 0.4062410000
0.7278550000 0.0000000000 0.4212560000
0.7426720000 0.0000000000 0.4362400000
0.7574880000 0.0000000000 0.4512090000
0.7723050000 0.0000000000 0.4661480000
0.7871060000 0.0000000000 0.4810710000
0.8019230000 0.0000000000 0.4959790000
0.8167390000 0.0000000000 0.5108720007
0.8315560000 0.0000000000 0.5257649996
0.8463570000 0.0000000000 0.5406420004
0.8611730000 0.0000000000 0.5555050083
0.8759900000 0.0000000000 0.5703669876
0.0000000000 0.0000000000 0.0000000000
0.0000000000 0.0000000000 0.0000000000
0.0000000000 0.0000000000 0.0000000000
0.0000000000 0.0000000000 0.0000000000
0.0000000000 0.0000000000 0.0000000000
0.0000000000 0.0000000000 0.0000000000
0.0000000000 0.0000000000 0.0000000000
0.0007324330 0.0000000000 0.0000000000
0.0205386000 0.0000000000 0.0000000000
0.0399786000 0.0000000000 0.0000000000
0.0585794000 0.0000000000 0.0000000000
0.0764935000 0.0000000000 0.0000000000
0.0938582000 0.0000000000 0.0000000000
0.1107190000 0.0000000000 0.0000000000
0.1270770000 0.0000000000 0.0000000000
0.1432670000 0.0000000000 0.0000000000
0.1593040000 0.0000000000 0.0000000000
0.1752040000 0.0000000000 0.0000000000
0.1909670000 0.0000000000 0.0000000000
0.2066220000 0.0000000000 0.0000000000
0.2221710000 0.0000000000 0.0000000000
0.2376290000 0.0000000000 0.0000000000
0.2530100000 0.0000000000 0.0000000000
0.2683150000 0.0000000000 0.0000000000
0.2835580000 0.0000000000 0.0000000000
0.2986800000 0.0000000000 0.0000000000
0.3134360000 0.0000000000 0.0000000000
0.3282060000 0.0000000000 0.0000000000
0.3429770000 0.0000000000 0.0000000000
0.3577630000 0.0000000000 0.0018310800
0.3725490000 0.0000000000 0.0219425514
0.3873350000 0.0000000000 0.0437500231
0.4021210000 0.0000000000 0.0643931000
0.4169220000 0.0000000000 0.0840314000
0.4317240000 0.0000000000 0.1028610000
0.4465100000 0.0000000000 0.1210500000
0.4613110000 0.0000000000 0.1387200000
0.4761120000 0.0000000000 0.1559470000
0.4909290000 0.0000000000 0.1728080000
0.5057300000 0.0000000000 0.1893800000
0.5205310000 0.0000000000 0.2056920000
0.5353320000 0.0000000000 0.2218050000
0.5501490000 0.0000000000 0.2377200000
0.5649500000 0.0000000000 0.2534830000
0.5797670000 0.0000000000 0.2691230000
0.5945680000 0.0000000000 0.2846420000
0.6093840000 0.0000000000 0.3000690000
0.6241860000 0.0000000000 0.3154190000
0.6390020000 0.0000000000 0.3306780000
0.6538190000 0.0000000000 0.3458920000
0.6686200000 0.0000000000 0.3610440000
0.6834360000 0.0000000000 0.3761650000
0.6982530000 0.0000000000 0.3912260000
0.7130540000 0.0000000000 0.4062710000
0.7278710000 0.0000000000 0.4212710000
0.7426870000 0.0000000000 0.4362550000
0.7574880000 0.0000000000 0.4512090000
0.7723050000 0.0000000000 0.4661630000
0.7871210000 0.0000000000 0.4810710000
0.8019230000 0.0000000000 0.4959950000
0.8167390000 0.0000000000 0.5108870008
0.8315560000 0.0000000000 0.5257649996
0.8463720000 0.0000000000 0.5406420004
0.8611730000 0.0000000000 0.5555050083
0.8759900000 0.0000000000 0.5703669876
0.0000000000 0.0044861500 0.0000000000
0.0000000000 0.0034027600 0.0000000000
0.0000000000 0.0023193700 0.0000000000
0.0000000000 0.0012359800 0.0000000000
0.0000000000 0.0000000000 0.0000000000
0.0000000000 0.0000000000 0.0000000000
0.0000000000 0.0000000000 0.0000000000
0.0007782100 0.0000000000 0.0000000000
0.0202792000 0.0000000000 0.0000000000
0.0399176000 0.0000000000 0.0000000000
0.0586862000 0.0000000000 0.0000000000
0.0767071000 0.0000000000 0.0000000000
0.0941482000 0.0000000000 0.0000000000
0.1111160000 0.0000000000 0.0000000000
0.1277030000 0.0000000000 0.0000000000
0.1437860000 0.0000000000 0.0000000000
0.1596860000 0.0000000000 0.0000000000
0.1754940000 0.0000000000 0.0000000000
0.1911800000 0.0000000000 0.0000000000
0.2067750000 0.0000000000 0.0000000000
0.2222930000 0.0000000000 0.0000000000
0.2377200000 0.0000000000 0.0000000000
0.2530710000 0.0000000000 0.0000000000
0.2683600000 0.0000000000 0.0000000000
0.2835890000 0.0000000000 0.0000000000
0.2987720000 0.0000000000 0.0000000000
0.3139090000 0.0000000000 0.0000000000
0.3286790000 0.0000000000 0.0000000000
0.3433890000 0.0000000000 0.0000000000
0.3581140000 0.0000000000 0.0025482600
0.3728540000 0.0000000000 0.0226640417
0.3876100000 0.0000000000 0.0443771414
0.4023650000 0.0000000000 0.0648966000
0.4171210000 0.0000000000 0.0844434000
0.4318910000 0.0000000000 0.1032120000
0.4466620000 0.0000000000 0.1213400000
0.4614480000 0.0000000000 0.1389640000
0.4762340000 0.0000000000 0.1561610000
0.4910200000 0.0000000000 0.1729920000
0.5058060000 0.0000000000 0.1895320000
0.5206070000 0.0000000000 0.2058290000
0.5354090000 0.0000000000 0.2219120000
0.5502100000 0.0000000000 0.2378120000
0.5649960000 0.0000000000 0.2535740000
0.5798120000 0.0000000000 0.2692000000
0.5946140000 0.0000000000 0.2847030000
0.6094150000 0.0000000000 0.3001300000
0.6242160000 0.0000000000 0.3154650000
0.6390330000 0.0000000000 0.3307240000
0.6538340000 0.0000000000 0.3459220000
0.6686350000 0.0000000000 0.3610740000
0.6834520000 0.0000000000 0.3761810000
0.6982530000 0.0000000000 0.3912570000
0.7130690000 0.0000000000 0.4062870000
0.7278860000 0.0000000000 0.4212860000
0.7426870000 0.0000000000 0.4362710000
0.7575040000 0.0000000000 0.4512250000
0.7723050000 0.0000000000 0.4661630000
0.7871210000 0.0000000000 0.4810860000
0.8019380000 0.0000000000 0.4959950000
0.8167390000 0.0000000000 0.5108870008
0.8315560000 0.0000000000 0.5257799996
0.8463720000 0.0000000000 0.5406420004
0.8611890000 0.0000000000 0.5555200105
0.8759900000 0.0000000000 0.5703819869
0.0000000000 0.0280308000 0.0000000000
0.0000000000 0.0269474000 0.0000000000
0.0000000000 0.0258640000 0.0000000000
0.0000000000 0.0247807000 0.0000000000
0.0000000000 0.0237125000 0.0000000000
0.0000000000 0.0226330123 0.0000000000
0.0000000000 0.0215457058 0.0000000000
0.0017090100 0.0204623000 0.0000000000
0.0204929000 0.0196384000 0.0000000000
0.0396124000 0.0188296000 0.0000000000
0.0585794000 0.0169375000 0.0000000000
0.0767529000 0.0146944000 0.0000000000
0.0943008000 0.0120851000 0.0000000000
0.1113300000 0.0090638600 0.0000000000
0.1279620000 0.0055848000 0.0000000000
0.1442740000 0.0016174600 0.0000000000
0.1601590000 0.0000000000 0.0000000000
0.1758300000 0.0000000000 0.0000000000
0.1914400000 0.0000000000 0.0000000000
0.2069730000 0.0000000000 0.0000000000
0.2224310000 0.0000000000 0.0000000000
0.2378270000 0.0000000000 0.0000000000
0.2531620000 0.0000000000 0.0000000000
0.2684210000 0.0000000000 0.0000000000
0.2836500000 0.0000000000 0.0000000000
0.2988170000 0.0000000000 0.0000000000
0.3139390000 0.0000000000 0.0000000000
0.3290150000 0.0000000000 0.0000000000
0.3438010000 0.0000000000 0.0000000000
0.3584650000 0.0000000000 0.0032654300
0.3731590000 0.0000000000 0.0233629297
0.3878690000 0.0000000000 0.0449531000
0.4025940000 0.0000000000 0.0654002000
0.4173190000 0.0000000000 0.0848554000
0.4320740000 0.0000000000 0.1035630000
0.4468150000 0.0000000000 0.1216450000
0.4615850000 0.0000000000 0.1392080000
0.4763560000 0.0000000000 0.1563590000
0.4911270000 0.0000000000 0.1731750000
0.5058980000 0.0000000000 0.1896850000
0.5206840000 0.0000000000 0.2059660000
0.5354700000 0.0000000000 0.2220190000
0.5502560000 0.0000000000 0.2379190000
0.5650570000 0.0000000000 0.2536510000
0.5798430000 0.0000000000 0.2692610000
0.5946440000 0.0000000000 0.2847640000
0.6094450000 0.0000000000 0.3001750000
0.6242470000 0.0000000000 0.3155110000
0.6390480000 0.0000000000 0.3307700000
0.6538490000 0.0000000000 0.3459680000
0.6686660000 0.0000000000 0.3611050000
0.6834670000 0.0000000000 0.3762110000
0.6982680000 0.0000000000 0.3912720000
0.7130850000 0.0000000000 0.4063020000
0.7278860000 0.0000000000 0.4213170000
0.7427020000 0.0000000000 0.4362860000
0.7575040000 0.0000000000 0.4512400000
0.7723200000 0.0000000000 0.4661780000
0.7871370000 0.0000000000 0.4811020000
0.8019380000 0.0000000000 0.4960100000
0.8167540000 0.0000000000 0.5109030008
0.8315560000 0.0000000000 0.5257799996
0.8463720000 0.0000000000 0.5406580005
0.8611890000 0.0000000000 0.5555200105
0.8759900000 0.0000000000 0.5703819869
0.0000000000 0.0491798000 0.0000000000
0.0000000000 0.0482948000 0.0000000000
0.0000000000 0.0473945000 0.0000000000
0.0000000000 0.0464942000 0.0000000000
0.0000000000 0.0455940000 0.0000000000
0.0000000000 0.0446838501 0.0000000000
0.0000000000 0.0437500231 0.0000000000
0.0034790600 0.0428168000 0.0000000000
0.0214847000 0.0418860000 0.0000000000
0.0399786000 0.0411231000 0.0000000000
0.0583047000 0.0404059000 0.0000000000
0.0766461000 0.0384833000 0.0000000000
0.0943160000 0.0361334000 0.0000000000
0.1114520000 0.0333257000 0.0000000000
0.1281450000 0.0299840000 0.0000000000
0.1444880000 0.0260319000 0.0000000000
0.1605550000 0.0214542000 0.0000000000
0.1762420000 0.0186160000 0.0000000000
0.1917450000 0.0169833000 0.0000000000
0.2072020000 0.0150149000 0.0000000000
0.2225990000 0.0126955000 0.0000000000
0.2379490000 0.0099336200 0.0000000000
0.2532540000 0.0066987100 0.0000000000
0.2684980000 0.0029297300 0.0000000000
0.2836960000 0.0000000000 0.0000000000
0.2988480000 0.0000000000 0.0000000000
0.3139700000 0.0000000000 0.0000000000
0.3290460000 0.0000000000 0.0000000000
0.3440910000 0.0000000000 0.0000000000
0.3588160000 0.0000000000 0.0039673500
0.3734650000 0.0000000000 0.0240787000
0.3881280000 0.0000000000 0.0455634000
0.4028230000 0.0000000000 0.0658885000
0.4175330000 0.0000000000 0.0852827000
0.4322420000 0.0000000000 0.1039140000
0.4469670000 0.0000000000 0.1219350000
0.4617070000 0.0000000000 0.1394520000
0.4764630000 0.0000000000 0.1565730000
0.4912180000 0.0000000000 0.1733580000
0.5059890000 0.0000000000 0.1898370000
0.5207600000 0.0000000000 0.2060880000
0.5355310000 0.0000000000 0.2221410000
0.5503170000 0.0000000000 0.2380100000
0.5651030000 0.0000000000 0.2537420000
0.5798890000 0.0000000000 0.2693370000
0.5946900000 0.0000000000 0.2848250000
0.6094760000 0.0000000000 0.3002370000
0.6242770000 0.0000000000 0.3155570000
0.6390780000 0.0000000000 0.3308000000
0.6538800000 0.0000000000 0.3459980000
0.6686810000 0.0000000000 0.3611350000
0.6834820000 0.0000000000 0.3762420000
0.6982830000 0.0000000000 0.3913020000
0.7131000000 0.0000000000 0.4063320000
0.7279010000 0.0000000000 0.4213320000
0.7427020000 0.0000000000 0.4363010000
0.7575190000 0.0000000000 0.4512550000
0.7723200000 0.0000000000 0.4661940000
0.7871370000 0.0000000000 0.4811020000
0.8019380000 0.0000000000 0.4960100000
0.8167540000 0.0000000000 0.5109030008
0.8315710000 0.0000000000 0.5257799996
0.8463720000 0.0000000000 0.5406580005
0.8611890000 0.0000000000 0.5555200105
0.8760050000 0.0000000000 0.5703819869
0.0000000000 0.0672465000 0.0000000000
0.0000000000 0.0664988000 0.0000000000
0.0000000000 0.0657511000 0.0000000000
0.0000000000 0.0649882000 0.0000000000
0.0000000000 0.0642252000 0.0000000000
0.0000000000 0.0634623221 0.0000000000
0.0000000000 0.0626880343 0.0000000000
0.0052948800 0.0619061099 0.0000000000
0.0233178270 0.0611276000 0.0000000000
0.0409247000 0.0603037000 0.0000000000
0.0586709000 0.0595865000 0.0000000000
0.0764019000 0.0588693000 0.0000000000
0.0942245000 0.0570077000 0.0000000000
0.1114670000 0.0547494000 0.0000000000
0.1282520000 0.0520333000 0.0000000000
0.1446560000 0.0488136000 0.0000000000
0.1607540000 0.0449989000 0.0000000000
0.1766080000 0.0404517000 0.0000000000
0.1920960000 0.0378729000 0.0000000000
0.2074620000 0.0361486000 0.0000000000
0.2227970000 0.0340429000 0.0000000000
0.2381020000 0.0314946000 0.0000000000
0.2533610000 0.0283970000 0.0000000000
0.2685890000 0.0246738000 0.0000000000
