bundles/resolve-cinematic-luts/Gamut/_Conversion/Blackmagic/Blackmagic PYXIS 6K BaseLUTs/BaseLUT - Blackmagic PYXIS 6K - Gen5 Film to DWG.cube
TITLE "BaseLUT - Blackmagic PYXIS 6K - Gen5 Film to DWG"
# Developed for converting Blackmagic Film Gen 5 / Blackmagic Wide Gamut to DaVinci Intermediate / DaVinci Wide Gamut. Version 1.0 - 05/01/2025 - Copyright 2025 Gamut, LLC.
LUT_3D_SIZE 5
0.0000000000 0.0000000000 0.0000000000
0.1598840000 0.0000000000 0.0000000000
0.4538640000 0.1212180000 0.1252770000
0.7521170000 0.4273140000 0.4310830000
1.0000000000 0.7262840000 0.7300370000
0.0000000000 0.1629660000 0.0000000000
0.1587700000 0.1679100000 0.0000000000
0.4538490000 0.2148320000 0.1345540000
0.7521170000 0.4356600000 0.4313270000
1.0000000000 0.7268330000 0.7300220000
0.0000000000 0.4567640000 0.0000000000
0.0000000000 0.4570840000 0.0000000000
0.4527960000 0.4614630000 0.0294652000
0.7521170000 0.5108420000 0.4390020000
1.0000000000 0.7338830000 0.7302200000
0.0000000000 0.7550320000 0.2455179426
0.0000000000 0.7550470000 0.2508130000
0.0000000000 0.7553060000 0.2842760000
0.7510640000 0.7597160000 0.3459530000
1.0000000000 0.8092320000 0.7378810000
0.0000000000 1.0000000000 0.5466240000
0.0000000000 1.0000000000 0.5469440000
0.0000000000 1.0000000000 0.5513390000
0.0000000000 1.0000000000 0.5845580000
1.0000000000 1.0000000000 0.6454570000
0.0000000000 0.0000000000 0.1695120000
0.1518730000 0.0000000000 0.1707180000
0.4540930000 0.1249410000 0.2258950000
0.7521780000 0.4277870000 0.4402230000
1.0000000000 0.7263140000 0.7306020000
0.0000000000 0.1685510000 0.1622340000
0.1732498599 0.1732498599 0.1732498599
0.4547340000 0.2242770000 0.2257270000
0.7521780000 0.4365450000 0.4399940000
1.0000000000 0.7268640000 0.7305870000
0.0000000000 0.4571300000 0.1744870000
0.0000000000 0.4574350000 0.1846340000
0.4537580000 0.4618140000 0.2000920000
0.7521630000 0.5114670000 0.4468450000
1.0000000000 0.7339590000 0.7307390000
0.0000000000 0.7550470000 0.2866870000
0.0000000000 0.7550620000 0.2903030000
0.0000000000 0.7553370000 0.3168840000
0.7511250000 0.7597310000 0.3653620000
1.0000000000 0.8092620000 0.7383690000
0.0000000000 1.0000000000 0.5495080000
0.0000000000 1.0000000000 0.5498130000
0.0000000000 1.0000000000 0.5540860000
0.0000000000 1.0000000000 0.5867700000
1.0000000000 1.0000000000 0.6467080000
0.2603650000 0.1249710000 0.4629890000
0.2890210000 0.1232930000 0.4630660000
0.4462650000 0.1015640000 0.4641490000
0.7524070000 0.4308840000 0.5214310000
1.0000000000 0.7267110000 0.7383380000
0.2688330000 0.2262609783 0.4631570000
0.2955370000 0.2256200000 0.4632330000
0.4477298727 0.2177620000 0.4643020000
0.7524830000 0.4398870000 0.5215380000
1.0000000000 0.7272600026 0.7383230000
0.2530250000 0.4620890000 0.4560770000
0.2906840000 0.4623790000 0.4568090000
0.4665600000 0.4665600000 0.4665600000
0.7529260000 0.5196310000 0.5211260000
1.0000000000 0.7346610000 0.7381250000
0.0000000000 0.7553520000 0.4688940000
0.0000000000 0.7553670000 0.4695510000
0.0000000000 0.7556270000 0.4784770000
0.7519340000 0.7600210000 0.4945910000
1.0000000000 0.8097960000 0.7449910000
0.0000000000 1.0000000000 0.5838100000
0.0000000000 1.0000000000 0.5840390000
0.0000000000 1.0000000000 0.5871520000
0.0000000000 1.0000000000 0.6140990000
1.0000000000 1.0000000000 0.6630810000
0.5605250000 0.4307930000 0.7612270000
0.5624320000 0.4307010000 0.7612270000
0.5864650000 0.4293740000 0.7612880000
0.7445640000 0.4092620000 0.7623710000
1.0000000000 0.7298540000 0.8198060000
0.5610280000 0.4398110000 0.7612420000
0.5629360000 0.4397340000 0.7612420000
0.5868770000 0.4385140000 0.7613030000
0.7446560000 0.4202030000 0.7623870000
1.0000000000 0.7304040000 0.8198060000
0.5681240000 0.5215990000 0.7613790000
0.5699090000 0.5215690000 0.7613950000
0.5924620000 0.5210040000 0.7614400000
0.7458919976 0.5129010000 0.7625240000
1.0000000000 0.7380180000 0.8198830000
0.5533380000 0.7603270000 0.7543450000
0.5559470000 0.7603420000 0.7543910000
0.5875330000 0.7606010000 0.7550010000
0.7647820000 0.7647820000 0.7647820000
1.0000000000 0.8179750000 0.8194710000
0.0000000000 1.0000000000 0.7671780000
0.0000000000 1.0000000000 0.7672240000
0.0000000000 1.0000000000 0.7677730000
0.0000000000 1.0000000000 0.7767300000
1.0000000000 1.0000000000 0.7928890000
0.8591590000 0.7297630000 1.0000000000
0.8592660000 0.7297470000 1.0000000000
0.8608830000 0.7296710000 1.0000000000
0.8849470000 0.7283590000 1.0000000000
1.0000000000 0.7083390000 1.0000000000
0.8591900000 0.7303120000 1.0000000000
0.8592970000 0.7303120000 1.0000000000
0.8609140000 0.7302200000 1.0000000000
0.8849620000 0.7289080000 1.0000000000
1.0000000000 0.7090100577 1.0000000000
0.8596320000 0.7379420000 1.0000000000
0.8597390000 0.7379420000 1.0000000000
0.8613570000 0.7378650000 1.0000000000
0.8853130000 0.7366450000 1.0000000000
1.0000000000 0.7182570000 1.0000000000
0.8667120000 0.8199590000 1.0000000000
0.8668190000 0.8199440000 1.0000000000
0.8683300000 0.8199130000 1.0000000000
0.8909130000 0.8193640000 1.0000000000
1.0000000000 0.8112310000 1.0000000000
0.8519870000 1.0000000000 1.0000000000
0.8521550000 1.0000000000 1.0000000000
0.8543530000 1.0000000000 1.0000000000
0.8859690000 1.0000000000 1.0000000000
1.0000000000 1.0000000000 1.0000000000
