bundles/resolve-cinematic-luts/Gamut/_Conversion/Blackmagic/Blackmagic PYXIS 6K BaseLUTs/BaseLUT - Blackmagic PYXIS 6K - Gen5 Film to DWG.cube
TITLE "BaseLUT - Blackmagic PYXIS 6K - Gen5 Film to DWG"
# Developed for converting Blackmagic Film Gen 5 / Blackmagic Wide Gamut to DaVinci Intermediate / DaVinci Wide Gamut. Version 1.0 - 05/01/2025 - Copyright 2025 Gamut, LLC.
LUT_3D_SIZE 65
0.0000000000 0.0000000000 0.0000000000
0.0000000000 0.0000000000 0.0000000000
0.0000000000 0.0000000000 0.0000000000
0.0000000000 0.0000000000 0.0000000000
0.0000000000 0.0000000000 0.0000000000
0.0000000000 0.0000000000 0.0000000000
0.0000000000 0.0000000000 0.0000000000
0.0088502300 0.0000000000 0.0000000000
0.0244602000 0.0000000000 0.0000000000
0.0402991000 0.0000000000 0.0000000000
0.0565347000 0.0000000000 0.0000000000
0.0731365000 0.0000000000 0.0000000000
0.0900282000 0.0000000000 0.0000000000
0.1071790000 0.0000000000 0.0000000000
0.1245750000 0.0000000000 0.0000000000
0.1421530000 0.0000000000 0.0000000000
0.1598840000 0.0000000000 0.0000000000
0.1777830000 0.0000000000 0.0000000000
0.1957890000 0.0000000000 0.0000000000
0.2138860000 0.0000000000 0.0000000000
0.2320900000 0.0000000000 0.0000000000
0.2503550000 0.0000000000 0.0000000000
0.2686810000 0.0000000000 0.0000000000
0.2870680000 0.0000000000 0.0000000000
0.3055010000 0.0000000000 0.0000000000
0.3239640000 0.0000000000 0.0000000000
0.3424580000 0.0000000000 0.0010528700
0.3609830000 0.0160678000 0.0202640000
0.3795220000 0.0376745000 0.0421149000
0.3980930000 0.0592508000 0.0635691000
0.4166630000 0.0803082000 0.0845197000
0.4352640000 0.1009380000 0.1050580000
0.4538640000 0.1212180000 0.1252770000
0.4724650000 0.1412070000 0.1452200000
0.4910810000 0.1609830000 0.1649350000
0.5097120000 0.1805600000 0.1844820000
0.5283440000 0.1999850000 0.2038760000
0.5469750000 0.2192720000 0.2231480000
0.5656210000 0.2384680000 0.2423290000
0.5842680000 0.2575720000 0.2614020000
0.6028990000 0.2766000000 0.2804150000
0.6215610000 0.2955670000 0.2993820000
0.6402080000 0.3144880000 0.3182877064
0.6588540000 0.3333640000 0.3371480000
0.6775010000 0.3522090000 0.3559930000
0.6961620000 0.3710080000 0.3747920000
0.7148090000 0.3897920000 0.3935760000
0.7334710000 0.4085600000 0.4123290000
0.7521170000 0.4273140000 0.4310830000
0.7707790000 0.4460520000 0.4498050000
0.7894410000 0.4647750000 0.4685280000
0.8080870000 0.4834820000 0.4872360000
0.8267490000 0.5021740000 0.5059430000
0.8454110000 0.5208820000 0.5246360000
0.8640730000 0.5395740000 0.5433130000
0.8827190000 0.5582510000 0.5620050000
0.9013810000 0.5769280000 0.5806820000
0.9200430000 0.5956050000 0.5993590000
0.9387040000 0.6142820000 0.6180360000
0.9573510000 0.6329590000 0.6366980000
0.9760130000 0.6516210000 0.6553750000
0.9946750000 0.6702980000 0.6740370000
1.0000000000 0.6889600000 0.6927140000
1.0000000000 0.7076220000 0.7113760000
1.0000000000 0.7262840000 0.7300370000
0.0000000000 0.0000000000 0.0000000000
0.0000000000 0.0000000000 0.0000000000
0.0000000000 0.0000000000 0.0000000000
0.0000000000 0.0000000000 0.0000000000
0.0000000000 0.0000000000 0.0000000000
0.0000000000 0.0000000000 0.0000000000
0.0000000000 0.0000000000 0.0000000000
0.0089875600 0.0000000000 0.0000000000
0.0245518000 0.0000000000 0.0000000000
0.0403601000 0.0000000000 0.0000000000
0.0565805000 0.0000000000 0.0000000000
0.0731518000 0.0000000000 0.0000000000
0.0900282000 0.0000000000 0.0000000000
0.1071790000 0.0000000000 0.0000000000
0.1245590000 0.0000000000 0.0000000000
0.1421380000 0.0000000000 0.0000000000
0.1598690000 0.0000000000 0.0000000000
0.1777680000 0.0000000000 0.0000000000
0.1957730000 0.0000000000 0.0000000000
0.2138860000 0.0000000000 0.0000000000
0.2320740000 0.0000000000 0.0000000000
0.2503400000 0.0000000000 0.0000000000
0.2686810000 0.0000000000 0.0000000000
0.2870680000 0.0000000000 0.0000000000
0.3054860000 0.0000000000 0.0000000000
0.3239640000 0.0000000000 0.0000000000
0.3424580000 0.0123903000 0.0017853100
0.3609830000 0.0309300000 0.0209354000
0.3795220000 0.0504768000 0.0426337000
0.3980770000 0.0698711000 0.0639353000
0.4166630000 0.0891280000 0.0847639000
0.4352480000 0.1083090000 0.1051960000
0.4538640000 0.1273820000 0.1253220000
0.4724650000 0.1464100000 0.1452050000
0.4910810000 0.1653620000 0.1648740000
0.5097120000 0.1842530000 0.1843750000
0.5283440000 0.2030670000 0.2038000000
0.5469750000 0.2218510000 0.2230720000
0.5656210000 0.2406200000 0.2422670000
0.5842680000 0.2593730000 0.2613570000
0.6028990000 0.2781110000 0.2803850000
0.6215610000 0.2968340000 0.2993360000
0.6402080000 0.3155410000 0.3182567354
0.6588540000 0.3342490000 0.3371330000
0.6775010000 0.3529410000 0.3559620000
0.6961620000 0.3716330000 0.3747770000
0.7148090000 0.3903260000 0.3935610000
0.7334710000 0.4090030000 0.4123140000
0.7521170000 0.4276800000 0.4310670000
0.7707790000 0.4463570000 0.4498050000
0.7894410000 0.4650190000 0.4685130000
0.8080870000 0.4836960000 0.4872360000
0.8267490000 0.5023580000 0.5059280000
0.8454110000 0.5210350000 0.5246200000
0.8640730000 0.5396960000 0.5433130000
0.8827190000 0.5583580000 0.5620050000
0.9013810000 0.5770200000 0.5806820000
0.9200430000 0.5956820000 0.5993590000
0.9387040000 0.6143430000 0.6180360000
0.9573510000 0.6330050000 0.6366980000
0.9760130000 0.6516670000 0.6553750000
0.9946750000 0.6703290000 0.6740370000
1.0000000000 0.6889910000 0.6927140000
1.0000000000 0.7076520000 0.7113760000
1.0000000000 0.7263140000 0.7300370000
0.0000000000 0.0000000000 0.0000000000
0.0000000000 0.0000000000 0.0000000000
0.0000000000 0.0000000000 0.0000000000
0.0000000000 0.0000000000 0.0000000000
0.0000000000 0.0000000000 0.0000000000
0.0000000000 0.0000000000 0.0000000000
0.0000000000 0.0000000000 0.0000000000
0.0096894800 0.0000000000 0.0000000000
0.0251469000 0.0000000000 0.0000000000
0.0408026000 0.0000000000 0.0000000000
0.0568856000 0.0000000000 0.0000000000
0.0733654000 0.0000000000 0.0000000000
0.0901808000 0.0000000000 0.0000000000
0.1072860000 0.0000000000 0.0000000000
0.1246200000 0.0000000000 0.0000000000
0.1421680000 0.0000000000 0.0000000000
0.1598990000 0.0000000000 0.0000000000
0.1777680000 0.0000000000 0.0000000000
0.1957730000 0.0000000000 0.0000000000
0.2138860000 0.0000000000 0.0000000000
0.2320740000 0.0000000000 0.0000000000
0.2503400000 0.0000000000 0.0000000000
0.2686810000 0.0000000000 0.0000000000
0.2870530000 0.0000000000 0.0000000000
0.3054860000 0.0000000000 0.0000000000
0.3239490000 0.0113375000 0.0000000000
0.3424430000 0.0269322000 0.0028381800
0.3609670000 0.0441444000 0.0219883102
0.3795220000 0.0615702000 0.0435340000
0.3980770000 0.0791791000 0.0646830000
0.4166630000 0.0969558000 0.0853742000
0.4352480000 0.1148700000 0.1056990000
0.4538490000 0.1329060000 0.1257500000
0.4724650000 0.1510340000 0.1455560000
0.4910810000 0.1692380000 0.1651640000
0.5097120000 0.1875180000 0.1846040000
0.5283440000 0.2058590000 0.2039220000
0.5469750000 0.2242620000 0.2231330000
0.5656210000 0.2426950000 0.2422520000
0.5842680000 0.2611430000 0.2613110000
0.6028990000 0.2795910000 0.2803390000
0.6215610000 0.2980850000 0.2993060000
0.6402080000 0.3165940000 0.3182267635
0.6588540000 0.3351190000 0.3371020000
0.6775010000 0.3536740000 0.3559470000
0.6961620000 0.3722440000 0.3747620000
0.7148090000 0.3908290000 0.3935450000
0.7334710000 0.4094300000 0.4123140000
0.7521170000 0.4280460000 0.4310520000
0.7707790000 0.4466620000 0.4497900000
0.7894410000 0.4652780000 0.4685130000
0.8080870000 0.4839090000 0.4872210000
0.8267490000 0.5025410000 0.5059280000
0.8454110000 0.5211720000 0.5246200000
0.8640730000 0.5398180000 0.5433130000
0.8827190000 0.5584650000 0.5620050000
0.9013810000 0.5771110000 0.5806820000
0.9200430000 0.5957580000 0.5993590000
0.9387040000 0.6144040000 0.6180360000
0.9573510000 0.6330660000 0.6366980000
0.9760130000 0.6517130000 0.6553750000
0.9946750000 0.6703590000 0.6740370000
1.0000000000 0.6890210000 0.6926990000
1.0000000000 0.7076830000 0.7113760000
1.0000000000 0.7263290000 0.7300370000
0.0000000000 0.0000000000 0.0000000000
0.0000000000 0.0000000000 0.0000000000
0.0000000000 0.0000000000 0.0000000000
0.0000000000 0.0000000000 0.0000000000
0.0000000000 0.0000000000 0.0000000000
0.0000000000 0.0000000000 0.0000000000
0.0000000000 0.0000000000 0.0000000000
0.0099031000 0.0000000000 0.0000000000
0.0256809000 0.0000000000 0.0000000000
0.0414893000 0.0000000000 0.0000000000
0.0575113000 0.0000000000 0.0000000000
0.0738231000 0.0000000000 0.0000000000
0.0905013000 0.0000000000 0.0000000000
0.1075000000 0.0000000000 0.0000000000
0.1247730000 0.0000000000 0.0000000000
0.1422750000 0.0000000000 0.0000000000
0.1599600000 0.0000000000 0.0000000000
0.1778130000 0.0000000000 0.0000000000
0.1958040000 0.0000000000 0.0000000000
0.2139010000 0.0000000000 0.0000000000
0.2320740000 0.0000000000 0.0000000000
0.2503400000 0.0000000000 0.0000000000
0.2686810000 0.0000000000 0.0000000000
0.2870530000 0.0018005600 0.0000000000
0.3054860000 0.0127718000 0.0000000000
0.3239490000 0.0258640000 0.0000000000
0.3424430000 0.0406043000 0.0038757900
0.3609670000 0.0558785000 0.0230259000
0.3795220000 0.0716106000 0.0444343000
0.3980770000 0.0877391783 0.0654154000
0.4166630000 0.1042331453 0.0859693000
0.4352480000 0.1210488523 0.1062030000
0.4538490000 0.1381390454 0.1261620000
0.4724650000 0.1554583061 0.1458920000
0.4910810000 0.1729756518 0.1654540000
0.5097120000 0.1906767475 0.1848480000
0.5283440000 0.2085299037 0.2041200000
0.5469750000 0.2264899134 0.2233010000
0.5656210000 0.2445719732 0.2423900000
0.5842530000 0.2627450000 0.2614020000
0.6028990000 0.2809949726 0.2803690000
0.6215460000 0.2993060000 0.2992750000
0.6402080000 0.3176319907 0.3181957926
0.6588540000 0.3359880000 0.3370719919
0.6775010000 0.3544060000 0.3559170000
0.6961620000 0.3728690000 0.3747310000
0.7148090000 0.3913480000 0.3935300000
0.7334710000 0.4098730000 0.4122990000
0.7521170000 0.4283970000 0.4310520000
0.7707790000 0.4469670000 0.4497750000
0.7894410000 0.4655370000 0.4685130000
0.8080870000 0.4841230000 0.4872210000
0.8267490000 0.5027240000 0.5059280000
0.8454110000 0.5213240000 0.5246200000
0.8640730000 0.5399400000 0.5433130000
0.8827190000 0.5585720000 0.5619900000
0.9013810000 0.5772030000 0.5806820000
0.9200430000 0.5958340000 0.5993590000
0.9387040000 0.6144660000 0.6180210000
0.9573510000 0.6331120000 0.6366980000
0.9760130000 0.6517590000 0.6553750000
0.9946750000 0.6704050000 0.6740370000
1.0000000000 0.6890520000 0.6926990000
1.0000000000 0.7076980000 0.7113760000
1.0000000000 0.7263600000 0.7300370000
0.0000000000 0.0000000000 0.0000000000
0.0000000000 0.0000000000 0.0000000000
0.0000000000 0.0000000000 0.0000000000
0.0000000000 0.0000000000 0.0000000000
0.0000000000 0.0000000000 0.0000000000
0.0000000000 0.0000000000 0.0000000000
0.0000000000 0.0000000000 0.0000000000
0.0096284400 0.0000000000 0.0000000000
0.0255589000 0.0000000000 0.0000000000
0.0414893000 0.0000000000 0.0000000000
0.0577401000 0.0000000000 0.0000000000
0.0742809000 0.0000000000 0.0000000000
0.0909895000 0.0000000000 0.0000000000
0.1078510000 0.0000000000 0.0000000000
0.1250170000 0.0000000000 0.0000000000
0.1424430000 0.0000000000 0.0000000000
0.1600820000 0.0000000000 0.0000000000
0.1778900000 0.0000000000 0.0000000000
0.1958500000 0.0000000000 0.0000000000
0.2139310000 0.0000000000 0.0000000000
0.2321050000 0.0000000000 0.0000000000
0.2503550000 0.0000000000 0.0000000000
0.2686810000 0.0070801900 0.0000000000
0.2870530000 0.0162966000 0.0000000000
0.3054860000 0.0272831000 0.0000000000
0.3239490000 0.0396480994 0.0000000000
0.3424430000 0.0527047000 0.0048941003
0.3609670000 0.0664225000 0.0240635000
0.3795070000 0.0807660000 0.0453040000
0.3980770000 0.0956588000 0.0661326000
0.4166630000 0.1110550000 0.0865797000
0.4352480000 0.1268940000 0.1067060000
0.4538490000 0.1431140000 0.1265740000
0.4724650000 0.1597010000 0.1462420000
0.4910810000 0.1765930000 0.1657280000
0.5097120000 0.1937440000 0.1850920000
0.5283440000 0.2111090000 0.2043180000
0.5469750000 0.2286870000 0.2234680000
0.5656210000 0.2464330000 0.2425270000
0.5842530000 0.2643020000 0.2615240000
0.6028990000 0.2823070000 0.2804610000
0.6215460000 0.3004199872 0.2993510000
0.6402080000 0.3186079555 0.3182117776
0.6588540000 0.3368577298 0.3370569735
0.6775010000 0.3551379143 0.3559010000
0.6961620000 0.3734798864 0.3747160000
0.7148090000 0.3918669631 0.3935150000
0.7334710000 0.4103000000 0.4122840000
0.7521170000 0.4287630000 0.4310370000
0.7707790000 0.4472570000 0.4497750000
0.7894410000 0.4657820000 0.4684980000
0.8080870000 0.4843370000 0.4872050000
0.8267490000 0.5028920000 0.5059130000
0.8454110000 0.5214770000 0.5246200000
0.8640730000 0.5400780000 0.5433130000
0.8827190000 0.5586790000 0.5619900000
0.9013810000 0.5772790000 0.5806670000
0.9200430000 0.5959110000 0.5993440000
0.9387040000 0.6145270000 0.6180210000
0.9573510000 0.6331580000 0.6366980000
0.9760130000 0.6518040000 0.6553750000
0.9946750000 0.6704360000 0.6740370000
1.0000000000 0.6890820000 0.6926990000
1.0000000000 0.7077290000 0.7113760000
1.0000000000 0.7263750000 0.7300370000
0.0000000000 0.0000000000 0.0000000000
0.0000000000 0.0000000000 0.0000000000
0.0000000000 0.0000000000 0.0000000000
0.0000000000 0.0000000000 0.0000000000
0.0000000000 0.0000000000 0.0000000000
0.0000000000 0.0000000000 0.0000000000
0.0000000000 0.0000000000 0.0000000000
0.0090486000 0.0000000000 0.0000000000
0.0251316000 0.0000000000 0.0000000000
0.0412451000 0.0000000000 0.0000000000
0.0576486000 0.0000000000 0.0000000000
0.0742962000 0.0000000000 0.0000000000
0.0911727000 0.0000000000 0.0000000000
0.1082630000 0.0000000000 0.0000000000
0.1253530000 0.0000000000 0.0000000000
0.1426720000 0.0000000000 0.0000000000
0.1602350000 0.0000000000 0.0000000000
0.1779960000 0.0000000000 0.0000000000
0.1959260000 0.0000000000 0.0000000000
0.2139770000 0.0017700500 0.0000000000
0.2321360000 0.0072480400 0.0000000000
0.2503700000 0.0137789000 0.0000000000
0.2686960000 0.0215305000 0.0000000000
0.2870680000 0.0307164000 0.0000000000
0.3054860000 0.0408637000 0.0000000000
0.3239490000 0.0518196000 0.0000000000
0.3424430000 0.0635538000 0.0059052400
0.3609670000 0.0760204000 0.0250858000
0.3795070000 0.0891890000 0.0461738000
0.3980770000 0.1030140000 0.0668498000
0.4166480000 0.1174490000 0.0871587990
0.4352480000 0.1324180000 0.1071950000
0.4538490000 0.1478750000 0.1269860000
0.4724650000 0.1637900000 0.1465780000
0.4910810000 0.1800870000 0.1660180000
0.5097120000 0.1967190000 0.1853210000
0.5283440000 0.2136420000 0.2045170000
0.5469750000 0.2308380000 0.2236360000
0.5656210000 0.2482490000 0.2426640000
0.5842530000 0.2658430000 0.2616460000
0.6028990000 0.2836040000 0.2805680000
0.6215460000 0.3015180000 0.2994430000
0.6402080000 0.3195240000 0.3182727204
0.6588540000 0.3376520000 0.3370870000
0.6775010000 0.3558560000 0.3558860000
0.6961620000 0.3740749309 0.3747010000
0.7148090000 0.3923698238 0.3935000000
0.7334710000 0.4107269047 0.4122680000
0.7521170000 0.4291290000 0.4310220000
0.7707790000 0.4475619597 0.4497600000
0.7894410000 0.4660410000 0.4684980000
0.8080870000 0.4845500000 0.4872050000
0.8267490000 0.5030750000 0.5059130000
0.8454110000 0.5216300000 0.5246050000
0.8640730000 0.5402000000 0.5432970000
0.8827190000 0.5587850000 0.5619900000
0.9013810000 0.5773710000 0.5806670000
0.9200430000 0.5959870000 0.5993440000
0.9387040000 0.6145880000 0.6180210000
0.9573510000 0.6332190000 0.6366980000
0.9760130000 0.6518500000 0.6553750000
0.9946750000 0.6704810000 0.6740370000
1.0000000000 0.6891130000 0.6926990000
1.0000000000 0.7077590000 0.7113760000
1.0000000000 0.7263900000 0.7300370000
0.0000000000 0.0000000000 0.0000000000
0.0000000000 0.0000000000 0.0000000000
0.0000000000 0.0000000000 0.0000000000
0.0000000000 0.0000000000 0.0000000000
0.0000000000 0.0000000000 0.0000000000
0.0000000000 0.0000000000 0.0000000000
0.0000000000 0.0000000000 0.0000000000
0.0084687600 0.0009308000 0.0000000000
0.0244755000 0.0011596900 0.0000000000
0.0408026000 0.0010528700 0.0000000000
0.0573739000 0.0009002820 0.0000000000
0.0741741000 0.0006866560 0.0000000000
0.0911574000 0.0000000000 0.0000000000
0.1083090000 0.0000000000 0.0000000000
0.1256430000 0.0000000000 0.0000000000
0.1429620000 0.0012817600 0.0000000000
0.1604490000 0.0041352000 0.0000000000
0.1781340000 0.0074769200 0.0000000000
0.1960170000 0.0114290000 0.0000000000
0.2140380000 0.0160983000 0.0000000000
0.2321660000 0.0216220000 0.0000000000
0.2504010000 0.0281682000 0.0000000000
0.2687110000 0.0356298000 0.0000000000
0.2870680000 0.0438697000 0.0000000000
0.3055010000 0.0528878000 0.0000000000
0.3239490000 0.0627298000 0.0000000000
0.3424430000 0.0733806000 0.0068970800
0.3609670000 0.0848096000 0.0260929000
0.3795070000 0.0969863000 0.0470283000
0.3980770000 0.1098950000 0.0675517000
0.4166480000 0.1234610000 0.0877543956
0.4352480000 0.1376670000 0.1076830000
0.4538490000 0.1524380000 0.1273820000
0.4724650000 0.1677120000 0.1469140000
0.4910810000 0.1834590000 0.1662930000
0.5097120000 0.1996030000 0.1855650000
0.5283440000 0.2161140000 0.2047150000
0.5469750000 0.2329440000 0.2238040000
0.5656210000 0.2500340000 0.2428020000
0.5842530000 0.2673690000 0.2617530000
0.6028990000 0.2848860000 0.2806590000
0.6215460000 0.3026020000 0.2995189622
0.6402080000 0.3204390000 0.3183486858
0.6588540000 0.3384300000 0.3371480000
0.6775010000 0.3565120000 0.3559320000
0.6961620000 0.3746850000 0.3746850000
0.7148090000 0.3928740000 0.3934840000
0.7334710000 0.4111539615 0.4122530000
0.7521170000 0.4294800000 0.4310220000
0.7707790000 0.4478678013 0.4497600000
0.7894410000 0.4663000000 0.4684820000
0.8080870000 0.4847639714 0.4872050000
0.8267490000 0.5032580000 0.5059130000
0.8454110000 0.5217819962 0.5246050000
0.8640730000 0.5403220000 0.5432970000
0.8827190000 0.5588920000 0.5619900000
0.9013810000 0.5774620000 0.5806670000
0.9200430000 0.5960480000 0.5993440000
0.9387040000 0.6146640000 0.6180210000
0.9573510000 0.6332650000 0.6366980000
0.9760130000 0.6518810000 0.6553600000
0.9946750000 0.6705120000 0.6740370000
1.0000000000 0.6891430000 0.6926990000
1.0000000000 0.7077740000 0.7113760000
1.0000000000 0.7264210000 0.7300370000
0.0000000000 0.0118868000 0.0000000000
0.0000000000 0.0126192000 0.0000000000
0.0000000000 0.0133364000 0.0000000000
0.0000000000 0.0140688000 0.0000000000
0.0000000000 0.0148013000 0.0000000000
0.0000000000 0.0155184000 0.0000000000
0.0000000000 0.0162509000 0.0000000000
0.0077668400 0.0169680000 0.0000000000
0.0240024000 0.0177005000 0.0000000000
0.0401770000 0.0180972000 0.0000000000
0.0569619000 0.0179904000 0.0000000000
0.0739147000 0.0178073000 0.0000000000
0.0910353000 0.0175479000 0.0000000000
0.1082930000 0.0172427000 0.0000000000
0.1256890000 0.0168917000 0.0000000000
0.1432210000 0.0164797000 0.0000000000
0.1606930000 0.0182803000 0.0000000000
0.1783170000 0.0216831000 0.0000000000
0.1961390000 0.0256809000 0.0000000000
0.2141150000 0.0303502000 0.0000000000
0.2322270000 0.0356298000 0.0000000000
0.2504310000 0.0415503000 0.0000000000
0.2687270000 0.0481727000 0.0000000000
0.2870830000 0.0555428000 0.0000000000
0.3055010000 0.0636759000 0.0000000000
0.3239640000 0.0726177000 0.0000000000
0.3424430000 0.0823529000 0.0078889100
0.3609670000 0.0929122000 0.0270848000
0.3795070000 0.1042491895 0.0478523000
0.3980770000 0.1163500000 0.0682536000
0.4166480000 0.1291680000 0.0883345000
0.4352480000 0.1426720000 0.1081560000
0.4538490000 0.1568020000 0.1277940000
0.4724650000 0.1715110000 0.1472500000
0.4910810000 0.1867400000 0.1665830000
0.5097120000 0.2024260000 0.1857940000
0.5283440000 0.2185400000 0.2049130000
0.5469750000 0.2350040000 0.2239570000
0.5656210000 0.2517890000 0.2429390000
0.5842530000 0.2688490000 0.2618750000
0.6028990000 0.2861520000 0.2807510000
0.6215460000 0.3036700000 0.2995959106
0.6402080000 0.3213550000 0.3184097811
0.6588540000 0.3391930000 0.3372090000
0.6775010000 0.3571530000 0.3559780000
0.6961620000 0.3752190000 0.3747310000
0.7148090000 0.3933780000 0.3934690000
0.7334710000 0.4115820000 0.4122530000
0.7521170000 0.4298470000 0.4310060000
0.7707790000 0.4481728640 0.4497440000
0.7894410000 0.4665450000 0.4684820000
0.8080870000 0.4849769313 0.4871900000
0.8267490000 0.5034410000 0.5058980000
0.8454110000 0.5219349826 0.5246050000
0.8640730000 0.5404440000 0.5432970000
0.8827190000 0.5589840000 0.5619900000
0.9013810000 0.5775540000 0.5806670000
0.9200430000 0.5961240000 0.5993440000
0.9387040000 0.6147250000 0.6180210000
0.9573510000 0.6333260000 0.6366980000
0.9760130000 0.6519260000 0.6553600000
0.9946750000 0.6705420000 0.6740370000
1.0000000000 0.6891740000 0.6926990000
1.0000000000 0.7078050000 0.7113600000
1.0000000000 0.7264360000 0.7300370000
0.0000000000 0.0279240000 0.0000000000
0.0000000000 0.0286412000 0.0000000000
0.0000000000 0.0293584000 0.0000000000
0.0000000000 0.0300755000 0.0000000000
0.0000000000 0.0307774000 0.0000000000
0.0000000000 0.0314794000 0.0000000000
0.0000000000 0.0321813000 0.0000000000
0.0064850800 0.0328679000 0.0000000000
0.0232090000 0.0335546000 0.0000000000
0.0398440180 0.0342870000 0.0000000000
0.0564126000 0.0347601000 0.0000000000
0.0735485000 0.0346380000 0.0000000000
0.0908217000 0.0344244000 0.0000000000
0.1081860000 0.0341497000 0.0000000000
0.1256580000 0.0337987000 0.0000000000
0.1432520000 0.0334020000 0.0000000000
0.1609370000 0.0329442000 0.0000000000
0.1785310000 0.0355230000 0.0000000000
0.1962770000 0.0392168849 0.0000000000
0.2142210000 0.0433814000 0.0000000000
0.2322880000 0.0480964000 0.0000000000
0.2504770000 0.0534066000 0.0000000000
0.2687570000 0.0593729000 0.0000000000
0.2871140000 0.0660410000 0.0000000000
0.3055160000 0.0734569000 0.0000000000
0.3239640000 0.0816358000 0.0000000000
0.3424580000 0.0906386000 0.0088502300
0.3609670000 0.1004350000 0.0280766000
0.3795070000 0.1110400000 0.0486763000
0.3980770000 0.1224230000 0.0689403000
0.4166480000 0.1345690000 0.0888991000
0.4352480000 0.1474480000 0.1086440000
0.4538490000 0.1609980000 0.1281910000
0.4724650000 0.1751580000 0.1475850000
0.4910810000 0.1899140000 0.1668570000
0.5097120000 0.2051730000 0.1860230000
0.5283440000 0.2208900000 0.2051120000
0.5469750000 0.2370340000 0.2241250000
0.5656210000 0.2535130000 0.2430760000
0.5842530000 0.2703290000 0.2619820000
0.6028990000 0.2874190000 0.2808420000
0.6215460000 0.3047380000 0.2996868497
0.6402080000 0.3222550000 0.3184858998
0.6588540000 0.3399560000 0.3372700000
0.6775010000 0.3577940000 0.3560230000
0.6961620000 0.3757690000 0.3747620000
0.7148090000 0.3938510000 0.3935000000
0.7334710000 0.4119940000 0.4122380000
0.7521170000 0.4301980000 0.4309910000
0.7707790000 0.4484630000 0.4497440000
0.7894410000 0.4668040000 0.4684670000
0.8080870000 0.4851758809 0.4871900000
0.8267490000 0.5036090000 0.5058980000
0.8454110000 0.5220719705 0.5246050000
0.8640730000 0.5405660000 0.5432970000
0.8827190000 0.5590910000 0.5619750000
0.9013810000 0.5776460000 0.5806670000
0.9200430000 0.5962010000 0.5993440000
0.9387040000 0.6147860000 0.6180210000
0.9573510000 0.6333710000 0.6366980000
0.9760130000 0.6519720000 0.6553600000
0.9946750000 0.6705880000 0.6740370000
1.0000000000 0.6892040000 0.6926990000
1.0000000000 0.7078350000 0.7113600000
1.0000000000 0.7264670000 0.7300370000
0.0000000000 0.0437171000 0.0000000000
0.0000000000 0.0443427000 0.0000000000
0.0000000000 0.0449531000 0.0000000000
0.0000000000 0.0455787000 0.0000000000
0.0000000000 0.0461891000 0.0000000000
0.0000000000 0.0467842000 0.0000000000
0.0000000000 0.0473945000 0.0000000000
0.0050514174 0.0479896000 0.0000000000
0.0218509000 0.0485847000 0.0000000000
0.0390326000 0.0492256000 0.0000000000
0.0560922000 0.0499733000 0.0000000000
0.0730602000 0.0503853000 0.0000000000
0.0905013000 0.0502632000 0.0000000000
0.1080030000 0.0500343000 0.0000000000
0.1255820000 0.0497444000 0.0000000000
0.1432360000 0.0493935000 0.0000000000
0.1609830000 0.0489815000 0.0000000000
0.1787900000 0.0486305000 0.0000000000
0.1964600000 0.0519417000 0.0000000000
0.2143430000 0.0556954000 0.0000000000
0.2323800000 0.0599374000 0.0000000000
0.2505380000 0.0647288000 0.0000000000
0.2688030000 0.0701305000 0.0000000000
0.2871290000 0.0761883000 0.0000000000
