bundles/resolve-cinematic-luts/Gamut/_Conversion/Blackmagic/Blackmagic PYXIS 6K BaseLUTs/BaseLUT - Blackmagic PYXIS 6K - Gen5 Film to Rec709.cube
TITLE "BaseLUT - Blackmagic PYXIS 6K - Gen5 Film to Rec709"
# Developed for converting Blackmagic Film Gen 5 / Blackmagic Wide Gamut to Rec.709. Version 1.0 - 05/01/2025 - Copyright 2025 Gamut, LLC.
LUT_3D_SIZE 33
0.0000000000 0.0000000000 0.0000000000
0.0000000000 0.0000000000 0.0000000000
0.0000000000 0.0000000000 0.0000000000
0.0000000000 0.0000000000 0.0000000000
0.0000000000 0.0000000000 0.0000000000
0.0000000000 0.0000000000 0.0000000000
0.0019230798 0.0000000000 0.0000000000
0.0210116720 0.0020216263 0.0020216263
0.0832399263 0.0098647833 0.0098647833
0.1628602055 0.0197540860 0.0197540860
0.2460494859 0.0306301672 0.0300879894
0.3263693010 0.0406466952 0.0401554326
0.4009964326 0.0498156796 0.0498156796
0.4765251238 0.0598818181 0.0592852792
0.5514344611 0.0700911144 0.0687369835
0.6241193822 0.0808911356 0.0784950263
0.6924193116 0.0930789393 0.0879759130
0.7547481539 0.1079294063 0.0980239659
0.8095190065 0.1276226318 0.1097935646
0.8560518811 0.1562077430 0.1257392741
0.8940210765 0.1959724570 0.1504200657
0.9237530073 0.2472053230 0.1885488310
0.9467370441 0.3059900004 0.2414599693
0.9655784704 0.3654348037 0.3038749394
0.9829990940 0.4279084340 0.3678107222
0.9948629264 0.4940059433 0.4350254189
0.9973773567 0.5620676271 0.5049019787
0.9978691648 0.6291389698 0.5746797147
0.9981684326 0.6929323482 0.6435819995
0.9983902070 0.7524883392 0.7084301899
0.9986644592 0.8053090642 0.7676735932
0.9989023780 0.8506997487 0.8196145538
0.9992105090 0.8881690533 0.8632332629
0.0000000000 0.0000000000 0.0000000000
0.0000000000 0.0000000000 0.0000000000
0.0000000000 0.0000000000 0.0000000000
0.0000000000 0.0000000000 0.0000000000
0.0000000000 0.0000000000 0.0000000000
0.0000000000 0.0000000000 0.0000000000
0.0032054041 0.0000000000 0.0000000000
0.0320117260 0.0034026847 0.0034026847
0.0975987867 0.0114183841 0.0114183841
0.1740774511 0.0213076868 0.0213076868
0.2540555492 0.0314197902 0.0313951145
0.3318472546 0.0409177841 0.0409177841
0.4048838398 0.0504873345 0.0504655048
0.4794029781 0.0604758092 0.0595271167
0.5532732171 0.0706166540 0.0692700916
0.6254586184 0.0816010082 0.0784950263
0.6933455201 0.0936959261 0.0881860788
0.7552907745 0.1086459091 0.0980239659
0.8098961931 0.1286733983 0.1097935646
0.8562447238 0.1574607058 0.1256181619
0.8941559176 0.1972188683 0.1498986551
0.9238091745 0.2483151524 0.1881374663
0.9467197784 0.3068182019 0.2411012484
0.9656216883 0.3660773157 0.3035184431
0.9829990940 0.4282623312 0.3675708453
0.9948629264 0.4943497253 0.4348137540
0.9973773567 0.5622895285 0.5046678426
0.9978691648 0.6293254644 0.5745704040
0.9981684326 0.6930231515 0.6435246333
0.9983902070 0.7525976731 0.7083925042
0.9986644592 0.8054137028 0.7676725314
0.9989023780 0.8506997487 0.8195795431
0.9992105090 0.8881690533 0.8632332629
0.0000000000 0.0000000000 0.0000000000
0.0000000000 0.0000000000 0.0000000000
0.0000000000 0.0000000000 0.0000000000
0.0000000000 0.0000000000 0.0000000000
0.0000000000 0.0000000000 0.0000000000
0.0000000000 0.0000000000 0.0000000000
0.0066089019 0.0007393333 0.0007393333
0.0468408637 0.0054004797 0.0054004797
0.1117084193 0.0131195735 0.0131195735
0.1856403652 0.0222944278 0.0222944278
0.2626315140 0.0324058182 0.0324058182
0.3374305450 0.0416758823 0.0416758823
0.4087597828 0.0511526094 0.0504873345
0.4822194540 0.0606853182 0.0600940497
0.5552210903 0.0711058525 0.0692700916
0.6266403398 0.0820665005 0.0786954657
0.6941225929 0.0942962748 0.0882000899
0.7558545976 0.1093580022 0.0980239659
0.8103113846 0.1295679166 0.1096411944
0.8565093598 0.1582946106 0.1253251157
0.8942436031 0.1982599089 0.1496413156
0.9238366939 0.2494665578 0.1877892032
0.9468309245 0.3076083994 0.2406281926
0.9656216883 0.3666278706 0.3031912868
0.9830537804 0.4286489909 0.3673552534
0.9948629264 0.4947631190 0.4347120612
0.9973773567 0.5625720139 0.5045419425
0.9978691648 0.6295160174 0.5744218567
0.9981684326 0.6931526775 0.6434785153
0.9983902070 0.7527047853 0.7084199860
0.9986644592 0.8054779611 0.7676335571
0.9989023780 0.8507605600 0.8195466324
0.9992105090 0.8882572356 0.8632642125
0.0000000000 0.0000000000 0.0000000000
0.0000000000 0.0000000000 0.0000000000
0.0000000000 0.0000000000 0.0000000000
0.0000000000 0.0000000000 0.0000000000
0.0000000000 0.0000000000 0.0000000000
0.0000000000 0.0000000000 0.0000000000
0.0139834392 0.0012823243 0.0012823243
0.0624963409 0.0070527834 0.0069540805
0.1265252825 0.0153152087 0.0153152087
0.1966790498 0.0239961204 0.0238482538
0.2706275156 0.0332443574 0.0331704543
0.3425171691 0.0424283822 0.0424283822
0.4125564152 0.0518121298 0.0511526094
0.4849017193 0.0615894378 0.0601326373
0.5571225545 0.0716088744 0.0694582713
0.6278871749 0.0825299912 0.0789756555
0.6949838913 0.0949329021 0.0882000899
0.7564369222 0.1102270953 0.0980239659
0.8105941191 0.1304662816 0.1096411944
0.8566742345 0.1593738220 0.1251834209
0.8943546798 0.1992947308 0.1496240323
0.9238739611 0.2504232449 0.1876453241
0.9468730391 0.3084078943 0.2402691586
0.9656424118 0.3671284461 0.3028651013
0.9830537804 0.4291390863 0.3671650732
0.9948629264 0.4950541771 0.4344286646
0.9973773567 0.5628681745 0.5044697226
0.9978691648 0.6297393489 0.5743519391
0.9981684326 0.6933530551 0.6434278981
0.9983902070 0.7528190008 0.7083457100
0.9986644592 0.8055127781 0.7675991424
0.9989023780 0.8507646828 0.8195444384
0.9992105090 0.8882631144 0.8632662758
0.0000000000 0.0000000000 0.0000000000
0.0000000000 0.0000000000 0.0000000000
0.0000000000 0.0000000000 0.0000000000
0.0000000000 0.0000000000 0.0000000000
0.0000000000 0.0000000000 0.0000000000
0.0019970444 0.0013316444 0.0000000000
0.0227377994 0.0061653645 0.0020709465
0.0706482727 0.0116157273 0.0078916640
0.1348649599 0.0171646679 0.0162765922
0.2037280591 0.0256237484 0.0248350011
0.2767136693 0.0347243350 0.0340238359
0.3467550047 0.0438108793 0.0431718438
0.4158876463 0.0523817042 0.0518121298
0.4871218572 0.0621505055 0.0607234108
0.5587183621 0.0721095820 0.0698011981
0.6290313289 0.0833911394 0.0789756555
0.6958983969 0.0956973802 0.0882000899
0.7570162681 0.1112284977 0.0980239659
0.8109978967 0.1315243977 0.1096411944
0.8568802498 0.1605986686 0.1251834209
0.8944814336 0.2006208592 0.1493925865
0.9239945702 0.2514695093 0.1874357156
0.9468475949 0.3091124103 0.2401143745
0.9656624207 0.3676987239 0.3025810002
0.9830537804 0.4296090875 0.3668898955
0.9948629264 0.4955406787 0.4342601450
0.9973773567 0.5631655242 0.5043150908
0.9978691648 0.6299260308 0.5742033918
0.9981684326 0.6934865403 0.6433386617
0.9983902070 0.7529039583 0.7083064906
0.9986644592 0.8055204666 0.7675955822
0.9989023780 0.8507925117 0.8194851992
0.9992105090 0.8882088292 0.8631804923
0.0000000000 0.0000000000 0.0000000000
0.0000000000 0.0000000000 0.0000000000
0.0000000000 0.0000000000 0.0000000000
0.0000000000 0.0004550879 0.0000000000
0.0000000000 0.0026492890 0.0000000000
0.0054497999 0.0096921784 0.0004550879
0.0262897739 0.0186693551 0.0027627189
0.0702142115 0.0257474397 0.0079903669
0.1333611912 0.0276462504 0.0161780145
0.2060165051 0.0302605631 0.0255005262
0.2798988133 0.0370673712 0.0346996593
0.3501928459 0.0452329897 0.0433153946
0.4188096073 0.0536540205 0.0518121298
0.4896456933 0.0632798653 0.0607234108
0.5606629489 0.0731190347 0.0699537560
0.6304608786 0.0842891291 0.0791292142
0.6968814318 0.0968984529 0.0882000899
0.7576321739 0.1122775245 0.0980239659
0.8113260690 0.1329193363 0.1094915764
0.8571815003 0.1621119126 0.1250417262
0.8946287167 0.2020237047 0.1492644646
0.9240077344 0.2527621425 0.1871590322
0.9469365557 0.3100988580 0.2397992961
0.9656667705 0.3683748681 0.3023404865
0.9831030043 0.4302434315 0.3667022188
0.9948629264 0.4959896899 0.4340325779
0.9973773567 0.5635073731 0.5041512362
0.9978318457 0.6301672501 0.5741030127
0.9981684326 0.6936159623 0.6432572054
0.9983902070 0.7530084420 0.7082358768
0.9986644592 0.8055901006 0.7675257534
0.9989023780 0.8508808396 0.8195049456
0.9992105090 0.8882010741 0.8631682375
0.0000000000 0.0000000000 0.0000000000
0.0000000000 0.0019230798 0.0000000000
0.0000000000 0.0046364081 0.0000000000
0.0000000000 0.0082117603 0.0000000000
0.0013316131 0.0166710910 0.0013316131
0.0042662098 0.0291504685 0.0027789114
0.0260428603 0.0406199241 0.0042907604
0.0670752974 0.0491376759 0.0079903669
0.1270229657 0.0531707642 0.0155371963
0.2011573161 0.0512307023 0.0247116225
0.2798852368 0.0484726199 0.0347243350
0.3519313029 0.0512980992 0.0434350202
0.4219472607 0.0573870909 0.0524666462
0.4926235823 0.0655289211 0.0613086851
0.5631950773 0.0752927228 0.0703284266
0.6322919491 0.0859886263 0.0794537515
0.6981556231 0.0987268330 0.0886359338
0.7584870986 0.1140915808 0.0980239659
0.8118433944 0.1348722518 0.1094340310
0.8574953927 0.1642730520 0.1248688016
0.8948073540 0.2041080983 0.1489974503
0.9241080016 0.2544755895 0.1868820048
0.9469325134 0.3114779938 0.2395991788
0.9657482042 0.3693579527 0.3021908426
0.9831159580 0.4310727279 0.3664505750
0.9948629264 0.4966201910 0.4337832039
0.9973773567 0.5640065651 0.5038944024
0.9978233641 0.6305064306 0.5739423059
0.9981684326 0.6938327287 0.6431501905
0.9983902070 0.7531516650 0.7081149007
0.9986644592 0.8056833626 0.7674905891
0.9989023780 0.8509500214 0.8194534795
0.9992105090 0.8882951352 0.8632012504
0.0000000000 0.0101109150 0.0000000000
0.0014301909 0.0150928458 0.0014301909
0.0020216263 0.0216775411 0.0020216263
0.0035259382 0.0305561400 0.0035259382
0.0049076847 0.0427130756 0.0049076847
0.0065106056 0.0573356753 0.0064612542
0.0154631066 0.0736321583 0.0088036648
0.0581104742 0.0819239818 0.0097411232
0.1163055375 0.0876515321 0.0141800631
0.1902163810 0.0885203738 0.0232998776
0.2725739385 0.0829391890 0.0339488327
0.3510107875 0.0749586289 0.0433393197
0.4231802606 0.0716984763 0.0524666462
0.4955233037 0.0737238556 0.0617589778
0.5659837592 0.0804794045 0.0704466449
0.6348055079 0.0900497993 0.0795758478
0.6998319097 0.1021204168 0.0886359338
0.7597772304 0.1174767829 0.0980239659
0.8126667175 0.1382635561 0.1092812229
0.8579779366 0.1675060024 0.1246250607
0.8950249971 0.2071653051 0.1485227233
0.9242442510 0.2570096422 0.1864113866
0.9470243884 0.3135152519 0.2391221470
0.9657821013 0.3708782144 0.3017637985
0.9831588767 0.4321938599 0.3662070366
0.9948629264 0.4974551882 0.4334895911
0.9973773567 0.5646728325 0.5035831067
0.9978233641 0.6309701073 0.5737214593
0.9981684326 0.6941483783 0.6429239752
0.9983902070 0.7533750267 0.7080002159
0.9986644592 0.8058061598 0.7674135775
0.9989023780 0.8509888757 0.8194381839
0.9992105090 0.8882951352 0.8631504493
0.0041427686 0.0385536688 0.0041427686
0.0055238583 0.0473292178 0.0055238583
0.0064612855 0.0565556849 0.0064612855
0.0080149488 0.0668601902 0.0080149488
0.0095685496 0.0790338577 0.0095685496
0.0111221504 0.0928231750 0.0111221504
0.0134159602 0.1114812601 0.0133171962
0.0357201519 0.1249489285 0.0156111922
0.0982990580 0.1307028746 0.0157837033
0.1735359049 0.1343905123 0.0211847460
0.2583806855 0.1318520329 0.0318143515
0.3430310662 0.1227190754 0.0423544489
0.4208914780 0.1101474063 0.0523817042
0.4964319429 0.1005208109 0.0618905504
0.5685606480 0.0965175899 0.0708530906
0.6377178591 0.1000778364 0.0799299084
0.7022395512 0.1094623658 0.0887470214
0.7615543363 0.1237301543 0.0981382436
0.8138620646 0.1440945700 0.1092812229
0.8585982924 0.1728378912 0.1243196030
0.8953302325 0.2118674126 0.1480988442
0.9244064213 0.2609777429 0.1857232134
0.9471185821 0.3165221469 0.2384063018
0.9658301661 0.3730383313 0.3012490472
0.9831708940 0.4338713301 0.3658709274
0.9948950006 0.4986471094 0.4331777330
0.9973773567 0.5656612966 0.5032489257
0.9978233641 0.6316258353 0.5734200085
0.9981684326 0.6946022644 0.6427097579
0.9983856003 0.7536853172 0.7078839661
0.9986644592 0.8059840265 0.7672772926
0.9989023780 0.8511096237 0.8193954000
0.9992105090 0.8883571756 0.8631032121
0.0101606730 0.0867072870 0.0101606730
0.0117142738 0.0957118604 0.0117142738
0.0124784183 0.1048520095 0.0124784183
0.0140321339 0.1137683883 0.0140321339
0.0154632317 0.1235666503 0.0154632317
0.0170166762 0.1358054711 0.0170166762
0.0187676827 0.1516674408 0.0187676827
0.0219489740 0.1726090092 0.0216530530
0.0627828169 0.1835132192 0.0233500054
0.1481320137 0.1874936979 0.0233500054
0.2368483171 0.1884691774 0.0295204792
0.3275470684 0.1835425623 0.0408684952
0.4118834658 0.1708917385 0.0510877770
0.4933816749 0.1545345167 0.0613086851
0.5689972100 0.1393605537 0.0712904982
0.6401286463 0.1282408070 0.0804030630
0.7049628772 0.1276682928 0.0891665399
0.7637617579 0.1369156701 0.0984218423
0.8153226988 0.1547055384 0.1091279770
0.8595864166 0.1817421940 0.1238904022
0.8958533911 0.2193001246 0.1472742871
0.9246458529 0.2669045204 0.1847516620
0.9472724382 0.3207629232 0.2375665417
0.9658903482 0.3761565587 0.3005859985
0.9832513316 0.4362120064 0.3652981021
0.9949052755 0.5004818308 0.4327157568
0.9973620898 0.5669577189 0.5029674559
0.9978233641 0.6324523243 0.5731091247
0.9981684326 0.6952841621 0.6423220985
0.9983856003 0.7541319741 0.7076127166
0.9986644592 0.8062224323 0.7671793573
0.9989023780 0.8512630419 0.8192615632
0.9992105090 0.8883891964 0.8630564751
0.0182496490 0.1466679237 0.0182496490
0.0192613535 0.1541876442 0.0192613535
0.0200253625 0.1615479512 0.0200253625
0.0215789633 0.1690979032 0.0215789633
0.0223437617 0.1767671362 0.0223437617
0.0233499419 0.1865459679 0.0233499419
0.0254511435 0.2000344340 0.0254511435
0.0278681755 0.2173908725 0.0278681755
0.0331358161 0.2390621767 0.0309262133
0.0993192066 0.2480618282 0.0316909104
0.2045300806 0.2502158010 0.0324551696
0.3041590188 0.2494630646 0.0386129656
0.3949586820 0.2420793605 0.0497716448
0.4835746133 0.2262791192 0.0606662719
0.5653324097 0.2069836462 0.0708530906
0.6398744930 0.1873189516 0.0804030630
0.7069100360 0.1708090849 0.0895021172
0.7661009017 0.1661315863 0.0985105060
0.8171938593 0.1754114553 0.1089742932
0.8607572389 0.1972901480 0.1234594991
0.8964842980 0.2312541035 0.1464622541
0.9249386935 0.2758834297 0.1835502607
0.9474856432 0.3268126198 0.2363301619
0.9660577829 0.3806801483 0.2995146308
0.9833112930 0.4397097287 0.3645114688
0.9949147331 0.5030658302 0.4321444960
0.9973620898 0.5686735977 0.5025568657
0.9978233641 0.6335608654 0.5728062010
0.9981684326 0.6962230565 0.6419794322
0.9983856003 0.7547506457 0.7073137035
0.9986644592 0.8065385982 0.7669537564
0.9989023780 0.8514912638 0.8191497609
0.9992105090 0.8885265981 0.8630051739
0.0275721294 0.2141612396 0.0275721294
0.0283364199 0.2199963738 0.0283364199
0.0291013672 0.2258729686 0.0291013672
0.0298660643 0.2315710388 0.0298660643
0.0306302610 0.2373948595 0.0306302610
0.0316662972 0.2445807262 0.0316662972
0.0330719481 0.2551948904 0.0330719481
0.0347736552 0.2693163896 0.0347736552
0.0377080954 0.2879794050 0.0377080954
0.0484099767 0.3089618966 0.0406959841
0.1434829724 0.3159929381 0.0416758823
0.2667828441 0.3167127935 0.0421572934
0.3700665590 0.3144194617 0.0484546057
0.4651699141 0.3053783346 0.0592465113
0.5552821811 0.2877614330 0.0702775740
0.6358573087 0.2664417131 0.0803423901
0.7061548082 0.2438905878 0.0895021172
0.7673462586 0.2234969408 0.0986371685
0.8189295773 0.2159188037 0.1089742932
0.8619947664 0.2256347270 0.1227075080
0.8972536543 0.2514878177 0.1451955014
0.9254094700 0.2901989895 0.1817839466
0.9477535909 0.3364607319 0.2346293623
0.9661854794 0.3873775451 0.2979692701
0.9834614931 0.4444751093 0.3635796888
0.9949525634 0.5065166360 0.4313616640
0.9973620898 0.5711025900 0.5020004289
0.9978233641 0.6353191719 0.5723483056
0.9981684326 0.6975297419 0.6416548568
0.9983856003 0.7555305881 0.7069890242
0.9986644592 0.8070355687 0.7666556722
0.9989023780 0.8518485419 0.8189317040
0.9992105090 0.8887127503 0.8629088238
0.0373874987 0.2861866588 0.0373874987
0.0381696158 0.2904467503 0.0381696158
0.0388945628 0.2945505754 0.0384160603
0.0391659332 0.2987539119 0.0391659332
0.0399108647 0.3030428351 0.0399108647
0.0406499478 0.3079116496 0.0406499478
0.0418432018 0.3156034743 0.0418432018
0.0434307043 0.3255890378 0.0434307043
0.0455440889 0.3388398290 0.0455440889
0.0483852697 0.3562910444 0.0483192176
0.0680713958 0.3755985959 0.0513821030
0.1946876384 0.3813686388 0.0526083830
0.3310148242 0.3813041251 0.0526083830
0.4377917249 0.3781434823 0.0587263351
0.5363548826 0.3687728280 0.0695616967
0.6258023811 0.3510176310 0.0801755398
0.7021902449 0.3295407100 0.0899329571
0.7664264604 0.3063096231 0.0992753595
0.8196825822 0.2841120760 0.1090433477
0.8631300043 0.2751651797 0.1223446048
0.8980840390 0.2855943858 0.1436407564
0.9259022496 0.3127970870 0.1797254054
0.9480760620 0.3511183981 0.2321694092
0.9664426124 0.3978486635 0.2959318268
0.9836263636 0.4520236157 0.3620452906
0.9949840887 0.5118191134 0.4302103945
0.9974061942 0.5748795136 0.5011070287
0.9978233641 0.6380521267 0.5717830110
0.9981684326 0.6992233846 0.6412186111
0.9983856003 0.7567032713 0.7066581160
0.9986644592 0.8078335825 0.7663093698
0.9989023780 0.8523434028 0.8186927411
0.9992105090 0.8889813311 0.8627158109
0.0484070995 0.3564553617 0.0480113497
0.0486990173 0.3593437575 0.0486990173
0.0493363952 0.3621110012 0.0493363952
0.0497700811 0.3649236322 0.0493808678
0.0500563069 0.3674531403 0.0500563069
0.0506165927 0.3707869449 0.0506165927
0.0517690645 0.3756890215 0.0513893587
0.0529244762 0.3828985900 0.0525513067
0.0549263682 0.3931689118 0.0544590932
0.0571919682 0.4067976926 0.0571919682
0.0607112449 0.4249097623 0.0605433937
0.0950575942 0.4441118826 0.0643896159
0.2516305858 0.4493896060 0.0657721755
0.3956643329 0.4486217159 0.0657904399
0.5076131034 0.4448701936 0.0715715324
0.6068058823 0.4344742533 0.0814645568
0.6927885692 0.4156953460 0.0910670081
0.7628434020 0.3937840765 0.1002761804
0.8187526777 0.3703635109 0.1099626668
0.8636618358 0.3482023458 0.1222807214
0.8989475507 0.3387517282 0.1424119204
0.9265117830 0.3481528380 0.1771747336
0.9485269449 0.3745972574 0.2291957762
0.9667813344 0.4140808863 0.2932202637
0.9838481990 0.4634400660 0.3600219996
0.9950080479 0.5199481387 0.4287180868
0.9974061942 0.5805634246 0.4999152761
0.9978233641 0.6418452038 0.5709753085
0.9981684326 0.7018296150 0.6406420431
0.9983856003 0.7582608979 0.7062658590
0.9986644592 0.8088396787 0.7660159075
0.9989023780 0.8529709117 0.8183672073
0.9992105090 0.8892718010 0.8625368036
0.0612678403 0.4259410003 0.0606815027
0.0615836520 0.4278623169 0.0612678403
0.0618502999 0.4298801112 0.0618122073
0.0623714298 0.4319785012 0.0618502999
0.0627400644 0.4340579202 0.0624281933
0.0633122659 0.4364298613 0.0629092291
0.0640292691 0.4398185625 0.0634613835
0.0650058208 0.4447096263 0.0645739801
0.0669277435 0.4525644151 0.0660807002
0.0690542651 0.4630528601 0.0686055986
0.0726221113 0.4773059244 0.0715478262
0.0781457195 0.4958395409 0.0761318806
0.1313514532 0.5147472694 0.0811059926
0.3121766125 0.5196253964 0.0824137119
0.4633898123 0.5182734307 0.0826273805
0.5780568704 0.5140767806 0.0870524344
0.6747977348 0.5031690616 0.0951542017
0.7542608051 0.4839089191 0.1034447742
0.8156414476 0.4617102572 0.1126410528
0.8628253514 0.4378051990 0.1241218865
0.8992045730 0.4145401739 0.1425387585
0.9270829835 0.4039142155 0.1748082540
0.9490337925 0.4129854026 0.2254323003
0.9671611928 0.4401601660 0.2897516691
0.9841347716 0.4810654371 0.3571643333
0.9950856001 0.5320396421 0.4265606672
0.9974061942 0.5888132052 0.4981794047
0.9978148825 0.6474486586 0.5697626110
0.9981684326 0.7054918668 0.6397305888
0.9983856003 0.7605162699 0.7056806036
0.9986644592 0.8102911150 0.7656167026
0.9989023780 0.8538334298 0.8181435714
0.9992105090 0.8898017391 0.8623262214
0.0778313464 0.4971659718 0.0765997810
0.0783161039 0.4986928409 0.0770746244
0.0787983907 0.5000902258 0.0773384888
0.0792307318 0.5016030477 0.0778259046
0.0796924398 0.5031146208 0.0783103181
0.0801524903 0.5048065602 0.0784685680
0.0806102577 0.5069597473 0.0791776274
0.0817701104 0.5104600617 0.0801151171
0.0832510288 0.5158016528 0.0813895288
0.0855863088 0.5235812991 0.0835370357
0.0891493388 0.5344675506 0.0865039391
0.0941368677 0.5488693708 0.0907084752
0.1029501965 0.5676653562 0.0967347925
0.1785189944 0.5856454074 0.1028228460
0.3760342828 0.5901157923 0.1046222344
0.5332354922 0.5888137059 0.1044329601
0.6469734744 0.5844228062 0.1075371906
0.7377518881 0.5737847146 0.1127913520
0.8082364548 0.5548877394 0.1191790365
0.8601804585 0.5330794302 0.1291442192
0.8983580136 0.5092494109 0.1457418037
0.9271763239 0.4853692465 0.1747028360
0.9494209082 0.4737019429 0.2222336874
0.9675828088 0.4819362370 0.2854757199
0.9845073065 0.5090051144 0.3533158037
0.9951217778 0.5508087038 0.4235724903
0.9974061942 0.6012083787 0.4956773776
0.9978148825 0.6555231203 0.5678910090
0.9981684326 0.7106825621 0.6384858105
0.9983856003 0.7638477350 0.7049102687
0.9986644592 0.8123423994 0.7651349585
0.9989023780 0.8549399377 0.8178445856
0.9992105090 0.8905049314 0.8620727474
0.1024368227 0.5692705502 0.0974533907
0.1028201251 0.5702933119 0.0978410091
0.1032019263 0.5713627006 0.0980428558
0.1035446342 0.5722935536 0.0984416705
0.1040890012 0.5733311796 0.0988379832
0.1045174643 0.5745927097 0.0992337955
0.1053686359 0.5762879662 0.0997575837
0.1064743833 0.5787327304 0.1007120556
0.1080089691 0.5821739386 0.1017600387
0.1103032635 0.5871871072 0.1035356897
0.1140754922 0.5951194214 0.1065516943
0.1194506093 0.6056584444 0.1104727109
0.1275655594 0.6198188312 0.1160355364
0.1423248560 0.6378938528 0.1239813679
0.2369813733 0.6546739985 0.1319613239
0.4444790284 0.6586966195 0.1342062071
0.6030452359 0.6571821545 0.1337787587
0.7121049455 0.6532727602 0.1346705703
0.7937627174 0.6434338108 0.1364658725
0.8538291424 0.6260182363 0.1416071514
0.8961147059 0.6059723371 0.1547212263
0.9264321710 0.5830568813 0.1796345914
0.9493759735 0.5590431688 0.2215811267
0.9678738700 0.5460959229 0.2814795107
0.9848759086 0.5531435667 0.3489653206
0.9952394354 0.5799420945 0.4195930870
0.9974061942 0.6201710904 0.4924232635
0.9978148825 0.6677819889 0.5654127135
0.9981407925 0.7186274937 0.6367581686
0.9983856003 0.7688018684 0.7037058281
0.9986147429 0.8153822645 0.7643315521
0.9989023780 0.8566088255 0.8173460043
0.9992105090 0.8915243268 0.8617977026
0.1406894411 0.6393352996 0.1251222303
0.1410936757 0.6400743477 0.1254260167
0.1416389906 0.6407886715 0.1255733445
0.1420312609 0.6415221941 0.1258870353
0.1425826826 0.6422542495 0.1261992713
0.1432505079 0.6430627258 0.1266342909
0.1440182858 0.6442249613 0.1270704247
0.1450634570 0.6457707064 0.1277803222
0.1466123170 0.6478892342 0.1288154552
0.1489648792 0.6510795285 0.1305277703
0.1526901692 0.6562414711 0.1328250894
0.1585898005 0.6636289428 0.1365978142
0.1672049177 0.6737105494 0.1419843468
0.1793413852 0.6870946703 0.1493618710
0.2013571018 0.7040365492 0.1596430082
0.3079636934 0.7190738287 0.1697442491
0.5172120990 0.7225964676 0.1722201808
0.6714053845 0.7215966297 0.1716662280
0.7709660336 0.7183169508 0.1709212345
0.8415814980 0.7100150326 0.1700989365
0.8909240789 0.6948637893 0.1747475550
0.9244617736 0.6767577043 0.1932076164
0.9485472815 0.6556380952 0.2280412578
0.9677939276 0.6321731131 0.2806214274
0.9851563320 0.6185878285 0.3447417228
0.9953670312 0.6247477121 0.4146441441
0.9974061942 0.6492837919 0.4880387506
0.9978148825 0.6862674867 0.5621064392
0.9980835753 0.7302381357 0.6342769232
0.9983856003 0.7758882882 0.7019858381
0.9986147429 0.8196068448 0.7633289647
0.9989023780 0.8590889286 0.8167615104
0.9992105090 0.8929699800 0.8614292150
0.1989831407 0.7052685114 0.1609373575
0.1994497663 0.7057275299 0.1612756583
0.1999588835 0.7062355913 0.1615305254
0.2004230684 0.7066586575 0.1618976590
0.2010057168 0.7071230626 0.1620218715
0.2015533831 0.7076898755 0.1624707189
0.2023968010 0.7083899123 0.1628522690
0.2035775862 0.7093982373 0.1634299572
0.2052715250 0.7109130265 0.1643270579
0.2074808822 0.7130282321 0.1656831382
0.2108330807 0.7159791101 0.1676445199
0.2162356640 0.7204546736 0.1707255654
0.2247755811 0.7274419535 0.1754694698
0.2368629601 0.7366673394 0.1821574586
0.2536801260 0.7487295242 0.1913717893
