bundles/resolve-cinematic-luts/Phantom Luts/Canon Alexa LUT/C-Log 2/IceBlue Canon CL2.cube
TITLE "Generated by Resolve"
LUT_3D_SIZE 5
0.0262913 0.0387274 0.0362402
0.139376 0.0394293 0.0437629
0.579248 0.0523384 0.136919
0.71191 0.0860456 0.263645
0.716777 0.0834821 0.306905
0.0267643 0.169146 0.0595102
0.109575 0.151003 0.0467994
0.562539 0.0520027 0.0763561
0.693523 0.0835279 0.201923
0.700771 0.0826276 0.22887
0.0928664 0.661845 0.181445
0.104189 0.672053 0.17348
0.613703 0.684016 0.1411
0.895262 0.646464 0.255344
0.902174 0.682612 0.266545
0.216846 0.840513 0.337881
0.221561 0.834043 0.289509
0.424521 0.867033 0.255589
0.988708 0.951812 0.484169
0.987533 0.953674 0.494789
0.213733 0.847456 0.388098
0.220218 0.834272 0.290669
0.545769 0.88098 0.257786
0.991348 0.952422 0.491615
0.986435 0.954177 0.493263
0.021973 0.0442969 0.131136
0.131838 0.0405127 0.148989
0.598108 0.0508736 0.234379
0.722728 0.0855726 0.334554
0.725139 0.0847791 0.381598
0.0260777 0.142382 0.144823
0.101061 0.131945 0.146197
0.580987 0.0507668 0.154437
0.71342 0.084947 0.277043
0.717006 0.0837262 0.307073
0.0780957 0.656947 0.256199
0.0922103 0.664408 0.198596
0.589944 0.677043 0.131182
0.886381 0.60528 0.242496
0.89221 0.634638 0.250874
0.213062 0.852842 0.436973
0.214984 0.844068 0.364996
0.363973 0.858976 0.261616
0.986877 0.951186 0.481651
0.987411 0.953628 0.495644
0.219623 0.864622 0.535897
0.211765 0.852506 0.432654
0.476356 0.873137 0.255116
0.989899 0.951278 0.485679
0.985367 0.954086 0.497337
0.020264 0.0713359 0.493339
0.114382 0.0574502 0.551247
0.559106 0.0598459 0.559701
0.720195 0.101091 0.604166
0.708827 0.104189 0.641169
0.0106355 0.108553 0.48011
0.0181735 0.0737621 0.494438
0.55111 0.0601511 0.569543
0.72224 0.10042 0.596185
0.713512 0.103456 0.630426
0.0888838 0.623758 0.602609
0.0940108 0.63331 0.611841
0.537575 0.623072 0.634699
0.983322 0.452735 0.622507
0.982727 0.452598 0.649989
0.279545 0.893431 0.766232
0.286488 0.890394 0.758556
0.220401 0.863142 0.530373
0.983932 0.948867 0.478828
0.990326 0.957412 0.580331
0.306554 0.909957 0.844892
0.315755 0.904051 0.832105
0.232761 0.871138 0.607828
0.983185 0.95436 0.506355
0.987091 0.960586 0.58114
0.0396429 0.172747 0.662394
0.124254 0.150301 0.715648
0.531655 0.104372 0.747936
0.684153 0.114443 0.723354
0.68336 0.114549 0.724468
0.0231174 0.179171 0.630564
0.0354009 0.174258 0.658213
0.516854 0.105089 0.750607
0.685512 0.11426 0.721736
0.683177 0.11458 0.724697
0.148226 0.641733 0.804547
0.152499 0.647715 0.808637
0.320546 0.585092 0.917433
0.797955 0.260166 0.82266
0.809033 0.280507 0.839765
0.330663 0.920989 0.90338
0.344289 0.918044 0.90016
0.340307 0.916045 0.898543
0.960555 0.968704 0.972946
0.989258 0.970352 0.975753
0.328298 0.921736 0.904036
0.345907 0.917586 0.89984
0.33962 0.919173 0.900999
0.972015 0.986419 0.985458
0.992309 0.98996 0.993225
0.055024 0.169436 0.677272
0.150958 0.141665 0.72314
0.546304 0.103471 0.744778
0.684153 0.114443 0.723369
0.683757 0.114488 0.72398
0.0234226 0.17966 0.631251
0.0465553 0.17145 0.670054
0.53019 0.104509 0.748608
0.685435 0.11426 0.721859
0.683207 0.114565 0.724727
0.151217 0.643778 0.810224
0.152132 0.645411 0.809461
0.32253 0.566476 0.917861
0.785901 0.244862 0.812985
0.800824 0.268986 0.832212
0.333608 0.920516 0.902556
0.347677 0.917113 0.899336
0.345312 0.915389 0.898756
0.949203 0.965164 0.982422
0.985595 0.966018 0.981018
0.324651 0.922591 0.904921
0.349264 0.916671 0.899001
0.349523 0.916609 0.898955
0.953155 0.984695 0.989013
0.997894 0.988586 0.988586
