bundles/resolve-cinematic-luts/Phantom Luts/Canon Alexa LUT/C-Log 2/IceBlue Canon CL2.cube
TITLE "Generated by Resolve"
LUT_3D_SIZE 9
0.0262913 0.0387274 0.0362402
0.0450599 0.0388342 0.0400854
0.139376 0.0394293 0.0437629
0.364263 0.0390478 0.064683
0.579248 0.0523384 0.136919
0.705516 0.08542 0.238468
0.71191 0.0860456 0.263645
0.714595 0.0859541 0.277821
0.716777 0.0834821 0.306905
0.028687 0.0561227 0.043946
0.038529 0.0522927 0.0423133
0.127626 0.0415656 0.0398871
0.3505 0.0393378 0.0452277
0.577829 0.0526589 0.120165
0.701778 0.0846418 0.226688
0.708797 0.0855421 0.251774
0.712077 0.0856031 0.266789
0.71426 0.083238 0.29221
0.0267643 0.169146 0.0595102
0.0267491 0.16817 0.0529641
0.109575 0.151003 0.0467994
0.371847 0.0802319 0.0352026
0.562539 0.0520027 0.0763561
0.675502 0.0800793 0.165591
0.693523 0.0835279 0.201923
0.69984 0.0844282 0.218952
0.700771 0.0826276 0.22887
0.0224918 0.403143 0.0644236
0.0225986 0.411444 0.0550698
0.0246128 0.402426 0.0544442
0.298695 0.384802 0.0327611
0.641794 0.318898 0.0776684
0.688212 0.107073 0.0995956
0.693294 0.089601 0.131655
0.694835 0.0887617 0.14493
0.691676 0.0913863 0.130388
0.0928664 0.661845 0.181445
0.101259 0.669383 0.175738
0.104189 0.672053 0.17348
0.135378 0.671916 0.15491
0.613703 0.684016 0.1411
0.878202 0.719432 0.264302
0.895262 0.646464 0.255344
0.890654 0.62623 0.249256
0.902174 0.682612 0.266545
0.219486 0.834745 0.294774
0.222049 0.833967 0.287922
0.223011 0.833707 0.288212
0.222004 0.834058 0.28748
0.498634 0.874571 0.253361
0.906538 0.911345 0.369192
0.975265 0.924392 0.406943
0.974624 0.923323 0.406119
0.978058 0.930541 0.420096
0.216846 0.840513 0.337881
0.217594 0.838392 0.319158
0.221561 0.834043 0.289509
0.221317 0.834028 0.288075
0.424521 0.867033 0.255589
0.869749 0.918959 0.347143
0.988708 0.951812 0.484169
0.988922 0.953353 0.493706
0.987533 0.953674 0.494789
0.214435 0.845273 0.375128
0.214252 0.842603 0.352758
0.219257 0.835203 0.299153
0.220264 0.833829 0.28986
0.430442 0.867872 0.255924
0.857206 0.917082 0.343557
0.987427 0.950195 0.480369
0.991577 0.952529 0.493828
0.987121 0.95375 0.495369
0.213733 0.847456 0.388098
0.214923 0.843091 0.353506
0.220218 0.834272 0.290669
0.219883 0.833982 0.289525
0.545769 0.88098 0.257786
0.944259 0.933379 0.405997
0.991348 0.952422 0.491615
0.990951 0.952865 0.492515
0.986435 0.954177 0.493263
0.0255131 0.040116 0.0474861
0.0425727 0.0394446 0.0533455
0.140871 0.0389715 0.0727703
0.370825 0.0387884 0.102281
0.588785 0.0512398 0.17351
0.710857 0.084184 0.26775
0.715587 0.084596 0.291936
0.717632 0.0844739 0.306325
0.718914 0.0830243 0.330114
0.0279088 0.0510872 0.0492409
0.0346838 0.0486152 0.0487678
0.134829 0.0417792 0.0528267
0.369985 0.0379187 0.0777295
0.590784 0.0520027 0.158633
0.708064 0.0834974 0.257359
0.713542 0.0842298 0.282002
0.71577 0.0841688 0.295964
0.716991 0.0827649 0.315068
0.0270085 0.161166 0.0782483
0.0263523 0.161944 0.0606394
0.101457 0.145708 0.0480964
0.376287 0.0648814 0.0352331
0.560479 0.0503243 0.0870832
0.688029 0.0816358 0.192844
0.701671 0.0838483 0.228305
0.705486 0.0841993 0.24239
0.706813 0.0826429 0.254429
0.0224155 0.399191 0.0831159
0.0226444 0.406546 0.0652476
0.0225223 0.401816 0.0551614
0.289891 0.383536 0.0327153
0.642878 0.299306 0.0776532
0.685588 0.0977188 0.100114
0.69482 0.0895247 0.138079
0.692226 0.0874647 0.145754
0.688182 0.0870222 0.129854
0.0896162 0.662882 0.200916
0.0986801 0.670069 0.187808
0.103655 0.671351 0.1729
0.124361 0.670848 0.15964
0.610849 0.684916 0.140719
0.879683 0.71902 0.264927
0.894286 0.642069 0.253849
0.88957 0.620966 0.247318
0.900649 0.675959 0.2636
0.218296 0.836789 0.310674
0.221042 0.835172 0.295506
0.222492 0.833906 0.28777
0.221775 0.834058 0.287404
0.491371 0.873884 0.253315
0.906935 0.911696 0.369574
0.975082 0.924346 0.406744
0.973953 0.922942 0.406683
0.977417 0.929976 0.419425
0.214725 0.844053 0.363668
0.215335 0.841703 0.344732
0.220768 0.835203 0.297108
0.221286 0.834043 0.288045
0.416388 0.866087 0.25626
0.86656 0.918654 0.345953
0.988327 0.95172 0.483742
0.988922 0.953353 0.493706
0.987533 0.953674 0.494789
0.213016 0.848981 0.404547
0.212528 0.84651 0.382818
0.216953 0.838148 0.320928
0.220249 0.833844 0.289845
0.411658 0.865492 0.257099
0.852018 0.91635 0.341161
0.987106 0.950027 0.479637
0.991638 0.952514 0.493858
0.987305 0.953765 0.494636
0.214023 0.852186 0.432227
0.21297 0.84831 0.399786
0.218433 0.836835 0.308125
0.219883 0.833982 0.289525
0.533059 0.879408 0.256535
0.939162 0.932235 0.400992
0.991257 0.952316 0.490959
0.990829 0.952819 0.493385
0.985702 0.953933 0.497749
0.021973 0.0442969 0.131136
0.0420996 0.0422065 0.142229
0.131838 0.0405127 0.148989
0.375631 0.0365301 0.17818
0.598108 0.0508736 0.234379
0.717983 0.0847334 0.306203
0.722728 0.0855726 0.334554
0.725078 0.0859541 0.35256
0.725139 0.0847791 0.381598
0.0205234 0.050248 0.11133
0.022446 0.0448005 0.129168
0.120195 0.0406958 0.144854
0.376516 0.0363317 0.1673
0.603204 0.0520333 0.224338
0.716457 0.0844892 0.298283
0.721019 0.0851759 0.324773
0.723552 0.0855421 0.343084
0.724254 0.0845655 0.370672
0.0260777 0.142382 0.144823
0.0253758 0.142046 0.145037
0.101061 0.131945 0.146197
0.405707 0.0778058 0.134157
0.580987 0.0507668 0.154437
0.707988 0.0845045 0.252232
0.71342 0.084947 0.277043
0.715557 0.0851148 0.288426
0.717006 0.0837262 0.307073
0.0230716 0.383215 0.168017
0.0226749 0.390234 0.150759
0.0224155 0.385565 0.0826886
0.257389 0.369726 0.0343023
0.634272 0.230625 0.0789807
0.701701 0.0964218 0.143481
0.696101 0.0891127 0.165438
0.683589 0.0825971 0.167208
0.694774 0.0879683 0.170565
0.0780957 0.656947 0.256199
0.0852979 0.665705 0.244556
0.0922103 0.664408 0.198596
0.0980697 0.65745 0.161532
0.589944 0.677043 0.131182
0.875807 0.697398 0.256214
0.886381 0.60528 0.242496
0.880995 0.581567 0.235981
0.89221 0.634638 0.250874
0.212253 0.844404 0.374456
0.215412 0.842588 0.357748
0.221088 0.836149 0.310338
0.222431 0.833341 0.288136
0.456321 0.869322 0.252903
0.900649 0.908186 0.364187
0.973617 0.920836 0.399039
0.971725 0.918212 0.397498
0.97496 0.924788 0.408896
0.213062 0.852842 0.436973
0.212772 0.851453 0.421714
0.214984 0.844068 0.364996
0.221775 0.833844 0.288472
0.363973 0.858976 0.261616
0.844953 0.915831 0.336706
0.986877 0.951186 0.481651
0.988632 0.953246 0.495735
0.987411 0.953628 0.495644
0.214969 0.858228 0.482536
0.213077 0.856764 0.466056
0.211917 0.848966 0.405554
0.220127 0.83389 0.289845
0.342565 0.855833 0.265263
0.822934 0.912535 0.328084
0.985275 0.948745 0.473899
0.991913 0.952239 0.495674
0.987503 0.95346 0.497002
0.219623 0.864622 0.535897
0.215991 0.86273 0.515145
0.211765 0.852506 0.432654
0.220493 0.833753 0.290059
0.476356 0.873137 0.255116
0.920027 0.927642 0.383078
0.989899 0.951278 0.485679
0.990829 0.952819 0.493385
0.985367 0.954086 0.497337
0.0171054 0.0523842 0.307836
0.035996 0.0482795 0.326329
0.12813 0.0437781 0.340536
0.349355 0.039292 0.340917
0.606836 0.0525673 0.367712
0.732845 0.0887312 0.408606
0.735073 0.0899825 0.432303
0.735622 0.0906996 0.448096
0.73257 0.0909743 0.479652
0.0119478 0.0570687 0.287922
0.0163424 0.0528573 0.312764
0.10338 0.0449226 0.352712
0.352087 0.0394446 0.353796
0.614755 0.0540932 0.372061
0.73286 0.0887312 0.410346
0.735515 0.0901808 0.433356
0.736584 0.0910811 0.448371
0.732586 0.0911421 0.481102
0.0127108 0.134813 0.288746
0.0112917 0.126329 0.304204
0.031693 0.087068 0.351293
0.322164 0.0438087 0.346441
0.604501 0.0515297 0.33019
0.729305 0.0874495 0.374578
0.732723 0.088777 0.397818
0.733944 0.0891585 0.410056
0.733501 0.0892805 0.43772
0.0207523 0.362615 0.339162
0.0200198 0.369482 0.346044
0.0197604 0.36228 0.342901
0.285512 0.353124 0.358511
0.711788 0.242893 0.330846
0.733623 0.096437 0.30898
0.719448 0.0857862 0.301488
0.719036 0.0851453 0.305989
0.721782 0.0852369 0.32253
0.0704509 0.644358 0.40621
0.0743877 0.653529 0.407279
0.0730602 0.653132 0.378729
0.0702068 0.63949 0.245869
0.540536 0.659709 0.144305
0.883925 0.616342 0.274495
0.882506 0.501411 0.266316
0.87274 0.464897 0.259922
0.894194 0.52343 0.284566
0.212116 0.85507 0.5205
0.215244 0.857053 0.51928
0.213596 0.854444 0.487327
0.212894 0.840864 0.36202
0.311269 0.848432 0.267201
0.879225 0.897337 0.348241
0.96939 0.909316 0.384924
0.968246 0.905699 0.383993
0.97023 0.911543 0.390921
0.225498 0.86978 0.583505
0.224964 0.869825 0.57966
0.22089 0.86566 0.546685
0.213764 0.850431 0.418647
0.231312 0.835416 0.287053
0.769162 0.906874 0.307774
0.982895 0.949523 0.474098
0.988708 0.953292 0.49543
0.987243 0.953567 0.497063
0.232059 0.874876 0.621866
0.231006 0.874525 0.617243
0.224933 0.870466 0.584131
0.213031 0.855558 0.462913
0.227771 0.835203 0.288502
0.734981 0.902495 0.296559
0.9794 0.945663 0.460853
0.991943 0.951965 0.498573
0.987213 0.953262 0.500267
0.249454 0.884382 0.691005
0.248447 0.883192 0.684886
0.238071 0.878264 0.647334
0.215518 0.860395 0.505074
0.262272 0.841794 0.280674
0.831861 0.913634 0.331456
0.983597 0.948394 0.471275
0.990616 0.952758 0.495048
0.985946 0.954055 0.496345
0.020264 0.0713359 0.493339
0.0381781 0.0660105 0.514473
0.114382 0.0574502 0.551247
0.330434 0.0515602 0.577676
0.559106 0.0598459 0.559701
0.72369 0.0988174 0.581613
0.720195 0.101091 0.604166
0.717754 0.102296 0.616541
0.708827 0.104189 0.641169
0.0107424 0.0771191 0.476463
0.0200961 0.0735027 0.500465
0.0900893 0.0602884 0.551553
0.325353 0.0537728 0.59144
0.56527 0.0624857 0.57229
0.721782 0.0999161 0.593179
0.718776 0.102327 0.614664
0.715999 0.103243 0.625544
0.706615 0.104768 0.648295
0.0106355 0.108553 0.48011
0.00991836 0.0969558 0.481987
0.0181735 0.0737621 0.494438
0.261402 0.0545968 0.58616
0.55111 0.0601511 0.569543
0.723888 0.0981918 0.576745
0.72224 0.10042 0.596185
0.720607 0.101595 0.607477
0.713512 0.103456 0.630426
0.0259098 0.372595 0.548348
0.0266728 0.376623 0.558221
0.0256199 0.3552 0.566354
0.107042 0.285145 0.65182
0.576776 0.110658 0.620401
0.730175 0.0935683 0.517983
0.731929 0.0951858 0.528496
0.730892 0.0959487 0.539315
0.725261 0.0968032 0.562448
0.0888838 0.623758 0.602609
0.0936294 0.633066 0.610346
0.0940108 0.63331 0.611841
0.0882887 0.622324 0.605646
0.537575 0.623072 0.634699
0.964935 0.54078 0.629831
0.983322 0.452735 0.622507
0.969955 0.420661 0.617777
0.982727 0.452598 0.649989
0.245563 0.859007 0.709621
0.254032 0.862943 0.715389
0.252399 0.862531 0.707958
0.235065 0.857374 0.671534
0.200153 0.838987 0.522301
0.817945 0.905272 0.456535
0.994293 0.888945 0.526238
0.993027 0.877104 0.532723
0.985534 0.888243 0.592706
0.279545 0.893431 0.766232
0.28925 0.892378 0.768948
0.286488 0.890394 0.758556
0.267613 0.885191 0.718181
0.220401 0.863142 0.530373
0.616953 0.889433 0.267979
0.983932 0.948867 0.478828
0.994018 0.955627 0.525567
0.990326 0.957412 0.580331
0.286198 0.899779 0.792309
0.298894 0.897032 0.794156
0.295048 0.895018 0.782727
0.274876 0.888914 0.741482
0.22565 0.866712 0.567468
0.568353 0.882673 0.262058
0.971252 0.942458 0.448524
0.992752 0.954314 0.515373
0.988098 0.957458 0.546715
0.306554 0.909957 0.844892
0.318502 0.906722 0.843351
0.315755 0.904051 0.832105
0.294987 0.897719 0.792493
0.232761 0.871138 0.607828
0.70605 0.914748 0.339864
0.983185 0.95436 0.506355
0.99353 0.961242 0.591287
0.987091 0.960586 0.58114
0.0299535 0.138369 0.617334
0.0476997 0.133639 0.638132
0.109743 0.110307 0.670771
0.303502 0.0948959 0.719585
0.521523 0.0902724 0.718074
0.686519 0.111711 0.707576
0.685115 0.113954 0.720195
0.685039 0.114321 0.722301
0.683207 0.11458 0.724636
0.0205234 0.149081 0.607492
0.0290227 0.147173 0.624292
0.0864729 0.126665 0.670115
0.298589 0.0999161 0.72697
0.530175 0.0936141 0.725399
0.686519 0.112734 0.712932
0.685908 0.113924 0.719829
0.684764 0.114351 0.722622
0.682033 0.114733 0.726131
0.0203403 0.164752 0.605539
0.0193332 0.157092 0.603311
0.026688 0.145876 0.618677
0.236454 0.101686 0.714702
0.510216 0.0937667 0.728313
0.687388 0.112398 0.710399
0.687968 0.113542 0.716747
0.687037 0.113878 0.718929
0.683299 0.114565 0.724544
0.0383307 0.314351 0.660349
0.0386969 0.313954 0.665278
0.0338445 0.279011 0.656825
0.0412451 0.180987 0.650034
0.438514 0.0948806 0.730526
0.67921 0.108202 0.698878
0.691905 0.11162 0.702647
0.690562 0.112261 0.707286
0.686061 0.113252 0.715877
0.133608 0.641855 0.749371
0.139025 0.64979 0.756085
0.139666 0.648112 0.760281
0.132784 0.629938 0.764416
0.410803 0.609033 0.928878
0.84448 0.409628 0.883238
0.868101 0.316777 0.810269
0.852613 0.294865 0.796979
0.871489 0.333455 0.831907
0.268635 0.850248 0.832319
0.278599 0.855039 0.836744
0.28069 0.854963 0.837064
0.276204 0.849729 0.832532
0.256764 0.834394 0.819989
0.798886 0.863386 0.873899
0.992813 0.819699 0.873198
0.995987 0.804181 0.872663
0.982101 0.82295 0.887587
0.321462 0.916106 0.879469
0.33315 0.914076 0.878843
0.334264 0.913161 0.876585
0.330877 0.91162 0.868589
0.314549 0.906371 0.838697
0.564965 0.946181 0.797375
0.962478 0.974426 0.853849
0.993957 0.979355 0.921645
0.991806 0.980468 0.940093
0.322499 0.919051 0.890639
0.337102 0.915953 0.888243
0.338048 0.915022 0.885374
0.331823 0.913954 0.877317
0.31577 0.907607 0.844282
0.446952 0.938201 0.774487
0.928008 0.973098 0.790097
0.996933 0.985977 0.937301
0.996735 0.986511 0.952132
0.327184 0.92195 0.902052
0.341253 0.918105 0.899046
0.344533 0.916945 0.896742
0.338384 0.916838 0.891524
0.322087 0.911315 0.861006
0.656764 0.956237 0.866468
0.953323 0.979248 0.878843
0.993225 0.987732 0.963195
0.992569 0.988113 0.962554
0.0396429 0.172747 0.662394
0.0603647 0.168383 0.681926
0.124254 0.150301 0.715648
0.313161 0.118059 0.754559
0.531655 0.104372 0.747936
0.683787 0.114488 0.723903
0.684153 0.114443 0.723354
0.685084 0.114305 0.722255
0.68336 0.114549 0.724468
0.0262913 0.176608 0.645396
0.0392462 0.173083 0.662684
0.101411 0.157061 0.706676
0.308919 0.118486 0.754284
0.539254 0.104082 0.746868
0.683726 0.114412 0.723705
0.68426 0.114427 0.723262
0.684031 0.114458 0.723537
0.682429 0.114672 0.725658
0.0231174 0.179171 0.630564
0.0231479 0.180972 0.632731
0.0354009 0.174258 0.658213
0.246326 0.12282 0.743786
0.516854 0.105089 0.750607
0.682704 0.114275 0.723812
0.685512 0.11426 0.721736
0.685298 0.114275 0.721981
0.683177 0.11458 0.724697
0.042237 0.298085 0.697902
0.0401312 0.28983 0.694041
0.0334936 0.252201 0.674647
0.0378882 0.175418 0.65655
0.43299 0.109743 0.758679
0.670314 0.112444 0.725673
0.685847 0.114229 0.721401
0.685893 0.114214 0.721355
0.683833 0.114504 0.72401
0.148226 0.641733 0.804547
0.153338 0.650736 0.807599
0.152499 0.647715 0.808637
0.138293 0.619196 0.802716
0.320546 0.585092 0.917433
0.780911 0.37026 0.926284
0.797955 0.260166 0.82266
0.782849 0.238453 0.80737
0.809033 0.280507 0.839765
0.285328 0.860197 0.876326
0.296086 0.864103 0.876631
0.297688 0.864073 0.876967
0.294331 0.859083 0.875776
0.27747 0.840925 0.871534
0.736416 0.868849 0.978683
0.964889 0.760845 0.976516
0.974975 0.737209 0.972427
0.964096 0.765698 0.966796
0.330663 0.920989 0.90338
0.342245 0.918563 0.900496
0.344289 0.918044 0.90016
0.343938 0.91812 0.90016
0.340307 0.916045 0.898543
0.571572 0.971191 0.961822
0.960555 0.968704 0.972946
0.992218 0.967117 0.970977
0.989258 0.970352 0.975753
0.326711 0.922301 0.904265
0.342 0.918639 0.900557
0.344167 0.918074 0.90016
0.341527 0.918807 0.900633
0.338964 0.919005 0.899962
0.37406 0.930938 0.906783
0.957046 0.984421 0.979538
0.993896 0.988739 0.98471
0.995193 0.989242 0.990784
0.328298 0.921736 0.904036
0.341711 0.918715 0.900633
0.345907 0.917586 0.89984
0.343053 0.918395 0.900298
0.33962 0.919173 0.900999
0.461387 0.960281 0.940902
0.972015 0.986419 0.985458
0.992493 0.989914 0.992981
0.992309 0.98996 0.993225
0.0512245 0.170138 0.673915
0.0740215 0.164935 0.691844
0.14229 0.14464 0.72105
0.321889 0.117388 0.755474
0.537774 0.103914 0.746578
0.683833 0.114488 0.723857
0.684153 0.114443 0.723369
0.684199 0.114443 0.723354
0.683711 0.114504 0.724056
0.0326543 0.174701 0.654322
0.0499428 0.17052 0.673167
0.117205 0.152514 0.713268
0.317525 0.117494 0.75494
0.544488 0.103838 0.745785
0.684016 0.114458 0.723644
0.68426 0.114427 0.723278
0.684047 0.114458 0.723552
0.682826 0.114626 0.72517
0.0234226 0.179644 0.631113
0.0231479 0.18024 0.633768
0.0439765 0.172045 0.667445
0.256092 0.122271 0.74583
0.521767 0.104875 0.749889
0.683146 0.114382 0.723888
0.68542 0.11426 0.721843
0.685237 0.11429 0.722057
0.683177 0.11458 0.724697
0.0411383 0.29218 0.69514
0.03888 0.283574 0.690837
0.0322118 0.24448 0.670359
0.0414282 0.173602 0.661051
0.437186 0.109545 0.758572
0.671153 0.112703 0.725963
0.685908 0.114214 0.721325
0.685924 0.114214 0.721325
0.683848 0.114504 0.72401
0.146288 0.635279 0.807889
0.150515 0.643565 0.809583
0.147539 0.637476 0.807614
0.131044 0.604257 0.798474
0.30605 0.5579 0.908309
0.761196 0.342748 0.910475
0.774777 0.230152 0.803326
0.761242 0.210697 0.789075
0.790066 0.254383 0.821805
0.289677 0.863447 0.881743
0.2981 0.866499 0.881407
0.299626 0.865507 0.880644
0.294347 0.858595 0.878004
0.272175 0.8336 0.86981
0.724849 0.860868 0.980285
0.958953 0.743938 0.98024
0.976272 0.716167 0.974166
0.962142 0.74725 0.969665
0.331212 0.921157 0.903151
0.342229 0.918578 0.900496
0.344213 0.918059 0.90016
0.343862 0.918166 0.900191
0.340963 0.916518 0.899763
0.494484 0.962325 0.957794
0.947616 0.964462 0.981628
0.987457 0.961257 0.980133
0.986099 0.964721 0.980224
0.327245 0.921859 0.904463
0.341939 0.918654 0.900572
0.34403 0.91812 0.900175
0.341451 0.918837 0.900633
0.339452 0.919249 0.901228
0.337194 0.919707 0.901961
0.940902 0.983429 0.985931
0.993286 0.989639 0.992142
0.993149 0.989746 0.992432
0.327871 0.921874 0.904128
0.34168 0.91873 0.900633
0.345739 0.917632 0.899886
0.343084 0.918379 0.900298
0.339712 0.919188 0.901122
0.372656 0.930144 0.913405
0.95848 0.984756 0.987778
0.992599 0.989899 0.992935
0.995956 0.989059 0.990112
0.055024 0.169436 0.677272
0.0783856 0.163729 0.694545
0.150958 0.141665 0.72314
0.331746 0.11664 0.75639
0.546304 0.103471 0.744778
0.683879 0.114473 0.723796
0.684153 0.114443 0.723369
0.68423 0.114427 0.723308
0.683757 0.114488 0.72398
0.0344091 0.174151 0.656443
0.053254 0.169863 0.676158
0.12459 0.150271 0.715862
0.32752 0.116777 0.755947
0.553201 0.103471 0.743969
0.684291 0.114412 0.723293
0.68426 0.114427 0.723278
0.684047 0.114458 0.723552
0.682765 0.114626 0.725246
0.0234226 0.17966 0.631251
0.0231327 0.180179 0.633646
0.0465553 0.17145 0.670054
0.265095 0.121492 0.747433
0.53019 0.104509 0.748608
0.683909 0.114488 0.723705
0.685435 0.11426 0.721859
0.685267 0.114275 0.722087
0.683207 0.114565 0.724727
0.041886 0.296178 0.697215
0.0399634 0.289082 0.693584
0.0328374 0.248508 0.672389
0.042237 0.173342 0.66183
0.444465 0.109239 0.758434
0.672984 0.113085 0.725917
0.685924 0.114214 0.721325
0.685939 0.114214 0.721355
0.683879 0.114488 0.724041
0.151217 0.643778 0.810224
0.155337 0.651896 0.811551
0.152132 0.645411 0.809461
0.134936 0.611688 0.800473
0.32253 0.566476 0.917861
0.77084 0.353323 0.916335
0.785901 0.244862 0.812985
0.772351 0.226398 0.799939
0.800824 0.268986 0.832212
0.294789 0.866987 0.88275
0.303197 0.870161 0.882353
0.304814 0.869062 0.881331
0.299413 0.861708 0.878706
0.276081 0.835599 0.869947
0.736385 0.864347 0.977356
0.958618 0.752697 0.978424
0.974853 0.72639 0.972198
0.959106 0.758282 0.966125
0.333608 0.920516 0.902556
0.344549 0.917937 0.900145
0.347677 0.917113 0.899336
0.348211 0.916976 0.899229
0.345312 0.915389 0.898756
0.523705 0.966278 0.963241
0.949203 0.965164 0.982422
0.987457 0.961776 0.980957
0.985595 0.966018 0.981018
0.333593 0.92018 0.902922
0.34551 0.917662 0.899962
0.348943 0.916762 0.899062
0.349081 0.916732 0.899031
0.348745 0.916823 0.899107
0.34641 0.917449 0.899718
0.942473 0.983505 0.987686
0.993103 0.989395 0.991928
0.993591 0.989639 0.992111
0.324651 0.922591 0.904921
0.343542 0.918212 0.900252
0.349264 0.916671 0.899001
0.34966 0.916564 0.898909
0.349523 0.916609 0.898955
0.379858 0.927337 0.910704
0.953155 0.984695 0.989013
0.991516 0.990158 0.993896
0.997894 0.988586 0.988586
