bundles/resolve-cinematic-luts/Phantom Luts/Canon Alexa LUT/C-Log 2/IceBlue Canon CL2.cube
TITLE "Generated by Resolve"
LUT_3D_SIZE 33
0.0262913 0.0387274 0.0362402
0.027512 0.0387579 0.0366064
0.0305638 0.0387732 0.0379797
0.0362554 0.0388342 0.0399634
0.0450599 0.0388342 0.0400854
0.0586252 0.0392004 0.0412146
0.0779278 0.0393225 0.0416114
0.103838 0.0394293 0.0424048
0.139376 0.0394293 0.0437629
0.18558 0.0392615 0.0460059
0.238758 0.0388495 0.0492561
0.300191 0.0388495 0.0556344
0.364263 0.0390478 0.064683
0.427832 0.0398718 0.0776989
0.485496 0.0417792 0.093431
0.533989 0.0458076 0.113008
0.579248 0.0523384 0.136919
0.621134 0.061265 0.164416
0.660426 0.0718853 0.193576
0.691859 0.0814679 0.221347
0.705516 0.08542 0.238468
0.7075 0.0856489 0.245563
0.709255 0.085832 0.252445
0.710781 0.0859846 0.258564
0.71191 0.0860456 0.263645
0.712764 0.0860151 0.267903
0.713466 0.0860609 0.271183
0.714076 0.0860456 0.274434
0.714595 0.0859541 0.277821
0.71516 0.0856336 0.282689
0.715679 0.0851606 0.28835
0.716289 0.0843214 0.297444
0.716777 0.0834821 0.306905
0.0264591 0.0395056 0.0362554
0.0266423 0.0390478 0.0362402
0.0283818 0.0392462 0.0369879
0.0330053 0.0390631 0.0387579
0.0413367 0.0390631 0.0397803
0.0542306 0.0392157 0.0403906
0.0737621 0.039292 0.0407416
0.10016 0.0395972 0.0413977
0.136614 0.0396735 0.0424048
0.185199 0.0393072 0.043534
0.24097 0.0386816 0.0463874
0.304234 0.0386969 0.0523079
0.369635 0.0389258 0.061677
0.43328 0.0397498 0.074464
0.49015 0.0419776 0.090837
0.538399 0.0463874 0.111162
0.583368 0.0532692 0.135973
0.625452 0.062562 0.164279
0.665019 0.0735637 0.1944
0.69456 0.0825208 0.222187
0.705043 0.0853742 0.236728
0.707073 0.0855879 0.244038
0.708812 0.0857862 0.250721
0.710353 0.0859388 0.256809
0.711528 0.0860609 0.26186
0.712352 0.0860456 0.265797
0.713039 0.0860304 0.269184
0.713664 0.0860151 0.272389
0.714137 0.0859236 0.275502
0.714717 0.0855879 0.280507
0.715251 0.0851453 0.286
0.715923 0.0842908 0.295277
0.716442 0.0834516 0.30457
0.0268864 0.0423133 0.0377661
0.0272984 0.0417945 0.0375067
0.0285039 0.0413214 0.0378424
0.0317693 0.0414435 0.0387274
0.0389258 0.0400244 0.0394446
0.0511635 0.0395514 0.0396124
0.0690166 0.0394293 0.0404517
0.0945296 0.0394141 0.0408942
0.129915 0.0395361 0.0416114
0.178256 0.0395666 0.0422827
0.234928 0.0393835 0.0441596
0.299916 0.0387884 0.0480659
0.367285 0.0386816 0.0560616
0.432593 0.0395819 0.0698253
0.489967 0.041886 0.0868238
0.538491 0.0464332 0.107286
0.58352 0.0535439 0.132036
0.625727 0.0629587 0.160693
0.665278 0.073991 0.191531
0.694713 0.0828107 0.21976
0.704189 0.0852827 0.233783
0.706279 0.0855116 0.241062
0.70808 0.0857099 0.247807
0.709606 0.0858625 0.253849
0.710887 0.0859998 0.259068
0.711803 0.0860609 0.263096
0.712474 0.0860304 0.266377
0.713054 0.0859693 0.269596
0.713603 0.0858778 0.272877
0.714168 0.0855421 0.277668
0.714717 0.0850843 0.283299
0.715419 0.0842298 0.292485
0.715969 0.08336 0.301762
0.0276036 0.0473793 0.0399329
0.0279545 0.0468757 0.0393072
0.0288548 0.045716 0.0389563
0.0321355 0.0452735 0.0394598
0.0381628 0.0457618 0.0408331
0.0498207 0.0427558 0.0399939
0.0683452 0.0409705 0.0395514
0.0929885 0.0400549 0.0403143
0.126085 0.0396277 0.0413367
0.171191 0.0393072 0.0416724
0.22707 0.0392767 0.0420844
0.291081 0.0393683 0.0447395
0.359319 0.0391546 0.0507668
0.426551 0.0394293 0.0628977
0.486641 0.0415808 0.0805676
0.536782 0.0461585 0.102403
0.581811 0.0532998 0.127199
0.624216 0.0628519 0.155764
0.663905 0.07393 0.186481
0.693965 0.0828565 0.216022
0.702998 0.0851606 0.229633
0.705226 0.0853895 0.237385
0.707088 0.0856031 0.244068
0.708614 0.0857557 0.249973
0.709941 0.085893 0.255177
0.711009 0.0859998 0.259617
0.711757 0.0860609 0.262852
0.712337 0.0859846 0.266087
0.71284 0.0858473 0.269154
0.713436 0.085481 0.274113
0.714 0.085008 0.279606
0.714748 0.0841382 0.288792
0.715297 0.0832685 0.29781
0.028687 0.0561227 0.043946
0.0287022 0.0559854 0.0430762
0.0299992 0.0547799 0.0425269
0.0321355 0.0530251 0.0420081
0.038529 0.0522927 0.0423133
0.0497139 0.0532082 0.043061
0.0661021 0.0497749 0.0423896
0.0922408 0.0449683 0.0408026
0.127626 0.0415656 0.0398871
0.172122 0.0400854 0.0405127
0.222705 0.039292 0.0415198
0.28336 0.0388647 0.0418555
0.3505 0.0393378 0.0452277
0.416968 0.0401007 0.0551461
0.479255 0.0413977 0.071809
0.530953 0.0455482 0.0939803
0.577829 0.0526589 0.120165
0.621302 0.0621958 0.14992
0.661601 0.0731212 0.18175
0.692805 0.0823529 0.212894
0.701778 0.0846418 0.226688
0.70396 0.0849317 0.234195
0.705898 0.0851911 0.240818
0.707485 0.0853895 0.246586
0.708797 0.0855421 0.251774
0.709972 0.0856184 0.256687
0.710872 0.0856641 0.260548
0.711574 0.0856794 0.263966
0.712077 0.0856031 0.266789
0.712566 0.085359 0.270466
0.713039 0.0849622 0.275029
0.713726 0.084123 0.283421
0.71426 0.083238 0.29221
0.0296025 0.0718853 0.0491951
0.0294499 0.0719158 0.047715
0.0303197 0.0710002 0.0469825
0.0327153 0.0687114 0.0469215
0.0370336 0.0667582 0.0468605
0.0485542 0.0649882 0.0463874
0.0668803 0.0663615 0.0458839
0.091371 0.0626993 0.0454719
0.126528 0.052781 0.0425422
0.172885 0.0453498 0.039826
0.228595 0.0409247 0.0387732
0.286641 0.0393072 0.0402228
0.346609 0.0391852 0.043061
0.410224 0.0393988 0.0472572
0.47071 0.0418555 0.0610819
0.521309 0.0448157 0.0819257
0.569711 0.0516213 0.108171
0.614359 0.0609903 0.138384
0.656947 0.0723278 0.171756
0.690242 0.0818494 0.205417
0.699916 0.0843061 0.220691
0.702083 0.0844129 0.228687
0.704143 0.0846265 0.236057
0.705913 0.0848249 0.242451
0.707347 0.0849928 0.247684
0.708476 0.0851301 0.25214
0.709361 0.0852216 0.255695
0.710079 0.0852979 0.258671
0.710582 0.085359 0.260685
0.711101 0.0852064 0.263844
0.711589 0.0848707 0.268025
0.712306 0.0840467 0.276204
0.71284 0.0831311 0.28455
0.0292973 0.0962539 0.0544137
0.0290532 0.0967727 0.0525521
0.0287327 0.0966049 0.0506752
0.0313115 0.0941024 0.0498512
0.0350042 0.0908064 0.0501717
0.0424811 0.0890364 0.0503243
0.0637522 0.0859693 0.0493477
0.0921187 0.0867018 0.0476081
0.126741 0.0830701 0.0463569
0.173068 0.0683604 0.042649
0.229465 0.0527352 0.0384222
0.292241 0.0437171 0.0356909
0.357275 0.0405737 0.037232
0.414649 0.0399786 0.0437171
0.467277 0.0410773 0.0534371
0.513924 0.0448157 0.0703746
0.558511 0.0502174 0.0934768
0.60444 0.0593729 0.123339
0.648096 0.0705577 0.157076
0.684138 0.0808881 0.190875
0.695933 0.0839246 0.208499
0.699092 0.0842756 0.217578
0.701289 0.0843824 0.225422
0.703136 0.084535 0.232212
0.704707 0.0847028 0.237842
0.705989 0.0848554 0.242435
0.706996 0.0849775 0.246036
0.707729 0.0850538 0.248966
0.708263 0.0851148 0.251148
0.708766 0.0850233 0.253727
0.709163 0.0847944 0.256657
0.709697 0.0842298 0.261677
0.710048 0.0836042 0.266239
0.0280308 0.12752 0.0574655
0.0276951 0.128359 0.055436
0.0274052 0.128511 0.0530861
0.0277867 0.127367 0.052018
0.0315862 0.124102 0.0517433
0.0379339 0.121065 0.0515602
0.0495003 0.118639 0.0515755
0.0838941 0.113848 0.0493477
0.1252 0.112596 0.0471046
0.173449 0.111208 0.045243
0.230106 0.0918898 0.041886
0.298253 0.0631571 0.0361639
0.362783 0.0488746 0.0346685
0.426963 0.0425269 0.0344701
0.478248 0.0427253 0.0456397
0.514961 0.0448615 0.0635996
0.554223 0.0502327 0.08542
0.591516 0.0571298 0.106569
0.635752 0.0681621 0.137789
0.674784 0.0790875 0.172107
0.687083 0.0822156 0.188357
0.692393 0.0832685 0.199908
0.696696 0.0840772 0.210239
0.699184 0.0843061 0.217533
0.700938 0.0844282 0.223545
0.702266 0.0844892 0.22858
0.70341 0.084596 0.232685
0.704234 0.0847181 0.235508
0.704875 0.0847639 0.237858
0.705394 0.0847028 0.240146
0.705821 0.0844587 0.242893
0.706355 0.0838941 0.247333
0.706538 0.0831922 0.250797
0.0267643 0.169146 0.0595102
0.0263981 0.17052 0.0567941
0.0260624 0.170809 0.0544137
0.0259403 0.17052 0.0529488
0.0267491 0.16817 0.0529641
0.0310979 0.164309 0.0527352
0.0412757 0.16144 0.0522011
0.0588693 0.158251 0.0514382
0.109575 0.151003 0.0467994
0.168856 0.147662 0.0453956
0.226276 0.149935 0.042237
0.298009 0.122881 0.0395361
0.371847 0.0802319 0.0352026
0.43389 0.0590524 0.0322728
0.485435 0.0488594 0.0362402
0.527855 0.0483558 0.049958
0.562539 0.0520027 0.0763561
0.589822 0.0571298 0.102022
0.623926 0.0653697 0.124315
0.66273 0.0766155 0.15198
0.675502 0.0800793 0.165591
0.681102 0.0812695 0.175906
0.686 0.0821241 0.185702
0.690044 0.0828565 0.194339
0.693523 0.0835279 0.201923
0.696254 0.0840314 0.208667
0.698177 0.0843214 0.213489
0.699153 0.0843366 0.216907
0.69984 0.0844282 0.218952
0.700435 0.0843214 0.221469
0.700816 0.0840772 0.223743
0.701183 0.0834669 0.227283
0.700771 0.0826276 0.22887
0.0253758 0.218036 0.0602274
0.024918 0.219959 0.0569467
0.0245518 0.221088 0.0541695
0.0243839 0.220478 0.0526894
0.0244755 0.219074 0.0527962
0.0251164 0.215671 0.0528725
0.0301518 0.21207 0.0529335
0.043946 0.210193 0.0522011
0.0709239 0.20705 0.0502022
0.143191 0.197543 0.0435798
0.219974 0.19176 0.0428779
0.288045 0.196414 0.0394141
0.371191 0.162966 0.0378119
0.443656 0.112474 0.035996
0.499596 0.0757763 0.0357519
0.534386 0.0613413 0.0416724
0.566278 0.0561074 0.0536202
0.604746 0.0620432 0.0887465
0.630655 0.0678569 0.119677
0.653803 0.0738994 0.143755
0.671046 0.0793164 0.156542
0.672053 0.0795148 0.158297
0.67332 0.0796979 0.160906
0.675898 0.0802319 0.165743
0.679469 0.0809644 0.172473
0.682734 0.0816205 0.17879
0.685267 0.082063 0.183719
0.686961 0.0822766 0.187304
0.688106 0.0825055 0.189685
0.688899 0.082536 0.19173
0.68925 0.0822919 0.193225
0.689067 0.0814527 0.195254
0.688121 0.0805219 0.196063
0.0236667 0.274632 0.0597848
0.0231785 0.277516 0.0563516
0.0228122 0.278798 0.0531777
0.0226749 0.278691 0.0515602
0.0227817 0.277974 0.0516518
0.0228885 0.275608 0.0518044
0.0233768 0.272435 0.0520638
0.0297551 0.268925 0.0518196
0.0475624 0.267964 0.0504311
0.0861677 0.26302 0.0470893
0.184894 0.252079 0.0396277
0.282078 0.245304 0.039704
0.359274 0.251301 0.0378424
0.443244 0.219379 0.0378576
0.512718 0.162966 0.0400244
0.555093 0.105165 0.0453498
0.580606 0.0823224 0.0520333
0.603174 0.0706645 0.063859
0.640085 0.0734112 0.0985733
0.669673 0.0797436 0.137209
0.67892 0.0823224 0.161929
0.673045 0.078996 0.159594
0.672663 0.0789502 0.159854
0.672602 0.078996 0.159884
0.672938 0.0790875 0.160586
0.673304 0.0791638 0.161349
0.673655 0.0791943 0.162188
0.673869 0.0791485 0.162982
0.673823 0.0789807 0.16347
0.673472 0.0787213 0.163455
0.673472 0.0785382 0.16405
0.674174 0.0782635 0.166262
0.675166 0.0778668 0.169482
0.0223545 0.33727 0.0604257
0.0222324 0.340215 0.0576486
0.0221408 0.342321 0.0543069
0.0221103 0.342824 0.0524147
0.0221103 0.342733 0.0521859
0.0221256 0.34258 0.0522011
0.0221561 0.339605 0.0522011
0.0229191 0.33576 0.0521859
0.0319219 0.332479 0.051194
0.0552224 0.332509 0.0485542
0.109697 0.326467 0.0433509
0.236652 0.316472 0.0352789
0.354986 0.311513 0.0377813
0.434913 0.317922 0.0391241
0.513146 0.292805 0.0418555
0.577249 0.231586 0.052903
0.610483 0.158877 0.0634012
0.629862 0.118944 0.0713207
0.641794 0.0977646 0.0750896
0.661906 0.0828717 0.093904
0.69189 0.0876173 0.139788
0.693172 0.0872358 0.150591
0.690303 0.0856336 0.154284
0.687587 0.0842603 0.159182
0.684291 0.0833295 0.164004
0.679286 0.08159 0.164935
0.673548 0.078645 0.161059
0.673732 0.0785992 0.162127
0.673701 0.0785992 0.162127
0.674083 0.0787518 0.16173
0.675593 0.0794385 0.160769
0.678325 0.0803235 0.160861
0.68246 0.0814069 0.161837
0.0224918 0.403143 0.0644236
0.0226291 0.406714 0.0619364
0.0227512 0.40882 0.0592813
0.0228733 0.409964 0.0567178
0.0225986 0.411444 0.0550698
0.0226596 0.411582 0.0551766
0.0227207 0.41117 0.0552834
0.0226291 0.407111 0.0550851
0.0246128 0.402426 0.0544442
0.037644 0.399756 0.051667
0.0695506 0.399969 0.0466621
0.146715 0.392905 0.0396429
0.298695 0.384802 0.0327611
0.432059 0.383246 0.0389715
0.509773 0.389822 0.0454719
0.579049 0.379004 0.0574807
0.641794 0.318898 0.0776684
0.671946 0.246906 0.0916457
0.681392 0.178531 0.0967422
0.688121 0.141909 0.0996414
0.688212 0.107073 0.0995956
0.685115 0.0938735 0.101045
0.685054 0.0890974 0.10695
0.690166 0.0894789 0.121309
0.693294 0.089601 0.131655
0.694392 0.0891432 0.137682
0.694957 0.0886702 0.141314
0.695094 0.0885939 0.143969
0.694835 0.0887617 0.14493
0.694377 0.0891127 0.144015
0.693431 0.0897993 0.140795
0.692546 0.0903334 0.136172
0.691676 0.0913863 0.130388
0.0267643 0.469535 0.0776684
0.0275273 0.473075 0.0759899
0.0280308 0.475273 0.073991
0.0283665 0.476738 0.0716716
0.0286717 0.477501 0.0693065
0.0288548 0.478096 0.0690166
0.0289311 0.478355 0.0690471
0.0287327 0.477256 0.0687419
0.0282902 0.473793 0.0680858
0.0314336 0.470359 0.065156
0.0511635 0.468894 0.0565652
0.0966812 0.469276 0.047303
0.198734 0.461326 0.0375372
0.368597 0.456367 0.0341955
0.508339 0.459022 0.0498207
0.581842 0.465141 0.0692607
0.644617 0.470558 0.0908522
0.704952 0.423072 0.113359
0.73817 0.351781 0.129274
0.740963 0.267231 0.1308
0.736522 0.207218 0.127413
0.729412 0.178897 0.122545
0.721447 0.163821 0.117556
0.71397 0.15082 0.112856
0.707591 0.139269 0.108995
0.702739 0.130556 0.105928
0.69865 0.124254 0.102556
0.698497 0.119554 0.105547
0.697841 0.118151 0.105211
0.698833 0.119432 0.105928
0.700526 0.125734 0.104051
0.706935 0.134737 0.109712
0.716045 0.148836 0.117266
0.0391089 0.533516 0.104112
0.0404212 0.536629 0.102724
0.0416571 0.539269 0.101427
0.0422827 0.540337 0.0992905
0.0428626 0.541085 0.0968032
0.0433051 0.54165 0.0949111
0.043473 0.542123 0.0950637
0.0436408 0.542672 0.0954299
0.0431067 0.540932 0.0948196
0.0421759 0.537118 0.0932784
0.0487068 0.535485 0.0874037
0.0785687 0.537057 0.073167
0.145251 0.54078 0.0574807
0.266789 0.534035 0.0424201
0.44741 0.531243 0.0487221
0.582391 0.535653 0.0820783
0.653773 0.54255 0.109392
0.712413 0.553994 0.136797
0.768322 0.526421 0.159579
0.802716 0.465568 0.174273
0.80882 0.397574 0.175006
0.792889 0.31812 0.162982
0.779965 0.285359 0.154528
0.773541 0.270695 0.150393
0.769253 0.261295 0.147646
0.76556 0.253132 0.145312
0.762737 0.246921 0.143526
0.761257 0.243671 0.142611
0.761105 0.243381 0.142519
0.763653 0.249195 0.144091
0.768399 0.259937 0.147082
0.776547 0.277409 0.152941
0.788602 0.303655 0.162066
0.0605631 0.597208 0.139681
0.0624552 0.600061 0.138567
0.0641794 0.60238 0.137362
0.0653391 0.603494 0.135271
0.0662547 0.604227 0.13312
0.0670939 0.604883 0.130816
0.0677653 0.60589 0.130388
0.0678416 0.606134 0.130617
0.0677806 0.606134 0.1308
0.0665599 0.603647 0.129534
0.0664683 0.600092 0.126223
0.081651 0.60209 0.117662
0.131075 0.607279 0.0991226
0.215793 0.613291 0.0815137
0.350332 0.607996 0.0670024
0.529305 0.606683 0.0871595
0.654978 0.614298 0.128908
0.726574 0.622827 0.161486
0.780011 0.633021 0.189349
0.825574 0.627939 0.21091
0.854994 0.584665 0.21973
0.862516 0.518425 0.217472
0.85803 0.494041 0.212909
0.853025 0.479652 0.208377
0.848692 0.466606 0.204715
0.844678 0.455756 0.201343
0.84155 0.447349 0.19884
0.839368 0.441428 0.196979
0.838972 0.440269 0.196612
0.84004 0.443015 0.197482
0.843336 0.452262 0.200092
0.849439 0.4701 0.205432
0.857923 0.495811 0.213336
0.0928664 0.661845 0.181445
0.0957656 0.665064 0.18088
0.0982376 0.66746 0.179751
0.0997635 0.668589 0.178058
0.101259 0.669383 0.175738
0.102724 0.670573 0.174228
0.103716 0.671214 0.172808
0.104051 0.671733 0.173205
0.104189 0.672053 0.17348
0.103716 0.67158 0.173251
0.10164 0.66865 0.171405
0.104036 0.667262 0.1682
0.135378 0.671916 0.15491
0.21004 0.680934 0.133654
0.304433 0.688487 0.118379
0.445701 0.683421 0.110231
0.613703 0.684016 0.1411
0.728115 0.694728 0.185901
0.798489 0.703975 0.220447
0.842283 0.712383 0.244373
0.878202 0.719432 0.264302
0.896025 0.692943 0.26537
0.89955 0.667277 0.261845
0.897368 0.656641 0.258427
0.895262 0.646464 0.255344
0.893309 0.637003 0.252552
0.891905 0.630671 0.250675
0.890913 0.627054 0.249531
0.890654 0.62623 0.249256
0.891295 0.629664 0.250202
0.892989 0.639338 0.25272
0.896559 0.656748 0.257984
0.902174 0.682612 0.266545
0.137743 0.727962 0.225803
0.140566 0.730495 0.225132
0.143374 0.732784 0.224231
0.145708 0.734371 0.223087
0.147494 0.735348 0.221286
0.148791 0.736049 0.219638
0.149767 0.736645 0.21854
0.150103 0.737163 0.21886
0.150378 0.737621 0.219135
0.150713 0.73817 0.219593
0.149844 0.73724 0.219059
0.146166 0.732403 0.215702
0.157397 0.735012 0.212497
0.208911 0.741878 0.194324
0.301762 0.755962 0.176059
0.403876 0.762982 0.16527
0.543343 0.756741 0.165042
0.69839 0.75903 0.20325
0.79971 0.773419 0.247517
0.863264 0.783261 0.279911
0.898177 0.78941 0.298741
0.920333 0.791806 0.310185
0.932235 0.790295 0.315236
0.931807 0.786068 0.313573
0.930205 0.782071 0.311467
0.928557 0.776013 0.308888
0.926818 0.771252 0.306661
0.925841 0.768032 0.305516
0.925414 0.766888 0.30515
0.925826 0.768093 0.305852
0.927367 0.772992 0.308217
0.930892 0.783322 0.313466
0.935241 0.796902 0.32015
0.180804 0.783459 0.261677
0.183124 0.78558 0.26128
0.185473 0.787579 0.260487
0.186892 0.78851 0.259144
0.188327 0.789288 0.257603
0.189319 0.789914 0.256748
0.190707 0.790036 0.257221
0.191104 0.790707 0.257603
0.191485 0.791547 0.258045
0.19147 0.791913 0.258137
0.190982 0.791638 0.257847
0.189014 0.789425 0.256275
0.186557 0.785382 0.253254
0.217243 0.792264 0.245701
0.29601 0.80325 0.225055
0.402106 0.819532 0.214496
0.507591 0.824109 0.210712
0.644022 0.820142 0.222766
0.782147 0.824826 0.266651
0.86247 0.840192 0.304326
0.913863 0.847944 0.330007
0.938521 0.851682 0.342748
0.948943 0.851637 0.34757
0.951659 0.84889 0.347829
0.950774 0.846586 0.346716
0.950042 0.844251 0.345861
0.94931 0.842435 0.345251
0.948974 0.841581 0.345495
0.948898 0.841627 0.345907
0.949279 0.843107 0.346838
0.950347 0.846922 0.348791
0.952239 0.852811 0.351797
0.954757 0.86099 0.355764
0.209751 0.82153 0.287022
0.211002 0.822461 0.285557
0.212268 0.823209 0.284306
0.213352 0.823545 0.282826
0.214466 0.823713 0.28127
0.215152 0.823911 0.280858
0.215763 0.824323 0.28127
0.216022 0.824552 0.281498
0.216159 0.824857 0.281636
0.216022 0.825025 0.281529
0.215854 0.825147 0.281392
0.215274 0.824796 0.281102
0.213046 0.822171 0.279332
0.226368 0.824155 0.275593
0.290547 0.835279 0.261006
0.398795 0.850355 0.244465
0.50161 0.862821 0.242924
0.606027 0.866529 0.248798
0.739559 0.868544 0.277623
0.852567 0.875425 0.321721
0.910338 0.887709 0.349081
0.947051 0.893187 0.366964
0.962371 0.896422 0.374075
0.966094 0.896376 0.37586
0.96553 0.894865 0.375051
0.965026 0.893462 0.374426
0.964645 0.892378 0.374044
0.964401 0.891844 0.373983
0.964431 0.892027 0.374151
0.964874 0.893492 0.375006
0.96582 0.896117 0.376577
0.966873 0.900221 0.378668
0.968444 0.904707 0.382101
0.219486 0.834745 0.294774
0.219898 0.834577 0.292988
0.220539 0.834455 0.291447
0.221286 0.834241 0.289662
0.222049 0.833967 0.287922
0.222507 0.83386 0.287922
0.222873 0.833753 0.28809
0.223011 0.833707 0.288212
0.223011 0.833707 0.288212
0.222873 0.833753 0.28809
0.222583 0.833875 0.287831
0.222293 0.833982 0.287587
0.222004 0.834058 0.28748
0.229129 0.83476 0.285222
0.281849 0.844831 0.274266
0.38378 0.860395 0.257694
0.498634 0.874571 0.253361
0.595254 0.885161 0.262318
0.704189 0.894026 0.28452
0.827619 0.902495 0.33225
0.906538 0.911345 0.369192
0.944808 0.919753 0.389593
0.968429 0.923568 0.40264
0.975387 0.924819 0.407065
0.975265 0.924392 0.406943
0.975052 0.923705 0.405798
0.974929 0.923339 0.405402
0.974777 0.923247 0.405646
0.974624 0.923323 0.406119
0.974472 0.923735 0.407065
0.974884 0.925109 0.40882
0.975967 0.92755 0.412695
0.978058 0.930541 0.420096
0.219364 0.834989 0.297887
0.219348 0.834852 0.296284
0.219776 0.83473 0.294575
0.220417 0.834501 0.292607
0.221164 0.834165 0.290501
0.221744 0.83389 0.289418
0.222263 0.833661 0.288914
0.222461 0.833585 0.289082
0.222538 0.833555 0.289143
0.222461 0.833585 0.289082
0.222263 0.833661 0.288914
0.221912 0.833799 0.288594
0.221622 0.833906 0.288334
0.22562 0.834867 0.287343
0.270527 0.84332 0.277455
0.368627 0.859754 0.261265
0.475532 0.873228 0.254322
0.567071 0.883482 0.259922
0.671977 0.895659 0.279118
0.800855 0.909773 0.319341
0.910643 0.92311 0.36994
0.950347 0.932387 0.405097
0.971084 0.938659 0.433066
0.984421 0.942641 0.451774
0.987625 0.944152 0.459236
0.987427 0.943755 0.458091
0.987228 0.943633 0.457694
0.986847 0.943648 0.457649
0.986496 0.943999 0.458289
0.98616 0.944823 0.459937
0.986236 0.945785 0.462303
0.986648 0.946578 0.465202
0.987625 0.947494 0.469856
0.218143 0.836698 0.31017
0.218357 0.836423 0.306996
0.218845 0.836133 0.304112
0.219562 0.835691 0.300694
0.220539 0.835142 0.296773
0.221317 0.834516 0.293446
0.22208 0.833906 0.290547
0.222461 0.833585 0.289143
0.222553 0.833555 0.289158
0.222492 0.833585 0.289097
0.222293 0.833646 0.28893
0.221942 0.833783 0.288624
0.221637 0.833906 0.288365
0.221424 0.833982 0.288167
0.256703 0.840635 0.28014
0.349142 0.856641 0.263508
0.452964 0.870512 0.254414
0.556481 0.882429 0.258824
0.658244 0.894209 0.275914
0.786145 0.908858 0.313573
0.899413 0.923583 0.364614
0.952422 0.936446 0.414618
0.971939 0.943603 0.445975
0.983612 0.949523 0.474022
0.989883 0.952056 0.487373
0.990738 0.952575 0.491218
0.991058 0.952483 0.492149
0.991104 0.952544 0.493477
0.99086 0.952667 0.494743
0.990265 0.952773 0.495354
0.989822 0.952895 0.495583
0.989487 0.953017 0.495384
0.989425 0.953079 0.494865
0.217578 0.838651 0.324178
0.217517 0.838315 0.320943
0.217655 0.837934 0.317601
0.218143 0.837354 0.312718
0.219135 0.836789 0.306874
0.219959 0.835828 0.300389
0.220706 0.834958 0.294575
0.221225 0.834226 0.28983
0.221393 0.833997 0.288182
0.221363 0.834012 0.288121
0.221302 0.834028 0.28806
0.221241 0.834058 0.288014
0.22121 0.834073 0.287984
0.221195 0.834073 0.287968
0.245396 0.83859 0.282582
0.329809 0.853605 0.266346
0.437156 0.868574 0.254902
0.538598 0.880323 0.256947
0.6439 0.892653 0.272786
0.76553 0.906493 0.306279
0.883543 0.921126 0.355032
0.947417 0.934966 0.409064
0.969268 0.942702 0.441321
0.981231 0.948867 0.469474
0.988998 0.952178 0.486152
0.989761 0.953262 0.492073
0.9897 0.953246 0.4925
0.989425 0.953277 0.49305
0.988922 0.953353 0.493706
0.988205 0.953521 0.494347
0.987747 0.953613 0.494728
0.987533 0.953674 0.494759
0.987778 0.953628 0.494545
0.216846 0.840513 0.337881
0.216709 0.840253 0.334691
0.216648 0.839857 0.331258
0.216938 0.839246 0.326131
0.217594 0.838392 0.319158
0.218601 0.837278 0.310491
0.219776 0.836088 0.30132
0.220554 0.834958 0.293751
0.221561 0.834043 0.289509
0.221622 0.833906 0.288334
0.22153 0.833951 0.288258
0.221408 0.833997 0.288151
0.221317 0.834028 0.288075
0.221241 0.834058 0.288014
0.238178 0.837293 0.284321
0.315114 0.851347 0.269062
0.424521 0.867033 0.255589
0.523964 0.878706 0.255818
0.629755 0.891173 0.269963
0.748104 0.90483 0.300603
0.869749 0.918959 0.347143
0.94255 0.933562 0.403159
0.967086 0.941802 0.437034
0.979706 0.947906 0.464347
0.988708 0.951812 0.484169
0.989761 0.953262 0.492073
0.9897 0.953246 0.4925
0.989425 0.953277 0.49305
0.988922 0.953353 0.493706
0.98819 0.953506 0.494438
0.987716 0.953613 0.494896
0.987503 0.953658 0.495018
0.987533 0.953674 0.494789
0.216022 0.842039 0.34992
0.215854 0.841611 0.345861
0.215732 0.841199 0.342107
0.216022 0.840742 0.337285
0.216648 0.839979 0.330571
0.217533 0.838743 0.321416
0.218875 0.837186 0.310109
0.220233 0.83563 0.299031
0.221134 0.834379 0.291081
0.221485 0.833967 0.288273
0.221469 0.833967 0.288212
0.221393 0.833997 0.288151
0.221332 0.834028 0.288075
0.221256 0.834058 0.288014
0.233371 0.836301 0.285267
0.304982 0.8495 0.270665
0.41912 0.866484 0.256123
0.512245 0.877379 0.255085
0.618921 0.88986 0.267826
0.734234 0.903502 0.296315
0.858732 0.917998 0.342153
0.937835 0.93254 0.398215
0.964996 0.940963 0.433417
0.978195 0.947097 0.460731
0.987335 0.951293 0.481682
0.989685 0.95317 0.491417
0.989746 0.953262 0.492241
0.989502 0.953307 0.492439
0.989075 0.953429 0.492607
0.988464 0.953597 0.492683
0.988098 0.953735 0.492592
0.98793 0.953796 0.492393
0.987976 0.953811 0.492164
0.214618 0.843763 0.359533
0.214694 0.843214 0.355367
0.214786 0.842695 0.351507
0.215076 0.841962 0.34609
0.215717 0.841077 0.339178
0.216754 0.840009 0.330373
0.21796 0.838285 0.318273
0.219669 0.836469 0.304784
0.220905 0.834791 0.293828
0.2215 0.834028 0.288945
0.221561 0.833936 0.288304
0.221515 0.833951 0.288258
