bundles/resolve-cinematic-luts/Phantom Luts/Canon Alexa LUT/C-Log 2/Jamaica Canon CL2-Legacy.cube
TITLE "Generated by Resolve"
LUT_3D_SIZE 9
0.0225986 0.0376593 0.0226139
0.0469215 0.0377661 0.0252689
0.146334 0.0380255 0.0322423
0.369421 0.0374762 0.0572213
0.608164 0.0493172 0.132784
0.681163 0.090425 0.231113
0.688472 0.0905623 0.257801
0.691615 0.0906691 0.270909
0.692058 0.0907912 0.27512
0.0212711 0.0565042 0.0253758
0.0358129 0.0505837 0.0237736
0.128481 0.0413367 0.0235752
0.336339 0.0376287 0.0337835
0.592645 0.0482338 0.102602
0.674266 0.090074 0.209735
0.683238 0.0905776 0.237934
0.687068 0.0906233 0.252094
0.688045 0.0905928 0.25684
0.010132 0.160479 0.027924
0.0123903 0.15317 0.0171969
0.105638 0.131731 0.0221561
0.351385 0.0696422 0.0240787
0.578622 0.049485 0.0621195
0.644495 0.0833143 0.146075
0.661448 0.0883497 0.178256
0.669947 0.0900282 0.197131
0.672068 0.0902266 0.203037
0.0143587 0.430365 0.0485389
0.0125582 0.428336 0.0354772
0.0180056 0.410605 0.0338598
0.303609 0.357168 0.0248112
0.642084 0.258473 0.0648356
0.661723 0.114977 0.106035
0.667445 0.105394 0.124788
0.66598 0.102632 0.136858
0.662867 0.100496 0.1393
0.173083 0.733043 0.221195
0.173465 0.72874 0.211582
0.172519 0.725017 0.204273
0.205509 0.728176 0.173724
0.648692 0.682261 0.135378
0.888716 0.708446 0.294118
0.890929 0.584573 0.271626
0.878309 0.540398 0.258137
0.870253 0.51664 0.249729
0.382895 0.953948 0.423209
0.367437 0.955261 0.402075
0.3673 0.955398 0.402289
0.381262 0.95436 0.415213
0.642023 0.997452 0.431662
0.947326 0.957824 0.462303
0.99707 0.966323 0.494636
0.994705 0.960983 0.49041
0.994125 0.95729 0.485954
0.388174 0.956878 0.461173
0.370352 0.956069 0.426825
0.368017 0.955032 0.403616
0.368002 0.954971 0.402426
0.562371 0.988098 0.439948
0.897993 0.970901 0.44741
1 0.997787 0.525811
1 0.998932 0.53077
1 0.998932 0.529198
0.406119 0.962646 0.508339
0.376974 0.957214 0.461219
0.370336 0.954742 0.41445
0.369146 0.954116 0.402228
0.51252 0.975235 0.427176
0.848112 0.969985 0.427588
1 0.995056 0.522148
1 0.998779 0.532082
1 0.998932 0.530541
0.406043 0.96527 0.523232
0.380499 0.958923 0.477836
0.377081 0.955215 0.428946
0.369146 0.954116 0.402228
0.50605 0.974029 0.424079
0.838132 0.97026 0.42475
1 0.994659 0.521401
1 0.998932 0.531823
1 0.998932 0.530755
0.0220951 0.0383917 0.0359503
0.0455024 0.0378729 0.0426795
0.14905 0.0374609 0.0576181
0.372778 0.0372625 0.0835737
0.615747 0.0489204 0.156939
0.685802 0.0906996 0.248981
0.691844 0.0907759 0.273533
0.694774 0.0906691 0.287694
0.695445 0.0903487 0.294011
0.0237278 0.0496834 0.0370794
0.032105 0.0471351 0.0327001
0.133227 0.0405585 0.0340276
0.350545 0.0376135 0.0533608
0.602686 0.0484016 0.127443
0.679866 0.0905013 0.228229
0.687404 0.0907454 0.255039
0.690608 0.0906996 0.268254
0.691463 0.0907912 0.272755
0.0130465 0.150347 0.0499428
0.0112917 0.14612 0.0290532
0.0991073 0.125795 0.0229343
0.355306 0.0557717 0.0213779
0.57261 0.0470893 0.0658579
0.655848 0.0866865 0.167575
0.67126 0.090074 0.201587
0.676585 0.0904707 0.216495
0.678462 0.0905928 0.222629
0.0129397 0.419654 0.0668498
0.0113527 0.417411 0.0472725
0.0109712 0.404349 0.0336614
0.296208 0.350332 0.0244755
0.638804 0.233738 0.0640879
0.660349 0.108537 0.104509
0.667826 0.104692 0.131426
0.663325 0.100557 0.139727
0.659175 0.0979019 0.141527
0.161089 0.730404 0.229328
0.164172 0.725841 0.215396
0.166232 0.718837 0.197742
0.191135 0.721263 0.173251
0.643412 0.67744 0.130892
0.887556 0.7019 0.291066
0.886412 0.56759 0.266392
0.872602 0.521767 0.253101
0.864042 0.497673 0.244923
0.382635 0.955047 0.43798
0.368612 0.955718 0.412528
0.3673 0.955398 0.402289
0.377676 0.954559 0.411978
0.633967 0.997131 0.432761
0.944869 0.95584 0.459815
0.99646 0.964904 0.493477
0.993454 0.95845 0.488319
0.992233 0.954894 0.483513
0.386969 0.95877 0.481086
0.371679 0.957198 0.447166
0.368627 0.955245 0.408621
0.367849 0.954986 0.402289
0.551278 0.985901 0.440314
0.891432 0.970459 0.444343
1 0.997604 0.525399
1 0.998932 0.530739
1 0.998932 0.529244
0.402609 0.965301 0.529427
0.375463 0.958846 0.482506
0.371527 0.955612 0.430182
0.369146 0.954116 0.402228
0.498711 0.972961 0.426322
0.84036 0.970321 0.425269
1 0.994812 0.521767
1 0.998764 0.532097
1 0.998932 0.53048
0.402441 0.96759 0.544625
0.375494 0.960235 0.49749
0.376654 0.956313 0.445716
0.369146 0.954116 0.402228
0.48838 0.971038 0.422919
0.829923 0.970703 0.422507
1 0.99411 0.520485
1 0.998932 0.531823
1 0.998932 0.530632
0.0211337 0.0394903 0.0999924
0.0468452 0.0391394 0.10901
0.139452 0.0377661 0.131258
0.383917 0.0325933 0.157336
0.627985 0.046128 0.218585
0.69543 0.0902113 0.292958
0.699947 0.0893568 0.324056
0.702846 0.0901656 0.340566
0.70338 0.0903792 0.346227
0.0213626 0.0470588 0.0828565
0.0235752 0.0411383 0.0934157
0.121218 0.0382086 0.111833
0.363561 0.0345159 0.127382
0.618631 0.0466773 0.187396
0.691585 0.0907301 0.272312
0.696345 0.0897841 0.299947
0.699092 0.0895705 0.316991
0.699367 0.0891737 0.322423
0.0230106 0.126375 0.109255
0.0228122 0.121233 0.101686
0.0982223 0.116701 0.0915389
0.375357 0.0636149 0.0825666
0.58703 0.0458381 0.113207
0.678141 0.0905013 0.221347
0.686122 0.0907454 0.24918
0.689433 0.0905928 0.262654
0.690471 0.0906233 0.26743
0.0123445 0.391073 0.130205
0.0102235 0.389166 0.107057
0.00901808 0.383383 0.0442969
0.276432 0.333013 0.0251011
0.626886 0.179568 0.0624704
0.668605 0.10724 0.124743
0.663828 0.100954 0.144015
0.652125 0.0916152 0.146517
0.648951 0.088365 0.147326
0.131823 0.723583 0.259968
0.13521 0.719905 0.241901
0.145739 0.70988 0.200702
0.157733 0.703685 0.17171
0.632212 0.667445 0.121889
0.882277 0.673503 0.278447
0.874006 0.525979 0.254337
0.856199 0.474769 0.240589
0.846845 0.45185 0.232914
0.380987 0.958862 0.485206
0.371572 0.958129 0.458946
0.368673 0.955978 0.415015
0.373159 0.954787 0.40763
0.613779 0.995712 0.435477
0.939147 0.951461 0.454063
0.994034 0.959625 0.489219
0.990433 0.95169 0.483024
0.988617 0.947173 0.476982
0.384421 0.96286 0.532616
0.372656 0.960601 0.499657
0.37145 0.957275 0.446052
0.367849 0.954986 0.402289
0.521523 0.979721 0.440543
0.875731 0.970062 0.43772
1 0.997238 0.524529
1 0.998932 0.530694
1 0.998932 0.529152
0.395926 0.969528 0.577859
0.372381 0.962478 0.534783
0.37319 0.958572 0.478935
0.369146 0.954116 0.402213
0.461433 0.966461 0.422812
0.822339 0.971389 0.420508
1 0.99411 0.520668
1 0.998764 0.532128
1 0.998932 0.530495
0.394568 0.970703 0.593851
0.373342 0.963699 0.552422
0.375479 0.959854 0.495674
0.369024 0.95407 0.401236
0.450675 0.964965 0.419577
0.811994 0.972168 0.41854
1 0.993194 0.518791
1 0.998932 0.531807
1 0.998932 0.530526
0.0214389 0.0414435 0.247028
0.0479591 0.0397498 0.26302
0.134264 0.0393072 0.281544
0.353109 0.0348363 0.332692
0.63856 0.0442817 0.378531
0.710002 0.0930648 0.405051
0.711437 0.0948043 0.428946
0.711803 0.0955825 0.441245
0.71136 0.0959487 0.443473
0.0135653 0.0452735 0.216541
0.0210422 0.0413214 0.235645
0.108232 0.0394598 0.268345
0.338445 0.0350652 0.31516
0.63386 0.0428168 0.356283
0.708705 0.0921645 0.389319
0.710536 0.0937057 0.412665
0.711406 0.0945602 0.424765
0.711162 0.0948348 0.42739
0.0185397 0.110842 0.223713
0.0175174 0.100496 0.226017
0.0565194 0.0751965 0.260884
0.316442 0.0407111 0.282338
0.617792 0.0403906 0.291966
0.702358 0.0893568 0.340078
0.706523 0.0911269 0.367926
0.708095 0.0917678 0.381918
0.708385 0.0919661 0.385962
0.0191653 0.331716 0.280705
0.0175326 0.326284 0.27068
0.0171359 0.313542 0.250462
0.279454 0.310674 0.236484
0.673869 0.188418 0.21619
0.704631 0.108248 0.256092
0.686748 0.0920272 0.245212
0.687007 0.0914168 0.248981
0.687495 0.0911879 0.252094
0.0884565 0.69633 0.381598
0.086717 0.695521 0.361761
0.0866255 0.691661 0.312001
0.10808 0.674052 0.169085
0.606027 0.644663 0.116869
0.874128 0.563577 0.252628
0.841093 0.41767 0.23711
0.81149 0.360021 0.219074
0.796948 0.333333 0.209537
0.368505 0.960296 0.59881
0.366217 0.959838 0.580423
0.366964 0.957824 0.534386
0.365499 0.950515 0.416968
0.543587 0.9823 0.437949
0.923873 0.939178 0.438392
0.986877 0.943633 0.476646
0.982147 0.932082 0.467872
0.980133 0.926131 0.459739
0.378225 0.966491 0.647364
0.370871 0.965423 0.625757
0.37171 0.964584 0.578485
0.371206 0.957 0.440742
0.437537 0.961425 0.433509
0.833921 0.971115 0.42385
1 0.996414 0.522805
1 0.998932 0.530678
1 0.998932 0.529168
0.385763 0.969329 0.677043
0.371008 0.965362 0.651041
0.370977 0.965179 0.609522
0.373037 0.958099 0.471992
0.392554 0.956069 0.410636
0.780301 0.975814 0.413825
1 0.991836 0.517067
1 0.998764 0.532189
1 0.998932 0.530587
0.385214 0.968673 0.687907
0.371572 0.965301 0.664042
0.370886 0.965408 0.62385
0.373312 0.95906 0.48661
0.386862 0.955734 0.40853
0.766888 0.976913 0.412695
1 0.991058 0.514717
1 0.998932 0.531777
1 0.998932 0.530617
0.0245975 0.0467384 0.465415
0.0518959 0.0437171 0.479973
0.135149 0.041474 0.502327
0.337362 0.0397192 0.544472
0.580026 0.0508125 0.570657
0.692134 0.101366 0.565866
0.686076 0.102983 0.584314
0.684276 0.103899 0.593118
0.68278 0.104524 0.593027
0.00767529 0.0490425 0.44033
0.0239719 0.0463874 0.457847
0.106462 0.0416114 0.491554
0.318791 0.0396735 0.537728
0.576623 0.0490272 0.566018
0.694392 0.100465 0.556542
0.688212 0.101762 0.574578
0.686519 0.1028 0.583703
0.685435 0.103212 0.58381
0.0109255 0.0719158 0.417273
0.0100862 0.0615091 0.415854
0.0246128 0.045594 0.444694
0.257603 0.0398718 0.512322
0.566003 0.0447242 0.549676
0.700206 0.0982986 0.529839
0.696117 0.0999313 0.548974
0.69424 0.100694 0.55787
0.693156 0.100694 0.559304
0.0196078 0.306752 0.501167
0.0180819 0.29836 0.500389
0.017792 0.272496 0.504936
0.176806 0.209323 0.542657
0.59762 0.0894179 0.550912
0.712001 0.0962081 0.457069
0.711452 0.0964065 0.464485
0.710887 0.0969253 0.474174
0.710277 0.0968948 0.476432
0.0768292 0.62089 0.570672
0.0729992 0.618677 0.562493
0.0681621 0.611933 0.550408
0.056733 0.594446 0.512734
0.56083 0.582147 0.487541
0.9691 0.500603 0.505287
0.971115 0.415137 0.496727
0.951232 0.37145 0.488334
0.939498 0.351446 0.482689
0.341634 0.92723 0.735515
0.339574 0.927596 0.726452
0.335241 0.926818 0.706966
0.326192 0.925093 0.646723
0.393881 0.939742 0.463294
0.907118 0.933028 0.430518
0.9897 0.900771 0.454612
0.986282 0.875898 0.440452
0.985 0.865019 0.434623
0.383078 0.9561 0.784848
0.377462 0.957839 0.774853
0.375753 0.959823 0.756039
0.37232 0.96405 0.697368
0.375479 0.95639 0.437705
0.736996 0.982879 0.413718
1 0.993591 0.520287
1 0.998703 0.531319
1 0.998093 0.526513
0.388342 0.955444 0.794537
0.378408 0.956741 0.784695
0.376669 0.958785 0.766644
0.372824 0.963241 0.710582
0.372488 0.956924 0.453758
0.671855 0.988556 0.418631
1 0.987137 0.507881
1 0.998779 0.532235
1 0.998932 0.530724
0.389013 0.954284 0.801358
0.37911 0.955871 0.791943
0.377371 0.957977 0.774304
0.373175 0.962676 0.718624
0.372808 0.957534 0.463523
0.655421 0.987564 0.418555
0.994125 0.985565 0.502342
1 0.998932 0.53048
1 0.998932 0.530541
0.0392767 0.0753033 0.589715
0.0644388 0.0714275 0.601007
0.13901 0.0617075 0.627726
0.318166 0.0652323 0.676356
0.513451 0.0777142 0.670069
0.656321 0.114946 0.685481
0.650462 0.11783 0.695064
0.651743 0.118181 0.699962
0.649638 0.119097 0.699367
0.0231022 0.077348 0.580545
0.0382086 0.0736706 0.587884
0.108583 0.0636606 0.616617
0.298695 0.0638743 0.672328
0.508293 0.0760662 0.669581
0.657298 0.114488 0.682918
0.651225 0.11725 0.69221
0.650629 0.118059 0.696513
0.648463 0.118944 0.695552
0.021973 0.0949264 0.584192
0.0197452 0.0825055 0.577325
0.0353704 0.0705425 0.5832
0.241581 0.0606394 0.657618
0.493477 0.0716411 0.668788
0.660151 0.113298 0.674754
0.656443 0.115114 0.686091
0.654444 0.115953 0.689799
0.65304 0.116167 0.689433
0.0463417 0.257954 0.650141
0.0445869 0.244083 0.646525
0.0410925 0.207996 0.63679
0.0929427 0.129564 0.644694
0.446815 0.067216 0.675517
0.658976 0.10721 0.646922
0.666407 0.111345 0.658488
0.664881 0.111879 0.66247
0.664073 0.111986 0.662364
0.122377 0.570397 0.720317
0.120012 0.567407 0.718105
0.117571 0.557839 0.718166
0.111269 0.527367 0.718914
0.460838 0.483528 0.800259
0.854719 0.323156 0.78851
0.831022 0.245548 0.716564
0.798169 0.217426 0.691325
0.784512 0.20502 0.679438
0.315419 0.860929 0.829709
0.312047 0.859937 0.82388
0.305806 0.854734 0.815213
0.291737 0.84358 0.795712
0.284031 0.846662 0.770718
0.81854 0.839048 0.747845
1 0.784772 0.768765
1 0.759915 0.760571
1 0.749386 0.756558
0.397528 0.937148 0.898222
0.389136 0.9402 0.895125
0.388327 0.941299 0.888441
0.386328 0.94432 0.869429
0.380407 0.954238 0.804929
0.649989 0.998932 0.663828
1 0.998932 0.732631
1 0.998413 0.773083
1 0.998657 0.761273
0.401007 0.935164 0.90425
0.389792 0.939239 0.901244
0.388922 0.940444 0.89398
0.386847 0.943557 0.87425
0.380758 0.95378 0.80795
0.488487 0.998932 0.592004
0.994141 0.998932 0.552117
1 0.998932 0.694896
1 0.998932 0.702724
0.407706 0.933288 0.905501
0.390234 0.938537 0.905867
0.38941 0.939712 0.898741
0.387335 0.942824 0.878859
0.38117 0.953231 0.811765
0.464668 0.998932 0.586618
0.977417 0.998932 0.531624
1 0.998932 0.642954
1 0.998932 0.689189
0.0577707 0.112001 0.614908
0.0795148 0.109941 0.626459
0.141649 0.0999161 0.65214
0.314076 0.0950637 0.70222
0.512459 0.101274 0.709194
0.652216 0.119646 0.711116
0.652155 0.119677 0.711086
0.651759 0.11989 0.710948
0.650019 0.120546 0.708934
0.0439918 0.11342 0.607309
0.0569924 0.112139 0.614496
0.113893 0.104814 0.641871
0.293767 0.0950484 0.698344
0.505013 0.100893 0.709895
0.652247 0.119646 0.711192
0.652094 0.119722 0.71107
0.650019 0.120546 0.708873
0.648096 0.121263 0.7066
0.0424659 0.1187 0.609094
0.0406653 0.114092 0.606287
0.0544442 0.112398 0.613092
0.236332 0.0935531 0.682734
0.480552 0.0997787 0.711803
0.652277 0.119661 0.711299
0.652384 0.119661 0.711604
0.651728 0.119905 0.710903
0.650996 0.120134 0.709712
0.0747082 0.216785 0.663966
0.0708934 0.203586 0.657237
0.059617 0.167681 0.637675
0.0650797 0.111711 0.618921
0.405829 0.0965896 0.712291
0.636286 0.116579 0.708415
0.652567 0.119677 0.712001
0.652552 0.119677 0.712016
0.652262 0.119661 0.711177
0.172564 0.554742 0.786374
0.170687 0.549447 0.78497
0.167697 0.536278 0.783322
0.158495 0.495415 0.776669
0.356725 0.443198 0.905379
0.719371 0.268055 0.863355
0.712184 0.196078 0.756878
0.694286 0.172168 0.73959
0.687785 0.162387 0.732647
0.308461 0.820218 0.882292
0.305959 0.817746 0.880079
0.301106 0.809888 0.876997
0.29102 0.792523 0.871168
0.272648 0.758144 0.862455
0.7476 0.767498 0.948791
0.989425 0.66714 0.970932
0.989013 0.635538 0.968521
0.986709 0.621363 0.964965
0.39527 0.932296 0.94551
0.393973 0.933196 0.943496
0.39382 0.933318 0.942565
0.393301 0.933639 0.939712
0.391546 0.934569 0.929549
0.594049 0.998932 0.974166
0.967987 0.978973 0.945525
1 0.968231 0.955016
0.99942 0.962417 0.949981
0.408148 0.928557 0.941787
0.394202 0.933104 0.944427
0.394141 0.933165 0.944091
0.393698 0.933471 0.941405
0.392309 0.935286 0.927596
0.422751 0.954772 0.900298
0.934737 0.998932 0.920256
0.997314 0.990234 0.987594
0.997192 0.990326 0.992264
0.408911 0.927993 0.939666
0.392966 0.932723 0.944625
0.394217 0.93312 0.944518
0.393851 0.933318 0.942641
0.39234 0.935225 0.928084
0.398566 0.945235 0.887922
0.915862 0.998932 0.912596
0.99559 0.991089 0.964065
0.994934 0.991241 0.987976
0.0702068 0.11107 0.621744
0.0946365 0.107973 0.633661
0.155886 0.0974441 0.656794
0.322545 0.0950332 0.703609
0.518364 0.101442 0.708431
0.652216 0.119661 0.711131
0.652232 0.119646 0.711162
0.652201 0.119677 0.711147
0.650156 0.120455 0.708904
0.0506142 0.11284 0.611017
0.0691539 0.111055 0.621088
0.129274 0.102388 0.647913
0.303044 0.0950637 0.700206
0.510491 0.101167 0.709377
0.652232 0.119646 0.711162
0.652247 0.119661 0.711192
0.651728 0.119844 0.710658
0.650431 0.120363 0.709178
0.0411688 0.115023 0.606943
0.0410315 0.114519 0.606622
0.0658885 0.111467 0.619348
0.246281 0.0939345 0.685863
0.485542 0.100038 0.711498
0.652171 0.119646 0.711086
0.652308 0.119661 0.711376
0.652293 0.119661 0.711345
0.651225 0.120027 0.709987
0.0760662 0.209522 0.663294
0.0711681 0.195743 0.655314
0.0580148 0.160052 0.63389
0.0743877 0.11075 0.623743
0.409369 0.0967117 0.712459
0.637613 0.116716 0.708232
0.652399 0.119677 0.711543
0.652384 0.119661 0.711528
0.652232 0.119661 0.711131
0.181201 0.545174 0.800214
0.17847 0.538354 0.797604
0.172107 0.520943 0.791516
0.155352 0.470603 0.774578
0.328588 0.39498 0.884504
0.674372 0.231266 0.827939
0.686137 0.161761 0.737392
0.673915 0.14049 0.726192
0.669337 0.134005 0.722377
0.317143 0.830518 0.897017
0.314855 0.827466 0.895262
0.310399 0.820035 0.892363
0.29987 0.802152 0.885527
0.27335 0.754604 0.868452
0.70193 0.745403 0.970504
0.963226 0.616236 0.995636
0.963546 0.579614 0.995804
0.958968 0.565393 0.993088
0.392508 0.932189 0.945129
0.391913 0.932647 0.94435
0.391882 0.932662 0.94432
0.391882 0.932662 0.94432
0.388602 0.928344 0.942443
0.498009 0.975982 0.999191
0.952483 0.963211 0.988495
0.993698 0.950423 0.994934
0.993271 0.942718 0.994369
0.406516 0.928588 0.940322
0.391913 0.932647 0.944366
0.391882 0.932662 0.94432
0.391882 0.932662 0.94432
0.392004 0.93257 0.944472
0.394659 0.932952 0.945052
0.923583 0.99379 0.995285
0.994842 0.991363 0.994583
0.994858 0.991363 0.994598
0.392874 0.931899 0.945602
0.391928 0.932631 0.944381
0.391882 0.932662 0.94432
0.391882 0.932662 0.94432
0.391989 0.932586 0.944457
0.394903 0.933013 0.944823
0.889509 0.996445 0.996262
0.994492 0.991501 0.994308
0.997879 0.990143 0.99675
0.0767681 0.110399 0.625147
0.101244 0.106981 0.636606
0.163333 0.0960861 0.659052
0.326146 0.0950332 0.704158
0.520821 0.101534 0.708156
0.652216 0.119661 0.711131
0.652232 0.119646 0.711162
0.652247 0.119661 0.711177
0.652216 0.119646 0.711101
0.0549935 0.112596 0.613519
0.0757153 0.110567 0.624643
0.1364 0.101045 0.650431
0.306981 0.0950637 0.700954
0.512551 0.101274 0.709163
0.652247 0.119661 0.711192
0.652247 0.119661 0.711177
0.652232 0.119646 0.711131
0.652155 0.119646 0.710933
0.0413214 0.115267 0.607095
0.0414588 0.11429 0.606638
0.0720989 0.110918 0.622675
0.25069 0.0940871 0.687205
0.487556 0.100175 0.711421
0.652125 0.119631 0.711086
0.652308 0.119661 0.711376
0.652293 0.119661 0.711345
0.652186 0.119646 0.710994
0.0746014 0.205295 0.660883
0.0695048 0.191012 0.652583
0.0562905 0.155581 0.631174
0.0785229 0.110033 0.625727
0.411002 0.0968185 0.712566
0.63827 0.116808 0.708293
0.652415 0.119677 0.711559
0.652399 0.119661 0.711543
0.652232 0.119661 0.711131
0.177142 0.533684 0.796429
0.173999 0.52636 0.793347
0.167544 0.507622 0.787076
0.150607 0.455451 0.769436
0.316991 0.370306 0.871748
0.653376 0.212589 0.808377
0.677058 0.145586 0.728923
0.664836 0.128923 0.719768
0.657053 0.122652 0.714443
0.314443 0.826047 0.895247
0.311849 0.82237 0.893324
0.307042 0.814313 0.890211
0.295369 0.794247 0.882628
0.266941 0.742596 0.864454
0.691905 0.728008 0.970199
0.957214 0.597147 0.994614
0.958144 0.556924 0.992996
0.95404 0.5411 0.990494
0.392355 0.932296 0.94493
0.391913 0.932647 0.94435
0.391882 0.932662 0.94432
0.391882 0.932662 0.94432
0.387594 0.927321 0.941741
0.48101 0.966735 0.990967
0.941802 0.956268 0.987884
0.991913 0.938659 0.994751
0.991165 0.928954 0.994629
0.392737 0.932021 0.945418
0.391913 0.932647 0.944366
0.391882 0.932662 0.94432
0.391882 0.932662 0.94432
0.391882 0.932662 0.94432
0.391882 0.932662 0.94432
0.893996 0.995789 0.999252
0.994934 0.991333 0.994675
0.994934 0.991333 0.994659
0.39263 0.932097 0.945281
0.391928 0.932631 0.944381
0.391882 0.932662 0.94432
0.391882 0.932662 0.94432
0.391882 0.932662 0.94432
0.391882 0.932662 0.94432
0.8094 0.998932 1
0.993851 0.991775 0.99379
0.995865 0.990936 0.995407
