bundles/resolve-cinematic-luts/Phantom Luts/Canon Alexa LUT/C-Log 2/Jamaica Canon CL2-Legacy.cube
TITLE "Generated by Resolve"
LUT_3D_SIZE 33
0.0225986 0.0376593 0.0226139
0.0239414 0.0374914 0.0225986
0.0276646 0.037583 0.0231479
0.0350042 0.0376593 0.0241398
0.0469215 0.0377661 0.0252689
0.0643168 0.0379034 0.0266423
0.0862135 0.0379187 0.0279698
0.112688 0.0381018 0.0299687
0.146334 0.0380255 0.0322423
0.188861 0.0378271 0.0353094
0.238346 0.0375525 0.0405127
0.300816 0.0375372 0.0476081
0.369421 0.0374762 0.0572213
0.439048 0.0378271 0.0697032
0.506645 0.0391546 0.0864271
0.564157 0.0424201 0.106401
0.608164 0.0493172 0.132784
0.637079 0.0615396 0.163226
0.6598 0.0791943 0.196063
0.678096 0.0900435 0.222156
0.681163 0.090425 0.231113
0.683604 0.0905928 0.239185
0.68545 0.0905623 0.246113
0.687175 0.0906081 0.252491
0.688472 0.0905623 0.257801
0.689403 0.0905318 0.261738
0.690333 0.0905776 0.265538
0.691035 0.0906233 0.268482
0.691615 0.0906691 0.270909
0.692027 0.0906996 0.272801
0.692256 0.0906844 0.274083
0.692409 0.0906844 0.274998
0.692058 0.0907912 0.27512
0.0225376 0.0386358 0.0229343
0.0231022 0.038117 0.0224918
0.0252995 0.037995 0.0227665
0.0305638 0.0381323 0.0233768
0.0406043 0.0380865 0.0241398
0.0575113 0.0380102 0.0251926
0.0786603 0.0381323 0.0264744
0.105547 0.0382239 0.0278782
0.139071 0.0382086 0.0294347
0.181308 0.0380407 0.0320287
0.231403 0.0377966 0.0361028
0.294682 0.0374914 0.0421607
0.364614 0.0374914 0.0511025
0.435279 0.0378271 0.0633249
0.503197 0.0391394 0.0804303
0.561364 0.0425269 0.100572
0.605829 0.0492866 0.126955
0.634989 0.0614176 0.157641
0.658076 0.079057 0.191226
0.676997 0.090135 0.218189
0.67982 0.0903487 0.226764
0.682383 0.0905318 0.235019
0.684398 0.090547 0.242222
0.686046 0.090547 0.248341
0.687526 0.0906233 0.253864
0.688548 0.0905623 0.258122
0.689342 0.0905165 0.261494
0.690089 0.0905623 0.264591
0.690639 0.0906233 0.266758
0.691081 0.0906539 0.268711
0.691402 0.0906691 0.270207
0.691569 0.0906844 0.271168
0.6916 0.0906996 0.271534
0.0225528 0.0417487 0.0236362
0.0232853 0.0411536 0.0226291
0.025742 0.0404669 0.0228885
0.0297398 0.0404822 0.0234531
0.0383764 0.0395361 0.0233921
0.0534981 0.0387427 0.0244907
0.0733501 0.038529 0.0256657
0.100542 0.0383001 0.026688
0.132967 0.0382086 0.0278325
0.173068 0.0383612 0.0298772
0.223026 0.0380255 0.0327611
0.285924 0.037705 0.0378576
0.357015 0.0375525 0.0456245
0.430014 0.0377966 0.0571756
0.498939 0.0391546 0.0740826
0.557961 0.0425116 0.0943465
0.602869 0.0491188 0.120867
0.632639 0.0610666 0.151858
0.656031 0.0786297 0.18613
0.675731 0.0901045 0.214237
0.678386 0.0902419 0.22237
0.681025 0.0904555 0.230549
0.683253 0.0905776 0.237995
0.685008 0.0905318 0.24448
0.686427 0.0905928 0.249668
0.687663 0.0906386 0.254307
0.688518 0.0905623 0.257969
0.689143 0.0905318 0.2607
0.689723 0.090547 0.263127
0.69015 0.0905776 0.264881
0.690425 0.0906081 0.266133
0.690562 0.0906233 0.266941
0.690593 0.0906386 0.267292
0.0221714 0.0469215 0.0244755
0.0223392 0.0462348 0.0225071
0.0246128 0.0448157 0.0226291
0.0293278 0.043946 0.0232853
0.0374151 0.044358 0.0243534
0.0520943 0.0424353 0.0245518
0.0731212 0.0406195 0.0238804
0.0999313 0.0392309 0.0252689
0.127367 0.0387884 0.026688
0.166323 0.0382849 0.0277409
0.215869 0.037995 0.0294194
0.276371 0.0381933 0.0340429
0.345968 0.0375525 0.0395209
0.418692 0.0377508 0.0504616
0.491402 0.0390021 0.0654154
0.552987 0.0423285 0.0870985
0.599145 0.049012 0.112947
0.629267 0.060502 0.144045
0.652918 0.0777905 0.178897
0.673686 0.0898909 0.208515
0.676555 0.0901503 0.216739
0.679194 0.0902876 0.224842
0.681575 0.0905165 0.232227
0.683558 0.0905928 0.239002
0.685054 0.0905318 0.244678
0.686275 0.0905928 0.249088
0.687327 0.0906233 0.253025
0.688075 0.0905928 0.256077
0.688609 0.090547 0.258488
0.68896 0.090547 0.259968
0.689219 0.0905165 0.261295
0.689387 0.0905165 0.262257
0.689433 0.0905318 0.262684
0.0212711 0.0565042 0.0253758
0.0211032 0.0556191 0.0226902
0.02327 0.0536355 0.0224613
0.0267948 0.0517739 0.0225986
0.0358129 0.0505837 0.0237736
0.0504463 0.0510109 0.0248569
0.0693065 0.0487068 0.0255131
0.096437 0.0441138 0.0248569
0.128481 0.0413367 0.0235752
0.168307 0.0393988 0.0251469
0.210971 0.0384527 0.0273136
0.269383 0.0380255 0.0304723
0.336339 0.0376287 0.0337835
0.406271 0.0386816 0.0438544
0.478065 0.0387884 0.0567941
0.543313 0.0416876 0.0772106
0.592645 0.0482338 0.102602
0.624735 0.0597086 0.133944
0.649012 0.076997 0.169528
0.671107 0.0895552 0.201862
0.674266 0.090074 0.209735
0.676905 0.0901503 0.217838
0.679316 0.0903029 0.225238
0.681453 0.0905013 0.231907
0.683238 0.0905776 0.237934
0.684489 0.090547 0.242527
0.685527 0.090547 0.246357
0.686397 0.0905776 0.249592
0.687068 0.0906233 0.252094
0.687541 0.0906386 0.254017
0.687846 0.0906386 0.25536
0.688014 0.0906081 0.256397
0.688045 0.0905928 0.25684
0.0199588 0.0716869 0.0262455
0.0196536 0.0708324 0.0229648
0.0204318 0.0694133 0.0215152
0.0243229 0.0665446 0.0223392
0.0300755 0.0646067 0.0227512
0.0469215 0.0621347 0.0241855
0.068513 0.0624857 0.0250401
0.094255 0.0598764 0.0264591
0.125811 0.0518044 0.0263676
0.165042 0.0446174 0.0233158
0.216403 0.0402838 0.0214694
0.272862 0.0387884 0.026627
0.33109 0.0379644 0.0311589
0.401968 0.0379339 0.0377508
0.469444 0.0390173 0.0484932
0.531014 0.0411688 0.0650492
0.583719 0.0470588 0.0905623
0.618097 0.0579232 0.12137
0.642802 0.0747845 0.156634
0.667674 0.0894484 0.192447
0.670985 0.0897688 0.2009
0.673854 0.090074 0.208591
0.67628 0.0901656 0.215915
0.678477 0.0902571 0.222751
0.680339 0.0903792 0.228595
0.68188 0.0905165 0.233448
0.683131 0.0905928 0.237659
0.684062 0.0905623 0.241077
0.684718 0.0905623 0.243503
0.685206 0.0905623 0.24535
0.685618 0.0905623 0.247028
0.685863 0.0905623 0.248173
0.685939 0.0905776 0.248676
0.0176852 0.0935836 0.027039
0.0173953 0.0926833 0.0237583
0.0172732 0.0911269 0.0209049
0.020737 0.0881056 0.021088
0.0257572 0.0851148 0.0219577
0.0352941 0.0830091 0.0219883
0.0626535 0.0791028 0.0243839
0.0914626 0.0784924 0.0249027
0.123964 0.0761883 0.0265354
0.163546 0.0642252 0.0271
0.215625 0.0496834 0.0237278
0.273991 0.0425727 0.0199283
0.3467 0.0390631 0.0233616
0.405875 0.0387121 0.0323033
0.465995 0.0388495 0.0422675
0.52462 0.0412757 0.0570382
0.570993 0.0455177 0.0754253
0.60911 0.0557565 0.105226
0.635004 0.0716106 0.141253
0.659449 0.0874037 0.175372
0.665843 0.089189 0.188144
0.669673 0.0898451 0.196994
0.672236 0.0900282 0.203922
0.67451 0.0902266 0.210239
0.676463 0.0902571 0.216281
0.67808 0.0903487 0.22121
0.679469 0.090425 0.225559
0.680537 0.090486 0.228946
0.681407 0.0905318 0.231724
0.682109 0.0905776 0.234043
0.682689 0.0906081 0.236072
0.683009 0.0906539 0.237263
0.683146 0.0906844 0.237751
0.0140383 0.122286 0.027512
0.0138094 0.121462 0.0242618
0.01355 0.120302 0.0207218
0.0149844 0.118074 0.0189517
0.0201419 0.114611 0.0196994
0.0282292 0.111894 0.0201724
0.0428626 0.109422 0.0205539
0.0824445 0.102617 0.0237736
0.118364 0.100908 0.024155
0.160235 0.100526 0.0255741
0.212314 0.0818494 0.0267338
0.280232 0.0556039 0.0233921
0.346059 0.0466468 0.019028
0.418555 0.0402686 0.0194553
0.483391 0.0402838 0.0330053
0.527596 0.0416876 0.0500801
0.568292 0.0459754 0.0699016
0.599542 0.052903 0.0918898
0.62475 0.0677501 0.121386
0.649973 0.0848554 0.156634
0.655421 0.0866255 0.166613
0.660929 0.0880598 0.177737
0.666072 0.0893721 0.188434
0.669291 0.0899214 0.195865
0.671275 0.0899977 0.201328
0.672984 0.0902113 0.205859
0.674434 0.0903334 0.209949
0.675608 0.0903639 0.213443
0.676478 0.0903792 0.216037
0.677256 0.0903944 0.218387
0.677867 0.090425 0.220264
0.678248 0.0904707 0.221454
0.678431 0.0905013 0.222126
0.010132 0.160479 0.027924
0.00968948 0.159258 0.024567
0.00923171 0.1579 0.0208591
0.00917067 0.156451 0.0186923
0.0123903 0.15317 0.0171969
0.0194247 0.149111 0.0178683
0.0312352 0.146258 0.0179141
0.0523842 0.142489 0.0182956
0.105638 0.131731 0.0221561
0.152316 0.128466 0.0219272
0.205081 0.13225 0.0228428
0.277562 0.103471 0.0261692
0.351385 0.0696422 0.0240787
0.423545 0.0524605 0.019791
0.48574 0.0451514 0.018967
0.543832 0.0447089 0.0356298
0.578622 0.049485 0.0621195
0.598352 0.0538643 0.0872358
0.617945 0.0636606 0.110719
0.640833 0.0814374 0.141085
0.644495 0.0833143 0.146075
0.649165 0.0847791 0.15465
0.653742 0.0862593 0.163043
0.657633 0.0873274 0.170565
0.661448 0.0883497 0.178256
0.665095 0.0893263 0.185626
0.667613 0.0898604 0.191104
0.668956 0.0900282 0.194369
0.669947 0.0900282 0.197131
0.670756 0.0900435 0.199344
0.671427 0.0901045 0.20119
0.67187 0.0901808 0.202426
0.672068 0.0902266 0.203037
0.00981155 0.209064 0.0287022
0.00936904 0.207813 0.0251926
0.00895705 0.20647 0.0213626
0.00865187 0.204654 0.0202945
0.00894179 0.201938 0.0202487
0.0110323 0.197543 0.0198825
0.0186923 0.193042 0.0192721
0.0349889 0.190829 0.0184482
0.0654917 0.185061 0.01561
0.136812 0.170382 0.0199893
0.197284 0.165484 0.0240024
0.262562 0.169314 0.0246433
0.35024 0.133333 0.0265812
0.425544 0.0925002 0.0262455
0.496239 0.0629892 0.0233768
0.542901 0.0541848 0.025864
0.574945 0.0525673 0.0393988
0.602762 0.0635691 0.0775769
0.619516 0.0706188 0.106401
0.633768 0.0770733 0.131182
0.643488 0.0834821 0.143221
0.643656 0.0834058 0.143786
0.643122 0.0831006 0.143084
0.644175 0.08336 0.145174
0.647227 0.0843061 0.150835
0.650141 0.0851759 0.156283
0.652689 0.0859541 0.161013
0.654826 0.0866255 0.164965
0.656489 0.0870222 0.168246
0.657877 0.0874189 0.170962
0.658869 0.0876783 0.173022
0.65951 0.0878767 0.174304
0.659983 0.0880598 0.175235
0.00859083 0.269169 0.0313573
0.00813306 0.268772 0.0275731
0.00756847 0.267048 0.0237125
0.00738537 0.26511 0.0215
0.00727855 0.262592 0.0223545
0.00727855 0.25864 0.0221256
0.00935378 0.253239 0.0216373
0.0197757 0.248493 0.0207675
0.0418708 0.247242 0.0192111
0.0846265 0.237583 0.0165103
0.177584 0.218921 0.0213931
0.254322 0.213855 0.0252079
0.332937 0.218997 0.0265049
0.425895 0.180224 0.0283055
0.499947 0.129137 0.0317388
0.555764 0.0816205 0.0332494
0.584924 0.0707408 0.0409552
0.59382 0.0697795 0.0522011
0.61912 0.0813611 0.0920119
0.645747 0.0919356 0.127749
0.651331 0.0916762 0.14583
0.643366 0.0842451 0.141329
0.643412 0.0838788 0.142184
0.643458 0.0837873 0.142519
0.64361 0.0837262 0.143008
0.643778 0.0836805 0.143511
0.643977 0.0836805 0.143999
0.64416 0.083711 0.144396
0.644297 0.083711 0.144747
0.64416 0.0836194 0.144594
0.643915 0.0835126 0.144213
0.64387 0.0834974 0.144167
0.644099 0.0835889 0.144625
0.00929274 0.346014 0.0373999
0.00862135 0.345632 0.0337377
0.00791943 0.344778 0.0301213
0.00753796 0.343557 0.0252995
0.00732433 0.341726 0.0267185
0.00726329 0.340047 0.0268711
0.00721752 0.334081 0.0264134
0.0104677 0.327977 0.0256504
0.0251469 0.322087 0.0240787
0.0541848 0.321309 0.0219577
0.112291 0.305821 0.0175021
0.231098 0.282597 0.0224613
0.330282 0.279149 0.0274815
0.412802 0.285924 0.0305486
0.502434 0.246998 0.0331579
0.573007 0.181369 0.0437324
0.607294 0.12282 0.0516365
0.616464 0.101061 0.0634775
0.617578 0.0951858 0.0754253
0.635676 0.0937667 0.0929427
0.668559 0.104646 0.133425
0.666453 0.102663 0.137926
0.662287 0.0996872 0.139574
0.658671 0.097322 0.142977
0.655177 0.0948043 0.146883
0.649088 0.0899825 0.144854
0.643091 0.084535 0.140276
0.643244 0.084184 0.141238
0.643229 0.0841382 0.141283
0.643214 0.084123 0.141299
0.643198 0.0841077 0.141314
0.643168 0.0840925 0.141268
0.643122 0.0840925 0.141207
0.0143587 0.430365 0.0485389
0.0136416 0.430137 0.0450904
0.0129397 0.429847 0.0418097
0.0125429 0.429099 0.0377508
0.0125582 0.428336 0.0354772
0.0125429 0.426795 0.0364843
0.0124971 0.424521 0.0362249
0.0119173 0.416419 0.035172
0.0180056 0.410605 0.0338598
0.0395972 0.405142 0.0310063
0.0775769 0.404807 0.0272526
0.156115 0.382208 0.019913
0.303609 0.357168 0.0248112
0.416175 0.35668 0.0318303
0.493919 0.362448 0.0381781
0.576883 0.339437 0.0453956
0.642084 0.258473 0.0648356
0.662074 0.194736 0.080705
0.650675 0.145434 0.0925917
0.653346 0.13283 0.102525
0.661723 0.114977 0.106035
0.659937 0.107042 0.103685
0.66154 0.10425 0.107912
0.665415 0.105104 0.117372
0.667445 0.105394 0.124788
0.667765 0.104952 0.129824
0.667048 0.103929 0.13286
0.666651 0.103273 0.135149
0.66598 0.102632 0.136858
0.665171 0.101991 0.13785
0.664393 0.101381 0.138598
0.663584 0.100893 0.139101
0.662867 0.100496 0.1393
0.0273442 0.514534 0.0678721
0.0268559 0.514183 0.0646677
0.0264591 0.513588 0.0614939
0.0263676 0.513619 0.0584421
0.0264134 0.512963 0.0537118
0.0263676 0.512184 0.0538186
0.0260624 0.510872 0.053727
0.0252537 0.506737 0.0526131
0.0235752 0.500526 0.0511635
0.0333562 0.495933 0.048249
0.0653239 0.493156 0.0428626
0.113787 0.491569 0.036408
0.216999 0.461341 0.0243839
0.385367 0.437751 0.0308537
0.503441 0.438224 0.0426032
0.5729 0.443748 0.054139
0.650416 0.4448 0.0741436
0.707347 0.363867 0.0978408
0.722316 0.2878 0.12224
0.701854 0.215228 0.131304
0.695048 0.177981 0.131228
0.690471 0.162173 0.126543
0.683558 0.151705 0.121294
0.677653 0.142962 0.116915
0.672465 0.134981 0.113115
0.669123 0.129366 0.110811
0.665599 0.12343 0.108248
0.664607 0.118929 0.109178
0.663417 0.116075 0.108248
0.662699 0.113771 0.10753
0.662394 0.112139 0.107286
0.66183 0.110506 0.106767
0.661433 0.109636 0.106523
0.0545968 0.591852 0.10045
0.0543679 0.591302 0.0975509
0.0544289 0.591089 0.0948196
0.0543679 0.590204 0.0916915
0.054551 0.589517 0.088365
0.0546426 0.588418 0.0850843
0.0542 0.587503 0.0847028
0.0538033 0.586465 0.0841382
0.0515297 0.58143 0.0815442
0.0519112 0.577417 0.0787976
0.0648508 0.573983 0.0729839
0.108873 0.57879 0.0649882
0.169741 0.576425 0.0536812
0.302342 0.541344 0.0352026
0.474159 0.520836 0.0454566
0.588479 0.522133 0.0664988
0.650355 0.527092 0.0858167
0.720134 0.536583 0.119127
0.772519 0.479698 0.14963
0.792676 0.402808 0.17969
0.77734 0.331975 0.183368
0.747478 0.260182 0.168566
0.731136 0.231144 0.157061
0.722576 0.216495 0.150988
0.717403 0.207584 0.147219
0.713222 0.200214 0.144106
0.709285 0.193515 0.141146
0.706188 0.187945 0.138674
0.703777 0.183352 0.136522
0.702098 0.179782 0.134524
0.701137 0.177127 0.133318
0.700313 0.175174 0.132143
0.699184 0.173281 0.131136
0.103838 0.663874 0.152483
0.104372 0.663432 0.150301
0.104433 0.662516 0.14789
0.104692 0.66157 0.145205
0.104952 0.660471 0.142275
0.105745 0.659236 0.138399
0.105592 0.658869 0.13785
0.10518 0.658137 0.136889
0.103624 0.656321 0.13518
0.0981765 0.650034 0.129625
0.101869 0.649409 0.12575
0.121523 0.649973 0.113832
0.174716 0.66215 0.103166
0.246677 0.658869 0.0832227
0.400275 0.617334 0.0566262
0.561761 0.601816 0.0756695
0.66891 0.604898 0.112154
0.723796 0.609979 0.140124
0.784451 0.619074 0.182223
0.833432 0.602167 0.218784
0.855375 0.530236 0.234272
0.846906 0.452628 0.234226
0.836759 0.428992 0.227543
0.828275 0.411734 0.221729
0.819455 0.394614 0.215641
0.811246 0.37908 0.210025
0.804196 0.365332 0.205447
0.797864 0.353475 0.201144
0.792859 0.343893 0.197787
0.78938 0.337011 0.195285
0.786068 0.33019 0.192889
0.783185 0.32462 0.190494
0.781018 0.320409 0.1888
0.173083 0.733043 0.221195
0.173388 0.732235 0.219165
0.173373 0.731258 0.21709
0.173449 0.730083 0.214496
0.173465 0.72874 0.211582
0.174563 0.728038 0.208865
0.174411 0.727169 0.20705
0.173953 0.72636 0.205676
0.172519 0.725017 0.204273
0.168765 0.721447 0.200443
0.16321 0.71635 0.195087
0.172259 0.719341 0.189868
0.205509 0.728176 0.173724
0.265415 0.742855 0.159854
0.34818 0.735653 0.128969
0.504677 0.689845 0.100938
0.648692 0.682261 0.135378
0.745098 0.687343 0.183429
0.796506 0.693492 0.218204
0.845121 0.700282 0.256428
0.888716 0.708446 0.294118
0.901228 0.659373 0.291615
0.898848 0.618357 0.28249
0.894804 0.600626 0.276646
0.890929 0.584573 0.271626
0.886961 0.570275 0.267018
0.883558 0.558251 0.263355
0.880461 0.547799 0.260212
0.878309 0.540398 0.258137
0.876143 0.533104 0.255894
0.874022 0.526787 0.253742
0.872267 0.521263 0.251835
0.870253 0.51664 0.249729
0.250324 0.808103 0.295918
0.250126 0.807523 0.293996
0.249714 0.806683 0.291798
0.2495 0.805875 0.28954
0.249531 0.805127 0.286885
0.24947 0.803967 0.283513
0.24892 0.802762 0.281407
0.248585 0.80177 0.280446
0.247669 0.800473 0.279622
0.246403 0.79884 0.278248
0.240177 0.791913 0.271839
0.240681 0.790127 0.269169
0.259129 0.795438 0.263874
0.309331 0.810498 0.250217
0.380072 0.827771 0.239597
0.463691 0.807126 0.194049
0.611597 0.762753 0.172976
0.732082 0.762295 0.217777
0.820157 0.770291 0.270848
0.870436 0.778607 0.30898
0.901091 0.782361 0.333547
0.925765 0.786542 0.354116
0.935927 0.784237 0.360479
0.933989 0.776898 0.35552
0.932204 0.769985 0.351125
0.929213 0.757855 0.343771
0.92668 0.747982 0.337987
0.924788 0.739116 0.333257
0.922515 0.73106 0.328466
0.920806 0.724666 0.324483
0.919707 0.719158 0.321202
0.919203 0.714672 0.318349
0.918669 0.71191 0.316243
0.315755 0.884611 0.359258
0.315358 0.884199 0.356939
0.314717 0.883757 0.354772
0.31458 0.883711 0.352926
0.314 0.883085 0.350164
0.313313 0.882185 0.347601
0.312779 0.881437 0.345922
0.312505 0.880613 0.345754
0.313283 0.880171 0.346426
0.313497 0.878691 0.346517
0.311498 0.87512 0.344305
0.305592 0.866194 0.33814
0.317525 0.86865 0.341268
0.355489 0.8757 0.33962
0.430213 0.898634 0.338018
0.509728 0.909728 0.326055
0.590112 0.876997 0.276127
0.715923 0.836927 0.265446
0.815213 0.844205 0.316365
0.890852 0.853971 0.367071
0.932738 0.862486 0.399374
0.947509 0.864973 0.410834
0.956451 0.86244 0.415518
0.955673 0.856947 0.411902
0.954223 0.851728 0.408118
0.952697 0.847044 0.404593
0.951583 0.843137 0.401755
0.950301 0.838651 0.398428
0.949432 0.835492 0.395895
0.948791 0.832761 0.393225
0.948318 0.83032 0.390311
0.94818 0.828717 0.387121
0.948043 0.826902 0.384268
0.360876 0.940887 0.403296
0.359548 0.940993 0.400092
0.358343 0.941009 0.397696
0.357687 0.940948 0.395422
0.357046 0.940734 0.39234
0.35671 0.940597 0.391501
0.356451 0.940383 0.391073
0.35642 0.940322 0.391028
0.356786 0.939773 0.391424
0.358434 0.938842 0.392935
0.359945 0.93695 0.394217
0.359106 0.932189 0.392935
0.362585 0.92842 0.393866
0.398276 0.933654 0.404135
0.467597 0.947341 0.409339
0.553796 0.967178 0.408728
0.627802 0.963256 0.387289
0.703075 0.927413 0.350042
0.809827 0.899123 0.356542
0.890684 0.911421 0.403479
0.945891 0.920043 0.4392
0.973953 0.927398 0.460105
0.980743 0.928618 0.46508
0.979095 0.924392 0.461967
0.977768 0.921035 0.459403
0.976684 0.91783 0.457099
0.97525 0.914382 0.454444
0.974197 0.911452 0.452293
0.973495 0.9093 0.450767
0.972625 0.907301 0.449073
0.972076 0.905623 0.447211
0.971725 0.904082 0.444389
0.971771 0.90309 0.440818
0.382895 0.953948 0.423209
0.374075 0.954421 0.413504
0.368826 0.954955 0.40734
0.36817 0.955154 0.405127
0.367437 0.955261 0.402075
0.367315 0.955352 0.401968
0.3673 0.955398 0.402289
0.3673 0.955398 0.402289
0.3673 0.955398 0.402289
0.368444 0.955291 0.403464
0.371359 0.955032 0.406027
0.375845 0.954711 0.410208
0.381262 0.95436 0.415213
0.409125 0.957122 0.426688
0.473671 0.969467 0.441581
0.562325 0.989624 0.443076
0.642023 0.997452 0.431662
0.710781 0.984222 0.412131
0.792859 0.959655 0.40177
0.886961 0.947265 0.42591
0.947326 0.957824 0.462303
0.982895 0.964889 0.485695
0.997696 0.9682 0.496025
0.997879 0.967773 0.495903
0.99707 0.966323 0.494636
0.996612 0.965148 0.493675
0.995789 0.963607 0.492363
0.995224 0.96228 0.491371
0.994705 0.960983 0.49041
0.994476 0.959945 0.489921
0.994324 0.958816 0.489479
0.994125 0.957931 0.488746
0.994125 0.95729 0.485954
0.391608 0.953323 0.431891
0.378027 0.953857 0.416953
0.369436 0.954559 0.407614
0.368856 0.954742 0.4056
0.368154 0.954864 0.402975
0.367788 0.954894 0.401144
0.367941 0.955016 0.40296
0.367849 0.954986 0.402289
0.367849 0.954986 0.402289
0.367849 0.954986 0.402289
0.369284 0.954833 0.403616
0.372183 0.954604 0.406271
0.376013 0.954345 0.409735
0.393591 0.955489 0.417914
0.451896 0.964691 0.433677
0.541726 0.984237 0.441398
0.629679 0.995926 0.432166
0.7028 0.991135 0.419593
0.778195 0.978469 0.415457
0.8692 0.973342 0.437675
0.947173 0.974777 0.472511
0.984207 0.981826 0.495888
1 0.985321 0.51017
1 0.985916 0.512871
1 0.986007 0.513085
1 0.985656 0.512703
1 0.98529 0.512306
1 0.985122 0.512001
1 0.984955 0.51162
1 0.984527 0.511193
1 0.984085 0.51107
1 0.983566 0.511452
1 0.98323 0.510857
0.39147 0.954101 0.440803
0.378546 0.954421 0.425513
0.370184 0.954986 0.415732
0.369497 0.955062 0.411948
0.368902 0.955154 0.409323
0.368399 0.955077 0.405936
0.367895 0.955001 0.402564
0.367849 0.954986 0.402289
0.367849 0.954986 0.402289
0.367849 0.954986 0.402289
0.367849 0.954986 0.402289
0.369421 0.954818 0.403738
0.37258 0.954589 0.406668
0.385946 0.955047 0.414542
0.436103 0.961852 0.429862
0.52137 0.979675 0.440574
0.603159 0.994293 0.436423
0.674418 0.994934 0.424689
0.745495 0.983108 0.414298
0.83859 0.970779 0.425101
0.93901 0.97322 0.467994
0.986435 0.98291 0.497749
1 0.988785 0.511284
1 0.992691 0.518761
1 0.994247 0.52166
1 0.99411 0.521813
1 0.993759 0.521416
1 0.993469 0.520958
1 0.993286 0.5205
1 0.993225 0.520119
1 0.993118 0.519905
1 0.992905 0.519966
1 0.99266 0.520394
0.389853 0.95523 0.450782
0.378317 0.955261 0.436439
0.370977 0.95555 0.426108
0.370291 0.955581 0.42211
0.369635 0.955566 0.417472
0.369055 0.955398 0.412284
0.36849 0.955184 0.40734
0.367895 0.955001 0.402579
0.367849 0.954986 0.402289
0.367849 0.954986 0.402289
0.367849 0.954986 0.402289
0.367849 0.954986 0.402289
0.36968 0.954803 0.403967
0.377279 0.954559 0.409796
0.418189 0.958816 0.425361
0.4981 0.974563 0.439368
0.58024 0.991104 0.438773
0.659297 0.995377 0.426871
0.734707 0.985153 0.415183
0.822629 0.972015 0.420996
0.919997 0.97229 0.458076
0.981201 0.982742 0.494362
1 0.990143 0.511849
1 0.995712 0.521584
1 0.998688 0.527382
1 0.998932 0.530388
1 0.998932 0.530831
1 0.998932 0.5308
1 0.998932 0.530709
1 0.998932 0.530495
1 0.998932 0.530251
1 0.998932 0.529793
1 0.998932 0.529335
0.388174 0.956878 0.461173
0.377813 0.956344 0.447639
0.371466 0.956451 0.4374
0.371008 0.956268 0.432776
0.370352 0.956069 0.426825
0.369772 0.95584 0.42092
0.3691 0.955489 0.413504
0.36846 0.955169 0.407065
0.368017 0.955032 0.403616
0.367849 0.954986 0.402289
0.367849 0.954986 0.402289
0.367849 0.954986 0.402289
0.368002 0.954971 0.402426
0.372747 0.954574 0.406821
0.402029 0.956832 0.419532
0.477363 0.970077 0.437598
0.562371 0.988098 0.439948
0.642618 0.995834 0.429847
0.717769 0.987869 0.416739
0.801877 0.974273 0.417166
0.897993 0.970901 0.44741
0.970642 0.980194 0.48719
1 0.988815 0.508614
1 0.994156 0.519219
1 0.997787 0.525811
1 0.998932 0.530037
1 0.998932 0.530953
1 0.998932 0.530877
1 0.998932 0.53077
1 0.998932 0.530526
1 0.998932 0.530251
1 0.998932 0.529763
1 0.998932 0.529198
0.389776 0.958129 0.472831
0.380133 0.957336 0.459861
0.373617 0.957 0.449714
0.371832 0.956893 0.442878
0.371084 0.956634 0.436728
0.370398 0.956268 0.428763
0.369696 0.955856 0.420371
0.368948 0.955413 0.411948
0.368139 0.955077 0.404334
0.367849 0.954986 0.402289
0.367849 0.954986 0.402289
0.367849 0.954986 0.402289
0.367987 0.954971 0.402411
0.371359 0.954665 0.405402
0.392691 0.955947 0.415473
0.458976 0.96611 0.433738
0.54728 0.984894 0.439933
0.627848 0.995377 0.432013
0.702892 0.99028 0.418921
0.784344 0.976455 0.415015
0.879164 0.970504 0.439567
0.959625 0.978027 0.480308
0.997986 0.987564 0.505486
1 0.993057 0.517205
1 0.996948 0.524392
1 0.998932 0.529961
1 0.998932 0.53138
1 0.998932 0.531304
1 0.998932 0.531197
1 0.998932 0.530968
1 0.998932 0.530694
1 0.998932 0.530205
1 0.998932 0.529671
0.398306 0.959655 0.488365
0.389822 0.958419 0.475975
0.380087 0.95761 0.463035
0.37496 0.957259 0.454398
0.371572 0.957168 0.445151
0.370993 0.956741 0.437201
0.370199 0.956222 0.427253
0.369436 0.955703 0.417502
0.368566 0.955215 0.408148
0.367895 0.955001 0.402686
0.367849 0.954986 0.402289
0.367849 0.954986 0.402289
0.367987 0.954971 0.402411
0.371145 0.954681 0.405188
0.387549 0.955596 0.413703
0.44651 0.963851 0.431052
0.535973 0.982391 0.439323
0.616876 0.99472 0.433631
0.691051 0.99205 0.420905
0.771664 0.978286 0.414054
0.86421 0.970001 0.433539
0.950545 0.976684 0.475196
0.993927 0.986603 0.502846
1 0.992218 0.515465
1 0.996368 0.523262
1 0.998932 0.529168
1 0.998932 0.531426
1 0.998932 0.531518
