bundles/resolve-cinematic-luts/Phantom Luts/Canon Alexa LUT/C-Log 2/Jamaica Canon CL2.cube
TITLE "Generated by Resolve"
LUT_3D_SIZE 9
0.00434882 0.0275578 0.00444038
0.0435187 0.0280308 0.00921645
0.182528 0.028336 0.0215763
0.421271 0.0272526 0.064622
0.620569 0.0438697 0.164294
0.68571 0.0808576 0.266361
0.690974 0.0810712 0.293584
0.693004 0.0811017 0.306996
0.692576 0.0812848 0.31104
0.0024567 0.055848 0.00927749
0.027039 0.0476387 0.0071107
0.159442 0.0330663 0.0065156
0.387991 0.0279393 0.026978
0.605753 0.0423743 0.126909
0.680735 0.080827 0.244556
0.687068 0.0809339 0.272602
0.689937 0.0810407 0.287739
0.690425 0.0810712 0.292409
0 0.20412 0.0138094
0 0.195071 0.00187686
0.131014 0.167163 0.00300603
0.406577 0.0780804 0.0104219
0.585336 0.0440528 0.0712902
0.651453 0.0763104 0.169497
0.668635 0.0796521 0.206714
0.676829 0.0809033 0.228794
0.678614 0.0810101 0.235889
0.00613413 0.486961 0.0482795
0.00549325 0.484932 0.0328374
0.0100252 0.46949 0.0281071
0.360616 0.412039 0.0120546
0.678584 0.315755 0.0746471
0.66389 0.111177 0.102968
0.66479 0.0914015 0.129274
0.665675 0.0886854 0.14696
0.664225 0.0873426 0.151858
0.202655 0.76408 0.25716
0.204578 0.760021 0.243473
0.203845 0.756039 0.23566
0.256321 0.765438 0.204257
0.690471 0.719921 0.171923
0.897139 0.744198 0.313619
0.896071 0.623438 0.280491
0.886427 0.580804 0.266835
0.880018 0.558648 0.258427
0.370779 0.950896 0.413794
0.35201 0.953109 0.387488
0.351781 0.953262 0.387335
0.370291 0.949401 0.404761
0.662028 0.988022 0.416983
0.94786 0.951415 0.45893
0.992935 0.959091 0.488579
0.990875 0.954711 0.485069
0.990662 0.951492 0.479179
0.375662 0.95462 0.465507
0.356313 0.953735 0.421561
0.352178 0.95288 0.38735
0.353414 0.952743 0.388495
0.587762 0.988464 0.432197
0.909728 0.969482 0.451743
1 0.998932 0.529747
1 0.998932 0.538033
1 0.998932 0.536645
0.394202 0.960235 0.521385
0.365362 0.955383 0.469535
0.35555 0.952605 0.404227
0.35346 0.951995 0.387243
0.53579 0.976593 0.422431
0.865644 0.966934 0.431846
1 0.996582 0.522713
1 0.998932 0.53901
1 0.998932 0.537697
0.394644 0.963027 0.53959
0.368994 0.956985 0.490272
0.364111 0.952605 0.423392
0.353445 0.95201 0.387243
0.52781 0.974853 0.418601
0.856565 0.967178 0.428824
1 0.996033 0.521187
1 0.998932 0.538872
1 0.998932 0.537758
0.0034638 0.0286107 0.0267491
0.0407568 0.0282139 0.0377966
0.186526 0.0273442 0.0621195
0.428305 0.0267948 0.102724
0.62829 0.0433661 0.193256
0.688396 0.0812543 0.284001
0.692622 0.0812543 0.309483
0.694484 0.0812238 0.323247
0.694514 0.0814069 0.329
0.00677501 0.0461738 0.0295109
0.0206302 0.0420996 0.0217441
0.166018 0.0317693 0.0244755
0.402747 0.0273594 0.0584878
0.616617 0.0424659 0.158114
0.684138 0.0810407 0.263172
0.689601 0.0812695 0.290532
0.69192 0.081239 0.30428
0.692164 0.0812848 0.308736
0 0.191012 0.0491035
0 0.186084 0.0158541
0.12076 0.159319 0.00427253
0.408713 0.0563058 0.00756847
0.584146 0.0409552 0.0780804
0.663279 0.0786755 0.194919
0.677836 0.0810101 0.234134
0.682353 0.0811322 0.251362
0.683467 0.0810101 0.257557
0.00277714 0.477974 0.0762798
0.00227359 0.475273 0.0467079
0.00146487 0.462562 0.0274815
0.352239 0.405707 0.0113222
0.674342 0.288289 0.0731365
0.659525 0.0992447 0.0992905
0.665782 0.0903944 0.138323
0.664546 0.0874342 0.152361
0.662058 0.0856794 0.156435
0.190295 0.762585 0.272435
0.19472 0.757534 0.25272
0.198108 0.750103 0.229465
0.23917 0.758038 0.204303
0.685771 0.715984 0.167452
0.895766 0.737896 0.310109
0.892775 0.607385 0.275319
0.88191 0.563119 0.261631
0.874998 0.540383 0.253468
0.371756 0.952407 0.435996
0.353475 0.953643 0.401053
0.351781 0.953262 0.387335
0.365896 0.949554 0.400549
0.654139 0.987961 0.417655
0.946059 0.950027 0.45713
0.992111 0.957549 0.487266
0.989731 0.952392 0.483162
0.988922 0.949615 0.477134
0.374517 0.956756 0.491615
0.358587 0.95523 0.451499
0.353185 0.953155 0.395331
0.35259 0.952834 0.387732
0.575998 0.986862 0.433219
0.90399 0.968795 0.448768
1 0.998932 0.529091
1 0.998932 0.538018
1 0.998932 0.53669
0.390661 0.962875 0.546685
0.363104 0.957 0.496498
0.357626 0.953338 0.426947
0.35346 0.951995 0.387243
0.520088 0.973938 0.420905
0.858549 0.967208 0.429419
1 0.996277 0.521935
1 0.998932 0.539055
1 0.998932 0.537636
0.390875 0.964874 0.564248
0.364034 0.958389 0.515023
0.365225 0.954192 0.449058
0.35346 0.951995 0.387243
0.508232 0.971969 0.417166
0.84863 0.967285 0.426108
1 0.995483 0.520012
1 0.998932 0.538872
1 0.998932 0.537667
0.00207523 0.0302281 0.122011
0.0438849 0.029633 0.13463
0.173068 0.0279698 0.16553
0.43624 0.0235752 0.201099
0.639857 0.0415961 0.262119
0.695109 0.0813458 0.328511
0.698207 0.0815137 0.360586
0.699672 0.0820783 0.377203
0.699092 0.0821546 0.381994
0.00183108 0.0415656 0.0983291
0.00605783 0.0327764 0.113237
0.149706 0.0285344 0.140078
0.417365 0.0241245 0.163027
0.632303 0.0407263 0.228321
0.6925 0.0812543 0.308293
0.695842 0.0812848 0.33576
0.697627 0.0813611 0.353414
0.697704 0.0815137 0.358968
0.00492866 0.159747 0.136538
0.00477607 0.152926 0.126284
0.119234 0.147051 0.111192
0.429908 0.0686351 0.100816
0.605051 0.0391241 0.140978
0.683375 0.0809796 0.256123
0.68896 0.0811475 0.284535
0.691432 0.0811322 0.298619
0.692027 0.0811322 0.303487
0 0.449866 0.165621
0 0.448386 0.13492
0 0.442451 0.0436561
0.331121 0.389715 0.0101625
0.660853 0.226398 0.0712749
0.666178 0.0944381 0.127993
0.666194 0.0887465 0.158816
0.657816 0.0816968 0.16669
0.655497 0.0802014 0.169299
0.158282 0.757626 0.316091
0.16289 0.753964 0.294514
0.17702 0.741894 0.239124
0.196612 0.73753 0.204471
0.675151 0.706203 0.156985
0.890547 0.710552 0.2963
0.883314 0.5673 0.263188
0.868696 0.518013 0.249165
0.860685 0.495415 0.241535
0.370352 0.956374 0.499748
0.358465 0.955764 0.466651
0.353277 0.953246 0.404349
0.356832 0.949828 0.391882
0.633341 0.986862 0.419074
0.941741 0.946258 0.452491
0.990311 0.953475 0.484001
0.987381 0.94725 0.479072
0.986389 0.944091 0.472435
0.372381 0.960647 0.552773
0.360586 0.95874 0.51725
0.358282 0.955261 0.449607
0.352178 0.95288 0.38735
0.543175 0.98114 0.434424
0.890486 0.967895 0.44239
1 0.998932 0.527596
1 0.998932 0.537972
1 0.998932 0.536568
0.384298 0.965682 0.600855
0.360815 0.960433 0.557855
0.36083 0.956741 0.492714
0.35346 0.951995 0.387243
0.47541 0.96672 0.417395
0.841215 0.967605 0.423651
1 0.995529 0.52015
1 0.998932 0.539101
1 0.998932 0.537652
0.384283 0.96672 0.617517
0.362432 0.961227 0.576684
0.363439 0.958007 0.512535
0.35346 0.951995 0.387243
0.461601 0.964767 0.413123
0.831144 0.967819 0.420768
1 0.994492 0.517876
1 0.998932 0.538872
1 0.998932 0.537575
0.00476081 0.0330816 0.297505
0.0476081 0.0305791 0.315404
0.166308 0.0296483 0.338567
0.400046 0.0245975 0.388281
0.641215 0.0426337 0.414252
0.701808 0.0846723 0.439475
0.701625 0.0862593 0.461875
0.701198 0.0868849 0.473167
0.699947 0.0871901 0.474815
0 0.0388495 0.264988
0.00364691 0.0328527 0.28452
0.132876 0.0301213 0.323735
0.38645 0.0247807 0.372076
0.639445 0.0404212 0.394812
0.701549 0.08365 0.42385
0.701701 0.0852064 0.446616
0.701869 0.0859693 0.458137
0.700969 0.0860914 0.459739
0 0.137301 0.275685
0 0.123384 0.27779
0.0604562 0.0859083 0.314031
0.36791 0.033402 0.340871
0.631495 0.0360723 0.337011
0.700282 0.082063 0.376974
0.701442 0.0829786 0.403922
0.701717 0.0832685 0.416999
0.701473 0.0833143 0.420813
0.00387579 0.389242 0.339101
0.00233463 0.384405 0.329229
0.00135805 0.372198 0.306477
0.330739 0.366903 0.285924
0.724376 0.234333 0.265919
0.708537 0.0995499 0.292729
0.689799 0.0819409 0.280446
0.689754 0.0814527 0.284276
0.690074 0.0813153 0.287602
0.111284 0.731548 0.443503
0.109575 0.73077 0.42504
0.108263 0.727855 0.375204
0.137209 0.708156 0.209339
0.650477 0.685603 0.144045
0.887373 0.605997 0.268925
0.863981 0.463157 0.252354
0.838026 0.406607 0.236881
0.824445 0.380331 0.228595
0.355978 0.952972 0.621851
0.35169 0.952773 0.601892
0.351766 0.951705 0.553979
0.349538 0.944198 0.408026
0.562066 0.97818 0.424186
0.930007 0.936629 0.440314
0.984649 0.94107 0.474144
0.980896 0.932235 0.467308
0.979614 0.92784 0.458686
0.369345 0.961242 0.670237
0.361501 0.961532 0.649546
0.360861 0.961563 0.602975
0.357733 0.954833 0.441276
0.443305 0.960235 0.428443
0.852399 0.967758 0.427649
1 0.998032 0.524376
1 0.998932 0.537881
1 0.998932 0.536461
0.377997 0.962646 0.697612
0.362051 0.960769 0.673655
0.361242 0.961669 0.633768
0.360845 0.95642 0.48333
0.38645 0.954192 0.399756
0.800519 0.970306 0.41384
1 0.993027 0.515633
1 0.998932 0.539162
1 0.998932 0.537743
0.378241 0.961929 0.708217
0.363287 0.960449 0.686091
0.361501 0.961578 0.647807
0.361028 0.957168 0.500526
0.378256 0.953368 0.397116
0.787747 0.971008 0.411704
1 0.992035 0.513054
1 0.998932 0.538842
1 0.998932 0.537667
0.0159762 0.0420386 0.500374
0.0575418 0.0375067 0.515831
0.166354 0.0341192 0.541863
0.375555 0.0321202 0.579202
0.580591 0.0517739 0.576638
0.680674 0.0943923 0.58854
0.675715 0.0969253 0.605341
0.674647 0.0979019 0.613962
0.672267 0.0988327 0.612894
0 0.045655 0.477363
0.0150301 0.0416266 0.494347
0.130541 0.0342412 0.530556
0.358221 0.0319524 0.574121
0.578271 0.049546 0.573114
0.682841 0.093431 0.579644
0.677363 0.0956893 0.596384
0.676341 0.0966812 0.604913
0.674708 0.0972152 0.604639
0 0.0809796 0.461662
0 0.064622 0.458976
0.0166629 0.0403143 0.48307
0.300954 0.0318456 0.554864
0.571527 0.0437324 0.561975
0.68867 0.0912947 0.555474
0.684443 0.0929885 0.572519
0.682597 0.0935988 0.580865
0.681483 0.0936751 0.582025
0.0115816 0.360174 0.548638
0.00984207 0.352056 0.547356
0.00880446 0.325567 0.55111
0.218326 0.258305 0.592691
0.635767 0.111727 0.594568
0.70103 0.0874647 0.488655
0.700267 0.0878614 0.495872
0.699336 0.0883955 0.504479
0.698497 0.0883345 0.506279
0.0995804 0.657862 0.613062
0.0953841 0.655848 0.60531
0.0886397 0.649607 0.594156
0.0716716 0.633799 0.559808
0.603845 0.626657 0.533791
0.980682 0.544839 0.551019
0.991974 0.458869 0.544991
0.979538 0.413886 0.539513
0.971191 0.39353 0.535378
0.33814 0.92195 0.756436
0.336202 0.922774 0.747875
0.332357 0.922591 0.729915
0.324239 0.923247 0.674205
0.402106 0.948638 0.481559
0.920882 0.938476 0.445167
0.99501 0.912627 0.463874
0.993088 0.893233 0.453559
0.992126 0.883818 0.448371
0.377523 0.94931 0.801083
0.370428 0.951858 0.791913
0.368734 0.953933 0.774166
0.364431 0.958618 0.717906
0.364111 0.953872 0.437232
0.757671 0.975586 0.40972
1 0.994965 0.519524
1 0.998932 0.538155
1 0.998932 0.531411
0.384375 0.947707 0.810315
0.371328 0.950683 0.801541
0.369635 0.952834 0.784176
0.365301 0.957717 0.730587
0.359579 0.954864 0.455299
0.695598 0.98262 0.411414
0.99881 0.987732 0.50605
1 0.998932 0.539239
1 0.998932 0.537911
0.385199 0.946578 0.816922
0.371984 0.949783 0.808682
0.370291 0.95201 0.791241
0.365866 0.957122 0.73846
0.36022 0.955535 0.467842
0.679973 0.982162 0.410941
0.991135 0.985901 0.500832
1 0.998932 0.537011
1 0.998932 0.537697
0.0415503 0.0855268 0.595819
0.0770886 0.0788891 0.611383
0.168338 0.0628672 0.639048
0.346166 0.0654154 0.677668
0.525505 0.0758373 0.664652
0.657465 0.105989 0.688334
0.652476 0.108476 0.693782
0.654261 0.108446 0.698054
0.651911 0.109377 0.696818
0.0171817 0.0885023 0.583337
0.0398566 0.0831617 0.593973
0.13286 0.0661173 0.628473
0.328435 0.0642557 0.675425
0.519722 0.0742809 0.663737
0.658122 0.105669 0.68687
0.652979 0.108049 0.691966
0.652781 0.108583 0.695094
0.650553 0.109438 0.693599
0.0180056 0.114733 0.594247
0.0146029 0.0970779 0.585458
0.0356909 0.078294 0.589548
0.275257 0.0609751 0.665507
0.503227 0.0701152 0.661723
0.659678 0.104814 0.681147
0.657572 0.106172 0.688991
0.656046 0.106828 0.691203
0.654826 0.107012 0.690425
0.055375 0.306859 0.670497
0.0531014 0.293278 0.666743
0.0471351 0.252872 0.654902
0.11548 0.161364 0.672084
0.462165 0.0684367 0.671809
0.657343 0.10074 0.659388
0.663569 0.103304 0.668772
0.662608 0.103655 0.671809
0.661799 0.103761 0.671351
0.151476 0.607919 0.74406
0.149065 0.60499 0.741817
0.145983 0.595712 0.741207
0.137667 0.566888 0.739864
0.506142 0.530312 0.838193
0.889845 0.374166 0.839734
0.859144 0.282933 0.774639
0.820447 0.249424 0.743786
0.803586 0.234546 0.729213
0.320928 0.868498 0.848127
0.318196 0.868101 0.843397
0.314076 0.864347 0.836576
0.30399 0.85568 0.820005
0.313283 0.86714 0.803296
0.8448 0.861982 0.779431
1 0.813901 0.798947
1 0.791226 0.792477
1 0.781094 0.788266
0.387213 0.933257 0.903014
0.379065 0.936294 0.900786
0.378729 0.937163 0.895415
0.377935 0.939513 0.880125
0.373159 0.948135 0.82118
0.672496 0.998932 0.685908
0.998093 0.996719 0.75552
1 0.992889 0.796445
1 0.992279 0.784085
0.392859 0.930755 0.90695
0.379309 0.935546 0.90544
0.378912 0.936492 0.89987
0.378149 0.938918 0.883955
0.37351 0.947646 0.824186
0.494438 0.998932 0.609308
0.991775 0.998932 0.566934
1 0.998932 0.720226
1 0.998932 0.728038
0.401389 0.928557 0.906706
0.3794 0.935027 0.908827
0.37908 0.935912 0.903609
0.378363 0.938338 0.887755
0.373877 0.947112 0.827863
0.464118 0.998932 0.605493
0.977737 0.998932 0.543587
1 0.998932 0.667002
1 0.998932 0.714336
0.0613565 0.133577 0.627054
0.0934157 0.130602 0.643839
0.17406 0.115343 0.674662
0.351034 0.0979782 0.710094
0.537972 0.0953078 0.700877
0.65539 0.109071 0.707347
0.655329 0.109117 0.707301
0.65481 0.109392 0.707027
0.65301 0.110033 0.704784
0.0426337 0.13576 0.615946
0.0600443 0.13373 0.626276
0.139269 0.123262 0.663508
0.33196 0.0986343 0.708186
0.530694 0.0954147 0.701854
0.655421 0.109071 0.707393
0.655268 0.109148 0.707286
0.652796 0.11014 0.704616
0.651331 0.110643 0.702815
0.0421759 0.143465 0.61767
0.0402838 0.137621 0.614328
0.0568704 0.134081 0.624414
0.276005 0.100023 0.698314
0.508156 0.0958114 0.704982
0.655451 0.109071 0.7075
0.655619 0.109071 0.707927
0.654871 0.109361 0.707088
0.654063 0.10959 0.705715
0.0797894 0.260227 0.680003
0.0751354 0.244923 0.672679
0.0624704 0.20415 0.652033
0.0719768 0.13312 0.632685
0.438254 0.0964218 0.711696
0.643549 0.106813 0.704601
0.655772 0.109087 0.708263
0.655756 0.109071 0.708278
0.655421 0.109087 0.707362
0.185458 0.595666 0.797375
0.183444 0.5906 0.795926
0.179278 0.577539 0.793484
0.167788 0.538521 0.786023
0.399619 0.490486 0.925826
0.77879 0.31249 0.899153
0.734066 0.21796 0.77499
0.708812 0.185992 0.750179
0.699077 0.172015 0.740078
0.312627 0.839063 0.887755
0.310414 0.837217 0.885817
0.306447 0.830884 0.883085
0.298329 0.817029 0.878141
0.28368 0.790478 0.870771
0.784497 0.803693 0.947829
0.982681 0.702724 0.969573
0.983307 0.671794 0.969757
0.98143 0.658579 0.967178
0.380774 0.929915 0.940093
0.379522 0.930922 0.93817
0.379492 0.93106 0.93724
0.378775 0.930434 0.934127
0.376226 0.92784 0.924727
0.614054 0.998932 0.973495
0.962783 0.971481 0.944732
0.996704 0.962234 0.953979
0.9944 0.957595 0.949004
0.395056 0.925689 0.93756
0.379507 0.93051 0.940047
0.379461 0.930831 0.939116
0.379492 0.931197 0.936217
0.379705 0.932586 0.925322
0.424857 0.953094 0.909133
0.938018 0.99704 0.927382
0.996704 0.98996 0.983993
0.997314 0.99025 0.989181
0.394171 0.926406 0.937667
0.379553 0.930404 0.941222
0.37937 0.930526 0.940108
0.379492 0.931044 0.937346
0.379675 0.93254 0.925719
0.392096 0.940963 0.895491
0.922332 0.998932 0.921157
0.992432 0.990448 0.963211
0.995041 0.991165 0.983841
0.0794385 0.131807 0.636652
0.114153 0.127962 0.653559
0.190539 0.110582 0.678447
0.359152 0.0976425 0.710643
0.543587 0.0951095 0.700008
0.655406 0.109071 0.707347
0.655421 0.109071 0.707393
0.655344 0.109102 0.707332
0.65536 0.109087 0.707286
0.0502022 0.134569 0.620645
0.0778363 0.131975 0.635813
0.159014 0.119173 0.67039
0.340673 0.0983597 0.709178
0.53576 0.0952926 0.701106
0.655406 0.109071 0.707378
0.655436 0.109071 0.707439
0.655161 0.109178 0.707118
0.65359 0.109773 0.705226
0.0408331 0.138811 0.615122
0.0406043 0.13817 0.61474
0.0729381 0.132525 0.633249
0.285649 0.099794 0.700404
0.512886 0.0958877 0.704524
0.65536 0.109071 0.707317
0.655543 0.109071 0.707713
0.655512 0.109071 0.707668
0.654459 0.109438 0.706127
0.0799268 0.251499 0.678843
0.0745556 0.23595 0.670604
0.0602426 0.194888 0.647776
0.0857252 0.131579 0.639826
0.441444 0.0963912 0.711528
0.644587 0.107057 0.704616
0.655619 0.109087 0.707881
0.655604 0.109087 0.707881
0.655406 0.109087 0.707317
0.189548 0.586511 0.807828
0.186328 0.579797 0.804807
0.179889 0.562905 0.79913
0.162127 0.513893 0.78265
0.370977 0.443839 0.911849
0.732509 0.269108 0.859358
0.696651 0.169726 0.742092
0.677424 0.136599 0.7243
0.670924 0.125719 0.718318
0.31902 0.846799 0.902037
0.317159 0.844663 0.900496
0.31342 0.838651 0.898024
0.305165 0.824521 0.892531
0.284108 0.78732 0.878004
0.74052 0.783017 0.967376
0.962997 0.653941 0.990982
0.964981 0.618006 0.993622
0.961379 0.604242 0.991333
0.37998 0.92961 0.943053
0.379065 0.92987 0.942061
0.378439 0.929122 0.941634
0.377157 0.927275 0.940841
0.372 0.920775 0.937423
0.506249 0.973709 0.999023
0.94995 0.958129 0.982269
0.990631 0.947051 0.989441
0.989593 0.9411 0.988495
0.380911 0.92929 0.944091
0.379461 0.930388 0.942321
0.379416 0.930434 0.942275
0.379416 0.930434 0.942275
0.379629 0.930282 0.942519
0.381018 0.930449 0.942077
0.928389 0.990723 0.989151
0.993774 0.990417 0.992569
0.999588 0.98854 0.996216
0.380728 0.929442 0.943847
0.379477 0.930388 0.942336
0.379416 0.930434 0.942275
0.379416 0.930434 0.942275
0.379599 0.930297 0.942473
0.380835 0.930571 0.940719
0.900267 0.99353 0.989181
0.992721 0.991241 0.99176
0.997909 0.990143 0.996765
0.0892805 0.130999 0.641764
0.122911 0.126558 0.657328
0.198672 0.107897 0.679866
0.3626 0.0975357 0.710872
0.545724 0.0949111 0.69958
0.655406 0.109071 0.707362
0.655421 0.109071 0.707393
0.655421 0.109071 0.707408
0.655344 0.109071 0.707179
0.0568551 0.133913 0.62446
0.087541 0.131136 0.640864
0.167697 0.117098 0.672984
0.344182 0.0982071 0.709484
0.538094 0.0952926 0.700832
0.655436 0.109071 0.707439
0.655421 0.109071 0.707424
0.655406 0.109071 0.707362
0.655238 0.109071 0.706905
0.0410925 0.139376 0.615503
0.0408942 0.137682 0.614786
0.082063 0.13164 0.63801
0.289784 0.0997482 0.701305
0.514839 0.0958572 0.70425
0.655314 0.109056 0.707301
0.655543 0.109071 0.707713
0.655512 0.109071 0.707668
0.655329 0.109071 0.707134
0.0783856 0.246738 0.676478
0.0729534 0.230976 0.668009
0.0585946 0.189593 0.644907
0.0920119 0.130861 0.643015
0.443046 0.0964065 0.711482
0.645075 0.107149 0.704707
0.655619 0.109087 0.707897
0.655619 0.109087 0.707881
0.655406 0.109087 0.707317
0.185183 0.575189 0.804013
0.182177 0.568429 0.801221
0.175113 0.550301 0.794797
0.157 0.499184 0.777646
0.360174 0.419455 0.902846
0.708797 0.246983 0.836179
0.681636 0.144213 0.727962
0.665644 0.117113 0.714473
0.658274 0.109728 0.708919
0.316869 0.843229 0.900862
0.314595 0.840482 0.898985
0.310857 0.834257 0.896422
0.301457 0.818112 0.889998
0.278645 0.777493 0.874159
0.730968 0.766461 0.967437
0.958709 0.635752 0.99086
0.961135 0.596948 0.991714
0.958633 0.58143 0.990662
0.379797 0.929747 0.94284
0.379065 0.92987 0.942061
0.378439 0.929137 0.941634
0.377081 0.927184 0.94078
0.371069 0.919844 0.936736
0.485191 0.965408 0.992645
0.941344 0.952804 0.98381
0.985199 0.938689 0.988815
0.984283 0.931151 0.988464
0.380072 0.929946 0.943053
0.379461 0.930388 0.942321
0.379416 0.930434 0.942275
0.379416 0.930434 0.942275
0.379416 0.930434 0.942275
0.379416 0.930434 0.942275
0.902464 0.989776 0.995529
0.992233 0.989242 0.993698
0.9953 0.988907 0.995026
0.37995 0.930037 0.942916
0.379477 0.930388 0.942336
0.379416 0.930434 0.942275
0.379416 0.930434 0.942275
0.379416 0.930434 0.942275
0.379416 0.930434 0.942275
0.826719 0.997024 1
0.993133 0.991821 0.993667
0.994873 0.991348 0.994614
