bundles/resolve-cinematic-luts/Phantom Luts/Canon Alexa LUT/C-Log 2/Jamaica Canon CL2-Legacy.cube
TITLE "Generated by Resolve"
LUT_3D_SIZE 5
0.0225986 0.0376593 0.0226139
0.146334 0.0380255 0.0322423
0.608164 0.0493172 0.132784
0.688472 0.0905623 0.257801
0.692058 0.0907912 0.27512
0.010132 0.160479 0.027924
0.105638 0.131731 0.0221561
0.578622 0.049485 0.0621195
0.661448 0.0883497 0.178256
0.672068 0.0902266 0.203037
0.173083 0.733043 0.221195
0.172519 0.725017 0.204273
0.648692 0.682261 0.135378
0.890929 0.584573 0.271626
0.870253 0.51664 0.249729
0.388174 0.956878 0.461173
0.368017 0.955032 0.403616
0.562371 0.988098 0.439948
1 0.997787 0.525811
1 0.998932 0.529198
0.406043 0.96527 0.523232
0.377081 0.955215 0.428946
0.50605 0.974029 0.424079
1 0.994659 0.521401
1 0.998932 0.530755
0.0211337 0.0394903 0.0999924
0.139452 0.0377661 0.131258
0.627985 0.046128 0.218585
0.699947 0.0893568 0.324056
0.70338 0.0903792 0.346227
0.0230106 0.126375 0.109255
0.0982223 0.116701 0.0915389
0.58703 0.0458381 0.113207
0.686122 0.0907454 0.24918
0.690471 0.0906233 0.26743
0.131823 0.723583 0.259968
0.145739 0.70988 0.200702
0.632212 0.667445 0.121889
0.874006 0.525979 0.254337
0.846845 0.45185 0.232914
0.384421 0.96286 0.532616
0.37145 0.957275 0.446052
0.521523 0.979721 0.440543
1 0.997238 0.524529
1 0.998932 0.529152
0.394568 0.970703 0.593851
0.375479 0.959854 0.495674
0.450675 0.964965 0.419577
1 0.993194 0.518791
1 0.998932 0.530526
0.0245975 0.0467384 0.465415
0.135149 0.041474 0.502327
0.580026 0.0508125 0.570657
0.686076 0.102983 0.584314
0.68278 0.104524 0.593027
0.0109255 0.0719158 0.417273
0.0246128 0.045594 0.444694
0.566003 0.0447242 0.549676
0.696117 0.0999313 0.548974
0.693156 0.100694 0.559304
0.0768292 0.62089 0.570672
0.0681621 0.611933 0.550408
0.56083 0.582147 0.487541
0.971115 0.415137 0.496727
0.939498 0.351446 0.482689
0.383078 0.9561 0.784848
0.375753 0.959823 0.756039
0.375479 0.95639 0.437705
1 0.993591 0.520287
1 0.998093 0.526513
0.389013 0.954284 0.801358
0.377371 0.957977 0.774304
0.372808 0.957534 0.463523
0.994125 0.985565 0.502342
1 0.998932 0.530541
0.0577707 0.112001 0.614908
0.141649 0.0999161 0.65214
0.512459 0.101274 0.709194
0.652155 0.119677 0.711086
0.650019 0.120546 0.708934
0.0424659 0.1187 0.609094
0.0544442 0.112398 0.613092
0.480552 0.0997787 0.711803
0.652384 0.119661 0.711604
0.650996 0.120134 0.709712
0.172564 0.554742 0.786374
0.167697 0.536278 0.783322
0.356725 0.443198 0.905379
0.712184 0.196078 0.756878
0.687785 0.162387 0.732647
0.39527 0.932296 0.94551
0.39382 0.933318 0.942565
0.391546 0.934569 0.929549
0.967987 0.978973 0.945525
0.99942 0.962417 0.949981
0.408911 0.927993 0.939666
0.394217 0.93312 0.944518
0.39234 0.935225 0.928084
0.915862 0.998932 0.912596
0.994934 0.991241 0.987976
0.0767681 0.110399 0.625147
0.163333 0.0960861 0.659052
0.520821 0.101534 0.708156
0.652232 0.119646 0.711162
0.652216 0.119646 0.711101
0.0413214 0.115267 0.607095
0.0720989 0.110918 0.622675
0.487556 0.100175 0.711421
0.652308 0.119661 0.711376
0.652186 0.119646 0.710994
0.177142 0.533684 0.796429
0.167544 0.507622 0.787076
0.316991 0.370306 0.871748
0.677058 0.145586 0.728923
0.657053 0.122652 0.714443
0.392355 0.932296 0.94493
0.391882 0.932662 0.94432
0.387594 0.927321 0.941741
0.941802 0.956268 0.987884
0.991165 0.928954 0.994629
0.39263 0.932097 0.945281
0.391882 0.932662 0.94432
0.391882 0.932662 0.94432
0.8094 0.998932 1
0.995865 0.990936 0.995407
