bundles/resolve-cinematic-luts/Phantom Luts/Canon Alexa LUT/C-Log 2/Jamaica Canon CL2.cube
TITLE "Generated by Resolve"
LUT_3D_SIZE 5
0.00434882 0.0275578 0.00444038
0.182528 0.028336 0.0215763
0.620569 0.0438697 0.164294
0.690974 0.0810712 0.293584
0.692576 0.0812848 0.31104
0 0.20412 0.0138094
0.131014 0.167163 0.00300603
0.585336 0.0440528 0.0712902
0.668635 0.0796521 0.206714
0.678614 0.0810101 0.235889
0.202655 0.76408 0.25716
0.203845 0.756039 0.23566
0.690471 0.719921 0.171923
0.896071 0.623438 0.280491
0.880018 0.558648 0.258427
0.375662 0.95462 0.465507
0.352178 0.95288 0.38735
0.587762 0.988464 0.432197
1 0.998932 0.529747
1 0.998932 0.536645
0.394644 0.963027 0.53959
0.364111 0.952605 0.423392
0.52781 0.974853 0.418601
1 0.996033 0.521187
1 0.998932 0.537758
0.00207523 0.0302281 0.122011
0.173068 0.0279698 0.16553
0.639857 0.0415961 0.262119
0.698207 0.0815137 0.360586
0.699092 0.0821546 0.381994
0.00492866 0.159747 0.136538
0.119234 0.147051 0.111192
0.605051 0.0391241 0.140978
0.68896 0.0811475 0.284535
0.692027 0.0811322 0.303487
0.158282 0.757626 0.316091
0.17702 0.741894 0.239124
0.675151 0.706203 0.156985
0.883314 0.5673 0.263188
0.860685 0.495415 0.241535
0.372381 0.960647 0.552773
0.358282 0.955261 0.449607
0.543175 0.98114 0.434424
1 0.998932 0.527596
1 0.998932 0.536568
0.384283 0.96672 0.617517
0.363439 0.958007 0.512535
0.461601 0.964767 0.413123
1 0.994492 0.517876
1 0.998932 0.537575
0.0159762 0.0420386 0.500374
0.166354 0.0341192 0.541863
0.580591 0.0517739 0.576638
0.675715 0.0969253 0.605341
0.672267 0.0988327 0.612894
0 0.0809796 0.461662
0.0166629 0.0403143 0.48307
0.571527 0.0437324 0.561975
0.684443 0.0929885 0.572519
0.681483 0.0936751 0.582025
0.0995804 0.657862 0.613062
0.0886397 0.649607 0.594156
0.603845 0.626657 0.533791
0.991974 0.458869 0.544991
0.971191 0.39353 0.535378
0.377523 0.94931 0.801083
0.368734 0.953933 0.774166
0.364111 0.953872 0.437232
1 0.994965 0.519524
1 0.998932 0.531411
0.385199 0.946578 0.816922
0.370291 0.95201 0.791241
0.36022 0.955535 0.467842
0.991135 0.985901 0.500832
1 0.998932 0.537697
0.0613565 0.133577 0.627054
0.17406 0.115343 0.674662
0.537972 0.0953078 0.700877
0.655329 0.109117 0.707301
0.65301 0.110033 0.704784
0.0421759 0.143465 0.61767
0.0568704 0.134081 0.624414
0.508156 0.0958114 0.704982
0.655619 0.109071 0.707927
0.654063 0.10959 0.705715
0.185458 0.595666 0.797375
0.179278 0.577539 0.793484
0.399619 0.490486 0.925826
0.734066 0.21796 0.77499
0.699077 0.172015 0.740078
0.380774 0.929915 0.940093
0.379492 0.93106 0.93724
0.376226 0.92784 0.924727
0.962783 0.971481 0.944732
0.9944 0.957595 0.949004
0.394171 0.926406 0.937667
0.37937 0.930526 0.940108
0.379675 0.93254 0.925719
0.922332 0.998932 0.921157
0.995041 0.991165 0.983841
0.0892805 0.130999 0.641764
0.198672 0.107897 0.679866
0.545724 0.0949111 0.69958
0.655421 0.109071 0.707393
0.655344 0.109071 0.707179
0.0410925 0.139376 0.615503
0.082063 0.13164 0.63801
0.514839 0.0958572 0.70425
0.655543 0.109071 0.707713
0.655329 0.109071 0.707134
0.185183 0.575189 0.804013
0.175113 0.550301 0.794797
0.360174 0.419455 0.902846
0.681636 0.144213 0.727962
0.658274 0.109728 0.708919
0.379797 0.929747 0.94284
0.378439 0.929137 0.941634
0.371069 0.919844 0.936736
0.941344 0.952804 0.98381
0.984283 0.931151 0.988464
0.37995 0.930037 0.942916
0.379416 0.930434 0.942275
0.379416 0.930434 0.942275
0.826719 0.997024 1
0.994873 0.991348 0.994614
