bundles/resolve-cinematic-luts/Phantom Luts/Canon Alexa LUT/C-Log 2/Jamaica Canon CL2.cube
TITLE "Generated by Resolve"
LUT_3D_SIZE 33
0.00434882 0.0275578 0.00444038
0.00663767 0.0274052 0.00445563
0.0127871 0.0275578 0.00534066
0.024918 0.0277714 0.007187
0.0435187 0.0280308 0.00921645
0.0704051 0.0282444 0.0115816
0.102602 0.0284123 0.0142367
0.139025 0.0285649 0.0179141
0.182528 0.028336 0.0215763
0.233143 0.0280461 0.0273747
0.291829 0.0278019 0.0359808
0.355856 0.027451 0.0480201
0.421271 0.0272526 0.064622
0.485496 0.0276188 0.0838788
0.543175 0.0296483 0.106783
0.589624 0.0345922 0.133822
0.620569 0.0438697 0.164294
0.642786 0.0580301 0.196872
0.665919 0.0726635 0.230015
0.683528 0.080705 0.257343
0.68571 0.0808576 0.266361
0.687373 0.0809491 0.274113
0.688838 0.0809949 0.281682
0.690028 0.0810407 0.288121
0.690974 0.0810712 0.293584
0.691752 0.0811017 0.298238
0.692287 0.081117 0.301717
0.692683 0.0810864 0.304646
0.693004 0.0811017 0.306996
0.693202 0.0810864 0.30869
0.693339 0.0810864 0.310124
0.693355 0.0810712 0.311009
0.692576 0.0812848 0.31104
0.00433356 0.0291142 0.00492866
0.00535592 0.028336 0.00428779
0.00888075 0.0282139 0.0047303
0.0178988 0.0284428 0.00588998
0.0339971 0.028336 0.0071107
0.0602884 0.0284886 0.00924697
0.0921645 0.0285039 0.0112764
0.129183 0.0287633 0.0140841
0.173129 0.0286717 0.0172274
0.224247 0.0283207 0.0215305
0.283986 0.0280461 0.0287938
0.349172 0.0274968 0.038819
0.415763 0.0273289 0.0546273
0.481315 0.0277714 0.0753338
0.539193 0.0296941 0.098436
0.586404 0.0345769 0.125795
0.618051 0.0437171 0.157015
0.640711 0.0577859 0.190494
0.664393 0.0726329 0.22446
0.682857 0.0808728 0.253437
0.684749 0.0808118 0.261982
0.686503 0.0809033 0.269978
0.687999 0.0809491 0.277363
0.68925 0.0810254 0.283818
0.690257 0.0810559 0.289342
0.691081 0.0810864 0.294087
0.691722 0.0811017 0.297948
0.692149 0.081117 0.300771
0.692454 0.0811017 0.303151
0.692653 0.0810864 0.304906
0.692805 0.0810864 0.306233
0.692805 0.0810712 0.307012
0.692729 0.0810712 0.307301
0.00421149 0.0335699 0.00613413
0.00572213 0.0327764 0.00460822
0.0099794 0.031693 0.0052491
0.016556 0.0316167 0.00608835
0.0309758 0.0305791 0.00627146
0.0547494 0.0295262 0.00807202
0.0845197 0.0290379 0.00978103
0.121706 0.028748 0.0119478
0.164935 0.0286564 0.0141146
0.215045 0.0288701 0.0182803
0.273671 0.0284581 0.0233921
0.339879 0.0279088 0.0319524
0.407996 0.0275578 0.0458534
0.475563 0.0278019 0.0655528
0.534554 0.0296788 0.0895705
0.582437 0.0344244 0.117433
0.615427 0.0436255 0.149493
0.638453 0.057496 0.183886
0.662257 0.072221 0.218448
0.681712 0.0808423 0.248646
0.683757 0.0808118 0.257496
0.685557 0.0808576 0.265553
0.687099 0.0809491 0.272694
0.688441 0.0809796 0.27953
0.689525 0.0810254 0.285374
0.690349 0.0810559 0.289891
0.69102 0.0810864 0.293843
0.691554 0.0811017 0.297002
0.691936 0.0811017 0.299489
0.692134 0.0811017 0.301045
0.692256 0.0810864 0.30248
0.692256 0.0810712 0.303349
0.692195 0.0810559 0.303685
0.00384527 0.0414282 0.00773632
0.00428779 0.0404669 0.00442512
0.00830091 0.038529 0.0049897
0.0164187 0.0372778 0.00619516
0.0293126 0.0378882 0.00781262
0.0519722 0.0350652 0.00798047
0.084535 0.0321508 0.00726329
0.121065 0.0301213 0.00939956
0.15816 0.0294499 0.0121309
0.207248 0.0287938 0.014435
0.265095 0.0283207 0.0179141
0.329992 0.0288701 0.0267643
0.39736 0.0279088 0.0363012
0.4645 0.0279088 0.0543984
0.527123 0.0296788 0.078645
0.577356 0.0342565 0.10692
0.611673 0.0432898 0.13991
0.635233 0.0569162 0.175036
0.659403 0.071809 0.210407
0.680232 0.080766 0.242802
0.682567 0.0809033 0.252018
0.684337 0.0807813 0.260273
0.685985 0.0808881 0.267491
0.687327 0.0809491 0.273884
0.688487 0.0809796 0.279805
0.689418 0.0810254 0.284672
0.69012 0.0810407 0.288701
0.690669 0.0810712 0.291814
0.691066 0.0810864 0.294224
0.691371 0.0811017 0.296254
0.691554 0.0811017 0.297795
0.6916 0.0810864 0.298756
0.691539 0.0810864 0.299168
0.0024567 0.055848 0.00927749
0.00224308 0.0548409 0.00482185
0.00607309 0.0522469 0.00457771
0.0120699 0.049485 0.00505074
0.027039 0.0476387 0.0071107
0.0496223 0.0485084 0.00872816
0.0789807 0.0450446 0.00981155
0.116899 0.0378424 0.00898756
0.159442 0.0330663 0.0065156
0.209384 0.0303349 0.00993362
0.259083 0.0290074 0.0141451
0.322484 0.0284428 0.0203098
0.387991 0.0279393 0.026978
0.453437 0.0298772 0.0446784
0.515282 0.0294652 0.0653697
0.568811 0.0336767 0.0941329
0.605753 0.0423743 0.126909
0.630625 0.0560616 0.16289
0.655482 0.0711528 0.199878
0.677897 0.0805829 0.234577
0.680735 0.080827 0.244556
0.682795 0.0808881 0.253117
0.684428 0.0807965 0.260609
0.685878 0.0808881 0.266987
0.687068 0.0809339 0.272602
0.688075 0.0809644 0.277638
0.688884 0.0809949 0.281865
0.689479 0.0810254 0.285115
0.689937 0.0810407 0.287739
0.690242 0.0810559 0.289662
0.690455 0.0810559 0.291203
0.690486 0.0810559 0.292058
0.690425 0.0810712 0.292409
0.000198367 0.0807355 0.0108339
0 0.0794537 0.00517281
0.0012665 0.0772412 0.00231937
0.00770581 0.0728161 0.00410468
0.0175174 0.0698405 0.00474556
0.0440528 0.0659953 0.00766003
0.0775921 0.0665293 0.0087129
0.114656 0.0622721 0.0111696
0.157549 0.049485 0.0113527
0.206867 0.0386053 0.00704967
0.266117 0.0315251 0.0047303
0.326574 0.0297856 0.0141756
0.383246 0.0285496 0.0226444
0.448234 0.0285344 0.033463
0.506981 0.0303044 0.0522469
0.557076 0.0327916 0.0779583
0.597528 0.041001 0.110887
0.623987 0.0540322 0.147677
0.649226 0.0695506 0.185672
0.674556 0.080415 0.22327
0.677852 0.0807507 0.233631
0.680308 0.0808576 0.242802
0.682246 0.0809186 0.250813
0.683757 0.0808118 0.257755
0.685054 0.080827 0.263676
0.686122 0.0808881 0.268467
0.686961 0.0809339 0.272435
0.687648 0.0809491 0.275929
0.688182 0.0809796 0.278508
0.688594 0.0809949 0.280888
0.688869 0.0809949 0.282597
0.68896 0.0810101 0.283558
0.688914 0.0810254 0.284062
0 0.115221 0.0119936
0 0.113924 0.00636301
0 0.11194 0.00114443
0.00103761 0.107958 0.00117494
0.0102541 0.103258 0.00239567
0.0259861 0.099794 0.00326543
0.0687266 0.0936751 0.00772107
0.110521 0.0928359 0.00770581
0.155093 0.0892042 0.0109712
0.205554 0.0692302 0.0115053
0.266529 0.0463111 0.00840772
0.328161 0.0354162 0.00321965
0.397101 0.030518 0.0103761
0.45182 0.029984 0.0261387
0.502846 0.029984 0.042237
0.551095 0.0333867 0.0659037
0.586374 0.0391241 0.0914931
0.615183 0.0515145 0.12842
0.640848 0.067277 0.167971
0.66688 0.0792248 0.204089
0.672587 0.0802319 0.217838
0.676402 0.0807813 0.228733
0.678889 0.0809033 0.237507
0.680781 0.0809644 0.244923
0.682307 0.0810254 0.251041
0.683421 0.0809339 0.256245
0.684352 0.0808881 0.260594
0.685145 0.0809186 0.264073
0.685786 0.0809491 0.266911
0.686275 0.0809491 0.269078
0.68661 0.0809491 0.270802
0.686809 0.0809644 0.272129
0.686885 0.0809644 0.272816
0 0.155123 0.0126955
0 0.153674 0.00691234
0 0.152209 0.00158694
0 0.149432 0.00106813
0.000640879 0.144747 0.000518807
0.0153811 0.140826 0
0.0377508 0.137209 0.00047303
0.0973068 0.127245 0.00608835
0.148028 0.124712 0.00604257
0.201617 0.124376 0.00856031
0.263233 0.0976272 0.0114595
0.336095 0.0558938 0.00881972
0.398428 0.0422522 0.00378424
0.462074 0.0327001 0.00563058
0.515526 0.0327153 0.0288701
0.551324 0.0340581 0.0557107
0.583856 0.0395972 0.0848096
0.606271 0.0485084 0.111223
0.629664 0.0640116 0.144778
0.657191 0.0772259 0.182483
0.662989 0.0786603 0.194049
0.668162 0.0795453 0.206332
0.672877 0.0803845 0.218051
0.675944 0.080827 0.226978
0.677958 0.0809491 0.23389
0.6795 0.0810254 0.239658
0.680659 0.0810559 0.244282
0.68159 0.0810712 0.247898
0.682353 0.0810864 0.250904
0.682933 0.0810101 0.253437
0.68333 0.0809644 0.255207
0.683513 0.0809644 0.256275
0.683604 0.0809491 0.257099
0 0.20412 0.0138094
0 0.202777 0.00772107
0 0.200885 0.00239567
0 0.198993 0.00213626
0 0.195071 0.00187686
0.000488289 0.19028 0.00131228
0.021088 0.186511 0
0.0542916 0.18117 0
0.131014 0.167163 0.00300603
0.192142 0.16289 0.00582895
0.254429 0.167376 0.00675975
0.334676 0.12871 0.0112459
0.406577 0.0780804 0.0104219
0.469795 0.051194 0.00695811
0.517021 0.0402075 0.00798047
0.558343 0.0391241 0.0342107
0.585336 0.0440528 0.0712902
0.604273 0.0491646 0.104967
0.622354 0.0602274 0.132753
0.647227 0.0746777 0.16347
0.651453 0.0763104 0.169497
0.656245 0.0771954 0.179538
0.661082 0.0782483 0.189609
0.665202 0.079118 0.19852
0.668635 0.0796521 0.206714
0.672053 0.0802777 0.21503
0.674525 0.0807202 0.2215
0.675837 0.0808423 0.225589
0.676829 0.0809033 0.228794
0.677623 0.0809491 0.231632
0.678157 0.0809796 0.233677
0.678462 0.0810101 0.23505
0.678614 0.0810101 0.235889
0 0.261921 0.0158083
0 0.260945 0.00920119
0 0.25951 0.00450141
0 0.257343 0.00418097
0 0.254215 0.00422675
0 0.249378 0.00369268
0.00125124 0.244495 0.00259403
0.0282902 0.24184 0.000839246
0.0758373 0.234287 0
0.171496 0.215015 0.00315862
0.245319 0.209247 0.00721752
0.319387 0.213809 0.00851453
0.407538 0.168948 0.0116732
0.477577 0.114427 0.0146181
0.532753 0.0672923 0.0154726
0.561578 0.0547341 0.0209659
0.572763 0.0488746 0.0374304
0.602564 0.0595712 0.0876326
0.622873 0.0663615 0.123049
0.640009 0.0717021 0.153338
0.650355 0.0764935 0.165713
0.650507 0.0764324 0.166384
0.649927 0.0761883 0.165606
0.651057 0.0763561 0.168215
0.654093 0.0768139 0.174823
0.657267 0.0774853 0.181399
0.660075 0.0780957 0.187198
0.662333 0.0785687 0.192065
0.664027 0.0789044 0.195758
0.665354 0.0791638 0.198856
0.666331 0.0793927 0.201053
0.667002 0.0795911 0.202548
0.66743 0.0796521 0.203754
0 0.331044 0.020676
0 0.330816 0.0145266
0 0.329503 0.00840772
0 0.327352 0.00848402
0 0.324849 0.00819409
0 0.320882 0.0081178
0 0.315511 0.00756847
0.00663767 0.310063 0.00578317
0.0408789 0.308553 0.00289921
0.104158 0.296162 0
0.221317 0.271672 0.0043946
0.31162 0.265446 0.0089723
0.391867 0.271473 0.011902
0.480629 0.226551 0.0145266
0.546761 0.163989 0.0241703
0.584787 0.0984054 0.0319677
0.594659 0.0791638 0.043061
0.592798 0.0706035 0.0532998
0.621057 0.0741131 0.0961318
0.649775 0.0817578 0.140429
0.657771 0.0828717 0.166598
0.650156 0.0771038 0.162966
0.650187 0.0767834 0.164202
0.650263 0.0766918 0.164706
0.650446 0.0766613 0.165331
0.65066 0.0766461 0.165972
0.650874 0.0766461 0.166552
0.651087 0.0766613 0.167117
0.65124 0.0766461 0.167605
0.651041 0.076585 0.16733
0.650721 0.0765087 0.166827
0.650629 0.0764935 0.166751
0.650828 0.0765698 0.167254
0 0.407843 0.0306706
0 0.407431 0.0248875
0 0.406806 0.0184634
0 0.405554 0.0162661
0 0.40383 0.016907
0 0.402518 0.0167849
0 0.397116 0.0162203
0 0.391562 0.0149844
0.0185702 0.385794 0.0119783
0.0635386 0.385046 0.00749218
0.143801 0.366766 0.000915541
0.285023 0.338964 0.00634775
0.38938 0.335515 0.0132753
0.469383 0.341863 0.0190433
0.551583 0.302846 0.0260014
0.614221 0.228641 0.0433967
0.633753 0.155367 0.0583658
0.629221 0.122225 0.072694
0.625208 0.102144 0.0785077
0.637034 0.082536 0.0881666
0.667018 0.0899519 0.140505
0.666575 0.0886854 0.14876
0.663981 0.0868696 0.152575
0.661967 0.0852064 0.158556
0.660853 0.084947 0.166186
0.65539 0.0815442 0.165713
0.649592 0.0771496 0.161486
0.650004 0.0770428 0.162997
0.649973 0.0770123 0.163058
0.649958 0.076997 0.163073
0.649958 0.0769818 0.163119
0.649912 0.0769818 0.163073
0.649851 0.0769665 0.163058
0.00613413 0.486961 0.0482795
0.00569162 0.486717 0.0430915
0.00549325 0.486091 0.0379492
0.00553903 0.485527 0.0329747
0.00549325 0.484932 0.0328374
0.00534066 0.483589 0.0325017
0.005066 0.481468 0.0320439
0.00384527 0.47451 0.0304417
0.0100252 0.46949 0.0281071
0.0423133 0.465171 0.022385
0.0978866 0.465354 0.0157626
0.199908 0.438941 0.00553903
0.360616 0.412039 0.0120546
0.472282 0.410864 0.0224918
0.544396 0.416358 0.033463
0.62089 0.394934 0.0491951
0.678584 0.315755 0.0746471
0.69099 0.244266 0.0962234
0.670939 0.176181 0.106096
0.667887 0.148577 0.108797
0.66389 0.111177 0.102968
0.658289 0.0965896 0.0975204
0.65832 0.0909285 0.10251
0.66212 0.0912337 0.117601
0.66479 0.0914015 0.129274
0.665537 0.0907607 0.13608
0.665324 0.089601 0.140322
0.665629 0.0890364 0.144137
0.665675 0.0886854 0.14696
0.665553 0.0883345 0.149126
0.665187 0.0879835 0.150362
0.664668 0.0876173 0.151293
0.664225 0.0873426 0.151858
0.0299077 0.561791 0.0784466
0.0299687 0.561257 0.0737163
0.0298619 0.56054 0.0693675
0.0305486 0.560235 0.0644694
0.0308995 0.559258 0.06009
0.030396 0.558633 0.0605936
0.0299687 0.55758 0.0601816
0.0286717 0.554223 0.0586557
0.0263218 0.548745 0.0560616
0.0387884 0.546212 0.0510414
0.0844434 0.547234 0.0412146
0.149508 0.546838 0.0310216
0.271687 0.512596 0.0148165
0.440711 0.489693 0.0238651
0.553185 0.489601 0.0424048
0.617594 0.494972 0.0605783
0.688365 0.49659 0.0899825
0.740139 0.419959 0.11928
0.753262 0.345586 0.145022
0.728634 0.258366 0.147402
0.711543 0.202838 0.140322
0.702678 0.180316 0.133135
0.69456 0.166629 0.12665
0.686702 0.153643 0.120531
0.679637 0.141756 0.115023
0.67393 0.131579 0.110491
0.669551 0.123583 0.10692
0.667704 0.116976 0.107271
0.665812 0.112306 0.105791
0.664408 0.108507 0.10454
0.663386 0.105379 0.10367
0.662455 0.102876 0.102815
0.661891 0.101427 0.102632
0.0719463 0.631113 0.125383
0.0726177 0.630213 0.12137
0.0735485 0.629694 0.117952
0.0740978 0.628489 0.113848
0.0753948 0.627161 0.108583
0.0754711 0.626429 0.106859
0.0747845 0.625727 0.106416
0.0743572 0.625071 0.105821
0.070985 0.620737 0.10222
0.0695964 0.617304 0.0986496
0.0872816 0.617517 0.0883955
0.144976 0.62652 0.0737011
0.220096 0.625071 0.0564126
0.361852 0.586603 0.0344091
0.525887 0.567742 0.0506752
0.632258 0.568902 0.0814527
0.688548 0.573632 0.10721
0.752834 0.58349 0.148669
0.798581 0.530877 0.17705
0.816449 0.454627 0.198474
0.802533 0.383001 0.198245
0.76936 0.301808 0.181033
0.75172 0.268391 0.169314
0.742123 0.250706 0.162783
0.735866 0.239445 0.158373
0.730724 0.230091 0.154681
0.725948 0.221439 0.151156
0.72221 0.214374 0.148257
0.718868 0.208072 0.145418
0.716793 0.203403 0.143175
0.715114 0.199451 0.141253
0.713924 0.196536 0.139727
0.712581 0.193835 0.138491
0.133028 0.696971 0.188128
0.134371 0.696361 0.18529
0.13492 0.695186 0.182025
0.135698 0.693782 0.178271
0.136812 0.6925 0.174289
0.137942 0.691188 0.170291
0.137682 0.690776 0.169635
0.136934 0.690059 0.168811
0.135302 0.688441 0.166995
0.129519 0.68278 0.160891
0.133822 0.683528 0.15668
0.161486 0.689174 0.139635
0.22739 0.704479 0.12285
0.308629 0.699672 0.0965896
0.457542 0.657221 0.0700542
0.608606 0.644251 0.0991073
0.706996 0.647288 0.143053
0.757733 0.652445 0.175189
0.812772 0.662074 0.218189
0.851026 0.644526 0.244434
0.86688 0.573831 0.247105
0.861799 0.49778 0.243748
0.853223 0.474586 0.237446
0.845853 0.45742 0.231907
0.838376 0.440925 0.226551
0.831403 0.426184 0.221607
0.825025 0.413184 0.217105
0.819638 0.401801 0.213489
0.814878 0.391806 0.210239
0.811307 0.384619 0.207553
0.808011 0.377493 0.205097
0.805264 0.37171 0.202777
0.802945 0.366903 0.200931
0.202655 0.76408 0.25716
0.203403 0.763409 0.254185
0.203677 0.762463 0.251179
0.203983 0.761196 0.24741
0.204578 0.760021 0.243473
0.206012 0.758923 0.238605
0.2056 0.758129 0.237522
0.204959 0.757305 0.236851
0.203845 0.756039 0.23566
0.200534 0.752468 0.232227
0.196124 0.747631 0.227543
0.210132 0.752636 0.22298
0.256321 0.765438 0.204257
0.329122 0.781277 0.18819
0.414282 0.769589 0.154116
0.558587 0.725826 0.130022
0.690471 0.719921 0.171923
0.779629 0.72578 0.222629
0.82623 0.732235 0.256199
0.864042 0.737926 0.286152
0.897139 0.744198 0.313619
0.903304 0.694896 0.301625
0.901854 0.6551 0.291173
0.899062 0.638804 0.285664
0.896071 0.623438 0.280491
0.8934 0.610208 0.276249
0.890715 0.598398 0.272404
0.888228 0.588251 0.269123
0.886427 0.580804 0.266835
0.884703 0.5738 0.264546
0.883284 0.568063 0.262654
0.881514 0.562829 0.260319
0.880018 0.558648 0.258427
0.266575 0.833494 0.318761
0.266514 0.833036 0.315496
0.266163 0.83241 0.312154
0.265949 0.831678 0.308614
0.266087 0.831037 0.304372
0.266224 0.830167 0.30042
0.265949 0.82919 0.298329
0.265949 0.828367 0.298543
0.266011 0.827329 0.298604
0.265461 0.825956 0.297993
0.261723 0.820325 0.293858
0.263966 0.818647 0.293431
0.295201 0.826429 0.29131
0.3635 0.84445 0.278187
0.44358 0.859312 0.266484
0.524895 0.835004 0.224598
0.659083 0.794965 0.211276
0.769772 0.79588 0.258228
0.848859 0.803967 0.308782
0.888151 0.811337 0.339818
0.910613 0.813886 0.357458
0.929091 0.816236 0.371664
0.937819 0.81326 0.375814
0.935973 0.806867 0.370855
0.934005 0.800366 0.366003
0.930892 0.788876 0.357977
0.928512 0.779339 0.351675
0.92639 0.770794 0.346136
0.924559 0.763165 0.341238
0.923278 0.757122 0.337072
0.922164 0.751995 0.333074
0.921523 0.747723 0.329168
0.921248 0.745052 0.326665
0.314168 0.89366 0.36257
0.313817 0.893324 0.358984
0.313237 0.893019 0.355871
0.312932 0.893019 0.352743
0.312657 0.892653 0.349142
0.3122 0.892103 0.346639
0.311681 0.891478 0.345602
0.311467 0.890791 0.345632
0.312886 0.890349 0.346777
0.314153 0.889281 0.348013
0.313924 0.886625 0.347524
0.311269 0.879942 0.344366
0.32842 0.882155 0.350103
0.384085 0.893278 0.351843
0.472786 0.915297 0.348226
0.555367 0.92079 0.335332
0.633585 0.88835 0.294774
0.752773 0.856504 0.296971
0.843885 0.862593 0.345693
0.905257 0.871412 0.386847
0.937026 0.878141 0.410803
0.948043 0.87953 0.418845
0.955749 0.877516 0.422827
0.956725 0.873259 0.421027
0.955123 0.868986 0.417624
0.954009 0.865415 0.414969
0.952972 0.862303 0.412573
0.951873 0.858885 0.409903
0.950973 0.856138 0.407538
0.950545 0.854093 0.40528
0.950164 0.852171 0.402502
0.950286 0.85098 0.399023
0.950378 0.849561 0.395377
0.34934 0.935775 0.39501
0.345586 0.936278 0.38854
0.343008 0.936446 0.383627
0.341985 0.936431 0.379507
0.341512 0.936339 0.377447
0.341146 0.936248 0.37615
0.340948 0.936095 0.376028
0.340978 0.936126 0.376043
0.341695 0.935668 0.376959
0.344076 0.934752 0.379248
0.346883 0.932891 0.381598
0.34876 0.92903 0.383047
0.354803 0.925399 0.387304
0.404608 0.933074 0.401312
0.490013 0.950393 0.404608
0.58117 0.965942 0.398825
0.652995 0.956664 0.378195
0.730312 0.92491 0.353552
0.835737 0.905699 0.372992
0.904204 0.915145 0.413291
0.946731 0.92163 0.440909
0.968566 0.927611 0.457145
0.975998 0.92874 0.462348
0.978531 0.926604 0.462837
0.97734 0.923888 0.460716
0.976013 0.92134 0.458579
0.975143 0.919081 0.456855
0.97409 0.916716 0.454994
0.973083 0.914763 0.453346
0.972427 0.913268 0.451881
0.972045 0.9122 0.450446
0.971939 0.911238 0.447654
0.972137 0.910491 0.443351
0.370779 0.950896 0.413794
0.360082 0.951965 0.401297
0.353216 0.952834 0.392706
0.352224 0.952972 0.388327
0.35201 0.953109 0.387488
0.351858 0.953201 0.387335
0.351781 0.953262 0.387335
0.351781 0.953262 0.387335
0.351781 0.953262 0.387335
0.353124 0.95314 0.388861
0.356725 0.952773 0.392233
0.363073 0.952071 0.398077
0.370291 0.949401 0.404761
0.407172 0.952667 0.420523
0.486748 0.967758 0.434791
0.583047 0.986404 0.43032
0.662028 0.988022 0.416983
0.727672 0.970321 0.39884
0.81001 0.950393 0.399039
0.899001 0.943053 0.428702
0.94786 0.951415 0.45893
0.975418 0.956832 0.477256
0.989715 0.959594 0.487068
0.993439 0.960327 0.489586
0.992935 0.959091 0.488579
0.992264 0.957763 0.487449
0.991638 0.956634 0.486473
0.99118 0.955535 0.485649
0.990875 0.954711 0.485069
0.990646 0.953826 0.484627
0.990478 0.952773 0.484092
0.990402 0.951934 0.482872
0.990662 0.951492 0.479179
0.378027 0.950301 0.421454
0.363531 0.951293 0.40473
0.353948 0.952422 0.393362
0.353033 0.952575 0.389715
0.352331 0.952728 0.386862
0.352071 0.952773 0.386069
0.352178 0.95288 0.38735
0.352178 0.95288 0.38735
0.352178 0.95288 0.38735
0.352178 0.95288 0.38735
0.353902 0.952682 0.388937
0.357275 0.952331 0.392096
0.363729 0.951644 0.398062
0.389303 0.952865 0.410971
0.465293 0.964889 0.430274
0.565789 0.98555 0.434455
0.654231 0.991714 0.422858
0.723766 0.983078 0.412009
0.796307 0.970687 0.412695
0.882383 0.96611 0.437476
0.948898 0.968475 0.469459
0.979232 0.975631 0.489632
0.999222 0.979553 0.502724
1 0.981155 0.508736
1 0.98114 0.509209
1 0.980224 0.508339
1 0.979324 0.5075
1 0.978836 0.506935
1 0.978241 0.506172
1 0.977722 0.505638
1 0.977157 0.505409
1 0.976577 0.505531
1 0.976135 0.504616
0.378256 0.95137 0.435035
0.364294 0.951782 0.417212
0.355474 0.952819 0.405554
0.354498 0.952972 0.40116
0.353491 0.953033 0.396155
0.352651 0.952941 0.39057
0.351904 0.952804 0.385336
0.352178 0.95288 0.38735
0.352178 0.95288 0.38735
0.352178 0.95288 0.38735
0.352178 0.95288 0.38735
0.353948 0.952682 0.388983
0.358465 0.952209 0.393179
0.377417 0.951934 0.405478
0.445167 0.961059 0.426123
0.54461 0.981628 0.435035
0.629023 0.992035 0.427207
0.696559 0.987732 0.415747
0.766094 0.975769 0.410559
0.85716 0.967666 0.429358
0.944732 0.972351 0.470405
0.984039 0.982559 0.496223
1 0.989654 0.509056
1 0.994156 0.518791
1 0.996338 0.524071
1 0.996139 0.524407
1 0.995636 0.523888
1 0.995224 0.523308
1 0.994965 0.522774
1 0.994827 0.522225
1 0.994629 0.521798
1 0.9944 0.521538
1 0.99411 0.52163
0.377523 0.952712 0.45034
0.364874 0.952789 0.433448
0.356832 0.953231 0.420768
0.355978 0.953262 0.414633
0.354986 0.953445 0.407843
0.353948 0.953292 0.400809
0.35285 0.953063 0.39263
0.352071 0.95285 0.386496
0.352178 0.95288 0.38735
0.352178 0.95288 0.38735
0.352178 0.95288 0.38735
0.352239 0.95288 0.387396
0.35494 0.95259 0.38999
0.364767 0.951705 0.398352
0.421118 0.957046 0.420081
0.517693 0.976089 0.434531
0.606378 0.990631 0.430289
0.682658 0.989181 0.417792
0.755276 0.977569 0.410437
0.841566 0.96817 0.424094
0.929046 0.971389 0.461784
0.980301 0.982849 0.493797
1 0.991012 0.509865
1 0.997177 0.521904
1 0.998932 0.532357
1 0.998932 0.537331
1 0.998932 0.538003
1 0.998932 0.537957
1 0.998932 0.537865
1 0.998932 0.537652
1 0.998932 0.537392
1 0.998932 0.536965
1 0.998932 0.536538
0.375662 0.95462 0.465507
0.365087 0.954406 0.450477
0.357885 0.95436 0.438163
0.357244 0.954055 0.430747
0.356313 0.953735 0.421561
0.3552 0.953552 0.411688
0.35407 0.953399 0.402258
0.352819 0.953063 0.392386
0.352178 0.95288 0.38735
0.352178 0.95288 0.38735
0.352178 0.95288 0.38735
0.352178 0.95288 0.38735
0.353414 0.952743 0.388495
0.360327 0.952026 0.395041
0.401511 0.954604 0.413397
0.492912 0.970794 0.433082
0.587762 0.988464 0.432197
0.666636 0.990631 0.420478
0.738689 0.980133 0.410727
0.820844 0.969589 0.418692
0.909728 0.969482 0.451743
0.971283 0.980163 0.487495
0.998581 0.989502 0.506783
1 0.995499 0.518425
1 0.998932 0.529747
1 0.998932 0.536751
1 0.998932 0.538201
1 0.998932 0.53814
1 0.998932 0.538033
1 0.998932 0.537835
1 0.998932 0.537591
1 0.998932 0.537133
1 0.998932 0.536645
0.381186 0.955993 0.48333
0.370901 0.955306 0.46836
0.362692 0.955032 0.455558
0.359197 0.954803 0.446342
0.357534 0.954467 0.436606
0.356451 0.953964 0.424643
0.355138 0.953597 0.412039
0.35378 0.953323 0.400015
0.352575 0.952987 0.39057
0.352178 0.95288 0.38735
0.352178 0.95288 0.38735
0.352178 0.95288 0.38735
0.353079 0.952773 0.38819
0.358862 0.952163 0.393545
0.388907 0.953414 0.408698
0.471977 0.9664 0.430274
0.571908 0.986114 0.433112
0.652842 0.991379 0.422782
0.7243 0.982635 0.411826
0.804211 0.970962 0.415183
0.893034 0.968185 0.443809
0.962097 0.977768 0.481575
0.994568 0.988083 0.503838
1 0.994263 0.516045
1 0.998703 0.527153
1 0.998932 0.536156
1 0.998932 0.538491
1 0.998932 0.53843
1 0.998932 0.538323
1 0.998932 0.538094
1 0.998932 0.537865
1 0.998932 0.537469
1 0.998932 0.537011
0.388266 0.957702 0.500023
0.379294 0.956283 0.486015
0.368841 0.955657 0.471199
0.362829 0.955398 0.460197
0.358404 0.955123 0.448844
0.357488 0.954589 0.437232
0.356207 0.953918 0.422492
0.354757 0.953582 0.407874
0.352987 0.953109 0.393713
0.352178 0.95288 0.38735
0.352178 0.95288 0.38735
0.352178 0.95288 0.38735
0.353079 0.952773 0.38819
0.358038 0.952255 0.392782
0.38172 0.952773 0.405692
0.457267 0.963561 0.427405
0.559579 0.983734 0.43299
0.642573 0.991333 0.424155
0.713024 0.984604 0.413092
0.791913 0.97229 0.413046
0.880034 0.968017 0.438361
0.954711 0.976501 0.477287
0.990845 0.987015 0.501366
1 0.993317 0.514015
1 0.997971 0.525109
1 0.998932 0.534783
1 0.998932 0.538399
1 0.998932 0.538552
1 0.998932 0.53846
1 0.998932 0.538308
1 0.998932 0.538277
1 0.998932 0.538216
1 0.998932 0.538125
0.396033 0.959655 0.515312
0.386755 0.957275 0.500893
0.375433 0.955718 0.484871
0.368338 0.955306 0.472648
