bundles/resolve-cinematic-luts/Phantom Luts/Canon Alexa LUT/C-Log 2/Neutral Canon CL2-Legacy.cube
TITLE "Generated by Resolve"
LUT_3D_SIZE 9
0.0231022 0.0230716 0.0230716
0.0529335 0.0236515 0.0274815
0.155154 0.0233921 0.0381323
0.37232 0.0218051 0.0725872
0.665995 0.0195315 0.155169
0.896544 0.0179446 0.264836
0.900191 0.0181125 0.300755
0.901427 0.0184634 0.318547
0.901534 0.018616 0.325887
0.0229038 0.0483711 0.0247654
0.0386358 0.0416266 0.0241398
0.137133 0.0265965 0.0254673
0.340505 0.0221866 0.0437018
0.647852 0.0195621 0.120394
0.892714 0.0177157 0.23537
0.897566 0.0180362 0.273426
0.899489 0.0180362 0.293004
0.900221 0.0181125 0.301106
0.0165408 0.153826 0.0256962
0.0215152 0.146136 0.016022
0.115724 0.130678 0.0204013
0.353231 0.0608377 0.0243992
0.638285 0.0204623 0.0678416
0.849409 0.0177462 0.146792
0.879194 0.0176089 0.189837
0.890562 0.0175784 0.215717
0.892592 0.0176242 0.224994
0.0181735 0.396979 0.0286259
0.0180972 0.394888 0.0180972
0.0266117 0.379019 0.0181888
0.310887 0.353506 0.018143
0.643977 0.245777 0.0273136
0.934401 0.0357214 0.0381018
0.952239 0.0209201 0.0801404
0.944076 0.0198978 0.106096
0.93547 0.0194553 0.113756
0.0172885 0.715068 0.04094
0.0172427 0.713481 0.0253452
0.0173037 0.710246 0.0173037
0.105287 0.693111 0.0175326
0.613428 0.67187 0.0168612
0.930037 0.68365 0.0181277
0.990387 0.549447 0.0371099
0.989136 0.50779 0.0416724
0.98854 0.487984 0.0428626
0.0193484 0.993439 0.0331121
0.0193027 0.993439 0.0181125
0.0193027 0.993439 0.0193027
0.0193027 0.993439 0.0193027
0.410941 0.993439 0.019852
0.904692 0.97052 0.0429694
0.993439 0.972686 0.0162356
0.993439 0.966003 0.0189517
0.993439 0.962814 0.0189975
0.0193637 0.993439 0.0856947
0.0193027 0.993439 0.0532692
0.0193027 0.993439 0.0193027
0.0193027 0.993439 0.0193027
0.328374 0.993439 0.019791
0.858763 0.993439 0.033402
0.993439 0.993439 0.30518
0.993439 0.993439 0.328328
0.993439 0.993439 0.328328
0.0194247 0.993439 0.142565
0.019379 0.993439 0.102861
0.0193332 0.993439 0.0287938
0.0193027 0.993439 0.0193027
0.291783 0.993439 0.0196994
0.788251 0.993439 0.0195621
0.993439 0.993439 0.28246
0.993439 0.993439 0.328328
0.993439 0.993439 0.328328
0.019379 0.993439 0.169619
0.0194247 0.993439 0.126375
0.019379 0.993439 0.0399329
0.0193027 0.993439 0.0193027
0.274769 0.993439 0.0197452
0.758572 0.993439 0.0196384
0.993439 0.993439 0.269032
0.993439 0.993439 0.328328
0.993439 0.993439 0.328328
0.0231022 0.0240635 0.0406195
0.0505379 0.0238193 0.0455634
0.154192 0.0229038 0.0670024
0.372808 0.0221866 0.101259
0.668421 0.019852 0.185168
0.899382 0.0180209 0.292348
0.901518 0.0185855 0.324651
0.902312 0.018616 0.343648
0.903655 0.0176547 0.35494
0.0242161 0.0396277 0.0375372
0.0359503 0.0357977 0.0358129
0.140795 0.0272068 0.0410773
0.356252 0.0218967 0.0706035
0.6551 0.0196841 0.152026
0.896391 0.0179446 0.26389
0.900099 0.0180972 0.299718
0.901396 0.0184329 0.317494
0.901518 0.0186007 0.325139
0.0184024 0.144091 0.0475624
0.0178225 0.139712 0.027985
0.110643 0.123384 0.0216831
0.359472 0.0426795 0.0247501
0.617426 0.0201419 0.0756085
0.871885 0.0176394 0.178561
0.891981 0.0176242 0.225086
0.89514 0.0177768 0.245899
0.896452 0.0178531 0.255222
0.0180972 0.386191 0.0491798
0.0181582 0.384466 0.0301061
0.01738 0.372427 0.0181125
0.305058 0.345785 0.0181582
0.645457 0.219883 0.027924
0.939574 0.0264897 0.0399023
0.950134 0.0204776 0.0945907
0.933684 0.019379 0.114946
0.918853 0.0191806 0.122133
0.0172732 0.707683 0.0677958
0.0172885 0.706355 0.0435645
0.0172427 0.703227 0.0172427
0.086656 0.688548 0.0174563
0.609247 0.666621 0.0167086
0.929808 0.67657 0.0181277
0.989792 0.53051 0.0393072
0.988495 0.486778 0.0429541
0.987854 0.466667 0.0447242
0.0193179 0.993439 0.0623026
0.0193637 0.993439 0.0360266
0.0193027 0.993439 0.0193027
0.0193027 0.993439 0.0193027
0.398199 0.993439 0.0198062
0.901289 0.968093 0.0417792
0.993439 0.970062 0.0190585
0.993439 0.962585 0.018967
0.993439 0.958618 0.0189212
0.0194247 0.993439 0.12491
0.0193637 0.993439 0.0878157
0.0193179 0.993439 0.0235752
0.0193027 0.993439 0.0193027
0.315587 0.993439 0.0197604
0.847532 0.993439 0.0293736
0.993439 0.993439 0.30277
0.993439 0.993439 0.328328
0.993439 0.993439 0.328328
0.0194095 0.993439 0.187869
0.0194095 0.993439 0.1449
0.0193179 0.993439 0.0523995
0.0193027 0.993439 0.0193027
0.272999 0.993439 0.0197452
0.774884 0.993439 0.0196384
0.993439 0.993439 0.280247
0.993439 0.993439 0.328328
0.993439 0.993439 0.328328
0.01944 0.993439 0.21593
0.019379 0.993439 0.172183
0.0193332 0.993439 0.0715496
0.0193027 0.993439 0.0193027
0.243442 0.993439 0.0196536
0.744167 0.993439 0.0196078
0.993439 0.993439 0.258091
0.993439 0.993439 0.328328
0.993439 0.993439 0.328328
0.0247044 0.025391 0.115328
0.0548104 0.0242771 0.124117
0.147845 0.0235904 0.136645
0.37818 0.0160525 0.176776
0.669764 0.0175937 0.262562
0.904067 0.0170596 0.361257
0.907866 0.0174258 0.400626
0.910536 0.0174105 0.421515
0.912032 0.0174258 0.430381
0.0213474 0.0345464 0.0943008
0.0262913 0.0258183 0.108888
0.129274 0.0239567 0.119387
0.359091 0.0183719 0.151308
0.656657 0.0202792 0.224537
0.901625 0.0187533 0.330632
0.904494 0.0160983 0.370993
0.907073 0.0174716 0.392386
0.907942 0.0174105 0.401419
0.0232853 0.12134 0.112947
0.0236057 0.116075 0.10898
0.11284 0.111849 0.111971
0.378637 0.0603189 0.110826
0.628183 0.019913 0.146288
0.897231 0.0179294 0.26334
0.900328 0.0180972 0.299992
0.901411 0.0184329 0.317632
0.901518 0.0186007 0.325185
0.0180972 0.360983 0.120836
0.0181735 0.359014 0.101045
0.0180819 0.352544 0.0358434
0.28925 0.325154 0.0211032
0.643336 0.156924 0.0351568
0.958953 0.024094 0.0985733
0.92256 0.0216983 0.13164
0.866163 0.0195773 0.142489
0.858274 0.0176699 0.143526
0.0173648 0.688914 0.144793
0.017319 0.687449 0.117906
0.017319 0.68481 0.0512398
0.0393683 0.67657 0.0173495
0.598581 0.654566 0.0163424
0.932342 0.639673 0.0181277
0.988373 0.481209 0.0434882
0.985916 0.433295 0.0464027
0.984451 0.411902 0.0469825
0.0193637 0.993439 0.157046
0.0194247 0.993439 0.122942
0.019379 0.993439 0.0442359
0.0193027 0.993439 0.0193027
0.366857 0.993042 0.0196536
0.89366 0.962325 0.0392157
0.993439 0.961715 0.0189517
0.993439 0.952071 0.0189212
0.993439 0.947082 0.0188144
0.0194553 0.993439 0.235035
0.0194247 0.993439 0.194385
0.019379 0.993439 0.0935073
0.0193027 0.993439 0.0193027
0.275242 0.993439 0.0197452
0.816495 0.993439 0.0209812
0.993439 0.993439 0.297368
0.993439 0.993439 0.328328
0.993439 0.993439 0.328328
0.0194247 0.993439 0.300526
0.0194858 0.993439 0.258244
0.0193637 0.993439 0.151202
0.0193027 0.993439 0.0193027
0.196521 0.993439 0.0196231
0.739803 0.993439 0.0196078
0.993439 0.993439 0.266346
0.993439 0.993439 0.328328
0.993439 0.993439 0.328328
0.0194553 0.993439 0.325841
0.0194553 0.993439 0.287129
0.0193942 0.993439 0.178317
0.0193027 0.993439 0.0193027
0.166766 0.993439 0.0196078
0.706996 0.993439 0.0196689
0.992126 0.993439 0.235981
0.993439 0.993439 0.328328
0.993439 0.993439 0.328328
0.0291447 0.0280003 0.286427
0.0603799 0.0250401 0.301167
0.154513 0.0234379 0.314916
0.360342 0.0207218 0.338491
0.679957 0.0175937 0.426215
0.929976 0.0174258 0.508995
0.937209 0.0174716 0.53875
0.937057 0.0174716 0.554467
0.936736 0.0174258 0.561196
0.0166476 0.0332494 0.250172
0.0289616 0.0277714 0.275395
0.126802 0.0239414 0.304952
0.3449 0.0209049 0.323857
0.669383 0.0176699 0.403952
0.924743 0.0173953 0.490501
0.932921 0.0174411 0.519112
0.937469 0.0174716 0.535119
0.937163 0.0174716 0.54165
0.0181277 0.106493 0.247562
0.0181735 0.0950484 0.254536
0.066865 0.0625772 0.302327
0.312901 0.0249027 0.293248
0.641352 0.0177157 0.345022
0.913725 0.0174258 0.439872
0.919722 0.0174716 0.469474
0.923506 0.0174563 0.484764
0.924819 0.0173953 0.490822
0.0180362 0.311467 0.290929
0.0180056 0.306462 0.286152
0.0180056 0.293523 0.274968
0.29984 0.297475 0.297993
0.67541 0.186297 0.283314
0.934691 0.0233158 0.322057
0.907301 0.0183108 0.315587
0.90396 0.0184329 0.318929
0.903944 0.0185855 0.326223
0.0174258 0.650431 0.336492
0.0175021 0.648722 0.319493
0.01738 0.644221 0.267414
0.01738 0.637064 0.0767681
0.580255 0.622538 0.0994278
0.930465 0.51223 0.117617
0.96907 0.356909 0.116045
0.965759 0.285206 0.112047
0.964492 0.251301 0.109865
0.0188144 0.982437 0.377478
0.0187686 0.982071 0.353475
0.0186618 0.981231 0.282536
0.0185702 0.981201 0.0694438
0.248173 0.986542 0.0191043
0.874769 0.946975 0.0342412
0.993439 0.936629 0.0188754
0.993439 0.922026 0.0187991
0.993439 0.914931 0.0188144
0.019501 0.993439 0.454536
0.0194705 0.993439 0.430259
0.0194858 0.993439 0.359045
0.0193942 0.993439 0.108095
0.0845045 0.993439 0.0194553
0.73547 0.993439 0.0195926
0.993439 0.993439 0.284993
0.993439 0.993439 0.328481
0.993439 0.993439 0.328328
0.0195315 0.993439 0.494591
0.0195163 0.993439 0.471504
0.0195468 0.993439 0.407111
0.019379 0.993439 0.167727
0.0360723 0.993439 0.0193637
0.648417 0.993439 0.0196994
0.990311 0.993439 0.22063
0.993439 0.993439 0.328603
0.993439 0.993439 0.32871
0.0195468 0.993439 0.510719
0.0195315 0.993439 0.488701
0.0194705 0.993439 0.426688
0.0194247 0.993439 0.195422
0.0269932 0.993439 0.019379
0.612985 0.993439 0.0197452
0.987518 0.993439 0.195758
0.993439 0.993439 0.32845
0.993439 0.993439 0.328557
0.0392462 0.0371862 0.527047
0.0715648 0.0318151 0.541924
0.167376 0.0268101 0.561517
0.383993 0.0220951 0.585916
0.662501 0.017319 0.635691
0.939513 0.0151217 0.732586
0.940093 0.0149233 0.765072
0.939223 0.0149233 0.780255
0.938796 0.0149081 0.786877
0.0179599 0.0414588 0.496849
0.0390326 0.0366674 0.51986
0.135164 0.0273899 0.551598
0.363973 0.0224918 0.579095
0.652384 0.0174411 0.626276
0.937423 0.0152285 0.717845
0.940673 0.0149538 0.750683
0.940063 0.0149233 0.765866
0.939742 0.0149233 0.771908
0.0181125 0.0704967 0.471077
0.0180819 0.0567941 0.472221
0.0425422 0.0349584 0.510475
0.299046 0.0235294 0.557855
0.623438 0.0177615 0.597971
0.932448 0.0155184 0.680049
0.936278 0.0152895 0.709773
0.938537 0.0151675 0.725643
0.939483 0.0151217 0.732357
0.0180514 0.307683 0.536828
0.0180209 0.298497 0.540627
0.0179446 0.269078 0.551705
0.197421 0.198291 0.598947
0.607752 0.0710613 0.576501
0.935363 0.01738 0.589105
0.935637 0.0173953 0.604501
0.935058 0.0173953 0.617288
0.934752 0.0173953 0.623148
0.0175784 0.592615 0.570291
0.0175021 0.589273 0.566644
0.0175479 0.581353 0.559411
0.0176394 0.559487 0.539528
0.555947 0.554253 0.55491
0.944991 0.466361 0.557534
0.99118 0.364157 0.55581
0.989105 0.314504 0.551217
0.988846 0.290166 0.549661
0.0181125 0.939941 0.63209
0.0180972 0.938216 0.623041
0.0180667 0.934356 0.599069
0.0179599 0.925841 0.526467
0.142 0.923476 0.322866
0.856229 0.908827 0.383551
0.993439 0.844114 0.392569
0.993439 0.812909 0.397559
0.993439 0.799435 0.399374
0.0194858 0.993439 0.698817
0.0194705 0.993439 0.688106
0.0195621 0.993439 0.659968
0.019501 0.993439 0.573922
0.0194247 0.993439 0.123232
0.576608 0.993439 0.019791
0.993439 0.993439 0.266163
0.993439 0.993439 0.294728
0.993439 0.993439 0.265354
0.019501 0.993439 0.721691
0.019501 0.993439 0.710445
0.0194705 0.993439 0.68069
0.019501 0.993439 0.594965
0.0194247 0.993439 0.198489
0.472831 0.993439 0.0198062
0.98114 0.993439 0.162707
0.993439 0.993439 0.331594
0.993439 0.993439 0.331548
0.019501 0.993439 0.731197
0.019501 0.993439 0.719646
0.0194858 0.993439 0.689738
0.0195163 0.993439 0.60415
0.0194553 0.993439 0.230335
0.427024 0.993439 0.019852
0.967285 0.993439 0.128557
0.993439 0.993439 0.320058
0.993439 0.993439 0.330938
0.0402686 0.0750286 0.774609
0.0748608 0.0673533 0.795529
0.183383 0.0428473 0.835309
0.417762 0.0339208 0.875319
0.686168 0.0184024 0.890608
0.928145 0.0149996 0.942946
0.930526 0.0149538 0.973449
0.930846 0.0149538 0.978622
0.930846 0.0149538 0.978622
0.0191653 0.0794385 0.748638
0.0409552 0.0732433 0.767773
0.140093 0.0518196 0.816022
0.391638 0.0345617 0.866789
0.675471 0.0191196 0.886076
0.927565 0.0150149 0.936873
0.930053 0.0149691 0.96669
0.9308 0.0149538 0.977752
0.930846 0.0149538 0.978622
0.0179599 0.0983902 0.724971
0.0180056 0.0832074 0.718776
0.0421302 0.0690013 0.750378
0.318196 0.0364691 0.843824
0.645457 0.0207065 0.872587
0.927214 0.0150454 0.919585
0.92845 0.0149844 0.946685
0.929473 0.0149691 0.959472
0.929854 0.0149691 0.96405
0.0179751 0.256367 0.770703
0.0179294 0.240528 0.77171
0.0179599 0.200961 0.770565
0.0974136 0.109316 0.820111
0.555611 0.0264286 0.840452
0.908873 0.0151217 0.870375
0.930663 0.0150301 0.892515
0.929641 0.0150454 0.901991
0.929168 0.0150607 0.905867
0.0175326 0.591058 0.80058
0.0175631 0.588266 0.802487
0.0175326 0.5776 0.808301
0.0175937 0.544472 0.826627
0.478065 0.478645 0.855192
0.844465 0.294728 0.798917
0.962966 0.18204 0.821256
0.963027 0.144839 0.82153
0.963302 0.128939 0.822065
0.017731 0.8748 0.853666
0.017731 0.871839 0.851011
0.0177157 0.864775 0.844282
0.0176089 0.848035 0.82797
0.120012 0.821302 0.798398
0.798856 0.797589 0.798093
0.993439 0.739712 0.805249
0.993439 0.71194 0.801007
0.993439 0.696971 0.799344
0.0201419 0.993439 0.915709
0.0200351 0.993439 0.911086
0.0197604 0.993439 0.899596
0.0191348 0.993439 0.86833
0.0195315 0.993439 0.762737
0.621347 0.993439 0.695247
0.979126 0.991653 0.779065
0.993439 0.988266 0.782254
0.993439 0.985321 0.77203
0.0205539 0.993439 0.933532
0.0204471 0.993439 0.928649
0.0201572 0.993439 0.916014
0.019379 0.993439 0.879896
0.0170901 0.993439 0.765805
0.411765 0.993439 0.588754
0.937194 0.993439 0.616327
0.993439 0.993439 0.752712
0.993439 0.993439 0.741482
0.0207828 0.993439 0.940505
0.0206149 0.993439 0.935653
0.020325 0.993439 0.922698
0.0194858 0.993439 0.885206
0.0171511 0.993439 0.769085
0.311254 0.993439 0.553994
0.901839 0.993439 0.576211
0.993439 0.993439 0.715251
0.993439 0.993439 0.721859
0.0420386 0.101167 0.884474
0.0784161 0.0946517 0.905837
0.181231 0.071931 0.942611
0.43444 0.0473182 0.971725
0.716731 0.0237888 0.976333
0.930846 0.0149538 0.978622
0.930846 0.0149538 0.978622
0.930846 0.0149538 0.978622
0.930846 0.0149538 0.978622
0.0193179 0.106142 0.860716
0.041413 0.101274 0.883955
0.136156 0.0818189 0.931197
0.406378 0.0500649 0.970275
0.704311 0.0250095 0.977142
0.930846 0.0149538 0.978622
0.930846 0.0149538 0.978622
0.930846 0.0149538 0.978622
0.930846 0.0149538 0.978622
0.0179294 0.109895 0.824826
0.0179294 0.109773 0.826596
0.0398566 0.101595 0.882567
0.327749 0.0546883 0.964355
0.667201 0.0283818 0.978119
0.930846 0.0149538 0.978622
0.930846 0.0149538 0.978622
0.930846 0.0149538 0.978622
0.930846 0.0149538 0.978622
0.0178836 0.21532 0.920134
0.0178836 0.203189 0.917266
0.0179446 0.163561 0.885023
0.0569314 0.0985275 0.893828
0.558679 0.0376135 0.976104
0.90457 0.0150149 0.976287
0.930938 0.0149538 0.978729
0.930922 0.0149538 0.978714
0.930892 0.0149538 0.978698
0.0176394 0.585168 0.952667
0.0175784 0.580224 0.954803
0.0176394 0.566888 0.961913
0.0177005 0.525185 0.978149
0.383642 0.444572 0.98172
0.812024 0.230716 0.971923
0.944579 0.107942 0.977432
0.947814 0.0757916 0.982162
0.949935 0.0624704 0.984329
0.0177615 0.864759 0.977874
0.0178073 0.861875 0.977966
0.0177615 0.85507 0.978256
0.0176852 0.83888 0.980682
0.0176547 0.807935 0.988037
0.746181 0.755001 0.981765
0.97789 0.63534 0.956481
0.974594 0.606302 0.951476
0.973373 0.594064 0.949447
0.0213321 0.993439 0.993439
0.0211337 0.993439 0.993439
0.0208133 0.993439 0.993439
0.0197604 0.993439 0.99263
0.0174716 0.986587 0.981949
0.603922 0.967559 0.958923
0.965103 0.964721 0.964889
0.993439 0.95346 0.967178
0.993439 0.945556 0.965591
0.0197299 0.993439 0.993439
0.0197299 0.993439 0.993439
0.0178531 0.993439 0.993439
0.0239872 0.993439 0.993439
0.0224308 0.993439 0.978714
0.056672 0.993439 0.925628
0.949691 0.993439 0.96376
0.993439 0.993439 0.993439
0.993439 0.993439 0.993439
0.0197299 0.993439 0.993439
0.0197299 0.993439 0.993439
0.0197299 0.993439 0.993439
0.0228428 0.993439 0.993439
0.0223697 0.993439 0.977829
0.0209812 0.993439 0.908385
0.917769 0.993439 0.946075
0.993439 0.993439 0.970779
0.993439 0.993439 0.993439
0.0605783 0.0979782 0.895659
0.0997787 0.0900587 0.916213
0.201556 0.0673228 0.946624
0.445457 0.0462501 0.972244
0.725032 0.022858 0.975402
0.930846 0.0149538 0.978622
0.930846 0.0149538 0.978622
0.930846 0.0149538 0.978622
0.930846 0.0149538 0.978622
0.0290532 0.104021 0.873701
0.0596323 0.0981155 0.895003
0.158404 0.0771038 0.937285
0.418265 0.0489662 0.971008
0.711955 0.0242924 0.976654
0.930846 0.0149538 0.978622
0.930846 0.0149538 0.978622
0.930846 0.0149538 0.978622
0.930846 0.0149538 0.978622
0.0179294 0.108583 0.823972
0.0179294 0.109148 0.82739
0.0572671 0.0984665 0.893965
0.340581 0.0540322 0.965515
0.673838 0.0278325 0.977905
0.930846 0.0149538 0.978622
0.930846 0.0149538 0.978622
0.930846 0.0149538 0.978622
0.930846 0.0149538 0.978622
0.0179294 0.210071 0.92195
0.0178836 0.194919 0.911391
0.0179599 0.154482 0.87602
0.0723888 0.0959487 0.902846
0.56347 0.037232 0.976333
0.907164 0.0149844 0.976379
0.930953 0.0149538 0.978744
0.930922 0.0149538 0.978714
0.930892 0.0149538 0.978698
0.0177005 0.575463 0.985275
0.0176699 0.568704 0.984649
0.0177005 0.550851 0.983124
0.0177462 0.49723 0.979797
0.362585 0.395071 0.98294
0.800259 0.183902 0.974807
0.950088 0.0615091 0.984482
0.951751 0.0350958 0.98764
0.949172 0.0267185 0.98761
0.0178836 0.874861 0.993439
0.0179294 0.871733 0.993439
0.0178683 0.863355 0.993439
0.0178683 0.843076 0.993439
0.0177157 0.792081 0.993439
0.717525 0.736782 0.993439
0.962356 0.599329 0.978164
0.96257 0.566262 0.974609
0.961013 0.553491 0.973541
0.0197299 0.993439 0.993439
0.0197299 0.993439 0.993439
0.0197299 0.993439 0.993439
0.0197299 0.993439 0.993439
0.0191958 0.986694 0.993439
0.508492 0.966491 0.993439
0.94873 0.951888 0.993439
0.993439 0.929335 0.993439
0.993439 0.920684 0.993439
0.0197299 0.993439 0.993439
0.0197299 0.993439 0.993439
0.0197299 0.993439 0.993439
0.0197299 0.993439 0.993439
0.0197299 0.993439 0.993439
0.01738 0.993439 0.993439
0.933852 0.993439 0.993439
0.993439 0.993439 0.993439
0.993439 0.993439 0.993439
0.0197299 0.993439 0.993439
0.0197299 0.993439 0.993439
0.0197299 0.993439 0.993439
0.0197299 0.993439 0.993439
0.0197299 0.993439 0.993439
0.0217288 0.993439 0.993439
0.881453 0.993439 0.99266
0.993439 0.993439 0.993439
0.993439 0.993439 0.993439
0.0695811 0.096437 0.901167
0.108232 0.0880903 0.920256
0.211688 0.0649577 0.948867
0.450278 0.0458534 0.972366
0.728771 0.0224613 0.975082
0.930846 0.0149538 0.978622
0.930846 0.0149538 0.978622
0.930846 0.0149538 0.978622
0.930846 0.0149538 0.978622
0.0348974 0.102876 0.878492
0.0686809 0.0966049 0.900557
0.168322 0.074876 0.939879
0.423377 0.0484932 0.971283
0.715312 0.0239414 0.976425
0.930846 0.0149538 0.978622
0.930846 0.0149538 0.978622
0.930846 0.0149538 0.978622
0.930846 0.0149538 0.978622
0.0179294 0.109148 0.825238
0.0179294 0.108614 0.83418
0.0663005 0.0970474 0.899123
0.34609 0.0537118 0.965942
0.677089 0.0275578 0.97789
0.930846 0.0149538 0.978622
0.930846 0.0149538 0.978622
0.930846 0.0149538 0.978622
0.930846 0.0149538 0.978622
0.0178836 0.206897 0.919478
0.0179294 0.19147 0.909056
0.0178988 0.150454 0.871672
0.0788434 0.0945602 0.906081
0.565911 0.0370642 0.976425
0.90869 0.0149844 0.976486
0.930953 0.0149538 0.978729
0.930922 0.0149538 0.978714
0.930892 0.0149538 0.978698
0.017731 0.565209 0.984421
0.0176547 0.558282 0.98381
0.0177462 0.53933 0.982437
0.017792 0.483696 0.979339
0.35256 0.373526 0.983597
0.79588 0.163165 0.976486
0.95198 0.0432288 0.986908
0.945769 0.023209 0.986496
0.934676 0.016434 0.981338
0.0179599 0.869505 0.993439
0.0178836 0.865965 0.993439
0.0178531 0.857649 0.993439
0.0177768 0.835904 0.993439
0.017731 0.78143 0.993439
0.711574 0.723171 0.993439
0.957748 0.584405 0.97705
0.960296 0.547768 0.97319
0.958526 0.53518 0.972152
0.0197299 0.993439 0.993439
0.0197299 0.993439 0.993439
0.0197299 0.993439 0.993439
0.0196994 0.993439 0.993439
0.0190127 0.982879 0.993439
0.504829 0.96054 0.993439
0.943206 0.943267 0.993439
0.993439 0.916793 0.993439
0.993423 0.90721 0.993439
0.0197299 0.993439 0.993439
0.0197299 0.993439 0.993439
0.0197299 0.993439 0.993439
0.0197299 0.993439 0.993439
0.0197299 0.993439 0.993439
0.0197299 0.993439 0.993439
0.913909 0.993439 0.993439
0.993439 0.993439 0.993439
0.993439 0.993439 0.993439
0.0197299 0.993439 0.993439
0.0197299 0.993439 0.993439
0.0197299 0.993439 0.993439
0.0197299 0.993439 0.993439
0.0197299 0.993439 0.993439
0.0197299 0.993439 0.993439
0.803708 0.993439 0.993439
0.993439 0.993439 0.993439
0.993439 0.993439 0.993439
