bundles/resolve-cinematic-luts/Phantom Luts/Canon Alexa LUT/C-Log 2/Neutral Canon CL2-Legacy.cube
TITLE "Generated by Resolve"
LUT_3D_SIZE 33
0.0231022 0.0230716 0.0230716
0.0251316 0.0231632 0.0231937
0.0302586 0.0233005 0.0243534
0.0386969 0.0234836 0.0257115
0.0529335 0.0236515 0.0274815
0.0711833 0.0236667 0.0292515
0.0944076 0.0236362 0.0317082
0.120912 0.0235294 0.0345006
0.155154 0.0233921 0.0381323
0.197589 0.0230259 0.0427558
0.246189 0.0226749 0.0512703
0.30721 0.0222477 0.0601205
0.37232 0.0218051 0.0725872
0.440726 0.0213016 0.0876478
0.512642 0.0207675 0.106294
0.588952 0.0201724 0.12781
0.665995 0.0195315 0.155169
0.748882 0.0187991 0.186969
0.841031 0.0181582 0.222477
0.894957 0.0178378 0.253437
0.896544 0.0179446 0.264836
0.897856 0.0180362 0.275669
0.898695 0.0180056 0.285039
0.89955 0.0180362 0.293629
0.900191 0.0181125 0.300755
0.900694 0.018204 0.30631
0.90103 0.0182803 0.311376
0.901274 0.0183719 0.315236
0.901427 0.0184634 0.318547
0.901503 0.0185245 0.321324
0.901503 0.018555 0.323156
0.901518 0.0185855 0.324834
0.901534 0.018616 0.325887
0.0231022 0.0242466 0.0231479
0.0234836 0.0234989 0.0230869
0.0264744 0.0237888 0.02327
0.0333104 0.0235142 0.0241703
0.0448005 0.0238346 0.0256199
0.0632181 0.0238193 0.0272374
0.0857099 0.023743 0.0288243
0.112993 0.0241855 0.0316014
0.147829 0.0238804 0.0345006
0.190616 0.0231479 0.0387427
0.239902 0.0225986 0.0446632
0.301869 0.0222171 0.0538796
0.367544 0.0217899 0.0657511
0.43624 0.0212863 0.080415
0.509056 0.0207065 0.0995651
0.585321 0.0201572 0.120775
0.663218 0.0195621 0.148196
0.745815 0.0188754 0.179614
0.838102 0.0180972 0.215198
0.894041 0.017792 0.247181
0.895689 0.0178988 0.258793
0.897139 0.0180056 0.269703
0.898161 0.0180209 0.279515
0.898939 0.0180056 0.28777
0.899702 0.0180514 0.294942
0.900221 0.0181125 0.301198
0.900664 0.0181888 0.305791
0.900938 0.018265 0.309957
0.901167 0.0183261 0.31313
0.90132 0.0183871 0.315679
0.901411 0.0184482 0.317861
0.901473 0.0184787 0.319661
0.901503 0.0185092 0.32105
0.0231174 0.0285954 0.0234684
0.0239719 0.0276341 0.0230564
0.0266728 0.0271153 0.0233463
0.031342 0.0274357 0.0237125
0.0421302 0.0251316 0.0238956
0.0593881 0.0242924 0.0260014
0.0797436 0.0241093 0.0281071
0.10782 0.0239719 0.0297856
0.140551 0.0237583 0.0319524
0.181445 0.024094 0.0354925
0.231067 0.0236057 0.0410925
0.293462 0.0222629 0.0485237
0.362158 0.0217746 0.0589303
0.431983 0.0212406 0.0737163
0.505394 0.0207828 0.0928359
0.582223 0.0202182 0.114183
0.660105 0.0195926 0.141436
0.742535 0.0188907 0.172519
0.835111 0.0181735 0.208606
0.893462 0.0177615 0.241611
0.894865 0.0178378 0.252842
0.896391 0.0179446 0.263783
0.897642 0.0180362 0.273747
0.89839 0.0180056 0.282551
0.899138 0.0180056 0.289738
0.899763 0.0180667 0.29572
0.900206 0.0181125 0.300954
0.900557 0.0181582 0.304921
0.900816 0.0182345 0.308064
0.900999 0.0182803 0.310811
0.901137 0.0183261 0.312856
0.901228 0.0183566 0.314488
0.90132 0.0183871 0.315679
0.0231327 0.0356298 0.0241398
0.0238499 0.0346227 0.0230106
0.0258183 0.0327306 0.0231479
0.0311131 0.0324865 0.023743
0.0399481 0.0335241 0.0242313
0.0567178 0.0287327 0.0246433
0.0804608 0.0259861 0.0247501
0.107607 0.0247654 0.0278477
0.13518 0.0242771 0.0306096
0.174182 0.0238041 0.0328527
0.223407 0.0231937 0.0360876
0.283207 0.023682 0.043061
0.350134 0.0225071 0.0532387
0.422339 0.0213169 0.065919
0.499001 0.020798 0.0835431
0.577203 0.0202487 0.106279
0.655711 0.0195773 0.132021
0.738247 0.0188449 0.163195
0.830701 0.018143 0.199542
0.892363 0.0177005 0.233951
0.893874 0.017792 0.245136
0.895338 0.0178683 0.256062
0.896712 0.0179599 0.266072
0.89781 0.0180514 0.274952
0.898421 0.0180056 0.282811
0.899062 0.0180056 0.288899
0.899611 0.0180514 0.294011
0.899977 0.0180819 0.298253
0.900267 0.0181277 0.301762
0.900511 0.0181582 0.304295
0.900679 0.018204 0.306218
0.900801 0.0182193 0.307973
0.900893 0.0182498 0.309361
0.0229038 0.0483711 0.0247654
0.022858 0.0469673 0.0226749
0.0253147 0.044358 0.0229038
0.0289158 0.0422065 0.0231327
0.0386358 0.0416266 0.0241398
0.0544594 0.0432441 0.0239109
0.0747845 0.0382239 0.0254215
0.104082 0.0301061 0.0251011
0.137133 0.0265965 0.0254673
0.176623 0.0248264 0.0294957
0.218006 0.0238193 0.0339971
0.2757 0.0230259 0.0387884
0.340505 0.0221866 0.0437018
0.409552 0.0227817 0.0579995
0.485359 0.0207828 0.0734264
0.566506 0.0202487 0.0954147
0.647852 0.0195621 0.120394
0.732189 0.0188144 0.151263
0.82501 0.0180819 0.187274
0.890333 0.0176394 0.224781
0.892714 0.0177157 0.23537
0.89398 0.017792 0.246342
0.895399 0.0178683 0.256397
0.896635 0.0179599 0.265339
0.897566 0.0180362 0.273426
0.898192 0.0180056 0.279911
0.89868 0.0180056 0.28484
0.899123 0.0180056 0.289479
0.899489 0.0180362 0.293004
0.899763 0.0180667 0.295598
0.899947 0.0180819 0.297887
0.900099 0.0180972 0.299687
0.900221 0.0181125 0.301106
0.0223392 0.0669871 0.02533
0.0222477 0.065919 0.0224002
0.0238956 0.0638132 0.021973
0.0271763 0.0604562 0.0226902
0.0334783 0.058854 0.0231174
0.0521401 0.0568093 0.0241855
0.073106 0.0587625 0.0229038
0.100603 0.0538643 0.0256962
0.133089 0.0395514 0.0259098
0.173648 0.0306401 0.0251926
0.224994 0.0252537 0.0267948
0.279667 0.0240177 0.0346532
0.333715 0.0227817 0.0416419
0.403296 0.0218814 0.0500038
0.473594 0.0216983 0.0621805
0.550835 0.0203403 0.0817273
0.634684 0.0196536 0.10695
0.719005 0.0188907 0.136324
0.813275 0.0181277 0.171023
0.887282 0.0175784 0.211444
0.890303 0.0176242 0.223224
0.892561 0.0177005 0.233585
0.893812 0.0177768 0.243763
0.894911 0.0178378 0.252903
0.895979 0.0179141 0.261067
0.89688 0.0179751 0.267506
0.897566 0.0180362 0.273335
0.898024 0.0180209 0.277729
0.898314 0.0180056 0.281498
0.898589 0.0180056 0.284062
0.898802 0.0180056 0.28632
0.899001 0.0180056 0.288273
0.899153 0.0180209 0.289815
0.0213626 0.0905013 0.0256809
0.0212863 0.0893873 0.0227054
0.0213169 0.0880598 0.0209049
0.0252537 0.0846571 0.021149
0.0299382 0.0818647 0.0220188
0.0399634 0.0805676 0.0227512
0.0693065 0.0771801 0.0237125
0.0961471 0.0783398 0.0215152
0.129961 0.0744945 0.0247196
0.17026 0.0557717 0.0257115
0.224308 0.0362554 0.0255131
0.28069 0.0288701 0.0252232
0.351049 0.0236973 0.0319524
0.408026 0.0226444 0.0439612
0.469566 0.0214389 0.0556954
0.54107 0.0211643 0.0708019
0.615122 0.0196994 0.0897993
0.701381 0.0190127 0.11725
0.79382 0.0182498 0.151553
0.876036 0.0176089 0.188724
0.884535 0.0176089 0.204883
0.889448 0.0175937 0.216922
0.891676 0.0176547 0.226856
0.893324 0.0177157 0.235538
0.894179 0.0177768 0.243809
0.895064 0.0178073 0.250782
0.895857 0.0178683 0.256352
0.896437 0.0179141 0.261433
0.896941 0.0179446 0.264973
0.897292 0.0179751 0.268238
0.897551 0.0180056 0.271
0.897719 0.0180362 0.273198
0.897887 0.0180514 0.274495
0.0193027 0.118013 0.0258335
0.0191958 0.117037 0.022797
0.019089 0.115846 0.0196384
0.0214084 0.113771 0.0187076
0.0260777 0.110903 0.0198367
0.0351415 0.108629 0.0204776
0.0496681 0.107012 0.0215305
0.0909743 0.102068 0.0225071
0.122896 0.102113 0.019379
0.166537 0.101839 0.0221866
0.21883 0.0756695 0.0250706
0.286824 0.0426032 0.0252689
0.349279 0.0336461 0.0246433
0.422065 0.0242313 0.0267643
0.492897 0.0222782 0.0441291
0.544915 0.0209964 0.062623
0.608438 0.0208133 0.0814984
0.678355 0.0192111 0.100954
0.769604 0.0184176 0.127031
0.860121 0.0176547 0.162173
0.86952 0.0176394 0.175418
0.877852 0.0176242 0.18999
0.885161 0.0176089 0.204379
0.889418 0.0175784 0.214679
0.891249 0.0176089 0.222522
0.892699 0.0176547 0.228977
0.893538 0.0177157 0.234516
0.894209 0.0177462 0.239353
0.894667 0.0177615 0.243183
0.895048 0.0177768 0.246174
0.895399 0.017792 0.248844
0.895689 0.0178073 0.251011
0.895949 0.0178225 0.252399
0.0165408 0.153826 0.0256962
0.0164034 0.152483 0.0225376
0.0162966 0.151385 0.0193332
0.0162051 0.149538 0.0158846
0.0215152 0.146136 0.016022
0.0274052 0.143008 0.0175631
0.0408026 0.141604 0.0181125
0.0615549 0.138399 0.019501
0.115724 0.130678 0.0204013
0.157153 0.129564 0.0162814
0.209873 0.134783 0.0178531
0.282597 0.0983291 0.0240024
0.353231 0.0608377 0.0243992
0.426215 0.0395972 0.0246128
0.496101 0.0282292 0.0253605
0.578943 0.0212863 0.0404517
0.638285 0.0204623 0.0678416
0.674556 0.0206912 0.0948501
0.745953 0.0185245 0.114351
0.838926 0.0178073 0.139879
0.849409 0.0177462 0.146792
0.857816 0.017731 0.157977
0.865904 0.0176242 0.169299
0.87332 0.0176394 0.179812
0.879194 0.0176089 0.189837
0.884306 0.0176242 0.199481
0.888182 0.0175479 0.207034
0.889586 0.0175479 0.2121
0.890562 0.0175784 0.215717
0.891264 0.0175937 0.218997
0.891829 0.0175937 0.221607
0.892256 0.0176089 0.22356
0.892592 0.0176242 0.224994
0.0180514 0.198581 0.0253758
0.0180209 0.197345 0.0221256
0.0180362 0.195926 0.0188144
0.0181125 0.194003 0.0181125
0.0181125 0.191363 0.0181125
0.0213169 0.187564 0.0180819
0.0294041 0.183856 0.018143
0.0468299 0.184283 0.0181277
0.0775921 0.17821 0.0165103
0.147906 0.168811 0.0174868
0.201694 0.166567 0.0181277
0.264927 0.171984 0.0180972
0.350805 0.127977 0.0224613
0.422324 0.0865187 0.0236667
0.503899 0.0503853 0.0244755
0.573495 0.0351415 0.0252995
0.655833 0.0200198 0.0299687
0.731991 0.019852 0.0688334
0.77525 0.0191501 0.101762
0.816007 0.0180056 0.129702
0.848798 0.0177157 0.140734
0.84828 0.0177005 0.141299
0.847715 0.0177157 0.141833
0.848829 0.017731 0.144183
0.853925 0.017731 0.151705
0.859297 0.0176852 0.158663
0.863783 0.0176394 0.165118
0.867643 0.0176394 0.17026
0.870924 0.0176242 0.174731
0.873365 0.0176242 0.17847
0.875196 0.0176089 0.181292
0.876493 0.0176089 0.18352
0.877653 0.0175937 0.185397
0.0179599 0.252903 0.0255131
0.0179599 0.251545 0.0220493
0.0179446 0.250141 0.0186465
0.0180056 0.248524 0.0180056
0.0180514 0.246235 0.0180514
0.0179904 0.242161 0.0179904
0.0211337 0.238376 0.0180056
0.0328527 0.234241 0.0180362
0.0559396 0.236133 0.0180514
0.0996872 0.226902 0.0180362
0.189227 0.21677 0.0180514
0.256886 0.214786 0.0180667
0.330739 0.221225 0.0181125
0.41915 0.175341 0.0209964
0.49369 0.121828 0.0236515
0.577478 0.0674296 0.0249943
0.651835 0.0461128 0.0263981
0.724712 0.0272068 0.0283818
0.823453 0.0197299 0.0627451
0.883314 0.018967 0.107057
0.876402 0.0214084 0.137621
0.852262 0.0176852 0.137102
0.850675 0.0177005 0.138766
0.850187 0.0177005 0.1393
0.849744 0.0177157 0.139742
0.849363 0.0177157 0.140139
0.849042 0.0177157 0.140444
0.848829 0.0177157 0.140703
0.848661 0.0177157 0.140902
0.848493 0.0177157 0.14107
0.848386 0.0177157 0.141192
0.84828 0.0177005 0.141283
0.848463 0.0177157 0.141741
0.0179904 0.321279 0.0264286
0.0179751 0.320684 0.023209
0.0179599 0.319783 0.019852
0.0180514 0.318868 0.0155337
0.0180362 0.317464 0.0180362
0.0179751 0.316136 0.0179751
0.0179751 0.308766 0.0179751
0.0226749 0.305226 0.0179294
0.0395514 0.300847 0.0180514
0.0691844 0.303395 0.0179751
0.12784 0.289219 0.0181125
0.241596 0.280018 0.018143
0.32903 0.279164 0.0181582
0.402365 0.287419 0.0181888
0.488807 0.242847 0.0188296
0.569986 0.172152 0.0254978
0.645899 0.104601 0.0264591
0.727489 0.0665293 0.0274662
0.798474 0.041474 0.0300298
0.888182 0.0202945 0.0416114
0.948653 0.0202792 0.0984817
0.941161 0.0196994 0.109407
0.92929 0.0192111 0.117205
0.912444 0.0192721 0.124712
0.892119 0.0208896 0.134981
0.869291 0.0217136 0.139086
0.852369 0.0180667 0.135241
0.851987 0.0177005 0.13727
0.851835 0.0177005 0.137377
0.851743 0.0177005 0.137423
0.851667 0.0177005 0.137469
0.851621 0.0177005 0.137514
0.851575 0.0177005 0.13753
0.0181735 0.396979 0.0286259
0.018143 0.396521 0.0255283
0.0181125 0.396353 0.0225681
0.0180972 0.395743 0.0181582
0.0180972 0.394888 0.0180972
0.0180972 0.394049 0.0180972
0.0180972 0.39144 0.0180972
0.0181277 0.383505 0.0181277
0.0266117 0.379019 0.0181888
0.0523537 0.375372 0.0181735
0.0906691 0.377157 0.0182345
0.170062 0.358663 0.0182345
0.310887 0.353506 0.018143
0.407477 0.355627 0.0181582
0.474556 0.362158 0.0181125
0.559701 0.336049 0.0161135
0.643977 0.245777 0.0273136
0.713573 0.173236 0.0292363
0.798581 0.100679 0.0303044
0.874495 0.0688182 0.0340734
0.934401 0.0357214 0.0381018
0.939895 0.025803 0.0401007
0.945403 0.0212711 0.0498054
0.950393 0.0210422 0.0665141
0.952239 0.0209201 0.0801404
0.951431 0.020676 0.0900587
0.949218 0.0203403 0.0970932
0.946838 0.0200809 0.10222
0.944076 0.0198978 0.106096
0.941619 0.0197299 0.108965
0.939361 0.0195773 0.110964
0.937224 0.0194858 0.112627
0.93547 0.0194553 0.113756
0.0180362 0.474739 0.0315251
0.0180209 0.474311 0.028336
0.0180209 0.473945 0.0254673
0.0180209 0.473487 0.0217288
0.0179904 0.47303 0.0161593
0.0179599 0.472374 0.0179599
0.0179446 0.47158 0.0179446
0.0180667 0.466682 0.0180667
0.0172732 0.461158 0.0180056
0.0329442 0.455634 0.018143
0.0718242 0.454109 0.0180972
0.121279 0.452873 0.0180514
0.227115 0.431678 0.0180819
0.386328 0.431998 0.0180819
0.486519 0.433997 0.0179751
0.547646 0.439033 0.0179599
0.6318 0.438788 0.0178836
0.71606 0.349111 0.0270085
0.792126 0.261051 0.0332952
0.8663 0.166094 0.034699
0.935058 0.109224 0.0376898
0.950286 0.0882582 0.0391394
0.946258 0.0770733 0.0387732
0.942397 0.0677043 0.0383154
0.939345 0.0587625 0.0378576
0.937926 0.0521553 0.0378576
0.937118 0.0455024 0.0379034
0.936675 0.0405127 0.0379644
0.93695 0.0372015 0.0382849
0.937102 0.0344701 0.0384375
0.937652 0.0323033 0.0387732
0.937758 0.0305028 0.0388952
0.938231 0.0290532 0.0391699
0.0176547 0.55198 0.0350347
0.0176547 0.551614 0.0315404
0.0176547 0.551293 0.0283665
0.0176394 0.550881 0.0248417
0.0176242 0.550652 0.0202792
0.0176242 0.549935 0.0176242
0.0176242 0.549325 0.0176242
0.0176394 0.548028 0.0176394
0.0177005 0.540902 0.0177005
0.022034 0.537575 0.0177462
0.0441596 0.53106 0.017731
0.0996262 0.533776 0.0177157
0.164584 0.527871 0.0178531
0.30309 0.508629 0.0178225
0.462074 0.510658 0.0180056
0.564858 0.513237 0.0179446
0.624002 0.51812 0.0179599
0.706493 0.525383 0.0178988
0.793362 0.459174 0.0240177
0.877073 0.370703 0.0370031
0.929274 0.2869 0.0394598
0.960754 0.19971 0.0399786
0.959487 0.168307 0.0396277
0.958114 0.152148 0.0395972
0.957183 0.142321 0.0395666
0.956725 0.133715 0.0396429
0.956298 0.126528 0.0396887
0.955581 0.120638 0.0395209
0.955123 0.115999 0.0395666
0.954772 0.112474 0.0394446
0.954406 0.109712 0.0394141
0.954223 0.107424 0.0393835
0.95378 0.105684 0.0392004
0.0173495 0.631693 0.0384833
0.0173342 0.631357 0.0349279
0.0173495 0.631052 0.0315709
0.0174258 0.630869 0.0277867
0.0174105 0.630442 0.0233768
0.0173953 0.629984 0.0171969
0.0173953 0.62916 0.0173953
0.0173953 0.62829 0.0173953
0.0173495 0.626322 0.0173495
0.0173953 0.617533 0.0173953
0.0281224 0.616297 0.0173953
0.0676585 0.609125 0.0174868
0.136019 0.615137 0.0175937
0.220478 0.604471 0.017731
0.386419 0.586847 0.0158846
0.537484 0.590509 0.0154574
0.642832 0.593759 0.0179294
0.701808 0.597711 0.0179294
0.78233 0.603021 0.0179294
0.867521 0.577752 0.0158694
0.939529 0.495842 0.0336461
0.982925 0.409339 0.0466926
0.981582 0.386175 0.0463874
0.978744 0.368277 0.0457008
0.975708 0.351659 0.0447089
0.972946 0.336324 0.0437476
0.971099 0.323064 0.0430152
0.96936 0.311376 0.0423438
0.968139 0.302098 0.0420844
0.967056 0.294118 0.0417639
0.966583 0.287205 0.0417029
0.965972 0.281956 0.041474
0.965667 0.277516 0.041474
0.0172885 0.715068 0.04094
0.0172732 0.714733 0.0373236
0.0172732 0.714382 0.0340734
0.017258 0.713985 0.0298161
0.0172427 0.713481 0.0253452
0.0172122 0.713176 0.0197757
0.0172885 0.712505 0.0172885
0.017319 0.711666 0.017319
0.0173037 0.710246 0.0173037
0.0172427 0.705455 0.0172427
0.0165408 0.699046 0.0172122
0.0394141 0.697673 0.0172732
0.105287 0.693111 0.0175326
0.185672 0.69839 0.0175479
0.293965 0.684138 0.0177157
0.472648 0.665599 0.0191806
0.613428 0.67187 0.0168612
0.719692 0.675319 0.0179599
0.78381 0.679225 0.0179294
0.85568 0.681727 0.0180209
0.930037 0.68365 0.0181277
0.979294 0.626719 0.0235142
0.99118 0.581704 0.0330663
0.990753 0.564721 0.0352026
0.990387 0.549447 0.0371099
0.989944 0.536004 0.0387274
0.989593 0.524926 0.0397498
0.989242 0.515373 0.0407721
0.989136 0.50779 0.0416724
0.988861 0.501076 0.0419013
0.988846 0.496071 0.0424048
0.988663 0.491585 0.042649
0.98854 0.487984 0.0428626
0.0172732 0.80882 0.04094
0.017258 0.808423 0.0373083
0.0172427 0.808042 0.0340581
0.0172274 0.807523 0.0297551
0.0172274 0.806973 0.0255131
0.0173037 0.806912 0.0202182
0.0172885 0.805844 0.0172885
0.0172885 0.804822 0.0172885
0.0172885 0.803281 0.0172885
0.0172885 0.801572 0.0172885
0.0173037 0.791226 0.0173037
0.0230716 0.790158 0.0173037
0.0627298 0.786053 0.01738
0.15375 0.785061 0.0176394
0.24802 0.791363 0.0177462
0.376318 0.765942 0.0178531
0.559991 0.746258 0.0240482
0.688167 0.75613 0.0192416
0.798657 0.760586 0.0179751
0.8701 0.765011 0.0180667
0.921706 0.764202 0.0181735
0.971145 0.762387 0.0182498
0.993439 0.758694 0.0186313
0.993439 0.751614 0.0185397
0.993149 0.745724 0.0185702
0.992966 0.733761 0.018555
0.992767 0.723171 0.0185092
0.992782 0.714641 0.018616
0.992569 0.707225 0.018555
0.992523 0.701335 0.0161288
0.992508 0.696742 0.016907
0.992432 0.692973 0.0175174
0.992462 0.689952 0.0180819
0.0176394 0.902708 0.0369726
0.0176242 0.902403 0.0334173
0.0176089 0.902129 0.0300603
0.0175937 0.902068 0.0268406
0.0175479 0.901732 0.0225681
0.0174868 0.901137 0.0166323
0.0174868 0.90074 0.0174868
0.0175631 0.899748 0.0175631
0.0175784 0.899077 0.0175784
0.0175784 0.897459 0.0175784
0.0175174 0.893233 0.0175174
0.0174563 0.881071 0.0174563
0.0339971 0.884245 0.0175479
0.103487 0.876143 0.0176547
0.217227 0.88426 0.0179294
0.330648 0.883406 0.0179904
0.471 0.853986 0.018143
0.649821 0.830137 0.0321355
0.764752 0.845365 0.0229038
0.872679 0.849699 0.018143
0.941299 0.852354 0.0182803
0.971038 0.851133 0.0183719
0.991302 0.846067 0.0185397
0.993439 0.840238 0.0186465
0.993439 0.834852 0.0186465
0.993439 0.82977 0.0185702
0.993439 0.825513 0.018677
0.993439 0.821607 0.0186007
0.993439 0.818479 0.0185855
0.993439 0.81622 0.018616
0.993439 0.814267 0.0186923
0.993439 0.812558 0.018616
0.993439 0.811154 0.018616
0.0184634 0.975021 0.0348058
0.0184482 0.974884 0.03093
0.0184329 0.974777 0.0281071
0.0184176 0.974624 0.0244907
0.0184024 0.974426 0.0195315
0.0183871 0.974365 0.0183871
0.0183871 0.974105 0.0183871
0.0183871 0.97409 0.0183871
0.0183566 0.973358 0.0183566
0.018265 0.972534 0.018265
0.0183108 0.970031 0.0183108
0.0181125 0.963272 0.0181125
0.023331 0.958846 0.018143
0.0724193 0.959243 0.0182956
0.185977 0.954101 0.0183719
0.311742 0.960555 0.018616
0.429099 0.950866 0.0186313
0.573343 0.9243 0.0214084
0.739849 0.90193 0.0434577
0.841703 0.919326 0.0289921
0.930068 0.921569 0.0212406
0.981964 0.924269 0.0186313
0.993439 0.924392 0.0188144
0.993439 0.919707 0.0187228
0.993439 0.915526 0.0188144
0.993439 0.911727 0.0187228
0.993439 0.908217 0.0187228
0.993439 0.905272 0.0187076
0.993439 0.903075 0.0187381
0.993439 0.900954 0.0187381
0.993439 0.899184 0.0187381
0.993439 0.897765 0.0187228
0.993439 0.896834 0.0187228
0.0193484 0.993439 0.0331121
0.0193332 0.993439 0.0297704
0.0193332 0.993439 0.0269474
0.0193179 0.993439 0.0232853
0.0193027 0.993439 0.0181125
0.0193027 0.993439 0.0193027
0.0193027 0.993439 0.0193027
0.0193027 0.993439 0.0193027
0.0193027 0.993439 0.0193027
0.0193027 0.993439 0.0193027
0.0193027 0.993439 0.0193027
0.0193027 0.993439 0.0193027
0.0193027 0.993439 0.0193027
0.0545663 0.993439 0.0194095
0.151049 0.993439 0.0196384
0.294743 0.993439 0.0196994
0.410941 0.993439 0.019852
0.525048 0.986664 0.0192874
0.673732 0.970581 0.0376287
0.823514 0.95729 0.0574807
0.904692 0.97052 0.0429694
0.969772 0.972015 0.0353552
0.993439 0.974594 0.024506
0.993439 0.974243 0.0182345
0.993439 0.972686 0.0162356
0.993439 0.971115 0.0190738
0.993439 0.969223 0.019028
0.993439 0.967498 0.018967
0.993439 0.966003 0.0189517
0.993439 0.964935 0.0190127
0.993439 0.964034 0.019028
0.993439 0.963424 0.019028
0.993439 0.962814 0.0189975
0.0193484 0.993439 0.032578
0.0193332 0.993439 0.0293126
0.0193332 0.993439 0.0265202
0.0193179 0.993439 0.022858
0.0193027 0.993439 0.0177005
0.0193027 0.993439 0.0193027
0.0193027 0.993439 0.0193027
0.0193027 0.993439 0.0193027
0.0193027 0.993439 0.0193027
0.0193027 0.993439 0.0193027
0.0193027 0.993439 0.0193027
0.0193027 0.993439 0.0193027
0.0193027 0.993439 0.0193027
0.0411841 0.993439 0.0194095
0.130175 0.993439 0.0195621
0.274022 0.993439 0.0197452
0.405341 0.993439 0.0191043
0.513451 0.993439 0.0213016
0.636469 0.993439 0.0308537
0.782971 0.990646 0.076936
0.897597 0.98909 0.0866407
0.952911 0.993439 0.0871138
0.990555 0.993439 0.0937362
0.993439 0.993439 0.0955367
0.993439 0.993439 0.0971847
0.993439 0.993439 0.0918288
0.993439 0.993439 0.0870375
0.993439 0.993439 0.0833906
0.993439 0.993439 0.0800183
0.993439 0.993042 0.0771496
0.993439 0.992752 0.0746471
0.993439 0.992477 0.0728771
0.993439 0.992279 0.0713054
0.0193484 0.993439 0.047303
0.019379 0.993439 0.0421759
0.0193637 0.993439 0.0377203
0.0193484 0.993439 0.0330053
0.0193332 0.993439 0.0280613
0.0193027 0.993439 0.022034
0.0193027 0.993439 0.0193027
0.0193027 0.993439 0.0193027
0.0193027 0.993439 0.0193027
0.0193027 0.993439 0.0193027
0.0193027 0.993439 0.0193027
0.0193027 0.993439 0.0193027
0.0193027 0.993439 0.0193027
0.0321965 0.993439 0.0193332
0.115419 0.993439 0.0195468
0.253483 0.993439 0.0196841
0.371862 0.993439 0.0198367
0.468482 0.993439 0.0198825
0.589029 0.993439 0.0198367
0.743038 0.993439 0.0196078
0.905135 0.993439 0.0375219
0.963378 0.993439 0.0963455
0.985092 0.993439 0.162081
0.993439 0.993439 0.212772
0.993439 0.993439 0.241184
0.993439 0.993439 0.236118
0.993439 0.993439 0.230533
0.993439 0.993439 0.22536
0.993439 0.993439 0.221073
0.993439 0.993439 0.21738
0.993439 0.993439 0.21445
0.993439 0.993439 0.211917
0.993439 0.993439 0.210056
0.0193179 0.993439 0.0665293
0.0193027 0.993439 0.0594492
0.0193027 0.993439 0.0542153
0.0193637 0.993439 0.0459449
0.0193637 0.993439 0.0386206
0.0193484 0.993439 0.0308537
0.0193179 0.993439 0.0230869
0.0193027 0.993439 0.0193027
0.0193027 0.993439 0.0193027
0.0193027 0.993439 0.0193027
0.0193027 0.993439 0.0193027
0.0193027 0.993439 0.0193027
0.0193027 0.993439 0.0193027
0.0246128 0.993439 0.0193637
0.092668 0.993439 0.019501
0.228641 0.993439 0.0197147
0.342809 0.993439 0.0197604
0.465766 0.993439 0.0198978
0.580728 0.993439 0.0198215
0.72929 0.993439 0.0196078
0.883696 0.993439 0.0443732
0.962982 0.993439 0.120363
0.986984 0.993439 0.192187
0.993439 0.993439 0.27837
0.993439 0.993439 0.314504
0.993439 0.993439 0.328328
0.993439 0.993439 0.328328
0.993439 0.993439 0.328328
0.993439 0.993439 0.328267
0.993439 0.993439 0.328206
0.993439 0.993439 0.328145
0.993439 0.993439 0.328099
0.993439 0.993439 0.328069
0.0193637 0.993439 0.0856947
0.0193484 0.993439 0.0783246
0.0193332 0.993439 0.0711376
0.0193179 0.993439 0.0623484
0.0193027 0.993439 0.0532692
0.019379 0.993439 0.0413519
0.0193484 0.993439 0.0308232
0.0193027 0.993439 0.0207065
0.0193027 0.993439 0.0193027
0.0193027 0.993439 0.0193027
0.0193027 0.993439 0.0193027
0.0193027 0.993439 0.0193027
0.0193027 0.993439 0.0193027
0.0193027 0.993439 0.0193027
0.0735027 0.993439 0.019501
0.204028 0.993439 0.0196384
0.328374 0.993439 0.019791
0.445075 0.993439 0.019852
0.56231 0.993439 0.019791
0.703182 0.993439 0.0196689
0.858763 0.993439 0.033402
0.955123 0.993439 0.108843
0.984344 0.993439 0.176806
0.993439 0.993439 0.258152
0.993439 0.993439 0.30518
0.993439 0.993439 0.328328
0.993439 0.993439 0.328328
0.993439 0.993439 0.328328
0.993439 0.993439 0.328328
0.993439 0.993439 0.328328
0.993439 0.993439 0.328328
0.993439 0.993439 0.328328
0.993439 0.993439 0.328328
0.0193942 0.993439 0.10341
0.019379 0.993439 0.0956588
0.0193637 0.993439 0.0878462
0.0193484 0.993439 0.0786908
0.0193179 0.993439 0.0670939
0.0193027 0.993439 0.0542306
0.019379 0.993439 0.0395819
0.0193332 0.993439 0.0275578
0.0193027 0.993439 0.0193027
0.0193027 0.993439 0.0193027
0.0193027 0.993439 0.0193027
0.0193027 0.993439 0.0193027
0.0193027 0.993439 0.0193027
0.0193027 0.993439 0.0193027
0.0581826 0.993439 0.0194247
0.182803 0.993439 0.0196689
0.313756 0.993439 0.0197604
0.42565 0.993439 0.0198825
0.546242 0.993439 0.019852
0.681224 0.993439 0.0197452
0.837095 0.993439 0.0263371
0.946929 0.993439 0.0975967
0.98172 0.993439 0.165164
0.992386 0.993439 0.238453
