bundles/resolve-cinematic-luts/Phantom Luts/Canon Alexa LUT/C-Log 2/Neutral Canon CL2-Legacy.cube
TITLE "Generated by Resolve"
LUT_3D_SIZE 5
0.0231022 0.0230716 0.0230716
0.155154 0.0233921 0.0381323
0.665995 0.0195315 0.155169
0.900191 0.0181125 0.300755
0.901534 0.018616 0.325887
0.0165408 0.153826 0.0256962
0.115724 0.130678 0.0204013
0.638285 0.0204623 0.0678416
0.879194 0.0176089 0.189837
0.892592 0.0176242 0.224994
0.0172885 0.715068 0.04094
0.0173037 0.710246 0.0173037
0.613428 0.67187 0.0168612
0.990387 0.549447 0.0371099
0.98854 0.487984 0.0428626
0.0193637 0.993439 0.0856947
0.0193027 0.993439 0.0193027
0.328374 0.993439 0.019791
0.993439 0.993439 0.30518
0.993439 0.993439 0.328328
0.019379 0.993439 0.169619
0.019379 0.993439 0.0399329
0.274769 0.993439 0.0197452
0.993439 0.993439 0.269032
0.993439 0.993439 0.328328
0.0247044 0.025391 0.115328
0.147845 0.0235904 0.136645
0.669764 0.0175937 0.262562
0.907866 0.0174258 0.400626
0.912032 0.0174258 0.430381
0.0232853 0.12134 0.112947
0.11284 0.111849 0.111971
0.628183 0.019913 0.146288
0.900328 0.0180972 0.299992
0.901518 0.0186007 0.325185
0.0173648 0.688914 0.144793
0.017319 0.68481 0.0512398
0.598581 0.654566 0.0163424
0.988373 0.481209 0.0434882
0.984451 0.411902 0.0469825
0.0194553 0.993439 0.235035
0.019379 0.993439 0.0935073
0.275242 0.993439 0.0197452
0.993439 0.993439 0.297368
0.993439 0.993439 0.328328
0.0194553 0.993439 0.325841
0.0193942 0.993439 0.178317
0.166766 0.993439 0.0196078
0.992126 0.993439 0.235981
0.993439 0.993439 0.328328
0.0392462 0.0371862 0.527047
0.167376 0.0268101 0.561517
0.662501 0.017319 0.635691
0.940093 0.0149233 0.765072
0.938796 0.0149081 0.786877
0.0181125 0.0704967 0.471077
0.0425422 0.0349584 0.510475
0.623438 0.0177615 0.597971
0.936278 0.0152895 0.709773
0.939483 0.0151217 0.732357
0.0175784 0.592615 0.570291
0.0175479 0.581353 0.559411
0.555947 0.554253 0.55491
0.99118 0.364157 0.55581
0.988846 0.290166 0.549661
0.0194858 0.993439 0.698817
0.0195621 0.993439 0.659968
0.0194247 0.993439 0.123232
0.993439 0.993439 0.266163
0.993439 0.993439 0.265354
0.019501 0.993439 0.731197
0.0194858 0.993439 0.689738
0.0194553 0.993439 0.230335
0.967285 0.993439 0.128557
0.993439 0.993439 0.330938
0.0420386 0.101167 0.884474
0.181231 0.071931 0.942611
0.716731 0.0237888 0.976333
0.930846 0.0149538 0.978622
0.930846 0.0149538 0.978622
0.0179294 0.109895 0.824826
0.0398566 0.101595 0.882567
0.667201 0.0283818 0.978119
0.930846 0.0149538 0.978622
0.930846 0.0149538 0.978622
0.0176394 0.585168 0.952667
0.0176394 0.566888 0.961913
0.383642 0.444572 0.98172
0.944579 0.107942 0.977432
0.949935 0.0624704 0.984329
0.0213321 0.993439 0.993439
0.0208133 0.993439 0.993439
0.0174716 0.986587 0.981949
0.965103 0.964721 0.964889
0.993439 0.945556 0.965591
0.0197299 0.993439 0.993439
0.0197299 0.993439 0.993439
0.0223697 0.993439 0.977829
0.917769 0.993439 0.946075
0.993439 0.993439 0.993439
0.0695811 0.096437 0.901167
0.211688 0.0649577 0.948867
0.728771 0.0224613 0.975082
0.930846 0.0149538 0.978622
0.930846 0.0149538 0.978622
0.0179294 0.109148 0.825238
0.0663005 0.0970474 0.899123
0.677089 0.0275578 0.97789
0.930846 0.0149538 0.978622
0.930846 0.0149538 0.978622
0.017731 0.565209 0.984421
0.0177462 0.53933 0.982437
0.35256 0.373526 0.983597
0.95198 0.0432288 0.986908
0.934676 0.016434 0.981338
0.0197299 0.993439 0.993439
0.0197299 0.993439 0.993439
0.0190127 0.982879 0.993439
0.943206 0.943267 0.993439
0.993423 0.90721 0.993439
0.0197299 0.993439 0.993439
0.0197299 0.993439 0.993439
0.0197299 0.993439 0.993439
0.803708 0.993439 0.993439
0.993439 0.993439 0.993439
