bundles/resolve-cinematic-luts/Phantom Luts/Canon Alexa LUT/C-Log 2/Tungsten Canon CL2.cube
TITLE "Generated by Resolve"
LUT_3D_SIZE 33
0.00373846 0.00416571 0.0107424
0.00373846 0.00395209 0.0103761
0.00563058 0.00363165 0.00994888
0.0135653 0.00411994 0.0117189
0.0271916 0.00550851 0.0148318
0.0488899 0.00672923 0.0186618
0.078996 0.00767529 0.0234073
0.113619 0.00852979 0.0288396
0.155581 0.00935378 0.0357519
0.205219 0.00994888 0.0447242
0.262699 0.0110323 0.0573281
0.325811 0.0123293 0.0738231
0.391028 0.0139315 0.0937057
0.455589 0.0158846 0.115908
0.521202 0.0188449 0.140459
0.586206 0.023682 0.169818
0.645075 0.0322576 0.202609
0.695705 0.0459144 0.238483
0.730922 0.0603647 0.273686
0.745632 0.0669871 0.296605
0.746807 0.067155 0.305486
0.747768 0.0672618 0.31371
0.748531 0.0673838 0.320745
0.748943 0.0673533 0.326635
0.749172 0.0672618 0.331533
0.749462 0.0673075 0.335607
0.74966 0.0673381 0.338659
0.749828 0.0673686 0.341329
0.750011 0.0674144 0.343557
0.750301 0.0675669 0.345342
0.750622 0.0677348 0.347158
0.751125 0.0680247 0.349264
0.751644 0.0683299 0.351141
0.00462348 0.00735485 0.0120089
0.00460822 0.00743114 0.0121462
0.00485237 0.00650034 0.0108644
0.0107576 0.00621042 0.0109102
0.0228275 0.00590524 0.012604
0.0416114 0.00660716 0.0159457
0.0706493 0.00755322 0.0202029
0.106279 0.00877394 0.0256199
0.148882 0.00955215 0.031632
0.199268 0.00970474 0.0393378
0.257633 0.0105745 0.0509651
0.322148 0.0118563 0.0663005
0.388174 0.0134432 0.0859846
0.454078 0.0154421 0.108904
0.519646 0.0183413 0.133471
0.584573 0.02327 0.16289
0.64361 0.0318761 0.196139
0.69427 0.0456092 0.23267
0.729961 0.0601816 0.268696
0.745007 0.0669261 0.292424
0.746288 0.0670634 0.301534
0.747311 0.067216 0.309697
0.748135 0.0673075 0.316884
0.74873 0.0673991 0.323049
0.749004 0.0673228 0.327871
0.749203 0.067277 0.331868
0.749432 0.0673075 0.335195
0.74963 0.0673228 0.337987
0.749813 0.0674144 0.339803
0.750088 0.0675212 0.341924
0.750408 0.067689 0.343832
0.750927 0.0679942 0.345708
0.751461 0.0683146 0.347555
0.00630198 0.0149996 0.0155795
0.0062562 0.015198 0.0159152
0.00646983 0.0139773 0.0134585
0.0111543 0.0125582 0.0124361
0.0201419 0.0124056 0.0130465
0.0390478 0.00883497 0.0138552
0.0675517 0.00814832 0.0178988
0.100175 0.00901808 0.0229801
0.1402 0.00955215 0.0284428
0.190677 0.00984207 0.0347601
0.249271 0.0113375 0.0456397
0.315206 0.011902 0.0589151
0.383627 0.0128328 0.0776226
0.45066 0.0149538 0.100572
0.516609 0.0178378 0.125795
0.582101 0.0227054 0.155184
0.641718 0.0316014 0.189075
0.692378 0.0451514 0.226154
0.728603 0.0598611 0.263127
0.744305 0.0668193 0.288014
0.745708 0.0670024 0.297185
0.746807 0.067155 0.30544
0.747677 0.0672618 0.312749
0.748348 0.0673533 0.319066
0.748806 0.0673686 0.324331
0.749035 0.0673228 0.328344
0.749187 0.067277 0.331609
0.749416 0.0673228 0.334279
0.749615 0.0673686 0.336614
0.749889 0.0674907 0.338613
0.75024 0.067689 0.340154
0.750759 0.0679789 0.342199
0.751293 0.0682841 0.34403
0.00869764 0.0271611 0.0197147
0.00863661 0.0273747 0.0200504
0.00857557 0.0260624 0.0167849
0.0111391 0.0235447 0.0147097
0.0214694 0.0222934 0.0155032
0.0375982 0.0239261 0.016495
0.0652934 0.016144 0.0172732
0.100206 0.0120241 0.0192264
0.138888 0.0103609 0.024918
0.18468 0.010605 0.0309911
0.239918 0.0115816 0.0401007
0.306477 0.0122988 0.0514839
0.375265 0.0138705 0.0689708
0.443519 0.0144503 0.0898756
0.511833 0.0174105 0.116152
0.578332 0.0221256 0.145373
0.639063 0.0310369 0.180056
0.689906 0.0446021 0.217914
0.726848 0.0595712 0.255848
0.743404 0.0667277 0.282261
0.744884 0.0669108 0.291554
0.746105 0.0670481 0.30016
0.747066 0.0671702 0.307668
0.747829 0.067277 0.314046
0.748379 0.0673533 0.319356
0.748775 0.0673838 0.323827
0.748974 0.0673533 0.32694
0.749126 0.0673075 0.329824
0.74931 0.0673381 0.331975
0.74963 0.0674754 0.333898
0.749966 0.067628 0.335821
0.75053 0.0679332 0.337896
0.751064 0.0682536 0.339498
0.0110933 0.0462348 0.0240024
0.011017 0.0465095 0.0243839
0.0108186 0.0453346 0.0208896
0.0131075 0.0427253 0.0179446
0.0196841 0.0396735 0.0178378
0.0394141 0.0380102 0.0194095
0.0644694 0.0398718 0.019379
0.0978103 0.0296941 0.0208286
0.139834 0.0178683 0.0215915
0.186709 0.013962 0.0267338
0.23856 0.0117952 0.0345006
0.300023 0.0123293 0.0450599
0.365652 0.0143282 0.0597086
0.433051 0.0147707 0.0780194
0.502083 0.0167544 0.103548
0.571832 0.0214237 0.133394
0.633997 0.0300755 0.16791
0.686046 0.0437781 0.206668
0.724453 0.0591745 0.246403
0.742199 0.0666514 0.274784
0.743847 0.0668345 0.284504
0.74519 0.0669718 0.29337
0.746258 0.0670939 0.301015
0.747082 0.0672007 0.307561
0.747723 0.0672923 0.312901
0.748241 0.0673533 0.317525
0.748623 0.0674296 0.321004
0.748882 0.0674449 0.324071
0.749065 0.0674601 0.326101
0.749325 0.0675364 0.328115
0.74963 0.0676585 0.329961
0.750164 0.0679332 0.331792
0.750698 0.0682383 0.333425
0.0130007 0.0735485 0.0289616
0.0129091 0.0738994 0.0293889
0.0124361 0.0724498 0.0248569
0.0135348 0.0703746 0.020264
0.0194858 0.0659648 0.0203403
0.0328985 0.0640574 0.0208743
0.0675975 0.0615244 0.0231327
0.0984817 0.0625467 0.0213931
0.140108 0.0477607 0.0242466
0.187091 0.0296025 0.0240635
0.244999 0.0183719 0.0278782
0.304402 0.0149538 0.0391394
0.363455 0.0137331 0.0520943
0.427634 0.0147097 0.0671092
0.491676 0.0169985 0.08925
0.559518 0.0199588 0.117968
0.624521 0.0285496 0.1523
0.679088 0.0421302 0.191928
0.719951 0.0580606 0.233326
0.740459 0.0666667 0.264622
0.742412 0.0667887 0.275044
0.744015 0.0669566 0.284443
0.745235 0.0670939 0.292409
0.746227 0.067216 0.299214
0.746944 0.0673228 0.304646
0.747539 0.0673838 0.309483
0.747936 0.0674449 0.313161
0.748287 0.0674754 0.316136
0.748531 0.0675212 0.318364
0.748806 0.0675975 0.320348
0.749142 0.0677501 0.321981
0.749706 0.0680247 0.323919
0.750271 0.0683604 0.325414
0.0123751 0.104646 0.0321202
0.0122377 0.105226 0.0325933
0.0120699 0.103777 0.0275731
0.0119783 0.1019 0.0220188
0.0180667 0.098085 0.0192264
0.028336 0.0948348 0.0202335
0.053193 0.0931716 0.0208133
0.104326 0.0898451 0.0233616
0.140047 0.0896773 0.0210117
0.189487 0.0717174 0.0247501
0.24715 0.0438392 0.0263371
0.30959 0.0243076 0.0283055
0.377234 0.0177615 0.0424506
0.433326 0.0157168 0.0589456
0.489708 0.0162661 0.0778973
0.55024 0.0201419 0.10277
0.611063 0.026154 0.133089
0.668299 0.039353 0.172778
0.712642 0.0560922 0.215839
0.735912 0.0658122 0.247944
0.739712 0.0666667 0.260868
0.741787 0.0667887 0.271107
0.743313 0.0669413 0.279759
0.744549 0.0670481 0.28716
0.745449 0.067155 0.293156
0.746151 0.0672465 0.297978
0.746654 0.0672923 0.302083
0.747036 0.0673533 0.304875
0.747326 0.0673686 0.307454
0.7476 0.0674296 0.309331
0.74789 0.0675212 0.310903
0.748272 0.0677348 0.3122
0.748669 0.0679332 0.313313
0.010605 0.138033 0.0320745
0.0103914 0.138643 0.0327764
0.0102541 0.137362 0.0276493
0.0102846 0.135836 0.0225376
0.0117494 0.133104 0.0189822
0.0220188 0.129397 0.0184939
0.0402686 0.127581 0.018555
0.0809796 0.124575 0.0180056
0.145586 0.119951 0.0215915
0.189487 0.121752 0.0195926
0.248966 0.100725 0.0242618
0.32015 0.0563211 0.0298466
0.381811 0.0342412 0.031632
0.448875 0.0197147 0.0399939
0.508415 0.0195621 0.0666514
0.552789 0.0199283 0.0932326
0.604074 0.0260471 0.122332
0.654322 0.0359808 0.151522
0.701335 0.0528115 0.192523
0.727733 0.0638132 0.22501
0.732982 0.0651713 0.238758
0.737408 0.0662699 0.251926
0.740154 0.066743 0.262318
0.741802 0.0668345 0.270466
0.742977 0.0669566 0.277028
0.743862 0.0670481 0.282307
0.744549 0.0671244 0.286427
0.745068 0.067155 0.289845
0.745434 0.0672313 0.292042
0.745785 0.067277 0.294163
0.74609 0.0673686 0.295735
0.746517 0.0675669 0.296986
0.746899 0.0677806 0.297765
0.00724804 0.176883 0.0296788
0.00689708 0.177584 0.030457
0.00682078 0.176349 0.024918
0.00689708 0.174731 0.0197147
0.00695811 0.172808 0.0164645
0.0104677 0.169314 0.0168612
0.025864 0.166461 0.0160372
0.0544442 0.165194 0.0149538
0.117723 0.15964 0.012314
0.19408 0.154513 0.0194705
0.248325 0.161044 0.0153201
0.322988 0.130495 0.0240177
0.395087 0.076173 0.0324102
0.457862 0.0466926 0.0360723
0.51487 0.0291752 0.0406195
0.577203 0.0238499 0.0717174
0.618296 0.0284581 0.110155
0.649058 0.0354162 0.143603
0.689448 0.0490272 0.173587
0.716823 0.060853 0.200702
0.722728 0.0626841 0.212268
0.727565 0.0638743 0.223941
0.731914 0.0649729 0.235233
0.735485 0.0658885 0.245182
0.738338 0.0665904 0.25391
0.740001 0.0668803 0.260365
0.740902 0.066865 0.264927
0.741573 0.0669108 0.26833
0.742077 0.0669718 0.271031
0.742504 0.0670481 0.273075
0.742885 0.0671397 0.274662
0.743297 0.0673381 0.275685
0.743618 0.0675364 0.276036
0 0.219333 0.0224613
0 0.220142 0.02327
0 0.21912 0.01738
0 0.218051 0.0121462
0 0.216129 0.0101472
0.000488289 0.213092 0.0104829
0.00622568 0.2094 0.0109407
0.0287022 0.208499 0.00993362
0.0702525 0.207813 0.00831617
0.163363 0.200168 0.00611887
0.252049 0.195392 0.0162814
0.316167 0.206455 0.011841
0.401526 0.164385 0.0228122
0.471 0.112352 0.0344701
0.533165 0.0623331 0.0419776
0.580026 0.0442206 0.0486
0.622492 0.0328527 0.0739757
0.666407 0.0442359 0.128603
0.691264 0.0514382 0.165408
0.710277 0.0586404 0.190158
0.716731 0.061387 0.197223
0.717342 0.0614328 0.199176
0.719966 0.0620584 0.205356
0.72311 0.0628824 0.212512
0.726436 0.0637827 0.220386
0.728923 0.0642863 0.226795
0.73109 0.0648508 0.23241
0.732555 0.0652171 0.236439
0.733639 0.065507 0.239338
0.734462 0.0657359 0.241505
0.735042 0.0659342 0.242832
0.73547 0.0661631 0.243458
0.735759 0.0663462 0.243656
0 0.266499 0.0106813
0 0.267689 0.0114595
0 0.266911 0.00613413
0 0.265599 0.000350958
0 0.263905 0
0 0.261891 0
0 0.258259 0
0 0.255558 0
0.0311742 0.256367 0
0.090135 0.254292 0
0.219272 0.245518 0
0.321828 0.243595 0.0114595
0.391501 0.257633 0.00781262
0.475593 0.215763 0.0167849
0.547845 0.157137 0.0373693
0.60267 0.0902571 0.0505989
0.637018 0.0670634 0.0632334
0.661784 0.05449 0.0897841
0.698787 0.0609751 0.142443
0.720104 0.066865 0.183017
0.721157 0.0650797 0.196368
0.717006 0.0619669 0.195193
0.716838 0.061738 0.195865
0.71696 0.0616617 0.196612
0.71751 0.0617227 0.198245
0.71812 0.0618601 0.199786
0.718669 0.0619669 0.201144
0.719127 0.0620432 0.202319
0.719478 0.0621195 0.20322
0.720104 0.0622721 0.204761
0.720241 0.0623331 0.20502
0.72018 0.0623941 0.204669
0.719799 0.0623941 0.203494
0 0.316075 0
0 0.317052 0
0 0.316472 0
0 0.315847 0
0 0.314839 0
0 0.313832 0
0 0.312291 0
0 0.307897 0
0 0.305501 0
0.0366369 0.307668 0
0.118639 0.304021 0
0.286656 0.298619 0
0.402136 0.302296 0.00585946
0.469886 0.317433 0.00669871
0.543847 0.285145 0.011368
0.624704 0.213977 0.044007
0.667308 0.137301 0.0646372
0.687144 0.102831 0.0830701
0.697658 0.0805829 0.106035
0.717464 0.0730297 0.143679
0.733913 0.0761578 0.179507
0.73135 0.0731365 0.18529
0.729885 0.071046 0.192142
0.726879 0.0688945 0.195911
0.72224 0.0655833 0.197055
0.718059 0.0628214 0.195041
0.717494 0.0623178 0.19527
0.717494 0.0622873 0.195407
0.717479 0.0622721 0.195453
0.717479 0.0622568 0.195483
0.717479 0.0622721 0.195483
0.717617 0.0623484 0.195621
0.717876 0.0624857 0.195895
0 0.368109 0
0 0.369009 0
0 0.368978 0
0 0.368688 0
0 0.368719 0
0 0.3682 0
0 0.367483 0
0 0.363851 0
0 0.359289 0
0 0.356741 0
0.0507973 0.359686 0
0.162066 0.353628 0
0.366369 0.355993 0
0.482506 0.364874 0.0028687
0.54548 0.378531 0.0102541
0.612573 0.365637 0.0160678
0.694438 0.288151 0.0558328
0.732845 0.212772 0.0864881
0.735424 0.149706 0.106874
0.732631 0.115145 0.118044
0.727794 0.0899825 0.129717
0.725368 0.0817578 0.136431
0.728634 0.0794537 0.150011
0.731945 0.0786908 0.162707
0.733257 0.0776989 0.171267
0.732982 0.0764324 0.176135
0.731563 0.0746777 0.178195
0.731991 0.0744182 0.180865
0.732219 0.0742809 0.182315
0.732387 0.0742351 0.183124
0.73286 0.074464 0.183612
0.733745 0.0749981 0.18378
0.734493 0.0759289 0.182513
0 0.424613 0
0 0.42565 0
0 0.425971 0
0 0.426398 0
0 0.42649 0
0 0.42623 0
0 0.425971 0
0 0.424628 0
0 0.42005 0
0 0.415686 0
0.00650034 0.413413 0
0.07776 0.413672 0
0.224704 0.405982 0
0.440726 0.417807 0
0.560601 0.430808 0.007187
0.620829 0.443549 0.0220951
0.683833 0.449149 0.036759
0.754513 0.377264 0.0748608
0.79263 0.296483 0.115206
0.787869 0.216464 0.13257
0.777111 0.172641 0.137255
0.766537 0.152529 0.134737
0.757107 0.137926 0.131945
0.750149 0.126192 0.131518
0.743481 0.115999 0.130236
0.739895 0.107424 0.13341
0.736294 0.102113 0.132586
0.733288 0.0979934 0.131563
0.731243 0.095201 0.130663
0.729259 0.09308 0.128878
0.727321 0.0916304 0.12607
0.726436 0.0919356 0.122881
0.731868 0.0988785 0.125338
0 0.483299 0
0 0.484382 0
0 0.484993 0
0 0.48513 0
0 0.485084 0
0 0.484916 0
0 0.48484 0
0 0.484825 0
0 0.482673 0
0 0.478355 0
0 0.474189 0
0.0373083 0.474205 0
0.124254 0.471824 0
0.305562 0.465873 0
0.516732 0.484138 0
0.637598 0.499138 0.0248875
0.695155 0.511833 0.0488136
0.754864 0.52311 0.0771038
0.807416 0.471412 0.106645
0.845838 0.399252 0.144503
0.844251 0.321279 0.157122
0.826368 0.263371 0.154986
0.81593 0.24094 0.151614
0.808911 0.226551 0.149432
0.803235 0.215595 0.147555
0.798657 0.207019 0.145983
0.79527 0.200626 0.14493
0.792996 0.196338 0.144244
0.791867 0.194263 0.143847
0.791699 0.193881 0.143801
0.793622 0.19736 0.144381
0.799054 0.207324 0.146288
0.806485 0.221134 0.149081
0 0.541207 0
0 0.542657 0.00155642
0 0.542718 0
0 0.542748 0
0 0.542596 0
0 0.542214 0
0 0.542138 0
0 0.542062 0
0 0.541573 0
0 0.537926 0
0 0.535256 0
0.00131228 0.532998 0
0.0836347 0.537484 0
0.185 0.534615 0
0.390433 0.531853 0
0.590799 0.552087 0.00421149
0.709667 0.568795 0.0611887
0.766217 0.58204 0.0950637
0.820203 0.596338 0.130495
0.852323 0.573007 0.147555
0.88275 0.506752 0.169268
0.89099 0.459632 0.179965
0.886748 0.439887 0.177798
0.882795 0.425406 0.175616
0.879011 0.41239 0.173632
0.875959 0.402243 0.172107
0.873564 0.394156 0.170962
0.871809 0.388663 0.170123
0.871015 0.386358 0.169711
0.871412 0.388052 0.169711
0.872694 0.392309 0.170214
0.874968 0.400839 0.171038
0.87805 0.413611 0.172122
0 0.597742 0.0254063
0 0.598947 0.027985
0 0.599115 0.0239872
0 0.5991 0.0203098
0 0.59884 0.0155184
0 0.598749 0.0099031
0 0.598154 0.00373846
0 0.598016 0.00263981
0 0.597772 0.0024567
0 0.596445 0.00155642
0 0.592645 0
0 0.592615 0
0.0551156 0.594797 0
0.14464 0.601297 0
0.259861 0.599741 0
0.478141 0.599207 0
0.663767 0.621729 0.0476081
0.77882 0.641123 0.115785
0.833127 0.654688 0.153292
0.875334 0.668177 0.183932
0.899962 0.664851 0.19855
0.903716 0.631739 0.194354
0.904158 0.610086 0.192248
0.903014 0.597772 0.190158
0.902159 0.587182 0.188602
0.901549 0.5794 0.187518
0.901152 0.573953 0.186831
0.900969 0.571359 0.186526
0.900938 0.571847 0.186496
0.900755 0.573449 0.186358
0.900984 0.578286 0.186847
0.901335 0.586526 0.187655
0.902403 0.598627 0.189639
0.0180819 0.651789 0.0606088
0.0181125 0.653056 0.0633097
0.0200656 0.653147 0.0599069
0.021912 0.653254 0.0568246
0.024155 0.6533 0.0529488
0.0264439 0.652827 0.0480812
0.0290379 0.652293 0.0427558
0.0295567 0.652216 0.0417334
0.029572 0.652232 0.0417487
0.0293736 0.651972 0.0415351
0.0278172 0.649943 0.0399176
0.0258335 0.646998 0.0374762
0.0494545 0.649561 0.0254826
0.123217 0.656214 0
0.220874 0.666255 0
0.34789 0.664439 0
0.570489 0.667277 0.0244755
0.735332 0.692943 0.10753
0.842557 0.714305 0.176211
0.890929 0.727291 0.210529
0.920439 0.734432 0.231525
0.940658 0.739345 0.245777
0.945525 0.737881 0.248371
0.943816 0.73373 0.246052
0.941543 0.727901 0.242863
0.938949 0.721782 0.239338
0.937484 0.71809 0.237308
0.936202 0.715053 0.235584
0.935744 0.713863 0.234928
0.935775 0.713924 0.234958
0.936584 0.715602 0.235981
0.938247 0.719387 0.238178
0.940673 0.725155 0.241443
0.0569772 0.697078 0.0905623
0.056733 0.697978 0.0929732
0.0584726 0.697948 0.0897993
0.0602426 0.698116 0.0870527
0.0619974 0.697963 0.0837262
0.0640421 0.697719 0.0797436
0.0653544 0.697536 0.0771496
0.0655222 0.697734 0.0773175
0.0658427 0.698116 0.0776379
0.0658274 0.698085 0.0776074
0.0653697 0.697536 0.0771496
0.0627909 0.694209 0.0745403
0.0665446 0.693355 0.0709087
0.109758 0.698711 0.0523079
0.203952 0.71017 0.0281682
0.314168 0.721462 0.0200504
0.456046 0.720882 0.0250553
0.669093 0.730388 0.0943465
0.807202 0.758053 0.171801
0.893477 0.777554 0.228138
0.935103 0.788357 0.257404
0.951278 0.791623 0.268635
0.959899 0.791165 0.27396
0.960464 0.788571 0.273472
0.960159 0.786358 0.272633
0.959899 0.784955 0.272023
0.959503 0.783658 0.271321
0.959381 0.782971 0.271031
0.959426 0.783001 0.271061
0.959609 0.783673 0.271397
0.960113 0.785214 0.272236
0.960739 0.788006 0.273503
0.961532 0.791394 0.275074
0.0842603 0.728893 0.112337
0.08365 0.729534 0.114794
0.0853132 0.729366 0.111391
0.0867628 0.729198 0.1084
0.0881819 0.729 0.105486
0.0897993 0.728634 0.101884
0.0901045 0.728786 0.101671
0.0902419 0.729 0.101823
0.0903944 0.729198 0.101961
0.0903639 0.729168 0.101946
0.0902571 0.729015 0.101823
0.0893263 0.727794 0.100893
0.0873426 0.725277 0.0988785
0.11223 0.729442 0.0893416
0.190021 0.738781 0.0643168
0.304906 0.752194 0.049836
0.420111 0.760983 0.0524758
0.576379 0.765408 0.0803998
0.767468 0.784772 0.167407
0.868116 0.809537 0.228275
0.9299 0.823514 0.267521
0.959533 0.831312 0.287312
0.96733 0.832959 0.29279
0.969345 0.831754 0.293584
0.969055 0.830411 0.292943
0.96878 0.82919 0.292348
0.968566 0.82829 0.291905
0.968414 0.827771 0.29163
0.968353 0.827695 0.291554
0.96849 0.828428 0.291905
0.968643 0.829496 0.292363
0.968917 0.831266 0.293156
0.969268 0.833692 0.294224
0.0948043 0.740749 0.119463
0.0941482 0.741146 0.121538
0.0953689 0.74078 0.118441
0.0963912 0.740444 0.115846
0.097673 0.740001 0.112551
0.0985885 0.73962 0.110063
0.0985885 0.739635 0.110094
0.0985885 0.739635 0.110094
0.0985885 0.739635 0.110094
0.0985885 0.739635 0.110094
0.0985885 0.739635 0.110094
0.0985885 0.739635 0.110094
0.0981155 0.739025 0.109621
0.111208 0.741024 0.104417
0.17557 0.750393 0.0835889
0.291142 0.763516 0.0633707
0.410452 0.775921 0.0649271
0.534463 0.785687 0.0848096
0.698878 0.802701 0.146456
0.847517 0.82649 0.23125
0.913481 0.844877 0.274464
0.955215 0.854734 0.302632
0.971588 0.859266 0.313176
0.973617 0.859648 0.314839
0.97348 0.858808 0.31397
0.973358 0.858106 0.313237
0.97322 0.857603 0.312627
0.973098 0.857328 0.31223
0.973129 0.85742 0.312306
0.97322 0.857694 0.312566
0.973327 0.858305 0.313085
0.973465 0.859297 0.314046
0.973693 0.860807 0.31548
0.094255 0.740764 0.120546
0.09308 0.74136 0.124071
0.0945754 0.740902 0.120241
0.0955673 0.740627 0.117769
0.096788 0.740215 0.114611
0.0977646 0.739834 0.112016
0.0983597 0.739605 0.110445
0.0985885 0.739467 0.109758
0.0985885 0.739467 0.109758
0.0985885 0.739467 0.109758
0.0985885 0.739467 0.109758
0.0985885 0.739467 0.109758
0.0985885 0.739467 0.109758
0.105699 0.740841 0.107301
0.162799 0.749676 0.0882429
0.274876 0.763317 0.0663462
0.391943 0.775479 0.0645762
0.501335 0.78674 0.0802014
0.652766 0.804562 0.127855
0.819837 0.833539 0.216403
0.91371 0.855695 0.28275
0.94786 0.868025 0.316365
0.972396 0.875914 0.341192
0.979568 0.878706 0.349874
0.979446 0.878386 0.349218
0.979232 0.877913 0.348089
0.97908 0.877562 0.347265
0.979049 0.877607 0.347204
0.979019 0.877714 0.347189
0.979065 0.878111 0.347723
0.979248 0.878706 0.348791
0.979538 0.879576 0.35053
0.979995 0.880949 0.353323
0.0893263 0.742962 0.135027
0.0876936 0.743664 0.13994
0.0897383 0.743053 0.134386
0.0911421 0.742565 0.13048
0.0927443 0.741955 0.125994
0.0945907 0.741192 0.120806
0.0968338 0.740246 0.114595
0.098146 0.739681 0.11104
0.0985885 0.739467 0.109758
0.0985885 0.739467 0.109758
0.0985885 0.739467 0.109758
0.0985885 0.739467 0.109758
0.0985885 0.739467 0.109758
0.0996262 0.739712 0.109483
0.14757 0.747555 0.0929427
0.255909 0.76112 0.0684672
0.3635 0.772717 0.0633402
0.480827 0.78471 0.0762036
0.626337 0.801358 0.117144
0.797238 0.830396 0.199817
0.912184 0.858686 0.281575
0.952422 0.873198 0.325704
0.970092 0.882399 0.355352
0.981689 0.887694 0.375982
0.983032 0.889097 0.383215
0.983032 0.88896 0.382773
0.983047 0.888869 0.382528
0.983047 0.888884 0.382574
0.983047 0.889006 0.383108
0.983063 0.88925 0.384146
0.983063 0.88957 0.385748
0.983063 0.890013 0.388556
0.983032 0.890547 0.39237
0.0837262 0.745525 0.152758
0.0823377 0.746258 0.157717
0.0840314 0.74551 0.152026
0.0857862 0.744762 0.146426
0.0879683 0.743999 0.140108
0.0905165 0.742992 0.132692
0.0934157 0.741726 0.124193
0.0968032 0.740261 0.114702
0.0985733 0.739513 0.109911
0.0985885 0.739467 0.109758
0.0985885 0.739467 0.109758
0.0985885 0.739467 0.109758
0.0985885 0.739467 0.109758
0.0986191 0.739498 0.109789
0.132097 0.745068 0.0977493
0.235706 0.758892 0.0716106
0.347417 0.770993 0.062974
0.465156 0.783108 0.0734417
0.608042 0.799161 0.110674
0.776272 0.825971 0.18735
0.89836 0.85507 0.270985
0.94966 0.87248 0.323445
0.968536 0.882048 0.353597
0.980392 0.888365 0.37937
0.982986 0.89073 0.39234
0.98294 0.890913 0.393851
0.98294 0.890913 0.393851
0.98294 0.890944 0.393881
0.982925 0.89099 0.393942
0.98291 0.891066 0.394018
0.982895 0.891112 0.39408
0.982879 0.891127 0.39411
0.982895 0.891112 0.39408
0.0789654 0.748394 0.171176
0.0777905 0.748974 0.175662
0.0794232 0.748074 0.169223
0.0810407 0.747189 0.163043
0.0830854 0.746197 0.155825
0.0859388 0.744823 0.146212
0.0897993 0.743343 0.13492
0.093904 0.741512 0.122805
0.0976883 0.739895 0.112322
0.0985885 0.739467 0.109758
0.0985885 0.739467 0.109758
0.0985885 0.739467 0.109758
0.0985885 0.739467 0.109758
0.0985885 0.739467 0.109758
0.121324 0.743435 0.101579
0.219593 0.757076 0.0746319
0.33576 0.76994 0.0631723
0.447517 0.781384 0.0708019
0.59057 0.796994 0.104738
0.755398 0.821912 0.175601
0.885649 0.851484 0.260365
0.945205 0.870573 0.3178
0.966293 0.880476 0.34844
0.979583 0.887449 0.374899
0.983001 0.890578 0.391272
0.98294 0.890929 0.393866
0.98294 0.890929 0.393866
0.982925 0.890944 0.393896
0.982925 0.891005 0.393957
0.982895 0.891066 0.394034
0.982879 0.891127 0.394095
0.982879 0.891142 0.394125
0.982879 0.891142 0.394125
0.0753033 0.750591 0.186664
0.0742504 0.751186 0.191257
0.0759136 0.750134 0.183703
0.0774548 0.749203 0.177127
0.0793774 0.74818 0.169604
0.0820478 0.746777 0.15964
0.0860304 0.744808 0.145968
0.0912032 0.742702 0.130663
0.0961776 0.740536 0.116442
0.0986038 0.739483 0.109773
0.0985885 0.739467 0.109758
0.0985885 0.739467 0.109758
0.0985885 0.739467 0.109758
0.0985885 0.739467 0.109758
0.115221 0.742382 0.103685
0.207675 0.75555 0.0769665
0.329778 0.769299 0.0632486
0.432837 0.779873 0.0688182
0.575845 0.795239 0.100038
0.738567 0.818921 0.166949
0.875273 0.848814 0.252567
0.941543 0.869307 0.313436
0.964355 0.879393 0.344945
0.977661 0.886473 0.370825
0.982712 0.890272 0.389456
0.98294 0.890913 0.393744
0.98294 0.890929 0.393866
0.982925 0.890944 0.393896
0.982925 0.891005 0.393957
0.982895 0.891066 0.394034
0.982879 0.891127 0.394095
0.982879 0.891142 0.394125
0.982879 0.891142 0.394125
0.0725109 0.752422 0.199893
0.0716869 0.752987 0.204074
0.0731823 0.751919 0.196445
0.0746929 0.750942 0.189288
0.0765545 0.749813 0.18114
0.0791485 0.748348 0.170581
0.0829633 0.746303 0.156359
0.0885634 0.743847 0.138521
0.0943618 0.741329 0.121523
0.0981308 0.739696 0.111055
0.0985885 0.739467 0.109758
0.0985885 0.739467 0.109758
0.0985885 0.739467 0.109758
0.0985885 0.739467 0.109758
0.110994 0.741634 0.105165
0.200961 0.754772 0.0785077
0.325246 0.768795 0.0633097
0.421958 0.778714 0.0674907
0.565606 0.794003 0.0968795
0.72697 0.817014 0.161273
0.868788 0.847318 0.248127
0.938521 0.868345 0.310155
0.962615 0.878569 0.342153
0.976333 0.885847 0.368444
0.9823 0.88986 0.38706
0.982971 0.890867 0.393332
0.98294 0.890929 0.393866
0.982925 0.890944 0.393896
0.982925 0.891005 0.393957
0.982895 0.891066 0.394034
0.982879 0.891127 0.394095
0.982879 0.891142 0.394125
0.982895 0.891096 0.394064
0.0701915 0.753704 0.210834
0.0694896 0.754025 0.214145
0.0710155 0.753017 0.20621
0.0724956 0.752026 0.198795
0.074342 0.75079 0.189914
0.0770123 0.749172 0.178225
0.0806744 0.747082 0.163653
0.0862898 0.744259 0.144183
0.092958 0.741512 0.124636
