bundles/resolve-cinematic-luts/Phantom Luts/Canon Alexa LUT/C-Log 2/Tungsten Canon CL2-Legacy.cube
TITLE "Generated by Resolve"
LUT_3D_SIZE 33
0.0217594 0.0222171 0.0287022
0.0217746 0.0220035 0.0282444
0.0230564 0.0216373 0.0276493
0.0276951 0.0218051 0.0284886
0.0362402 0.0223392 0.030045
0.0504768 0.0229191 0.0320439
0.0700389 0.0235904 0.0348821
0.0947585 0.024094 0.0380865
0.126467 0.0247196 0.0424964
0.167544 0.0254063 0.0488594
0.216556 0.0261082 0.0574655
0.279118 0.0276036 0.0687419
0.34725 0.0293736 0.0831769
0.416068 0.0316014 0.100008
0.486427 0.0343481 0.119783
0.55761 0.0379797 0.142763
0.622934 0.0436103 0.170947
0.681559 0.0541238 0.203845
0.726329 0.0693828 0.237751
0.745007 0.0771954 0.26041
0.746838 0.0773022 0.269398
0.748394 0.0774548 0.277562
0.749584 0.0775464 0.284733
0.750561 0.0776837 0.290944
0.751369 0.0778058 0.295903
0.751965 0.0778973 0.300221
0.752438 0.0780041 0.303548
0.752789 0.0780804 0.306416
0.753109 0.0782025 0.308446
0.753491 0.0783398 0.310704
0.753872 0.0785077 0.312566
0.754452 0.0787976 0.314656
0.755032 0.0791333 0.316304
0.0222477 0.0239719 0.0292668
0.0222324 0.0240482 0.0294194
0.0224918 0.0234836 0.0284428
0.0261845 0.0230564 0.0280308
0.033402 0.0226291 0.0288396
0.0453498 0.022858 0.0305943
0.0643473 0.0236515 0.0332341
0.0893568 0.0243229 0.0362554
0.121324 0.0248417 0.0401007
0.162478 0.0252842 0.0454261
0.21207 0.0261082 0.0534218
0.275273 0.0272984 0.0640879
0.344213 0.029099 0.0782177
0.41387 0.0312657 0.0946365
0.484596 0.0339971 0.114839
0.555688 0.0376898 0.137621
0.621424 0.0433356 0.165621
0.679988 0.0539254 0.19881
0.725048 0.0691234 0.233265
0.744167 0.0772106 0.256306
0.745968 0.0772259 0.265171
0.747631 0.0773785 0.273564
0.748928 0.0774853 0.280797
0.74995 0.0775616 0.287114
0.750759 0.0776989 0.29218
0.751415 0.077821 0.296284
0.751919 0.0778821 0.299779
0.752316 0.0780041 0.302373
0.752667 0.0780804 0.304799
0.753079 0.078233 0.306935
0.753506 0.0784619 0.308568
0.754116 0.0787671 0.31075
0.754711 0.0790723 0.312657
0.0232853 0.0284276 0.0313268
0.0232548 0.0286259 0.031693
0.0234531 0.027985 0.0302586
0.026276 0.0270848 0.0293584
0.0315099 0.0265354 0.0290684
0.0434272 0.0243839 0.0295415
0.0621195 0.0240177 0.0320134
0.0848402 0.0246586 0.0351568
0.114778 0.024918 0.0382239
0.154955 0.0252232 0.0425269
0.204562 0.0264897 0.0496986
0.26804 0.0271611 0.0595102
0.339315 0.0287327 0.0725567
0.409812 0.030869 0.0889601
0.481209 0.0337072 0.109194
0.552987 0.0373846 0.13193
0.618997 0.043061 0.160052
0.677897 0.0535286 0.19324
0.723445 0.0688487 0.228458
0.74316 0.0771191 0.252018
0.745129 0.0771954 0.261006
0.746822 0.0773022 0.269398
0.748226 0.0774548 0.276631
0.74931 0.0775311 0.283024
0.750149 0.0776074 0.288396
0.750835 0.0776989 0.292668
0.751369 0.0778058 0.295979
0.751812 0.0778821 0.298848
0.752178 0.0779889 0.30106
0.752621 0.078172 0.30312
0.753063 0.0783551 0.305074
0.753689 0.0786603 0.307149
0.754299 0.078996 0.308797
0.0246586 0.0356909 0.0337224
0.0246128 0.0358892 0.0340887
0.0244755 0.035111 0.0321202
0.0259709 0.0335088 0.0307622
0.0322118 0.032639 0.0309606
0.0424811 0.0334783 0.0313726
0.0604562 0.0287633 0.0317998
0.0847791 0.0264897 0.0329595
0.113725 0.0255283 0.0365454
0.149447 0.0257725 0.0403601
0.19649 0.0265965 0.0463264
0.258915 0.0270848 0.054139
0.329427 0.0288396 0.0668956
0.401434 0.030457 0.0819715
0.475517 0.0332189 0.101381
0.549004 0.0369421 0.125048
0.616281 0.0427253 0.152758
0.675013 0.0529488 0.185779
0.720989 0.0682841 0.222049
0.741833 0.0769818 0.246571
0.744015 0.0772106 0.255528
0.745678 0.0771801 0.263874
0.747234 0.0773327 0.271473
0.748455 0.0774548 0.277897
0.749355 0.0775311 0.283268
0.750057 0.0775921 0.287846
0.750607 0.0776837 0.291249
0.751095 0.0777447 0.294209
0.751492 0.0778668 0.296315
0.751965 0.0780194 0.298497
0.752422 0.0782025 0.300313
0.753033 0.0785382 0.30219
0.753658 0.0788586 0.304006
0.0263828 0.047837 0.0367132
0.0263371 0.0480964 0.0370184
0.0260929 0.0470588 0.0347448
0.0272221 0.045182 0.03299
0.0310521 0.0432898 0.0327764
0.0436408 0.0423743 0.0335393
0.0591592 0.043122 0.0331884
0.0823987 0.037232 0.0341344
0.114061 0.0300298 0.0348211
0.150683 0.0278782 0.0378882
0.195514 0.0267796 0.0432441
0.252979 0.0273136 0.0502022
0.318761 0.0290379 0.0610666
0.390082 0.0304875 0.0743114
0.464332 0.0328374 0.0927138
0.541238 0.0361944 0.116121
0.610697 0.0419623 0.143053
0.670588 0.0521401 0.17612
0.717769 0.0676585 0.213413
0.740001 0.0767529 0.23978
0.742351 0.0770581 0.248508
0.744381 0.0772412 0.25713
0.745861 0.0772106 0.264591
0.747204 0.077348 0.271183
0.748226 0.0774395 0.276646
0.749004 0.0774853 0.2813
0.749599 0.0775464 0.28481
0.750103 0.0776074 0.287953
0.75053 0.0777142 0.290242
0.751003 0.0778668 0.292348
0.751476 0.0780346 0.294255
0.752132 0.0783551 0.296117
0.752758 0.0786755 0.297734
0.0281987 0.0653391 0.039704
0.0281376 0.0656291 0.0401465
0.0278325 0.0646067 0.0377356
0.0283055 0.0631723 0.0352636
0.031632 0.0600748 0.0350958
0.0396277 0.0586557 0.035111
0.0618296 0.0572671 0.0364233
0.0820172 0.0579385 0.0352026
0.112428 0.0485847 0.0368048
0.149462 0.0375067 0.0368353
0.200122 0.0307622 0.0392309
0.256031 0.0287022 0.0467384
0.316197 0.0287785 0.0556802
0.384054 0.0302586 0.0675517
0.45272 0.0325017 0.0828717
0.527871 0.0354162 0.104158
0.60029 0.04065 0.131167
0.662913 0.0507362 0.164233
0.712596 0.0664836 0.202029
0.73753 0.076524 0.230976
0.740353 0.076936 0.240284
0.742519 0.0771954 0.248554
0.744396 0.0773938 0.256352
0.745693 0.077348 0.262882
0.746899 0.0774701 0.268666
0.747814 0.0775311 0.273426
0.748486 0.0776074 0.276982
0.748989 0.0776074 0.280079
0.749386 0.0776684 0.282322
0.749798 0.0777447 0.284245
0.75021 0.0778821 0.285924
0.750851 0.078172 0.2878
0.751492 0.0785077 0.289296
0.0292821 0.0868544 0.042771
0.0291905 0.0873274 0.0432441
0.0290074 0.0861677 0.0404364
0.0289616 0.0846723 0.0372473
0.0320745 0.0818341 0.0357214
0.0379492 0.0794842 0.0359655
0.0527962 0.0779583 0.0356909
0.086183 0.0758373 0.0375219
0.112001 0.0756237 0.0357671
0.150362 0.0646525 0.0378576
0.199573 0.046067 0.0386511
0.259861 0.0345617 0.0401617
0.329946 0.0310216 0.0500343
0.389532 0.0307774 0.0618601
0.450645 0.0321202 0.075349
0.516564 0.0351873 0.0931411
0.585748 0.0391852 0.11696
0.651362 0.0484627 0.148409
0.703395 0.0638285 0.186786
0.731899 0.0753033 0.216556
0.736507 0.0763561 0.227893
0.739498 0.0769055 0.236683
0.741604 0.0771649 0.244511
0.743297 0.0773327 0.25127
0.744686 0.0774701 0.257115
0.745586 0.0774243 0.261753
0.74638 0.0774548 0.265705
0.747036 0.0775311 0.268894
0.747509 0.0775769 0.271214
0.747921 0.0776226 0.273259
0.748287 0.0777295 0.274754
0.74876 0.0778973 0.276341
0.749187 0.0780957 0.277424
0.029099 0.111727 0.0440833
0.0288853 0.112291 0.0448005
0.0285649 0.111559 0.0423743
0.0282292 0.110384 0.0389868
0.0296941 0.1084 0.0357366
0.0355383 0.105501 0.0359808
0.0462654 0.10399 0.0364233
0.0720684 0.101762 0.0357519
0.115633 0.0982834 0.0381323
0.149355 0.099382 0.0355535
0.199634 0.0838026 0.0385138
0.266682 0.0543069 0.0414588
0.332021 0.0411688 0.0436408
0.405829 0.0332036 0.0504463
0.471138 0.0340887 0.0685893
0.520134 0.0350652 0.087068
0.577066 0.0391546 0.107713
0.636133 0.0458381 0.132219
0.691066 0.060441 0.167117
0.722545 0.0729534 0.196612
0.728801 0.0747234 0.208911
0.733684 0.0757916 0.220111
0.737118 0.0765698 0.228992
0.739467 0.076997 0.236011
0.741039 0.0772259 0.241657
0.742336 0.0773327 0.246738
0.743282 0.0774243 0.250523
0.74406 0.0775006 0.253758
0.744625 0.0775616 0.256016
0.745052 0.0775921 0.257877
0.745434 0.0776532 0.259327
0.745892 0.077821 0.26067
0.746288 0.0780346 0.261357
0.0263981 0.143343 0.0444343
0.0261387 0.143999 0.045182
0.0259098 0.143038 0.0423896
0.025803 0.141817 0.0392767
0.0260777 0.140215 0.0352789
0.0303655 0.137072 0.034165
0.0396887 0.13434 0.0345464
0.0563668 0.13312 0.0346838
0.0977493 0.12813 0.0335699
0.152575 0.123659 0.0364233
0.197131 0.128985 0.0329137
0.266697 0.10573 0.0393225
0.341436 0.0677958 0.0445106
0.410483 0.049546 0.0476692
0.477043 0.0397498 0.051545
0.54992 0.0372931 0.0729534
0.596551 0.0412146 0.100359
0.629755 0.045716 0.125597
0.677943 0.0566567 0.151278
0.710628 0.0694743 0.176364
0.716823 0.0714275 0.185718
0.722377 0.0730144 0.195712
0.727459 0.0744335 0.205692
0.731624 0.0754559 0.214618
0.734783 0.0762341 0.22179
0.736919 0.0766308 0.227558
0.738262 0.0769055 0.231495
0.739193 0.0770275 0.234546
0.739864 0.0771344 0.236728
0.740414 0.0772259 0.238621
0.740856 0.0773327 0.24004
0.741344 0.0775464 0.241077
0.74165 0.0777447 0.241367
0.0242466 0.181338 0.0415961
0.0239109 0.182116 0.0423438
0.0237583 0.181323 0.0395819
0.0238346 0.180392 0.0361791
0.0240635 0.178531 0.0333715
0.0246433 0.175784 0.0334173
0.0296025 0.172198 0.0334783
0.0429541 0.170794 0.0331426
0.0685588 0.169268 0.0310979
0.132876 0.161959 0.0285801
0.201572 0.157519 0.0367132
0.256931 0.166613 0.0310979
0.345068 0.131395 0.0404364
0.417014 0.0922103 0.0475929
0.49012 0.0608988 0.0527962
0.549081 0.0491493 0.0575875
0.608087 0.0433814 0.0759136
0.654429 0.0527352 0.115557
0.681086 0.0594492 0.145602
0.702708 0.0665293 0.166705
0.710674 0.0699931 0.173617
0.711284 0.0700847 0.175067
0.714107 0.0708324 0.180331
0.717235 0.0715953 0.185962
0.720867 0.0726329 0.19266
0.72398 0.0735637 0.198428
0.726543 0.0742962 0.20322
0.728283 0.0747539 0.206729
0.729503 0.0751049 0.209262
0.73048 0.0754253 0.211185
0.731106 0.0755932 0.212421
0.731548 0.0758068 0.213016
0.731853 0.0760357 0.213169
0.0162814 0.225223 0.0348821
0.0157931 0.226352 0.035584
0.0157168 0.225467 0.032578
0.0158694 0.224201 0.0291905
0.0161593 0.222934 0.0263218
0.0166934 0.220768 0.0267185
0.0178988 0.216999 0.0271763
0.0253147 0.21416 0.0273136
0.0455329 0.214343 0.0263828
0.0843671 0.211704 0.0251164
0.17937 0.203037 0.0243229
0.262745 0.200137 0.033753
0.330648 0.212573 0.027512
0.422507 0.174136 0.0387884
0.496391 0.126192 0.0510414
0.56321 0.0785077 0.0590829
0.61355 0.0640726 0.0673838
0.653239 0.0593576 0.0890974
0.69543 0.0705119 0.131945
0.716152 0.076524 0.163928
0.715496 0.0738231 0.17319
0.711009 0.0705119 0.171984
0.710811 0.0702831 0.172519
0.710857 0.070222 0.173007
0.711437 0.0703288 0.174304
0.712062 0.0704814 0.175509
0.712642 0.0706035 0.176791
0.7131 0.0706951 0.177752
0.713512 0.0708019 0.178576
0.714199 0.0710307 0.17966
0.714366 0.071107 0.17995
0.714305 0.0711376 0.179858
0.713893 0.0710918 0.179126
0.00192264 0.277119 0.021973
0.00138857 0.278096 0.0225681
0.00132753 0.277729 0.019852
0.00135805 0.277211 0.0162661
0.00155642 0.276463 0.0125124
0.0019379 0.27541 0.0127413
0.00231937 0.273548 0.0131075
0.00531014 0.268879 0.0143282
0.0178683 0.266148 0.014435
0.0460975 0.267582 0.0130465
0.103609 0.262165 0.0124971
0.236789 0.254795 0.0147097
0.343893 0.256748 0.0284581
0.410651 0.271977 0.0237583
0.49778 0.234913 0.0331884
0.57911 0.173114 0.0563363
0.630915 0.112184 0.0684825
0.666575 0.0893416 0.0822156
0.690913 0.0815137 0.104875
0.720745 0.085771 0.139254
0.73698 0.0899519 0.166567
0.732494 0.085832 0.169482
0.72929 0.0830549 0.173404
0.724056 0.0795453 0.174929
0.717662 0.0754559 0.17435
0.712367 0.0715648 0.172305
0.711635 0.0709544 0.172366
0.71162 0.0709087 0.172488
0.71162 0.0709087 0.172519
0.71162 0.0708934 0.172564
0.711635 0.0709087 0.17258
0.711788 0.0710002 0.172732
0.712077 0.0711681 0.173007
0 0.331136 0.00677501
0 0.332143 0.00758373
0 0.332052 0.00422675
0 0.331991 0.00112917
0 0.331777 0
0 0.331182 0
0 0.330602 0
0 0.32694 0
0 0.32253 0
0.0112764 0.320516 0
0.0502174 0.322957 0
0.13434 0.315755 0
0.314153 0.314549 0.00419623
0.429404 0.32195 0.0223545
0.491524 0.335897 0.0229648
0.568994 0.316777 0.0264439
0.655741 0.237934 0.0627909
0.698634 0.171588 0.0836957
0.714412 0.126864 0.103182
0.725551 0.110506 0.117784
0.731228 0.098558 0.131182
0.731411 0.0944228 0.136751
0.734615 0.0934157 0.146426
0.736706 0.092668 0.154681
0.737301 0.0916609 0.161028
0.736248 0.0902419 0.164248
0.734371 0.0882734 0.165377
0.73431 0.0878004 0.166934
0.734295 0.0874952 0.167941
0.734462 0.0874495 0.168566
0.735058 0.0877699 0.168948
0.736324 0.0885023 0.169436
0.737423 0.0895094 0.168948
0 0.386618 0
0 0.387655 0
0 0.387762 0
0 0.388083 0
0 0.388052 0
0 0.387686 0
0 0.387427 0
0 0.386175 0
0 0.381781 0
0 0.378042 0
0.0106355 0.376989 0
0.0628672 0.378256 0
0.181491 0.369879 0
0.390631 0.378195 0
0.511788 0.389319 0.0191653
0.572763 0.402579 0.0273899
0.642542 0.406256 0.0353399
0.722881 0.327031 0.072694
0.764126 0.247166 0.1084
0.76611 0.182437 0.127825
0.764035 0.153323 0.135149
0.75668 0.139315 0.133425
0.749783 0.129335 0.131334
0.744549 0.121355 0.130556
0.740627 0.115618 0.129732
0.738369 0.109194 0.133104
0.736278 0.105913 0.132906
0.734356 0.103365 0.132235
0.732891 0.101457 0.131518
0.731594 0.100069 0.130404
0.730465 0.0992752 0.128527
0.729946 0.0996262 0.126329
0.734203 0.104829 0.128374
0 0.446235 0
0 0.447333 0
0 0.448081 0
0 0.44831 0
0 0.448417 0
0 0.448493 0
0 0.448142 0
0 0.448096 0
0 0.445624 0
0 0.44126 0
0 0.436439 0
0.0236973 0.436362 0
0.092256 0.434409 0
0.25156 0.428717 0
0.467308 0.444404 0
0.594293 0.459937 0.0258488
0.654536 0.473594 0.0429084
0.718517 0.48394 0.061799
0.786282 0.425711 0.0973831
0.829511 0.352621 0.13991
0.826871 0.277714 0.154162
0.808927 0.226017 0.152026
0.798611 0.206867 0.148425
0.792401 0.195483 0.146548
0.787076 0.186511 0.144594
0.783246 0.179934 0.143297
0.780423 0.175097 0.142397
0.77818 0.171633 0.141466
0.77734 0.170092 0.141222
0.77731 0.169848 0.141253
0.779339 0.173022 0.142031
0.784466 0.18175 0.143847
0.791424 0.193683 0.146395
0 0.508568 0
0 0.510094 0
0 0.510353 0
0 0.510658 0
0 0.510872 0
0 0.510826 0
0 0.510948 0
0 0.510796 0
0 0.510246 0
0 0.50605 0
0 0.503044 0
0 0.499062 0
0.0551003 0.502495 0
0.139223 0.497642 0
0.334905 0.493706 0
0.546395 0.514855 0
0.672923 0.532464 0.0484779
0.732143 0.545953 0.0764935
0.791058 0.561563 0.108751
0.839643 0.536675 0.136461
0.879622 0.467903 0.169528
0.886213 0.419226 0.181064
0.880308 0.398779 0.178454
0.874937 0.38349 0.175906
0.869596 0.368963 0.173358
0.865431 0.357565 0.171557
0.861967 0.348791 0.170001
0.85977 0.343069 0.169131
0.858701 0.340612 0.168597
0.859434 0.342672 0.16878
0.861021 0.347341 0.169223
0.864454 0.356649 0.170581
0.869383 0.370687 0.17261
0 0.569482 0.0108034
0 0.570779 0.0128481
0 0.570947 0.00958267
0 0.57116 0.00723278
0 0.571206 0.0039826
0 0.571496 0.000213626
0 0.571374 0
0 0.571191 0
0 0.570993 0
0 0.569528 0
0 0.565423 0
0 0.564935 0
0.0306249 0.56466 0
0.103059 0.569451 0
0.207111 0.565774 0
0.426917 0.564263 0
0.625544 0.588159 0.0293126
0.746944 0.607507 0.0930648
0.806912 0.622309 0.131823
0.857755 0.639796 0.168048
0.891524 0.639078 0.189578
0.904494 0.602792 0.192782
0.906416 0.579416 0.192325
0.905364 0.565484 0.190585
0.904723 0.55404 0.189593
0.90425 0.545785 0.188998
0.903899 0.540261 0.188617
0.903532 0.537316 0.188174
0.903487 0.537835 0.188083
0.90338 0.53962 0.18793
0.903471 0.544457 0.188022
0.903807 0.553155 0.188495
0.904585 0.56611 0.189746
0.0091249 0.631083 0.0435492
0.009308 0.632532 0.0459602
0.0106813 0.632685 0.0433661
0.0119326 0.633036 0.0416419
0.0136416 0.633463 0.0393225
0.0152132 0.633402 0.0363317
0.0171817 0.633387 0.0328374
0.018265 0.632975 0.0301366
0.0181125 0.633005 0.0305028
0.0178531 0.632654 0.0302129
0.0160678 0.630137 0.0283818
0.0147555 0.626398 0.0247349
0.0314794 0.627695 0.0163882
0.0877699 0.632059 0
0.170947 0.64123 0
0.293568 0.636851 0
0.525002 0.637491 0.00325017
0.700298 0.6636 0.0826276
0.819135 0.686351 0.155962
0.879072 0.702663 0.198627
0.914733 0.712917 0.224628
0.937911 0.72047 0.24155
0.942458 0.719387 0.244007
0.940276 0.714656 0.241169
0.937591 0.708507 0.237629
0.934829 0.702235 0.234012
0.933211 0.698405 0.231846
0.931624 0.695262 0.229633
0.931029 0.693812 0.22887
0.931121 0.693996 0.229007
0.932128 0.696025 0.230365
0.9337 0.699947 0.232547
0.936675 0.706584 0.236484
0.056199 0.689784 0.0840467
0.0563363 0.690867 0.0861524
0.0576486 0.691112 0.0843977
0.059144 0.69163 0.0829633
0.0605173 0.691875 0.0811627
0.0619516 0.691997 0.079057
0.0635538 0.691737 0.0758984
0.0639963 0.692042 0.0758679
0.0643778 0.692485 0.0762341
0.0643626 0.69247 0.0762188
0.0637369 0.691691 0.0755627
0.0601816 0.687175 0.0719921
0.0630808 0.68574 0.06804
0.0934768 0.689311 0.0538796
0.168429 0.699718 0.032105
0.268635 0.710811 0.0191043
0.40734 0.706844 0.0128176
0.629328 0.711498 0.0717327
0.77792 0.74139 0.152438
0.884367 0.765438 0.221408
0.937484 0.779843 0.259205
0.955947 0.783886 0.272312
0.962722 0.782574 0.276265
0.962631 0.7794 0.275212
0.961929 0.77641 0.273838
0.961318 0.774411 0.272786
0.961135 0.772976 0.272267
0.960922 0.772137 0.271885
0.960906 0.772061 0.271855
0.961089 0.772778 0.27219
0.961334 0.774441 0.272816
0.96228 0.777966 0.274525
0.96318 0.782116 0.276387
0.0925154 0.733394 0.116762
0.0923476 0.73402 0.118425
0.0934005 0.733944 0.116365
0.094316 0.733837 0.114488
0.0951553 0.733715 0.112779
0.0963455 0.73341 0.110063
0.0972 0.733303 0.10837
0.0972305 0.733516 0.108766
0.0973983 0.73373 0.108949
0.0972457 0.733532 0.108797
0.0969711 0.733196 0.108522
0.0955673 0.731426 0.107118
0.094255 0.728817 0.104479
0.112245 0.731762 0.0972915
0.170382 0.739162 0.0767224
0.270619 0.752071 0.0590982
0.380484 0.760052 0.0542306
0.533806 0.761807 0.0707866
0.734951 0.776715 0.149996
0.853651 0.806897 0.221668
0.932692 0.825589 0.273335
0.966567 0.834928 0.296559
0.970916 0.83534 0.299031
0.97081 0.833204 0.298314
0.970657 0.831571 0.297642
0.970489 0.829877 0.296925
0.97023 0.828687 0.296315
0.970169 0.828107 0.296071
0.970169 0.828092 0.296086
0.970352 0.829145 0.29659
0.97055 0.830549 0.297215
0.970779 0.832853 0.298161
0.970993 0.836011 0.299413
0.101854 0.743847 0.123613
0.101366 0.744137 0.125109
0.10222 0.743954 0.12314
0.102953 0.74377 0.121431
0.103655 0.743557 0.119692
0.104707 0.743145 0.116945
0.104936 0.743053 0.116365
0.104921 0.743053 0.116396
0.104921 0.743053 0.116396
0.104921 0.743053 0.116396
0.104921 0.743053 0.116396
0.104921 0.743053 0.116396
0.104921 0.743053 0.116381
0.115358 0.744945 0.11252
0.162997 0.752377 0.0962997
0.261051 0.764248 0.0743572
0.373983 0.775967 0.0688945
0.495872 0.786175 0.0821851
0.663722 0.80238 0.135683
0.829206 0.827436 0.222934
0.912093 0.850172 0.276951
0.963134 0.862486 0.311971
0.97406 0.865644 0.319097
0.974014 0.86537 0.318746
0.973892 0.864698 0.317937
0.973846 0.864149 0.317571
0.9738 0.863706 0.317189
0.973754 0.863401 0.316915
0.97377 0.863493 0.316991
0.9738 0.863828 0.31725
0.973861 0.8645 0.317723
0.973968 0.865568 0.318608
0.974151 0.867155 0.319982
0.10135 0.743816 0.124468
0.100389 0.74432 0.127291
0.10161 0.743984 0.124331
0.102342 0.743832 0.122667
0.103105 0.743618 0.120836
0.104158 0.743206 0.11809
0.104585 0.743053 0.117021
0.105089 0.742824 0.115648
0.104921 0.742901 0.11606
0.104921 0.742901 0.11606
0.104921 0.742901 0.11606
0.104921 0.742901 0.11606
0.104921 0.742901 0.11606
0.110719 0.743969 0.113924
0.152178 0.750561 0.0992599
0.244114 0.762112 0.0765393
0.355596 0.773983 0.0682994
0.463111 0.784848 0.0777142
0.615885 0.802121 0.118166
0.798016 0.832395 0.207141
0.912886 0.858213 0.283604
0.954803 0.871092 0.320287
0.976669 0.87808 0.342382
0.9785 0.879408 0.34667
0.978393 0.87921 0.34612
0.97821 0.878935 0.345266
0.978103 0.878737 0.344671
0.978088 0.878737 0.344594
0.978073 0.878737 0.344579
0.978134 0.878889 0.34493
0.978302 0.879149 0.345708
0.978546 0.87953 0.34699
0.978988 0.880186 0.349111
0.0979324 0.745312 0.134127
0.096788 0.745892 0.137606
0.0981765 0.745464 0.133989
0.0992599 0.745159 0.131258
0.100252 0.744823 0.128618
0.101671 0.744259 0.124804
0.103166 0.743648 0.120775
0.104387 0.743145 0.117525
0.104921 0.742901 0.11606
0.104921 0.742901 0.11606
0.104921 0.742901 0.11606
0.104921 0.742901 0.11606
0.104921 0.742901 0.11606
0.106828 0.743267 0.115389
0.140642 0.748913 0.103197
0.227893 0.760388 0.0796521
0.327688 0.771282 0.0687877
0.442206 0.78265 0.0745251
0.588479 0.798413 0.107973
0.771725 0.826703 0.18909
0.910933 0.85864 0.281514
0.960418 0.874037 0.32871
0.977325 0.88246 0.355322
0.98201 0.885893 0.3682
0.982544 0.886976 0.373098
0.982544 0.886854 0.372839
0.982528 0.886809 0.372732
0.982544 0.886839 0.372824
0.982559 0.886976 0.373281
0.98262 0.887236 0.37409
0.982681 0.887556 0.375326
0.982818 0.887999 0.377432
0.982956 0.888502 0.380285
0.0937667 0.74725 0.146746
0.0925917 0.74786 0.150637
0.0941024 0.747311 0.146197
0.0953536 0.746853 0.14258
0.0968643 0.746288 0.138338
0.0987411 0.74551 0.132982
0.100908 0.74461 0.126986
0.10309 0.743679 0.120989
0.104662 0.743023 0.116793
0.104921 0.742901 0.11606
0.104921 0.742901 0.11606
0.104921 0.742901 0.11606
0.104921 0.742901 0.11606
0.105074 0.742916 0.116014
0.1299 0.747173 0.106859
0.210666 0.758434 0.0833906
0.311498 0.769558 0.0694438
0.427008 0.781323 0.0729076
0.569589 0.796155 0.102037
0.749401 0.822477 0.176791
0.893828 0.85452 0.269291
0.957259 0.873167 0.325978
0.97731 0.882292 0.354467
0.982315 0.886931 0.371618
0.982895 0.888777 0.380331
0.98294 0.888991 0.381582
0.98294 0.888991 0.381567
0.98294 0.889006 0.381598
0.982925 0.889052 0.381628
0.98291 0.889128 0.381704
0.98291 0.889174 0.38175
0.98291 0.889204 0.381781
0.98291 0.889174 0.381765
0.090013 0.749477 0.159991
0.0890059 0.749905 0.163287
0.0903944 0.749233 0.158587
0.0917525 0.748608 0.154116
0.0934005 0.747875 0.148943
0.0954604 0.74696 0.142611
0.0981765 0.745769 0.13463
0.101274 0.744472 0.125994
0.104067 0.743267 0.118379
0.104982 0.74287 0.115908
0.104921 0.742901 0.11606
0.104921 0.742901 0.11606
0.104921 0.742901 0.11606
0.104921 0.742901 0.11606
0.122347 0.745892 0.109499
0.196567 0.756634 0.0866407
0.300618 0.76849 0.070222
0.409262 0.779507 0.0711376
0.551461 0.794186 0.0969253
0.725689 0.818158 0.164446
0.877623 0.85037 0.257176
0.951431 0.871321 0.319966
0.974914 0.880812 0.349737
0.981796 0.886137 0.368322
0.982864 0.88864 0.379522
0.98294 0.889021 0.381598
0.98294 0.889021 0.381598
0.98294 0.889052 0.381628
0.982925 0.889097 0.381674
0.98291 0.889174 0.38175
0.982895 0.88922 0.381796
0.982895 0.889235 0.381826
0.982895 0.889235 0.381826
0.0867018 0.750988 0.17113
0.0858015 0.751431 0.174411
0.0873426 0.750652 0.168826
0.0886397 0.750088 0.164538
0.0903029 0.749371 0.159075
0.0925612 0.748302 0.151675
0.0955062 0.74696 0.142504
0.0991989 0.745342 0.131716
0.102724 0.743847 0.122011
0.104738 0.742977 0.116564
0.104921 0.742901 0.11606
0.104921 0.742901 0.11606
0.104921 0.742901 0.11606
0.104921 0.742901 0.11606
0.11751 0.74519 0.111482
0.186816 0.755505 0.0893111
0.295216 0.767941 0.0706645
0.394659 0.778149 0.0701457
0.537285 0.792782 0.0932937
0.707439 0.815167 0.155535
0.864759 0.847196 0.247929
0.946975 0.86981 0.315297
0.973037 0.87982 0.34667
0.981125 0.885512 0.36585
0.982788 0.888395 0.378286
0.98294 0.889006 0.381491
0.98294 0.889021 0.381598
0.98294 0.889052 0.381628
0.982925 0.889097 0.381674
0.98291 0.889174 0.38175
0.982895 0.88922 0.381796
0.982895 0.889235 0.381826
0.982895 0.889235 0.381826
0.0840925 0.752392 0.181109
0.083299 0.75285 0.18436
0.0848249 0.75198 0.178225
0.0861372 0.751232 0.173083
0.0878767 0.750484 0.167193
0.0901045 0.749508 0.159823
0.0933394 0.747982 0.149294
0.0973678 0.746136 0.136995
0.101503 0.74435 0.125322
0.104356 0.74316 0.117617
0.104921 0.742901 0.11606
0.104921 0.742901 0.11606
0.104921 0.742901 0.11606
0.104921 0.742901 0.11606
0.114687 0.744686 0.112474
0.181369 0.754742 0.0907301
0.291203 0.767498 0.0709544
0.384253 0.77705 0.0694743
0.526741 0.791638 0.0906691
0.694331 0.813062 0.149416
0.857145 0.845533 0.242802
0.943358 0.868879 0.31191
0.971222 0.879042 0.344137
0.980652 0.885115 0.364401
0.982712 0.88806 0.376623
0.98291 0.888945 0.381201
0.98294 0.889021 0.381598
0.98294 0.889052 0.381628
0.982925 0.889097 0.381674
0.98291 0.889174 0.38175
0.982895 0.88922 0.381796
0.982895 0.889235 0.381826
0.98291 0.889189 0.381781
0.0819715 0.753506 0.189624
0.081239 0.75378 0.192294
0.0826734 0.75285 0.185977
0.084123 0.75198 0.179965
0.085893 0.751019 0.173175
0.0881971 0.74995 0.165179
0.0914778 0.74844 0.15433
0.0957046 0.746456 0.141024
0.100435 0.744381 0.127367
