bundles/resolve-cinematic-luts/Phantom Luts/Canon Alexa LUT/C-Log 2/Tungsten Canon CL2-Legacy.cube
TITLE "Generated by Resolve"
LUT_3D_SIZE 5
0.0217594 0.0222171 0.0287022
0.126467 0.0247196 0.0424964
0.622934 0.0436103 0.170947
0.751369 0.0778058 0.295903
0.755032 0.0791333 0.316304
0.0263981 0.143343 0.0444343
0.0977493 0.12813 0.0335699
0.596551 0.0412146 0.100359
0.734783 0.0762341 0.22179
0.74165 0.0777447 0.241367
0 0.569482 0.0108034
0 0.570993 0
0.625544 0.588159 0.0293126
0.904723 0.55404 0.189593
0.904585 0.56611 0.189746
0.090013 0.749477 0.159991
0.104067 0.743267 0.118379
0.300618 0.76849 0.070222
0.982864 0.88864 0.379522
0.982895 0.889235 0.381826
0.0760662 0.757778 0.219455
0.100664 0.744488 0.127153
0.318364 0.769848 0.0684825
0.982757 0.8878 0.37641
0.982864 0.889387 0.381979
0.0117189 0.0298619 0.107774
0.114229 0.0290837 0.124849
0.616693 0.0460517 0.259373
0.756985 0.0782177 0.368551
0.759762 0.0798657 0.391882
0.031632 0.118776 0.118914
0.0911727 0.113695 0.119753
0.596933 0.0413062 0.163928
0.751934 0.078172 0.29662
0.754818 0.0789807 0.315435
0 0.559075 0.0925154
0 0.559655 0.0258335
0.61442 0.577737 0.0232242
0.901701 0.51223 0.186877
0.901137 0.519036 0.185931
0.070985 0.762066 0.253346
0.0844282 0.752209 0.179782
0.253727 0.763333 0.0752422
0.982803 0.888411 0.378439
0.982895 0.889235 0.381826
0.0687419 0.77525 0.347555
0.0741131 0.758999 0.230228
0.27216 0.764813 0.0719768
0.982498 0.887083 0.373037
0.982864 0.889418 0.38201
0 0.0727092 0.478386
0.10016 0.0630808 0.533623
0.585473 0.0501106 0.571893
0.74638 0.0898299 0.615671
0.743404 0.0925154 0.634318
0 0.104158 0.435279
0 0.0706035 0.455222
0.559503 0.0469978 0.54699
0.752056 0.0873121 0.585641
0.749722 0.0896468 0.605936
0.0215 0.571756 0.539712
0.0207828 0.571496 0.539361
0.562676 0.567788 0.545846
0.999023 0.416556 0.574716
0.990539 0.402014 0.587427
0.14078 0.829816 0.634089
0.134417 0.826185 0.618692
0.0837262 0.752575 0.182452
0.981842 0.885756 0.368551
0.983063 0.889281 0.384314
0.179217 0.852155 0.717739
0.163867 0.843412 0.685969
0.0737011 0.759197 0.23238
0.975189 0.880629 0.349752
0.982879 0.889601 0.383169
0.0124819 0.16672 0.673869
0.102602 0.152331 0.729
0.550622 0.101671 0.794156
0.697047 0.112291 0.761379
0.697063 0.112352 0.761547
0 0.169177 0.650019
0.00500496 0.167651 0.667887
0.517876 0.104356 0.801816
0.697047 0.112123 0.760998
0.697063 0.112383 0.761608
0.143542 0.635386 0.846403
0.144701 0.632044 0.850736
0.39408 0.562951 1
0.772854 0.188693 0.826963
0.774685 0.190692 0.829114
0.285588 0.913542 0.906035
0.285969 0.913878 0.906676
0.284337 0.912932 0.904082
0.978729 0.980545 0.976303
0.990707 0.975174 0.978195
0.285664 0.91368 0.906355
0.285817 0.913802 0.906615
0.285405 0.91339 0.904463
0.97409 0.99086 0.981537
0.992752 0.99292 0.992691
0.0306401 0.165301 0.68716
0.124865 0.147082 0.738796
0.559792 0.100954 0.791531
0.697047 0.112291 0.761379
0.697063 0.112413 0.761669
0 0.169558 0.650553
0.0192416 0.166384 0.678935
0.526711 0.103624 0.8
0.697047 0.112154 0.761059
0.697063 0.112383 0.761608
0.145205 0.625132 0.855619
0.142199 0.617777 0.853864
0.372702 0.512139 1
0.748486 0.160632 0.803037
0.749157 0.164858 0.807355
0.285573 0.913588 0.906188
0.285817 0.913802 0.906615
0.285756 0.913695 0.906615
0.965454 0.972335 0.989837
0.986999 0.960159 0.987396
0.285512 0.913542 0.906096
0.285817 0.913802 0.906615
0.285817 0.913802 0.906615
0.942885 0.990951 0.99028
0.992935 0.992477 0.991913
