bundles/resolve-cinematic-luts/Phantom Luts/Canon Alexa LUT/C-Log 2/Tungsten Canon CL2-Legacy.cube
TITLE "Generated by Resolve"
LUT_3D_SIZE 9
0.0217594 0.0222171 0.0287022
0.0362402 0.0223392 0.030045
0.126467 0.0247196 0.0424964
0.34725 0.0293736 0.0831769
0.622934 0.0436103 0.170947
0.746838 0.0773022 0.269398
0.751369 0.0778058 0.295903
0.753109 0.0782025 0.308446
0.755032 0.0791333 0.316304
0.0263828 0.047837 0.0367132
0.0310521 0.0432898 0.0327764
0.114061 0.0300298 0.0348211
0.318761 0.0290379 0.0610666
0.610697 0.0419623 0.143053
0.742351 0.0770581 0.248508
0.748226 0.0774395 0.276646
0.75053 0.0777142 0.290242
0.752758 0.0786755 0.297734
0.0263981 0.143343 0.0444343
0.0260777 0.140215 0.0352789
0.0977493 0.12813 0.0335699
0.341436 0.0677958 0.0445106
0.596551 0.0412146 0.100359
0.716823 0.0714275 0.185718
0.734783 0.0762341 0.22179
0.739864 0.0771344 0.236728
0.74165 0.0777447 0.241367
0 0.331136 0.00677501
0 0.331777 0
0 0.32253 0
0.314153 0.314549 0.00419623
0.655741 0.237934 0.0627909
0.731228 0.098558 0.131182
0.737301 0.0916609 0.161028
0.734295 0.0874952 0.167941
0.737423 0.0895094 0.168948
0 0.569482 0.0108034
0 0.571206 0.0039826
0 0.570993 0
0.0306249 0.56466 0
0.625544 0.588159 0.0293126
0.891524 0.639078 0.189578
0.904723 0.55404 0.189593
0.903487 0.537835 0.188083
0.904585 0.56611 0.189746
0.101854 0.743847 0.123613
0.103655 0.743557 0.119692
0.104921 0.743053 0.116396
0.104921 0.743053 0.116381
0.373983 0.775967 0.0688945
0.912093 0.850172 0.276951
0.973892 0.864698 0.317937
0.97377 0.863493 0.316991
0.974151 0.867155 0.319982
0.090013 0.749477 0.159991
0.0934005 0.747875 0.148943
0.104067 0.743267 0.118379
0.104921 0.742901 0.11606
0.300618 0.76849 0.070222
0.877623 0.85037 0.257176
0.982864 0.88864 0.379522
0.982925 0.889097 0.381674
0.982895 0.889235 0.381826
0.0802319 0.754543 0.197192
0.0843824 0.751919 0.179171
0.0996719 0.744717 0.129503
0.104936 0.742473 0.11519
0.288273 0.766674 0.0704814
0.853239 0.844282 0.239994
0.982651 0.887358 0.374578
0.983032 0.888579 0.381155
0.98291 0.889189 0.381781
0.0760662 0.757778 0.219455
0.0823072 0.753506 0.188724
0.100664 0.744488 0.127153
0.104936 0.742473 0.11519
0.318364 0.769848 0.0684825
0.901137 0.855741 0.273655
0.982757 0.8878 0.37641
0.982971 0.888853 0.38143
0.982864 0.889387 0.381979
0.0194553 0.0246738 0.0451972
0.0346075 0.0240177 0.0488136
0.120607 0.026627 0.0671244
0.345541 0.0314946 0.108629
0.625635 0.0451667 0.197971
0.751232 0.0781567 0.291005
0.754421 0.0787671 0.315541
0.755352 0.0787671 0.329107
0.756374 0.0788128 0.338262
0.0259556 0.0411383 0.0466621
0.0275273 0.0381476 0.044831
0.116335 0.0318914 0.0514839
0.333074 0.0297093 0.0837873
0.617502 0.0434882 0.171298
0.747753 0.077821 0.27097
0.752224 0.0783246 0.297475
0.754009 0.0787366 0.309957
0.755413 0.0793774 0.316747
0.0285039 0.135286 0.0673228
0.0275578 0.133547 0.0548257
0.0898756 0.123323 0.0362402
0.343526 0.0534218 0.045716
0.584298 0.0397955 0.106706
0.73051 0.0752728 0.212284
0.742046 0.0774548 0.244831
0.745418 0.0777295 0.258839
0.747036 0.0782025 0.264164
0 0.325826 0.0324712
0 0.32578 0.0175784
0 0.319036 0
0.309285 0.309224 0.00553903
0.655573 0.215106 0.0657206
0.731273 0.0951858 0.135256
0.735729 0.0893568 0.165057
0.732219 0.085359 0.170489
0.73315 0.086305 0.170993
0 0.567285 0.0309758
0 0.568902 0.0200504
0 0.56762 0
0.0168612 0.56228 0
0.622889 0.585565 0.0277714
0.891051 0.633005 0.188037
0.904128 0.545754 0.188861
0.902724 0.528389 0.18735
0.904097 0.556558 0.188922
0.0964981 0.746151 0.138766
0.0997177 0.745235 0.130526
0.104921 0.743053 0.116396
0.104921 0.743038 0.116365
0.366476 0.775113 0.0684825
0.911574 0.849958 0.276509
0.973846 0.864424 0.317678
0.973663 0.862669 0.315892
0.973892 0.866606 0.318532
0.0834363 0.752743 0.183719
0.0865644 0.751003 0.171511
0.100359 0.744839 0.128496
0.104921 0.742901 0.11606
0.292622 0.767636 0.0708324
0.873411 0.849241 0.254032
0.982864 0.88867 0.379614
0.982925 0.889097 0.381674
0.982895 0.889235 0.381826
0.0744945 0.758877 0.228428
0.0776837 0.756191 0.20943
0.0932937 0.74757 0.148455
0.104936 0.742473 0.11519
0.272053 0.764797 0.0719921
0.844739 0.842145 0.233906
0.982605 0.887175 0.373785
0.983032 0.888579 0.381155
0.98291 0.889189 0.381781
0.0708934 0.762402 0.255039
0.0751507 0.758282 0.224201
0.093431 0.747692 0.148486
0.104936 0.742473 0.11519
0.306142 0.768475 0.0690166
0.889509 0.852781 0.264652
0.982696 0.887648 0.375692
0.982971 0.888853 0.38143
0.982864 0.889387 0.381979
0.0117189 0.0298619 0.107774
0.029984 0.0289464 0.118776
0.114229 0.0290837 0.124849
0.332006 0.0311589 0.169085
0.616693 0.0460517 0.259373
0.755093 0.0776684 0.340078
0.756985 0.0782177 0.368551
0.758358 0.0790265 0.382528
0.759762 0.0798657 0.391882
0.0142824 0.0399481 0.0909133
0.0117037 0.0332494 0.0979934
0.0985122 0.0292363 0.114199
0.319982 0.0313268 0.14902
0.614221 0.046128 0.230503
0.754772 0.0788434 0.319066
0.754833 0.076997 0.347616
0.756771 0.0782788 0.362631
0.758129 0.0790875 0.37171
0.031632 0.118776 0.118914
0.0313573 0.115984 0.11754
0.0911727 0.113695 0.119753
0.363989 0.0710918 0.12546
0.596933 0.0413062 0.163928
0.74757 0.0777905 0.269764
0.751934 0.078172 0.29662
0.753567 0.0784924 0.308797
0.754818 0.0789807 0.315435
0 0.313726 0.113207
0 0.313771 0.100343
0 0.306233 0.0378882
0.294331 0.294957 0.0155489
0.647227 0.1626 0.0770581
0.74464 0.0957504 0.170367
0.734279 0.0852674 0.184482
0.717296 0.0730755 0.179812
0.720073 0.0750439 0.180102
0 0.559075 0.0925154
0 0.561486 0.0789502
0 0.559655 0.0258335
0 0.55317 0
0.61442 0.577737 0.0232242
0.887663 0.60734 0.180957
0.901701 0.51223 0.186877
0.898955 0.491005 0.185183
0.901137 0.519036 0.185931
0.0814374 0.753567 0.19118
0.0843061 0.752407 0.180621
0.0970779 0.746426 0.138201
0.104921 0.743008 0.116289
0.340246 0.772473 0.0684367
0.907057 0.847089 0.27216
0.973449 0.861189 0.314488
0.973037 0.858656 0.311833
0.973297 0.863096 0.31397
0.070985 0.762066 0.253346
0.0725872 0.760494 0.240909
0.0844282 0.752209 0.179782
0.104921 0.742901 0.11606
0.253727 0.763333 0.0752422
0.855528 0.845075 0.241764
0.982803 0.888411 0.378439
0.982925 0.889097 0.381674
0.982895 0.889235 0.381826
0.0678874 0.769467 0.306935
0.0683299 0.767239 0.290593
0.076112 0.757198 0.217517
0.104936 0.742473 0.11519
0.227481 0.759899 0.0790265
0.815351 0.83534 0.214359
0.982391 0.886595 0.37142
0.983032 0.888563 0.38114
0.98291 0.889189 0.381781
0.0687419 0.77525 0.347555
0.0678569 0.771267 0.319707
0.0741131 0.758999 0.230228
0.104936 0.742473 0.11519
0.27216 0.764813 0.0719768
0.858427 0.844968 0.242008
0.982498 0.887083 0.373037
0.982971 0.888853 0.38143
0.982864 0.889418 0.38201
0 0.0429389 0.254032
0.0174868 0.0411688 0.272374
0.110903 0.0372473 0.298528
0.315572 0.0352941 0.304616
0.611643 0.0490883 0.386389
0.764416 0.0822614 0.442267
0.765652 0.083238 0.460792
0.766155 0.0838178 0.470359
0.766949 0.0847791 0.479622
0 0.0466926 0.22237
0 0.0425116 0.235172
0.0824445 0.038117 0.287388
0.301747 0.0348821 0.292409
0.603357 0.0483864 0.369131
0.762768 0.0813001 0.430381
0.764996 0.0826123 0.448966
0.765942 0.0833143 0.458656
0.767132 0.0843977 0.467948
0.00462348 0.121218 0.226291
0.00242618 0.115114 0.232807
0.0255131 0.0888075 0.273686
0.278798 0.0412909 0.269673
0.581323 0.0463722 0.319051
0.758831 0.0789654 0.392248
0.760906 0.0801709 0.413901
0.761975 0.080766 0.424552
0.763317 0.0817121 0.433005
0.0166171 0.300069 0.280369
0.0162509 0.299168 0.279988
0.017258 0.288792 0.269932
0.2925 0.299245 0.291112
0.696513 0.196231 0.293812
0.763287 0.0855116 0.3019
0.754437 0.0793774 0.300023
0.754269 0.079057 0.305257
0.755581 0.0795148 0.311528
0 0.54905 0.268116
0 0.551019 0.260487
0 0.545846 0.213138
0 0.530587 0.0276799
0.592218 0.558267 0.0540932
0.901778 0.520272 0.199725
0.900954 0.414115 0.210208
0.891173 0.377081 0.208347
0.902937 0.405356 0.216724
0.065095 0.770214 0.336156
0.0653544 0.770062 0.331624
0.0657054 0.763882 0.286229
0.0929122 0.744457 0.141451
0.249088 0.761349 0.0742657
0.893568 0.837873 0.259144
0.972168 0.850614 0.306294
0.971847 0.846525 0.303792
0.972015 0.851606 0.305516
0.0751049 0.78468 0.409308
0.0745556 0.784146 0.405142
0.0693675 0.776699 0.357412
0.0849317 0.751919 0.177783
0.148882 0.750011 0.100191
0.791714 0.830777 0.20061
0.982559 0.887617 0.374487
0.982925 0.889097 0.38175
0.982895 0.889235 0.381857
0.0837262 0.792752 0.457191
0.0820478 0.791379 0.449134
0.0738384 0.783322 0.400259
0.0768749 0.756558 0.213077
0.130877 0.746883 0.105638
0.729671 0.818311 0.165698
0.981598 0.885283 0.3664
0.983032 0.888579 0.381231
0.98291 0.88922 0.381903
0.095201 0.80145 0.503792
0.0911269 0.798535 0.488396
0.0789044 0.788571 0.43299
0.0746166 0.758404 0.226429
0.144945 0.748989 0.10071
0.76788 0.825422 0.186145
0.981781 0.885512 0.366552
0.982971 0.888869 0.381506
0.982864 0.889403 0.382086
0 0.0727092 0.478386
0.00859083 0.0697642 0.49546
0.10016 0.0630808 0.533623
0.327199 0.0466773 0.562188
0.585473 0.0501106 0.571893
0.750622 0.0888991 0.598917
0.74638 0.0898299 0.615671
0.744915 0.0908064 0.623743
0.743404 0.0925154 0.634318
0 0.0748913 0.450706
0 0.0726635 0.46656
0.0678416 0.063859 0.519265
0.309468 0.047715 0.560464
0.579644 0.0495308 0.567056
0.751568 0.0881056 0.591821
0.747951 0.0892958 0.609064
0.746273 0.0900893 0.617166
0.744884 0.0918593 0.628275
0 0.104158 0.435279
0 0.0949111 0.437491
0 0.0706035 0.455222
0.246632 0.0508125 0.546258
0.559503 0.0469978 0.54699
0.753796 0.0855116 0.568063
0.752056 0.0873121 0.585641
0.750896 0.0882429 0.59472
0.749722 0.0896468 0.605936
0.00703441 0.350591 0.523949
0.00579843 0.348211 0.5299
0.00207523 0.326299 0.540658
0.165301 0.254261 0.621363
0.568734 0.0910048 0.546624
0.76408 0.0843977 0.50396
0.762432 0.0844282 0.51635
0.761273 0.0846876 0.525505
0.760433 0.085481 0.536675
0.0215 0.571756 0.539712
0.0218662 0.574426 0.542947
0.0207828 0.571496 0.539361
0.016022 0.553552 0.519173
0.562676 0.567788 0.545846
1 0.499107 0.58584
0.999023 0.416556 0.574716
0.986191 0.386145 0.571649
0.990539 0.402014 0.587427
0.100053 0.792996 0.565301
0.10338 0.796338 0.570687
0.0992599 0.794491 0.557305
0.0774395 0.779873 0.490364
0.083238 0.752178 0.232792
0.869734 0.834974 0.324605
0.994553 0.832853 0.375219
0.995148 0.823667 0.3794
0.995819 0.831556 0.391089
0.14078 0.829816 0.634089
0.142 0.83064 0.636973
0.134417 0.826185 0.618692
0.106569 0.809049 0.542321
0.0837262 0.752575 0.182452
0.626398 0.803143 0.121141
0.981842 0.885756 0.368551
0.983078 0.888945 0.383261
0.983063 0.889281 0.384314
0.156481 0.839063 0.669673
0.156268 0.838972 0.66923
0.146609 0.833371 0.647776
0.115236 0.814572 0.567971
0.0755779 0.757595 0.220584
0.521416 0.790387 0.0886549
0.975433 0.880476 0.349996
0.983047 0.888762 0.382193
0.982925 0.889418 0.382956
0.179217 0.852155 0.717739
0.176577 0.850736 0.712413
0.163867 0.843412 0.685969
0.12723 0.821942 0.60032
0.0737011 0.759197 0.23238
0.550942 0.793698 0.0963149
0.975189 0.880629 0.349752
0.983001 0.889082 0.382666
0.982879 0.889601 0.383169
0 0.138613 0.63566
0.0136721 0.135149 0.648524
0.0926223 0.118822 0.691646
0.313329 0.102953 0.770809
0.546487 0.0840467 0.759274
0.702327 0.1084 0.744991
0.697948 0.11162 0.758618
0.697536 0.111864 0.759762
0.697063 0.112413 0.761685
0 0.14023 0.621286
0 0.137743 0.629725
0.0590219 0.124208 0.673487
0.291447 0.104173 0.765621
0.540612 0.0840009 0.760113
0.702861 0.107836 0.742794
0.698741 0.111025 0.756207
0.697093 0.112123 0.760937
0.697078 0.112474 0.761822
0 0.156359 0.623301
0 0.145953 0.617288
0 0.132525 0.623331
0.226261 0.106081 0.744091
0.521584 0.0829328 0.76022
0.705242 0.105974 0.734951
0.701335 0.108705 0.747082
0.699748 0.110109 0.752651
0.699031 0.111192 0.756237
0.00976577 0.306981 0.692973
0.00892653 0.29868 0.692149
0.002121 0.261265 0.679393
0.0400854 0.167605 0.682078
0.457893 0.0819867 0.758923
0.70959 0.10074 0.713466
0.711177 0.103593 0.72166
0.708797 0.104753 0.727703
0.706813 0.10631 0.734218
0.0969406 0.625544 0.758267
0.0997635 0.628641 0.762402
0.101411 0.625849 0.768063
0.10042 0.605539 0.779248
0.496437 0.586252 0.952331
0.839368 0.30985 0.80441
0.858503 0.234104 0.773983
0.845365 0.21706 0.766659
0.854017 0.232563 0.782635
0.191943 0.820829 0.794842
0.197024 0.825818 0.801205
0.197543 0.826551 0.801663
0.189761 0.818723 0.792279
0.186191 0.806622 0.771511
0.828412 0.835782 0.815091
1 0.801389 0.8365
1 0.783886 0.836637
1 0.790967 0.846799
0.251408 0.893553 0.848936
0.253147 0.894682 0.85185
0.250401 0.893095 0.847257
0.237629 0.885679 0.825315
0.190021 0.858305 0.739422
0.519875 0.851179 0.590692
0.984436 0.964706 0.824994
0.99321 0.97116 0.853391
0.993744 0.972793 0.862425
0.263523 0.900557 0.869154
0.264576 0.901335 0.870909
0.260853 0.899168 0.864698
0.245441 0.890135 0.838788
0.192844 0.859922 0.744762
0.360632 0.816709 0.504463
0.93695 0.920134 0.642145
0.989395 0.959182 0.795636
0.990402 0.9626 0.811246
0.277684 0.908919 0.892226
0.276905 0.908476 0.89099
0.272312 0.905821 0.883589
0.255985 0.8963 0.856641
0.200977 0.864576 0.759991
0.417548 0.82977 0.553811
0.927901 0.922606 0.657771
0.990539 0.962814 0.812604
0.98999 0.96141 0.805402
0.0124819 0.16672 0.673869
0.0322423 0.165225 0.68838
0.102602 0.152331 0.729
0.318059 0.128023 0.804746
0.550622 0.101671 0.794156
0.697063 0.112306 0.76141
0.697047 0.112291 0.761379
0.697047 0.112139 0.761044
0.697063 0.112352 0.761547
0 0.168673 0.659037
0.00624094 0.16762 0.669261
0.0721294 0.158312 0.713115
0.295613 0.130877 0.80061
0.543465 0.10248 0.796414
0.697063 0.112291 0.761395
0.697047 0.112276 0.761349
0.697063 0.112291 0.761395
0.697078 0.11249 0.761837
0 0.169177 0.650019
0 0.169848 0.650889
0.00500496 0.167651 0.667887
0.229496 0.13611 0.781292
0.517876 0.104356 0.801816
0.697047 0.112261 0.761334
0.697047 0.112123 0.760998
0.697047 0.112154 0.761059
0.697063 0.112383 0.761608
0.0262303 0.281071 0.728054
0.0233005 0.272221 0.722972
0.0102693 0.232837 0.697154
0.0234073 0.166049 0.681666
0.438285 0.112398 0.811185
0.690089 0.11107 0.762875
0.697078 0.112108 0.760952
0.697063 0.112108 0.760952
0.697078 0.112337 0.761517
0.143542 0.635386 0.846403
0.145281 0.637766 0.848447
0.144701 0.632044 0.850736
0.13402 0.598871 0.848081
0.39408 0.562951 1
0.766384 0.262638 0.910979
0.772854 0.188693 0.826963
0.762295 0.175998 0.816083
0.774685 0.190692 0.829114
0.246403 0.846128 0.891783
0.249165 0.850446 0.893675
0.250706 0.852186 0.895247
0.249271 0.847761 0.896559
0.242512 0.830991 0.897765
0.796765 0.855833 1
0.965682 0.700374 0.964508
0.963882 0.68249 0.962509
0.964874 0.694713 0.966339
0.285588 0.913542 0.906035
0.285908 0.913848 0.906645
0.285969 0.913878 0.906676
0.285801 0.913802 0.9066
0.284337 0.912932 0.904082
0.615183 0.963378 0.949355
0.978729 0.980545 0.976303
0.991211 0.97586 0.976226
0.990707 0.975174 0.978195
0.285435 0.913481 0.905974
0.285801 0.913802 0.906584
0.285817 0.913802 0.906615
0.285924 0.913848 0.906661
0.284871 0.913069 0.903716
0.343923 0.939406 0.905089
0.97583 0.99089 0.98027
0.993011 0.992325 0.991394
0.992966 0.992401 0.99176
0.285664 0.91368 0.906355
0.285786 0.913787 0.906569
0.285817 0.913802 0.906615
0.285649 0.913725 0.906523
0.285405 0.91339 0.904463
0.369467 0.947631 0.914748
0.97409 0.99086 0.981537
0.993133 0.992599 0.989349
0.992752 0.99292 0.992691
0.0255131 0.165743 0.683528
0.046067 0.162951 0.697475
0.117937 0.148684 0.73579
0.32549 0.127001 0.805859
0.555596 0.101198 0.792615
0.697063 0.112291 0.76141
0.697047 0.112291 0.761379
0.697047 0.112261 0.761303
0.697063 0.112413 0.761669
0.00180056 0.168048 0.665629
0.0178073 0.166613 0.677989
0.0865644 0.155459 0.720897
0.303944 0.129961 0.80238
0.547845 0.101976 0.795056
0.697063 0.112291 0.761379
0.697063 0.112276 0.761349
0.697063 0.112291 0.761395
0.697063 0.112428 0.7617
0 0.169177 0.650172
0 0.170565 0.651713
0.0151217 0.166827 0.675914
0.239368 0.135546 0.784817
0.522362 0.104005 0.800946
0.697063 0.112276 0.761364
0.697047 0.112154 0.761059
0.697047 0.112169 0.761105
0.697063 0.112383 0.761608
0.0239872 0.274174 0.724132
0.0208438 0.264622 0.718242
0.00735485 0.22388 0.690898
0.0332647 0.165133 0.688777
0.441932 0.112032 0.811078
0.691142 0.111284 0.762692
0.697078 0.112108 0.760937
0.697063 0.112108 0.760937
0.697093 0.112337 0.761501
0.146227 0.627741 0.856214
0.146715 0.629023 0.856535
0.142885 0.619898 0.85417
0.126268 0.57792 0.843549
0.371572 0.518288 1
0.740261 0.231571 0.890913
0.749706 0.161822 0.804059
0.740658 0.152712 0.796262
0.752071 0.166781 0.809033
0.254139 0.85417 0.900832
0.256001 0.857572 0.901503
0.256001 0.857557 0.901518
0.251789 0.849271 0.900633
0.237858 0.822034 0.897017
0.780377 0.850111 1
0.957534 0.669902 0.980026
0.955306 0.651667 0.978485
0.957031 0.66479 0.979492
0.285542 0.913573 0.906172
0.285801 0.913802 0.906584
0.285817 0.913802 0.906615
0.285817 0.913802 0.906615
0.285771 0.913771 0.906538
0.537789 0.977096 0.980697
0.967147 0.974456 0.989609
0.98793 0.964965 0.987533
0.987716 0.964645 0.987747
0.285618 0.913634 0.906279
0.285801 0.913802 0.906584
0.285817 0.913802 0.906615
0.285817 0.913802 0.906615
0.28574 0.913741 0.906493
0.285649 0.91368 0.906371
0.967041 0.991775 0.991226
0.992859 0.99266 0.992233
0.992828 0.992752 0.992386
0.285573 0.913603 0.906203
0.285801 0.913787 0.906584
0.285817 0.913802 0.906615
0.285817 0.913802 0.906615
0.285756 0.913756 0.906508
0.285344 0.913527 0.906218
0.961395 0.991592 0.990997
0.992782 0.992859 0.992599
0.992782 0.992859 0.992569
0.0306401 0.165301 0.68716
0.0515908 0.162188 0.70106
0.124865 0.147082 0.738796
0.330938 0.12636 0.806714
0.559792 0.100954 0.791531
0.697063 0.112291 0.76141
0.697047 0.112291 0.761379
0.697047 0.112261 0.761318
0.697063 0.112413 0.761669
0.00505074 0.167742 0.668162
0.0220798 0.16611 0.681117
0.0928969 0.154269 0.724208
0.309789 0.129335 0.803571
0.552041 0.101579 0.793805
0.697047 0.112276 0.761349
0.697063 0.112276 0.761349
0.697063 0.112291 0.76141
0.697063 0.112428 0.7617
0 0.169558 0.650553
0 0.170428 0.651698
0.0192416 0.166384 0.678935
0.245487 0.135241 0.786923
0.526711 0.103624 0.8
0.697063 0.112276 0.761364
0.697047 0.112154 0.761059
0.697047 0.112169 0.761105
0.697063 0.112383 0.761608
0.0236515 0.273335 0.723537
0.0203708 0.263325 0.717388
0.00662242 0.222004 0.689494
0.0371862 0.164431 0.691417
0.446311 0.111513 0.810788
0.691539 0.11136 0.762615
0.697078 0.112108 0.760937
0.697063 0.112093 0.760952
0.697078 0.112352 0.761517
0.145205 0.625132 0.855619
0.145937 0.626932 0.856123
0.142199 0.617777 0.853864
0.125124 0.574777 0.842847
0.372702 0.512139 1
0.73843 0.227558 0.887602
0.748486 0.160632 0.803037
0.738201 0.151812 0.795834
0.749157 0.164858 0.807355
0.254246 0.854337 0.900862
0.256138 0.857771 0.901579
0.256168 0.857786 0.90161
0.251621 0.84892 0.900618
0.237125 0.820615 0.896819
0.781582 0.846372 1
0.956985 0.665064 0.979553
0.955047 0.647761 0.977966
0.956847 0.662104 0.979446
0.285573 0.913588 0.906188
0.285801 0.913802 0.906584
0.285817 0.913802 0.906615
0.285817 0.913802 0.906615
0.285756 0.913695 0.906615
0.548104 0.976852 0.982132
0.965454 0.972335 0.989837
0.987121 0.960357 0.987121
0.986999 0.960159 0.987396
0.285618 0.913634 0.906279
0.285801 0.913802 0.906584
0.285817 0.913802 0.906615
0.285817 0.913802 0.906615
0.285817 0.913802 0.906615
0.285817 0.913802 0.906615
0.959426 0.991592 0.991089
0.992844 0.992706 0.992309
0.992844 0.992706 0.992325
0.285512 0.913542 0.906096
0.285801 0.913787 0.906584
0.285817 0.913802 0.906615
0.285817 0.913802 0.906615
0.285817 0.913802 0.906615
0.286366 0.914046 0.906844
0.942885 0.990951 0.99028
0.992752 0.992935 0.992737
0.992935 0.992477 0.991913
