bundles/resolve-cinematic-luts/Phantom Luts/Canon Alexa LUT/C-Log 2/Tungsten Canon CL2.cube
TITLE "Generated by Resolve"
LUT_3D_SIZE 9
0.00373846 0.00416571 0.0107424
0.0271916 0.00550851 0.0148318
0.155581 0.00935378 0.0357519
0.391028 0.0139315 0.0937057
0.645075 0.0322576 0.202609
0.746807 0.067155 0.305486
0.749172 0.0672618 0.331533
0.750011 0.0674144 0.343557
0.751644 0.0683299 0.351141
0.0110933 0.0462348 0.0240024
0.0196841 0.0396735 0.0178378
0.139834 0.0178683 0.0215915
0.365652 0.0143282 0.0597086
0.633997 0.0300755 0.16791
0.743847 0.0668345 0.284504
0.747723 0.0672923 0.312901
0.749065 0.0674601 0.326101
0.750698 0.0682383 0.333425
0.00724804 0.176883 0.0296788
0.00695811 0.172808 0.0164645
0.117723 0.15964 0.012314
0.395087 0.076173 0.0324102
0.618296 0.0284581 0.110155
0.722728 0.0626841 0.212268
0.738338 0.0665904 0.25391
0.742077 0.0669718 0.271031
0.743618 0.0675364 0.276036
0 0.368109 0
0 0.368719 0
0 0.359289 0
0.366369 0.355993 0
0.694438 0.288151 0.0558328
0.727794 0.0899825 0.129717
0.733257 0.0776989 0.171267
0.732219 0.0742809 0.182315
0.734493 0.0759289 0.182513
0 0.597742 0.0254063
0 0.59884 0.0155184
0 0.597772 0.0024567
0.0551156 0.594797 0
0.663767 0.621729 0.0476081
0.899962 0.664851 0.19855
0.902159 0.587182 0.188602
0.900938 0.571847 0.186496
0.902403 0.598627 0.189639
0.0948043 0.740749 0.119463
0.097673 0.740001 0.112551
0.0985885 0.739635 0.110094
0.0981155 0.739025 0.109621
0.410452 0.775921 0.0649271
0.913481 0.844877 0.274464
0.97348 0.858808 0.31397
0.973129 0.85742 0.312306
0.973693 0.860807 0.31548
0.0789654 0.748394 0.171176
0.0830854 0.746197 0.155825
0.0976883 0.739895 0.112322
0.0985885 0.739467 0.109758
0.33576 0.76994 0.0631723
0.885649 0.851484 0.260365
0.983001 0.890578 0.391272
0.982925 0.891005 0.393957
0.982879 0.891142 0.394125
0.0686046 0.75491 0.22005
0.0727398 0.751934 0.197803
0.0918135 0.742 0.127932
0.0985885 0.73904 0.108888
0.322118 0.767895 0.0626078
0.865507 0.846143 0.245411
0.9823 0.889174 0.384451
0.983032 0.890547 0.393423
0.982879 0.891127 0.39411
0.0651713 0.758709 0.246937
0.070573 0.753674 0.209537
0.0931258 0.741619 0.124544
0.0985885 0.73904 0.108888
0.353796 0.771206 0.0624552
0.904662 0.856062 0.274556
0.983093 0.889754 0.387259
0.982986 0.890761 0.393668
0.982834 0.891295 0.394293
9.15541e-05 0.00825513 0.0368505
0.0250401 0.0078584 0.0442054
0.145541 0.0112459 0.0731823
0.386892 0.0175174 0.128954
0.647059 0.0337835 0.234226
0.749767 0.0679026 0.326909
0.751034 0.0679332 0.350103
0.751614 0.0680858 0.362814
0.75285 0.0687724 0.371603
0.0111391 0.0358129 0.0410468
0.0135348 0.0309148 0.0378729
0.143328 0.0203098 0.0475013
0.377111 0.0143282 0.0939345
0.640238 0.0317845 0.202747
0.747768 0.0677195 0.307301
0.750088 0.0678264 0.333288
0.750896 0.0679789 0.34519
0.75198 0.0685588 0.351598
0.00909438 0.167834 0.0681621
0.00827039 0.164889 0.0472267
0.104799 0.153613 0.0166476
0.395468 0.0539712 0.0343023
0.609461 0.0267796 0.120012
0.734539 0.0656443 0.242802
0.74374 0.067216 0.279942
0.746105 0.0674296 0.295125
0.747539 0.0680095 0.300572
0 0.363272 0.0222171
0 0.362676 0
0 0.355718 0
0.360601 0.351095 0
0.694743 0.261845 0.059556
0.725567 0.0831464 0.134478
0.732387 0.0753796 0.177371
0.731243 0.0728008 0.186801
0.732082 0.073518 0.187045
0 0.597055 0.0536355
0 0.597925 0.0374151
0 0.594461 0.000274662
0.0377356 0.592096 0
0.661677 0.619898 0.0461585
0.898909 0.659586 0.196796
0.901457 0.579355 0.187457
0.899886 0.56286 0.184909
0.901061 0.5897 0.18732
0.0873732 0.743908 0.141131
0.0918135 0.742535 0.129076
0.0985885 0.739635 0.110094
0.0980545 0.738949 0.109545
0.402716 0.775082 0.0641642
0.912902 0.844572 0.273884
0.973342 0.858213 0.313191
0.972763 0.856336 0.310613
0.973281 0.859983 0.313359
0.0717784 0.752895 0.20354
0.0751812 0.750622 0.18706
0.0927291 0.742031 0.126207
0.0985885 0.739467 0.109758
0.326772 0.768948 0.0632639
0.881971 0.850538 0.257618
0.98294 0.890578 0.391348
0.982925 0.891005 0.393957
0.982879 0.891142 0.394125
0.0640879 0.760037 0.257328
0.066392 0.756909 0.235157
0.0829633 0.745892 0.155383
0.0985885 0.73904 0.108888
0.305715 0.766278 0.0634318
0.858854 0.844236 0.239918
0.982315 0.889006 0.38349
0.983047 0.890532 0.393408
0.982879 0.891127 0.394095
0.0621042 0.764324 0.288945
0.0644999 0.75935 0.252613
0.0831922 0.745983 0.155077
0.0985885 0.73904 0.108888
0.341176 0.770001 0.0624704
0.895857 0.85362 0.267063
0.983078 0.889601 0.386236
0.982986 0.890761 0.393668
0.982834 0.891295 0.394293
0 0.0160983 0.128115
0.0191196 0.0144503 0.144213
0.139528 0.0149538 0.15404
0.371817 0.019028 0.204807
0.639155 0.0361791 0.300618
0.752178 0.0682689 0.373495
0.753368 0.0689403 0.401038
0.753628 0.0691234 0.413657
0.754604 0.0699321 0.422293
0 0.0336309 0.106004
0 0.0219425 0.114412
0.118379 0.0149844 0.13962
0.358053 0.0178683 0.179797
0.635142 0.0343175 0.270573
0.751186 0.0679789 0.353216
0.752499 0.0684062 0.381384
0.753231 0.0688182 0.395468
0.754284 0.0695659 0.40415
0.0154574 0.149508 0.146838
0.0150454 0.145571 0.14464
0.109819 0.142702 0.148226
0.417197 0.0812543 0.153582
0.621775 0.0285344 0.194827
0.747509 0.0675975 0.305943
0.749783 0.0676432 0.332387
0.750439 0.0677043 0.343862
0.751507 0.0682536 0.350179
0 0.353857 0.133745
0 0.353353 0.116121
0 0.344015 0.0264286
0.345861 0.337942 0
0.689784 0.202258 0.077821
0.742596 0.0839704 0.183932
0.737285 0.0755169 0.20705
0.72253 0.0640879 0.203632
0.725017 0.0661936 0.203555
0 0.592508 0.131655
0 0.59443 0.115755
0 0.589792 0.0453498
0 0.582315 0
0.653773 0.612146 0.0403754
0.892607 0.63624 0.187396
0.899626 0.547509 0.184329
0.897978 0.527367 0.182544
0.898558 0.554345 0.183093
0.0693065 0.753246 0.212238
0.0721904 0.75172 0.198581
0.0877852 0.743557 0.139437
0.0977951 0.738582 0.109209
0.375387 0.772 0.0620737
0.909606 0.841993 0.270146
0.972717 0.855116 0.30927
0.972137 0.852659 0.306264
0.972274 0.856031 0.307622
0.0621347 0.763912 0.286519
0.063035 0.762112 0.272099
0.0728923 0.752163 0.197986
0.0985885 0.739467 0.109758
0.286061 0.764523 0.0653086
0.867658 0.846891 0.247211
0.982727 0.890318 0.389654
0.982925 0.891005 0.393957
0.982879 0.891142 0.394125
0.0627756 0.77203 0.343389
0.0620127 0.769497 0.325902
0.0652323 0.758099 0.244404
0.0985885 0.73904 0.108888
0.254444 0.760479 0.0679637
0.833875 0.838056 0.22211
0.98201 0.888365 0.380118
0.983063 0.890486 0.393347
0.982895 0.891096 0.394064
0.0662852 0.77818 0.384436
0.0637064 0.77406 0.356481
0.0637827 0.76025 0.259724
0.0985885 0.73904 0.108888
0.304036 0.766064 0.0634775
0.870588 0.846586 0.246662
0.981674 0.888731 0.381903
0.982986 0.890761 0.393668
0.982834 0.891325 0.394339
0 0.0330205 0.297246
0.00708019 0.0289311 0.318212
0.138262 0.023331 0.34963
0.357717 0.0190127 0.35227
0.639582 0.0379797 0.423728
0.756252 0.0718853 0.469963
0.756771 0.0731365 0.487724
0.75668 0.0737316 0.496742
0.757153 0.074815 0.505745
0 0.0408026 0.266346
0 0.0325628 0.276814
0.101534 0.0249332 0.338796
0.345113 0.0188754 0.340505
0.632609 0.0369726 0.407568
0.755764 0.0712596 0.458778
0.756634 0.0724041 0.476493
0.757061 0.0731823 0.485725
0.757702 0.0742504 0.494499
0 0.152972 0.278218
0 0.144488 0.284443
0.0206607 0.106401 0.327245
0.325567 0.0308843 0.319768
0.610803 0.034165 0.359686
0.753765 0.0692607 0.422904
0.754818 0.0702068 0.443412
0.755291 0.0707713 0.453361
0.756191 0.0716564 0.461341
0 0.354116 0.332464
0 0.353323 0.33225
0 0.342718 0.321523
0.344198 0.353948 0.344121
0.749157 0.241932 0.347799
0.760464 0.0752422 0.338048
0.751507 0.0685283 0.335332
0.751141 0.0682078 0.340261
0.752071 0.0686046 0.346578
0 0.589761 0.321141
0 0.591302 0.314031
0 0.584878 0.26598
0 0.56347 0.0480354
0.63154 0.594736 0.0695964
0.909026 0.557137 0.209186
0.915663 0.45658 0.222416
0.909316 0.420859 0.222309
0.919081 0.447303 0.230625
0.0598611 0.770336 0.372198
0.0600443 0.770474 0.367376
0.0578622 0.764477 0.321065
0.0823529 0.741161 0.144656
0.278798 0.760876 0.0630503
0.898848 0.83386 0.258488
0.971008 0.845472 0.299962
0.970382 0.842084 0.297871
0.970901 0.846128 0.299702
0.076463 0.788403 0.446662
0.0755322 0.787671 0.441947
0.0675517 0.779751 0.394308
0.0733806 0.751827 0.19559
0.155245 0.748486 0.0902876
0.812863 0.833661 0.209277
0.982071 0.889357 0.384176
0.98291 0.891005 0.394018
0.982879 0.891142 0.394156
0.0874189 0.796857 0.493507
0.0853437 0.795407 0.485542
0.0745708 0.786831 0.436912
0.0657664 0.757412 0.239582
0.131899 0.744579 0.0969558
0.760296 0.822431 0.177783
0.97673 0.885908 0.37055
0.983063 0.890486 0.393408
0.982879 0.891112 0.394186
0.100923 0.806073 0.539239
0.0963302 0.803052 0.524529
0.08159 0.792615 0.469612
0.0641337 0.759533 0.255116
0.152911 0.747753 0.0902724
0.795148 0.82948 0.197711
0.976654 0.886107 0.370672
0.982986 0.890761 0.393744
0.982834 0.891295 0.3944
0 0.0682231 0.508507
0.00717174 0.0624094 0.52781
0.130037 0.0508888 0.57322
0.366781 0.0324407 0.595438
0.60827 0.0428779 0.597391
0.738155 0.0827039 0.620966
0.734554 0.0847028 0.636896
0.732967 0.0857862 0.644312
0.731319 0.0876326 0.654169
0 0.0725261 0.480522
0 0.0684825 0.496437
0.0887922 0.0522621 0.557488
0.349035 0.0331731 0.593545
0.603067 0.0416114 0.593103
0.739513 0.0818341 0.613977
0.735958 0.0839399 0.630945
0.73434 0.0849928 0.638468
0.732815 0.0869306 0.648814
0 0.120485 0.475731
0 0.105318 0.475135
0 0.0656291 0.486717
0.289906 0.0361791 0.582559
0.58555 0.037705 0.576226
0.742855 0.0790723 0.591516
0.740185 0.0809186 0.608133
0.738674 0.0820172 0.61677
0.737438 0.0839857 0.628031
0 0.406577 0.568536
0 0.404517 0.574731
0 0.383429 0.583642
0.215183 0.310643 0.68275
0.612711 0.104707 0.592599
0.753399 0.0748608 0.528756
0.751675 0.0754101 0.540871
0.750301 0.0758984 0.549783
0.749264 0.0769665 0.560021
0.0251316 0.611765 0.579599
0.026154 0.614267 0.582528
0.0246586 0.611383 0.579461
0.0170291 0.594888 0.560723
0.603189 0.610193 0.587503
1 0.542428 0.626291
1 0.4636 0.619898
0.99295 0.434211 0.617533
0.995041 0.449409 0.632624
0.110704 0.800061 0.602396
0.113542 0.802777 0.607126
0.108843 0.800595 0.594141
0.084596 0.785367 0.528649
0.0805371 0.756161 0.261753
0.877485 0.836423 0.349325
0.995514 0.838788 0.39173
0.996094 0.832059 0.398108
0.996033 0.838514 0.410437
0.150942 0.836088 0.667063
0.152331 0.836988 0.670237
0.144366 0.832395 0.652399
0.113802 0.81413 0.57702
0.0724346 0.752468 0.200259
0.663279 0.806577 0.131899
0.98024 0.88719 0.375479
0.982879 0.890745 0.395956
0.982757 0.89102 0.397223
0.167315 0.845579 0.702022
0.167178 0.845533 0.701732
0.157107 0.839719 0.680674
0.12343 0.819974 0.602396
0.0650034 0.758297 0.246159
0.560433 0.792859 0.0947738
0.967269 0.880064 0.348775
0.982956 0.890639 0.394736
0.982773 0.891264 0.395621
0.189883 0.858579 0.746731
0.187457 0.857221 0.742016
0.174929 0.849989 0.717571
0.136339 0.827665 0.633921
0.0636912 0.760235 0.260273
0.589548 0.796399 0.103929
0.966384 0.880201 0.348196
0.982864 0.890929 0.395254
0.982727 0.891447 0.395819
0 0.15848 0.652323
0.0241855 0.15375 0.670695
0.126299 0.125338 0.717922
0.351766 0.0982376 0.77879
0.566873 0.0762951 0.749844
0.699519 0.100572 0.738231
0.696635 0.102602 0.747387
0.69633 0.102831 0.748333
0.696056 0.103319 0.749935
0 0.161181 0.634302
0 0.157931 0.645045
0.0852369 0.13608 0.700648
0.331334 0.100175 0.776059
0.56109 0.0758984 0.750683
0.699931 0.10013 0.736492
0.696986 0.102129 0.745663
0.69604 0.102998 0.749157
0.696056 0.10338 0.750103
0 0.18291 0.64033
0 0.169329 0.632807
0 0.150942 0.638254
0.269886 0.103777 0.761456
0.542443 0.0746166 0.752087
0.701625 0.0987259 0.730602
0.698878 0.100633 0.739284
0.697673 0.101457 0.743008
0.697154 0.102342 0.745998
0.0172885 0.362158 0.717525
0.0158846 0.353552 0.716335
0.00665293 0.310887 0.70309
0.0612955 0.19791 0.714931
0.483894 0.076173 0.758434
0.704372 0.0948653 0.71516
0.705516 0.0970169 0.721294
0.703944 0.0977951 0.725383
0.702571 0.0990768 0.73048
0.11519 0.660349 0.780774
0.117784 0.662959 0.784207
0.119066 0.660502 0.788663
0.116152 0.641459 0.796124
0.546197 0.633951 0.97966
0.869154 0.359197 0.845548
0.878447 0.271153 0.8177
0.864866 0.250706 0.809094
0.874052 0.268406 0.824552
0.202075 0.83331 0.81146
0.205921 0.837079 0.816449
0.206409 0.837766 0.816861
0.20029 0.831586 0.8094
0.207797 0.827527 0.798001
0.849409 0.856474 0.838514
0.997559 0.82443 0.855207
0.996796 0.809522 0.855283
0.994873 0.816587 0.86331
0.248219 0.892363 0.851698
0.249729 0.893339 0.854337
0.247715 0.892195 0.850843
0.237995 0.886488 0.834119
0.199573 0.864179 0.765042
0.56109 0.864256 0.630457
0.976577 0.964874 0.84477
0.994018 0.970504 0.872221
0.994202 0.971511 0.879393
0.257145 0.897566 0.866941
0.258015 0.898207 0.868467
0.255344 0.896666 0.86389
0.243885 0.889952 0.844251
0.20206 0.865583 0.769741
0.396262 0.825071 0.539071
0.931914 0.926131 0.672724
0.991226 0.964477 0.821454
0.992081 0.967498 0.835218
0.267643 0.903761 0.884749
0.266941 0.90338 0.883558
0.263584 0.901457 0.878019
0.251743 0.894545 0.857755
0.208972 0.869535 0.782559
0.456077 0.841047 0.591623
0.924758 0.929168 0.689052
0.991775 0.967468 0.835599
0.991623 0.966491 0.830014
0.0185092 0.193225 0.693126
0.0476997 0.190524 0.712917
0.140902 0.170779 0.761074
0.361242 0.125765 0.813275
0.578698 0.0921035 0.777584
0.696025 0.103136 0.749523
0.696025 0.10312 0.749493
0.695994 0.102968 0.749111
0.69604 0.103258 0.749798
0 0.195727 0.67219
0.00891127 0.194156 0.686351
0.102022 0.18085 0.743847
0.340627 0.129595 0.811933
0.57203 0.0930343 0.780453
0.696025 0.103136 0.749523
0.696025 0.10312 0.749477
0.696025 0.103151 0.749538
0.696056 0.10338 0.750103
0 0.197589 0.664851
0 0.198596 0.665873
0.00633249 0.194369 0.684215
0.277333 0.139483 0.80148
0.548669 0.095552 0.788174
0.69601 0.10309 0.749386
0.695994 0.102937 0.749035
0.695994 0.102968 0.749096
0.69604 0.103258 0.749798
0.0300755 0.330846 0.745281
0.0267948 0.320699 0.740398
0.0120699 0.276326 0.715465
0.034638 0.19202 0.704036
0.474495 0.105867 0.805951
0.691218 0.102296 0.750637
0.696025 0.102892 0.748913
0.695994 0.102892 0.748943
0.696056 0.103197 0.74966
0.151064 0.668544 0.848417
0.152667 0.670649 0.850294
0.151644 0.665415 0.851835
0.14052 0.635248 0.848966
0.451194 0.615976 1
0.812573 0.303304 0.929747
0.79585 0.209033 0.841947
0.77995 0.190097 0.82565
0.795163 0.208453 0.841978
0.243763 0.853468 0.886107
0.246021 0.856748 0.887877
0.247028 0.857862 0.889006
0.246006 0.854627 0.890105
0.241993 0.842786 0.893065
0.817639 0.86862 1
0.959609 0.731716 0.958846
0.958526 0.714733 0.957824
0.95877 0.726406 0.960327
0.27744 0.909499 0.901244
0.277913 0.90988 0.902083
0.277882 0.909834 0.902083
0.277409 0.90959 0.901244
0.27303 0.905592 0.895415
0.642267 0.956588 0.944549
0.968811 0.970687 0.96669
0.986389 0.966796 0.967193
0.986084 0.96643 0.9691
0.278172 0.909987 0.902419
0.278538 0.910323 0.903044
0.278553 0.910338 0.903075
0.278325 0.910185 0.902708
0.273411 0.907256 0.894423
0.346456 0.939971 0.904463
0.968887 0.988937 0.973068
0.993011 0.992218 0.990372
0.992966 0.992386 0.991745
0.278141 0.909957 0.902358
0.278523 0.910307 0.903044
0.278553 0.910338 0.903075
0.278553 0.910338 0.903075
0.274159 0.907698 0.895689
0.382971 0.948898 0.913283
0.967041 0.988724 0.974029
0.992432 0.99202 0.982864
0.992798 0.992828 0.992508
0.037705 0.191348 0.706203
0.0677806 0.188052 0.72549
0.159228 0.164782 0.767498
0.368322 0.124483 0.81355
0.583108 0.0915236 0.775647
0.696025 0.103136 0.749523
0.696025 0.10312 0.749493
0.69601 0.103059 0.74934
0.69604 0.103227 0.749722
0.0018616 0.194675 0.680995
0.0256352 0.192844 0.698314
0.121035 0.176394 0.752911
0.348363 0.128191 0.812558
0.576043 0.0924239 0.778668
0.696025 0.103136 0.749508
0.696025 0.10312 0.749477
0.696025 0.103151 0.749538
0.69604 0.103288 0.749905
0 0.197589 0.664973
0 0.19971 0.666972
0.0220951 0.193118 0.695689
0.286381 0.138415 0.803632
0.552972 0.0950942 0.786862
0.69601 0.103105 0.749447
0.695994 0.102953 0.749096
0.695994 0.102983 0.749157
0.69604 0.103258 0.749798
0.0274815 0.322957 0.741405
0.0238956 0.312032 0.735744
0.00846876 0.265568 0.708949
0.0493935 0.190448 0.713741
0.478004 0.105303 0.805341
0.691966 0.10248 0.750561
0.696025 0.102892 0.748898
0.695994 0.102892 0.748943
0.696056 0.103197 0.74966
0.152224 0.661372 0.855741
0.152941 0.662806 0.856291
0.149371 0.654765 0.854368
0.132723 0.616037 0.844953
0.428656 0.573602 1
0.787289 0.266453 0.909636
0.762036 0.169772 0.808209
0.749279 0.156054 0.796201
0.766781 0.176654 0.814771
0.252415 0.861189 0.897734
0.253925 0.863737 0.898451
0.253864 0.863645 0.898451
0.250614 0.85742 0.897704
0.23978 0.836454 0.895003
0.803754 0.865751 1
0.953719 0.702434 0.972625
0.952758 0.684657 0.970855
0.953567 0.697612 0.972137
0.278309 0.910109 0.902647
0.278538 0.910307 0.903059
0.278508 0.910262 0.903075
0.278508 0.910277 0.903059
0.277348 0.908049 0.902876
0.566278 0.975082 0.984192
0.958312 0.965957 0.984146
0.981506 0.957443 0.982147
0.981186 0.957061 0.982315
0.27805 0.909865 0.902205
0.278538 0.910323 0.903059
0.278553 0.910338 0.903075
0.278553 0.910323 0.903075
0.278447 0.910231 0.902907
0.278386 0.910185 0.902785
0.960952 0.988205 0.986908
0.992874 0.992615 0.992157
0.992828 0.992752 0.992386
0.278279 0.910079 0.902602
0.278538 0.910307 0.903044
0.278553 0.910338 0.903075
0.278553 0.910338 0.903075
0.278462 0.910246 0.902922
0.278386 0.910185 0.902785
0.957153 0.988647 0.986389
0.992813 0.992767 0.992432
0.993011 0.992264 0.991531
0.045243 0.190723 0.711269
0.0751354 0.186679 0.729656
0.166964 0.161929 0.769818
0.373281 0.123369 0.813504
0.586709 0.0910506 0.774121
0.696025 0.103136 0.749523
0.696025 0.10312 0.749493
0.696025 0.103105 0.749447
0.69604 0.103273 0.749859
0.00683604 0.194171 0.684627
0.032517 0.192096 0.702922
0.129107 0.174273 0.75642
0.353735 0.127199 0.812909
0.57995 0.0919966 0.777142
0.696025 0.10312 0.749477
0.696025 0.10312 0.749477
0.696025 0.103151 0.749554
0.696056 0.103349 0.750027
0 0.198154 0.665431
0 0.199496 0.666896
0.0284581 0.192569 0.700099
0.292271 0.137682 0.804959
0.556786 0.0945296 0.785473
0.69601 0.10309 0.749432
0.695994 0.102953 0.749096
0.695994 0.102983 0.749157
0.69604 0.103258 0.749798
0.0271305 0.321859 0.740871
0.0234989 0.310735 0.735103
0.00802625 0.263706 0.707958
0.055436 0.189715 0.717632
0.481987 0.104662 0.804593
0.69221 0.10251 0.7505
0.696025 0.102892 0.748913
0.69601 0.102907 0.748943
0.696056 0.103197 0.74966
0.151034 0.658976 0.855009
0.151995 0.660746 0.855741
0.148333 0.652674 0.853712
0.131655 0.613352 0.844388
0.430579 0.567544 1
0.784909 0.261326 0.906004
0.759793 0.167376 0.806149
0.74667 0.154467 0.794934
0.765408 0.17641 0.814832
0.252415 0.861189 0.897719
0.254002 0.863859 0.898497
0.253956 0.863783 0.898497
0.250477 0.857145 0.897658
0.239002 0.835111 0.894652
0.80499 0.862394 1
0.953429 0.69778 0.972427
0.952178 0.68162 0.971679
0.95346 0.695003 0.972183
0.278279 0.910033 0.902663
0.278492 0.910246 0.903044
0.278538 0.910292 0.90309
0.278553 0.910338 0.903075
0.277195 0.907668 0.902968
0.577157 0.974716 0.985321
0.956878 0.96405 0.984421
0.98056 0.953811 0.982071
0.980591 0.953979 0.982223
0.278264 0.910063 0.902586
0.278538 0.910323 0.903059
0.278553 0.910338 0.903075
0.278553 0.910338 0.903075
0.278553 0.910338 0.903075
0.278553 0.910338 0.903075
0.954604 0.988067 0.988922
0.992645 0.99263 0.992294
0.992844 0.992706 0.992325
0.278325 0.910124 0.902693
0.278538 0.910307 0.903044
0.278553 0.910338 0.903075
0.278553 0.910338 0.903075
0.278553 0.910338 0.903075
0.279408 0.910765 0.903532
0.941909 0.988724 0.98854
0.992721 0.993011 0.992874
0.992828 0.992752 0.992386
