bundles/resolve-cinematic-luts/Phantom Luts/Canon Alexa LUT/C-Log 2/Tungsten Canon CL2.cube
TITLE "Generated by Resolve"
LUT_3D_SIZE 5
0.00373846 0.00416571 0.0107424
0.155581 0.00935378 0.0357519
0.645075 0.0322576 0.202609
0.749172 0.0672618 0.331533
0.751644 0.0683299 0.351141
0.00724804 0.176883 0.0296788
0.117723 0.15964 0.012314
0.618296 0.0284581 0.110155
0.738338 0.0665904 0.25391
0.743618 0.0675364 0.276036
0 0.597742 0.0254063
0 0.597772 0.0024567
0.663767 0.621729 0.0476081
0.902159 0.587182 0.188602
0.902403 0.598627 0.189639
0.0789654 0.748394 0.171176
0.0976883 0.739895 0.112322
0.33576 0.76994 0.0631723
0.983001 0.890578 0.391272
0.982879 0.891142 0.394125
0.0651713 0.758709 0.246937
0.0931258 0.741619 0.124544
0.353796 0.771206 0.0624552
0.983093 0.889754 0.387259
0.982834 0.891295 0.394293
0 0.0160983 0.128115
0.139528 0.0149538 0.15404
0.639155 0.0361791 0.300618
0.753368 0.0689403 0.401038
0.754604 0.0699321 0.422293
0.0154574 0.149508 0.146838
0.109819 0.142702 0.148226
0.621775 0.0285344 0.194827
0.749783 0.0676432 0.332387
0.751507 0.0682536 0.350179
0 0.592508 0.131655
0 0.589792 0.0453498
0.653773 0.612146 0.0403754
0.899626 0.547509 0.184329
0.898558 0.554345 0.183093
0.0621347 0.763912 0.286519
0.0728923 0.752163 0.197986
0.286061 0.764523 0.0653086
0.982727 0.890318 0.389654
0.982879 0.891142 0.394125
0.0662852 0.77818 0.384436
0.0637827 0.76025 0.259724
0.304036 0.766064 0.0634775
0.981674 0.888731 0.381903
0.982834 0.891325 0.394339
0 0.0682231 0.508507
0.130037 0.0508888 0.57322
0.60827 0.0428779 0.597391
0.734554 0.0847028 0.636896
0.731319 0.0876326 0.654169
0 0.120485 0.475731
0 0.0656291 0.486717
0.58555 0.037705 0.576226
0.740185 0.0809186 0.608133
0.737438 0.0839857 0.628031
0.0251316 0.611765 0.579599
0.0246586 0.611383 0.579461
0.603189 0.610193 0.587503
1 0.4636 0.619898
0.995041 0.449409 0.632624
0.150942 0.836088 0.667063
0.144366 0.832395 0.652399
0.0724346 0.752468 0.200259
0.98024 0.88719 0.375479
0.982757 0.89102 0.397223
0.189883 0.858579 0.746731
0.174929 0.849989 0.717571
0.0636912 0.760235 0.260273
0.966384 0.880201 0.348196
0.982727 0.891447 0.395819
0.0185092 0.193225 0.693126
0.140902 0.170779 0.761074
0.578698 0.0921035 0.777584
0.696025 0.10312 0.749493
0.69604 0.103258 0.749798
0 0.197589 0.664851
0.00633249 0.194369 0.684215
0.548669 0.095552 0.788174
0.695994 0.102937 0.749035
0.69604 0.103258 0.749798
0.151064 0.668544 0.848417
0.151644 0.665415 0.851835
0.451194 0.615976 1
0.79585 0.209033 0.841947
0.795163 0.208453 0.841978
0.27744 0.909499 0.901244
0.277882 0.909834 0.902083
0.27303 0.905592 0.895415
0.968811 0.970687 0.96669
0.986084 0.96643 0.9691
0.278141 0.909957 0.902358
0.278553 0.910338 0.903075
0.274159 0.907698 0.895689
0.967041 0.988724 0.974029
0.992798 0.992828 0.992508
0.045243 0.190723 0.711269
0.166964 0.161929 0.769818
0.586709 0.0910506 0.774121
0.696025 0.10312 0.749493
0.69604 0.103273 0.749859
0 0.198154 0.665431
0.0284581 0.192569 0.700099
0.556786 0.0945296 0.785473
0.695994 0.102953 0.749096
0.69604 0.103258 0.749798
0.151034 0.658976 0.855009
0.148333 0.652674 0.853712
0.430579 0.567544 1
0.759793 0.167376 0.806149
0.765408 0.17641 0.814832
0.278279 0.910033 0.902663
0.278538 0.910292 0.90309
0.277195 0.907668 0.902968
0.956878 0.96405 0.984421
0.980591 0.953979 0.982223
0.278325 0.910124 0.902693
0.278553 0.910338 0.903075
0.278553 0.910338 0.903075
0.941909 0.988724 0.98854
0.992828 0.992752 0.992386
