bundles/resolve-cinematic-luts/Phantom Luts/Canon Alexa LUT/C-Log 2/Utopia Canon CL2.cube
TITLE "Generated by Resolve"
LUT_3D_SIZE 9
0 0.0249943 0.0329595
0.0304723 0.0233158 0.0370642
0.150805 0.0159915 0.035111
0.375463 0.0055848 0.0540475
0.620844 0.0128634 0.136553
0.777066 0.036759 0.253773
0.776455 0.0384222 0.286839
0.776226 0.0390021 0.303517
0.787686 0.0356756 0.312596
0 0.0507057 0.0323033
0.0166476 0.0426947 0.0322423
0.132677 0.0208896 0.0238193
0.348257 0.00688182 0.0224308
0.608865 0.0115969 0.0974136
0.776913 0.0350958 0.226612
0.777935 0.0369879 0.262135
0.778164 0.0379492 0.281071
0.789654 0.0343023 0.289982
0 0.189487 0
0 0.180179 0
0.1234 0.156283 0.0213779
0.37937 0.0614633 0.020798
0.60444 0.011368 0.0361944
0.753033 0.0298314 0.133791
0.770459 0.0327153 0.17789
0.77731 0.034287 0.205829
0.785489 0.0321813 0.215
0 0.471504 0
0 0.469917 0
0 0.454353 0
0.379431 0.398627 0.0323186
0.669337 0.301503 0.0545968
0.794125 0.0667124 0.0440223
0.794583 0.0426184 0.0692454
0.795987 0.0395514 0.0916152
0.797574 0.0369268 0.0963149
0.0462348 0.785534 0.00062562
0.0442206 0.78555 0
0.0442359 0.782864 0
0.156161 0.771527 0
0.704494 0.690196 0.0886091
0.926421 0.705074 0.122759
0.943206 0.595224 0.12398
0.938689 0.559487 0.125551
0.938308 0.544503 0.124041
0.139483 0.993835 0.0590677
0.150805 0.989258 0.0554665
0.153384 0.988388 0.0593271
0.150347 0.987472 0.0532235
0.555718 0.98558 0.0574807
0.970718 0.921508 0.188846
0.999969 0.921309 0.210193
0.999969 0.917327 0.209354
0.999969 0.914931 0.213138
0.117479 0.999542 0.100282
0.134508 0.99707 0.0702525
0.149859 0.991791 0.0526741
0.149859 0.991791 0.0526741
0.477134 0.997742 0.0416419
0.949462 0.951461 0.183566
0.999969 0.964034 0.404898
0.999969 0.965026 0.424521
0.999969 0.965133 0.424109
0.0946822 0.999969 0.161028
0.111925 0.999863 0.119387
0.143832 0.994049 0.0562295
0.14609 0.993149 0.0522164
0.446128 0.998032 0.0432441
0.907698 0.952026 0.171557
0.999969 0.963058 0.388724
0.999969 0.964782 0.425544
0.999969 0.965118 0.424201
0.0780499 0.999969 0.18262
0.098085 0.999969 0.137285
0.140627 0.995346 0.0602274
0.14609 0.993149 0.0521096
0.430167 0.998505 0.0410773
0.890471 0.953353 0.166522
0.999969 0.962585 0.37911
0.999969 0.964874 0.425193
0.999969 0.965209 0.423789
0 0.0281987 0.0498817
0.0216526 0.0250858 0.0591592
0.145312 0.0166476 0.0721599
0.374762 0.00727855 0.09131
0.623255 0.0135653 0.171496
0.784604 0.0357366 0.278462
0.782483 0.037171 0.308415
0.781735 0.0380713 0.324971
0.789242 0.0361181 0.336416
0 0.0418097 0.0506447
0.011902 0.0372625 0.0461585
0.13727 0.0216678 0.0421454
0.362005 0.0065156 0.0533913
0.616312 0.0118563 0.134279
0.785672 0.0340276 0.253178
0.784588 0.0358892 0.286534
0.783795 0.0365606 0.303441
0.79144 0.0344244 0.31191
0 0.178286 0.0343633
0 0.172671 0.00314336
0.115846 0.147601 0.0233158
0.380011 0.0380407 0.0129091
0.592355 0.0103151 0.0468605
0.7682 0.0309606 0.165225
0.780575 0.0335088 0.214694
0.782223 0.0344244 0.236881
0.78967 0.0326848 0.246067
0 0.462379 0
0 0.460105 0
0 0.447227 0
0.37232 0.391669 0.0316167
0.669749 0.271977 0.0550088
0.788067 0.0541085 0.0399786
0.796124 0.0410163 0.0811475
0.793088 0.0375982 0.0985428
0.792493 0.0347448 0.103441
0.036759 0.781613 0.033753
0.0386816 0.780987 0
0.0433204 0.777005 0
0.131914 0.768093 0
0.700816 0.686442 0.0876631
0.925017 0.699809 0.121477
0.94136 0.579522 0.124727
0.936934 0.541894 0.126284
0.936553 0.526192 0.124529
0.12665 0.997421 0.0836957
0.142321 0.993072 0.062211
0.153338 0.988357 0.0592813
0.148791 0.986999 0.0529183
0.54374 0.986465 0.054551
0.968566 0.920073 0.187747
0.999969 0.919432 0.209476
0.999969 0.914672 0.207568
0.999969 0.912276 0.207172
0.099382 0.999969 0.139162
0.116182 0.999649 0.101289
0.149462 0.991989 0.0530861
0.149859 0.991791 0.0526741
0.463645 0.998276 0.0393225
0.942092 0.951308 0.179599
0.999969 0.963928 0.403052
0.999969 0.965026 0.424521
0.999969 0.965118 0.424155
0.0737621 0.999969 0.206561
0.0944686 0.999969 0.163882
0.135195 0.99678 0.0722362
0.14609 0.993149 0.0522164
0.425834 0.998703 0.0407263
0.89836 0.952743 0.168612
0.999969 0.962982 0.386847
0.999969 0.964767 0.425605
0.999969 0.965133 0.424109
0.0610666 0.999969 0.235538
0.080705 0.999969 0.189273
0.126864 0.998413 0.0838788
0.146075 0.993149 0.0522164
0.401068 0.999161 0.0378882
0.879332 0.953933 0.162631
0.999969 0.962158 0.371191
0.999969 0.964874 0.425193
0.999969 0.96527 0.423621
0 0.0345617 0.140307
0 0.0305486 0.155581
0.12813 0.0197299 0.162219
0.365576 0.00761425 0.179553
0.615824 0.016846 0.251438
0.780346 0.0391089 0.335256
0.77818 0.0419776 0.370428
0.777615 0.0429389 0.388785
0.78529 0.0409247 0.399008
0 0.0437934 0.113375
0 0.0348669 0.134691
0.109621 0.0210422 0.144793
0.353719 0.0069276 0.1523
0.613718 0.0144656 0.2159
0.782574 0.0372931 0.311894
0.77969 0.0399023 0.345724
0.779232 0.0413062 0.365835
0.786648 0.039292 0.376272
0 0.148577 0.146334
0 0.142519 0.141009
0.104387 0.138262 0.144823
0.403296 0.0638437 0.115877
0.601251 0.0115358 0.131182
0.781933 0.0349126 0.250172
0.781781 0.0367895 0.285084
0.780484 0.0375219 0.301549
0.786816 0.0358434 0.309316
0 0.435309 0.110353
0 0.435233 0.0771344
0 0.427634 0
0.354467 0.373388 0.031342
0.663813 0.199634 0.0606851
0.800656 0.0479286 0.0829328
0.795178 0.0395666 0.118502
0.773037 0.0323339 0.128817
0.770504 0.0300145 0.12781
0.00985733 0.768765 0.134066
0.0141146 0.768917 0.0952773
0.0326848 0.763104 0.00251774
0.0705272 0.755596 0
0.690242 0.676265 0.0850996
0.918639 0.669795 0.11458
0.936477 0.536019 0.126574
0.931777 0.494133 0.127382
0.931044 0.477317 0.124269
0.0881666 0.999969 0.17731
0.0953384 0.999969 0.132372
0.137713 0.993118 0.0656138
0.146029 0.986755 0.0505989
0.509712 0.988785 0.0466163
0.963195 0.915709 0.184802
0.999969 0.913725 0.207004
0.999969 0.907912 0.204608
0.999969 0.904997 0.203357
0.0587625 0.999969 0.260075
0.0712902 0.999969 0.210941
0.114549 0.999756 0.103319
0.149859 0.991791 0.0526741
0.417838 0.999527 0.0331273
0.921996 0.951766 0.170809
0.999969 0.963684 0.39826
0.999969 0.965026 0.424521
0.999969 0.965148 0.424079
0.0393378 0.999969 0.333928
0.0496986 0.999969 0.286275
0.0938277 0.999969 0.168795
0.14609 0.993149 0.0522164
0.347051 0.999725 0.0340429
0.870665 0.954376 0.159289
0.999969 0.962341 0.375662
0.999969 0.964752 0.425757
0.999969 0.965118 0.424216
0.029221 0.999969 0.361975
0.0393072 0.999969 0.316945
0.0820325 0.999969 0.195895
0.146075 0.993149 0.0522164
0.321889 0.999817 0.0333562
0.849226 0.956024 0.152407
0.999969 0.961563 0.355016
0.999969 0.964874 0.425193
0.999969 0.965301 0.423499
0 0.0467231 0.31902
0 0.0427558 0.340185
0.0915084 0.0305791 0.354757
0.334798 0.0135653 0.352514
0.606241 0.0256962 0.394278
0.777295 0.0490272 0.452338
0.778546 0.0516518 0.476829
0.778729 0.0525063 0.490761
0.787213 0.049836 0.501076
0 0.0523537 0.285618
0 0.0460365 0.311467
0.0554665 0.0335699 0.349294
0.323537 0.0136721 0.34165
0.602548 0.024506 0.378347
0.776867 0.0480201 0.439536
0.777874 0.0501717 0.46273
0.779782 0.0513313 0.476616
0.788357 0.0486915 0.486244
0 0.148898 0.277501
0 0.136217 0.285634
0 0.0990616 0.353552
0.306722 0.0240024 0.322042
0.586786 0.0201572 0.327947
0.773129 0.0446326 0.396582
0.774151 0.0472877 0.42266
0.77435 0.048661 0.436072
0.781094 0.0467079 0.444297
0 0.376516 0.348745
0 0.372335 0.344366
0 0.359304 0.329976
0.33077 0.360845 0.349203
0.702586 0.238437 0.3093
0.814343 0.0574502 0.313222
0.789822 0.0391394 0.299886
0.784787 0.0370031 0.300893
0.786603 0.0365454 0.307286
0 0.720592 0.37377
0 0.721645 0.354513
0 0.723674 0.289479
0.0213626 0.721691 0.0323644
0.665019 0.653696 0.148379
0.910674 0.566964 0.183719
0.929229 0.424872 0.189837
0.919905 0.362463 0.183825
0.915434 0.333425 0.178286
0.0228733 0.995285 0.410071
0.019379 0.997879 0.378851
0.0357977 0.999237 0.296925
0.113664 0.9888 0.0684062
0.385458 0.994247 0.0259861
0.949248 0.905287 0.178759
0.999969 0.89749 0.200031
0.999969 0.888014 0.196017
0.999969 0.883833 0.194095
0.0166629 0.999939 0.493248
0.0122988 0.999969 0.463813
0.0262608 0.999969 0.384054
0.110979 0.999908 0.11043
0.219608 0.999817 0.0342107
0.862806 0.955657 0.152392
0.999969 0.963241 0.387854
0.999969 0.965026 0.424628
0.999969 0.965148 0.424063
0.00683604 0.99968 0.534951
0.00654612 0.999969 0.510552
0.0173495 0.999969 0.440803
0.0914778 0.999969 0.175921
0.173831 0.997375 0.0467842
0.79585 0.961166 0.136049
0.999969 0.960586 0.341543
0.999969 0.964736 0.426047
0.999969 0.965103 0.424491
0.00205997 0.999603 0.55288
0.00360113 0.999863 0.530007
0.0128176 0.999969 0.462913
0.0818799 0.999969 0.205844
0.163561 0.996246 0.0488136
0.770718 0.963943 0.128511
0.999969 0.959564 0.32192
0.999969 0.964874 0.425299
0.999969 0.96527 0.423758
0 0.0717327 0.525521
0 0.0652323 0.544137
0.0547646 0.0512856 0.569451
0.312535 0.0317235 0.573251
0.574502 0.0354925 0.577096
0.763317 0.063386 0.620996
0.75996 0.0662394 0.647364
0.759213 0.0673075 0.661341
0.768872 0.063798 0.676295
0 0.0765087 0.498466
0 0.0711986 0.523186
0.0112306 0.054902 0.563027
0.294636 0.0329442 0.572625
0.569589 0.034638 0.572488
0.764172 0.0624399 0.612024
0.761318 0.0652934 0.638712
0.760632 0.066331 0.652613
0.770428 0.0628367 0.666804
0 0.115526 0.479362
0 0.0969253 0.482506
0 0.0688792 0.520104
0.228977 0.0363928 0.564416
0.550591 0.0316625 0.55404
0.761746 0.0605936 0.58294
0.761318 0.0631266 0.606073
0.760128 0.0646372 0.619699
0.768185 0.062089 0.632059
0 0.396826 0.550149
0 0.390738 0.551461
0 0.367498 0.551385
0.130907 0.297337 0.641367
0.586297 0.11841 0.576837
0.767254 0.0557107 0.5131
0.768551 0.0571908 0.522438
0.767605 0.0580453 0.532326
0.774594 0.0556497 0.541466
0 0.657435 0.617761
0 0.655482 0.616266
0 0.648753 0.609247
0 0.629923 0.586587
0.59292 0.610803 0.586908
0.934707 0.525887 0.567025
0.962631 0.439429 0.565057
0.95314 0.4 0.562509
0.947875 0.380255 0.5617
0.000183108 0.94818 0.665003
0 0.950973 0.655268
0 0.950408 0.630488
0 0.950103 0.552163
0.17847 0.98085 0.314458
0.912795 0.897734 0.433753
0.998825 0.850324 0.435813
0.996078 0.829969 0.438895
0.994842 0.821454 0.441367
0.0153353 0.991852 0.729488
0.00584421 0.9944 0.718593
0.00247196 0.995758 0.689219
0.00247196 0.998489 0.599161
0.107118 0.999969 0.118532
0.730724 0.969421 0.11249
0.999969 0.962188 0.376089
0.999969 0.963546 0.401709
0.999969 0.962448 0.379614
0.0117037 0.992187 0.75407
0.00823987 0.993133 0.743374
0.0043183 0.994827 0.713405
0.00317388 0.997528 0.623682
0.0880903 0.999969 0.186419
0.641443 0.979583 0.0897383
0.999969 0.957992 0.299351
0.999969 0.964797 0.428443
0.999969 0.965179 0.427161
0.0127413 0.991714 0.766476
0.00959792 0.99263 0.755352
0.00527962 0.994247 0.724971
0.00294499 0.997192 0.635447
0.079408 0.999969 0.214176
0.600214 0.985 0.0765087
0.999969 0.956405 0.271366
0.999969 0.964675 0.419272
0.999969 0.965331 0.426047
0 0.133623 0.706096
0 0.125002 0.731716
0.034226 0.0920119 0.768704
0.299626 0.0706188 0.791943
0.556786 0.0543984 0.770291
0.735088 0.0775158 0.762951
0.731472 0.0799268 0.779385
0.729732 0.080766 0.784497
0.73518 0.0785382 0.793118
0 0.139208 0.68249
0 0.132616 0.705516
0 0.102068 0.757244
0.276173 0.0722972 0.790784
0.550408 0.0539864 0.770794
0.733989 0.0773022 0.75996
0.731197 0.0800488 0.775494
0.730495 0.0803998 0.783673
0.736782 0.0777905 0.793912
0 0.166079 0.667811
0 0.146929 0.666056
0 0.127749 0.697002
0.200671 0.0763256 0.78114
0.527077 0.0529793 0.7691
0.730495 0.0772717 0.747127
0.727184 0.0813153 0.758953
0.72694 0.0817731 0.767102
0.736538 0.0777905 0.782162
0 0.376074 0.703899
0 0.361624 0.707454
0 0.315801 0.708598
0 0.209949 0.780026
0.459846 0.0636759 0.772274
0.728527 0.0703593 0.725185
0.7364 0.0771344 0.729259
0.735134 0.0776074 0.735531
0.743496 0.0741283 0.748043
0 0.664958 0.803357
0 0.664256 0.807187
0 0.657435 0.809155
0 0.635157 0.81146
0.451041 0.584802 0.878508
0.83299 0.396201 0.802396
0.877821 0.289693 0.77702
0.864515 0.251316 0.767849
0.860273 0.234165 0.766781
0.0110323 0.898405 0.859556
0.000488289 0.899657 0.860929
0 0.895613 0.855619
0 0.88484 0.842237
0.104768 0.876417 0.827222
0.826352 0.833051 0.80856
0.988022 0.779477 0.801053
0.98761 0.755749 0.799985
0.986404 0.744045 0.799435
0.0480201 0.982391 0.903593
0.047013 0.982254 0.900801
0.0438239 0.982925 0.89279
0.0341802 0.985245 0.869108
0.0135653 0.991333 0.776486
0.656092 0.999969 0.677073
0.985794 0.974197 0.796811
0.999176 0.970031 0.805356
0.999115 0.966842 0.797314
0.0532692 0.981414 0.916976
0.0533608 0.980865 0.913497
0.0498054 0.981552 0.904753
0.0378882 0.984344 0.879072
0.0166018 0.990585 0.78088
0.459785 0.999969 0.580041
0.970871 0.980819 0.653758
0.999969 0.982208 0.78088
0.999969 0.981918 0.773587
0.0560159 0.980529 0.922713
0.0565499 0.980179 0.919097
0.0528725 0.980865 0.910216
0.0399634 0.983841 0.884138
0.017258 0.990372 0.785382
0.368292 0.999969 0.560037
0.950057 0.98262 0.620371
0.999969 0.980728 0.750698
0.999969 0.98143 0.760082
0 0.190265 0.789136
0 0.185092 0.815412
0.0176852 0.152911 0.859785
0.306645 0.10399 0.87747
0.57644 0.0736095 0.841886
0.729549 0.0811933 0.794186
0.729442 0.0814069 0.793698
0.727199 0.0823529 0.790906
0.733028 0.0798657 0.798184
0 0.193881 0.767529
0 0.190372 0.791318
0 0.16849 0.845579
0.280964 0.107256 0.878279
0.568887 0.0741436 0.845609
0.728634 0.0810559 0.794308
0.72932 0.0814527 0.79353
0.730037 0.0811627 0.794217
0.734737 0.0791485 0.800168
0 0.1991 0.751949
0 0.196551 0.753933
0 0.190509 0.790158
0.197681 0.117128 0.877821
0.538445 0.0771344 0.854337
0.725521 0.0814984 0.792569
0.724819 0.0833753 0.788006
0.72546 0.0830854 0.7888
0.732372 0.0801404 0.79736
0 0.335454 0.794446
0 0.319203 0.796887
0 0.270848 0.784833
0 0.190249 0.804211
0.438437 0.0891585 0.869718
0.71165 0.0776837 0.800107
0.722423 0.0844129 0.785153
0.722622 0.0843214 0.785321
0.730739 0.0808728 0.795331
0 0.676432 0.881956
0 0.674678 0.885679
0 0.665583 0.884962
0 0.634653 0.879133
0.3187 0.573312 0.962722
0.768505 0.344259 0.927504
0.818173 0.213535 0.864469
0.800427 0.177752 0.84802
0.79762 0.160266 0.847349
0.0252079 0.887373 0.943114
0.019791 0.887083 0.945541
0.0183719 0.882872 0.945891
0.0146487 0.871977 0.946517
0.0158999 0.854856 0.952468
0.739437 0.818799 0.973648
0.95285 0.699336 0.935836
0.951217 0.674632 0.931411
0.948699 0.664836 0.930434
0.0708019 0.977172 0.960845
0.0894026 0.971435 0.956008
0.0909285 0.970108 0.954345
0.0834669 0.969528 0.952361
0.0643626 0.966903 0.945251
0.59823 0.974334 0.952361
0.95761 0.95671 0.948562
0.991501 0.94757 0.946532
0.990539 0.942184 0.945068
0.0734569 0.977539 0.963973
0.0945602 0.97145 0.958679
0.0979782 0.970474 0.957
0.0920424 0.971817 0.954406
0.0666056 0.978149 0.943221
0.115633 0.998672 0.924788
0.942641 0.993042 0.93901
0.994476 0.99089 0.984207
0.993881 0.991043 0.986862
0.0733806 0.977661 0.964553
0.093843 0.971695 0.959411
0.0991531 0.970199 0.957748
0.0944076 0.971191 0.955139
0.0669566 0.978042 0.942794
0.0775769 0.996048 0.910597
0.91725 0.994598 0.925475
0.990555 0.989899 0.961975
0.992355 0.991363 0.989563
0 0.187823 0.804013
0 0.179263 0.828824
0.0455024 0.144244 0.86421
0.319966 0.102296 0.876951
0.585138 0.0724041 0.838727
0.729732 0.0812695 0.794064
0.729442 0.0814069 0.793698
0.728328 0.0818799 0.792325
0.732113 0.0802777 0.79675
0 0.191852 0.778592
0 0.188037 0.805051
0 0.160098 0.854475
0.294987 0.105531 0.878004
0.577035 0.0732433 0.843244
0.729671 0.0813001 0.794003
0.729351 0.0814374 0.793576
0.730037 0.0811627 0.794217
0.733639 0.0796216 0.798688
0 0.194812 0.748104
0 0.196872 0.75523
0 0.188403 0.803769
0.213153 0.11545 0.878355
0.546044 0.0763867 0.852995
0.726635 0.0814374 0.792966
0.725231 0.0831922 0.78851
0.725994 0.0828717 0.789456
0.732372 0.0801404 0.79736
0 0.32845 0.801404
0 0.31104 0.800946
0 0.259495 0.78294
0 0.185504 0.814252
0.443305 0.0882277 0.868971
0.714351 0.0775006 0.801099
0.723064 0.0841382 0.78587
0.723461 0.0839704 0.786358
0.730816 0.0808423 0.795422
0 0.673396 0.896834
0 0.670497 0.899077
0 0.657099 0.893309
0 0.614054 0.875303
0.287694 0.528344 0.960327
0.746029 0.293858 0.920958
0.790295 0.158572 0.842039
0.765774 0.125322 0.818875
0.763546 0.111589 0.819501
0.0337835 0.895766 0.960861
0.0316167 0.894316 0.96202
0.029633 0.889754 0.962036
0.0235904 0.877134 0.961379
0.0147707 0.848463 0.960601
0.700389 0.811582 0.992752
0.935286 0.668696 0.961501
0.936324 0.639216 0.955749
0.93286 0.629602 0.955962
0.0739452 0.97673 0.964736
0.0948501 0.970428 0.959533
0.0978714 0.968505 0.958602
0.0931716 0.967102 0.959442
0.0778515 0.962844 0.961837
0.50277 0.977707 0.998138
0.933211 0.950195 0.984298
0.983322 0.931716 0.979644
0.981903 0.925444 0.979263
0.0728923 0.977951 0.964996
0.0959335 0.97116 0.959411
0.100237 0.969955 0.958343
0.0990311 0.970291 0.958648
0.0806287 0.975479 0.963272
0.0769818 0.976852 0.964263
0.92697 0.988708 0.984558
0.993118 0.989166 0.98703
0.995758 0.988495 0.986252
0.0743267 0.977386 0.964736
0.0957961 0.971206 0.959457
0.100237 0.969955 0.958343
0.0999619 0.970031 0.958404
0.0816358 0.975189 0.963027
0.0764935 0.976928 0.963546
0.885679 0.992599 0.982483
0.992538 0.991226 0.989563
0.994141 0.990997 0.989609
0 0.185977 0.810803
0 0.176181 0.834623
0.0606546 0.139101 0.866102
0.326528 0.101427 0.876661
0.589197 0.0717021 0.837018
0.729702 0.0812848 0.794034
0.729442 0.0814069 0.793698
0.729107 0.0815442 0.793271
0.732601 0.0800488 0.79765
0 0.190616 0.784833
0 0.186221 0.811902
0.00791943 0.155871 0.857908
0.301488 0.104692 0.877714
0.58117 0.0728008 0.842008
0.729351 0.0814374 0.793576
0.729381 0.0814374 0.793606
0.730114 0.0811322 0.794263
0.734066 0.079408 0.799558
0 0.195789 0.748806
0 0.195819 0.758297
0 0.186648 0.810224
0.22034 0.114672 0.878569
0.549767 0.0759747 0.852094
0.72697 0.0815442 0.792767
0.725231 0.0831922 0.78851
0.725994 0.0828717 0.789456
0.732372 0.0801404 0.79736
0 0.323995 0.800305
0 0.306218 0.799695
0 0.253376 0.780484
0 0.183795 0.819272
0.446433 0.0877699 0.868544
0.715511 0.0777142 0.800778
0.723156 0.0841077 0.785992
0.723583 0.0839246 0.786511
0.730816 0.0808423 0.795422
0 0.664988 0.893034
0 0.661921 0.895247
0 0.64744 0.889021
0 0.602213 0.870878
0.275303 0.505486 0.958556
0.735668 0.269352 0.915419
0.773785 0.13341 0.826459
0.749752 0.106828 0.805295
0.74696 0.0962234 0.808026
0.0327306 0.892744 0.960967
0.0301671 0.891203 0.962036
0.0278935 0.886244 0.961883
0.0213626 0.872267 0.960967
0.0116121 0.840589 0.959152
0.693919 0.799222 0.994492
0.930282 0.65478 0.960754
0.932738 0.623041 0.954681
0.9299 0.613443 0.954452
0.0741741 0.97641 0.96463
0.0944686 0.970184 0.959579
0.0973373 0.968185 0.958633
0.0939498 0.966155 0.959106
0.0832837 0.958816 0.960189
0.493462 0.974441 0.998611
0.926635 0.944854 0.986786
0.980896 0.92256 0.980911
0.979416 0.915938 0.980591
0.0733959 0.977707 0.964935
0.095964 0.971145 0.959411
0.100237 0.969955 0.958343
0.100237 0.969955 0.958343
0.100237 0.969955 0.958343
0.100237 0.969955 0.958343
0.90631 0.988373 0.991653
0.990082 0.987823 0.989166
0.993713 0.98735 0.988312
0.0751354 0.977127 0.964553
0.0958114 0.971206 0.959457
0.100237 0.969955 0.958343
0.100237 0.969955 0.958343
0.100237 0.969955 0.958343
0.100237 0.969955 0.958343
0.819623 0.994339 0.993484
0.991775 0.99147 0.991394
0.993667 0.991089 0.990036
