bundles/resolve-cinematic-luts/Phantom Luts/Canon Alexa LUT/C-Log 2/Utopia Canon CL2-Legacy.cube
TITLE "Generated by Resolve"
LUT_3D_SIZE 5
0.00936904 0.0345312 0.043473
0.118379 0.0302434 0.0483101
0.592233 0.0255741 0.108644
0.775509 0.0484169 0.245274
0.786099 0.0467231 0.271229
0 0.149432 0.0201572
0.091249 0.124346 0.0339208
0.57557 0.0247959 0.0375525
0.759854 0.0439155 0.143771
0.777264 0.0436408 0.175051
0.0491646 0.742794 0.000762951
0.0484932 0.740108 0
0.662104 0.653208 0.0870375
0.943343 0.556649 0.129595
0.938537 0.502892 0.127764
0.130694 0.999893 0.0944533
0.152575 0.996643 0.0562753
0.434958 0.99968 0.044892
0.999969 0.962692 0.379995
0.999969 0.963867 0.398383
0.100786 0.999969 0.15375
0.14583 0.998154 0.0662394
0.388525 0.999817 0.0466011
0.999969 0.961135 0.357092
0.999969 0.963943 0.397848
0 0.0411841 0.116823
0.100771 0.0330968 0.136889
0.59118 0.026276 0.208865
0.778561 0.0507362 0.332555
0.785153 0.0508888 0.363256
0 0.117937 0.120928
0.0781109 0.110903 0.118914
0.571038 0.0247044 0.104128
0.779782 0.0469978 0.242893
0.785275 0.0468147 0.268101
0.0225681 0.724819 0.0967575
0.0386816 0.718944 0.00299077
0.647105 0.638544 0.0830091
0.935958 0.493721 0.130068
0.929091 0.432334 0.125673
0.0838178 0.999969 0.220798
0.128786 0.999969 0.0952773
0.376333 0.999969 0.0387732
0.999969 0.962371 0.373983
0.999969 0.963867 0.398306
0.0531319 0.999969 0.315511
0.102953 0.999969 0.16788
0.29073 0.999969 0.043473
0.999969 0.960143 0.334707
0.999969 0.964019 0.397391
0 0.0756847 0.488884
0.0219425 0.0634165 0.533227
0.547127 0.0445869 0.549401
0.766415 0.0729229 0.618387
0.773739 0.0711681 0.647089
0 0.101518 0.440696
0 0.0738079 0.483177
0.523522 0.0413367 0.525597
0.767575 0.0710918 0.577585
0.773617 0.0702983 0.601755
0 0.613413 0.575204
0 0.604486 0.565469
0.550805 0.568689 0.545754
0.957809 0.394507 0.521309
0.940841 0.33196 0.515755
0.0214542 0.995712 0.697429
0.0121157 0.998276 0.655543
0.123217 0.999969 0.106569
0.999969 0.960723 0.354681
0.999969 0.961089 0.356268
0.0189364 0.995407 0.733852
0.0131075 0.997208 0.691035
0.0987869 0.999969 0.187152
0.999969 0.955566 0.264912
0.999969 0.964096 0.399893
0 0.164675 0.770062
0 0.140078 0.838575
0.537255 0.0843824 0.855314
0.72987 0.0910964 0.807584
0.732754 0.0898451 0.811231
0 0.169238 0.729503
0 0.165011 0.771298
0.496101 0.0865339 0.86389
0.726085 0.0927596 0.802304
0.732372 0.090013 0.810758
0 0.64036 0.863569
0 0.629129 0.86772
0.258488 0.527733 0.951812
0.797528 0.186221 0.852354
0.783032 0.14725 0.841917
0.0769665 0.982315 0.968704
0.0862135 0.979294 0.966018
0.0701762 0.976791 0.953445
0.966079 0.964767 0.95465
0.994705 0.946456 0.951308
0.0781415 0.981659 0.96907
0.0878157 0.978897 0.966995
0.0704204 0.98323 0.9505
0.914244 0.99585 0.926711
0.992248 0.991379 0.990784
0 0.16228 0.789975
0.00523384 0.131365 0.847868
0.551217 0.0830549 0.851591
0.729885 0.0910964 0.807584
0.732128 0.090135 0.810361
0 0.166964 0.727138
0 0.162707 0.789563
0.507881 0.0858625 0.862516
0.726604 0.0925307 0.802976
0.732372 0.090013 0.810758
0 0.62977 0.882155
0 0.61001 0.877562
0.212345 0.455558 0.946624
0.765835 0.130251 0.828916
0.745693 0.104402 0.819593
0.0777295 0.981643 0.969131
0.0880751 0.978515 0.96672
0.080293 0.970275 0.967224
0.929702 0.948623 0.992309
0.988479 0.913314 0.987396
0.0774853 0.981857 0.969146
0.0881819 0.978622 0.96672
0.0881819 0.978622 0.96672
0.79884 0.997299 0.995789
0.994568 0.99089 0.989242
