bundles/resolve-cinematic-luts/Phantom Luts/Canon Alexa LUT/C-Log 2/Utopia Canon CL2-Legacy.cube
TITLE "Generated by Resolve"
LUT_3D_SIZE 9
0.00936904 0.0345312 0.043473
0.0289769 0.0340887 0.0481117
0.118379 0.0302434 0.0483101
0.329015 0.0218509 0.0539712
0.592233 0.0255741 0.108644
0.772976 0.0469215 0.211246
0.775509 0.0484169 0.245274
0.776761 0.0493019 0.263066
0.786099 0.0467231 0.271229
0.00866712 0.0516823 0.0453193
0.0209354 0.0465705 0.0458686
0.104097 0.0332952 0.0406348
0.300526 0.0227665 0.0348516
0.579461 0.0247501 0.0793164
0.770336 0.0461738 0.185336
0.774029 0.0472419 0.220035
0.775845 0.0478828 0.239185
0.786374 0.0451667 0.247379
0 0.149432 0.0201572
0 0.142092 0.0125734
0.091249 0.124346 0.0339208
0.324315 0.0564126 0.0314031
0.57557 0.0247959 0.0375525
0.737835 0.0408331 0.108064
0.759854 0.0439155 0.143771
0.769116 0.0450141 0.167239
0.777264 0.0436408 0.175051
0 0.412634 0
0 0.411124 0
0.00366217 0.39498 0
0.316121 0.345937 0.039353
0.626276 0.244373 0.0581369
0.788571 0.0679332 0.04654
0.79736 0.0556191 0.0651865
0.796719 0.0535286 0.0805219
0.796963 0.0510109 0.0833143
0.0491646 0.742794 0.000762951
0.0480354 0.74284 0
0.0484932 0.740108 0
0.125032 0.729152 0
0.662104 0.653208 0.0870375
0.911101 0.671931 0.122133
0.943343 0.556649 0.129595
0.938933 0.519219 0.130297
0.938537 0.502892 0.127764
0.145251 0.997208 0.0660258
0.153307 0.995422 0.055314
0.154391 0.995209 0.057023
0.1552 0.995453 0.0554971
0.518639 0.995773 0.0587778
0.966781 0.92929 0.195239
0.999969 0.92987 0.21738
0.999969 0.924468 0.21619
0.999969 0.921706 0.219928
0.130694 0.999893 0.0944533
0.141573 0.998917 0.0723125
0.152575 0.996643 0.0562753
0.152575 0.996643 0.0562753
0.434958 0.99968 0.044892
0.93817 0.953246 0.186938
0.999969 0.962692 0.379995
0.999969 0.963775 0.398978
0.999969 0.963867 0.398383
0.113817 0.999969 0.142107
0.126131 0.999969 0.10988
0.14873 0.997452 0.0641642
0.150835 0.996918 0.0602274
0.404379 0.99971 0.048188
0.887129 0.955108 0.172396
0.999969 0.961654 0.366232
0.999969 0.963531 0.400763
0.999969 0.963821 0.398688
0.100786 0.999969 0.15375
0.116884 0.999969 0.119066
0.14583 0.998154 0.0662394
0.150835 0.996918 0.0602121
0.388525 0.999817 0.0466011
0.868559 0.95639 0.167315
0.999969 0.961135 0.357092
0.999969 0.963638 0.4
0.999969 0.963943 0.397848
0.00483711 0.0365911 0.0551614
0.0233005 0.0354162 0.0617838
0.113985 0.0308385 0.0719768
0.329091 0.022797 0.0803082
0.595148 0.0262455 0.137224
0.78114 0.0460517 0.236271
0.781979 0.0478676 0.267506
0.781979 0.0488289 0.285405
0.787594 0.0464942 0.297307
0.00889601 0.0457923 0.0550088
0.0166323 0.043473 0.0529641
0.107317 0.0339361 0.0527657
0.315496 0.022385 0.0539864
0.58706 0.0251316 0.107256
0.77969 0.0449073 0.210208
0.781674 0.0464027 0.244434
0.782773 0.047303 0.262043
0.789059 0.0457008 0.270191
0 0.140398 0.0455024
0 0.13637 0.0257267
0.0860304 0.118105 0.0353094
0.32723 0.041413 0.0261082
0.562219 0.023621 0.0438087
0.755611 0.0422675 0.132708
0.773037 0.0446784 0.175128
0.776379 0.0455024 0.194797
0.783352 0.0439307 0.203021
0 0.401862 0.000549325
0 0.400519 0
0 0.388037 0
0.30959 0.338598 0.0390784
0.626307 0.218662 0.0582284
0.786313 0.0604562 0.0442512
0.798398 0.0549172 0.0736858
0.79263 0.051667 0.0850843
0.789227 0.0484932 0.0877852
0.0428473 0.738338 0.0235447
0.0438087 0.737514 0
0.0471809 0.733852 0
0.106218 0.725414 0
0.658289 0.649042 0.0861524
0.90988 0.666362 0.12108
0.94139 0.53991 0.130037
0.936858 0.500359 0.130297
0.936294 0.483253 0.127718
0.136294 0.998795 0.083772
0.146838 0.997116 0.0622416
0.154314 0.995178 0.0569314
0.154192 0.995315 0.0556802
0.505776 0.996658 0.0563211
0.964019 0.927169 0.193896
0.999969 0.927855 0.217136
0.999969 0.921386 0.214435
0.999969 0.918273 0.213993
0.117556 0.999969 0.122316
0.129931 0.999924 0.0941024
0.151522 0.996933 0.0576638
0.152575 0.996643 0.0562753
0.421195 0.999832 0.0431067
0.929213 0.953368 0.183078
0.999969 0.9626 0.378164
0.999969 0.963775 0.398978
0.999969 0.963851 0.398413
0.096849 0.999969 0.174228
0.112886 0.999969 0.142718
0.142504 0.998688 0.076463
0.150835 0.996918 0.0602274
0.383597 0.999863 0.0461891
0.876799 0.955734 0.169375
0.999969 0.961547 0.364813
0.999969 0.963516 0.400854
0.999969 0.963851 0.398505
0.0856184 0.999969 0.197604
0.102419 0.999969 0.160754
0.136629 0.999466 0.0838483
0.150835 0.996918 0.0602274
0.359838 0.999969 0.0446937
0.857221 0.957427 0.16376
0.999969 0.960723 0.349447
0.999969 0.963638 0.4
0.999969 0.963989 0.397559
0 0.0411841 0.116823
0.00814832 0.0399329 0.128664
0.100771 0.0330968 0.136889
0.324239 0.020325 0.147967
0.59118 0.026276 0.208865
0.780484 0.0486152 0.296178
0.778561 0.0507362 0.332555
0.778897 0.0522469 0.352972
0.785153 0.0508888 0.363256
0 0.0472114 0.0975204
0 0.0416571 0.11281
0.0860304 0.0339513 0.123247
0.312032 0.0217136 0.127062
0.587793 0.0264744 0.175891
0.781857 0.048127 0.271336
0.779156 0.0483711 0.306722
0.779293 0.0500343 0.327565
0.785504 0.0487221 0.33785
0 0.117937 0.120928
0 0.113359 0.117006
0.0781109 0.110903 0.118914
0.349477 0.0571756 0.0940871
0.571038 0.0247044 0.104128
0.776852 0.0456703 0.20766
0.779782 0.0469978 0.242893
0.780056 0.0480659 0.260227
0.785275 0.0468147 0.268101
0 0.375769 0.0820172
0 0.374838 0.0585489
0 0.3673 0
0.290974 0.318608 0.04065
0.617731 0.156451 0.0572671
0.800626 0.0585489 0.0744945
0.791531 0.0522011 0.0979171
0.760891 0.0449683 0.104677
0.755871 0.0412909 0.103105
0.0225681 0.724819 0.0967575
0.0260166 0.723903 0.0671855
0.0386816 0.718944 0.00299077
0.063447 0.712352 0
0.647105 0.638544 0.0830091
0.904952 0.635386 0.115526
0.935958 0.493721 0.130068
0.930282 0.450324 0.128893
0.929091 0.432334 0.125673
0.107713 0.999969 0.153231
0.115679 0.999969 0.11545
0.144747 0.997497 0.0657969
0.152819 0.995346 0.0551919
0.471733 0.998245 0.049958
0.957 0.922087 0.190784
0.999969 0.920195 0.213809
0.999969 0.912139 0.210575
0.999969 0.908324 0.209003
0.0838178 0.999969 0.220798
0.0949264 0.999969 0.177401
0.128786 0.999969 0.0952773
0.152575 0.996643 0.0562753
0.376333 0.999969 0.0387732
0.904372 0.954253 0.172625
0.999969 0.962371 0.373983
0.999969 0.963775 0.398978
0.999969 0.963867 0.398306
0.0635843 0.999969 0.288579
0.0751965 0.999969 0.241962
0.112276 0.999969 0.146807
0.150835 0.996918 0.0602274
0.312352 0.999969 0.0431373
0.847349 0.958068 0.160174
0.999969 0.960876 0.353796
0.999969 0.9635 0.400992
0.999969 0.963836 0.39852
0.0531319 0.999969 0.315511
0.0643626 0.999969 0.271626
0.102953 0.999969 0.16788
0.150835 0.996918 0.0602274
0.29073 0.999969 0.043473
0.825605 0.960189 0.153704
0.999969 0.960143 0.334707
0.999969 0.963638 0.4
0.999969 0.964019 0.397391
0 0.0529335 0.269963
0 0.0513924 0.289113
0.0660868 0.043183 0.30576
0.293614 0.0292058 0.308446
0.57998 0.0347143 0.358221
0.78175 0.0589609 0.420523
0.784009 0.0613718 0.445777
0.784131 0.0623484 0.460334
0.790875 0.0603342 0.469871
0 0.0556497 0.237491
0 0.05243 0.263096
0.0378882 0.0455024 0.299428
0.281926 0.0293278 0.297322
0.576654 0.0336919 0.34081
0.780072 0.0574197 0.4065
0.782666 0.0597391 0.431098
0.785199 0.0611276 0.445502
0.792187 0.0591897 0.454643
0 0.11986 0.229053
0 0.111116 0.237675
0 0.0868086 0.298238
0.260868 0.0348516 0.275029
0.561868 0.0294041 0.287541
0.775158 0.0536049 0.361669
0.777035 0.0563211 0.389059
0.778027 0.057847 0.403433
0.783825 0.0565499 0.411124
0 0.316609 0.291493
0 0.312474 0.28748
0 0.299687 0.273884
0.27396 0.302785 0.294865
0.653254 0.189899 0.254215
0.814069 0.0633097 0.266667
0.790005 0.0493935 0.257603
0.784894 0.0478523 0.259449
0.786068 0.0474708 0.265949
0 0.680461 0.315602
0 0.681773 0.295644
0 0.682994 0.229633
0.0281987 0.676127 0.0205081
0.622507 0.614023 0.129595
0.897398 0.525551 0.165209
0.919615 0.37789 0.1691
0.905974 0.312856 0.160586
0.900359 0.28336 0.153643
0.0444495 0.999512 0.366506
0.0442969 0.999969 0.333043
0.0624094 0.999969 0.25124
0.12755 0.994095 0.0679484
0.345373 0.99942 0.0342107
0.939193 0.908385 0.183154
0.999969 0.898665 0.20502
0.999969 0.886519 0.200366
0.999969 0.88069 0.198123
0.0341039 0.999969 0.453986
0.0323796 0.999969 0.422019
0.0495003 0.999969 0.339162
0.126101 0.999969 0.100801
0.207324 0.999969 0.0445106
0.838239 0.959258 0.153109
0.999969 0.961852 0.364858
0.999969 0.963775 0.39913
0.999969 0.963867 0.398322
0.02327 0.999969 0.4963
0.0244755 0.999969 0.470375
0.0383307 0.999969 0.397284
0.110094 0.999969 0.153155
0.173831 0.99884 0.0554665
0.769162 0.965896 0.1364
0.999969 0.959243 0.324269
0.999969 0.963516 0.401266
0.999969 0.963851 0.398856
0.0179294 0.999969 0.514977
0.0205844 0.999969 0.491096
0.0329137 0.999969 0.420905
0.101915 0.999969 0.177142
0.1664 0.998474 0.0572671
0.742794 0.969146 0.128588
0.999969 0.958343 0.306828
0.999969 0.963638 0.400137
0.999969 0.964004 0.397742
0 0.0756847 0.488884
0 0.0722972 0.506447
0.0219425 0.0634165 0.533227
0.270649 0.0453651 0.543709
0.547127 0.0445869 0.549401
0.769848 0.0715343 0.591852
0.766415 0.0729229 0.618387
0.765698 0.0739452 0.633417
0.773739 0.0711681 0.647089
0 0.0776379 0.462348
0 0.0753338 0.486366
0 0.0659342 0.525429
0.252049 0.0465705 0.542962
0.542351 0.0438392 0.544411
0.770184 0.070634 0.583001
0.767819 0.0723125 0.609293
0.766934 0.0730755 0.623728
0.775082 0.0702831 0.63653
0 0.101518 0.440696
0 0.0902266 0.444038
0 0.0738079 0.483177
0.182239 0.0499123 0.532662
0.523522 0.0413367 0.525597
0.765957 0.0684825 0.553872
0.767575 0.0710918 0.577585
0.76704 0.0723735 0.590921
0.773617 0.0702983 0.601755
0 0.341588 0.499901
0 0.335164 0.5019
0 0.310811 0.506676
0.0784466 0.244144 0.591684
0.542458 0.0977493 0.532662
0.771893 0.0649119 0.48368
0.775311 0.0667887 0.493706
0.774029 0.0672923 0.503639
0.779538 0.0654612 0.512001
0 0.613413 0.575204
0 0.611215 0.572778
0 0.604486 0.565469
0 0.584924 0.541436
0.550805 0.568689 0.545754
0.925597 0.48304 0.525414
0.957809 0.394507 0.521309
0.946929 0.35227 0.517586
0.940841 0.33196 0.515755
0.00755322 0.947051 0.62887
0 0.949126 0.617639
0 0.94815 0.592218
0 0.946517 0.510933
0.160739 0.971893 0.271885
0.89984 0.891203 0.404273
0.997711 0.834363 0.407248
0.993576 0.808103 0.408637
0.991928 0.797269 0.410239
0.0214542 0.995712 0.697429
0.0139162 0.997223 0.684703
0.0121157 0.998276 0.655543
0.0158236 0.999817 0.562829
0.123217 0.999969 0.106569
0.70164 0.97496 0.112444
0.999969 0.960723 0.354681
0.999969 0.962173 0.377752
0.999969 0.961089 0.356268
0.0181277 0.995789 0.721492
0.0153506 0.996475 0.710231
0.0125734 0.997543 0.679255
0.0154574 0.999435 0.588235
0.10634 0.999969 0.164202
0.606806 0.98645 0.0886549
0.999969 0.95671 0.288823
0.999969 0.963638 0.403403
0.999969 0.963989 0.401205
0.0189364 0.995407 0.733852
0.0161898 0.996094 0.722316
0.0131075 0.997208 0.691035
0.0147555 0.999252 0.600244
0.0987869 0.999969 0.187152
0.563409 0.991836 0.0760815
0.999969 0.955566 0.264912
0.999969 0.963302 0.394034
0.999969 0.964096 0.399893
0 0.120668 0.670726
0 0.116213 0.692958
0 0.0957809 0.732921
0.25275 0.0782177 0.768215
0.525994 0.0654917 0.75906
0.73727 0.0857557 0.762463
0.732448 0.0889754 0.786725
0.730602 0.0904402 0.794217
0.735286 0.0884718 0.803769
0 0.123674 0.650431
0 0.120058 0.669764
0 0.102571 0.718837
0.22739 0.0795605 0.76585
0.519677 0.0654154 0.758846
0.735973 0.085359 0.758816
0.732494 0.0889448 0.781506
0.731441 0.0898909 0.792828
0.737316 0.0874952 0.80441
0 0.142367 0.635889
0 0.128298 0.633066
0 0.116716 0.660548
0.147875 0.0833448 0.752575
0.495979 0.0648203 0.753826
0.733059 0.0846571 0.743175
0.730007 0.0894484 0.760891
0.729259 0.0902571 0.77258
0.737667 0.0867781 0.78819
0 0.316854 0.670604
0 0.30222 0.67454
0 0.262104 0.677348
0 0.176486 0.739696
0.42269 0.0710307 0.748531
0.727291 0.0766461 0.711437
0.741817 0.0842145 0.719585
0.740169 0.0848249 0.728328
0.747372 0.0818341 0.740841
0 0.622675 0.764294
0 0.621927 0.767605
0 0.615198 0.769696
0 0.592538 0.772519
0.402228 0.539773 0.845594
0.797757 0.344152 0.75845
0.86331 0.245624 0.731731
0.849943 0.212741 0.72224
0.846967 0.198138 0.721599
0.0117647 0.882429 0.837369
0.00337224 0.88275 0.837629
0.00108339 0.87715 0.831464
0 0.863218 0.815137
0.0824903 0.848325 0.793759
0.798795 0.806256 0.780438
0.989181 0.748486 0.771725
0.988357 0.723995 0.769009
0.986755 0.711879 0.768429
0.0506294 0.986648 0.897658
0.0461433 0.987518 0.89398
0.042649 0.988449 0.883848
0.0339971 0.990448 0.85272
0.0189364 0.995209 0.744945
0.632425 0.999969 0.648554
0.996475 0.981094 0.773114
0.999969 0.977844 0.781628
0.999969 0.975204 0.77351
0.0569314 0.985519 0.915312
0.0525673 0.986236 0.911482
0.0480201 0.987121 0.899748
0.0373236 0.9897 0.865538
0.0202487 0.994553 0.749279
0.431373 0.999969 0.549859
0.975082 0.979446 0.628305
0.999969 0.980697 0.752407
0.999969 0.980377 0.744884
0.0573434 0.985443 0.923278
0.0557565 0.985626 0.91931
0.0509651 0.986526 0.907408
0.0391852 0.989288 0.872236
0.0207523 0.994385 0.753994
0.339376 0.999969 0.529213
0.948791 0.981933 0.595346
0.999969 0.979141 0.722377
0.999969 0.979889 0.73138
0 0.164675 0.770062
0 0.161639 0.79411
0 0.140078 0.838575
0.250202 0.105959 0.875212
0.537255 0.0843824 0.855314
0.729946 0.090837 0.808194
0.72987 0.0910964 0.807584
0.727825 0.0919814 0.804868
0.732754 0.0898451 0.811231
0 0.166506 0.749462
0 0.164782 0.772168
0 0.150195 0.823117
0.222049 0.108736 0.874662
0.529061 0.0847334 0.858076
0.728801 0.0907454 0.808347
0.729778 0.0911574 0.807294
0.730266 0.0909133 0.808087
0.7346 0.0890364 0.813825
0 0.169238 0.729503
0 0.167391 0.730755
0 0.165011 0.771298
0.134066 0.116091 0.868894
0.496101 0.0865339 0.86389
0.725795 0.0910048 0.807935
0.726085 0.0927596 0.802304
0.726711 0.0924849 0.803113
0.732372 0.090013 0.810758
0 0.282017 0.785077
0 0.268223 0.786633
0 0.225711 0.770108
0 0.165133 0.784329
0.389746 0.094316 0.872312
0.704173 0.0865339 0.815518
0.724147 0.0936446 0.799741
0.724208 0.0936141 0.799817
0.731029 0.0906386 0.808881
0 0.64036 0.863569
0 0.638422 0.867094
0 0.629129 0.86772
0 0.595911 0.865385
0.258488 0.527733 0.951812
0.717678 0.294453 0.917006
0.797528 0.186221 0.852354
0.783108 0.159854 0.839826
0.783032 0.14725 0.841917
0.0255589 0.869551 0.94612
0.0197604 0.869078 0.94905
0.018265 0.863798 0.949096
0.0146792 0.850507 0.949371
0.0142061 0.827497 0.953262
0.700496 0.792416 0.981033
0.955001 0.667491 0.932906
0.952331 0.64152 0.926604
0.949676 0.631205 0.92488
0.0769665 0.982315 0.968704
0.0849165 0.979767 0.966827
0.0862135 0.979294 0.966018
0.0844282 0.979339 0.963851
0.0701762 0.976791 0.953445
0.567452 0.982651 0.956054
0.966079 0.964767 0.95465
0.995422 0.953521 0.95256
0.994705 0.946456 0.951308
0.0774701 0.982116 0.969375
0.0859846 0.979492 0.967498
0.0881666 0.978622 0.966705
0.0854505 0.980148 0.966751
0.0704204 0.983276 0.950942
0.112612 0.998734 0.918563
0.944701 0.993881 0.942824
0.994308 0.990951 0.989151
0.993805 0.991058 0.989914
0.0781415 0.981659 0.96907
0.0854047 0.979507 0.967483
0.0878157 0.978897 0.966995
0.0861982 0.979858 0.967102
0.0704204 0.98323 0.9505
0.0811322 0.997024 0.901564
0.914244 0.99585 0.926711
0.994583 0.990494 0.968383
0.992248 0.991379 0.990784
0 0.163272 0.783917
0 0.157458 0.806836
0 0.134524 0.844572
0.264515 0.104479 0.875166
0.546487 0.0834211 0.852766
0.730236 0.0909285 0.808057
0.729885 0.0910964 0.807584
0.72958 0.091249 0.806928
0.733394 0.0895705 0.8121
0 0.165621 0.761257
0 0.163409 0.784848
0 0.144915 0.832486
0.237232 0.107347 0.875196
0.537881 0.0841993 0.856489
0.730144 0.0909743 0.80795
0.729809 0.0911269 0.807385
0.730266 0.0909133 0.808087
0.733471 0.0895399 0.812207
0 0.166293 0.726162
0 0.167636 0.732403
0 0.163668 0.783627
0.15079 0.11487 0.870665
0.504021 0.0860609 0.862913
0.727321 0.0908827 0.808042
0.726604 0.0925307 0.802976
0.727169 0.0922866 0.8038
0.732372 0.090013 0.810758
0 0.276616 0.795224
0 0.261021 0.792493
0 0.216739 0.767605
0 0.16202 0.793164
0.395422 0.0937514 0.871977
0.707301 0.0864424 0.81622
0.724773 0.0933547 0.800839
0.725002 0.0932479 0.80116
0.73109 0.0906081 0.808988
0 0.638865 0.886076
0 0.634958 0.887617
0 0.620615 0.88188
0 0.573678 0.865003
0.225696 0.479454 0.948409
0.69221 0.249805 0.912352
0.776944 0.146456 0.839628
0.761852 0.124788 0.825376
0.760479 0.115923 0.827359
0.0328374 0.880598 0.963638
0.0291295 0.879576 0.965713
0.0264744 0.873579 0.965179
0.020798 0.857786 0.963516
0.0114748 0.819989 0.958831
0.660655 0.783825 0.997391
0.933043 0.635782 0.964797
0.933501 0.605402 0.957778
0.929549 0.595132 0.957183
0.0775158 0.98172 0.969162
0.086305 0.979004 0.967178
0.0880598 0.9785 0.966751
0.0876936 0.978576 0.966812
0.0789349 0.973602 0.967681
0.473564 0.984253 0.999054
0.938247 0.956039 0.991638
0.990982 0.933043 0.986831
0.98996 0.925826 0.987091
0.078645 0.98146 0.968917
0.0864118 0.979126 0.967147
0.0881819 0.978622 0.96672
0.0879835 0.978683 0.966766
0.0814374 0.980591 0.968322
0.0792706 0.981384 0.968963
0.927947 0.993622 0.99202
0.993774 0.991073 0.989944
0.993225 0.99118 0.990387
0.0781109 0.981643 0.969055
0.0862593 0.979171 0.967193
0.0881819 0.978622 0.96672
0.0881666 0.978622 0.96672
0.0819562 0.980438 0.9682
0.0793774 0.981933 0.969512
0.876875 0.995392 0.992355
0.99324 0.99118 0.990387
0.993637 0.991104 0.990082
0 0.16228 0.789975
0 0.155245 0.811978
0.00523384 0.131365 0.847868
0.271336 0.103899 0.875151
0.551217 0.0830549 0.851591
0.730205 0.0909438 0.808026
0.729885 0.0910964 0.807584
0.729641 0.0912184 0.807004
0.732128 0.090135 0.810361
0 0.165255 0.766522
0 0.162432 0.791089
0 0.142123 0.836378
0.244633 0.10663 0.875319
0.542062 0.0838026 0.855528
0.729809 0.0911269 0.80737
0.729839 0.0911269 0.807431
0.730388 0.0908827 0.808133
0.733639 0.0894636 0.812451
0 0.166964 0.727138
0 0.167163 0.736324
0 0.162707 0.789563
0.158755 0.114214 0.871382
0.507881 0.0858625 0.862516
0.727794 0.0909438 0.807767
0.726604 0.0925307 0.802976
0.727169 0.0922866 0.8038
0.732372 0.090013 0.810758
0 0.272801 0.793637
0 0.256596 0.790448
0 0.211734 0.764157
0 0.160616 0.79736
0.398703 0.0935378 0.871855
0.70898 0.086656 0.815824
0.724727 0.09337 0.800793
0.725002 0.0932479 0.80116
0.731106 0.0906081 0.808972
0 0.62977 0.882155
0 0.625605 0.883497
0 0.61001 0.877562
0 0.560723 0.861402
0.212345 0.455558 0.946624
0.681483 0.228534 0.907485
0.765835 0.130251 0.828916
0.750332 0.112856 0.817578
0.745693 0.104402 0.819593
0.0317693 0.877226 0.963363
0.0274815 0.875486 0.965179
0.0248875 0.869215 0.964797
0.0186923 0.851728 0.962783
0.00814832 0.810834 0.956695
0.653544 0.770993 0.998062
0.926436 0.621271 0.963363
0.929183 0.587549 0.955016
0.925963 0.577264 0.954498
0.0777295 0.981643 0.969131
0.0863203 0.979019 0.967178
0.0880751 0.978515 0.96672
0.0880598 0.978469 0.96672
0.080293 0.970275 0.967224
0.463355 0.979553 0.999084
0.929702 0.948623 0.992309
0.989456 0.921462 0.987091
0.988479 0.913314 0.987396
0.0821241 0.981003 0.967575
0.0770581 0.982071 0.969177
0.0770733 0.98204 0.969192
0.0770733 0.98204 0.969192
0.0770733 0.98204 0.969192
0.0770733 0.98204 0.969192
0.906279 0.994354 0.992355
0.993393 0.99115 0.990265
0.993378 0.99115 0.99028
0.0774853 0.981857 0.969146
0.0862593 0.979171 0.967193
0.0881819 0.978622 0.96672
0.0881819 0.978622 0.96672
0.0881819 0.978622 0.96672
0.0881819 0.978622 0.96672
0.79884 0.997299 0.995789
0.992157 0.991409 0.99115
0.994568 0.99089 0.989242
