bundles/resolve-cinematic-luts/Phantom Luts/Canon Alexa LUT/C-Log 2/Utopia Canon CL2-Legacy.cube
TITLE "Generated by Resolve"
LUT_3D_SIZE 33
0.00936904 0.0345312 0.043473
0.0108797 0.0345159 0.0434272
0.0136568 0.0347143 0.0440681
0.0188602 0.0347906 0.0454414
0.0289769 0.0340887 0.0481117
0.044419 0.0332341 0.0489815
0.0631571 0.0324559 0.0486
0.0870222 0.0316777 0.0488899
0.118379 0.0302434 0.0483101
0.15816 0.0283207 0.047364
0.204761 0.0260624 0.0485847
0.264332 0.0241093 0.0503548
0.329015 0.0218509 0.0539712
0.396536 0.0202945 0.0607919
0.465583 0.0195468 0.0715038
0.530373 0.0217441 0.0870985
0.592233 0.0255741 0.108644
0.654047 0.0311742 0.135637
0.718364 0.0383307 0.16643
0.762051 0.0449226 0.195804
0.772976 0.0469215 0.211246
0.773968 0.0473487 0.221317
0.77467 0.0476997 0.230198
0.775036 0.0480812 0.238331
0.775509 0.0484169 0.245274
0.775784 0.0487373 0.250965
0.775967 0.0490425 0.255604
0.776287 0.0492256 0.259617
0.776761 0.0493019 0.263066
0.778119 0.0490578 0.265797
0.779721 0.0486458 0.268025
0.782895 0.0476997 0.26978
0.786099 0.0467231 0.271229
0.00965896 0.0352636 0.0439002
0.00981155 0.0348516 0.0436561
0.0117494 0.0349584 0.0436561
0.0158083 0.0348058 0.0440528
0.0234226 0.0346838 0.0459297
0.0377966 0.0336614 0.0480812
0.0564584 0.0330053 0.0473335
0.0802777 0.0322576 0.0474556
0.112001 0.0307927 0.0462043
0.15201 0.0286259 0.0449073
0.199542 0.0264744 0.0445716
0.259678 0.0240787 0.0456245
0.325063 0.0217746 0.0487984
0.392782 0.0202182 0.054963
0.462913 0.0193637 0.0657054
0.528054 0.0215305 0.0809033
0.590387 0.0254215 0.102541
0.652399 0.0310063 0.129458
0.71693 0.0380407 0.160204
0.761303 0.0446937 0.190402
0.77258 0.0469673 0.206241
0.773495 0.0471199 0.215808
0.774289 0.0475166 0.225147
0.774823 0.0478218 0.233143
0.775189 0.0481727 0.240009
0.775555 0.0484627 0.246128
0.775769 0.0487373 0.250935
0.776165 0.0489052 0.254841
0.776699 0.0489662 0.258183
0.778149 0.0487068 0.260777
0.779843 0.0483253 0.263035
0.783108 0.0473793 0.265049
0.786374 0.0464179 0.266697
0.0102846 0.0377356 0.0448768
0.0110018 0.0371405 0.0444343
0.0125277 0.0368658 0.044358
0.0154269 0.0370336 0.0443732
0.0219883 0.0355077 0.0443427
0.0350958 0.0341039 0.0472419
0.052079 0.0333715 0.0473335
0.0760204 0.0322728 0.0464179
0.10576 0.0308995 0.0449226
0.143938 0.0294957 0.0434119
0.191546 0.027451 0.0425879
0.251896 0.0243381 0.0421912
0.319615 0.0218204 0.0439155
0.389395 0.0202792 0.0498054
0.459998 0.0193484 0.0602579
0.525994 0.0213931 0.0752575
0.588556 0.0252537 0.0965591
0.650446 0.0307927 0.123201
0.715297 0.0378424 0.154253
0.760784 0.0446021 0.185138
0.772107 0.0469368 0.201038
0.772931 0.0469215 0.210605
0.773861 0.047303 0.220035
0.774502 0.0476234 0.228336
0.774884 0.0479133 0.235355
0.775265 0.0482185 0.241138
0.775555 0.0484627 0.246204
0.775967 0.0486152 0.250263
0.776577 0.0486763 0.253437
0.778073 0.0484169 0.256077
0.779812 0.0479896 0.258473
0.783139 0.0470588 0.260182
0.786542 0.046067 0.261509
0.0103609 0.0420539 0.0458534
0.0112001 0.0413214 0.0451972
0.0124361 0.0401465 0.0451057
0.0158694 0.0400092 0.045243
0.0219425 0.0406806 0.0454719
0.033341 0.0374304 0.0461433
0.0531319 0.0345769 0.0447852
0.076585 0.0328527 0.0450141
0.101625 0.0314336 0.0443427
0.13753 0.029633 0.0419623
0.184298 0.0273442 0.0397345
0.242756 0.0253758 0.038941
0.309529 0.0229648 0.0407874
0.380453 0.0205844 0.0446937
0.454627 0.0195621 0.0533608
0.522423 0.0215152 0.0688029
0.585397 0.024918 0.0886244
0.647608 0.0303807 0.114977
0.712734 0.0374456 0.146151
0.759625 0.0443275 0.178241
0.771145 0.0466773 0.194156
0.772442 0.0469825 0.204089
0.773144 0.046952 0.213016
0.773999 0.047364 0.221378
0.774563 0.0476539 0.228687
0.774868 0.0478981 0.234806
0.775158 0.0481575 0.23975
0.775692 0.0482643 0.243977
0.776333 0.0483101 0.247303
0.777829 0.0480201 0.250141
0.779782 0.0475776 0.252125
0.783093 0.0466468 0.253758
0.786526 0.0456397 0.255375
0.00866712 0.0516823 0.0453193
0.00888075 0.0506142 0.0438697
0.0110933 0.0485847 0.0444495
0.0140383 0.0469215 0.0449531
0.0209354 0.0465705 0.0458686
0.0324712 0.0480201 0.0458534
0.0500191 0.043534 0.0463569
0.0742657 0.0370336 0.0435187
0.104097 0.0332952 0.0406348
0.14049 0.0304265 0.0394446
0.180499 0.0279698 0.0383917
0.236591 0.0254978 0.0367285
0.300526 0.0227665 0.0348516
0.369177 0.0214389 0.0391852
0.442329 0.0195621 0.0460212
0.513359 0.0209812 0.0599222
0.579461 0.0247501 0.0793164
0.64303 0.0297398 0.104402
0.70985 0.0370794 0.135912
0.758465 0.0438544 0.169436
0.770336 0.0461738 0.185336
0.771695 0.0465858 0.195224
0.772763 0.046891 0.204532
0.773327 0.0468757 0.212512
0.774029 0.0472419 0.220035
0.774517 0.0475166 0.226307
0.774807 0.047715 0.231403
0.775174 0.0478523 0.235645
0.775845 0.0478828 0.239185
0.777462 0.0475776 0.241917
0.779461 0.0471046 0.244144
0.782834 0.0461891 0.245823
0.786374 0.0451667 0.247379
0.00563058 0.0671855 0.0425422
0.00576791 0.0664683 0.040116
0.00770581 0.0648356 0.0401465
0.0105287 0.062089 0.0416419
0.0153353 0.0608988 0.0424811
0.029221 0.0593423 0.0434882
0.0488289 0.0601968 0.0421607
0.0725414 0.0551614 0.0462196
0.101671 0.0436408 0.0429541
0.138918 0.0353399 0.0378424
0.187808 0.0291295 0.0335393
0.241245 0.0259251 0.0331426
0.296132 0.0233463 0.0332341
0.363561 0.0208438 0.0338598
0.432456 0.019791 0.0382391
0.50103 0.0203403 0.0492561
0.568689 0.0238499 0.0678874
0.633829 0.0290837 0.092195
0.701701 0.0357366 0.12163
0.756634 0.0431525 0.157259
0.76968 0.0451362 0.173938
0.771771 0.045594 0.183703
0.773266 0.0459754 0.19263
0.77435 0.0462959 0.201175
0.774929 0.0463111 0.208423
0.775357 0.0464485 0.214771
0.775799 0.0467384 0.220356
0.776196 0.0469215 0.224613
0.77644 0.0470283 0.228367
0.777386 0.0469062 0.231067
0.779004 0.04654 0.233173
0.782208 0.045655 0.235065
0.78587 0.0446326 0.236591
0.00163272 0.0881514 0.0368353
0.00184634 0.0874037 0.0341802
0.00236515 0.0862135 0.0325017
0.00604257 0.0831922 0.0333715
0.00981155 0.0808881 0.0350347
0.0175784 0.0801251 0.035935
0.0434272 0.0766308 0.0379492
0.071046 0.0757458 0.042237
0.100572 0.0721904 0.0449378
0.138827 0.0554971 0.0431983
0.189349 0.0386511 0.0354314
0.24477 0.0298772 0.028687
0.312703 0.0238193 0.0260471
0.371069 0.0213016 0.0286717
0.431189 0.0197452 0.0331426
0.494408 0.0207828 0.0419776
0.555383 0.0232395 0.0554055
0.61973 0.0276341 0.0760357
0.688167 0.0344091 0.104829
0.747204 0.0417029 0.137819
0.763775 0.0441596 0.156054
0.768368 0.0448768 0.167895
0.770825 0.0454108 0.177203
0.772473 0.0457465 0.185367
0.773602 0.0460212 0.192813
0.774441 0.0462348 0.199527
0.77499 0.0463111 0.204898
0.77528 0.0462959 0.20911
0.775479 0.0463722 0.212985
0.776272 0.0463874 0.215717
0.777432 0.0462043 0.218418
0.779767 0.0456397 0.2206
0.782086 0.0450599 0.221744
0 0.114244 0.0293889
0 0.113405 0.0267491
0 0.112337 0.0238499
0.000350958 0.110369 0.0230869
0.00469978 0.107698 0.0248722
0.0119478 0.105898 0.0263218
0.0237125 0.10486 0.0284123
0.0647746 0.0983902 0.0350652
0.0980392 0.0965438 0.0412909
0.136919 0.0963302 0.0423133
0.188876 0.0715953 0.042771
0.252583 0.0426947 0.0314336
0.31516 0.0318303 0.0246586
0.385489 0.0226749 0.0184176
0.452979 0.0203098 0.0237278
0.500816 0.0208133 0.03505
0.5523 0.0235904 0.0487831
0.605173 0.0267643 0.0641642
0.670207 0.0323033 0.0853895
0.734539 0.0401923 0.115267
0.752361 0.04271 0.130953
0.758953 0.0437629 0.143572
0.764111 0.0442359 0.155428
0.768048 0.044831 0.165499
0.770138 0.0452583 0.173312
0.771664 0.0455482 0.179477
0.772656 0.0457771 0.184665
0.773373 0.0459297 0.189273
0.773922 0.046067 0.192782
0.774823 0.0460059 0.195804
0.775998 0.0458228 0.198291
0.7785 0.045243 0.199878
0.781033 0.0445563 0.20116
0 0.149432 0.0201572
0 0.148211 0.0175326
0 0.147173 0.0146181
0 0.145281 0.011841
0 0.142092 0.0125734
0.00433356 0.139315 0.0150149
0.0148318 0.138201 0.0165255
0.0326238 0.135622 0.0201419
0.091249 0.124346 0.0339208
0.133211 0.121248 0.0391546
0.18201 0.126528 0.0384985
0.25597 0.0915084 0.0420691
0.324315 0.0564126 0.0314031
0.393698 0.0362097 0.0218662
0.458961 0.0252537 0.0150759
0.525979 0.0225376 0.0206607
0.57557 0.0247959 0.0375525
0.60798 0.0279393 0.0585641
0.657023 0.0312963 0.0756085
0.719188 0.0383459 0.0978866
0.737835 0.0408331 0.108064
0.743999 0.0416724 0.116411
0.749538 0.0422522 0.12549
0.755138 0.0431373 0.134737
0.759854 0.0439155 0.143771
0.763348 0.0441749 0.151751
0.766308 0.0445716 0.158526
0.768139 0.0448463 0.163409
0.769116 0.0450141 0.167239
0.770245 0.0450599 0.169894
0.771862 0.0448463 0.17232
0.774594 0.0442512 0.174014
0.777264 0.0436408 0.175051
0 0.195087 0.00958267
0 0.193927 0.00691234
0 0.192599 0.00390631
0 0.190723 0.00349432
0 0.188235 0.00433356
0 0.184329 0.00511177
0.00375372 0.181079 0.00639353
0.0177005 0.182025 0.00767529
0.0473487 0.175814 0.010544
0.126467 0.160525 0.0322881
0.180896 0.156527 0.0410163
0.24033 0.162661 0.0382239
0.328954 0.118441 0.041062
0.398886 0.0787213 0.0337987
0.471092 0.046952 0.0206912
0.528237 0.0341344 0.0174716
0.586938 0.0261997 0.0165866
0.644816 0.0304112 0.0393835
0.681468 0.034226 0.0652781
0.712123 0.0373846 0.0888075
0.73431 0.0404059 0.101671
0.737774 0.0408484 0.104005
0.737438 0.0407874 0.104479
0.738552 0.0409857 0.106752
0.741756 0.0414588 0.111833
0.745022 0.0416724 0.117296
0.748379 0.0420691 0.122408
0.75108 0.0425422 0.126986
0.75346 0.0428931 0.130632
0.755825 0.0430457 0.133669
0.758175 0.0430152 0.136248
0.76141 0.0425727 0.137697
0.764538 0.0420233 0.138933
0 0.252705 0
0 0.251377 0
0 0.250095 0
0 0.248707 0
0 0.246326 0
0 0.242145 0
0 0.238071 0
0.00514229 0.234745 0
0.0246128 0.237842 0
0.0697642 0.226734 0.00508125
0.173205 0.207858 0.0337682
0.241672 0.203555 0.0417639
0.311803 0.211398 0.0384985
0.402823 0.164538 0.0410468
0.475731 0.112871 0.0387884
0.539742 0.0660868 0.0267338
0.593332 0.0489357 0.021622
0.643442 0.0368048 0.0209049
0.708614 0.0379339 0.0404059
0.753094 0.0437476 0.0722515
0.759793 0.0464179 0.0983597
0.746548 0.0423896 0.100587
0.742153 0.0413062 0.101213
0.741283 0.0412909 0.10222
0.740261 0.0412299 0.102831
0.739193 0.0410925 0.103136
0.738506 0.0408789 0.103273
0.738308 0.0408637 0.103487
0.73817 0.0408484 0.103655
0.738537 0.0407416 0.103761
0.739498 0.0405432 0.103944
0.741482 0.0400244 0.103746
0.743679 0.0394751 0.10367
0 0.327535 0
0 0.327031 0
0 0.326207 0
0 0.325505 0
0 0.324392 0
0 0.322744 0
0 0.315297 0
0 0.311391 0
0.0106813 0.308309 0
0.037705 0.311635 0
0.101701 0.293614 0
0.23444 0.271534 0.0352026
0.323156 0.267979 0.0437934
0.391928 0.278141 0.0405127
0.477058 0.233661 0.0411078
0.553445 0.165255 0.0475624
0.606424 0.104585 0.0408331
0.658122 0.074052 0.0330663
0.703014 0.0558785 0.0311742
0.752224 0.0469062 0.0363012
0.791897 0.0527352 0.0708629
0.79585 0.0525368 0.0826886
0.791119 0.0508736 0.0876173
0.78381 0.0489357 0.0923781
0.773648 0.0473793 0.0979171
0.761852 0.0458228 0.101152
0.750179 0.0421149 0.0986801
0.747066 0.0410163 0.098558
0.747036 0.0409552 0.0990616
0.747097 0.0409552 0.0991836
0.747234 0.0409552 0.0992294
0.747997 0.0407874 0.0991226
0.749615 0.0403601 0.0987564
0 0.412634 0
0 0.412451 0
0 0.412345 0
0 0.411749 0
0 0.411124 0
0 0.410468 0
0 0.407416 0
0 0.399359 0
0.00366217 0.39498 0
0.024094 0.392859 0
0.0630045 0.394568 0
0.154131 0.368551 0
0.316121 0.345937 0.039353
0.413535 0.345068 0.0472114
0.474601 0.353887 0.0449073
0.550179 0.330739 0.0420996
0.626276 0.244373 0.0581369
0.675959 0.175082 0.0611734
0.722988 0.114702 0.0509804
0.763745 0.0887617 0.0463264
0.788571 0.0679332 0.04654
0.789075 0.0586252 0.0444648
0.790722 0.0557107 0.0484627
0.794507 0.0554208 0.0568093
0.79736 0.0556191 0.0651865
0.798535 0.0553902 0.0713054
0.798383 0.0547189 0.0755474
0.797726 0.0541085 0.0785534
0.796719 0.0535286 0.0805219
0.795712 0.0529641 0.0818647
0.794751 0.0525673 0.0829938
0.795285 0.0519265 0.0834669
0.796963 0.0510109 0.0833143
0.00112917 0.499504 0
0.00141909 0.499184 0
0.00172427 0.498924 0
0.00213626 0.498497 0
0.00273136 0.497993 0
0.00247196 0.497719 0
0.00239567 0.496925 0
0.0016022 0.491814 0
0.00103761 0.486275 0
0.0142824 0.482017 0
0.0484169 0.482383 0
0.102846 0.479377 0
0.22826 0.44509 0.00285344
0.405814 0.425101 0.0453956
0.503792 0.423789 0.0516518
0.557504 0.430808 0.0534218
0.625589 0.434028 0.0563973
0.694743 0.353353 0.0680858
0.753445 0.268864 0.0806744
0.792325 0.183963 0.0769513
0.819333 0.136614 0.0700389
0.821698 0.116075 0.0649882
0.816007 0.105058 0.0607156
0.809674 0.0962997 0.0565652
0.804196 0.088304 0.0527657
0.80177 0.0817578 0.0533913
0.798596 0.0764324 0.0512245
0.795972 0.0721599 0.0492714
0.794385 0.0691386 0.0480659
0.793667 0.0672923 0.0476387
0.792798 0.0656596 0.046952
0.793606 0.0640421 0.0460517
0.796216 0.0623636 0.0447852
0.0143587 0.580941 0
0.0145418 0.580667 0
0.0146944 0.580423 0
0.0150607 0.580118 0
0.0155489 0.579797 0
0.0157778 0.579232 0
0.0157321 0.578866 0
0.0155642 0.577356 0
0.0147097 0.571054 0
0.0189517 0.567788 0
0.0358129 0.563973 0
0.0885176 0.568124 0
0.161105 0.559304 0
0.326436 0.520195 0.0164492
0.494011 0.502129 0.0527199
0.589746 0.501488 0.0645609
0.639826 0.508034 0.0691081
0.703593 0.518929 0.0746624
0.766552 0.464881 0.0802319
0.832044 0.382956 0.0977188
0.86566 0.305211 0.105608
0.86952 0.227451 0.0998703
0.859861 0.19266 0.0919356
0.85333 0.177249 0.0873884
0.849287 0.167956 0.0844587
0.846006 0.160555 0.0820935
0.84329 0.154498 0.0801709
0.840665 0.149371 0.0781872
0.838758 0.145495 0.0768444
0.837293 0.142641 0.0757763
0.836118 0.140322 0.0749065
0.836484 0.138323 0.0737011
0.838331 0.136461 0.0721752
0.0308995 0.66128 0
0.0308537 0.661158 0
0.0308232 0.661036 0
0.0310521 0.660914 0
0.031342 0.660563 0
0.0319677 0.660014 0
0.0318608 0.659525 0
0.0317693 0.6589 0
0.031342 0.656535 0
0.0306249 0.649012 0
0.040116 0.648508 0
0.0710155 0.645121 0
0.142275 0.65066 0
0.238834 0.634638 0
0.430579 0.590692 0.036408
0.579293 0.577844 0.0670176
0.67274 0.578408 0.0822614
0.721157 0.58378 0.0881819
0.781155 0.592737 0.0937057
0.841535 0.576089 0.0966201
0.892912 0.507561 0.110887
0.921965 0.428336 0.124788
0.921187 0.399725 0.12549
0.917235 0.382834 0.124086
0.912688 0.367071 0.122042
0.909056 0.353155 0.120455
0.905791 0.340719 0.119005
0.902724 0.330114 0.11754
0.900374 0.321553 0.116503
0.898344 0.314076 0.115373
0.897063 0.308324 0.114931
0.896406 0.303456 0.113527
0.897093 0.29987 0.11223
0.0491646 0.742794 0.000762951
0.0485695 0.742916 0
0.0479438 0.743069 0
0.0479133 0.743008 0
0.0480354 0.74284 0
0.0485695 0.742458 0
0.0487221 0.742 0
0.0486305 0.741451 0
0.0484932 0.740108 0
0.0474708 0.735363 0
0.0474708 0.729885 0
0.0661479 0.730526 0
0.125032 0.729152 0
0.212726 0.730983 0
0.338308 0.706538 0.0101472
0.53138 0.659815 0.0614328
0.662104 0.653208 0.0870375
0.753368 0.654597 0.102037
0.805173 0.659846 0.108736
0.857298 0.665858 0.114443
0.911101 0.671931 0.122133
0.939742 0.629129 0.124132
0.946365 0.588678 0.127687
0.945129 0.570443 0.129046
0.943343 0.556649 0.129595
0.942031 0.544854 0.130068
0.940856 0.534691 0.130297
0.939605 0.525963 0.130236
0.938933 0.519219 0.130297
0.93817 0.513588 0.130144
0.937743 0.509102 0.13019
0.937652 0.505455 0.129244
0.938537 0.502892 0.127764
0.0713817 0.831403 0.0128328
0.0703441 0.831708 0.00769055
0.0689403 0.832105 0.00280766
0.0682841 0.83212 0
0.0677653 0.832074 0
0.0682078 0.831937 0
0.0683452 0.831357 0
0.0682841 0.830869 0
0.0680247 0.829755 0
0.0677501 0.827604 0
0.0665141 0.81915 0
0.0730297 0.818372 0
0.104219 0.818021 0
0.193515 0.817334 0
0.299535 0.816861 0.00686656
0.445518 0.775952 0.0350958
0.627955 0.730648 0.0877394
0.742901 0.730968 0.108782
0.835584 0.733425 0.124483
0.89192 0.738872 0.133989
0.929458 0.741375 0.139818
0.962951 0.743282 0.145739
0.978622 0.741848 0.148409
0.978943 0.736828 0.147356
0.977188 0.731395 0.145769
0.974472 0.722103 0.14316
0.971984 0.713161 0.140764
0.970153 0.70602 0.13904
0.968597 0.700084 0.137285
0.967193 0.695018 0.135698
0.966354 0.691386 0.134966
0.965682 0.68838 0.134554
0.965103 0.686015 0.134005
0.0982528 0.917632 0.0272221
0.0978866 0.917815 0.022797
0.0969253 0.918257 0.0172732
0.0962539 0.918715 0.012604
0.0953841 0.918914 0.00784314
0.0955673 0.918502 0.00367742
0.0951858 0.918532 0.00337224
0.0950179 0.918059 0.00326543
0.0948501 0.917647 0.00314336
0.0943465 0.916411 0.00277714
0.0931258 0.912367 0.00199893
0.0914473 0.903166 0.00030518
0.106126 0.906966 0.00276188
0.163821 0.904402 0.00390631
0.281651 0.908873 0.0112001
0.408911 0.897566 0.0277714
0.560174 0.84947 0.065156
0.723415 0.805692 0.116136
0.824903 0.813153 0.134203
0.914183 0.815412 0.151781
0.967498 0.819394 0.165087
0.989868 0.819989 0.171008
0.998764 0.817319 0.17406
0.999023 0.812772 0.173037
0.998642 0.808591 0.171756
0.998016 0.804471 0.170123
0.997375 0.800809 0.168765
0.996918 0.797955 0.167849
0.996429 0.795499 0.166964
0.995987 0.793667 0.166232
0.995621 0.792157 0.165652
0.995346 0.790906 0.165209
0.995102 0.789929 0.164858
0.130663 0.980575 0.0536507
0.131228 0.980529 0.0494087
0.131426 0.980682 0.0446632
0.132296 0.980545 0.0407874
0.133623 0.980087 0.0373999
0.13402 0.980011 0.0367132
0.133944 0.980087 0.0368505
0.13402 0.980179 0.0369268
0.133791 0.979934 0.0366979
0.133318 0.979461 0.0362554
0.131426 0.977539 0.0344549
0.127077 0.972457 0.0301213
0.130114 0.970825 0.0278782
0.164446 0.976654 0.0261387
0.266636 0.975875 0.0218509
0.401785 0.97467 0.0338445
0.530221 0.951583 0.0571603
0.672908 0.906477 0.0992752
0.814664 0.870466 0.147051
0.904128 0.881285 0.163943
0.97583 0.882063 0.181918
0.999969 0.885008 0.195666
0.999969 0.886015 0.199863
0.999969 0.882338 0.198734
0.999969 0.878721 0.197238
0.999969 0.875776 0.196307
0.999969 0.872847 0.195056
0.999969 0.870359 0.194125
0.999969 0.868421 0.193439
0.999969 0.867018 0.193133
0.999969 0.865629 0.192584
0.999969 0.864683 0.192096
0.999969 0.864012 0.191836
0.145251 0.997208 0.0660258
0.146151 0.997055 0.062623
0.147631 0.996796 0.0590066
0.150072 0.996231 0.056611
0.153307 0.995422 0.055314
0.153857 0.995285 0.0563821
0.154299 0.995178 0.0569162
0.154376 0.995209 0.0569924
0.154391 0.995209 0.057023
0.154421 0.995224 0.0570535
0.154376 0.995209 0.0569924
0.154131 0.995117 0.0567483
0.1552 0.995453 0.0554971
0.173373 0.998932 0.0498207
0.248875 0.999969 0.0360876
0.391882 0.999939 0.0389105
0.518639 0.995773 0.0587778
0.638193 0.975219 0.0896162
0.77232 0.943572 0.137606
0.89659 0.920775 0.179202
0.966781 0.92929 0.195239
0.999969 0.92958 0.211933
0.999969 0.931395 0.218708
0.999969 0.931029 0.218097
0.999969 0.92987 0.21738
0.999969 0.928862 0.217441
0.999969 0.927214 0.216876
0.999969 0.925704 0.216281
0.999969 0.924468 0.21619
0.999969 0.923506 0.216953
0.999969 0.922774 0.218433
0.999969 0.922194 0.21944
0.999969 0.921706 0.219928
0.14844 0.997559 0.0708629
0.148425 0.997543 0.0670787
0.148501 0.997528 0.0626383
0.150042 0.997223 0.0586862
0.152239 0.996704 0.055848
0.152392 0.996689 0.0562142
0.152575 0.996643 0.0562753
0.152575 0.996643 0.0562753
0.152575 0.996643 0.0562753
0.152575 0.996643 0.0562753
0.152575 0.996643 0.0562753
0.152575 0.996643 0.0562753
0.153445 0.996826 0.0560769
0.167056 0.998856 0.0531472
0.234516 0.999969 0.0404059
0.374472 0.999969 0.0400702
0.516136 0.996475 0.0607309
0.630121 0.984344 0.0915541
0.746792 0.969711 0.131807
0.86981 0.957488 0.189685
0.964584 0.950271 0.219425
0.999969 0.95288 0.234989
0.999969 0.952819 0.249729
0.999969 0.952941 0.253895
0.999969 0.953048 0.255726
0.999969 0.952865 0.254154
0.999969 0.952667 0.252399
0.999969 0.952514 0.250614
0.999969 0.952285 0.248859
0.999969 0.951873 0.247211
0.999969 0.951431 0.246967
0.999969 0.951064 0.246921
0.999969 0.950774 0.247089
0.144472 0.998352 0.0788586
0.145006 0.99826 0.0738537
0.145541 0.998169 0.0681621
0.147189 0.997879 0.0634165
0.149569 0.997406 0.0597086
0.151827 0.996841 0.0569619
0.152636 0.996628 0.0561837
0.152575 0.996643 0.0562753
0.152575 0.996643 0.0562753
0.152575 0.996643 0.0562753
0.152575 0.996643 0.0562753
0.152575 0.996643 0.0562753
0.15314 0.996765 0.0561532
0.162615 0.998383 0.0542458
0.222339 0.999969 0.0413367
0.352453 0.999969 0.0378424
0.4813 0.998413 0.0533913
0.586175 0.990112 0.0778821
0.705898 0.974533 0.113954
0.840742 0.959091 0.154376
0.972976 0.951858 0.200259
0.999969 0.953918 0.239124
0.999969 0.956817 0.278721
0.999969 0.958801 0.312795
0.999969 0.960021 0.333684
0.999969 0.959869 0.332769
0.999969 0.959609 0.329885
0.999969 0.959396 0.326894
0.999969 0.959258 0.323873
0.999969 0.959152 0.321096
0.999969 0.95906 0.319188
0.999969 0.958938 0.318212
0.999969 0.958801 0.318181
0.138521 0.999222 0.0898146
0.139834 0.999069 0.0840925
0.140658 0.998978 0.0775006
0.143191 0.998642 0.0703746
0.146166 0.998154 0.0649119
0.149081 0.997559 0.0607919
0.151614 0.996918 0.0575418
0.152575 0.996643 0.0562753
0.152575 0.996643 0.0562753
0.152575 0.996643 0.0562753
0.152575 0.996643 0.0562753
0.152575 0.996643 0.0562753
0.152728 0.996689 0.0562448
0.158328 0.997757 0.0550851
0.205631 0.999969 0.0440833
0.327718 0.999969 0.036347
0.451194 0.99939 0.0475471
0.58175 0.99086 0.0754406
0.698116 0.975601 0.110613
0.830091 0.959976 0.150149
0.957183 0.952804 0.197452
0.999969 0.9552 0.25069
0.999969 0.958099 0.297276
0.999969 0.961471 0.357778
0.999969 0.963012 0.385992
0.999969 0.963653 0.397757
0.999969 0.963699 0.398733
0.999969 0.963729 0.398901
0.999969 0.963775 0.398962
0.999969 0.963806 0.398596
0.999969 0.963836 0.398352
0.999969 0.963836 0.398337
0.999969 0.96379 0.39855
0.130694 0.999893 0.0944533
0.132952 0.999771 0.0906233
0.135241 0.999603 0.0856794
0.138201 0.999329 0.0789807
0.141573 0.998917 0.0723125
0.145724 0.99826 0.0657206
0.149416 0.997482 0.0605478
0.152148 0.996765 0.0568551
0.152575 0.996643 0.0562753
0.152575 0.996643 0.0562753
0.152575 0.996643 0.0562753
0.152575 0.996643 0.0562753
0.152575 0.996643 0.0562753
0.15555 0.997269 0.0556802
0.192035 0.999878 0.0467842
0.305104 0.999969 0.0359808
0.434958 0.99968 0.044892
0.561593 0.993378 0.0694133
0.681773 0.978195 0.10425
0.809384 0.962432 0.143069
0.93817 0.953246 0.186938
0.999969 0.954894 0.243961
0.999969 0.957488 0.288304
0.999969 0.960861 0.344427
0.999969 0.962692 0.379995
0.999969 0.963684 0.39826
0.999969 0.963729 0.399329
0.999969 0.963745 0.399207
0.999969 0.963775 0.398978
0.999969 0.963821 0.398642
0.999969 0.963851 0.398413
0.999969 0.963867 0.398306
0.999969 0.963867 0.398383
0.124666 0.999969 0.104738
0.127306 0.999969 0.100587
0.129961 0.999924 0.095613
0.133059 0.999771 0.0888685
0.136995 0.999466 0.080415
0.141604 0.998932 0.0721294
0.146548 0.998093 0.0646067
0.150668 0.997162 0.0588083
0.152621 0.996628 0.056199
0.152575 0.996643 0.0562753
0.152575 0.996643 0.0562753
0.152575 0.996643 0.0562753
0.152575 0.996643 0.0562753
0.154864 0.997116 0.0557717
0.182345 0.99968 0.0491035
0.286519 0.999969 0.0363928
0.42005 0.999847 0.0429389
0.54226 0.994965 0.0644236
0.666697 0.98024 0.0989395
0.791455 0.964721 0.136706
0.92137 0.954009 0.177737
0.999924 0.954482 0.235828
0.999969 0.957259 0.280964
0.999969 0.96022 0.331258
0.999969 0.962386 0.37438
0.999969 0.963668 0.398184
0.999969 0.963729 0.399329
0.999969 0.963745 0.399207
0.999969 0.963775 0.398978
0.999969 0.963821 0.398642
0.999969 0.963851 0.398413
0.999969 0.963867 0.398306
0.999969 0.963867 0.398306
0.119646 0.999969 0.114168
0.122103 0.999969 0.109422
0.124819 0.999969 0.104509
0.128267 0.999969 0.097673
0.132418 0.999817 0.0888075
0.137682 0.99942 0.0788281
0.14345 0.998657 0.0692454
0.148684 0.99765 0.0615702
0.15227 0.996735 0.0567025
0.152575 0.996643 0.0562753
0.152575 0.996643 0.0562753
0.152575 0.996643 0.0562753
0.152575 0.996643 0.0562753
0.154314 0.997009 0.0558938
0.175708 0.999405 0.0506905
0.272328 0.999969 0.03682
0.411124 0.999924 0.0419776
0.525338 0.996353 0.0607004
0.65449 0.981842 0.0951858
0.776684 0.966308 0.131807
0.906416 0.954681 0.170474
0.998764 0.954208 0.228168
0.999969 0.956985 0.274083
0.999969 0.959838 0.323186
0.999969 0.962158 0.370001
0.999969 0.963561 0.396323
0.999969 0.963729 0.399252
0.999969 0.963745 0.399207
0.999969 0.963775 0.398978
0.999969 0.963821 0.398642
0.999969 0.963821 0.398642
0.999969 0.963775 0.398978
0.999969 0.963684 0.399664
0.117327 0.999969 0.132601
