bundles/resolve-cinematic-luts/Phantom Luts/Canon Alexa LUT/C-Log 2/Utopia Canon CL2.cube
TITLE "Generated by Resolve"
LUT_3D_SIZE 5
0 0.0249943 0.0329595
0.150805 0.0159915 0.035111
0.620844 0.0128634 0.136553
0.776455 0.0384222 0.286839
0.787686 0.0356756 0.312596
0 0.189487 0
0.1234 0.156283 0.0213779
0.60444 0.011368 0.0361944
0.770459 0.0327153 0.17789
0.785489 0.0321813 0.215
0.0462348 0.785534 0.00062562
0.0442359 0.782864 0
0.704494 0.690196 0.0886091
0.943206 0.595224 0.12398
0.938308 0.544503 0.124041
0.117479 0.999542 0.100282
0.149859 0.991791 0.0526741
0.477134 0.997742 0.0416419
0.999969 0.964034 0.404898
0.999969 0.965133 0.424109
0.0780499 0.999969 0.18262
0.140627 0.995346 0.0602274
0.430167 0.998505 0.0410773
0.999969 0.962585 0.37911
0.999969 0.965209 0.423789
0 0.0345617 0.140307
0.12813 0.0197299 0.162219
0.615824 0.016846 0.251438
0.77818 0.0419776 0.370428
0.78529 0.0409247 0.399008
0 0.148577 0.146334
0.104387 0.138262 0.144823
0.601251 0.0115358 0.131182
0.781781 0.0367895 0.285084
0.786816 0.0358434 0.309316
0.00985733 0.768765 0.134066
0.0326848 0.763104 0.00251774
0.690242 0.676265 0.0850996
0.936477 0.536019 0.126574
0.931044 0.477317 0.124269
0.0587625 0.999969 0.260075
0.114549 0.999756 0.103319
0.417838 0.999527 0.0331273
0.999969 0.963684 0.39826
0.999969 0.965148 0.424079
0.029221 0.999969 0.361975
0.0820325 0.999969 0.195895
0.321889 0.999817 0.0333562
0.999969 0.961563 0.355016
0.999969 0.965301 0.423499
0 0.0717327 0.525521
0.0547646 0.0512856 0.569451
0.574502 0.0354925 0.577096
0.75996 0.0662394 0.647364
0.768872 0.063798 0.676295
0 0.115526 0.479362
0 0.0688792 0.520104
0.550591 0.0316625 0.55404
0.761318 0.0631266 0.606073
0.768185 0.062089 0.632059
0 0.657435 0.617761
0 0.648753 0.609247
0.59292 0.610803 0.586908
0.962631 0.439429 0.565057
0.947875 0.380255 0.5617
0.0153353 0.991852 0.729488
0.00247196 0.995758 0.689219
0.107118 0.999969 0.118532
0.999969 0.962188 0.376089
0.999969 0.962448 0.379614
0.0127413 0.991714 0.766476
0.00527962 0.994247 0.724971
0.079408 0.999969 0.214176
0.999969 0.956405 0.271366
0.999969 0.965331 0.426047
0 0.190265 0.789136
0.0176852 0.152911 0.859785
0.57644 0.0736095 0.841886
0.729442 0.0814069 0.793698
0.733028 0.0798657 0.798184
0 0.1991 0.751949
0 0.190509 0.790158
0.538445 0.0771344 0.854337
0.724819 0.0833753 0.788006
0.732372 0.0801404 0.79736
0 0.676432 0.881956
0 0.665583 0.884962
0.3187 0.573312 0.962722
0.818173 0.213535 0.864469
0.79762 0.160266 0.847349
0.0708019 0.977172 0.960845
0.0909285 0.970108 0.954345
0.0643626 0.966903 0.945251
0.95761 0.95671 0.948562
0.990539 0.942184 0.945068
0.0733806 0.977661 0.964553
0.0991531 0.970199 0.957748
0.0669566 0.978042 0.942794
0.91725 0.994598 0.925475
0.992355 0.991363 0.989563
0 0.185977 0.810803
0.0606546 0.139101 0.866102
0.589197 0.0717021 0.837018
0.729442 0.0814069 0.793698
0.732601 0.0800488 0.79765
0 0.195789 0.748806
0 0.186648 0.810224
0.549767 0.0759747 0.852094
0.725231 0.0831922 0.78851
0.732372 0.0801404 0.79736
0 0.664988 0.893034
0 0.64744 0.889021
0.275303 0.505486 0.958556
0.773785 0.13341 0.826459
0.74696 0.0962234 0.808026
0.0741741 0.97641 0.96463
0.0973373 0.968185 0.958633
0.0832837 0.958816 0.960189
0.926635 0.944854 0.986786
0.979416 0.915938 0.980591
0.0751354 0.977127 0.964553
0.100237 0.969955 0.958343
0.100237 0.969955 0.958343
0.819623 0.994339 0.993484
0.993667 0.991089 0.990036
