bundles/resolve-cinematic-luts/Phantom Luts/Canon Alexa LUT/C-Log 2/Utopia Canon CL2.cube
TITLE "Generated by Resolve"
LUT_3D_SIZE 33
0 0.0249943 0.0329595
0 0.0248112 0.0325933
0.0056611 0.024506 0.0327001
0.0158999 0.0241398 0.0349279
0.0304723 0.0233158 0.0370642
0.0512398 0.0221866 0.0365759
0.0782635 0.0201419 0.0361181
0.110948 0.0181888 0.0355077
0.150805 0.0159915 0.035111
0.198322 0.0134432 0.0355993
0.253285 0.0107881 0.0383001
0.313466 0.00802625 0.0441444
0.375463 0.0055848 0.0540475
0.439521 0.00393683 0.0673075
0.501411 0.00453193 0.0847486
0.561807 0.00758373 0.107927
0.620844 0.0128634 0.136553
0.681437 0.0199435 0.169574
0.735714 0.027863 0.204974
0.768978 0.0344396 0.237293
0.777066 0.036759 0.253773
0.777188 0.0372931 0.263539
0.777188 0.0377966 0.272465
0.777005 0.0383001 0.280247
0.776455 0.0384222 0.286839
0.776028 0.0385595 0.292256
0.775845 0.0388495 0.296666
0.775814 0.0389868 0.300603
0.776226 0.0390021 0.303517
0.777737 0.0386206 0.306294
0.779675 0.0380713 0.30869
0.783505 0.0369573 0.310597
0.787686 0.0356756 0.312596
0 0.0261082 0.0333715
0 0.0253605 0.0329595
0.00109865 0.0253452 0.032639
0.0101472 0.024567 0.0325933
0.0230869 0.0237736 0.0353246
0.0427405 0.0230411 0.0353857
0.0697795 0.0210117 0.0340276
0.101778 0.0194705 0.0334173
0.142641 0.0171206 0.0319524
0.191012 0.0137331 0.0311131
0.247501 0.0107576 0.0320897
0.308553 0.0080415 0.0361944
0.371145 0.00553903 0.0451362
0.436912 0.00419623 0.0593576
0.499352 0.00471504 0.0770886
0.559945 0.00758373 0.0999161
0.619058 0.0125429 0.128511
0.679774 0.0196078 0.162066
0.734798 0.0274815 0.197772
0.769009 0.0344244 0.231968
0.776852 0.0364843 0.248585
0.777188 0.0370031 0.258137
0.777218 0.0375219 0.267185
0.777142 0.0379797 0.275242
0.776867 0.0383459 0.282017
0.77641 0.0384375 0.28751
0.776043 0.0385595 0.292195
0.776165 0.0387121 0.295949
0.776516 0.0387274 0.299199
0.778027 0.0383307 0.3019
0.780041 0.0377813 0.304082
0.783841 0.0366522 0.306279
0.788144 0.0353552 0.307897
0 0.0301976 0.0349126
0 0.0291142 0.0341039
0.00225834 0.0283207 0.0338903
0.00874342 0.0278935 0.0332189
0.0208896 0.0251164 0.0333867
0.0390936 0.0237278 0.0343938
0.0632639 0.0217899 0.0337987
0.0949111 0.0195773 0.0317845
0.134417 0.017258 0.0297246
0.181842 0.0151827 0.0286107
0.238025 0.0124666 0.0292973
0.300572 0.00842298 0.0303349
0.366583 0.00581369 0.0376898
0.433249 0.00402838 0.0507668
0.496468 0.00453193 0.068925
0.557763 0.00753796 0.0921035
0.617105 0.0122835 0.120653
0.678309 0.0192721 0.154437
0.733593 0.0271458 0.190845
0.768917 0.0344091 0.226322
0.776623 0.0362097 0.243061
0.77705 0.0367285 0.252979
0.777218 0.0372168 0.261997
0.777218 0.0376593 0.2701
0.777066 0.0381018 0.277333
0.776776 0.0383612 0.283024
0.776394 0.0384375 0.287633
0.776379 0.0384375 0.291447
0.776776 0.0384375 0.29482
0.778393 0.0380713 0.297414
0.780362 0.0375067 0.299748
0.784237 0.0363622 0.301701
0.788525 0.03505 0.303517
0 0.0371862 0.0353552
0 0.0360571 0.0341192
0.0012665 0.0339818 0.0343328
0.00915541 0.0330205 0.0343938
0.0195926 0.0333715 0.0341344
0.0368353 0.0281224 0.0335241
0.0648966 0.0237278 0.0303349
0.0955215 0.0205081 0.0294041
0.129442 0.0181125 0.0286107
0.174655 0.0155795 0.0265507
0.228962 0.0121462 0.0244144
0.291844 0.0105745 0.0267796
0.356832 0.00741588 0.0315251
0.424582 0.00408942 0.0412604
0.490776 0.00419623 0.0588083
0.553994 0.00717174 0.0817426
0.61445 0.0120394 0.110384
0.675944 0.0187839 0.14464
0.732357 0.0271305 0.181933
0.76849 0.0341039 0.21886
0.776257 0.035874 0.236118
0.776776 0.0363775 0.246311
0.777096 0.0368505 0.255558
0.777203 0.0372931 0.263615
0.777203 0.0376898 0.27071
0.777081 0.0380713 0.276829
0.776898 0.0383307 0.281651
0.776837 0.0383001 0.285756
0.777203 0.0381933 0.288655
0.778714 0.0377203 0.291447
0.780697 0.0371405 0.294026
0.784695 0.035996 0.295949
0.789044 0.034699 0.297902
0 0.0507057 0.0323033
0 0.0496376 0.0299077
0 0.0467994 0.0306859
0.00361639 0.043946 0.0314946
0.0166476 0.0426947 0.0322423
0.0344244 0.0447547 0.0310979
0.0599222 0.0375525 0.034226
0.0930037 0.0272831 0.0285191
0.132677 0.0208896 0.0238193
0.177996 0.0166323 0.0225986
0.224872 0.013077 0.0223697
0.284764 0.0100404 0.0221866
0.348257 0.00688182 0.0224308
0.414786 0.00610361 0.0327001
0.480735 0.00421149 0.0471962
0.545602 0.00646983 0.0689555
0.608865 0.0115969 0.0974136
0.672114 0.0179294 0.131121
0.73051 0.0261082 0.169299
0.768933 0.0332189 0.208759
0.776913 0.0350958 0.226612
0.777447 0.0355993 0.237171
0.777752 0.0361028 0.246799
0.77792 0.0365606 0.2551
0.777935 0.0369879 0.262135
0.777783 0.0373846 0.268254
0.777661 0.0377203 0.273365
0.777768 0.0379034 0.277897
0.778164 0.0379492 0.281071
0.779507 0.0374914 0.283894
0.781338 0.0368811 0.286381
0.785351 0.0356603 0.288136
0.789654 0.0343023 0.289982
0 0.0754253 0.0259403
0 0.0740978 0.0220035
0 0.071519 0.021973
0 0.0673228 0.024155
0.00794995 0.0650797 0.0244297
0.0299992 0.062211 0.0270237
0.060914 0.0631113 0.0315557
0.092668 0.0557259 0.0342412
0.132906 0.0375372 0.0298009
0.178439 0.0244907 0.0215763
0.233814 0.0148928 0.0150912
0.291264 0.0113222 0.0172885
0.3449 0.00776684 0.019791
0.409293 0.0053254 0.0231479
0.472541 0.00534066 0.034638
0.534539 0.00622568 0.0546578
0.598016 0.0104524 0.0809033
0.66305 0.0170443 0.114336
0.724132 0.0247349 0.1523
0.767681 0.032166 0.193912
0.777264 0.0341802 0.213138
0.778286 0.0346075 0.224475
0.778973 0.0350042 0.234531
0.779309 0.0354314 0.243442
0.779553 0.0358282 0.250904
0.779675 0.0361486 0.257267
0.779706 0.0364385 0.262531
0.779736 0.0366827 0.266682
0.77969 0.0368811 0.270405
0.78056 0.0367742 0.273167
0.782132 0.0363775 0.275715
0.786023 0.0352483 0.277729
0.790356 0.0339208 0.279561
0 0.106538 0.0170291
0 0.105409 0.0132296
0 0.103914 0.0102235
0 0.099794 0.0111543
0 0.0959029 0.0135805
0.0136416 0.0945449 0.01561
0.0545205 0.0890211 0.0239414
0.0919814 0.0885176 0.0300755
0.132082 0.0834211 0.0321965
0.181415 0.0567788 0.031281
0.238224 0.030457 0.0193179
0.295384 0.0174868 0.0109865
0.361013 0.00927749 0.009308
0.416724 0.00604257 0.0163577
0.470588 0.00479133 0.0261692
0.527932 0.00657664 0.0423285
0.585412 0.00976577 0.0634165
0.649165 0.0155337 0.0932784
0.713252 0.0233768 0.131151
0.761257 0.0310521 0.171267
0.773846 0.0334478 0.192615
0.776745 0.034226 0.206561
0.777935 0.0343633 0.217212
0.778668 0.0347448 0.226764
0.779187 0.03505 0.234836
0.779461 0.0353857 0.241535
0.779599 0.0356756 0.247288
0.779751 0.0359045 0.251682
0.779797 0.0360876 0.255528
0.780438 0.0360723 0.25832
0.781598 0.0358282 0.260838
0.784039 0.0351415 0.262928
0.786877 0.0343328 0.264424
0 0.143267 0.00737011
0 0.141756 0.00340276
0 0.140322 0
0 0.137774 0.000534066
0 0.133577 0.00137331
0.00538643 0.130388 0.00262455
0.0226596 0.128878 0.00683604
0.0862287 0.119081 0.02327
0.129824 0.11725 0.028809
0.179126 0.117418 0.0289311
0.241337 0.0835584 0.0314336
0.307256 0.038819 0.0178073
0.366415 0.0221714 0.00866712
0.431083 0.00865187 0.000686656
0.489265 0.00691234 0.0130922
0.533776 0.0069276 0.0319066
0.58265 0.0100404 0.0544137
0.634348 0.0141909 0.0756237
0.697719 0.0214694 0.105776
0.750698 0.0291752 0.143877
0.76492 0.0316167 0.162921
0.769909 0.032578 0.177752
0.774151 0.0335088 0.192081
0.776699 0.034226 0.203632
0.77763 0.034226 0.212314
0.778393 0.0345006 0.219837
0.778851 0.0347601 0.225757
0.779156 0.0349432 0.230701
0.779446 0.0350958 0.234607
0.780087 0.0350958 0.237842
0.781415 0.0348516 0.240391
0.784131 0.0341344 0.24242
0.787015 0.033341 0.243885
0 0.189487 0
0 0.187823 0
0 0.186069 0
0 0.184421 0
0 0.180179 0
0 0.176181 0
0.0104372 0.174533 0
0.0391546 0.171313 0
0.1234 0.156283 0.0213779
0.17641 0.152743 0.0290532
0.232898 0.159442 0.0262608
0.313283 0.111803 0.0303044
0.37937 0.0614633 0.020798
0.442908 0.031281 0.00683604
0.49723 0.0156252 0.0010071
0.556878 0.00985733 0.00984207
0.60444 0.011368 0.0361944
0.637415 0.0146944 0.0672618
0.685405 0.0198367 0.0922866
0.737713 0.0273747 0.120989
0.753033 0.0298314 0.133791
0.758343 0.0307469 0.145037
0.763165 0.0316472 0.156619
0.766918 0.0319524 0.167422
0.770459 0.0327153 0.17789
0.773495 0.0333562 0.187427
0.775677 0.0338903 0.195499
0.776837 0.034226 0.201633
0.77731 0.034287 0.205829
0.778195 0.0340734 0.208942
0.779629 0.0336919 0.211566
0.782437 0.0329595 0.213672
0.785489 0.0321813 0.215
0 0.24509 0
0 0.244175 0
0 0.24242 0
0 0.240162 0
0 0.236912 0
0 0.232761 0
0 0.228367 0
0.0168154 0.230289 0
0.063447 0.222721 0
0.168917 0.202167 0.0220188
0.233143 0.197742 0.0298772
0.299123 0.205936 0.0269169
0.38584 0.151186 0.0296941
0.453696 0.0967727 0.025864
0.514488 0.0487984 0.0121157
0.562997 0.0299687 0.00428779
0.615747 0.0138552 0.00337224
0.672694 0.0179904 0.0383612
0.70753 0.0223697 0.0759442
0.733028 0.0263066 0.108904
0.750317 0.0294041 0.125811
0.75288 0.0298924 0.128511
0.75259 0.0298161 0.12903
0.753643 0.0299687 0.132097
0.756268 0.030396 0.138827
0.759426 0.0309606 0.146426
0.76231 0.0314488 0.153048
0.764172 0.031693 0.15845
0.765682 0.0317388 0.162631
0.767666 0.0318151 0.166186
0.769863 0.031693 0.169146
0.773495 0.0310979 0.170916
0.777066 0.0303807 0.172671
0 0.313191 0
0 0.311879 0
0 0.310414 0
0 0.308522 0
0 0.306401 0
0 0.301869 0
0 0.297948 0
0 0.29305 0
0.0290379 0.297185 0
0.0960403 0.283024 0
0.226093 0.258381 0.0237278
0.303685 0.253269 0.0313726
0.372274 0.262989 0.0284581
0.456626 0.209766 0.0286717
0.527199 0.144991 0.0328832
0.582864 0.0791943 0.0233616
0.63032 0.0510872 0.0152743
0.674556 0.0301823 0.0112917
0.727871 0.0271763 0.0385748
0.764263 0.031281 0.0828565
0.772183 0.033875 0.119844
0.761791 0.0307622 0.123949
0.757778 0.0297398 0.124743
0.756954 0.0297551 0.126101
0.756146 0.0298161 0.126787
0.755306 0.0296635 0.127153
0.754696 0.029572 0.127367
0.754437 0.0295872 0.127687
0.754223 0.0296025 0.127916
0.754574 0.0294804 0.128069
0.755459 0.0292821 0.128527
0.757733 0.028687 0.128496
0.760418 0.027985 0.128542
0 0.389776 0
0 0.388968 0
0 0.388251 0
0 0.387243 0
0 0.385962 0
0 0.38436 0
0 0.377432 0
0 0.373526 0
0.00993362 0.370092 0
0.05243 0.373968 0
0.142657 0.352728 0
0.297307 0.326421 0.027039
0.385534 0.322438 0.0344244
0.451026 0.332769 0.0323949
0.526772 0.290852 0.0299687
0.599786 0.211887 0.0430762
0.650797 0.132509 0.0415198
0.698894 0.0878767 0.0321508
0.732021 0.0589303 0.0248417
0.760113 0.0366827 0.0301061
0.790494 0.0385443 0.0767681
0.795239 0.0383001 0.095079
0.792233 0.0367895 0.102647
0.787747 0.0352331 0.110399
0.781979 0.0344549 0.119173
0.773785 0.0332189 0.123964
0.765011 0.0305638 0.121706
0.761852 0.0293584 0.121157
0.761929 0.0293584 0.122103
0.761975 0.0293584 0.12224
0.762005 0.0293584 0.122332
0.762982 0.0291142 0.122225
0.764889 0.0286107 0.121889
0 0.471504 0
0 0.471138 0
0 0.470802 0
0 0.470497 0
0 0.469917 0
0 0.469215 0
0 0.466377 0
0 0.458701 0
0 0.454353 0
0.0290684 0.452644 0
0.0886244 0.453376 0
0.208545 0.423346 0
0.379431 0.398627 0.0323186
0.472145 0.396918 0.0388342
0.530037 0.405035 0.0390631
0.596613 0.38555 0.0395819
0.669337 0.301503 0.0545968
0.722637 0.221576 0.0632944
0.763439 0.142657 0.0559091
0.788373 0.104097 0.0495308
0.794125 0.0667124 0.0440223
0.787839 0.0502174 0.0390631
0.786679 0.0438697 0.0429389
0.790936 0.0429541 0.0564279
0.794583 0.0426184 0.0692454
0.795956 0.0416571 0.0777905
0.796307 0.0407111 0.08365
0.796246 0.0400244 0.0880751
0.795987 0.0395514 0.0916152
0.795514 0.0391394 0.0941024
0.794903 0.0387274 0.0957961
0.795605 0.0379644 0.0964523
0.797574 0.0369268 0.0963149
0 0.551217 0
0 0.550896 0
0 0.55053 0
0 0.54992 0
0 0.549508 0
0 0.549279 0
0 0.548348 0
0 0.543969 0
0 0.538476 0
0.0168154 0.534142 0
0.0679332 0.535988 0
0.141833 0.531884 0
0.292851 0.493217 0.00077821
0.463554 0.472892 0.0378576
0.555917 0.471168 0.0485542
0.607202 0.477607 0.0527962
0.670863 0.481209 0.0566567
0.7364 0.406882 0.0658885
0.794171 0.324681 0.0813764
0.825711 0.228107 0.08365
0.838651 0.164736 0.0769818
0.835187 0.136049 0.0703288
0.828183 0.121233 0.0649424
0.820493 0.108598 0.0594644
0.813565 0.09691 0.0543221
0.807614 0.0869459 0.0500649
0.804074 0.0780804 0.0496681
0.800702 0.0721141 0.0473182
0.798077 0.0674907 0.0455024
0.796094 0.0640574 0.0442054
0.7944 0.0610971 0.0431373
0.794675 0.0584726 0.0416724
0.797177 0.0561227 0.0401617
0.00936904 0.627878 0
0.00970474 0.627573 0
0.00994888 0.627314 0
0.0104219 0.626886 0
0.0110018 0.626291 0
0.0109865 0.626245 0
0.0110323 0.625925 0
0.0110933 0.624842 0
0.00965896 0.618433 0
0.0134432 0.615213 0
0.0444038 0.6121 0
0.120195 0.6159 0
0.214343 0.604623 0
0.390875 0.56199 0.0191501
0.545876 0.545129 0.0517586
0.636881 0.54493 0.0647288
0.685161 0.550332 0.0704662
0.747875 0.5608 0.0761578
0.804669 0.510872 0.0788281
0.857481 0.432609 0.0978103
0.883192 0.357412 0.106462
0.885039 0.272175 0.104814
0.875792 0.232837 0.098497
0.869657 0.214496 0.0946212
0.865324 0.202914 0.0917525
0.862013 0.193698 0.0894942
0.85893 0.185763 0.0872969
0.856153 0.179232 0.0852674
0.854093 0.174105 0.0838941
0.852308 0.169955 0.0825971
0.850752 0.166644 0.0814221
0.851072 0.164157 0.0802167
0.852811 0.161883 0.0788281
0.026566 0.705547 0
0.0264134 0.70544 0
0.0261997 0.705333 0
0.0264439 0.704967 0
0.0267643 0.704463 0
0.0271611 0.704204 0
0.0271 0.703853 0
0.0272068 0.703365 0
0.026978 0.700938 0
0.0262608 0.693309 0
0.0411688 0.692668 0
0.0899367 0.69041 0
0.185901 0.693507 0
0.300465 0.674113 0
0.486748 0.628946 0.0407263
0.626322 0.617548 0.0696574
0.716121 0.61799 0.0834821
0.76405 0.622675 0.0892958
0.821485 0.630701 0.0949569
0.868559 0.614237 0.0974136
0.903212 0.549645 0.107652
0.925566 0.473686 0.123156
0.925261 0.446555 0.124971
0.921798 0.429862 0.12343
0.918532 0.415213 0.121538
0.915511 0.402152 0.119799
0.912902 0.390723 0.118395
0.911055 0.380575 0.117418
0.9093 0.372015 0.11664
0.908095 0.364935 0.116213
0.906676 0.358816 0.11545
0.906691 0.354253 0.11458
0.907317 0.350347 0.112886
0.0462348 0.785534 0.00062562
0.0453803 0.785931 0
0.0443885 0.78613 0
0.0442512 0.785931 0
0.0442206 0.78555 0
0.0446632 0.785 0
0.044358 0.784665 0
0.0442817 0.784146 0
0.0442359 0.782864 0
0.0439002 0.778454 0
0.0449989 0.772686 0
0.0730907 0.773434 0
0.156161 0.771527 0
0.265644 0.770184 0
0.400137 0.742 0.0147707
0.580072 0.696147 0.0635996
0.704494 0.690196 0.0886091
0.794202 0.691325 0.103227
0.843565 0.695827 0.110491
0.886046 0.700389 0.116136
0.926421 0.705074 0.122759
0.943282 0.663264 0.119387
0.946563 0.624643 0.121935
0.945037 0.60795 0.123156
0.943206 0.595224 0.12398
0.941741 0.583993 0.124453
0.940597 0.574411 0.12488
0.939757 0.566354 0.12546
0.938689 0.559487 0.125551
0.938369 0.554345 0.12607
0.937713 0.550011 0.125948
0.937926 0.546929 0.125612
0.938308 0.544503 0.124041
0.0696574 0.864851 0.0138399
0.0682383 0.865431 0.00698863
0.0664836 0.866087 0.000183108
0.06598 0.866316 0
0.0655222 0.866285 0
0.0658427 0.865873 0
0.0654765 0.86566 0
0.0653544 0.865293 0
0.0651255 0.86453 0
0.0649424 0.86273 0
0.0638132 0.856092 0
0.0712596 0.855085 0
0.118898 0.856001 0
0.236744 0.853468 0
0.357702 0.848402 0.00674449
0.499779 0.808454 0.0396429
0.670497 0.765438 0.087541
0.781903 0.76495 0.109102
0.869795 0.766598 0.126329
0.916197 0.771008 0.135912
0.945129 0.772107 0.141878
0.970199 0.772564 0.147219
0.98352 0.770565 0.149844
0.982879 0.765499 0.148363
0.981201 0.760815 0.146761
0.978241 0.751934 0.14374
0.975326 0.743206 0.140734
0.973144 0.736171 0.138506
0.971527 0.730419 0.136858
0.970001 0.725597 0.135286
0.969223 0.722164 0.134447
0.968292 0.719295 0.133471
0.967651 0.716976 0.132799
0.0958724 0.931075 0.025742
0.0956436 0.931151 0.0203555
0.0943008 0.931579 0.0142367
0.0933852 0.931807 0.00854505
0.0929732 0.931807 0.0030518
0.0927138 0.931655 0.000915541
0.0922713 0.93164 0.000640879
0.092134 0.931411 0.000534066
0.0919814 0.931105 0.000396735
0.0915541 0.930343 3.0518e-05
0.0904402 0.92755 0
0.0888228 0.920714 0
0.109483 0.92372 0
0.188449 0.923659 0
0.329732 0.923369 0.00784314
0.460716 0.909621 0.029099
0.603174 0.866194 0.0679484
0.759304 0.828016 0.116503
0.857511 0.831968 0.132326
0.932326 0.833631 0.151431
0.973312 0.83621 0.163622
0.990875 0.836011 0.168917
0.998596 0.833402 0.171878
0.999481 0.82974 0.17203
0.999237 0.826108 0.170657
0.998932 0.822858 0.169451
0.998642 0.820294 0.168475
0.998367 0.817945 0.167681
0.998093 0.815946 0.166964
0.997848 0.814542 0.166415
0.99765 0.813443 0.165911
0.997497 0.812528 0.165591
0.997391 0.811826 0.165347
0.123705 0.975769 0.0461433
0.124926 0.975402 0.0410773
0.125002 0.975311 0.0366827
0.126116 0.974685 0.0332036
0.127123 0.974014 0.0320439
0.127382 0.973999 0.0326085
0.127504 0.973983 0.0330053
0.127657 0.974105 0.0331579
0.127398 0.973892 0.0328985
0.126909 0.973526 0.0324102
0.125185 0.972198 0.0307317
0.12137 0.968917 0.0269017
0.12398 0.967788 0.0231022
0.172305 0.976349 0.0171664
0.302892 0.974929 0.0137636
0.446998 0.968353 0.03093
0.570855 0.946059 0.0589914
0.705882 0.907195 0.0982071
0.8448 0.878279 0.148486
0.921553 0.884947 0.160571
0.978195 0.884855 0.175799
0.999969 0.886641 0.188632
0.999969 0.887221 0.193256
0.999969 0.884993 0.194415
0.999969 0.882292 0.193454
0.999969 0.879759 0.192294
0.999969 0.877989 0.191608
0.999969 0.876097 0.190768
0.999969 0.874479 0.190066
0.999969 0.873182 0.189517
0.999969 0.872206 0.188968
0.999969 0.871443 0.188617
0.999969 0.870863 0.188373
0.139483 0.993835 0.0590677
0.141314 0.993286 0.0550698
0.143862 0.992416 0.0522164
0.147936 0.990616 0.0517739
0.150805 0.989258 0.0554665
0.152285 0.988647 0.0577707
0.15317 0.988296 0.0590982
0.153307 0.988357 0.0592355
0.153384 0.988388 0.0593271
0.153445 0.988403 0.0593881
0.153399 0.988388 0.0593423
0.152712 0.988128 0.0586404
0.150347 0.987472 0.0532235
0.173754 0.996292 0.0421607
0.271443 0.999512 0.02327
0.431434 0.996948 0.0326848
0.555718 0.98558 0.0574807
0.669337 0.961486 0.0896162
0.798428 0.933394 0.13611
0.913863 0.915496 0.177722
0.970718 0.921508 0.188846
0.999969 0.921111 0.201358
0.999969 0.922026 0.207736
0.999969 0.922377 0.210513
0.999969 0.921309 0.210193
0.999969 0.920058 0.209689
0.999969 0.919066 0.209369
0.999969 0.918242 0.209186
0.999969 0.917327 0.209354
0.999969 0.916533 0.210086
0.999969 0.915816 0.211582
0.999969 0.915282 0.21265
0.999969 0.914931 0.213138
0.141833 0.99469 0.0644083
0.142687 0.9944 0.0597391
0.14432 0.993957 0.0543526
0.147326 0.992859 0.050248
0.148852 0.992279 0.0510414
0.149538 0.991958 0.0520485
0.149859 0.991791 0.0526741
0.149859 0.991791 0.0526741
0.149859 0.991791 0.0526741
0.149859 0.991791 0.0526741
0.149859 0.991791 0.0526741
0.149859 0.991791 0.0526741
0.150866 0.992096 0.0518349
0.167819 0.996704 0.0463417
0.256504 0.999969 0.0290684
0.415991 0.999405 0.0339818
0.555016 0.991272 0.0601968
0.662394 0.977615 0.0915084
0.772335 0.96173 0.129793
0.889342 0.946685 0.191073
0.968444 0.941176 0.218891
0.999451 0.945098 0.230854
0.999969 0.945434 0.244617
0.999969 0.94638 0.251743
0.999969 0.946197 0.2542
0.999969 0.945556 0.252354
0.999969 0.944747 0.249729
0.999969 0.94403 0.247074
0.999969 0.943511 0.244175
0.999969 0.943084 0.241642
0.999969 0.942702 0.240467
0.999969 0.942367 0.240711
0.999969 0.942092 0.24123
0.136217 0.996414 0.0753643
0.137743 0.996033 0.0691997
0.139635 0.99556 0.0623789
0.142855 0.994629 0.0569162
0.146151 0.993393 0.0542916
0.149416 0.99202 0.0521859
0.149859 0.991791 0.0526741
0.149859 0.991791 0.0526741
0.149859 0.991791 0.0526741
0.149859 0.991791 0.0526741
0.149859 0.991791 0.0526741
0.149859 0.991791 0.0526741
0.150591 0.99205 0.0522774
0.162112 0.995407 0.0478218
0.240772 0.999969 0.0304112
0.393729 0.999756 0.0307927
0.52079 0.994919 0.0511635
0.621744 0.983642 0.0784924
0.735012 0.968841 0.113909
0.865843 0.955154 0.153826
0.977676 0.950225 0.196078
0.999969 0.953933 0.238758
0.999969 0.957778 0.288304
0.999969 0.959945 0.329213
0.999969 0.961028 0.354314
0.999969 0.960891 0.352789
0.999969 0.960693 0.34902
0.999969 0.960586 0.345342
0.999969 0.960525 0.341955
0.999969 0.960433 0.338903
0.999969 0.960311 0.336645
0.999969 0.960189 0.335378
0.999969 0.960052 0.334966
0.12755 0.998154 0.088716
0.130266 0.997742 0.0818494
0.133135 0.99733 0.0738231
0.136767 0.996521 0.0665141
0.140978 0.99527 0.0610513
0.145449 0.993652 0.0565805
0.149523 0.991958 0.0530098
0.149859 0.991791 0.0526741
0.149859 0.991791 0.0526741
0.149859 0.991791 0.0526741
0.149859 0.991791 0.0526741
0.149859 0.991791 0.0526741
0.149859 0.991791 0.0526741
0.156298 0.993835 0.0496529
0.218891 0.999847 0.0337224
0.366033 0.999954 0.0283818
0.492912 0.996963 0.0448157
0.617258 0.984466 0.0759442
0.727321 0.970031 0.110369
0.854917 0.956268 0.149096
0.965072 0.951583 0.194308
0.999969 0.956008 0.255421
0.999969 0.959304 0.311696
0.999969 0.962844 0.379934
0.999969 0.964385 0.411368
0.999969 0.964935 0.423346
0.999969 0.964965 0.42414
0.999969 0.964981 0.424338
0.999969 0.965026 0.424491
0.999969 0.965087 0.424231
0.999969 0.965118 0.424048
0.999969 0.965118 0.424018
0.999969 0.965087 0.42414
0.117479 0.999542 0.100282
0.121202 0.999191 0.0939956
0.124727 0.998734 0.0870375
0.129137 0.998077 0.0785534
0.134508 0.99707 0.0702525
0.140276 0.995468 0.0629435
0.146136 0.993408 0.0566262
0.149737 0.991852 0.0527962
0.149859 0.991791 0.0526741
0.149859 0.991791 0.0526741
0.149859 0.991791 0.0526741
0.149859 0.991791 0.0526741
0.149859 0.991791 0.0526741
0.154086 0.993133 0.0504311
0.200198 0.999496 0.0376287
0.339849 0.999969 0.026978
0.477134 0.997742 0.0416419
0.598001 0.986938 0.069688
0.711757 0.972107 0.104265
0.834226 0.958297 0.141573
0.949462 0.951461 0.183566
0.999969 0.955413 0.246525
0.999969 0.958663 0.301289
0.999969 0.962203 0.366171
0.999969 0.964034 0.404898
0.999969 0.96495 0.423743
0.999969 0.964981 0.42475
0.999969 0.964996 0.424674
0.999969 0.965026 0.424521
0.999969 0.965087 0.424292
0.999969 0.965118 0.424155
0.999969 0.965148 0.424079
0.999969 0.965133 0.424109
0.108965 0.999969 0.11577
0.112688 0.999847 0.109285
0.116426 0.999634 0.102419
0.120943 0.999207 0.0931106
0.12697 0.998398 0.081529
0.134295 0.997086 0.0709392
0.141497 0.995071 0.0619516
0.147585 0.992813 0.0550393
0.149859 0.991791 0.0526741
0.149859 0.991791 0.0526741
0.149859 0.991791 0.0526741
0.149859 0.991791 0.0526741
0.149859 0.991791 0.0526741
0.153017 0.992813 0.0509804
0.186496 0.998825 0.0409857
0.318715 0.999969 0.0265202
0.462409 0.998352 0.0391852
0.580011 0.989364 0.0647898
0.697902 0.974029 0.0995193
0.816983 0.960098 0.135317
0.93547 0.9514 0.173892
0.999466 0.954849 0.237079
0.999969 0.958389 0.29218
0.999969 0.961685 0.352026
0.999969 0.963714 0.398703
0.999969 0.96495 0.423667
0.999969 0.964981 0.42475
0.999969 0.964996 0.424674
0.999969 0.965026 0.424521
0.999969 0.965087 0.424292
0.999969 0.965118 0.424155
0.999969 0.965148 0.424079
0.999969 0.965148 0.424079
0.10193 0.999969 0.130282
0.105562 0.999969 0.122759
0.10927 0.999954 0.115328
0.113863 0.999786 0.106111
0.119844 0.999329 0.0939193
0.127871 0.99823 0.0800183
0.136858 0.996445 0.0677806
0.144945 0.993851 0.0579232
0.149783 0.991836 0.0527657
0.149859 0.991791 0.0526741
0.149859 0.991791 0.0526741
0.149859 0.991791 0.0526741
0.149859 0.991791 0.0526741
0.152361 0.992615 0.0513161
0.178363 0.998138 0.0432441
0.302037 0.999969 0.0265507
0.453254 0.998703 0.0378271
0.564019 0.991135 0.0605173
0.686046 0.975662 0.0959029
0.802808 0.961578 0.130846
0.92369 0.952148 0.168444
0.998001 0.954391 0.228397
0.999969 0.958007 0.283894
0.999969 0.961212 0.342657
0.999969 0.963485 0.393393
0.999969 0.964904 0.421927
0.999969 0.964981 0.424689
0.999969 0.964996 0.424674
0.999969 0.965026 0.424521
0.999969 0.965087 0.424292
0.999969 0.965087 0.424292
0.999969 0.965026 0.424521
0.999969 0.96492 0.424964
0.100237 0.999969 0.151324
0.103807 0.999969 0.143801
0.107103 0.999969 0.134966
0.111208 0.999878 0.124483
0.116365 0.999588 0.111864
0.123293 0.998856 0.0959945
0.131731 0.997528 0.0788128
0.139391 0.995575 0.064271
0.145037 0.993576 0.0540627
