bundles/resolve-cinematic-luts/Phantom Luts/P4k & P6K Phntm Film LUTs - V6/P6k/Gen 5 Colour/P6k Vision Gen5.cube
TITLE "Generated by Resolve"
LUT_3D_SIZE 5
0.0221866 0.0275425 0.0221866
0.078584 0.0312657 0.0215915
0.585184 0.0661173 0.0643778
0.762188 0.131136 0.117647
0.774975 0.153002 0.120668
0.0327459 0.11989 0.05449
0.0807813 0.125261 0.0405127
0.643732 0.132738 0.09308
0.778515 0.191287 0.130419
0.785473 0.257237 0.156298
0.205524 0.673961 0.427893
0.198077 0.66247 0.374823
0.600885 0.66923 0.205478
0.830228 0.685786 0.328069
0.829053 0.67628 0.320851
0.331624 0.827253 0.604166
0.354391 0.820569 0.584894
0.608713 0.827131 0.564752
0.834836 0.85069 0.573938
0.835431 0.850996 0.5738
0.327047 0.829282 0.607141
0.345052 0.822904 0.592279
0.541787 0.820966 0.550729
0.82388 0.849363 0.567452
0.835431 0.85095 0.5729
0.0309148 0.0332494 0.10016
0.116106 0.032578 0.0879988
0.648692 0.0856184 0.151354
0.782376 0.126955 0.188235
0.770993 0.109163 0.134844
0.0280308 0.103716 0.0907301
0.100511 0.114916 0.10222
0.631006 0.0808423 0.0842908
0.772854 0.150912 0.121996
0.786343 0.221195 0.139666
0.175662 0.670237 0.456153
0.190951 0.661402 0.41796
0.594247 0.66157 0.199191
0.828031 0.670558 0.318105
0.828214 0.668238 0.315282
0.310231 0.835538 0.627527
0.329534 0.828092 0.605524
0.590677 0.825391 0.560281
0.833722 0.850568 0.573434
0.835706 0.851362 0.575219
0.310079 0.835737 0.626368
0.326421 0.829404 0.608789
0.518791 0.819547 0.546548
0.819364 0.849012 0.566903
0.835447 0.85095 0.572747
0.209186 0.0534218 0.505302
0.304158 0.0585641 0.492149
0.668421 0.112581 0.566979
0.777615 0.17615 0.638422
0.771466 0.138827 0.542443
0.0796979 0.084123 0.543145
0.214618 0.053254 0.500267
0.652262 0.107134 0.550942
0.774151 0.169818 0.605402
0.773846 0.147265 0.516014
0.0750591 0.646479 0.667628
0.0712444 0.639506 0.660258
0.657465 0.676158 0.654292
0.84921 0.648325 0.5906
0.829206 0.634119 0.51194
0.325383 0.868009 0.818204
0.283253 0.868589 0.804181
0.527031 0.84303 0.6907
0.831388 0.872923 0.663432
0.847761 0.87541 0.675212
0.266621 0.868116 0.797833
0.234699 0.867872 0.778378
0.361852 0.832837 0.630213
0.807507 0.861738 0.61117
0.845441 0.870924 0.655009
0.436698 0.101122 0.674174
0.482902 0.107866 0.677684
0.748531 0.187167 0.741955
0.797406 0.203357 0.755001
0.79733 0.203387 0.754879
0.374868 0.0940719 0.670283
0.435676 0.101076 0.674205
0.73579 0.183886 0.73817
0.797391 0.203784 0.755077
0.797406 0.203449 0.755016
0.165164 0.653681 0.913619
0.187076 0.642405 0.915404
0.745983 0.569757 0.879499
0.881834 0.586923 0.863523
0.876524 0.560204 0.857053
0.606165 0.883803 0.890471
0.587747 0.882582 0.888762
0.578576 0.876722 0.879942
0.876829 0.912383 0.893126
0.900969 0.90602 0.88513
0.590433 0.882826 0.888747
0.565606 0.881346 0.885039
0.534493 0.877897 0.868299
0.856321 0.923781 0.888731
0.897307 0.92958 0.894972
0.445243 0.101976 0.674586
0.489693 0.108629 0.677974
0.751507 0.188067 0.742626
0.797406 0.203357 0.755001
0.797406 0.203357 0.755001
0.385916 0.0951095 0.670115
0.443793 0.101869 0.67454
0.738674 0.184894 0.739773
0.797436 0.204166 0.755261
0.797406 0.203632 0.755047
0.203235 0.644511 0.915984
0.200031 0.63212 0.915908
0.741527 0.550622 0.872831
0.877897 0.566262 0.858869
0.871351 0.53611 0.851575
0.613504 0.884153 0.890761
0.607523 0.882826 0.891997
0.616022 0.8719 0.895613
0.875761 0.900771 0.915175
0.893248 0.896056 0.913436
0.613504 0.884153 0.890761
0.613504 0.884153 0.890761
0.628229 0.886107 0.892027
0.858061 0.929915 0.911269
0.899763 0.936522 0.919219
