bundles/resolve-cinematic-luts/Phantom Luts/P4k & P6K Phntm Film LUTs - V6/P6k/Gen 5 Colour/P6k Bleach Gen5-Legacy.cube
TITLE "Generated by Resolve"
LUT_3D_SIZE 9
0.0253147 0.0381933 0.0269932
0.0257725 0.0381476 0.0269322
0.0433204 0.0446174 0.0317082
0.0923629 0.0488136 0.0382849
0.22768 0.0590066 0.0523079
0.461326 0.0656748 0.0698711
0.698314 0.0851301 0.107179
0.779355 0.0983139 0.127214
0.780499 0.0996872 0.129519
0.0268559 0.0418555 0.0290684
0.0309606 0.0440681 0.0301823
0.0541238 0.0524453 0.0354925
0.142443 0.0541085 0.0454566
0.336385 0.0645457 0.0578164
0.59086 0.0714885 0.0781567
0.767971 0.0935683 0.114214
0.779858 0.0968795 0.118196
0.780743 0.0975814 0.117601
0.0430457 0.0850843 0.0497292
0.0458534 0.0916915 0.0474556
0.0783246 0.0984054 0.0513619
0.210437 0.102144 0.0579232
0.462119 0.0969253 0.0724804
0.67042 0.105486 0.0895247
0.806226 0.121569 0.112367
0.819867 0.139742 0.122164
0.842222 0.168582 0.137926
0.0555886 0.203342 0.0823224
0.0554818 0.223056 0.0774395
0.0643168 0.225544 0.054139
0.232151 0.278782 0.0698558
0.602609 0.319448 0.110399
0.847349 0.406683 0.230884
0.948348 0.471626 0.285435
0.945922 0.503456 0.284092
0.944717 0.540902 0.284901
0.0331579 0.427344 0.111543
0.0323033 0.448234 0.105333
0.0354009 0.452491 0.0657054
0.168276 0.500084 0.0594644
0.570718 0.62031 0.134829
0.833249 0.681178 0.213687
0.952361 0.726009 0.311315
0.95404 0.751537 0.327688
0.954391 0.773617 0.340688
0.1346 0.722225 0.292012
0.143877 0.733822 0.290669
0.151888 0.73637 0.252201
0.235523 0.741573 0.18291
0.617899 0.782376 0.253361
0.800961 0.847135 0.332067
0.926863 0.881102 0.409445
0.935531 0.892515 0.467506
0.932372 0.898329 0.494331
0.179477 0.780911 0.357717
0.182757 0.780102 0.34641
0.199771 0.779065 0.309468
0.319142 0.784772 0.284215
0.630274 0.813001 0.35201
0.837385 0.881209 0.491722
0.920165 0.905074 0.539651
0.930373 0.90898 0.555779
0.930388 0.908995 0.556161
0.175891 0.781826 0.365805
0.182452 0.780194 0.347616
0.208225 0.779126 0.297902
0.380056 0.788449 0.291112
0.695872 0.832547 0.394568
0.860761 0.88809 0.504509
0.923888 0.906401 0.542016
0.930373 0.90898 0.555795
0.930373 0.90898 0.555795
0.17409 0.782238 0.369512
0.184344 0.779858 0.34313
0.228138 0.779614 0.28426
0.473167 0.791135 0.30277
0.752071 0.852674 0.438727
0.880613 0.893874 0.51722
0.928634 0.908156 0.545174
0.930373 0.90898 0.555795
0.930373 0.90898 0.555795
0.0254978 0.0383459 0.0281376
0.0253452 0.0381933 0.0269932
0.0463111 0.0434882 0.0371862
0.103273 0.0525673 0.0475166
0.244556 0.0639811 0.0616159
0.486336 0.0713054 0.0827192
0.712978 0.0894026 0.119127
0.78114 0.0999313 0.136431
0.787976 0.105684 0.145861
0.0258946 0.0396277 0.0281682
0.0274357 0.0407111 0.0291295
0.0615091 0.0489967 0.0353857
0.151965 0.0537881 0.0470436
0.347311 0.0647593 0.0635386
0.601785 0.0743877 0.0876173
0.772519 0.0966964 0.1243
0.780499 0.0994736 0.128466
0.781643 0.100694 0.130129
0.0437171 0.0830243 0.0543832
0.0448157 0.0915694 0.0526284
0.0790265 0.0987716 0.0517128
0.221897 0.100557 0.0589761
0.473869 0.0934005 0.0704356
0.67628 0.0999466 0.0886397
0.801266 0.11696 0.112047
0.813535 0.131441 0.119066
0.82739 0.148836 0.126238
0.0560006 0.208026 0.0923476
0.0559701 0.22797 0.0890059
0.059678 0.229129 0.0548409
0.237903 0.285512 0.0707866
0.615961 0.326467 0.115236
0.861372 0.412421 0.238025
0.948104 0.472374 0.285115
0.946029 0.501976 0.283848
0.945052 0.53611 0.285145
0.0324254 0.434424 0.12285
0.0320134 0.455451 0.117968
0.0344091 0.459388 0.0767681
0.16321 0.506035 0.0597543
0.577249 0.626245 0.138033
0.840909 0.686076 0.21799
0.952667 0.728832 0.313466
0.95407 0.751339 0.327489
0.954177 0.771557 0.339162
0.1346 0.724681 0.30428
0.143511 0.736187 0.303975
0.151324 0.738674 0.266453
0.230259 0.744274 0.186679
0.61677 0.783749 0.253391
0.802869 0.848692 0.333349
0.927764 0.880949 0.410498
0.93611 0.891676 0.464591
0.932738 0.897475 0.488579
0.173571 0.782376 0.370733
0.178759 0.781094 0.35964
0.194965 0.779156 0.320668
0.307637 0.784024 0.283375
0.624659 0.811704 0.348974
0.834958 0.880537 0.490486
0.919097 0.904707 0.539605
0.930465 0.909026 0.557519
0.930526 0.909056 0.558038
0.166369 0.784955 0.38764
0.175051 0.78201 0.367544
0.197681 0.779171 0.314977
0.357977 0.787137 0.288685
0.683162 0.828199 0.384756
0.855238 0.886458 0.501686
0.921126 0.905348 0.540642
0.930434 0.90901 0.557046
0.930495 0.909041 0.557687
0.160464 0.787625 0.402258
0.173022 0.782544 0.371283
0.207034 0.779141 0.303624
0.432395 0.790051 0.297841
0.731899 0.845273 0.423789
0.872709 0.891447 0.512428
0.925521 0.906981 0.543938
0.930465 0.909026 0.557488
0.93051 0.909056 0.557916
0.0305638 0.0407111 0.0417639
0.0349584 0.0415351 0.0400092
0.0479744 0.0445716 0.0453651
0.112673 0.0523232 0.0616312
0.278553 0.0637369 0.082475
0.512184 0.0771954 0.0992752
0.739284 0.114076 0.151888
0.809415 0.136873 0.182895
0.81709 0.145724 0.195621
0.0281224 0.0434577 0.0411841
0.033463 0.0420233 0.0496681
0.0652781 0.0474708 0.0579385
0.182467 0.057908 0.0749371
0.387472 0.0709239 0.0925002
0.62681 0.094789 0.120775
0.801114 0.129076 0.17258
0.813657 0.140627 0.186938
0.819089 0.146914 0.196445
0.0436866 0.0799573 0.0652934
0.0453956 0.0864118 0.0710918
0.0813306 0.0939803 0.0806592
0.226551 0.0962081 0.0822309
0.451865 0.0829175 0.0787518
0.665537 0.089601 0.103227
0.787259 0.105119 0.130144
0.790387 0.108232 0.133074
0.796551 0.114611 0.137758
0.0625315 0.202609 0.124117
0.0618143 0.222126 0.127184
0.0569772 0.229984 0.0929732
0.241733 0.285008 0.0902266
0.630335 0.313664 0.131655
0.88484 0.386847 0.250324
0.950088 0.440681 0.293263
0.949248 0.468559 0.29662
0.947341 0.501396 0.299794
0.0328679 0.432807 0.16408
0.0314488 0.454063 0.162829
0.0320439 0.45658 0.123903
0.103975 0.485801 0.0486305
0.572442 0.621759 0.13817
0.858686 0.679225 0.230137
0.952316 0.718288 0.31249
0.953521 0.737118 0.323522
0.954284 0.755962 0.336812
0.118822 0.719631 0.334218
0.128374 0.731426 0.337575
0.13959 0.731289 0.305409
0.185092 0.735653 0.192416
0.586358 0.774823 0.240833
0.795026 0.841672 0.318364
0.930526 0.874525 0.395926
0.939605 0.885359 0.448508
0.935714 0.891569 0.467399
0.154925 0.790204 0.414343
0.159564 0.788067 0.403906
0.177401 0.78146 0.362799
0.251331 0.780667 0.283238
0.58732 0.803677 0.334905
0.820539 0.876097 0.485817
0.909865 0.902068 0.540688
0.931044 0.909392 0.562875
0.931197 0.909483 0.564462
0.140612 0.796796 0.452445
0.148592 0.79321 0.429862
0.173098 0.782544 0.371313
0.28304 0.7823 0.286381
0.629664 0.812924 0.356863
0.836027 0.880949 0.495598
0.910124 0.90219 0.540398
0.930831 0.909239 0.560586
0.931319 0.90959 0.565774
0.129091 0.801572 0.493248
0.139132 0.797086 0.455695
0.171405 0.783032 0.376638
0.325231 0.784833 0.2934
0.673869 0.825818 0.3879
0.852293 0.885801 0.505913
0.912367 0.903181 0.544411
0.930861 0.909255 0.560906
0.931563 0.909834 0.5682
0.0352636 0.0435187 0.0735485
0.0443885 0.0452888 0.072694
0.0636912 0.0475013 0.0784772
0.123049 0.0529641 0.0983749
0.3066 0.0655833 0.140581
0.568521 0.0726635 0.180209
0.789593 0.123629 0.231586
0.843488 0.13991 0.283375
0.846906 0.132143 0.344976
0.0279545 0.0452583 0.0845655
0.0426795 0.0458534 0.10898
0.0844434 0.0500343 0.124681
0.200397 0.058854 0.153002
0.445426 0.0687419 0.19472
0.682139 0.0872206 0.249058
0.843595 0.139406 0.292531
0.84715 0.134951 0.33521
0.848035 0.129747 0.385458
0.0327764 0.0761425 0.106935
0.0308537 0.0780499 0.122789
0.0763561 0.0660258 0.168078
0.240787 0.0726329 0.186862
0.497383 0.0725414 0.198672
0.721843 0.102617 0.233921
0.845624 0.149966 0.270405
0.850446 0.14847 0.299825
0.85362 0.147219 0.333898
0.0593576 0.194018 0.172168
0.0599069 0.211261 0.189593
0.0615091 0.21561 0.193606
0.276951 0.281331 0.26659
0.62118 0.296483 0.266072
0.876997 0.354742 0.313878
0.941344 0.383246 0.337484
0.947677 0.418418 0.368368
0.94931 0.463645 0.403357
0.0342107 0.427482 0.261875
0.0317998 0.448783 0.26836
0.0310521 0.45243 0.248966
0.0938888 0.493355 0.193439
0.591394 0.627283 0.28835
0.89424 0.677485 0.37322
0.956756 0.70544 0.428153
0.957565 0.722667 0.449012
0.95877 0.742138 0.47538
0.085771 0.714275 0.417655
0.0900587 0.726864 0.426978
0.0972763 0.725643 0.395331
0.138735 0.718639 0.307866
0.496849 0.758144 0.290837
0.783719 0.82916 0.371084
0.941451 0.865385 0.447044
0.948135 0.875563 0.512367
0.946563 0.883513 0.527138
0.122377 0.803662 0.527245
0.123735 0.803296 0.520394
0.133242 0.799878 0.476829
0.187945 0.781491 0.371939
0.509361 0.794965 0.361105
0.803433 0.871931 0.518593
0.908614 0.902983 0.563622
0.935973 0.914214 0.611978
0.937484 0.915587 0.623224
0.123537 0.807202 0.587213
0.120455 0.805951 0.569787
0.123781 0.803113 0.516487
0.206195 0.782452 0.393393
0.563088 0.803326 0.409049
0.822202 0.878843 0.544427
0.908568 0.903426 0.574319
0.936263 0.914397 0.614069
0.938796 0.916884 0.633814
0.147372 0.810697 0.635248
0.131044 0.808789 0.610132
0.119417 0.80444 0.547051
0.256352 0.782254 0.43003
0.616342 0.816724 0.481346
0.84921 0.888151 0.568719
0.913939 0.905684 0.584527
0.937499 0.915618 0.623331
0.940261 0.918364 0.645411
0.0495918 0.0469215 0.150027
0.0645457 0.0485542 0.15462
0.0909743 0.0510109 0.170275
0.159197 0.0562905 0.201144
0.332586 0.0688792 0.25304
0.600015 0.080415 0.328725
0.818357 0.115068 0.446998
0.851789 0.126833 0.517449
0.85417 0.128222 0.561852
0.0453498 0.048661 0.203204
0.071458 0.0501106 0.241215
0.12166 0.0540475 0.268849
0.24802 0.0641794 0.302968
0.481727 0.0731365 0.348287
0.708766 0.0963302 0.454063
0.852659 0.127443 0.535302
0.854215 0.128267 0.565332
0.857069 0.130632 0.593866
0.0250095 0.0628061 0.230045
0.0295109 0.0585641 0.257145
0.0959182 0.0531014 0.30106
0.263523 0.0662852 0.342992
0.523156 0.0755932 0.386007
0.742489 0.102174 0.482734
0.855741 0.131304 0.54641
0.858289 0.133501 0.571298
0.86096 0.136126 0.59382
0.0251774 0.180041 0.288289
0.0234226 0.19382 0.314641
0.0213474 0.187594 0.331731
0.283787 0.194644 0.5187
0.641459 0.226932 0.551232
0.893065 0.276463 0.607569
0.937224 0.294453 0.634134
0.949691 0.33051 0.675135
0.961242 0.379583 0.713771
0.0319829 0.420111 0.372793
0.0292668 0.440925 0.392126
0.0297246 0.444938 0.397055
0.127611 0.502983 0.461799
0.636469 0.621592 0.600412
0.881132 0.649744 0.618067
0.96141 0.673854 0.632853
0.961913 0.68806 0.648753
0.961746 0.70573 0.66772
0.0881819 0.702556 0.568048
0.0918593 0.715297 0.580102
0.0902724 0.713436 0.568505
0.101701 0.70985 0.523949
0.538094 0.763104 0.57612
0.81091 0.829847 0.635584
0.962142 0.859449 0.658763
0.962325 0.872724 0.668284
0.962295 0.881636 0.682155
0.160266 0.812955 0.659937
0.161227 0.812787 0.658259
0.140505 0.81062 0.636515
0.14078 0.80444 0.574334
0.522377 0.811566 0.58558
0.786603 0.880171 0.660471
0.921721 0.917128 0.681941
0.946487 0.923247 0.685389
0.948928 0.925582 0.702602
0.230716 0.816602 0.704112
0.219867 0.815976 0.69659
0.186709 0.813916 0.671595
0.175769 0.807233 0.607507
0.588952 0.831449 0.637934
0.810254 0.892927 0.700496
0.929397 0.92253 0.709072
0.947066 0.92578 0.700648
0.952087 0.930236 0.729183
0.273625 0.818235 0.731868
0.256168 0.818021 0.721767
0.216709 0.815763 0.693828
0.252064 0.8065 0.634531
0.645716 0.85275 0.683391
0.842054 0.905318 0.734951
0.936599 0.927092 0.733974
0.950179 0.928969 0.721996
0.953185 0.931228 0.735882
0.0809796 0.051667 0.277546
0.0997787 0.0530556 0.292119
0.134981 0.0558785 0.320668
0.228061 0.0634775 0.367636
0.40209 0.0724041 0.423438
0.630076 0.0882429 0.510216
0.842344 0.127687 0.609094
0.867292 0.139315 0.661555
0.876265 0.14609 0.704448
0.09308 0.055024 0.367529
0.126207 0.0577249 0.420172
0.187442 0.0619364 0.463645
0.324849 0.0727245 0.509957
0.540398 0.0783856 0.540642
0.739025 0.109041 0.61091
0.870436 0.141451 0.67689
0.876997 0.146502 0.707958
0.88484 0.151949 0.7355
0.0603037 0.0599527 0.416175
0.0848402 0.058793 0.456016
0.16257 0.0619821 0.503807
0.339605 0.0742962 0.550759
0.572961 0.0828107 0.575158
0.772595 0.117403 0.639094
0.873045 0.143938 0.690211
0.878614 0.147936 0.713603
0.884703 0.152346 0.733608
0.0191196 0.15407 0.472175
0.0184024 0.164782 0.504814
0.0211643 0.156497 0.53254
0.300496 0.12694 0.638849
0.644312 0.158831 0.675624
0.867002 0.211048 0.726436
0.925963 0.241154 0.755825
0.945785 0.286183 0.798215
0.964111 0.338964 0.841917
0.0133211 0.419913 0.549432
0.0140078 0.443565 0.566659
0.0130465 0.445838 0.578317
0.0814069 0.475731 0.637705
0.681239 0.593881 0.804257
0.917418 0.632776 0.817304
0.962127 0.643091 0.827512
0.961913 0.660151 0.838865
0.961944 0.680507 0.850767
0.0933242 0.704829 0.660731
0.097612 0.717617 0.672511
0.0966049 0.715892 0.671168
0.114 0.712917 0.668849
0.578759 0.770047 0.734829
0.850202 0.826658 0.799008
0.962066 0.839841 0.808148
0.962005 0.854215 0.815991
0.962234 0.865476 0.826902
0.20708 0.817624 0.729381
0.205631 0.818082 0.729702
0.187427 0.81651 0.721798
0.197299 0.808331 0.703655
0.541436 0.829114 0.724346
0.828794 0.908324 0.810468
0.941344 0.929763 0.822934
0.962524 0.933059 0.82771
0.9626 0.935973 0.832929
0.321492 0.821042 0.756451
0.315419 0.820829 0.753231
0.298177 0.819242 0.744656
0.284535 0.816815 0.72462
0.602197 0.856016 0.756588
0.842573 0.922408 0.831434
0.937881 0.94049 0.841596
0.962676 0.943786 0.833265
0.962692 0.944823 0.838026
0.349798 0.823758 0.76997
0.338491 0.822843 0.764828
0.317708 0.820981 0.754269
0.338323 0.8206 0.742016
0.659266 0.874968 0.79028
0.869245 0.930068 0.850706
0.942519 0.942809 0.855558
0.962722 0.945586 0.845975
0.962753 0.945846 0.847349
0.132342 0.058381 0.440772
0.159518 0.0605936 0.475547
0.20383 0.0644388 0.513161
0.306432 0.0730144 0.559045
0.499825 0.0786755 0.590661
0.681559 0.101793 0.64506
0.874037 0.149676 0.734218
0.902724 0.171145 0.787839
0.917754 0.194354 0.824918
0.168429 0.0653086 0.558877
0.209445 0.0696117 0.595575
0.272053 0.0746777 0.620172
0.417441 0.0802777 0.644694
0.607797 0.0927138 0.672038
0.796948 0.135836 0.735454
0.905211 0.175143 0.793759
0.919661 0.197818 0.830045
0.923278 0.203937 0.838422
0.145708 0.0678416 0.593835
0.176745 0.0712749 0.620325
0.254612 0.076585 0.646494
0.43331 0.0822919 0.672236
0.635493 0.0995346 0.700313
0.830335 0.150332 0.761761
0.912856 0.186954 0.811002
0.919585 0.198398 0.827512
0.924804 0.207675 0.838895
0.0451667 0.133822 0.627924
0.0508431 0.139559 0.646189
0.0710002 0.120439 0.655863
0.357336 0.106172 0.71548
0.66099 0.136553 0.756603
0.872435 0.196521 0.80795
0.935653 0.236652 0.836316
0.955901 0.285939 0.873365
0.968978 0.331807 0.896941
0.0101472 0.456336 0.668849
0.0123903 0.481346 0.685466
0.0135042 0.482506 0.700755
0.118181 0.517464 0.775494
0.734417 0.588479 0.90312
0.952895 0.636988 0.911528
0.96199 0.650706 0.91371
0.961746 0.668162 0.915785
0.962005 0.688533 0.919997
0.142107 0.709758 0.76405
0.150011 0.720378 0.771771
0.144991 0.718593 0.774578
0.157702 0.714458 0.781933
0.569192 0.753811 0.823453
0.891066 0.81001 0.897169
0.96199 0.825772 0.89958
0.962051 0.835203 0.902281
0.96199 0.84773 0.902983
0.228473 0.820203 0.77084
0.229084 0.820523 0.770977
0.215961 0.817868 0.768124
0.227192 0.811063 0.761257
0.559716 0.83241 0.786664
0.848478 0.915373 0.873243
0.949706 0.927672 0.887587
0.962631 0.929259 0.892683
0.962448 0.931792 0.893721
0.384756 0.827131 0.783886
0.376806 0.826474 0.781613
0.360189 0.825238 0.775357
0.362356 0.82475 0.767788
0.645441 0.871977 0.815213
0.864912 0.934661 0.881529
0.947036 0.94757 0.895476
0.962631 0.949706 0.893416
0.962692 0.949935 0.895247
0.465736 0.832349 0.79115
0.427939 0.829679 0.788724
0.37705 0.82649 0.781201
0.422309 0.829068 0.777417
0.705379 0.892164 0.841169
0.88864 0.939879 0.891951
0.946853 0.94873 0.899641
0.96289 0.950622 0.896773
0.962875 0.950881 0.895201
0.204028 0.0690318 0.588434
0.241733 0.0730907 0.618158
0.286793 0.0773938 0.642832
0.394034 0.0821851 0.670253
0.572976 0.0906081 0.698604
0.761578 0.13637 0.766567
0.914565 0.193927 0.825574
0.923278 0.203937 0.838422
0.923278 0.203937 0.838422
0.264256 0.0802625 0.675074
0.301183 0.0834669 0.695628
0.357061 0.0855268 0.709438
0.498085 0.0869306 0.721691
0.663661 0.109697 0.753719
0.861875 0.176608 0.819165
0.923323 0.204059 0.838468
0.923278 0.203937 0.838422
0.923278 0.203937 0.838422
0.251286 0.0826734 0.696544
0.272526 0.0838941 0.705211
0.335943 0.0859998 0.718029
0.504707 0.0882277 0.733166
0.683223 0.11603 0.766827
0.878233 0.181979 0.822843
0.925566 0.209033 0.841352
0.925673 0.209262 0.841474
0.92639 0.210788 0.842451
0.121035 0.107301 0.686152
0.130587 0.119432 0.705867
0.153109 0.102251 0.702373
0.416098 0.102205 0.746395
0.676081 0.130648 0.783642
0.879789 0.200076 0.834836
0.948348 0.262638 0.870802
0.95874 0.292042 0.885344
0.968826 0.336797 0.901045
0.0183108 0.487984 0.747845
0.0217136 0.511864 0.755734
0.0278172 0.509468 0.758083
0.215503 0.542733 0.81883
0.783673 0.59379 0.915984
0.961959 0.63682 0.919936
0.96202 0.654765 0.921157
0.961975 0.67216 0.922942
0.96173 0.690974 0.924254
0.141619 0.729763 0.796094
0.154833 0.737179 0.798154
0.155947 0.733684 0.7991
0.203937 0.724285 0.804791
0.595651 0.759976 0.850889
0.923033 0.809689 0.919631
0.962142 0.827985 0.924025
0.962081 0.837674 0.922728
0.962051 0.848417 0.921279
0.315206 0.815656 0.785992
0.314885 0.815763 0.786023
0.300542 0.812451 0.787381
0.305226 0.805844 0.789288
0.601541 0.839094 0.82536
0.854459 0.913115 0.896178
0.955215 0.922347 0.908217
0.962448 0.925597 0.907485
0.962676 0.927687 0.908675
0.49192 0.834699 0.793545
0.483726 0.834073 0.792599
0.457542 0.831708 0.790555
0.396536 0.828016 0.786145
0.661006 0.877287 0.832074
0.872343 0.936599 0.894438
0.949813 0.948714 0.908965
0.962692 0.949874 0.909102
0.962692 0.948913 0.91342
0.501732 0.836179 0.794919
0.501732 0.836179 0.794919
0.498116 0.835676 0.794476
0.490166 0.834531 0.793347
0.729076 0.89987 0.855863
0.903273 0.94313 0.902937
0.952789 0.95079 0.911162
0.962661 0.95169 0.909895
0.962661 0.951934 0.9093
0.291829 0.0824445 0.687663
0.329442 0.0851759 0.707958
0.368719 0.0860456 0.717327
0.476097 0.0866865 0.728008
0.621332 0.100771 0.750164
0.807614 0.156435 0.803998
0.92285 0.203403 0.838102
0.923278 0.203937 0.838422
0.923278 0.203937 0.838422
0.331304 0.0863661 0.722805
0.351156 0.0869612 0.725567
0.402487 0.0867475 0.728862
0.528679 0.0896315 0.73695
0.687846 0.116976 0.768154
0.877516 0.182101 0.822934
0.923339 0.204074 0.838468
0.923278 0.203937 0.838422
0.923278 0.203937 0.838422
0.28455 0.0851453 0.714519
0.298299 0.0855421 0.717174
0.360143 0.0869001 0.726314
0.520409 0.0889754 0.735668
0.698741 0.120516 0.772198
0.890898 0.186618 0.826001
0.925414 0.208743 0.841169
0.926162 0.210285 0.842115
0.926757 0.211551 0.842939
0.152071 0.110613 0.708934
0.150637 0.123278 0.721965
0.157733 0.103899 0.705043
0.418784 0.096437 0.739879
0.671992 0.121645 0.774334
0.900343 0.220874 0.847028
0.950683 0.268711 0.874311
0.956985 0.286305 0.883772
0.968414 0.344381 0.902602
0.043122 0.513207 0.764477
0.0446937 0.533318 0.767056
0.0445716 0.524987 0.765927
0.228946 0.547539 0.822003
0.793393 0.598154 0.916899
0.962142 0.640146 0.920439
0.961898 0.657771 0.921355
0.961913 0.675166 0.923079
0.961685 0.693614 0.924529
0.200275 0.737957 0.802487
0.214694 0.74139 0.803479
0.211154 0.736553 0.803983
0.229786 0.724926 0.807416
0.62005 0.76614 0.856062
0.934813 0.812055 0.920272
0.962127 0.828733 0.924132
0.962036 0.83978 0.922515
0.962173 0.849348 0.921187
0.373037 0.818982 0.789715
0.369909 0.818143 0.789792
0.355398 0.813733 0.790692
0.356069 0.807279 0.794003
0.639414 0.849668 0.838117
0.869947 0.915129 0.899977
0.960418 0.920363 0.908385
0.962463 0.923674 0.908049
0.962554 0.926284 0.908675
0.501732 0.836179 0.794919
0.501732 0.836179 0.794919
0.498634 0.835752 0.794537
0.517922 0.838727 0.796933
0.704356 0.891295 0.848234
0.884642 0.938537 0.898939
0.950805 0.948058 0.910536
0.962692 0.948577 0.911604
0.962692 0.949111 0.911635
0.501732 0.836179 0.794919
0.501732 0.836179 0.794919
0.504997 0.836667 0.795346
0.576959 0.851453 0.809201
0.760632 0.909636 0.865599
0.907271 0.943908 0.903838
0.953674 0.950851 0.91107
0.962661 0.951797 0.911162
0.962661 0.952102 0.911376
