bundles/resolve-cinematic-luts/Phantom Luts/P4k & P6K Phntm Film LUTs - V6/P6k/Gen 5 Colour/P6k Vision Gen5.cube
TITLE "Generated by Resolve"
LUT_3D_SIZE 9
0.0221866 0.0275425 0.0221866
0.0241855 0.0298924 0.0222629
0.078584 0.0312657 0.0215915
0.299123 0.0395209 0.0293126
0.585184 0.0661173 0.0643778
0.759426 0.129107 0.113024
0.762188 0.131136 0.117647
0.765957 0.141939 0.118303
0.774975 0.153002 0.120668
0.0227207 0.0408637 0.0252689
0.0254978 0.0398413 0.0242313
0.0935988 0.0390478 0.025391
0.316472 0.0432288 0.0301061
0.601312 0.0767224 0.070573
0.767346 0.147509 0.119081
0.770886 0.154421 0.121813
0.773388 0.158877 0.123186
0.779293 0.170581 0.124117
0.0327459 0.11989 0.05449
0.0323491 0.114366 0.0443427
0.0807813 0.125261 0.0405127
0.359503 0.110323 0.0561379
0.643732 0.132738 0.09308
0.77792 0.183917 0.128817
0.778515 0.191287 0.130419
0.781765 0.222889 0.141482
0.785473 0.257237 0.156298
0.0644694 0.371405 0.164538
0.0631723 0.367163 0.143725
0.0623484 0.351186 0.105257
0.314305 0.388983 0.0772106
0.644465 0.377798 0.15288
0.782757 0.40798 0.233997
0.782376 0.409445 0.234272
0.781949 0.424521 0.241306
0.78407 0.44976 0.247669
0.205524 0.673961 0.427893
0.204868 0.670954 0.41239
0.198077 0.66247 0.374823
0.240574 0.642069 0.27837
0.600885 0.66923 0.205478
0.816846 0.667002 0.297215
0.830228 0.685786 0.328069
0.83093 0.690013 0.330541
0.829053 0.67628 0.320851
0.343969 0.823209 0.594385
0.34905 0.821668 0.589288
0.364538 0.818784 0.578363
0.399847 0.810864 0.53286
0.606073 0.821881 0.541527
0.786267 0.840101 0.522698
0.835462 0.84181 0.546334
0.835386 0.841657 0.545388
0.835798 0.836637 0.53257
0.331624 0.827253 0.604166
0.338094 0.825177 0.598306
0.354391 0.820569 0.584894
0.39237 0.81088 0.535515
0.608713 0.827131 0.564752
0.78291 0.847791 0.552422
0.834836 0.85069 0.573938
0.835431 0.851011 0.574044
0.835431 0.850996 0.5738
0.328145 0.828717 0.606638
0.335164 0.826108 0.600839
0.351202 0.82092 0.588586
0.386694 0.811109 0.538735
0.598108 0.825681 0.562707
0.77641 0.846815 0.551064
0.833112 0.850553 0.574075
0.835477 0.851072 0.575387
0.835416 0.850996 0.573754
0.327047 0.829282 0.607141
0.333181 0.826902 0.60145
0.345052 0.822904 0.592279
0.373159 0.813809 0.556283
0.541787 0.820966 0.550729
0.740963 0.842893 0.545174
0.82388 0.849363 0.567452
0.835447 0.851026 0.574243
0.835431 0.85095 0.5729
0.0222324 0.0288243 0.0255894
0.0314336 0.0306096 0.0287938
0.116365 0.0296483 0.0370794
0.342626 0.0301213 0.0412451
0.624491 0.0560616 0.0835126
0.765179 0.115618 0.125841
0.76643 0.12076 0.125902
0.766949 0.126452 0.122484
0.77319 0.143542 0.118395
0.0223697 0.0348516 0.0252384
0.0240177 0.0340887 0.0249485
0.0954299 0.0325628 0.0241855
0.317937 0.0364996 0.0304265
0.600046 0.0605936 0.0707408
0.765103 0.125521 0.118395
0.767514 0.134081 0.119097
0.772152 0.147784 0.119387
0.781826 0.163806 0.124529
0.0318151 0.11194 0.066392
0.032166 0.111299 0.0532845
0.0764172 0.118227 0.039826
0.360739 0.0953689 0.0500191
0.638498 0.11632 0.0863661
0.776226 0.16936 0.124254
0.779324 0.180377 0.12755
0.783001 0.209506 0.135714
0.78764 0.25066 0.152514
0.0626841 0.368048 0.183536
0.0625162 0.364904 0.162768
0.0611887 0.351202 0.115328
0.310948 0.383566 0.0753643
0.643137 0.371176 0.151827
0.783185 0.399145 0.229252
0.783154 0.400381 0.230045
0.782284 0.422889 0.240223
0.784772 0.448875 0.247547
0.195483 0.672328 0.436316
0.199054 0.669444 0.423117
0.19852 0.662013 0.390265
0.225254 0.638697 0.275929
0.599634 0.666712 0.202274
0.817777 0.663798 0.297627
0.829419 0.6804 0.32462
0.829999 0.683909 0.326375
0.828305 0.669581 0.316762
0.337072 0.825406 0.599664
0.34284 0.823774 0.594064
0.35758 0.820096 0.582742
0.391623 0.810727 0.534112
0.599069 0.819883 0.537011
0.783734 0.838636 0.516518
0.835279 0.839872 0.540398
0.835309 0.83949 0.538949
0.836027 0.833219 0.52224
0.325414 0.82977 0.610391
0.331044 0.827527 0.604486
0.346929 0.822324 0.590478
0.384588 0.81181 0.539483
0.602075 0.826139 0.56257
0.780163 0.847333 0.551537
0.834607 0.850538 0.573571
0.835447 0.851011 0.574029
0.835431 0.850996 0.5738
0.321675 0.831327 0.614054
0.328038 0.828687 0.607187
0.344152 0.823148 0.59411
0.38233 0.811933 0.544488
0.591546 0.825223 0.56083
0.772961 0.846357 0.550042
0.831922 0.850248 0.573312
0.835477 0.851072 0.575387
0.835431 0.85098 0.573754
0.320592 0.831922 0.614206
0.326863 0.829343 0.607569
0.338476 0.825025 0.59826
0.371511 0.815579 0.564508
0.532311 0.820493 0.549538
0.735851 0.842649 0.545327
0.821744 0.849256 0.56733
0.835447 0.851026 0.574243
0.835431 0.85095 0.5729
0.0309148 0.0332494 0.10016
0.0527962 0.0326848 0.0879683
0.116106 0.032578 0.0879988
0.359899 0.0344854 0.121965
0.648692 0.0856184 0.151354
0.78323 0.130175 0.198016
0.782376 0.126955 0.188235
0.776822 0.114107 0.165087
0.770993 0.109163 0.134844
0.0231327 0.0344396 0.0755016
0.0321508 0.0330053 0.0950942
0.102678 0.0314336 0.0789807
0.353841 0.03093 0.0923323
0.646738 0.07953 0.126894
0.771008 0.104723 0.147738
0.770001 0.104494 0.141176
0.769177 0.110918 0.135012
0.770672 0.125231 0.123598
0.0280308 0.103716 0.0907301
0.0281987 0.101732 0.0890822
0.100511 0.114916 0.10222
0.379202 0.0750439 0.0590524
0.631006 0.0808423 0.0842908
0.765988 0.132189 0.118791
0.772854 0.150912 0.121996
0.779355 0.177523 0.127291
0.786343 0.221195 0.139666
0.0547341 0.356573 0.220874
0.0551003 0.354345 0.204685
0.0599374 0.351644 0.159625
0.30251 0.374914 0.0754711
0.644007 0.353353 0.153002
0.783627 0.380118 0.219318
0.783185 0.388815 0.223453
0.782315 0.412955 0.236454
0.784009 0.44094 0.24715
0.175662 0.670237 0.456153
0.179355 0.667231 0.443473
0.190951 0.661402 0.41796
0.196979 0.632517 0.27483
0.594247 0.66157 0.199191
0.817639 0.656825 0.298085
0.828031 0.670558 0.318105
0.828153 0.672908 0.318868
0.828214 0.668238 0.315282
0.322484 0.83093 0.614054
0.327672 0.829038 0.607111
0.341314 0.824262 0.595224
0.377676 0.812406 0.543069
0.588617 0.817456 0.531289
0.779904 0.835676 0.504982
0.835691 0.836027 0.529946
0.835981 0.835615 0.528099
0.836774 0.827909 0.508537
0.310231 0.835538 0.627527
0.315419 0.833768 0.621027
0.329534 0.828092 0.605524
0.375006 0.81387 0.553964
0.590677 0.825391 0.560281
0.77554 0.846799 0.55021
0.833722 0.850568 0.573434
0.83566 0.851316 0.57525
0.835706 0.851362 0.575219
0.307103 0.836805 0.631128
0.312245 0.834791 0.623728
0.327138 0.829068 0.608255
0.373724 0.814664 0.560723
0.579309 0.82385 0.558419
0.76733 0.84567 0.548608
0.829313 0.85008 0.571862
0.835508 0.851118 0.575525
0.835431 0.850996 0.573785
0.310079 0.835737 0.626368
0.31545 0.833829 0.620295
0.326421 0.829404 0.608789
0.3682 0.817777 0.576516
0.518791 0.819547 0.546548
0.729168 0.842298 0.545312
0.819364 0.849012 0.566903
0.835447 0.851026 0.574243
0.835447 0.85095 0.572747
0.0767071 0.0406043 0.31043
0.106386 0.0385748 0.29601
0.178637 0.0393835 0.269749
0.358923 0.035874 0.276722
0.650202 0.101457 0.394415
0.777798 0.166125 0.455451
0.784848 0.166415 0.406165
0.790219 0.159976 0.348424
0.791592 0.149172 0.276402
0.0379492 0.0466773 0.308965
0.0766003 0.0402228 0.308537
0.153826 0.0392157 0.275975
0.352544 0.0351263 0.27158
0.646708 0.101228 0.385306
0.785 0.168093 0.422034
0.791424 0.163165 0.353155
0.791089 0.158206 0.322194
0.792859 0.148562 0.253422
0.0310826 0.0828107 0.287053
0.0319677 0.0711376 0.293828
0.0882124 0.0390631 0.303746
0.333959 0.0343938 0.255039
0.637125 0.100893 0.357351
0.791821 0.161883 0.320882
0.792889 0.159655 0.289693
0.791775 0.155459 0.252415
0.787732 0.129763 0.186831
0.0262608 0.33579 0.333242
0.025803 0.333242 0.330632
0.025803 0.327398 0.324285
0.37525 0.391821 0.364614
0.695094 0.341192 0.291035
0.808347 0.334417 0.268544
0.801633 0.331304 0.252201
0.796307 0.349279 0.247868
0.793835 0.388632 0.249393
0.104936 0.661387 0.533028
0.108949 0.659068 0.523445
0.118166 0.654414 0.504341
0.17908 0.639216 0.408392
0.584253 0.655787 0.268437
0.816846 0.649851 0.337575
0.823056 0.655177 0.345113
0.822934 0.6542 0.33756
0.823804 0.649454 0.317296
0.27361 0.843 0.665721
0.278172 0.841443 0.65893
0.286183 0.837232 0.644373
0.325704 0.82002 0.58967
0.548119 0.811368 0.519219
0.767956 0.82742 0.474861
0.837339 0.825559 0.506783
0.837995 0.824155 0.501747
0.840406 0.814923 0.481086
0.265858 0.853422 0.692714
0.271183 0.851804 0.683375
0.285191 0.846616 0.664668
0.326497 0.82945 0.60856
0.55024 0.823377 0.558679
0.760174 0.845869 0.552026
0.828763 0.851499 0.5776
0.836667 0.852964 0.583185
0.836454 0.85275 0.582406
0.263005 0.854414 0.696773
0.268803 0.852659 0.686854
0.283604 0.847211 0.667048
0.323415 0.830533 0.613123
0.533043 0.821332 0.553735
0.747631 0.844221 0.550835
0.821683 0.850919 0.57583
0.836454 0.852796 0.583413
0.83624 0.852522 0.581552
0.276448 0.849851 0.674876
0.284199 0.846906 0.665263
0.29221 0.843351 0.651576
0.323384 0.830564 0.612985
0.47219 0.816098 0.540459
0.70753 0.841428 0.550454
0.811307 0.849882 0.568734
0.836011 0.852201 0.580163
0.836118 0.852262 0.578607
0.209186 0.0534218 0.505302
0.242603 0.0546731 0.498863
0.304158 0.0585641 0.492149
0.448997 0.0881361 0.502968
0.668421 0.112581 0.566979
0.776059 0.179446 0.624369
0.777615 0.17615 0.638422
0.776181 0.176577 0.619089
0.771466 0.138827 0.542443
0.166705 0.0523995 0.512184
0.209339 0.0533913 0.504814
0.283467 0.0573281 0.494484
0.439475 0.0856641 0.500526
0.664439 0.111559 0.563363
0.776287 0.176776 0.620279
0.777249 0.178683 0.632761
0.77467 0.167468 0.602792
0.771115 0.13843 0.529763
0.0796979 0.084123 0.543145
0.117601 0.0717632 0.519051
0.214618 0.053254 0.500267
0.414191 0.0805524 0.491875
0.652262 0.107134 0.550942
0.774182 0.169131 0.604974
0.774151 0.169818 0.605402
0.771527 0.152056 0.565698
0.773846 0.147265 0.516014
0.0501869 0.311131 0.606043
0.0541543 0.302785 0.609369
0.0596323 0.283909 0.616907
0.394675 0.199985 0.619181
0.688136 0.215915 0.59379
0.791257 0.213642 0.594034
0.79144 0.20177 0.566369
0.790585 0.192416 0.535988
0.802945 0.22594 0.481682
0.0750591 0.646479 0.667628
0.0724804 0.64448 0.664775
0.0712444 0.639506 0.660258
0.0795148 0.632792 0.652384
0.657465 0.676158 0.654292
0.849744 0.64773 0.605661
0.84921 0.648325 0.5906
0.840955 0.651301 0.573571
0.829206 0.634119 0.51194
0.207172 0.850477 0.797787
0.201709 0.850355 0.794934
0.19588 0.84799 0.785595
0.183108 0.840803 0.751369
0.573938 0.824338 0.688396
0.781201 0.840269 0.642374
0.862364 0.830076 0.616022
0.862455 0.828717 0.613199
0.857343 0.817761 0.576379
0.325383 0.868009 0.818204
0.307134 0.868498 0.813046
0.283253 0.868589 0.804181
0.231632 0.867674 0.772869
0.527031 0.84303 0.6907
0.757794 0.863859 0.672877
0.831388 0.872923 0.663432
0.848859 0.877852 0.685847
0.847761 0.87541 0.675212
0.33138 0.868132 0.820523
0.310933 0.868391 0.813779
0.281758 0.868757 0.804395
0.231235 0.867658 0.772717
0.478325 0.839231 0.673732
0.73846 0.858686 0.666835
0.820722 0.867735 0.640406
0.848234 0.876722 0.678416
0.846845 0.873823 0.668849
0.266621 0.868116 0.797833
0.252354 0.868559 0.789822
0.234699 0.867872 0.778378
0.237949 0.863478 0.744854
0.361852 0.832837 0.630213
0.689021 0.846174 0.63682
0.807507 0.861738 0.61117
0.842878 0.86952 0.651713
0.845441 0.870924 0.655009
0.40238 0.0960403 0.663386
0.417319 0.0972763 0.662699
0.452995 0.101228 0.663691
0.561913 0.129992 0.681773
0.73373 0.17789 0.72987
0.79733 0.203372 0.754849
0.79733 0.203387 0.754879
0.79736 0.203387 0.754925
0.79736 0.203387 0.754925
0.382895 0.0933394 0.662333
0.400275 0.0952316 0.661753
0.43798 0.0996567 0.662181
0.552316 0.126284 0.678782
0.729931 0.17644 0.727932
0.796719 0.201404 0.752331
0.797284 0.203433 0.754772
0.797253 0.203433 0.754711
0.796674 0.201221 0.752163
0.322332 0.0850843 0.657954
0.349081 0.0884871 0.658244
0.3953 0.0937972 0.658091
0.527703 0.117327 0.671046
0.718425 0.17203 0.721706
0.795132 0.198108 0.747158
0.797086 0.20235 0.753414
0.797223 0.203067 0.754238
0.791882 0.190539 0.736645
0.161273 0.235294 0.77937
0.171557 0.217212 0.767056
0.192935 0.173327 0.734829
0.432502 0.114046 0.676768
0.680308 0.180941 0.708034
0.792004 0.194888 0.729793
0.792386 0.196185 0.732647
0.792828 0.197986 0.733715
0.789136 0.166201 0.694835
0.0307164 0.642115 0.84213
0.0306859 0.639216 0.843778
0.0307164 0.634073 0.845502
0.0510262 0.621469 0.86302
0.71577 0.591546 0.857572
0.876066 0.609415 0.830076
0.882277 0.606195 0.827161
0.879042 0.603281 0.813138
0.864881 0.555276 0.765301
0.252262 0.842496 0.863005
0.245045 0.842069 0.862654
0.234165 0.839826 0.86067
0.215244 0.83476 0.855497
0.546715 0.827604 0.828168
0.822461 0.846616 0.830076
0.889097 0.837583 0.816709
0.888884 0.835142 0.807172
0.88423 0.823606 0.779461
0.512993 0.875837 0.867613
0.506859 0.875563 0.86595
0.498772 0.874586 0.864134
0.475959 0.872572 0.858244
0.534432 0.873854 0.8383
0.797024 0.894987 0.836698
0.861067 0.909773 0.836759
0.880018 0.906767 0.818769
0.878294 0.902068 0.805005
0.518639 0.876143 0.868635
0.51017 0.875624 0.866667
0.50045 0.874784 0.864546
0.474937 0.872602 0.858259
0.497581 0.872679 0.833875
0.778439 0.893889 0.829053
0.856168 0.912276 0.834806
0.867704 0.91313 0.816571
0.867369 0.91133 0.807874
0.490288 0.873594 0.861112
0.479622 0.872831 0.858915
0.46714 0.872038 0.856046
0.438712 0.87039 0.849317
0.37969 0.867765 0.818448
0.735988 0.881453 0.805554
0.839185 0.904097 0.812482
0.859144 0.907698 0.79733
0.865797 0.909651 0.800015
0.436698 0.101122 0.674174
0.451438 0.103166 0.675685
0.482902 0.107866 0.677684
0.585458 0.140093 0.696681
0.748531 0.187167 0.741955
0.797406 0.203357 0.755001
0.797406 0.203357 0.755001
0.797406 0.203357 0.754986
0.79733 0.203387 0.754879
0.419135 0.0991531 0.67219
0.43621 0.101091 0.674189
0.469276 0.105303 0.676646
0.577325 0.136172 0.695552
0.744396 0.18616 0.741192
0.797406 0.203357 0.755001
0.797406 0.203357 0.755001
0.797406 0.203357 0.755001
0.797406 0.203357 0.755001
0.374868 0.0940719 0.670283
0.396338 0.0967117 0.671214
0.435676 0.101076 0.674205
0.555062 0.126925 0.689937
0.73579 0.183886 0.73817
0.797574 0.204608 0.755566
0.797391 0.203784 0.755077
0.797391 0.20354 0.755016
0.797406 0.203449 0.755016
0.291295 0.18407 0.76022
0.290501 0.16759 0.747204
0.263615 0.110765 0.706462
0.461326 0.109453 0.682933
0.695567 0.18587 0.727932
0.799573 0.213123 0.759304
0.800198 0.215061 0.759945
0.800732 0.215824 0.760449
0.800137 0.214984 0.759915
0.165164 0.653681 0.913619
0.173175 0.649332 0.914366
0.187076 0.642405 0.915404
0.210483 0.615686 0.914214
0.745983 0.569757 0.879499
0.877073 0.589563 0.863355
0.881834 0.586923 0.863523
0.881834 0.58584 0.863386
0.876524 0.560204 0.857053
0.406561 0.831205 0.896254
0.400458 0.828916 0.896422
0.390631 0.826322 0.896956
0.374411 0.816861 0.899443
0.572015 0.815183 0.90042
0.835676 0.818082 0.908736
0.893141 0.819211 0.889372
0.893584 0.815793 0.887739
0.894743 0.797543 0.874266
0.606165 0.883803 0.890471
0.600809 0.883635 0.889967
0.587747 0.882582 0.888762
0.54342 0.87921 0.885496
0.578576 0.876722 0.879942
0.788891 0.897749 0.881514
0.876829 0.912383 0.893126
0.901488 0.908675 0.89369
0.900969 0.90602 0.88513
0.613535 0.884138 0.890776
0.613519 0.884153 0.890761
0.604715 0.883772 0.890211
0.565225 0.8813 0.884672
0.585855 0.883238 0.875013
0.781277 0.909148 0.88098
0.868925 0.926833 0.897017
0.897154 0.929747 0.900313
0.899718 0.928512 0.897581
0.590433 0.882826 0.888747
0.580179 0.88246 0.887831
0.565606 0.881346 0.885039
0.546456 0.879789 0.880018
0.534493 0.877897 0.868299
0.739757 0.900008 0.868528
0.856321 0.923781 0.888731
0.894301 0.928557 0.89604
0.897307 0.92958 0.894972
0.442649 0.101808 0.674495
0.458137 0.104097 0.676493
0.488411 0.108537 0.677974
0.591516 0.142718 0.698344
0.751904 0.188144 0.742702
0.797406 0.203357 0.755001
0.797406 0.203357 0.755001
0.797406 0.203357 0.755001
0.797406 0.203357 0.755001
0.427192 0.100542 0.673686
0.442298 0.101747 0.674357
0.47512 0.106523 0.677104
0.58204 0.138399 0.695781
0.748806 0.187228 0.742016
0.797406 0.203357 0.755001
0.797406 0.203357 0.755001
0.797406 0.203357 0.755001
0.797406 0.203357 0.755001
0.382803 0.094728 0.6701
0.403677 0.0977188 0.671794
0.441978 0.101686 0.674281
0.560357 0.129274 0.691524
0.739376 0.185016 0.73994
0.797421 0.204059 0.755215
0.797436 0.204105 0.75523
0.797391 0.203754 0.755077
0.797391 0.203601 0.755016
0.291417 0.174426 0.751995
0.285878 0.152804 0.737438
0.258946 0.102373 0.694926
0.460624 0.104952 0.677134
0.698695 0.185504 0.728542
0.799252 0.211215 0.758694
0.800137 0.214954 0.75993
0.800626 0.215625 0.760327
0.800046 0.214755 0.759838
0.205066 0.649592 0.916152
0.204288 0.645701 0.916564
0.201709 0.637858 0.916365
0.21091 0.610178 0.913878
0.745373 0.560189 0.875486
0.875288 0.58024 0.860777
0.880812 0.576669 0.861112
0.879911 0.574701 0.860548
0.873945 0.548577 0.854063
0.441459 0.830472 0.902235
0.436164 0.828305 0.902235
0.427558 0.824475 0.903487
0.405035 0.813962 0.904662
0.573739 0.811627 0.906203
0.841871 0.811002 0.914
0.893874 0.812604 0.900282
0.893874 0.808469 0.899886
0.89427 0.793973 0.897642
0.613504 0.884153 0.890761
0.613504 0.884153 0.890761
0.611811 0.883741 0.891279
0.592981 0.87895 0.892638
0.627176 0.874662 0.895064
0.794369 0.89247 0.903044
0.876112 0.904631 0.914092
0.89337 0.90518 0.912261
0.893629 0.900099 0.911696
0.613504 0.884153 0.890761
0.613504 0.884153 0.890761
0.613504 0.884153 0.890761
0.613626 0.884169 0.890745
0.655787 0.890105 0.892561
0.794217 0.913787 0.899153
0.865324 0.928496 0.90956
0.894881 0.931884 0.913802
0.905394 0.928649 0.917754
0.613504 0.884153 0.890761
0.613504 0.884153 0.890761
0.613504 0.884153 0.890761
0.613504 0.884153 0.890761
0.614481 0.885145 0.889403
0.76231 0.907286 0.89218
0.856184 0.928756 0.906874
0.892363 0.934462 0.914183
0.901015 0.9346 0.915328
0.445243 0.101976 0.674586
0.459709 0.104341 0.676707
0.489693 0.108629 0.677974
0.591363 0.142687 0.69836
0.751507 0.188067 0.742626
0.797406 0.203357 0.755001
0.797406 0.203357 0.755001
0.797406 0.203357 0.755001
0.797406 0.203357 0.755001
0.430076 0.100679 0.673899
0.444556 0.101915 0.674556
0.476356 0.106767 0.677165
0.581796 0.138247 0.695689
0.748226 0.187076 0.741878
0.797406 0.203357 0.755001
0.797406 0.203357 0.755001
0.797406 0.203357 0.755001
0.797406 0.203357 0.755001
0.385916 0.0951095 0.670115
0.407065 0.097673 0.671504
0.443793 0.101869 0.67454
0.560403 0.12929 0.691539
0.738674 0.184894 0.739773
0.797406 0.203693 0.755077
0.797436 0.204166 0.755261
0.797391 0.2038 0.755077
0.797406 0.203632 0.755047
0.291661 0.167559 0.74641
0.280476 0.14078 0.72929
0.256733 0.0975662 0.688487
0.461784 0.104616 0.676814
0.697765 0.184771 0.728206
0.7991 0.210254 0.758419
0.8 0.214679 0.759808
0.800351 0.215274 0.760067
0.799847 0.214298 0.75967
0.203235 0.644511 0.915984
0.202197 0.639704 0.916243
0.200031 0.63212 0.915908
0.207965 0.604135 0.91339
0.741527 0.550622 0.872831
0.873915 0.56965 0.859495
0.877897 0.566262 0.858869
0.877073 0.562417 0.85771
0.871351 0.53611 0.851575
0.43592 0.828153 0.902342
0.431235 0.826154 0.903334
0.421851 0.821164 0.903655
0.397101 0.81059 0.904845
0.564645 0.807019 0.906813
0.84065 0.804532 0.912917
0.894057 0.805814 0.899657
0.893935 0.801495 0.898772
0.894896 0.786816 0.897169
0.613504 0.884153 0.890761
0.613504 0.884153 0.890761
0.607523 0.882826 0.891997
0.585702 0.8766 0.892546
0.616022 0.8719 0.895613
0.7888 0.888594 0.903212
0.875761 0.900771 0.915175
0.893294 0.900984 0.913741
0.893248 0.896056 0.913436
0.613504 0.884153 0.890761
0.613504 0.884153 0.890761
0.613504 0.884153 0.890761
0.613581 0.884153 0.890745
0.652674 0.889281 0.892378
0.794232 0.912474 0.901091
0.863645 0.926635 0.911925
0.89279 0.930694 0.916915
0.896468 0.930236 0.916838
0.613504 0.884153 0.890761
0.613504 0.884153 0.890761
0.613504 0.884153 0.890761
0.613504 0.884153 0.890761
0.628229 0.886107 0.892027
0.773053 0.90901 0.898054
0.858061 0.929915 0.911269
0.890669 0.935546 0.917159
0.899763 0.936522 0.919219
