bundles/resolve-cinematic-luts/Phantom Luts/P4k & P6K Phntm Film LUTs - V6/P6k/Gen 5 Colour/P6k Eastman Gen5-Legacy.cube
TITLE "Generated by Resolve"
LUT_3D_SIZE 9
0.0399023 0.0390021 0.0390021
0.0495613 0.0390021 0.0390021
0.0916457 0.0390021 0.0416724
0.206546 0.0407263 0.0426947
0.375006 0.0582895 0.0449226
0.538888 0.102724 0.059144
0.585687 0.117464 0.077821
0.586709 0.1178 0.0805371
0.573556 0.122026 0.0812695
0.0462196 0.0408026 0.0449226
0.0505074 0.0407721 0.0434119
0.0920882 0.0437934 0.0487984
0.212528 0.0463264 0.0415656
0.385443 0.0671397 0.0442817
0.544976 0.113741 0.0585641
0.575479 0.124376 0.070573
0.577142 0.125399 0.0725261
0.558434 0.131975 0.0726787
0.0657969 0.0908522 0.0669413
0.066453 0.0906081 0.0617838
0.102693 0.0971695 0.0633555
0.267887 0.0924697 0.064622
0.458183 0.126268 0.0662547
0.599847 0.159365 0.0908217
0.625223 0.170123 0.103593
0.636194 0.178347 0.111467
0.633524 0.18703 0.117006
0.100847 0.258564 0.125628
0.0975509 0.26392 0.119707
0.103319 0.26569 0.101823
0.311055 0.33196 0.112657
0.60444 0.335225 0.147311
0.787427 0.359503 0.188754
0.814191 0.380926 0.206439
0.817792 0.392203 0.21117
0.815183 0.40029 0.214038
0.175326 0.585855 0.304067
0.171939 0.585931 0.297047
0.171664 0.58233 0.246906
0.288334 0.589624 0.194491
0.55462 0.608942 0.161975
0.78323 0.613489 0.213504
0.84535 0.640085 0.271809
0.84477 0.65066 0.275959
0.843473 0.655314 0.27895
0.292546 0.819898 0.486152
0.290806 0.816159 0.481636
0.289677 0.806256 0.452613
0.340902 0.79028 0.368536
0.584115 0.802167 0.347555
0.741009 0.810025 0.365621
0.832166 0.809873 0.397314
0.832105 0.814069 0.407599
0.835462 0.812604 0.403021
0.304723 0.835767 0.509422
0.303563 0.830793 0.501045
0.303929 0.819043 0.468208
0.377874 0.809094 0.410407
0.591302 0.821973 0.411872
0.757168 0.828733 0.420493
0.827344 0.828702 0.440757
0.830884 0.830427 0.450736
0.829541 0.8309 0.452888
0.304677 0.83859 0.512383
0.304097 0.833249 0.498619
0.304662 0.819669 0.457298
0.382361 0.809277 0.398917
0.594873 0.821286 0.402487
0.75761 0.827878 0.413031
0.829984 0.82681 0.432105
0.83537 0.829007 0.444419
0.835142 0.829084 0.4448
0.304723 0.838483 0.52549
0.304219 0.833616 0.508873
0.304234 0.821134 0.467323
0.371328 0.80827 0.40148
0.582666 0.820325 0.40412
0.753017 0.827985 0.413092
0.826413 0.827283 0.43415
0.83389 0.829465 0.446571
0.831281 0.830304 0.450004
0.0390021 0.0390021 0.039292
0.0490578 0.0390021 0.0415045
0.0917983 0.0390021 0.0531624
0.213138 0.0390021 0.0483253
0.369512 0.0627451 0.0478065
0.531273 0.105379 0.0687724
0.578424 0.117815 0.0906996
0.584878 0.119509 0.0985428
0.574639 0.124926 0.102358
0.0438392 0.0390021 0.0442512
0.0491798 0.0390021 0.0452277
0.0889143 0.0392767 0.0479744
0.206348 0.0461891 0.043061
0.372427 0.0657816 0.0444038
0.532631 0.113664 0.0631723
0.565286 0.124559 0.0779278
0.566567 0.124605 0.0805371
0.557015 0.127626 0.0813153
0.0658732 0.0880293 0.0738079
0.062501 0.0898909 0.0680095
0.0989548 0.0948501 0.0628061
0.262638 0.0892958 0.0617685
0.443656 0.118715 0.0604868
0.576867 0.148608 0.0780957
0.60528 0.16083 0.0937667
0.609812 0.16492 0.0965133
0.600137 0.168078 0.0958114
0.100252 0.256855 0.134829
0.0968795 0.26247 0.130114
0.0985733 0.26183 0.102296
0.309789 0.330053 0.112795
0.609247 0.327977 0.149432
0.789837 0.35555 0.188281
0.812818 0.375586 0.204181
0.815732 0.385428 0.207965
0.813123 0.393591 0.211505
0.177386 0.58967 0.320226
0.173983 0.589151 0.314687
0.171725 0.583383 0.264012
0.272633 0.587961 0.194263
0.553262 0.606912 0.161364
0.786236 0.609598 0.21387
0.844968 0.634943 0.269429
0.844999 0.644587 0.273701
0.843549 0.648493 0.275731
0.293111 0.822599 0.496513
0.291249 0.818479 0.492287
0.288838 0.808972 0.462852
0.331609 0.788403 0.369863
0.577905 0.800443 0.344259
0.737163 0.807065 0.358984
0.832486 0.806012 0.390494
0.831571 0.810834 0.401968
0.833341 0.809857 0.399298
0.305211 0.841413 0.525704
0.304631 0.835813 0.513878
0.303563 0.823392 0.480659
0.365225 0.808225 0.411719
0.581399 0.821195 0.41181
0.75346 0.828489 0.418494
0.826398 0.828428 0.439277
0.831128 0.830518 0.451286
0.829816 0.831037 0.453651
0.306004 0.844999 0.536812
0.304723 0.839384 0.511467
0.304128 0.824964 0.472313
0.367895 0.808103 0.400519
0.583856 0.820203 0.402228
0.75314 0.827665 0.411154
0.826703 0.826627 0.431403
0.835325 0.829023 0.44448
0.828901 0.831113 0.453971
0.306142 0.845609 0.539895
0.304768 0.84007 0.518334
0.303441 0.826307 0.48098
0.357778 0.807721 0.403388
0.572534 0.819699 0.404273
0.74818 0.82768 0.411521
0.822858 0.827268 0.433982
0.833921 0.82945 0.446525
0.828336 0.831266 0.454673
0.0414893 0.0390021 0.0622873
0.0568093 0.0390021 0.0658732
0.0922866 0.0390021 0.0720989
0.227619 0.0390021 0.0764477
0.389975 0.0419471 0.0549325
0.57142 0.107988 0.112352
0.627237 0.120104 0.142779
0.629801 0.113832 0.148028
0.618265 0.118425 0.155779
0.0410925 0.0390021 0.0579995
0.0429694 0.0390021 0.0661326
0.0881971 0.0390021 0.0719158
0.234012 0.0390021 0.0690166
0.393469 0.057908 0.0539254
0.575525 0.116747 0.110323
0.618875 0.123995 0.135897
0.625208 0.121889 0.143679
0.616876 0.1234 0.146288
0.0628367 0.0847639 0.081529
0.060502 0.0852522 0.0823835
0.100679 0.0927749 0.0961929
0.261753 0.0826123 0.0773327
0.424231 0.0876478 0.0530556
0.565087 0.1243 0.078172
0.584741 0.130098 0.0893416
0.583062 0.128176 0.0889296
0.573037 0.129671 0.088365
0.106294 0.249287 0.160601
0.102831 0.255909 0.158099
0.0975509 0.262226 0.134264
0.306065 0.328756 0.127733
0.614481 0.311025 0.153536
0.791241 0.341711 0.189929
0.806134 0.356497 0.200778
0.808698 0.363256 0.204364
0.803861 0.370565 0.207584
0.181827 0.596246 0.357778
0.178424 0.595666 0.356146
0.173663 0.588373 0.32079
0.219745 0.582467 0.197833
0.548837 0.601144 0.160525
0.797696 0.597833 0.218875
0.845808 0.62118 0.26508
0.845365 0.628428 0.267582
0.844099 0.631342 0.269886
0.292973 0.8336 0.525093
0.291737 0.828092 0.521782
0.288212 0.815915 0.493507
0.30132 0.785016 0.380331
0.559289 0.796262 0.338476
0.729534 0.801617 0.345312
0.833646 0.798245 0.377859
0.833417 0.801968 0.386511
0.833646 0.800107 0.38378
0.308812 0.861601 0.564095
0.307591 0.854704 0.554543
0.304585 0.837217 0.517952
0.32961 0.807645 0.421225
0.557839 0.819455 0.412543
0.744274 0.828305 0.416403
0.821637 0.82855 0.440452
0.832197 0.831052 0.454475
0.830594 0.831571 0.456641
0.310155 0.86775 0.577783
0.308888 0.860243 0.565042
0.304906 0.841199 0.517174
0.331655 0.808377 0.413474
0.557122 0.818082 0.402686
0.741024 0.82742 0.408911
0.817761 0.827344 0.433097
0.835615 0.829862 0.448829
0.829511 0.831907 0.458366
0.310338 0.867643 0.578958
0.30898 0.860136 0.566171
0.305089 0.841978 0.522347
0.324971 0.808759 0.418585
0.547295 0.817426 0.404166
0.736553 0.827176 0.40856
0.81413 0.827817 0.435004
0.834348 0.830274 0.451164
0.828504 0.832319 0.460121
0.046479 0.0404517 0.130266
0.0669261 0.0423285 0.1393
0.108415 0.0440681 0.151705
0.222034 0.0414893 0.154116
0.397482 0.0460212 0.184619
0.585977 0.0921492 0.250599
0.631266 0.11429 0.288029
0.62858 0.115496 0.302571
0.616434 0.119722 0.310002
0.0390021 0.0415656 0.123949
0.0481422 0.0423896 0.148562
0.0984207 0.0451514 0.164752
0.229053 0.0414435 0.161959
0.407538 0.0484474 0.189258
0.601038 0.0995499 0.256565
0.628763 0.115145 0.28809
0.626108 0.115526 0.303059
0.61593 0.119692 0.311177
0.0415045 0.0787671 0.129458
0.0390021 0.0746624 0.13785
0.0680247 0.0598459 0.189441
0.242222 0.0505989 0.179995
0.428458 0.0497597 0.183948
0.622126 0.107607 0.24654
0.646006 0.12076 0.273198
0.645167 0.121843 0.287343
0.637232 0.125109 0.294896
0.0920119 0.241611 0.205478
0.0900282 0.24715 0.210956
0.0920882 0.253422 0.216617
0.33463 0.337514 0.33228
0.596017 0.300923 0.293889
0.788937 0.303975 0.268742
0.794842 0.310536 0.27715
0.798535 0.316823 0.286763
0.794583 0.324025 0.292775
0.187335 0.611093 0.438895
0.186023 0.611688 0.441749
0.186374 0.610544 0.429282
0.209705 0.594919 0.36141
0.548516 0.603937 0.300587
0.825849 0.576425 0.305257
0.856184 0.595529 0.325017
0.856535 0.602258 0.328756
0.854658 0.604227 0.330236
0.28687 0.856901 0.588357
0.285985 0.851835 0.587228
0.28336 0.841627 0.568978
0.278386 0.801312 0.487526
0.500816 0.792248 0.386679
0.717922 0.792584 0.343496
0.837705 0.783993 0.38677
0.839292 0.785794 0.398428
0.839658 0.782666 0.394781
0.318624 0.90219 0.646342
0.317388 0.897459 0.638865
0.314946 0.887617 0.615396
0.308843 0.840085 0.525154
0.502541 0.820294 0.447608
0.730419 0.831968 0.438773
0.814969 0.83209 0.460899
0.836622 0.837461 0.489204
0.834714 0.837674 0.489738
0.321309 0.907958 0.664271
0.319417 0.90251 0.65182
0.316014 0.891356 0.624216
0.309194 0.843915 0.526787
0.493065 0.819165 0.437125
0.718944 0.830488 0.43212
0.805951 0.831037 0.449119
0.838819 0.835752 0.481621
0.834089 0.838849 0.494804
0.321538 0.906737 0.663096
0.319249 0.901457 0.649439
0.315847 0.890623 0.622568
0.308278 0.845151 0.529915
0.481132 0.818158 0.434653
0.710414 0.830549 0.433021
0.80145 0.83122 0.449577
0.83772 0.835798 0.482017
0.834806 0.840772 0.503273
0.0581369 0.0525673 0.269718
0.0792096 0.0522469 0.282124
0.136767 0.0472267 0.297612
0.257694 0.0424964 0.295872
0.401205 0.0538033 0.308095
0.599405 0.106783 0.369574
0.633707 0.121065 0.403784
0.634195 0.121599 0.418296
0.626215 0.125475 0.426078
0.043946 0.054551 0.276844
0.0624247 0.054078 0.290562
0.125902 0.049134 0.310735
0.265064 0.043183 0.308614
0.413382 0.0570382 0.318975
0.609323 0.111681 0.380423
0.63241 0.12166 0.408927
0.633814 0.122072 0.423301
0.627024 0.125689 0.43241
0.0390021 0.0690471 0.274357
0.0390021 0.0619974 0.282994
0.0779431 0.0547189 0.316991
0.264744 0.0437934 0.325353
0.427283 0.060914 0.331609
0.618845 0.115267 0.389776
0.639094 0.122606 0.412528
0.640772 0.123461 0.424704
0.635065 0.126329 0.430076
0.0454566 0.232715 0.311513
0.0441596 0.234073 0.318242
0.0415961 0.226032 0.327794
0.289204 0.213733 0.478523
0.569512 0.223301 0.479728
0.749325 0.217563 0.487434
0.760845 0.219379 0.501747
0.768658 0.227893 0.514351
0.767956 0.235309 0.519142
0.171115 0.612161 0.516365
0.171176 0.612879 0.521492
0.171649 0.614633 0.523522
0.235691 0.626703 0.545022
0.599878 0.6215 0.602838
0.809628 0.544823 0.522286
0.857359 0.534676 0.50312
0.858183 0.539834 0.509697
0.856291 0.541314 0.511009
0.288884 0.868864 0.683116
0.288746 0.865202 0.683238
0.285924 0.859785 0.673732
0.282872 0.844465 0.63772
0.523781 0.800214 0.613947
0.743358 0.808576 0.588846
0.872053 0.782391 0.546609
0.870268 0.785977 0.543694
0.869734 0.782345 0.539666
0.387945 0.948989 0.769711
0.380484 0.945617 0.763668
0.362875 0.93846 0.744991
0.33579 0.919005 0.690806
0.520653 0.860166 0.64062
0.726452 0.872755 0.631296
0.834455 0.861738 0.582788
0.857832 0.864897 0.598749
0.856474 0.86453 0.597635
0.405905 0.954376 0.790433
0.394385 0.950332 0.778531
0.372564 0.94255 0.755734
0.33579 0.920501 0.694591
0.510307 0.860807 0.637095
0.708034 0.87013 0.628275
0.831571 0.865446 0.591241
0.858381 0.863874 0.595056
0.86215 0.872999 0.627176
0.403326 0.953338 0.788083
0.390753 0.948837 0.775097
0.370199 0.941604 0.753307
0.333852 0.919463 0.692897
0.500526 0.860716 0.633463
0.702602 0.870069 0.630488
0.830381 0.868452 0.603586
0.857069 0.863096 0.592676
0.864179 0.87657 0.639887
0.112108 0.0590219 0.393011
0.142077 0.0568704 0.403922
0.197208 0.0540932 0.416129
0.307774 0.0539254 0.42063
0.437827 0.0730449 0.432822
0.61416 0.130129 0.490028
0.641886 0.145129 0.525765
0.650538 0.152804 0.549035
0.656672 0.158343 0.564996
0.0964523 0.0623026 0.401083
0.12607 0.06009 0.411521
0.190494 0.0564431 0.42707
0.3131 0.055787 0.431952
0.451759 0.0780346 0.44593
0.622568 0.134264 0.501579
0.645121 0.147417 0.534478
0.652796 0.154589 0.556374
0.657755 0.159503 0.568841
0.0449989 0.0703288 0.391592
0.0668803 0.0670634 0.402975
0.14902 0.0614176 0.433478
0.308995 0.0577401 0.446738
0.467124 0.0848096 0.463233
0.627039 0.136904 0.510338
0.643473 0.146151 0.534371
0.65124 0.153109 0.551614
0.65539 0.157076 0.560815
0.0390021 0.208347 0.418982
0.0390021 0.207218 0.425071
0.0390021 0.192309 0.43595
0.274372 0.134356 0.539818
0.542748 0.162295 0.572351
0.700984 0.190158 0.575311
0.711315 0.197421 0.58735
0.721614 0.206592 0.603296
0.726909 0.212161 0.612512
0.136339 0.610147 0.625467
0.136263 0.610269 0.628016
0.134936 0.60824 0.63357
0.173831 0.614496 0.681407
0.58854 0.55819 0.797925
0.825513 0.516182 0.727459
0.853895 0.507958 0.720256
0.854948 0.514092 0.72433
0.853254 0.515267 0.723812
0.286717 0.865705 0.749859
0.284901 0.862425 0.747234
0.281529 0.858457 0.743175
0.2813 0.848127 0.735271
0.568124 0.836912 0.772335
0.793057 0.820188 0.794018
0.900175 0.78381 0.755856
0.9037 0.7823 0.750256
0.901549 0.776806 0.744884
0.456947 0.969894 0.84477
0.445274 0.967819 0.840284
0.42649 0.963592 0.830259
0.399329 0.955627 0.806271
0.586084 0.945449 0.819577
0.763027 0.905928 0.812131
0.876097 0.913542 0.799115
0.908705 0.904189 0.779965
0.908476 0.90222 0.778195
0.485847 0.97409 0.859586
0.480369 0.972885 0.855344
0.469764 0.971389 0.847623
0.444175 0.964279 0.823575
0.579889 0.955459 0.821393
0.742489 0.912551 0.811994
0.864591 0.925063 0.808286
0.90016 0.917372 0.777005
0.900877 0.918044 0.779385
0.485344 0.973739 0.859602
0.479606 0.972747 0.854932
0.469139 0.971344 0.847211
0.441962 0.963684 0.822202
0.57171 0.955428 0.818372
0.738262 0.912642 0.811734
0.861738 0.926345 0.815671
0.9019 0.921599 0.790082
0.904234 0.922652 0.795377
0.195727 0.070573 0.488441
0.215641 0.0702373 0.493553
0.256168 0.0700236 0.501228
0.352605 0.0759594 0.512932
0.505196 0.114565 0.546868
0.665263 0.168978 0.595514
0.675441 0.17525 0.606867
0.675685 0.175387 0.607324
0.675715 0.175387 0.60734
0.188785 0.0733654 0.494636
0.208576 0.0724193 0.499092
0.252567 0.0717327 0.506416
0.356023 0.0775311 0.516732
0.519448 0.120119 0.554177
0.66804 0.171481 0.600519
0.675624 0.175418 0.607263
0.675624 0.175418 0.607263
0.675654 0.175402 0.607279
0.142031 0.076051 0.484031
0.165393 0.0752575 0.491753
0.222065 0.0737621 0.505882
0.351476 0.0785992 0.521645
0.53254 0.126253 0.565057
0.673426 0.175433 0.608072
0.678614 0.177768 0.610513
0.678614 0.177768 0.610544
0.678859 0.178027 0.610819
0.0541543 0.186038 0.498329
0.0582589 0.181704 0.502937
0.0716411 0.154726 0.504829
0.30695 0.119142 0.569986
0.537133 0.148745 0.602457
0.698116 0.195209 0.630274
0.718944 0.209674 0.64921
0.728679 0.218143 0.661677
0.732143 0.220813 0.666102
0.142794 0.624567 0.702434
0.143053 0.624338 0.70457
0.142641 0.621241 0.707607
0.209812 0.620768 0.7579
0.634333 0.524575 0.870497
0.847486 0.497978 0.809613
0.863981 0.50251 0.805661
0.865034 0.508263 0.807233
0.864729 0.508324 0.807004
0.32047 0.868132 0.820554
0.316243 0.864454 0.818921
0.310094 0.858122 0.816602
0.302708 0.842359 0.815854
0.546914 0.828443 0.860655
0.806531 0.782452 0.896574
0.901823 0.768551 0.861433
0.902724 0.764904 0.858473
0.901366 0.758862 0.85536
0.471183 0.974273 0.87512
0.456458 0.97232 0.870268
0.436118 0.968826 0.862699
0.413794 0.959869 0.850324
0.594354 0.95465 0.874678
0.781765 0.921141 0.878889
0.894636 0.919707 0.890791
0.929015 0.911131 0.886473
0.928512 0.908949 0.884031
0.541039 0.97731 0.890196
0.530129 0.977569 0.888273
0.514824 0.977615 0.882933
0.502953 0.976318 0.870787
0.622156 0.97055 0.884794
0.777264 0.946975 0.888395
0.87953 0.94345 0.89836
0.920333 0.945846 0.888472
0.921782 0.946227 0.89012
0.545403 0.977035 0.890318
0.531289 0.977722 0.887938
0.515541 0.977707 0.883421
0.501366 0.976059 0.869657
0.617563 0.970855 0.883467
0.77612 0.94728 0.888777
0.874235 0.943648 0.899886
0.918853 0.946456 0.891249
0.921721 0.946181 0.889693
0.238117 0.0749676 0.513298
0.253788 0.0750134 0.515892
0.286168 0.0756237 0.520058
0.373785 0.0825055 0.528008
0.531212 0.126421 0.566506
0.674464 0.174655 0.605615
0.675624 0.175418 0.607263
0.675669 0.175402 0.607309
0.675761 0.175372 0.60737
0.222919 0.0753948 0.510796
0.239734 0.0750286 0.513634
0.27776 0.0752422 0.518868
0.374533 0.0824903 0.527962
0.54081 0.129335 0.568902
0.673411 0.174441 0.6056
0.675624 0.175418 0.607263
0.675639 0.175418 0.607263
0.675654 0.175402 0.607279
0.174151 0.0767987 0.499596
0.194049 0.0758984 0.504509
0.243671 0.0750896 0.514427
0.365225 0.0814527 0.527337
0.545342 0.131182 0.570871
0.673762 0.174823 0.606592
0.679179 0.178393 0.611292
0.678996 0.17818 0.611017
0.679118 0.178317 0.611215
0.0905318 0.161837 0.522545
0.0888075 0.152865 0.51606
0.0843519 0.125368 0.49575
0.282933 0.0877394 0.533257
0.517968 0.132418 0.579278
0.699626 0.196399 0.635584
0.712886 0.204883 0.647059
0.716167 0.207599 0.650782
0.71693 0.208453 0.652049
0.165072 0.639582 0.731929
0.164889 0.63714 0.73164
0.163058 0.629328 0.729549
0.229984 0.608682 0.764462
0.65687 0.509514 0.866285
0.850523 0.488197 0.805829
0.863386 0.497093 0.804303
0.863981 0.50251 0.805676
0.863798 0.502007 0.805386
0.371725 0.876143 0.844541
0.366766 0.871748 0.842603
0.359182 0.865034 0.839734
0.344472 0.844404 0.834012
0.562982 0.820752 0.869154
0.840024 0.760388 0.896315
0.902464 0.753857 0.871458
0.902571 0.753994 0.871595
0.901549 0.747662 0.869535
0.543786 0.976608 0.8916
0.5355 0.974914 0.890501
0.522637 0.970672 0.888197
0.497551 0.958541 0.882673
0.621302 0.943633 0.893675
0.781643 0.915923 0.899718
0.90959 0.909621 0.918914
0.924056 0.905821 0.916243
0.924498 0.904143 0.916548
0.580285 0.977127 0.895598
0.580316 0.977081 0.895918
0.580316 0.977081 0.895918
0.569467 0.977035 0.894087
0.646464 0.969726 0.899733
0.787015 0.950378 0.904662
0.888197 0.948074 0.920592
0.924971 0.951751 0.921767
0.928847 0.9505 0.923552
0.580301 0.977096 0.895781
0.580316 0.977081 0.895918
0.580316 0.977081 0.895918
0.563806 0.976959 0.893248
0.646326 0.969757 0.899733
0.796841 0.949569 0.905516
0.888594 0.948119 0.920729
0.922194 0.95259 0.923049
0.925521 0.952361 0.922255
0.248249 0.0750286 0.515023
0.262028 0.0746471 0.516777
0.294102 0.0756542 0.520729
0.381308 0.0835584 0.528572
0.541146 0.129534 0.569238
0.674922 0.174945 0.606287
0.675624 0.175418 0.607263
0.675669 0.175402 0.607309
0.675715 0.175387 0.60734
0.232227 0.074876 0.512215
0.248447 0.0750134 0.515038
0.285389 0.0755932 0.519921
0.382269 0.083772 0.528817
0.550225 0.132586 0.572091
0.674784 0.174914 0.606226
0.675624 0.175418 0.607263
0.675639 0.175418 0.607263
0.675654 0.175402 0.607279
0.182879 0.0766155 0.502342
0.202289 0.0757763 0.506462
0.250431 0.0749828 0.515328
0.371725 0.0825513 0.528176
0.552666 0.133654 0.573175
0.674769 0.175143 0.606958
0.679591 0.178759 0.611719
0.679301 0.1785 0.611475
0.679362 0.178561 0.611551
0.088716 0.15172 0.515175
0.0874647 0.14345 0.50898
0.0825971 0.112764 0.486183
0.278386 0.0796826 0.524041
0.525658 0.135897 0.582864
0.69839 0.195346 0.634424
0.709392 0.20235 0.643824
0.710826 0.203616 0.646128
0.711635 0.204089 0.647028
0.167712 0.639918 0.7337
0.166033 0.636683 0.732464
0.163226 0.627298 0.729564
0.230015 0.604837 0.763882
0.659541 0.504555 0.864408
0.850172 0.484428 0.804807
0.86273 0.49305 0.803281
0.863523 0.497871 0.804608
0.862959 0.496727 0.80383
0.378164 0.876097 0.846708
0.370687 0.870497 0.84387
0.360327 0.863111 0.839918
0.340032 0.84033 0.832166
0.560922 0.815641 0.868299
0.840528 0.752956 0.89395
0.90135 0.745998 0.869139
0.90193 0.745785 0.869566
0.902251 0.738537 0.868666
0.54136 0.976867 0.891402
0.532006 0.974044 0.889677
0.517922 0.968811 0.886961
0.492729 0.955276 0.881758
0.620111 0.938872 0.893065
0.785412 0.911452 0.899687
0.912703 0.902296 0.916594
0.923812 0.900999 0.915282
0.923186 0.899214 0.914397
0.579126 0.97818 0.888975
0.579171 0.978119 0.889296
0.579171 0.978119 0.889296
0.582177 0.977951 0.889662
0.666026 0.967758 0.894759
0.801099 0.949508 0.902464
0.893843 0.946792 0.918868
0.926162 0.950317 0.922606
0.92607 0.950576 0.922576
0.580301 0.977111 0.89575
0.580316 0.977081 0.895918
0.580316 0.977081 0.895918
0.584161 0.976883 0.896361
0.679408 0.964889 0.901106
0.813336 0.948745 0.907881
0.891844 0.948226 0.92108
0.923506 0.95259 0.922911
0.926955 0.951965 0.921248
