bundles/resolve-cinematic-luts/Phantom Luts/P4k & P6K Phntm Film LUTs - V6/P6k/Gen 5 Colour/P6k Eterna Gen5.cube
TITLE "Generated by Resolve"
LUT_3D_SIZE 33
0.00932326 0.0377356 0.0377356
0.00933852 0.0377203 0.037705
0.00973526 0.0375982 0.0373541
0.0175937 0.0384527 0.0380255
0.0286717 0.0390784 0.0377356
0.0428016 0.0396277 0.0370336
0.0558175 0.0397498 0.0359808
0.0703441 0.0410315 0.0366979
0.0883803 0.0433661 0.0394903
0.112108 0.0469215 0.0458839
0.143465 0.0518196 0.0541543
0.184131 0.0577859 0.0646525
0.237034 0.06598 0.0780499
0.294179 0.0737926 0.0938888
0.35729 0.0827649 0.112734
0.423667 0.09308 0.131624
0.494331 0.104692 0.151431
0.566125 0.115892 0.170443
0.633722 0.129091 0.188327
0.686854 0.145815 0.20322
0.703944 0.153841 0.209201
0.708598 0.156481 0.212222
0.711284 0.157794 0.214649
0.713222 0.159014 0.21648
0.714595 0.159579 0.217624
0.715846 0.16025 0.21886
0.717021 0.160891 0.220081
0.719127 0.161212 0.221149
0.721889 0.161059 0.2224
0.726146 0.160479 0.223774
0.733654 0.160586 0.228534
0.740017 0.159884 0.231388
0.745922 0.158923 0.233875
0.0102693 0.0372778 0.0361944
0.00959792 0.0375982 0.0372931
0.00959792 0.0376287 0.0374304
0.0140536 0.0384527 0.0378424
0.0241855 0.0390631 0.037644
0.0368811 0.0390326 0.0363622
0.0523842 0.0391546 0.0355383
0.0690166 0.0400854 0.0358587
0.0875105 0.0419928 0.0379034
0.111635 0.0451972 0.0434577
0.144762 0.0496986 0.0519875
0.187625 0.0554818 0.0623789
0.24152 0.0631266 0.0749676
0.301259 0.0716716 0.0903944
0.366354 0.081178 0.110109
0.435492 0.0918593 0.131212
0.507027 0.103548 0.151202
0.579995 0.115373 0.170504
0.645487 0.129198 0.187655
0.69276 0.145022 0.201266
0.709651 0.153002 0.207279
0.712062 0.154284 0.209552
0.713878 0.15555 0.211521
0.715602 0.156512 0.21326
0.717189 0.157305 0.214847
0.718563 0.158007 0.216068
0.719387 0.158312 0.216876
0.720424 0.158587 0.217838
0.722484 0.158679 0.218967
0.725704 0.15845 0.220295
0.730068 0.157839 0.222126
0.735317 0.157 0.22385
0.740871 0.155993 0.22591
0.0102235 0.0373083 0.036286
0.00958267 0.0376135 0.0373236
0.00946059 0.0376745 0.0375219
0.0117494 0.0384222 0.0379339
0.0196078 0.0394293 0.0381933
0.0315557 0.0396582 0.0374456
0.0479744 0.039704 0.0367285
0.0668498 0.0407416 0.0372168
0.0870222 0.0428016 0.0392462
0.11313 0.0461128 0.0441749
0.148272 0.0508888 0.0522774
0.193103 0.0567483 0.062089
0.248447 0.0638437 0.0734722
0.308904 0.0719158 0.0880446
0.374777 0.0812085 0.10782
0.445594 0.0914931 0.129488
0.519402 0.103105 0.150774
0.592325 0.115084 0.170077
0.655894 0.129503 0.186587
0.697002 0.144671 0.199069
0.711681 0.151873 0.204471
0.713375 0.153002 0.206546
0.715145 0.154025 0.208453
0.716564 0.155032 0.209964
0.717769 0.155749 0.211322
0.718776 0.156344 0.21236
0.719646 0.156817 0.213336
0.720455 0.157137 0.214282
0.721843 0.157259 0.215274
0.724208 0.156939 0.216083
0.727855 0.156222 0.217456
0.732692 0.155261 0.219196
0.738415 0.154177 0.221286
0.0108644 0.0385595 0.0372473
0.0103609 0.0391241 0.0381628
0.0103609 0.0390631 0.0382696
0.0111543 0.0390784 0.0383307
0.0160983 0.040238 0.0387732
0.0263828 0.0411841 0.0386816
0.0426184 0.041062 0.0378882
0.0632639 0.0417182 0.0384527
0.0861067 0.043946 0.041001
0.114839 0.0474861 0.0461128
0.151766 0.0522011 0.0533608
0.199451 0.0585794 0.0630045
0.254994 0.0655985 0.0737316
0.316945 0.0737621 0.088014
0.383154 0.0825208 0.106065
0.453803 0.0919661 0.127291
0.527169 0.103304 0.14876
0.599374 0.115419 0.167849
0.66183 0.131197 0.184451
0.697383 0.145159 0.195422
0.710277 0.151675 0.20058
0.711757 0.152468 0.202197
0.713252 0.153475 0.204166
0.714733 0.15436 0.205692
0.715908 0.155093 0.207019
0.716777 0.155673 0.208133
0.71751 0.1561 0.20882
0.718349 0.156405 0.209583
0.719692 0.156527 0.210468
0.722271 0.156283 0.211749
0.726619 0.15555 0.213321
0.731807 0.154574 0.215213
0.737697 0.153292 0.216983
0.0138705 0.0455787 0.0411994
0.0135042 0.0465553 0.0417182
0.0137026 0.0467384 0.0415351
0.0146792 0.0451209 0.0408789
0.0185397 0.0454414 0.0409705
0.0271153 0.0466468 0.0411536
0.0434424 0.0471962 0.041001
0.0650187 0.0472877 0.0414588
0.0890211 0.0483864 0.0439155
0.118227 0.0502785 0.0482643
0.157107 0.0545357 0.0560616
0.206302 0.0605936 0.0652934
0.263752 0.0678874 0.0755169
0.325231 0.0758526 0.0890974
0.391302 0.0842298 0.106142
0.461357 0.092958 0.125811
0.534722 0.103609 0.146304
0.606867 0.116213 0.165484
0.666377 0.132601 0.18175
0.697505 0.14551 0.191714
0.708217 0.151034 0.196109
0.710231 0.152224 0.198306
0.711421 0.152834 0.199603
0.712505 0.153552 0.200916
0.71368 0.154299 0.202258
0.714595 0.154818 0.203342
0.715312 0.15523 0.204196
0.716075 0.155535 0.20499
0.717311 0.155642 0.205814
0.719951 0.155367 0.206882
0.724498 0.154589 0.208438
0.730266 0.153521 0.210224
0.736996 0.152193 0.212421
0.0188296 0.0585489 0.0473182
0.0182803 0.0597391 0.0470588
0.0182345 0.0605173 0.0468452
0.0189517 0.0595254 0.0458839
0.0236362 0.0573129 0.0456703
0.0321813 0.0587472 0.0462501
0.0482338 0.0606241 0.0466163
0.0723125 0.0612802 0.0479438
0.0988022 0.0610666 0.0500038
0.130846 0.0608682 0.0535897
0.170245 0.0616617 0.0599222
0.219181 0.0644541 0.0678264
0.274632 0.0699626 0.0775616
0.336187 0.078294 0.0915847
0.400427 0.0862593 0.107851
0.469795 0.0949722 0.126604
0.543526 0.105547 0.145861
0.614511 0.117784 0.163302
0.670512 0.13402 0.178286
0.697459 0.145846 0.186892
0.705089 0.149828 0.190631
0.707622 0.151308 0.193118
0.709575 0.152529 0.194781
0.710674 0.153109 0.196033
0.711772 0.153735 0.197269
0.712489 0.154284 0.198245
0.713039 0.15465 0.198886
0.713771 0.15491 0.199405
0.714946 0.15494 0.199969
0.717571 0.154604 0.200732
0.721965 0.153796 0.202106
0.728252 0.152544 0.203983
0.735592 0.151034 0.206073
0.0248112 0.0751354 0.0548714
0.0242008 0.077348 0.0539864
0.023743 0.0791485 0.0538949
0.0239261 0.0790112 0.0523079
0.026627 0.0768292 0.0508583
0.0370947 0.0751965 0.0510262
0.0520638 0.0767834 0.0515908
0.0776837 0.0782788 0.052781
0.108675 0.078233 0.0559701
0.143099 0.0793164 0.0601205
0.187625 0.0795758 0.0653086
0.239216 0.0788586 0.0716259
0.291432 0.0792248 0.080766
0.348241 0.082536 0.0930037
0.409659 0.0888533 0.109255
0.478157 0.0981765 0.128038
0.550622 0.108904 0.146212
0.620066 0.12163 0.162051
0.672755 0.137774 0.174853
0.698833 0.150744 0.18291
0.702098 0.15201 0.184405
0.703151 0.152514 0.18584
0.703655 0.152804 0.18677
0.704021 0.152987 0.187671
0.705333 0.153857 0.188647
0.706294 0.154482 0.189212
0.706615 0.154635 0.189456
0.70692 0.15465 0.189639
0.707866 0.154757 0.18999
0.709834 0.154665 0.190539
0.712917 0.154299 0.19144
0.71751 0.153521 0.192584
0.722972 0.15256 0.193805
0.0352026 0.0962692 0.0619821
0.0339818 0.100145 0.0624399
0.0324254 0.103304 0.0620127
0.0315709 0.104921 0.0609293
0.0319219 0.104585 0.0587167
0.03682 0.101976 0.0576333
0.0556649 0.101045 0.0586404
0.0785534 0.103059 0.0594492
0.112276 0.104463 0.0623636
0.15552 0.104692 0.0694591
0.203586 0.105501 0.0761273
0.261997 0.104967 0.082887
0.319814 0.101259 0.0908064
0.374807 0.0975052 0.0996414
0.431601 0.0968338 0.113008
0.497795 0.102419 0.130648
0.568627 0.1122 0.148409
0.637308 0.125139 0.163287
0.68896 0.143679 0.176944
0.721431 0.162905 0.18761
0.722499 0.163607 0.187961
0.723232 0.163897 0.18822
0.724269 0.164385 0.188571
0.725353 0.165072 0.188876
0.726238 0.165728 0.18912
0.727031 0.166354 0.189349
0.727642 0.166888 0.189593
0.728038 0.16733 0.189853
0.728328 0.167544 0.190036
0.729168 0.167697 0.190356
0.730678 0.167514 0.190768
0.733196 0.166979 0.191363
0.736782 0.166201 0.192264
0.0436255 0.123766 0.075761
0.0424659 0.128267 0.0756237
0.0405432 0.132387 0.0743877
0.0399786 0.13547 0.0729534
0.0396887 0.136995 0.0700389
0.0408942 0.135485 0.0666209
0.0489204 0.133059 0.0652781
0.07953 0.133455 0.0677043
0.11194 0.136233 0.0691844
0.156909 0.138811 0.0745708
0.217105 0.138384 0.0849165
0.28365 0.138109 0.0946365
0.34873 0.138277 0.103899
0.414496 0.13608 0.114214
0.476692 0.131731 0.125353
0.53962 0.130724 0.139391
0.602701 0.132647 0.153124
0.66186 0.140749 0.166705
0.709651 0.15816 0.181872
0.744991 0.179126 0.194125
0.746853 0.180682 0.19472
0.747829 0.181598 0.194995
0.748501 0.182239 0.195178
0.749615 0.183246 0.195438
0.75053 0.184024 0.19556
0.751507 0.185016 0.195819
0.7523 0.185916 0.196078
0.753155 0.186664 0.196445
0.753964 0.187427 0.196689
0.754498 0.187854 0.196826
0.755337 0.188098 0.19704
0.756741 0.188037 0.19736
0.759243 0.187716 0.197955
0.0545052 0.160006 0.0944076
0.0526436 0.165484 0.0937667
0.0504463 0.171099 0.0920119
0.0493172 0.175738 0.0894484
0.0484779 0.179065 0.0853132
0.0487678 0.180026 0.0811933
0.0502785 0.177646 0.0758373
0.0646983 0.175494 0.0747387
0.110155 0.177569 0.0783093
0.154726 0.18146 0.0809186
0.215946 0.185931 0.0869459
0.301472 0.185168 0.102296
0.380285 0.18526 0.116121
0.453315 0.1888 0.127138
0.531884 0.190768 0.140444
0.608133 0.191928 0.154376
0.678065 0.194278 0.168658
0.732052 0.202029 0.18378
0.770977 0.216342 0.198962
0.794644 0.22797 0.208179
0.790722 0.22388 0.206867
0.788769 0.222065 0.2065
0.789578 0.222827 0.206607
0.791806 0.224979 0.207233
0.794324 0.227573 0.208164
0.796597 0.229786 0.208698
0.798367 0.231556 0.208972
0.800137 0.233463 0.209613
0.801541 0.235126 0.210086
0.802472 0.236057 0.210361
0.803235 0.236515 0.210575
0.804425 0.236789 0.210925
0.80618 0.237034 0.211398
0.0670024 0.209613 0.118578
0.0634318 0.216297 0.11809
0.0601358 0.223545 0.116732
0.0582132 0.22945 0.113451
0.0572366 0.234623 0.10927
0.0572213 0.238148 0.102983
0.0580301 0.239277 0.0971542
0.0594949 0.234195 0.0860456
0.0833906 0.23212 0.083711
0.147799 0.236881 0.0882887
0.210498 0.243351 0.0910201
0.292943 0.249378 0.0967575
0.400946 0.250797 0.114336
0.494133 0.250034 0.133318
0.574746 0.254597 0.145525
0.660349 0.259205 0.159609
0.737499 0.267124 0.176318
0.793973 0.278782 0.196078
0.831495 0.293889 0.215106
0.853254 0.305684 0.226551
0.853712 0.305409 0.226932
0.853559 0.305257 0.226932
0.85391 0.305898 0.227039
0.854963 0.307591 0.227314
0.856458 0.310094 0.227863
0.857954 0.312673 0.228595
0.859846 0.31577 0.229328
0.860731 0.317723 0.229587
0.861723 0.319371 0.229908
0.862577 0.320516 0.230259
0.863218 0.321309 0.230518
0.863767 0.321553 0.230762
0.864668 0.322148 0.23122
0.0764019 0.276143 0.145205
0.0709087 0.285588 0.144884
0.0658579 0.294636 0.143389
0.0627298 0.302739 0.141054
0.0606699 0.310216 0.137682
0.060029 0.316213 0.133364
0.0602579 0.321187 0.127275
0.0615396 0.321263 0.11606
0.0652628 0.313405 0.0982681
0.100237 0.309865 0.0893111
0.192477 0.31809 0.0929732
0.280339 0.32665 0.0932326
0.384771 0.334035 0.0956436
0.502129 0.337636 0.114672
0.609369 0.338399 0.145174
0.686885 0.341573 0.163012
0.764874 0.345205 0.183948
0.824582 0.355383 0.206775
0.864622 0.371206 0.229343
0.88838 0.385199 0.244739
0.892989 0.388876 0.247837
0.893416 0.389975 0.248203
0.893782 0.39115 0.248432
0.894591 0.3935 0.24892
0.895567 0.396109 0.249516
0.896895 0.399145 0.250492
0.897398 0.401389 0.250721
0.898116 0.403326 0.251102
0.898573 0.404456 0.251377
0.898802 0.404959 0.251514
0.898848 0.404974 0.25153
0.898985 0.404974 0.25153
0.899336 0.405219 0.251621
0.0767224 0.361288 0.173266
0.0692607 0.372915 0.172564
0.0631418 0.38381 0.171633
0.0592813 0.393896 0.170214
0.0560159 0.403281 0.167758
0.0555886 0.411322 0.164736
0.0554513 0.417639 0.160067
0.0561685 0.421271 0.15111
0.0586099 0.419577 0.134615
0.0669413 0.408484 0.106523
0.120729 0.407263 0.0903639
0.249546 0.415061 0.0924239
0.366476 0.422446 0.0914626
0.473808 0.427939 0.0978561
0.586191 0.433158 0.121065
0.700221 0.433371 0.16173
0.774456 0.439841 0.189502
0.834394 0.447227 0.215
0.881621 0.456733 0.240879
0.908888 0.469368 0.259205
0.917174 0.475502 0.265888
0.91751 0.477455 0.2663
0.918196 0.479805 0.267094
0.918425 0.48217 0.267338
0.918929 0.485176 0.26775
0.919554 0.487358 0.268482
0.919951 0.489372 0.26891
0.920226 0.490913 0.269047
0.920272 0.491386 0.269047
0.920226 0.491112 0.268971
0.920119 0.490669 0.268849
0.91989 0.489677 0.268574
0.919631 0.488731 0.268177
0.0768292 0.464378 0.210697
0.0712291 0.476158 0.211337
0.0662699 0.486686 0.211246
0.0621042 0.496986 0.210819
0.0591745 0.506722 0.209781
0.0576333 0.515038 0.208133
0.0572061 0.522438 0.205005
0.0581369 0.527245 0.198322
0.0594644 0.528832 0.184283
0.0625315 0.525628 0.157473
0.0762951 0.513512 0.116442
0.159075 0.512139 0.0981308
0.333547 0.515114 0.105486
0.457404 0.520165 0.110109
0.558541 0.523659 0.120531
0.658457 0.530343 0.142748
0.772229 0.531853 0.186145
0.844068 0.537041 0.222797
0.884276 0.551278 0.243244
0.917311 0.561944 0.266316
0.929885 0.568399 0.277256
0.930114 0.570459 0.277607
0.930312 0.572885 0.277882
0.930739 0.575998 0.278416
0.930678 0.5785 0.278355
0.9308 0.58056 0.278508
0.930953 0.581979 0.278706
0.931014 0.582437 0.278798
0.930983 0.58201 0.278752
0.930892 0.580972 0.278645
0.930816 0.579889 0.278538
0.930632 0.578149 0.278264
0.930434 0.576318 0.277882
0.0883345 0.572183 0.267857
0.087129 0.582879 0.270359
0.0847028 0.592462 0.271809
0.0824292 0.601663 0.27245
0.0806134 0.610056 0.272465
0.0804913 0.618173 0.272297
0.0817426 0.625116 0.270985
0.083238 0.63006 0.266041
0.0851301 0.632563 0.254963
0.087541 0.632502 0.233997
0.092256 0.626429 0.191287
0.114275 0.612284 0.138613
0.242237 0.611566 0.127169
0.435843 0.610498 0.138994
0.548547 0.61445 0.145846
0.63827 0.61648 0.156207
0.72845 0.621897 0.179309
0.823224 0.6262 0.218891
0.889357 0.631846 0.257023
0.919188 0.646174 0.276738
0.933379 0.656092 0.289067
0.936843 0.660319 0.2925
0.936889 0.662959 0.292912
0.936934 0.66453 0.293202
0.93698 0.666102 0.293477
0.93724 0.667277 0.294209
0.937407 0.667872 0.294636
0.937469 0.667765 0.294728
0.937423 0.667155 0.294545
0.93727 0.665736 0.29398
0.937011 0.663737 0.293156
0.936904 0.661509 0.292638
0.936736 0.658808 0.292042
0.125216 0.674266 0.340261
0.126375 0.683665 0.343511
0.125002 0.692851 0.346075
0.122988 0.701457 0.347875
0.121767 0.709606 0.349142
0.122621 0.716854 0.350134
0.124117 0.722194 0.349554
0.12668 0.726421 0.345815
0.129458 0.728939 0.337789
0.132265 0.72932 0.321355
0.134249 0.72575 0.289387
0.142947 0.714427 0.229191
0.188144 0.701091 0.174212
0.368338 0.701839 0.171664
0.541375 0.699123 0.184802
0.637888 0.701473 0.193423
0.712978 0.70164 0.204181
0.792981 0.70396 0.227192
0.865217 0.710124 0.262089
0.917845 0.716594 0.299336
0.940612 0.726314 0.322698
0.947265 0.73312 0.331533
0.947311 0.734173 0.331807
0.947311 0.735149 0.331975
0.947417 0.736019 0.33228
0.947402 0.736645 0.332189
0.94728 0.736965 0.331792
0.947097 0.736797 0.33109
0.946853 0.735897 0.330114
0.946654 0.734218 0.328893
0.94638 0.731777 0.327733
0.946044 0.729061 0.326268
0.945632 0.72665 0.324681
0.17435 0.768154 0.414374
0.176562 0.776852 0.418372
0.175982 0.785107 0.421103
0.174395 0.793393 0.423438
0.172869 0.799695 0.424186
0.173968 0.805142 0.425086
0.176059 0.808911 0.424201
0.178683 0.811215 0.421256
0.18117 0.812726 0.414847
0.183825 0.812634 0.402853
0.186343 0.810193 0.379324
0.190005 0.803845 0.332341
0.205051 0.788968 0.261494
0.302876 0.784985 0.217197
0.496635 0.783978 0.224979
0.635966 0.778897 0.238193
0.716884 0.78024 0.249958
0.780011 0.779004 0.263523
0.845426 0.778958 0.283818
0.900389 0.784573 0.31606
0.936614 0.791547 0.357641
0.951339 0.796613 0.38613
0.952621 0.798306 0.391821
0.95259 0.798672 0.392065
0.952529 0.799054 0.392233
0.952392 0.799283 0.39202
0.952224 0.799558 0.391714
0.951965 0.79881 0.390372
0.951736 0.797269 0.388479
0.951614 0.795117 0.385901
0.951568 0.792813 0.383276
0.951324 0.790051 0.380545
0.951125 0.787396 0.377615
0.227497 0.841474 0.47953
0.229526 0.848463 0.482902
0.228367 0.854414 0.484657
0.225589 0.859785 0.485451
0.223453 0.86479 0.485969
0.223453 0.868467 0.485832
0.225025 0.871061 0.484764
0.227176 0.872465 0.481666
0.229129 0.87306 0.476143
0.23183 0.872724 0.46717
0.234104 0.870024 0.450523
0.236576 0.86566 0.419883
0.246647 0.856611 0.362081
0.284321 0.846693 0.291905
0.44036 0.84918 0.274327
0.604196 0.843976 0.287373
0.717144 0.840192 0.30425
0.785306 0.841871 0.319142
0.836515 0.840299 0.335424
0.886473 0.839826 0.361105
0.925795 0.842664 0.396063
0.94847 0.846723 0.432731
0.955764 0.849042 0.454398
0.955657 0.848447 0.453452
0.955566 0.848112 0.452735
0.955398 0.84802 0.452094
0.955154 0.847822 0.451148
0.954864 0.846906 0.449241
0.95465 0.845472 0.446799
0.954559 0.843671 0.444541
0.954513 0.84152 0.441688
0.954513 0.839368 0.439307
0.954376 0.837034 0.436637
0.272648 0.891432 0.528908
0.273503 0.894926 0.53019
0.271199 0.898466 0.530602
0.267643 0.902083 0.53048
0.264485 0.905089 0.530144
0.264302 0.907088 0.529824
0.264744 0.908156 0.528145
0.266789 0.908354 0.52549
0.268986 0.908339 0.520867
0.272343 0.907851 0.514412
0.276204 0.90631 0.503182
0.279408 0.903487 0.484123
0.286107 0.899413 0.447669
0.315892 0.895277 0.390524
0.406821 0.892454 0.34168
0.558968 0.890898 0.343023
0.692836 0.88716 0.358099
0.785595 0.885344 0.381445
0.841077 0.887587 0.405127
0.88098 0.886152 0.433204
0.916136 0.88455 0.465934
0.940337 0.886458 0.492454
0.953628 0.889784 0.516823
0.955703 0.889494 0.519203
0.955505 0.888945 0.517815
0.955306 0.888273 0.515938
0.955062 0.887587 0.513954
0.954833 0.88658 0.511391
0.95465 0.885161 0.508705
0.954742 0.883436 0.505592
0.955032 0.881758 0.502846
0.955291 0.879515 0.500099
0.955489 0.877363 0.49691
0.303532 0.913436 0.559838
0.301427 0.914137 0.558892
0.297459 0.91548 0.557626
0.292744 0.917052 0.556207
0.288304 0.918486 0.554681
0.285679 0.919371 0.552987
0.284825 0.919676 0.551019
0.285206 0.919631 0.548058
0.287312 0.919387 0.544228
0.291173 0.918929 0.538781
0.296956 0.918242 0.530587
0.304112 0.917327 0.517571
0.313115 0.91635 0.494545
0.346975 0.918288 0.464836
0.422156 0.918593 0.440482
0.543389 0.917494 0.43859
0.662943 0.915663 0.449729
0.768795 0.914672 0.470161
0.842206 0.915801 0.495628
0.882322 0.917876 0.519036
0.910948 0.917113 0.545846
0.932219 0.915862 0.566735
0.946822 0.917739 0.584314
0.951858 0.918837 0.591882
0.951949 0.918318 0.589822
0.951812 0.917784 0.58674
0.951461 0.917205 0.583474
0.95111 0.916564 0.579873
0.950912 0.915648 0.575723
0.950881 0.914717 0.572381
0.951064 0.913405 0.568215
0.951324 0.912062 0.564187
0.951553 0.910674 0.559991
0.292195 0.917021 0.565789
0.292058 0.917113 0.564569
0.290379 0.917678 0.56321
0.287648 0.918563 0.561746
0.284825 0.919463 0.560235
0.282887 0.920104 0.558572
0.282109 0.920409 0.55642
0.282841 0.920272 0.553277
0.284443 0.919844 0.549386
0.287526 0.919356 0.543648
0.293339 0.918685 0.535729
0.300511 0.917876 0.523781
0.308354 0.916976 0.503777
0.330343 0.917754 0.471244
0.40351 0.921904 0.460288
0.519081 0.924056 0.469596
0.640162 0.924239 0.490898
0.744503 0.924941 0.514656
0.835035 0.926101 0.546899
0.886442 0.928817 0.575906
0.912123 0.931075 0.600595
0.92845 0.930037 0.621195
0.94226 0.930663 0.635767
0.949538 0.932662 0.647654
0.949889 0.932662 0.64715
0.949722 0.93254 0.64506
0.949477 0.932418 0.642817
0.949203 0.932174 0.640375
0.949004 0.931853 0.638285
0.948943 0.931472 0.635904
0.948943 0.931029 0.633509
0.948989 0.930541 0.631296
0.949172 0.929992 0.629221
0.287434 0.918349 0.570336
0.290227 0.91754 0.568978
0.292378 0.91693 0.567514
0.293004 0.916762 0.566308
0.292271 0.917037 0.56466
0.291203 0.917433 0.562814
0.290806 0.917632 0.56051
0.291524 0.917433 0.557641
0.293309 0.916884 0.553475
0.295918 0.916152 0.547906
0.301137 0.91545 0.540337
0.308522 0.914626 0.529183
0.316594 0.913695 0.511025
0.33048 0.913344 0.480293
0.386999 0.917708 0.461433
0.494194 0.92108 0.468849
0.617441 0.922438 0.491829
0.724468 0.92398 0.519463
0.82327 0.925673 0.554864
0.887556 0.928786 0.588846
0.915373 0.931853 0.616983
0.92987 0.932082 0.638743
0.943282 0.932311 0.654719
0.951659 0.934112 0.668452
0.953643 0.934951 0.67274
0.953368 0.935103 0.672587
0.952895 0.935363 0.672328
0.952193 0.93576 0.671931
0.951354 0.936217 0.67155
0.950561 0.936645 0.671229
0.950103 0.936889 0.670985
0.94992 0.936904 0.670268
0.94995 0.936477 0.667979
0.284886 0.919036 0.57409
0.287221 0.918318 0.572671
0.289311 0.917739 0.571191
0.290364 0.917464 0.569574
0.290089 0.917617 0.567864
0.28925 0.917922 0.566186
0.288808 0.918135 0.563912
0.289586 0.917998 0.560845
0.291157 0.917556 0.55697
0.293599 0.916808 0.551202
0.297978 0.916045 0.543465
0.305196 0.915206 0.533013
0.313329 0.914366 0.51632
0.323751 0.913817 0.487343
0.362753 0.91751 0.461295
0.461677 0.921431 0.464378
0.58146 0.92314 0.483436
0.69482 0.924315 0.511147
0.797269 0.925673 0.544411
0.872847 0.928252 0.57998
0.908949 0.931243 0.61004
0.926116 0.932326 0.632792
0.939651 0.932296 0.650416
0.94934 0.93344 0.663767
0.953017 0.934783 0.671397
0.953277 0.935164 0.672526
0.95285 0.935393 0.672297
0.952178 0.935775 0.671931
0.951354 0.936217 0.67155
0.950561 0.936645 0.671214
0.950088 0.936904 0.670985
0.94992 0.936996 0.670863
0.950057 0.936919 0.670954
0.283238 0.91957 0.577005
0.284855 0.919051 0.575372
0.28661 0.918502 0.573922
0.287617 0.918212 0.572366
0.287678 0.918257 0.570642
0.287312 0.918441 0.568673
0.287205 0.918547 0.566476
0.287938 0.91841 0.563531
0.289647 0.918013 0.559533
0.292134 0.917266 0.553948
0.295766 0.916442 0.546212
0.302556 0.915648 0.535866
0.310552 0.914855 0.520485
0.319982 0.914305 0.494148
0.349432 0.917113 0.46453
0.43476 0.921386 0.461799
0.546487 0.923812 0.476188
0.66331 0.924788 0.502678
0.768109 0.925765 0.533822
0.854612 0.927855 0.570138
0.901152 0.930846 0.602365
0.921874 0.932265 0.626688
0.936065 0.932174 0.645914
0.946578 0.932937 0.659693
0.952026 0.934478 0.66952
0.953216 0.935195 0.672496
0.952819 0.935409 0.672282
0.952148 0.935775 0.671916
0.951339 0.936217 0.671534
0.950561 0.936645 0.671214
0.950088 0.936904 0.670985
0.950042 0.936934 0.670939
0.950332 0.936751 0.671122
0.281025 0.920287 0.579507
0.282734 0.919738 0.577859
0.284321 0.919219 0.576089
0.285084 0.91899 0.574426
0.285084 0.919005 0.572808
0.28481 0.919127 0.570947
0.284916 0.919173 0.568551
0.285664 0.91902 0.565789
0.287877 0.918486 0.561715
0.290288 0.917845 0.556313
0.293477 0.916945 0.548684
0.299931 0.916121 0.538598
0.307958 0.915328 0.524071
0.316762 0.914809 0.50013
0.339696 0.916686 0.469596
0.413016 0.920928 0.460945
0.515312 0.923964 0.470512
0.63209 0.925017 0.494682
0.736675 0.926268 0.523369
0.83299 0.927825 0.559335
0.890654 0.930556 0.593591
0.916472 0.932296 0.62005
0.932006 0.932296 0.640574
0.944076 0.932723 0.656107
0.950988 0.934096 0.667155
0.953246 0.93518 0.672511
0.95285 0.935393 0.672297
0.952193 0.93576 0.671931
0.951385 0.936202 0.671565
0.950591 0.936614 0.671244
0.950164 0.936858 0.671016
0.950164 0.936858 0.671031
0.950515 0.93666 0.671199
0.2795 0.92076 0.581582
0.281147 0.920241 0.579873
0.282887 0.919676 0.578058
0.283604 0.919463 0.576135
0.283253 0.919585 0.574487
0.282429 0.919875 0.572671
0.282124 0.920012 0.570397
0.28307 0.919799 0.567346
0.284871 0.919341 0.563622
0.287663 0.918639 0.558282
0.291203 0.917617 0.550881
0.29691 0.916701 0.541085
0.304906 0.915969 0.527199
0.313252 0.91545 0.50544
0.331777 0.916686 0.47509
0.39234 0.920668 0.460456
0.488243 0.923674 0.467018
0.601053 0.925032 0.487495
0.70605 0.926314 0.514015
0.808255 0.927749 0.547997
0.878279 0.930571 0.583825
0.908995 0.932982 0.612573
0.92578 0.933333 0.634195
0.939055 0.933379 0.651987
0.947967 0.934646 0.663691
0.951492 0.936141 0.671611
0.951034 0.936385 0.671412
0.950286 0.936782 0.671092
0.949493 0.93724 0.670604
0.948623 0.937697 0.67013
0.948058 0.937987 0.669841
0.947906 0.938079 0.669764
0.948043 0.938003 0.669841
0.272267 0.923064 0.583337
0.273869 0.922545 0.581537
0.27602 0.921859 0.579629
0.277638 0.921324 0.577783
0.278706 0.921019 0.57583
0.279118 0.920897 0.57406
0.279469 0.920821 0.571908
0.28069 0.920501 0.568948
0.282948 0.91989 0.565209
0.285908 0.919142 0.559945
0.289738 0.918074 0.552758
0.295033 0.917006 0.543343
0.302998 0.916167 0.530739
0.311131 0.915633 0.510796
0.325582 0.916304 0.481666
0.372503 0.919966 0.460594
0.462364 0.923232 0.463905
0.568887 0.924956 0.480568
0.676188 0.925978 0.505852
0.778607 0.927337 0.536934
0.862013 0.929839 0.573449
0.901808 0.932921 0.60502
0.92047 0.934051 0.628016
0.934157 0.933669 0.647745
0.944808 0.934981 0.659892
