bundles/resolve-cinematic-luts/Phantom Luts/P4k & P6K Phntm Film LUTs - V6/P6k/Gen 5 Colour/P6k Vision Gen5-Legacy.cube
TITLE "Generated by Resolve"
LUT_3D_SIZE 5
0.0236057 0.0332036 0.024506
0.0719463 0.040177 0.0289769
0.521538 0.0552682 0.054078
0.757824 0.0909895 0.11046
0.770291 0.105562 0.109834
0.0366827 0.103517 0.0546883
0.0691081 0.106157 0.0471199
0.585245 0.103304 0.0771191
0.784375 0.140993 0.119707
0.802136 0.206317 0.136721
0.190494 0.630533 0.377829
0.178103 0.620905 0.331807
0.547326 0.630442 0.193072
0.832349 0.643442 0.315602
0.829892 0.630854 0.310811
0.36228 0.837186 0.588083
0.362585 0.83357 0.56643
0.574182 0.833951 0.540169
0.841245 0.861357 0.541558
0.841352 0.861616 0.541497
0.358618 0.838544 0.590295
0.362387 0.83563 0.575341
0.50869 0.829679 0.528008
0.835538 0.859953 0.530983
0.841382 0.861601 0.540185
0.034287 0.0366979 0.0859846
0.0991073 0.0403754 0.0784466
0.585138 0.0691539 0.113741
0.770169 0.0948959 0.159854
0.76228 0.0770733 0.121538
0.0332189 0.0920119 0.0776532
0.0833295 0.0979171 0.0862135
0.570199 0.0628061 0.069749
0.768093 0.104509 0.111498
0.802396 0.17174 0.130739
0.172091 0.622736 0.403433
0.178119 0.615106 0.368826
0.540291 0.621622 0.186664
0.828748 0.625269 0.307332
0.828595 0.621775 0.303746
0.346365 0.843168 0.607034
0.360632 0.837766 0.589044
0.556191 0.832532 0.535897
0.841169 0.861112 0.539834
0.841474 0.861921 0.542611
0.345892 0.843534 0.606271
0.358358 0.838453 0.591577
0.487053 0.828534 0.524193
0.830228 0.860349 0.531838
0.841398 0.861601 0.540017
0.16495 0.055024 0.46714
0.247318 0.0601663 0.452201
0.621729 0.10811 0.507973
0.783551 0.159243 0.590402
0.781353 0.142962 0.49662
0.0738842 0.0806744 0.492393
0.169543 0.0547036 0.462058
0.600626 0.101747 0.490059
0.778973 0.137789 0.549523
0.783963 0.152148 0.470222
0.07393 0.589563 0.604227
0.0716716 0.582422 0.596902
0.605066 0.621317 0.598413
0.853376 0.59292 0.533578
0.830442 0.573465 0.460472
0.279194 0.886641 0.808499
0.245502 0.885801 0.787213
0.506477 0.848493 0.663874
0.842756 0.874708 0.610407
0.850065 0.880217 0.63183
0.239017 0.88455 0.777081
0.243137 0.878889 0.747509
0.383581 0.840375 0.61062
0.811719 0.864958 0.568109
0.848722 0.87628 0.61294
0.376791 0.106386 0.685649
0.42179 0.111559 0.686839
0.733532 0.188312 0.747326
0.805798 0.1953 0.767391
0.805783 0.1953 0.767361
0.317067 0.100114 0.684901
0.375967 0.106386 0.68574
0.711559 0.191592 0.741588
0.80592 0.195727 0.767636
0.805844 0.195392 0.767437
0.0999008 0.616999 0.922835
0.112535 0.60592 0.922484
0.703166 0.512139 0.884215
0.883345 0.536751 0.864897
0.877012 0.51043 0.858305
0.544976 0.896254 0.911971
0.526192 0.895445 0.912428
0.512978 0.894713 0.908537
0.899733 0.936492 0.919188
0.917174 0.927687 0.909606
0.528695 0.895659 0.912581
0.502663 0.894972 0.913252
0.459724 0.8963 0.894957
0.852201 0.937819 0.900145
0.912551 0.94313 0.909377
0.38497 0.107195 0.685542
0.428 0.112383 0.686931
0.739528 0.18735 0.749462
0.805798 0.1953 0.767391
0.805798 0.1953 0.767391
0.328786 0.10132 0.685237
0.383917 0.107088 0.685527
0.71635 0.191379 0.742885
0.805966 0.196063 0.767712
0.80589 0.195575 0.767544
0.12285 0.609598 0.92285
0.127718 0.595453 0.921553
0.6981 0.493004 0.877501
0.878218 0.515602 0.859709
0.87158 0.485252 0.852735
0.553445 0.896819 0.911604
0.547341 0.8963 0.911894
0.555978 0.89012 0.913787
0.90341 0.920546 0.932097
0.910521 0.911727 0.93196
0.553445 0.896819 0.911604
0.553445 0.896819 0.911604
0.567971 0.897917 0.911238
0.866911 0.943618 0.927291
0.914061 0.949981 0.932815
