bundles/resolve-cinematic-luts/Phantom Luts/P4k & P6K Phntm Film LUTs - V6/P6k/Gen 5 Colour/P6k EastmanRM Gen5-Legacy.cube
TITLE "Generated by Resolve"
LUT_3D_SIZE 5
0.0441749 0.0409705 0.0428931
0.119722 0.0383154 0.0366827
0.440238 0.033402 0.0502937
0.625772 0.0549325 0.0986954
0.587259 0.063859 0.13846
0.061799 0.103578 0.055024
0.100008 0.10988 0.0541848
0.502098 0.0515908 0.0565042
0.626627 0.0632792 0.096788
0.606012 0.0688792 0.115984
0.0735027 0.505531 0.139803
0.0630045 0.521767 0.126131
0.614618 0.656123 0.151797
0.89601 0.642542 0.315679
0.896239 0.665888 0.341543
0.285161 0.749783 0.43888
0.282765 0.743587 0.415839
0.552132 0.793225 0.411795
0.909606 0.921218 0.656214
0.907347 0.92221 0.664561
0.277867 0.755047 0.460929
0.29041 0.739651 0.399802
0.642847 0.832486 0.446983
0.912154 0.920348 0.649241
0.905837 0.922591 0.669032
0.045655 0.0452125 0.0646525
0.0974594 0.0462806 0.0611734
0.436774 0.0415045 0.0827649
0.648356 0.0903792 0.16466
0.631083 0.103761 0.20177
0.0592813 0.0963302 0.0730297
0.0888228 0.106432 0.0889601
0.477317 0.0418555 0.0684977
0.614221 0.0598459 0.114687
0.594064 0.0650645 0.137179
0.0764782 0.513512 0.203052
0.0630655 0.528984 0.198093
0.614694 0.655528 0.153063
0.894392 0.631922 0.30631
0.893355 0.653254 0.331777
0.285405 0.76025 0.476646
0.282017 0.752255 0.449454
0.530983 0.78468 0.398962
0.90959 0.921294 0.656809
0.907027 0.922469 0.667842
0.284001 0.768505 0.504646
0.289448 0.751797 0.445777
0.608576 0.816648 0.425116
0.912154 0.920333 0.649226
0.905272 0.923033 0.673884
0.0596628 0.0742046 0.266728
0.115267 0.0614023 0.304219
0.456367 0.0722667 0.308568
0.700771 0.146395 0.378531
0.676081 0.159579 0.427222
0.0416266 0.0955978 0.262821
0.0735332 0.0795605 0.322225
0.488655 0.0823987 0.356939
0.715236 0.152239 0.395712
0.696147 0.164294 0.437598
0.0850233 0.518318 0.431785
0.0698405 0.535286 0.471092
0.613794 0.624933 0.59498
0.925277 0.558358 0.517617
0.919005 0.575448 0.543114
0.351019 0.80975 0.651347
0.331701 0.809842 0.658808
0.479988 0.806134 0.574563
0.910903 0.928405 0.722637
0.908858 0.932998 0.767544
0.36701 0.823117 0.70045
0.357702 0.820249 0.691691
0.56791 0.830839 0.628779
0.904585 0.931228 0.755749
0.900816 0.935637 0.799573
0.188312 0.0933242 0.529793
0.241886 0.0982834 0.541772
0.518318 0.157122 0.617044
0.735439 0.244892 0.705562
0.733242 0.245533 0.70634
0.144366 0.104845 0.51458
0.200137 0.0949874 0.534798
0.549233 0.170306 0.631952
0.737667 0.245121 0.705837
0.732464 0.24593 0.706859
0.0572213 0.519112 0.643046
0.0620127 0.533181 0.65304
0.623484 0.497063 0.853941
0.937514 0.576699 0.923217
0.930114 0.596567 0.923674
0.488884 0.851987 0.794903
0.489662 0.852583 0.796002
0.595926 0.876432 0.821927
0.904738 0.94406 0.908507
0.912291 0.945998 0.912291
0.579141 0.872724 0.819348
0.566613 0.869978 0.816648
0.678859 0.896422 0.846311
0.905394 0.948898 0.912047
0.911269 0.951171 0.913054
0.224582 0.0966506 0.537789
0.267948 0.102113 0.547478
0.538094 0.164996 0.625666
0.735378 0.244907 0.705592
0.733303 0.245518 0.706325
0.161837 0.0922255 0.52462
0.222354 0.0967269 0.53901
0.564721 0.176867 0.639109
0.738308 0.245731 0.706447
0.733074 0.24654 0.707637
0.0691234 0.522896 0.656291
0.0686809 0.533181 0.660136
0.637629 0.49395 0.859434
0.937255 0.570916 0.922927
0.929564 0.592294 0.92311
0.552361 0.866606 0.81181
0.553277 0.866682 0.813458
0.643565 0.885924 0.839063
0.907759 0.94197 0.91249
0.908766 0.942931 0.912413
0.57908 0.872709 0.819348
0.576593 0.872419 0.819608
0.725612 0.907149 0.861524
0.907103 0.950393 0.915969
0.911696 0.951568 0.915663
