bundles/resolve-cinematic-luts/Phantom Luts/P4k & P6K Phntm Film LUTs - V6/P6k/Gen 5 Colour/P6k Vision Gen5-Legacy.cube
TITLE "Generated by Resolve"
LUT_3D_SIZE 33
0.0236057 0.0332036 0.024506
0.0236057 0.0332036 0.024506
0.0236667 0.0331884 0.0244602
0.0260624 0.0345464 0.0246891
0.0293736 0.0361791 0.0251011
0.0329137 0.0380713 0.0252537
0.0418708 0.0399634 0.0242771
0.0538643 0.0397498 0.0266423
0.0719463 0.040177 0.0289769
0.0962692 0.0401923 0.0291905
0.131533 0.0425422 0.0320287
0.184634 0.0428016 0.0319219
0.246296 0.0442664 0.0330205
0.309545 0.0452125 0.0362249
0.37464 0.0459449 0.038819
0.44239 0.0489052 0.0434882
0.521538 0.0552682 0.054078
0.612955 0.0656443 0.0735485
0.702052 0.0791333 0.0937362
0.747295 0.0875715 0.104356
0.754971 0.0889754 0.106508
0.757595 0.0924239 0.108644
0.757824 0.0929427 0.108736
0.758053 0.0933547 0.108721
0.757824 0.0909895 0.11046
0.758404 0.0919203 0.110567
0.759304 0.0936904 0.110582
0.760586 0.0956893 0.110536
0.761837 0.0975052 0.109895
0.762646 0.0989853 0.10898
0.765164 0.101442 0.10959
0.767834 0.103624 0.110063
0.770291 0.105562 0.109834
0.0235904 0.0332189 0.0244755
0.0236057 0.0332189 0.0244907
0.0236667 0.0332647 0.024506
0.0267185 0.0348821 0.0248264
0.0296788 0.03682 0.0255436
0.0327001 0.0387579 0.0254978
0.0422675 0.0408179 0.0247807
0.0550851 0.0402228 0.0276036
0.0740215 0.0404212 0.0294041
0.0995193 0.0408789 0.0300755
0.1355 0.042771 0.032166
0.190051 0.043061 0.0319829
0.251408 0.0444343 0.0327764
0.314855 0.0457618 0.0364538
0.379187 0.0470588 0.0391241
0.44686 0.049485 0.0443732
0.52575 0.0556649 0.0552224
0.618875 0.0679026 0.0746777
0.707332 0.0807965 0.0938888
0.749538 0.0907912 0.104814
0.75816 0.0941634 0.10808
0.758343 0.0944228 0.108171
0.758556 0.0947738 0.108248
0.760586 0.0969863 0.109483
0.75906 0.0937514 0.110048
0.760296 0.0955062 0.110307
0.76109 0.0972763 0.110002
0.761257 0.0986343 0.109224
0.762615 0.100603 0.109361
0.764889 0.102464 0.10988
0.767208 0.104417 0.110369
0.769299 0.106111 0.109957
0.771817 0.108507 0.109773
0.023621 0.0333867 0.0244907
0.0236515 0.033463 0.024506
0.023682 0.0334783 0.0245212
0.0248875 0.0348974 0.0249027
0.0290837 0.0374304 0.0261387
0.0319982 0.0397498 0.0264744
0.0412146 0.0418555 0.025742
0.0554665 0.0412451 0.0283207
0.0746166 0.0413825 0.030045
0.100267 0.0415961 0.0306401
0.136843 0.0433356 0.0324407
0.191699 0.0431067 0.0319371
0.253681 0.0447242 0.0327764
0.318196 0.0462348 0.0365911
0.381994 0.0476692 0.0391852
0.449882 0.0509194 0.0449836
0.52874 0.0570535 0.0560159
0.623087 0.0699474 0.0766155
0.709606 0.0833753 0.095552
0.752987 0.0939651 0.105715
0.759365 0.0963912 0.10779
0.760327 0.0964218 0.109422
0.760784 0.0981918 0.108812
0.761334 0.0997024 0.108034
0.7626 0.101564 0.108461
0.76109 0.0986191 0.109026
0.761883 0.100267 0.109056
0.763394 0.101991 0.109972
0.765072 0.103853 0.110384
0.766491 0.10544 0.110399
0.768551 0.107027 0.110002
0.770779 0.109194 0.109926
0.773648 0.112078 0.110704
0.0252384 0.0415045 0.0290379
0.0251164 0.0411536 0.028275
0.0260014 0.0407568 0.0278477
0.0277104 0.0402686 0.0275578
0.0301213 0.0420081 0.0286717
0.0330053 0.0435035 0.0295872
0.0401007 0.0441444 0.027985
0.0568246 0.0431525 0.0296483
0.0759594 0.0427863 0.030869
0.103563 0.043122 0.0318761
0.140597 0.0439918 0.032578
0.193851 0.0435187 0.0320287
0.257374 0.045243 0.033051
0.320821 0.0466926 0.0363928
0.384649 0.0487526 0.0396124
0.452796 0.0520485 0.0453193
0.531823 0.0584573 0.0567178
0.62565 0.0716869 0.077348
0.714595 0.0855879 0.0966201
0.755611 0.0959182 0.107179
0.760922 0.098085 0.108934
0.761288 0.0993515 0.108476
0.762173 0.100923 0.108415
0.763104 0.102678 0.10837
0.763943 0.103227 0.109926
0.763256 0.102113 0.109728
0.764477 0.103731 0.110277
0.76524 0.105364 0.110597
0.766155 0.107012 0.110475
0.768063 0.108675 0.110338
0.770611 0.110506 0.110521
0.773419 0.113008 0.111177
0.77528 0.115297 0.111177
0.027512 0.0475776 0.0328527
0.0272679 0.0472877 0.0322118
0.0277409 0.0465553 0.0304875
0.0301518 0.0462654 0.0305943
0.0319524 0.0469062 0.0307469
0.0342412 0.047776 0.0316777
0.040528 0.0508736 0.0322118
0.0598459 0.0484932 0.0299382
0.0819715 0.047715 0.0336919
0.109239 0.0461738 0.0333715
0.146532 0.0454108 0.0327153
0.201114 0.0449226 0.0323491
0.261311 0.046067 0.0333715
0.323491 0.0473487 0.0365911
0.388281 0.0496681 0.0399176
0.454795 0.052842 0.0455024
0.536004 0.0610819 0.0584421
0.629999 0.0744182 0.0784161
0.71635 0.0872511 0.0973373
0.757626 0.0989242 0.107851
0.762707 0.101305 0.109316
0.763439 0.102541 0.109346
0.764355 0.103746 0.110079
0.765133 0.105425 0.110399
0.765576 0.10724 0.110506
0.766262 0.108858 0.110628
0.765789 0.107515 0.110567
0.76669 0.109392 0.110689
0.768536 0.111131 0.111055
0.77113 0.112978 0.111589
0.77322 0.114794 0.111589
0.775036 0.117067 0.111513
0.77908 0.120027 0.112215
0.029572 0.0550393 0.0365911
0.0292668 0.0546731 0.0360113
0.0293736 0.0539559 0.034165
0.031632 0.053315 0.0337987
0.0336004 0.0532692 0.0337987
0.0363622 0.0542916 0.0340429
0.0404517 0.055848 0.0345922
0.0638895 0.0565347 0.0309758
0.0824292 0.0540169 0.0345312
0.111574 0.0526131 0.0357824
0.155505 0.0506447 0.0347295
0.211078 0.047013 0.0322728
0.268116 0.0475471 0.033753
0.327321 0.0486763 0.0364538
0.390677 0.050721 0.0400397
0.460731 0.0545357 0.0465858
0.541299 0.0633555 0.0594949
0.634119 0.0773785 0.0797894
0.719234 0.0903182 0.0984665
0.761334 0.102525 0.108965
0.765362 0.105028 0.110445
0.765759 0.106706 0.110445
0.76643 0.108141 0.110491
0.767147 0.109545 0.110643
0.768246 0.111131 0.11107
0.770001 0.113146 0.111772
0.769375 0.112367 0.111467
0.770977 0.114214 0.111986
0.772045 0.115953 0.11194
0.77377 0.118166 0.112337
0.776501 0.120638 0.112825
0.77969 0.123186 0.112917
0.781903 0.126101 0.1131
0.0318608 0.0675364 0.0411231
0.0314641 0.0671702 0.0400244
0.0310979 0.0661021 0.0389715
0.0328069 0.0654459 0.0374304
0.0344091 0.0645457 0.0374151
0.038529 0.0652018 0.0380407
0.0435645 0.0678264 0.0391089
0.0528725 0.069276 0.0371405
0.0871595 0.065568 0.0354314
0.111788 0.0632639 0.0379492
0.15555 0.0616007 0.0389868
0.216632 0.0569772 0.0369421
0.280491 0.0532692 0.0361791
0.337194 0.0513466 0.0363775
0.398245 0.0539254 0.0408026
0.466575 0.0587778 0.0475013
0.547143 0.0677043 0.0614939
0.638819 0.0822309 0.0813764
0.722789 0.0951247 0.0998093
0.766155 0.108156 0.110307
0.767712 0.109804 0.110613
0.768811 0.111421 0.110994
0.770428 0.113222 0.111772
0.771298 0.114931 0.111864
0.771954 0.116655 0.111833
0.773236 0.118746 0.112612
0.774609 0.121309 0.113436
0.774472 0.120928 0.113313
0.775952 0.123537 0.114046
0.777005 0.125551 0.113756
0.779889 0.127932 0.114687
0.781949 0.130404 0.115007
0.789532 0.143297 0.119966
0.0336767 0.0841688 0.0469368
0.0334173 0.0838331 0.0452125
0.0333867 0.0831769 0.0444038
0.0339055 0.0821698 0.04271
0.0358892 0.0816358 0.0421607
0.0389105 0.080766 0.0424811
0.0458381 0.082063 0.0432746
0.0543832 0.0856489 0.0427405
0.0746624 0.0861372 0.0381781
0.11577 0.0789807 0.0399481
0.156283 0.0738842 0.0419928
0.215595 0.070161 0.0418097
0.283268 0.0664225 0.0408179
0.351156 0.0649729 0.0412146
0.41384 0.0641642 0.04271
0.4804 0.0688182 0.0511025
0.557427 0.0766461 0.0652934
0.644694 0.089189 0.0832837
0.724102 0.100771 0.100069
0.771298 0.114595 0.111849
0.771923 0.116182 0.111879
0.7729 0.117891 0.112306
0.774121 0.119982 0.112978
0.775204 0.122469 0.11368
0.776349 0.124834 0.113924
0.777615 0.126879 0.114412
0.779599 0.129503 0.115343
0.781048 0.131411 0.115511
0.782025 0.133852 0.116716
0.787015 0.144228 0.120699
0.791501 0.153841 0.124575
0.797192 0.161776 0.127596
0.801083 0.170321 0.130877
0.0366827 0.103517 0.0546883
0.0363012 0.102983 0.0528573
0.0359045 0.102541 0.0512703
0.0361028 0.101442 0.0495308
0.0368353 0.100374 0.048249
0.0393225 0.099855 0.0478828
0.0447852 0.100496 0.048661
0.0565042 0.102007 0.0494698
0.0691081 0.106157 0.0471199
0.104311 0.103975 0.0391089
0.157946 0.0957656 0.0433661
0.223911 0.0866865 0.0470283
0.285206 0.0873426 0.0480049
0.356374 0.0878004 0.0504921
0.433158 0.092256 0.0564279
0.509575 0.0981003 0.0653086
0.585245 0.103304 0.0771191
0.663096 0.110475 0.0910811
0.735851 0.120897 0.107347
0.783017 0.13579 0.119585
0.783139 0.13611 0.119265
0.782147 0.134005 0.117754
0.779599 0.129503 0.115358
0.780804 0.13109 0.115465
0.784375 0.140993 0.119707
0.789181 0.150637 0.123308
0.791974 0.158145 0.126406
0.795102 0.164355 0.128023
0.798642 0.172778 0.132128
0.798337 0.177035 0.130648
0.800305 0.184482 0.132677
0.801556 0.195163 0.134661
0.802136 0.206317 0.136721
0.0387274 0.12958 0.0644694
0.0384985 0.128939 0.0623636
0.0383612 0.127977 0.0594949
0.0381933 0.127474 0.0581369
0.0386358 0.126345 0.0563363
0.0394598 0.124575 0.05449
0.0424353 0.124224 0.0534524
0.052781 0.126299 0.0557107
0.070222 0.129244 0.0562142
0.0883803 0.135073 0.0495308
0.148074 0.131533 0.038407
0.220295 0.121859 0.0485542
0.30367 0.115602 0.0589303
0.367987 0.125216 0.0664073
0.446235 0.132311 0.0758984
0.523186 0.138308 0.0844434
0.60827 0.146075 0.0952316
0.688823 0.152499 0.106737
0.757534 0.162249 0.119417
0.79855 0.171618 0.13167
0.797498 0.167819 0.130327
0.796948 0.16759 0.130022
0.797711 0.171542 0.131594
0.79707 0.176608 0.130358
0.798627 0.183856 0.132464
0.799023 0.189853 0.133593
0.799146 0.196536 0.134966
0.79971 0.205615 0.137575
0.80029 0.215534 0.140841
0.800839 0.224918 0.144274
0.801251 0.231312 0.146639
0.802106 0.241413 0.15082
0.803052 0.252033 0.154757
0.0391089 0.169299 0.0750286
0.0385901 0.168261 0.0719615
0.0385138 0.16733 0.0693065
0.0383001 0.166567 0.0665599
0.0380713 0.165682 0.0649119
0.0386664 0.163424 0.0625467
0.0396582 0.160662 0.0598154
0.0445411 0.1608 0.0592203
0.0619669 0.166644 0.0616312
0.0858015 0.173892 0.0620584
0.117067 0.185824 0.0531472
0.216587 0.181247 0.0383459
0.302083 0.176562 0.0624552
0.388968 0.174655 0.0823529
0.447929 0.180896 0.0883955
0.522377 0.186267 0.096437
0.604013 0.194369 0.107683
0.691127 0.205798 0.120623
0.763912 0.218112 0.13463
0.800092 0.23061 0.146395
0.800366 0.22797 0.145602
0.800153 0.224338 0.144137
0.800046 0.223941 0.143999
0.800061 0.229053 0.145861
0.799969 0.234852 0.14844
0.799969 0.24181 0.1514
0.799771 0.250172 0.154879
0.79968 0.258671 0.159106
0.799023 0.26627 0.1626
0.798367 0.273564 0.166064
0.798077 0.281086 0.168887
0.798566 0.287282 0.171939
0.798291 0.29482 0.175372
0.0486 0.230701 0.098497
0.048249 0.229679 0.0954147
0.0477607 0.229145 0.0927138
0.0471504 0.227878 0.0894331
0.0462348 0.226001 0.0859541
0.045655 0.224811 0.0822156
0.0457923 0.221286 0.0779736
0.0454414 0.215534 0.0713359
0.0533303 0.218112 0.0716411
0.0850843 0.231708 0.0785077
0.119966 0.243626 0.0800183
0.176486 0.255634 0.0645457
0.296056 0.248157 0.0408331
0.379431 0.240772 0.0755474
0.465354 0.241535 0.0993057
0.520729 0.248188 0.11519
0.598291 0.251774 0.12488
0.680797 0.260884 0.137697
0.756573 0.274342 0.155138
0.797665 0.289097 0.171664
0.797803 0.290364 0.173785
0.797833 0.288746 0.172976
0.798032 0.288014 0.172854
0.798001 0.287831 0.172763
0.797787 0.288533 0.173068
0.796811 0.29395 0.175586
0.79678 0.300084 0.178897
0.795956 0.30663 0.182315
0.795346 0.313603 0.18587
0.794858 0.320348 0.189075
0.794903 0.327352 0.193164
0.795895 0.33373 0.196979
0.796033 0.339712 0.199054
0.0631723 0.305959 0.132601
0.0626993 0.305486 0.129412
0.0624704 0.304585 0.126101
0.062562 0.304051 0.123552
0.0623331 0.303166 0.120165
0.0619821 0.3019 0.115938
0.0612345 0.300053 0.110124
0.0603952 0.295155 0.103243
0.0598611 0.288396 0.0938735
0.0744945 0.293645 0.0944228
0.117037 0.310063 0.101717
0.170932 0.320363 0.0991531
0.247486 0.329931 0.0783093
0.373098 0.320027 0.0475776
0.453162 0.312779 0.088716
0.536706 0.312856 0.117662
0.598779 0.319249 0.141268
0.669505 0.322713 0.163363
0.74403 0.332097 0.181704
0.791501 0.345373 0.200031
0.794324 0.349691 0.205905
0.794278 0.348669 0.205356
0.794247 0.348867 0.205463
0.794339 0.349905 0.206027
0.794278 0.35079 0.206348
0.794415 0.351919 0.206851
0.794476 0.353094 0.207263
0.794324 0.357946 0.209552
0.794385 0.364111 0.21323
0.794446 0.371115 0.215946
0.794827 0.377523 0.219913
0.795026 0.383871 0.222995
0.795743 0.388846 0.224643
0.0817731 0.384619 0.183795
0.0807813 0.383658 0.179034
0.0804456 0.383215 0.174746
0.0802014 0.382849 0.170932
0.0798505 0.381857 0.165911
0.0800183 0.381125 0.162356
0.0795911 0.379309 0.154971
0.0783093 0.376471 0.14464
0.0787671 0.371878 0.1346
0.079118 0.365194 0.120897
0.104051 0.374121 0.122805
0.166567 0.386099 0.13106
0.238437 0.396735 0.117998
0.327901 0.403159 0.0920424
0.447227 0.392294 0.059144
0.524819 0.386435 0.100282
0.608804 0.384314 0.14406
0.677333 0.389075 0.179782
0.732189 0.397787 0.20856
0.78349 0.407019 0.23003
0.794675 0.415366 0.239139
0.794629 0.415274 0.239017
0.794842 0.416037 0.239506
0.795316 0.417288 0.24007
0.795148 0.418708 0.240452
0.795087 0.420371 0.240955
0.794675 0.421897 0.241215
0.795102 0.423499 0.242527
0.795346 0.425437 0.243641
0.795346 0.430121 0.246174
0.795529 0.436088 0.24889
0.796002 0.441505 0.251408
0.796094 0.446372 0.253376
0.107408 0.465095 0.242969
0.106645 0.464881 0.239704
0.10602 0.463905 0.235309
0.104601 0.462409 0.23064
0.104143 0.461982 0.226749
0.103426 0.460761 0.222049
0.102525 0.459342 0.215457
0.102129 0.457786 0.20621
0.100984 0.454475 0.191821
0.101564 0.448264 0.175341
0.105669 0.44332 0.156405
0.147372 0.453498 0.16199
0.233722 0.461738 0.170184
0.3122 0.473167 0.141146
0.407874 0.478492 0.112581
0.517021 0.465293 0.0808423
0.596368 0.460334 0.117189
0.678614 0.455833 0.179141
0.745632 0.461234 0.219303
0.781506 0.474739 0.241108
0.801236 0.484855 0.257465
0.801297 0.486534 0.257618
0.801328 0.487205 0.257496
0.802014 0.488823 0.258061
0.802609 0.490913 0.258625
0.802808 0.493172 0.258762
0.802823 0.495262 0.258686
0.803159 0.496925 0.259281
0.803235 0.498268 0.259388
0.803265 0.498527 0.259403
0.80322 0.496803 0.259205
0.80441 0.501198 0.260227
0.804929 0.504326 0.260395
0.142428 0.547051 0.309758
0.141421 0.546242 0.305745
0.140841 0.545464 0.30193
0.139971 0.544869 0.298405
0.138857 0.54342 0.293645
0.137545 0.542428 0.288533
0.136065 0.541115 0.282032
0.13463 0.538994 0.27303
0.133074 0.537331 0.259251
0.131579 0.532052 0.239887
0.131609 0.524224 0.219532
0.145357 0.521248 0.204761
0.219745 0.530632 0.211109
0.30695 0.538231 0.215839
0.387884 0.548562 0.175616
0.482551 0.553185 0.142321
0.584894 0.538766 0.10985
0.666285 0.533593 0.14287
0.740734 0.529107 0.217166
0.793576 0.538674 0.256962
0.812894 0.553994 0.272587
0.81416 0.561593 0.276677
0.814267 0.562478 0.277028
0.814786 0.564614 0.277989
0.814923 0.566171 0.278584
0.815518 0.568689 0.279408
0.816144 0.570871 0.279957
0.816602 0.572595 0.280598
0.8168 0.573205 0.280827
0.81677 0.572839 0.280583
0.816373 0.570657 0.279683
0.8159 0.567422 0.278737
0.815915 0.565087 0.277424
0.190494 0.630533 0.377829
0.189776 0.630365 0.374914
0.188724 0.629725 0.371328
0.187198 0.628504 0.367361
0.185534 0.627405 0.363348
0.183764 0.626093 0.358373
0.182696 0.624475 0.352209
0.181277 0.623072 0.344015
0.178103 0.620905 0.331807
0.173861 0.618204 0.313268
0.17258 0.611353 0.289464
0.172671 0.601663 0.263264
0.212894 0.601709 0.255344
0.299779 0.610864 0.264408
0.379614 0.617334 0.261341
0.460197 0.625574 0.2215
0.547326 0.630442 0.193072
0.64715 0.616373 0.153201
0.731014 0.610681 0.173373
0.789181 0.61326 0.242939
0.825284 0.62089 0.297475
0.83064 0.635096 0.312505
0.830671 0.637964 0.314305
0.831357 0.640177 0.314763
0.832349 0.643442 0.315602
0.832883 0.645579 0.316487
0.832944 0.646555 0.316335
0.833219 0.64744 0.316365
0.833417 0.648356 0.316381
0.833432 0.648234 0.316304
0.833097 0.646021 0.315892
0.831846 0.639933 0.314
0.829892 0.630854 0.310811
0.244099 0.714122 0.446647
0.243 0.713146 0.443229
0.241596 0.711711 0.439857
0.240558 0.710979 0.436072
0.239704 0.710338 0.432807
0.238773 0.709545 0.428626
0.237247 0.708598 0.423346
0.235096 0.706218 0.415671
0.232654 0.703792 0.40528
0.227344 0.702296 0.388495
0.224704 0.697749 0.366079
0.224414 0.688746 0.339513
0.232547 0.680568 0.31252
0.301427 0.684733 0.313817
0.385702 0.690501 0.324697
0.453117 0.695613 0.312154
0.532235 0.702785 0.274556
0.607416 0.708888 0.255024
0.702617 0.697169 0.221775
0.783215 0.692103 0.215167
0.825757 0.699367 0.276432
0.844739 0.709682 0.321691
0.84564 0.716838 0.33637
0.846067 0.718547 0.337163
0.846494 0.719615 0.337926
0.846433 0.720836 0.337896
0.846815 0.722286 0.338293
0.847074 0.723156 0.338659
0.84712 0.723354 0.338766
0.846754 0.722011 0.338125
0.846677 0.71928 0.337545
0.845731 0.715312 0.335821
0.844648 0.706188 0.332586
0.300389 0.784054 0.510353
0.299474 0.783352 0.507561
0.297978 0.782681 0.504341
0.296391 0.781796 0.500954
0.295277 0.78114 0.497475
0.29398 0.78024 0.494011
0.292653 0.779278 0.489342
0.291966 0.7785 0.484321
0.290425 0.776532 0.475959
0.287465 0.773754 0.462501
0.280751 0.770855 0.442725
0.28072 0.763943 0.417334
0.285573 0.756451 0.389654
0.319738 0.753491 0.374426
0.40235 0.757778 0.38294
0.470893 0.759503 0.390707
0.531945 0.766262 0.371115
0.603113 0.773098 0.345693
0.671016 0.777783 0.334966
0.754879 0.77055 0.311955
0.815793 0.765286 0.310292
0.849577 0.771252 0.333837
0.855024 0.777615 0.362997
0.854841 0.779034 0.36669
0.854917 0.779553 0.367254
0.855207 0.780926 0.368032
0.855238 0.781415 0.368139
0.855482 0.781872 0.368414
0.855299 0.781353 0.367788
0.855268 0.78027 0.367224
0.855268 0.778408 0.365316
0.855222 0.774258 0.362814
0.854383 0.767666 0.358129
0.346273 0.82533 0.55816
0.345388 0.824842 0.555749
0.344686 0.824506 0.552895
0.344121 0.824247 0.551003
0.343557 0.823972 0.549004
0.343145 0.823682 0.545785
0.342916 0.823087 0.542687
0.342489 0.822019 0.538231
0.341131 0.820447 0.531441
0.340002 0.818082 0.521798
0.339605 0.815747 0.509224
0.335256 0.811475 0.48719
0.347173 0.808087 0.469184
0.368414 0.804608 0.448631
0.43154 0.805554 0.450919
0.495445 0.807752 0.457237
0.554406 0.811063 0.459998
0.611902 0.818311 0.439857
0.671366 0.823087 0.427497
0.731701 0.825269 0.424094
0.795102 0.823331 0.419471
0.831479 0.818173 0.416938
0.847135 0.821561 0.431037
0.847044 0.824613 0.440497
0.846876 0.825162 0.442557
0.846723 0.825483 0.443839
0.846738 0.825711 0.444175
0.846784 0.825818 0.444266
0.846876 0.825422 0.443168
0.847272 0.824598 0.440375
0.847898 0.822507 0.436286
0.848081 0.819989 0.430045
0.849638 0.815686 0.418097
0.363027 0.835828 0.577523
0.362875 0.835584 0.57583
0.362417 0.835279 0.57438
0.36199 0.835065 0.573053
0.361944 0.834852 0.570764
0.362036 0.83447 0.568475
0.362066 0.833829 0.566171
0.362753 0.832883 0.561837
0.36376 0.831662 0.557076
0.36463 0.830243 0.549783
0.36611 0.828305 0.538857
0.370382 0.826352 0.525582
0.38233 0.824903 0.512016
0.416159 0.824903 0.508736
0.462959 0.826322 0.50692
0.524071 0.828885 0.514855
0.57557 0.832593 0.524758
0.627085 0.839612 0.522774
0.684184 0.847868 0.508873
0.735073 0.850355 0.505623
0.782177 0.853544 0.507881
0.819806 0.852201 0.503655
0.83949 0.850584 0.502052
0.841077 0.853254 0.513436
0.841108 0.853651 0.515663
0.841154 0.853849 0.516335
0.841154 0.853849 0.516121
0.841154 0.853742 0.515526
0.841138 0.853559 0.514824
0.841138 0.853376 0.513848
0.841108 0.85304 0.512551
0.840681 0.85211 0.509133
0.840955 0.848722 0.500648
0.362631 0.836316 0.581827
0.36286 0.83621 0.580591
0.362844 0.836042 0.578653
0.362783 0.835874 0.576791
0.362493 0.835538 0.575235
0.36228 0.83505 0.573388
0.362417 0.834485 0.570016
0.362692 0.833494 0.566339
0.363928 0.832013 0.560296
0.365255 0.830442 0.552575
0.366461 0.828367 0.542229
0.370504 0.826413 0.528054
0.382193 0.82475 0.514107
0.418372 0.825391 0.514427
0.470192 0.82797 0.521324
0.528908 0.830793 0.530785
0.58146 0.834058 0.541833
0.631205 0.84094 0.545693
0.686885 0.850172 0.533883
0.740948 0.853498 0.528283
0.785779 0.857252 0.530678
0.813275 0.859266 0.535546
0.8365 0.860075 0.533639
0.840864 0.861265 0.543328
0.841291 0.861723 0.544656
0.841306 0.861708 0.544533
0.841306 0.861708 0.54435
0.841321 0.861708 0.544121
0.841306 0.861692 0.543816
0.841321 0.861677 0.543511
0.841321 0.861662 0.543221
0.841291 0.861219 0.542077
0.84097 0.859861 0.536339
0.362753 0.836698 0.583932
0.362524 0.836622 0.582971
0.362234 0.836515 0.581735
0.362249 0.836469 0.580163
0.362295 0.836286 0.578073
0.362295 0.83595 0.575921
0.362081 0.835142 0.573404
0.362417 0.834211 0.568566
0.363516 0.832624 0.563012
0.364675 0.8309 0.555138
0.366064 0.828687 0.543847
0.36997 0.826581 0.52929
0.380255 0.82501 0.514626
0.416358 0.825223 0.514
0.468132 0.827924 0.521004
0.525811 0.830655 0.530098
0.578256 0.833951 0.541176
0.628092 0.839963 0.545419
0.68336 0.849821 0.53431
0.736171 0.853376 0.527733
0.780941 0.856855 0.529671
0.810666 0.858763 0.533242
0.834073 0.859892 0.533211
0.84036 0.860929 0.541238
0.84123 0.861555 0.544091
0.841306 0.861708 0.544533
0.841306 0.861708 0.54435
0.841306 0.861708 0.544121
0.841321 0.861692 0.543801
0.841321 0.861677 0.543481
0.841321 0.861662 0.543206
0.841337 0.861662 0.542977
0.841337 0.861662 0.542779
0.362615 0.836912 0.586404
0.362493 0.836881 0.584634
0.362234 0.836851 0.583337
0.361883 0.836805 0.582162
0.361624 0.836698 0.580743
0.362051 0.836408 0.578042
0.362112 0.835782 0.575311
0.362264 0.834699 0.570916
0.362936 0.833173 0.565255
0.36437 0.831327 0.557015
0.365866 0.828946 0.54548
0.369268 0.826749 0.530343
0.378531 0.825193 0.515129
0.414694 0.825193 0.513787
0.465797 0.827634 0.520394
0.52314 0.830686 0.529854
0.575616 0.833997 0.540719
0.62591 0.839841 0.545647
0.679942 0.849454 0.534386
0.733852 0.853361 0.527092
0.778561 0.856489 0.528191
0.808316 0.858763 0.531472
0.832044 0.86038 0.531853
0.840284 0.860563 0.537133
0.84123 0.861433 0.542718
0.841321 0.861692 0.543664
0.841321 0.861677 0.543511
0.841321 0.861662 0.543206
0.841337 0.861662 0.542748
0.841337 0.861646 0.542443
0.841352 0.861646 0.542306
0.841337 0.861631 0.542229
0.841337 0.861631 0.542229
0.36228 0.837186 0.588083
0.361944 0.837201 0.586358
0.361929 0.83714 0.584604
0.361791 0.837034 0.583429
0.361593 0.836927 0.582147
0.36144 0.836744 0.580026
0.36202 0.83621 0.576501
0.361898 0.835081 0.572778
0.362585 0.83357 0.56643
0.364157 0.831571 0.558343
0.36582 0.829221 0.547051
0.368673 0.826886 0.531167
0.377127 0.825116 0.514961
0.413733 0.825177 0.51368
0.464332 0.827466 0.519997
0.521538 0.830579 0.529549
0.574182 0.833951 0.540169
0.624292 0.839826 0.546075
0.677821 0.849195 0.534722
0.731807 0.853361 0.527062
0.775296 0.856413 0.527626
0.805997 0.859251 0.530388
0.829282 0.860136 0.531228
0.839826 0.860349 0.534569
0.841245 0.861357 0.541558
0.841337 0.861631 0.542443
0.841337 0.861646 0.542336
0.841337 0.861631 0.542153
0.841337 0.861616 0.541863
0.841367 0.861616 0.541543
0.841352 0.861616 0.54136
0.841352 0.861616 0.541344
0.841352 0.861616 0.541497
0.360739 0.83772 0.588907
0.361105 0.837568 0.587289
0.36141 0.837415 0.585794
0.361578 0.837263 0.584176
0.361501 0.837095 0.583215
0.361364 0.836851 0.581491
0.361761 0.836454 0.577691
0.361822 0.835355 0.573709
0.362341 0.833951 0.567254
0.363943 0.8318 0.559045
0.365591 0.829465 0.548135
0.368215 0.827039 0.532097
0.375601 0.825071 0.514672
0.412207 0.825208 0.513573
0.462242 0.827222 0.519493
0.519219 0.830488 0.529152
0.572931 0.833829 0.539513
0.622675 0.839521 0.545937
0.675914 0.84892 0.534981
0.729488 0.853376 0.527077
0.773053 0.856367 0.527382
0.804334 0.859586 0.529992
0.827527 0.8598 0.531411
0.839689 0.860243 0.533471
0.841215 0.861265 0.540887
0.841352 0.861646 0.542321
0.841352 0.861631 0.542214
0.841337 0.861631 0.542016
0.841352 0.861616 0.541665
0.841352 0.861616 0.54139
0.841367 0.861616 0.541207
0.841367 0.861616 0.541207
0.841352 0.861616 0.541329
0.360189 0.837934 0.589517
0.361028 0.83769 0.588235
0.361059 0.837583 0.586572
0.361303 0.83743 0.585016
0.361395 0.837263 0.583627
0.361288 0.837018 0.58204
0.361654 0.836637 0.578531
0.36173 0.83566 0.57435
0.362264 0.834195 0.567864
0.363745 0.832013 0.559564
0.365347 0.829725 0.54905
0.367834 0.827161 0.532967
0.374594 0.825086 0.514763
0.410285 0.825086 0.513252
0.459892 0.827207 0.519219
0.517082 0.830289 0.528664
0.570138 0.833829 0.538964
0.621302 0.839124 0.545983
0.672908 0.848737 0.53547
