bundles/resolve-cinematic-luts/Phantom Luts/P4k & P6K Phntm Film LUTs - V6/P6k/Gen 5 Colour/P6k EastmanRM Gen5.cube
TITLE "Generated by Resolve"
LUT_3D_SIZE 33
0.0426184 0.0361486 0.0394293
0.042771 0.0359808 0.0392004
0.0430915 0.0356451 0.0386358
0.0449989 0.0349889 0.0377813
0.0502022 0.0341955 0.0368353
0.059556 0.032929 0.0360876
0.0742504 0.0317998 0.035462
0.0956283 0.031281 0.0352789
0.120455 0.0308995 0.0353399
0.147723 0.0310369 0.0362097
0.182422 0.0307927 0.0371252
0.224231 0.0304875 0.038529
0.277592 0.0298772 0.0400854
0.336934 0.0289921 0.0415198
0.391943 0.0299229 0.0443122
0.442893 0.0298314 0.0479133
0.488106 0.0307622 0.0531167
0.526635 0.0331426 0.0594797
0.558587 0.0369573 0.0678111
0.585245 0.0433509 0.0779431
0.611261 0.0539559 0.0892805
0.634363 0.0661631 0.0998703
0.645212 0.073167 0.105791
0.647166 0.074464 0.107469
0.648829 0.0757153 0.109117
0.650339 0.0765545 0.110872
0.65156 0.0772717 0.112032
0.652567 0.0778821 0.112795
0.651377 0.0786297 0.114885
0.646601 0.0798505 0.120256
0.639536 0.0815595 0.127108
0.626657 0.0840009 0.139452
0.612741 0.0871748 0.152346
0.043061 0.0356756 0.0386969
0.0429236 0.0358434 0.0389563
0.0430915 0.0356451 0.0386358
0.04448 0.0351873 0.0377813
0.0484321 0.0345922 0.0370031
0.0552529 0.0337835 0.0365606
0.0664988 0.0328222 0.0362249
0.0879835 0.0318151 0.0358129
0.115312 0.031342 0.0357061
0.144076 0.0311894 0.0361486
0.178485 0.0311894 0.0373388
0.220752 0.0310216 0.0391394
0.27744 0.0301671 0.0402838
0.341558 0.0288853 0.0411078
0.398352 0.0296483 0.0433051
0.448631 0.029572 0.0466468
0.493309 0.0307774 0.0519875
0.530007 0.0331579 0.0588235
0.560464 0.037232 0.0671244
0.586725 0.0438697 0.0774243
0.613306 0.0550851 0.0889296
0.63447 0.0668803 0.0982223
0.644221 0.0731212 0.103532
0.645655 0.0738842 0.104921
0.647227 0.0749523 0.106371
0.648737 0.076051 0.107713
0.649912 0.0767834 0.108812
0.650782 0.0772869 0.109682
0.649577 0.0780652 0.111986
0.644846 0.0794385 0.117189
0.637873 0.0810864 0.12372
0.625132 0.0835431 0.136461
0.611353 0.0867323 0.149172
0.043061 0.0356603 0.0386816
0.0429236 0.0358282 0.038941
0.0430915 0.0356451 0.0386358
0.0440681 0.0352483 0.0377813
0.0467689 0.0350347 0.0370184
0.0517739 0.0348058 0.0368048
0.0609903 0.0340124 0.0367437
0.0783856 0.0329747 0.0365148
0.108125 0.0322271 0.0361944
0.140551 0.0319219 0.0364538
0.177523 0.0317388 0.0373083
0.219837 0.0317388 0.0393835
0.277958 0.03093 0.0411078
0.342489 0.029633 0.0419013
0.402029 0.0300145 0.0435035
0.454261 0.0297246 0.0460517
0.498253 0.0308232 0.0510567
0.533486 0.0331884 0.0580301
0.563088 0.037644 0.0666361
0.588449 0.0448157 0.0772106
0.615518 0.0567788 0.0884565
0.634607 0.0675364 0.0965591
0.643229 0.0731365 0.101045
0.644404 0.073579 0.102083
0.645853 0.074464 0.103746
0.647044 0.075349 0.104891
0.648096 0.0760204 0.105959
0.648966 0.0765545 0.106722
0.647898 0.0772869 0.108751
0.642985 0.0786908 0.114168
0.636057 0.080293 0.120775
0.623056 0.082826 0.133135
0.609354 0.0860304 0.145815
0.0435798 0.0382086 0.0397955
0.0432593 0.0383764 0.0401312
0.0432288 0.038117 0.0400854
0.0436103 0.0375525 0.0395209
0.0456245 0.0379187 0.0391394
0.0501717 0.0375219 0.0383154
0.0589609 0.0366369 0.0375982
0.0754864 0.0354925 0.0373693
0.102754 0.034226 0.0372778
0.136965 0.0330205 0.0370642
0.176516 0.0327153 0.0376898
0.22237 0.0325475 0.0394293
0.281758 0.0315099 0.0415351
0.345296 0.0305486 0.0424964
0.403098 0.0308232 0.0442817
0.455436 0.0306249 0.0476692
0.499489 0.031281 0.0517739
0.534569 0.033875 0.0586557
0.563684 0.038529 0.067689
0.587777 0.0459449 0.0776837
0.61532 0.0584726 0.0891585
0.632654 0.0682994 0.0965438
0.63978 0.0730755 0.100206
0.641108 0.073991 0.101946
0.641962 0.074464 0.103029
0.643015 0.0753338 0.10428
0.643946 0.0760204 0.105409
0.644266 0.0766155 0.106615
0.643748 0.0772259 0.108003
0.640192 0.0783093 0.112337
0.633844 0.0798047 0.118135
0.62121 0.0822614 0.129793
0.60737 0.0851759 0.14255
0.0445411 0.0455482 0.0416571
0.0439307 0.0457618 0.0420691
0.0437934 0.0454261 0.0421149
0.0442054 0.0447547 0.0421149
0.0454719 0.0453651 0.0418555
0.0494698 0.0461433 0.0417639
0.0591592 0.0454414 0.04094
0.078645 0.0436561 0.0399023
0.108766 0.0418708 0.0395972
0.142092 0.038819 0.0392767
0.181979 0.0360876 0.0391394
0.227924 0.0345769 0.0403296
0.290044 0.0323186 0.0413367
0.350896 0.0311131 0.0425116
0.407034 0.0314488 0.0447242
0.45774 0.0314183 0.0487373
0.50045 0.0323186 0.053727
0.53489 0.0349584 0.060853
0.562173 0.0400702 0.0694896
0.586511 0.0475624 0.0792096
0.614038 0.0605783 0.0904555
0.629191 0.0691386 0.0969406
0.63415 0.0727398 0.0998856
0.636179 0.0741283 0.101869
0.637522 0.0749218 0.103075
0.638544 0.0752728 0.104036
0.639521 0.0759594 0.105135
0.640101 0.0765545 0.106142
0.640208 0.0770733 0.106737
0.637324 0.0780041 0.110048
0.631968 0.0793774 0.115129
0.619303 0.0819715 0.126619
0.605447 0.0846113 0.139055
0.0455329 0.0558022 0.0435187
0.0446174 0.0563668 0.0439307
0.044419 0.0558328 0.0436561
0.0447547 0.0550393 0.043534
0.046067 0.0551766 0.0437781
0.0491493 0.0565347 0.043534
0.0587015 0.0573281 0.0439307
0.0794995 0.0558022 0.0433967
0.110567 0.0537118 0.0426642
0.145678 0.0514534 0.0429084
0.186313 0.0471962 0.042771
0.240208 0.0414588 0.0421912
0.304402 0.0358434 0.0420081
0.362127 0.0333715 0.0428016
0.415229 0.0322881 0.0450446
0.462257 0.0320134 0.0489357
0.50367 0.0331273 0.0543069
0.537087 0.0360266 0.061738
0.5635 0.0417029 0.070634
0.587732 0.0499123 0.0804608
0.613672 0.0619364 0.0900435
0.629725 0.0719463 0.0966506
0.631495 0.0731975 0.0979324
0.632471 0.0737316 0.0991836
0.633494 0.0745403 0.100206
0.634714 0.075288 0.101274
0.635401 0.0755627 0.10193
0.635813 0.0757 0.102342
0.636332 0.0759289 0.102785
0.633982 0.0766918 0.105501
0.629023 0.0779431 0.110323
0.61622 0.0806897 0.121111
0.602533 0.0832074 0.133776
0.0469673 0.0728466 0.0465248
0.0458991 0.0737621 0.0467842
0.0454414 0.0733959 0.0463722
0.0460059 0.0725109 0.0456703
0.0481575 0.0717937 0.0451972
0.0531472 0.0726177 0.0449683
0.0641642 0.0742657 0.0440375
0.0898909 0.0732433 0.0437324
0.125277 0.0708934 0.0446784
0.159487 0.069276 0.044358
0.198657 0.0671702 0.0452735
0.253391 0.0618448 0.0462959
0.323217 0.0492103 0.044358
0.381796 0.040528 0.0451057
0.429908 0.035584 0.0456703
0.472419 0.0336767 0.0493324
0.509255 0.0342107 0.0547646
0.541131 0.0375525 0.0624704
0.566918 0.0432441 0.0712139
0.59202 0.0527657 0.0809033
0.618494 0.0668956 0.090837
0.642359 0.0825971 0.101167
0.642573 0.0825208 0.101366
0.642847 0.0826581 0.101701
0.64303 0.0827192 0.102007
0.643122 0.0827192 0.10219
0.64329 0.0827344 0.102388
0.643534 0.0827955 0.102602
0.643763 0.082887 0.102739
0.642252 0.0833143 0.104601
0.638834 0.0841382 0.107378
0.630915 0.0863203 0.114473
0.622095 0.0884718 0.121981
0.0534981 0.0921035 0.0484474
0.0501869 0.0941482 0.0485847
0.0480354 0.0952316 0.0492409
0.0479591 0.0950637 0.0484932
0.0494392 0.0944991 0.0476997
0.0547646 0.0942092 0.0472419
0.0659342 0.0961166 0.047837
0.0868544 0.0982528 0.0468147
0.121462 0.0970779 0.0475013
0.16527 0.0935073 0.0496376
0.207965 0.0903639 0.0497139
0.264256 0.0831311 0.049424
0.328313 0.0747234 0.0500801
0.391409 0.0638285 0.0505989
0.447608 0.0494392 0.0492714
0.490455 0.0425116 0.0520027
0.523827 0.040528 0.0564736
0.551278 0.042237 0.0634775
0.573602 0.0470588 0.071809
0.59942 0.0580148 0.0819257
0.631235 0.0772717 0.0953536
0.658366 0.0956283 0.107927
0.658869 0.096025 0.108064
0.659388 0.0964218 0.108232
0.659892 0.0968185 0.108354
0.660487 0.0972 0.108629
0.661082 0.0975814 0.108888
0.661448 0.0978103 0.108995
0.661723 0.0979629 0.109071
0.660334 0.0984054 0.111055
0.656855 0.0994125 0.114137
0.649287 0.101457 0.121523
0.640513 0.103929 0.129427
0.0580453 0.115648 0.0536049
0.0543679 0.117769 0.0541085
0.0513924 0.119631 0.0542611
0.0508583 0.119188 0.0530709
0.0516365 0.118502 0.0511025
0.0565042 0.11809 0.0500649
0.0682536 0.119066 0.0502785
0.0888838 0.12282 0.0522316
0.114855 0.125978 0.0511482
0.15906 0.124056 0.0526436
0.21529 0.118883 0.0550698
0.279835 0.111498 0.0537575
0.345922 0.103151 0.0537118
0.404273 0.0977493 0.0557107
0.46183 0.0911116 0.0587167
0.512474 0.0827192 0.0621653
0.552193 0.069688 0.0635233
0.582681 0.0670176 0.0707866
0.605158 0.0710307 0.0792859
0.629343 0.0823682 0.0910964
0.659098 0.0998398 0.106401
0.686336 0.116869 0.119402
0.684749 0.115846 0.118654
0.682536 0.114122 0.117739
0.681239 0.113542 0.117174
0.682033 0.113939 0.117479
0.682887 0.114305 0.117906
0.683436 0.114839 0.118151
0.684123 0.11548 0.118456
0.683116 0.116457 0.120638
0.680095 0.117968 0.123949
0.672465 0.1205 0.131365
0.664546 0.122988 0.140246
0.0641031 0.14435 0.0620432
0.0591287 0.146471 0.0633555
0.0554513 0.148531 0.0629129
0.054139 0.149493 0.0610666
0.0540017 0.14902 0.0584573
0.0555886 0.148119 0.0561074
0.0631571 0.148638 0.0551003
0.0839246 0.151507 0.0567941
0.115312 0.157427 0.0589456
0.14905 0.162051 0.0572976
0.210132 0.158709 0.0586709
0.29131 0.151873 0.0603342
0.367376 0.142351 0.0617227
0.433646 0.136538 0.0624552
0.490013 0.139193 0.0685283
0.545602 0.13846 0.0767376
0.596872 0.139528 0.0883192
0.641382 0.142687 0.101793
0.674037 0.143252 0.112474
0.701473 0.147738 0.123049
0.727993 0.161074 0.138582
0.741817 0.167758 0.145968
0.733623 0.161135 0.143481
0.726574 0.155749 0.140963
0.724269 0.154238 0.1402
0.724422 0.154543 0.140597
0.725383 0.155352 0.141253
0.726177 0.156146 0.141802
0.727169 0.157458 0.142672
0.727474 0.158984 0.144625
0.726986 0.160571 0.146746
0.722438 0.163333 0.15317
0.716579 0.166751 0.161044
0.0691844 0.179171 0.0719921
0.0630198 0.181888 0.0730907
0.0585184 0.184344 0.0729229
0.056733 0.185687 0.0703288
0.0560006 0.186267 0.0672923
0.0561379 0.185183 0.0632334
0.0578927 0.184176 0.0597848
0.0697948 0.186877 0.0594186
0.102586 0.19408 0.0618601
0.141695 0.205173 0.0640726
0.192386 0.215595 0.0629435
0.291127 0.212894 0.0658579
0.386542 0.209949 0.0703746
0.470344 0.200412 0.0776379
0.535866 0.198062 0.0816968
0.586023 0.201907 0.0889448
0.642588 0.204196 0.101717
0.694347 0.210391 0.119341
0.73637 0.220264 0.139406
0.766552 0.232502 0.15845
0.790814 0.246189 0.176135
0.800534 0.251545 0.184192
0.79823 0.247745 0.184253
0.795285 0.243946 0.183627
0.793469 0.241428 0.183474
0.792432 0.240223 0.183337
0.792203 0.240131 0.183536
0.792172 0.240635 0.183597
0.792798 0.241642 0.184085
0.793164 0.243244 0.184497
0.793637 0.245319 0.18558
0.790829 0.248569 0.190112
0.785412 0.252918 0.197391
0.0670939 0.226947 0.0770275
0.0608988 0.230228 0.0784161
0.0563058 0.232517 0.0778058
0.0543832 0.234241 0.075227
0.0537118 0.235615 0.0724346
0.0536355 0.235904 0.0670024
0.0536355 0.233646 0.0607462
0.056672 0.233204 0.0567636
0.0763561 0.241794 0.0573739
0.124193 0.258762 0.0638743
0.183551 0.280674 0.070161
0.265446 0.297749 0.0688945
0.386694 0.295399 0.073167
0.486778 0.293767 0.0787823
0.566873 0.282277 0.0883345
0.63209 0.27808 0.0985122
0.67808 0.28278 0.104814
0.726635 0.281895 0.119799
0.770382 0.291661 0.140108
0.800839 0.304631 0.162936
0.82359 0.320516 0.186496
0.833387 0.327352 0.197238
0.834119 0.326741 0.19884
0.832959 0.324804 0.198184
0.831937 0.323323 0.197513
0.831724 0.322896 0.197543
0.831754 0.323156 0.197559
0.832303 0.324254 0.197848
0.833204 0.325689 0.198428
0.83389 0.327382 0.198779
0.834424 0.329564 0.198962
0.8318 0.332525 0.202564
0.826139 0.336049 0.209842
0.0655375 0.290471 0.0827955
0.0595407 0.293828 0.0859693
0.0554208 0.296864 0.087602
0.0536507 0.299107 0.0858778
0.0528573 0.300526 0.0823682
0.0527504 0.301228 0.0766461
0.052903 0.300633 0.0682078
0.0540169 0.297551 0.0597696
0.0609751 0.298863 0.0547341
0.0945449 0.312474 0.0562448
0.155642 0.335805 0.0635538
0.251316 0.367651 0.0722515
0.355596 0.387472 0.0706951
0.47921 0.384131 0.0779583
0.572427 0.382376 0.089189
0.647654 0.368277 0.0984207
0.70985 0.35845 0.114656
0.752514 0.362539 0.124727
0.791119 0.368109 0.143313
0.821134 0.37464 0.1673
0.842542 0.388418 0.192691
0.852216 0.396414 0.206088
0.854231 0.397986 0.209033
0.854002 0.397665 0.20882
0.853956 0.397818 0.208728
0.854292 0.398474 0.208972
0.854551 0.399649 0.209155
0.85481 0.401053 0.209277
0.855116 0.403067 0.209522
0.855207 0.404776 0.209506
0.855695 0.406882 0.209888
0.853178 0.410117 0.214298
0.847288 0.414267 0.222538
0.0615244 0.357351 0.0870069
0.056733 0.360021 0.0902724
0.053254 0.362753 0.092546
0.0517586 0.365103 0.0926223
0.050721 0.367178 0.0906844
0.0502937 0.368215 0.0852064
0.0501259 0.368383 0.0773327
0.0508125 0.367239 0.0663005
0.0525063 0.363638 0.0561837
0.0640269 0.367819 0.0506905
0.109545 0.384924 0.0520333
0.203006 0.415656 0.0617075
0.340581 0.458 0.0758984
0.445975 0.476204 0.0768902
0.558343 0.471336 0.090837
0.644144 0.469978 0.109895
0.712383 0.457527 0.123095
0.766644 0.443351 0.138918
0.805554 0.44329 0.161181
0.832776 0.451484 0.182666
0.853544 0.460288 0.207599
0.864378 0.468177 0.222705
0.866468 0.469673 0.225971
0.866438 0.469718 0.225895
0.866316 0.470161 0.225849
0.866545 0.471122 0.2262
0.866728 0.472602 0.226505
0.866697 0.474159 0.226688
0.867475 0.476204 0.227604
0.867369 0.478019 0.227939
0.867399 0.480003 0.228595
0.864912 0.483192 0.233509
0.859602 0.486915 0.242771
0.057023 0.423713 0.0948043
0.0535439 0.426764 0.100954
0.0509651 0.42977 0.106035
0.0500191 0.431724 0.106172
0.0492103 0.433631 0.105379
0.049073 0.434653 0.099794
0.0491798 0.435203 0.0907454
0.049485 0.434882 0.078706
0.0505837 0.432883 0.0653544
0.0531777 0.429587 0.0537423
0.0717784 0.436698 0.0490425
0.143526 0.45658 0.0529793
0.288167 0.502129 0.0734417
0.435645 0.543999 0.0937057
0.530022 0.558038 0.0966049
0.627024 0.552132 0.116381
0.70489 0.550362 0.142031
0.763882 0.541466 0.164691
0.80708 0.528832 0.184024
0.83917 0.5243 0.207767
0.858869 0.534752 0.225727
0.87361 0.540459 0.246555
0.875547 0.541222 0.249836
0.875792 0.541894 0.25008
0.876402 0.543008 0.250736
0.876524 0.544549 0.251011
0.876692 0.546487 0.25127
0.87686 0.548348 0.251575
0.877394 0.550607 0.252293
0.877745 0.553063 0.253147
0.878264 0.555596 0.254017
0.875761 0.55874 0.258854
0.870726 0.562737 0.268116
0.0610971 0.489632 0.129625
0.0572824 0.493095 0.138125
0.0551156 0.496498 0.145846
0.0540475 0.498756 0.147723
0.0532387 0.500633 0.146853
0.0531777 0.50193 0.142016
0.0535134 0.502464 0.132799
0.0541085 0.502159 0.117327
0.0554208 0.50074 0.0969406
0.0585184 0.497276 0.0775158
0.0647288 0.49456 0.0617075
0.105852 0.50425 0.0571908
0.227176 0.53164 0.0688334
0.399374 0.591287 0.107668
0.524407 0.620676 0.12491
0.603738 0.631983 0.131594
0.686503 0.625788 0.153399
0.757641 0.624109 0.192966
0.806775 0.619303 0.229892
0.840711 0.612894 0.256275
0.863737 0.611109 0.275349
0.87718 0.623682 0.288212
0.882277 0.626993 0.293965
0.883238 0.628305 0.295201
0.883497 0.629648 0.296117
0.883619 0.631189 0.297642
0.88397 0.632486 0.299611
0.884092 0.634394 0.301137
0.884474 0.636881 0.302678
0.884993 0.639246 0.305013
0.885557 0.64123 0.307546
0.884398 0.643915 0.311315
0.882918 0.647288 0.318593
0.0754559 0.555093 0.195056
0.0728008 0.558404 0.202487
0.0699931 0.56173 0.210376
0.0684672 0.564141 0.21416
0.0674754 0.566033 0.215366
0.0674144 0.567163 0.211246
0.0677806 0.567346 0.203128
0.0681163 0.56669 0.189151
0.0699474 0.56466 0.167437
0.0739147 0.561349 0.1364
0.0817121 0.556497 0.104555
0.103883 0.555306 0.0822003
0.189456 0.568215 0.0792401
0.342245 0.612802 0.113573
0.50161 0.669215 0.155978
0.604257 0.691157 0.172015
0.669734 0.700282 0.183612
0.738811 0.693736 0.211124
0.802441 0.691081 0.259052
0.843671 0.691096 0.299947
0.870375 0.690791 0.331044
0.887907 0.692332 0.35256
0.896712 0.700282 0.364416
0.897642 0.701579 0.364858
0.898207 0.702983 0.3664
0.898665 0.704845 0.368444
0.899001 0.706508 0.370062
0.899245 0.708247 0.371893
0.899992 0.710262 0.374121
0.900465 0.712306 0.376806
0.900771 0.714549 0.378775
0.900969 0.716823 0.38143
0.901106 0.719051 0.385489
0.107424 0.614832 0.268635
0.105898 0.617777 0.274281
0.103334 0.621057 0.282078
0.101762 0.623682 0.287266
0.100633 0.625498 0.289219
0.101122 0.626245 0.286534
0.102388 0.625864 0.27953
0.103334 0.624399 0.267674
0.104982 0.621958 0.249638
0.108461 0.616968 0.220737
0.117494 0.610651 0.183215
0.132815 0.604028 0.143969
0.188022 0.607752 0.12018
0.306905 0.635233 0.134234
0.456367 0.691218 0.188495
0.586282 0.735775 0.226413
0.674037 0.753887 0.243091
0.727657 0.762432 0.258488
0.785611 0.756619 0.284779
0.839429 0.754025 0.327932
0.874296 0.756374 0.366964
0.897231 0.760037 0.401724
0.909499 0.762875 0.428641
0.911238 0.766049 0.435767
0.911452 0.767514 0.43769
0.911559 0.769192 0.438819
0.911772 0.770764 0.440391
0.911894 0.772 0.441794
0.912505 0.773419 0.444007
0.913054 0.775097 0.446067
0.913161 0.77673 0.447517
0.913207 0.778347 0.448859
0.913664 0.779751 0.450721
0.157824 0.664805 0.332998
0.15758 0.666438 0.337346
0.154726 0.669139 0.344854
0.153887 0.671382 0.350149
0.153384 0.67303 0.352941
0.153964 0.673228 0.350607
0.154467 0.672709 0.345022
0.155428 0.67126 0.334997
0.157015 0.668345 0.32047
0.159655 0.663539 0.297322
0.165026 0.656168 0.264164
0.176913 0.648417 0.22475
0.205737 0.643656 0.185168
0.29453 0.659525 0.177752
0.422538 0.701427 0.2177
0.550393 0.754879 0.271229
0.658854 0.790356 0.305089
0.732586 0.805997 0.322805
0.777996 0.813535 0.338674
0.823285 0.808927 0.361959
0.865629 0.807218 0.400076
0.895521 0.808667 0.437812
0.912474 0.810712 0.469291
0.918547 0.814084 0.490623
0.918669 0.815213 0.49221
0.918639 0.81648 0.493782
0.918791 0.817899 0.495247
0.918761 0.819242 0.496773
0.918669 0.82063 0.498314
0.918929 0.821988 0.500175
0.919295 0.823331 0.502327
0.918975 0.824445 0.503441
0.918807 0.825742 0.505226
0.210956 0.701122 0.38352
0.209155 0.702586 0.387442
0.206867 0.704997 0.395087
0.20473 0.706966 0.400183
0.203601 0.708156 0.40235
0.203845 0.708125 0.400351
0.20441 0.707393 0.395895
0.205325 0.705821 0.388098
0.205737 0.703731 0.376684
0.207294 0.699641 0.359106
0.209384 0.692729 0.332586
0.219364 0.685664 0.298268
0.239994 0.679637 0.259831
0.295415 0.683452 0.231662
0.404669 0.712032 0.251804
0.517052 0.756756 0.301854
0.630579 0.805127 0.352819
0.721508 0.833539 0.386786
0.780896 0.846723 0.407782
0.815991 0.853544 0.425284
0.85095 0.851148 0.453941
0.881437 0.849744 0.486091
0.904097 0.850614 0.515572
0.915709 0.853819 0.537118
0.91754 0.85536 0.542809
0.917006 0.856123 0.543725
0.916915 0.857374 0.545525
0.916793 0.858793 0.547173
0.916579 0.859998 0.548959
0.916335 0.861021 0.550546
0.916197 0.861875 0.552712
0.916365 0.862821 0.555138
0.91606 0.863966 0.557534
0.252354 0.727993 0.420661
0.250523 0.729183 0.42443
0.247547 0.730938 0.431037
0.244511 0.732311 0.435492
0.243122 0.733074 0.437675
0.24303 0.73283 0.435935
0.243397 0.732174 0.432319
0.244587 0.730861 0.426337
0.245747 0.728557 0.417456
0.245899 0.725628 0.404898
0.247272 0.720699 0.385657
0.256886 0.71516 0.35877
0.278233 0.711711 0.330938
0.320241 0.711406 0.303487
0.403082 0.726085 0.307317
0.499458 0.758038 0.346822
0.599542 0.801434 0.400305
0.698146 0.842832 0.452537
0.773068 0.866804 0.488762
0.815259 0.87715 0.513054
0.843793 0.883238 0.533181
0.869871 0.882506 0.556634
0.8907 0.881636 0.575235
0.904173 0.883253 0.591791
0.908614 0.884855 0.600671
0.908202 0.885847 0.602884
0.907835 0.886931 0.605203
0.907515 0.888014 0.607095
0.907073 0.889097 0.609293
0.906676 0.88986 0.6112
0.906889 0.890013 0.611307
0.907469 0.890028 0.610483
0.908293 0.890013 0.608454
0.283238 0.740703 0.433814
0.281056 0.741421 0.436805
0.276265 0.742824 0.443519
0.272572 0.744015 0.448676
0.270176 0.744732 0.451804
0.269612 0.744442 0.450538
0.269566 0.743496 0.446662
0.270253 0.742 0.440803
0.27155 0.739956 0.432517
0.273213 0.73698 0.421134
0.274846 0.733059 0.405203
0.28368 0.728435 0.382498
0.308278 0.727657 0.363699
0.353536 0.730724 0.351095
0.42359 0.741878 0.355337
0.512886 0.768185 0.390524
0.599344 0.802991 0.438254
0.69015 0.843885 0.49044
0.77174 0.874647 0.534691
0.821256 0.88896 0.56376
0.847623 0.89543 0.58616
0.866072 0.898054 0.603525
0.884978 0.897658 0.617685
0.898146 0.898009 0.63035
0.904128 0.899199 0.63856
0.904219 0.89958 0.639918
0.904219 0.899977 0.641321
0.90396 0.900481 0.643732
0.903258 0.901152 0.647059
0.902007 0.901976 0.651209
0.901427 0.902525 0.653483
0.901625 0.90251 0.653056
0.902571 0.902113 0.650568
0.278569 0.744503 0.449088
0.277607 0.744366 0.448951
0.2748 0.745159 0.45272
0.272358 0.745739 0.455299
0.270085 0.745968 0.456916
0.268971 0.745525 0.45536
0.269093 0.744732 0.451774
0.269581 0.743053 0.445045
0.270939 0.740856 0.436454
0.272679 0.737865 0.424521
0.274739 0.73373 0.407538
0.282261 0.72874 0.384665
0.307897 0.728634 0.366629
0.357244 0.734432 0.36202
0.429908 0.74696 0.373724
0.513954 0.770428 0.406287
0.59971 0.80383 0.453254
0.686305 0.842908 0.503594
0.769818 0.876127 0.54873
0.82327 0.89192 0.579583
0.8477 0.898512 0.602045
0.864057 0.901152 0.620096
0.881117 0.901442 0.634745
0.894224 0.901442 0.645472
0.900877 0.902403 0.652491
0.901518 0.902541 0.6533
0.901503 0.902556 0.653391
0.901183 0.902708 0.654521
0.900725 0.902953 0.656275
0.89984 0.903319 0.658686
0.899489 0.903456 0.659525
0.899748 0.903349 0.658778
0.900587 0.902998 0.656687
0.274739 0.747814 0.460929
0.274861 0.747219 0.459052
0.273854 0.747265 0.459876
0.27216 0.747387 0.460761
0.270222 0.747387 0.461357
0.268986 0.746685 0.459602
0.26862 0.745495 0.455131
0.269505 0.743893 0.448295
0.270481 0.741558 0.43888
0.272312 0.738445 0.426902
0.274632 0.734173 0.409155
0.281758 0.728939 0.385611
0.306416 0.728344 0.366217
0.35819 0.734524 0.361959
0.430213 0.747265 0.374792
0.513497 0.770474 0.408545
0.598444 0.803388 0.455863
0.686305 0.843076 0.506508
0.769741 0.87628 0.550301
0.823011 0.89192 0.580163
0.847852 0.898466 0.602335
0.863447 0.901076 0.620096
0.879835 0.901595 0.63566
0.892454 0.901457 0.646586
0.899199 0.902724 0.654871
0.900572 0.903014 0.656718
0.900587 0.903014 0.656718
0.900282 0.90312 0.657557
0.899672 0.90338 0.659007
0.899046 0.903609 0.661265
0.898665 0.903716 0.66273
0.898665 0.903716 0.662745
0.899031 0.903609 0.661311
0.272435 0.750317 0.469657
0.273335 0.749249 0.465782
0.273289 0.748714 0.464103
0.272175 0.748562 0.464057
0.270314 0.748501 0.46453
0.269032 0.747723 0.462638
0.268467 0.746136 0.45803
0.269276 0.744595 0.451164
0.2701 0.742123 0.441306
0.272068 0.738872 0.428626
0.274556 0.734325 0.409735
0.282155 0.729122 0.385885
0.307805 0.728496 0.366079
0.361166 0.734783 0.36202
0.432502 0.747799 0.375265
0.516716 0.77174 0.411215
0.599496 0.804196 0.458946
0.687907 0.844099 0.510994
0.770321 0.876829 0.554253
0.822507 0.892073 0.582574
0.847608 0.89839 0.603296
0.863584 0.901045 0.619974
0.879591 0.901457 0.635706
0.891829 0.901473 0.64625
0.898939 0.902708 0.654795
0.900526 0.903029 0.656886
0.900526 0.903029 0.656886
0.900236 0.903151 0.657679
0.899626 0.903395 0.659113
0.899031 0.903609 0.661341
0.89865 0.903731 0.66276
0.89839 0.903822 0.66334
0.898589 0.903746 0.662882
0.270588 0.752041 0.475853
0.272053 0.75082 0.471077
0.272709 0.749966 0.468482
0.27219 0.749462 0.466926
0.270359 0.749249 0.466651
0.269093 0.748455 0.464652
0.268528 0.746822 0.460304
0.269032 0.744915 0.452461
0.269871 0.742367 0.442084
0.271931 0.73904 0.429221
0.274571 0.73431 0.409674
0.28336 0.729213 0.385351
0.310246 0.728908 0.365927
0.365545 0.735164 0.36228
0.436652 0.748592 0.376181
0.522835 0.774044 0.414466
0.604868 0.806332 0.462501
0.693751 0.846662 0.515908
0.773297 0.877958 0.558618
0.822003 0.892348 0.587091
0.846723 0.898497 0.606561
0.863432 0.901015 0.622019
0.879484 0.901381 0.636667
0.89189 0.901411 0.646174
0.899031 0.902846 0.655116
0.900526 0.903029 0.656886
0.900526 0.903029 0.656886
0.900252 0.903151 0.657679
0.899626 0.903395 0.659113
0.899031 0.903609 0.661341
0.89865 0.903731 0.66276
0.89839 0.903822 0.66334
0.89839 0.903822 0.66334
0.269734 0.753079 0.479301
0.270497 0.752239 0.476707
0.271214 0.751308 0.472953
0.271321 0.750484 0.47039
0.270237 0.74995 0.468971
0.269108 0.748943 0.466148
0.268513 0.747158 0.461173
0.268818 0.745129 0.453529
0.269764 0.74255 0.442817
0.271901 0.739071 0.429328
0.274617 0.734157 0.409064
0.28452 0.729213 0.384405
0.313985 0.729152 0.365469
