bundles/resolve-cinematic-luts/Phantom Luts/P4k & P6K Phntm Film LUTs - V6/P6k/Gen 5 Colour/P6k Eastman Gen5-Legacy.cube
TITLE "Generated by Resolve"
LUT_3D_SIZE 5
0.0399023 0.0390021 0.0390021
0.0916457 0.0390021 0.0416724
0.375006 0.0582895 0.0449226
0.585687 0.117464 0.077821
0.573556 0.122026 0.0812695
0.0657969 0.0908522 0.0669413
0.102693 0.0971695 0.0633555
0.458183 0.126268 0.0662547
0.625223 0.170123 0.103593
0.633524 0.18703 0.117006
0.175326 0.585855 0.304067
0.171664 0.58233 0.246906
0.55462 0.608942 0.161975
0.84535 0.640085 0.271809
0.843473 0.655314 0.27895
0.304723 0.835767 0.509422
0.303929 0.819043 0.468208
0.591302 0.821973 0.411872
0.827344 0.828702 0.440757
0.829541 0.8309 0.452888
0.304723 0.838483 0.52549
0.304234 0.821134 0.467323
0.582666 0.820325 0.40412
0.826413 0.827283 0.43415
0.831281 0.830304 0.450004
0.0414893 0.0390021 0.0622873
0.0922866 0.0390021 0.0720989
0.389975 0.0419471 0.0549325
0.627237 0.120104 0.142779
0.618265 0.118425 0.155779
0.0628367 0.0847639 0.081529
0.100679 0.0927749 0.0961929
0.424231 0.0876478 0.0530556
0.584741 0.130098 0.0893416
0.573037 0.129671 0.088365
0.181827 0.596246 0.357778
0.173663 0.588373 0.32079
0.548837 0.601144 0.160525
0.845808 0.62118 0.26508
0.844099 0.631342 0.269886
0.308812 0.861601 0.564095
0.304585 0.837217 0.517952
0.557839 0.819455 0.412543
0.821637 0.82855 0.440452
0.830594 0.831571 0.456641
0.310338 0.867643 0.578958
0.305089 0.841978 0.522347
0.547295 0.817426 0.404166
0.81413 0.827817 0.435004
0.828504 0.832319 0.460121
0.0581369 0.0525673 0.269718
0.136767 0.0472267 0.297612
0.401205 0.0538033 0.308095
0.633707 0.121065 0.403784
0.626215 0.125475 0.426078
0.0390021 0.0690471 0.274357
0.0779431 0.0547189 0.316991
0.427283 0.060914 0.331609
0.639094 0.122606 0.412528
0.635065 0.126329 0.430076
0.171115 0.612161 0.516365
0.171649 0.614633 0.523522
0.599878 0.6215 0.602838
0.857359 0.534676 0.50312
0.856291 0.541314 0.511009
0.387945 0.948989 0.769711
0.362875 0.93846 0.744991
0.520653 0.860166 0.64062
0.834455 0.861738 0.582788
0.856474 0.86453 0.597635
0.403326 0.953338 0.788083
0.370199 0.941604 0.753307
0.500526 0.860716 0.633463
0.830381 0.868452 0.603586
0.864179 0.87657 0.639887
0.195727 0.070573 0.488441
0.256168 0.0700236 0.501228
0.505196 0.114565 0.546868
0.675441 0.17525 0.606867
0.675715 0.175387 0.60734
0.142031 0.076051 0.484031
0.222065 0.0737621 0.505882
0.53254 0.126253 0.565057
0.678614 0.177768 0.610513
0.678859 0.178027 0.610819
0.142794 0.624567 0.702434
0.142641 0.621241 0.707607
0.634333 0.524575 0.870497
0.863981 0.50251 0.805661
0.864729 0.508324 0.807004
0.471183 0.974273 0.87512
0.436118 0.968826 0.862699
0.594354 0.95465 0.874678
0.894636 0.919707 0.890791
0.928512 0.908949 0.884031
0.545403 0.977035 0.890318
0.515541 0.977707 0.883421
0.617563 0.970855 0.883467
0.874235 0.943648 0.899886
0.921721 0.946181 0.889693
0.248249 0.0750286 0.515023
0.294102 0.0756542 0.520729
0.541146 0.129534 0.569238
0.675624 0.175418 0.607263
0.675715 0.175387 0.60734
0.182879 0.0766155 0.502342
0.250431 0.0749828 0.515328
0.552666 0.133654 0.573175
0.679591 0.178759 0.611719
0.679362 0.178561 0.611551
0.167712 0.639918 0.7337
0.163226 0.627298 0.729564
0.659541 0.504555 0.864408
0.86273 0.49305 0.803281
0.862959 0.496727 0.80383
0.54136 0.976867 0.891402
0.517922 0.968811 0.886961
0.620111 0.938872 0.893065
0.912703 0.902296 0.916594
0.923186 0.899214 0.914397
0.580301 0.977111 0.89575
0.580316 0.977081 0.895918
0.679408 0.964889 0.901106
0.891844 0.948226 0.92108
0.926955 0.951965 0.921248
