bundles/resolve-cinematic-luts/Phantom Luts/P4k & P6K Phntm Film LUTs - V6/P6k/Gen 5 Colour/P6k Eastman Gen5.cube
TITLE "Generated by Resolve"
LUT_3D_SIZE 9
0.0390021 0.0390021 0.0390021
0.0438392 0.0390021 0.0390021
0.0968185 0.0390021 0.0390021
0.247959 0.0415961 0.0390021
0.419699 0.0663462 0.0460517
0.563409 0.119066 0.0733196
0.606287 0.137255 0.0973831
0.609216 0.137636 0.102037
0.597787 0.141939 0.103502
0.0406806 0.0390021 0.0390021
0.0444343 0.0390021 0.0390021
0.0989242 0.0390021 0.0435187
0.256245 0.0496986 0.0390021
0.428183 0.0784466 0.0450904
0.562615 0.132387 0.0685283
0.592523 0.147234 0.0845808
0.595071 0.148348 0.0876936
0.577432 0.154879 0.0885939
0.0640116 0.104646 0.0670787
0.0641642 0.103899 0.0593423
0.11989 0.116808 0.0632792
0.336721 0.117388 0.0695964
0.525719 0.158694 0.0854963
0.655299 0.206638 0.130068
0.677668 0.219577 0.140948
0.6869 0.226627 0.144396
0.682857 0.234073 0.146304
0.107439 0.330007 0.149218
0.103365 0.334127 0.13959
0.112184 0.335531 0.111315
0.369543 0.395315 0.105318
0.653605 0.396963 0.151644
0.791836 0.415274 0.207233
0.81944 0.436103 0.225467
0.82121 0.447807 0.229313
0.818631 0.456901 0.231769
0.187655 0.638651 0.354574
0.185214 0.636652 0.346502
0.183185 0.626093 0.283391
0.331029 0.628229 0.206485
0.597681 0.643137 0.176043
0.774685 0.647898 0.227481
0.833341 0.671839 0.29398
0.833082 0.679774 0.300328
0.832212 0.683162 0.304051
0.291661 0.818998 0.517418
0.291264 0.812696 0.510658
0.291524 0.798642 0.47863
0.35256 0.775204 0.379294
0.614725 0.785107 0.355291
0.745617 0.792081 0.380667
0.813855 0.793652 0.431403
0.821241 0.797421 0.440192
0.824018 0.796078 0.436103
0.303883 0.838468 0.540993
0.304723 0.830839 0.531655
0.310018 0.812299 0.495949
0.39823 0.796963 0.430961
0.624353 0.812955 0.438819
0.761166 0.817288 0.453285
0.813336 0.815732 0.481971
0.822904 0.817075 0.48925
0.822217 0.817349 0.490181
0.303395 0.842557 0.544518
0.304402 0.834394 0.530053
0.310674 0.813474 0.48687
0.402945 0.796857 0.420569
0.62826 0.812009 0.430533
0.76202 0.816175 0.446967
0.813703 0.81445 0.475151
0.826734 0.815747 0.483558
0.826886 0.815702 0.483406
0.303487 0.842313 0.556695
0.304204 0.835325 0.538888
0.310018 0.815442 0.496971
0.389883 0.796353 0.423651
0.616053 0.811566 0.4327
0.758007 0.816358 0.446921
0.81033 0.814908 0.476371
0.825376 0.816205 0.485527
0.823499 0.816861 0.48835
0.0390021 0.0390021 0.0390021
0.0434577 0.0390021 0.0390021
0.100984 0.0390021 0.0508583
0.254795 0.0390021 0.0423896
0.41651 0.0704204 0.0505379
0.563439 0.120607 0.0932479
0.608972 0.137133 0.121004
0.619394 0.139467 0.132677
0.614816 0.14345 0.137026
0.0390021 0.0390021 0.0390021
0.0414588 0.0390021 0.0390021
0.0945907 0.0390021 0.0414282
0.246464 0.0466468 0.0390021
0.415503 0.0755016 0.0452583
0.555154 0.131304 0.0787213
0.586892 0.144823 0.0984207
0.589776 0.145159 0.1028
0.581338 0.14847 0.104555
0.0639811 0.0993362 0.0769513
0.0612345 0.101564 0.0677653
0.114519 0.113024 0.0623331
0.328847 0.111284 0.0647898
0.505379 0.147967 0.0750439
0.6309 0.195712 0.12372
0.649973 0.207309 0.130526
0.658 0.212833 0.13492
0.653407 0.218677 0.137285
0.108125 0.330327 0.165789
0.104051 0.334737 0.155947
0.104509 0.331151 0.113069
0.367834 0.393622 0.10544
0.659312 0.390555 0.153948
0.793332 0.41004 0.206394
0.818173 0.429099 0.222675
0.819959 0.439689 0.226017
0.817472 0.448722 0.229603
0.189166 0.643946 0.371374
0.188022 0.641764 0.363363
0.183749 0.629602 0.306172
0.313588 0.626719 0.206836
0.596521 0.641779 0.175128
0.77705 0.645335 0.22768
0.833539 0.668193 0.290929
0.833341 0.675441 0.297261
0.831922 0.67837 0.299779
0.291066 0.824552 0.528283
0.290562 0.818372 0.522362
0.290822 0.802411 0.489906
0.341009 0.773388 0.380453
0.608331 0.78349 0.350805
0.743465 0.78938 0.373327
0.813352 0.790265 0.424506
0.820325 0.794049 0.433936
0.821454 0.793057 0.431296
0.303349 0.845914 0.557351
0.303761 0.838697 0.544808
0.308827 0.818265 0.509682
0.383383 0.796231 0.432547
0.614969 0.812543 0.439414
0.758022 0.816922 0.451209
0.811063 0.815854 0.481422
0.823728 0.817029 0.48896
0.821897 0.817868 0.491722
0.304051 0.85008 0.568505
0.303105 0.843473 0.54345
0.309117 0.820783 0.503044
0.385824 0.796048 0.422187
0.617121 0.811414 0.4309
0.758343 0.816175 0.444877
0.810712 0.814389 0.473732
0.826688 0.815763 0.483619
0.820844 0.817838 0.491646
0.304097 0.850782 0.571252
0.303197 0.844251 0.550301
0.30779 0.822705 0.511696
0.373922 0.795895 0.425483
0.606134 0.810727 0.43267
0.754421 0.81619 0.4448
0.807721 0.814984 0.475502
0.825406 0.81619 0.485481
0.820294 0.81799 0.492027
0.0390021 0.0390021 0.0636301
0.0564889 0.0390021 0.0694743
0.102449 0.0390021 0.0752422
0.268757 0.0390021 0.0794842
0.432563 0.0390021 0.0720989
0.601968 0.107912 0.142397
0.647196 0.131701 0.179263
0.648478 0.13283 0.194507
0.636728 0.13785 0.204425
0.0390021 0.0390021 0.0568246
0.0390021 0.0390021 0.0693065
0.0982681 0.0390021 0.0755322
0.275105 0.0390021 0.0682231
0.438315 0.0558175 0.0625162
0.610391 0.124437 0.142931
0.644785 0.134157 0.168612
0.646128 0.13518 0.181643
0.637705 0.139635 0.188006
0.0599222 0.0962387 0.0889754
0.0576181 0.0967575 0.0899825
0.118959 0.111925 0.113878
0.32575 0.0993515 0.0873579
0.474296 0.106432 0.0635386
0.591699 0.14522 0.100969
0.611795 0.154635 0.114763
0.611078 0.151843 0.115465
0.600855 0.152117 0.114458
0.116106 0.329488 0.209934
0.112245 0.333867 0.204501
0.105196 0.335119 0.162768
0.365057 0.393652 0.127337
0.667384 0.371496 0.162737
0.798917 0.390356 0.210178
0.815381 0.405295 0.221073
0.816892 0.414481 0.223621
0.813519 0.422599 0.22707
0.192813 0.656489 0.410849
0.190997 0.654032 0.408225
0.186999 0.641749 0.372061
0.249073 0.622644 0.212665
0.592477 0.636957 0.174548
0.784146 0.636652 0.229374
0.833036 0.658473 0.284031
0.833143 0.663996 0.28925
0.831937 0.666484 0.291417
0.289265 0.839185 0.557778
0.289052 0.83328 0.553063
0.287388 0.817075 0.523888
0.302968 0.771252 0.39379
0.590021 0.780362 0.345113
0.737697 0.78468 0.359213
0.81323 0.783612 0.412177
0.821164 0.785962 0.418509
0.821454 0.784695 0.415183
0.305196 0.866316 0.595483
0.304982 0.859922 0.585794
0.303716 0.840787 0.549477
0.339834 0.796551 0.442695
0.592554 0.811002 0.440635
0.751049 0.817166 0.449622
0.806958 0.817136 0.483848
0.824201 0.818738 0.494682
0.822812 0.819226 0.496544
0.306493 0.87155 0.608911
0.305333 0.864836 0.595651
0.302907 0.845777 0.549035
0.342229 0.797101 0.436835
0.592142 0.809735 0.431296
0.749737 0.815885 0.441657
0.804089 0.816037 0.474876
0.82771 0.817319 0.489677
0.821958 0.819532 0.49749
0.306676 0.871489 0.610025
0.30547 0.864775 0.596551
0.30309 0.846677 0.553841
0.334356 0.797894 0.442679
0.582757 0.809018 0.43238
0.745922 0.81561 0.441169
0.8009 0.816541 0.476097
0.826322 0.817868 0.491493
0.820996 0.820005 0.499046
0.0417945 0.0403754 0.166201
0.066743 0.0411688 0.177996
0.126635 0.0390021 0.191119
0.262791 0.0390021 0.189731
0.436851 0.0471504 0.230015
0.601892 0.109865 0.30988
0.641047 0.130877 0.34551
0.634165 0.127291 0.357397
0.619944 0.128817 0.363378
0.0390021 0.0428626 0.15938
0.044007 0.0429847 0.186755
0.11371 0.040528 0.206165
0.271046 0.0390021 0.198962
0.446113 0.0504158 0.234653
0.613596 0.117327 0.315572
0.637415 0.130846 0.345312
0.630976 0.127108 0.358267
0.620111 0.128985 0.364813
0.0390021 0.0872206 0.168704
0.0390021 0.0803388 0.178668
0.0720836 0.0602426 0.235721
0.290776 0.0458076 0.222889
0.466743 0.0556497 0.233661
0.639124 0.128145 0.307973
0.660029 0.14139 0.332738
0.656565 0.140047 0.34548
0.647562 0.141375 0.351446
0.0972457 0.325032 0.273457
0.0954299 0.330907 0.279179
0.0979171 0.337697 0.286
0.405921 0.413596 0.40528
0.651316 0.355901 0.343465
0.800504 0.343679 0.310811
0.81117 0.350881 0.317815
0.813001 0.35697 0.328176
0.80856 0.364324 0.335302
0.193912 0.672251 0.492149
0.19411 0.672404 0.495338
0.194247 0.670909 0.482322
0.233433 0.650065 0.414588
0.591424 0.646601 0.345541
0.807065 0.628077 0.334539
0.842603 0.644038 0.357153
0.841962 0.649531 0.361273
0.84065 0.651835 0.363516
0.289509 0.861234 0.624277
0.288502 0.857221 0.622141
0.284428 0.849622 0.603952
0.28043 0.807523 0.521553
0.535637 0.781964 0.410681
0.729305 0.779171 0.362936
0.820325 0.776196 0.429282
0.83151 0.77789 0.441337
0.831128 0.775311 0.436851
0.324331 0.901869 0.678187
0.322133 0.898299 0.671107
0.314916 0.888609 0.64686
0.309697 0.844785 0.558267
0.543038 0.816098 0.48452
0.744701 0.825772 0.478294
0.805127 0.828428 0.512184
0.83331 0.831601 0.538796
0.831449 0.831556 0.538796
0.330114 0.906874 0.695689
0.325841 0.902174 0.68336
0.318059 0.892348 0.656123
0.308339 0.849119 0.561181
0.532692 0.814343 0.474113
0.737041 0.823774 0.470161
0.798184 0.82649 0.496895
0.833738 0.829923 0.532753
0.831312 0.833127 0.544366
0.329442 0.906172 0.693477
0.325063 0.901167 0.680873
0.317296 0.891768 0.654536
0.306966 0.850507 0.564111
0.519738 0.812604 0.470298
0.730388 0.823819 0.470253
0.794827 0.827436 0.496376
0.830396 0.831113 0.535851
0.832731 0.836027 0.553994
0.0660563 0.0539559 0.313954
0.101579 0.0487373 0.326635
0.181338 0.0390021 0.337545
0.301991 0.0390021 0.331258
0.443473 0.0579232 0.352316
0.600961 0.10959 0.418677
0.626245 0.123491 0.447501
0.626001 0.126513 0.459007
0.622217 0.129976 0.465446
0.0449683 0.0553445 0.315618
0.0747539 0.0533455 0.332753
0.168933 0.0411383 0.351034
0.309453 0.0390021 0.343297
0.455772 0.0622263 0.363851
0.608698 0.113832 0.42797
0.626307 0.124208 0.452186
0.626688 0.126894 0.463157
0.6224 0.130648 0.46981
0.0390021 0.0699321 0.311635
0.0390021 0.0626993 0.317754
0.104677 0.0506294 0.358495
0.309499 0.0390021 0.358495
0.469932 0.0681926 0.377264
0.616434 0.118502 0.436576
0.634318 0.126833 0.45742
0.633356 0.129244 0.465614
0.629267 0.132555 0.469612
0.0571603 0.314519 0.394217
0.0563821 0.315114 0.400076
0.0535439 0.304845 0.408026
0.368582 0.273045 0.56379
0.636744 0.269566 0.546365
0.763653 0.248829 0.544778
0.77438 0.250111 0.557504
0.778515 0.26154 0.567132
0.775876 0.27097 0.570077
0.178653 0.671351 0.569009
0.179538 0.672007 0.572686
0.180392 0.673274 0.57438
0.263264 0.68513 0.598245
0.647135 0.67155 0.650248
0.810681 0.612451 0.587167
0.853056 0.599939 0.567391
0.853101 0.60592 0.574304
0.851286 0.607996 0.576028
0.296559 0.8701 0.709758
0.296101 0.867292 0.70927
0.293385 0.863752 0.701656
0.292744 0.853834 0.672343
0.579004 0.811032 0.662745
0.769253 0.820462 0.642725
0.864454 0.800137 0.61622
0.869795 0.801358 0.612512
0.868177 0.798901 0.60827
0.420584 0.93283 0.779721
0.410956 0.931029 0.775189
0.388037 0.927337 0.760662
0.351202 0.915648 0.717983
0.574609 0.860533 0.687297
0.760494 0.874357 0.682139
0.832135 0.867201 0.648844
0.860746 0.863905 0.654765
0.860105 0.862577 0.651728
0.443091 0.935699 0.795148
0.428473 0.933684 0.786587
0.400381 0.92932 0.768551
0.35082 0.916548 0.721523
0.562081 0.862043 0.684657
0.746609 0.874861 0.683772
0.829358 0.87277 0.658045
0.856992 0.872557 0.666239
0.866011 0.878813 0.688502
0.439597 0.934783 0.793088
0.424079 0.932769 0.783871
0.397162 0.928512 0.766461
0.347662 0.915801 0.720058
0.550622 0.861341 0.679774
0.741894 0.874678 0.685374
0.829679 0.8757 0.668025
0.854017 0.872938 0.667048
0.868925 0.882841 0.701045
0.158312 0.0523842 0.427832
0.192355 0.0496834 0.434852
0.250019 0.0464942 0.441398
0.355901 0.0514992 0.443214
0.481819 0.0834363 0.465751
0.614343 0.134432 0.515831
0.639704 0.148684 0.543084
0.648188 0.155947 0.560021
0.655177 0.161547 0.572381
0.137713 0.0560922 0.433539
0.175433 0.0527352 0.442329
0.244251 0.0487068 0.450736
0.36173 0.0534524 0.452811
0.494621 0.0892653 0.476997
0.620676 0.13814 0.524147
0.642039 0.150423 0.548516
0.650599 0.157855 0.565652
0.656306 0.162829 0.575067
0.0563058 0.0655985 0.413184
0.0978256 0.0615854 0.431495
0.202457 0.0532235 0.458839
0.359548 0.0555428 0.464027
0.510216 0.0978714 0.491753
0.626398 0.140856 0.530983
0.640024 0.148882 0.54818
0.649073 0.156161 0.561776
0.654627 0.160998 0.569894
0.0452583 0.271534 0.476814
0.0447852 0.268162 0.479988
0.0431067 0.244282 0.481941
0.364843 0.160708 0.589471
0.605371 0.190509 0.609491
0.709422 0.206302 0.6056
0.723507 0.214694 0.614343
0.735012 0.225895 0.628244
0.740749 0.232303 0.635996
0.15993 0.664515 0.663828
0.159655 0.664607 0.665614
0.157519 0.662577 0.668849
0.217304 0.668162 0.713466
0.649287 0.610651 0.806943
0.821118 0.581094 0.749889
0.850523 0.569543 0.737774
0.851408 0.576013 0.741238
0.850263 0.57702 0.741146
0.297795 0.867369 0.756008
0.29604 0.865675 0.75433
0.292485 0.862257 0.751247
0.296452 0.856489 0.746883
0.618158 0.840635 0.784298
0.805447 0.833204 0.805997
0.88574 0.813352 0.787976
0.895903 0.808652 0.780667
0.894438 0.804913 0.776913
0.504738 0.943801 0.834699
0.490059 0.941726 0.830686
0.467445 0.939025 0.822736
0.432364 0.930388 0.803876
0.63418 0.910735 0.817563
0.790097 0.89192 0.823758
0.863645 0.898802 0.815442
0.904707 0.890211 0.805615
0.904952 0.889311 0.804471
0.537514 0.945968 0.844465
0.530861 0.945129 0.841932
0.51902 0.943755 0.836515
0.489204 0.940871 0.820493
0.630869 0.926085 0.821881
0.778637 0.905684 0.826963
0.860166 0.91696 0.827054
0.888228 0.91574 0.814832
0.895384 0.914015 0.80827
0.536599 0.945785 0.844526
0.530007 0.944945 0.84155
0.518349 0.943648 0.83624
0.486992 0.940764 0.819669
0.623377 0.92665 0.820188
0.775265 0.905226 0.826383
0.857847 0.917632 0.831357
0.887114 0.917952 0.823545
0.896712 0.916213 0.818311
0.256931 0.0586099 0.493812
0.279042 0.0591135 0.496574
0.318898 0.0607004 0.500298
0.40853 0.0755016 0.511177
0.54963 0.12578 0.55378
0.663401 0.173144 0.597025
0.67837 0.18088 0.607019
0.67863 0.180987 0.607416
0.678706 0.180957 0.607477
0.251286 0.0603037 0.498131
0.272953 0.0604868 0.50103
0.316091 0.0618143 0.503883
0.412421 0.0768139 0.513664
0.560052 0.131167 0.560113
0.667735 0.175784 0.601465
0.678584 0.181018 0.60737
0.678584 0.181018 0.60737
0.678614 0.181003 0.607385
0.199756 0.0634165 0.494011
0.227451 0.0624704 0.498375
0.287221 0.0615091 0.504524
0.40885 0.0771649 0.51664
0.570825 0.136629 0.567987
0.676356 0.181262 0.608759
0.681254 0.182971 0.610391
0.681285 0.182971 0.610407
0.681498 0.183154 0.610666
0.0790112 0.219409 0.534539
0.0879988 0.21294 0.539437
0.118196 0.16875 0.537194
0.396048 0.130648 0.58735
0.589059 0.164446 0.607767
0.702556 0.204974 0.636698
0.730709 0.223682 0.657801
0.741238 0.23386 0.669917
0.744503 0.237613 0.673457
0.16527 0.671702 0.713436
0.166125 0.671351 0.71574
0.169116 0.668513 0.721736
0.282856 0.66183 0.780179
0.690242 0.575189 0.857755
0.833844 0.558221 0.806531
0.857435 0.559792 0.797818
0.858061 0.566323 0.798856
0.857771 0.566384 0.798291
0.357961 0.866453 0.809949
0.354757 0.863706 0.809598
0.350286 0.859174 0.808392
0.353765 0.84741 0.810758
0.613642 0.831952 0.839658
0.820035 0.809445 0.872923
0.884596 0.803326 0.852384
0.892103 0.797772 0.848081
0.890806 0.793072 0.845655
0.521172 0.944762 0.855009
0.504479 0.943328 0.851591
0.480522 0.939803 0.845136
0.451667 0.931441 0.83331
0.643244 0.914244 0.850202
0.80177 0.895949 0.861875
0.873823 0.900343 0.870848
0.91249 0.892195 0.869261
0.913756 0.890364 0.867597
0.587137 0.946349 0.866926
0.578393 0.947494 0.864866
0.568505 0.94754 0.860487
0.555077 0.946319 0.851484
0.672267 0.933303 0.860349
0.802136 0.919585 0.871275
0.869535 0.923613 0.880644
0.89778 0.925933 0.876295
0.915419 0.92282 0.877394
0.592065 0.945403 0.867323
0.580072 0.947265 0.865049
0.569192 0.947509 0.860822
0.553155 0.946303 0.850813
0.667292 0.933669 0.858671
0.801862 0.921675 0.871946
0.869566 0.927306 0.88336
0.897398 0.93051 0.880247
0.906096 0.930983 0.877729
0.304341 0.0631113 0.509285
0.319432 0.0643778 0.510674
0.351125 0.0677958 0.51313
0.429969 0.0830396 0.522393
0.570779 0.136782 0.568872
0.67303 0.178912 0.605478
0.678584 0.181018 0.60737
0.678614 0.181003 0.607385
0.678721 0.180957 0.607477
0.289708 0.0628061 0.508232
0.306142 0.0631876 0.509361
0.343175 0.0665293 0.51223
0.430838 0.083299 0.522576
0.578058 0.13991 0.571954
0.673274 0.179065 0.6056
0.678584 0.181018 0.60737
0.678584 0.181018 0.607355
0.678614 0.181003 0.607385
0.237018 0.0629892 0.502663
0.259724 0.0626993 0.505425
0.309575 0.0636759 0.509911
0.422263 0.0811933 0.521477
0.581521 0.14168 0.573724
0.67599 0.180148 0.606531
0.681865 0.183505 0.611078
0.681636 0.183291 0.610819
0.681788 0.183444 0.611017
0.149111 0.178943 0.558953
0.146929 0.166842 0.550271
0.138537 0.128359 0.52137
0.360479 0.0893263 0.538964
0.566827 0.145861 0.584573
0.703853 0.205921 0.640497
0.723766 0.218204 0.652537
0.727657 0.221271 0.656489
0.728817 0.222461 0.657557
0.226291 0.687205 0.770031
0.226215 0.685145 0.770031
0.222522 0.677989 0.767483
0.301549 0.651499 0.78735
0.70663 0.56083 0.859159
0.836561 0.54728 0.811399
0.857801 0.55375 0.805432
0.858366 0.559976 0.806561
0.857939 0.559304 0.806195
0.430213 0.870253 0.843183
0.427131 0.867155 0.842435
0.421256 0.861646 0.841459
0.411353 0.847318 0.839048
0.627146 0.826917 0.856489
0.83592 0.794156 0.887953
0.888685 0.792645 0.871229
0.89427 0.791424 0.869978
0.893233 0.786542 0.868391
0.595361 0.935073 0.869932
0.587716 0.933913 0.869947
0.573907 0.930373 0.867811
0.549462 0.923323 0.864561
0.669566 0.90457 0.870771
0.801617 0.893996 0.879713
0.883848 0.894682 0.896773
0.907698 0.892073 0.893797
0.908324 0.890501 0.892683
0.630381 0.940337 0.87306
0.630426 0.940276 0.873396
0.630426 0.940276 0.873396
0.616678 0.942687 0.871183
0.695857 0.93402 0.875776
0.809583 0.922042 0.884123
0.873304 0.922972 0.895598
0.900511 0.925826 0.895949
0.918593 0.922652 0.900664
0.630411 0.940307 0.873243
0.630426 0.940276 0.873381
0.630426 0.940276 0.873396
0.610666 0.943358 0.870192
0.695506 0.935241 0.873854
0.818479 0.926818 0.88716
0.876661 0.930495 0.899702
0.899763 0.93463 0.901579
0.908644 0.934813 0.89929
0.314443 0.0638743 0.510155
0.328618 0.0651865 0.511345
0.358175 0.068513 0.513466
0.437186 0.0849775 0.523796
0.578531 0.140154 0.572198
0.675029 0.179797 0.606241
0.678584 0.181018 0.60737
0.678614 0.181003 0.607385
0.678721 0.180957 0.607477
0.29929 0.0631266 0.509056
0.314595 0.0638895 0.51014
0.350332 0.0676127 0.512993
0.438056 0.0852674 0.524041
0.584878 0.142947 0.574517
0.674952 0.179751 0.60618
0.678599 0.181018 0.607385
0.678599 0.181003 0.60737
0.678614 0.181003 0.607385
0.246342 0.0626841 0.503716
0.268101 0.062623 0.50631
0.316075 0.0640421 0.510307
0.427924 0.082414 0.522057
0.587198 0.144121 0.575723
0.677501 0.180652 0.606989
0.682307 0.183902 0.611612
0.681971 0.183612 0.611231
0.682048 0.183688 0.611353
0.147784 0.16611 0.550118
0.143633 0.152132 0.539284
0.135332 0.112566 0.509743
0.345647 0.072694 0.519402
0.573739 0.149538 0.588617
0.703258 0.205112 0.639521
0.719814 0.214405 0.648569
0.721706 0.216175 0.650431
0.722347 0.216663 0.651087
0.228779 0.687099 0.771481
0.227008 0.684596 0.77055
0.221881 0.676555 0.767208
0.301976 0.647257 0.786984
0.709163 0.555962 0.857511
0.835981 0.542855 0.810254
0.856977 0.549554 0.803922
0.857755 0.554696 0.805554
0.857435 0.553246 0.804898
0.436927 0.869825 0.84567
0.4309 0.866255 0.844144
0.422858 0.860487 0.842237
0.406943 0.844877 0.838178
0.62565 0.823194 0.855406
0.836393 0.788663 0.886732
0.8878 0.786923 0.869917
0.894072 0.78529 0.868666
0.894087 0.779599 0.867323
0.592676 0.934539 0.869734
0.583963 0.933074 0.869627
0.569329 0.929458 0.86746
0.545602 0.920821 0.865232
0.668437 0.901091 0.871305
0.803693 0.892348 0.882872
0.887068 0.890471 0.90071
0.907988 0.889723 0.899199
0.908629 0.888747 0.899107
0.629465 0.941207 0.867582
0.629526 0.941146 0.867994
0.629526 0.941146 0.867994
0.633463 0.940597 0.868147
0.714946 0.929213 0.875654
0.821088 0.920043 0.887617
0.879576 0.921004 0.900069
0.904128 0.924651 0.904494
0.91107 0.924361 0.903502
0.630411 0.940307 0.873228
0.630426 0.940276 0.873396
0.630426 0.940276 0.873396
0.635142 0.939956 0.873793
0.725002 0.931945 0.880934
0.829847 0.928298 0.893904
0.878859 0.930785 0.903349
0.900999 0.934539 0.906218
0.910979 0.934096 0.903563
