bundles/resolve-cinematic-luts/Phantom Luts/P4k & P6K Phntm Film LUTs - V6/P6k/Gen 5 Colour/P6k EastmanRM Gen5-Legacy.cube
TITLE "Generated by Resolve"
LUT_3D_SIZE 9
0.0441749 0.0409705 0.0428931
0.0563363 0.0393072 0.0395666
0.119722 0.0383154 0.0366827
0.235111 0.037995 0.041062
0.440238 0.033402 0.0502937
0.591913 0.0441291 0.0814374
0.625772 0.0549325 0.0986954
0.625986 0.0563211 0.10251
0.587259 0.063859 0.13846
0.0475624 0.0539712 0.0467536
0.0493019 0.0544594 0.0464637
0.10132 0.051133 0.043122
0.237568 0.0405432 0.0427253
0.459266 0.0338903 0.0506142
0.600412 0.0478676 0.0838636
0.621057 0.05449 0.0954757
0.621378 0.0558328 0.0988479
0.584451 0.0630503 0.132601
0.061799 0.103578 0.055024
0.055375 0.107073 0.0560922
0.100008 0.10988 0.0541848
0.273884 0.0915541 0.0535744
0.502098 0.0515908 0.0565042
0.614252 0.0612802 0.0913863
0.626627 0.0632792 0.096788
0.627543 0.0639506 0.0968032
0.606012 0.0688792 0.115984
0.0786145 0.229084 0.0827802
0.0608377 0.24033 0.0853132
0.0699016 0.240009 0.0655375
0.280705 0.311986 0.0800946
0.645426 0.292256 0.107012
0.830839 0.324758 0.194339
0.840284 0.332753 0.205219
0.842191 0.337346 0.206516
0.835721 0.34847 0.218631
0.0735027 0.505531 0.139803
0.061677 0.518166 0.163378
0.0630045 0.521767 0.126131
0.147265 0.527871 0.0687266
0.614618 0.656123 0.151797
0.867094 0.628016 0.284947
0.89601 0.642542 0.315679
0.897169 0.652827 0.324239
0.896239 0.665888 0.341543
0.270344 0.729412 0.392508
0.259907 0.735195 0.411185
0.261875 0.731365 0.39469
0.289998 0.718379 0.325414
0.553933 0.791241 0.368048
0.842283 0.89778 0.527184
0.916899 0.903746 0.598032
0.914687 0.909209 0.608759
0.916289 0.910658 0.60882
0.285161 0.749783 0.43888
0.283284 0.748638 0.435523
0.282765 0.743587 0.415839
0.313008 0.73257 0.352178
0.552132 0.793225 0.411795
0.847028 0.909911 0.590677
0.909606 0.921218 0.656214
0.908751 0.921706 0.660304
0.907347 0.92221 0.664561
0.28481 0.751537 0.445594
0.290974 0.747112 0.427695
0.294118 0.738918 0.396918
0.337224 0.731441 0.328908
0.600076 0.812818 0.419547
0.858961 0.912047 0.589471
0.913252 0.919921 0.645792
0.913024 0.920089 0.647334
0.907423 0.922179 0.664439
0.277867 0.755047 0.460929
0.280995 0.751217 0.445808
0.29041 0.739651 0.399802
0.353826 0.733669 0.324651
0.642847 0.832486 0.446983
0.8701 0.914504 0.600595
0.912154 0.920348 0.649241
0.911147 0.92079 0.652934
0.905837 0.922591 0.669032
0.0443427 0.0415808 0.0470893
0.0518349 0.0415198 0.0459144
0.100771 0.0431373 0.0466773
0.219043 0.0451209 0.0545205
0.416464 0.0416114 0.0700847
0.575708 0.049958 0.108888
0.609003 0.0615396 0.128573
0.611673 0.0658274 0.135668
0.588632 0.0720226 0.16083
0.0466773 0.0502022 0.0479744
0.0493629 0.0509499 0.0490272
0.0908522 0.0475471 0.0466926
0.21146 0.043534 0.0524147
0.428428 0.0371405 0.0665446
0.579843 0.0525063 0.110811
0.600275 0.0602121 0.12282
0.599985 0.0615091 0.126635
0.577356 0.0661631 0.147738
0.0597848 0.0999008 0.0632486
0.0522316 0.105257 0.0623484
0.0915694 0.108827 0.0556191
0.267292 0.0872206 0.0561685
0.488014 0.0463264 0.0590524
0.600626 0.0573281 0.0968948
0.612482 0.0604105 0.102434
0.613092 0.0606851 0.102556
0.591226 0.0653391 0.121645
0.0747387 0.230076 0.0970321
0.0622568 0.240574 0.0982986
0.0662547 0.238666 0.0668345
0.281041 0.31165 0.0800336
0.650599 0.288563 0.107439
0.831891 0.322271 0.196719
0.839063 0.328237 0.205539
0.840146 0.332235 0.205249
0.833356 0.343175 0.217304
0.0741131 0.509148 0.157992
0.062501 0.522545 0.184176
0.0630503 0.52433 0.143084
0.137545 0.528191 0.0684367
0.616571 0.658 0.153124
0.868971 0.628229 0.28716
0.895994 0.642741 0.315785
0.897139 0.652674 0.324086
0.896162 0.665461 0.34136
0.269032 0.731289 0.401099
0.259312 0.736873 0.419974
0.26125 0.733837 0.403189
0.286473 0.718791 0.329625
0.551751 0.790738 0.368872
0.843366 0.89836 0.528847
0.916625 0.904295 0.598093
0.914717 0.908843 0.606912
0.914977 0.910094 0.610773
0.284077 0.752255 0.449302
0.283513 0.75082 0.44358
0.281712 0.745586 0.424155
0.308431 0.732296 0.355383
0.549203 0.791897 0.409766
0.846326 0.909697 0.589746
0.909621 0.921218 0.656168
0.908751 0.921721 0.660456
0.907546 0.922164 0.664363
0.28304 0.755505 0.460777
0.291585 0.749386 0.435615
0.292927 0.741146 0.405798
0.331456 0.730831 0.331594
0.597147 0.81146 0.417578
0.857969 0.911803 0.588708
0.913283 0.919814 0.644495
0.913024 0.920089 0.647364
0.906874 0.922332 0.665553
0.279057 0.758663 0.471824
0.283574 0.752804 0.451789
0.28896 0.742199 0.409964
0.345342 0.732464 0.326406
0.637888 0.83003 0.443824
0.868101 0.913848 0.598611
0.912184 0.920287 0.648753
0.911131 0.920806 0.652949
0.905837 0.922606 0.669093
0.045655 0.0452125 0.0646525
0.0536049 0.0460212 0.066865
0.0974594 0.0462806 0.0611734
0.231769 0.049134 0.066453
0.436774 0.0415045 0.0827649
0.606058 0.067277 0.13286
0.648356 0.0903792 0.16466
0.652598 0.0959945 0.173342
0.631083 0.103761 0.20177
0.044892 0.0513771 0.0578622
0.0462348 0.0449378 0.0682994
0.0865644 0.0483101 0.067216
0.236713 0.0491188 0.0708934
0.445533 0.0429999 0.0828412
0.60943 0.0681926 0.137545
0.634791 0.082536 0.157076
0.640711 0.0890516 0.165789
0.621485 0.0968338 0.192737
0.0592813 0.0963302 0.0730297
0.0525063 0.0991226 0.0810864
0.0888228 0.106432 0.0889601
0.270924 0.0756085 0.0693523
0.477317 0.0418555 0.0684977
0.600305 0.0545052 0.106508
0.614221 0.0598459 0.114687
0.615488 0.0606088 0.116045
0.594064 0.0650645 0.137179
0.0837568 0.224918 0.123568
0.0681926 0.234974 0.129824
0.0638437 0.240009 0.102495
0.278859 0.308278 0.09308
0.654276 0.271199 0.10927
0.828656 0.305272 0.201419
0.830243 0.305333 0.203281
0.832166 0.309316 0.204181
0.82594 0.319448 0.216098
0.0764782 0.513512 0.203052
0.0650797 0.528298 0.232242
0.0630655 0.528984 0.198093
0.105837 0.522683 0.0691691
0.614694 0.655528 0.153063
0.871305 0.617075 0.282765
0.894392 0.631922 0.30631
0.895918 0.64062 0.314336
0.893355 0.653254 0.331777
0.26537 0.735058 0.421942
0.256443 0.741421 0.442176
0.258412 0.738705 0.426978
0.273747 0.720027 0.345434
0.536141 0.784161 0.359213
0.839445 0.896376 0.519402
0.917144 0.90164 0.58967
0.916457 0.903792 0.595102
0.915663 0.906203 0.602457
0.285405 0.76025 0.476646
0.282155 0.75967 0.475105
0.282017 0.752255 0.449454
0.29546 0.734783 0.374136
0.530983 0.78468 0.398962
0.840375 0.908232 0.584741
0.90959 0.921294 0.656809
0.908568 0.922011 0.663249
0.907027 0.922469 0.667842
0.286671 0.764446 0.489967
0.284184 0.762875 0.485908
0.291875 0.750454 0.439231
0.310033 0.730495 0.349142
0.574441 0.801633 0.403296
0.85066 0.909773 0.582589
0.913558 0.919615 0.642741
0.9131 0.920348 0.649683
0.906752 0.922545 0.66862
0.284001 0.768505 0.504646
0.282826 0.766354 0.497322
0.289448 0.751797 0.445777
0.317266 0.73019 0.341848
0.608576 0.816648 0.425116
0.860197 0.912016 0.591638
0.912154 0.920333 0.649226
0.911025 0.921218 0.656718
0.905272 0.923033 0.673884
0.0477455 0.0559243 0.123308
0.0600748 0.0521248 0.134066
0.0988479 0.0549935 0.139116
0.229786 0.0572061 0.12459
0.454154 0.0524147 0.138293
0.635019 0.0872511 0.201846
0.679881 0.113817 0.237232
0.677272 0.114839 0.245136
0.652262 0.121141 0.276036
0.0417487 0.0588388 0.11783
0.0496529 0.0582589 0.136385
0.090425 0.0556802 0.151278
0.236057 0.0600137 0.142718
0.475288 0.0533303 0.149096
0.654307 0.0987411 0.217853
0.680018 0.114305 0.241016
0.678523 0.116075 0.249607
0.654002 0.122698 0.280858
0.0452277 0.0924849 0.113634
0.0425422 0.0895552 0.130053
0.063386 0.0721294 0.168048
0.241169 0.0709087 0.169024
0.501091 0.0504311 0.13341
0.67718 0.105455 0.210727
0.695537 0.115938 0.227527
0.696437 0.117418 0.233234
0.67512 0.123308 0.261906
0.0816052 0.213855 0.166552
0.0677958 0.221302 0.183352
0.0683909 0.225132 0.187488
0.293736 0.304463 0.28127
0.655802 0.245487 0.227573
0.815183 0.220401 0.25713
0.801602 0.207126 0.249821
0.80528 0.21033 0.25452
0.805234 0.221012 0.271214
0.0881514 0.523445 0.316381
0.0728161 0.53611 0.351659
0.0724193 0.541909 0.3402
0.0809491 0.534478 0.231815
0.600855 0.645548 0.251591
0.887541 0.586984 0.3028
0.90103 0.596719 0.314092
0.902083 0.604196 0.318715
0.89691 0.616297 0.338933
0.254337 0.743526 0.479881
0.247547 0.751293 0.502144
0.249302 0.750957 0.492744
0.246952 0.733852 0.426093
0.464912 0.75584 0.335866
0.832212 0.889876 0.494728
0.920897 0.889189 0.577264
0.920684 0.890486 0.582254
0.920165 0.893675 0.590906
0.300877 0.780163 0.538506
0.29424 0.781598 0.54583
0.291539 0.776684 0.530907
0.282918 0.754528 0.457313
0.464027 0.763592 0.381979
0.823011 0.903914 0.582788
0.908171 0.922164 0.664637
0.907942 0.923812 0.68014
0.906645 0.924529 0.686854
0.300389 0.785657 0.561379
0.296925 0.785824 0.563439
0.29514 0.781186 0.54432
0.29337 0.752453 0.446174
0.4963 0.771923 0.382193
0.832456 0.905928 0.582422
0.910079 0.920394 0.649516
0.912825 0.922805 0.672786
0.907027 0.925368 0.693919
0.298222 0.789883 0.58172
0.297765 0.789197 0.578531
0.296407 0.784665 0.557809
0.294331 0.753262 0.448707
0.531289 0.783841 0.409659
0.846922 0.910094 0.600702
0.908827 0.922301 0.667445
0.90985 0.9252 0.691814
0.904723 0.927413 0.709987
0.0596628 0.0742046 0.266728
0.0728466 0.0656291 0.283558
0.115267 0.0614023 0.304219
0.245045 0.0679179 0.317998
0.456367 0.0722667 0.308568
0.664302 0.12578 0.347341
0.700771 0.146395 0.378531
0.700023 0.150057 0.391867
0.676081 0.159579 0.427222
0.0504158 0.0775921 0.271015
0.0634318 0.0775769 0.292348
0.104677 0.0609598 0.324041
0.257206 0.0696422 0.343236
0.478492 0.0774395 0.33315
0.68249 0.137896 0.370382
0.702846 0.150439 0.394095
0.702403 0.154452 0.408087
0.679103 0.16527 0.445396
0.0416266 0.0955978 0.262821
0.0425574 0.0864271 0.286992
0.0735332 0.0795605 0.322225
0.255344 0.071046 0.362936
0.488655 0.0823987 0.356939
0.700679 0.143023 0.377218
0.715236 0.152239 0.395712
0.717067 0.15523 0.405646
0.696147 0.164294 0.437598
0.0424506 0.198154 0.2804
0.0425269 0.199084 0.301305
0.0426032 0.192477 0.313008
0.202167 0.160647 0.450233
0.604852 0.209186 0.512062
0.805737 0.203418 0.449638
0.797131 0.194675 0.43856
0.798444 0.196658 0.445136
0.781903 0.210895 0.481285
0.0850233 0.518318 0.431785
0.0698863 0.528191 0.462348
0.0698405 0.535286 0.471092
0.104906 0.548775 0.488762
0.613794 0.624933 0.59498
0.903502 0.560418 0.523751
0.925277 0.558358 0.517617
0.925566 0.564279 0.524956
0.919005 0.575448 0.543114
0.259846 0.753292 0.58996
0.250385 0.759716 0.609537
0.25211 0.762448 0.609796
0.244282 0.758267 0.583032
0.469612 0.776974 0.551034
0.819471 0.8748 0.643778
0.926879 0.873838 0.665003
0.92639 0.876448 0.67097
0.926482 0.880781 0.67953
0.351019 0.80975 0.651347
0.337606 0.811627 0.664027
0.331701 0.809842 0.658808
0.313405 0.799451 0.621363
0.479988 0.806134 0.574563
0.785702 0.891417 0.68275
0.910903 0.928405 0.722637
0.911177 0.932342 0.759686
0.908858 0.932998 0.767544
0.357092 0.817823 0.681773
0.354681 0.818311 0.684672
0.345785 0.815457 0.677668
0.322087 0.803342 0.634592
0.520256 0.814923 0.590295
0.803525 0.897063 0.696071
0.906661 0.928649 0.728695
0.910765 0.933227 0.769924
0.903609 0.93434 0.785061
0.36701 0.823117 0.70045
0.366934 0.823301 0.700923
0.357702 0.820249 0.691691
0.33051 0.807538 0.646677
0.56791 0.830839 0.628779
0.819333 0.904295 0.72639
0.904585 0.931228 0.755749
0.907362 0.934539 0.785595
0.900816 0.935637 0.799573
0.10425 0.0909438 0.432288
0.119097 0.0764172 0.452033
0.164889 0.0753338 0.467399
0.295872 0.0856641 0.486244
0.465202 0.104845 0.507698
0.689128 0.176883 0.55053
0.718181 0.195666 0.587213
0.715953 0.201236 0.604837
0.704906 0.208865 0.624414
0.0997177 0.102129 0.437476
0.112642 0.0914626 0.456687
0.156619 0.0774395 0.479896
0.306218 0.0888533 0.502007
0.486 0.115251 0.530327
0.7037 0.189944 0.579858
0.723125 0.203372 0.609979
0.722957 0.210025 0.627649
0.711009 0.217716 0.646113
0.0681468 0.105074 0.426017
0.0834669 0.106416 0.447517
0.123705 0.0885634 0.477577
0.298528 0.0912032 0.512947
0.498833 0.125185 0.550088
0.710811 0.194827 0.594598
0.733455 0.202121 0.611826
0.731777 0.207797 0.62771
0.717739 0.216327 0.64622
0.0426032 0.164736 0.426596
0.04271 0.163684 0.438285
0.0426337 0.151614 0.443381
0.175418 0.0926528 0.51516
0.51075 0.146715 0.586313
0.737209 0.213291 0.616938
0.750683 0.203693 0.599359
0.749401 0.20618 0.605982
0.730739 0.215015 0.625162
0.0508125 0.509239 0.561028
0.0510262 0.518303 0.577615
0.0524453 0.52314 0.587671
0.061326 0.528298 0.623896
0.555566 0.513787 0.793881
0.921157 0.584451 0.852354
0.944472 0.577523 0.845411
0.94435 0.585153 0.850813
0.937438 0.597238 0.858381
0.265614 0.745586 0.671809
0.258122 0.751812 0.686458
0.26215 0.755505 0.690089
0.261921 0.754543 0.689433
0.513558 0.802396 0.748623
0.8309 0.85716 0.824506
0.919753 0.844343 0.800946
0.920104 0.847303 0.804837
0.916579 0.853666 0.815961
0.455177 0.843488 0.75761
0.444175 0.842618 0.762798
0.44155 0.842115 0.761868
0.427161 0.838941 0.751705
0.559304 0.866423 0.771115
0.810239 0.915312 0.836622
0.903746 0.940795 0.860792
0.908553 0.942946 0.866316
0.90811 0.943343 0.869825
0.467353 0.846677 0.769818
0.460105 0.845991 0.772366
0.454612 0.84506 0.770153
0.437568 0.841245 0.758175
0.587854 0.873106 0.784848
0.81886 0.918517 0.844404
0.898802 0.940963 0.870359
0.905104 0.943206 0.871153
0.903471 0.943511 0.875441
0.474388 0.848737 0.777813
0.471321 0.848432 0.778714
0.465461 0.847272 0.77615
0.44712 0.843473 0.763821
0.629648 0.883162 0.804227
0.833066 0.923659 0.856764
0.899519 0.942214 0.878996
0.906126 0.94432 0.879057
0.90483 0.944778 0.882994
0.188312 0.0933242 0.529793
0.206851 0.0948806 0.534371
0.241886 0.0982834 0.541772
0.339971 0.113832 0.563104
0.518318 0.157122 0.617044
0.72195 0.239704 0.700206
0.735439 0.244892 0.705562
0.738018 0.244175 0.704219
0.733242 0.245533 0.70634
0.176394 0.0934768 0.529595
0.196002 0.094667 0.534157
0.23566 0.0980392 0.541741
0.348013 0.115953 0.566094
0.538872 0.165866 0.626932
0.729274 0.243076 0.702861
0.734844 0.245075 0.705776
0.734371 0.245212 0.705959
0.730022 0.246479 0.707546
0.144366 0.104845 0.51458
0.154849 0.0945907 0.524941
0.200137 0.0949874 0.534798
0.338293 0.113924 0.563302
0.549233 0.170306 0.631952
0.730877 0.243915 0.703914
0.737667 0.245121 0.705837
0.736889 0.244709 0.705303
0.732464 0.24593 0.706859
0.0716259 0.136004 0.485527
0.0694743 0.132876 0.484977
0.0695811 0.123201 0.475593
0.235096 0.100908 0.544289
0.517403 0.159747 0.622003
0.737728 0.251652 0.713069
0.747631 0.254459 0.716747
0.748791 0.254902 0.717189
0.744595 0.257084 0.719203
0.0572213 0.519112 0.643046
0.0582589 0.528084 0.648295
0.0620127 0.533181 0.65304
0.0926223 0.530343 0.684596
0.623484 0.497063 0.853941
0.923552 0.57789 0.921798
0.937514 0.576699 0.923217
0.93872 0.584268 0.924636
0.930114 0.596567 0.923674
0.285756 0.746761 0.743023
0.289693 0.752911 0.749401
0.296178 0.756039 0.752255
0.292607 0.752667 0.752377
0.502556 0.784665 0.81001
0.840009 0.825711 0.901228
0.91722 0.836484 0.901518
0.918151 0.839033 0.900633
0.91429 0.845304 0.902937
0.488884 0.851987 0.794903
0.492744 0.853223 0.796933
0.489662 0.852583 0.796002
0.459434 0.845853 0.78819
0.595926 0.876432 0.821927
0.826719 0.926711 0.886564
0.904738 0.94406 0.908507
0.912306 0.945495 0.911498
0.912291 0.945998 0.912291
0.573861 0.870893 0.813519
0.56437 0.86949 0.815854
0.555123 0.867552 0.813794
0.512367 0.857527 0.801556
0.64622 0.889021 0.835615
0.843687 0.932509 0.892622
0.903853 0.947799 0.909255
0.916274 0.949584 0.907759
0.915755 0.949889 0.909026
0.579141 0.872724 0.819348
0.57734 0.872496 0.819532
0.566613 0.869978 0.816648
0.517403 0.85864 0.803082
0.678859 0.896422 0.846311
0.855055 0.935424 0.896635
0.905394 0.948898 0.912047
0.912077 0.950927 0.91191
0.911269 0.951171 0.913054
0.216968 0.096376 0.536568
0.232471 0.097612 0.540917
0.261067 0.100969 0.545937
0.354955 0.117067 0.567391
0.531624 0.162356 0.622812
0.727886 0.242496 0.702663
0.735378 0.244907 0.705592
0.738094 0.24416 0.704173
0.733303 0.245518 0.706325
0.197894 0.0946365 0.533516
0.216312 0.0965438 0.538125
0.251789 0.10016 0.544457
0.360616 0.118135 0.568719
0.550561 0.170581 0.632181
0.732601 0.244327 0.704265
0.734829 0.245075 0.705776
0.734356 0.245212 0.705943
0.730022 0.246479 0.707561
0.157946 0.0944533 0.522484
0.171817 0.0932937 0.52961
0.21735 0.0965438 0.538247
0.350225 0.116457 0.566644
0.559625 0.175006 0.637217
0.732403 0.244327 0.704631
0.738109 0.245518 0.706264
0.737362 0.245075 0.705791
0.732876 0.246326 0.707378
0.0717174 0.132494 0.482628
0.0692912 0.129076 0.481117
0.0778973 0.123095 0.480278
0.243534 0.0996414 0.543389
0.52079 0.16022 0.621805
0.736217 0.249622 0.710765
0.74757 0.254322 0.71664
0.748592 0.254704 0.716991
0.744289 0.256748 0.718837
0.0695354 0.521981 0.656611
0.0688487 0.530556 0.659953
0.0687114 0.532097 0.660227
0.0933547 0.522194 0.685389
0.632212 0.492195 0.85774
0.92665 0.568963 0.921126
0.936782 0.569711 0.92253
0.937652 0.57731 0.923278
0.929168 0.590768 0.922652
0.314092 0.754879 0.759258
0.316167 0.759441 0.763027
0.319478 0.761746 0.764187
0.30631 0.753826 0.760678
0.516976 0.783246 0.813138
0.856809 0.821698 0.90483
0.916777 0.831754 0.903365
0.917433 0.835203 0.902815
0.913451 0.841428 0.903777
0.552789 0.866712 0.811933
0.553033 0.867033 0.813062
0.55346 0.86688 0.813443
0.535012 0.861814 0.808621
0.64329 0.886244 0.838422
0.835142 0.92668 0.892836
0.907927 0.94255 0.912169
0.90898 0.942977 0.912123
0.908614 0.943282 0.912261
0.5906 0.874922 0.817563
0.576837 0.87245 0.819577
0.576593 0.872419 0.819608
0.581338 0.87335 0.820768
0.70338 0.90222 0.854688
0.854566 0.935332 0.897032
0.909285 0.948745 0.910628
0.916716 0.950301 0.910536
0.916243 0.950439 0.911162
0.579049 0.872709 0.819348
0.577295 0.872496 0.819516
0.576593 0.872419 0.819608
0.583032 0.873854 0.821378
0.724025 0.906783 0.860594
0.862593 0.93695 0.899031
0.907912 0.949996 0.914626
0.912703 0.951354 0.914672
0.911772 0.951553 0.915572
0.224582 0.0966506 0.537789
0.239643 0.0986191 0.542351
0.267948 0.102113 0.547478
0.360998 0.118273 0.568917
0.538094 0.164996 0.625666
0.730358 0.243763 0.703593
0.735378 0.244907 0.705592
0.738109 0.24416 0.704173
0.733303 0.245518 0.706325
0.205646 0.0953536 0.534813
0.222477 0.0967422 0.539055
0.257267 0.100496 0.545144
0.366751 0.11928 0.570382
0.557305 0.173404 0.635355
0.733745 0.244312 0.70428
0.734829 0.245075 0.705776
0.734356 0.245228 0.705959
0.730022 0.246479 0.707561
0.161837 0.0922255 0.52462
0.176577 0.0937057 0.53077
0.222354 0.0967269 0.53901
0.354849 0.117006 0.567315
0.564721 0.176867 0.639109
0.733333 0.244617 0.705104
0.738308 0.245731 0.706447
0.73756 0.245243 0.706004
0.733074 0.24654 0.707637
0.0715648 0.131655 0.481712
0.0687114 0.128664 0.480201
0.0809033 0.12398 0.482979
0.24712 0.099794 0.543786
0.525338 0.16202 0.623896
0.736034 0.24921 0.710399
0.747723 0.254414 0.716731
0.748653 0.25478 0.717067
0.744381 0.256855 0.718944
0.0691234 0.522896 0.656291
0.0690166 0.531685 0.660121
0.0686809 0.533181 0.660136
0.0946975 0.52221 0.686427
0.637629 0.49395 0.859434
0.927459 0.569726 0.921279
0.937255 0.570916 0.922927
0.937896 0.57882 0.923552
0.929564 0.592294 0.92311
0.315785 0.755779 0.759716
0.317586 0.760357 0.763439
0.320424 0.762356 0.764324
0.306981 0.754131 0.760922
0.520806 0.783978 0.814237
0.858869 0.821683 0.905211
0.916793 0.831662 0.903365
0.917479 0.835325 0.902785
0.913451 0.841657 0.903655
0.552361 0.866606 0.81181
0.553216 0.867063 0.813123
0.553277 0.866682 0.813458
0.532036 0.861082 0.807721
0.643565 0.885924 0.839063
0.835813 0.926558 0.893309
0.907759 0.94197 0.91249
0.908675 0.942504 0.912413
0.908766 0.942931 0.912413
0.590692 0.874937 0.817548
0.576837 0.87245 0.819577
0.576593 0.872419 0.819608
0.581552 0.873396 0.820829
0.705028 0.902693 0.855787
0.856916 0.936339 0.899138
0.908919 0.949081 0.911711
0.917098 0.95021 0.910155
0.917113 0.950195 0.910124
0.57908 0.872709 0.819348
0.577295 0.872496 0.819516
0.576593 0.872419 0.819608
0.583291 0.873915 0.821439
0.725612 0.907149 0.861524
0.865202 0.937942 0.901183
0.907103 0.950393 0.915969
0.911421 0.951629 0.915908
0.911696 0.951568 0.915663
