bundles/resolve-cinematic-luts/Phantom Luts/P4k & P6K Phntm Film LUTs - V6/P6k/Gen 5 Colour/P6k EastmanRM Gen5.cube
TITLE "Generated by Resolve"
LUT_3D_SIZE 9
0.0426184 0.0361486 0.0394293
0.0502022 0.0341955 0.0368353
0.120455 0.0308995 0.0353399
0.277592 0.0298772 0.0400854
0.488106 0.0307622 0.0531167
0.611261 0.0539559 0.0892805
0.648829 0.0757153 0.109117
0.651377 0.0786297 0.114885
0.612741 0.0871748 0.152346
0.0445411 0.0455482 0.0416571
0.0454719 0.0453651 0.0418555
0.108766 0.0418708 0.0395972
0.290044 0.0323186 0.0413367
0.50045 0.0323186 0.053727
0.614038 0.0605783 0.0904555
0.637522 0.0749218 0.103075
0.640208 0.0770733 0.106737
0.605447 0.0846113 0.139055
0.0580453 0.115648 0.0536049
0.0516365 0.118502 0.0511025
0.114855 0.125978 0.0511482
0.345922 0.103151 0.0537118
0.552193 0.069688 0.0635233
0.659098 0.0998398 0.106401
0.681239 0.113542 0.117174
0.684123 0.11548 0.118456
0.664546 0.122988 0.140246
0.0655375 0.290471 0.0827955
0.0528573 0.300526 0.0823682
0.0609751 0.298863 0.0547341
0.355596 0.387472 0.0706951
0.70985 0.35845 0.114656
0.842542 0.388418 0.192691
0.853956 0.397818 0.208728
0.855116 0.403067 0.209522
0.847288 0.414267 0.222538
0.0754559 0.555093 0.195056
0.0674754 0.566033 0.215366
0.0699474 0.56466 0.167437
0.189456 0.568215 0.0792401
0.669734 0.700282 0.183612
0.870375 0.690791 0.331044
0.898207 0.702983 0.3664
0.899992 0.710262 0.374121
0.901106 0.719051 0.385489
0.252354 0.727993 0.420661
0.243122 0.733074 0.437675
0.245747 0.728557 0.417456
0.278233 0.711711 0.330938
0.599542 0.801434 0.400305
0.843793 0.883238 0.533181
0.908614 0.884855 0.600671
0.907073 0.889097 0.609293
0.908293 0.890013 0.608454
0.272435 0.750317 0.469657
0.270314 0.748501 0.46453
0.2701 0.742123 0.441306
0.307805 0.728496 0.366079
0.599496 0.804196 0.458946
0.847608 0.89839 0.603296
0.898939 0.902708 0.654795
0.899626 0.903395 0.659113
0.898589 0.903746 0.662882
0.270542 0.753384 0.480476
0.276707 0.747433 0.45919
0.281514 0.737987 0.422827
0.337423 0.727275 0.343557
0.647745 0.824659 0.468574
0.856626 0.899214 0.599481
0.903014 0.901595 0.647028
0.902861 0.901991 0.649836
0.897505 0.904097 0.665537
0.265782 0.75642 0.492119
0.269291 0.751324 0.473274
0.277256 0.738613 0.426154
0.361883 0.730388 0.341573
0.688273 0.843 0.493523
0.863615 0.900847 0.607553
0.902586 0.901717 0.647898
0.902144 0.902296 0.651713
0.896544 0.904402 0.66775
0.0427253 0.0366217 0.0422675
0.0480049 0.0363165 0.0419165
0.1075 0.0364691 0.0446326
0.264088 0.0352331 0.0548409
0.468711 0.0386206 0.0774548
0.601175 0.0642252 0.123629
0.641947 0.0894331 0.151034
0.6486 0.0965896 0.161639
0.626291 0.103716 0.188968
0.0438849 0.0411536 0.0424048
0.0445869 0.0402991 0.0425116
0.0945144 0.03682 0.0432288
0.259144 0.0334783 0.0510262
0.472526 0.0353094 0.0737316
0.596429 0.0673228 0.122347
0.620859 0.0825513 0.137911
0.623377 0.0847639 0.142031
0.603159 0.0897383 0.162081
0.0566262 0.110658 0.0655375
0.0499428 0.116213 0.0602884
0.105699 0.123644 0.0524453
0.338216 0.0957656 0.0561685
0.533333 0.0553597 0.0665599
0.635737 0.0889754 0.107378
0.653391 0.0994583 0.116274
0.655528 0.100877 0.117159
0.635279 0.107897 0.138247
0.0635996 0.291859 0.103349
0.053666 0.301854 0.100893
0.0565499 0.297169 0.0569162
0.355932 0.387167 0.0707256
0.714214 0.353811 0.115526
0.844221 0.386542 0.195071
0.852842 0.393301 0.208026
0.853849 0.39794 0.208515
0.846494 0.409201 0.221485
0.0769665 0.56051 0.21825
0.0691844 0.57229 0.24007
0.0703593 0.569024 0.191684
0.176287 0.567422 0.0783398
0.671748 0.702052 0.185458
0.872175 0.691295 0.333028
0.898161 0.702937 0.366125
0.899825 0.710094 0.373709
0.900954 0.718853 0.385168
0.252567 0.730526 0.431189
0.24419 0.73611 0.448829
0.245899 0.731426 0.427665
0.273396 0.712306 0.336507
0.59736 0.800397 0.401175
0.844602 0.883558 0.534096
0.908446 0.884947 0.600122
0.907225 0.888472 0.607431
0.90721 0.889845 0.611139
0.271153 0.753796 0.481895
0.27071 0.751629 0.474159
0.269306 0.744518 0.450858
0.301579 0.728252 0.369314
0.597467 0.803113 0.457633
0.847059 0.898207 0.602518
0.898878 0.902754 0.65481
0.899626 0.90341 0.659281
0.898589 0.903777 0.663111
0.269123 0.757824 0.496193
0.277821 0.750683 0.469123
0.279423 0.740429 0.433051
0.329992 0.726635 0.346578
0.644709 0.822995 0.466377
0.856016 0.899382 0.598856
0.902159 0.901381 0.645914
0.902861 0.901991 0.649851
0.896986 0.904265 0.666545
0.26772 0.759762 0.504234
0.271321 0.754284 0.483513
0.276173 0.741329 0.437446
0.349722 0.728557 0.341756
0.684352 0.841352 0.490974
0.862303 0.900603 0.6065
0.902052 0.90164 0.647303
0.902144 0.902296 0.651728
0.896529 0.904402 0.667842
0.04271 0.041413 0.0644999
0.0521401 0.0400549 0.0689403
0.105608 0.0397803 0.064271
0.280003 0.0388952 0.0705119
0.484367 0.03888 0.0946212
0.643336 0.0919356 0.164401
0.687266 0.118578 0.198276
0.68603 0.120195 0.204288
0.661967 0.126329 0.232486
0.0421759 0.0428626 0.0566415
0.0432898 0.0419623 0.0691844
0.0948959 0.0413977 0.0707103
0.286809 0.0383307 0.0720226
0.49131 0.0420386 0.0977951
0.650568 0.100755 0.175494
0.678172 0.118273 0.198199
0.683085 0.122286 0.205615
0.663355 0.127977 0.229679
0.0556191 0.105943 0.0797284
0.0502022 0.109102 0.0884565
0.104036 0.121187 0.103853
0.339773 0.077409 0.0763104
0.521263 0.0438087 0.0786603
0.622889 0.0728771 0.116167
0.641016 0.0835126 0.128252
0.644419 0.0859998 0.131487
0.623407 0.0914778 0.153735
0.07364 0.288762 0.144732
0.0601358 0.299626 0.149432
0.0546578 0.302129 0.106477
0.353735 0.384558 0.0890974
0.71902 0.333608 0.11783
0.845579 0.370764 0.202121
0.848325 0.370398 0.205997
0.849149 0.373541 0.206455
0.841703 0.383764 0.219791
0.0783246 0.568582 0.267048
0.0703441 0.581018 0.293019
0.0704509 0.579278 0.257465
0.133593 0.562158 0.0813611
0.669856 0.699794 0.185016
0.874128 0.683619 0.33109
0.895689 0.695323 0.357748
0.897292 0.701762 0.364935
0.898543 0.710231 0.376471
0.253483 0.737179 0.457969
0.244251 0.743191 0.475624
0.244862 0.739239 0.456947
0.256977 0.71429 0.356878
0.578912 0.792035 0.389258
0.84271 0.881773 0.524865
0.909483 0.882231 0.593484
0.908797 0.884321 0.598337
0.907927 0.886839 0.605478
0.273976 0.762295 0.512337
0.271458 0.761044 0.508797
0.269535 0.753338 0.480598
0.284932 0.73138 0.392218
0.577874 0.794858 0.445441
0.84358 0.89749 0.598856
0.897627 0.9028 0.65539
0.899367 0.903853 0.662745
0.898009 0.904326 0.667094
0.274342 0.766339 0.526131
0.27277 0.764599 0.520119
0.279347 0.751476 0.471519
0.299702 0.726268 0.365805
0.622324 0.81297 0.452232
0.851652 0.898466 0.595117
0.898909 0.901213 0.644312
0.902754 0.902586 0.653361
0.896727 0.90486 0.670527
0.273396 0.769543 0.538384
0.271855 0.767514 0.530877
0.276661 0.753429 0.479149
0.309422 0.72607 0.357824
0.655695 0.828443 0.47361
0.85742 0.899626 0.601999
0.899489 0.901869 0.647898
0.901915 0.903136 0.656611
0.895735 0.905394 0.673961
0.045655 0.0559396 0.145693
0.059968 0.0473793 0.159487
0.114 0.0492561 0.167132
0.281163 0.0476844 0.155673
0.500481 0.0516976 0.189456
0.666392 0.111742 0.248463
0.708659 0.137438 0.28127
0.70724 0.139544 0.292515
0.68188 0.146944 0.328328
0.0402228 0.0605325 0.139681
0.0478676 0.0584878 0.163699
0.104097 0.0505531 0.185183
0.28986 0.0500801 0.180758
0.514702 0.0554513 0.206088
0.681559 0.122988 0.265904
0.708034 0.139895 0.290974
0.707118 0.142229 0.302251
0.684153 0.149279 0.3364
0.0423133 0.101335 0.138338
0.0412146 0.0959029 0.15761
0.06392 0.0709392 0.210727
0.299397 0.0634928 0.217456
0.542733 0.0540627 0.186267
0.707835 0.129244 0.254627
0.725933 0.140246 0.272923
0.726864 0.141527 0.278386
0.704936 0.147982 0.307515
0.0691081 0.277821 0.219074
0.0582437 0.28719 0.239902
0.0582895 0.292256 0.245045
0.37406 0.381018 0.356344
0.727153 0.309178 0.283604
0.861082 0.284276 0.287022
0.85301 0.269703 0.283696
0.854856 0.271061 0.287144
0.852308 0.283528 0.303838
0.0879377 0.578851 0.377584
0.0746624 0.590814 0.413092
0.0754253 0.595331 0.401419
0.092195 0.585275 0.290944
0.653758 0.69482 0.307027
0.879438 0.66186 0.355871
0.896712 0.664149 0.36437
0.897398 0.670436 0.37232
0.895171 0.680873 0.39118
0.254032 0.748974 0.522866
0.244343 0.755047 0.541909
0.244038 0.754406 0.531991
0.235355 0.735729 0.459571
0.501106 0.757778 0.365286
0.839231 0.876234 0.499687
0.914473 0.873304 0.59118
0.914183 0.874739 0.596368
0.913359 0.87747 0.603754
0.290364 0.780011 0.576089
0.285664 0.78056 0.579339
0.281743 0.776562 0.564965
0.270802 0.756054 0.489113
0.507759 0.771282 0.426276
0.831891 0.896376 0.604166
0.891279 0.905486 0.666514
0.898695 0.907469 0.682597
0.896895 0.908705 0.68986
0.295903 0.784588 0.594568
0.291737 0.784787 0.595911
0.286732 0.780331 0.578408
0.281636 0.753613 0.478828
0.543008 0.781201 0.431128
0.839429 0.898039 0.604166
0.891493 0.905058 0.657557
0.902403 0.907378 0.679316
0.896406 0.910445 0.699962
0.296391 0.788632 0.612848
0.29543 0.788113 0.610574
0.289799 0.783444 0.590967
0.282933 0.755062 0.48246
0.582422 0.79617 0.464439
0.84892 0.901305 0.620935
0.89102 0.907271 0.67303
0.900786 0.910018 0.697032
0.894865 0.912551 0.714763
0.0644541 0.0783246 0.315724
0.0829175 0.0581521 0.336675
0.145586 0.0570382 0.356008
0.299397 0.0593118 0.367788
0.501747 0.0744335 0.365042
0.678508 0.14902 0.421622
0.71043 0.16846 0.454276
0.708568 0.170169 0.465431
0.683024 0.178637 0.4972
0.0503853 0.0815747 0.316426
0.0717479 0.0814527 0.340764
0.134874 0.0573281 0.375311
0.311604 0.0614939 0.391287
0.520455 0.0823529 0.388739
0.692882 0.158114 0.443336
0.710994 0.16965 0.466987
0.709484 0.171328 0.477897
0.68394 0.180163 0.509987
0.0418402 0.100114 0.303105
0.0420996 0.0898146 0.327214
0.0841382 0.0728008 0.37229
0.31136 0.0628977 0.409781
0.530541 0.091371 0.413153
0.711055 0.162615 0.450736
0.723522 0.169924 0.467414
0.725002 0.171283 0.475181
0.703487 0.179629 0.504021
0.0428016 0.249485 0.347234
0.043183 0.25127 0.368154
0.0433814 0.243397 0.37908
0.294697 0.203845 0.537392
0.685817 0.257115 0.601144
0.831052 0.245518 0.545449
0.823941 0.233646 0.533349
0.824659 0.236072 0.5393
0.809247 0.251377 0.568719
0.0875257 0.572534 0.485985
0.0752728 0.582956 0.515496
0.076936 0.589502 0.523415
0.11693 0.601267 0.538674
0.665629 0.679103 0.64831
0.888624 0.628489 0.583352
0.912764 0.62295 0.574685
0.91284 0.628763 0.582101
0.9066 0.639384 0.599573
0.27129 0.756527 0.621271
0.25951 0.761273 0.637476
0.259449 0.762615 0.637339
0.252293 0.760525 0.615595
0.533455 0.793652 0.613947
0.828931 0.872404 0.68246
0.917433 0.868864 0.700648
0.917235 0.870466 0.704875
0.91696 0.873137 0.711604
0.353399 0.806149 0.669337
0.339971 0.80679 0.679759
0.334356 0.805844 0.676799
0.31577 0.797711 0.647745
0.536309 0.819043 0.631052
0.807675 0.893156 0.722362
0.891875 0.91751 0.741054
0.90103 0.922347 0.772625
0.898939 0.92311 0.779721
0.363836 0.812573 0.693629
0.361608 0.81294 0.696239
0.350256 0.81059 0.691234
0.324819 0.801205 0.658503
0.577035 0.829007 0.647623
0.82269 0.897444 0.733303
0.889906 0.917494 0.745922
0.900984 0.923552 0.781643
0.893355 0.924956 0.795956
0.381064 0.817456 0.709422
0.38085 0.817487 0.709865
0.367544 0.814603 0.70222
0.333074 0.804547 0.667002
0.625315 0.844388 0.684321
0.833417 0.902602 0.758206
0.887098 0.919921 0.77116
0.897322 0.924941 0.796216
0.890867 0.92578 0.808972
0.1355 0.0668956 0.473198
0.171389 0.0691844 0.483223
0.232181 0.073167 0.492226
0.355352 0.0833448 0.508766
0.506355 0.118349 0.536797
0.681376 0.186786 0.589776
0.70634 0.202518 0.616358
0.705852 0.206546 0.627741
0.699199 0.212634 0.640772
0.122774 0.0778821 0.473671
0.154314 0.0709239 0.489189
0.225574 0.0750744 0.500252
0.365438 0.0885481 0.520058
0.527138 0.131594 0.55726
0.69427 0.197009 0.610147
0.7131 0.209522 0.632105
0.714977 0.215091 0.644739
0.707042 0.221393 0.657191
0.0892958 0.102113 0.44683
0.11107 0.0941024 0.472007
0.18024 0.0744182 0.500694
0.362722 0.0919509 0.527184
0.541756 0.142763 0.573831
0.701411 0.200778 0.618921
0.720913 0.208545 0.633249
0.721828 0.213153 0.644083
0.711589 0.22034 0.657328
0.04271 0.184787 0.450935
0.042771 0.181903 0.459648
0.0433204 0.161837 0.463645
0.259358 0.0956741 0.532692
0.565301 0.169848 0.616693
0.732372 0.222797 0.646876
0.740963 0.214435 0.63209
0.740856 0.216556 0.636591
0.726497 0.223621 0.650111
0.070985 0.560815 0.59997
0.0692912 0.568276 0.612848
0.070222 0.571237 0.617945
0.0889296 0.577798 0.652552
0.638102 0.586252 0.809049
0.901305 0.632776 0.845121
0.929091 0.626032 0.837583
0.92813 0.632227 0.839887
0.920394 0.643458 0.846326
0.276539 0.751293 0.681086
0.26833 0.755871 0.692714
0.271229 0.758068 0.69546
0.272465 0.757961 0.695552
0.580072 0.817746 0.769223
0.834516 0.864057 0.832471
0.909712 0.854475 0.814755
0.911177 0.856443 0.816678
0.907622 0.86157 0.826078
0.503014 0.842557 0.761059
0.493828 0.84126 0.766155
0.490227 0.840558 0.765194
0.470512 0.836027 0.755703
0.621637 0.867826 0.789487
0.825284 0.908614 0.843976
0.887358 0.924178 0.852979
0.903838 0.927016 0.856916
0.90309 0.927291 0.859739
0.522087 0.847562 0.77232
0.514138 0.846387 0.774563
0.5075 0.844862 0.772763
0.485451 0.839475 0.762097
0.649409 0.875517 0.800855
0.8336 0.914031 0.850675
0.884413 0.928527 0.863951
0.895216 0.932174 0.864759
0.893965 0.93257 0.867933
0.531151 0.850294 0.779736
0.527932 0.849897 0.780621
0.520989 0.848219 0.778485
0.497932 0.842359 0.767391
0.687587 0.884428 0.816526
0.843717 0.917556 0.859083
0.884978 0.930022 0.871031
0.894911 0.932662 0.870726
0.894591 0.933242 0.873106
0.277043 0.0918441 0.533684
0.296193 0.0955673 0.539178
0.329656 0.100969 0.546471
0.418494 0.118608 0.56968
0.571099 0.172732 0.628595
0.724804 0.244526 0.70164
0.739483 0.250675 0.705409
0.742626 0.249775 0.704128
0.736721 0.251469 0.706371
0.267353 0.0917678 0.533806
0.286381 0.0944533 0.538033
0.324529 0.100496 0.54612
0.425071 0.120073 0.571786
0.589639 0.181903 0.639048
0.731014 0.247623 0.703395
0.738872 0.250843 0.705623
0.738323 0.251011 0.705821
0.73373 0.252293 0.707851
0.219715 0.0859998 0.52462
0.24152 0.0886397 0.529854
0.290867 0.0951858 0.539025
0.417533 0.118654 0.569818
0.597955 0.186419 0.644419
0.734157 0.249058 0.704265
0.742153 0.250858 0.705562
0.741451 0.25034 0.704967
0.736324 0.251743 0.706783
0.110765 0.137179 0.50518
0.106737 0.132448 0.502861
0.102312 0.116503 0.485161
0.327092 0.105272 0.552453
0.571618 0.176059 0.634348
0.741314 0.257343 0.714336
0.756725 0.261769 0.718151
0.758465 0.262364 0.718959
0.752178 0.265553 0.72166
0.0830701 0.564858 0.661479
0.0892653 0.574121 0.671443
0.102693 0.579522 0.684779
0.143481 0.576318 0.716213
0.697948 0.568261 0.867979
0.903227 0.623484 0.909056
0.925292 0.623316 0.90927
0.925811 0.629816 0.908995
0.917617 0.641138 0.908232
0.32192 0.75404 0.740536
0.320027 0.758663 0.747051
0.328008 0.761608 0.749859
0.328283 0.758556 0.752728
0.595163 0.807828 0.818555
0.842405 0.846723 0.885344
0.906233 0.850065 0.875685
0.90695 0.851728 0.874754
0.90251 0.857038 0.878904
0.548852 0.853666 0.795514
0.552529 0.854765 0.799084
0.548928 0.853895 0.798169
0.511849 0.844968 0.786343
0.657588 0.875731 0.825589
0.834592 0.911727 0.875837
0.886687 0.92314 0.88835
0.902922 0.924804 0.892241
0.902525 0.925261 0.893019
0.637629 0.874098 0.819272
0.62858 0.872679 0.823011
0.619379 0.870756 0.820279
0.576288 0.861646 0.804654
0.704967 0.891386 0.838682
0.848951 0.922606 0.881407
0.888029 0.933608 0.893095
0.899809 0.935775 0.891966
0.901564 0.936355 0.89308
0.644999 0.876036 0.826902
0.641825 0.875563 0.827207
0.630808 0.873167 0.823911
0.581704 0.862608 0.8065
0.732082 0.897719 0.84799
0.856107 0.924834 0.884565
0.889555 0.934585 0.89456
0.898619 0.936721 0.894606
0.898863 0.937713 0.895979
0.306996 0.0970169 0.540673
0.321386 0.0997787 0.545205
0.348669 0.104692 0.551507
0.430884 0.120897 0.572778
0.582376 0.177966 0.634165
0.730114 0.247318 0.703273
0.738811 0.250858 0.705653
0.742443 0.249836 0.704219
0.736721 0.251469 0.706371
0.288701 0.0945754 0.537453
0.305592 0.0970932 0.542
0.339437 0.102876 0.549279
0.436225 0.121889 0.574395
0.59968 0.186648 0.644373
0.733486 0.248661 0.703914
0.738857 0.250858 0.705638
0.738308 0.251011 0.705821
0.73373 0.252293 0.707851
0.245045 0.0884413 0.527443
0.261707 0.0912795 0.533654
0.3066 0.0971847 0.542138
0.426764 0.120287 0.572045
0.606302 0.19028 0.648463
0.735866 0.249653 0.704707
0.74287 0.251453 0.706218
0.741909 0.250706 0.705394
0.736767 0.25211 0.707424
0.109682 0.131868 0.500298
0.105501 0.127001 0.497124
0.115557 0.11635 0.490425
0.333043 0.102724 0.549355
0.574502 0.176486 0.634241
0.739544 0.255406 0.71191
0.755825 0.261875 0.718242
0.757214 0.262333 0.718868
0.751812 0.26511 0.721141
0.116945 0.570428 0.695598
0.117281 0.57792 0.699275
0.116945 0.579446 0.699168
0.142779 0.56939 0.716533
0.705837 0.562676 0.871473
0.906081 0.615305 0.909087
0.929488 0.615686 0.909987
0.929137 0.62327 0.90956
0.918349 0.635966 0.908644
0.371664 0.762341 0.762844
0.371145 0.765667 0.76643
0.374212 0.766964 0.767208
0.361761 0.760891 0.764538
0.606119 0.807904 0.824567
0.848096 0.841489 0.892088
0.905913 0.84799 0.885588
0.908019 0.849577 0.884245
0.902998 0.855085 0.887648
0.6168 0.866896 0.820203
0.616007 0.867384 0.821347
0.616754 0.867536 0.821714
0.597635 0.860548 0.816449
0.70045 0.881834 0.846555
0.840177 0.911376 0.885313
0.891234 0.922057 0.898573
0.89807 0.924392 0.898558
0.89778 0.924804 0.898955
0.654887 0.877791 0.825467
0.64065 0.875441 0.827451
0.640284 0.875425 0.827497
0.644785 0.876402 0.828717
0.751232 0.90161 0.859724
0.856825 0.925933 0.888792
0.891524 0.933883 0.896651
0.902922 0.934966 0.895125
0.908125 0.935515 0.900771
0.643977 0.875868 0.827024
0.64152 0.875532 0.827268
0.640284 0.875425 0.827497
0.646387 0.876783 0.82919
0.767971 0.905516 0.864195
0.861723 0.927352 0.88986
0.8916 0.935943 0.899977
0.899718 0.937926 0.900511
0.900084 0.938994 0.901411
0.314168 0.0981308 0.542184
0.328298 0.101259 0.547051
0.355459 0.10605 0.553414
0.436622 0.121965 0.574502
0.5888 0.181048 0.63801
0.732403 0.24828 0.703655
0.738857 0.250858 0.705638
0.742458 0.249821 0.704204
0.736721 0.251469 0.706371
0.296178 0.0958572 0.539147
0.311864 0.0981308 0.54316
0.344762 0.103838 0.550347
0.441291 0.123095 0.57583
0.604974 0.189029 0.646723
0.735241 0.249027 0.704082
0.738857 0.250858 0.705638
0.738308 0.251011 0.705821
0.73373 0.252293 0.707851
0.251408 0.0888838 0.52845
0.26717 0.0919814 0.534554
0.311696 0.0981003 0.54313
0.430732 0.12079 0.572686
0.610834 0.19237 0.650828
0.736782 0.25008 0.705074
0.743221 0.251789 0.706783
0.742184 0.250996 0.705715
0.737118 0.252384 0.707897
0.109972 0.131502 0.500084
0.103914 0.125887 0.49543
0.119661 0.116579 0.494759
0.335485 0.102693 0.549096
0.577966 0.178363 0.636149
0.739681 0.255085 0.711513
0.756054 0.261967 0.718395
0.757336 0.26244 0.71899
0.751888 0.265248 0.721294
0.117357 0.571115 0.695827
0.117571 0.578988 0.699351
0.11693 0.580713 0.698909
0.144717 0.568887 0.71725
0.710231 0.564416 0.873182
0.906722 0.616236 0.909209
0.929808 0.616892 0.91014
0.929534 0.624674 0.909957
0.918517 0.637858 0.908919
0.373098 0.762936 0.763088
0.372747 0.766125 0.766629
0.375692 0.767407 0.767575
0.362432 0.76112 0.764645
0.609461 0.80853 0.82536
0.849195 0.841245 0.892149
0.905959 0.847883 0.885557
0.908019 0.849668 0.884138
0.903014 0.855299 0.887617
0.616388 0.866728 0.820157
0.616236 0.867399 0.821439
0.616739 0.867521 0.821714
0.594583 0.859541 0.815763
0.700343 0.881376 0.846815
0.840314 0.911192 0.885817
0.89099 0.921752 0.899596
0.897841 0.924147 0.899825
0.897856 0.924529 0.899702
0.655024 0.877821 0.825467
0.64065 0.875441 0.827451
0.640284 0.875425 0.827497
0.644938 0.876432 0.828779
0.752346 0.902037 0.860685
0.85745 0.926253 0.891356
0.890715 0.934005 0.899489
0.903944 0.93463 0.895979
0.905379 0.935164 0.896544
0.644007 0.875868 0.827024
0.64152 0.875532 0.827268
0.640284 0.875425 0.827497
0.646586 0.876844 0.829297
0.768872 0.905898 0.865431
0.862989 0.928222 0.892668
0.890776 0.936538 0.90164
0.898604 0.938552 0.902419
0.900298 0.93933 0.902632
