bundles/resolve-cinematic-luts/Phantom Luts/P4k & P6K Phntm Film LUTs - V6/P6k/Gen 5 Colour/P6k Eterna Gen5.cube
TITLE "Generated by Resolve"
LUT_3D_SIZE 5
0.00932326 0.0377356 0.0377356
0.0883803 0.0433661 0.0394903
0.494331 0.104692 0.151431
0.714595 0.159579 0.217624
0.745922 0.158923 0.233875
0.0436255 0.123766 0.075761
0.11194 0.136233 0.0691844
0.602701 0.132647 0.153124
0.75053 0.184024 0.19556
0.759243 0.187716 0.197955
0.17435 0.768154 0.414374
0.18117 0.812726 0.414847
0.716884 0.78024 0.249958
0.952529 0.799054 0.392233
0.951125 0.787396 0.377615
0.281025 0.920287 0.579507
0.287877 0.918486 0.561715
0.515312 0.923964 0.470512
0.950988 0.934096 0.667155
0.950515 0.93666 0.671199
0.265354 0.925246 0.588846
0.285863 0.918791 0.571633
0.36849 0.914733 0.464897
0.927428 0.932479 0.634623
0.946212 0.938949 0.668925
0.0205692 0.0405737 0.0851301
0.106172 0.048127 0.0821851
0.489784 0.110933 0.178119
0.779736 0.188037 0.27686
0.79939 0.18558 0.299855
0.0444038 0.107622 0.0973068
0.10811 0.121157 0.118044
0.572854 0.116442 0.179767
0.773205 0.180117 0.256367
0.796872 0.193179 0.284321
0.13727 0.728008 0.437568
0.143374 0.772808 0.437751
0.697978 0.763317 0.235172
0.950805 0.790646 0.380407
0.949569 0.776837 0.365545
0.267048 0.925597 0.654475
0.271519 0.923812 0.628382
0.532815 0.923934 0.473671
0.949416 0.933806 0.665324
0.950332 0.936996 0.67422
0.262226 0.930266 0.687343
0.273198 0.924056 0.655543
0.390143 0.915862 0.470527
0.924392 0.932845 0.630426
0.945876 0.939193 0.670115
0.152285 0.0623178 0.395865
0.237644 0.0678416 0.43035
0.595468 0.113802 0.386481
0.785107 0.163073 0.454887
0.792493 0.151064 0.532372
0.0254215 0.0705577 0.279744
0.111574 0.0583658 0.410712
0.622736 0.117815 0.462257
0.775448 0.157626 0.543816
0.779492 0.157122 0.625864
0.126162 0.652323 0.570977
0.116747 0.694163 0.627649
0.660822 0.689372 0.649607
0.957443 0.695781 0.663386
0.956573 0.682368 0.688243
0.417792 0.931685 0.849943
0.415763 0.937835 0.86746
0.552163 0.934737 0.775967
0.946624 0.941817 0.763729
0.95697 0.946685 0.824872
0.476219 0.936751 0.889998
0.474769 0.937789 0.892561
0.508949 0.932097 0.818433
0.934737 0.940963 0.813397
0.953017 0.947936 0.817975
0.397681 0.0936904 0.684092
0.425681 0.0971847 0.694133
0.715831 0.164843 0.769619
0.794491 0.180346 0.760876
0.792096 0.176684 0.75082
0.291997 0.0821241 0.63888
0.36585 0.0906844 0.676997
0.670298 0.150439 0.761654
0.805707 0.19472 0.787579
0.806561 0.194919 0.790372
0.131365 0.643549 0.799313
0.140826 0.651499 0.830564
0.474571 0.641627 0.937407
0.951675 0.571298 0.919707
0.950652 0.575479 0.928344
0.583764 0.935988 0.91722
0.564538 0.93901 0.921889
0.591638 0.932723 0.913664
0.937575 0.937987 0.934203
0.962127 0.936309 0.936919
0.633951 0.935378 0.928222
0.625544 0.939147 0.935409
0.70425 0.94078 0.930175
0.936339 0.952041 0.946563
0.962249 0.953399 0.943175
0.417121 0.0960098 0.6916
0.430167 0.0978561 0.695491
0.657862 0.146288 0.75819
0.806943 0.194766 0.791577
0.806943 0.194766 0.791577
0.353597 0.0896315 0.67364
0.369894 0.0910658 0.678416
0.562356 0.118593 0.730022
0.806989 0.194812 0.791638
0.806989 0.194827 0.791638
0.268589 0.692866 0.929961
0.268025 0.692027 0.929763
0.231403 0.620218 0.915221
0.946853 0.491035 0.94461
0.944198 0.456092 0.941497
0.669184 0.936217 0.938918
0.657008 0.934508 0.939055
0.595514 0.922499 0.9393
0.905241 0.928847 0.944625
0.948959 0.926787 0.948837
0.680171 0.937881 0.939025
0.680171 0.937881 0.939025
0.687434 0.937881 0.938903
0.935271 0.952544 0.952132
0.956466 0.956527 0.956466
