bundles/resolve-cinematic-luts/Phantom Luts/P4k & P6K Phntm Film LUTs - V6/P6k/Gen 5 Colour/P6k VisionTeal Gen5.cube
TITLE "Generated by Resolve"
LUT_3D_SIZE 9
0.0222324 0.0299077 0.0281376
0.0222324 0.0301213 0.0287327
0.0884718 0.0271611 0.0272068
0.311391 0.0280003 0.0257877
0.577874 0.0467842 0.0601816
0.759701 0.128161 0.121538
0.759793 0.126131 0.123552
0.765713 0.139193 0.127169
0.775235 0.154269 0.134951
0.0222171 0.0425727 0.0301823
0.0223697 0.0404059 0.0305028
0.0984665 0.038117 0.0314946
0.328511 0.0339818 0.0289769
0.594263 0.057557 0.0674296
0.765621 0.141878 0.126665
0.770336 0.151843 0.130098
0.774212 0.159777 0.133181
0.78172 0.178851 0.137743
0.020264 0.122866 0.0488899
0.0203098 0.117449 0.0375525
0.0950637 0.121294 0.0440528
0.378027 0.114382 0.0525368
0.646815 0.129885 0.0944686
0.780591 0.190494 0.135836
0.782742 0.204227 0.139284
0.791318 0.247868 0.151232
0.800717 0.301579 0.170703
0.0462806 0.373892 0.130129
0.0454414 0.368109 0.112917
0.0498665 0.346807 0.0736553
0.330541 0.366857 0.0604105
0.662196 0.406043 0.153994
0.807172 0.44332 0.240955
0.807279 0.445426 0.241825
0.806806 0.46215 0.249897
0.811826 0.496315 0.258137
0.145342 0.69337 0.38172
0.137346 0.6916 0.367788
0.158526 0.676143 0.328664
0.233982 0.619257 0.191562
0.600381 0.632822 0.174929
0.819501 0.68687 0.299657
0.834287 0.704311 0.329122
0.833967 0.707897 0.332128
0.834607 0.698054 0.321798
0.302205 0.853223 0.564279
0.300893 0.852522 0.558785
0.308171 0.84651 0.541726
0.361456 0.816434 0.467506
0.60499 0.779248 0.441093
0.781033 0.806775 0.477531
0.825711 0.816785 0.517968
0.82565 0.816724 0.517845
0.824994 0.812833 0.504875
0.293858 0.860227 0.580209
0.296208 0.857771 0.572839
0.304402 0.849638 0.551949
0.352682 0.818952 0.471641
0.59765 0.788052 0.465736
0.78088 0.813458 0.502937
0.826642 0.824475 0.54493
0.827176 0.824781 0.546151
0.827131 0.824781 0.546227
0.290578 0.863478 0.584726
0.295109 0.859174 0.576349
0.304768 0.849439 0.554299
0.34638 0.820218 0.475074
0.585412 0.786343 0.460975
0.776181 0.812055 0.49836
0.825406 0.823957 0.543557
0.827451 0.824781 0.546197
0.82707 0.824796 0.546304
0.287602 0.865827 0.588327
0.291905 0.860975 0.579522
0.300801 0.853651 0.563668
0.317647 0.834195 0.5028
0.521569 0.78558 0.448829
0.750042 0.80473 0.482185
0.815412 0.820539 0.535256
0.827253 0.82475 0.545724
0.826993 0.824781 0.545907
0.0224155 0.031754 0.0384375
0.0262608 0.0315862 0.0428473
0.114626 0.0285954 0.054963
0.343969 0.0254978 0.052018
0.612421 0.0486305 0.0957351
0.756802 0.100801 0.131151
0.758572 0.107347 0.131289
0.760388 0.115099 0.128206
0.771893 0.142458 0.133562
0.0221866 0.0365148 0.033875
0.0222629 0.035111 0.0331273
0.0979477 0.0282444 0.0327916
0.316915 0.0238651 0.0287785
0.579339 0.0379492 0.067277
0.757992 0.111772 0.125429
0.761807 0.122301 0.125917
0.771328 0.145586 0.132158
0.78265 0.169848 0.142184
0.0218204 0.114824 0.0670481
0.0197147 0.114443 0.0496681
0.0890516 0.114672 0.0441901
0.376486 0.0983291 0.0486915
0.636698 0.109087 0.0899977
0.779583 0.171221 0.138003
0.782849 0.195315 0.139361
0.791043 0.235431 0.150256
0.802579 0.301946 0.17258
0.0347906 0.37351 0.14519
0.03299 0.368505 0.125093
0.0469978 0.349004 0.0840772
0.326711 0.362661 0.0602884
0.661601 0.399359 0.15346
0.807584 0.434791 0.237201
0.807385 0.436118 0.238025
0.807126 0.463172 0.251072
0.812985 0.499168 0.25951
0.142992 0.693141 0.395956
0.135424 0.691402 0.383917
0.133318 0.68011 0.340978
0.217609 0.619013 0.191638
0.598123 0.630854 0.172946
0.820264 0.685176 0.299199
0.833707 0.700633 0.324773
0.834058 0.703151 0.327688
0.83415 0.693095 0.317113
0.297673 0.857145 0.572824
0.297337 0.856321 0.567437
0.304356 0.849577 0.549935
0.350881 0.819516 0.47155
0.598459 0.777829 0.437964
0.778424 0.8047 0.470497
0.825376 0.815274 0.51284
0.825299 0.815045 0.512139
0.824521 0.810254 0.496544
0.289143 0.865461 0.590005
0.292226 0.861418 0.581704
0.300496 0.853346 0.56173
0.341344 0.823789 0.479896
0.590173 0.78761 0.463447
0.779019 0.813077 0.501183
0.826123 0.824353 0.544488
0.827176 0.824781 0.546227
0.827115 0.824796 0.546288
0.287663 0.867323 0.594171
0.290333 0.863767 0.585565
0.302174 0.853178 0.564034
0.338048 0.824857 0.485451
0.577905 0.786007 0.459236
0.773449 0.811521 0.496345
0.824277 0.823362 0.542184
0.827466 0.824765 0.546136
0.82707 0.824796 0.546288
0.284749 0.869184 0.596857
0.288502 0.865324 0.588052
0.297047 0.857252 0.572061
0.31667 0.837659 0.515587
0.511711 0.785519 0.447044
0.747219 0.803647 0.480812
0.81355 0.820218 0.534463
0.827253 0.82475 0.545724
0.826993 0.824781 0.545907
0.0212863 0.0415503 0.112428
0.0389715 0.0350042 0.110246
0.113359 0.0304417 0.11194
0.358862 0.026154 0.140932
0.638346 0.08159 0.17116
0.77084 0.138125 0.222995
0.769863 0.133654 0.213169
0.765225 0.118196 0.190616
0.760555 0.101839 0.155215
0.0216678 0.0420233 0.0846876
0.0212711 0.0406958 0.107927
0.0984817 0.0297093 0.103563
0.35346 0.0246433 0.110826
0.642893 0.0792401 0.151461
0.760983 0.110933 0.180148
0.75964 0.107103 0.166796
0.759396 0.102571 0.150072
0.762707 0.111421 0.129122
0.0200504 0.106523 0.0912947
0.020325 0.105013 0.0912947
0.0939193 0.116701 0.109651
0.381231 0.0648508 0.0631876
0.620706 0.063798 0.0823529
0.763272 0.126574 0.126986
0.775982 0.159899 0.136019
0.783841 0.202121 0.141299
0.800412 0.283604 0.16611
0.0398871 0.36463 0.197574
0.0352331 0.362173 0.17966
0.030869 0.355856 0.123705
0.317769 0.355489 0.0621042
0.663218 0.380819 0.154376
0.806928 0.41561 0.227115
0.806912 0.427649 0.233341
0.807691 0.457694 0.24979
0.812467 0.49662 0.258427
0.13933 0.691508 0.422065
0.132555 0.68986 0.412055
0.130999 0.682399 0.380118
0.18645 0.620111 0.197986
0.593179 0.625956 0.170352
0.822919 0.681147 0.299046
0.833707 0.693568 0.317342
0.834241 0.69572 0.319554
0.834104 0.693751 0.317815
0.289647 0.866056 0.592309
0.288869 0.865019 0.587716
0.295659 0.857404 0.569696
0.328786 0.82919 0.489799
0.586831 0.774502 0.43035
0.774243 0.801709 0.458747
0.824857 0.812192 0.503227
0.824704 0.811872 0.502129
0.825238 0.806531 0.485451
0.282048 0.874022 0.611276
0.282246 0.871595 0.603937
0.291157 0.862577 0.582864
0.317906 0.834623 0.501808
0.57557 0.786648 0.46041
0.775387 0.812039 0.498024
0.825696 0.82417 0.544182
0.827466 0.825086 0.547616
0.827451 0.825147 0.548089
0.280278 0.87631 0.615747
0.280888 0.873564 0.608103
0.290379 0.864073 0.587167
0.3187 0.835294 0.508705
0.564248 0.785428 0.455879
0.769375 0.81001 0.492775
0.821729 0.822644 0.540383
0.827512 0.824796 0.546212
0.827085 0.824796 0.546258
0.279393 0.875563 0.61239
0.281117 0.872084 0.604074
0.289036 0.865248 0.588754
0.312871 0.84329 0.534539
0.498878 0.786923 0.446769
0.740551 0.802243 0.478843
0.811368 0.819623 0.533593
0.827253 0.82475 0.545724
0.826978 0.824781 0.545922
0.0328832 0.0663005 0.331624
0.0709087 0.059144 0.330068
0.144808 0.0367437 0.319768
0.353597 0.0309758 0.318502
0.637827 0.0781872 0.418952
0.76376 0.146304 0.470924
0.767666 0.15877 0.421454
0.773404 0.158068 0.36437
0.775219 0.153796 0.30042
0.01944 0.0775616 0.308186
0.033341 0.065919 0.329534
0.115297 0.0377966 0.323064
0.345998 0.0303349 0.312627
0.634058 0.0779736 0.407599
0.766476 0.15874 0.443305
0.773754 0.159701 0.376822
0.775174 0.158938 0.344854
0.776226 0.154971 0.283528
0.0194553 0.111559 0.266239
0.0194553 0.100954 0.279149
0.0489815 0.0649424 0.33048
0.32726 0.0300755 0.297688
0.623178 0.0775006 0.374594
0.775357 0.162463 0.35874
0.777356 0.162463 0.314321
0.777996 0.1617 0.27483
0.774441 0.139864 0.219455
0.0240024 0.349783 0.293614
0.0216068 0.347829 0.293797
0.0217136 0.341878 0.288548
0.385229 0.38938 0.357671
0.698589 0.339895 0.287602
0.809323 0.346441 0.267063
0.808652 0.362387 0.25481
0.811612 0.398199 0.257298
0.814908 0.450919 0.26894
0.108217 0.688594 0.500114
0.10425 0.688075 0.49572
0.109743 0.681254 0.478309
0.126284 0.658274 0.372747
0.58436 0.619074 0.233661
0.827695 0.673548 0.331533
0.834501 0.678538 0.337453
0.83418 0.679957 0.332525
0.8336 0.68333 0.318486
0.264881 0.885512 0.653742
0.263005 0.885588 0.649454
0.264027 0.880995 0.634836
0.279942 0.854322 0.566278
0.539345 0.769833 0.41648
0.762341 0.791791 0.426825
0.826474 0.805478 0.484611
0.826169 0.804196 0.480262
0.827649 0.798169 0.464271
0.262531 0.898329 0.67863
0.261341 0.897612 0.671641
0.268971 0.890867 0.654414
0.288609 0.865476 0.589151
0.527764 0.788342 0.457847
0.764691 0.809781 0.494804
0.821363 0.824048 0.547356
0.829084 0.827497 0.556542
0.828977 0.827344 0.555642
0.259586 0.900206 0.683726
0.260761 0.898482 0.675654
0.267842 0.891752 0.656413
0.288289 0.866651 0.593149
0.511437 0.7879 0.45388
0.755474 0.806806 0.488716
0.814618 0.821805 0.54136
0.829267 0.827268 0.554559
0.828885 0.8271 0.554131
0.263218 0.894987 0.664073
0.267842 0.891432 0.654994
0.271626 0.887144 0.641932
0.288106 0.866758 0.593164
0.448264 0.793713 0.449149
0.719875 0.799222 0.477775
0.804242 0.819287 0.532067
0.828702 0.82652 0.552056
0.82855 0.826612 0.552392
0.14345 0.100237 0.557275
0.162692 0.0592355 0.553307
0.24921 0.0498054 0.547707
0.422721 0.0725719 0.562631
0.653605 0.103334 0.626307
0.773541 0.166278 0.68719
0.774609 0.164126 0.702235
0.773281 0.162524 0.680812
0.761273 0.123476 0.598581
0.0932784 0.11078 0.553017
0.143435 0.0998703 0.556802
0.219455 0.0504158 0.54902
0.411933 0.0692149 0.55877
0.648768 0.101762 0.622141
0.773144 0.162615 0.681956
0.774914 0.166247 0.69659
0.770733 0.154147 0.665766
0.760266 0.122805 0.584848
0.0192874 0.134661 0.537148
0.0267796 0.118074 0.537041
0.14583 0.092256 0.552483
0.382193 0.0610819 0.548547
0.637293 0.0975814 0.608484
0.76936 0.154528 0.665263
0.769787 0.156954 0.668132
0.764858 0.140246 0.633265
0.760739 0.127642 0.568872
0.0194247 0.355612 0.531563
0.019791 0.350683 0.537194
0.019501 0.335134 0.545159
0.341085 0.198962 0.646372
0.673945 0.200732 0.639521
0.783917 0.197696 0.642725
0.780728 0.177066 0.616709
0.776257 0.166354 0.582116
0.783429 0.202213 0.503502
0.106249 0.686351 0.622904
0.101518 0.685344 0.622721
0.0987259 0.680186 0.618036
0.105211 0.671061 0.610254
0.676234 0.671336 0.64358
0.865888 0.656077 0.604074
0.868849 0.655528 0.589319
0.865415 0.662364 0.572015
0.856916 0.663081 0.509331
0.240665 0.900069 0.774334
0.232532 0.901839 0.773602
0.225269 0.900435 0.76582
0.21294 0.891752 0.735058
0.542763 0.830381 0.652522
0.78471 0.817365 0.599023
0.860243 0.820127 0.605127
0.859892 0.818509 0.601022
0.85359 0.807675 0.565896
0.345754 0.905241 0.789014
0.324483 0.90898 0.785763
0.299931 0.912306 0.779461
0.252842 0.91577 0.751644
0.498909 0.854398 0.658991
0.763073 0.836927 0.609003
0.832013 0.846189 0.632502
0.850553 0.85362 0.661143
0.847883 0.850889 0.649393
0.351003 0.905516 0.791714
0.327779 0.908644 0.786709
0.298238 0.912596 0.779507
0.252186 0.915816 0.751522
0.452003 0.85507 0.645655
0.739467 0.8309 0.595911
0.819013 0.839872 0.605783
0.848859 0.851957 0.654444
0.846159 0.849424 0.644251
0.284504 0.913054 0.773114
0.270909 0.914626 0.765606
0.255482 0.916671 0.756954
0.248051 0.911849 0.727886
0.331731 0.863127 0.609445
0.679072 0.815976 0.553475
0.804715 0.831662 0.571801
0.840238 0.844495 0.626612
0.843122 0.845685 0.630365
0.326116 0.0817731 0.717952
0.34757 0.0826581 0.718761
0.392599 0.0852522 0.722362
0.522744 0.11078 0.745098
0.714946 0.173678 0.79707
0.78854 0.191791 0.824048
0.788449 0.191836 0.824002
0.788418 0.191836 0.823987
0.788586 0.191791 0.824063
0.298192 0.0804913 0.716381
0.323766 0.0811322 0.716533
0.373541 0.084062 0.719509
0.512184 0.107256 0.741421
0.710735 0.172473 0.794873
0.788296 0.189639 0.822446
0.788342 0.191852 0.823941
0.788342 0.191852 0.823941
0.788556 0.1897 0.822919
0.238605 0.114275 0.715633
0.249439 0.0767071 0.708812
0.31754 0.0797894 0.71252
0.482872 0.0977798 0.732464
0.699306 0.169223 0.789532
0.787198 0.184955 0.81799
0.788113 0.190478 0.823026
0.788174 0.191455 0.823545
0.78616 0.179416 0.814069
0.019913 0.309895 0.740169
0.0195621 0.289326 0.73518
0.0299992 0.243946 0.721599
0.366247 0.102937 0.730129
0.658518 0.173938 0.773816
0.785885 0.178882 0.80267
0.785748 0.180484 0.804623
0.786084 0.182986 0.805783
0.780484 0.159472 0.776898
0.021088 0.724132 0.793606
0.021088 0.721767 0.793957
0.0211185 0.717952 0.796277
0.0211643 0.701045 0.807431
0.69897 0.592782 0.868299
0.874388 0.589685 0.850935
0.878965 0.586694 0.84686
0.876402 0.579263 0.834379
0.860502 0.528115 0.790188
0.291325 0.892943 0.835828
0.283452 0.893324 0.836042
0.275288 0.892683 0.835157
0.260517 0.888502 0.831113
0.555779 0.846952 0.807828
0.834745 0.843351 0.822003
0.905058 0.828824 0.804776
0.900572 0.820813 0.792416
0.888685 0.806653 0.759335
0.532158 0.898543 0.835294
0.523766 0.899199 0.833875
0.515984 0.899306 0.832517
0.493416 0.898817 0.827482
0.549554 0.892851 0.813245
0.799512 0.893797 0.821546
0.876463 0.899229 0.814084
0.900526 0.893675 0.804501
0.897124 0.888319 0.791135
0.537957 0.898497 0.836347
0.527306 0.899306 0.834836
0.5178 0.899214 0.832746
0.492531 0.898848 0.82739
0.512428 0.894423 0.80766
0.779919 0.894057 0.813901
0.868711 0.901686 0.810651
0.885695 0.898543 0.798016
0.884718 0.895582 0.789654
0.50869 0.898085 0.829236
0.497032 0.898451 0.827741
0.484764 0.898405 0.824796
0.455421 0.899229 0.818998
0.396323 0.900649 0.791836
0.731746 0.883314 0.78703
0.84947 0.890486 0.784039
0.876295 0.890684 0.777554
0.882856 0.892439 0.780529
0.370336 0.0871443 0.731777
0.388174 0.0877699 0.732464
0.427008 0.090837 0.736629
0.548669 0.121477 0.761135
0.731289 0.182849 0.807935
0.788739 0.191775 0.824201
0.788663 0.191791 0.824155
0.78854 0.191806 0.824063
0.788663 0.191775 0.824094
0.34725 0.0850996 0.729
0.369589 0.0870985 0.731777
0.410819 0.0897841 0.734905
0.538689 0.117418 0.758297
0.72697 0.182544 0.807095
0.7888 0.19176 0.824231
0.788769 0.19176 0.824216
0.788724 0.191775 0.824186
0.788724 0.191775 0.824186
0.282887 0.081117 0.723247
0.314656 0.0831922 0.725536
0.368933 0.0870069 0.731716
0.5131 0.107698 0.75169
0.717021 0.181445 0.804501
0.788876 0.192798 0.824353
0.788678 0.192142 0.82417
0.788602 0.191943 0.824109
0.788754 0.191852 0.824186
0.149874 0.254139 0.771023
0.15111 0.236133 0.761028
0.150805 0.198734 0.737591
0.400153 0.0950332 0.740032
0.674556 0.179644 0.794232
0.790814 0.201846 0.82678
0.791089 0.203861 0.827131
0.791196 0.20473 0.827314
0.791196 0.203769 0.827268
0.110887 0.731853 0.860365
0.115557 0.726741 0.8607
0.123064 0.718746 0.861555
0.12874 0.690974 0.858701
0.723766 0.56733 0.896376
0.865202 0.571298 0.8925
0.868498 0.567895 0.891249
0.868193 0.56701 0.890562
0.861875 0.536034 0.885725
0.420172 0.868696 0.864286
0.413977 0.868101 0.864576
0.403815 0.865751 0.864607
0.387747 0.859083 0.866484
0.576959 0.840497 0.871794
0.846113 0.8159 0.904021
0.908003 0.810849 0.892073
0.907668 0.807492 0.890913
0.907546 0.786053 0.881178
0.623224 0.900069 0.857603
0.617594 0.900603 0.85716
0.604013 0.900587 0.855497
0.560388 0.901137 0.851652
0.59353 0.89601 0.849134
0.80499 0.899214 0.866712
0.894972 0.908324 0.884718
0.923598 0.902663 0.884871
0.923095 0.898009 0.877714
0.631998 0.90016 0.859663
0.630503 0.900603 0.859739
0.621286 0.90045 0.857649
0.58175 0.901274 0.851209
0.601801 0.900404 0.84387
0.797726 0.911315 0.867124
0.884489 0.923766 0.885939
0.910597 0.926223 0.884733
0.914137 0.923751 0.878492
0.609903 0.899886 0.855283
0.59707 0.900847 0.853941
0.582132 0.901366 0.851652
0.563653 0.901061 0.84625
0.551339 0.899474 0.836835
0.755749 0.904707 0.851652
0.870497 0.920851 0.877501
0.906859 0.924559 0.878782
0.911452 0.924743 0.877043
0.378408 0.0873884 0.732128
0.396704 0.0885786 0.733562
0.433631 0.0917525 0.737835
0.555428 0.124239 0.762844
0.735515 0.183261 0.809461
0.788739 0.19176 0.824201
0.788724 0.191775 0.824186
0.788617 0.191791 0.82414
0.78854 0.191806 0.824033
0.357549 0.0855116 0.730007
0.37792 0.0873884 0.732113
0.41796 0.0902571 0.735592
0.544823 0.119738 0.759823
0.731609 0.182803 0.808011
0.788769 0.19176 0.824216
0.788769 0.191775 0.824201
0.788754 0.19176 0.824201
0.788739 0.191775 0.824155
0.295567 0.082063 0.724147
0.325475 0.0838331 0.726528
0.377386 0.0873732 0.732082
0.519081 0.109926 0.753323
0.720684 0.18201 0.805493
0.7888 0.192355 0.824262
0.788724 0.192416 0.824216
0.788678 0.192126 0.82417
0.788739 0.191959 0.824186
0.152163 0.243687 0.765148
0.152102 0.226093 0.755077
0.151019 0.190478 0.732158
0.400565 0.0902724 0.735195
0.677638 0.1794 0.794965
0.790845 0.20032 0.826688
0.791058 0.203738 0.827131
0.791226 0.204501 0.827359
0.79115 0.20351 0.827237
0.142702 0.726726 0.86479
0.138705 0.721843 0.863584
0.13315 0.713191 0.862119
0.126574 0.685924 0.858381
0.723156 0.557763 0.893446
0.863874 0.561654 0.891264
0.866056 0.55761 0.889357
0.86595 0.555657 0.889143
0.861006 0.52961 0.884901
0.453941 0.865385 0.868421
0.448432 0.864149 0.868666
0.439063 0.861051 0.869047
0.416022 0.855009 0.871366
0.580407 0.837781 0.876692
0.850721 0.808515 0.912413
0.906798 0.803998 0.904509
0.906645 0.800168 0.905028
0.904585 0.785199 0.90605
0.630991 0.90045 0.8598
0.630442 0.900618 0.859739
0.628641 0.900236 0.859586
0.60856 0.896773 0.859312
0.641138 0.890852 0.864622
0.807111 0.89543 0.884779
0.899245 0.899611 0.904707
0.916579 0.899031 0.904067
0.916487 0.893889 0.903181
0.630655 0.900557 0.859754
0.630457 0.900618 0.859724
0.630442 0.900618 0.859739
0.630579 0.900618 0.859724
0.672847 0.902602 0.862959
0.811231 0.915785 0.882811
0.889006 0.924544 0.902235
0.91429 0.927611 0.906203
0.926177 0.923522 0.910079
0.632822 0.899901 0.858961
0.630533 0.900587 0.859709
0.630442 0.900618 0.859739
0.630442 0.900618 0.859739
0.631495 0.901473 0.858747
0.778271 0.910903 0.872709
0.879194 0.925155 0.899214
0.911116 0.930266 0.905226
0.917372 0.931121 0.904784
0.380667 0.0874647 0.732158
0.3991 0.0889448 0.733974
0.435096 0.0917983 0.737972
0.555322 0.124178 0.762814
0.734905 0.183276 0.809369
0.788739 0.19176 0.824201
0.788724 0.191775 0.824186
0.788663 0.191791 0.824155
0.788785 0.19176 0.824216
0.360143 0.0859083 0.730678
0.380102 0.08748 0.732204
0.419257 0.0902266 0.735576
0.544594 0.11957 0.759594
0.730922 0.182864 0.807874
0.788769 0.191775 0.824201
0.788769 0.191775 0.824201
0.788708 0.191775 0.824186
0.788708 0.191775 0.82414
0.300694 0.0819409 0.724056
0.329961 0.0842756 0.727321
0.379492 0.0873884 0.732143
0.519158 0.109957 0.753323
0.719951 0.181949 0.80528
0.788724 0.192035 0.824201
0.788739 0.192447 0.824231
0.788693 0.192157 0.824186
0.788769 0.191974 0.824201
0.15317 0.235798 0.760601
0.152483 0.218158 0.749966
0.151766 0.185 0.728435
0.401404 0.0899672 0.734997
0.676448 0.178912 0.794354
0.790295 0.199084 0.826093
0.790982 0.203449 0.827008
0.791165 0.204105 0.827268
0.791012 0.203037 0.827054
0.137972 0.720607 0.863401
0.134936 0.716335 0.863096
0.130144 0.708644 0.861952
0.1205 0.680095 0.857359
0.718883 0.548424 0.891249
0.860883 0.551202 0.888884
0.86389 0.546395 0.887861
0.863905 0.543999 0.887922
0.856916 0.516625 0.881788
0.448356 0.863966 0.86862
0.442237 0.861997 0.868772
0.433387 0.859297 0.870069
0.408011 0.852583 0.87158
0.56907 0.83447 0.876173
0.848737 0.801923 0.912703
0.905943 0.797192 0.905058
0.905058 0.793256 0.905608
0.903761 0.777584 0.906371
0.630823 0.900496 0.859785
0.630442 0.900618 0.859739
0.623667 0.899413 0.859495
0.601465 0.895598 0.859831
0.630243 0.888685 0.86424
0.801755 0.892195 0.883619
0.89897 0.89575 0.905394
0.91577 0.895048 0.905241
0.915373 0.889784 0.904875
0.630625 0.900557 0.859754
0.630457 0.900618 0.859724
0.630442 0.900618 0.859739
0.630533 0.900603 0.859739
0.669459 0.90248 0.862608
0.810941 0.914168 0.884504
0.887068 0.922835 0.903532
0.915206 0.925704 0.910216
0.918227 0.925185 0.909972
0.63331 0.899763 0.858854
0.630533 0.900587 0.859709
0.630442 0.900618 0.859739
0.630442 0.900618 0.859739
0.645319 0.901366 0.860822
0.789792 0.912535 0.87921
0.881621 0.926604 0.903487
0.912062 0.930877 0.910048
0.918791 0.932418 0.911284
