bundles/resolve-cinematic-luts/Phantom Luts/P4k & P6K Phntm Film LUTs - V6/P6k/Gen 5 Colour/P6k Bleach Gen5-Legacy.cube
TITLE "Generated by Resolve"
LUT_3D_SIZE 33
0.0253147 0.0381933 0.0269932
0.0253147 0.0381933 0.0269932
0.0253147 0.0381933 0.0269932
0.025452 0.0381781 0.026978
0.0257725 0.0381476 0.0269322
0.0308537 0.0397803 0.0285191
0.0355535 0.0414435 0.030045
0.039704 0.0429847 0.0314488
0.0433204 0.0446174 0.0317082
0.0521859 0.0460517 0.0321965
0.0628824 0.0474403 0.033341
0.0757763 0.0479744 0.0350805
0.0923629 0.0488136 0.0382849
0.113725 0.050721 0.0423285
0.144305 0.0530556 0.0460975
0.182513 0.0558328 0.0486458
0.22768 0.0590066 0.0523079
0.27602 0.0618753 0.05626
0.326925 0.0637064 0.0611734
0.387945 0.0651865 0.0658885
0.461326 0.0656748 0.0698711
0.526925 0.0679942 0.0757916
0.584573 0.0721447 0.0842756
0.643473 0.0785229 0.0953231
0.698314 0.0851301 0.107179
0.751751 0.0922103 0.119081
0.769558 0.0956436 0.123339
0.77882 0.097734 0.126299
0.779355 0.0983139 0.127214
0.77966 0.0986801 0.12784
0.779919 0.0990005 0.128359
0.78024 0.0993668 0.128969
0.780499 0.0996872 0.129519
0.0253147 0.0381933 0.0269932
0.0253147 0.0381933 0.0269932
0.0253147 0.0381933 0.0269932
0.0254215 0.0381781 0.0269932
0.0269932 0.0387274 0.0274357
0.0327764 0.0403906 0.0291905
0.0367742 0.0420691 0.0307012
0.041062 0.0437018 0.0316777
0.0481117 0.0457465 0.0319066
0.0602274 0.047013 0.0331121
0.0737926 0.0481422 0.0348058
0.0903182 0.0487373 0.0377813
0.112032 0.0505837 0.0420539
0.143023 0.0530251 0.0459907
0.18172 0.055787 0.0484932
0.228 0.0590829 0.0522164
0.277485 0.0619364 0.0561685
0.329763 0.0638132 0.0611429
0.392508 0.0652781 0.0658427
0.46566 0.0656443 0.0696574
0.530434 0.0681621 0.0757458
0.587167 0.0724041 0.0843214
0.64564 0.0785992 0.0951553
0.700053 0.0851148 0.106798
0.75111 0.0920882 0.118166
0.769436 0.0955367 0.122499
0.778866 0.097612 0.125368
0.77937 0.0981613 0.126268
0.779736 0.098558 0.126879
0.780026 0.0988632 0.127245
0.780301 0.0991531 0.127672
0.780575 0.0994583 0.128099
0.780774 0.0997177 0.128374
0.0253147 0.0381933 0.0269932
0.0253147 0.0381933 0.0269932
0.0253147 0.0381933 0.0269932
0.0253147 0.0381933 0.0269932
0.0281376 0.0391089 0.0277867
0.0331121 0.0409857 0.0294347
0.0378271 0.0428473 0.0312657
0.0425269 0.0447395 0.0318608
0.0525673 0.047013 0.0326238
0.066041 0.0483253 0.0339666
0.0809949 0.0485695 0.0357824
0.101762 0.0499733 0.039826
0.129931 0.0521553 0.0439002
0.166003 0.0548409 0.047425
0.209369 0.0578164 0.0499123
0.25861 0.0606699 0.0536202
0.310079 0.0631876 0.0580758
0.36965 0.0646525 0.0630503
0.439826 0.0651255 0.0664683
0.506203 0.0664073 0.0712291
0.566339 0.070222 0.0791638
0.623667 0.0757305 0.0893873
0.678645 0.0820935 0.100801
0.73019 0.088838 0.111254
0.760952 0.0935683 0.118807
0.778759 0.0971695 0.123201
0.779156 0.0975357 0.123842
0.779599 0.0979934 0.124376
0.77998 0.0984207 0.124788
0.780255 0.0986954 0.12517
0.780453 0.0989242 0.125444
0.780621 0.0990921 0.125612
0.78085 0.0993057 0.125841
0.0253147 0.0381933 0.0269932
0.0253147 0.0381933 0.0269932
0.0253147 0.0381933 0.0269932
0.0253147 0.0381933 0.0269932
0.0270237 0.0391852 0.0276646
0.0323796 0.0415503 0.0295109
0.0371099 0.0437324 0.0313268
0.0425574 0.046479 0.0328527
0.0520485 0.0487526 0.0332036
0.0673381 0.0496834 0.0348058
0.0843061 0.0500191 0.0367895
0.10631 0.05066 0.0399939
0.136568 0.0530861 0.0447242
0.17499 0.0555276 0.0474861
0.221302 0.0586404 0.0499733
0.272099 0.0614786 0.0539254
0.325689 0.0637064 0.0577249
0.387274 0.065156 0.0619974
0.458625 0.0648203 0.0649577
0.522866 0.066743 0.0703288
0.580423 0.0711528 0.0792248
0.637461 0.0768292 0.0895094
0.691005 0.0831159 0.100542
0.741268 0.0899214 0.111086
0.764782 0.093843 0.116915
0.778912 0.0967575 0.120851
0.779355 0.0971847 0.121187
0.77969 0.0975509 0.121569
0.780026 0.0979171 0.122026
0.780316 0.0982071 0.122301
0.780591 0.0984665 0.122591
0.780774 0.0986038 0.12256
0.780896 0.0987106 0.122438
0.0268559 0.0418555 0.0290684
0.0278935 0.043534 0.0300755
0.028336 0.0446174 0.0303807
0.0289006 0.0446174 0.0299992
0.0309606 0.0440681 0.0301823
0.035111 0.0469215 0.0318608
0.0393225 0.0489967 0.0334783
0.0443885 0.0506752 0.0352178
0.0541238 0.0524453 0.0354925
0.0709544 0.0525368 0.0370336
0.0894789 0.052781 0.0390631
0.11249 0.0530556 0.0421759
0.142443 0.0541085 0.0454566
0.181125 0.0563973 0.0479133
0.229496 0.059678 0.0504311
0.281392 0.0624704 0.0540627
0.336385 0.0645457 0.0578164
0.40032 0.0653697 0.0607004
0.471351 0.0652934 0.063859
0.535119 0.0673533 0.0691691
0.59086 0.0714885 0.0781567
0.647944 0.0775158 0.0886702
0.700023 0.0838178 0.0995346
0.748348 0.0903944 0.109834
0.767971 0.0935683 0.114214
0.778271 0.095552 0.116701
0.778714 0.0960708 0.117296
0.779385 0.0965286 0.117845
0.779858 0.0968795 0.118196
0.780118 0.0971237 0.118257
0.780346 0.0973526 0.118318
0.78056 0.0974899 0.117968
0.780743 0.0975814 0.117601
0.0308995 0.0504616 0.0340429
0.0316014 0.0516823 0.0349279
0.032105 0.0523079 0.0350652
0.0328069 0.0522316 0.0341955
0.0356146 0.0521096 0.0339971
0.0395361 0.0529946 0.0352636
0.0435492 0.0547341 0.0368048
0.0495613 0.0567941 0.0387579
0.0605936 0.0589303 0.0391699
0.0791943 0.0586404 0.0405737
0.0998856 0.0584573 0.0422675
0.125475 0.0575875 0.0443732
0.157549 0.0576638 0.0472267
0.195987 0.058854 0.0489509
0.240742 0.0612345 0.0511788
0.291463 0.0635843 0.0544747
0.347097 0.0657206 0.0583658
0.413962 0.0660258 0.060853
0.484154 0.0659953 0.0635538
0.54728 0.0690166 0.0695659
0.603098 0.0733349 0.0781872
0.657633 0.0789807 0.0877394
0.709239 0.0848096 0.0981003
0.75079 0.090425 0.106447
0.771313 0.093431 0.110796
0.778698 0.0949111 0.112032
0.779309 0.095613 0.112322
0.779644 0.0958419 0.112078
0.780362 0.0963607 0.112184
0.780652 0.0964981 0.112047
0.780926 0.0966201 0.111788
0.781613 0.0969711 0.11162
0.782208 0.0973831 0.111131
0.0345006 0.0578012 0.0392767
0.035111 0.0589609 0.0398871
0.0352026 0.060029 0.0397498
0.0360418 0.0603037 0.0387274
0.0386511 0.0601968 0.0374456
0.0426184 0.0611124 0.0384833
0.0479438 0.0626993 0.0401617
0.0550546 0.0651102 0.0422827
0.0662242 0.0679179 0.0424964
0.087541 0.0680247 0.0436408
0.108782 0.0681621 0.0449073
0.139651 0.0683146 0.0475929
0.179629 0.0678569 0.0511635
0.222843 0.0672618 0.0533608
0.266972 0.0662699 0.053727
0.312947 0.0677348 0.055375
0.367239 0.0681468 0.0583047
0.431327 0.0674144 0.0608682
0.499702 0.0678874 0.0642557
0.559426 0.071046 0.0706188
0.615457 0.0759136 0.0792859
0.669276 0.0819715 0.0893263
0.719219 0.0878614 0.0984207
0.755001 0.0926986 0.105211
0.779934 0.0967575 0.109056
0.782773 0.0974136 0.109194
0.78323 0.0978103 0.108934
0.783841 0.0983902 0.108858
0.784237 0.0990768 0.108873
0.784619 0.0995956 0.108659
0.785107 0.100191 0.108537
0.78587 0.100847 0.108339
0.786694 0.10161 0.108263
0.0386969 0.0692302 0.0436713
0.0397345 0.0716259 0.0449531
0.0400702 0.0735027 0.0450904
0.0405432 0.0738842 0.0437018
0.042237 0.0735943 0.0424811
0.0461585 0.0743267 0.0424659
0.052369 0.076051 0.0438849
0.0606241 0.0780652 0.045304
0.071809 0.0813153 0.0477913
0.0917372 0.0833295 0.046479
0.121523 0.0829786 0.0487068
0.151202 0.082948 0.0509499
0.194751 0.0827802 0.0545968
0.244327 0.0816663 0.0590829
0.295369 0.0809339 0.0618906
0.347494 0.0788891 0.0618143
0.407401 0.0765087 0.0610208
0.471092 0.0734569 0.0612802
0.527382 0.0745556 0.0658122
0.580957 0.0777752 0.071931
0.631388 0.0814527 0.0804913
0.68098 0.0870069 0.0892958
0.728603 0.0920577 0.099321
0.762142 0.0972152 0.104524
0.787228 0.102144 0.108171
0.789029 0.10312 0.108537
0.789364 0.103304 0.108583
0.790036 0.103838 0.108629
0.790906 0.104692 0.108507
0.791699 0.10544 0.1084
0.792203 0.106264 0.108293
0.79263 0.106905 0.108003
0.79823 0.112718 0.110704
0.0430457 0.0850843 0.0497292
0.0438392 0.0887922 0.0507973
0.0445106 0.0909438 0.0507515
0.0447089 0.0918288 0.0493172
0.0458534 0.0916915 0.0474556
0.0482032 0.091783 0.0468299
0.0540322 0.09308 0.0472419
0.0658579 0.0951705 0.0495003
0.0783246 0.0984054 0.0513619
0.0942397 0.10222 0.0517891
0.12668 0.102998 0.0504463
0.166949 0.102815 0.0533608
0.210437 0.102144 0.0579232
0.26389 0.102632 0.0634318
0.321233 0.102174 0.0691234
0.388006 0.100938 0.0724498
0.462119 0.0969253 0.0724804
0.523827 0.0965438 0.0738537
0.576745 0.098558 0.0773327
0.623423 0.102388 0.0835126
0.67042 0.105486 0.0895247
0.715267 0.109621 0.096788
0.759533 0.114382 0.104326
0.78999 0.118639 0.109316
0.806226 0.121569 0.112367
0.807324 0.123323 0.113603
0.810025 0.127443 0.115312
0.81503 0.134737 0.119936
0.819867 0.139742 0.122164
0.825467 0.147631 0.12607
0.830365 0.153704 0.129274
0.836393 0.160693 0.133318
0.842222 0.168582 0.137926
0.0469825 0.104311 0.0555886
0.0476387 0.108721 0.057023
0.0479438 0.11194 0.056611
0.047776 0.113344 0.0545357
0.0480354 0.11339 0.0525521
0.0495308 0.113146 0.05037
0.0542763 0.114366 0.0496529
0.0652781 0.116594 0.0517128
0.0843519 0.120104 0.0552529
0.100221 0.124636 0.0568093
0.124193 0.129229 0.0541238
0.172854 0.130419 0.0543526
0.227741 0.130953 0.0599222
0.291188 0.129152 0.0681315
0.353491 0.131487 0.0737316
0.429007 0.132143 0.0784772
0.508766 0.132403 0.0849775
0.571221 0.136278 0.0943008
0.624567 0.142138 0.102708
0.6748 0.148531 0.110903
0.72314 0.154879 0.118242
0.77116 0.164691 0.127443
0.812253 0.174548 0.136477
0.847639 0.190402 0.148684
0.859007 0.195834 0.153201
0.862226 0.200855 0.156542
0.865721 0.206516 0.16025
0.87039 0.213809 0.165331
0.875914 0.222858 0.171984
0.881605 0.232334 0.178714
0.889189 0.244312 0.187686
0.89659 0.257053 0.197314
0.903716 0.269535 0.206485
0.0502174 0.128405 0.0627604
0.0504616 0.135103 0.063859
0.0512245 0.139223 0.0639506
0.0510872 0.140612 0.0619516
0.0508888 0.141299 0.0587167
0.0515145 0.141527 0.0555276
0.0536507 0.141466 0.0525216
0.0629435 0.144366 0.053193
0.0821698 0.148562 0.0564889
0.107073 0.153765 0.0599069
0.130175 0.161593 0.0615244
0.167514 0.168872 0.0572519
0.233921 0.172015 0.0591897
0.306889 0.175128 0.0681773
0.396994 0.171603 0.0782788
0.477394 0.173922 0.0841077
0.5411 0.180468 0.09308
0.602594 0.187869 0.106828
0.659312 0.197711 0.122438
0.71635 0.210925 0.139193
0.771969 0.223743 0.156191
0.827237 0.241169 0.17528
0.872877 0.260761 0.194797
0.911849 0.285985 0.217304
0.916747 0.295094 0.224231
0.920867 0.303822 0.230121
0.923049 0.31075 0.234058
0.925872 0.319265 0.239124
0.929702 0.328893 0.245472
0.933135 0.339666 0.251286
0.9364 0.351034 0.257496
0.939788 0.362203 0.262989
0.942504 0.374487 0.268299
0.0525521 0.161547 0.0718242
0.0531472 0.169909 0.0737926
0.0536507 0.174929 0.0736858
0.0536507 0.176852 0.0709087
0.0534371 0.1776 0.0675364
0.0535439 0.177935 0.0630503
0.0549783 0.178225 0.0579843
0.0590219 0.17818 0.0539864
0.0769055 0.184878 0.0568093
0.105608 0.192248 0.0610513
0.139452 0.201389 0.0656748
0.174823 0.213916 0.0664988
0.228489 0.224887 0.0610819
0.308232 0.231586 0.0640726
0.404944 0.234821 0.0724804
0.513985 0.232761 0.090425
0.578164 0.241367 0.105211
0.630793 0.255543 0.1205
0.689509 0.270619 0.140505
0.750439 0.286717 0.165423
0.813519 0.308904 0.194141
0.877592 0.334264 0.226078
0.92137 0.359579 0.251865
0.943328 0.378286 0.268635
0.945373 0.388571 0.27364
0.946715 0.395895 0.276005
0.947616 0.403708 0.278264
0.948272 0.412222 0.280827
0.949004 0.421042 0.282597
0.949538 0.430716 0.284047
0.949493 0.441016 0.284947
0.94934 0.451148 0.285771
0.94902 0.460777 0.285725
0.0555886 0.203342 0.0823224
0.0557565 0.213611 0.0840925
0.0557565 0.219989 0.0835889
0.0556497 0.221729 0.0810712
0.0554818 0.223056 0.0774395
0.0550546 0.223896 0.0720989
0.0558175 0.224735 0.0653391
0.0579995 0.224033 0.0585336
0.0643168 0.225544 0.054139
0.0950332 0.236744 0.0589303
0.136767 0.249393 0.0644694
0.185046 0.26331 0.0711376
0.232151 0.278782 0.0698558
0.297551 0.292683 0.0647593
0.392264 0.300389 0.0677806
0.505699 0.305653 0.0778058
0.602609 0.319448 0.110399
0.668803 0.340169 0.13962
0.723796 0.366018 0.168643
0.787091 0.385153 0.201144
0.847349 0.406683 0.230884
0.900725 0.42678 0.255741
0.934356 0.44477 0.27425
0.947601 0.459342 0.283116
0.948348 0.471626 0.285435
0.947784 0.47837 0.285161
0.947387 0.484962 0.284779
0.94696 0.493126 0.284566
0.945922 0.503456 0.284092
0.945464 0.5131 0.283848
0.945327 0.52253 0.28426
0.945159 0.53138 0.284749
0.944717 0.540902 0.284901
0.0553445 0.25478 0.0923323
0.0548257 0.265522 0.0938125
0.0541238 0.271519 0.092668
0.0543374 0.273426 0.0903792
0.0542611 0.274174 0.0862745
0.0541543 0.275502 0.0813153
0.0541695 0.276219 0.0732738
0.0550088 0.275532 0.0640574
0.0594034 0.275196 0.0560769
0.0747997 0.281437 0.0527047
0.119432 0.297047 0.058793
0.177432 0.312825 0.0668345
0.2392 0.33135 0.0744488
0.295506 0.351339 0.0722515
0.377005 0.368521 0.0683146
0.488548 0.382376 0.0727092
0.585595 0.406882 0.0945907
0.681041 0.434852 0.141604
0.749859 0.460822 0.180774
0.801572 0.482078 0.208988
0.854643 0.497414 0.234684
0.894011 0.512734 0.253178
0.929183 0.52578 0.271519
0.941711 0.538048 0.281422
0.944762 0.548394 0.285359
0.944884 0.554788 0.286458
0.944808 0.561913 0.287175
0.944869 0.569482 0.287953
0.945052 0.576928 0.289006
0.944991 0.585184 0.289006
0.945708 0.594186 0.28983
0.945953 0.602533 0.290028
0.946166 0.610666 0.290303
0.0508125 0.307805 0.100374
0.0492103 0.318349 0.100923
0.0487221 0.325185 0.100694
0.0484169 0.32697 0.0972305
0.0484627 0.327306 0.093019
0.0484169 0.327916 0.0876326
0.0483101 0.328862 0.080354
0.0485237 0.329839 0.0694285
0.0510567 0.328832 0.0587015
0.0602884 0.33051 0.0499428
0.0892042 0.341299 0.0489815
0.152651 0.361761 0.0581674
0.228962 0.386191 0.0702068
0.299031 0.415763 0.0771496
0.369436 0.443397 0.076112
0.475517 0.467445 0.0782177
0.569696 0.493294 0.0930343
0.650416 0.517693 0.118044
0.734508 0.538201 0.160266
0.804593 0.555871 0.200732
0.862394 0.569146 0.23508
0.902007 0.58172 0.258488
0.927199 0.595087 0.273701
0.939864 0.606638 0.284642
0.94641 0.616419 0.290883
0.946777 0.622889 0.291432
0.94696 0.629038 0.291676
0.947341 0.635798 0.292027
0.947753 0.64329 0.292775
0.948104 0.650523 0.2934
0.948837 0.657816 0.294926
0.94905 0.66453 0.296284
0.949447 0.671626 0.297368
0.0424659 0.36321 0.106783
0.0402075 0.375463 0.107439
0.0389868 0.38172 0.105898
0.0389258 0.382925 0.102876
0.0389715 0.383169 0.0977646
0.0390021 0.383917 0.0917067
0.0392157 0.385611 0.0840925
0.0396277 0.386618 0.0731975
0.0415198 0.386618 0.0602579
0.0457923 0.384665 0.0480507
0.0640726 0.392279 0.0415808
0.110307 0.41178 0.045594
0.201785 0.44448 0.0611582
0.299397 0.482963 0.0841688
0.392767 0.517678 0.0991989
0.481254 0.542199 0.101472
0.565057 0.562432 0.107378
0.636728 0.581476 0.120974
0.70692 0.600259 0.145464
0.784527 0.616236 0.185183
0.853239 0.629664 0.222873
0.90457 0.639689 0.257908
0.935332 0.650782 0.283497
0.946807 0.664637 0.292836
0.949615 0.674388 0.29723
0.950347 0.681651 0.299626
0.950835 0.687678 0.301137
0.950774 0.693156 0.302281
0.951293 0.699382 0.304051
0.951492 0.705699 0.305608
0.951675 0.712139 0.306371
0.952087 0.718318 0.307485
0.952239 0.723888 0.310307
0.0331579 0.427344 0.111543
0.0323339 0.440116 0.113252
0.0321813 0.446479 0.112703
0.0321965 0.447486 0.109667
0.0323033 0.448234 0.105333
0.0324712 0.449363 0.0988022
0.0326848 0.450401 0.0907759
0.033463 0.451377 0.07953
0.0354009 0.452491 0.0657054
0.039353 0.45185 0.0518807
0.0469368 0.451774 0.0394598
0.0839094 0.467597 0.0411994
0.168276 0.500084 0.0594644
0.303578 0.548119 0.0975967
0.413611 0.580179 0.123445
0.506233 0.600763 0.131334
0.570718 0.62031 0.134829
0.635874 0.637263 0.141039
0.696239 0.652293 0.154192
0.762478 0.667689 0.178408
0.833249 0.681178 0.213687
0.891646 0.694774 0.246036
0.927535 0.705196 0.277302
0.951644 0.714824 0.305592
0.952361 0.726009 0.311315
0.95314 0.734722 0.317266
0.953353 0.739773 0.320348
0.953582 0.744991 0.323598
0.95404 0.751537 0.327688
0.954055 0.757122 0.330922
0.95404 0.762402 0.333761
0.954406 0.768368 0.337591
0.954391 0.773617 0.340688
0.036408 0.495659 0.131182
0.038407 0.50959 0.136995
0.0403449 0.51725 0.139574
0.0406043 0.518456 0.136934
0.0408789 0.518791 0.132311
0.0413519 0.519219 0.125429
0.0421454 0.520134 0.117357
0.0429084 0.521904 0.106828
0.0447547 0.523476 0.0907454
0.0491035 0.523751 0.0742351
0.0583505 0.524254 0.060029
0.0786755 0.531258 0.0527504
0.162814 0.56405 0.0743267
0.286336 0.602945 0.109697
0.423728 0.632242 0.142443
0.525887 0.651438 0.159594
0.590753 0.669459 0.167803
0.639384 0.686519 0.172869
0.694072 0.701183 0.179248
0.751095 0.715328 0.19266
0.813443 0.729198 0.213489
0.87715 0.742657 0.242512
0.917388 0.756069 0.274662
0.941726 0.766369 0.305211
0.951843 0.775769 0.331518
0.954284 0.782895 0.342092
0.954482 0.789532 0.349294
0.954131 0.794003 0.352407
0.954314 0.798413 0.355413
0.95404 0.803326 0.358053
0.953765 0.808209 0.36112
0.953613 0.812848 0.363958
0.953262 0.817639 0.366583
0.0603037 0.576837 0.180697
0.0670939 0.593286 0.19234
0.0706035 0.601465 0.197391
0.0711833 0.602487 0.194385
0.0715953 0.602396 0.188861
0.0726635 0.603586 0.1823
0.0739147 0.605097 0.173159
0.0760815 0.607523 0.162997
0.0794232 0.610712 0.147524
0.0851759 0.612711 0.126162
0.0929732 0.611399 0.105989
0.116991 0.616022 0.0952468
0.179843 0.633768 0.103349
0.292363 0.660273 0.132158
0.414466 0.680751 0.15906
0.536767 0.695399 0.181247
0.607645 0.713756 0.199054
0.657816 0.731273 0.209705
0.698192 0.746975 0.217578
0.749966 0.76083 0.225177
0.802991 0.773953 0.23798
0.859159 0.787472 0.256901
0.905119 0.799176 0.284062
0.933684 0.810636 0.313069
0.949874 0.820325 0.341665
0.951644 0.826551 0.362554
0.952224 0.831998 0.374777
0.951644 0.836332 0.377371
0.951186 0.840604 0.380224
0.950683 0.844327 0.383185
0.949935 0.848096 0.386435
0.949355 0.852323 0.390219
0.948104 0.855451 0.393149
0.0983902 0.658274 0.243641
0.106142 0.672129 0.253635
0.109071 0.678233 0.256367
0.110307 0.678981 0.253605
0.110582 0.678691 0.248417
0.111604 0.679103 0.242084
0.113207 0.680568 0.233646
0.115953 0.68368 0.222873
0.11899 0.685679 0.206439
0.124422 0.685893 0.184771
0.132616 0.683803 0.160647
0.151965 0.685817 0.141268
0.207645 0.695781 0.140917
0.302937 0.712856 0.161456
0.416449 0.725719 0.183307
0.535683 0.735332 0.202365
0.615412 0.752468 0.227207
0.671031 0.77052 0.244694
0.714839 0.787366 0.258335
0.752148 0.802121 0.269413
0.799802 0.814343 0.279072
0.844663 0.825269 0.295354
0.893233 0.8374 0.317067
0.920836 0.846952 0.337179
0.940322 0.856626 0.365103
0.945098 0.862669 0.385351
0.945495 0.866255 0.40206
0.944533 0.869627 0.408408
0.943877 0.872892 0.412375
0.942611 0.876173 0.416022
0.941711 0.879072 0.420142
0.940688 0.882445 0.42388
0.939895 0.884031 0.4309
0.1346 0.722225 0.292012
0.140139 0.730877 0.298024
0.142855 0.734051 0.299016
0.143389 0.734051 0.295415
0.143877 0.733822 0.290669
0.144671 0.734569 0.284642
0.146151 0.735363 0.27686
0.148547 0.735836 0.266651
0.151888 0.73637 0.252201
0.15819 0.736202 0.233082
0.168338 0.734905 0.211048
0.189014 0.73666 0.190829
0.235523 0.741573 0.18291
0.317357 0.752468 0.196338
0.418601 0.760449 0.211887
0.535317 0.767102 0.22623
0.617899 0.782376 0.253361
0.679133 0.800565 0.278553
0.726253 0.817868 0.299138
0.764981 0.833036 0.314992
0.800961 0.847135 0.332067
0.840436 0.857694 0.352056
0.878309 0.866163 0.374289
0.908644 0.8748 0.391226
0.926863 0.881102 0.409445
0.935363 0.88632 0.432349
0.937194 0.889204 0.448905
0.93637 0.890806 0.459236
0.935531 0.892515 0.467506
0.934554 0.893965 0.474708
0.933959 0.895476 0.481025
0.933425 0.896864 0.488045
0.932372 0.898329 0.494331
0.164294 0.766217 0.326665
0.166705 0.768093 0.329274
0.167651 0.768704 0.328817
0.168338 0.768704 0.325414
0.169375 0.768627 0.321126
0.170489 0.768597 0.315251
0.171939 0.768307 0.307958
0.175097 0.767971 0.299001
0.179263 0.767391 0.286763
0.186954 0.766827 0.271046
0.201205 0.766384 0.253178
0.222171 0.767346 0.235569
0.268025 0.770932 0.229664
0.333074 0.776623 0.235142
0.42858 0.781598 0.246891
0.532967 0.786221 0.259953
0.614786 0.800397 0.286366
0.679744 0.818173 0.320424
0.731899 0.836347 0.350393
0.774838 0.852262 0.376287
0.810498 0.864927 0.398917
0.841978 0.875319 0.426627
0.875792 0.883314 0.450187
0.9019 0.890028 0.469444
0.918227 0.895827 0.483009
0.930404 0.900771 0.495827
0.929824 0.902571 0.507729
0.930007 0.903456 0.518135
0.929961 0.903746 0.521065
0.929931 0.904128 0.524071
0.930007 0.904601 0.527642
0.930144 0.905058 0.530877
0.93022 0.905577 0.533715
0.178424 0.777859 0.346487
0.180972 0.779919 0.34995
0.181933 0.78027 0.349004
0.182895 0.780056 0.345739
0.184848 0.779782 0.341817
0.187488 0.779522 0.33669
0.190433 0.779385 0.330083
0.194232 0.779171 0.321874
0.198596 0.77908 0.311177
0.208499 0.779126 0.295995
0.225574 0.779461 0.28307
0.25185 0.781003 0.274449
0.293355 0.783856 0.266606
0.358557 0.788113 0.272923
0.444404 0.790707 0.281712
0.535424 0.795544 0.295109
0.613519 0.808865 0.321721
0.680278 0.827268 0.35938
0.737026 0.846448 0.398779
0.783673 0.863005 0.432853
0.821195 0.87509 0.458076
0.852949 0.884504 0.480461
0.87599 0.890684 0.497337
0.901488 0.896605 0.511803
0.91725 0.901946 0.521126
0.927764 0.905226 0.530602
0.930037 0.906828 0.540505
0.930495 0.907881 0.547723
0.930571 0.9084 0.550973
0.930495 0.908736 0.553231
0.930388 0.90898 0.555962
0.930388 0.90898 0.555856
0.930373 0.90898 0.555886
0.180468 0.780652 0.354421
0.180514 0.780636 0.354284
0.181018 0.780499 0.352544
0.181872 0.780285 0.349203
0.183429 0.77995 0.344274
0.186603 0.779614 0.338308
0.189761 0.779446 0.331395
0.194018 0.779171 0.322316
0.19881 0.779095 0.31107
0.208148 0.779126 0.29482
0.228946 0.77966 0.283879
0.261036 0.781399 0.279423
0.305852 0.784146 0.280415
0.373068 0.787991 0.28806
0.460548 0.790799 0.298787
0.547509 0.79704 0.316152
0.618235 0.810193 0.344396
0.686427 0.829419 0.387076
0.744411 0.849973 0.433082
0.796536 0.868345 0.466896
0.832425 0.879591 0.488746
0.862516 0.888487 0.506249
0.88307 0.893889 0.520058
0.901869 0.899184 0.531228
0.918227 0.904433 0.538399
0.927123 0.907576 0.544945
0.929702 0.908797 0.552117
0.930343 0.908965 0.555169
0.930388 0.90898 0.555962
0.930388 0.908995 0.55613
0.930388 0.908995 0.556146
0.930388 0.908995 0.55613
0.930404 0.908995 0.556313
0.179477 0.780911 0.357717
0.179629 0.780865 0.357351
0.180255 0.780713 0.355138
0.181262 0.780438 0.351507
0.182757 0.780102 0.34641
0.185672 0.77969 0.340169
0.189349 0.779477 0.332265
0.194034 0.779187 0.322408
0.199771 0.779065 0.309468
0.209796 0.779095 0.293538
0.230793 0.779751 0.281666
0.269078 0.781918 0.280812
0.319142 0.784772 0.284215
0.386267 0.7888 0.291829
0.477317 0.791241 0.30309
0.560678 0.799039 0.322377
0.630274 0.813001 0.35201
0.69868 0.833432 0.397177
0.754269 0.853544 0.44033
0.805615 0.871046 0.471748
0.837385 0.881209 0.491722
0.865034 0.889097 0.507866
0.88539 0.894301 0.521019
0.90396 0.899947 0.531228
0.920165 0.905074 0.539651
0.925612 0.907103 0.545464
0.93019 0.908888 0.551659
0.930266 0.908919 0.553491
0.930373 0.90898 0.555779
0.930373 0.90898 0.555856
0.930388 0.90898 0.555993
0.930388 0.90898 0.556039
0.930388 0.908995 0.556161
0.178271 0.781201 0.360861
0.178592 0.781125 0.360021
0.179644 0.780865 0.357259
0.18088 0.780545 0.353109
0.182376 0.780194 0.347494
0.185367 0.779736 0.340887
0.189151 0.779477 0.33283
0.194217 0.779171 0.32195
0.200885 0.779034 0.307607
0.212711 0.779019 0.291478
0.235218 0.780056 0.279896
0.277058 0.782498 0.2813
0.332174 0.785672 0.285771
0.401999 0.789334 0.293828
0.495644 0.792325 0.30631
0.574929 0.80119 0.327138
0.64564 0.817365 0.360937
0.710689 0.837659 0.40618
0.765881 0.85771 0.448157
0.81146 0.873091 0.476158
0.843153 0.882918 0.494636
0.868391 0.890105 0.509682
0.889204 0.89575 0.522759
0.906477 0.900877 0.532494
0.920409 0.90515 0.540398
0.927077 0.907576 0.545098
0.930144 0.908843 0.5505
0.930282 0.908919 0.553826
0.930373 0.90898 0.555795
0.930373 0.90898 0.555795
0.930373 0.90898 0.55584
0.930373 0.90898 0.555856
0.930373 0.90898 0.555856
0.177386 0.78146 0.36289
0.177783 0.781338 0.362005
0.17908 0.781003 0.358846
0.180514 0.780636 0.35436
0.182177 0.78024 0.348241
0.185443 0.779721 0.340688
0.189548 0.779461 0.331777
0.194736 0.779156 0.32079
0.202152 0.779019 0.305028
0.216251 0.778988 0.288548
