bundles/resolve-cinematic-luts/Phantom Luts/P4k & P6K Phntm Film LUTs - V6/P6k/Gen 5 Colour/P6k Eastman Gen5-Legacy.cube
TITLE "Generated by Resolve"
LUT_3D_SIZE 33
0.0399023 0.0390021 0.0390021
0.0399023 0.0390021 0.0390021
0.0400549 0.0390021 0.0390021
0.0450904 0.0390021 0.0390021
0.0495613 0.0390021 0.0390021
0.0553597 0.0390021 0.0390021
0.0646067 0.0390021 0.0390021
0.0765698 0.0390021 0.0400854
0.0916457 0.0390021 0.0416724
0.109957 0.0390021 0.0435645
0.133303 0.0390021 0.0454871
0.166766 0.0390021 0.0460365
0.206546 0.0407263 0.0426947
0.249989 0.0442512 0.0399023
0.292134 0.0468299 0.0417945
0.334569 0.0511788 0.0434882
0.375006 0.0582895 0.0449226
0.415396 0.0679637 0.0464332
0.455558 0.0797436 0.0481422
0.499443 0.091249 0.0515297
0.538888 0.102724 0.059144
0.569329 0.112413 0.069688
0.582437 0.116793 0.075227
0.584939 0.117433 0.076997
0.585687 0.117464 0.077821
0.586358 0.117571 0.0786145
0.586831 0.117571 0.0794232
0.586954 0.117617 0.0800641
0.586709 0.1178 0.0805371
0.584161 0.118685 0.0807202
0.579843 0.120073 0.0808728
0.575082 0.121538 0.0810254
0.573556 0.122026 0.0812695
0.0394598 0.0390021 0.0390021
0.039765 0.0390021 0.0390021
0.0400397 0.0390021 0.0390021
0.0439918 0.0390021 0.0390021
0.0480201 0.0390021 0.0390021
0.0528115 0.0390021 0.0390021
0.0609751 0.0390021 0.0390021
0.0737774 0.0390021 0.040238
0.0886549 0.0390021 0.041886
0.107561 0.0390021 0.0432746
0.130922 0.0390021 0.0451667
0.163806 0.0395666 0.0457008
0.205692 0.0422827 0.0419165
0.25037 0.0460517 0.0390021
0.293156 0.0489052 0.0412451
0.336172 0.0530098 0.0431678
0.376791 0.0601053 0.04477
0.416999 0.069276 0.0461738
0.457588 0.0815747 0.0479591
0.50071 0.0930037 0.0511635
0.539528 0.104601 0.0583505
0.568475 0.114199 0.0683757
0.581994 0.118776 0.0742504
0.583749 0.119219 0.0753338
0.584436 0.119295 0.0761578
0.585031 0.119295 0.0768902
0.585595 0.119265 0.0775006
0.585794 0.119341 0.0779126
0.585565 0.119493 0.0785077
0.583062 0.120287 0.0788128
0.579034 0.121584 0.0789654
0.574258 0.12314 0.079118
0.572793 0.12369 0.0792096
0.0399176 0.0390021 0.0390021
0.040177 0.0390021 0.0390021
0.0406653 0.0390021 0.0390021
0.0432288 0.0390021 0.0390021
0.0482185 0.0390021 0.0390021
0.052018 0.0390021 0.0390021
0.0584573 0.0390021 0.0394751
0.0701152 0.0390021 0.0410925
0.0857404 0.0390021 0.0426947
0.10605 0.0390021 0.0438239
0.130663 0.0390021 0.0456092
0.164126 0.040589 0.0457923
0.206668 0.0436255 0.0420539
0.251865 0.0470893 0.0390021
0.29604 0.05066 0.0413062
0.339117 0.0555428 0.0426642
0.380087 0.062501 0.0445716
0.420401 0.0720378 0.0459297
0.461128 0.0840925 0.0476539
0.503578 0.0957656 0.0508736
0.541726 0.107515 0.05832
0.567483 0.116091 0.0672465
0.580728 0.120775 0.0730602
0.581399 0.120836 0.0740215
0.582086 0.120928 0.0745861
0.582727 0.121019 0.0753338
0.58323 0.121065 0.0758373
0.583413 0.121172 0.0763867
0.583261 0.12137 0.0768292
0.580957 0.122179 0.0772717
0.577478 0.123339 0.0773175
0.569375 0.125856 0.0772564
0.561227 0.128405 0.0771649
0.0426184 0.0390021 0.0401007
0.0425422 0.0390021 0.0394751
0.0438544 0.0390021 0.0390021
0.0465858 0.0390021 0.0390021
0.050721 0.0390021 0.0390478
0.0547646 0.0390021 0.0403906
0.0601358 0.0390021 0.0419165
0.0718242 0.0390021 0.0436713
0.0877241 0.0390021 0.045304
0.106371 0.0390021 0.0463722
0.131258 0.0391089 0.0463569
0.165621 0.0416114 0.0460517
0.208469 0.0448463 0.0421912
0.253925 0.0484169 0.0390173
0.298329 0.0520943 0.0412757
0.342168 0.0576333 0.042649
0.382528 0.0648661 0.0442359
0.423194 0.0747539 0.0456397
0.464378 0.0873426 0.0474098
0.505272 0.0989395 0.0507668
0.542626 0.110475 0.0582589
0.565728 0.118441 0.0661631
0.577493 0.122179 0.071046
0.57818 0.122408 0.0720073
0.579171 0.122759 0.0730297
0.579812 0.122972 0.0739452
0.58027 0.123171 0.0746777
0.580484 0.123339 0.0750439
0.580423 0.123537 0.0755322
0.578836 0.124239 0.0757305
0.575463 0.125414 0.0758679
0.568124 0.127749 0.0758068
0.560327 0.13022 0.0756695
0.0462196 0.0408026 0.0449226
0.0453346 0.0407111 0.0445258
0.0457465 0.0403449 0.0437018
0.0473793 0.0400854 0.0434272
0.0505074 0.0407721 0.0434119
0.0555276 0.0416114 0.0439612
0.0636454 0.0428626 0.0450904
0.0760204 0.043473 0.0471199
0.0920882 0.0437934 0.0487984
0.111513 0.0441291 0.0500191
0.137179 0.0448005 0.0495003
0.171679 0.044358 0.0462196
0.212528 0.0463264 0.0415656
0.257053 0.0502022 0.0392157
0.30132 0.0540475 0.041413
0.344366 0.0595102 0.0426795
0.385443 0.0671397 0.0442817
0.426474 0.0777447 0.0456703
0.468544 0.0908064 0.0476081
0.507729 0.101717 0.0505989
0.544976 0.113741 0.0585641
0.565057 0.121035 0.0654765
0.574395 0.124147 0.0693675
0.575036 0.1243 0.0701762
0.575479 0.124376 0.070573
0.576288 0.124636 0.0712444
0.576806 0.124773 0.0717479
0.577081 0.125048 0.0722057
0.577142 0.125399 0.0725261
0.575402 0.126177 0.0727703
0.572656 0.127245 0.0730144
0.56582 0.129503 0.0729992
0.558434 0.131975 0.0726787
0.0504768 0.0493629 0.049897
0.0497292 0.0494698 0.0496986
0.0495613 0.049012 0.0485389
0.0508888 0.0487221 0.0479896
0.0528115 0.0492714 0.0481575
0.0570687 0.05037 0.0483558
0.0651102 0.0518196 0.0495003
0.0792706 0.0527657 0.0510567
0.0973526 0.0523995 0.0530251
0.11667 0.0523384 0.0540627
0.143542 0.0532082 0.0536812
0.182254 0.0538033 0.0496681
0.224262 0.052018 0.0421607
0.265385 0.0543069 0.0396124
0.306935 0.0570077 0.0415808
0.346883 0.0620432 0.0427863
0.387671 0.0699016 0.0443732
0.429587 0.0813153 0.0456703
0.471855 0.0938125 0.0474098
0.511574 0.105531 0.0516518
0.547433 0.11725 0.0590677
0.565866 0.124483 0.065568
0.574273 0.127901 0.068864
0.574639 0.128054 0.0694743
0.574792 0.128222 0.0696269
0.574975 0.128344 0.06981
0.575204 0.128466 0.0700236
0.575128 0.128664 0.0700389
0.574975 0.128939 0.070161
0.57348 0.129625 0.0703136
0.571145 0.130495 0.0701457
0.564599 0.132631 0.0698558
0.557702 0.135027 0.0698863
0.0553902 0.062211 0.0560159
0.0544137 0.0622416 0.0553445
0.0573281 0.0610208 0.0536507
0.0584268 0.0605936 0.0526894
0.060502 0.0606699 0.0527657
0.0646677 0.0621653 0.0538033
0.071046 0.0633707 0.0533455
0.0841077 0.0646983 0.0547799
0.103899 0.0638285 0.0561074
0.12491 0.0623026 0.0574197
0.152056 0.061738 0.0570993
0.191943 0.0620737 0.0534218
0.239277 0.0633097 0.0487831
0.282582 0.0628061 0.0433356
0.322148 0.0648661 0.0421759
0.359609 0.0682689 0.0431983
0.396246 0.074342 0.04448
0.436057 0.0843366 0.0458991
0.4795 0.0971695 0.048188
0.518441 0.108812 0.0529335
0.554498 0.120974 0.0616007
0.573297 0.128954 0.0681773
0.580163 0.132357 0.0708629
0.580118 0.132906 0.0710613
0.580148 0.133318 0.0711986
0.580194 0.13373 0.0713054
0.580331 0.134096 0.0715038
0.58056 0.134432 0.0717327
0.580789 0.134752 0.071931
0.580407 0.135225 0.0720989
0.579522 0.135836 0.0721752
0.575387 0.137362 0.072282
0.570581 0.13904 0.0719615
0.0621958 0.0760204 0.0614023
0.0615549 0.076051 0.0602426
0.0616007 0.0758526 0.0593576
0.0624857 0.0754864 0.0582132
0.063859 0.075349 0.0577401
0.0678111 0.0761425 0.0583658
0.0754406 0.0774853 0.0591592
0.0855421 0.0787518 0.05832
0.101427 0.0793469 0.0585489
0.127794 0.0769207 0.0602579
0.159304 0.0734112 0.0605783
0.201541 0.073106 0.0593881
0.249653 0.0758373 0.056611
0.296239 0.0800183 0.052079
0.342123 0.0847791 0.0493324
0.382025 0.0872511 0.0466316
0.41886 0.0921798 0.0466468
0.453086 0.0978408 0.0467994
0.490913 0.106722 0.0500038
0.526253 0.116747 0.0555734
0.55935 0.128328 0.0654612
0.585245 0.139361 0.0749371
0.587747 0.140688 0.0755627
0.587243 0.140795 0.0754406
0.586679 0.140734 0.0751354
0.586603 0.140856 0.0751812
0.586999 0.141375 0.0754864
0.587366 0.141756 0.0757458
0.587777 0.142168 0.076112
0.587747 0.142794 0.0765087
0.58703 0.143435 0.0766613
0.583261 0.144884 0.0767376
0.578592 0.146548 0.0764477
0.0657969 0.0908522 0.0669413
0.0649577 0.0910048 0.0656291
0.0647593 0.0911116 0.0643473
0.0653086 0.0907759 0.063035
0.066453 0.0906081 0.0617838
0.0682383 0.0907607 0.0612039
0.0758373 0.0925154 0.0627451
0.0889906 0.0947127 0.0637064
0.102693 0.0971695 0.0633555
0.125078 0.0974594 0.0639506
0.164385 0.09514 0.0665141
0.214282 0.0901656 0.0662242
0.267887 0.0924697 0.064622
0.313848 0.0992447 0.0635233
0.365103 0.107469 0.0628367
0.413657 0.116365 0.0635996
0.458183 0.126268 0.0662547
0.499367 0.136614 0.0700999
0.53785 0.144274 0.0758831
0.569833 0.150454 0.0810559
0.599847 0.159365 0.0908217
0.626841 0.169879 0.103212
0.625269 0.16939 0.102586
0.624033 0.168994 0.102251
0.625223 0.170123 0.103593
0.6271 0.171481 0.104875
0.630213 0.173404 0.107576
0.63386 0.176287 0.110079
0.636194 0.178347 0.111467
0.637079 0.179309 0.112581
0.63827 0.181323 0.114412
0.636286 0.18407 0.115587
0.633524 0.18703 0.117006
0.0688945 0.111284 0.0745556
0.0670787 0.111574 0.0730449
0.0658122 0.112291 0.0714733
0.0658885 0.112673 0.0702373
0.0668345 0.112108 0.0687114
0.0694438 0.111681 0.0670634
0.0749218 0.112627 0.0670176
0.0892348 0.115999 0.0691081
0.107805 0.120806 0.0711376
0.127138 0.125185 0.0706188
0.162615 0.126772 0.071931
0.220432 0.124285 0.0753033
0.285313 0.122072 0.0776074
0.345663 0.128923 0.0800946
0.393957 0.139666 0.0831769
0.448325 0.151553 0.0871138
0.500526 0.163348 0.0929427
0.54995 0.175082 0.0997635
0.599939 0.18909 0.110155
0.641337 0.202838 0.123888
0.674632 0.216022 0.137133
0.700832 0.228107 0.14847
0.700114 0.22887 0.148547
0.700969 0.230167 0.149004
0.702037 0.231159 0.149371
0.704005 0.232746 0.15021
0.706523 0.234943 0.151186
0.708019 0.23624 0.151324
0.710597 0.23798 0.152239
0.71223 0.240131 0.153094
0.712993 0.242161 0.153643
0.711696 0.244831 0.154177
0.710307 0.248646 0.155261
0.0738384 0.141909 0.084062
0.0717632 0.14226 0.0825513
0.0700847 0.14342 0.0809796
0.0690166 0.144289 0.0790112
0.0686503 0.144778 0.0774548
0.0690166 0.144213 0.0749371
0.0722057 0.143893 0.0728466
0.0818036 0.146212 0.0732433
0.106111 0.154299 0.0775311
0.134005 0.16376 0.0817426
0.166079 0.173404 0.0815442
0.222629 0.176623 0.0833753
0.293538 0.182757 0.0911116
0.369833 0.182803 0.102388
0.437003 0.190982 0.108812
0.48217 0.201251 0.112673
0.53547 0.210315 0.116091
0.589563 0.221485 0.120928
0.644007 0.235157 0.12929
0.695125 0.251194 0.142275
0.732555 0.266209 0.154879
0.756176 0.277378 0.16437
0.757519 0.2804 0.165011
0.758328 0.282124 0.165591
0.759625 0.283894 0.1664
0.760906 0.285679 0.166812
0.762463 0.287892 0.167514
0.763485 0.289067 0.167605
0.765194 0.2907 0.168383
0.766278 0.292805 0.169299
0.766506 0.294789 0.169696
0.764889 0.297459 0.170352
0.761669 0.300084 0.171023
0.0816052 0.187701 0.098024
0.079057 0.188403 0.0961318
0.0772106 0.189792 0.094789
0.0763256 0.19118 0.0932326
0.0759136 0.19234 0.0911421
0.0755474 0.192752 0.0876631
0.0759136 0.192279 0.0841688
0.0794995 0.192432 0.0813306
0.0962081 0.200183 0.0839857
0.135622 0.217792 0.0946822
0.182239 0.234882 0.101366
0.234409 0.248508 0.0992142
0.302983 0.254261 0.101839
0.377874 0.263539 0.108537
0.454444 0.263508 0.120455
0.524544 0.261494 0.1337
0.570733 0.27039 0.13698
0.623743 0.276417 0.140261
0.677882 0.285832 0.146304
0.731228 0.298772 0.156909
0.767956 0.311681 0.16936
0.788373 0.321004 0.178927
0.79028 0.326436 0.182422
0.791638 0.329122 0.184314
0.792309 0.331426 0.184878
0.793454 0.333486 0.185824
0.795026 0.335714 0.187198
0.795804 0.337697 0.18793
0.796735 0.339574 0.188693
0.797284 0.34168 0.189517
0.797681 0.343633 0.190555
0.79559 0.345983 0.191226
0.792233 0.348531 0.191974
0.100847 0.258564 0.125628
0.0988022 0.259174 0.124147
0.096376 0.260517 0.122759
0.0958419 0.262348 0.12195
0.0975509 0.26392 0.119707
0.0974899 0.265339 0.116106
0.0969863 0.265934 0.110964
0.0964523 0.262989 0.104494
0.103319 0.26569 0.101823
0.133349 0.282734 0.109483
0.188708 0.303655 0.121401
0.25536 0.319936 0.120058
0.311055 0.33196 0.112657
0.382666 0.333867 0.114275
0.453803 0.339651 0.117449
0.52932 0.340948 0.12932
0.60444 0.335225 0.147311
0.655528 0.337652 0.158907
0.70454 0.34255 0.16611
0.750118 0.351186 0.175952
0.787427 0.359503 0.188754
0.806317 0.367529 0.198413
0.813214 0.374548 0.204303
0.813718 0.377905 0.205356
0.814191 0.380926 0.206439
0.81503 0.383993 0.207462
0.815702 0.386984 0.208652
0.816373 0.389334 0.209644
0.817792 0.392203 0.21117
0.818387 0.394308 0.211673
0.819165 0.396323 0.212573
0.817731 0.398077 0.213321
0.815183 0.40029 0.214038
0.122438 0.340871 0.161212
0.120516 0.341299 0.159274
0.118746 0.342794 0.158083
0.117739 0.344091 0.156191
0.117662 0.346166 0.154345
0.117784 0.347906 0.150866
0.117388 0.349081 0.145251
0.117174 0.348547 0.137102
0.11725 0.344884 0.127703
0.131197 0.351415 0.125383
0.176379 0.370748 0.133989
0.253635 0.388586 0.13756
0.327794 0.400244 0.127016
0.380331 0.409079 0.11693
0.450462 0.40621 0.118517
0.516594 0.410056 0.122133
0.58854 0.413703 0.137301
0.666255 0.409339 0.160403
0.72192 0.406714 0.18117
0.768658 0.407187 0.198535
0.799435 0.417334 0.209155
0.821622 0.425071 0.219898
0.831525 0.432044 0.227054
0.831571 0.435126 0.228244
0.832013 0.438315 0.229313
0.83267 0.441886 0.230442
0.833265 0.444816 0.231388
0.834104 0.448356 0.232227
0.83447 0.450996 0.232883
0.835248 0.453239 0.233707
0.835264 0.454795 0.233951
0.834546 0.456931 0.234897
0.833158 0.459754 0.236408
0.136965 0.423865 0.199069
0.135348 0.424002 0.19733
0.134157 0.42533 0.196216
0.133577 0.42707 0.194339
0.133211 0.428397 0.191089
0.133059 0.42945 0.186343
0.132631 0.430304 0.179522
0.132357 0.430686 0.170321
0.133165 0.42858 0.158968
0.135515 0.425391 0.146822
0.160235 0.436713 0.145998
0.230228 0.453773 0.150896
0.32343 0.466392 0.143465
0.396262 0.472374 0.130358
0.443244 0.4795 0.124559
0.509178 0.474586 0.12932
0.572 0.477348 0.13579
0.639033 0.480797 0.149523
0.713756 0.480461 0.174945
0.77229 0.477424 0.200458
0.815747 0.477882 0.223163
0.83299 0.489647 0.23183
0.841459 0.498146 0.237766
0.841917 0.506035 0.239033
0.841459 0.510079 0.23888
0.842054 0.514549 0.239734
0.842145 0.517784 0.24004
0.842283 0.520684 0.24036
0.842496 0.52343 0.240787
0.842634 0.525567 0.241062
0.842802 0.527749 0.241428
0.84184 0.529442 0.241886
0.840543 0.531441 0.242817
0.151308 0.506432 0.24683
0.150011 0.506111 0.244587
0.148882 0.507179 0.24416
0.148196 0.507973 0.242267
0.147539 0.508629 0.238376
0.147616 0.50901 0.232029
0.147692 0.509239 0.222644
0.148043 0.509529 0.210361
0.148531 0.508156 0.194171
0.150774 0.504143 0.178744
0.158694 0.502266 0.164752
0.205097 0.517021 0.168917
0.307454 0.527825 0.168383
0.393622 0.535912 0.154635
0.458503 0.539483 0.142031
0.500587 0.544717 0.139712
0.562005 0.539528 0.145037
0.623011 0.540169 0.153643
0.686809 0.544396 0.167697
0.752758 0.548379 0.191577
0.806424 0.548745 0.218128
0.839841 0.551797 0.240696
0.844602 0.563638 0.245991
0.844526 0.57322 0.248692
0.844709 0.577768 0.249622
0.844511 0.581216 0.250156
0.844373 0.584024 0.250492
0.844327 0.58677 0.250828
0.84448 0.589197 0.251347
0.844526 0.591394 0.252155
0.844327 0.592721 0.252522
0.843656 0.594156 0.25333
0.842451 0.595575 0.254368
0.175326 0.585855 0.304067
0.174563 0.585504 0.302586
0.173587 0.585748 0.302052
0.172671 0.585824 0.300191
0.171939 0.585931 0.297047
0.171481 0.585672 0.290562
0.171099 0.585397 0.28159
0.170916 0.584451 0.267918
0.171664 0.58233 0.246906
0.173251 0.577737 0.222858
0.180224 0.574212 0.204974
0.203204 0.577859 0.195117
0.288334 0.589624 0.194491
0.386191 0.597009 0.185382
0.460777 0.600748 0.171557
0.516335 0.603571 0.161273
0.55462 0.608942 0.161975
0.611917 0.604257 0.168002
0.671977 0.603052 0.178378
0.729 0.607172 0.191714
0.78323 0.613489 0.213504
0.823224 0.618997 0.238285
0.845167 0.625345 0.261219
0.84477 0.634913 0.266957
0.84535 0.640085 0.271809
0.845075 0.643488 0.273182
0.844923 0.645792 0.274159
0.845029 0.648722 0.275288
0.84477 0.65066 0.275959
0.844862 0.652155 0.276677
0.844999 0.653284 0.277424
0.844511 0.654383 0.278126
0.843473 0.655314 0.27895
0.20383 0.663386 0.360601
0.203067 0.662364 0.35906
0.202426 0.662226 0.358831
0.202029 0.662211 0.357565
0.201678 0.662257 0.35523
0.201404 0.662013 0.350057
0.200946 0.660975 0.34168
0.20061 0.659602 0.329641
0.200458 0.656901 0.309758
0.201556 0.650996 0.280858
0.205585 0.645151 0.252903
0.224491 0.645151 0.235294
0.287037 0.651347 0.226169
0.379629 0.658549 0.221561
0.459297 0.66244 0.208286
0.525017 0.663508 0.19617
0.572656 0.667308 0.190555
0.606882 0.672602 0.194202
0.660075 0.666484 0.200366
0.715114 0.664286 0.211536
0.765393 0.667247 0.224994
0.808255 0.674983 0.248631
0.833494 0.682292 0.269123
0.844205 0.688624 0.28838
0.844709 0.693736 0.296788
0.844587 0.696498 0.29839
0.844724 0.699168 0.30013
0.844434 0.700832 0.300862
0.84419 0.702266 0.30132
0.844327 0.703365 0.302144
0.844495 0.704021 0.30277
0.844129 0.704921 0.303456
0.84332 0.705623 0.304265
0.23566 0.733074 0.411688
0.235187 0.731899 0.410636
0.234775 0.731472 0.410666
0.234379 0.731197 0.409598
0.234104 0.73109 0.407614
0.233494 0.730175 0.402579
0.232822 0.728603 0.394995
0.232349 0.72694 0.384695
0.231632 0.723964 0.367239
0.232151 0.717754 0.343099
0.235676 0.709911 0.312612
0.247959 0.705074 0.283162
0.295003 0.709041 0.266392
0.381384 0.71487 0.261738
0.460197 0.719844 0.254795
0.525994 0.721645 0.244938
0.583627 0.722347 0.23682
0.623789 0.725704 0.234623
0.656748 0.730495 0.240864
0.704982 0.725704 0.248737
0.75169 0.72285 0.26128
0.794522 0.724224 0.275517
0.822721 0.730465 0.293156
0.840299 0.736736 0.309133
0.842008 0.741436 0.324407
0.841856 0.744442 0.327779
0.841794 0.746288 0.329183
0.841382 0.747509 0.329595
0.841474 0.748455 0.330465
0.841398 0.749172 0.33109
0.841352 0.749874 0.33167
0.841245 0.74992 0.331777
0.841123 0.749828 0.331853
0.267643 0.787854 0.455573
0.267063 0.786648 0.454643
0.266957 0.786358 0.454582
0.26659 0.785672 0.453544
0.266148 0.78468 0.451133
0.265827 0.783475 0.447242
0.265095 0.781659 0.44036
0.264469 0.779293 0.431174
0.263813 0.775555 0.417456
0.263325 0.769253 0.397086
0.267689 0.762631 0.371862
0.27805 0.756832 0.341421
0.314351 0.756725 0.316609
0.38764 0.761273 0.308553
0.460014 0.765209 0.304479
0.527047 0.768307 0.295705
0.586007 0.768521 0.289952
0.635782 0.770016 0.286778
0.671534 0.77377 0.289494
0.701823 0.77705 0.299382
0.742809 0.774212 0.311543
0.780758 0.772 0.324117
0.81088 0.773541 0.331426
0.827558 0.778347 0.343191
0.837095 0.782681 0.35378
0.837034 0.785 0.359411
0.83714 0.786419 0.36202
0.837049 0.78703 0.363149
0.836866 0.78764 0.36437
0.836805 0.787945 0.364935
0.836759 0.788037 0.365103
0.836774 0.787884 0.36495
0.836805 0.787564 0.364477
0.292546 0.819898 0.486152
0.292088 0.819059 0.485451
0.291646 0.818402 0.484901
0.291234 0.817517 0.483864
0.290806 0.816159 0.481636
0.290333 0.814527 0.477852
0.290318 0.812772 0.472114
0.289906 0.8103 0.463798
0.289677 0.806256 0.452613
0.289631 0.800839 0.435309
0.29482 0.794644 0.412284
0.309834 0.790875 0.390112
0.340902 0.79028 0.368536
0.397528 0.792874 0.359075
0.463706 0.795911 0.356207
0.527398 0.799161 0.351324
0.584115 0.802167 0.347555
0.639933 0.802823 0.34522
0.681285 0.805173 0.34638
0.714321 0.807538 0.35259
0.741009 0.810025 0.365621
0.775998 0.807019 0.375357
0.805554 0.805234 0.383841
0.822812 0.806439 0.388083
0.832166 0.809873 0.397314
0.831785 0.812284 0.405463
0.831388 0.813291 0.407431
0.831434 0.813947 0.407965
0.832105 0.814069 0.407599
0.833677 0.813703 0.405921
0.834714 0.81323 0.404486
0.835431 0.812772 0.403311
0.835462 0.812604 0.403021
0.304006 0.832181 0.497215
0.303761 0.831296 0.49601
0.303471 0.83032 0.495628
0.303197 0.82916 0.494789
0.303212 0.827878 0.493248
0.30309 0.826474 0.489494
0.303471 0.824506 0.484276
0.303807 0.821653 0.476066
0.303944 0.818097 0.464881
0.305776 0.81355 0.449607
0.313237 0.808881 0.43093
0.330785 0.806226 0.414359
0.363073 0.806485 0.400107
0.414054 0.809445 0.393256
0.473503 0.811673 0.391806
0.528267 0.814511 0.390646
0.585245 0.818479 0.387671
0.640452 0.820676 0.385763
0.691035 0.82179 0.385046
0.726009 0.823514 0.390066
0.752773 0.824537 0.399115
0.776898 0.824857 0.408392
0.804044 0.820996 0.41387
0.823041 0.821469 0.417487
0.832334 0.82208 0.42295
0.833158 0.82388 0.431052
0.833112 0.82417 0.431922
0.833188 0.824262 0.432151
0.833402 0.824247 0.432029
0.833722 0.824155 0.431556
0.833921 0.824079 0.431327
0.833997 0.823911 0.430915
0.833906 0.823728 0.43032
0.304219 0.833478 0.501793
0.304036 0.832792 0.500877
0.30396 0.831968 0.50045
0.303517 0.830594 0.499016
0.303166 0.828977 0.496559
0.30309 0.82739 0.492882
0.303212 0.825284 0.486427
0.303685 0.822522 0.478233
0.303883 0.818509 0.466407
0.306188 0.81355 0.449622
0.314549 0.808988 0.431281
0.335378 0.807279 0.417655
0.369497 0.808347 0.410773
0.42121 0.811795 0.408087
0.478843 0.814023 0.409003
0.532143 0.816953 0.410574
0.585107 0.821027 0.409125
0.642451 0.824201 0.406943
0.694286 0.825711 0.405554
0.731792 0.827298 0.41001
0.757626 0.828611 0.419165
0.780758 0.828626 0.426719
0.801221 0.827405 0.432334
0.821393 0.827482 0.43444
0.830503 0.82829 0.439536
0.833494 0.82945 0.446372
0.833494 0.829618 0.447135
0.833555 0.829587 0.447044
0.833753 0.829511 0.446754
0.834028 0.829419 0.446387
0.834211 0.829389 0.446174
0.834287 0.829358 0.446052
0.834272 0.829358 0.446052
0.304509 0.834836 0.506462
0.304356 0.833875 0.504799
0.303975 0.832914 0.503304
0.303929 0.831815 0.501839
0.303349 0.829969 0.499336
0.303212 0.828046 0.49456
0.303029 0.825849 0.48806
0.30367 0.823026 0.479393
0.303929 0.818845 0.467552
0.305699 0.813397 0.449149
0.314916 0.80882 0.430335
0.337682 0.80734 0.417075
0.374075 0.808667 0.410483
0.425238 0.81181 0.407599
0.48249 0.814221 0.409735
0.535058 0.817365 0.411582
0.587747 0.821607 0.411032
0.646281 0.824445 0.407858
0.697276 0.826001 0.406256
0.731929 0.827405 0.410788
0.757656 0.828733 0.420203
0.779492 0.828779 0.427893
0.799939 0.82768 0.432746
0.820447 0.827741 0.435889
0.828367 0.828519 0.440375
0.832731 0.829282 0.445121
0.832898 0.829694 0.447318
0.833005 0.82974 0.447669
0.833204 0.829679 0.447395
0.833539 0.829587 0.447028
0.833783 0.829541 0.446906
0.83386 0.829526 0.446845
0.83386 0.829526 0.44683
0.304723 0.835767 0.509422
0.30454 0.83505 0.508156
0.304311 0.833799 0.5066
0.30399 0.832532 0.504158
0.303563 0.830793 0.501045
0.303227 0.828519 0.496193
0.302998 0.826246 0.489219
0.303639 0.823285 0.480201
0.303929 0.819043 0.468208
0.30576 0.813306 0.448951
0.315022 0.808576 0.428931
0.3402 0.807095 0.41622
0.377874 0.809094 0.410407
0.428519 0.811902 0.407492
0.485527 0.814206 0.409735
0.537942 0.817777 0.4121
0.591302 0.821973 0.411872
0.647913 0.824537 0.409369
0.698817 0.826123 0.40763
0.731929 0.827527 0.411826
0.757168 0.828733 0.420493
0.779156 0.829114 0.42829
0.799161 0.827955 0.433402
0.818952 0.828138 0.43743
0.827344 0.828702 0.440757
0.831327 0.829496 0.445624
0.831769 0.83006 0.448798
0.831464 0.830243 0.449714
0.830884 0.830427 0.450736
0.830045 0.830716 0.452049
0.82948 0.8309 0.452918
0.829252 0.830991 0.453361
0.829541 0.8309 0.452888
0.304601 0.836027 0.516152
0.304585 0.835477 0.513085
0.304494 0.834623 0.509667
0.30396 0.833127 0.50631
0.303822 0.831464 0.502785
0.303197 0.828916 0.497566
0.303059 0.826551 0.490349
0.303593 0.823407 0.480629
0.303944 0.819135 0.468421
0.305776 0.81326 0.448829
0.315267 0.808469 0.42829
0.341604 0.807004 0.415824
0.380346 0.809461 0.410437
0.430549 0.812116 0.407752
0.487785 0.814328 0.409888
0.539696 0.817807 0.412055
0.59324 0.822293 0.412268
0.648905 0.824628 0.410163
0.699351 0.826261 0.408942
0.731121 0.827771 0.413169
0.756207 0.828931 0.421088
0.7785 0.829526 0.428321
0.798291 0.82829 0.433295
0.817319 0.828428 0.438254
0.826215 0.828748 0.440955
0.830732 0.829526 0.445579
0.831128 0.830274 0.449821
0.8309 0.830411 0.45069
0.830396 0.830594 0.451575
0.829557 0.830869 0.452766
0.829114 0.831006 0.453498
0.828855 0.831083 0.453864
0.82884 0.831098 0.45388
0.304509 0.836439 0.519585
0.304616 0.835782 0.516823
0.304494 0.835065 0.513726
0.30425 0.833646 0.509071
0.303929 0.831983 0.504646
0.303243 0.829358 0.498909
0.303105 0.826825 0.491417
0.303548 0.823621 0.48127
0.30396 0.819074 0.468315
0.305684 0.813397 0.44918
0.314778 0.808377 0.427985
0.342107 0.807111 0.415869
0.381689 0.809567 0.410407
0.431632 0.812177 0.40795
0.488777 0.814374 0.409979
0.539956 0.817807 0.41207
0.593606 0.82237 0.412314
0.648569 0.824659 0.410376
0.699779 0.826307 0.409384
