bundles/resolve-cinematic-luts/Phantom Luts/P4k & P6K Phntm Film LUTs - V6/P6k/Gen 5 Colour/P6k VisionTeal Gen5.cube
TITLE "Generated by Resolve"
LUT_3D_SIZE 5
0.0222324 0.0299077 0.0281376
0.0884718 0.0271611 0.0272068
0.577874 0.0467842 0.0601816
0.759793 0.126131 0.123552
0.775235 0.154269 0.134951
0.020264 0.122866 0.0488899
0.0950637 0.121294 0.0440528
0.646815 0.129885 0.0944686
0.782742 0.204227 0.139284
0.800717 0.301579 0.170703
0.145342 0.69337 0.38172
0.158526 0.676143 0.328664
0.600381 0.632822 0.174929
0.834287 0.704311 0.329122
0.834607 0.698054 0.321798
0.293858 0.860227 0.580209
0.304402 0.849638 0.551949
0.59765 0.788052 0.465736
0.826642 0.824475 0.54493
0.827131 0.824781 0.546227
0.287602 0.865827 0.588327
0.300801 0.853651 0.563668
0.521569 0.78558 0.448829
0.815412 0.820539 0.535256
0.826993 0.824781 0.545907
0.0212863 0.0415503 0.112428
0.113359 0.0304417 0.11194
0.638346 0.08159 0.17116
0.769863 0.133654 0.213169
0.760555 0.101839 0.155215
0.0200504 0.106523 0.0912947
0.0939193 0.116701 0.109651
0.620706 0.063798 0.0823529
0.775982 0.159899 0.136019
0.800412 0.283604 0.16611
0.13933 0.691508 0.422065
0.130999 0.682399 0.380118
0.593179 0.625956 0.170352
0.833707 0.693568 0.317342
0.834104 0.693751 0.317815
0.282048 0.874022 0.611276
0.291157 0.862577 0.582864
0.57557 0.786648 0.46041
0.825696 0.82417 0.544182
0.827451 0.825147 0.548089
0.279393 0.875563 0.61239
0.289036 0.865248 0.588754
0.498878 0.786923 0.446769
0.811368 0.819623 0.533593
0.826978 0.824781 0.545922
0.14345 0.100237 0.557275
0.24921 0.0498054 0.547707
0.653605 0.103334 0.626307
0.774609 0.164126 0.702235
0.761273 0.123476 0.598581
0.0192874 0.134661 0.537148
0.14583 0.092256 0.552483
0.637293 0.0975814 0.608484
0.769787 0.156954 0.668132
0.760739 0.127642 0.568872
0.106249 0.686351 0.622904
0.0987259 0.680186 0.618036
0.676234 0.671336 0.64358
0.868849 0.655528 0.589319
0.856916 0.663081 0.509331
0.345754 0.905241 0.789014
0.299931 0.912306 0.779461
0.498909 0.854398 0.658991
0.832013 0.846189 0.632502
0.847883 0.850889 0.649393
0.284504 0.913054 0.773114
0.255482 0.916671 0.756954
0.331731 0.863127 0.609445
0.804715 0.831662 0.571801
0.843122 0.845685 0.630365
0.370336 0.0871443 0.731777
0.427008 0.090837 0.736629
0.731289 0.182849 0.807935
0.788663 0.191791 0.824155
0.788663 0.191775 0.824094
0.282887 0.081117 0.723247
0.368933 0.0870069 0.731716
0.717021 0.181445 0.804501
0.788678 0.192142 0.82417
0.788754 0.191852 0.824186
0.110887 0.731853 0.860365
0.123064 0.718746 0.861555
0.723766 0.56733 0.896376
0.868498 0.567895 0.891249
0.861875 0.536034 0.885725
0.623224 0.900069 0.857603
0.604013 0.900587 0.855497
0.59353 0.89601 0.849134
0.894972 0.908324 0.884718
0.923095 0.898009 0.877714
0.609903 0.899886 0.855283
0.582132 0.901366 0.851652
0.551339 0.899474 0.836835
0.870497 0.920851 0.877501
0.911452 0.924743 0.877043
0.380667 0.0874647 0.732158
0.435096 0.0917983 0.737972
0.734905 0.183276 0.809369
0.788724 0.191775 0.824186
0.788785 0.19176 0.824216
0.300694 0.0819409 0.724056
0.379492 0.0873884 0.732143
0.719951 0.181949 0.80528
0.788739 0.192447 0.824231
0.788769 0.191974 0.824201
0.137972 0.720607 0.863401
0.130144 0.708644 0.861952
0.718883 0.548424 0.891249
0.86389 0.546395 0.887861
0.856916 0.516625 0.881788
0.630823 0.900496 0.859785
0.623667 0.899413 0.859495
0.630243 0.888685 0.86424
0.89897 0.89575 0.905394
0.915373 0.889784 0.904875
0.63331 0.899763 0.858854
0.630442 0.900618 0.859739
0.645319 0.901366 0.860822
0.881621 0.926604 0.903487
0.918791 0.932418 0.911284
