bundles/resolve-cinematic-luts/Phantom Luts/P4k & P6K Phntm Film LUTs - V6/P6k/Gen 5 Colour/P6k Vision Gen5.cube
TITLE "Generated by Resolve"
LUT_3D_SIZE 33
0.0221866 0.0275425 0.0221866
0.0221866 0.0275425 0.0221866
0.0221866 0.0275425 0.0221866
0.0221866 0.0285801 0.0221866
0.0241855 0.0298924 0.0222629
0.0311131 0.0299687 0.0223697
0.0403449 0.0295415 0.0224002
0.0554971 0.0302434 0.0217899
0.078584 0.0312657 0.0215915
0.111589 0.033341 0.022797
0.163867 0.035935 0.0241703
0.230884 0.0380102 0.0260777
0.299123 0.0395209 0.0293126
0.367208 0.0418555 0.0328679
0.436912 0.0458839 0.0387579
0.506355 0.0525826 0.047013
0.585184 0.0661173 0.0643778
0.66154 0.0870832 0.085359
0.723415 0.110277 0.101457
0.753338 0.125872 0.111025
0.759426 0.129107 0.113024
0.761837 0.133806 0.115373
0.761486 0.133562 0.114702
0.761883 0.134142 0.114763
0.762188 0.131136 0.117647
0.762676 0.132662 0.117632
0.764324 0.135729 0.118624
0.765591 0.138964 0.118959
0.765957 0.141939 0.118303
0.767987 0.145083 0.11899
0.769894 0.147478 0.119265
0.772 0.149645 0.119249
0.774975 0.153002 0.120668
0.0221714 0.0275425 0.0221714
0.0221866 0.0275425 0.0221866
0.0221866 0.0275731 0.0221866
0.0221714 0.028748 0.0221714
0.0241398 0.030045 0.0222629
0.0306706 0.0303197 0.0223545
0.0411383 0.0296788 0.0223239
0.0567941 0.0305333 0.0218357
0.0817426 0.0316777 0.0219577
0.116655 0.0339971 0.02327
0.170794 0.0361791 0.0242313
0.237415 0.0386053 0.0264744
0.305364 0.0401923 0.0292515
0.373159 0.043595 0.0334478
0.440757 0.047303 0.0391546
0.512169 0.0540627 0.0491798
0.590585 0.0688487 0.0673991
0.665965 0.0907912 0.085832
0.726452 0.113481 0.101625
0.75729 0.13228 0.113146
0.7626 0.136233 0.115373
0.762463 0.135866 0.114778
0.762188 0.135668 0.113985
0.764965 0.141207 0.117479
0.763882 0.135882 0.117784
0.765286 0.138582 0.118639
0.76527 0.141283 0.118135
0.766781 0.144366 0.119051
0.767773 0.146868 0.119478
0.769421 0.148836 0.119738
0.77145 0.150668 0.119738
0.774212 0.153567 0.121004
0.776364 0.15668 0.122011
0.0221714 0.0276341 0.0221714
0.0221866 0.0276646 0.0221866
0.0221714 0.0276799 0.0221714
0.0221714 0.0285344 0.0221714
0.0230259 0.0301671 0.0222629
0.0283207 0.03122 0.0224155
0.0413672 0.0304875 0.0222019
0.0580148 0.0311284 0.0218967
0.0827344 0.0319829 0.0217899
0.11841 0.0346838 0.0237125
0.172625 0.0365606 0.0242161
0.23975 0.0387274 0.0261387
0.307042 0.0413367 0.0287785
0.376516 0.0448615 0.0336309
0.445014 0.0489509 0.0396277
0.515496 0.0559243 0.0500649
0.594415 0.0711986 0.0685893
0.66923 0.0919966 0.0872663
0.729229 0.11664 0.103182
0.75967 0.137316 0.11429
0.76318 0.139651 0.114488
0.764858 0.140017 0.117159
0.765591 0.14345 0.118044
0.766781 0.146365 0.118624
0.767224 0.148287 0.118791
0.766537 0.144427 0.118898
0.767163 0.146487 0.119127
0.767636 0.148226 0.119631
0.76878 0.150072 0.119829
0.771466 0.152087 0.120668
0.773663 0.154574 0.121477
0.775494 0.157275 0.122438
0.77821 0.160021 0.123308
0.0224155 0.0322881 0.0224155
0.0223239 0.0318456 0.0223239
0.0222629 0.03122 0.0222629
0.0222782 0.0312657 0.0222782
0.0233768 0.0326085 0.0225528
0.027863 0.033875 0.0224765
0.0415961 0.0324407 0.0223545
0.0599832 0.0325322 0.0223392
0.0861524 0.0334173 0.0225376
0.123568 0.0364385 0.0243839
0.17911 0.0375982 0.0245823
0.242161 0.0392615 0.0262608
0.311711 0.0419623 0.0294957
0.380606 0.0460212 0.0344091
0.447578 0.0500496 0.0399634
0.518441 0.0577096 0.0509346
0.597147 0.0735637 0.0693217
0.671107 0.0944533 0.0880598
0.732265 0.119158 0.10341
0.761242 0.138979 0.115831
0.765499 0.143145 0.11783
0.766537 0.145724 0.118639
0.767117 0.147433 0.118776
0.767529 0.149447 0.118746
0.767895 0.149813 0.119738
0.76759 0.148379 0.119463
0.768032 0.150057 0.11986
0.76939 0.151751 0.120577
0.771435 0.154086 0.121675
0.773526 0.156268 0.122576
0.774823 0.158526 0.122744
0.777462 0.161242 0.123873
0.777127 0.165927 0.122026
0.0227207 0.0408637 0.0252689
0.0224613 0.0403143 0.0248417
0.0223697 0.0395666 0.0241398
0.0234531 0.0384833 0.024094
0.0254978 0.0398413 0.0242313
0.0294194 0.0412909 0.0245518
0.0436103 0.0420539 0.0222477
0.0644541 0.0395819 0.0242924
0.0935988 0.0390478 0.025391
0.133074 0.0394446 0.0252079
0.188052 0.0396887 0.0253605
0.25153 0.0415503 0.0273136
0.316472 0.0432288 0.0301061
0.383337 0.0471962 0.0347143
0.451667 0.0519112 0.0403449
0.521721 0.0593729 0.0512245
0.601312 0.0767224 0.070573
0.675517 0.0982528 0.08925
0.734005 0.122744 0.104952
0.76466 0.144533 0.118044
0.767346 0.147509 0.119081
0.767803 0.149172 0.119219
0.768032 0.150256 0.119692
0.769589 0.152041 0.120607
0.770886 0.154421 0.121813
0.772244 0.156329 0.122774
0.771237 0.154635 0.122011
0.772534 0.156786 0.122744
0.773388 0.158877 0.123186
0.775006 0.161151 0.124193
0.774716 0.165362 0.122026
0.777447 0.167361 0.123827
0.779293 0.170581 0.124117
0.0234989 0.0515297 0.0289006
0.0234379 0.0508431 0.0283055
0.0237125 0.0494545 0.0274968
0.0244297 0.0486458 0.0270542
0.027451 0.0484474 0.0273289
0.0320897 0.0511177 0.0276341
0.0395209 0.0535897 0.026978
0.0717784 0.049546 0.0269322
0.0962539 0.0495766 0.0299687
0.139254 0.0498817 0.030869
0.202533 0.047425 0.028809
0.26537 0.0456245 0.0285649
0.324666 0.0454261 0.0303655
0.390204 0.0491951 0.0351873
0.45539 0.0542763 0.041413
0.527932 0.0629129 0.0536507
0.606195 0.080766 0.0720378
0.678599 0.101808 0.0899519
0.738415 0.127306 0.106905
0.767346 0.148623 0.119081
0.769711 0.151415 0.119966
0.771359 0.153597 0.121279
0.772519 0.155505 0.122377
0.772976 0.157244 0.122713
0.773297 0.158755 0.123095
0.774289 0.161013 0.124147
0.773938 0.160082 0.123751
0.775128 0.162936 0.125124
0.773938 0.166369 0.123293
0.775692 0.168505 0.12462
0.776898 0.171069 0.124926
0.779629 0.174701 0.125978
0.782238 0.1785 0.127016
0.0261387 0.0689403 0.0350042
0.0257572 0.0681163 0.0334325
0.0257877 0.066865 0.0325322
0.0260624 0.0658274 0.0313726
0.0281376 0.0651408 0.0314183
0.0340276 0.0663005 0.0322118
0.0421302 0.0701305 0.0324254
0.061387 0.0721904 0.0285954
0.103014 0.0651255 0.0312657
0.13994 0.0648051 0.0358434
0.204669 0.0612802 0.0339971
0.275578 0.0580148 0.0342718
0.341604 0.0557259 0.0340887
0.401587 0.0547494 0.0359197
0.463783 0.0604868 0.0433509
0.534905 0.0700236 0.0558938
0.610941 0.0864881 0.0741894
0.683528 0.108705 0.0922103
0.741604 0.135134 0.110002
0.772198 0.155535 0.122347
0.772946 0.157427 0.122759
0.773373 0.159152 0.123262
0.774411 0.161257 0.124315
0.772732 0.165225 0.122393
0.77409 0.167041 0.124041
0.77467 0.169085 0.124697
0.775082 0.171435 0.125399
0.775036 0.171176 0.125292
0.77612 0.174746 0.126452
0.777356 0.1776 0.127443
0.778515 0.180468 0.127718
0.779828 0.183246 0.128115
0.782269 0.19292 0.130755
0.0289311 0.0912642 0.0427253
0.0286717 0.0905776 0.0402533
0.0287785 0.0896925 0.0395209
0.0283207 0.0880446 0.0370489
0.0294804 0.087541 0.0366217
0.033402 0.0881819 0.0372625
0.0456092 0.0905165 0.0394293
0.0590982 0.0946212 0.0371252
0.0928511 0.0933242 0.0299382
0.147265 0.0847028 0.0356146
0.209064 0.0791333 0.0402838
0.277577 0.0778058 0.0408942
0.351293 0.0771038 0.0428931
0.422675 0.0778515 0.0459297
0.48658 0.0804303 0.0514992
0.552361 0.0872663 0.0633249
0.622415 0.102129 0.0805829
0.689921 0.120775 0.0963607
0.743999 0.142535 0.11249
0.775357 0.163653 0.125612
0.773739 0.166552 0.123537
0.774914 0.168307 0.124743
0.774594 0.170047 0.124559
0.77554 0.173236 0.125994
0.776379 0.176059 0.126864
0.777539 0.179431 0.127947
0.777188 0.181506 0.127764
0.778256 0.184726 0.129183
0.778424 0.185779 0.12929
0.779522 0.193805 0.13135
0.781109 0.20206 0.133501
0.783001 0.2112 0.13637
0.784833 0.220218 0.140124
0.0327459 0.11989 0.05449
0.0326085 0.118898 0.0513008
0.032517 0.117922 0.0486915
0.0328832 0.116365 0.0471656
0.0323491 0.114366 0.0443427
0.0338598 0.113832 0.0439307
0.0422522 0.116228 0.0453498
0.0605783 0.119738 0.0467689
0.0807813 0.125261 0.0405127
0.135912 0.122332 0.0312963
0.214023 0.109926 0.0407721
0.292561 0.104692 0.0502632
0.359503 0.110323 0.0561379
0.435813 0.116243 0.0641337
0.510582 0.122667 0.0731823
0.58027 0.127718 0.0832532
0.643732 0.132738 0.09308
0.702678 0.142443 0.104158
0.750408 0.160296 0.118425
0.777249 0.182559 0.128023
0.77792 0.183917 0.128817
0.777676 0.183474 0.128496
0.777157 0.181582 0.127749
0.778134 0.184283 0.129061
0.778515 0.191287 0.130419
0.77966 0.199207 0.132967
0.77998 0.206607 0.134508
0.780636 0.21413 0.136767
0.781765 0.222889 0.141482
0.782696 0.22707 0.143297
0.783368 0.234394 0.146029
0.78381 0.245823 0.151064
0.785473 0.257237 0.156298
0.0331121 0.161288 0.0667124
0.0329747 0.159976 0.0629587
0.0331426 0.158556 0.0594034
0.0330816 0.157198 0.0569467
0.0331731 0.154803 0.0537423
0.03299 0.151461 0.0500649
0.0364691 0.151217 0.0496223
0.0525978 0.157488 0.0523995
0.0776379 0.163912 0.0527504
0.108507 0.173358 0.0418402
0.203357 0.168811 0.0308537
0.29398 0.159686 0.0531319
0.381537 0.156054 0.072694
0.44184 0.164065 0.0792401
0.513176 0.16994 0.0881971
0.583307 0.177142 0.0988174
0.654932 0.18677 0.109941
0.714183 0.196017 0.12079
0.757275 0.208484 0.131685
0.781918 0.220676 0.140764
0.781399 0.217273 0.138842
0.781292 0.217548 0.138949
0.781842 0.221927 0.141238
0.781918 0.226688 0.143099
0.782452 0.233478 0.14612
0.782513 0.239765 0.148989
0.782589 0.247349 0.151919
0.782406 0.256062 0.156695
0.782986 0.26627 0.160952
0.783017 0.275944 0.165789
0.78349 0.282628 0.168261
0.784375 0.292561 0.173632
0.785122 0.303059 0.177478
0.0384833 0.223148 0.0887922
0.0382544 0.221729 0.0848554
0.0380407 0.219883 0.0802319
0.0371862 0.217563 0.0745251
0.0364843 0.215641 0.0705882
0.0365606 0.21207 0.066453
0.0347906 0.206119 0.0587625
0.0406806 0.207996 0.0585489
0.0717632 0.221134 0.0652781
0.10901 0.233112 0.0682536
0.162997 0.242924 0.0525063
0.282185 0.233219 0.0347906
0.372244 0.223926 0.0649577
0.456138 0.222553 0.0882429
0.50927 0.230381 0.10193
0.57908 0.234699 0.111437
0.64744 0.24271 0.123842
0.710109 0.254948 0.139071
0.755474 0.268788 0.154376
0.781552 0.28101 0.166888
0.782696 0.278279 0.165911
0.7832 0.275013 0.165179
0.783123 0.274922 0.165148
0.78291 0.280079 0.166979
0.782605 0.285756 0.16968
0.783001 0.292805 0.174289
0.782849 0.301274 0.177829
0.783017 0.309087 0.182284
0.78291 0.317311 0.186831
0.78262 0.325429 0.191318
0.782605 0.333379 0.195819
0.78323 0.339635 0.198795
0.784253 0.348577 0.203647
0.0497139 0.295827 0.120455
0.0495613 0.294926 0.116701
0.0492866 0.29427 0.112596
0.0492409 0.292882 0.108248
0.0487678 0.290639 0.103258
0.0483101 0.288731 0.0979171
0.0482948 0.28484 0.0911879
0.0471046 0.277317 0.0805524
0.059205 0.281407 0.0805676
0.101595 0.2963 0.0864881
0.152483 0.307134 0.0864271
0.230869 0.315267 0.0636912
0.363027 0.304448 0.0365148
0.446723 0.295338 0.080415
0.528054 0.297368 0.108156
0.577249 0.305882 0.125429
0.64004 0.308064 0.147692
0.702846 0.315465 0.162829
0.749722 0.327626 0.180667
0.777646 0.341588 0.197803
0.782605 0.343053 0.200443
0.782788 0.341146 0.199649
0.782925 0.340124 0.19942
0.782849 0.339971 0.199283
0.782696 0.340841 0.199588
0.782696 0.347463 0.203418
0.782528 0.353841 0.206668
0.782727 0.360601 0.210269
0.782757 0.367727 0.213993
0.783047 0.375235 0.217014
0.783017 0.383307 0.221592
0.783444 0.390646 0.223987
0.783459 0.397589 0.227649
0.0644694 0.371405 0.164538
0.0639811 0.370626 0.159854
0.0632792 0.369024 0.15375
0.0628824 0.368048 0.148653
0.0631723 0.367163 0.143725
0.0630503 0.36556 0.138018
0.0628367 0.363439 0.129992
0.0627298 0.35903 0.120241
0.0623484 0.351186 0.105257
0.0842451 0.358068 0.10486
0.141299 0.3729 0.113039
0.215763 0.382162 0.105425
0.314305 0.388983 0.0772106
0.438041 0.377401 0.0426642
0.515084 0.370428 0.0913863
0.592828 0.369238 0.130053
0.644465 0.377798 0.15288
0.694728 0.383276 0.181964
0.740597 0.39118 0.211124
0.772366 0.402487 0.226963
0.782757 0.40798 0.233997
0.782406 0.407019 0.232807
0.782467 0.407324 0.233097
0.782528 0.408545 0.233936
0.782376 0.409445 0.234272
0.782086 0.41091 0.234745
0.782284 0.412329 0.235721
0.78201 0.417365 0.238682
0.781949 0.424521 0.241306
0.78172 0.432044 0.245289
0.782071 0.439078 0.247272
0.782803 0.445579 0.247608
0.78407 0.44976 0.247669
0.086717 0.44892 0.223484
0.0857862 0.447684 0.218784
0.084535 0.446387 0.213519
0.0840314 0.445609 0.208042
0.0838636 0.444358 0.203265
0.0837568 0.443061 0.196857
0.0829633 0.441123 0.187686
0.08159 0.438712 0.173938
0.0832532 0.433783 0.157778
0.0855268 0.426703 0.137606
0.1196 0.436027 0.139162
0.206134 0.446479 0.147967
0.291264 0.45658 0.124529
0.395987 0.460945 0.0944839
0.506935 0.448722 0.0612345
0.58114 0.443748 0.102281
0.657572 0.44007 0.15964
0.70692 0.447837 0.191821
0.741329 0.458839 0.213062
0.77203 0.46833 0.237369
0.787213 0.475853 0.249897
0.787305 0.475532 0.249805
0.787518 0.476158 0.249897
0.787594 0.477226 0.249897
0.787533 0.478431 0.249714
0.787701 0.479744 0.249775
0.787991 0.481376 0.250294
0.788281 0.483238 0.250797
0.788495 0.48542 0.251026
0.789029 0.489296 0.251652
0.790234 0.495811 0.253468
0.790585 0.500771 0.253529
0.792401 0.506218 0.254917
0.118166 0.526528 0.290105
0.117601 0.526452 0.286381
0.116579 0.524956 0.280705
0.114916 0.523293 0.274403
0.113924 0.522545 0.270176
0.113054 0.521202 0.263508
0.1122 0.519524 0.255131
0.110842 0.517159 0.242298
0.110079 0.513664 0.224201
0.11078 0.506752 0.205112
0.117586 0.501884 0.181186
0.175982 0.510094 0.186053
0.279072 0.517372 0.19649
0.368658 0.52842 0.151614
0.471901 0.532341 0.1178
0.571328 0.518715 0.0886702
0.645289 0.515389 0.122438
0.714565 0.510323 0.197528
0.75729 0.519402 0.231052
0.779278 0.53373 0.246372
0.797299 0.544182 0.26331
0.799039 0.546426 0.265049
0.798993 0.546975 0.265003
0.799252 0.548455 0.265354
0.798947 0.549554 0.265156
0.799634 0.551476 0.266285
0.800443 0.554177 0.267353
0.801068 0.556191 0.267979
0.801022 0.556985 0.267918
0.801053 0.557137 0.267933
0.801129 0.556069 0.267964
0.802441 0.559136 0.26923
0.802777 0.562051 0.26949
0.159106 0.603235 0.361242
0.157641 0.602029 0.355856
0.15642 0.600565 0.35137
0.155825 0.600092 0.346929
0.154543 0.598657 0.341756
0.152743 0.597116 0.335821
0.15172 0.595453 0.327672
0.149767 0.593088 0.315648
0.14641 0.590631 0.298833
0.145464 0.585107 0.274311
0.146792 0.577005 0.248768
0.165942 0.573129 0.229419
0.256092 0.580789 0.234852
0.3523 0.588174 0.233829
0.443854 0.597284 0.190204
0.541329 0.601663 0.153597
0.631022 0.587381 0.124468
0.702953 0.584375 0.148257
0.758358 0.585016 0.218906
0.792477 0.591913 0.271015
0.808423 0.605966 0.28687
0.813901 0.612421 0.29424
0.814527 0.613519 0.295109
0.815213 0.614984 0.296178
0.815824 0.617044 0.297719
0.816175 0.619287 0.29865
0.816052 0.620645 0.298726
0.816953 0.622217 0.299214
0.817426 0.622889 0.299458
0.817273 0.622415 0.299321
0.816342 0.620371 0.298695
0.81677 0.618235 0.298222
0.816281 0.615015 0.295674
0.205524 0.673961 0.427893
0.206714 0.67393 0.424918
0.20734 0.673243 0.421515
0.205676 0.672145 0.416617
0.204868 0.670954 0.41239
0.203418 0.66949 0.406973
0.20296 0.667826 0.400336
0.20119 0.665537 0.390433
0.198077 0.66247 0.374823
0.191043 0.658656 0.35137
0.1906 0.65153 0.321691
0.192172 0.642176 0.289204
0.240574 0.642069 0.27837
0.342168 0.649699 0.289754
0.426596 0.657923 0.274327
0.514519 0.663722 0.235401
0.600885 0.66923 0.205478
0.682322 0.655604 0.178317
0.750378 0.652613 0.181918
0.790265 0.65803 0.242481
0.816846 0.667002 0.297215
0.829389 0.679194 0.322515
0.829023 0.6813 0.325383
0.829374 0.683299 0.326726
0.830228 0.685786 0.328069
0.831113 0.687373 0.329412
0.831144 0.688548 0.330129
0.830961 0.689418 0.330434
0.83093 0.690013 0.330541
0.830976 0.689937 0.330495
0.831418 0.687953 0.329427
0.829664 0.683101 0.326116
0.829053 0.67628 0.320851
0.25008 0.736522 0.487007
0.250843 0.736034 0.484611
0.251804 0.735546 0.48188
0.252872 0.735058 0.478889
0.253162 0.734661 0.476173
0.252094 0.734005 0.472007
0.25156 0.733013 0.466804
0.249485 0.730282 0.457877
0.248386 0.727581 0.446082
0.244526 0.724117 0.426719
0.237797 0.718791 0.396994
0.238834 0.709957 0.364233
0.252018 0.703349 0.331685
0.336492 0.706569 0.333806
0.425284 0.712184 0.345418
0.499611 0.721386 0.317311
0.58262 0.724895 0.283818
0.656596 0.731334 0.262837
0.726131 0.72137 0.246967
0.782254 0.718349 0.247669
0.814511 0.725582 0.292027
0.83476 0.734508 0.347524
0.839368 0.740063 0.367285
0.839734 0.741436 0.368414
0.839994 0.742412 0.369146
0.840238 0.743358 0.369833
0.840787 0.744198 0.371145
0.841047 0.744747 0.371572
0.841093 0.744869 0.371588
0.840757 0.743999 0.370596
0.840101 0.742107 0.368582
0.839338 0.738994 0.36611
0.838727 0.73341 0.360784
0.293523 0.783337 0.537896
0.294575 0.782742 0.535515
0.295094 0.782269 0.533303
0.295415 0.781704 0.530373
0.295949 0.781247 0.527703
0.296391 0.780453 0.524865
0.296651 0.779248 0.520104
0.295583 0.777981 0.514
0.295384 0.776211 0.505165
0.29247 0.77261 0.490425
0.290776 0.768414 0.470008
0.2878 0.761624 0.43801
0.294957 0.753796 0.403449
0.339498 0.752239 0.38436
0.431998 0.757076 0.395377
0.501244 0.76228 0.395483
0.573831 0.772 0.366659
0.651545 0.774304 0.345052
0.711177 0.779065 0.334813
0.76257 0.77351 0.336767
0.801312 0.772656 0.356085
0.828367 0.775662 0.380835
0.843626 0.781582 0.408637
0.845487 0.782834 0.412589
0.845518 0.783505 0.414221
0.845441 0.784314 0.415305
0.84538 0.784634 0.415686
0.845289 0.785031 0.416175
0.845411 0.784604 0.41532
0.845548 0.783963 0.414496
0.845502 0.782116 0.410651
0.845243 0.779507 0.407172
0.845365 0.775113 0.401541
0.328038 0.812177 0.574792
0.32871 0.811795 0.573495
0.329778 0.811505 0.571542
0.33077 0.811246 0.569375
0.331823 0.810742 0.567239
0.333211 0.809979 0.56527
0.3355 0.808942 0.562005
0.337957 0.807874 0.558297
0.338643 0.80647 0.551629
0.338964 0.804257 0.542092
0.338567 0.800885 0.527092
0.342428 0.795727 0.505409
0.353841 0.79234 0.481224
0.379965 0.787961 0.454902
0.455406 0.789746 0.457206
0.520516 0.793942 0.465232
0.577539 0.80148 0.453391
0.644617 0.808484 0.431159
0.709331 0.810758 0.423377
0.753048 0.814206 0.426307
0.789899 0.812772 0.445533
0.815229 0.81207 0.457816
0.833143 0.814939 0.472969
0.838117 0.816678 0.480339
0.838437 0.816999 0.481575
0.83827 0.817426 0.482734
0.838285 0.817655 0.483177
0.8383 0.817746 0.483223
0.838346 0.817349 0.482033
0.838788 0.816602 0.48011
0.839307 0.815106 0.476249
0.839475 0.813153 0.470939
0.840406 0.809033 0.460563
0.343969 0.823209 0.594385
0.344945 0.822889 0.592844
0.346303 0.822446 0.591455
0.347524 0.822049 0.590265
0.34905 0.821668 0.589288
0.351125 0.821271 0.587182
0.353872 0.820844 0.584588
0.358785 0.819898 0.581949
0.364538 0.818784 0.578363
0.368734 0.81767 0.572
0.370291 0.815366 0.559823
0.376791 0.812757 0.544106
0.399847 0.810864 0.53286
0.437491 0.811688 0.526284
0.490608 0.813626 0.525231
0.553307 0.816999 0.534401
0.606073 0.821881 0.541527
0.656352 0.830182 0.527001
0.711299 0.834104 0.515389
0.757092 0.836881 0.516106
0.786267 0.840101 0.522698
0.810437 0.839338 0.532341
0.826261 0.839353 0.538125
0.834226 0.841413 0.544594
0.835462 0.84181 0.546334
0.835569 0.841962 0.547021
0.835584 0.841962 0.546853
0.835554 0.841886 0.546319
0.835386 0.841657 0.545388
0.835203 0.841367 0.544259
0.835142 0.840986 0.542748
0.835157 0.839673 0.539696
0.835798 0.836637 0.53257
0.340352 0.824262 0.598108
0.341817 0.823789 0.597192
0.343114 0.823453 0.59556
0.344244 0.823148 0.59379
0.345327 0.822782 0.592233
0.347417 0.82211 0.590417
0.350256 0.821271 0.588479
0.354772 0.820478 0.584802
0.361105 0.819257 0.581445
0.369192 0.817761 0.575174
0.370642 0.815778 0.564248
0.376516 0.812757 0.547463
0.39971 0.810864 0.535409
0.440803 0.813718 0.534432
0.500572 0.818814 0.543786
0.563455 0.822873 0.554742
0.615579 0.827588 0.566094
0.662547 0.836057 0.56083
0.715709 0.841856 0.548562
0.760403 0.844541 0.547768
0.789166 0.848676 0.556939
0.807065 0.849424 0.56701
0.824979 0.849439 0.569818
0.834302 0.85069 0.575601
0.835508 0.851133 0.576837
0.835523 0.851133 0.576654
0.835523 0.851133 0.57644
0.835523 0.851133 0.576135
0.835508 0.851118 0.575845
0.835492 0.851087 0.575601
0.835477 0.851072 0.575433
0.835431 0.850614 0.574151
0.835828 0.849149 0.568612
0.33666 0.825483 0.600427
0.337987 0.825055 0.599435
0.339712 0.824552 0.598093
0.3411 0.824109 0.596948
0.342611 0.823713 0.595224
0.344381 0.823194 0.592798
0.347204 0.822187 0.590402
0.351461 0.821057 0.587243
0.358679 0.819715 0.582712
0.3673 0.818128 0.57673
0.370489 0.816464 0.566384
0.375418 0.813001 0.549035
0.39675 0.810681 0.535332
0.438087 0.813382 0.533654
0.49807 0.818616 0.543374
0.560281 0.822843 0.553964
0.61323 0.827298 0.565515
0.658885 0.835248 0.561517
0.711513 0.841596 0.548791
0.757641 0.844511 0.546822
0.786282 0.84828 0.554726
0.804746 0.849592 0.56437
0.822141 0.849302 0.568475
0.832792 0.850278 0.573831
0.835081 0.850904 0.575708
0.835523 0.851133 0.576089
0.835523 0.851118 0.575936
0.835508 0.851102 0.575708
0.835492 0.851087 0.575494
0.835462 0.851072 0.575235
0.835447 0.851041 0.575021
0.835447 0.851041 0.574899
0.835447 0.851026 0.574853
0.33402 0.826337 0.602609
0.335744 0.825849 0.60087
0.336919 0.825483 0.599725
0.338369 0.82504 0.598383
0.340215 0.82443 0.597482
0.342321 0.82385 0.595254
0.344884 0.823011 0.592187
0.349233 0.821546 0.58938
0.356283 0.820188 0.583917
0.365484 0.818448 0.578302
0.370199 0.816999 0.568048
0.374548 0.813184 0.549813
0.394202 0.810803 0.535637
0.435264 0.813275 0.533257
0.495949 0.818158 0.542611
0.558282 0.822538 0.55317
0.611185 0.827237 0.565164
0.656748 0.834989 0.561547
0.708888 0.841505 0.548867
0.755322 0.844266 0.546227
0.784863 0.848127 0.553384
0.803204 0.849363 0.561669
0.820142 0.848981 0.567315
0.831159 0.850004 0.571389
0.834928 0.850767 0.574685
0.835477 0.851072 0.575372
0.835462 0.851072 0.575219
0.835447 0.851041 0.575006
0.835447 0.851026 0.574685
0.835447 0.851026 0.574365
0.835447 0.851011 0.574151
0.835447 0.851011 0.574121
0.835447 0.851011 0.574228
0.331624 0.827253 0.604166
0.333303 0.826673 0.602579
0.335256 0.826093 0.600748
0.336599 0.825635 0.599619
0.338094 0.825177 0.598306
0.340597 0.824369 0.596826
0.343572 0.823499 0.593439
0.347616 0.822034 0.590173
0.354391 0.820569 0.584894
0.363928 0.818738 0.579522
0.369696 0.817197 0.569253
0.373571 0.813397 0.550484
0.39237 0.81088 0.535515
0.433936 0.813321 0.533165
0.494347 0.818036 0.54229
0.55642 0.822492 0.552728
0.608713 0.827131 0.564752
0.654337 0.834623 0.561639
0.707378 0.841367 0.548608
0.753491 0.844038 0.546136
0.78291 0.847791 0.552422
0.801831 0.849241 0.560525
0.818112 0.848814 0.566506
0.829465 0.84979 0.569482
0.834836 0.85069 0.573938
0.835447 0.851041 0.574792
0.835447 0.851026 0.574609
0.835447 0.851026 0.574319
0.835431 0.851011 0.574044
0.835431 0.850996 0.573831
0.835431 0.85098 0.573709
0.835431 0.85098 0.573709
0.835431 0.850996 0.5738
0.329732 0.828016 0.605432
0.331609 0.827344 0.603723
0.333364 0.826734 0.601984
0.335256 0.826139 0.600351
0.336828 0.82562 0.599084
0.339132 0.824842 0.597818
0.342504 0.82385 0.594766
0.346548 0.822461 0.590585
0.352895 0.82089 0.585885
0.362661 0.818998 0.580407
0.369451 0.817319 0.570306
0.373083 0.813611 0.551492
0.390417 0.811017 0.535332
0.432853 0.813275 0.532967
0.4916 0.817777 0.541878
0.553353 0.822568 0.552407
0.606836 0.826963 0.564141
0.653162 0.834302 0.561578
0.705074 0.841276 0.548562
0.751751 0.843961 0.545907
0.78146 0.847501 0.551781
0.800397 0.84918 0.559884
0.816464 0.848768 0.566445
0.828641 0.849653 0.568811
0.834669 0.850599 0.573663
0.835447 0.851026 0.574655
0.835447 0.851026 0.574472
0.835447 0.851011 0.574212
0.835431 0.850996 0.573953
0.835431 0.85098 0.573754
0.835416 0.850965 0.573648
0.835416 0.850965 0.573648
0.835431 0.85098 0.573739
0.328649 0.828489 0.605814
0.330419 0.827787 0.604715
0.332296 0.827115 0.603006
0.334112 0.826505 0.601221
0.335897 0.82594 0.599741
0.338064 0.825223 0.598108
0.341329 0.824186 0.595789
0.345373 0.822873 0.591272
0.352117 0.821057 0.586557
0.361532 0.819257 0.580926
0.369177 0.817441 0.571115
0.372824 0.813809 0.552468
0.388968 0.811124 0.535424
0.430747 0.813138 0.532586
0.488884 0.817472 0.541161
0.551171 0.822202 0.551781
0.604974 0.82652 0.563058
0.650904 0.833967 0.561639
0.702358 0.841291 0.548974
0.749569 0.843809 0.545357
0.779843 0.847318 0.551171
0.798886 0.849027 0.559243
