bundles/resolve-cinematic-luts/Phantom Luts/P4k & P6K Phntm Film LUTs - V6/P6k/Gen 5 Colour/P6k Eastman Gen5.cube
TITLE "Generated by Resolve"
LUT_3D_SIZE 33
0.0390021 0.0390021 0.0390021
0.0390021 0.0390021 0.0390021
0.0390021 0.0390021 0.0390021
0.0390021 0.0390021 0.0390021
0.0438392 0.0390021 0.0390021
0.0502632 0.0390021 0.0390021
0.0618296 0.0390021 0.0390021
0.0769055 0.0390021 0.0390021
0.0968185 0.0390021 0.0390021
0.121416 0.0390021 0.0390021
0.155917 0.0390021 0.039292
0.201068 0.0390021 0.0390021
0.247959 0.0415961 0.0390021
0.293996 0.0466011 0.039765
0.338933 0.0498817 0.0422065
0.380118 0.0562753 0.044419
0.419699 0.0663462 0.0460517
0.457832 0.0788128 0.0480049
0.495171 0.0911269 0.0512703
0.529122 0.103624 0.0592508
0.563409 0.119066 0.0733196
0.589883 0.131197 0.0862745
0.602777 0.136965 0.0938582
0.605097 0.137331 0.0959793
0.606287 0.137255 0.0973831
0.607477 0.137301 0.0988174
0.608454 0.137316 0.100175
0.609033 0.137423 0.101183
0.609216 0.137636 0.102037
0.607004 0.138582 0.102541
0.60296 0.140093 0.102937
0.598917 0.141527 0.103227
0.597787 0.141939 0.103502
0.0390021 0.0390021 0.0390021
0.0390021 0.0390021 0.0390021
0.0390021 0.0390021 0.0390021
0.0390021 0.0390021 0.0390021
0.0415961 0.0390021 0.0390021
0.0465858 0.0390021 0.0390021
0.0569314 0.0390021 0.0390021
0.0725567 0.0390021 0.0390021
0.0926223 0.0390021 0.0390021
0.118181 0.0390021 0.0390021
0.15285 0.0390021 0.0392004
0.199084 0.0390021 0.0390021
0.247517 0.0436103 0.0390021
0.29485 0.0495766 0.0391089
0.340307 0.0530709 0.0415656
0.38146 0.0598306 0.0437324
0.420508 0.0686961 0.0454871
0.458625 0.0815747 0.0475319
0.495064 0.0933394 0.0504616
0.528832 0.106142 0.0578775
0.562417 0.121614 0.071458
0.587472 0.133272 0.0836652
0.600458 0.139269 0.0907149
0.602014 0.139757 0.0925765
0.603311 0.140017 0.0939803
0.604425 0.140093 0.0953231
0.60557 0.140169 0.0965438
0.606287 0.140307 0.0976425
0.606485 0.14052 0.0984665
0.604273 0.141421 0.0992447
0.600732 0.142779 0.0995804
0.596689 0.144198 0.100145
0.596063 0.144518 0.100511
0.0390021 0.0390021 0.0390021
0.0390021 0.0390021 0.0390021
0.0390021 0.0390021 0.0390021
0.0390021 0.0390021 0.0390021
0.0402075 0.0390021 0.0390021
0.044358 0.0390021 0.0390021
0.0532845 0.0390021 0.0390021
0.0681163 0.0390021 0.0390021
0.0893416 0.0390021 0.0390021
0.116396 0.0390021 0.0390021
0.152834 0.0390021 0.0396582
0.200122 0.0396277 0.0390021
0.249332 0.0453346 0.0390021
0.297307 0.0513466 0.0391546
0.343114 0.0554208 0.0412909
0.384192 0.0630045 0.0433814
0.423285 0.0722057 0.0452888
0.460548 0.0843671 0.0471199
0.496559 0.0965438 0.0497749
0.529641 0.109422 0.0573434
0.562402 0.124926 0.0705119
0.58558 0.135775 0.081529
0.598215 0.142 0.0885634
0.599527 0.142321 0.090013
0.600275 0.142382 0.0910964
0.601404 0.142489 0.0925612
0.602045 0.142458 0.0935073
0.602625 0.142748 0.0945907
0.602991 0.143099 0.0953384
0.601343 0.143877 0.0959945
0.598016 0.145113 0.0965591
0.594644 0.146365 0.0967422
0.59411 0.14667 0.0970169
0.0390021 0.0390021 0.0390021
0.0390021 0.0390021 0.0390021
0.0390021 0.0390021 0.0390021
0.0394751 0.0390021 0.0390021
0.0417639 0.0390021 0.0390021
0.0469825 0.0390021 0.0390021
0.0559854 0.0390021 0.0390021
0.0708629 0.0390021 0.0390021
0.0917067 0.0390021 0.039353
0.118395 0.0390021 0.0400244
0.153613 0.0390021 0.0400244
0.201541 0.0409247 0.0390021
0.251026 0.0467994 0.0390021
0.300099 0.0530098 0.0396124
0.345159 0.0582284 0.0412757
0.386862 0.0657664 0.0432288
0.425772 0.0754406 0.0449836
0.462699 0.0878157 0.0467231
0.497826 0.10042 0.0493477
0.530388 0.112551 0.0564431
0.562692 0.128573 0.0698405
0.582864 0.138613 0.0792554
0.594171 0.143832 0.0854963
0.59556 0.144411 0.0871138
0.597116 0.14493 0.0889754
0.598138 0.145098 0.0899062
0.599039 0.14522 0.0908827
0.599649 0.145373 0.0915999
0.599924 0.145739 0.0923629
0.598108 0.146548 0.0931868
0.595193 0.147616 0.0933852
0.58854 0.149813 0.0936141
0.581048 0.15227 0.0936141
0.0406806 0.0390021 0.0390021
0.0400092 0.0390021 0.0390021
0.0397498 0.0390021 0.0390021
0.0409552 0.0390021 0.0390021
0.0444343 0.0390021 0.0390021
0.0508583 0.0390021 0.0390021
0.0624704 0.0390021 0.0396124
0.0787823 0.0390021 0.0416114
0.0989242 0.0390021 0.0435187
0.126589 0.0420691 0.0449378
0.164996 0.0430762 0.0417945
0.21059 0.045716 0.0390021
0.256245 0.0496986 0.0390021
0.30338 0.0547951 0.0393378
0.348608 0.0601205 0.0414435
0.38912 0.0681773 0.0431678
0.428183 0.0784466 0.0450904
0.465965 0.0915236 0.0467689
0.499886 0.103441 0.0494087
0.532128 0.117159 0.0566873
0.562615 0.132387 0.0685283
0.581537 0.142412 0.0778973
0.590448 0.146777 0.0825666
0.591501 0.146944 0.0836652
0.592523 0.147234 0.0845808
0.593622 0.147616 0.0856184
0.594385 0.147829 0.086305
0.594873 0.148119 0.087068
0.595071 0.148348 0.0876936
0.593606 0.148974 0.088014
0.590906 0.149981 0.088426
0.584649 0.152178 0.0887007
0.577432 0.154879 0.0885939
0.0463722 0.0471351 0.0450599
0.045594 0.0468757 0.0444495
0.0450904 0.0459449 0.0435645
0.045655 0.0453193 0.0433051
0.0487221 0.0463417 0.0440223
0.0540322 0.0480354 0.0439155
0.0656291 0.0503243 0.0450904
0.0851606 0.0508583 0.0473793
0.107881 0.0506447 0.0493172
0.135485 0.0525673 0.049958
0.176425 0.0548257 0.0466011
0.226398 0.0577401 0.0404212
0.272236 0.057496 0.0390021
0.314321 0.0601663 0.0402075
0.354574 0.0644083 0.0415351
0.392157 0.0713359 0.0433204
0.430594 0.0821393 0.0449531
0.468055 0.0955062 0.0465248
0.50277 0.108171 0.050309
0.535286 0.12224 0.0584421
0.565606 0.137697 0.0700542
0.585428 0.148516 0.0801404
0.595361 0.153979 0.0858167
0.595422 0.153948 0.0861067
0.596262 0.154711 0.0870222
0.597238 0.155367 0.0879835
0.598184 0.155917 0.0888991
0.598657 0.156435 0.0894942
0.598764 0.156832 0.0897688
0.59733 0.157671 0.0899977
0.595285 0.158511 0.0899519
0.588785 0.160586 0.0897841
0.581659 0.16321 0.0897231
0.0524147 0.0648051 0.0527504
0.0513771 0.0647135 0.0514687
0.0538796 0.0630503 0.0496071
0.0541543 0.0623789 0.0489357
0.0566567 0.0628977 0.0494698
0.0636912 0.0650645 0.0508278
0.0742809 0.0674754 0.05066
0.0913405 0.0688182 0.0511635
0.117418 0.0667582 0.0531624
0.148302 0.0654002 0.0543984
0.190631 0.0658427 0.0519112
0.243778 0.0682078 0.0475929
0.293111 0.0727855 0.0442359
0.336477 0.0771038 0.0421607
0.373709 0.0773175 0.0428626
0.407477 0.0811322 0.0439765
0.441245 0.0886549 0.0456092
0.47567 0.0995346 0.0471351
0.510353 0.1122 0.0520638
0.544152 0.128237 0.0618296
0.57705 0.144656 0.0758679
0.602731 0.158892 0.09131
0.612421 0.165103 0.0979171
0.612711 0.16582 0.0986496
0.613321 0.166735 0.0992905
0.614237 0.167773 0.100237
0.615183 0.168704 0.101167
0.616114 0.169497 0.101946
0.616892 0.170336 0.102434
0.616922 0.171344 0.102998
0.616632 0.172305 0.103944
0.613169 0.174136 0.104448
0.60882 0.175937 0.104585
0.0594492 0.0835889 0.059617
0.0587625 0.0835279 0.0576181
0.0586862 0.0830549 0.0563363
0.0591745 0.0821088 0.0551156
0.0605936 0.0820325 0.0546578
0.0655833 0.0833906 0.0553597
0.0793622 0.0860609 0.0568093
0.0939193 0.0882124 0.0556954
0.116426 0.0888685 0.0558633
0.156634 0.0857862 0.059266
0.205966 0.0828412 0.06009
0.26041 0.085771 0.0571908
0.310811 0.0919509 0.0551308
0.359594 0.0984054 0.0526894
0.402945 0.105257 0.0523842
0.438514 0.111559 0.0533761
0.472419 0.117403 0.0563211
0.501976 0.123033 0.0577859
0.531197 0.131807 0.0632181
0.561761 0.143908 0.0740826
0.594766 0.159182 0.0903182
0.627787 0.179141 0.111101
0.633204 0.182681 0.114992
0.632883 0.183246 0.115267
0.632883 0.183749 0.115526
0.632975 0.1841 0.11574
0.634394 0.185428 0.116854
0.635706 0.186557 0.117754
0.636881 0.187198 0.118517
0.637186 0.188022 0.11928
0.636561 0.189181 0.119814
0.633799 0.19118 0.120516
0.629831 0.193545 0.121019
0.0640116 0.104646 0.0670787
0.0632792 0.104646 0.0646677
0.0632181 0.104723 0.062501
0.0635386 0.104051 0.0606546
0.0641642 0.103899 0.0593423
0.0664225 0.104402 0.0589303
0.0781567 0.107607 0.0612955
0.0998245 0.112688 0.0637522
0.11989 0.116808 0.0632792
0.154513 0.118486 0.0638437
0.216403 0.113802 0.0675212
0.279789 0.11252 0.0687877
0.336721 0.117388 0.0695964
0.385733 0.127245 0.0706188
0.43621 0.137377 0.073228
0.482902 0.147707 0.0780041
0.525719 0.158694 0.0854963
0.563928 0.169711 0.0940261
0.596536 0.180194 0.104768
0.626993 0.193317 0.117372
0.655299 0.206638 0.130068
0.680903 0.219821 0.141329
0.679957 0.22002 0.141375
0.678874 0.22002 0.141268
0.677668 0.219577 0.140948
0.679698 0.221271 0.141772
0.681605 0.222782 0.14226
0.68423 0.224689 0.143587
0.6869 0.226627 0.144396
0.687846 0.227939 0.144884
0.688426 0.229511 0.145357
0.685985 0.231586 0.145937
0.682857 0.234073 0.146304
0.0680095 0.137133 0.0773327
0.0673533 0.136934 0.0744488
0.0673381 0.137301 0.0713207
0.0675364 0.137591 0.0692302
0.0672923 0.136812 0.0663615
0.0677806 0.1364 0.0644388
0.0743114 0.138552 0.0649577
0.0971389 0.146075 0.0693675
0.125933 0.154757 0.0726635
0.157198 0.163302 0.072343
0.213352 0.165301 0.0729076
0.289128 0.167193 0.0812848
0.362005 0.165087 0.0898299
0.424491 0.172183 0.0944076
0.47068 0.182773 0.0991379
0.52134 0.193896 0.104112
0.570306 0.205859 0.111086
0.615732 0.217655 0.119265
0.658091 0.23154 0.130343
0.690227 0.245029 0.141512
0.717372 0.258061 0.151324
0.738872 0.269581 0.159655
0.738918 0.270771 0.160266
0.739498 0.272282 0.160769
0.739834 0.273167 0.160998
0.74136 0.274891 0.161852
0.74316 0.2766 0.162158
0.744701 0.278492 0.162799
0.746319 0.280324 0.16321
0.747387 0.282231 0.163775
0.74786 0.283909 0.164157
0.746456 0.286839 0.16492
0.744472 0.290501 0.165942
0.073167 0.184497 0.0912032
0.0712291 0.184817 0.0887617
0.0693065 0.186023 0.0859083
0.0682231 0.186725 0.0828565
0.067689 0.187045 0.0790875
0.0681773 0.186007 0.0753796
0.0705577 0.185199 0.0719615
0.085008 0.19115 0.0732586
0.123186 0.20618 0.0822766
0.168872 0.221424 0.088777
0.220356 0.234653 0.0872053
0.292088 0.238544 0.0899825
0.370703 0.245396 0.0981918
0.449165 0.243549 0.111574
0.51397 0.244862 0.121767
0.556405 0.255421 0.126146
0.605295 0.261448 0.13077
0.65214 0.27068 0.137179
0.697551 0.282689 0.145861
0.732708 0.295644 0.156268
0.760067 0.308995 0.167498
0.776761 0.319173 0.176699
0.780362 0.322652 0.179385
0.780957 0.324514 0.180285
0.781643 0.326314 0.181064
0.782406 0.328176 0.182223
0.783658 0.330694 0.183246
0.784192 0.33225 0.183856
0.785061 0.333791 0.184588
0.785931 0.335744 0.185458
0.786007 0.337911 0.186374
0.783993 0.340887 0.187427
0.781277 0.343435 0.188449
0.0885939 0.251759 0.116594
0.0864576 0.252384 0.114412
0.0843366 0.25359 0.112215
0.0834516 0.254719 0.109773
0.0828412 0.255924 0.106584
0.0823682 0.256031 0.100893
0.0818036 0.254139 0.0939803
0.0853437 0.254124 0.0890822
0.11252 0.268086 0.0947433
0.16791 0.288884 0.1075
0.234806 0.304921 0.108217
0.29604 0.316503 0.100298
0.37322 0.31873 0.102586
0.4495 0.325612 0.107622
0.52604 0.325719 0.122362
0.593835 0.322225 0.13991
0.635706 0.327382 0.14966
0.679637 0.331624 0.155016
0.720119 0.33904 0.164614
0.753964 0.346105 0.175692
0.779232 0.356832 0.186862
0.796201 0.365789 0.195911
0.803555 0.371954 0.200565
0.804608 0.374884 0.202045
0.805188 0.378103 0.203296
0.80589 0.380713 0.204517
0.806455 0.383093 0.205173
0.807355 0.38558 0.206378
0.808072 0.387854 0.206989
0.808682 0.390417 0.208209
0.808209 0.392172 0.208789
0.806378 0.394842 0.209995
0.803525 0.397559 0.211246
0.107439 0.330007 0.149218
0.104982 0.330343 0.147112
0.103349 0.331853 0.145876
0.102388 0.333288 0.143755
0.103365 0.334127 0.13959
0.102907 0.335256 0.134127
0.102419 0.3355 0.126192
0.102251 0.332219 0.11664
0.112184 0.335531 0.111315
0.152056 0.353628 0.118212
0.226688 0.373388 0.126009
0.30988 0.386221 0.115648
0.369543 0.395315 0.105318
0.443885 0.39237 0.107164
0.513893 0.396918 0.112871
0.585199 0.399283 0.129076
0.653605 0.396963 0.151644
0.696651 0.4009 0.167361
0.735546 0.402228 0.183612
0.766278 0.407767 0.195956
0.791836 0.415274 0.207233
0.807874 0.4224 0.21619
0.818662 0.429252 0.223194
0.818814 0.432547 0.224155
0.81944 0.436103 0.225467
0.819669 0.439033 0.226398
0.81973 0.44181 0.226856
0.820691 0.44477 0.228168
0.82121 0.447807 0.229313
0.820966 0.449638 0.229557
0.821515 0.45185 0.230686
0.820737 0.454398 0.231357
0.818631 0.456901 0.231769
0.122866 0.410651 0.186221
0.121263 0.410712 0.183566
0.119783 0.411673 0.181598
0.119112 0.412589 0.178973
0.119066 0.414343 0.175372
0.118685 0.415244 0.169497
0.118303 0.415671 0.161563
0.118547 0.41474 0.150469
0.119829 0.410559 0.137636
0.139559 0.418402 0.13257
0.197055 0.436927 0.13753
0.297078 0.451102 0.132647
0.380056 0.458274 0.118334
0.432914 0.464454 0.112749
0.50309 0.459541 0.118181
0.566491 0.463661 0.125277
0.632547 0.468467 0.141573
0.699443 0.468437 0.165499
0.74168 0.471107 0.184924
0.775051 0.474998 0.201282
0.79472 0.48571 0.210529
0.814862 0.491844 0.223545
0.827085 0.498405 0.232486
0.826154 0.50193 0.232273
0.8262 0.505989 0.232792
0.82652 0.510018 0.233341
0.826123 0.512978 0.233173
0.826596 0.516777 0.233707
0.827085 0.519829 0.234257
0.827085 0.521721 0.234394
0.826932 0.523735 0.234302
0.826154 0.525795 0.234897
0.824918 0.528649 0.235767
0.136873 0.489876 0.233097
0.135698 0.489235 0.229694
0.1346 0.489799 0.227649
0.134279 0.491035 0.224598
0.134005 0.491768 0.219348
0.13373 0.491905 0.211368
0.133486 0.491966 0.201251
0.13341 0.491173 0.18822
0.13489 0.48867 0.172732
0.139818 0.485435 0.156283
0.171588 0.496452 0.153017
0.267048 0.510002 0.155871
0.369818 0.519234 0.143877
0.44445 0.523156 0.12987
0.491844 0.528145 0.128176
0.556558 0.523461 0.134463
0.615122 0.526146 0.143572
0.673426 0.530663 0.15758
0.730953 0.534707 0.180041
0.772061 0.538186 0.20235
0.800595 0.544305 0.219333
0.813947 0.556359 0.226902
0.824994 0.563821 0.234546
0.828351 0.569238 0.237903
0.827924 0.572992 0.238285
0.828138 0.576806 0.239353
0.828305 0.579004 0.240208
0.828824 0.581399 0.241489
0.82916 0.583383 0.242252
0.82948 0.585245 0.243107
0.829587 0.586679 0.243839
0.828885 0.588052 0.244602
0.827329 0.589471 0.245396
0.159976 0.566995 0.293416
0.15874 0.566079 0.290547
0.157916 0.566415 0.289006
0.157549 0.566461 0.285771
0.157412 0.566217 0.280385
0.157229 0.56553 0.271656
0.156954 0.564218 0.259266
0.156741 0.562707 0.241627
0.157809 0.560113 0.219654
0.161059 0.555673 0.198764
0.171664 0.553765 0.180056
0.233509 0.566583 0.181094
0.350988 0.574823 0.174456
0.441855 0.580407 0.158267
0.504646 0.583658 0.147677
0.547021 0.587976 0.149004
0.604715 0.583185 0.156176
0.657694 0.583795 0.166033
0.708507 0.588525 0.179919
0.754986 0.594446 0.20029
0.790402 0.600259 0.2215
0.815656 0.606119 0.243107
0.825757 0.6159 0.252049
0.83212 0.622263 0.258793
0.832242 0.625849 0.260304
0.831891 0.628473 0.261051
0.832074 0.630625 0.26215
0.832334 0.632792 0.263035
0.832334 0.634836 0.263523
0.832319 0.636378 0.26482
0.832441 0.63743 0.265827
0.832181 0.638392 0.266712
0.831067 0.639323 0.267552
0.187655 0.638651 0.354574
0.186648 0.637598 0.352529
0.186038 0.637201 0.351629
0.185687 0.636988 0.349905
0.185214 0.636652 0.346502
0.184634 0.63563 0.339849
0.1841 0.63389 0.329244
0.183017 0.630655 0.311254
0.183185 0.626093 0.283391
0.185565 0.619867 0.250004
0.194446 0.615946 0.225132
0.224826 0.619501 0.211398
0.331029 0.628229 0.206485
0.43209 0.634974 0.192615
0.508934 0.63653 0.178408
0.559594 0.639658 0.172625
0.597681 0.643137 0.176043
0.648402 0.638926 0.183597
0.695842 0.638132 0.194812
0.738125 0.641581 0.207126
0.774685 0.647898 0.227481
0.802274 0.654429 0.250675
0.824308 0.661051 0.277211
0.832776 0.667994 0.288502
0.833341 0.671839 0.29398
0.833158 0.674128 0.295735
0.833539 0.676295 0.297826
0.833219 0.678126 0.299001
0.833082 0.679774 0.300328
0.832959 0.680842 0.301137
0.833173 0.681712 0.30219
0.832807 0.68249 0.303136
0.832212 0.683162 0.304051
0.216999 0.703075 0.408255
0.216205 0.701656 0.406638
0.215808 0.700877 0.405905
0.215564 0.700191 0.40444
0.215213 0.699428 0.401633
0.215091 0.698802 0.396826
0.213718 0.69662 0.387869
0.212192 0.693385 0.373938
0.210391 0.687877 0.35024
0.210971 0.679957 0.314794
0.216892 0.672923 0.276722
0.241489 0.672663 0.251652
0.322011 0.677119 0.238239
0.42356 0.684596 0.232227
0.50341 0.687419 0.217502
0.568063 0.687846 0.206027
0.609888 0.690303 0.204929
0.643778 0.694057 0.211139
0.687648 0.688716 0.219318
0.726604 0.687343 0.230991
0.760967 0.689723 0.246082
0.788708 0.696086 0.269673
0.811246 0.701106 0.291859
0.828489 0.706416 0.315328
0.83328 0.710323 0.325689
0.8336 0.712383 0.328084
0.833387 0.713787 0.329137
0.833432 0.715145 0.330404
0.833463 0.716274 0.331487
0.833402 0.717067 0.332189
0.833249 0.717479 0.33254
0.832731 0.717983 0.33315
0.831937 0.718425 0.333913
0.244999 0.754849 0.453803
0.244404 0.753155 0.452125
0.243915 0.752132 0.451469
0.243748 0.751156 0.450034
0.243626 0.750164 0.447593
0.243168 0.748394 0.442573
0.242039 0.74583 0.434287
0.240192 0.742367 0.422278
0.237507 0.737133 0.402884
0.23682 0.728862 0.374136
0.24033 0.719493 0.336645
0.256565 0.714412 0.298192
0.319402 0.716426 0.275151
0.417212 0.722286 0.271748
0.499123 0.727321 0.262181
0.566033 0.728054 0.253361
0.616388 0.729351 0.246738
0.653193 0.731807 0.249592
0.68545 0.734646 0.255787
0.719768 0.731029 0.266667
0.750561 0.730343 0.284031
0.777768 0.731655 0.302068
0.799405 0.734844 0.320912
0.816449 0.738888 0.337423
0.827985 0.743267 0.357137
0.82887 0.745083 0.359655
0.828763 0.746349 0.360845
0.828656 0.747234 0.362051
0.828351 0.74789 0.362783
0.828122 0.748409 0.363363
0.827878 0.748882 0.363882
0.827771 0.748913 0.363958
0.827695 0.748852 0.363973
0.270497 0.793454 0.49044
0.270176 0.792035 0.48893
0.270054 0.791028 0.488151
0.269566 0.789502 0.48632
0.269001 0.787808 0.483757
0.268605 0.785458 0.478599
0.268009 0.782681 0.471595
0.266514 0.778958 0.461326
0.264591 0.774029 0.445945
0.262776 0.766125 0.422049
0.267613 0.757504 0.391531
0.279606 0.749737 0.353109
0.327214 0.749065 0.323125
0.415137 0.752575 0.315831
0.492882 0.756725 0.309697
0.560601 0.75964 0.299031
0.620417 0.759594 0.294804
0.659983 0.76173 0.294347
0.691615 0.764096 0.301869
0.718257 0.766598 0.311849
0.745876 0.764446 0.329809
0.770016 0.763958 0.348165
0.78999 0.765194 0.361547
0.805875 0.768322 0.375189
0.818921 0.771649 0.38674
0.822141 0.772992 0.39147
0.823011 0.773739 0.394583
0.822858 0.774166 0.395712
0.822705 0.774701 0.396811
0.82266 0.774929 0.397284
0.822629 0.775006 0.397467
0.822629 0.774899 0.397314
0.82266 0.774685 0.396933
0.291661 0.818998 0.517418
0.291035 0.817578 0.515587
0.291112 0.816327 0.514839
0.291356 0.814954 0.513802
0.291264 0.812696 0.510658
0.291295 0.810254 0.506294
0.292042 0.80708 0.500069
0.292134 0.803342 0.491127
0.291524 0.798642 0.47863
0.29012 0.791867 0.458747
0.296437 0.783642 0.432166
0.313893 0.777325 0.403403
0.35256 0.775204 0.379294
0.421256 0.777066 0.369467
0.493217 0.78027 0.366705
0.557824 0.784146 0.359808
0.614725 0.785107 0.355291
0.664622 0.785855 0.354192
0.698054 0.787869 0.35967
0.723491 0.78999 0.370245
0.745617 0.792081 0.380667
0.768719 0.790509 0.39881
0.788205 0.789853 0.412985
0.802365 0.791333 0.422141
0.813855 0.793652 0.431403
0.819471 0.795895 0.437339
0.82005 0.796719 0.439506
0.820508 0.79736 0.440604
0.821241 0.797421 0.440192
0.822675 0.797086 0.438636
0.823575 0.796704 0.437354
0.824063 0.796246 0.436423
0.824018 0.796078 0.436103
0.304631 0.832441 0.528878
0.304692 0.831235 0.527687
0.305074 0.83003 0.527123
0.305303 0.828305 0.525628
0.305562 0.826169 0.523308
0.306981 0.823362 0.519448
0.30869 0.820005 0.51368
0.309575 0.815778 0.504784
0.309834 0.811048 0.49276
0.310674 0.804822 0.475303
0.319371 0.798367 0.453605
0.340917 0.793927 0.434089
0.379522 0.791516 0.417426
0.439048 0.793912 0.411337
0.503899 0.796704 0.412421
0.561059 0.801038 0.412055
0.616373 0.803815 0.407477
0.669581 0.803662 0.40441
0.707454 0.805219 0.407034
0.734417 0.806409 0.415106
0.755703 0.808576 0.425513
0.772763 0.809171 0.436088
0.791287 0.806775 0.447257
0.805783 0.806546 0.454704
0.816281 0.807416 0.461463
0.823789 0.809323 0.467903
0.823957 0.809781 0.468696
0.824094 0.809934 0.468971
0.824353 0.809934 0.468864
0.82475 0.809796 0.468498
0.824979 0.80972 0.468299
0.82504 0.80943 0.467811
0.824964 0.80914 0.46717
0.304265 0.834821 0.533837
0.304433 0.833661 0.532204
0.304662 0.832319 0.531212
0.304799 0.830472 0.529747
0.305318 0.828122 0.527153
0.30605 0.825269 0.522667
0.308049 0.821378 0.516442
0.309239 0.8168 0.507027
0.309834 0.811734 0.494148
0.311192 0.804868 0.475288
0.321202 0.798459 0.454154
0.346716 0.795758 0.438499
0.388846 0.79649 0.431357
0.449958 0.800198 0.431006
0.512032 0.803693 0.434531
0.56762 0.808423 0.437736
0.618662 0.812512 0.436439
0.673518 0.812863 0.433494
0.712398 0.814404 0.434287
0.741772 0.815473 0.441489
0.761288 0.817243 0.45153
0.777356 0.817975 0.462196
0.791516 0.816693 0.470405
0.806134 0.815412 0.476005
0.817014 0.815534 0.481041
0.82443 0.816144 0.485496
0.825025 0.816342 0.486275
0.825086 0.816312 0.486152
0.825238 0.816251 0.485786
0.825513 0.816159 0.485313
0.825757 0.816098 0.485054
0.825864 0.816068 0.484871
0.825849 0.816068 0.484871
0.304067 0.836713 0.537713
0.304219 0.835416 0.5364
0.304448 0.834089 0.535058
0.304677 0.832197 0.532555
0.305058 0.82977 0.529976
0.30544 0.826474 0.524575
0.307439 0.822461 0.518105
0.309163 0.817563 0.508598
0.310018 0.812085 0.495277
0.310414 0.8047 0.474861
0.321584 0.798276 0.453071
0.349447 0.795819 0.438041
0.394324 0.796658 0.430976
0.454231 0.800198 0.430671
0.516503 0.80415 0.435462
0.570169 0.808667 0.438529
0.621256 0.812818 0.438239
0.677348 0.813092 0.434165
0.714672 0.814694 0.435203
0.741894 0.815656 0.442527
0.761578 0.81738 0.452598
0.776547 0.818128 0.462928
0.790326 0.816861 0.470512
0.804486 0.815702 0.477363
0.815259 0.815641 0.481559
0.822461 0.815793 0.484413
0.824155 0.816358 0.486458
0.824704 0.816434 0.486671
0.824918 0.816358 0.486381
0.825177 0.816281 0.485924
0.825391 0.816251 0.485786
0.825483 0.816236 0.485679
0.825452 0.816236 0.485649
0.303883 0.838468 0.540993
0.304067 0.837064 0.539345
0.304234 0.835416 0.537682
0.304372 0.833494 0.53521
0.304723 0.830839 0.531655
0.30544 0.827298 0.526375
0.307134 0.823026 0.519234
0.30901 0.818051 0.509255
0.310018 0.812299 0.495949
0.31046 0.804623 0.47454
0.321538 0.798047 0.451591
0.352361 0.795712 0.437263
0.39823 0.796963 0.430961
0.458 0.800427 0.430716
0.519768 0.804242 0.435599
0.573205 0.809003 0.439017
0.624353 0.812955 0.438819
0.678706 0.813428 0.435447
0.715602 0.814817 0.436362
0.741741 0.815808 0.443641
0.761166 0.817288 0.453285
0.776165 0.818112 0.463081
0.789456 0.816922 0.470741
0.803204 0.815885 0.478187
0.813336 0.815732 0.481971
0.820325 0.816007 0.485176
0.82327 0.816724 0.488029
0.823316 0.816922 0.48864
0.822904 0.817075 0.48925
0.822003 0.817395 0.490318
0.821424 0.817609 0.491066
0.821485 0.817609 0.491066
0.822217 0.817349 0.490181
0.303593 0.839231 0.546258
0.303899 0.83827 0.543557
0.304143 0.836561 0.540398
0.304311 0.834501 0.537438
0.304677 0.831785 0.533425
0.305394 0.828122 0.528023
0.306798 0.823499 0.520104
0.308858 0.81828 0.509667
0.309987 0.81239 0.496254
0.310475 0.804593 0.474388
0.321996 0.798016 0.450813
0.354162 0.795514 0.436698
0.40145 0.797131 0.4309
0.459876 0.800671 0.431098
0.522515 0.804501 0.435889
0.575067 0.809293 0.4392
0.626184 0.813138 0.4392
0.679072 0.813596 0.43592
0.716152 0.814817 0.43714
0.740917 0.816007 0.445121
0.760067 0.817273 0.453864
0.775311 0.818128 0.463142
0.788632 0.816892 0.470481
0.802029 0.815946 0.478294
0.81207 0.8159 0.482109
0.819272 0.816037 0.485023
0.822965 0.816831 0.488548
0.822995 0.817044 0.489158
0.822431 0.817243 0.489769
0.821561 0.817563 0.490883
0.820981 0.817746 0.491463
0.820737 0.817838 0.491646
0.820722 0.817853 0.491661
0.303563 0.839979 0.550851
0.303716 0.838727 0.547677
0.304051 0.837461 0.544335
0.304219 0.835294 0.539803
0.304601 0.832654 0.535103
0.305318 0.828885 0.529458
0.306416 0.824002 0.521111
0.308721 0.818524 0.510216
0.309957 0.81239 0.496117
0.31046 0.804685 0.475013
0.321431 0.798016 0.450294
0.3552 0.795468 0.436545
0.402533 0.797345 0.431144
0.460853 0.800763 0.431327
0.52369 0.804639 0.436103
0.575494 0.809339 0.439292
0.626566 0.813123 0.439216
0.678645 0.813611 0.436027
0.716747 0.814725 0.437263
