bundles/resolve-cinematic-luts/Phantom Luts/P4k & P6K Phntm Film LUTs - V6/P6k/Gen 5 Colour/P6k Bleach Gen5-Legacy.cube
TITLE "Generated by Resolve"
LUT_3D_SIZE 5
0.0253147 0.0381933 0.0269932
0.0433204 0.0446174 0.0317082
0.22768 0.0590066 0.0523079
0.698314 0.0851301 0.107179
0.780499 0.0996872 0.129519
0.0430457 0.0850843 0.0497292
0.0783246 0.0984054 0.0513619
0.462119 0.0969253 0.0724804
0.806226 0.121569 0.112367
0.842222 0.168582 0.137926
0.0331579 0.427344 0.111543
0.0354009 0.452491 0.0657054
0.570718 0.62031 0.134829
0.952361 0.726009 0.311315
0.954391 0.773617 0.340688
0.179477 0.780911 0.357717
0.199771 0.779065 0.309468
0.630274 0.813001 0.35201
0.920165 0.905074 0.539651
0.930388 0.908995 0.556161
0.17409 0.782238 0.369512
0.228138 0.779614 0.28426
0.752071 0.852674 0.438727
0.928634 0.908156 0.545174
0.930373 0.90898 0.555795
0.0305638 0.0407111 0.0417639
0.0479744 0.0445716 0.0453651
0.278553 0.0637369 0.082475
0.739284 0.114076 0.151888
0.81709 0.145724 0.195621
0.0436866 0.0799573 0.0652934
0.0813306 0.0939803 0.0806592
0.451865 0.0829175 0.0787518
0.787259 0.105119 0.130144
0.796551 0.114611 0.137758
0.0328679 0.432807 0.16408
0.0320439 0.45658 0.123903
0.572442 0.621759 0.13817
0.952316 0.718288 0.31249
0.954284 0.755962 0.336812
0.154925 0.790204 0.414343
0.177401 0.78146 0.362799
0.58732 0.803677 0.334905
0.909865 0.902068 0.540688
0.931197 0.909483 0.564462
0.129091 0.801572 0.493248
0.171405 0.783032 0.376638
0.673869 0.825818 0.3879
0.912367 0.903181 0.544411
0.931563 0.909834 0.5682
0.0495918 0.0469215 0.150027
0.0909743 0.0510109 0.170275
0.332586 0.0688792 0.25304
0.818357 0.115068 0.446998
0.85417 0.128222 0.561852
0.0250095 0.0628061 0.230045
0.0959182 0.0531014 0.30106
0.523156 0.0755932 0.386007
0.855741 0.131304 0.54641
0.86096 0.136126 0.59382
0.0319829 0.420111 0.372793
0.0297246 0.444938 0.397055
0.636469 0.621592 0.600412
0.96141 0.673854 0.632853
0.961746 0.70573 0.66772
0.160266 0.812955 0.659937
0.140505 0.81062 0.636515
0.522377 0.811566 0.58558
0.921721 0.917128 0.681941
0.948928 0.925582 0.702602
0.273625 0.818235 0.731868
0.216709 0.815763 0.693828
0.645716 0.85275 0.683391
0.936599 0.927092 0.733974
0.953185 0.931228 0.735882
0.132342 0.058381 0.440772
0.20383 0.0644388 0.513161
0.499825 0.0786755 0.590661
0.874037 0.149676 0.734218
0.917754 0.194354 0.824918
0.145708 0.0678416 0.593835
0.254612 0.076585 0.646494
0.635493 0.0995346 0.700313
0.912856 0.186954 0.811002
0.924804 0.207675 0.838895
0.0101472 0.456336 0.668849
0.0135042 0.482506 0.700755
0.734417 0.588479 0.90312
0.96199 0.650706 0.91371
0.962005 0.688533 0.919997
0.228473 0.820203 0.77084
0.215961 0.817868 0.768124
0.559716 0.83241 0.786664
0.949706 0.927672 0.887587
0.962448 0.931792 0.893721
0.465736 0.832349 0.79115
0.37705 0.82649 0.781201
0.705379 0.892164 0.841169
0.946853 0.94873 0.899641
0.962875 0.950881 0.895201
0.291829 0.0824445 0.687663
0.368719 0.0860456 0.717327
0.621332 0.100771 0.750164
0.92285 0.203403 0.838102
0.923278 0.203937 0.838422
0.28455 0.0851453 0.714519
0.360143 0.0869001 0.726314
0.698741 0.120516 0.772198
0.925414 0.208743 0.841169
0.926757 0.211551 0.842939
0.043122 0.513207 0.764477
0.0445716 0.524987 0.765927
0.793393 0.598154 0.916899
0.961898 0.657771 0.921355
0.961685 0.693614 0.924529
0.373037 0.818982 0.789715
0.355398 0.813733 0.790692
0.639414 0.849668 0.838117
0.960418 0.920363 0.908385
0.962554 0.926284 0.908675
0.501732 0.836179 0.794919
0.504997 0.836667 0.795346
0.760632 0.909636 0.865599
0.953674 0.950851 0.91107
0.962661 0.952102 0.911376
