bundles/resolve-cinematic-luts/Phantom Luts/P4k & P6K Phntm Film LUTs - V6/P6k/Gen 5 Colour/P6k Eastman Gen5.cube
TITLE "Generated by Resolve"
LUT_3D_SIZE 5
0.0390021 0.0390021 0.0390021
0.0968185 0.0390021 0.0390021
0.419699 0.0663462 0.0460517
0.606287 0.137255 0.0973831
0.597787 0.141939 0.103502
0.0640116 0.104646 0.0670787
0.11989 0.116808 0.0632792
0.525719 0.158694 0.0854963
0.677668 0.219577 0.140948
0.682857 0.234073 0.146304
0.187655 0.638651 0.354574
0.183185 0.626093 0.283391
0.597681 0.643137 0.176043
0.833341 0.671839 0.29398
0.832212 0.683162 0.304051
0.303883 0.838468 0.540993
0.310018 0.812299 0.495949
0.624353 0.812955 0.438819
0.813336 0.815732 0.481971
0.822217 0.817349 0.490181
0.303487 0.842313 0.556695
0.310018 0.815442 0.496971
0.616053 0.811566 0.4327
0.81033 0.814908 0.476371
0.823499 0.816861 0.48835
0.0390021 0.0390021 0.0636301
0.102449 0.0390021 0.0752422
0.432563 0.0390021 0.0720989
0.647196 0.131701 0.179263
0.636728 0.13785 0.204425
0.0599222 0.0962387 0.0889754
0.118959 0.111925 0.113878
0.474296 0.106432 0.0635386
0.611795 0.154635 0.114763
0.600855 0.152117 0.114458
0.192813 0.656489 0.410849
0.186999 0.641749 0.372061
0.592477 0.636957 0.174548
0.833036 0.658473 0.284031
0.831937 0.666484 0.291417
0.305196 0.866316 0.595483
0.303716 0.840787 0.549477
0.592554 0.811002 0.440635
0.806958 0.817136 0.483848
0.822812 0.819226 0.496544
0.306676 0.871489 0.610025
0.30309 0.846677 0.553841
0.582757 0.809018 0.43238
0.8009 0.816541 0.476097
0.820996 0.820005 0.499046
0.0660563 0.0539559 0.313954
0.181338 0.0390021 0.337545
0.443473 0.0579232 0.352316
0.626245 0.123491 0.447501
0.622217 0.129976 0.465446
0.0390021 0.0699321 0.311635
0.104677 0.0506294 0.358495
0.469932 0.0681926 0.377264
0.634318 0.126833 0.45742
0.629267 0.132555 0.469612
0.178653 0.671351 0.569009
0.180392 0.673274 0.57438
0.647135 0.67155 0.650248
0.853056 0.599939 0.567391
0.851286 0.607996 0.576028
0.420584 0.93283 0.779721
0.388037 0.927337 0.760662
0.574609 0.860533 0.687297
0.832135 0.867201 0.648844
0.860105 0.862577 0.651728
0.439597 0.934783 0.793088
0.397162 0.928512 0.766461
0.550622 0.861341 0.679774
0.829679 0.8757 0.668025
0.868925 0.882841 0.701045
0.256931 0.0586099 0.493812
0.318898 0.0607004 0.500298
0.54963 0.12578 0.55378
0.67837 0.18088 0.607019
0.678706 0.180957 0.607477
0.199756 0.0634165 0.494011
0.287221 0.0615091 0.504524
0.570825 0.136629 0.567987
0.681254 0.182971 0.610391
0.681498 0.183154 0.610666
0.16527 0.671702 0.713436
0.169116 0.668513 0.721736
0.690242 0.575189 0.857755
0.857435 0.559792 0.797818
0.857771 0.566384 0.798291
0.521172 0.944762 0.855009
0.480522 0.939803 0.845136
0.643244 0.914244 0.850202
0.873823 0.900343 0.870848
0.913756 0.890364 0.867597
0.592065 0.945403 0.867323
0.569192 0.947509 0.860822
0.667292 0.933669 0.858671
0.869566 0.927306 0.88336
0.906096 0.930983 0.877729
0.314443 0.0638743 0.510155
0.358175 0.068513 0.513466
0.578531 0.140154 0.572198
0.678584 0.181018 0.60737
0.678721 0.180957 0.607477
0.246342 0.0626841 0.503716
0.316075 0.0640421 0.510307
0.587198 0.144121 0.575723
0.682307 0.183902 0.611612
0.682048 0.183688 0.611353
0.228779 0.687099 0.771481
0.221881 0.676555 0.767208
0.709163 0.555962 0.857511
0.856977 0.549554 0.803922
0.857435 0.553246 0.804898
0.592676 0.934539 0.869734
0.569329 0.929458 0.86746
0.668437 0.901091 0.871305
0.887068 0.890471 0.90071
0.908629 0.888747 0.899107
0.630411 0.940307 0.873228
0.630426 0.940276 0.873396
0.725002 0.931945 0.880934
0.878859 0.930785 0.903349
0.910979 0.934096 0.903563
