bundles/resolve-cinematic-luts/Phantom Luts/P4k & P6K Phntm Film LUTs - V6/P6k/Gen 5 Colour/P6k Vision Gen5-Legacy.cube
TITLE "Generated by Resolve"
LUT_3D_SIZE 9
0.0236057 0.0332036 0.024506
0.0293736 0.0361791 0.0251011
0.0719463 0.040177 0.0289769
0.246296 0.0442664 0.0330205
0.521538 0.0552682 0.054078
0.754971 0.0889754 0.106508
0.757824 0.0909895 0.11046
0.761837 0.0975052 0.109895
0.770291 0.105562 0.109834
0.027512 0.0475776 0.0328527
0.0319524 0.0469062 0.0307469
0.0819715 0.047715 0.0336919
0.261311 0.046067 0.0333715
0.536004 0.0610819 0.0584421
0.762707 0.101305 0.109316
0.765576 0.10724 0.110506
0.768536 0.111131 0.111055
0.77908 0.120027 0.112215
0.0366827 0.103517 0.0546883
0.0368353 0.100374 0.048249
0.0691081 0.106157 0.0471199
0.285206 0.0873426 0.0480049
0.585245 0.103304 0.0771191
0.783139 0.13611 0.119265
0.784375 0.140993 0.119707
0.798642 0.172778 0.132128
0.802136 0.206317 0.136721
0.0631723 0.305959 0.132601
0.0623331 0.303166 0.120165
0.0598611 0.288396 0.0938735
0.247486 0.329931 0.0783093
0.598779 0.319249 0.141268
0.794324 0.349691 0.205905
0.794278 0.35079 0.206348
0.794385 0.364111 0.21323
0.795743 0.388846 0.224643
0.190494 0.630533 0.377829
0.185534 0.627405 0.363348
0.178103 0.620905 0.331807
0.212894 0.601709 0.255344
0.547326 0.630442 0.193072
0.825284 0.62089 0.297475
0.832349 0.643442 0.315602
0.833417 0.648356 0.316381
0.829892 0.630854 0.310811
0.363027 0.835828 0.577523
0.361944 0.834852 0.570764
0.36376 0.831662 0.557076
0.38233 0.824903 0.512016
0.57557 0.832593 0.524758
0.782177 0.853544 0.507881
0.841108 0.853651 0.515663
0.841138 0.853559 0.514824
0.840955 0.848722 0.500648
0.36228 0.837186 0.588083
0.361593 0.836927 0.582147
0.362585 0.83357 0.56643
0.377127 0.825116 0.514961
0.574182 0.833951 0.540169
0.775296 0.856413 0.527626
0.841245 0.861357 0.541558
0.841337 0.861616 0.541863
0.841352 0.861616 0.541497
0.359747 0.837995 0.59028
0.361746 0.837232 0.584634
0.363409 0.834012 0.569986
0.372732 0.824903 0.517815
0.564233 0.833249 0.538338
0.765118 0.85539 0.52781
0.841001 0.860929 0.540764
0.841321 0.861677 0.543526
0.841352 0.861616 0.541741
0.358618 0.838544 0.590295
0.360815 0.83769 0.585077
0.362387 0.83563 0.575341
0.368582 0.826947 0.535119
0.50869 0.829679 0.528008
0.716838 0.852384 0.527581
0.835538 0.859953 0.530983
0.841337 0.861616 0.542046
0.841382 0.861601 0.540185
0.0241398 0.0342107 0.032578
0.0346838 0.0358892 0.0346685
0.100175 0.0375372 0.0389715
0.289448 0.0395972 0.0423743
0.561929 0.0454261 0.066331
0.757794 0.0794385 0.114458
0.759518 0.0836042 0.114855
0.76144 0.0871595 0.113176
0.767697 0.0980697 0.108827
0.0267185 0.0436561 0.033753
0.032105 0.0434577 0.0348363
0.0847639 0.0402533 0.0308232
0.265675 0.0435187 0.0348974
0.534676 0.0501869 0.0582284
0.758953 0.0863966 0.110033
0.762493 0.0924849 0.110613
0.766918 0.101656 0.109682
0.776989 0.114534 0.110857
0.0360113 0.0976883 0.062623
0.0356756 0.0970474 0.053254
0.0667277 0.101625 0.0465095
0.289448 0.078706 0.0458076
0.578637 0.0944991 0.0738537
0.775586 0.119448 0.11252
0.782849 0.131991 0.117998
0.797681 0.161975 0.127825
0.804547 0.200412 0.135256
0.0625467 0.302174 0.143084
0.0618753 0.299611 0.131411
0.0590219 0.287343 0.0994736
0.241978 0.324895 0.0763409
0.597406 0.312337 0.140673
0.795605 0.341573 0.200839
0.795377 0.342519 0.201175
0.794949 0.362722 0.211933
0.796353 0.388434 0.22417
0.188968 0.628916 0.387457
0.184436 0.625315 0.373266
0.177996 0.618448 0.34342
0.198993 0.597284 0.251804
0.544289 0.627176 0.189609
0.825147 0.616815 0.29575
0.83061 0.636667 0.313436
0.832242 0.641032 0.314366
0.829389 0.624247 0.306081
0.362371 0.836774 0.583246
0.361532 0.8365 0.576989
0.362493 0.833158 0.563119
0.376181 0.825223 0.513573
0.569589 0.831876 0.520714
0.7785 0.851865 0.502251
0.840772 0.852049 0.509529
0.840848 0.851789 0.508202
0.842115 0.845045 0.490486
0.357931 0.838575 0.592462
0.361517 0.837476 0.588113
0.361959 0.835233 0.573526
0.370748 0.825727 0.518242
0.567987 0.833829 0.538918
0.770962 0.856107 0.52755
0.841199 0.861234 0.54081
0.841337 0.861616 0.541863
0.841352 0.861616 0.541512
0.355322 0.839597 0.595499
0.359777 0.837919 0.5906
0.363073 0.835782 0.577264
0.374578 0.82533 0.525933
0.557427 0.832288 0.536248
0.759762 0.854887 0.52723
0.840787 0.860731 0.538582
0.841306 0.861677 0.543465
0.841352 0.861616 0.541695
0.354284 0.840085 0.595407
0.35845 0.83856 0.59057
0.361852 0.836774 0.582055
0.367407 0.828016 0.542565
0.499413 0.829206 0.526558
0.711543 0.852033 0.528008
0.833478 0.859892 0.531472
0.841337 0.861616 0.542046
0.841382 0.861601 0.540185
0.034287 0.0366979 0.0859846
0.0497139 0.0378576 0.0782025
0.0991073 0.0403754 0.0784466
0.310872 0.0401923 0.0983139
0.585138 0.0691539 0.113741
0.771252 0.0969253 0.16553
0.770169 0.0948959 0.159854
0.76643 0.0878767 0.147768
0.76228 0.0770733 0.121538
0.0243687 0.0437781 0.0671244
0.0349889 0.0366522 0.0816815
0.0886549 0.0400549 0.0724651
0.305531 0.037644 0.0779736
0.578256 0.0592508 0.0955978
0.761517 0.0816205 0.136446
0.761013 0.0801862 0.131487
0.760098 0.0782483 0.121157
0.764752 0.0859388 0.113603
0.0332189 0.0920119 0.0776532
0.0330358 0.0906691 0.0772412
0.0833295 0.0979171 0.0862135
0.304601 0.0655222 0.0513466
0.570199 0.0628061 0.069749
0.761196 0.091371 0.110475
0.768093 0.104509 0.111498
0.782177 0.129534 0.117159
0.802396 0.17174 0.130739
0.0574807 0.288716 0.171069
0.0575875 0.287694 0.157595
0.0588235 0.284886 0.12726
0.234302 0.315831 0.0762493
0.6 0.295262 0.141115
0.796368 0.324041 0.191028
0.795941 0.331853 0.195956
0.795071 0.354925 0.207645
0.796002 0.38114 0.220935
0.172091 0.622736 0.403433
0.174166 0.62031 0.392096
0.178119 0.615106 0.368826
0.174411 0.590372 0.250202
0.540291 0.621622 0.186664
0.823407 0.60856 0.293584
0.828748 0.625269 0.307332
0.828855 0.627604 0.308598
0.828595 0.621775 0.303746
0.355871 0.839353 0.595636
0.358953 0.838453 0.590463
0.361181 0.836774 0.578119
0.370855 0.826154 0.524544
0.559182 0.830335 0.515404
0.771908 0.848997 0.492927
0.840757 0.848341 0.498711
0.841047 0.848112 0.496864
0.843549 0.838941 0.474922
0.346365 0.843168 0.607034
0.3505 0.841337 0.600565
0.360632 0.837766 0.589044
0.369223 0.827008 0.533852
0.556191 0.832532 0.535897
0.763638 0.855329 0.527092
0.841169 0.861112 0.539834
0.841459 0.861891 0.542779
0.841474 0.861921 0.542611
0.343923 0.84448 0.610498
0.347982 0.84242 0.604334
0.358953 0.838163 0.591379
0.368872 0.827375 0.539849
0.54548 0.832105 0.534691
0.75024 0.854322 0.527291
0.839078 0.860471 0.536767
0.841337 0.861723 0.543572
0.841352 0.861616 0.54168
0.345892 0.843534 0.606271
0.350469 0.841428 0.599954
0.358358 0.838453 0.591577
0.365911 0.830304 0.555062
0.487053 0.828534 0.524193
0.702754 0.851713 0.529931
0.830228 0.860349 0.531838
0.841337 0.861616 0.542046
0.841398 0.861601 0.540017
0.0682231 0.0421912 0.25832
0.0899519 0.0416724 0.247257
0.140047 0.0455177 0.2271
0.305913 0.0455482 0.227283
0.605051 0.0977188 0.33051
0.788708 0.145006 0.394629
0.794614 0.140246 0.345403
0.796826 0.13286 0.291569
0.793713 0.123339 0.231983
0.0406653 0.0454261 0.250431
0.068101 0.0417029 0.255604
0.123293 0.0445716 0.231113
0.299535 0.0453193 0.222614
0.601389 0.0971695 0.320912
0.792462 0.141085 0.358694
0.798077 0.134646 0.295048
0.797116 0.13109 0.270436
0.792004 0.121996 0.215228
0.031342 0.0753796 0.221088
0.0325322 0.0677348 0.23006
0.0776226 0.04448 0.254459
0.282094 0.0449226 0.207645
0.589181 0.0869001 0.285679
0.796872 0.133989 0.269917
0.795132 0.130251 0.242679
0.790188 0.125017 0.214633
0.776287 0.0968795 0.159548
0.0370794 0.267933 0.256748
0.0368353 0.264668 0.253819
0.0372931 0.260182 0.249226
0.304845 0.323262 0.295796
0.649454 0.280751 0.237171
0.819379 0.27277 0.224353
0.814801 0.272648 0.213214
0.809613 0.291707 0.212787
0.801816 0.33167 0.216526
0.114351 0.607309 0.469764
0.11696 0.604715 0.460441
0.126268 0.599741 0.442847
0.167254 0.589212 0.357595
0.529961 0.61088 0.234943
0.821027 0.598032 0.315022
0.821897 0.604242 0.319081
0.82266 0.60412 0.31426
0.823758 0.600092 0.299718
0.315892 0.853727 0.639353
0.318685 0.852247 0.633524
0.326207 0.84744 0.621256
0.353399 0.834852 0.574929
0.521431 0.827176 0.505547
0.753002 0.840864 0.46685
0.844205 0.836271 0.471504
0.844892 0.83418 0.465614
0.848386 0.821973 0.441123
0.310521 0.861967 0.660899
0.312932 0.860533 0.653468
0.322057 0.854978 0.637751
0.358343 0.838529 0.591424
0.515251 0.830915 0.533837
0.739986 0.85417 0.530861
0.839796 0.861234 0.541405
0.841871 0.86331 0.550256
0.841794 0.863096 0.549325
0.307225 0.863203 0.663935
0.3122 0.861311 0.655436
0.320851 0.85565 0.639292
0.356558 0.839124 0.594537
0.499672 0.829725 0.530526
0.724926 0.853223 0.531228
0.833814 0.861265 0.53875
0.841779 0.863142 0.550561
0.841749 0.862959 0.548165
0.316533 0.857847 0.645792
0.321202 0.855375 0.638117
0.329519 0.851575 0.627955
0.356512 0.839155 0.594476
0.445197 0.826383 0.519036
0.676432 0.848768 0.53698
0.820249 0.859693 0.53489
0.841611 0.862623 0.546746
0.841688 0.862684 0.544839
0.16495 0.055024 0.46714
0.19202 0.0557107 0.460395
0.247318 0.0601663 0.452201
0.3823 0.081529 0.447013
0.621729 0.10811 0.507973
0.782086 0.149065 0.571633
0.783551 0.159243 0.590402
0.782345 0.145235 0.564416
0.781353 0.142962 0.49662
0.134295 0.0591897 0.473091
0.164889 0.0549325 0.466667
0.228214 0.0583047 0.45449
0.372732 0.078996 0.445029
0.616297 0.106691 0.503746
0.782315 0.145602 0.565316
0.784009 0.154635 0.582635
0.780118 0.136965 0.547051
0.782147 0.145052 0.48455
0.0738842 0.0806744 0.492393
0.101137 0.0713664 0.477516
0.169543 0.0547036 0.462058
0.347234 0.0728618 0.438468
0.600626 0.101747 0.490059
0.779095 0.137255 0.548867
0.778973 0.137789 0.549523
0.777783 0.142229 0.515068
0.783963 0.152148 0.470222
0.0422675 0.241688 0.51046
0.0444953 0.235386 0.513451
0.0481727 0.219211 0.51986
0.317266 0.15848 0.55201
0.633585 0.181369 0.529458
0.797436 0.185641 0.545632
0.796368 0.186114 0.518059
0.794247 0.182788 0.487098
0.808392 0.192538 0.419577
0.07393 0.589563 0.604227
0.0723888 0.587274 0.602197
0.0716716 0.582422 0.596902
0.0787976 0.574655 0.588098
0.605066 0.621317 0.598413
0.86276 0.59144 0.547982
0.853376 0.59292 0.533578
0.844526 0.593881 0.51548
0.830442 0.573465 0.460472
0.191043 0.868727 0.77583
0.188937 0.868238 0.770871
0.189197 0.864042 0.757763
0.213275 0.849973 0.711955
0.543633 0.829526 0.659602
0.76405 0.841764 0.606409
0.865538 0.82884 0.561471
0.865827 0.826032 0.557565
0.864256 0.811994 0.519341
0.279194 0.886641 0.808499
0.263111 0.887266 0.80061
0.245502 0.885801 0.787213
0.247288 0.877424 0.739956
0.506477 0.848493 0.663874
0.732326 0.865278 0.64332
0.842756 0.874708 0.610407
0.851057 0.881727 0.642298
0.850065 0.880217 0.63183
0.284153 0.887602 0.812192
0.266651 0.887282 0.802396
0.244755 0.885817 0.787152
0.247135 0.877424 0.739483
0.467201 0.844953 0.649363
0.70779 0.859266 0.637797
0.828992 0.869703 0.591089
0.850446 0.88098 0.636316
0.84976 0.878828 0.625895
0.239017 0.88455 0.777081
0.239948 0.882155 0.764172
0.243137 0.878889 0.747509
0.27097 0.87155 0.707179
0.383581 0.840375 0.61062
0.654322 0.84744 0.608377
0.811719 0.864958 0.568109
0.84831 0.875288 0.607782
0.848722 0.87628 0.61294
0.344549 0.101305 0.671214
0.358297 0.101579 0.66894
0.391882 0.105272 0.667048
0.49543 0.117067 0.669779
0.709194 0.179675 0.726986
0.805676 0.195315 0.767193
0.805676 0.195346 0.767208
0.805707 0.195331 0.767254
0.805768 0.195315 0.767315
0.324453 0.0987106 0.670024
0.342153 0.100481 0.668894
0.377707 0.104128 0.666682
0.485817 0.115404 0.668132
0.702678 0.178943 0.723507
0.804959 0.193973 0.763226
0.805646 0.195361 0.767163
0.80557 0.195377 0.767086
0.804929 0.194034 0.7626
0.268055 0.0918898 0.667735
0.292699 0.094377 0.666773
0.336583 0.0990158 0.66244
0.462943 0.112551 0.662989
0.685588 0.177554 0.713588
0.803006 0.191775 0.755367
0.805264 0.194507 0.765057
0.805341 0.195026 0.76643
0.799908 0.186313 0.73933
0.134844 0.210742 0.745205
0.141436 0.197665 0.737392
0.157946 0.168811 0.720516
0.368704 0.113542 0.673625
0.630594 0.172519 0.690593
0.802884 0.18497 0.730327
0.802686 0.186175 0.734218
0.80351 0.187991 0.735744
0.796872 0.175586 0.674296
0.0362707 0.594659 0.828641
0.0374609 0.591714 0.829694
0.0411383 0.587121 0.834073
0.0657816 0.574853 0.860517
0.665217 0.533516 0.869764
0.88426 0.559274 0.830671
0.884443 0.555734 0.827222
0.880812 0.551843 0.8056
0.864759 0.500999 0.738125
0.209964 0.859037 0.879637
0.202121 0.857298 0.877424
0.193103 0.854276 0.874861
0.176303 0.84509 0.864149
0.489158 0.824186 0.827359
0.816449 0.839643 0.823514
0.901869 0.824872 0.800534
0.899199 0.821347 0.786496
0.89192 0.807019 0.748287
0.436637 0.895705 0.893233
0.430182 0.895979 0.891432
0.423316 0.895094 0.886671
0.401343 0.894865 0.877104
0.469108 0.890867 0.841093
0.776623 0.904112 0.828641
0.866987 0.92343 0.816281
0.878035 0.922011 0.804074
0.87631 0.917617 0.788769
0.442649 0.895628 0.89572
0.432746 0.89604 0.892607
0.423774 0.895689 0.888411
0.400549 0.894713 0.876814
0.432944 0.889952 0.834943
0.750881 0.897536 0.817792
0.856596 0.921035 0.811994
0.875105 0.919173 0.788296
0.87277 0.916472 0.777707
0.415564 0.894331 0.882445
0.405509 0.894652 0.878172
0.392981 0.894636 0.873396
0.367025 0.894148 0.860945
0.326543 0.887373 0.811063
0.708476 0.883207 0.789517
0.83331 0.909819 0.786328
0.870085 0.911635 0.759243
0.871153 0.91371 0.767452
0.376791 0.106386 0.685649
0.391119 0.108156 0.685924
0.42179 0.111559 0.686839
0.518791 0.122271 0.690181
0.733532 0.188312 0.747326
0.805798 0.1953 0.767391
0.805798 0.1953 0.767391
0.805798 0.1953 0.767391
0.805783 0.1953 0.767361
0.360632 0.104738 0.685756
0.376425 0.106386 0.685679
0.408286 0.109438 0.685817
0.51107 0.121599 0.690211
0.727138 0.189273 0.744976
0.805798 0.1953 0.767391
0.805798 0.1953 0.767391
0.805798 0.1953 0.767391
0.805798 0.1953 0.767391
0.317067 0.100114 0.684901
0.338766 0.102937 0.685771
0.375967 0.106386 0.68574
0.490089 0.119554 0.689403
0.711559 0.191592 0.741588
0.805905 0.196353 0.767697
0.80592 0.195727 0.767636
0.805859 0.195483 0.767483
0.805844 0.195392 0.767437
0.23537 0.180179 0.760525
0.235096 0.16643 0.747936
0.232532 0.143481 0.718914
0.398169 0.111284 0.69041
0.651987 0.179431 0.727398
0.807599 0.20325 0.771923
0.807813 0.204593 0.772686
0.807843 0.205127 0.7729
0.807813 0.204562 0.772671
0.0999008 0.616999 0.922835
0.104738 0.613046 0.922515
0.112535 0.60592 0.922484
0.148501 0.576333 0.919875
0.703166 0.512139 0.884215
0.883986 0.540658 0.865675
0.883345 0.536751 0.864897
0.882918 0.5355 0.864454
0.877012 0.51043 0.858305
0.34107 0.842329 0.930632
0.334508 0.84007 0.931075
0.322377 0.83592 0.931243
0.29984 0.825086 0.931472
0.499367 0.811719 0.929671
0.840024 0.799558 0.932937
0.909667 0.798733 0.915206
0.909468 0.794125 0.913268
0.910353 0.771023 0.899901
0.544976 0.896254 0.911971
0.540429 0.895796 0.911986
0.526192 0.895445 0.912428
0.480995 0.894209 0.915175
0.512978 0.894713 0.908537
0.757855 0.915801 0.903685
0.899733 0.936492 0.919188
0.920363 0.931319 0.919951
0.917174 0.927687 0.909606
0.553445 0.896819 0.911604
0.553445 0.896819 0.911604
0.543648 0.896193 0.912016
0.502251 0.894942 0.913146
0.519081 0.896864 0.902785
0.748165 0.918669 0.903136
0.875334 0.943084 0.913878
0.915297 0.944106 0.915496
0.91426 0.943709 0.913115
0.528695 0.895659 0.912581
0.518212 0.895094 0.913054
0.502663 0.894972 0.913252
0.482383 0.894865 0.910353
0.459724 0.8963 0.894957
0.691112 0.910002 0.888014
0.852201 0.937819 0.900145
0.911772 0.942794 0.908492
0.912551 0.94313 0.909377
0.382986 0.106905 0.68545
0.397391 0.10898 0.686397
0.426841 0.112276 0.686946
0.524834 0.123888 0.691249
0.740612 0.187121 0.749676
0.805798 0.1953 0.767391
0.805798 0.1953 0.767391
0.805798 0.1953 0.767391
0.805798 0.1953 0.767391
0.368277 0.10602 0.686183
0.38265 0.106767 0.685374
0.414054 0.110109 0.685969
0.515831 0.122103 0.690257
0.734035 0.188144 0.747539
0.805798 0.1953 0.767391
0.805798 0.1953 0.767391
0.805798 0.1953 0.767391
0.805798 0.1953 0.767391
0.325399 0.100816 0.685023
0.345418 0.10312 0.685512
0.382269 0.106706 0.685344
0.49456 0.119448 0.688701
0.717708 0.191089 0.742962
0.805951 0.195972 0.767712
0.805966 0.196033 0.767712
0.80592 0.195712 0.76762
0.805875 0.195544 0.767529
0.236332 0.172778 0.753597
0.235218 0.16025 0.74052
0.230961 0.136873 0.71014
0.399939 0.109407 0.686778
0.655024 0.180514 0.72755
0.807416 0.202014 0.771008
0.807797 0.204532 0.772686
0.807828 0.204959 0.772839
0.807797 0.20441 0.772625
0.12369 0.616068 0.923842
0.123201 0.61062 0.922927
0.126192 0.601587 0.922515
0.153307 0.569268 0.919219
0.702419 0.5028 0.880659
0.882338 0.531151 0.863722
0.880949 0.526665 0.862058
0.880323 0.524102 0.861372
0.87451 0.498222 0.855985
0.374334 0.840436 0.930282
0.368277 0.83772 0.930632
0.356863 0.833021 0.930922
0.327596 0.820157 0.930983
0.503441 0.805432 0.929976
0.849912 0.791241 0.927474
0.909514 0.790906 0.915572
0.909255 0.785763 0.914534
0.909453 0.76788 0.912123
0.553445 0.896819 0.911604
0.553445 0.896819 0.911604
0.551186 0.896635 0.91165
0.531853 0.895018 0.912428
0.567025 0.893126 0.912535
0.767407 0.910567 0.917769
0.903624 0.926253 0.93193
0.910246 0.924468 0.931914
0.910475 0.917327 0.932128
0.553445 0.896819 0.911604
0.553445 0.896819 0.911604
0.553445 0.896819 0.911604
0.553689 0.896819 0.911589
0.597971 0.900191 0.910018
0.766613 0.922805 0.914153
0.8804 0.946181 0.929839
0.914061 0.949981 0.932815
0.914061 0.949981 0.932815
0.553445 0.896819 0.911604
0.553445 0.896819 0.911604
0.553445 0.896819 0.911604
0.553445 0.896819 0.911604
0.554803 0.896834 0.911574
0.719753 0.915328 0.912093
0.863157 0.943008 0.926833
0.913619 0.949798 0.933257
0.914061 0.949981 0.932815
0.38497 0.107195 0.685542
0.39942 0.109056 0.686275
0.428 0.112383 0.686931
0.524636 0.123857 0.691279
0.739528 0.18735 0.749462
0.805798 0.1953 0.767391
0.805798 0.1953 0.767391
0.805798 0.1953 0.767391
0.805798 0.1953 0.767391
0.370108 0.106126 0.686015
0.384466 0.107149 0.685542
0.415137 0.110338 0.686107
0.515587 0.122026 0.69012
0.733043 0.188388 0.747127
0.805798 0.1953 0.767391
0.805798 0.1953 0.767391
0.805798 0.1953 0.767391
0.805798 0.1953 0.767391
0.328786 0.10132 0.685237
0.348226 0.103456 0.685573
0.383917 0.107088 0.685527
0.494621 0.119448 0.688685
0.71635 0.191379 0.742885
0.805905 0.195621 0.76759
0.805966 0.196063 0.767712
0.80592 0.195743 0.767636
0.80589 0.195575 0.767544
0.235492 0.166308 0.747387
0.234531 0.154437 0.733257
0.230625 0.133486 0.705409
0.400885 0.10927 0.686412
0.653925 0.179553 0.727062
0.807279 0.201114 0.770413
0.807782 0.204364 0.772595
0.807828 0.20473 0.772763
0.807767 0.20412 0.772503
0.12285 0.609598 0.92285
0.124544 0.604486 0.922667
0.127718 0.595453 0.921553
0.155398 0.561791 0.918105
0.6981 0.493004 0.877501
0.879728 0.520745 0.861051
0.878218 0.515602 0.859709
0.877058 0.511986 0.858534
0.87158 0.485252 0.852735
0.367788 0.837491 0.930663
0.360586 0.834623 0.93077
0.348669 0.828901 0.930602
0.317556 0.815579 0.930999
0.491859 0.799146 0.930037
0.847684 0.782559 0.926314
0.90956 0.782315 0.914351
0.909331 0.776867 0.913314
0.909285 0.758892 0.911025
0.553445 0.896819 0.911604
0.553445 0.896819 0.911604
0.547341 0.8963 0.911894
0.525063 0.893919 0.913527
0.555978 0.89012 0.913787
0.761883 0.906111 0.918441
0.90341 0.920546 0.932097
0.909987 0.918761 0.931746
0.910521 0.911727 0.93196
0.553445 0.896819 0.911604
0.553445 0.896819 0.911604
0.553445 0.896819 0.911604
0.553628 0.896819 0.911589
0.593683 0.899977 0.910231
0.767224 0.922988 0.914336
0.879225 0.946075 0.929702
0.914061 0.949981 0.932815
0.913954 0.94995 0.932815
0.553445 0.896819 0.911604
0.553445 0.896819 0.911604
0.553445 0.896819 0.911604
0.553445 0.896819 0.911604
0.567971 0.897917 0.911238
0.736034 0.917479 0.912718
0.866911 0.943618 0.927291
0.914061 0.949828 0.933165
0.914061 0.949981 0.932815
