bundles/resolve-cinematic-luts/Phantom Luts/P4k & P6K Phntm Film LUTs - V6/P6k/Gen 5 Colour/P6k EastmanRM Gen5.cube
TITLE "Generated by Resolve"
LUT_3D_SIZE 5
0.0426184 0.0361486 0.0394293
0.120455 0.0308995 0.0353399
0.488106 0.0307622 0.0531167
0.648829 0.0757153 0.109117
0.612741 0.0871748 0.152346
0.0580453 0.115648 0.0536049
0.114855 0.125978 0.0511482
0.552193 0.069688 0.0635233
0.681239 0.113542 0.117174
0.664546 0.122988 0.140246
0.0754559 0.555093 0.195056
0.0699474 0.56466 0.167437
0.669734 0.700282 0.183612
0.898207 0.702983 0.3664
0.901106 0.719051 0.385489
0.272435 0.750317 0.469657
0.2701 0.742123 0.441306
0.599496 0.804196 0.458946
0.898939 0.902708 0.654795
0.898589 0.903746 0.662882
0.265782 0.75642 0.492119
0.277256 0.738613 0.426154
0.688273 0.843 0.493523
0.902586 0.901717 0.647898
0.896544 0.904402 0.66775
0.04271 0.041413 0.0644999
0.105608 0.0397803 0.064271
0.484367 0.03888 0.0946212
0.687266 0.118578 0.198276
0.661967 0.126329 0.232486
0.0556191 0.105943 0.0797284
0.104036 0.121187 0.103853
0.521263 0.0438087 0.0786603
0.641016 0.0835126 0.128252
0.623407 0.0914778 0.153735
0.0783246 0.568582 0.267048
0.0704509 0.579278 0.257465
0.669856 0.699794 0.185016
0.895689 0.695323 0.357748
0.898543 0.710231 0.376471
0.273976 0.762295 0.512337
0.269535 0.753338 0.480598
0.577874 0.794858 0.445441
0.897627 0.9028 0.65539
0.898009 0.904326 0.667094
0.273396 0.769543 0.538384
0.276661 0.753429 0.479149
0.655695 0.828443 0.47361
0.899489 0.901869 0.647898
0.895735 0.905394 0.673961
0.0644541 0.0783246 0.315724
0.145586 0.0570382 0.356008
0.501747 0.0744335 0.365042
0.71043 0.16846 0.454276
0.683024 0.178637 0.4972
0.0418402 0.100114 0.303105
0.0841382 0.0728008 0.37229
0.530541 0.091371 0.413153
0.723522 0.169924 0.467414
0.703487 0.179629 0.504021
0.0875257 0.572534 0.485985
0.076936 0.589502 0.523415
0.665629 0.679103 0.64831
0.912764 0.62295 0.574685
0.9066 0.639384 0.599573
0.353399 0.806149 0.669337
0.334356 0.805844 0.676799
0.536309 0.819043 0.631052
0.891875 0.91751 0.741054
0.898939 0.92311 0.779721
0.381064 0.817456 0.709422
0.367544 0.814603 0.70222
0.625315 0.844388 0.684321
0.887098 0.919921 0.77116
0.890867 0.92578 0.808972
0.277043 0.0918441 0.533684
0.329656 0.100969 0.546471
0.571099 0.172732 0.628595
0.739483 0.250675 0.705409
0.736721 0.251469 0.706371
0.219715 0.0859998 0.52462
0.290867 0.0951858 0.539025
0.597955 0.186419 0.644419
0.742153 0.250858 0.705562
0.736324 0.251743 0.706783
0.0830701 0.564858 0.661479
0.102693 0.579522 0.684779
0.697948 0.568261 0.867979
0.925292 0.623316 0.90927
0.917617 0.641138 0.908232
0.548852 0.853666 0.795514
0.548928 0.853895 0.798169
0.657588 0.875731 0.825589
0.886687 0.92314 0.88835
0.902525 0.925261 0.893019
0.644999 0.876036 0.826902
0.630808 0.873167 0.823911
0.732082 0.897719 0.84799
0.889555 0.934585 0.89456
0.898863 0.937713 0.895979
0.314168 0.0981308 0.542184
0.355459 0.10605 0.553414
0.5888 0.181048 0.63801
0.738857 0.250858 0.705638
0.736721 0.251469 0.706371
0.251408 0.0888838 0.52845
0.311696 0.0981003 0.54313
0.610834 0.19237 0.650828
0.743221 0.251789 0.706783
0.737118 0.252384 0.707897
0.117357 0.571115 0.695827
0.11693 0.580713 0.698909
0.710231 0.564416 0.873182
0.929808 0.616892 0.91014
0.918517 0.637858 0.908919
0.616388 0.866728 0.820157
0.616739 0.867521 0.821714
0.700343 0.881376 0.846815
0.89099 0.921752 0.899596
0.897856 0.924529 0.899702
0.644007 0.875868 0.827024
0.640284 0.875425 0.827497
0.768872 0.905898 0.865431
0.890776 0.936538 0.90164
0.900298 0.93933 0.902632
