bundles/resolve-cinematic-luts/Phantom Luts/P4k & P6K Phntm Film LUTs - V6/P6k/Gen 5 Colour/P6k Eterna Gen5.cube
TITLE "Generated by Resolve"
LUT_3D_SIZE 9
0.00932326 0.0377356 0.0377356
0.0286717 0.0390784 0.0377356
0.0883803 0.0433661 0.0394903
0.237034 0.06598 0.0780499
0.494331 0.104692 0.151431
0.703944 0.153841 0.209201
0.714595 0.159579 0.217624
0.721889 0.161059 0.2224
0.745922 0.158923 0.233875
0.0138705 0.0455787 0.0411994
0.0185397 0.0454414 0.0409705
0.0890211 0.0483864 0.0439155
0.263752 0.0678874 0.0755169
0.534722 0.103609 0.146304
0.708217 0.151034 0.196109
0.71368 0.154299 0.202258
0.717311 0.155642 0.205814
0.736996 0.152193 0.212421
0.0436255 0.123766 0.075761
0.0396887 0.136995 0.0700389
0.11194 0.136233 0.0691844
0.34873 0.138277 0.103899
0.602701 0.132647 0.153124
0.746853 0.180682 0.19472
0.75053 0.184024 0.19556
0.753964 0.187427 0.196689
0.759243 0.187716 0.197955
0.0767224 0.361288 0.173266
0.0560159 0.403281 0.167758
0.0586099 0.419577 0.134615
0.366476 0.422446 0.0914626
0.774456 0.439841 0.189502
0.917174 0.475502 0.265888
0.918929 0.485176 0.26775
0.920272 0.491386 0.269047
0.919631 0.488731 0.268177
0.17435 0.768154 0.414374
0.172869 0.799695 0.424186
0.18117 0.812726 0.414847
0.205051 0.788968 0.261494
0.716884 0.78024 0.249958
0.936614 0.791547 0.357641
0.952529 0.799054 0.392233
0.951736 0.797269 0.388479
0.951125 0.787396 0.377615
0.292195 0.917021 0.565789
0.284825 0.919463 0.560235
0.284443 0.919844 0.549386
0.308354 0.916976 0.503777
0.640162 0.924239 0.490898
0.912123 0.931075 0.600595
0.949889 0.932662 0.64715
0.949004 0.931853 0.638285
0.949172 0.929992 0.629221
0.281025 0.920287 0.579507
0.285084 0.919005 0.572808
0.287877 0.918486 0.561715
0.307958 0.915328 0.524071
0.515312 0.923964 0.470512
0.890654 0.930556 0.593591
0.950988 0.934096 0.667155
0.951385 0.936202 0.671565
0.950515 0.93666 0.671199
0.270329 0.92369 0.585702
0.283131 0.9196 0.578012
0.299077 0.914809 0.567895
0.314092 0.911482 0.538094
0.427359 0.9178 0.462837
0.816953 0.925444 0.551812
0.942748 0.932067 0.654276
0.952346 0.935683 0.672023
0.947463 0.938308 0.669535
0.265354 0.925246 0.588846
0.271321 0.923339 0.581003
0.285863 0.918791 0.571633
0.306645 0.912917 0.546288
0.36849 0.914733 0.464897
0.715908 0.923812 0.517494
0.927428 0.932479 0.634623
0.951751 0.936004 0.671717
0.946212 0.938949 0.668925
0.0105592 0.0382849 0.0443732
0.0318303 0.0399634 0.0469062
0.0920729 0.0451667 0.0583047
0.236515 0.0647746 0.095079
0.497963 0.113298 0.173205
0.732937 0.156085 0.23331
0.757778 0.17319 0.248966
0.768887 0.179416 0.257557
0.78616 0.180438 0.267659
0.0121614 0.0407874 0.0395972
0.0145266 0.0400092 0.0406348
0.0929122 0.0459907 0.050782
0.267994 0.0666819 0.0894331
0.528801 0.100374 0.161074
0.732296 0.15024 0.217014
0.740581 0.155688 0.226398
0.746899 0.159472 0.232868
0.762158 0.15996 0.241428
0.0437934 0.112932 0.0869306
0.0370794 0.125475 0.0803845
0.10901 0.132036 0.0691691
0.350622 0.125383 0.102312
0.58294 0.115602 0.147341
0.740307 0.165759 0.192279
0.742504 0.167834 0.193225
0.744259 0.16939 0.194247
0.748135 0.168414 0.19469
0.0728771 0.347433 0.186419
0.057969 0.386252 0.182101
0.0592508 0.416602 0.155505
0.365591 0.420401 0.0911727
0.760632 0.437537 0.184405
0.917281 0.47657 0.265888
0.919203 0.486564 0.267842
0.920089 0.491508 0.268299
0.919051 0.486488 0.267262
0.158511 0.752773 0.41593
0.155322 0.779141 0.421927
0.167971 0.796338 0.410254
0.19324 0.78352 0.262699
0.708171 0.774258 0.242298
0.932815 0.788754 0.348699
0.951568 0.801007 0.391211
0.951156 0.798199 0.387915
0.9505 0.787091 0.375967
0.284825 0.919081 0.576593
0.278843 0.92105 0.571084
0.281712 0.920562 0.555398
0.309224 0.91754 0.498894
0.631281 0.924224 0.485786
0.910048 0.930816 0.59559
0.949432 0.932525 0.643946
0.948409 0.931655 0.635187
0.94873 0.929534 0.625452
0.274998 0.922347 0.597848
0.279393 0.920882 0.589624
0.283589 0.919509 0.572106
0.309804 0.915099 0.520668
0.526482 0.924102 0.472297
0.888289 0.930419 0.591501
0.950484 0.934142 0.666651
0.951186 0.936309 0.671489
0.950332 0.936767 0.671199
0.265538 0.925353 0.607691
0.280995 0.920455 0.598306
0.293614 0.916228 0.58143
0.313664 0.911574 0.538598
0.453651 0.918959 0.464652
0.814862 0.925277 0.550912
0.941817 0.931945 0.653132
0.952346 0.935683 0.672023
0.947463 0.938308 0.669535
0.260471 0.92694 0.612894
0.266896 0.924895 0.602869
0.281285 0.920272 0.588342
0.304234 0.913405 0.551354
0.399466 0.916426 0.463691
0.733577 0.924086 0.522774
0.926635 0.932708 0.633692
0.951751 0.936004 0.671717
0.946212 0.938949 0.668925
0.0205692 0.0405737 0.0851301
0.0495155 0.0433814 0.0903182
0.106172 0.048127 0.0821851
0.255924 0.0652018 0.117144
0.489784 0.110933 0.178119
0.758419 0.177188 0.260075
0.779736 0.188037 0.27686
0.784512 0.188373 0.283909
0.79939 0.18558 0.299855
0.0136721 0.0451514 0.0569009
0.0186313 0.0412299 0.0925002
0.108949 0.049073 0.0889143
0.278401 0.0683604 0.119493
0.515831 0.114763 0.185122
0.774441 0.181842 0.266087
0.788052 0.189303 0.282414
0.792798 0.189654 0.295598
0.805753 0.186664 0.314366
0.0444038 0.107622 0.0973068
0.0416724 0.11368 0.107378
0.10811 0.121157 0.118044
0.339513 0.107179 0.127886
0.572854 0.116442 0.179767
0.746853 0.160525 0.230426
0.773205 0.180117 0.256367
0.788739 0.192096 0.272816
0.796872 0.193179 0.284321
0.0807965 0.323827 0.213031
0.0669566 0.360632 0.223362
0.0607156 0.390951 0.198535
0.360845 0.414237 0.0934768
0.761868 0.420752 0.186007
0.912642 0.454536 0.263584
0.916899 0.463294 0.267887
0.917494 0.46453 0.268452
0.916136 0.454856 0.267948
0.13727 0.728008 0.437568
0.130861 0.752956 0.450736
0.143374 0.772808 0.437751
0.175586 0.776089 0.291371
0.697978 0.763317 0.235172
0.928664 0.774029 0.33283
0.950805 0.790646 0.380407
0.950622 0.789075 0.378668
0.949569 0.776837 0.365545
0.276616 0.920775 0.615335
0.26656 0.924086 0.615564
0.266484 0.923858 0.593606
0.301106 0.917342 0.520363
0.603235 0.922515 0.470603
0.902892 0.928008 0.575265
0.949371 0.930236 0.632898
0.948287 0.929503 0.624918
0.948318 0.926925 0.6112
0.267048 0.925597 0.654475
0.268376 0.925093 0.650431
0.271519 0.923812 0.628382
0.292653 0.917205 0.5523
0.532815 0.923934 0.473671
0.880064 0.929473 0.584939
0.949416 0.933806 0.665324
0.951263 0.936446 0.674067
0.950332 0.936996 0.67422
0.263905 0.928878 0.678279
0.266682 0.927184 0.669078
0.284337 0.920394 0.644938
0.29424 0.916014 0.579324
0.461387 0.918517 0.465354
0.810758 0.924773 0.549722
0.939376 0.931395 0.650309
0.952422 0.935699 0.673075
0.947494 0.938415 0.671382
0.262226 0.930266 0.687343
0.261265 0.929519 0.677378
0.273198 0.924056 0.655543
0.287312 0.918456 0.601846
0.390143 0.915862 0.470527
0.745724 0.924346 0.526131
0.924392 0.932845 0.630426
0.951797 0.935988 0.672129
0.945876 0.939193 0.670115
0.0539254 0.0462043 0.192248
0.0901045 0.0502785 0.223896
0.133684 0.0539406 0.180621
0.293187 0.0728923 0.175021
0.538369 0.108522 0.234119
0.775113 0.181842 0.293599
0.795819 0.186496 0.328984
0.802808 0.180667 0.370596
0.813306 0.170809 0.417319
0.0156558 0.0473335 0.148638
0.0415045 0.046891 0.20795
0.136126 0.0552071 0.237903
0.309773 0.0738537 0.200229
0.547692 0.104417 0.256474
0.79028 0.179004 0.330068
0.805768 0.177554 0.389288
0.799741 0.166522 0.440131
0.799161 0.153903 0.484825
0.0381018 0.106569 0.138827
0.0294804 0.10309 0.180362
0.0432898 0.0552224 0.248188
0.346563 0.0816968 0.247135
0.592935 0.11632 0.299092
0.80322 0.185718 0.370581
0.799069 0.174655 0.430442
0.790784 0.165957 0.468971
0.795697 0.159136 0.503288
0.0853285 0.300404 0.254032
0.0746014 0.32929 0.284779
0.0732433 0.351019 0.314763
0.369543 0.384421 0.351812
0.770779 0.36791 0.342458
0.927871 0.38088 0.365255
0.934295 0.387808 0.396994
0.935897 0.385718 0.423072
0.934478 0.370794 0.436332
0.121065 0.688792 0.49482
0.109255 0.713771 0.531228
0.116503 0.731411 0.542489
0.12546 0.740917 0.446921
0.674784 0.744778 0.26688
0.939055 0.748821 0.391409
0.952163 0.767117 0.43415
0.952255 0.76817 0.44329
0.951949 0.753918 0.436393
0.277989 0.914229 0.690517
0.264027 0.921126 0.709422
0.257359 0.921736 0.701686
0.247715 0.918257 0.623789
0.502571 0.922438 0.470619
0.889189 0.918883 0.534493
0.955001 0.917586 0.618219
0.954528 0.917006 0.618097
0.954833 0.913725 0.60621
0.297826 0.929503 0.764202
0.295293 0.932036 0.773938
0.294942 0.930159 0.761303
0.277211 0.926329 0.689158
0.477623 0.926406 0.544854
0.842161 0.92903 0.588312
0.943709 0.934157 0.674861
0.952026 0.938109 0.699168
0.950912 0.93872 0.699001
0.313527 0.933425 0.798535
0.310552 0.933959 0.800092
0.316884 0.928115 0.782742
0.301442 0.923095 0.722179
0.40499 0.921813 0.566552
0.777752 0.927108 0.580621
0.931838 0.933379 0.651499
0.952941 0.936858 0.691554
0.948196 0.939681 0.693111
0.319173 0.935058 0.809857
0.31574 0.934905 0.807935
0.304524 0.933043 0.794415
0.305486 0.92462 0.743175
0.336233 0.922225 0.599908
0.728389 0.928084 0.582834
0.918593 0.934585 0.638941
0.951812 0.9364 0.687022
0.948287 0.939284 0.688991
0.152285 0.0623178 0.395865
0.188647 0.0637827 0.433982
0.237644 0.0678416 0.43035
0.348516 0.0791943 0.366567
0.595468 0.113802 0.386481
0.78558 0.163119 0.438376
0.785107 0.163073 0.454887
0.781476 0.156863 0.486305
0.792493 0.151064 0.532372
0.0830549 0.0539406 0.338674
0.125963 0.0615091 0.388067
0.204013 0.0649271 0.435325
0.352438 0.0790875 0.410636
0.590295 0.11313 0.407492
0.778561 0.15581 0.472206
0.779507 0.155962 0.503761
0.777768 0.154238 0.545861
0.788556 0.151705 0.598657
0.0254215 0.0705577 0.279744
0.0240024 0.0677043 0.348104
0.111574 0.0583658 0.410712
0.364187 0.0808881 0.479988
0.622736 0.117815 0.462257
0.779614 0.158724 0.506279
0.775448 0.157626 0.543816
0.772457 0.158526 0.582498
0.779492 0.157122 0.625864
0.0676585 0.281132 0.346639
0.0439765 0.30454 0.402106
0.0380102 0.325017 0.47567
0.181827 0.28751 0.599252
0.759487 0.243915 0.603983
0.890745 0.257084 0.608469
0.876051 0.242023 0.624842
0.861616 0.230365 0.639689
0.851301 0.218662 0.654139
0.126162 0.652323 0.570977
0.110918 0.675563 0.602609
0.116747 0.694163 0.627649
0.123827 0.695567 0.63711
0.660822 0.689372 0.649607
0.934325 0.685634 0.644862
0.957443 0.695781 0.663386
0.957214 0.697734 0.682704
0.956573 0.682368 0.688243
0.28751 0.89778 0.769451
0.274189 0.90309 0.789868
0.26775 0.901366 0.798779
0.256504 0.896468 0.772473
0.534173 0.90251 0.712459
0.8766 0.904372 0.680934
0.959228 0.903517 0.722423
0.958618 0.903548 0.742473
0.958618 0.901045 0.74165
0.417792 0.931685 0.849943
0.420005 0.936492 0.865232
0.415763 0.937835 0.86746
0.367086 0.934691 0.831617
0.552163 0.934737 0.775967
0.813687 0.934569 0.749783
0.946624 0.941817 0.763729
0.957473 0.946258 0.822721
0.95697 0.946685 0.824872
0.469383 0.933623 0.879499
0.470649 0.93608 0.88632
0.45922 0.937774 0.886244
0.415991 0.934371 0.856458
0.556054 0.932128 0.804532
0.812909 0.93315 0.79382
0.944106 0.939132 0.781155
0.960739 0.943786 0.813519
0.95697 0.946654 0.824475
0.476219 0.936751 0.889998
0.483131 0.936812 0.893324
0.474769 0.937789 0.892561
0.438972 0.935485 0.871412
0.508949 0.932097 0.818433
0.8 0.933852 0.817075
0.934737 0.940963 0.813397
0.954894 0.944762 0.801724
0.953017 0.947936 0.817975
0.290898 0.0777905 0.585763
0.323491 0.0822614 0.61828
0.360678 0.0858778 0.634379
0.458045 0.0949722 0.624811
0.649607 0.122362 0.603464
0.773281 0.157366 0.591852
0.774792 0.157046 0.589014
0.777722 0.156497 0.600473
0.785916 0.154589 0.632807
0.230701 0.0716869 0.539422
0.26804 0.0758373 0.579492
0.325673 0.0822003 0.615991
0.436179 0.0930343 0.638926
0.650416 0.124132 0.638407
0.77406 0.159304 0.622827
0.774166 0.159854 0.628641
0.77586 0.161288 0.655787
0.782727 0.160739 0.699413
0.114733 0.0665141 0.476188
0.158724 0.0665751 0.524208
0.23978 0.0736858 0.571862
0.392935 0.0886397 0.634897
0.65771 0.129076 0.679957
0.768811 0.163439 0.638987
0.766339 0.165148 0.642359
0.769589 0.167742 0.677073
0.781308 0.170932 0.723766
0.0488289 0.263508 0.53257
0.0450141 0.266468 0.581323
0.0500343 0.274861 0.640635
0.128222 0.219196 0.702876
0.637003 0.148211 0.72639
0.794324 0.183932 0.668193
0.815808 0.203662 0.671962
0.798489 0.19057 0.681407
0.794629 0.180407 0.709331
0.142382 0.636454 0.680735
0.141054 0.645304 0.715801
0.144259 0.660075 0.748531
0.146242 0.661295 0.782528
0.556741 0.653468 0.85832
0.935378 0.61503 0.839002
0.954742 0.624765 0.831815
0.954452 0.618784 0.844541
0.95285 0.601892 0.860746
0.295354 0.883314 0.822904
0.274083 0.887343 0.832486
0.268315 0.885405 0.835676
0.263142 0.880369 0.831357
0.553948 0.87863 0.842542
0.862684 0.87483 0.854444
0.960845 0.873396 0.854612
0.962692 0.874067 0.861448
0.960174 0.873991 0.865858
0.523507 0.933013 0.897047
0.517784 0.937179 0.905135
0.519142 0.937835 0.90724
0.499565 0.937331 0.899886
0.64242 0.934447 0.889693
0.841093 0.937087 0.889906
0.950454 0.942611 0.883894
0.963806 0.941665 0.896635
0.963195 0.94168 0.905348
0.57969 0.930297 0.904997
0.560464 0.937285 0.915068
0.555779 0.938766 0.917128
0.535958 0.938003 0.911101
0.674189 0.935363 0.903151
0.850248 0.940215 0.904585
0.936797 0.944732 0.900404
0.961028 0.948791 0.899809
0.95996 0.950896 0.911208
0.574975 0.935607 0.914641
0.573251 0.938094 0.919158
0.570031 0.939239 0.920958
0.553292 0.938643 0.91635
0.657404 0.936477 0.910323
0.859556 0.941588 0.917037
0.935058 0.947372 0.920562
0.957458 0.949935 0.912947
0.960327 0.950637 0.909911
0.397681 0.0936904 0.684092
0.404288 0.0944533 0.687953
0.425681 0.0971847 0.694133
0.503716 0.108934 0.716228
0.715831 0.164843 0.769619
0.799191 0.185641 0.77171
0.794491 0.180346 0.760876
0.792111 0.178241 0.751324
0.792096 0.176684 0.75082
0.368414 0.0901961 0.672435
0.383551 0.092256 0.681651
0.407034 0.0948501 0.688731
0.471931 0.104067 0.707622
0.704829 0.162463 0.771023
0.805188 0.192905 0.786831
0.805219 0.193439 0.786679
0.803967 0.191562 0.784085
0.806104 0.194003 0.788968
0.291997 0.0821241 0.63888
0.324071 0.0860456 0.659403
0.36585 0.0906844 0.676997
0.427359 0.0974289 0.694652
0.670298 0.150439 0.761654
0.80705 0.195331 0.791104
0.805707 0.19472 0.787579
0.806027 0.195148 0.788602
0.806561 0.194919 0.790372
0.0869306 0.22472 0.697322
0.123995 0.209094 0.708003
0.172427 0.192035 0.722286
0.23859 0.148257 0.708873
0.569009 0.131197 0.745571
0.809308 0.200641 0.795071
0.807492 0.197192 0.777676
0.80647 0.195499 0.773053
0.811582 0.199405 0.786694
0.131365 0.643549 0.799313
0.134279 0.64654 0.815015
0.140826 0.651499 0.830564
0.149828 0.652613 0.852018
0.474571 0.641627 0.937407
0.922347 0.574289 0.945678
0.951675 0.571298 0.919707
0.952651 0.593835 0.910719
0.950652 0.575479 0.928344
0.304112 0.8813 0.877775
0.299336 0.880568 0.887236
0.301381 0.873747 0.89163
0.306432 0.866743 0.899199
0.45832 0.857527 0.914626
0.809903 0.859174 0.920531
0.950286 0.84622 0.918318
0.954696 0.847395 0.912749
0.951659 0.841154 0.918379
0.583764 0.935988 0.91722
0.5738 0.939132 0.922164
0.564538 0.93901 0.921889
0.516381 0.937575 0.918257
0.591638 0.932723 0.913664
0.840543 0.933165 0.925109
0.937575 0.937987 0.934203
0.963455 0.935363 0.934813
0.962127 0.936309 0.936919
0.615976 0.93492 0.923583
0.604379 0.939269 0.93022
0.602548 0.939544 0.930617
0.588373 0.939529 0.92636
0.690776 0.939879 0.925994
0.873594 0.945846 0.937758
0.934462 0.951003 0.942641
0.96112 0.952102 0.940047
0.964721 0.952102 0.941604
0.633951 0.935378 0.928222
0.631281 0.938338 0.933562
0.625544 0.939147 0.935409
0.608011 0.939391 0.931899
0.70425 0.94078 0.930175
0.886885 0.946883 0.941787
0.936339 0.952041 0.946563
0.954772 0.953399 0.945571
0.962249 0.953399 0.943175
0.412345 0.0953841 0.689891
0.412253 0.0954452 0.690318
0.430655 0.0979477 0.695644
0.483955 0.105852 0.711162
0.702602 0.161608 0.770428
0.806912 0.194781 0.791501
0.806897 0.194781 0.79144
0.806928 0.194766 0.791547
0.806607 0.194903 0.790478
0.39556 0.0934462 0.685496
0.395163 0.0934157 0.685389
0.41413 0.0956588 0.690791
0.456992 0.101518 0.703243
0.672496 0.151186 0.762203
0.806943 0.194766 0.791577
0.806943 0.194766 0.791577
0.806943 0.194766 0.791577
0.806912 0.194781 0.791501
0.348653 0.0890516 0.671992
0.34934 0.0891737 0.672282
0.373083 0.09131 0.679316
0.41471 0.0957351 0.690944
0.615579 0.132357 0.745052
0.806943 0.194766 0.791577
0.806912 0.194781 0.791501
0.806943 0.194797 0.791547
0.806943 0.194827 0.791485
0.251423 0.193729 0.758389
0.265354 0.192584 0.761624
0.265583 0.17731 0.745708
0.258396 0.138354 0.702174
0.487663 0.109483 0.715389
0.793515 0.192889 0.791806
0.813779 0.20267 0.799023
0.814252 0.203296 0.799374
0.815351 0.204166 0.80087
0.177295 0.66482 0.87747
0.198413 0.670359 0.891432
0.221515 0.669627 0.906249
0.243595 0.660838 0.9196
0.326528 0.624796 0.940169
0.872618 0.551141 0.949004
0.948867 0.529229 0.946242
0.949081 0.527901 0.943435
0.948943 0.531945 0.94641
0.386709 0.882658 0.929198
0.39379 0.879942 0.932006
0.392355 0.873686 0.933349
0.389334 0.862699 0.93547
0.427451 0.842741 0.943206
0.759716 0.847608 0.935409
0.941711 0.828473 0.945083
0.945953 0.824598 0.943465
0.94583 0.832471 0.941543
0.618982 0.936904 0.933547
0.615824 0.937407 0.93547
0.606348 0.936217 0.935439
0.571237 0.933364 0.934539
0.547417 0.926177 0.933867
0.799649 0.926207 0.936751
0.924086 0.933913 0.944762
0.951629 0.932876 0.94548
0.951522 0.93341 0.945357
0.680217 0.937072 0.937819
0.680186 0.937881 0.939025
0.679622 0.937865 0.938979
0.659403 0.938216 0.937545
0.651957 0.940017 0.933104
0.856992 0.945449 0.941421
0.934737 0.950896 0.949477
0.953521 0.953292 0.952529
0.962158 0.9514 0.953994
0.680415 0.937819 0.938964
0.680171 0.937881 0.939025
0.680171 0.937881 0.939025
0.680171 0.937881 0.939025
0.691661 0.940002 0.936889
0.885573 0.947555 0.945129
0.940887 0.953048 0.951812
0.952972 0.955505 0.95433
0.956344 0.956313 0.954498
0.417121 0.0960098 0.6916
0.418677 0.0961776 0.691981
0.430167 0.0978561 0.695491
0.465156 0.1028 0.705425
0.657862 0.146288 0.75819
0.806943 0.194766 0.791577
0.806943 0.194766 0.791577
0.806943 0.194766 0.791577
0.806943 0.194766 0.791577
0.401816 0.0941787 0.687358
0.403342 0.0943465 0.687755
0.41445 0.0957046 0.690898
0.444068 0.0996109 0.699443
0.61709 0.132967 0.745632
0.806943 0.194766 0.791577
0.806943 0.194766 0.791577
0.806943 0.194766 0.791577
0.806943 0.194766 0.791577
0.353597 0.0896315 0.67364
0.35523 0.0897688 0.674067
0.369894 0.0910658 0.678416
0.403159 0.0944076 0.687785
0.562356 0.118593 0.730022
0.8047 0.194247 0.79144
0.806989 0.194812 0.791638
0.806943 0.194766 0.791577
0.806989 0.194827 0.791638
0.267979 0.197635 0.768688
0.268711 0.202258 0.774151
0.268772 0.189364 0.759274
0.26453 0.15877 0.723934
0.412375 0.0973068 0.692073
0.755001 0.17995 0.783886
0.813519 0.202121 0.7991
0.813657 0.202258 0.799237
0.813825 0.202457 0.799435
0.268589 0.692866 0.929961
0.270069 0.695842 0.930571
0.268025 0.692027 0.929763
0.258534 0.67425 0.926528
0.231403 0.620218 0.915221
0.80087 0.527337 0.949813
0.946853 0.491035 0.94461
0.945144 0.467826 0.942733
0.944198 0.456092 0.941497
0.479225 0.884764 0.941207
0.477607 0.882231 0.941543
0.469398 0.877073 0.94197
0.451438 0.865629 0.94284
0.411521 0.842115 0.943847
0.671305 0.830182 0.937301
0.926879 0.8121 0.945586
0.946197 0.797436 0.945449
0.946441 0.788281 0.945647
0.669184 0.936217 0.938918
0.664546 0.935546 0.938903
0.657008 0.934508 0.939055
0.638819 0.931563 0.938903
0.595514 0.922499 0.9393
0.745373 0.91931 0.939529
0.905241 0.928847 0.944625
0.948821 0.92903 0.949081
0.948959 0.926787 0.948837
0.680171 0.937881 0.939025
0.680171 0.937881 0.939025
0.680171 0.937881 0.939025
0.680171 0.937881 0.939025
0.68542 0.937865 0.938918
0.827802 0.94313 0.943832
0.924178 0.948592 0.950103
0.950271 0.9523 0.95378
0.954757 0.952773 0.954589
0.680171 0.937881 0.939025
0.680171 0.937881 0.939025
0.680171 0.937881 0.939025
0.680171 0.937881 0.939025
0.687434 0.937881 0.938903
0.854978 0.945052 0.945266
0.935271 0.952544 0.952132
0.953079 0.955749 0.95555
0.956466 0.956527 0.956466
