bundles/resolve-cinematic-luts/Phantom Luts/P4k & P6K Phntm Film LUTs - V6/P6k/Gen 5 Colour/P6k VisionTeal Gen5.cube
TITLE "Generated by Resolve"
LUT_3D_SIZE 33
0.0222324 0.0299077 0.0281376
0.0222324 0.0299077 0.0281376
0.0222477 0.0298619 0.0280919
0.0222477 0.0301061 0.0283207
0.0222324 0.0301213 0.0287327
0.0281529 0.0300298 0.0296635
0.0410925 0.0294652 0.0293278
0.0620279 0.0276036 0.0280156
0.0884718 0.0271611 0.0272068
0.123796 0.0275578 0.0270542
0.17998 0.0265812 0.0254063
0.244038 0.0272984 0.0247044
0.311391 0.0280003 0.0257877
0.376837 0.0304265 0.029572
0.440864 0.0327611 0.0348974
0.505745 0.0379034 0.0430152
0.577874 0.0467842 0.0601816
0.654047 0.0717784 0.0834363
0.716365 0.09897 0.1028
0.748837 0.117159 0.114504
0.759701 0.128161 0.121538
0.75761 0.121431 0.122026
0.758053 0.122698 0.122332
0.758465 0.123461 0.122377
0.759793 0.126131 0.123552
0.760891 0.129397 0.124666
0.762997 0.134249 0.126253
0.763928 0.136736 0.126238
0.765713 0.139193 0.127169
0.767193 0.142367 0.127886
0.769894 0.145434 0.130083
0.772137 0.148836 0.131655
0.775235 0.154269 0.134951
0.0222324 0.0298466 0.0280461
0.0222324 0.0298924 0.0281071
0.0222324 0.0298772 0.0280919
0.0222324 0.0302434 0.0283818
0.0222324 0.0303197 0.0287633
0.0274968 0.0304112 0.0297246
0.0413367 0.0297246 0.0296025
0.0627604 0.0279545 0.0284733
0.0911879 0.0272221 0.0274205
0.128038 0.0276341 0.0272068
0.185412 0.0271153 0.0256962
0.25005 0.0278325 0.0250401
0.31754 0.0301976 0.027039
0.381857 0.0321355 0.030457
0.445304 0.0344854 0.0356603
0.510704 0.0384985 0.0449226
0.583139 0.0500038 0.0623026
0.6589 0.0758526 0.0847181
0.72018 0.10219 0.105501
0.754742 0.12752 0.119646
0.760281 0.131029 0.120775
0.759533 0.130129 0.119722
0.762798 0.134844 0.124971
0.760678 0.128695 0.12372
0.762097 0.133028 0.125322
0.763561 0.135714 0.126009
0.764645 0.13843 0.126101
0.765515 0.140963 0.126543
0.767529 0.144045 0.128008
0.769512 0.146853 0.129305
0.771618 0.149798 0.13106
0.774701 0.154391 0.134142
0.776898 0.158862 0.136461
0.0222324 0.0299382 0.0280613
0.0222324 0.029984 0.0281224
0.0222324 0.0299992 0.0281529
0.0222324 0.0302892 0.0281682
0.0222324 0.0307622 0.0285344
0.0259556 0.0311742 0.0298466
0.0404517 0.0308232 0.0299077
0.0624704 0.0298466 0.0290837
0.0910353 0.0283207 0.027985
0.128405 0.0286717 0.0276341
0.185992 0.0281987 0.0258793
0.25275 0.0290227 0.0256809
0.320577 0.0315557 0.027863
0.385855 0.0326543 0.0308232
0.448432 0.0357519 0.0359808
0.514015 0.039765 0.0456092
0.586328 0.0517433 0.0630961
0.662135 0.0772869 0.087129
0.723278 0.105837 0.106462
0.756985 0.130663 0.119615
0.762524 0.134142 0.124666
0.763546 0.135973 0.125078
0.764736 0.138949 0.125246
0.765499 0.142245 0.125093
0.764202 0.137789 0.125475
0.765332 0.139818 0.126085
0.766247 0.142794 0.126894
0.767605 0.14551 0.12781
0.769375 0.148226 0.128878
0.77171 0.151263 0.1308
0.774014 0.155093 0.133196
0.776211 0.158968 0.135256
0.779568 0.164416 0.138766
0.0224308 0.0341955 0.0290837
0.0225071 0.0338903 0.0287633
0.0225528 0.0331731 0.0285191
0.0225376 0.0327001 0.0285344
0.0225528 0.0334173 0.0290684
0.026154 0.0337835 0.0306554
0.0401312 0.0331273 0.03122
0.063035 0.0318456 0.0296788
0.0934005 0.0311742 0.0291142
0.134005 0.0323339 0.0292668
0.191669 0.0304112 0.0265965
0.255161 0.030396 0.0263676
0.322805 0.0324712 0.0284428
0.388556 0.0337682 0.0316625
0.451148 0.0365911 0.0365911
0.516472 0.0403601 0.046067
0.589792 0.0548104 0.0647898
0.664988 0.0797436 0.0881361
0.726299 0.108934 0.107942
0.758144 0.13257 0.121996
0.76434 0.137942 0.125551
0.76527 0.13991 0.125658
0.766155 0.14313 0.125856
0.766979 0.144015 0.127092
0.767971 0.146883 0.12781
0.767376 0.144762 0.12755
0.768551 0.147631 0.128237
0.7691 0.149905 0.128481
0.772137 0.153475 0.13109
0.773709 0.156985 0.132448
0.776104 0.160525 0.134997
0.778866 0.165087 0.137697
0.781521 0.170123 0.140124
0.0222171 0.0425727 0.0301823
0.0221714 0.0421149 0.0295415
0.0223392 0.0411536 0.0292058
0.0222934 0.0399329 0.0293736
0.0223697 0.0404059 0.0305028
0.027451 0.0413062 0.0320439
0.0414893 0.0417334 0.0324559
0.0645457 0.0404517 0.033341
0.0984665 0.038117 0.0314946
0.141695 0.0371099 0.030396
0.199985 0.0353704 0.0287938
0.264118 0.0346532 0.0281071
0.328511 0.0339818 0.0289769
0.390524 0.0349584 0.0320439
0.454398 0.037644 0.0374304
0.51899 0.041825 0.0475471
0.594263 0.057557 0.0674296
0.667445 0.0829786 0.0893568
0.729046 0.112764 0.10988
0.761318 0.137392 0.124666
0.765621 0.141878 0.126665
0.766766 0.143893 0.127443
0.767712 0.146563 0.128084
0.768811 0.14902 0.12871
0.770336 0.151843 0.130098
0.772045 0.154894 0.13138
0.771405 0.153506 0.130983
0.772686 0.15671 0.131838
0.774212 0.159777 0.133181
0.776425 0.164065 0.13518
0.778225 0.167315 0.136645
0.781384 0.172763 0.139742
0.78172 0.178851 0.137743
0.0213626 0.0536202 0.0323339
0.0213931 0.0529641 0.0314336
0.0215 0.0513313 0.0302281
0.0216678 0.0501411 0.030396
0.0224918 0.0496071 0.0322728
0.0306554 0.0509346 0.0336767
0.0421607 0.0521096 0.0354925
0.0685893 0.0518807 0.0350652
0.0981918 0.0507973 0.0361791
0.146319 0.0487984 0.0344091
0.21384 0.0450446 0.0314488
0.277928 0.0411688 0.0303197
0.336828 0.0386664 0.0308995
0.39704 0.0384375 0.0330205
0.458564 0.0399634 0.0387579
0.523857 0.0446479 0.0489052
0.598352 0.061387 0.068986
0.672343 0.087892 0.0919509
0.732311 0.117037 0.111925
0.76463 0.142458 0.126848
0.768734 0.147356 0.129107
0.769223 0.149447 0.129503
0.771344 0.152499 0.131319
0.772335 0.155093 0.131853
0.773053 0.15819 0.132235
0.774731 0.161822 0.134066
0.775616 0.166079 0.134951
0.775784 0.16524 0.135012
0.776867 0.168032 0.1355
0.777478 0.174258 0.133684
0.780255 0.178668 0.136049
0.781842 0.183032 0.138216
0.783459 0.190219 0.140749
0.0207218 0.0715953 0.0361028
0.0206455 0.0705577 0.0340124
0.0208896 0.0692454 0.0331884
0.0209506 0.0679942 0.0322576
0.0209964 0.0669718 0.0331731
0.0318914 0.0668193 0.036408
0.0453346 0.0683604 0.037705
0.0638132 0.0707561 0.0374762
0.102113 0.0682231 0.0381476
0.146258 0.0654612 0.0387732
0.217975 0.0607767 0.0347143
0.290929 0.0555123 0.0335393
0.355489 0.0509804 0.033341
0.411872 0.0466621 0.0351873
0.468162 0.0469215 0.0405737
0.532921 0.0526894 0.0518959
0.605737 0.0701152 0.0723888
0.677211 0.095491 0.093904
0.737331 0.125872 0.115526
0.769497 0.15082 0.129549
0.772549 0.154849 0.131624
0.77319 0.157717 0.131945
0.774517 0.160601 0.133242
0.775616 0.164553 0.134524
0.776532 0.167437 0.134966
0.775631 0.172229 0.131991
0.777829 0.176898 0.134279
0.777996 0.180545 0.134157
0.778134 0.180545 0.134218
0.780194 0.185306 0.135668
0.781628 0.191577 0.137346
0.78407 0.206302 0.141726
0.788952 0.220508 0.146609
0.0201114 0.0937057 0.0408942
0.0200351 0.0933242 0.0382544
0.0200351 0.0923018 0.0369573
0.0200198 0.0908064 0.0345159
0.0201114 0.0903792 0.0344091
0.0276799 0.0894942 0.0370184
0.0459907 0.0901198 0.0415351
0.0681315 0.0919356 0.0419013
0.090425 0.0927138 0.0389258
0.147921 0.0891585 0.0409247
0.220249 0.0804913 0.040528
0.294286 0.0785687 0.0394751
0.3682 0.0758068 0.0404212
0.435416 0.0741741 0.0439002
0.494453 0.0721447 0.0510262
0.552407 0.0750744 0.0619669
0.619028 0.0887007 0.0804456
0.685863 0.110048 0.0995804
0.74139 0.134493 0.118364
0.775235 0.162387 0.133974
0.776287 0.165698 0.134585
0.776852 0.168154 0.135027
0.776425 0.172854 0.132326
0.778302 0.177111 0.13431
0.778271 0.180346 0.134142
0.779889 0.184756 0.135332
0.780606 0.189548 0.135744
0.781552 0.195499 0.136904
0.78323 0.207858 0.140002
0.784787 0.21532 0.142702
0.788937 0.227405 0.14667
0.791409 0.239796 0.151095
0.794705 0.253132 0.155276
0.020264 0.122866 0.0488899
0.0196689 0.121935 0.0451209
0.0196536 0.121431 0.0417334
0.0198367 0.119783 0.0398871
0.0203098 0.117449 0.0375525
0.0256504 0.116014 0.0398718
0.0389715 0.11664 0.0417487
0.067689 0.117601 0.0473335
0.0950637 0.121294 0.0440528
0.131395 0.121782 0.0400854
0.215763 0.116686 0.0432593
0.307301 0.107744 0.0482795
0.378027 0.114382 0.0525368
0.454414 0.12015 0.0606851
0.524468 0.123995 0.0704814
0.587976 0.12668 0.082475
0.646815 0.129885 0.0944686
0.703914 0.13695 0.110231
0.751827 0.157702 0.125963
0.780697 0.18909 0.135927
0.780591 0.190494 0.135836
0.780545 0.189929 0.135653
0.780697 0.18822 0.135821
0.781338 0.192035 0.136538
0.782742 0.204227 0.139284
0.784482 0.215625 0.142351
0.787213 0.226154 0.144656
0.789441 0.236851 0.148135
0.791318 0.247868 0.151232
0.793515 0.258473 0.154665
0.795651 0.26981 0.15816
0.797971 0.284306 0.163607
0.800717 0.301579 0.170703
0.0191958 0.164126 0.0544289
0.0192721 0.163394 0.0504158
0.019028 0.161669 0.0458534
0.0189975 0.160647 0.0437781
0.0208896 0.157412 0.0433509
0.0224613 0.153796 0.0405585
0.026978 0.152667 0.040238
0.0500038 0.156222 0.0449836
0.0933089 0.159442 0.0499733
0.12932 0.1664 0.0445106
0.194675 0.168383 0.0403143
0.295399 0.171511 0.0521096
0.398215 0.163821 0.0680552
0.459846 0.17351 0.0727855
0.530709 0.179934 0.0813916
0.598779 0.188037 0.0933089
0.66717 0.197711 0.107912
0.723507 0.206043 0.121569
0.764721 0.220432 0.136141
0.78909 0.235248 0.147692
0.78883 0.232105 0.146883
0.788876 0.233539 0.147143
0.789609 0.239658 0.148882
0.790845 0.246662 0.150713
0.792706 0.255787 0.153323
0.794156 0.264286 0.155962
0.79559 0.275181 0.158709
0.796887 0.287785 0.16289
0.798291 0.300435 0.167651
0.799771 0.313787 0.173617
0.801846 0.32694 0.178988
0.80383 0.336904 0.184619
0.804761 0.349294 0.191745
0.019501 0.225101 0.0682383
0.0185245 0.223178 0.0630503
0.0189364 0.220905 0.0599832
0.0220951 0.218845 0.0576333
0.022385 0.217685 0.0548257
0.0225834 0.212757 0.0493172
0.0228733 0.20679 0.0424659
0.0315099 0.206348 0.042237
0.071519 0.216632 0.0519875
0.132708 0.224338 0.0604105
0.190646 0.23122 0.0485389
0.269902 0.232227 0.0475319
0.37145 0.239078 0.060029
0.471138 0.23711 0.0865492
0.527947 0.245533 0.0960555
0.598947 0.251804 0.107362
0.667491 0.263066 0.120165
0.728466 0.277378 0.137118
0.772335 0.293782 0.154925
0.797528 0.307683 0.169741
0.79823 0.304738 0.168841
0.798245 0.301335 0.168231
0.798184 0.301595 0.168399
0.79881 0.307851 0.171328
0.799283 0.316106 0.174609
0.800687 0.325246 0.178454
0.801953 0.335958 0.183246
0.80293 0.345449 0.188312
0.803265 0.355398 0.193668
0.8038 0.365301 0.198993
0.804318 0.37554 0.206073
0.805371 0.384604 0.210834
0.807141 0.395682 0.217243
0.0293126 0.298116 0.0941176
0.0317693 0.296895 0.093019
0.0321508 0.295842 0.0902419
0.0320592 0.293599 0.0850996
0.032517 0.291752 0.0801099
0.0334936 0.289998 0.0753338
0.0336614 0.283925 0.0670176
0.0349279 0.276463 0.0570993
0.0498207 0.277302 0.0559091
0.105959 0.28661 0.0657206
0.194965 0.28983 0.0704662
0.257816 0.298894 0.0525521
0.346746 0.301396 0.0566567
0.441627 0.312901 0.0711986
0.541329 0.318349 0.105333
0.595148 0.328206 0.124224
0.662211 0.331945 0.144518
0.72575 0.343114 0.161959
0.771725 0.358602 0.183551
0.799329 0.375235 0.203296
0.804501 0.376791 0.206607
0.804318 0.374945 0.205493
0.804242 0.373831 0.204852
0.804227 0.373678 0.204837
0.804059 0.374563 0.205219
0.804334 0.382422 0.208865
0.804593 0.389929 0.213611
0.805051 0.397925 0.217212
0.805661 0.40705 0.222644
0.806226 0.416266 0.226932
0.806714 0.426123 0.231601
0.807538 0.43624 0.237812
0.80824 0.44361 0.241581
0.0462806 0.373892 0.130129
0.045716 0.373526 0.127031
0.0453803 0.371847 0.122927
0.045594 0.370214 0.118547
0.0454414 0.368109 0.112917
0.0458076 0.365988 0.106935
0.0467994 0.362737 0.0988937
0.0478828 0.356573 0.0885481
0.0498665 0.346807 0.0736553
0.0780346 0.348898 0.0717479
0.155917 0.356191 0.0844587
0.261906 0.357824 0.0823377
0.330541 0.366857 0.0604105
0.418128 0.369665 0.0714122
0.506539 0.384237 0.0883803
0.603525 0.394522 0.125292
0.662196 0.406043 0.153994
0.718349 0.414298 0.186084
0.76492 0.423651 0.215503
0.796979 0.437583 0.2336
0.807172 0.44332 0.240955
0.806882 0.442481 0.240269
0.806867 0.442786 0.240497
0.807157 0.444038 0.241321
0.807279 0.445426 0.241825
0.807157 0.44683 0.242481
0.807095 0.448112 0.243137
0.806821 0.453819 0.24625
0.806806 0.46215 0.249897
0.807919 0.471122 0.253651
0.809018 0.479927 0.255589
0.810727 0.488426 0.257481
0.811826 0.496315 0.258137
0.0646983 0.452628 0.181613
0.0656901 0.45156 0.178027
0.0647746 0.45005 0.172793
0.0654154 0.448905 0.166812
0.0655833 0.446723 0.160006
0.0664988 0.445121 0.153475
0.0669718 0.44181 0.14316
0.0677958 0.437613 0.129656
0.0702373 0.429282 0.113787
0.076051 0.418631 0.0940261
0.114305 0.420294 0.0932937
0.233478 0.420127 0.10518
0.338918 0.424262 0.0938888
0.402564 0.433921 0.0791333
0.484962 0.437568 0.0927138
0.568627 0.453849 0.111559
0.663218 0.469535 0.151232
0.725597 0.4804 0.194919
0.764446 0.494728 0.219471
0.797482 0.506523 0.246738
0.813596 0.514504 0.260456
0.813718 0.51426 0.260471
0.813703 0.51487 0.260365
0.813672 0.516075 0.260334
0.813886 0.517571 0.260777
0.814496 0.519585 0.261433
0.815167 0.521157 0.262165
0.815305 0.522683 0.262287
0.815061 0.524575 0.262058
0.816312 0.529961 0.263142
0.8168 0.536904 0.263859
0.818128 0.543984 0.2654
0.819837 0.551873 0.267414
0.0769513 0.532631 0.238178
0.0772259 0.532616 0.235264
0.0818189 0.531395 0.23328
0.0883803 0.529534 0.23151
0.0907454 0.527947 0.226764
0.0916152 0.525261 0.220142
0.0932174 0.522118 0.21004
0.0958267 0.518685 0.196857
0.0978866 0.511833 0.170794
0.101411 0.501381 0.145449
0.11017 0.490211 0.118822
0.17145 0.487846 0.119158
0.323613 0.482628 0.137194
0.415747 0.490303 0.111391
0.471855 0.500923 0.104311
0.548684 0.504601 0.117021
0.630915 0.522057 0.140734
0.718242 0.541131 0.182071
0.77319 0.554589 0.229297
0.799207 0.572244 0.247761
0.821332 0.583947 0.269337
0.822858 0.585794 0.271397
0.822751 0.586435 0.27129
0.822385 0.587549 0.271
0.822461 0.589166 0.271
0.823484 0.591791 0.271916
0.823651 0.593698 0.271962
0.823774 0.59559 0.272053
0.824018 0.596796 0.272206
0.824018 0.596979 0.272221
0.823789 0.595483 0.272068
0.824292 0.599634 0.272862
0.824887 0.605402 0.273335
0.108675 0.613809 0.309407
0.106264 0.613123 0.305211
0.103807 0.611841 0.30103
0.10251 0.611002 0.29601
0.101839 0.609537 0.290333
0.105364 0.607202 0.285359
0.119249 0.604364 0.282643
0.122606 0.599298 0.26952
0.126818 0.593851 0.249821
0.130877 0.583078 0.218769
0.135668 0.569085 0.182681
0.157687 0.556878 0.15108
0.26685 0.548516 0.155734
0.408255 0.545022 0.164858
0.488563 0.556313 0.134981
0.5364 0.566094 0.134524
0.608133 0.570016 0.146868
0.687755 0.58761 0.176593
0.758206 0.608011 0.21799
0.803693 0.626459 0.2598
0.82182 0.642725 0.276768
0.829404 0.649653 0.285985
0.829297 0.650278 0.286305
0.829221 0.651362 0.286656
0.829221 0.653071 0.286992
0.829953 0.65478 0.287831
0.830777 0.656428 0.28925
0.831373 0.657786 0.290578
0.83151 0.658335 0.291005
0.83154 0.658015 0.290898
0.831006 0.656291 0.289494
0.829816 0.653925 0.287526
0.829984 0.652567 0.287526
0.145342 0.69337 0.38172
0.143297 0.693889 0.379248
0.140658 0.693416 0.375784
0.138598 0.692653 0.372229
0.137346 0.6916 0.367788
0.136309 0.690211 0.361624
0.134981 0.686519 0.351812
0.137819 0.683116 0.340291
0.158526 0.676143 0.328664
0.165454 0.666758 0.301549
0.172732 0.652155 0.263081
0.181521 0.634684 0.21799
0.233982 0.619257 0.191562
0.369284 0.607919 0.204379
0.482872 0.609262 0.197177
0.555077 0.621637 0.171542
0.600381 0.632822 0.174929
0.661524 0.634211 0.190372
0.73344 0.651652 0.218341
0.784009 0.669871 0.255848
0.819501 0.68687 0.299657
0.833387 0.699565 0.32221
0.833646 0.701213 0.325917
0.833844 0.70248 0.327108
0.834287 0.704311 0.329122
0.834028 0.705364 0.330144
0.833875 0.706294 0.331197
0.833921 0.70724 0.331777
0.833967 0.707897 0.332128
0.833997 0.707851 0.332052
0.834073 0.705867 0.330434
0.834043 0.702541 0.327001
0.834607 0.698054 0.321798
0.192157 0.762783 0.446601
0.190356 0.762768 0.444144
0.187457 0.762585 0.441138
0.184604 0.762463 0.43888
0.182788 0.762005 0.435401
0.182101 0.761257 0.431556
0.181949 0.759686 0.424949
0.179248 0.756451 0.413245
0.178378 0.75201 0.39736
0.203128 0.742107 0.378943
0.215137 0.72874 0.343038
0.223972 0.711391 0.299763
0.243122 0.69279 0.249653
0.339193 0.673289 0.239292
0.467247 0.664805 0.251774
0.553506 0.670588 0.236561
0.619791 0.683085 0.221866
0.660548 0.695476 0.228336
0.709438 0.695323 0.246296
0.76437 0.70927 0.269612
0.801511 0.725521 0.310292
0.827619 0.738949 0.355489
0.833387 0.744076 0.372274
0.833356 0.744991 0.373709
0.83328 0.745769 0.374563
0.833265 0.746624 0.375204
0.833402 0.747402 0.376303
0.833448 0.747784 0.376959
0.833432 0.747875 0.377157
0.833295 0.747234 0.376349
0.833249 0.745525 0.374762
0.833417 0.743206 0.371923
0.83357 0.739101 0.367117
0.240879 0.812131 0.501778
0.239673 0.811704 0.499474
0.237751 0.81181 0.497322
0.235554 0.811902 0.495201
0.234363 0.811795 0.492958
0.233173 0.810742 0.488899
0.232502 0.809339 0.483772
0.232334 0.808179 0.476234
0.230533 0.803967 0.462348
0.228855 0.799146 0.44332
0.248829 0.787793 0.419745
0.266606 0.770947 0.380163
0.282261 0.752087 0.331807
0.331594 0.730816 0.290898
0.446891 0.714549 0.293492
0.544244 0.712322 0.2981
0.61973 0.72134 0.287648
0.674327 0.732403 0.283299
0.709453 0.742733 0.294179
0.746517 0.743297 0.317998
0.785016 0.754757 0.34786
0.813886 0.766552 0.380804
0.829053 0.775937 0.409277
0.83125 0.77731 0.413687
0.830991 0.777722 0.414115
0.830716 0.778363 0.414832
0.830579 0.778653 0.415015
0.830472 0.778958 0.415351
0.830579 0.778622 0.414984
0.830777 0.778073 0.414618
0.83125 0.776928 0.41297
0.83151 0.774289 0.409598
0.832135 0.770932 0.404364
0.280873 0.842084 0.542657
0.280598 0.841733 0.540734
0.279942 0.841779 0.539269
0.27924 0.841886 0.53782
0.278325 0.841596 0.535363
0.277424 0.84097 0.532723
0.27747 0.839765 0.528389
0.278279 0.837552 0.522377
0.278935 0.835615 0.513939
0.279622 0.832044 0.500587
0.278553 0.825727 0.47892
0.302174 0.812085 0.45153
0.333471 0.794232 0.415137
0.366125 0.772091 0.368917
0.448707 0.753841 0.355108
0.533562 0.748425 0.360082
0.608652 0.751324 0.358328
0.673564 0.759243 0.358907
0.719524 0.770077 0.365408
0.748501 0.778744 0.380209
0.776303 0.781186 0.413733
0.801694 0.788052 0.433082
0.820203 0.795789 0.452934
0.825589 0.798779 0.461173
0.826017 0.799268 0.462913
0.82594 0.799558 0.463554
0.825895 0.79968 0.463874
0.825879 0.799741 0.464027
0.825895 0.799527 0.463539
0.826078 0.798962 0.461921
0.826383 0.797909 0.458747
0.826047 0.796674 0.454063
0.826413 0.794064 0.445975
0.302205 0.853223 0.564279
0.302144 0.852857 0.562615
0.301579 0.852811 0.561563
0.300984 0.852781 0.560327
0.300893 0.852522 0.558785
0.301579 0.851789 0.55668
0.303151 0.850584 0.553155
0.304921 0.849058 0.548837
0.308171 0.84651 0.541726
0.31104 0.844266 0.531579
0.31249 0.839002 0.513954
0.327306 0.830198 0.491768
0.361456 0.816434 0.467506
0.412131 0.79913 0.445472
0.472908 0.782101 0.427924
0.540551 0.777035 0.431388
0.60499 0.779248 0.441093
0.669673 0.783536 0.442176
0.725597 0.791775 0.447608
0.759274 0.800031 0.460227
0.781033 0.806775 0.477531
0.799893 0.808362 0.496529
0.816388 0.812528 0.507591
0.824689 0.816266 0.516487
0.825711 0.816785 0.517968
0.825696 0.816922 0.518471
0.825666 0.816922 0.518486
0.825666 0.816861 0.518227
0.82565 0.816724 0.517845
0.82565 0.81651 0.517067
0.825498 0.816098 0.515114
0.825284 0.815106 0.512108
0.824994 0.812833 0.504875
0.301442 0.854719 0.568429
0.302007 0.853925 0.56669
0.301976 0.853605 0.565652
0.301732 0.853391 0.564202
0.301366 0.853223 0.562707
0.301411 0.852567 0.560296
0.302617 0.851072 0.556466
0.304662 0.849393 0.551614
0.308598 0.84654 0.544381
0.311955 0.843809 0.534142
0.314321 0.839399 0.517784
0.327092 0.83006 0.494362
0.361685 0.816159 0.468482
0.414725 0.801282 0.452796
0.479606 0.789273 0.446693
0.543893 0.785122 0.452567
0.605722 0.7879 0.466835
0.669215 0.792493 0.472053
0.728283 0.800565 0.478126
0.765103 0.808637 0.489616
0.786526 0.815244 0.508156
0.799985 0.817685 0.526558
0.817197 0.820752 0.535531
0.826444 0.824338 0.544244
0.827893 0.824689 0.545571
0.827863 0.824689 0.545571
0.827817 0.824704 0.545602
0.827756 0.824704 0.545647
0.827649 0.82472 0.545708
0.827573 0.82472 0.545754
0.827497 0.824735 0.545769
0.827466 0.824491 0.544533
0.827268 0.823133 0.540063
0.298268 0.856947 0.57322
0.298512 0.856428 0.571572
0.298848 0.856046 0.569772
0.299092 0.855741 0.568536
0.299351 0.855283 0.566934
0.29987 0.854337 0.564874
0.300893 0.852979 0.560922
0.30309 0.850553 0.555337
0.306783 0.847929 0.547723
0.311086 0.844556 0.537102
0.313802 0.840558 0.521141
0.324849 0.831281 0.496452
0.358236 0.817212 0.470054
0.411353 0.802258 0.453574
0.477272 0.789944 0.447318
0.540597 0.785275 0.451957
0.602533 0.788128 0.466392
0.663722 0.792157 0.471809
0.724468 0.799817 0.477394
0.762417 0.808072 0.488457
0.784344 0.814633 0.506615
0.797528 0.817426 0.52401
0.814115 0.820294 0.534966
0.825193 0.823682 0.543069
0.827207 0.824582 0.54583
0.827649 0.824765 0.546349
0.827604 0.824781 0.546365
0.827527 0.824781 0.546395
0.827436 0.824796 0.54641
0.827375 0.824796 0.546395
0.827314 0.824796 0.546395
0.827283 0.824796 0.54638
0.827283 0.824796 0.546349
0.295933 0.858747 0.576883
0.296498 0.858137 0.575097
0.297078 0.857588 0.573632
0.297276 0.857145 0.572091
0.297505 0.856596 0.569879
0.298436 0.855863 0.56759
0.299794 0.854261 0.56437
0.301823 0.851804 0.558022
0.305165 0.848966 0.550286
0.310369 0.845182 0.539315
0.313527 0.841749 0.523995
0.320623 0.832441 0.497139
0.355138 0.818219 0.470893
0.408804 0.802915 0.4542
0.474235 0.790433 0.447471
0.537209 0.785489 0.451637
0.599664 0.788067 0.466041
0.661723 0.792035 0.471794
0.721859 0.799329 0.4766
0.760571 0.807523 0.487526
0.782406 0.813993 0.504662
0.796094 0.816785 0.521584
0.81181 0.819669 0.534051
0.823148 0.822873 0.541466
0.826825 0.824521 0.545663
0.827436 0.824796 0.546441
0.82739 0.824796 0.546441
0.827314 0.824796 0.546471
0.827253 0.824811 0.546487
0.827176 0.824811 0.546502
0.827161 0.824811 0.546502
0.827146 0.824811 0.546517
0.827161 0.824811 0.546532
0.293858 0.860227 0.580209
0.294728 0.859541 0.578195
0.295293 0.858976 0.576257
0.295689 0.858396 0.574212
0.296208 0.857771 0.572839
0.297078 0.856764 0.569726
0.298726 0.855253 0.566094
0.300694 0.852949 0.560418
0.304402 0.849638 0.551949
0.309789 0.845563 0.541207
0.312917 0.842451 0.526055
0.316121 0.833555 0.497551
0.352682 0.818952 0.471641
0.407324 0.803342 0.45449
0.472328 0.790799 0.447562
0.535409 0.785733 0.451667
0.59765 0.788052 0.465736
0.659419 0.792035 0.471946
0.719692 0.799039 0.476402
0.759167 0.807034 0.486915
0.78088 0.813458 0.502937
0.794446 0.816419 0.520211
0.810605 0.81944 0.532937
0.821591 0.822477 0.539742
0.826642 0.824475 0.54493
0.827329 0.824765 0.546059
0.827298 0.824781 0.546105
0.827237 0.824781 0.546136
0.827176 0.824781 0.546151
0.827146 0.824781 0.546181
0.8271 0.824781 0.546181
0.8271 0.824796 0.546227
0.827131 0.824781 0.546227
0.291615 0.862211 0.582528
0.292638 0.86096 0.58085
0.293767 0.859998 0.578485
0.294545 0.859449 0.576562
0.295232 0.858656 0.574182
0.29604 0.857679 0.571984
0.29781 0.856138 0.567666
0.300114 0.853742 0.562417
0.303456 0.850324 0.553552
0.308873 0.846204 0.542885
0.312749 0.842924 0.527352
0.315557 0.834409 0.499458
0.350408 0.81973 0.472389
0.405585 0.803876 0.454902
0.46952 0.791394 0.447974
0.533074 0.786099 0.451804
0.59559 0.788128 0.465339
0.656703 0.79202 0.472129
0.71783 0.798733 0.476204
0.757824 0.806729 0.486442
0.779858 0.813352 0.502434
0.793805 0.816663 0.518441
0.808835 0.819272 0.531975
0.820584 0.822049 0.538842
0.826291 0.824399 0.544396
0.827344 0.824735 0.545708
0.827314 0.82475 0.545724
0.827253 0.82475 0.545754
0.827192 0.824765 0.545785
0.827161 0.824765 0.545815
0.827115 0.824765 0.54583
0.827115 0.824765 0.545846
0.827161 0.824765 0.54583
0.290211 0.863401 0.583947
0.291661 0.861967 0.581949
0.292744 0.860685 0.579705
0.293919 0.859892 0.577798
0.294606 0.859266 0.575677
0.295476 0.858274 0.573312
0.296696 0.856809 0.569162
0.299275 0.854398 0.563882
0.302907 0.850767 0.55523
0.307973 0.846906 0.544259
0.31249 0.843427 0.529015
0.315206 0.835019 0.501198
0.347601 0.820752 0.47361
0.40267 0.8047 0.45565
0.466743 0.791791 0.448127
0.530404 0.786465 0.451896
0.592508 0.788098 0.464775
0.65449 0.791943 0.472114
0.71577 0.798398 0.476097
0.756161 0.806409 0.486137
0.778653 0.813031 0.501244
