bundles/resolve-cinematic-luts/Phantom Luts/P4k & P6K Phntm Film LUTs - V6/P6k/Gen 5 Colour/P6k EastmanRM Gen5-Legacy.cube
TITLE "Generated by Resolve"
LUT_3D_SIZE 33
0.0441749 0.0409705 0.0428931
0.044419 0.0407111 0.0425574
0.0451057 0.0401465 0.0416266
0.0491951 0.0395361 0.0406043
0.0563363 0.0393072 0.0395666
0.0651255 0.0390631 0.0383154
0.0781415 0.0387427 0.037232
0.0977493 0.038819 0.0369573
0.119722 0.0383154 0.0366827
0.140673 0.0377203 0.037232
0.166018 0.0377661 0.0381018
0.197726 0.0379339 0.0393683
0.235111 0.037995 0.041062
0.283604 0.037171 0.0429694
0.338079 0.0361028 0.0442512
0.390021 0.0346685 0.0471351
0.440238 0.033402 0.0502937
0.486442 0.0334478 0.0547646
0.528695 0.0348211 0.0612192
0.564157 0.037995 0.0699626
0.591913 0.0441291 0.0814374
0.614725 0.0509651 0.0926528
0.624018 0.0541543 0.0971847
0.625116 0.0545663 0.0980545
0.625772 0.0549325 0.0986954
0.626535 0.0552987 0.0994125
0.627146 0.0555734 0.0999161
0.627604 0.0558175 0.100298
0.625986 0.0563211 0.10251
0.620966 0.0573739 0.107439
0.613916 0.058732 0.113878
0.6009 0.0611887 0.126055
0.587259 0.063859 0.13846
0.0449836 0.0402228 0.0417334
0.0446632 0.0404974 0.0421607
0.0450141 0.0401923 0.0416876
0.0489357 0.0397192 0.0405127
0.0541543 0.0401007 0.0398108
0.0607614 0.0403449 0.0389868
0.0707103 0.0406043 0.0384527
0.0903334 0.0407568 0.0377661
0.114855 0.0396429 0.0370794
0.137316 0.038468 0.0371862
0.162417 0.0381323 0.0383001
0.194125 0.0383459 0.0397803
0.23505 0.0381476 0.0411231
0.288609 0.0368353 0.0424201
0.344182 0.0356146 0.0436408
0.39678 0.0342412 0.04654
0.445899 0.0330968 0.0497139
0.491295 0.0332341 0.0538949
0.532845 0.0347295 0.0608682
0.56733 0.0385748 0.0705272
0.594171 0.044831 0.0814527
0.615381 0.0513313 0.0920882
0.62356 0.0539864 0.0960403
0.624659 0.0544594 0.09691
0.62536 0.0547951 0.097612
0.626001 0.0551614 0.0982376
0.626657 0.0554665 0.0986191
0.627131 0.0556802 0.0990311
0.625605 0.0561532 0.100923
0.620478 0.0571756 0.106081
0.613413 0.0585641 0.112657
0.600366 0.0610666 0.124636
0.586709 0.0637369 0.137301
0.0449989 0.0402228 0.0417182
0.0446784 0.0404974 0.0421607
0.0450141 0.0401923 0.0416876
0.0475471 0.0398413 0.0404364
0.0525216 0.0407416 0.0398108
0.0581979 0.0417487 0.0395056
0.0655833 0.0429084 0.0395666
0.0806897 0.0429999 0.0392462
0.106462 0.0419013 0.0384527
0.133639 0.0396582 0.0377356
0.161059 0.0386664 0.0383612
0.192218 0.0391699 0.0401312
0.232776 0.0390936 0.0420996
0.28957 0.0373999 0.0432136
0.348699 0.0356298 0.0435798
0.403265 0.0340276 0.0460365
0.452491 0.0330205 0.0491035
0.496986 0.0330816 0.0535897
0.537057 0.0348516 0.0608072
0.570459 0.0391852 0.0708171
0.596628 0.0458076 0.0817578
0.616129 0.051545 0.09131
0.623026 0.0537728 0.0946059
0.624048 0.0543374 0.0957809
0.624949 0.0546578 0.0963912
0.625422 0.0549172 0.0969406
0.625925 0.0552377 0.0973983
0.626398 0.0554513 0.0978408
0.625132 0.0558633 0.0996719
0.619821 0.0569314 0.104784
0.612787 0.05832 0.111315
0.599619 0.060853 0.123064
0.585946 0.063508 0.135714
0.0463722 0.0470283 0.0437476
0.0453956 0.0474861 0.0443427
0.0452735 0.047425 0.0444343
0.0462806 0.0465705 0.0440681
0.0493477 0.0480201 0.043946
0.0543984 0.0483101 0.0432746
0.0619821 0.0475929 0.0422065
0.0758984 0.0462806 0.0408789
0.0996262 0.0449989 0.0405737
0.129152 0.0420844 0.0391394
0.159762 0.0404974 0.0390478
0.193439 0.0401007 0.0404212
0.233295 0.0398566 0.042649
0.289693 0.0380255 0.0437324
0.349783 0.0363165 0.0445869
0.406653 0.0344396 0.04654
0.458549 0.0331273 0.0489357
0.502556 0.0331121 0.0534676
0.541299 0.0349889 0.0606088
0.572839 0.0397192 0.0708934
0.599619 0.0467384 0.0821393
0.616815 0.0515908 0.090486
0.622217 0.0534371 0.0929274
0.623407 0.0540627 0.0940719
0.624369 0.0545205 0.0950942
0.62504 0.0547646 0.0958267
0.625406 0.0550088 0.0962081
0.625772 0.0552529 0.0965133
0.624582 0.0556649 0.0982223
0.61915 0.0567483 0.103517
0.612177 0.0580911 0.109911
0.598962 0.0606241 0.121721
0.585199 0.0632792 0.134279
0.0475624 0.0539712 0.0467536
0.0464637 0.0543526 0.0471351
0.0463569 0.0541848 0.0467384
0.0471809 0.054139 0.0467079
0.0493019 0.0544594 0.0464637
0.0533455 0.054551 0.0463722
0.0618448 0.0546273 0.0451972
0.0764782 0.0532692 0.0438392
0.10132 0.051133 0.043122
0.129259 0.0481575 0.0426032
0.161669 0.0443885 0.0412604
0.195331 0.0418097 0.0412757
0.237568 0.0405432 0.0427253
0.293004 0.0383612 0.0438239
0.351568 0.0371405 0.0457465
0.40676 0.0351415 0.0478828
0.459266 0.0338903 0.0506142
0.505211 0.0337835 0.0545663
0.543679 0.0356298 0.0615244
0.573083 0.0405585 0.0719615
0.600412 0.0478676 0.0838636
0.615366 0.0519112 0.0911116
0.618647 0.0530556 0.0929732
0.620005 0.0538643 0.094316
0.621057 0.05449 0.0954757
0.621866 0.0549477 0.0962844
0.622309 0.0552224 0.096788
0.622171 0.0555123 0.097673
0.621378 0.0558328 0.0988479
0.617395 0.0566567 0.102876
0.611139 0.057908 0.108446
0.59823 0.0603799 0.11989
0.584451 0.0630503 0.132601
0.0488136 0.0609751 0.0489967
0.0473793 0.0617227 0.0497749
0.0471809 0.0615549 0.0492561
0.048249 0.0610819 0.0484627
0.0494545 0.0616159 0.0488594
0.052079 0.0620279 0.0482643
0.0594644 0.0623026 0.0485542
0.0757458 0.0611429 0.0473335
0.0999619 0.0593576 0.046128
0.12961 0.0559701 0.0451514
0.162173 0.0518044 0.0443427
0.201923 0.0473335 0.0433204
0.247623 0.043061 0.0434119
0.3037 0.0396124 0.0439612
0.357687 0.0380407 0.0458381
0.410452 0.0357214 0.0485695
0.460182 0.0345922 0.0520027
0.505272 0.0346685 0.0570382
0.543252 0.0371405 0.0647593
0.57171 0.0420539 0.0750744
0.598489 0.049012 0.0871138
0.612238 0.052842 0.0930648
0.614069 0.0533913 0.0944991
0.614481 0.0536965 0.0953384
0.615122 0.0541848 0.0961318
0.615961 0.0546426 0.0969558
0.616556 0.0550393 0.0974594
0.616983 0.0553597 0.0979324
0.617258 0.0556039 0.0983749
0.614511 0.0562753 0.101244
0.60914 0.0573587 0.106203
0.596399 0.0598154 0.117235
0.582788 0.0624247 0.129763
0.050309 0.0725872 0.0512398
0.0489052 0.0736248 0.0521859
0.0484932 0.07364 0.0517586
0.0495308 0.0729229 0.0507668
0.0520027 0.0721141 0.0499428
0.0565347 0.0724651 0.0492866
0.0644846 0.0727855 0.047715
0.0830701 0.0717784 0.0473182
0.111818 0.0699168 0.0470588
0.138415 0.0679026 0.0460059
0.168963 0.0652171 0.0459449
0.207294 0.062211 0.046952
0.261006 0.0535897 0.0458991
0.319585 0.0449073 0.0451667
0.371176 0.0396277 0.0463264
0.419409 0.0365301 0.0484169
0.465156 0.035172 0.0522164
0.508919 0.0356451 0.0576638
0.546624 0.038468 0.0664378
0.574243 0.0436561 0.0771344
0.59968 0.0505989 0.0885023
0.615137 0.0550546 0.0946212
0.615259 0.0551308 0.0946975
0.615518 0.0552682 0.0949416
0.615808 0.0554208 0.0952468
0.616083 0.0555581 0.095491
0.616388 0.0556954 0.0957504
0.616648 0.0558175 0.0959029
0.616922 0.0559243 0.096025
0.615183 0.0564126 0.0975052
0.611673 0.057145 0.100557
0.603555 0.0586557 0.107683
0.594842 0.0603494 0.11516
0.0579538 0.0861372 0.0512703
0.0542458 0.0879988 0.0528878
0.051667 0.0893111 0.054551
0.0517891 0.0895552 0.0538643
0.0538033 0.0890822 0.0527047
0.0586099 0.0881361 0.0516213
0.0657816 0.0887312 0.051194
0.0798657 0.0905318 0.0502785
0.10573 0.0890822 0.0502327
0.139879 0.0864118 0.0502785
0.172305 0.0830854 0.049836
0.2103 0.0788739 0.0500801
0.262364 0.071519 0.0503395
0.327138 0.059266 0.0493324
0.38645 0.0484169 0.0479438
0.436255 0.0410163 0.049134
0.479255 0.0381323 0.0526741
0.518227 0.0379034 0.058381
0.55108 0.040116 0.0663157
0.578058 0.0454566 0.0773632
0.603265 0.0534981 0.0889906
0.620188 0.0584268 0.0958267
0.62031 0.0585184 0.0958572
0.620417 0.0586252 0.0958724
0.620493 0.0587015 0.0958724
0.620554 0.058793 0.0958572
0.62063 0.0588693 0.0958572
0.620691 0.0589609 0.0958572
0.620752 0.0590524 0.0958572
0.618936 0.0595102 0.0971542
0.615366 0.0601663 0.0998398
0.607584 0.0616312 0.107225
0.598779 0.063386 0.114702
0.061799 0.103578 0.055024
0.0571756 0.105898 0.0568856
0.0541848 0.107591 0.0584421
0.053727 0.107591 0.0577249
0.055375 0.107073 0.0560922
0.0601358 0.106142 0.0543374
0.0682841 0.105959 0.0538491
0.0812085 0.107958 0.0548104
0.100008 0.10988 0.0541848
0.131884 0.107591 0.0544137
0.173205 0.104234 0.0544289
0.216983 0.100008 0.0542153
0.273884 0.0915541 0.0535744
0.33193 0.084596 0.0540322
0.392767 0.0760204 0.0550698
0.454047 0.0598306 0.0534524
0.502098 0.0515908 0.0565042
0.539879 0.0479133 0.0607462
0.568215 0.0482795 0.0689403
0.590646 0.0533303 0.0797131
0.614252 0.0612802 0.0913863
0.629526 0.0657359 0.097734
0.628367 0.0645609 0.0970626
0.6271 0.0635996 0.096849
0.626627 0.0632792 0.096788
0.626871 0.0634623 0.0968185
0.627131 0.0636454 0.0968338
0.627344 0.063798 0.0968338
0.627543 0.0639506 0.0968032
0.625772 0.0644999 0.0982528
0.62266 0.0652781 0.101396
0.614572 0.0670176 0.108003
0.606012 0.0688792 0.115984
0.0667124 0.123857 0.060502
0.0616617 0.126299 0.0627298
0.057557 0.128374 0.0641337
0.0562142 0.12932 0.0640421
0.0559396 0.129274 0.0629587
0.0575875 0.128801 0.0603799
0.0623941 0.128725 0.0594492
0.0760052 0.129839 0.0602274
0.0978561 0.132677 0.0609751
0.123522 0.134691 0.0591135
0.165713 0.13164 0.0600137
0.219699 0.127672 0.0599527
0.285878 0.119066 0.0585336
0.352102 0.110704 0.0579843
0.409033 0.109804 0.0607767
0.47071 0.104967 0.063798
0.528527 0.101244 0.0695506
0.578012 0.0888991 0.0704356
0.614374 0.0864881 0.0794537
0.640055 0.0918135 0.09514
0.663523 0.0999161 0.109148
0.676509 0.103655 0.11632
0.666545 0.0961318 0.112551
0.66186 0.0918288 0.110567
0.661555 0.0915389 0.110628
0.661906 0.091783 0.110857
0.662974 0.0925307 0.111284
0.66389 0.0935531 0.112001
0.664958 0.094789 0.112749
0.664637 0.0964523 0.114458
0.662791 0.0979019 0.11809
0.656703 0.101122 0.126284
0.64921 0.104402 0.134798
0.0725872 0.149111 0.0686198
0.0659037 0.151843 0.0712596
0.0614176 0.154147 0.072755
0.0594492 0.15552 0.0720836
0.0586099 0.156222 0.0707256
0.0591287 0.155825 0.0684367
0.0619974 0.155245 0.0656748
0.0706035 0.155764 0.0647135
0.0929427 0.158709 0.0662089
0.121569 0.163851 0.0673075
0.154147 0.168383 0.0649271
0.21622 0.165362 0.0664683
0.295003 0.161212 0.0670787
0.375769 0.153994 0.0692302
0.446662 0.152163 0.0710613
0.50309 0.154864 0.0766613
0.564324 0.155322 0.086244
0.623163 0.156268 0.098085
0.678126 0.161593 0.115633
0.716503 0.165255 0.132189
0.74667 0.17116 0.14638
0.758785 0.17525 0.154681
0.753964 0.171527 0.153613
0.749294 0.167742 0.152117
0.745663 0.165209 0.151156
0.743862 0.164034 0.151064
0.743297 0.163897 0.151293
0.743542 0.164508 0.151797
0.744335 0.165438 0.152377
0.744762 0.167178 0.153933
0.744778 0.169543 0.156664
0.741619 0.17293 0.163363
0.736095 0.177081 0.171679
0.0788739 0.181308 0.0778363
0.0708324 0.184298 0.0805219
0.0650492 0.186923 0.0816052
0.0625315 0.188357 0.0809186
0.0612345 0.18938 0.0789197
0.0611276 0.189776 0.0752422
0.0618906 0.18909 0.0719615
0.0658427 0.188617 0.0686198
0.0804761 0.191836 0.0682689
0.113039 0.200046 0.0708629
0.150088 0.212314 0.0736553
0.201801 0.225818 0.0728161
0.299123 0.224735 0.0751812
0.394156 0.22678 0.0792096
0.482628 0.219974 0.0882124
0.550195 0.218265 0.0919356
0.602945 0.221027 0.0984512
0.664744 0.221195 0.111238
0.723751 0.227253 0.130816
0.769375 0.240955 0.159289
0.800809 0.256291 0.184863
0.8121 0.26247 0.193805
0.81178 0.261799 0.19408
0.81004 0.26006 0.193759
0.809049 0.258747 0.19382
0.808576 0.258335 0.194064
0.808423 0.258503 0.194308
0.808576 0.259388 0.194491
0.809308 0.260716 0.19498
0.810178 0.262333 0.195636
0.81062 0.264408 0.195895
0.808011 0.267597 0.200061
0.802609 0.271611 0.207202
0.0786145 0.229084 0.0827802
0.0704662 0.232837 0.0861067
0.0644999 0.236301 0.0885634
0.0623484 0.238666 0.088014
0.0608377 0.24033 0.0853132
0.0607767 0.241398 0.0807507
0.0613107 0.241398 0.0747082
0.0632944 0.239094 0.0690318
0.0699016 0.240009 0.0655375
0.0948806 0.249699 0.0668803
0.140139 0.269078 0.0744335
0.200549 0.293706 0.0814374
0.280705 0.311986 0.0800946
0.394202 0.310887 0.0827192
0.49247 0.31043 0.0888075
0.574472 0.298665 0.0966049
0.645426 0.292256 0.107012
0.698039 0.296727 0.113985
0.753155 0.297581 0.131518
0.800931 0.310201 0.161776
0.830839 0.324758 0.194339
0.839536 0.331991 0.204425
0.840604 0.333257 0.205402
0.840299 0.332723 0.205234
0.840284 0.332753 0.205219
0.84062 0.333257 0.205432
0.841428 0.334112 0.206241
0.841856 0.335653 0.206531
0.842191 0.337346 0.206516
0.842741 0.339315 0.20676
0.843244 0.340948 0.206867
0.84123 0.344182 0.210925
0.835721 0.34847 0.218631
0.0811627 0.296712 0.0909285
0.0736095 0.30042 0.0942702
0.0677348 0.303609 0.0966812
0.0644236 0.306111 0.0963607
0.0628061 0.308644 0.0963607
0.0619364 0.310369 0.0923323
0.0616922 0.311238 0.0858015
0.0628977 0.31046 0.0767681
0.0644999 0.307073 0.0684977
0.0755932 0.310735 0.0644236
0.113008 0.32636 0.0670481
0.176104 0.350393 0.0749371
0.275044 0.382864 0.0844434
0.369619 0.402365 0.0825818
0.487358 0.399084 0.0902113
0.579049 0.398108 0.101549
0.656413 0.383307 0.10837
0.726879 0.369985 0.125246
0.77879 0.373083 0.139651
0.818738 0.381903 0.163745
0.850187 0.392752 0.202075
0.859632 0.401816 0.215702
0.861006 0.404028 0.217868
0.861021 0.404318 0.217823
0.861097 0.40499 0.217838
0.861418 0.406348 0.218067
0.86186 0.407889 0.218402
0.862226 0.409888 0.218738
0.862455 0.412161 0.21912
0.862959 0.414115 0.219577
0.863432 0.416388 0.219974
0.860838 0.419654 0.224247
0.855451 0.424002 0.233143
0.0746777 0.366705 0.0948653
0.0678416 0.370291 0.0997024
0.0628672 0.373251 0.104204
0.059968 0.375662 0.104067
0.0580606 0.377981 0.103532
0.0575875 0.379812 0.100145
0.0573739 0.380743 0.0932021
0.0577707 0.380926 0.082414
0.0589456 0.379416 0.0719158
0.0616007 0.375952 0.0622721
0.0780652 0.382757 0.0581369
0.131624 0.401312 0.0617533
0.234318 0.434684 0.0747387
0.361944 0.474647 0.0896925
0.458534 0.492882 0.0906539
0.566232 0.48867 0.104707
0.653895 0.486748 0.123125
0.725643 0.472602 0.135744
0.78764 0.452995 0.157839
0.83563 0.452598 0.190021
0.859724 0.466728 0.215473
0.873243 0.476432 0.235218
0.874617 0.47776 0.237461
0.874678 0.478431 0.237552
0.874937 0.479606 0.237949
0.875166 0.481239 0.238453
0.875242 0.482872 0.238758
0.875776 0.484779 0.239567
0.875608 0.486442 0.23975
0.876051 0.488869 0.240696
0.876417 0.491203 0.241642
0.874128 0.494591 0.246754
0.868315 0.497963 0.255253
0.0668803 0.435508 0.103151
0.0621653 0.439078 0.111284
0.0584573 0.442542 0.117418
0.0567636 0.44535 0.11902
0.0553597 0.447349 0.118532
0.054963 0.448951 0.115694
0.0546578 0.450462 0.109392
0.0546273 0.451072 0.0994125
0.0555123 0.450843 0.0853285
0.0574655 0.44831 0.0718547
0.0622568 0.445151 0.0593881
0.0920729 0.454994 0.0563363
0.18262 0.478172 0.0647746
0.327321 0.527047 0.0923476
0.456184 0.562997 0.109941
0.541924 0.57731 0.113603
0.635386 0.571084 0.130083
0.719295 0.567941 0.158099
0.782788 0.555489 0.183749
0.831891 0.536721 0.209628
0.869383 0.532784 0.247196
0.884153 0.546777 0.263142
0.886091 0.552651 0.265431
0.886412 0.554574 0.266056
0.886488 0.555627 0.266255
0.8869 0.55729 0.266789
0.887358 0.559258 0.267521
0.887587 0.56144 0.268284
0.887861 0.563729 0.268925
0.888395 0.56614 0.270069
0.88893 0.568704 0.27126
0.886809 0.572106 0.276158
0.882078 0.575921 0.285466
0.0735027 0.505531 0.139803
0.0680858 0.508888 0.149706
0.0643778 0.512657 0.158801
0.0627756 0.51577 0.162097
0.061677 0.518166 0.163378
0.0616159 0.519844 0.15996
0.0619669 0.521187 0.153323
0.0621805 0.521859 0.142672
0.0630045 0.521767 0.126131
0.0654002 0.519936 0.103334
0.0700542 0.515373 0.0825513
0.0838636 0.51519 0.06981
0.147265 0.527871 0.0687266
0.278416 0.561349 0.089601
0.43035 0.61619 0.128573
0.541466 0.643198 0.144488
0.614618 0.656123 0.151797
0.697429 0.649363 0.172625
0.777462 0.644923 0.219287
0.83154 0.63827 0.258457
0.867094 0.628016 0.284947
0.890135 0.624933 0.306889
0.895033 0.638773 0.31194
0.895903 0.640192 0.313252
0.89601 0.642542 0.315679
0.896147 0.644968 0.31722
0.896727 0.647334 0.319295
0.896864 0.649821 0.321675
0.897169 0.652827 0.324239
0.897917 0.655665 0.32665
0.898314 0.658778 0.329564
0.897337 0.662211 0.333898
0.896239 0.665888 0.341543
0.0926986 0.574517 0.202731
0.0891585 0.577951 0.211215
0.0858778 0.582147 0.220874
0.0842298 0.585061 0.226032
0.0830091 0.587488 0.227893
0.0834974 0.589044 0.226184
0.0840162 0.590127 0.22005
0.0848096 0.590219 0.210544
0.0867323 0.58999 0.197024
0.090837 0.58822 0.174395
0.0977493 0.583963 0.144366
0.109331 0.578424 0.113924
0.152834 0.582025 0.0968795
0.253544 0.602152 0.105028
0.392065 0.649027 0.148501
0.524193 0.697063 0.186343
0.619364 0.720043 0.20383
0.681941 0.732189 0.218448
0.755611 0.725643 0.244816
0.828168 0.721187 0.297368
0.873137 0.721263 0.343084
0.899184 0.721416 0.375097
0.909087 0.725612 0.392844
0.910643 0.730526 0.398062
0.911208 0.732723 0.400015
0.911879 0.73492 0.402472
0.912016 0.736965 0.404227
0.912444 0.739178 0.406485
0.912978 0.741619 0.408759
0.913451 0.744213 0.411292
0.913695 0.746609 0.41352
0.914351 0.749126 0.416083
0.914763 0.751797 0.418997
0.139635 0.638376 0.274998
0.139162 0.640894 0.280735
0.136385 0.644312 0.289219
0.13547 0.647562 0.295186
0.135943 0.649958 0.29929
0.137194 0.650935 0.297765
0.139116 0.651392 0.293141
0.141451 0.650935 0.285069
0.144915 0.649882 0.274067
0.149355 0.647517 0.256046
0.155154 0.642359 0.23006
0.164645 0.635966 0.19852
0.188479 0.63183 0.167132
0.260502 0.645182 0.159686
0.371725 0.677531 0.186221
0.491127 0.725383 0.233036
0.603387 0.767193 0.270268
0.687343 0.789364 0.291783
0.743679 0.801709 0.310552
0.807813 0.797833 0.335836
0.870451 0.793484 0.383444
0.907958 0.795071 0.424598
0.92108 0.799741 0.451987
0.922744 0.804181 0.465339
0.922972 0.805966 0.467262
0.923033 0.807828 0.468956
0.923201 0.810193 0.470619
0.923262 0.811933 0.472404
0.923552 0.813733 0.474372
0.923842 0.815641 0.476356
0.923781 0.817624 0.478202
0.923812 0.819806 0.47985
0.924346 0.821881 0.482185
0.209277 0.690501 0.340505
0.208469 0.692576 0.345037
0.205951 0.695537 0.353582
0.204913 0.698238 0.360067
0.20444 0.700328 0.364019
0.205859 0.701106 0.363058
0.207645 0.700923 0.359335
0.209155 0.700252 0.353658
0.212039 0.698543 0.344213
0.215198 0.695888 0.330053
0.219379 0.691157 0.30985
0.227588 0.685588 0.283452
0.244648 0.681422 0.25449
0.287678 0.684611 0.232486
0.373129 0.706325 0.24097
0.471611 0.742657 0.276204
0.577432 0.788434 0.32459
0.67715 0.82623 0.364248
0.749065 0.846906 0.389227
0.798444 0.858656 0.412161
0.85034 0.857923 0.439307
0.897093 0.853925 0.47306
0.919402 0.856428 0.502647
0.924712 0.861906 0.521508
0.924453 0.864424 0.526238
0.923919 0.866041 0.527306
0.923842 0.86775 0.529442
0.923964 0.869764 0.532006
0.923796 0.871427 0.534005
0.923781 0.87277 0.53608
0.923598 0.873854 0.538338
0.923217 0.874998 0.540612
0.922774 0.876066 0.542245
0.270344 0.729412 0.392508
0.268101 0.730632 0.396429
0.264302 0.732677 0.40322
0.261509 0.734356 0.408331
0.259907 0.735195 0.411185
0.25977 0.735241 0.410361
0.259754 0.734783 0.40734
0.26067 0.733394 0.402258
0.261875 0.731365 0.39469
0.2636 0.728878 0.384512
0.264866 0.724804 0.368139
0.273487 0.72076 0.347387
0.289998 0.718379 0.325414
0.322393 0.719493 0.304463
0.384009 0.730617 0.299901
0.46389 0.754879 0.323552
0.553933 0.791241 0.368048
0.651148 0.834775 0.422583
0.738903 0.869047 0.468299
0.800778 0.887709 0.50045
0.842283 0.89778 0.527184
0.88043 0.899184 0.550744
0.908736 0.89836 0.570611
0.917418 0.901106 0.588403
0.916899 0.903746 0.598032
0.916426 0.905058 0.600275
0.915755 0.906477 0.603067
0.915221 0.907988 0.606012
0.914687 0.909209 0.608759
0.914412 0.910353 0.61149
0.914641 0.910597 0.611749
0.915251 0.910719 0.610727
0.916289 0.910658 0.60882
0.297002 0.741192 0.405432
0.295003 0.741924 0.408026
0.289616 0.743542 0.415686
0.285863 0.744884 0.421317
0.283192 0.745769 0.424949
0.282185 0.74551 0.423941
0.28188 0.744808 0.420951
0.282841 0.743496 0.415473
0.28394 0.741634 0.407828
0.285573 0.739422 0.398718
0.288106 0.736248 0.385611
0.295735 0.733043 0.366918
0.313405 0.732311 0.350988
0.345556 0.735073 0.337224
0.40058 0.744015 0.334615
0.473701 0.764019 0.354849
0.55375 0.793622 0.394507
0.644221 0.834012 0.449577
0.737469 0.874159 0.505882
0.807767 0.898207 0.545754
0.848096 0.9084 0.57322
0.877028 0.913558 0.593912
0.903288 0.915084 0.611078
0.914809 0.915862 0.624659
0.91545 0.917189 0.632898
0.915434 0.91754 0.634287
0.915343 0.917891 0.635767
0.914885 0.91841 0.63798
0.914214 0.919036 0.641154
0.91313 0.919707 0.645777
0.912825 0.920104 0.64799
0.913039 0.920089 0.647288
0.913924 0.919722 0.644282
0.297063 0.742611 0.410208
0.294835 0.743145 0.413123
0.289876 0.745052 0.421057
0.286381 0.74638 0.426322
0.283299 0.74696 0.429648
0.282109 0.746548 0.428321
0.281636 0.745769 0.42504
0.2822 0.744457 0.419272
0.28336 0.742489 0.411337
0.284855 0.740063 0.401419
0.287694 0.736828 0.388067
0.294865 0.733303 0.368322
0.312718 0.732662 0.352682
0.347173 0.737011 0.345266
0.40209 0.746288 0.346548
0.472374 0.764324 0.366979
0.552407 0.792828 0.405661
0.639597 0.831022 0.45803
0.735546 0.873564 0.515496
0.809339 0.899535 0.559503
0.847089 0.909712 0.588983
0.873884 0.914946 0.609949
0.898497 0.918334 0.62855
0.910933 0.919356 0.640543
0.913085 0.919966 0.646265
0.913115 0.920058 0.646998
0.913008 0.920104 0.647395
0.912703 0.920226 0.64863
0.911894 0.920531 0.650858
0.910903 0.920897 0.653941
0.910567 0.921004 0.655039
0.91075 0.920928 0.654353
0.911482 0.920668 0.651911
0.292287 0.746166 0.424308
0.291341 0.746166 0.424521
0.288518 0.747082 0.428153
0.285878 0.747677 0.431083
0.283345 0.747936 0.433112
0.282322 0.747463 0.431754
0.281743 0.746471 0.428382
0.281727 0.745052 0.421912
0.282963 0.743099 0.413855
0.28452 0.740475 0.403235
0.287465 0.737133 0.389258
0.294575 0.733532 0.369467
0.311894 0.732418 0.352468
0.347707 0.737102 0.345174
0.402548 0.746593 0.347692
0.472236 0.764508 0.369268
0.550774 0.792493 0.408164
0.640543 0.831571 0.461128
0.736919 0.874098 0.517311
0.809079 0.899489 0.559838
0.846677 0.909712 0.589929
0.872267 0.915145 0.613291
0.896025 0.918822 0.634073
0.907973 0.920211 0.647578
0.910216 0.920974 0.654444
0.910277 0.921126 0.655787
0.910262 0.921141 0.655818
0.909911 0.921263 0.656779
0.909377 0.921477 0.658473
0.908507 0.921782 0.661051
0.907958 0.921996 0.662791
0.907866 0.922026 0.663096
0.908171 0.921904 0.661982
0.285161 0.749783 0.43888
0.286549 0.748943 0.43563
0.286473 0.748592 0.434241
0.28513 0.748577 0.434516
0.283284 0.748638 0.435523
0.282399 0.748135 0.434134
0.281819 0.747066 0.430533
0.281712 0.745647 0.424445
0.282765 0.743587 0.415839
0.284321 0.74081 0.4047
0.287373 0.73724 0.389548
0.294682 0.733593 0.369711
0.313008 0.73257 0.352178
0.349828 0.737484 0.345174
0.404379 0.747066 0.347951
0.475074 0.76553 0.371725
0.552132 0.793225 0.411795
0.641993 0.83241 0.465995
0.738582 0.875074 0.521859
0.809201 0.899611 0.562341
0.847028 0.909911 0.590677
0.872923 0.915831 0.614404
0.895781 0.918868 0.635096
0.907546 0.920348 0.648554
0.909606 0.921218 0.656214
0.909545 0.921401 0.657832
0.909545 0.921401 0.657832
0.9093 0.921492 0.658747
0.908751 0.921706 0.660304
0.907973 0.921981 0.662745
0.907576 0.922133 0.664057
0.907301 0.92221 0.664637
0.907347 0.92221 0.664561
0.282414 0.751446 0.446097
0.283635 0.750622 0.442679
0.28455 0.749889 0.439506
0.284504 0.749416 0.438056
0.283314 0.749172 0.437568
0.282475 0.748623 0.436088
0.281849 0.747585 0.432441
0.281682 0.745922 0.425574
0.282551 0.743801 0.416632
0.284245 0.740963 0.405386
0.287419 0.737224 0.389487
0.295293 0.733593 0.369177
0.31458 0.73286 0.351751
0.35314 0.738003 0.345083
0.407202 0.747585 0.348333
0.480003 0.767224 0.373983
0.557107 0.795193 0.414755
0.647059 0.834913 0.470542
0.742123 0.876463 0.52697
0.809476 0.900008 0.566873
0.847211 0.910246 0.593622
0.873472 0.916152 0.616022
0.895796 0.918853 0.635889
0.9084 0.920333 0.64863
0.909606 0.921233 0.656367
0.909545 0.921401 0.657832
0.909545 0.921401 0.657832
0.9093 0.921492 0.658747
0.908751 0.921706 0.660304
0.907973 0.921981 0.662745
0.907576 0.922133 0.664057
0.907301 0.92221 0.664637
0.907301 0.92221 0.664637
0.282048 0.752087 0.448753
0.28249 0.751507 0.446265
0.283284 0.750851 0.443702
0.283604 0.750195 0.441138
0.283101 0.749722 0.439506
0.282475 0.748989 0.43743
0.281849 0.747845 0.433341
0.281666 0.74609 0.426596
0.28246 0.743969 0.417288
