bundles/resolve-cinematic-luts/Phantom Luts/P4k & P6K Phntm Film LUTs - V6/P4K/Gen 5 Colour/White Balance Offset (+Magenta Boost)/P4k Eterna Gen5-Legacy WBO.cube
TITLE "Generated by Resolve"
LUT_3D_SIZE 9
0.0168307 0.0445258 0.0445716
0.039765 0.0489204 0.0492561
0.0953994 0.0586099 0.0521859
0.212329 0.0847944 0.0820478
0.459754 0.132433 0.150835
0.747997 0.188006 0.22945
0.760082 0.193011 0.235904
0.767102 0.193942 0.239536
0.78648 0.19321 0.248814
0.0242313 0.0585031 0.0538186
0.03122 0.0590524 0.0512398
0.0857557 0.0615854 0.0533608
0.218875 0.0828107 0.0788739
0.484489 0.13341 0.151431
0.748028 0.184802 0.224765
0.756008 0.187808 0.229572
0.759854 0.188632 0.231403
0.774182 0.186557 0.237186
0.0464637 0.113725 0.0802319
0.0410925 0.12517 0.0802777
0.0896773 0.122728 0.0663157
0.268269 0.113375 0.0975052
0.523629 0.14519 0.158099
0.74934 0.186908 0.218082
0.751751 0.188113 0.21854
0.752682 0.18909 0.218677
0.758618 0.188144 0.220401
0.0878767 0.299535 0.170382
0.0708934 0.337209 0.174258
0.0710918 0.356207 0.153414
0.27042 0.353201 0.0944533
0.771527 0.362585 0.215106
0.915221 0.397757 0.283528
0.919493 0.410025 0.28658
0.921736 0.417334 0.28777
0.921324 0.414694 0.287648
0.129946 0.71902 0.393194
0.126253 0.756756 0.408103
0.133761 0.776913 0.406195
0.154238 0.75436 0.285161
0.652705 0.763241 0.195422
0.961944 0.825849 0.376761
0.963256 0.824735 0.397406
0.962631 0.823117 0.394949
0.962188 0.811078 0.384604
0.288334 0.934417 0.583719
0.270802 0.939269 0.578988
0.265003 0.940658 0.568597
0.27599 0.938231 0.523003
0.539742 0.947753 0.399649
0.924071 0.95053 0.497917
0.964309 0.954253 0.623423
0.963104 0.954833 0.615778
0.963668 0.954528 0.611505
0.273381 0.938811 0.595941
0.275425 0.938155 0.590494
0.274327 0.938323 0.58053
0.279042 0.937087 0.54107
0.374746 0.943221 0.417472
0.870848 0.948882 0.466743
0.965667 0.953658 0.632609
0.96405 0.954726 0.637232
0.963302 0.955154 0.63711
0.26453 0.941466 0.600916
0.274784 0.938399 0.594965
0.288212 0.934524 0.586252
0.291341 0.933288 0.555917
0.328161 0.933486 0.460578
0.780835 0.943954 0.439384
0.963073 0.95082 0.599481
0.96495 0.954208 0.636942
0.960678 0.956558 0.633219
0.261021 0.942504 0.603387
0.265522 0.941039 0.59736
0.277043 0.937713 0.589654
0.287434 0.93434 0.564996
0.313771 0.933883 0.482826
0.659266 0.944595 0.42443
0.941421 0.948379 0.54052
0.96463 0.954376 0.636072
0.959731 0.957061 0.631907
0.018143 0.0465705 0.0547646
0.0386664 0.0475471 0.0577096
0.0923629 0.0522164 0.06598
0.213107 0.0816205 0.0961013
0.476524 0.137087 0.168841
0.76997 0.1888 0.243061
0.792401 0.198901 0.255619
0.800641 0.201846 0.261021
0.814496 0.201465 0.268696
0.0213931 0.0513771 0.0500343
0.0263981 0.049958 0.0514992
0.0965744 0.0610971 0.0618448
0.236866 0.0876173 0.0939193
0.489097 0.130755 0.16025
0.770825 0.185367 0.237568
0.780896 0.190097 0.244388
0.78703 0.193027 0.248753
0.799741 0.193179 0.255421
0.0455177 0.106294 0.085893
0.0405127 0.115236 0.0849622
0.0903182 0.120378 0.0675517
0.267262 0.107698 0.0971542
0.508736 0.136904 0.154635
0.751629 0.182345 0.219455
0.756222 0.184222 0.22179
0.757031 0.185031 0.22208
0.762158 0.184009 0.223804
0.0819562 0.285969 0.175113
0.0727092 0.31986 0.179553
0.0724498 0.350683 0.166522
0.27097 0.35021 0.0946365
0.755718 0.35613 0.211048
0.916274 0.399344 0.284489
0.920378 0.41265 0.286946
0.922103 0.418296 0.287541
0.920623 0.412497 0.286809
0.117861 0.69926 0.390051
0.111681 0.729137 0.399817
0.120241 0.751537 0.395148
0.144564 0.745861 0.287022
0.642695 0.754421 0.188479
0.960739 0.824811 0.370993
0.962676 0.828901 0.401328
0.962539 0.826276 0.400076
0.961959 0.811795 0.387717
0.285466 0.935485 0.592493
0.269429 0.939727 0.587945
0.264744 0.940826 0.573663
0.276509 0.93846 0.519005
0.528405 0.948104 0.395346
0.921675 0.95082 0.493172
0.963623 0.954635 0.622461
0.962417 0.955169 0.614649
0.962997 0.954879 0.609796
0.272114 0.939803 0.609964
0.274632 0.938811 0.603326
0.274006 0.938521 0.588861
0.280888 0.936934 0.536278
0.387076 0.943954 0.413977
0.865751 0.948775 0.463615
0.965515 0.95375 0.63238
0.963897 0.954833 0.638056
0.963165 0.955245 0.637919
0.264912 0.942046 0.618082
0.276783 0.938567 0.610483
0.287999 0.934859 0.596872
0.291981 0.93344 0.554482
0.343008 0.935241 0.447471
0.778851 0.943847 0.439323
0.962173 0.950408 0.596597
0.96495 0.954223 0.637812
0.960678 0.956588 0.634165
0.261494 0.943038 0.622248
0.266682 0.941466 0.614389
0.278401 0.937713 0.602167
0.287831 0.934432 0.568399
0.319234 0.934417 0.470893
0.680522 0.944503 0.425299
0.939864 0.948302 0.537728
0.964614 0.954406 0.637034
0.959731 0.957076 0.632761
0.0195621 0.0477455 0.0849012
0.0452125 0.0503395 0.0923171
0.0978866 0.0561074 0.0822156
0.219944 0.0747997 0.108156
0.473625 0.134386 0.17586
0.78941 0.199496 0.260288
0.815564 0.211719 0.280293
0.822965 0.213993 0.291371
0.832807 0.209949 0.302693
0.0237583 0.0591287 0.0673991
0.0204471 0.049836 0.0918288
0.0984207 0.0582284 0.0879072
0.247608 0.0839704 0.115129
0.505867 0.140063 0.184802
0.804044 0.202411 0.266423
0.822293 0.212131 0.287144
0.826444 0.212055 0.298985
0.833722 0.206668 0.310826
0.0447547 0.102892 0.0931411
0.0416114 0.107774 0.101656
0.0936141 0.10869 0.107393
0.301961 0.113008 0.126055
0.542885 0.144152 0.179019
0.7832 0.193591 0.247089
0.803708 0.204089 0.26305
0.814893 0.211078 0.274846
0.824033 0.210758 0.286763
0.0805676 0.267597 0.188052
0.0734112 0.297963 0.200702
0.0745708 0.323156 0.188342
0.269795 0.341482 0.0962692
0.754604 0.336141 0.213077
0.908827 0.376028 0.281453
0.912016 0.384039 0.283284
0.911986 0.383764 0.283482
0.908888 0.373587 0.282277
0.104112 0.666865 0.40174
0.0961471 0.693751 0.415854
0.10277 0.717113 0.407584
0.131472 0.732448 0.305959
0.631159 0.738155 0.182055
0.95996 0.811734 0.360769
0.963027 0.822507 0.409323
0.962966 0.8224 0.409613
0.962127 0.803204 0.391531
0.283574 0.934371 0.620417
0.267323 0.939559 0.621424
0.261677 0.940261 0.602823
0.271901 0.937911 0.533394
0.488457 0.947188 0.38677
0.914321 0.950378 0.474952
0.96463 0.954025 0.622187
0.963149 0.954803 0.615549
0.963638 0.954543 0.608881
0.27396 0.940887 0.656138
0.275212 0.940505 0.652842
0.275624 0.939712 0.633127
0.27776 0.938262 0.565728
0.392248 0.944717 0.415717
0.849744 0.948135 0.459632
0.965515 0.953735 0.632212
0.963928 0.954879 0.64126
0.963165 0.955322 0.641108
0.269032 0.942733 0.67602
0.271702 0.941695 0.668574
0.290517 0.936217 0.647562
0.290379 0.934539 0.590875
0.342077 0.934997 0.447837
0.771466 0.943816 0.442557
0.959457 0.949111 0.586542
0.964981 0.954269 0.640909
0.960693 0.956634 0.637888
0.267079 0.943587 0.683757
0.267597 0.943069 0.675319
0.279896 0.939406 0.657038
0.286778 0.93576 0.609781
0.317403 0.934554 0.479011
0.698177 0.944366 0.433845
0.935592 0.947875 0.532265
0.96492 0.954299 0.640299
0.959548 0.957229 0.636133
0.0332952 0.0513161 0.172869
0.0493477 0.0541085 0.201907
0.110399 0.0603647 0.16878
0.254414 0.0707561 0.151263
0.489723 0.119768 0.204135
0.812024 0.205249 0.293416
0.817288 0.199283 0.313176
0.811872 0.182757 0.33402
0.804257 0.154269 0.359014
0.0247196 0.0592355 0.1458
0.0260777 0.0518196 0.190112
0.0911421 0.0592966 0.219684
0.269001 0.0766766 0.172534
0.499992 0.112612 0.220401
0.815122 0.193835 0.314199
0.802609 0.168688 0.343145
0.770321 0.132387 0.365316
0.760479 0.101976 0.39147
0.0387274 0.102373 0.134844
0.0319982 0.0964218 0.176211
0.0299535 0.0616159 0.231754
0.296529 0.0918288 0.208148
0.534203 0.108446 0.247288
0.806882 0.182483 0.334676
0.762982 0.138231 0.357916
0.741146 0.115618 0.37702
0.74905 0.103227 0.404257
0.079469 0.251881 0.213138
0.0731518 0.276432 0.238849
0.0737621 0.295445 0.263127
0.316838 0.317128 0.301167
0.747784 0.302205 0.308171
0.9084 0.315618 0.346349
0.919554 0.323613 0.380453
0.923995 0.321935 0.404868
0.921386 0.306493 0.417685
0.101854 0.620401 0.442481
0.0867628 0.648035 0.478035
0.0921187 0.666148 0.489006
0.0968032 0.677256 0.405539
0.620218 0.71043 0.21886
0.96437 0.756176 0.435721
0.965026 0.750607 0.442893
0.965133 0.74583 0.442481
0.964645 0.721721 0.428397
0.276524 0.922988 0.676585
0.260471 0.92929 0.693294
0.251774 0.928435 0.684001
0.244465 0.927275 0.612757
0.369131 0.943572 0.428443
0.894774 0.943542 0.430838
0.9664 0.950057 0.62472
0.965393 0.949554 0.62356
0.965209 0.948318 0.615579
0.292851 0.941268 0.750454
0.289586 0.94374 0.760143
0.290639 0.941909 0.746975
0.283772 0.940383 0.677272
0.356176 0.946212 0.524437
0.799039 0.945937 0.470893
0.962829 0.952178 0.617563
0.964233 0.95523 0.662715
0.963302 0.955734 0.662211
0.311025 0.942061 0.782452
0.302373 0.944595 0.785809
0.311086 0.93991 0.768475
0.302296 0.936599 0.707591
0.336553 0.942184 0.567376
0.724941 0.944213 0.487511
0.941695 0.94612 0.551186
0.965148 0.954543 0.656596
0.960876 0.956924 0.655695
0.302129 0.946227 0.796109
0.301579 0.946151 0.794293
0.297124 0.944778 0.780484
0.303258 0.937163 0.727459
0.317357 0.941863 0.600916
0.650065 0.94725 0.504799
0.919097 0.950027 0.525277
0.965057 0.954513 0.6533
0.961028 0.956771 0.652781
0.0619364 0.0620127 0.361273
0.0785992 0.0659495 0.397864
0.119158 0.0691997 0.393378
0.29453 0.0848707 0.328634
0.533547 0.101869 0.317693
0.745083 0.124483 0.358694
0.7411 0.118318 0.367681
0.736324 0.10602 0.390173
0.758816 0.100755 0.436149
0.0386969 0.0572824 0.313939
0.0500801 0.0603189 0.355612
0.0898299 0.0670024 0.398535
0.285679 0.0848554 0.373648
0.531273 0.118791 0.339529
0.73315 0.106523 0.379446
0.737102 0.106752 0.407919
0.770291 0.129854 0.465217
0.818647 0.1608 0.537667
0.0339818 0.069276 0.263569
0.0302129 0.0672618 0.321538
0.0446174 0.0614633 0.383001
0.266087 0.0852827 0.446143
0.564645 0.121767 0.394141
0.739254 0.112383 0.411231
0.767605 0.134691 0.463813
0.8056 0.169955 0.530297
0.808667 0.1673 0.579675
0.0612345 0.243137 0.303273
0.0437934 0.262257 0.359808
0.0405127 0.278264 0.434134
0.129503 0.237156 0.529351
0.681025 0.211551 0.514488
0.841382 0.191974 0.50605
0.851408 0.206332 0.529229
0.860334 0.21976 0.555047
0.862776 0.216693 0.580911
0.101167 0.587228 0.500862
0.0858015 0.610208 0.534447
0.0898909 0.629587 0.56141
0.0964065 0.629145 0.568017
0.622843 0.626093 0.602365
0.948867 0.639582 0.609476
0.96199 0.653056 0.632792
0.962005 0.654383 0.652583
0.962356 0.632319 0.65597
0.268299 0.894301 0.733913
0.254337 0.900069 0.753674
0.245945 0.89662 0.759564
0.235843 0.88751 0.728634
0.476066 0.91281 0.683665
0.88922 0.925505 0.624659
0.965133 0.913085 0.69131
0.964157 0.908644 0.711177
0.963851 0.904067 0.709682
0.364065 0.946258 0.841489
0.354253 0.952041 0.858564
0.348592 0.953231 0.859709
0.342092 0.949157 0.816785
0.506371 0.956146 0.766552
0.741238 0.951751 0.705501
0.961089 0.95082 0.704295
0.969207 0.95552 0.780514
0.968368 0.955947 0.78262
0.387808 0.951583 0.877638
0.383642 0.954421 0.885832
0.373022 0.955657 0.884413
0.367346 0.95053 0.845914
0.522957 0.953216 0.799496
0.74403 0.950607 0.769162
0.952361 0.9505 0.740536
0.969818 0.954894 0.772229
0.965927 0.957076 0.78204
0.385931 0.955413 0.890959
0.389731 0.955871 0.895384
0.382269 0.956466 0.893431
0.373556 0.952499 0.863951
0.487175 0.952483 0.814404
0.739208 0.951873 0.804837
0.93608 0.953262 0.775677
0.966522 0.956161 0.755108
0.962539 0.958541 0.774365
0.109285 0.0884565 0.556008
0.124727 0.0978103 0.594736
0.154269 0.102937 0.61207
0.307301 0.100938 0.596063
0.588266 0.114611 0.540398
0.817044 0.180774 0.543328
0.81178 0.176684 0.534371
0.819181 0.180255 0.549935
0.820005 0.171191 0.584543
0.0802167 0.0787213 0.50634
0.0947433 0.0864271 0.551904
0.127764 0.0970779 0.59147
0.260685 0.10547 0.616358
0.589563 0.117449 0.584451
0.79498 0.16408 0.57258
0.788022 0.160189 0.575479
0.767117 0.144991 0.594797
0.767468 0.135271 0.644251
0.0411688 0.0726329 0.447837
0.0468757 0.0758373 0.502922
0.0792554 0.0846876 0.548196
0.199313 0.104067 0.61239
0.594171 0.120073 0.642023
0.760555 0.147921 0.57969
0.750988 0.144869 0.582483
0.738552 0.136477 0.614893
0.780041 0.160449 0.700481
0.049424 0.216526 0.477958
0.0427253 0.21738 0.527184
0.0466011 0.221622 0.579293
0.0568093 0.182239 0.625635
0.542855 0.145647 0.712795
0.779065 0.161761 0.603906
0.796857 0.177386 0.606455
0.757366 0.15021 0.604685
0.765118 0.146715 0.648249
0.113863 0.573602 0.612818
0.106203 0.584375 0.651423
0.0997177 0.602975 0.692409
0.0962234 0.608591 0.739239
0.473182 0.602609 0.876143
0.95465 0.547631 0.821485
0.964599 0.562463 0.80705
0.965194 0.552911 0.828275
0.96556 0.530938 0.852171
0.276768 0.872572 0.784176
0.250492 0.877012 0.797513
0.243793 0.87335 0.802792
0.243061 0.865141 0.798016
0.501884 0.876554 0.824796
0.864729 0.862669 0.844511
0.967636 0.874067 0.852827
0.967529 0.87599 0.863249
0.96556 0.874647 0.866941
0.424887 0.952224 0.900435
0.412451 0.956802 0.910582
0.409262 0.95787 0.913252
0.404089 0.955871 0.899138
0.606043 0.953933 0.898299
0.820386 0.953719 0.899062
0.967529 0.955489 0.880796
0.972061 0.955917 0.906676
0.970581 0.95697 0.916747
0.470359 0.950912 0.917128
0.447944 0.957183 0.928176
0.440452 0.958801 0.930449
0.435126 0.958511 0.918517
0.642206 0.954787 0.916457
0.836637 0.954299 0.919326
0.943633 0.955642 0.902724
0.971435 0.957961 0.893843
0.968475 0.959976 0.911772
0.464546 0.955535 0.929366
0.461677 0.957778 0.935317
0.455375 0.959243 0.937407
0.446891 0.95903 0.927825
0.624475 0.955779 0.924361
0.854139 0.954971 0.932967
0.945327 0.957656 0.931563
0.970275 0.958648 0.908186
0.969039 0.95967 0.910109
0.169009 0.135805 0.688594
0.174807 0.137591 0.694545
0.197696 0.139574 0.703044
0.306661 0.148592 0.740398
0.650233 0.164279 0.794293
0.796475 0.173495 0.764675
0.790433 0.166567 0.746975
0.784543 0.161685 0.730053
0.784451 0.159716 0.728069
0.143832 0.127306 0.671077
0.155657 0.135348 0.686397
0.178088 0.137728 0.695598
0.260044 0.145006 0.72488
0.629999 0.167742 0.80499
0.8009 0.181186 0.788266
0.800931 0.181521 0.788235
0.800122 0.179538 0.784115
0.801434 0.182483 0.790372
0.0966201 0.112413 0.634134
0.113497 0.124071 0.659297
0.141131 0.134722 0.681453
0.202487 0.139803 0.704326
0.572168 0.162295 0.800519
0.803555 0.185382 0.795163
0.802335 0.184848 0.79205
0.802976 0.185718 0.793256
0.804044 0.186007 0.795697
0.0519417 0.18172 0.617639
0.0495308 0.183688 0.637552
0.0517891 0.183261 0.656153
0.0654002 0.171786 0.671504
0.406104 0.162722 0.778576
0.808331 0.189899 0.799069
0.80412 0.185672 0.777401
0.803571 0.184405 0.770489
0.807706 0.187869 0.786343
0.0988174 0.598825 0.774823
0.105409 0.59971 0.794888
0.112779 0.603265 0.814404
0.122118 0.60209 0.842176
0.335256 0.602838 0.952682
0.908339 0.528176 0.960815
0.960494 0.513466 0.935485
0.96199 0.53576 0.926497
0.960372 0.517647 0.943908
0.269841 0.870802 0.860456
0.267247 0.866209 0.868849
0.265705 0.856535 0.873564
0.263554 0.842924 0.8813
0.406149 0.849989 0.933639
0.77557 0.855268 0.948196
0.961395 0.823026 0.937301
0.963516 0.82652 0.932387
0.961486 0.816724 0.93843
0.462287 0.957824 0.935546
0.459129 0.95935 0.938781
0.450477 0.958877 0.937575
0.422171 0.955673 0.929198
0.546868 0.952972 0.928923
0.831754 0.951827 0.94255
0.956115 0.956191 0.954513
0.965759 0.956756 0.954528
0.965209 0.957717 0.9561
0.512703 0.955612 0.944137
0.498924 0.959564 0.950103
0.497581 0.959731 0.950118
0.48304 0.959747 0.944152
0.645304 0.958526 0.945403
0.871382 0.959457 0.955291
0.949599 0.96289 0.959518
0.972091 0.961501 0.950515
0.973693 0.962341 0.956237
0.51957 0.95848 0.95201
0.524361 0.959442 0.954772
0.52636 0.95964 0.955489
0.507317 0.959777 0.950408
0.66212 0.958297 0.95053
0.890166 0.959976 0.958404
0.953185 0.963882 0.962844
0.96733 0.965133 0.961624
0.969085 0.963943 0.957763
0.183124 0.138155 0.697444
0.182773 0.138064 0.697276
0.203357 0.139895 0.704662
0.276738 0.146532 0.730632
0.622415 0.166644 0.804303
0.801633 0.182803 0.792752
0.802075 0.183337 0.793362
0.801785 0.182986 0.79295
0.801694 0.182879 0.792844
0.165866 0.137026 0.691371
0.165484 0.136995 0.691218
0.185229 0.138323 0.698238
0.238499 0.143221 0.717586
0.573144 0.1626 0.800885
0.801831 0.183047 0.793042
0.802731 0.184131 0.794369
0.802579 0.183948 0.794141
0.802563 0.183917 0.79411
0.12842 0.132845 0.676204
0.128588 0.132906 0.676249
0.147372 0.135485 0.684321
0.18732 0.138567 0.699062
0.488243 0.156558 0.78761
0.801343 0.182498 0.792523
0.804059 0.185641 0.796201
0.804089 0.185657 0.796231
0.804257 0.185855 0.796475
0.0717937 0.204242 0.698146
0.0751965 0.207568 0.703746
0.0740063 0.19765 0.695903
0.0702068 0.16994 0.674144
0.293568 0.151934 0.740185
0.791867 0.186709 0.800946
0.809812 0.192233 0.803845
0.810452 0.192996 0.8047
0.811429 0.193835 0.805798
0.131594 0.614633 0.864958
0.135134 0.618341 0.874174
0.135698 0.615381 0.877943
0.134798 0.604578 0.876661
0.193606 0.572839 0.899702
0.762127 0.517113 0.962142
0.956374 0.474495 0.956374
0.956374 0.473411 0.956374
0.956603 0.477043 0.956588
0.324178 0.875654 0.935653
0.33193 0.873213 0.942397
0.332784 0.865339 0.944991
0.325093 0.852689 0.945312
0.347951 0.84033 0.954055
0.688701 0.844816 0.960494
0.955871 0.804379 0.958587
0.958877 0.794934 0.958877
0.958541 0.804822 0.958541
0.510262 0.958862 0.954543
0.508003 0.958419 0.954955
0.495903 0.957656 0.954971
0.461769 0.954376 0.952743
0.466438 0.947524 0.953002
0.776822 0.947097 0.956924
0.942596 0.952697 0.960433
0.960784 0.949981 0.960784
0.960937 0.95053 0.960937
0.550011 0.959274 0.958175
0.551446 0.959289 0.958389
0.551446 0.959289 0.958389
0.542046 0.959365 0.957183
0.58703 0.95903 0.953536
0.844419 0.958755 0.958434
0.952621 0.963836 0.963882
0.966705 0.966705 0.966705
0.966705 0.966705 0.966705
0.551446 0.959289 0.958389
0.551446 0.959289 0.958389
0.551446 0.959289 0.958389
0.55523 0.959258 0.95848
0.630411 0.958556 0.956771
0.885847 0.959747 0.959869
0.95819 0.964706 0.964736
0.966674 0.966674 0.96669
0.966705 0.966705 0.966705
0.188006 0.138598 0.699351
0.189578 0.138811 0.700038
0.202441 0.139788 0.704311
0.249058 0.144198 0.721111
0.547921 0.160311 0.797635
0.799603 0.180285 0.78996
0.802563 0.183932 0.79411
0.802304 0.183612 0.793713
0.802228 0.183505 0.793591
0.172198 0.137453 0.693614
0.173632 0.13756 0.694179
0.185351 0.138323 0.698283
0.220493 0.141741 0.711315
0.48719 0.156634 0.787427
0.799664 0.180362 0.790051
0.803143 0.184588 0.794919
0.802945 0.18436 0.794644
0.802899 0.184314 0.794583
0.131792 0.133288 0.677623
0.132952 0.133562 0.678279
0.144472 0.135241 0.683192
0.174792 0.137606 0.694621
0.404334 0.153414 0.769039
0.798764 0.180331 0.790326
0.804395 0.185992 0.796658
0.804288 0.185901 0.796521
0.804395 0.185992 0.796643
0.0757153 0.21207 0.707042
0.0759136 0.215976 0.710048
0.0755779 0.204685 0.701579
0.0730449 0.18265 0.684215
0.199557 0.14432 0.707042
0.729015 0.179446 0.804593
0.809567 0.191943 0.803525
0.809873 0.192355 0.804044
0.810086 0.192584 0.804288
0.149615 0.639643 0.885328
0.150134 0.642603 0.88574
0.146975 0.638254 0.88397
0.138399 0.618631 0.87924
0.1243 0.561181 0.868376
0.620356 0.502754 0.960372
0.951949 0.438102 0.951949
0.948043 0.416358 0.948043
0.945556 0.405615 0.945541
0.388495 0.895369 0.957168
0.386465 0.892912 0.957214
0.379248 0.88603 0.956649
0.362432 0.870771 0.955077
0.320211 0.833646 0.947448
0.586923 0.827726 0.962692
0.925551 0.79263 0.959442
0.959899 0.760601 0.959899
0.960189 0.748821 0.960189
0.537377 0.958373 0.95848
0.531945 0.957977 0.958556
0.521889 0.957137 0.958572
0.499596 0.955093 0.958694
0.464378 0.944121 0.959289
0.712398 0.942107 0.958343
0.917769 0.947158 0.959152
0.960037 0.94461 0.960037
0.959579 0.94139 0.959579
0.551446 0.959289 0.958389
0.551446 0.959289 0.958389
0.551446 0.959289 0.958389
0.551476 0.959289 0.958389
0.566186 0.959167 0.958724
0.789776 0.958129 0.958267
0.939773 0.962509 0.962585
0.966522 0.966583 0.966628
0.966705 0.966705 0.966705
0.551446 0.959289 0.958389
0.551446 0.959289 0.958389
0.551446 0.959289 0.958389
0.5523 0.959289 0.958419
0.570672 0.959045 0.958709
0.832166 0.958602 0.95874
0.951034 0.963638 0.963684
0.966705 0.966705 0.966705
0.966705 0.966705 0.966705
