bundles/resolve-cinematic-luts/Phantom Luts/P4k & P6K Phntm Film LUTs - V6/P4K/Gen 5 Colour/White Balance Offset (+Magenta Boost)/P4k Eastman Gen5 WBO.cube
TITLE "Generated by Resolve"
LUT_3D_SIZE 9
0.0390021 0.0390021 0.0390021
0.0390021 0.0390021 0.0390021
0.103838 0.0390021 0.0400549
0.26894 0.0454566 0.0399939
0.451759 0.0886091 0.0582895
0.617014 0.148699 0.126253
0.659907 0.163027 0.148501
0.663081 0.164416 0.152132
0.637079 0.174304 0.153216
0.0394751 0.0390021 0.0390021
0.0420081 0.0390021 0.0390021
0.10132 0.040528 0.0454414
0.267491 0.0505684 0.0390021
0.448539 0.094728 0.0555276
0.614694 0.157336 0.124727
0.646876 0.168429 0.141009
0.649485 0.16939 0.143587
0.625635 0.178195 0.143709
0.064332 0.110353 0.0727703
0.0583963 0.112505 0.0643931
0.111254 0.12575 0.0630808
0.348531 0.105699 0.0675975
0.50457 0.144259 0.0944076
0.649424 0.195712 0.152026
0.673014 0.207553 0.163806
0.678752 0.214435 0.168307
0.670405 0.221286 0.170169
0.0993057 0.328847 0.153948
0.0863813 0.334005 0.146212
0.0853742 0.33109 0.10663
0.362295 0.406195 0.105974
0.699504 0.420584 0.161425
0.803494 0.408545 0.222461
0.819898 0.431952 0.236713
0.822965 0.447608 0.239948
0.819348 0.461326 0.239872
0.130236 0.585 0.322713
0.126421 0.584161 0.325399
0.119707 0.569497 0.277882
0.210407 0.562417 0.152514
0.634333 0.678233 0.19588
0.833173 0.707439 0.292729
0.860792 0.720562 0.34374
0.858274 0.726497 0.350118
0.855344 0.729152 0.352972
0.220295 0.754406 0.482856
0.218326 0.750332 0.482643
0.210346 0.733486 0.451148
0.202502 0.681865 0.327581
0.634333 0.804028 0.333745
0.792279 0.827054 0.366064
0.862135 0.841489 0.449928
0.861906 0.844663 0.457191
0.861952 0.84445 0.456748
0.237964 0.776547 0.51931
0.233143 0.770443 0.5066
0.223041 0.749386 0.464103
0.237461 0.706188 0.367697
0.631586 0.809888 0.385534
0.800839 0.846098 0.412512
0.85893 0.850568 0.47425
0.862089 0.853773 0.491783
0.858518 0.85449 0.495705
0.240406 0.779507 0.527413
0.23476 0.772747 0.510613
0.221118 0.748058 0.448951
0.244831 0.70425 0.346761
0.643183 0.814404 0.375967
0.807507 0.846021 0.402518
0.864073 0.847822 0.460029
0.87013 0.852186 0.481956
0.857893 0.85449 0.495216
0.24152 0.780606 0.531304
0.236851 0.774578 0.518044
0.222766 0.751598 0.460929
0.237034 0.706371 0.357183
0.625162 0.807889 0.374563
0.803784 0.84593 0.401862
0.860365 0.847654 0.459876
0.868132 0.852476 0.483818
0.856519 0.854658 0.496345
0.0390021 0.0390021 0.0390021
0.0397803 0.0390021 0.0390021
0.10602 0.0390021 0.0534676
0.287434 0.0390021 0.046128
0.471748 0.103838 0.0815595
0.61944 0.156497 0.144091
0.658091 0.168078 0.164797
0.664103 0.169909 0.171252
0.647776 0.177981 0.174273
0.0390021 0.0390021 0.0390021
0.0390021 0.0390021 0.0390021
0.107424 0.0390021 0.0465248
0.268971 0.0521401 0.0402991
0.44889 0.1019 0.0631113
0.608927 0.161547 0.13344
0.63801 0.17174 0.149248
0.641443 0.172519 0.15256
0.626612 0.178454 0.153765
0.0618753 0.104433 0.0793164
0.0579538 0.106996 0.0737621
0.110521 0.120073 0.0616922
0.339361 0.100526 0.0623026
0.491569 0.14023 0.0888075
0.634089 0.188449 0.144564
0.656596 0.200214 0.156374
0.659525 0.203693 0.158862
0.650278 0.208865 0.159915
0.0982071 0.329351 0.169451
0.0887312 0.332586 0.160891
0.0856641 0.333562 0.118227
0.363668 0.403296 0.106035
0.702052 0.406683 0.164187
0.803281 0.399863 0.222416
0.817304 0.421057 0.234653
0.820737 0.434852 0.237308
0.817685 0.446265 0.240223
0.132647 0.589578 0.335241
0.129397 0.588769 0.338506
0.121386 0.574029 0.295598
0.191012 0.557977 0.151293
0.634256 0.676005 0.195727
0.835142 0.705562 0.292683
0.860578 0.717357 0.340841
0.857725 0.722393 0.345693
0.854932 0.724315 0.348531
0.222934 0.758236 0.491356
0.221118 0.754345 0.491951
0.212268 0.738186 0.461799
0.199649 0.683284 0.336049
0.626413 0.800748 0.330098
0.790372 0.825025 0.361364
0.862547 0.83978 0.446845
0.862119 0.842329 0.453986
0.861936 0.841733 0.452094
0.241749 0.781796 0.529961
0.237736 0.776486 0.518044
0.225269 0.756085 0.476814
0.232029 0.709285 0.378164
0.614221 0.803174 0.381949
0.798871 0.846845 0.410849
0.857679 0.850019 0.471687
0.862196 0.853956 0.49337
0.858763 0.854643 0.497093
0.244816 0.785733 0.540536
0.239429 0.779141 0.522637
0.223667 0.756039 0.463004
0.234424 0.707179 0.358129
0.623468 0.807309 0.37319
0.804135 0.845899 0.400565
0.861036 0.847135 0.456977
0.8701 0.852415 0.483772
0.857939 0.854673 0.497185
0.245686 0.786618 0.544076
0.241108 0.780468 0.52958
0.225849 0.759274 0.474342
0.230152 0.709651 0.368185
0.606119 0.800336 0.370718
0.799969 0.846082 0.400656
0.857633 0.84712 0.457206
0.868238 0.852674 0.485603
0.856657 0.854856 0.498329
0.0390021 0.0390021 0.0651713
0.0457771 0.0390021 0.0757
0.108568 0.0390021 0.0801709
0.290791 0.0390021 0.0816358
0.463355 0.0466621 0.0857099
0.656992 0.143999 0.196353
0.687053 0.159121 0.224903
0.684733 0.157733 0.236835
0.665003 0.162219 0.243885
0.0390021 0.0390021 0.0629587
0.0390021 0.0390021 0.069688
0.103655 0.0390021 0.0801709
0.297719 0.0390021 0.0705577
0.489021 0.0785382 0.0936294
0.665125 0.152789 0.187747
0.686519 0.164248 0.211368
0.685695 0.162951 0.225147
0.668742 0.167636 0.230579
0.0569009 0.102678 0.0915389
0.0528878 0.103426 0.0937972
0.11986 0.111925 0.117052
0.361639 0.10016 0.0958267
0.522911 0.130312 0.102312
0.638254 0.167147 0.148379
0.656626 0.17406 0.159655
0.656703 0.1729 0.160296
0.647807 0.176547 0.162234
0.101579 0.332937 0.20914
0.0938735 0.336339 0.205478
0.0908064 0.332815 0.165164
0.374395 0.401312 0.126345
0.705455 0.367025 0.181689
0.797513 0.362814 0.223255
0.806226 0.380179 0.229404
0.811231 0.395834 0.233494
0.808759 0.40795 0.237827
0.138567 0.599252 0.366705
0.135653 0.598749 0.371374
0.129107 0.58703 0.340764
0.146502 0.548257 0.16228
0.631662 0.66865 0.194141
0.842573 0.698482 0.299718
0.860197 0.707393 0.336233
0.858198 0.710369 0.339269
0.856001 0.711971 0.342
0.228519 0.767102 0.514687
0.227268 0.763256 0.515648
0.218189 0.749737 0.490181
0.196658 0.692607 0.370413
0.599405 0.789273 0.323369
0.785672 0.821027 0.350072
0.86302 0.83566 0.440879
0.862715 0.838102 0.449104
0.862593 0.837354 0.447227
0.252384 0.796109 0.560204
0.249866 0.791531 0.553109
0.237675 0.776471 0.515877
0.224552 0.72224 0.412009
0.557443 0.779263 0.37232
0.791867 0.84715 0.40885
0.852567 0.848569 0.467597
0.86276 0.854643 0.497215
0.859648 0.855116 0.500862
0.257725 0.800458 0.575357
0.252827 0.795422 0.562585
0.237324 0.77847 0.509804
0.223697 0.721279 0.395972
0.565133 0.783413 0.364248
0.790249 0.846296 0.399634
0.852674 0.845426 0.450492
0.870527 0.853239 0.488914
0.858793 0.85536 0.502205
0.258152 0.80061 0.57705
0.2533 0.795636 0.564675
0.23859 0.779599 0.516258
0.222614 0.723964 0.403433
0.548821 0.776257 0.360632
0.785367 0.846113 0.399512
0.848341 0.845029 0.450217
0.868818 0.853559 0.491447
0.856184 0.855924 0.50515
0.0390021 0.0390021 0.172641
0.0390021 0.0390021 0.18822
0.0972763 0.0390021 0.217578
0.279713 0.0390021 0.201389
0.452186 0.0453193 0.227024
0.57583 0.080293 0.27744
0.597604 0.0905318 0.300114
0.599939 0.0955978 0.317937
0.586603 0.102831 0.32755
0.0390021 0.0390021 0.184009
0.0390021 0.0390021 0.192142
0.0732586 0.0390021 0.226551
0.288411 0.0390021 0.210956
0.460914 0.0479591 0.231479
0.578805 0.0829938 0.277684
0.601007 0.0972152 0.306111
0.597314 0.0958724 0.319509
0.585718 0.102113 0.32842
0.0390021 0.0892195 0.205585
0.0390021 0.0793164 0.215625
0.0406348 0.0651102 0.242863
0.308553 0.0480507 0.236881
0.480049 0.0490272 0.228916
0.614221 0.101762 0.284733
0.616632 0.100786 0.295033
0.617304 0.103761 0.308492
0.608881 0.108385 0.315999
0.0835737 0.336492 0.276204
0.0782177 0.342016 0.283436
0.0787823 0.345006 0.28925
0.421271 0.408377 0.41474
0.691371 0.346075 0.355322
0.808362 0.332448 0.329244
0.81442 0.333684 0.337835
0.818906 0.339345 0.348272
0.813153 0.347738 0.354788
0.144854 0.613474 0.436561
0.143633 0.614374 0.446937
0.143908 0.611917 0.435172
0.184695 0.59997 0.383612
0.639811 0.666636 0.347997
0.834409 0.645655 0.38294
0.851362 0.653361 0.383047
0.851682 0.659586 0.387808
0.849912 0.661921 0.389899
0.239216 0.780941 0.5691
0.239597 0.778408 0.57319
0.234287 0.770809 0.556848
0.21474 0.737179 0.481025
0.482017 0.734401 0.371908
0.781064 0.81413 0.374044
0.867247 0.825879 0.462028
0.86807 0.826978 0.472496
0.867796 0.824887 0.469276
0.275151 0.821561 0.627771
0.274357 0.818875 0.62501
0.267826 0.811505 0.605035
0.244938 0.778103 0.521218
0.401144 0.731182 0.381079
0.768658 0.849363 0.429572
0.845747 0.848585 0.47512
0.869276 0.860166 0.530648
0.865614 0.860624 0.532631
0.280461 0.825071 0.643854
0.277211 0.821637 0.634943
0.269978 0.813611 0.611582
0.245457 0.780163 0.519615
0.38616 0.727138 0.369162
0.759121 0.847608 0.415305
0.838972 0.845853 0.449531
0.875044 0.858625 0.521584
0.86334 0.861494 0.538781
0.280491 0.824475 0.644266
0.276997 0.821149 0.633875
0.269627 0.813321 0.610132
0.245274 0.780789 0.521737
0.370108 0.723522 0.366217
0.75024 0.846448 0.41593
0.831876 0.845457 0.450202
0.871275 0.858228 0.519356
0.862898 0.863005 0.547768
0.0390021 0.0461891 0.29836
0.0390021 0.047364 0.311467
0.0638132 0.0464332 0.339467
0.292042 0.0413367 0.36553
0.455421 0.0705425 0.363088
0.637278 0.151659 0.45008
0.648478 0.156085 0.469886
0.622965 0.141451 0.46334
0.603159 0.133104 0.458488
0.0390021 0.046952 0.300999
0.0390021 0.0479744 0.313115
0.0493324 0.048249 0.342687
0.296818 0.0429236 0.377615
0.467903 0.0765393 0.374884
0.640604 0.152193 0.456001
0.64181 0.150774 0.469795
0.621942 0.139651 0.466865
0.609262 0.138964 0.467826
0.0390021 0.0558938 0.308095
0.0390021 0.0505379 0.309316
0.0390021 0.0505379 0.334234
0.286503 0.0442206 0.393133
0.485756 0.0869764 0.391653
0.64509 0.155734 0.463172
0.647684 0.151232 0.472847
0.6271 0.140185 0.466896
0.610315 0.13518 0.461799
0.041474 0.318914 0.416739
0.0399481 0.317861 0.421515
0.0390021 0.301991 0.426215
0.254368 0.292515 0.53962
0.676188 0.299138 0.58204
0.796719 0.296513 0.572106
0.81268 0.29781 0.587823
0.816236 0.308095 0.600839
0.810269 0.318486 0.604212
0.135821 0.617182 0.512779
0.136034 0.617563 0.518334
0.136385 0.617563 0.519844
0.22089 0.635142 0.553857
0.673533 0.67013 0.665949
0.823209 0.630549 0.614939
0.856306 0.624231 0.604608
0.854627 0.631312 0.612177
0.850233 0.633844 0.613993
0.245853 0.787869 0.634134
0.246006 0.785367 0.637217
0.242893 0.780926 0.629694
0.252293 0.773938 0.609644
0.553918 0.786831 0.65124
0.808606 0.836652 0.649378
0.883436 0.828611 0.665705
0.883024 0.828 0.660395
0.880705 0.824674 0.656748
0.33756 0.846952 0.703044
0.331426 0.844388 0.701686
0.315892 0.840269 0.690929
0.306508 0.830671 0.660517
0.515908 0.82707 0.664698
0.760296 0.87306 0.676936
0.860761 0.883909 0.647593
0.885679 0.883741 0.659693
0.884855 0.882307 0.656504
0.353918 0.850401 0.716869
0.344045 0.847486 0.711467
0.324666 0.84268 0.697505
0.309606 0.832456 0.664103
0.50074 0.827329 0.659739
0.73167 0.862211 0.672984
0.854185 0.891005 0.663493
0.879286 0.884062 0.648234
0.884306 0.889387 0.672404
0.35201 0.849531 0.716976
0.342199 0.846906 0.70985
0.322347 0.842359 0.696117
0.305486 0.831678 0.662501
0.489219 0.825086 0.653147
0.723766 0.859892 0.674372
0.854215 0.89427 0.676036
0.877241 0.886473 0.656489
0.886305 0.892836 0.685985
0.0390021 0.059266 0.376547
0.0390021 0.0601816 0.38793
0.0679179 0.0602884 0.415167
0.270695 0.0612802 0.468925
0.487587 0.10956 0.489464
0.627924 0.167483 0.534676
0.652583 0.182513 0.562661
0.661601 0.190402 0.580194
0.668742 0.196475 0.592477
0.0390021 0.0616007 0.377447
0.0390021 0.0635691 0.388357
0.0572976 0.0647135 0.416907
0.274556 0.0662852 0.479011
0.50164 0.116991 0.501213
0.636316 0.172381 0.544381
0.657771 0.186236 0.570764
0.666423 0.194461 0.5879
0.673671 0.201282 0.599496
0.0390021 0.0651255 0.366629
0.0390021 0.0645762 0.37435
0.0390021 0.0702068 0.405829
0.258549 0.0721294 0.488319
0.520088 0.128756 0.517708
0.646693 0.17937 0.556497
0.662409 0.189883 0.576776
0.673228 0.199374 0.59266
0.678279 0.204517 0.600793
0.0390021 0.253285 0.46392
0.0390021 0.249683 0.464851
0.0390021 0.223453 0.456458
0.181247 0.204913 0.556298
0.621942 0.243107 0.655497
0.727565 0.247715 0.629541
0.744991 0.26154 0.643244
0.759243 0.275135 0.659586
0.766094 0.282948 0.667857
0.127855 0.621729 0.615732
0.128481 0.621897 0.61825
0.126604 0.618036 0.621744
0.178607 0.621988 0.664363
0.572488 0.619028 0.777462
0.86717 0.62298 0.794232
0.897597 0.615763 0.791409
0.897108 0.62208 0.793942
0.894011 0.623011 0.792172
0.247562 0.788418 0.679515
0.245945 0.78613 0.678187
0.244755 0.783322 0.67599
0.257359 0.779934 0.676295
0.608255 0.823255 0.772656
0.82916 0.838865 0.821439
0.888991 0.835767 0.811536
0.89366 0.8336 0.808408
0.892027 0.830365 0.805127
0.400244 0.861585 0.750225
0.390921 0.858335 0.747066
0.3785 0.854185 0.739971
0.370398 0.846342 0.726513
0.614679 0.87689 0.791318
0.797086 0.894697 0.834257
0.884932 0.910292 0.828565
0.908965 0.909133 0.834913
0.908537 0.907881 0.833036
0.423072 0.867796 0.761746
0.41648 0.865873 0.758877
0.405402 0.862745 0.752514
0.400809 0.859831 0.741451
0.604303 0.887663 0.792782
0.774472 0.90547 0.834699
0.869169 0.923842 0.838468
0.902953 0.926116 0.823575
0.908721 0.926314 0.82742
0.423102 0.867582 0.762814
0.415747 0.86566 0.758724
0.404379 0.862577 0.752102
0.397894 0.859083 0.739879
0.59498 0.885832 0.788174
0.772 0.905089 0.834073
0.864286 0.923384 0.842496
0.900908 0.928557 0.835386
0.908934 0.928435 0.836255
0.044892 0.0995804 0.448524
0.0637827 0.101884 0.460548
0.119005 0.105409 0.48896
0.302831 0.126726 0.56109
0.566796 0.186496 0.615335
0.684977 0.215076 0.62443
0.700862 0.224689 0.636011
0.701015 0.22472 0.636194
0.701076 0.22475 0.63624
0.0404974 0.107561 0.45127
0.0547341 0.108598 0.461082
0.112474 0.111437 0.490929
0.310307 0.132433 0.568383
0.582925 0.193744 0.622446
0.691615 0.21976 0.630808
0.702571 0.226108 0.637537
0.70251 0.226062 0.637491
0.702663 0.226154 0.637659
0.0390021 0.108339 0.436271
0.0390021 0.112261 0.446983
0.0725414 0.115938 0.475151
0.301564 0.139025 0.573739
0.601419 0.205646 0.636423
0.702403 0.227955 0.640848
0.708232 0.230808 0.643656
0.709133 0.231739 0.644327
0.709773 0.232395 0.644923
0.0390021 0.229038 0.474525
0.0390021 0.226764 0.474571
0.0390021 0.201602 0.464576
0.189471 0.196674 0.575174
0.59881 0.236271 0.679057
0.733211 0.257877 0.67216
0.759945 0.276967 0.691905
0.774334 0.291081 0.706905
0.77763 0.296101 0.710613
0.12784 0.623972 0.655467
0.127306 0.622675 0.656184
0.125658 0.618112 0.658885
0.190127 0.619257 0.703883
0.532479 0.598077 0.806653
0.878096 0.627466 0.864347
0.906447 0.623606 0.852537
0.906203 0.629725 0.852689
0.90544 0.629511 0.851667
0.282841 0.789883 0.726589
0.280461 0.787366 0.726421
0.27689 0.781979 0.725734
0.304341 0.774807 0.738262
0.602853 0.815 0.82327
0.802029 0.829221 0.870619
0.8963 0.821866 0.866835
0.901686 0.818738 0.865187
0.900771 0.814969 0.863005
0.432761 0.866484 0.77496
0.420127 0.862699 0.770138
0.403922 0.857801 0.763317
0.390936 0.850248 0.755138
0.618524 0.880369 0.819043
0.818891 0.901122 0.871107
0.889113 0.907805 0.882673
0.910536 0.909514 0.881392
0.910384 0.908324 0.880125
0.488655 0.880079 0.794812
0.478248 0.877943 0.790661
0.463615 0.875471 0.78378
0.455222 0.873182 0.775494
0.649134 0.901473 0.830655
0.816678 0.920653 0.87776
0.879683 0.929824 0.891691
0.908492 0.934035 0.887572
0.914992 0.935134 0.892973
0.491691 0.880461 0.796017
0.481178 0.878599 0.791852
0.464454 0.875715 0.784268
0.452445 0.87274 0.774334
0.645258 0.900893 0.82887
0.815854 0.923064 0.879026
0.877562 0.932982 0.894011
0.905882 0.937514 0.891203
0.912978 0.937972 0.890288
0.0882734 0.124758 0.488869
0.108492 0.125261 0.498909
0.161639 0.128862 0.524544
0.34255 0.152209 0.593713
0.595544 0.2047 0.637354
0.692927 0.21976 0.631449
0.702632 0.226169 0.637613
0.70219 0.225681 0.637125
0.702174 0.225589 0.637095
0.0712444 0.124514 0.48011
0.0908064 0.12488 0.490028
0.149325 0.128389 0.518959
0.346716 0.153216 0.595285
0.606165 0.20734 0.638086
0.692897 0.219669 0.631205
0.703914 0.227329 0.639033
0.703517 0.227008 0.638605
0.703578 0.227008 0.638666
0.0390021 0.119692 0.454414
0.046067 0.122637 0.464912
0.0992142 0.125124 0.494636
0.329992 0.149935 0.5897
0.614923 0.21059 0.640558
0.698482 0.22359 0.635309
0.7093 0.231922 0.64448
0.709834 0.232441 0.644999
0.710262 0.232807 0.645426
0.0390021 0.224598 0.478599
0.0390021 0.213321 0.471824
0.0390021 0.170916 0.450248
0.177264 0.160922 0.549737
0.59324 0.227054 0.668498
0.738827 0.262699 0.679652
0.753399 0.271717 0.687343
0.759258 0.277211 0.692729
0.761318 0.279194 0.694759
0.135363 0.629145 0.675807
0.1346 0.626993 0.675853
0.132174 0.620661 0.674922
0.19028 0.612802 0.70605
0.531014 0.590097 0.809995
0.878538 0.623636 0.871412
0.908415 0.62089 0.859709
0.908446 0.626459 0.860822
0.907851 0.625818 0.860014
0.354055 0.799115 0.763729
0.350149 0.796201 0.762509
0.342199 0.789487 0.760555
0.342824 0.778103 0.761715
0.593851 0.81117 0.830762
0.789853 0.825116 0.882094
0.898802 0.821851 0.886717
0.90576 0.81828 0.885466
0.905013 0.814267 0.884459
0.46685 0.870085 0.791943
0.458503 0.867018 0.790021
0.445792 0.861753 0.786908
0.443305 0.854139 0.786831
0.660822 0.881788 0.8495
0.824292 0.902571 0.889723
0.884688 0.906264 0.901442
0.910491 0.90222 0.899931
0.910491 0.901091 0.898985
0.511864 0.883146 0.803906
0.512047 0.883101 0.804364
0.514214 0.883513 0.80499
0.515587 0.88397 0.804074
0.671611 0.906462 0.847974
0.821912 0.923568 0.888533
0.886442 0.929595 0.903761
0.908049 0.933013 0.905455
0.915465 0.934249 0.905974
0.51191 0.883131 0.804044
0.512047 0.883101 0.804349
0.513771 0.883421 0.804852
0.509392 0.882948 0.801373
0.678447 0.909239 0.849149
0.83241 0.928725 0.8925
0.889448 0.936614 0.907439
0.906477 0.9393 0.908675
0.913939 0.939941 0.90695
0.100771 0.12517 0.495338
0.121675 0.126268 0.505425
0.176059 0.130556 0.531319
0.359655 0.155276 0.598795
0.60499 0.20708 0.638041
0.693477 0.219532 0.630732
0.703487 0.226993 0.638575
0.702602 0.226108 0.637583
0.702617 0.225895 0.637537
0.0811933 0.124315 0.485084
0.101488 0.125139 0.495567
0.160967 0.128725 0.524178
0.363821 0.155962 0.599847
0.61442 0.208957 0.638407
0.693217 0.219379 0.630426
0.704646 0.228031 0.640131
0.704051 0.227451 0.639231
0.704021 0.227375 0.63917
0.0390021 0.12076 0.458076
0.0514076 0.122972 0.468147
0.108034 0.125307 0.498726
0.343984 0.152361 0.594003
0.622095 0.21265 0.641733
0.696315 0.220768 0.632166
0.709895 0.232471 0.64506
0.710262 0.232776 0.645426
0.710643 0.233112 0.645792
0.0390021 0.214038 0.472023
0.0390021 0.201114 0.465537
0.0390021 0.155276 0.441779
0.171206 0.145602 0.538247
0.601556 0.230594 0.671931
0.737758 0.261646 0.678141
0.749706 0.268086 0.68368
0.752178 0.270573 0.686244
0.75256 0.270878 0.686564
0.137575 0.630121 0.677928
0.135882 0.627054 0.677089
0.13164 0.619165 0.674479
0.188907 0.6103 0.705287
0.532372 0.586175 0.810452
0.878676 0.619959 0.870558
0.908782 0.61767 0.859541
0.908522 0.622171 0.860044
0.907958 0.620966 0.859297
0.358724 0.799771 0.766094
0.352651 0.795926 0.764035
0.342916 0.788602 0.761059
0.338659 0.775876 0.760449
0.591974 0.808423 0.830518
0.788251 0.820905 0.881956
0.898116 0.817441 0.885908
0.905592 0.813489 0.884718
0.905013 0.809812 0.883665
0.46421 0.86923 0.791302
0.455314 0.865736 0.78909
0.441398 0.859968 0.785489
0.442481 0.852247 0.78706
0.66125 0.87953 0.850233
0.818753 0.899916 0.889632
0.882536 0.904784 0.903456
0.910323 0.900832 0.903563
0.910475 0.899641 0.903273
0.511803 0.883162 0.803677
0.512001 0.883116 0.804273
0.513054 0.883314 0.804578
0.520348 0.883894 0.806638
0.679301 0.905959 0.854154
0.835035 0.924361 0.896193
0.8916 0.930297 0.909819
0.90808 0.932586 0.910353
0.915297 0.932555 0.910155
0.51191 0.883146 0.803998
0.512047 0.883101 0.804349
0.514015 0.883467 0.804944
0.526665 0.885649 0.80882
0.701564 0.912383 0.859846
0.840696 0.931182 0.898497
0.891066 0.937255 0.910857
0.908202 0.939818 0.911955
0.914397 0.940536 0.911254
