bundles/resolve-cinematic-luts/Phantom Luts/P4k & P6K Phntm Film LUTs - V6/P4K/Gen 5 Colour/White Balance Offset (+Magenta Boost)/P4k Eastman Gen5 WBO.cube
TITLE "Generated by Resolve"
LUT_3D_SIZE 33
0.0390021 0.0390021 0.0390021
0.0390021 0.0390021 0.0390021
0.0390021 0.0390021 0.0390021
0.0390021 0.0390021 0.0390021
0.0390021 0.0390021 0.0390021
0.0480659 0.0390021 0.0390021
0.0624247 0.0390021 0.0390021
0.0814069 0.0390021 0.0390021
0.103838 0.0390021 0.0400549
0.132357 0.0390021 0.0426184
0.170169 0.0390021 0.0440223
0.218799 0.0423896 0.0420081
0.26894 0.0454566 0.0399939
0.31603 0.0495155 0.039765
0.363226 0.0577554 0.0428016
0.408789 0.0727855 0.0488746
0.451759 0.0886091 0.0582895
0.494179 0.105409 0.0717784
0.538064 0.122072 0.0899367
0.580957 0.136919 0.109453
0.617014 0.148699 0.126253
0.643397 0.157656 0.139101
0.655756 0.161425 0.144976
0.658228 0.162631 0.147234
0.659907 0.163027 0.148501
0.661494 0.163394 0.14966
0.662531 0.163607 0.150698
0.662989 0.163912 0.151415
0.663081 0.164416 0.152132
0.660395 0.165789 0.152697
0.656367 0.167407 0.153109
0.647303 0.170687 0.153109
0.637079 0.174304 0.153216
0.0390021 0.0390021 0.0390021
0.0390021 0.0390021 0.0390021
0.0390021 0.0390021 0.0390021
0.0390021 0.0390021 0.0390021
0.0390021 0.0390021 0.0390021
0.0432593 0.0390021 0.0390021
0.0561837 0.0390021 0.0390021
0.0747539 0.0390021 0.0390021
0.0974441 0.0390021 0.0391241
0.125353 0.0390021 0.0418555
0.162783 0.0390021 0.0437781
0.210651 0.0425269 0.0417639
0.261662 0.0456245 0.0391089
0.310826 0.0500038 0.0390021
0.359182 0.0586709 0.0416266
0.404883 0.0728313 0.0468605
0.448737 0.0891585 0.0563211
0.491493 0.106142 0.0699321
0.535592 0.122896 0.0880598
0.579156 0.138064 0.108064
0.614878 0.149889 0.124956
0.641276 0.158633 0.137591
0.653346 0.16286 0.143618
0.655589 0.163546 0.144976
0.656641 0.163836 0.146059
0.657679 0.164187 0.147158
0.658732 0.164538 0.14818
0.65951 0.164889 0.148852
0.659709 0.165331 0.149584
0.657343 0.166476 0.150042
0.653162 0.168124 0.15053
0.643809 0.17145 0.150408
0.634104 0.174899 0.150378
0.0390021 0.0390021 0.0390021
0.0390021 0.0390021 0.0390021
0.0390021 0.0390021 0.0390021
0.0390021 0.0390021 0.0390021
0.0390021 0.0390021 0.0390021
0.0403754 0.0390021 0.0390021
0.0510567 0.0390021 0.0390021
0.0697948 0.0390021 0.0390021
0.0936294 0.0390021 0.0392615
0.123308 0.0390021 0.0419165
0.162234 0.0390021 0.0437476
0.211307 0.0435798 0.0418708
0.262211 0.0471809 0.0390021
0.311162 0.0518654 0.0390021
0.357778 0.0600595 0.0410773
0.402838 0.074052 0.0458228
0.448066 0.0909285 0.0552987
0.490929 0.108049 0.0695659
0.535332 0.124605 0.0875563
0.579355 0.140124 0.108095
0.61474 0.151827 0.124819
0.639368 0.160342 0.136812
0.650965 0.164691 0.142519
0.652415 0.165011 0.143694
0.653803 0.165225 0.144701
0.654963 0.165469 0.145403
0.655879 0.165682 0.146227
0.656413 0.165942 0.146929
0.656626 0.166293 0.147631
0.654627 0.16733 0.148302
0.650355 0.169116 0.148592
0.641703 0.172229 0.148409
0.631495 0.175769 0.148425
0.0390021 0.0390021 0.0390021
0.0390021 0.0390021 0.0390021
0.0390021 0.0390021 0.0390021
0.0390021 0.0390021 0.0390021
0.0390021 0.0390021 0.0390021
0.043183 0.0390021 0.0390021
0.0544594 0.0390021 0.0390021
0.071046 0.0390021 0.0391394
0.0932784 0.0390021 0.0417029
0.124208 0.0390021 0.0431678
0.162982 0.0396429 0.0439765
0.213413 0.0444648 0.0417029
0.263676 0.0483864 0.0390021
0.313207 0.0539406 0.0390021
0.359121 0.062211 0.041062
0.403983 0.076585 0.0461433
0.447349 0.0922408 0.0548409
0.4907 0.109865 0.0693675
0.535363 0.126894 0.0873884
0.579202 0.141756 0.107729
0.614542 0.154391 0.124636
0.636866 0.162295 0.135637
0.648142 0.165988 0.140902
0.649332 0.166339 0.142061
0.650294 0.166751 0.143145
0.651499 0.166949 0.144091
0.652583 0.167102 0.144854
0.653269 0.167361 0.145373
0.653529 0.167666 0.14583
0.651301 0.168719 0.146319
0.647837 0.170138 0.146471
0.639002 0.173251 0.146395
0.628794 0.176761 0.146395
0.0394751 0.0390021 0.0390021
0.0390021 0.0390021 0.0390021
0.0390021 0.0390021 0.0390021
0.0390021 0.0390021 0.0390021
0.0420081 0.0390021 0.0390021
0.0492714 0.0390021 0.0390021
0.0628367 0.0394293 0.0419623
0.0809186 0.0391394 0.0440528
0.10132 0.040528 0.0454414
0.129839 0.0437324 0.0472114
0.169833 0.0458381 0.0457618
0.218738 0.0478218 0.0414282
0.267491 0.0505684 0.0390021
0.314839 0.055848 0.0390021
0.362097 0.0657206 0.0419928
0.405997 0.0805524 0.0466926
0.448539 0.094728 0.0555276
0.491234 0.111986 0.0695964
0.5355 0.129412 0.0872663
0.578714 0.14403 0.107286
0.614694 0.157336 0.124727
0.634806 0.164752 0.134463
0.644755 0.167926 0.139239
0.645869 0.168276 0.140368
0.646876 0.168429 0.141009
0.647883 0.168658 0.141649
0.648753 0.168795 0.142443
0.649271 0.16907 0.143099
0.649485 0.16939 0.143587
0.647654 0.170336 0.143908
0.643839 0.171801 0.144045
0.635523 0.174731 0.144106
0.625635 0.178195 0.143709
0.0453193 0.047837 0.0450599
0.0439612 0.0477913 0.044358
0.0429999 0.0465095 0.0429389
0.0431678 0.0458534 0.041825
0.0467079 0.0483406 0.0428626
0.0531014 0.051545 0.0437781
0.0671397 0.054902 0.0451667
0.0909133 0.0542 0.0498665
0.115373 0.0522621 0.0514534
0.144381 0.0530861 0.0515755
0.181338 0.0543679 0.0486915
0.227405 0.0563821 0.0439612
0.27599 0.0581521 0.0408484
0.321782 0.0623636 0.0409247
0.366552 0.0720684 0.0438087
0.408515 0.0838331 0.0480507
0.450172 0.0984665 0.0570535
0.49221 0.115572 0.0706493
0.535271 0.132189 0.0877546
0.576822 0.147448 0.107057
0.613626 0.161257 0.124895
0.631785 0.16791 0.133211
0.640558 0.171847 0.137575
0.641611 0.172198 0.138445
0.642023 0.172412 0.138811
0.642344 0.172671 0.139315
0.642603 0.172885 0.139818
0.64303 0.173053 0.140276
0.643366 0.17319 0.140581
0.642313 0.173754 0.14081
0.639673 0.174792 0.140749
0.631662 0.177478 0.140612
0.621607 0.181048 0.140505
0.0519417 0.0671092 0.0548714
0.0507057 0.0675059 0.0538796
0.0497749 0.0666361 0.0517739
0.0495155 0.0654307 0.0501411
0.0511025 0.0663462 0.0492714
0.0581064 0.0699016 0.0508736
0.0693523 0.0735485 0.0516365
0.0914778 0.0757916 0.0518196
0.123644 0.0702678 0.0562905
0.160845 0.066331 0.0566873
0.20206 0.064332 0.0512856
0.246006 0.0653849 0.0476692
0.29099 0.069276 0.0453803
0.3355 0.0761273 0.0467689
0.378958 0.0825818 0.0490883
0.418921 0.0914473 0.0529793
0.458473 0.103212 0.0611582
0.499184 0.118517 0.0738994
0.542321 0.134874 0.090959
0.582803 0.149996 0.10959
0.617624 0.163409 0.12546
0.63711 0.172137 0.135439
0.643732 0.175402 0.138735
0.644099 0.176364 0.139513
0.644663 0.176974 0.140215
0.645319 0.177661 0.140841
0.646143 0.17821 0.141253
0.646906 0.178759 0.141741
0.647334 0.179309 0.142153
0.647013 0.180072 0.142657
0.645335 0.181125 0.142824
0.64123 0.183001 0.143038
0.635218 0.185275 0.142977
0.0597086 0.0864881 0.0630808
0.0577859 0.0872511 0.0617838
0.0561685 0.0876783 0.0604562
0.0554513 0.08748 0.0585641
0.0555734 0.0872816 0.0566262
0.058381 0.0886397 0.0553597
0.0700389 0.0929427 0.0573434
0.087892 0.0953689 0.0560616
0.119219 0.0976272 0.0564736
0.169024 0.0875715 0.0617533
0.223392 0.0808881 0.0587472
0.274266 0.0805371 0.054139
0.314733 0.0839246 0.0526589
0.354711 0.0895399 0.0530556
0.394141 0.0975662 0.0567941
0.434684 0.109178 0.0641031
0.475288 0.120089 0.0744945
0.514595 0.132189 0.0860609
0.552956 0.144091 0.0995499
0.589624 0.157259 0.11574
0.622415 0.170123 0.130648
0.647623 0.18175 0.143343
0.651347 0.183795 0.145663
0.651179 0.184421 0.145968
0.651118 0.184833 0.146197
0.651957 0.185657 0.146929
0.652781 0.186465 0.147631
0.653651 0.187213 0.148363
0.654398 0.1879 0.148898
0.654078 0.188724 0.149187
0.65301 0.189715 0.149416
0.649882 0.19144 0.149889
0.644083 0.193744 0.14995
0.064332 0.110353 0.0727703
0.0621958 0.111452 0.0710765
0.0598154 0.112642 0.0693675
0.0588846 0.112779 0.0673381
0.0583963 0.112505 0.0643931
0.0597391 0.112505 0.061738
0.0658427 0.115206 0.0605325
0.0880446 0.123369 0.0646067
0.111254 0.12575 0.0630808
0.15903 0.128435 0.0635538
0.230518 0.113802 0.0694743
0.29723 0.106203 0.0683757
0.348531 0.105699 0.0675975
0.387243 0.111772 0.0686503
0.424689 0.119387 0.0727703
0.464057 0.130632 0.0816358
0.50457 0.144259 0.0944076
0.54406 0.15874 0.10985
0.585016 0.172091 0.12639
0.619821 0.184237 0.139666
0.649424 0.195712 0.152026
0.673777 0.20621 0.163104
0.673732 0.20676 0.163516
0.673167 0.207111 0.163622
0.673014 0.207553 0.163806
0.674205 0.2094 0.164782
0.675776 0.211139 0.16611
0.67744 0.213138 0.16733
0.678752 0.214435 0.168307
0.678752 0.215259 0.168734
0.678233 0.216587 0.1691
0.674952 0.218662 0.169589
0.670405 0.221286 0.170169
0.0692454 0.144991 0.0851759
0.0665904 0.146029 0.0833906
0.0636606 0.148135 0.0814984
0.0621958 0.149462 0.0785687
0.0614939 0.149676 0.0758373
0.0613718 0.148196 0.0708019
0.0642252 0.148699 0.0670481
0.0781415 0.155947 0.0674449
0.108812 0.168627 0.0732586
0.143114 0.172503 0.073228
0.221088 0.177829 0.0740215
0.305943 0.165759 0.0836347
0.380392 0.152621 0.0902571
0.434241 0.147814 0.0959029
0.475822 0.158282 0.102403
0.514641 0.169162 0.111498
0.552636 0.180591 0.121935
0.590204 0.192996 0.133639
0.626368 0.20531 0.145769
0.658534 0.218006 0.157305
0.686641 0.230365 0.168826
0.710369 0.242039 0.177935
0.710613 0.243336 0.178439
0.711269 0.244648 0.178805
0.712154 0.245869 0.179126
0.713191 0.246983 0.179736
0.714397 0.248478 0.180087
0.715846 0.249683 0.180316
0.717403 0.251087 0.180667
0.718349 0.252552 0.180987
0.719005 0.254231 0.181506
0.71632 0.256641 0.181964
0.712474 0.259739 0.182177
0.0755474 0.193317 0.10013
0.0721904 0.194461 0.0986954
0.0686961 0.197086 0.0973831
0.0668498 0.199023 0.0944839
0.065507 0.200183 0.0909438
0.0653849 0.200214 0.0866407
0.0652323 0.198215 0.0791333
0.0709392 0.199802 0.0735485
0.0988937 0.215244 0.0779889
0.144625 0.236179 0.0898604
0.199802 0.241443 0.0896773
0.306737 0.252399 0.0908827
0.399786 0.251438 0.100099
0.476936 0.229801 0.115709
0.539071 0.226581 0.12961
0.574639 0.225162 0.137453
0.610559 0.23328 0.144808
0.645365 0.242512 0.153567
0.679011 0.251987 0.163027
0.708415 0.262211 0.173159
0.732403 0.272587 0.182559
0.749462 0.281086 0.189731
0.752194 0.284367 0.19144
0.754559 0.287083 0.192859
0.755886 0.289006 0.193301
0.757763 0.291234 0.194217
0.759716 0.293919 0.195422
0.761196 0.295857 0.196551
0.762737 0.297734 0.19736
0.763882 0.300069 0.198154
0.764309 0.301869 0.198886
0.762127 0.305226 0.200015
0.757992 0.308476 0.200595
0.0892042 0.258656 0.12546
0.08542 0.259892 0.123995
0.0813153 0.261982 0.122988
0.0787213 0.263584 0.120699
0.077348 0.266011 0.117327
0.0764935 0.267613 0.111986
0.0764782 0.267399 0.10605
0.0766308 0.263966 0.0944839
0.0889296 0.269352 0.0873274
0.134051 0.2925 0.0962692
0.199985 0.317647 0.108934
0.282124 0.323674 0.102007
0.39443 0.332464 0.103349
0.493736 0.348013 0.108171
0.571481 0.338216 0.119173
0.63357 0.313787 0.149523
0.67068 0.307927 0.159609
0.702205 0.308827 0.170321
0.730037 0.31165 0.183139
0.753353 0.318303 0.194461
0.770916 0.326253 0.203616
0.782589 0.333425 0.21059
0.788251 0.340124 0.213642
0.789731 0.344839 0.214755
0.791409 0.349813 0.215961
0.793088 0.354238 0.217258
0.794736 0.358114 0.218082
0.79585 0.361685 0.219028
0.797269 0.364797 0.219989
0.798917 0.368933 0.221363
0.799802 0.371603 0.221683
0.798947 0.374517 0.222812
0.795575 0.37821 0.223743
0.0993057 0.328847 0.153948
0.0949111 0.32932 0.152239
0.0904402 0.330694 0.150652
0.0882124 0.332235 0.149187
0.0863813 0.334005 0.146212
0.0854658 0.335805 0.140246
0.0844892 0.336996 0.132448
0.0845197 0.335592 0.123415
0.0853742 0.33109 0.10663
0.107515 0.340414 0.0973068
0.170611 0.368032 0.107118
0.272755 0.401389 0.118639
0.362295 0.406195 0.105974
0.470192 0.411093 0.112886
0.566278 0.435203 0.119875
0.641489 0.435599 0.137942
0.699504 0.420584 0.161425
0.734798 0.40322 0.181796
0.763287 0.396323 0.200046
0.786007 0.402396 0.21178
0.803494 0.408545 0.222461
0.813855 0.41593 0.229984
0.818967 0.423377 0.234913
0.819348 0.427832 0.235737
0.819898 0.431952 0.236713
0.820905 0.435996 0.237842
0.821286 0.439521 0.238422
0.821881 0.443244 0.239261
0.822965 0.447608 0.239948
0.82324 0.451194 0.239414
0.824216 0.454673 0.239704
0.822477 0.457893 0.239353
0.819348 0.461326 0.239872
0.100954 0.397253 0.185168
0.0981003 0.397086 0.183368
0.0948501 0.397772 0.181979
0.0923934 0.398596 0.180011
0.0900435 0.399695 0.176974
0.0884108 0.40032 0.170352
0.0869764 0.400626 0.160662
0.0861067 0.400015 0.148486
0.0870375 0.397345 0.135592
0.0914626 0.392172 0.111131
0.128771 0.408484 0.103532
0.224338 0.440146 0.114076
0.35494 0.479881 0.125353
0.438529 0.480934 0.111727
0.537697 0.48423 0.130068
0.624872 0.506218 0.145418
0.695949 0.519112 0.163546
0.755413 0.52697 0.186358
0.782238 0.507897 0.201511
0.802808 0.500816 0.216114
0.8177 0.505699 0.225971
0.828901 0.511574 0.235065
0.83476 0.519524 0.240681
0.834592 0.525521 0.241337
0.834867 0.530571 0.242527
0.835019 0.535485 0.243503
0.835859 0.540047 0.244495
0.836561 0.544747 0.245289
0.837232 0.548592 0.246128
0.837797 0.551705 0.246983
0.838605 0.554635 0.247944
0.837537 0.557641 0.248692
0.835538 0.561257 0.249943
0.100557 0.462516 0.223957
0.098436 0.461769 0.22266
0.0961013 0.462013 0.222492
0.094255 0.462776 0.221698
0.0921798 0.462974 0.219074
0.0906386 0.462257 0.21207
0.089189 0.46096 0.200137
0.0882429 0.458824 0.183261
0.0881666 0.455894 0.165225
0.0914626 0.452125 0.145602
0.106905 0.451301 0.118379
0.170092 0.471351 0.114672
0.313176 0.515755 0.134508
0.439948 0.552254 0.142306
0.509392 0.550622 0.131365
0.598489 0.55462 0.156176
0.675898 0.572381 0.175662
0.741238 0.590082 0.194842
0.795636 0.609812 0.218647
0.822065 0.604288 0.235554
0.840818 0.605692 0.25153
0.847883 0.607446 0.259037
0.851102 0.613413 0.264546
0.851652 0.620676 0.266148
0.852628 0.626413 0.268162
0.853193 0.631266 0.269856
0.853864 0.633814 0.271992
0.854383 0.636225 0.273777
0.854841 0.638193 0.275547
0.855238 0.63975 0.276692
0.85539 0.641398 0.277729
0.854582 0.643076 0.279042
0.852827 0.644846 0.280903
0.111849 0.525582 0.273564
0.110552 0.525078 0.273304
0.109087 0.525353 0.274693
0.107668 0.525444 0.274632
0.106279 0.525063 0.272709
0.105013 0.52372 0.267079
0.1037 0.521324 0.256641
0.102144 0.517861 0.239734
0.100862 0.513115 0.216358
0.102052 0.506722 0.188495
0.106828 0.500023 0.158312
0.139483 0.505959 0.133318
0.258259 0.537026 0.139986
0.411826 0.594446 0.164996
0.519066 0.619852 0.165347
0.574624 0.616236 0.160357
0.653254 0.620752 0.187549
0.720729 0.633829 0.209171
0.776608 0.648219 0.23006
0.819654 0.665187 0.253635
0.844587 0.668818 0.27422
0.862394 0.675212 0.296162
0.864134 0.67628 0.302251
0.863813 0.679164 0.305669
0.864515 0.68336 0.309209
0.864912 0.686656 0.311742
0.864881 0.689342 0.313436
0.865599 0.691844 0.315419
0.865797 0.693629 0.316884
0.866072 0.694804 0.318318
0.866285 0.695628 0.319112
0.865568 0.696468 0.320058
0.864546 0.697246 0.32137
0.130236 0.585 0.322713
0.129473 0.584604 0.32311
0.128588 0.584833 0.325368
0.127672 0.584741 0.326177
0.126421 0.584161 0.325399
0.124941 0.582742 0.32137
0.124071 0.580484 0.313848
0.122255 0.576257 0.299611
0.119707 0.569497 0.277882
0.1187 0.560952 0.248722
0.121462 0.551675 0.209445
0.135027 0.546548 0.167773
0.210407 0.562417 0.152514
0.37174 0.614878 0.178805
0.503182 0.665568 0.197436
0.583795 0.681987 0.193164
0.634333 0.678233 0.19588
0.702663 0.682948 0.222568
0.758984 0.689754 0.247837
0.803067 0.697581 0.270146
0.833173 0.707439 0.292729
0.852186 0.712902 0.315602
0.861357 0.717128 0.334813
0.861509 0.718196 0.34052
0.860792 0.720562 0.34374
0.859861 0.722271 0.345327
0.859281 0.72398 0.347021
0.858671 0.72546 0.348745
0.858274 0.726497 0.350118
0.857664 0.727291 0.350744
0.857328 0.727855 0.351171
0.856672 0.728405 0.351995
0.855344 0.729152 0.352972
0.152056 0.640116 0.368658
0.151614 0.639338 0.369162
0.151156 0.63946 0.371832
0.150576 0.639323 0.372992
0.14992 0.63888 0.372961
0.148943 0.637629 0.369619
0.147784 0.635172 0.363287
0.145907 0.630823 0.351888
0.142931 0.624063 0.333288
0.140658 0.614725 0.307805
0.139712 0.603555 0.273014
0.1467 0.592889 0.220157
0.180728 0.593896 0.175799
0.334386 0.631281 0.187549
0.48278 0.693004 0.224338
0.583688 0.727337 0.231952
0.642985 0.738109 0.227649
0.689738 0.734676 0.235279
0.744427 0.735439 0.26067
0.787671 0.738109 0.288197
0.822705 0.744091 0.313787
0.840681 0.748714 0.336934
0.853529 0.757656 0.351293
0.858534 0.762097 0.365896
0.859434 0.765774 0.371115
0.859571 0.768292 0.372381
0.860151 0.770718 0.373739
0.859983 0.772488 0.374166
0.860273 0.774121 0.374731
0.860426 0.775326 0.375021
0.860533 0.776074 0.375235
0.8607 0.776806 0.37554
0.86067 0.777203 0.375647
0.176654 0.687388 0.413031
0.17612 0.686534 0.412909
0.175845 0.686198 0.414725
0.175372 0.685817 0.415656
0.17496 0.685023 0.415747
0.174197 0.683375 0.412985
0.172488 0.68069 0.406973
0.170459 0.676097 0.396292
0.166934 0.669139 0.379934
0.163546 0.659648 0.357122
0.160906 0.64741 0.326421
0.160861 0.633631 0.280858
0.187213 0.627894 0.223346
0.296544 0.645594 0.199252
0.45626 0.704845 0.237613
0.572198 0.753231 0.263676
0.645457 0.774685 0.261952
0.691539 0.780682 0.261723
0.736446 0.778347 0.274479
0.776394 0.776837 0.300053
0.8103 0.779095 0.330434
0.839506 0.785443 0.356847
0.855894 0.79556 0.368643
0.864271 0.803098 0.382803
0.8645 0.805325 0.394308
0.864118 0.806561 0.396399
0.864179 0.807584 0.398032
0.864347 0.808255 0.399039
0.864424 0.808713 0.399863
0.864408 0.809003 0.400412
0.864347 0.809354 0.400702
0.864286 0.809354 0.400732
0.864225 0.809247 0.400702
0.200305 0.725963 0.451606
0.199344 0.724788 0.450828
0.199329 0.724529 0.452674
0.198947 0.723537 0.453254
0.198657 0.722408 0.453223
0.197482 0.720363 0.449821
0.195575 0.717586 0.444022
0.193423 0.712779 0.434089
0.18967 0.705684 0.419028
0.185702 0.695567 0.397528
0.18262 0.682887 0.370855
0.180011 0.669764 0.336431
0.187823 0.654826 0.26978
0.271427 0.661448 0.22359
0.423194 0.706691 0.249058
0.557671 0.763684 0.288319
0.644999 0.795346 0.298344
0.695842 0.807584 0.293538
0.736187 0.809873 0.300633
0.767498 0.806409 0.316045
0.800015 0.806348 0.345602
0.828946 0.809506 0.37229
0.85211 0.816342 0.389136
0.860349 0.823056 0.407279
0.863752 0.828641 0.424414
0.863355 0.829313 0.426657
0.863203 0.829816 0.428138
0.863096 0.830121 0.428733
0.86302 0.830427 0.429374
0.862959 0.830564 0.429786
0.862898 0.830625 0.429953
0.862821 0.830564 0.429877
0.862791 0.830457 0.429648
0.220295 0.754406 0.482856
0.219928 0.753582 0.482399
0.219669 0.752895 0.48333
0.218997 0.751827 0.483345
0.218326 0.750332 0.482643
0.217304 0.747921 0.479255
0.215457 0.745083 0.473823
0.213504 0.740566 0.465095
0.210346 0.733486 0.451148
0.206806 0.723751 0.432502
0.204578 0.71162 0.409293
0.201328 0.696971 0.377417
0.202502 0.681865 0.327581
0.256519 0.678813 0.269139
0.394354 0.707866 0.274342
0.532906 0.763378 0.313054
0.634333 0.804028 0.333745
0.694835 0.823636 0.333547
0.738567 0.830991 0.336095
0.77348 0.830564 0.349935
0.792279 0.827054 0.366064
0.819989 0.827573 0.392386
0.843671 0.831052 0.414466
0.857023 0.837064 0.43389
0.862135 0.841489 0.449928
0.862272 0.843687 0.456672
0.86215 0.84416 0.457115
0.861982 0.844511 0.457298
0.861906 0.844663 0.457191
0.861875 0.844709 0.457343
0.861875 0.844663 0.457221
0.861906 0.844526 0.456962
0.861952 0.84445 0.456748
0.232761 0.770886 0.502693
0.232395 0.770169 0.501884
0.232059 0.769253 0.501457
0.231678 0.767987 0.499931
0.230564 0.765988 0.497002
0.228168 0.763439 0.491234
0.226184 0.759777 0.483757
0.223697 0.75465 0.473411
0.222477 0.748089 0.462013
0.220539 0.739483 0.446281
0.220691 0.729015 0.4271
0.218235 0.714366 0.397681
0.21915 0.699825 0.357061
0.271962 0.695369 0.313512
0.382345 0.713527 0.302144
0.520104 0.762509 0.333562
0.634623 0.80975 0.360906
0.698512 0.83064 0.361929
0.743053 0.840467 0.364462
0.779843 0.843091 0.374701
0.800748 0.840406 0.389242
0.818067 0.837873 0.404685
0.841733 0.838575 0.428122
0.85745 0.843381 0.446723
0.866056 0.847456 0.463798
0.867628 0.849653 0.473457
0.867552 0.84976 0.473793
0.866804 0.849821 0.473747
0.865415 0.850034 0.474403
0.863493 0.850324 0.475929
0.862287 0.850477 0.476905
0.861814 0.850431 0.477028
0.861799 0.850278 0.476371
0.234714 0.7729 0.508354
0.233814 0.772107 0.506874
0.233448 0.771282 0.506111
0.2327 0.770001 0.504234
0.231983 0.768124 0.501457
0.229786 0.765179 0.495186
0.226978 0.761501 0.486946
0.224353 0.755703 0.475898
0.222736 0.748806 0.462928
0.221118 0.739727 0.446723
0.221103 0.729061 0.426886
0.223621 0.718227 0.403281
0.227283 0.708217 0.374792
0.281407 0.70338 0.336049
0.38265 0.718288 0.326833
0.510597 0.759258 0.353109
0.630564 0.808682 0.384329
0.694286 0.830594 0.384726
0.740993 0.841505 0.388144
0.776547 0.845426 0.398383
0.8 0.845319 0.410376
0.817899 0.843442 0.425361
0.836164 0.843061 0.441108
0.853956 0.847166 0.458045
0.863203 0.850553 0.473487
0.867597 0.85275 0.485801
0.867506 0.852766 0.485893
0.866835 0.852872 0.48632
0.865522 0.853056 0.486931
0.863706 0.85333 0.48838
0.862547 0.853498 0.489433
0.862104 0.853513 0.489555
0.862089 0.853468 0.489235
0.236164 0.774807 0.512856
0.235523 0.773785 0.51133
0.234714 0.772763 0.510048
0.233814 0.771496 0.507927
0.232639 0.769497 0.504372
0.23093 0.766369 0.498146
0.227771 0.7626 0.489281
0.224613 0.756374 0.477272
0.222919 0.749172 0.46363
0.22092 0.739513 0.446281
0.221241 0.728267 0.425238
0.223758 0.717449 0.401099
0.232837 0.707088 0.370993
0.286549 0.703639 0.332982
0.394385 0.720821 0.328908
0.519356 0.762936 0.357137
0.630106 0.808927 0.384985
0.695735 0.831235 0.386145
0.74345 0.842084 0.389532
0.776059 0.845472 0.399329
0.801114 0.845777 0.411139
0.815869 0.84303 0.42652
0.832914 0.843488 0.442847
0.851637 0.847303 0.459403
0.859754 0.850584 0.474968
0.864729 0.853132 0.487144
0.864759 0.853254 0.488426
0.864073 0.853437 0.489677
0.862776 0.853697 0.491264
0.861326 0.853956 0.493339
0.860075 0.854215 0.49453
0.859373 0.854337 0.494835
0.859342 0.854276 0.494606
0.237964 0.776547 0.51931
0.237186 0.77557 0.517113
0.236164 0.774182 0.514534
0.234714 0.772625 0.51104
0.233143 0.770443 0.5066
0.231571 0.767346 0.499962
0.228092 0.763073 0.490288
0.224948 0.756817 0.477852
0.223041 0.749386 0.464103
0.220722 0.739147 0.445762
0.221546 0.727672 0.424048
0.224094 0.716701 0.399207
0.237461 0.706188 0.367697
0.291279 0.704021 0.331701
0.405097 0.723476 0.330648
0.527657 0.766339 0.359747
0.631586 0.809888 0.385534
0.69604 0.831617 0.388479
0.743145 0.842359 0.390921
0.775402 0.845899 0.401251
0.800839 0.846098 0.412512
0.815122 0.84332 0.426566
0.831785 0.843793 0.442679
0.850309 0.847196 0.459236
0.85893 0.850568 0.47425
0.863416 0.853117 0.486427
0.8636 0.853422 0.489235
0.862989 0.85359 0.490257
0.862089 0.853773 0.491783
0.860471 0.854063 0.493874
0.85919 0.854368 0.494987
0.858534 0.85449 0.495857
0.858518 0.85449 0.495705
0.23859 0.777386 0.521782
0.238132 0.776669 0.519905
0.237156 0.775402 0.517372
0.235554 0.77348 0.513298
0.233845 0.771405 0.50837
0.232013 0.768215 0.501503
0.228382 0.763424 0.490974
0.225269 0.757092 0.478294
0.223102 0.749447 0.464149
0.220478 0.738781 0.445167
0.221805 0.727245 0.423224
0.224186 0.716258 0.397818
0.241215 0.705516 0.364416
0.295995 0.704448 0.331212
0.413092 0.725567 0.331807
0.533196 0.768612 0.361501
0.631937 0.810346 0.385214
0.697139 0.832013 0.389349
0.743023 0.842496 0.39144
0.773571 0.84596 0.402289
0.799939 0.846525 0.413886
0.813855 0.843809 0.426871
0.830686 0.844297 0.441947
0.848508 0.846815 0.458305
0.857343 0.850294 0.473289
0.862547 0.852918 0.485344
0.862882 0.853483 0.489387
0.86244 0.85362 0.490547
0.861494 0.853803 0.492027
0.859709 0.854154 0.494209
0.858412 0.854459 0.495338
0.857786 0.854582 0.496223
0.857771 0.854597 0.496391
0.239384 0.778302 0.524315
0.238651 0.777295 0.52224
0.237964 0.776272 0.519875
0.236393 0.774319 0.515496
0.234287 0.772015 0.509758
0.232151 0.768765 0.502403
0.228748 0.763714 0.491676
0.225696 0.757397 0.478798
0.223133 0.749371 0.464088
0.22031 0.738674 0.44506
0.221988 0.727123 0.423011
0.224262 0.716091 0.397299
0.243183 0.705242 0.363058
0.298863 0.704753 0.331197
0.416541 0.726604 0.332219
0.535241 0.769467 0.362081
0.631708 0.810315 0.384787
0.697536 0.83209 0.389578
0.742794 0.842527 0.391012
0.772503 0.846159 0.402686
0.798733 0.846845 0.415229
