bundles/resolve-cinematic-luts/Phantom Luts/P4k & P6K Phntm Film LUTs - V6/P4K/Gen 5 Colour/White Balance Offset (+Magenta Boost)/P4k Eastman Gen5-Legacy WBO.cube
TITLE "Generated by Resolve"
LUT_3D_SIZE 33
0.0390021 0.0390021 0.0390021
0.0390021 0.0390021 0.0390021
0.0390021 0.0390021 0.0390021
0.0426947 0.0390021 0.0390021
0.0474098 0.0390021 0.0390021
0.0531777 0.0390021 0.0406806
0.0636301 0.0390021 0.0428626
0.0772869 0.0390021 0.0449226
0.093904 0.0390021 0.0467231
0.115221 0.0392004 0.0490883
0.143114 0.0426795 0.0511025
0.178775 0.0458991 0.0522774
0.223041 0.0488136 0.0508583
0.270954 0.0519417 0.0492714
0.316442 0.0565347 0.0496223
0.361364 0.0654002 0.0520638
0.405493 0.0772717 0.0563516
0.447013 0.0909743 0.0634318
0.489265 0.105882 0.0748608
0.537026 0.122194 0.0914168
0.586938 0.137911 0.111757
0.627207 0.149874 0.129549
0.648096 0.156054 0.139147
0.652369 0.157504 0.14168
0.654139 0.157885 0.142885
0.655894 0.158251 0.14403
0.657191 0.158465 0.144839
0.657526 0.158785 0.145525
0.657526 0.159197 0.146197
0.655161 0.160494 0.146731
0.65037 0.162554 0.147158
0.641825 0.165896 0.147326
0.631891 0.16965 0.147372
0.0390021 0.0390021 0.0390021
0.0390021 0.0390021 0.0390021
0.0390021 0.0390021 0.0390021
0.0410925 0.0390021 0.0390021
0.0454261 0.0390021 0.0390021
0.0502937 0.0390021 0.0402686
0.0595254 0.0390021 0.042359
0.073167 0.0390021 0.0445563
0.0892958 0.0390021 0.0466011
0.110323 0.0396735 0.0485542
0.136965 0.0429084 0.0507515
0.171603 0.0461433 0.0515297
0.215152 0.0491493 0.0498665
0.265019 0.0522774 0.0481422
0.312154 0.0568399 0.0481422
0.357992 0.0655528 0.0508736
0.402716 0.0773938 0.0556039
0.445228 0.0914626 0.0624857
0.487709 0.106355 0.0738842
0.535348 0.122789 0.0905623
0.585611 0.138674 0.110719
0.625406 0.150393 0.128389
0.646311 0.156924 0.137835
0.649378 0.157961 0.139971
0.650965 0.158434 0.141115
0.652659 0.158679 0.142016
0.653925 0.158801 0.142748
0.654658 0.159121 0.143511
0.654765 0.159533 0.144091
0.651942 0.160784 0.144503
0.647639 0.1626 0.144579
0.638636 0.166003 0.144839
0.628199 0.169863 0.144961
0.0390021 0.0390021 0.0390021
0.0390021 0.0390021 0.0390021
0.0390021 0.0390021 0.0390021
0.0399023 0.0390021 0.0390021
0.0451667 0.0390021 0.0395056
0.0496223 0.0390021 0.0412146
0.0567941 0.0390021 0.0429694
0.0692607 0.0390021 0.0447547
0.0868238 0.0390021 0.0468299
0.108568 0.0404669 0.0491646
0.136645 0.0434577 0.0510567
0.171069 0.0466773 0.0515755
0.214939 0.049958 0.0498054
0.263813 0.0533303 0.0477913
0.310124 0.0578164 0.0478065
0.356664 0.0664073 0.0504158
0.40206 0.0784924 0.0549935
0.444984 0.0923323 0.0619669
0.488243 0.107927 0.0737621
0.536141 0.124483 0.0909743
0.587137 0.140658 0.111772
0.623865 0.151583 0.128084
0.644114 0.158068 0.137285
0.646128 0.158679 0.138323
0.647898 0.159075 0.139605
0.649287 0.159487 0.140764
0.650278 0.159747 0.141375
0.650797 0.15993 0.141878
0.650996 0.160235 0.142428
0.648875 0.161288 0.142702
0.644388 0.162966 0.142733
0.635294 0.166171 0.142885
0.625299 0.169787 0.142672
0.0435645 0.0390021 0.0413672
0.0425116 0.0390021 0.04094
0.0419318 0.0390021 0.0403296
0.0430152 0.0390021 0.0403906
0.047013 0.0390021 0.0415808
0.0516213 0.0390021 0.0436866
0.0582437 0.0403449 0.0455177
0.0696574 0.0404974 0.0468299
0.0856184 0.0409552 0.0482032
0.107973 0.0423743 0.0505531
0.136477 0.0446479 0.0517739
0.172 0.0475776 0.0518349
0.216663 0.050721 0.0499275
0.264698 0.0542916 0.0476234
0.311681 0.0591287 0.0481727
0.357259 0.0679789 0.0504616
0.401633 0.0800946 0.0545052
0.444434 0.0939345 0.0617075
0.488777 0.110109 0.0743572
0.536187 0.126772 0.0912795
0.588113 0.143191 0.112551
0.621012 0.153384 0.127413
0.639857 0.158938 0.135729
0.641474 0.159472 0.137072
0.642878 0.160006 0.138003
0.644572 0.160449 0.138872
0.646082 0.160723 0.139803
0.646784 0.160967 0.140475
0.647074 0.161257 0.14081
0.644755 0.162249 0.140948
0.641016 0.163684 0.140871
0.632334 0.166613 0.140932
0.621637 0.170245 0.140703
0.047013 0.0413519 0.0456245
0.045655 0.0413519 0.0455482
0.0451667 0.0408331 0.04477
0.0466621 0.0408331 0.0439002
0.0497902 0.0426642 0.04448
0.0536812 0.0432746 0.0453956
0.0631113 0.0468605 0.0488594
0.0757763 0.0472419 0.050721
0.090074 0.0465858 0.0516823
0.109926 0.0468452 0.053315
0.137942 0.0487984 0.0542
0.174945 0.049897 0.0529183
0.219303 0.0512703 0.0496681
0.266499 0.0554208 0.0476234
0.314046 0.0607309 0.0484016
0.35848 0.0697642 0.0506447
0.402106 0.0818952 0.0544747
0.445487 0.0961776 0.0622721
0.489097 0.111803 0.0743877
0.536614 0.129229 0.0914168
0.588769 0.145892 0.113237
0.618921 0.155367 0.126482
0.634897 0.160052 0.133806
0.636637 0.16054 0.134997
0.637949 0.160891 0.135866
0.639338 0.161212 0.13666
0.640467 0.161501 0.137377
0.641367 0.161852 0.137911
0.641672 0.162249 0.138338
0.639963 0.163134 0.138567
0.636225 0.164599 0.138766
0.62797 0.167498 0.138903
0.617929 0.170932 0.138369
0.0507362 0.0498207 0.0503853
0.0494087 0.0500191 0.0503243
0.0489052 0.049485 0.0496376
0.0496681 0.0491493 0.0484321
0.0526589 0.0505226 0.0486152
0.0562753 0.0529488 0.0493019
0.0644694 0.0539712 0.0504463
0.082414 0.0575723 0.0549783
0.0990463 0.0561532 0.0568704
0.117968 0.0541085 0.0576486
0.144289 0.0548867 0.0578317
0.179629 0.0555886 0.0558785
0.224918 0.0559548 0.0513924
0.271015 0.0577401 0.0487678
0.316167 0.0631266 0.0487678
0.359808 0.0721141 0.0509957
0.403418 0.0840162 0.0551919
0.445838 0.0986954 0.0628977
0.489082 0.114473 0.0749981
0.536446 0.131518 0.0917372
0.587915 0.148379 0.113329
0.616602 0.157946 0.126101
0.629725 0.162249 0.132006
0.630915 0.162692 0.132891
0.6318 0.163058 0.133364
0.632868 0.163394 0.133791
0.633768 0.163729 0.134356
0.634348 0.16408 0.13492
0.634653 0.164355 0.135424
0.633814 0.16492 0.135622
0.630793 0.166079 0.135836
0.622736 0.168856 0.13579
0.612711 0.172305 0.135454
0.0562295 0.0635691 0.057496
0.0547189 0.0640421 0.0572366
0.054078 0.0636149 0.0564126
0.0543069 0.0629435 0.0552529
0.0563363 0.0635996 0.0542458
0.0610513 0.0660563 0.0553445
0.0669108 0.0678874 0.055024
0.082063 0.0701915 0.0563363
0.105379 0.0705272 0.0602121
0.128267 0.0667277 0.0627756
0.155291 0.0632486 0.0616007
0.189563 0.0630655 0.0587625
0.23241 0.0638895 0.0552987
0.277958 0.0662699 0.052903
0.324285 0.0697948 0.0524605
0.36791 0.0770428 0.0532235
0.409155 0.0863203 0.0563973
0.451102 0.100786 0.064744
0.495842 0.116899 0.0774701
0.544106 0.133669 0.094316
0.592737 0.150118 0.114824
0.6215 0.159869 0.127275
0.632471 0.164385 0.132219
0.632425 0.165057 0.132631
0.632792 0.16556 0.13315
0.633097 0.165896 0.133394
0.633799 0.166155 0.133654
0.63415 0.166415 0.133822
0.63415 0.166583 0.133776
0.633341 0.167025 0.133806
0.631296 0.167849 0.133745
0.62623 0.169619 0.133471
0.619745 0.171893 0.133379
0.0636454 0.0781567 0.0635233
0.0616465 0.0789197 0.0632639
0.0597543 0.0794537 0.0630198
0.0590829 0.0794232 0.0621347
0.0598917 0.07953 0.060853
0.0631418 0.0804608 0.0595712
0.0696269 0.0829786 0.0606394
0.0796063 0.0841077 0.0589456
0.101213 0.0862593 0.0596323
0.132692 0.0837873 0.0643626
0.169574 0.0760662 0.066392
0.210742 0.0725261 0.0630808
0.250828 0.0740978 0.0604105
0.292119 0.0775158 0.0588998
0.335058 0.083299 0.0592508
0.379049 0.0888533 0.0599374
0.420783 0.0983902 0.0638132
0.461219 0.109926 0.0705119
0.503365 0.123308 0.0818036
0.549676 0.138262 0.0977035
0.596094 0.154192 0.117479
0.631601 0.166644 0.132799
0.637125 0.168795 0.135134
0.636561 0.169253 0.135241
0.636179 0.169512 0.135271
0.6365 0.170016 0.135546
0.636973 0.170489 0.13579
0.637461 0.170886 0.136034
0.637903 0.171252 0.136248
0.637308 0.171847 0.1364
0.635752 0.172656 0.136584
0.631708 0.17435 0.136614
0.626108 0.176486 0.13666
0.0674144 0.0940566 0.0702678
0.0649424 0.0950484 0.0694896
0.0627604 0.0961166 0.0688792
0.062089 0.096437 0.0679332
0.0619059 0.0965591 0.0669108
0.0636606 0.0967422 0.0648814
0.0688945 0.0984665 0.0639811
0.0799878 0.101701 0.0651713
0.0958724 0.103044 0.063035
0.125826 0.105821 0.0638437
0.173632 0.100679 0.0704662
0.22855 0.090959 0.0710002
0.279133 0.0897688 0.0686961
0.318975 0.0930495 0.067628
0.359945 0.0989853 0.0685588
0.401465 0.1075 0.0715953
0.443427 0.118669 0.0779126
0.486046 0.130327 0.0884871
0.530816 0.143862 0.101411
0.576608 0.158038 0.116732
0.618616 0.17142 0.132006
0.65536 0.183093 0.146487
0.655787 0.183886 0.147127
0.654963 0.184207 0.147173
0.655894 0.185214 0.148501
0.657191 0.186603 0.149233
0.658442 0.187884 0.150271
0.659525 0.189227 0.151293
0.6607 0.189975 0.151888
0.660777 0.190738 0.152453
0.660258 0.192081 0.153048
0.656992 0.194171 0.153323
0.651621 0.196902 0.153826
0.0724193 0.116503 0.0800031
0.0695354 0.117601 0.0790723
0.0672923 0.119127 0.0781109
0.0661326 0.120302 0.0769818
0.0657816 0.120699 0.0757305
0.0663005 0.120241 0.073228
0.0690013 0.120546 0.0707103
0.0784009 0.123842 0.0699626
0.0967269 0.130205 0.0729381
0.117586 0.131319 0.0699016
0.165331 0.136553 0.0718395
0.231632 0.128191 0.0793622
0.299916 0.118639 0.0822003
0.358267 0.117571 0.0830243
0.402716 0.126055 0.0865949
0.444617 0.135729 0.0923018
0.486686 0.147402 0.101198
0.528893 0.161334 0.113512
0.570962 0.175158 0.126772
0.616053 0.19173 0.143114
0.658427 0.206256 0.160739
0.695247 0.21973 0.174975
0.695018 0.220996 0.175372
0.695415 0.222156 0.176196
0.696132 0.223728 0.176989
0.696071 0.22681 0.175265
0.697704 0.227878 0.176776
0.69897 0.229114 0.177508
0.700725 0.230076 0.17818
0.701656 0.231327 0.178836
0.701747 0.232593 0.179141
0.699062 0.234897 0.179629
0.695613 0.237949 0.180285
0.0774701 0.148547 0.0908827
0.0746777 0.149508 0.090074
0.0713359 0.151507 0.089189
0.069276 0.152956 0.0876173
0.0684825 0.154391 0.085359
0.0687572 0.154772 0.0829633
0.0694743 0.153841 0.079118
0.0746319 0.155062 0.0758221
0.0907149 0.163622 0.0776532
0.11899 0.176318 0.0837415
0.150332 0.177874 0.0815442
0.229099 0.189258 0.0854353
0.311711 0.187427 0.095964
0.392004 0.175341 0.105791
0.45684 0.171603 0.114626
0.506035 0.184131 0.122927
0.546761 0.194247 0.129915
0.588449 0.205539 0.139864
0.630152 0.217945 0.151049
0.67155 0.230442 0.163104
0.708278 0.244511 0.17734
0.734508 0.255238 0.187884
0.739086 0.259098 0.190158
0.741192 0.261311 0.191073
0.742885 0.263188 0.191669
0.74403 0.265309 0.191989
0.746624 0.267506 0.19295
0.748547 0.269215 0.193362
0.750652 0.27071 0.194263
0.751781 0.27248 0.194781
0.752575 0.274617 0.19556
0.750957 0.277394 0.195972
0.747036 0.280446 0.196796
0.0855573 0.195254 0.106188
0.0820325 0.196567 0.105226
0.0784161 0.198764 0.10486
0.0767376 0.200931 0.104067
0.0755627 0.203342 0.101549
0.0751202 0.205295 0.0982376
0.075761 0.205661 0.0944533
0.076997 0.204517 0.0886244
0.0856184 0.207736 0.0847028
0.115175 0.22649 0.0926223
0.159625 0.247471 0.104463
0.212802 0.251072 0.101564
0.315587 0.265614 0.105776
0.409155 0.27451 0.112749
0.491279 0.262333 0.122591
0.562539 0.255161 0.14107
0.603143 0.24921 0.149554
0.647745 0.25832 0.158907
0.693156 0.27071 0.171328
0.733196 0.282368 0.184848
0.761471 0.29308 0.197482
0.776928 0.300694 0.205707
0.778653 0.304433 0.207614
0.778866 0.307027 0.20824
0.780118 0.310201 0.209567
0.781353 0.312566 0.210788
0.782315 0.315206 0.211597
0.783505 0.31754 0.212604
0.785 0.319768 0.213642
0.785931 0.321843 0.214191
0.787198 0.323842 0.21503
0.785672 0.326131 0.21561
0.782361 0.329183 0.216541
0.105287 0.264958 0.134981
0.100938 0.265858 0.133959
0.0965438 0.267811 0.133516
0.0932784 0.269596 0.132128
0.0921645 0.271992 0.130449
0.0914473 0.27451 0.126619
0.0909133 0.276982 0.122026
0.0915084 0.276448 0.115618
0.0928511 0.27306 0.105852
0.1084 0.282429 0.1019
0.153017 0.307256 0.113252
0.221164 0.332799 0.125124
0.295491 0.337987 0.117388
0.399008 0.347616 0.119509
0.498253 0.368399 0.121004
0.581933 0.36817 0.128771
0.644739 0.340902 0.154238
0.691325 0.32401 0.16997
0.732692 0.326619 0.185885
0.764996 0.328603 0.201038
0.791074 0.340047 0.215259
0.802563 0.347768 0.222385
0.804501 0.354223 0.225132
0.805264 0.358434 0.225742
0.805676 0.362158 0.226108
0.80676 0.366064 0.227268
0.807507 0.369177 0.227665
0.808225 0.371878 0.228
0.809796 0.375082 0.22916
0.810025 0.376989 0.229038
0.810788 0.379232 0.229465
0.809186 0.381491 0.229786
0.805814 0.384314 0.230381
0.116426 0.337011 0.165148
0.112902 0.337484 0.163684
0.109148 0.339132 0.16321
0.106615 0.340734 0.162371
0.103685 0.342992 0.160113
0.101991 0.344594 0.155535
0.100328 0.346532 0.148669
0.0996719 0.347356 0.14107
0.0998856 0.345159 0.13193
0.101656 0.341268 0.115419
0.129397 0.356207 0.112642
0.197131 0.384817 0.124559
0.298985 0.417197 0.134157
0.376486 0.420432 0.120073
0.478065 0.426413 0.127672
0.571481 0.450752 0.134737
0.647837 0.458213 0.148623
0.705669 0.439567 0.169696
0.747662 0.40943 0.19144
0.783871 0.399252 0.212451
0.807813 0.401801 0.224506
0.820661 0.41088 0.232563
0.823255 0.418112 0.236973
0.822995 0.421881 0.237903
0.823056 0.425711 0.238437
0.823453 0.429297 0.239277
0.82359 0.432547 0.239841
0.824552 0.43621 0.241016
0.824338 0.438575 0.241001
0.825116 0.441077 0.241764
0.825345 0.443137 0.242084
0.823835 0.44564 0.243015
0.820432 0.44831 0.243519
0.116945 0.406577 0.19762
0.113924 0.406394 0.19646
0.110613 0.407309 0.196017
0.10808 0.408713 0.195331
0.106126 0.409934 0.193668
0.10428 0.410849 0.188434
0.102251 0.411337 0.1794
0.100542 0.411536 0.167224
0.100374 0.410086 0.154925
0.10193 0.406531 0.14081
0.112139 0.406119 0.121035
0.158419 0.42594 0.119371
0.265064 0.460395 0.132387
0.380529 0.495949 0.1411
0.452583 0.496239 0.127275
0.545235 0.501198 0.145892
0.631037 0.52163 0.160067
0.706004 0.537179 0.175906
0.763287 0.537285 0.195865
0.79646 0.510582 0.21181
0.818235 0.491554 0.229557
0.829221 0.489448 0.238987
0.832059 0.495293 0.242802
0.831891 0.501808 0.24271
0.832029 0.507042 0.243244
0.832227 0.512978 0.243595
0.833371 0.518593 0.245258
0.833677 0.523354 0.245686
0.834684 0.52784 0.246906
0.834806 0.531044 0.247532
0.83505 0.534676 0.248219
0.834653 0.538231 0.249744
0.831922 0.540932 0.250294
0.114549 0.472587 0.235843
0.112596 0.472282 0.235523
0.110491 0.472938 0.236301
0.108522 0.473442 0.236118
0.10634 0.473533 0.23389
0.105135 0.473304 0.228733
0.104005 0.472694 0.220401
0.102556 0.471794 0.206424
0.101427 0.470008 0.187808
0.102663 0.465537 0.167803
0.106188 0.459846 0.145724
0.131518 0.465751 0.127291
0.220432 0.492592 0.133639
0.356603 0.541085 0.15378
0.461158 0.569665 0.157412
0.521279 0.567208 0.147784
0.605081 0.572381 0.170962
0.686976 0.590494 0.190295
0.763745 0.613169 0.21117
0.818311 0.628199 0.233158
0.845335 0.615747 0.248127
0.84976 0.61146 0.263523
0.85095 0.611582 0.268391
0.851041 0.616388 0.271382
0.852186 0.624475 0.274388
0.85304 0.6309 0.276585
0.854231 0.636591 0.278584
0.855207 0.641108 0.280293
0.856046 0.644968 0.281651
0.85684 0.647379 0.28365
0.856687 0.648692 0.284138
0.855955 0.650172 0.285405
0.854032 0.651469 0.286885
0.125948 0.535546 0.281376
0.124651 0.535363 0.281743
0.123232 0.535714 0.28336
0.12192 0.535821 0.283879
0.12079 0.53576 0.283146
0.119448 0.53489 0.278874
0.118303 0.533684 0.271489
0.116869 0.531502 0.258991
0.114733 0.52755 0.239155
0.114321 0.522133 0.21445
0.117388 0.515694 0.185275
0.127871 0.511391 0.154528
0.18233 0.52668 0.144976
0.31725 0.56788 0.162951
0.443641 0.618723 0.182773
0.534188 0.640024 0.181491
0.584878 0.636652 0.17734
0.659998 0.643275 0.202106
0.741176 0.660349 0.228305
0.809293 0.679423 0.251347
0.854444 0.697826 0.274617
0.868147 0.701503 0.29279
0.868437 0.701076 0.308995
0.867658 0.699916 0.314
0.867735 0.703578 0.318517
0.868528 0.707424 0.321355
0.868788 0.710506 0.323751
0.869032 0.713558 0.326207
0.869596 0.716152 0.328115
0.870085 0.718029 0.329335
0.870298 0.719356 0.330602
0.869429 0.720455 0.33167
0.868116 0.721569 0.333059
0.143755 0.595666 0.324376
0.14255 0.594949 0.324651
0.141634 0.595254 0.327214
0.140871 0.595438 0.328588
0.139956 0.595422 0.328435
0.139147 0.594827 0.325231
0.138018 0.592828 0.318929
0.136904 0.590311 0.308614
0.134707 0.586297 0.291661
0.13254 0.579522 0.267704
0.132753 0.571557 0.238209
0.139147 0.563973 0.198245
0.16556 0.566079 0.166567
0.284367 0.595483 0.172122
0.41767 0.650324 0.201907
0.524605 0.693523 0.21529
0.598978 0.709972 0.212833
0.644739 0.706691 0.213809
0.712337 0.711101 0.239963
0.779629 0.720088 0.267704
0.835416 0.73196 0.292058
0.863981 0.747036 0.315129
0.872953 0.760922 0.329564
0.873335 0.763058 0.342275
0.873167 0.766552 0.346807
0.872938 0.769558 0.347997
0.87306 0.772427 0.349264
0.872999 0.774807 0.350011
0.872984 0.776349 0.350362
0.872694 0.777325 0.350408
0.872816 0.778073 0.350729
0.873075 0.778729 0.351217
0.872999 0.779126 0.351339
0.164446 0.652049 0.36585
0.163821 0.651301 0.366018
0.163302 0.65124 0.368185
0.162982 0.651194 0.369467
0.162692 0.651133 0.369909
0.162142 0.650202 0.367468
0.160845 0.648264 0.361715
0.159304 0.645258 0.352346
0.157458 0.641138 0.338033
0.154849 0.635096 0.316884
0.152926 0.625589 0.288792
0.15465 0.615259 0.250935
0.175647 0.612375 0.208453
0.256214 0.626993 0.188952
0.389624 0.672206 0.214038
0.5122 0.728176 0.24506
0.599435 0.760388 0.252384
0.656992 0.771572 0.250141
0.699977 0.769238 0.255558
0.757931 0.769848 0.28069
0.810101 0.773571 0.307851
0.854078 0.781079 0.33138
0.868421 0.800671 0.346303
0.873991 0.812589 0.360449
0.874281 0.815061 0.370016
0.874571 0.817029 0.372946
0.874281 0.818418 0.374502
0.87422 0.819455 0.375555
0.874083 0.820249 0.376257
0.874037 0.820722 0.376776
0.873899 0.82121 0.377188
0.873854 0.82118 0.377188
0.873869 0.821057 0.377127
0.188495 0.701198 0.404532
0.187991 0.700267 0.404562
0.188006 0.700313 0.406867
0.187701 0.699702 0.407904
0.187213 0.698848 0.408148
0.18674 0.69752 0.406027
0.185229 0.69543 0.400381
0.183474 0.692302 0.391653
0.180957 0.687648 0.378119
0.178012 0.680446 0.358663
0.175235 0.670817 0.334127
0.173693 0.659998 0.3028
0.183215 0.651041 0.25066
0.244877 0.657862 0.2159
0.366613 0.69041 0.22797
0.488869 0.742351 0.262348
0.594415 0.788708 0.284566
0.663493 0.810086 0.287739
0.707973 0.816663 0.287297
0.750393 0.814771 0.299443
0.797909 0.815732 0.325673
0.837629 0.820462 0.352285
0.86598 0.835279 0.373159
0.872999 0.843885 0.390478
0.87332 0.848417 0.404425
0.873045 0.848814 0.406287
0.872801 0.849119 0.407126
0.872648 0.849287 0.407599
0.872557 0.84947 0.408133
0.87248 0.849531 0.408392
0.872435 0.849561 0.408499
0.872419 0.849515 0.408453
0.872404 0.849424 0.408301
0.209857 0.737621 0.4365
0.209339 0.736767 0.43653
0.209216 0.736248 0.438499
0.209049 0.735546 0.439353
0.208423 0.734447 0.439643
0.206912 0.732494 0.43653
0.20589 0.730312 0.431708
0.204456 0.726406 0.423743
0.202243 0.72105 0.410925
0.198871 0.714031 0.393729
0.19646 0.704997 0.372747
0.193729 0.693904 0.343832
0.197223 0.683772 0.302602
0.240986 0.684123 0.256397
0.348104 0.704341 0.252872
0.463172 0.745754 0.280186
0.576074 0.795041 0.309117
0.660243 0.825467 0.318486
0.7093 0.838071 0.318914
0.751293 0.841352 0.326207
0.789914 0.844358 0.344076
0.827939 0.844297 0.368887
0.857725 0.84831 0.391623
0.868238 0.853574 0.409537
0.871443 0.857374 0.422782
0.870924 0.857923 0.427298
0.87068 0.858167 0.427527
0.870497 0.858412 0.427634
0.87039 0.858518 0.427588
0.870314 0.858579 0.42771
0.870253 0.858549 0.42771
0.870237 0.858488 0.427588
0.870253 0.858427 0.427497
0.221942 0.757366 0.456931
0.221683 0.756725 0.45658
0.22153 0.756069 0.457343
0.221286 0.755184 0.45745
0.220417 0.753582 0.45568
0.218906 0.751293 0.450843
0.217166 0.747921 0.44303
0.215274 0.743206 0.432532
0.213901 0.737835 0.420981
0.212177 0.731304 0.406561
0.211505 0.724102 0.388769
0.209384 0.713787 0.362936
0.211337 0.704265 0.329442
0.254154 0.702419 0.292515
0.339681 0.714961 0.275898
0.452094 0.74786 0.294102
0.569741 0.797024 0.326711
0.655436 0.829297 0.337926
0.713863 0.844831 0.340642
0.755047 0.852293 0.345617
0.793286 0.855344 0.362219
0.823056 0.852918 0.378103
0.852445 0.851331 0.399542
0.870192 0.857145 0.417243
0.874418 0.859266 0.430274
0.87422 0.859831 0.436973
0.874067 0.859861 0.437263
0.873396 0.859907 0.437491
0.871931 0.860121 0.438712
0.869963 0.860441 0.440528
0.868803 0.860639 0.441566
0.868238 0.860685 0.441947
0.868254 0.86067 0.44155
0.224063 0.759609 0.463508
0.223362 0.758785 0.462287
0.222889 0.757977 0.462211
0.222263 0.75697 0.461494
0.221546 0.755367 0.45977
0.220172 0.752987 0.454688
0.217685 0.749264 0.445914
0.215869 0.744228 0.434913
0.214099 0.738476 0.422263
0.212406 0.731594 0.406943
0.21178 0.7243 0.388525
0.213581 0.717922 0.368368
0.216831 0.711208 0.344625
0.260548 0.707774 0.310948
0.340139 0.717174 0.296437
0.445426 0.744823 0.310842
0.556069 0.790051 0.340032
0.648371 0.826688 0.354986
0.710719 0.844831 0.360555
0.753658 0.853666 0.367193
0.793011 0.856626 0.379995
0.820493 0.853758 0.394461
0.843214 0.850538 0.409277
0.86627 0.857374 0.425315
0.872999 0.859907 0.437064
0.873259 0.86099 0.446372
0.873152 0.861021 0.446571
0.872389 0.861128 0.447242
0.871031 0.861311 0.448218
0.8692 0.861585 0.44979
0.868055 0.861738 0.450889
0.867445 0.861799 0.451194
0.867414 0.861769 0.450935
0.224887 0.761227 0.467811
0.224811 0.760555 0.467185
0.224262 0.75964 0.466621
0.223362 0.758312 0.465064
0.222202 0.756558 0.462211
0.220706 0.753964 0.457099
0.218418 0.750256 0.44831
0.215976 0.7449 0.436027
0.214206 0.738735 0.422934
0.212375 0.731456 0.406653
0.211902 0.723934 0.387091
0.213672 0.717311 0.366583
0.221286 0.710765 0.342092
0.264027 0.707881 0.308675
0.349111 0.718975 0.297551
0.451804 0.746944 0.313695
0.558618 0.791119 0.341924
0.654444 0.828611 0.35729
0.712581 0.845411 0.360983
0.754833 0.853788 0.368261
0.793408 0.856687 0.38146
0.817502 0.854994 0.396231
0.840742 0.854551 0.410925
0.865217 0.858228 0.426612
0.869459 0.860075 0.438773
0.870588 0.861326 0.448264
0.870436 0.861494 0.449165
0.869673 0.861646 0.450446
0.868498 0.86186 0.452003
0.866682 0.862165 0.454414
0.865278 0.862425 0.455985
0.864561 0.862531 0.456428
0.8645 0.862501 0.45623
0.22623 0.76289 0.473884
0.225666 0.761944 0.471977
0.225223 0.760983 0.470237
0.224155 0.759518 0.467948
0.22295 0.757641 0.464729
0.221317 0.754849 0.459052
0.218753 0.750835 0.449546
0.216342 0.745403 0.437522
0.214206 0.738842 0.422782
0.212268 0.73109 0.405936
0.212055 0.723583 0.386175
0.213825 0.716716 0.364538
0.224811 0.710262 0.339178
0.267689 0.708064 0.306874
0.357275 0.720592 0.298146
0.458503 0.749432 0.316167
0.563378 0.793317 0.343954
0.655985 0.828992 0.359838
0.71165 0.845472 0.36257
0.754437 0.853819 0.370001
0.790982 0.856321 0.382818
0.815564 0.8551 0.39649
0.839475 0.855238 0.410925
0.863493 0.858335 0.426291
0.868238 0.860197 0.439048
0.869261 0.861341 0.448188
0.869322 0.861616 0.450202
0.868757 0.861769 0.451118
0.867643 0.861967 0.452628
0.865827 0.862272 0.455131
0.8645 0.862547 0.456443
0.86392 0.862654 0.457267
0.86389 0.862638 0.45716
0.226734 0.764035 0.47657
0.226383 0.763104 0.474922
0.225711 0.761868 0.472587
0.225116 0.760449 0.470085
0.223499 0.758297 0.466514
0.221592 0.755428 0.460105
0.219013 0.751324 0.450446
0.216495 0.745586 0.437522
0.214282 0.738949 0.423331
0.212146 0.730785 0.405386
0.212161 0.723323 0.385489
0.213947 0.716381 0.363439
0.227665 0.70985 0.336721
0.27158 0.708385 0.306157
0.363699 0.721828 0.298299
0.463371 0.751339 0.317632
0.567102 0.794965 0.344671
0.657023 0.829313 0.360906
0.710536 0.84535 0.3635
0.75256 0.853635 0.37203
0.788266 0.856245 0.384787
0.813062 0.855116 0.397131
0.837842 0.85565 0.410544
0.86157 0.857588 0.425223
0.866606 0.859861 0.437766
0.868788 0.86125 0.447318
0.86891 0.861631 0.450278
0.86836 0.861784 0.451301
0.867247 0.861997 0.452842
0.865309 0.862318 0.45536
0.864042 0.862577 0.456596
0.863401 0.862699 0.457496
0.863386 0.862699 0.457618
0.227054 0.764843 0.478492
0.22678 0.763928 0.476799
0.226291 0.762737 0.474922
0.225483 0.761181 0.471824
0.22388 0.758907 0.467643
0.221744 0.75584 0.4607
0.219394 0.751736 0.451316
0.216724 0.745815 0.437934
0.214282 0.738903 0.423178
0.21207 0.730678 0.40528
0.212253 0.723262 0.385336
0.214038 0.716228 0.363058
0.229389 0.709651 0.335424
0.274144 0.708736 0.305974
0.365866 0.722316 0.298253
0.465156 0.75198 0.318166
0.568399 0.795407 0.344671
0.657313 0.829419 0.361151
0.709728 0.845167 0.363073
0.750835 0.853391 0.373022
0.784909 0.856123 0.386435
0.810452 0.855192 0.397986
