bundles/resolve-cinematic-luts/Phantom Luts/P4k & P6K Phntm Film LUTs - V6/P4K/Gen 5 Colour/White Balance Offset (+Magenta Boost)/P4k Bleach Gen5-Legacy WBO.cube
TITLE "Generated by Resolve"
LUT_3D_SIZE 5
0.02533 0.0382086 0.0270085
0.0456397 0.0446021 0.0310063
0.23357 0.0668498 0.0567025
0.711971 0.130846 0.128145
0.813687 0.164462 0.165042
0.0397192 0.0866865 0.0508125
0.0731365 0.100313 0.0444343
0.413367 0.0985122 0.0777905
0.807202 0.170871 0.153307
0.83064 0.199619 0.170993
0.021149 0.425971 0.133715
0.0228885 0.453696 0.0899977
0.548058 0.614801 0.10634
0.953658 0.777417 0.327596
0.953368 0.816754 0.365103
0.125002 0.797086 0.401022
0.143084 0.791287 0.343648
0.616724 0.816236 0.293095
0.925765 0.906996 0.457221
0.930037 0.908888 0.501091
0.122866 0.798215 0.414572
0.162264 0.7897 0.313329
0.735958 0.855253 0.323171
0.929564 0.90866 0.481163
0.930022 0.908888 0.499886
0.025452 0.0410315 0.0420844
0.0483711 0.0435035 0.0466468
0.288258 0.0682078 0.0840009
0.803037 0.174212 0.18854
0.862455 0.201816 0.235309
0.0396429 0.0825666 0.0667887
0.0813916 0.0935225 0.0820783
0.486564 0.0990463 0.0901808
0.819287 0.16759 0.167712
0.833265 0.178073 0.178531
0.0170596 0.428717 0.178302
0.01944 0.452308 0.142657
0.55555 0.614603 0.110353
0.955505 0.75668 0.35494
0.956939 0.808057 0.436988
0.117739 0.801205 0.463951
0.125917 0.797147 0.40177
0.549645 0.804654 0.281132
0.914656 0.902266 0.44126
0.930449 0.909133 0.510521
0.115694 0.80412 0.538872
0.127367 0.798077 0.413367
0.66154 0.827512 0.317693
0.915663 0.902525 0.448692
0.930709 0.9093 0.515404
0.0295415 0.0471046 0.159777
0.0624094 0.0500038 0.188083
0.336568 0.0634928 0.256626
0.809903 0.0705882 0.423362
0.858549 0.0994888 0.547005
0.021088 0.0591135 0.259312
0.045716 0.0541543 0.30988
0.530114 0.0699168 0.392493
0.849851 0.0848859 0.521996
0.869825 0.124575 0.582925
0.016556 0.420783 0.368536
0.0156405 0.442649 0.391669
0.653468 0.614618 0.607996
0.955642 0.68481 0.651835
0.959136 0.715496 0.685359
0.152422 0.80827 0.665309
0.138109 0.805219 0.643839
0.462119 0.810849 0.589258
0.921324 0.911864 0.647227
0.94966 0.924041 0.692348
0.231952 0.819547 0.726513
0.201251 0.815106 0.692271
0.597498 0.847028 0.679469
0.931487 0.924651 0.714961
0.951095 0.928237 0.709773
0.0476234 0.0595407 0.434226
0.0799115 0.0643473 0.503426
0.417914 0.0787213 0.619699
0.853773 0.117342 0.714961
0.911543 0.181491 0.819608
0.035935 0.0743114 0.584756
0.0805676 0.0829786 0.629068
0.587945 0.104189 0.72755
0.907683 0.175723 0.806439
0.92195 0.200687 0.837766
0.0107424 0.461555 0.679805
0.013901 0.481498 0.704753
0.593484 0.585336 0.869108
0.962036 0.647837 0.90695
0.96202 0.686961 0.91577
0.223484 0.809567 0.758099
0.215488 0.805295 0.753872
0.57319 0.833173 0.789639
0.955215 0.925536 0.890547
0.96257 0.934325 0.894789
0.366918 0.827817 0.783368
0.325719 0.824689 0.770443
0.714076 0.897063 0.843503
0.949813 0.950362 0.904265
0.962814 0.950332 0.894606
0.0894789 0.0958114 0.669429
0.133639 0.110277 0.709087
0.502602 0.128252 0.790082
0.916289 0.189837 0.832609
0.918715 0.194125 0.835264
0.0793927 0.112673 0.698802
0.125597 0.117021 0.718441
0.643595 0.140291 0.806653
0.922423 0.201282 0.839704
0.924437 0.20528 0.842374
0.0209201 0.503792 0.75494
0.0223392 0.515526 0.756374
0.609918 0.594491 0.886259
0.961868 0.65922 0.922042
0.961929 0.695247 0.925322
0.298589 0.811963 0.789197
0.291722 0.805966 0.791058
0.658381 0.855695 0.848539
0.94966 0.924681 0.908949
0.9626 0.926574 0.908858
0.378775 0.828641 0.78613
0.39028 0.829572 0.78735
0.760296 0.911589 0.867292
0.957458 0.951629 0.911086
0.962661 0.952102 0.911376
