bundles/resolve-cinematic-luts/Phantom Luts/P4k & P6K Phntm Film LUTs - V6/P4K/Gen 5 Colour/White Balance Offset (+Magenta Boost)/P4k Bleach Gen5-Legacy WBO.cube
TITLE "Generated by Resolve"
LUT_3D_SIZE 9
0.02533 0.0382086 0.0270085
0.02533 0.0382086 0.0270085
0.0456397 0.0446021 0.0310063
0.0970474 0.0509194 0.0389563
0.23357 0.0668498 0.0567025
0.479088 0.0858625 0.0785992
0.711971 0.130846 0.128145
0.807843 0.16112 0.16112
0.813687 0.164462 0.165042
0.0267948 0.0419928 0.0294347
0.0290837 0.0445716 0.0299229
0.0562142 0.0518349 0.0346838
0.144198 0.0571908 0.0462348
0.33138 0.0766308 0.0640574
0.592721 0.101579 0.09308
0.783444 0.153063 0.148547
0.800809 0.159243 0.155535
0.802075 0.160006 0.155581
0.0397192 0.0866865 0.0508125
0.0415808 0.094316 0.0489662
0.0731365 0.100313 0.0444343
0.223896 0.0929274 0.0627451
0.413367 0.0985122 0.0777905
0.64477 0.126696 0.107637
0.807202 0.170871 0.153307
0.816373 0.183017 0.160769
0.83064 0.199619 0.170993
0.0480201 0.207919 0.0904555
0.0478218 0.228824 0.0878462
0.0541848 0.231754 0.0561074
0.20148 0.269368 0.0588998
0.636759 0.338949 0.125597
0.882322 0.402243 0.280415
0.950195 0.463188 0.323903
0.948089 0.501991 0.320745
0.946349 0.545052 0.315496
0.021149 0.425971 0.133715
0.0199741 0.446082 0.129473
0.0228885 0.453696 0.0899977
0.108309 0.482872 0.041062
0.548058 0.614801 0.10634
0.88661 0.740185 0.227405
0.953658 0.777417 0.327596
0.953994 0.794903 0.347677
0.953368 0.816754 0.365103
0.0914626 0.716899 0.321599
0.0991226 0.729656 0.323079
0.109194 0.732296 0.285969
0.153292 0.729671 0.175952
0.601144 0.794705 0.216678
0.808957 0.859342 0.25742
0.931746 0.901946 0.385275
0.930632 0.90573 0.437156
0.930098 0.907607 0.451331
0.125002 0.797086 0.401022
0.127123 0.796231 0.387625
0.143084 0.791287 0.343648
0.207767 0.790661 0.27245
0.616724 0.816236 0.293095
0.826734 0.884215 0.352789
0.925765 0.906996 0.457221
0.930022 0.908888 0.500252
0.930037 0.908888 0.501091
0.1234 0.797925 0.410712
0.127001 0.796292 0.388937
0.150515 0.790234 0.330922
0.271946 0.794034 0.259648
0.691279 0.837964 0.314504
0.854963 0.890288 0.368597
0.926604 0.907286 0.468269
0.930007 0.908873 0.499306
0.930022 0.908888 0.500053
0.122866 0.798215 0.414572
0.128847 0.79585 0.381796
0.162264 0.7897 0.313329
0.382361 0.80058 0.260487
0.735958 0.855253 0.323171
0.878096 0.894896 0.386725
0.929564 0.90866 0.481163
0.930007 0.908873 0.499214
0.930022 0.908888 0.499886
0.0253605 0.038468 0.0281987
0.0253605 0.0382544 0.0270695
0.0488136 0.0422065 0.0380407
0.114092 0.0536202 0.0491798
0.273747 0.0749218 0.0686503
0.524178 0.0945296 0.0914931
0.740902 0.141421 0.14287
0.822232 0.168063 0.173312
0.832288 0.174868 0.181994
0.025864 0.0398566 0.028397
0.0273594 0.0408942 0.0292668
0.0664378 0.0491493 0.0366674
0.160433 0.0590982 0.0496223
0.36112 0.079408 0.06981
0.617914 0.107301 0.102327
0.798352 0.157397 0.156863
0.812329 0.163622 0.164157
0.816037 0.165682 0.166735
0.0404974 0.0846265 0.0553445
0.0411994 0.0932784 0.0535897
0.0739605 0.100206 0.0448615
0.229862 0.0903487 0.0630808
0.428412 0.0972152 0.077348
0.655177 0.126452 0.108888
0.80383 0.168811 0.152895
0.811429 0.17731 0.157549
0.821332 0.188296 0.163882
0.0495003 0.211795 0.100313
0.0492409 0.231876 0.0975967
0.0528115 0.238666 0.0621805
0.207935 0.274846 0.0599527
0.65156 0.344213 0.133165
0.891691 0.406912 0.285435
0.950195 0.465431 0.323964
0.948348 0.500313 0.320623
0.946487 0.536934 0.316426
0.0196384 0.432181 0.143923
0.0187228 0.452689 0.141009
0.0223087 0.459266 0.101472
0.103182 0.487205 0.0408026
0.557214 0.621271 0.110033
0.895933 0.748119 0.232776
0.953979 0.776135 0.333288
0.954376 0.795132 0.355016
0.953918 0.817304 0.375738
0.0915389 0.720165 0.332677
0.0982834 0.732586 0.334279
0.108064 0.734142 0.297765
0.149767 0.732341 0.183536
0.600137 0.796078 0.217456
0.811368 0.860792 0.258869
0.931975 0.901595 0.388785
0.9308 0.905425 0.436667
0.930098 0.907607 0.451179
0.12282 0.798245 0.415061
0.124834 0.797147 0.401877
0.138201 0.793027 0.354437
0.201572 0.790326 0.277256
0.608728 0.814496 0.290044
0.82388 0.883452 0.35314
0.924376 0.906371 0.454612
0.930129 0.908949 0.502388
0.930159 0.908965 0.503075
0.120363 0.79968 0.434897
0.123384 0.797925 0.410803
0.142351 0.792172 0.347753
0.24477 0.792569 0.260639
0.680766 0.833921 0.314153
0.848554 0.889067 0.366339
0.924559 0.906355 0.463539
0.930129 0.908934 0.502342
0.930159 0.908965 0.502968
0.118791 0.800626 0.451225
0.122896 0.798215 0.414572
0.149386 0.790814 0.335241
0.326482 0.798535 0.257252
0.719524 0.848783 0.323888
0.872343 0.894972 0.378958
0.929076 0.908431 0.476295
0.930144 0.908965 0.502831
0.930159 0.90898 0.50341
0.025452 0.0410315 0.0420844
0.032578 0.04094 0.0411688
0.0483711 0.0435035 0.0466468
0.120226 0.0489662 0.0634012
0.288258 0.0682078 0.0840009
0.565118 0.10103 0.112642
0.803037 0.174212 0.18854
0.857771 0.199863 0.219577
0.862455 0.201816 0.235309
0.0274662 0.0463722 0.0434424
0.0248875 0.0409552 0.0502785
0.0677501 0.0460365 0.0599527
0.191531 0.0541543 0.0764324
0.434104 0.0837873 0.0974594
0.690135 0.135683 0.148119
0.849592 0.193927 0.209689
0.859724 0.202441 0.224872
0.863203 0.203906 0.23595
0.0396429 0.0825666 0.0667887
0.0405585 0.0893568 0.0728923
0.0813916 0.0935225 0.0820783
0.24683 0.0959487 0.0853895
0.486564 0.0990463 0.0901808
0.687678 0.128664 0.124895
0.819287 0.16759 0.167712
0.826642 0.172534 0.173022
0.833265 0.178073 0.178531
0.0492256 0.208179 0.126406
0.0489815 0.226535 0.130755
0.0524453 0.234531 0.100328
0.226169 0.276493 0.0787213
0.660639 0.309773 0.162615
0.900725 0.378408 0.289189
0.950088 0.422248 0.324224
0.951339 0.454719 0.331441
0.949264 0.49601 0.33344
0.0170596 0.428717 0.178302
0.015671 0.449165 0.177935
0.01944 0.452308 0.142657
0.0622416 0.471992 0.0444038
0.55555 0.614603 0.110353
0.907973 0.738903 0.254185
0.955505 0.75668 0.35494
0.956893 0.779812 0.390127
0.956939 0.808057 0.436988
0.0828717 0.712489 0.359045
0.0889448 0.725307 0.36289
0.0949111 0.724712 0.329976
0.129946 0.727703 0.227298
0.563668 0.784497 0.209796
0.802762 0.852918 0.251423
0.933257 0.898024 0.384817
0.931777 0.9028 0.436088
0.930724 0.906233 0.451072
0.117739 0.801205 0.463951
0.118776 0.800626 0.451469
0.125917 0.797147 0.40177
0.170703 0.789914 0.305623
0.549645 0.804654 0.281132
0.802823 0.877256 0.351598
0.914656 0.902266 0.44126
0.930419 0.909102 0.50956
0.930449 0.909133 0.510521
0.11516 0.802625 0.502983
0.116564 0.801709 0.479484
0.125948 0.797818 0.409857
0.184985 0.789914 0.295476
0.614374 0.814862 0.302342
0.82034 0.88249 0.359777
0.912718 0.901381 0.445808
0.930358 0.909072 0.508064
0.930556 0.909209 0.512154
0.115694 0.80412 0.538872
0.115099 0.802655 0.503944
0.127367 0.798077 0.413367
0.208743 0.790829 0.283955
0.66154 0.827512 0.317693
0.844114 0.888457 0.36939
0.915663 0.902525 0.448692
0.930327 0.909072 0.507103
0.930709 0.9093 0.515404
0.0246738 0.0428626 0.0771191
0.0343175 0.0437781 0.0776837
0.059266 0.0466468 0.0868544
0.127367 0.0504005 0.102113
0.318685 0.0551156 0.142199
0.577249 0.0711833 0.179431
0.816098 0.149798 0.245014
0.861219 0.150622 0.290227
0.847791 0.11281 0.33135
0.0243992 0.048127 0.0972152
0.0285496 0.0449989 0.114488
0.0700084 0.0487373 0.13994
0.205921 0.0548104 0.157977
0.466468 0.05626 0.195056
0.688792 0.0800336 0.247913
0.859754 0.147189 0.294728
0.855894 0.122362 0.327352
0.847074 0.0949264 0.368383
0.0283665 0.0761578 0.129397
0.0265507 0.0763867 0.14995
0.0527657 0.0684825 0.175402
0.24538 0.0688029 0.190661
0.513832 0.0605783 0.200198
0.729809 0.10518 0.235172
0.867292 0.165255 0.286534
0.866773 0.1505 0.306828
0.863264 0.130541 0.332219
0.0452888 0.204349 0.179599
0.04477 0.221439 0.196704
0.0460059 0.223758 0.201785
0.290623 0.275425 0.271519
0.645518 0.294942 0.270939
0.907652 0.361074 0.337667
0.939147 0.378485 0.350774
0.945556 0.418082 0.386694
0.947433 0.464714 0.421546
0.0174105 0.423758 0.261082
0.0157168 0.443595 0.268727
0.0162051 0.445365 0.251575
0.0886244 0.48809 0.214542
0.607263 0.623667 0.271
0.913039 0.697795 0.447776
0.959075 0.714504 0.472374
0.960433 0.731533 0.492088
0.962264 0.749218 0.515511
0.074052 0.697826 0.444694
0.0785687 0.710491 0.454612
0.0779431 0.709773 0.418784
0.0995651 0.710124 0.327779
0.473533 0.758236 0.29424
0.803449 0.838697 0.326787
0.938842 0.88661 0.445396
0.939941 0.889281 0.499702
0.938537 0.894926 0.520302
0.116976 0.805035 0.564462
0.116533 0.804669 0.558648
0.115419 0.803326 0.519921
0.13904 0.797314 0.408896
0.394583 0.798047 0.330953
0.772442 0.865522 0.395453
0.903471 0.896696 0.466865
0.93373 0.911635 0.565316
0.934539 0.91249 0.575341
0.125505 0.80798 0.611643
0.122408 0.80708 0.597559
0.117403 0.804562 0.551019
0.158083 0.798016 0.429816
0.475547 0.801587 0.376303
0.789746 0.87071 0.444907
0.900847 0.897963 0.475013
0.933486 0.911467 0.56257
0.935668 0.913558 0.588052
0.143679 0.811643 0.649531
0.131334 0.809522 0.62829
0.121096 0.805585 0.573343
0.20943 0.797833 0.462501
0.555596 0.810513 0.44477
0.816831 0.880079 0.502602
0.905043 0.898009 0.502373
0.934218 0.912093 0.570657
0.937102 0.914641 0.601465
0.0295415 0.0471046 0.159777
0.0370489 0.0478981 0.164538
0.0624094 0.0500038 0.188083
0.147219 0.0544594 0.225223
0.336568 0.0634928 0.256626
0.602594 0.0786603 0.321386
0.809903 0.0705882 0.423362
0.8448 0.0773938 0.492302
0.858549 0.0994888 0.547005
0.0243534 0.0493324 0.220447
0.0336461 0.0509651 0.250263
0.070985 0.0539864 0.282307
0.227008 0.0620432 0.330892
0.486534 0.0673686 0.351598
0.712154 0.0975357 0.443793
0.850721 0.0856641 0.514199
0.860182 0.101015 0.551232
0.871443 0.131319 0.588434
0.021088 0.0591135 0.259312
0.0206149 0.0575875 0.285283
0.045716 0.0541543 0.30988
0.235294 0.0636301 0.377462
0.530114 0.0699168 0.392493
0.748486 0.100313 0.475334
0.849851 0.0848859 0.521996
0.85951 0.104021 0.553353
0.869825 0.124575 0.582925
0.0196994 0.188174 0.338079
0.0179599 0.201648 0.367987
0.0170291 0.193332 0.392721
0.206851 0.204746 0.513252
0.640482 0.210315 0.546578
0.886275 0.241581 0.584634
0.924636 0.232456 0.60708
0.943145 0.282094 0.650828
0.961959 0.356573 0.693462
0.016556 0.420783 0.368536
0.0152895 0.44065 0.387289
0.0156405 0.442649 0.391669
0.119081 0.496925 0.46421
0.653468 0.614618 0.607996
0.891295 0.66041 0.634531
0.955642 0.68481 0.651835
0.957351 0.698512 0.66717
0.959136 0.715496 0.685359
0.0771344 0.686244 0.556329
0.0821546 0.698604 0.568689
0.0808881 0.694423 0.556985
0.109712 0.691463 0.524437
0.538659 0.761349 0.593942
0.836149 0.829435 0.620554
0.962234 0.871412 0.702602
0.962356 0.881422 0.71075
0.962325 0.88835 0.721202
0.152422 0.80827 0.665309
0.151537 0.808911 0.663905
0.138109 0.805219 0.643839
0.150958 0.797986 0.592706
0.462119 0.810849 0.589258
0.780896 0.878828 0.643702
0.921324 0.911864 0.647227
0.947646 0.922408 0.677485
0.94966 0.924041 0.692348
0.200534 0.81677 0.70425
0.191714 0.816098 0.697383
0.17499 0.813703 0.6748
0.199725 0.807645 0.625437
0.5299 0.827619 0.636011
0.775708 0.886183 0.679088
0.922011 0.918685 0.68484
0.945251 0.923049 0.673274
0.948959 0.926085 0.694316
0.231952 0.819547 0.726513
0.219059 0.818082 0.717159
0.201251 0.815106 0.692271
0.273884 0.807919 0.650446
0.597498 0.847028 0.679469
0.817075 0.901534 0.720775
0.931487 0.924651 0.714961
0.948089 0.925978 0.696986
0.951095 0.928237 0.709773
0.0354009 0.0525673 0.284627
0.0467842 0.0538186 0.299321
0.0698558 0.0561379 0.330266
0.152972 0.0610056 0.394781
0.387701 0.0707713 0.456596
0.627497 0.0774853 0.506432
0.857176 0.166155 0.612024
0.871275 0.144442 0.659876
0.861662 0.121675 0.690181
0.0344396 0.0564584 0.371878
0.046891 0.0588083 0.417288
0.0806287 0.0618143 0.459998
0.226612 0.0694285 0.535637
0.531243 0.0762951 0.561105
0.728267 0.0856641 0.598779
0.86952 0.140826 0.673152
0.860502 0.118532 0.692012
0.858915 0.109407 0.710704
0.0204623 0.0615702 0.42678
0.0255894 0.0602426 0.458518
0.0591592 0.0635691 0.495537
0.221012 0.0719921 0.570581
0.56379 0.0800336 0.593729
0.76144 0.0903029 0.626551
0.853376 0.111879 0.671763
0.84509 0.0939651 0.684001
0.863645 0.116121 0.715007
0.014313 0.146975 0.514427
0.0146792 0.158511 0.542428
0.0164492 0.144884 0.557641
0.154788 0.144137 0.630869
0.615274 0.15404 0.687388
0.842573 0.163821 0.701579
0.9075 0.199451 0.730663
0.931777 0.245914 0.773846
0.954406 0.297154 0.82121
0.00393683 0.436667 0.566796
0.00457771 0.457465 0.581933
0.00462348 0.458778 0.5953
0.0814374 0.487861 0.65832
0.615793 0.593835 0.786084
0.921447 0.625299 0.817853
0.961929 0.637263 0.816999
0.962005 0.654688 0.83125
0.96173 0.675746 0.843229
0.0826276 0.688853 0.642145
0.0874647 0.701106 0.653696
0.0883345 0.698863 0.652461
0.121767 0.697643 0.655451
0.588479 0.769024 0.742901
0.869108 0.819577 0.807233
0.962051 0.846036 0.819196
0.962264 0.858717 0.826383
0.96228 0.870069 0.836774
0.196796 0.808927 0.719265
0.196841 0.809354 0.719326
0.186755 0.804181 0.709422
0.212238 0.794736 0.692317
0.564645 0.831724 0.735149
0.827787 0.90901 0.817212
0.948943 0.927657 0.816846
0.962463 0.930037 0.827253
0.962539 0.931517 0.83061
0.268055 0.821668 0.747967
0.26215 0.821271 0.744839
0.254643 0.820417 0.735714
0.281743 0.816205 0.71928
0.609934 0.861494 0.765835
0.828946 0.924178 0.834821
0.940795 0.941924 0.840284
0.962509 0.941802 0.822141
0.962707 0.943832 0.837079
0.294194 0.822812 0.761379
0.282078 0.822095 0.755352
0.271778 0.820905 0.743572
0.352789 0.823178 0.737682
0.668574 0.880858 0.799176
0.861051 0.932464 0.857053
0.942641 0.944244 0.857862
0.962722 0.944549 0.844755
0.962707 0.943908 0.836896
0.0476234 0.0595407 0.434226
0.0593576 0.0614481 0.465904
0.0799115 0.0643473 0.503426
0.160769 0.0714122 0.564904
0.417914 0.0787213 0.619699
0.675151 0.0972457 0.654185
0.853773 0.117342 0.714961
0.895247 0.157427 0.77937
0.911543 0.181491 0.819608
0.0508431 0.0683909 0.545754
0.0654917 0.0735027 0.580407
0.0990921 0.0777752 0.607523
0.233356 0.0878767 0.661509
0.55697 0.0946822 0.698009
0.788602 0.128542 0.738064
0.900587 0.165606 0.789136
0.915724 0.187961 0.827268
0.919142 0.194537 0.835798
0.035935 0.0743114 0.584756
0.0459602 0.0788128 0.607126
0.0805676 0.0829786 0.629068
0.234043 0.0946975 0.687556
0.587945 0.104189 0.72755
0.827771 0.146761 0.767544
0.907683 0.175723 0.806439
0.916106 0.189807 0.825727
0.92195 0.200687 0.837766
0.0146334 0.129061 0.609964
0.0146334 0.135775 0.62295
0.0170443 0.124468 0.630793
0.151446 0.129931 0.707088
0.590143 0.147356 0.780972
0.86038 0.186374 0.805234
0.929793 0.223117 0.826322
0.95375 0.279881 0.867597
0.967727 0.32842 0.891905
0.0107424 0.461555 0.679805
0.0127565 0.483742 0.691966
0.013901 0.481498 0.704753
0.0762341 0.507485 0.763424
0.593484 0.585336 0.869108
0.935714 0.636942 0.909224
0.962036 0.647837 0.90695
0.962005 0.666407 0.910735
0.96202 0.686961 0.91577
0.12192 0.696529 0.743847
0.131685 0.705608 0.752041
0.125734 0.702724 0.755413
0.170642 0.708415 0.776776
0.584924 0.762951 0.832517
0.857633 0.812528 0.888731
0.961868 0.823102 0.897292
0.961868 0.832425 0.899062
0.96199 0.845701 0.900145
0.223484 0.809567 0.758099
0.223835 0.809781 0.758419
0.215488 0.805295 0.753872
0.238224 0.798627 0.748989
0.57319 0.833173 0.789639
0.86363 0.916503 0.879393
0.955215 0.925536 0.890547
0.962448 0.931487 0.893416
0.96257 0.934325 0.894789
0.328969 0.825177 0.77435
0.320348 0.82443 0.771695
0.308125 0.823178 0.764248
0.335195 0.823575 0.758709
0.651026 0.875395 0.815061
0.881148 0.938369 0.887282
0.948318 0.948486 0.897765
0.962631 0.948821 0.891722
0.962646 0.949737 0.896849
0.366918 0.827817 0.783368
0.351034 0.826719 0.78027
0.325719 0.824689 0.770443
0.412207 0.830243 0.771527
0.714076 0.897063 0.843503
0.900984 0.943572 0.8972
0.949813 0.950362 0.904265
0.96286 0.951141 0.899016
0.962814 0.950332 0.894606
0.0640421 0.0724193 0.573297
0.0779431 0.0769818 0.602502
0.101427 0.0825208 0.627909
0.18735 0.0929427 0.674922
0.449607 0.100755 0.729473
0.735897 0.139254 0.784649
0.909133 0.183017 0.822889
0.918135 0.193042 0.834379
0.918166 0.193103 0.834424
0.0761578 0.0911574 0.655207
0.0928817 0.0990311 0.67805
0.129946 0.105409 0.699825
0.267643 0.118944 0.74699
0.592706 0.12726 0.789212
0.849088 0.176532 0.828367
0.919738 0.195468 0.83653
0.91957 0.195102 0.836316
0.919753 0.195499 0.836545
0.0653239 0.102815 0.677913
0.0753185 0.106935 0.688273
0.111757 0.111666 0.705989
0.269429 0.127565 0.760815
0.621057 0.136843 0.803555
0.871183 0.18172 0.830396
0.922271 0.200977 0.839521
0.923095 0.202502 0.840497
0.924208 0.204547 0.841978
0.0193027 0.132952 0.661418
0.0216983 0.146181 0.6757
0.0267491 0.130449 0.675242
0.174228 0.141573 0.746349
0.589929 0.152697 0.811994
0.877989 0.213413 0.849409
0.94609 0.255253 0.868254
0.957 0.286152 0.882124
0.968948 0.333471 0.899168
0.0171206 0.48304 0.739208
0.0203861 0.505592 0.747936
0.0203403 0.5028 0.754345
0.101457 0.522728 0.785428
0.599115 0.589776 0.884398
0.935409 0.6448 0.923033
0.962173 0.655909 0.921813
0.961944 0.673716 0.9234
0.9617 0.692515 0.924727
0.141543 0.722545 0.790539
0.152605 0.729488 0.794018
0.149218 0.726162 0.797024
0.209049 0.725124 0.805234
0.576669 0.761349 0.851575
0.848905 0.815549 0.911955
0.961959 0.829847 0.922972
0.962081 0.837781 0.922362
0.962081 0.848676 0.921279
0.264424 0.811261 0.783383
0.263554 0.811109 0.783505
0.248432 0.80618 0.783368
0.289357 0.798825 0.786526
0.621073 0.843641 0.834241
0.878691 0.920577 0.903258
0.950408 0.923766 0.907423
0.962448 0.924941 0.906783
0.962692 0.927245 0.908171
0.375143 0.828473 0.785565
0.371664 0.828229 0.784863
0.361242 0.827543 0.781964
0.38407 0.827909 0.781247
0.663035 0.879118 0.832578
0.884031 0.939529 0.897581
0.954086 0.948623 0.90901
0.962676 0.949294 0.910262
0.962753 0.950286 0.910704
0.378775 0.828641 0.78613
0.379141 0.828672 0.786191
0.382986 0.828931 0.785901
0.476585 0.835645 0.790158
0.736797 0.904326 0.858793
0.912291 0.945876 0.905806
0.957412 0.951629 0.91104
0.962661 0.951873 0.911299
0.962661 0.951675 0.91107
0.0894789 0.0958114 0.669429
0.107912 0.104417 0.693294
0.133639 0.110277 0.709087
0.228901 0.122667 0.746944
0.502602 0.128252 0.790082
0.782788 0.166217 0.82388
0.916289 0.189837 0.832609
0.918944 0.194354 0.835554
0.918715 0.194125 0.835264
0.103975 0.115145 0.709804
0.117281 0.116335 0.714855
0.155077 0.119768 0.729046
0.298939 0.130114 0.768978
0.622354 0.137026 0.803708
0.866712 0.179416 0.829297
0.919234 0.194644 0.835935
0.920043 0.196139 0.836896
0.92018 0.196445 0.837049
0.0793927 0.112673 0.698802
0.086717 0.113603 0.702235
0.125597 0.117021 0.718441
0.290822 0.129809 0.767315
0.643595 0.140291 0.806653
0.884138 0.182895 0.83035
0.922423 0.201282 0.839704
0.923873 0.203601 0.841413
0.924437 0.20528 0.842374
0.0272831 0.142977 0.682765
0.0266423 0.153063 0.689281
0.030045 0.129381 0.677607
0.180026 0.138308 0.745953
0.599298 0.148516 0.810575
0.897826 0.231556 0.85832
0.94789 0.260594 0.870863
0.955474 0.280781 0.880446
0.968505 0.342077 0.901244
0.0209201 0.503792 0.75494
0.0234836 0.523583 0.757641
0.0223392 0.515526 0.756374
0.115358 0.529091 0.790402
0.609918 0.594491 0.886259
0.940261 0.647898 0.923293
0.961868 0.65922 0.922042
0.961898 0.677028 0.923674
0.961929 0.695247 0.925322
0.179904 0.735332 0.801236
0.190524 0.738903 0.801617
0.181247 0.733166 0.801572
0.220081 0.726055 0.806439
0.588113 0.764431 0.853895
0.854002 0.818708 0.912902
0.962005 0.833265 0.922683
0.961959 0.840574 0.922377
0.96228 0.850416 0.921111
0.298589 0.811963 0.789197
0.297642 0.811124 0.789364
0.291722 0.805966 0.791058
0.333989 0.801358 0.79678
0.658381 0.855695 0.848539
0.877043 0.919432 0.904051
0.94966 0.924681 0.908949
0.962448 0.924651 0.908171
0.9626 0.926574 0.908858
0.378775 0.828641 0.78613
0.378805 0.828656 0.78616
0.377325 0.828519 0.786374
0.422309 0.830198 0.790692
0.696376 0.88986 0.848005
0.903212 0.942733 0.904768
0.957748 0.94902 0.911131
0.962692 0.94876 0.911543
0.962692 0.948928 0.91162
0.378775 0.828641 0.78613
0.379278 0.828687 0.786221
0.39028 0.829572 0.78735
0.518227 0.841154 0.798917
0.760296 0.911589 0.867292
0.914443 0.946212 0.906508
0.957458 0.951629 0.911086
0.962661 0.951888 0.911421
0.962661 0.952102 0.911376
