bundles/resolve-cinematic-luts/Phantom Luts/P4k & P6K Phntm Film LUTs - V6/P4K/Gen 5 Colour/White Balance Offset (+Magenta Boost)/P4k Eastman Gen5-Legacy WBO.cube
TITLE "Generated by Resolve"
LUT_3D_SIZE 5
0.0390021 0.0390021 0.0390021
0.093904 0.0390021 0.0467231
0.405493 0.0772717 0.0563516
0.654139 0.157885 0.142885
0.631891 0.16965 0.147372
0.0674144 0.0940566 0.0702678
0.0958724 0.103044 0.063035
0.443427 0.118669 0.0779126
0.655894 0.185214 0.148501
0.651621 0.196902 0.153826
0.125948 0.535546 0.281376
0.114733 0.52755 0.239155
0.584878 0.636652 0.17734
0.867735 0.703578 0.318517
0.868116 0.721569 0.333059
0.22623 0.76289 0.473884
0.214206 0.738842 0.422782
0.563378 0.793317 0.343954
0.868238 0.860197 0.439048
0.86389 0.862638 0.45716
0.228855 0.767437 0.486976
0.214267 0.741009 0.422187
0.561456 0.79324 0.332799
0.870909 0.858061 0.425879
0.861479 0.862913 0.458671
0.0390021 0.0390021 0.0636912
0.0977035 0.0396429 0.0764782
0.426261 0.060502 0.0733043
0.689921 0.158785 0.197833
0.667659 0.163333 0.211017
0.0627298 0.0892653 0.0833448
0.100511 0.0932174 0.0981765
0.467933 0.111696 0.0827344
0.654719 0.168826 0.153719
0.643626 0.172488 0.155566
0.132479 0.546029 0.321736
0.12221 0.536858 0.297597
0.580285 0.625696 0.175158
0.863966 0.679728 0.322774
0.865599 0.701106 0.340978
0.238895 0.78439 0.51342
0.226017 0.762875 0.470909
0.492164 0.76231 0.327611
0.86334 0.858778 0.433051
0.864378 0.863127 0.460655
0.244419 0.790539 0.532708
0.226398 0.766079 0.471077
0.48249 0.759289 0.314855
0.859022 0.855039 0.41619
0.860746 0.863813 0.465629
0.0390021 0.0533608 0.271702
0.0554971 0.0553292 0.304112
0.417334 0.0620127 0.32108
0.66952 0.154986 0.426688
0.689418 0.195651 0.476768
0.0390021 0.0627146 0.284489
0.0390021 0.0572671 0.309743
0.443015 0.0720073 0.345174
0.67715 0.157519 0.438254
0.677623 0.173007 0.46421
0.127733 0.56379 0.463539
0.126329 0.564477 0.473548
0.621057 0.61387 0.612772
0.857664 0.545708 0.531716
0.85481 0.553857 0.540124
0.31339 0.857191 0.684627
0.298222 0.849256 0.669932
0.433097 0.802518 0.587762
0.86186 0.87715 0.565576
0.88217 0.884779 0.589853
0.32665 0.860273 0.703258
0.302922 0.851347 0.676326
0.411963 0.800946 0.576532
0.849699 0.887053 0.59324
0.881758 0.890303 0.616464
0.0390021 0.0933547 0.42977
0.0686961 0.0983139 0.459113
0.498177 0.16408 0.601923
0.700801 0.220066 0.636255
0.701076 0.220081 0.63653
0.0390021 0.0997024 0.426291
0.0418402 0.105715 0.451804
0.536721 0.183185 0.625818
0.706401 0.224979 0.642588
0.707683 0.226062 0.643671
0.10898 0.574044 0.64303
0.107347 0.568063 0.648951
0.449607 0.531884 0.797024
0.923308 0.572519 0.865827
0.923125 0.5776 0.864729
0.391089 0.880034 0.779126
0.367803 0.870359 0.767086
0.542397 0.884565 0.807752
0.904753 0.918379 0.896513
0.923629 0.918471 0.891814
0.435264 0.891356 0.797543
0.414786 0.886519 0.786007
0.56788 0.908309 0.81915
0.879103 0.945006 0.907546
0.924468 0.949248 0.894118
0.0555428 0.112383 0.46656
0.106844 0.114687 0.49366
0.542367 0.185428 0.628733
0.7037 0.222324 0.639384
0.702922 0.221363 0.638437
0.0390021 0.108507 0.442786
0.059678 0.112367 0.468849
0.563775 0.191913 0.633433
0.707759 0.226154 0.643778
0.708324 0.22681 0.64448
0.113588 0.582315 0.663111
0.10837 0.570825 0.658717
0.451194 0.521004 0.799542
0.92369 0.566323 0.868315
0.923445 0.569528 0.868376
0.414145 0.88246 0.795804
0.39559 0.871321 0.789822
0.582055 0.882063 0.844297
0.893385 0.912963 0.920394
0.924681 0.902861 0.917159
0.451606 0.895003 0.805997
0.453315 0.895262 0.806729
0.623423 0.918456 0.853223
0.899565 0.949813 0.924025
0.926741 0.953857 0.924865
