bundles/resolve-cinematic-luts/Phantom Luts/P4k & P6K Phntm Film LUTs - V6/P4K/Gen 5 Colour/White Balance Offset (+Magenta Boost)/P4k Eterna Gen5-Legacy WBO.cube
TITLE "Generated by Resolve"
LUT_3D_SIZE 5
0.0168307 0.0445258 0.0445716
0.0953994 0.0586099 0.0521859
0.459754 0.132433 0.150835
0.760082 0.193011 0.235904
0.78648 0.19321 0.248814
0.0464637 0.113725 0.0802319
0.0896773 0.122728 0.0663157
0.523629 0.14519 0.158099
0.751751 0.188113 0.21854
0.758618 0.188144 0.220401
0.129946 0.71902 0.393194
0.133761 0.776913 0.406195
0.652705 0.763241 0.195422
0.963256 0.824735 0.397406
0.962188 0.811078 0.384604
0.273381 0.938811 0.595941
0.274327 0.938323 0.58053
0.374746 0.943221 0.417472
0.965667 0.953658 0.632609
0.963302 0.955154 0.63711
0.261021 0.942504 0.603387
0.277043 0.937713 0.589654
0.313771 0.933883 0.482826
0.941421 0.948379 0.54052
0.959731 0.957061 0.631907
0.0195621 0.0477455 0.0849012
0.0978866 0.0561074 0.0822156
0.473625 0.134386 0.17586
0.815564 0.211719 0.280293
0.832807 0.209949 0.302693
0.0447547 0.102892 0.0931411
0.0936141 0.10869 0.107393
0.542885 0.144152 0.179019
0.803708 0.204089 0.26305
0.824033 0.210758 0.286763
0.104112 0.666865 0.40174
0.10277 0.717113 0.407584
0.631159 0.738155 0.182055
0.963027 0.822507 0.409323
0.962127 0.803204 0.391531
0.27396 0.940887 0.656138
0.275624 0.939712 0.633127
0.392248 0.944717 0.415717
0.965515 0.953735 0.632212
0.963165 0.955322 0.641108
0.267079 0.943587 0.683757
0.279896 0.939406 0.657038
0.317403 0.934554 0.479011
0.935592 0.947875 0.532265
0.959548 0.957229 0.636133
0.0619364 0.0620127 0.361273
0.119158 0.0691997 0.393378
0.533547 0.101869 0.317693
0.7411 0.118318 0.367681
0.758816 0.100755 0.436149
0.0339818 0.069276 0.263569
0.0446174 0.0614633 0.383001
0.564645 0.121767 0.394141
0.767605 0.134691 0.463813
0.808667 0.1673 0.579675
0.101167 0.587228 0.500862
0.0898909 0.629587 0.56141
0.622843 0.626093 0.602365
0.96199 0.653056 0.632792
0.962356 0.632319 0.65597
0.364065 0.946258 0.841489
0.348592 0.953231 0.859709
0.506371 0.956146 0.766552
0.961089 0.95082 0.704295
0.968368 0.955947 0.78262
0.385931 0.955413 0.890959
0.382269 0.956466 0.893431
0.487175 0.952483 0.814404
0.93608 0.953262 0.775677
0.962539 0.958541 0.774365
0.169009 0.135805 0.688594
0.197696 0.139574 0.703044
0.650233 0.164279 0.794293
0.790433 0.166567 0.746975
0.784451 0.159716 0.728069
0.0966201 0.112413 0.634134
0.141131 0.134722 0.681453
0.572168 0.162295 0.800519
0.802335 0.184848 0.79205
0.804044 0.186007 0.795697
0.0988174 0.598825 0.774823
0.112779 0.603265 0.814404
0.335256 0.602838 0.952682
0.960494 0.513466 0.935485
0.960372 0.517647 0.943908
0.462287 0.957824 0.935546
0.450477 0.958877 0.937575
0.546868 0.952972 0.928923
0.956115 0.956191 0.954513
0.965209 0.957717 0.9561
0.51957 0.95848 0.95201
0.52636 0.95964 0.955489
0.66212 0.958297 0.95053
0.953185 0.963882 0.962844
0.969085 0.963943 0.957763
0.188006 0.138598 0.699351
0.202441 0.139788 0.704311
0.547921 0.160311 0.797635
0.802563 0.183932 0.79411
0.802228 0.183505 0.793591
0.131792 0.133288 0.677623
0.144472 0.135241 0.683192
0.404334 0.153414 0.769039
0.804395 0.185992 0.796658
0.804395 0.185992 0.796643
0.149615 0.639643 0.885328
0.146975 0.638254 0.88397
0.1243 0.561181 0.868376
0.951949 0.438102 0.951949
0.945556 0.405615 0.945541
0.537377 0.958373 0.95848
0.521889 0.957137 0.958572
0.464378 0.944121 0.959289
0.917769 0.947158 0.959152
0.959579 0.94139 0.959579
0.551446 0.959289 0.958389
0.551446 0.959289 0.958389
0.570672 0.959045 0.958709
0.951034 0.963638 0.963684
0.966705 0.966705 0.966705
