bundles/resolve-cinematic-luts/Phantom Luts/P4k & P6K Phntm Film LUTs - V6/P4K/Gen 5 Colour/White Balance Offset (+Magenta Boost)/P4k Bleach Gen5-Legacy WBO.cube
TITLE "Generated by Resolve"
LUT_3D_SIZE 33
0.02533 0.0382086 0.0270085
0.02533 0.0382086 0.0270085
0.02533 0.0382086 0.0270085
0.02533 0.0382086 0.0270085
0.02533 0.0382086 0.0270085
0.0313115 0.0401007 0.028748
0.0363775 0.0418402 0.0303044
0.0409094 0.0431525 0.0310826
0.0456397 0.0446021 0.0310063
0.057145 0.0460365 0.0327001
0.0679484 0.0474098 0.034165
0.0802625 0.0487526 0.0360876
0.0970474 0.0509194 0.0389563
0.119448 0.0533608 0.0431678
0.150301 0.0574197 0.0478523
0.188846 0.062089 0.0526436
0.23357 0.0668498 0.0567025
0.282612 0.0722057 0.0616159
0.336263 0.0771038 0.0673075
0.402319 0.0818647 0.0728923
0.479088 0.0858625 0.0785992
0.542473 0.0930037 0.0865797
0.598596 0.10309 0.0975814
0.65565 0.116167 0.111757
0.711971 0.130846 0.128145
0.769848 0.147448 0.146654
0.792996 0.155428 0.155077
0.806195 0.159915 0.159686
0.807843 0.16112 0.16112
0.809552 0.162097 0.162295
0.811261 0.162997 0.163516
0.812604 0.16379 0.164401
0.813687 0.164462 0.165042
0.02533 0.0382086 0.0270085
0.02533 0.0382086 0.0270085
0.02533 0.0382086 0.0270085
0.02533 0.0382086 0.0270085
0.0268101 0.0388495 0.027512
0.0332799 0.0408637 0.0293736
0.0380102 0.0424353 0.0308995
0.0425422 0.0439307 0.0310979
0.0527657 0.0456703 0.0322576
0.0648051 0.0472572 0.0337835
0.0780499 0.0486152 0.0357824
0.0949569 0.0508583 0.038819
0.118029 0.0532845 0.0429541
0.149264 0.0573129 0.0476844
0.187686 0.0619364 0.0523537
0.233646 0.0667735 0.0565652
0.283742 0.0722362 0.0615702
0.338842 0.0773175 0.0674296
0.407019 0.082063 0.0729229
0.482185 0.0860761 0.0786908
0.545434 0.0935988 0.0869306
0.600732 0.103502 0.0978408
0.657588 0.11667 0.112245
0.713649 0.131395 0.128511
0.769024 0.147311 0.146304
0.792477 0.155306 0.154528
0.805707 0.159625 0.15906
0.807126 0.160754 0.160327
0.808576 0.161624 0.161349
0.810086 0.162417 0.16231
0.811322 0.163043 0.163149
0.812329 0.163592 0.163867
0.813062 0.164034 0.16434
0.02533 0.0382086 0.0270085
0.02533 0.0382086 0.0270085
0.02533 0.0382086 0.0270085
0.02533 0.0382086 0.0270085
0.0279698 0.0392462 0.0278019
0.0336461 0.0413519 0.0296483
0.0390784 0.043183 0.0314488
0.044892 0.0452583 0.031754
0.0568551 0.0467689 0.0329137
0.0701152 0.0486 0.0348974
0.0849928 0.0501869 0.0373541
0.106081 0.0522927 0.0408484
0.134646 0.0551919 0.044892
0.169558 0.059205 0.049134
0.211978 0.0640726 0.0537423
0.260578 0.0692149 0.0581369
0.314504 0.0750439 0.0644388
0.377646 0.0804608 0.0703288
0.452735 0.0841688 0.0754406
0.519417 0.0898451 0.0825971
0.577859 0.0988022 0.0924544
0.633616 0.110674 0.10544
0.687968 0.12462 0.120363
0.745083 0.140642 0.137881
0.780301 0.151492 0.149645
0.803296 0.158801 0.157336
0.804974 0.159518 0.158251
0.806256 0.160311 0.159167
0.807294 0.160983 0.159808
0.808347 0.161563 0.160433
0.809262 0.162081 0.161013
0.809995 0.162509 0.161471
0.810742 0.16289 0.16199
0.02533 0.0382086 0.0270085
0.02533 0.0382086 0.0270085
0.02533 0.0382086 0.0270085
0.02533 0.0382086 0.0270085
0.0264744 0.0394293 0.0276036
0.0326085 0.0418402 0.0296941
0.0379644 0.0442206 0.0315862
0.0441749 0.0469368 0.0328069
0.0558785 0.0484169 0.0333104
0.070634 0.049424 0.0352178
0.0879225 0.0512398 0.038117
0.109758 0.0531014 0.0415656
0.139376 0.0557717 0.0450141
0.176242 0.060029 0.049485
0.22118 0.0650034 0.0540627
0.270954 0.0703593 0.0586099
0.324544 0.0759442 0.0639048
0.38909 0.0807202 0.0699016
0.46479 0.0844892 0.0751202
0.529931 0.0910048 0.0827649
0.587488 0.100603 0.0933242
0.643458 0.113329 0.107179
0.698528 0.127398 0.122744
0.753658 0.143282 0.139559
0.782574 0.15256 0.149462
0.800992 0.158633 0.156222
0.802472 0.15903 0.156695
0.80383 0.159564 0.157092
0.805066 0.160174 0.157748
0.805798 0.160647 0.158236
0.806455 0.16112 0.15877
0.806836 0.16141 0.158984
0.807141 0.161654 0.159167
0.0267948 0.0419928 0.0294347
0.0276951 0.0437934 0.0307622
0.0281224 0.0449378 0.0311742
0.0280308 0.0447852 0.0306249
0.0290837 0.0445716 0.0299229
0.0348516 0.047013 0.031632
0.0400244 0.0496071 0.0336614
0.0459602 0.0514534 0.0354467
0.0562142 0.0518349 0.0346838
0.0718242 0.0518044 0.036408
0.0910353 0.0531777 0.0396429
0.114336 0.0548562 0.0427558
0.144198 0.0571908 0.0462348
0.181537 0.0611124 0.0502632
0.227893 0.0656901 0.0543984
0.277378 0.0711986 0.0588693
0.33138 0.0766308 0.0640574
0.396063 0.0808423 0.069276
0.470802 0.0849622 0.0747234
0.53666 0.0920119 0.0826276
0.592721 0.101579 0.09308
0.648676 0.114549 0.107088
0.704051 0.129076 0.123049
0.757885 0.144976 0.139849
0.783444 0.153063 0.148547
0.797818 0.157702 0.153704
0.799115 0.158373 0.154498
0.800198 0.158877 0.155169
0.800809 0.159243 0.155535
0.801312 0.159442 0.155612
0.801877 0.159655 0.155688
0.801999 0.159823 0.155627
0.802075 0.160006 0.155581
0.0302129 0.0508736 0.0350805
0.0307622 0.0521401 0.0360571
0.0312352 0.0527504 0.0365454
0.0313268 0.0525063 0.0351263
0.0332341 0.05243 0.0333715
0.0388495 0.0539559 0.0344244
0.0430762 0.0548104 0.035935
0.0517586 0.0581064 0.039353
0.0648814 0.0589456 0.0390173
0.0803235 0.0573587 0.039765
0.0975052 0.0573892 0.0417182
0.122637 0.0587625 0.04477
0.154131 0.0606394 0.0485084
0.192142 0.063386 0.0523537
0.235599 0.0668193 0.0549172
0.285389 0.0721141 0.0595102
0.340002 0.0775464 0.0645609
0.407126 0.0817731 0.0695354
0.48043 0.0859236 0.0748302
0.543084 0.0932479 0.0823987
0.599374 0.103395 0.0934768
0.652247 0.115755 0.106325
0.708629 0.130571 0.122621
0.756542 0.144961 0.137743
0.783139 0.153475 0.146822
0.79324 0.15668 0.150271
0.794415 0.157397 0.150866
0.795117 0.157855 0.151263
0.796078 0.158312 0.151659
0.796445 0.158556 0.151766
0.796704 0.15874 0.151797
0.796689 0.158968 0.151553
0.796597 0.159213 0.151293
0.0329747 0.0583963 0.0397955
0.0332494 0.0596017 0.0403143
0.0332036 0.0607767 0.0402075
0.0336004 0.060914 0.0394293
0.035584 0.0607309 0.037705
0.0414435 0.0620584 0.0371557
0.0465553 0.0641642 0.0377813
0.0551614 0.0661021 0.04065
0.0711528 0.0697337 0.0420386
0.0933852 0.0672923 0.0439765
0.111955 0.0658122 0.046128
0.136873 0.0660716 0.0489662
0.169162 0.0670176 0.0519875
0.207034 0.0689097 0.0548409
0.250095 0.0715496 0.0576486
0.298619 0.0755169 0.0617533
0.353689 0.0798657 0.0656596
0.42092 0.0830396 0.0700542
0.49218 0.0875563 0.0755627
0.552438 0.0952621 0.0835889
0.607477 0.10573 0.0944991
0.660349 0.118502 0.108217
0.714961 0.133349 0.123445
0.756237 0.145785 0.136339
0.78703 0.155505 0.146349
0.791196 0.157214 0.147799
0.792615 0.157977 0.148501
0.793362 0.158556 0.148821
0.793957 0.159106 0.14902
0.794018 0.159396 0.148775
0.794202 0.159716 0.148638
0.794507 0.160098 0.148592
0.795468 0.160723 0.148867
0.0361028 0.0704204 0.0448768
0.0370031 0.0729381 0.0459144
0.0371405 0.0750286 0.0458686
0.0373999 0.0754101 0.0449378
0.0384375 0.0750591 0.0428168
0.0418555 0.0759594 0.0412757
0.0495003 0.0786755 0.0415198
0.0577707 0.0802319 0.0414588
0.0732128 0.0842451 0.0442206
0.0996262 0.0856794 0.045243
0.129793 0.0821088 0.0504463
0.159075 0.0775464 0.0535286
0.192096 0.076997 0.0563516
0.22974 0.0778363 0.0592203
0.272007 0.0803388 0.0628061
0.320333 0.08365 0.0670939
0.375982 0.0867781 0.0701457
0.446097 0.0892042 0.0729992
0.510323 0.0930343 0.0783093
0.567254 0.100832 0.0867323
0.618875 0.110155 0.0973068
0.670558 0.122866 0.110262
0.724254 0.137606 0.126406
0.763668 0.149554 0.138323
0.794598 0.160174 0.148608
0.795666 0.160952 0.148821
0.796017 0.161227 0.148882
0.796582 0.161593 0.148898
0.797452 0.162188 0.14902
0.798215 0.162936 0.149264
0.799115 0.163592 0.149462
0.800015 0.164202 0.149889
0.803464 0.167803 0.152148
0.0397192 0.0866865 0.0508125
0.0406653 0.0903334 0.0520638
0.0408179 0.0930648 0.0521096
0.0409552 0.0941787 0.0511025
0.0415808 0.094316 0.0489662
0.0433509 0.0943313 0.0463874
0.0497444 0.0959335 0.0438239
0.0591135 0.0988632 0.0445563
0.0731365 0.100313 0.0444343
0.0953078 0.106218 0.0456092
0.135225 0.104341 0.0481422
0.178042 0.0993515 0.0561379
0.223896 0.0929274 0.0627451
0.263539 0.0931563 0.0669718
0.305776 0.0944533 0.0711376
0.354498 0.096376 0.0747082
0.413367 0.0985122 0.0777905
0.481468 0.101518 0.0810864
0.540948 0.107774 0.0872358
0.592798 0.116197 0.0955062
0.64477 0.126696 0.107637
0.69482 0.138933 0.120027
0.746166 0.153674 0.135058
0.786007 0.164202 0.146593
0.807202 0.170871 0.153307
0.808164 0.173053 0.154421
0.810758 0.175769 0.156359
0.813733 0.17995 0.15877
0.816373 0.183017 0.160769
0.820706 0.187961 0.163943
0.82356 0.191058 0.16553
0.827024 0.195056 0.168338
0.83064 0.199619 0.170993
0.04271 0.1066 0.0574197
0.0431525 0.111421 0.0592813
0.0433051 0.114946 0.0592966
0.0429389 0.116732 0.0572366
0.0433356 0.11725 0.0548257
0.0444343 0.117067 0.0524453
0.0489052 0.1178 0.0485237
0.0572671 0.120241 0.0467231
0.0728923 0.12462 0.0480964
0.0919966 0.12578 0.0468452
0.124239 0.133669 0.0458991
0.182071 0.130358 0.0510719
0.239521 0.124422 0.0636301
0.301823 0.11667 0.0753185
0.352483 0.116258 0.0817426
0.411337 0.117144 0.0862287
0.475578 0.118853 0.0904555
0.532723 0.124102 0.0964218
0.583703 0.132891 0.104829
0.632792 0.143969 0.115251
0.682033 0.157473 0.127306
0.732464 0.172732 0.141344
0.78085 0.190021 0.155978
0.828626 0.208408 0.175525
0.841627 0.213886 0.180941
0.844526 0.217563 0.183398
0.846937 0.222477 0.184024
0.850919 0.227085 0.189059
0.855314 0.233051 0.192782
0.86041 0.239261 0.19826
0.866285 0.246448 0.203876
0.871839 0.253864 0.209567
0.877867 0.261295 0.215763
0.0449226 0.131701 0.0673381
0.045594 0.138674 0.0695659
0.0454566 0.14313 0.0692912
0.0448157 0.144594 0.0665599
0.0449531 0.145861 0.0631113
0.0456397 0.146822 0.0594949
0.0474556 0.146609 0.0558022
0.0544594 0.148516 0.0507668
0.0687572 0.15317 0.0497292
0.0917678 0.158907 0.0517128
0.117159 0.160464 0.05037
0.164996 0.172519 0.0475929
0.241596 0.171557 0.0549325
0.316884 0.165789 0.0723583
0.410437 0.151904 0.0894789
0.485695 0.150591 0.0986038
0.543374 0.15761 0.108293
0.592416 0.16582 0.119615
0.640345 0.177996 0.133211
0.689387 0.192905 0.148135
0.736965 0.2094 0.163973
0.786923 0.228046 0.181796
0.835264 0.249409 0.201953
0.88307 0.273045 0.22475
0.889891 0.279088 0.229953
0.894728 0.28455 0.234287
0.899458 0.292561 0.241016
0.904891 0.302205 0.248539
0.910979 0.312352 0.256687
0.917113 0.323156 0.264912
0.922972 0.334981 0.273411
0.928786 0.346181 0.282094
0.934432 0.358312 0.290105
0.0471199 0.165743 0.0786603
0.0473793 0.174029 0.0808576
0.047303 0.179706 0.080827
0.0468452 0.181827 0.0782635
0.0467384 0.183276 0.0750896
0.0467536 0.184787 0.0699321
0.0478065 0.185855 0.0640269
0.0508888 0.184909 0.0575418
0.0626383 0.189609 0.0529488
0.084947 0.198001 0.053666
0.117357 0.206821 0.0563516
0.152621 0.208286 0.0546731
0.223606 0.226352 0.0508431
0.317296 0.232441 0.0584878
0.424598 0.230213 0.0751202
0.532021 0.209323 0.10457
0.600504 0.219211 0.127855
0.655711 0.23563 0.149493
0.702144 0.249622 0.169177
0.759441 0.272084 0.196414
0.81149 0.293126 0.222034
0.867353 0.319478 0.250324
0.907668 0.343465 0.273854
0.934127 0.363317 0.292454
0.937957 0.371725 0.297932
0.941588 0.378668 0.302251
0.944091 0.386786 0.306508
0.946136 0.396689 0.310979
0.947646 0.407507 0.314977
0.949218 0.419043 0.318975
0.950362 0.431067 0.322164
0.950637 0.442802 0.323705
0.950652 0.453864 0.324575
0.0480201 0.207919 0.0904555
0.0485084 0.218128 0.0929122
0.0485695 0.22501 0.0930953
0.0481422 0.226932 0.0912337
0.0478218 0.228824 0.0878462
0.0471809 0.230808 0.0818036
0.0469673 0.232822 0.0746014
0.0497444 0.23299 0.0666819
0.0541848 0.231754 0.0561074
0.0728771 0.240116 0.0527962
0.106325 0.254017 0.0555886
0.151461 0.26569 0.0589761
0.20148 0.269368 0.0588998
0.287419 0.290089 0.0541848
0.403754 0.303624 0.0580911
0.533989 0.325689 0.0708324
0.636759 0.338949 0.125597
0.709377 0.34757 0.174395
0.764294 0.349355 0.2121
0.830213 0.382864 0.249973
0.882322 0.402243 0.280415
0.919463 0.420386 0.30193
0.941817 0.439094 0.31693
0.950454 0.452171 0.323583
0.950195 0.463188 0.323903
0.950027 0.47155 0.323888
0.949554 0.479835 0.323583
0.948913 0.489891 0.323018
0.948089 0.501991 0.320745
0.947295 0.513191 0.318395
0.947097 0.523827 0.317678
0.946685 0.534203 0.316533
0.946349 0.545052 0.315496
0.0488289 0.259602 0.102647
0.0480659 0.269825 0.104677
0.0476387 0.276097 0.105089
0.0470588 0.278264 0.10277
0.0467231 0.279271 0.0996109
0.0460517 0.281071 0.093843
0.0451362 0.283238 0.085481
0.0466773 0.284276 0.0762798
0.0498512 0.283314 0.0650339
0.0562753 0.283787 0.0501564
0.0861067 0.296986 0.0492409
0.133776 0.314611 0.0541543
0.197055 0.329503 0.0608835
0.258106 0.337484 0.0589456
0.361929 0.364157 0.0557259
0.503227 0.398947 0.0606241
0.621118 0.469795 0.0818189
0.715816 0.489326 0.147494
0.78735 0.49958 0.204532
0.845426 0.497444 0.246998
0.890013 0.503914 0.275853
0.920378 0.510872 0.297383
0.940658 0.528923 0.309926
0.946303 0.54229 0.314778
0.946334 0.552773 0.315022
0.946456 0.560113 0.314885
0.946471 0.568811 0.314626
0.946487 0.577096 0.313939
0.946715 0.585321 0.31371
0.94728 0.594171 0.31371
0.947524 0.604349 0.313085
0.947784 0.613794 0.31281
0.948165 0.623041 0.312612
0.0437781 0.311208 0.114656
0.0420081 0.321386 0.116228
0.0412146 0.328084 0.116365
0.0406043 0.329625 0.113542
0.0404669 0.330282 0.109773
0.0401617 0.331518 0.103609
0.0401465 0.333242 0.0951553
0.0400549 0.335622 0.0846418
0.0417029 0.336049 0.0738842
0.0456703 0.334493 0.0578012
0.0599069 0.33785 0.0420539
0.104906 0.357214 0.0447852
0.172641 0.383124 0.0529335
0.252689 0.408865 0.0618753
0.325383 0.424292 0.0566262
0.46334 0.463569 0.0636606
0.589105 0.516609 0.0849317
0.687114 0.570184 0.109377
0.768414 0.588785 0.164431
0.834455 0.602152 0.214145
0.887373 0.603296 0.255894
0.918532 0.605966 0.283772
0.938842 0.611536 0.3019
0.945647 0.620523 0.309773
0.948425 0.630426 0.312535
0.948638 0.636927 0.312139
0.949142 0.643915 0.312123
0.949569 0.651225 0.312154
0.949966 0.659281 0.312032
0.950347 0.667445 0.311711
0.950973 0.676448 0.312749
0.951171 0.686336 0.31429
0.951858 0.69604 0.316274
0.0337987 0.364935 0.125521
0.031342 0.376654 0.127062
0.0299229 0.382589 0.125963
0.0297246 0.383963 0.123049
0.0296941 0.384512 0.118975
0.030045 0.385702 0.113161
0.0297856 0.388312 0.104387
0.029633 0.390707 0.0921798
0.0306859 0.391943 0.0795758
0.0340887 0.390738 0.0661936
0.0430152 0.391165 0.0465553
0.0710002 0.401968 0.035172
0.136629 0.433661 0.0431983
0.235904 0.474189 0.0611276
0.34052 0.512215 0.0790417
0.438468 0.529488 0.0755322
0.561654 0.563607 0.0937057
0.658106 0.602121 0.118364
0.749554 0.64477 0.145571
0.826032 0.668788 0.190799
0.892195 0.689158 0.234913
0.921889 0.68716 0.271015
0.941329 0.688899 0.299199
0.950408 0.695933 0.312551
0.951858 0.702083 0.317189
0.9523 0.709941 0.31812
0.952895 0.718364 0.319661
0.953017 0.726345 0.320745
0.953475 0.734585 0.322347
0.953658 0.743633 0.323476
0.953689 0.752941 0.324575
0.953964 0.761425 0.32546
0.954009 0.76733 0.328817
0.021149 0.425971 0.133715
0.0199588 0.438025 0.135943
0.0192111 0.444358 0.135775
0.0195773 0.445274 0.133379
0.0199741 0.446082 0.129473
0.0203098 0.447471 0.123644
0.0207828 0.449073 0.115892
0.0214847 0.451286 0.104372
0.0228885 0.453696 0.0899977
0.0260166 0.453696 0.0747387
0.0314488 0.451835 0.0576791
0.0522774 0.458381 0.0396429
0.108309 0.482872 0.041062
0.228 0.533684 0.0724193
0.355093 0.58056 0.103731
0.464607 0.602853 0.110414
0.548058 0.614801 0.10634
0.639597 0.642908 0.130022
0.7205 0.673411 0.156374
0.812177 0.711833 0.188128
0.88661 0.740185 0.227405
0.935988 0.76907 0.261341
0.948379 0.772854 0.291676
0.952972 0.776349 0.319249
0.953658 0.777417 0.327596
0.95407 0.779767 0.334829
0.954101 0.78378 0.338521
0.95436 0.78912 0.343099
0.953994 0.794903 0.347677
0.954101 0.800351 0.352148
0.95407 0.80557 0.356558
0.953964 0.8112 0.361517
0.953368 0.816754 0.365103
0.0195163 0.491295 0.155917
0.0212558 0.504723 0.163241
0.0217441 0.511604 0.165484
0.0222324 0.512779 0.163394
0.0226596 0.513024 0.159472
0.0232395 0.513512 0.153536
0.0246891 0.514916 0.146288
0.0264897 0.517372 0.135698
0.0285496 0.51989 0.120027
0.0320897 0.521096 0.103029
0.0382849 0.52076 0.0835126
0.0492409 0.521431 0.0602884
0.100633 0.542596 0.0562448
0.215457 0.58645 0.0841993
0.358053 0.633539 0.125887
0.485039 0.65922 0.139727
0.567636 0.677119 0.142153
0.629999 0.688151 0.14226
0.701808 0.711498 0.166995
0.778424 0.73843 0.198734
0.860731 0.76965 0.230579
0.920211 0.795895 0.265476
0.943404 0.813657 0.296468
0.950881 0.819211 0.325826
0.952285 0.822431 0.354452
0.952392 0.825986 0.365545
0.951659 0.830839 0.36701
0.951095 0.834897 0.365438
0.950042 0.838712 0.363287
0.949081 0.843214 0.360311
0.947829 0.847639 0.357443
0.946548 0.851331 0.354772
0.945525 0.855482 0.352193
0.0351263 0.568444 0.206699
0.0403296 0.584634 0.218585
0.0432288 0.592676 0.223484
0.0439612 0.593576 0.221729
0.0444343 0.593225 0.217044
0.0458381 0.594339 0.212314
0.0476387 0.595697 0.205097
0.0501869 0.597681 0.194842
0.0540627 0.601694 0.180957
0.0586557 0.603479 0.160937
0.0646372 0.602213 0.138598
0.0759747 0.602075 0.110353
0.0999924 0.609277 0.0785229
0.219165 0.645396 0.105882
0.34995 0.680156 0.139742
0.497658 0.704768 0.164889
0.585962 0.728771 0.171588
0.644816 0.744015 0.175067
0.696605 0.754559 0.179706
0.761135 0.775051 0.207721
0.82652 0.794781 0.239734
0.892851 0.818738 0.269902
0.928237 0.835035 0.300862
0.940459 0.852186 0.315953
0.943221 0.860761 0.332753
0.942519 0.86392 0.342718
0.942199 0.867262 0.347982
0.941009 0.870893 0.34551
0.93991 0.873747 0.344091
0.939269 0.876402 0.348409
0.938811 0.879164 0.353796
0.938094 0.881987 0.359136
0.937209 0.884169 0.363958
0.0647288 0.650431 0.27068
0.0706951 0.664652 0.281025
0.0729839 0.670756 0.28426
0.0736553 0.671366 0.281819
0.0742351 0.670954 0.278004
0.075349 0.67097 0.272343
0.0775158 0.671794 0.265187
0.0810712 0.674586 0.256275
0.0850233 0.676783 0.241886
0.0894026 0.67837 0.222416
0.0960555 0.676753 0.198062
0.106386 0.674952 0.167742
0.137423 0.680446 0.137102
0.217121 0.69926 0.127779
0.349752 0.725231 0.15787
0.496986 0.744366 0.178454
0.600549 0.768719 0.198993
0.657603 0.790112 0.201251
0.707088 0.804059 0.208545
0.754833 0.813397 0.217029
0.811841 0.828153 0.247074
0.863859 0.841459 0.279927
0.912825 0.858701 0.310338
0.930907 0.874495 0.33135
0.935714 0.886885 0.345769
0.935546 0.890181 0.368154
0.935454 0.891981 0.38088
0.934737 0.89398 0.386084
0.934203 0.896117 0.391684
0.93341 0.898466 0.398123
0.932601 0.900557 0.404501
0.931548 0.902617 0.411002
0.931456 0.903304 0.415076
0.0914626 0.716899 0.321599
0.0961624 0.726467 0.328557
0.0980697 0.730434 0.330419
0.0985122 0.73019 0.327565
0.0991226 0.729656 0.323079
0.100237 0.730037 0.318181
0.102281 0.730709 0.310933
0.105348 0.731228 0.300511
0.109194 0.732296 0.285969
0.11426 0.733181 0.267216
0.121248 0.730587 0.244755
0.130541 0.727703 0.217197
0.153292 0.729671 0.175952
0.224704 0.742153 0.158328
0.347677 0.761074 0.176715
0.491341 0.772763 0.196078
0.601144 0.794705 0.216678
0.67071 0.819486 0.230045
0.715648 0.836957 0.233158
0.7608 0.849302 0.243183
0.808957 0.859342 0.25742
0.853559 0.870298 0.291875
0.89369 0.880064 0.328283
0.919249 0.894224 0.356207
0.931746 0.901946 0.385275
0.931243 0.903944 0.41352
0.930953 0.904784 0.428855
0.930861 0.905257 0.433234
0.930632 0.90573 0.437156
0.93051 0.906233 0.441047
0.930495 0.906645 0.444968
0.930312 0.907118 0.447791
0.930098 0.907607 0.451331
0.11281 0.766003 0.36054
0.114595 0.770504 0.364385
0.115511 0.772015 0.364416
0.116091 0.771923 0.361395
0.116884 0.771649 0.357137
0.1178 0.771298 0.351614
0.119631 0.770977 0.343542
0.123095 0.770718 0.333043
0.127581 0.770321 0.319036
0.133913 0.769482 0.302373
0.141482 0.766827 0.282078
0.150042 0.763317 0.25655
0.170275 0.764065 0.219165
0.230167 0.771923 0.193362
0.344686 0.785428 0.204379
0.484474 0.792996 0.219211
0.60058 0.80763 0.24155
0.673671 0.831373 0.259632
0.722316 0.849378 0.264805
0.764736 0.864439 0.272374
0.809476 0.874647 0.28751
0.851438 0.886183 0.309606
0.887221 0.893446 0.346258
0.913634 0.899947 0.383841
0.924102 0.905241 0.418662
0.929717 0.90866 0.451514
0.929335 0.908644 0.461067
0.929366 0.908583 0.470268
0.929381 0.908583 0.471626
0.929427 0.908614 0.472816
0.929442 0.908598 0.475303
0.929458 0.908598 0.477317
0.929503 0.908614 0.479576
0.124025 0.791562 0.387289
0.125841 0.795758 0.39144
0.126635 0.796384 0.390509
0.127291 0.796185 0.386633
0.128099 0.795834 0.381643
0.129488 0.795346 0.374563
0.131823 0.79472 0.366506
0.136217 0.793271 0.357046
0.142046 0.79147 0.345174
0.149416 0.789731 0.330159
0.157549 0.787472 0.310521
0.166049 0.784802 0.286885
0.18117 0.783978 0.255818
0.249439 0.790387 0.238025
0.344457 0.79942 0.235431
0.484733 0.802991 0.244877
0.597528 0.814328 0.264714
0.672969 0.834043 0.28632
0.72668 0.853452 0.295399
0.770108 0.868605 0.306676
0.81297 0.881376 0.318959
0.855909 0.891707 0.341772
0.881163 0.894881 0.369818
0.907683 0.899458 0.411276
0.924285 0.906355 0.442161
0.929366 0.908583 0.470527
0.929641 0.90866 0.487419
0.929824 0.908766 0.493767
0.929885 0.908812 0.49543
0.929946 0.908843 0.496971
0.929992 0.908873 0.498863
0.929976 0.908858 0.498497
0.929976 0.908858 0.498344
0.125719 0.796704 0.396933
0.12575 0.796689 0.39675
0.12607 0.796582 0.394461
0.126574 0.796399 0.390845
0.127581 0.796109 0.384985
0.128878 0.795483 0.377462
0.131487 0.794842 0.36817
0.136217 0.793378 0.35729
0.142351 0.791501 0.345083
0.150118 0.789837 0.3299
0.161349 0.789624 0.312657
0.172854 0.788937 0.293004
0.192355 0.788846 0.271351
0.259342 0.792706 0.256519
0.357488 0.799176 0.257389
0.492393 0.801465 0.264591
0.602106 0.813001 0.288075
0.674159 0.832868 0.308202
0.729732 0.852735 0.323827
0.775128 0.869123 0.335485
0.819608 0.882399 0.35079
0.861738 0.892683 0.36849
0.883497 0.894728 0.397177
0.903746 0.897704 0.428687
0.92195 0.905379 0.456779
0.929473 0.908598 0.479957
0.929854 0.908797 0.494957
0.930037 0.908888 0.500175
0.930037 0.908888 0.500298
0.930037 0.908888 0.500404
0.930037 0.908888 0.500481
0.930037 0.908888 0.50045
0.930037 0.908888 0.500816
0.125002 0.797086 0.401022
0.125109 0.797009 0.400626
0.125582 0.79678 0.397925
0.126238 0.796536 0.393301
0.127123 0.796231 0.387625
0.128466 0.795666 0.379629
0.131273 0.794949 0.369055
0.136416 0.793378 0.357122
0.143084 0.791287 0.343648
0.151339 0.789731 0.328038
0.16321 0.789807 0.310582
0.175677 0.789731 0.292149
0.207767 0.790661 0.27245
0.271885 0.794339 0.258045
0.380331 0.800046 0.261479
0.514321 0.802152 0.269108
0.616724 0.816236 0.293095
0.688487 0.83743 0.313024
0.738094 0.855985 0.325353
0.782467 0.871626 0.335531
0.826734 0.884215 0.352789
0.862715 0.892363 0.372747
0.884932 0.89575 0.397314
0.906447 0.900954 0.428168
0.925765 0.906996 0.457221
0.928161 0.907881 0.478584
0.929931 0.908843 0.496529
0.929992 0.908858 0.498589
0.930022 0.908888 0.500252
0.930037 0.908888 0.500511
0.930037 0.908888 0.50074
0.930053 0.908888 0.500938
0.930037 0.908888 0.501091
0.124361 0.797406 0.404364
0.124605 0.797299 0.403326
0.125124 0.797009 0.400534
0.125933 0.796628 0.395392
0.126909 0.796292 0.389029
0.128466 0.795727 0.380362
0.131212 0.79501 0.369345
0.136965 0.793256 0.356405
0.144121 0.791058 0.341634
0.153414 0.789761 0.325124
0.165911 0.789761 0.307195
0.178149 0.789624 0.288487
0.221164 0.791028 0.268467
0.29305 0.795392 0.258686
0.408103 0.801007 0.262242
0.538827 0.804089 0.272847
0.63386 0.8206 0.296941
0.702419 0.842084 0.316915
0.747478 0.859434 0.326757
0.791257 0.874159 0.33872
0.835508 0.886442 0.355779
0.8654 0.892485 0.375814
0.887984 0.895964 0.401068
0.909712 0.901976 0.430198
0.925383 0.906828 0.45774
0.928588 0.90811 0.479622
0.929824 0.908766 0.493828
0.929976 0.908858 0.497932
0.930007 0.908888 0.499855
0.930022 0.908888 0.500099
0.930022 0.908888 0.500313
0.930037 0.908888 0.500496
0.930037 0.908888 0.500679
0.123919 0.79765 0.40708
0.124086 0.797543 0.405951
0.124804 0.797177 0.402228
0.12575 0.796689 0.396826
0.126802 0.796323 0.389685
0.128771 0.795682 0.379873
0.13228 0.794736 0.368017
0.137652 0.793072 0.355276
0.145159 0.790768 0.338659
0.156008 0.789776 0.321538
0.168521 0.789746 0.303288
0.182574 0.789563 0.284428
0.233875 0.791913 0.264775
0.317922 0.796765 0.259236
