bundles/resolve-cinematic-luts/Phantom Luts/P4k & P6K Phntm Film LUTs - V6/P4K/Gen 5 Colour/White Balance Offset (+Magenta Boost)/P4k Eterna Gen5-Legacy WBO.cube
TITLE "Generated by Resolve"
LUT_3D_SIZE 33
0.0168307 0.0445258 0.0445716
0.016846 0.0445258 0.0445411
0.0170291 0.0444648 0.0442969
0.0276646 0.0464637 0.0470741
0.039765 0.0489204 0.0492561
0.0523384 0.0505531 0.0492561
0.0644694 0.0526436 0.0487984
0.079881 0.0555276 0.0499886
0.0953994 0.0586099 0.0521859
0.113497 0.0627298 0.0561379
0.137957 0.068925 0.0626535
0.169772 0.0759594 0.0709697
0.212329 0.0847944 0.0820478
0.264546 0.0948653 0.0964065
0.32401 0.106371 0.113069
0.388739 0.11902 0.13138
0.459754 0.132433 0.150835
0.541161 0.147097 0.171801
0.632471 0.161868 0.194156
0.718517 0.178698 0.217746
0.747997 0.188006 0.22945
0.753399 0.190082 0.231876
0.756146 0.191211 0.233371
0.75816 0.192172 0.23473
0.760082 0.193011 0.235904
0.761715 0.193698 0.237064
0.763302 0.194171 0.237995
0.764874 0.194217 0.238621
0.767102 0.193942 0.239536
0.772931 0.194644 0.242786
0.777325 0.194263 0.244846
0.782055 0.193729 0.246754
0.78648 0.19321 0.248814
0.0176852 0.0441291 0.0431983
0.0170596 0.044419 0.0442054
0.0169985 0.0444495 0.0443122
0.0256352 0.0466773 0.0457771
0.0355077 0.0489815 0.0464942
0.0452583 0.0504768 0.0457923
0.0591592 0.0520638 0.0452277
0.0745708 0.053727 0.045243
0.0902724 0.0560006 0.0466316
0.108293 0.0595254 0.0501717
0.133272 0.0652476 0.0572213
0.166598 0.0730602 0.0671855
0.209537 0.0822919 0.0788891
0.262806 0.0922713 0.0928664
0.323095 0.104479 0.109972
0.390402 0.118257 0.129793
0.463249 0.132219 0.149706
0.547402 0.147356 0.171542
0.640482 0.162692 0.19472
0.719249 0.178698 0.216709
0.748043 0.187884 0.228153
0.75079 0.189105 0.229816
0.75285 0.18999 0.230961
0.755093 0.190967 0.23212
0.756786 0.19176 0.233188
0.758221 0.192416 0.234089
0.759548 0.192889 0.234867
0.761273 0.193149 0.235874
0.763928 0.193088 0.237064
0.76759 0.192721 0.238422
0.771893 0.192111 0.240345
0.776471 0.191241 0.242161
0.78085 0.190356 0.243992
0.0177157 0.0440986 0.0431373
0.0170748 0.044419 0.0441749
0.0169375 0.04448 0.0444038
0.0221866 0.0466011 0.045716
0.0317693 0.0497597 0.0471809
0.0408789 0.0520027 0.0474403
0.0547951 0.0542306 0.0474556
0.0712902 0.0556954 0.0472267
0.0887007 0.0576486 0.0484169
0.108125 0.0605478 0.0512245
0.133471 0.0654154 0.0568856
0.166857 0.0723583 0.0658122
0.210712 0.0813764 0.07776
0.265446 0.0915847 0.092607
0.327199 0.103746 0.110094
0.397436 0.117525 0.130541
0.474144 0.132128 0.151415
0.560601 0.147387 0.173831
0.656016 0.163241 0.197894
0.726558 0.178103 0.218265
0.751064 0.186023 0.227893
0.753918 0.187228 0.229831
0.756085 0.188022 0.230915
0.757885 0.188769 0.231998
0.759441 0.189548 0.23299
0.760479 0.190204 0.233768
0.761456 0.190753 0.234333
0.762463 0.191104 0.234974
0.764065 0.191241 0.235767
0.76643 0.191089 0.236789
0.769757 0.190692 0.238117
0.773938 0.190066 0.23975
0.778378 0.189334 0.241672
0.0191806 0.0470436 0.0457618
0.0188144 0.0478523 0.0464942
0.0186007 0.047776 0.0462806
0.0200198 0.0483558 0.0464332
0.0288396 0.0519265 0.0483253
0.0378882 0.0548257 0.0497139
0.0497902 0.0566567 0.0496529
0.0674754 0.057496 0.0496376
0.0869459 0.0590066 0.050782
0.10869 0.0619364 0.0535592
0.135393 0.0662852 0.05832
0.17026 0.0733043 0.0666972
0.213947 0.0819409 0.0777752
0.268284 0.0919509 0.0920119
0.33048 0.104051 0.109667
0.401907 0.118029 0.130434
0.480034 0.132662 0.151797
0.569421 0.148333 0.175021
0.666987 0.164446 0.199634
0.729671 0.178607 0.21857
0.750484 0.185245 0.226764
0.753048 0.186313 0.228275
0.755337 0.187167 0.229725
0.75697 0.187778 0.230472
0.758267 0.188251 0.23122
0.759548 0.18883 0.232029
0.760403 0.189303 0.2327
0.761364 0.189654 0.233295
0.762661 0.189822 0.233982
0.764706 0.189731 0.234882
0.767819 0.189349 0.236149
0.771618 0.188785 0.237705
0.776287 0.188006 0.239338
0.0242313 0.0585031 0.0538186
0.0235904 0.0593118 0.0543679
0.0234379 0.0592508 0.0533455
0.0251164 0.0581216 0.0510719
0.03122 0.0590524 0.0512398
0.0393072 0.0610208 0.0533913
0.0508125 0.0628519 0.0542153
0.0664836 0.0616007 0.0529183
0.0857557 0.0615854 0.0533608
0.108995 0.063859 0.0559854
0.137911 0.0681315 0.0608835
0.173892 0.0746929 0.0686046
0.218875 0.0828107 0.0788739
0.272709 0.0931106 0.0927138
0.334112 0.104921 0.109636
0.40499 0.118624 0.129534
0.484489 0.13341 0.151431
0.575784 0.149523 0.175311
0.674327 0.166064 0.200351
0.731075 0.179294 0.218036
0.748028 0.184802 0.224765
0.750713 0.185733 0.226307
0.752819 0.186557 0.227695
0.754711 0.187243 0.228702
0.756008 0.187808 0.229572
0.756909 0.188022 0.229923
0.757702 0.188266 0.230274
0.758633 0.188525 0.230793
0.759854 0.188632 0.231403
0.761959 0.188495 0.232395
0.765362 0.188006 0.233722
0.76939 0.187381 0.235401
0.774182 0.186557 0.237186
0.0279088 0.0672923 0.0606546
0.0270085 0.0682231 0.0608835
0.0270085 0.0686503 0.0607156
0.0272526 0.0677043 0.0572824
0.0338598 0.0671244 0.0547799
0.0408942 0.0682994 0.0547951
0.0540017 0.0704509 0.0583658
0.0738994 0.0712291 0.0595407
0.0915999 0.0690776 0.0590372
0.114061 0.0697642 0.0616312
0.142718 0.0725567 0.0660258
0.17998 0.0773327 0.0726329
0.225345 0.084123 0.0816205
0.279332 0.094377 0.0946365
0.340246 0.106096 0.110887
0.40914 0.119402 0.129366
0.488655 0.134463 0.15111
0.580667 0.150195 0.174731
0.680995 0.167788 0.200702
0.732418 0.179965 0.217227
0.744976 0.184085 0.222446
0.747524 0.185 0.223804
0.749767 0.185779 0.225101
0.751736 0.18645 0.226291
0.753094 0.187015 0.227268
0.754177 0.187442 0.227893
0.75491 0.187747 0.228275
0.755611 0.187976 0.228656
0.756588 0.18793 0.229068
0.758648 0.187594 0.22974
0.762036 0.186954 0.2309
0.766506 0.18616 0.232456
0.771618 0.185229 0.234379
0.0321202 0.0779736 0.0663767
0.03122 0.0798352 0.0665141
0.0306401 0.0813153 0.0666514
0.031281 0.0812848 0.0652476
0.0332189 0.0796216 0.0607309
0.0432136 0.0795148 0.0588083
0.0522164 0.0796826 0.057557
0.0761578 0.0818036 0.0611734
0.102953 0.0810101 0.0641642
0.12398 0.078294 0.0652781
0.151766 0.0796521 0.0689403
0.18761 0.082826 0.0746166
0.232273 0.0882734 0.0829175
0.285023 0.0966964 0.0953231
0.345251 0.107622 0.111208
0.414725 0.12163 0.13051
0.492164 0.136187 0.150912
0.58352 0.152331 0.173953
0.685222 0.170153 0.199878
0.731197 0.181567 0.215274
0.73901 0.184054 0.218585
0.741054 0.184665 0.219745
0.742931 0.18526 0.220722
0.74435 0.185809 0.221714
0.745602 0.186313 0.222492
0.746624 0.186648 0.222904
0.747219 0.186801 0.223133
0.747845 0.186954 0.223407
0.748684 0.187015 0.223774
0.75021 0.186877 0.224323
0.75256 0.186542 0.225177
0.75584 0.185992 0.226291
0.760021 0.185214 0.227726
0.0399176 0.0932784 0.0706645
0.0381323 0.0964828 0.0720531
0.0364843 0.0992905 0.0731518
0.0362249 0.100893 0.0729229
0.0368505 0.100603 0.0706798
0.0411383 0.098436 0.0654307
0.0525368 0.0987106 0.0634928
0.0686656 0.0985885 0.0618296
0.102663 0.101167 0.0670329
0.13753 0.0977493 0.0736248
0.167559 0.0929274 0.0770275
0.201617 0.0939345 0.0811933
0.245624 0.097261 0.087892
0.297307 0.103304 0.0995804
0.356817 0.112139 0.114626
0.425025 0.123735 0.132815
0.503044 0.13901 0.153475
0.594461 0.155032 0.175891
0.689525 0.17203 0.200168
0.735927 0.184298 0.215198
0.736904 0.18468 0.215381
0.737896 0.184939 0.215702
0.739406 0.185428 0.216419
0.740734 0.185916 0.21709
0.741848 0.186282 0.217655
0.742412 0.186511 0.217868
0.742794 0.186679 0.21796
0.743069 0.186755 0.217975
0.743572 0.186725 0.218036
0.744732 0.186587 0.218387
0.746975 0.186221 0.219028
0.750332 0.185595 0.220035
0.75433 0.184817 0.221363
0.0464637 0.113725 0.0802319
0.0442206 0.117525 0.0813611
0.0421149 0.120882 0.0822766
0.0411688 0.123613 0.0819867
0.0410925 0.12517 0.0802777
0.0424506 0.124376 0.0769665
0.0481422 0.121981 0.0709239
0.0641184 0.123095 0.0690318
0.0896773 0.122728 0.0663157
0.133745 0.125566 0.0737926
0.181994 0.117845 0.0852522
0.225193 0.111528 0.0911116
0.268269 0.113375 0.0975052
0.317082 0.117815 0.107729
0.376516 0.12491 0.122057
0.445533 0.133883 0.139101
0.523629 0.14519 0.158099
0.611917 0.157641 0.179324
0.699275 0.17293 0.20177
0.748363 0.186389 0.217853
0.74934 0.186908 0.218082
0.749859 0.187137 0.218128
0.75053 0.187457 0.21825
0.751186 0.187808 0.218402
0.751751 0.188113 0.21854
0.752178 0.188388 0.218616
0.752392 0.188647 0.218647
0.752544 0.188876 0.218647
0.752682 0.18909 0.218677
0.752972 0.189166 0.218769
0.753902 0.189075 0.219028
0.755734 0.188754 0.219577
0.758618 0.188144 0.220401
0.0535286 0.139818 0.0943008
0.0514839 0.144106 0.0954757
0.0487678 0.148577 0.0958877
0.0473182 0.152468 0.0955367
0.0463111 0.155657 0.0934462
0.0468452 0.157076 0.0905165
0.0485542 0.155596 0.0864881
0.0559701 0.152422 0.078294
0.0805829 0.154574 0.0758679
0.115541 0.152956 0.0720836
0.17464 0.156847 0.08159
0.2421 0.146883 0.099794
0.30164 0.140276 0.112184
0.352514 0.143954 0.122347
0.410803 0.149859 0.135256
0.479026 0.158175 0.150896
0.558328 0.167483 0.168139
0.648081 0.178103 0.187579
0.72903 0.190555 0.208057
0.771725 0.202502 0.223804
0.769741 0.200824 0.223178
0.769985 0.20116 0.223499
0.771725 0.20264 0.224063
0.77322 0.203769 0.22446
0.774395 0.204593 0.224628
0.77586 0.205585 0.225116
0.776989 0.206607 0.225544
0.778027 0.207462 0.225864
0.778881 0.208179 0.226139
0.779385 0.208515 0.226337
0.779965 0.208621 0.22652
0.781109 0.20856 0.226886
0.783291 0.208408 0.227634
0.0625315 0.176013 0.114
0.0601511 0.181415 0.115236
0.0573129 0.187045 0.115953
0.0554513 0.192157 0.115557
0.0540017 0.196475 0.114137
0.0534066 0.200275 0.111086
0.054139 0.202213 0.105943
0.056611 0.199329 0.0992142
0.066743 0.194461 0.0877241
0.10425 0.199435 0.0859541
0.150332 0.196536 0.0810712
0.233539 0.204547 0.0927443
0.325673 0.195743 0.119524
0.407614 0.187289 0.142031
0.472953 0.193423 0.154711
0.543694 0.200198 0.16907
0.623499 0.208606 0.184573
0.709377 0.218906 0.202182
0.781003 0.232959 0.222965
0.820569 0.246616 0.240253
0.821347 0.246876 0.240589
0.821546 0.247105 0.24065
0.822171 0.247761 0.240848
0.823224 0.248814 0.24123
0.824384 0.250172 0.241688
0.82533 0.251392 0.241947
0.827451 0.253285 0.242817
0.828702 0.254551 0.243275
0.82977 0.255482 0.243748
0.830457 0.256092 0.244022
0.831098 0.256443 0.244297
0.8318 0.256428 0.244648
0.83299 0.256596 0.245228
0.0745861 0.226108 0.138888
0.0710307 0.233173 0.140444
0.0673228 0.240223 0.141283
0.065095 0.246769 0.141451
0.0636912 0.253925 0.141466
0.0635691 0.260288 0.140337
0.0631113 0.265858 0.136507
0.0637522 0.267811 0.129
0.0678416 0.26305 0.117388
0.0815747 0.254215 0.0981003
0.135943 0.265583 0.098436
0.201526 0.263508 0.092134
0.315145 0.275761 0.100404
0.435172 0.278279 0.126665
0.546349 0.264393 0.167788
0.629389 0.266361 0.186542
0.714488 0.274952 0.203693
0.791272 0.284504 0.223331
0.843687 0.298405 0.245182
0.871519 0.310292 0.260227
0.875776 0.313024 0.262654
0.876616 0.314458 0.263142
0.877989 0.316411 0.263859
0.879316 0.318379 0.264317
0.881239 0.320729 0.265431
0.883299 0.323583 0.266636
0.884703 0.325765 0.267338
0.885817 0.327321 0.26772
0.886717 0.328206 0.268193
0.88716 0.328634 0.268452
0.887297 0.328618 0.268544
0.887663 0.328527 0.268833
0.888334 0.328573 0.269306
0.0878767 0.299535 0.170382
0.0827497 0.309514 0.171603
0.0770733 0.319493 0.173022
0.0741894 0.328664 0.173983
0.0708934 0.337209 0.174258
0.0701305 0.344579 0.173709
0.0698405 0.350958 0.171832
0.0696574 0.35523 0.165835
0.0710918 0.356207 0.153414
0.0775158 0.348684 0.1346
0.0939651 0.339117 0.10312
0.174151 0.356069 0.101732
0.27042 0.353201 0.0944533
0.403372 0.360967 0.0976577
0.550759 0.398672 0.108263
0.677806 0.379278 0.17586
0.771527 0.362585 0.215106
0.844495 0.366171 0.243473
0.894316 0.381765 0.269627
0.913252 0.392905 0.282139
0.915221 0.397757 0.283528
0.916259 0.400305 0.284367
0.916945 0.40296 0.284688
0.918273 0.406256 0.285634
0.919493 0.410025 0.28658
0.919997 0.412329 0.286809
0.920943 0.414679 0.287465
0.921538 0.416571 0.287709
0.921736 0.417334 0.28777
0.921706 0.417197 0.287739
0.921645 0.4168 0.287724
0.921477 0.415763 0.287694
0.921324 0.414694 0.287648
0.0892042 0.39295 0.208194
0.0835279 0.404425 0.210178
0.0785382 0.414771 0.211704
0.0738384 0.424949 0.212573
0.0699016 0.434775 0.213275
0.0673838 0.443214 0.213275
0.0658579 0.450889 0.212238
0.065919 0.456321 0.208789
0.0668956 0.459419 0.198779
0.068574 0.459693 0.177707
0.0771649 0.449104 0.147539
0.108629 0.440375 0.102205
0.229511 0.458686 0.102007
0.356435 0.454353 0.0908217
0.493233 0.459983 0.104479
0.641443 0.511147 0.121202
0.768978 0.510094 0.190219
0.861524 0.48603 0.243839
0.91252 0.482185 0.273945
0.935485 0.494301 0.291417
0.939284 0.501213 0.295537
0.940047 0.50399 0.296193
0.940246 0.506523 0.296193
0.940871 0.509941 0.296681
0.941558 0.51281 0.297307
0.941787 0.514916 0.297353
0.941787 0.516182 0.297169
0.941848 0.51667 0.297185
0.941756 0.516075 0.297154
0.941756 0.515023 0.297292
0.941695 0.513878 0.297322
0.941329 0.511559 0.297032
0.940688 0.509087 0.296391
0.0853285 0.500954 0.257176
0.0798352 0.512749 0.260899
0.0748913 0.522957 0.263432
0.0706645 0.532662 0.265385
0.0677806 0.541512 0.26685
0.0662699 0.549966 0.26772
0.0659037 0.557015 0.267689
0.066804 0.562402 0.2654
0.0681773 0.565667 0.258228
0.0708782 0.567269 0.242741
0.0742351 0.564431 0.209644
0.0863661 0.549859 0.162768
0.153353 0.546456 0.112367
0.321065 0.563333 0.12018
0.454887 0.557916 0.107454
0.581003 0.561563 0.132647
0.723888 0.606683 0.162051
0.846448 0.634623 0.221164
0.917067 0.616938 0.271214
0.943603 0.608438 0.296452
0.95053 0.610864 0.304433
0.950423 0.61384 0.304082
0.95082 0.617166 0.304738
0.950912 0.619654 0.304814
0.950957 0.621759 0.30486
0.951171 0.623758 0.305104
0.951263 0.624872 0.305287
0.951263 0.624811 0.305303
0.951217 0.62388 0.305196
0.950988 0.621851 0.304967
0.950759 0.618296 0.304463
0.950362 0.61503 0.303777
0.950225 0.611887 0.303441
0.0970016 0.610376 0.322026
0.0956436 0.621042 0.32636
0.0924849 0.63122 0.329946
0.0892348 0.640665 0.332921
0.0864118 0.649256 0.335134
0.0858015 0.657282 0.337179
0.0869459 0.663859 0.337972
0.0884871 0.668864 0.336034
0.0907454 0.672236 0.330953
0.0938125 0.673808 0.319341
0.0977035 0.67187 0.294148
0.104189 0.66276 0.248814
0.123919 0.644984 0.178042
0.251362 0.650202 0.144823
0.4374 0.666987 0.154116
0.556161 0.660456 0.143679
0.667521 0.660975 0.173342
0.808515 0.701411 0.220798
0.917144 0.744686 0.283421
0.951553 0.750195 0.321752
0.957916 0.743801 0.335988
0.958267 0.741512 0.337728
0.958312 0.743435 0.338354
0.958526 0.74519 0.339208
0.958526 0.746746 0.339574
0.958465 0.747723 0.339574
0.958328 0.747967 0.339178
0.95816 0.747341 0.33846
0.957977 0.745403 0.337423
0.957671 0.741924 0.335851
0.957641 0.737789 0.33492
0.957321 0.733028 0.333165
0.957275 0.728817 0.331899
0.129946 0.71902 0.393194
0.131228 0.729015 0.397955
0.129747 0.738537 0.401724
0.127596 0.748074 0.405493
0.126253 0.756756 0.408103
0.127016 0.76434 0.410498
0.128679 0.769665 0.411231
0.131365 0.773953 0.409995
0.133761 0.776913 0.406195
0.136797 0.77821 0.397818
0.140276 0.776471 0.379553
0.145296 0.771572 0.342794
0.154238 0.75436 0.285161
0.193515 0.737926 0.195315
0.384771 0.75668 0.192554
0.550988 0.771527 0.200565
0.652705 0.763241 0.195422
0.751049 0.759472 0.228702
0.868894 0.783551 0.284245
0.943618 0.814786 0.339635
0.961944 0.825849 0.376761
0.963027 0.823072 0.392096
0.96318 0.823301 0.395254
0.963195 0.824002 0.396292
0.963256 0.824735 0.397406
0.963211 0.825086 0.397726
0.963088 0.825559 0.397879
0.962844 0.824781 0.396826
0.962631 0.823117 0.394949
0.962615 0.820645 0.392706
0.962432 0.817472 0.390173
0.962188 0.814084 0.387213
0.962188 0.811078 0.384604
0.187518 0.819791 0.467353
0.190539 0.82945 0.472557
0.189807 0.837613 0.476295
0.188098 0.845426 0.479133
0.186511 0.852247 0.481468
0.187106 0.857801 0.483391
0.18883 0.862104 0.484138
0.191073 0.864713 0.482948
0.193027 0.866148 0.479454
0.195315 0.866865 0.473091
0.197787 0.86511 0.45951
0.201678 0.861021 0.432898
0.206256 0.850767 0.386343
0.217533 0.832441 0.313466
0.318837 0.83418 0.238163
0.517632 0.853101 0.249393
0.656977 0.862898 0.25742
0.74197 0.853407 0.261204
0.826047 0.845411 0.296376
0.914382 0.855314 0.349783
0.955978 0.878645 0.396902
0.963027 0.894118 0.426688
0.963424 0.893675 0.437552
0.963363 0.892836 0.436393
0.963241 0.892378 0.435477
0.963058 0.89221 0.434592
0.962829 0.891844 0.433478
0.962585 0.890501 0.431678
0.962295 0.888518 0.429679
0.962402 0.886107 0.428031
0.962478 0.882902 0.42623
0.962524 0.880018 0.424796
0.962493 0.876967 0.422858
0.249989 0.898863 0.534722
0.251606 0.904082 0.537575
0.24921 0.908965 0.539696
0.245106 0.913481 0.540963
0.24152 0.917418 0.541634
0.240848 0.920348 0.542382
0.240604 0.92221 0.541924
0.241932 0.923003 0.540032
0.243 0.923369 0.5364
0.244297 0.923339 0.530602
0.246174 0.922179 0.51986
0.249958 0.919432 0.501335
0.256352 0.915236 0.470542
0.261875 0.90367 0.415412
0.297047 0.893935 0.323796
0.464912 0.909285 0.295293
0.634638 0.918303 0.314137
0.747402 0.922454 0.32221
0.8224 0.915984 0.3355
0.892882 0.908995 0.37763
0.945769 0.916503 0.439994
0.965011 0.933684 0.497551
0.965393 0.936202 0.524834
0.965393 0.935454 0.522927
0.96527 0.934905 0.520745
0.965042 0.934279 0.51812
0.964736 0.933684 0.515114
0.964309 0.932845 0.511193
0.963973 0.93164 0.506722
0.963958 0.930098 0.502205
0.964111 0.928389 0.497856
0.964279 0.926284 0.493523
0.964126 0.924376 0.488396
0.28893 0.934081 0.578088
0.286275 0.934829 0.577157
0.281819 0.936095 0.575952
0.276448 0.937591 0.574746
0.271321 0.938979 0.573739
0.268086 0.939864 0.572198
0.266117 0.940368 0.570077
0.265446 0.940505 0.56733
0.265446 0.940429 0.563516
0.266011 0.940169 0.557733
0.26775 0.939696 0.548745
0.272236 0.938796 0.535531
0.279652 0.937285 0.515633
0.2934 0.936538 0.48571
0.30898 0.932021 0.427482
0.416114 0.941238 0.368277
0.587991 0.943053 0.366522
0.728084 0.94255 0.378286
0.813367 0.943572 0.384955
0.883452 0.941756 0.417456
0.934905 0.940902 0.477028
0.961715 0.945937 0.54287
0.966735 0.949645 0.58854
0.966827 0.949538 0.593286
0.966705 0.949371 0.590677
0.966461 0.949264 0.588251
0.966155 0.949203 0.585946
0.965835 0.949096 0.583581
0.965682 0.948913 0.581201
0.965759 0.948669 0.579202
0.965911 0.948196 0.576761
0.966125 0.947616 0.574609
0.966125 0.947204 0.571954
0.288334 0.934417 0.583719
0.285634 0.935149 0.582757
0.281178 0.9364 0.581506
0.275837 0.937896 0.580163
0.270802 0.939269 0.578988
0.267521 0.940154 0.577264
0.265583 0.940642 0.575174
0.264958 0.940734 0.57258
0.265003 0.940658 0.568597
0.2654 0.940429 0.563134
0.266514 0.940047 0.554376
0.269734 0.939422 0.541527
0.27599 0.938231 0.523003
0.287785 0.937758 0.496666
0.307881 0.938735 0.462242
0.376043 0.943816 0.41413
0.539742 0.947753 0.399649
0.693126 0.94612 0.419104
0.793347 0.947585 0.422415
0.86743 0.950149 0.449607
0.924071 0.95053 0.497917
0.949401 0.94786 0.548012
0.964157 0.954009 0.608103
0.964462 0.954192 0.624475
0.964309 0.954253 0.623423
0.963989 0.954391 0.621103
0.963607 0.954574 0.619058
0.963287 0.954742 0.617258
0.963104 0.954833 0.615778
0.963088 0.954833 0.614649
0.963195 0.954772 0.613474
0.963394 0.954665 0.612436
0.963668 0.954528 0.611505
0.281239 0.936584 0.588006
0.282582 0.936172 0.586847
0.282841 0.93608 0.585565
0.281819 0.936324 0.584344
0.279713 0.936858 0.583124
0.277684 0.937392 0.58146
0.276555 0.937667 0.579278
0.276265 0.937682 0.576455
0.276539 0.937514 0.572885
0.276936 0.93727 0.567361
0.277455 0.93698 0.559258
0.279683 0.936584 0.546532
0.28484 0.935561 0.529259
0.294286 0.934478 0.505196
0.313039 0.935653 0.47335
0.358587 0.939071 0.431937
0.502068 0.945281 0.407156
0.66244 0.944335 0.426795
0.778744 0.944884 0.437232
0.856718 0.948058 0.460166
0.920424 0.94963 0.505333
0.943282 0.945571 0.545037
0.963668 0.952056 0.605295
0.965988 0.953521 0.635111
0.965911 0.953658 0.6392
0.965667 0.95378 0.638682
0.965286 0.953994 0.637491
0.964752 0.954314 0.636103
0.964019 0.954711 0.634592
0.963317 0.955077 0.63328
0.96286 0.955322 0.632349
0.962661 0.955413 0.63151
0.962692 0.955352 0.630472
0.276066 0.937987 0.591165
0.277592 0.93756 0.59028
0.278965 0.937179 0.588968
0.279362 0.937087 0.58761
0.278401 0.937346 0.586114
0.276997 0.937697 0.584421
0.275883 0.937942 0.582528
0.275532 0.937972 0.579568
0.275761 0.937819 0.575799
0.276295 0.93753 0.570611
0.276814 0.937209 0.562936
0.278569 0.936873 0.550484
0.283085 0.936004 0.533791
0.290822 0.934936 0.510658
0.307362 0.935958 0.48069
0.336507 0.93753 0.443336
0.45481 0.944991 0.407858
0.621942 0.945006 0.419501
0.752346 0.944625 0.434379
0.83798 0.947311 0.451896
0.907027 0.949111 0.493431
0.937453 0.947204 0.534585
0.960159 0.950957 0.589593
0.965713 0.953323 0.628687
0.965896 0.953643 0.638773
0.965682 0.953796 0.639109
0.965301 0.954025 0.639124
0.964767 0.954345 0.63888
0.964034 0.954757 0.638117
0.963348 0.955123 0.636866
0.96289 0.955367 0.635843
0.962707 0.955459 0.635233
0.96289 0.955352 0.635065
0.275166 0.938262 0.593729
0.276432 0.937911 0.592508
0.27744 0.937621 0.591318
0.277745 0.937514 0.590097
0.277119 0.937682 0.588663
0.276234 0.937926 0.586892
0.275319 0.938186 0.584772
0.274861 0.938216 0.582208
0.274952 0.938109 0.578378
0.275227 0.937896 0.573297
0.275654 0.937606 0.565774
0.277073 0.937331 0.553765
0.280797 0.936629 0.53753
0.287175 0.935546 0.515267
0.301122 0.936507 0.48687
0.318379 0.93724 0.45304
0.408652 0.944671 0.410559
0.57583 0.946639 0.411505
0.71931 0.945144 0.429984
0.816251 0.946838 0.443488
0.890105 0.94902 0.480095
0.930205 0.948196 0.522774
0.955062 0.950149 0.573129
0.964767 0.952987 0.617899
0.965743 0.953704 0.636027
0.965576 0.953841 0.638453
0.96524 0.95404 0.638468
0.964736 0.954345 0.638193
0.964019 0.954757 0.637781
0.963348 0.955139 0.637232
0.96289 0.955383 0.63679
0.962875 0.955398 0.636698
0.963211 0.955215 0.636957
0.273381 0.938811 0.595941
0.274464 0.93846 0.594568
0.275654 0.938125 0.59321
0.275959 0.938033 0.591745
0.275425 0.938155 0.590494
0.274647 0.938354 0.588876
0.274083 0.938506 0.586755
0.273838 0.938567 0.584085
0.274327 0.938323 0.58053
0.27454 0.938155 0.575219
0.27483 0.937896 0.567987
0.276051 0.937606 0.556878
0.279042 0.937087 0.54107
0.284535 0.936019 0.519509
0.296727 0.936568 0.492866
0.313039 0.937606 0.460304
0.374746 0.943221 0.417472
0.531579 0.947662 0.405585
0.682567 0.945891 0.425345
0.793698 0.946502 0.437842
0.870848 0.948882 0.466743
0.922133 0.948791 0.511086
0.948882 0.949126 0.557473
0.963302 0.952239 0.606363
0.965667 0.953658 0.632609
0.96556 0.953841 0.637949
0.965255 0.954025 0.637964
0.964752 0.95433 0.637644
0.96405 0.954726 0.637232
0.963394 0.955093 0.63679
0.963012 0.955322 0.636576
0.963012 0.955322 0.636713
0.963302 0.955154 0.63711
0.272312 0.939193 0.597559
0.273228 0.938872 0.596277
0.27422 0.938552 0.594827
0.274525 0.93843 0.593317
0.273915 0.938567 0.591806
0.272847 0.938827 0.590448
0.272023 0.93904 0.588464
0.271794 0.939101 0.585763
0.271992 0.93901 0.582361
0.272404 0.938781 0.577142
0.272847 0.938491 0.570077
0.27396 0.938216 0.559396
0.276616 0.937758 0.544121
0.281514 0.936828 0.524025
0.29189 0.936934 0.497902
0.307698 0.938064 0.466911
0.354437 0.942077 0.427161
0.486152 0.947921 0.403708
0.642832 0.946929 0.420294
0.768231 0.946639 0.433051
0.847745 0.94902 0.451637
0.911986 0.949584 0.498482
0.94168 0.94873 0.542504
0.961227 0.951415 0.593912
0.965545 0.953628 0.629114
0.965545 0.953841 0.637507
0.965255 0.954025 0.637583
0.964752 0.95433 0.637263
0.96405 0.954726 0.636774
0.963409 0.955077 0.636332
0.963027 0.955291 0.636118
0.963027 0.955291 0.636255
0.963256 0.955169 0.636576
0.271794 0.939391 0.598932
0.272725 0.939071 0.597574
0.273518 0.938796 0.596155
0.273548 0.93872 0.59469
0.272648 0.938918 0.593164
0.271275 0.939254 0.591546
0.27013 0.939529 0.589807
0.269963 0.93959 0.587213
0.270588 0.939422 0.583749
0.271489 0.939071 0.578943
0.272312 0.938689 0.572137
0.273487 0.938323 0.562188
0.275929 0.937911 0.547677
0.280125 0.937163 0.528496
0.288487 0.936873 0.503471
0.303136 0.93817 0.474083
0.336828 0.940948 0.437598
0.442573 0.947341 0.405875
0.598093 0.947677 0.412833
0.733745 0.946822 0.428321
0.822217 0.949157 0.439933
0.896971 0.950896 0.483497
0.930877 0.949416 0.525032
0.956573 0.951553 0.577188
0.963516 0.954696 0.622477
