bundles/resolve-cinematic-luts/Phantom Luts/P4k & P6K Phntm Film LUTs - V6/P4K/Gen 5 Colour/White Balance Offset (+Magenta Boost)/P4k Eastman Gen5 WBO.cube
TITLE "Generated by Resolve"
LUT_3D_SIZE 5
0.0390021 0.0390021 0.0390021
0.103838 0.0390021 0.0400549
0.451759 0.0886091 0.0582895
0.659907 0.163027 0.148501
0.637079 0.174304 0.153216
0.064332 0.110353 0.0727703
0.111254 0.12575 0.0630808
0.50457 0.144259 0.0944076
0.673014 0.207553 0.163806
0.670405 0.221286 0.170169
0.130236 0.585 0.322713
0.119707 0.569497 0.277882
0.634333 0.678233 0.19588
0.860792 0.720562 0.34374
0.855344 0.729152 0.352972
0.237964 0.776547 0.51931
0.223041 0.749386 0.464103
0.631586 0.809888 0.385534
0.85893 0.850568 0.47425
0.858518 0.85449 0.495705
0.24152 0.780606 0.531304
0.222766 0.751598 0.460929
0.625162 0.807889 0.374563
0.860365 0.847654 0.459876
0.856519 0.854658 0.496345
0.0390021 0.0390021 0.0651713
0.108568 0.0390021 0.0801709
0.463355 0.0466621 0.0857099
0.687053 0.159121 0.224903
0.665003 0.162219 0.243885
0.0569009 0.102678 0.0915389
0.11986 0.111925 0.117052
0.522911 0.130312 0.102312
0.656626 0.17406 0.159655
0.647807 0.176547 0.162234
0.138567 0.599252 0.366705
0.129107 0.58703 0.340764
0.631662 0.66865 0.194141
0.860197 0.707393 0.336233
0.856001 0.711971 0.342
0.252384 0.796109 0.560204
0.237675 0.776471 0.515877
0.557443 0.779263 0.37232
0.852567 0.848569 0.467597
0.859648 0.855116 0.500862
0.258152 0.80061 0.57705
0.23859 0.779599 0.516258
0.548821 0.776257 0.360632
0.848341 0.845029 0.450217
0.856184 0.855924 0.50515
0.0390021 0.0461891 0.29836
0.0638132 0.0464332 0.339467
0.455421 0.0705425 0.363088
0.648478 0.156085 0.469886
0.603159 0.133104 0.458488
0.0390021 0.0558938 0.308095
0.0390021 0.0505379 0.334234
0.485756 0.0869764 0.391653
0.647684 0.151232 0.472847
0.610315 0.13518 0.461799
0.135821 0.617182 0.512779
0.136385 0.617563 0.519844
0.673533 0.67013 0.665949
0.856306 0.624231 0.604608
0.850233 0.633844 0.613993
0.33756 0.846952 0.703044
0.315892 0.840269 0.690929
0.515908 0.82707 0.664698
0.860761 0.883909 0.647593
0.884855 0.882307 0.656504
0.35201 0.849531 0.716976
0.322347 0.842359 0.696117
0.489219 0.825086 0.653147
0.854215 0.89427 0.676036
0.886305 0.892836 0.685985
0.044892 0.0995804 0.448524
0.119005 0.105409 0.48896
0.566796 0.186496 0.615335
0.700862 0.224689 0.636011
0.701076 0.22475 0.63624
0.0390021 0.108339 0.436271
0.0725414 0.115938 0.475151
0.601419 0.205646 0.636423
0.708232 0.230808 0.643656
0.709773 0.232395 0.644923
0.12784 0.623972 0.655467
0.125658 0.618112 0.658885
0.532479 0.598077 0.806653
0.906447 0.623606 0.852537
0.90544 0.629511 0.851667
0.432761 0.866484 0.77496
0.403922 0.857801 0.763317
0.618524 0.880369 0.819043
0.889113 0.907805 0.882673
0.910384 0.908324 0.880125
0.491691 0.880461 0.796017
0.464454 0.875715 0.784268
0.645258 0.900893 0.82887
0.877562 0.932982 0.894011
0.912978 0.937972 0.890288
0.100771 0.12517 0.495338
0.176059 0.130556 0.531319
0.60499 0.20708 0.638041
0.703487 0.226993 0.638575
0.702617 0.225895 0.637537
0.0390021 0.12076 0.458076
0.108034 0.125307 0.498726
0.622095 0.21265 0.641733
0.709895 0.232471 0.64506
0.710643 0.233112 0.645792
0.137575 0.630121 0.677928
0.13164 0.619165 0.674479
0.532372 0.586175 0.810452
0.908782 0.61767 0.859541
0.907958 0.620966 0.859297
0.46421 0.86923 0.791302
0.441398 0.859968 0.785489
0.66125 0.87953 0.850233
0.882536 0.904784 0.903456
0.910475 0.899641 0.903273
0.51191 0.883146 0.803998
0.514015 0.883467 0.804944
0.701564 0.912383 0.859846
0.891066 0.937255 0.910857
0.914397 0.940536 0.911254
