bundles/resolve-cinematic-luts/Phantom Luts/P4k & P6K Phntm Film LUTs - V6/P4K/Gen 5 Colour/White Balance Offset (+Magenta Boost)/P4k Eastman Gen5-Legacy WBO.cube
TITLE "Generated by Resolve"
LUT_3D_SIZE 9
0.0390021 0.0390021 0.0390021
0.0474098 0.0390021 0.0390021
0.093904 0.0390021 0.0467231
0.223041 0.0488136 0.0508583
0.405493 0.0772717 0.0563516
0.586938 0.137911 0.111757
0.654139 0.157885 0.142885
0.657526 0.159197 0.146197
0.631891 0.16965 0.147372
0.047013 0.0413519 0.0456245
0.0497902 0.0426642 0.04448
0.090074 0.0465858 0.0516823
0.219303 0.0512703 0.0496681
0.402106 0.0818952 0.0544747
0.588769 0.145892 0.113237
0.637949 0.160891 0.135866
0.641672 0.162249 0.138338
0.617929 0.170932 0.138369
0.0674144 0.0940566 0.0702678
0.0619059 0.0965591 0.0669108
0.0958724 0.103044 0.063035
0.279133 0.0897688 0.0686961
0.443427 0.118669 0.0779126
0.618616 0.17142 0.132006
0.655894 0.185214 0.148501
0.6607 0.189975 0.151888
0.651621 0.196902 0.153826
0.105287 0.264958 0.134981
0.0921645 0.271992 0.130449
0.0928511 0.27306 0.105852
0.295491 0.337987 0.117388
0.644739 0.340902 0.154238
0.791074 0.340047 0.215259
0.805676 0.362158 0.226108
0.809796 0.375082 0.22916
0.805814 0.384314 0.230381
0.125948 0.535546 0.281376
0.12079 0.53576 0.283146
0.114733 0.52755 0.239155
0.18233 0.52668 0.144976
0.584878 0.636652 0.17734
0.854444 0.697826 0.274617
0.867735 0.703578 0.318517
0.869596 0.716152 0.328115
0.868116 0.721569 0.333059
0.209857 0.737621 0.4365
0.208423 0.734447 0.439643
0.202243 0.72105 0.410925
0.197223 0.683772 0.302602
0.576074 0.795041 0.309117
0.789914 0.844358 0.344076
0.871443 0.857374 0.422782
0.87039 0.858518 0.427588
0.870253 0.858427 0.427497
0.22623 0.76289 0.473884
0.22295 0.757641 0.464729
0.214206 0.738842 0.422782
0.224811 0.710262 0.339178
0.563378 0.793317 0.343954
0.790982 0.856321 0.382818
0.868238 0.860197 0.439048
0.867643 0.861967 0.452628
0.86389 0.862638 0.45716
0.228031 0.766171 0.482734
0.224445 0.759808 0.468833
0.213046 0.738064 0.410422
0.231098 0.708934 0.317723
0.582956 0.802579 0.337133
0.792157 0.855543 0.37322
0.874083 0.857832 0.425086
0.876036 0.860456 0.442298
0.862715 0.862745 0.457618
0.228855 0.767437 0.486976
0.226001 0.761532 0.475196
0.214267 0.741009 0.422187
0.224948 0.710216 0.32636
0.561456 0.79324 0.332799
0.786496 0.855421 0.372122
0.870909 0.858061 0.425879
0.873838 0.860777 0.444495
0.861479 0.862913 0.458671
0.0390021 0.0390021 0.0405585
0.0474098 0.0390021 0.0438697
0.09691 0.0390021 0.0577859
0.241718 0.0442512 0.0551614
0.422019 0.0917525 0.0704662
0.592874 0.14786 0.127733
0.654749 0.165499 0.157046
0.660349 0.167147 0.162325
0.643122 0.175311 0.164431
0.0446174 0.0390021 0.0450294
0.0479591 0.0390021 0.0468299
0.095201 0.0430762 0.0526284
0.225177 0.0538338 0.0512551
0.402426 0.0883192 0.0581521
0.585763 0.151904 0.121202
0.632166 0.166247 0.143465
0.636057 0.167636 0.146929
0.622003 0.174258 0.14847
0.0666361 0.090959 0.0755474
0.062089 0.0931868 0.0720684
0.0946517 0.0997177 0.0625162
0.273274 0.085008 0.0649119
0.434195 0.114427 0.0738842
0.606241 0.167727 0.127169
0.641306 0.181689 0.143526
0.642969 0.183551 0.144686
0.630625 0.187915 0.144091
0.103105 0.261921 0.143526
0.094377 0.267964 0.139132
0.0929427 0.274556 0.112825
0.296284 0.334524 0.116762
0.649897 0.328862 0.158633
0.790463 0.336782 0.215213
0.803464 0.356954 0.224933
0.806531 0.367102 0.227085
0.802609 0.375662 0.229023
0.127855 0.538689 0.292027
0.122591 0.538949 0.29543
0.116258 0.529778 0.255055
0.168322 0.522805 0.143481
0.583932 0.634363 0.176669
0.856916 0.696681 0.274754
0.867018 0.698268 0.318395
0.868864 0.710719 0.328267
0.867658 0.716197 0.333516
0.211307 0.740414 0.44419
0.210315 0.737438 0.447852
0.203098 0.723842 0.420157
0.194186 0.683772 0.309682
0.566476 0.790463 0.305074
0.787655 0.842527 0.340246
0.871763 0.856413 0.420615
0.870878 0.857847 0.42565
0.870771 0.857618 0.424781
0.228809 0.768566 0.484291
0.226383 0.763043 0.474815
0.21622 0.74461 0.434623
0.220172 0.712077 0.347646
0.54583 0.785336 0.339117
0.784833 0.856352 0.38085
0.867262 0.859846 0.436881
0.867704 0.862089 0.453956
0.863996 0.862745 0.458152
0.231754 0.77229 0.494423
0.227588 0.765957 0.480308
0.215427 0.744656 0.423239
0.222965 0.710674 0.327321
0.561654 0.793332 0.331991
0.785504 0.855482 0.370977
0.872343 0.857328 0.422599
0.875914 0.860655 0.443809
0.862715 0.862928 0.458885
0.232975 0.773434 0.49897
0.228656 0.767346 0.485817
0.217075 0.747646 0.433738
0.219562 0.712184 0.335271
0.543435 0.78558 0.328008
0.780896 0.855467 0.370672
0.86981 0.857618 0.424262
0.873838 0.860945 0.446097
0.86154 0.863096 0.460075
0.0390021 0.0390021 0.0636912
0.0510872 0.0390021 0.0723125
0.0977035 0.0396429 0.0764782
0.247761 0.0390021 0.078996
0.426261 0.060502 0.0733043
0.649134 0.14699 0.173098
0.689921 0.158785 0.197833
0.687922 0.158129 0.206195
0.667659 0.163333 0.211017
0.0419318 0.0411383 0.0635996
0.0390021 0.0390021 0.0681163
0.0934615 0.0401312 0.0765698
0.254429 0.0390021 0.0722057
0.444785 0.0838788 0.0797894
0.661677 0.162539 0.177523
0.685634 0.166766 0.19205
0.687419 0.161944 0.198123
0.670253 0.167086 0.201892
0.0627298 0.0892653 0.0833448
0.0585794 0.0899062 0.0854353
0.100511 0.0932174 0.0981765
0.291814 0.0834211 0.0832685
0.467933 0.111696 0.0827344
0.624491 0.158907 0.137987
0.654719 0.168826 0.153719
0.654719 0.168154 0.154284
0.643626 0.172488 0.155566
0.102434 0.257237 0.164446
0.0958114 0.261845 0.163104
0.0963912 0.267353 0.14168
0.305837 0.3308 0.128344
0.650446 0.302937 0.165118
0.784588 0.320836 0.214832
0.791409 0.332158 0.220874
0.795056 0.340169 0.224216
0.791547 0.348409 0.227375
0.132479 0.546029 0.321736
0.127855 0.545968 0.325887
0.12221 0.536858 0.297597
0.137743 0.513298 0.150713
0.580285 0.625696 0.175158
0.85893 0.677333 0.279072
0.863966 0.679728 0.322774
0.866621 0.694713 0.335073
0.865599 0.701106 0.340978
0.214801 0.747814 0.465782
0.213931 0.744381 0.469551
0.206546 0.731228 0.445792
0.189899 0.688426 0.338125
0.533761 0.775845 0.295048
0.781277 0.837079 0.329839
0.871809 0.854627 0.41738
0.871641 0.856474 0.424079
0.871351 0.855802 0.422217
0.238895 0.78439 0.51342
0.236515 0.779232 0.507988
0.226017 0.762875 0.470909
0.214557 0.720241 0.376135
0.492164 0.76231 0.327611
0.771054 0.855604 0.377661
0.86334 0.858778 0.433051
0.868101 0.862486 0.456855
0.864378 0.863127 0.460655
0.243626 0.790143 0.52958
0.239719 0.784207 0.517876
0.225422 0.76495 0.465629
0.214817 0.719371 0.359243
0.499611 0.766476 0.318669
0.766934 0.8551 0.367941
0.86334 0.85449 0.416587
0.876081 0.861143 0.447974
0.863035 0.863401 0.462608
0.244419 0.790539 0.532708
0.240162 0.784482 0.519997
0.226398 0.766079 0.471077
0.214343 0.721218 0.365896
0.48249 0.759289 0.314855
0.761501 0.855039 0.368002
0.859022 0.855039 0.41619
0.873991 0.861524 0.450538
0.860746 0.863813 0.465629
0.0390021 0.0424659 0.140108
0.0433356 0.044419 0.151766
0.088777 0.0467231 0.175952
0.237354 0.0411383 0.164706
0.419654 0.040589 0.186816
0.574701 0.084123 0.243244
0.617334 0.101625 0.273655
0.606744 0.0950484 0.280247
0.586557 0.0960555 0.283711
0.0390021 0.0463722 0.151141
0.0390021 0.0439918 0.158251
0.0716106 0.0478828 0.18645
0.245823 0.0417182 0.173617
0.428428 0.0417029 0.190265
0.590799 0.0941482 0.250401
0.617334 0.104067 0.276585
0.603464 0.0941939 0.280232
0.586007 0.095964 0.285161
0.0390021 0.0811017 0.162905
0.0390021 0.0755016 0.173983
0.04654 0.0669108 0.199329
0.257893 0.0521401 0.191516
0.447257 0.0397345 0.183948
0.634562 0.115572 0.258412
0.65127 0.123308 0.278767
0.640726 0.115358 0.283513
0.623606 0.113954 0.285161
0.0876631 0.257816 0.21445
0.0817731 0.264027 0.221729
0.0817578 0.266651 0.226307
0.347143 0.331548 0.338704
0.637934 0.286885 0.302953
0.792004 0.277989 0.280781
0.796628 0.285908 0.291768
0.802701 0.293538 0.302861
0.797024 0.302037 0.308492
0.139651 0.559838 0.390082
0.136233 0.561013 0.399039
0.136156 0.558495 0.38761
0.169467 0.548043 0.338491
0.596017 0.618479 0.305684
0.836255 0.57908 0.334295
0.849515 0.585489 0.335149
0.850141 0.592371 0.339208
0.847425 0.594766 0.341054
0.224735 0.762814 0.523262
0.22504 0.759747 0.528069
0.218311 0.750332 0.510353
0.200137 0.713558 0.435233
0.421118 0.719692 0.323461
0.773816 0.825513 0.346548
0.874388 0.840467 0.430762
0.874571 0.841184 0.438987
0.874174 0.838437 0.435203
0.263035 0.819867 0.588418
0.261738 0.816114 0.585306
0.254124 0.804929 0.562127
0.231388 0.764523 0.475029
0.352514 0.725811 0.337987
0.737667 0.853147 0.391821
0.855192 0.855573 0.434104
0.87216 0.86537 0.480613
0.868528 0.865843 0.483467
0.268605 0.825574 0.607248
0.265919 0.820798 0.597757
0.257252 0.809094 0.570443
0.231464 0.765988 0.470192
0.341466 0.723125 0.326299
0.728695 0.849958 0.380682
0.844419 0.853223 0.410681
0.87895 0.863981 0.471138
0.865522 0.866682 0.488991
0.269093 0.824948 0.608484
0.265354 0.819959 0.596506
0.256764 0.808423 0.569192
0.23151 0.766567 0.472389
0.329274 0.72105 0.326131
0.720806 0.848264 0.382452
0.835325 0.852415 0.412345
0.876417 0.864118 0.470848
0.863783 0.867765 0.497063
0.0390021 0.0533608 0.271702
0.0390021 0.054902 0.282475
0.0554971 0.0553292 0.304112
0.248539 0.0494392 0.333089
0.417334 0.0620127 0.32108
0.624186 0.1337 0.387671
0.66952 0.154986 0.426688
0.692744 0.178454 0.461219
0.689418 0.195651 0.476768
0.0390021 0.0543679 0.279866
0.0390021 0.0553902 0.28867
0.0459144 0.0565347 0.31075
0.252628 0.0508888 0.346471
0.429114 0.065919 0.331273
0.639002 0.141878 0.401068
0.679515 0.16527 0.441413
0.69604 0.181964 0.470436
0.676478 0.182773 0.474037
0.0390021 0.0627146 0.284489
0.0390021 0.0588235 0.291539
0.0390021 0.0572671 0.309743
0.240772 0.0517739 0.363348
0.443015 0.0720073 0.345174
0.650614 0.146593 0.41088
0.67715 0.157519 0.438254
0.682689 0.164935 0.455619
0.677623 0.173007 0.46421
0.0390021 0.24416 0.343954
0.0390021 0.243519 0.349981
0.0390021 0.229419 0.356451
0.195697 0.230488 0.457221
0.598596 0.24329 0.505898
0.771542 0.242649 0.504601
0.791379 0.248936 0.519554
0.804044 0.263005 0.532448
0.804257 0.275334 0.537987
0.127733 0.56379 0.463539
0.126299 0.564446 0.471595
0.126329 0.564477 0.473548
0.195666 0.581537 0.50515
0.621057 0.61387 0.612772
0.820539 0.554528 0.544732
0.857664 0.545708 0.531716
0.858228 0.552254 0.538705
0.85481 0.553857 0.540124
0.231556 0.772229 0.595621
0.231998 0.768826 0.601038
0.228504 0.762768 0.592905
0.233234 0.751049 0.567407
0.481254 0.752911 0.584604
0.786374 0.817441 0.584024
0.891325 0.809155 0.606714
0.890517 0.80853 0.599725
0.888441 0.804761 0.596262
0.31339 0.857191 0.684627
0.310018 0.854551 0.684138
0.298222 0.849256 0.669932
0.287602 0.833799 0.626841
0.433097 0.802518 0.587762
0.698421 0.85185 0.593332
0.86186 0.87715 0.565576
0.884123 0.884749 0.590127
0.88217 0.884779 0.589853
0.327153 0.861112 0.702403
0.319844 0.858183 0.696101
0.304723 0.851896 0.677913
0.289509 0.835737 0.630961
0.421332 0.80293 0.58146
0.655528 0.834897 0.579461
0.853635 0.883528 0.577661
0.884489 0.881315 0.571893
0.88043 0.887098 0.602869
0.32665 0.860273 0.703258
0.318029 0.857176 0.693843
0.302922 0.851347 0.676326
0.28661 0.834775 0.628946
0.411963 0.800946 0.576532
0.646036 0.831876 0.580255
0.849699 0.887053 0.59324
0.883253 0.882399 0.577646
0.881758 0.890303 0.616464
0.0390021 0.0660716 0.360571
0.0390021 0.0674144 0.369863
0.0483253 0.068452 0.389441
0.211337 0.0630961 0.442847
0.44242 0.0973068 0.460151
0.593698 0.133257 0.477943
0.631586 0.157839 0.522179
0.654169 0.178225 0.558145
0.668956 0.191592 0.581918
0.0390021 0.0679484 0.36582
0.0390021 0.0695811 0.374075
0.0415198 0.0712444 0.393866
0.211109 0.0657816 0.452262
0.45687 0.103563 0.473045
0.609384 0.143755 0.495888
0.644297 0.168811 0.53959
0.666468 0.18851 0.574884
0.677424 0.199161 0.59321
0.0390021 0.0704204 0.362127
0.0390021 0.0704814 0.369375
0.0390021 0.0735943 0.390051
0.192035 0.0697948 0.459709
0.474144 0.113954 0.491707
0.626993 0.15671 0.516091
0.662867 0.183261 0.558297
0.676402 0.195773 0.581216
0.680568 0.201541 0.591302
0.0390021 0.192035 0.412879
0.0390021 0.188769 0.41503
0.0390021 0.170901 0.414755
0.121248 0.164202 0.497169
0.545556 0.204868 0.611124
0.693111 0.208927 0.574639
0.705745 0.218265 0.586877
0.726192 0.236286 0.610864
0.736599 0.247745 0.624323
0.107225 0.569131 0.580514
0.107271 0.568795 0.584009
0.105409 0.564843 0.588968
0.143343 0.568994 0.635142
0.500435 0.555627 0.749126
0.876554 0.561227 0.774731
0.909026 0.553307 0.768444
0.909529 0.560357 0.772549
0.905562 0.561578 0.770016
0.232593 0.773953 0.660761
0.230762 0.770748 0.659419
0.228672 0.766735 0.655833
0.236484 0.760143 0.654063
0.543954 0.797894 0.742214
0.813245 0.813764 0.803235
0.896223 0.798413 0.776455
0.898146 0.797314 0.772885
0.896025 0.79292 0.768765
0.365179 0.874174 0.745541
0.358679 0.871427 0.742763
0.348165 0.866361 0.733532
0.340291 0.85539 0.713863
0.540734 0.877623 0.761532
0.749325 0.892164 0.806378
0.894774 0.917296 0.79855
0.916121 0.911177 0.795102
0.916106 0.910109 0.79411
0.381949 0.878843 0.759274
0.377401 0.876585 0.755413
0.369329 0.874266 0.747631
0.365209 0.870054 0.730282
0.528771 0.89131 0.764401
0.715572 0.901366 0.805875
0.86598 0.928893 0.813001
0.912215 0.92604 0.775906
0.913954 0.928512 0.787228
0.382467 0.878447 0.760479
0.377005 0.876432 0.755383
0.368338 0.874006 0.747112
0.363119 0.869337 0.728679
0.520867 0.889326 0.759503
0.712169 0.901152 0.805097
0.856382 0.927092 0.818341
0.91136 0.929122 0.79118
0.9149 0.931182 0.799207
0.0390021 0.0933547 0.42977
0.0390021 0.0951247 0.437842
0.0686961 0.0983139 0.459113
0.207843 0.105409 0.520958
0.498177 0.16408 0.601923
0.687297 0.211841 0.62388
0.700801 0.220066 0.636255
0.700984 0.220066 0.636469
0.701076 0.220081 0.63653
0.0390021 0.098146 0.433768
0.0390021 0.0997635 0.441062
0.0634165 0.102235 0.461143
0.212985 0.109209 0.52694
0.518578 0.172076 0.610803
0.69276 0.216526 0.631189
0.702953 0.221607 0.638514
0.702892 0.221546 0.638468
0.703014 0.221668 0.638605
0.0390021 0.0997024 0.426291
0.0390021 0.101915 0.433066
0.0418402 0.105715 0.451804
0.205447 0.115709 0.531563
0.536721 0.183185 0.625818
0.701381 0.222904 0.641032
0.706401 0.224979 0.642588
0.707256 0.22565 0.643397
0.707683 0.226062 0.643671
0.0390021 0.175097 0.441871
0.0390021 0.173037 0.443015
0.0390021 0.154803 0.439826
0.122332 0.160937 0.52607
0.51284 0.202853 0.655924
0.728069 0.247044 0.665782
0.749599 0.262562 0.683268
0.762737 0.27451 0.698421
0.766308 0.278218 0.70222
0.10898 0.574044 0.64303
0.10869 0.572839 0.644694
0.107347 0.568063 0.648951
0.14519 0.568276 0.682139
0.449607 0.531884 0.797024
0.889387 0.576516 0.881697
0.923308 0.572519 0.865827
0.923888 0.577783 0.865995
0.923125 0.5776 0.864729
0.25568 0.777996 0.726787
0.252247 0.774639 0.726375
0.247074 0.767865 0.724987
0.260456 0.759045 0.736049
0.515358 0.788159 0.817304
0.761837 0.793301 0.877897
0.916701 0.787488 0.876631
0.917983 0.784527 0.873213
0.917815 0.77969 0.871641
0.391089 0.880034 0.779126
0.381262 0.87599 0.774197
0.367803 0.870359 0.767086
0.356878 0.860258 0.756207
0.542397 0.884565 0.807752
0.786679 0.910475 0.874556
0.904753 0.918379 0.896513
0.923964 0.920134 0.893385
0.923629 0.918471 0.891814
0.432822 0.890715 0.795987
0.425635 0.889479 0.792966
0.413916 0.88632 0.785473
0.408392 0.884321 0.774472
0.571435 0.908873 0.821271
0.777371 0.934508 0.879042
0.883116 0.945312 0.904234
0.924147 0.948425 0.890486
0.925307 0.950393 0.901793
0.435264 0.891356 0.797543
0.428031 0.890181 0.794171
0.414786 0.886519 0.786007
0.4056 0.88365 0.772534
0.56788 0.908309 0.81915
0.775402 0.935012 0.880125
0.879103 0.945006 0.907546
0.92195 0.95053 0.900832
0.924468 0.949248 0.894118
0.0490425 0.112047 0.462547
0.0599222 0.112367 0.469017
0.0966354 0.11426 0.488258
0.237354 0.123934 0.549447
0.528389 0.18146 0.626642
0.696513 0.217319 0.633234
0.703014 0.221668 0.63859
0.702327 0.221088 0.637873
0.702296 0.22092 0.637781
0.0403601 0.111177 0.456184
0.0500954 0.1122 0.463478
0.0875105 0.113649 0.483574
0.240986 0.124498 0.551141
0.544564 0.185809 0.628717
0.69575 0.217029 0.633005
0.704112 0.22269 0.639841
0.703716 0.222324 0.639414
0.703761 0.222324 0.63946
0.0390021 0.107317 0.440085
0.0390021 0.109743 0.446876
0.0548257 0.112459 0.466178
0.226795 0.122835 0.545602
0.554025 0.189227 0.631708
0.698222 0.21915 0.635431
0.707378 0.225757 0.643488
0.707729 0.226123 0.643717
0.708034 0.226505 0.644068
0.0390021 0.170596 0.45185
0.0390021 0.162783 0.447974
0.0390021 0.136355 0.433646
0.1075 0.134783 0.504326
0.511742 0.197391 0.650233
0.733333 0.251545 0.674784
0.744472 0.258198 0.681224
0.74873 0.261967 0.685115
0.751064 0.263722 0.687373
0.112627 0.581399 0.662486
0.111696 0.579477 0.661662
0.108507 0.572122 0.658915
0.146197 0.561685 0.6822
0.449485 0.524422 0.798795
0.88748 0.572229 0.883787
0.923888 0.569421 0.869062
0.924514 0.57467 0.87068
0.923781 0.573999 0.86952
0.305379 0.792203 0.760403
0.30013 0.788785 0.758907
0.290913 0.781582 0.75523
0.286 0.766155 0.753597
0.505135 0.783307 0.824506
0.74374 0.786328 0.886473
0.918517 0.786801 0.896864
0.922042 0.782132 0.895308
0.921782 0.777111 0.894133
0.415976 0.882918 0.796033
0.409751 0.879576 0.794598
0.398672 0.873533 0.791012
0.394766 0.862303 0.789761
0.581476 0.885435 0.844038
0.791577 0.911437 0.898772
0.896239 0.915251 0.920546
0.924666 0.90779 0.917784
0.924926 0.906218 0.917967
0.451469 0.895048 0.805676
0.451759 0.894957 0.806332
0.453513 0.895277 0.806775
0.45481 0.895262 0.805402
0.592248 0.91429 0.843473
0.783932 0.939467 0.894667
0.896071 0.94876 0.923247
0.926787 0.952819 0.925078
0.92668 0.953185 0.924819
0.451637 0.895003 0.806073
0.451759 0.894957 0.806332
0.453117 0.895232 0.806699
0.450202 0.894209 0.802747
0.599069 0.915251 0.844495
0.79852 0.941466 0.899168
0.897932 0.949523 0.923644
0.925414 0.953704 0.92546
0.926696 0.953857 0.92488
0.0555428 0.112383 0.46656
0.0688945 0.112993 0.474022
0.106844 0.114687 0.49366
0.252491 0.126055 0.555535
0.542367 0.185428 0.628733
0.697185 0.217243 0.632807
0.7037 0.222324 0.639384
0.702998 0.221592 0.638575
0.702922 0.221363 0.638437
0.0452583 0.111681 0.45977
0.0558938 0.112337 0.466712
0.0963607 0.114244 0.488075
0.255924 0.126375 0.55671
0.55671 0.188464 0.630274
0.696315 0.216892 0.632624
0.704646 0.223407 0.64065
0.704234 0.222812 0.639994
0.704219 0.222736 0.639948
0.0390021 0.108507 0.442786
0.0390021 0.11043 0.449546
0.059678 0.112367 0.468849
0.238666 0.124071 0.549966
0.563775 0.191913 0.633433
0.697261 0.217762 0.633448
0.707759 0.226154 0.643778
0.708019 0.22649 0.644083
0.708324 0.22681 0.64448
0.0390021 0.162524 0.447898
0.0390021 0.15378 0.443214
0.0390021 0.127779 0.42826
0.103044 0.124941 0.49688
0.521172 0.200748 0.653223
0.73196 0.250263 0.673442
0.741115 0.254902 0.677501
0.743633 0.257206 0.680293
0.743969 0.257603 0.68072
0.113588 0.582315 0.663111
0.111742 0.579217 0.661677
0.10837 0.570825 0.658717
0.145785 0.558968 0.681788
0.451194 0.521004 0.799542
0.887678 0.568948 0.882673
0.92369 0.566323 0.868315
0.92398 0.570535 0.869444
0.923445 0.569528 0.868376
0.308476 0.793149 0.76141
0.301946 0.78854 0.759319
0.290898 0.780835 0.75523
0.281819 0.76321 0.752316
0.502129 0.779004 0.823377
0.741161 0.779904 0.885634
0.918624 0.781033 0.89659
0.922148 0.776196 0.894362
0.92195 0.771069 0.893355
0.414145 0.88246 0.795804
0.407034 0.878264 0.793637
0.39559 0.871321 0.789822
0.393759 0.859571 0.789593
0.582055 0.882063 0.844297
0.785306 0.906691 0.897063
0.893385 0.912963 0.920394
0.924849 0.904799 0.917601
0.924681 0.902861 0.917159
0.451499 0.895048 0.805722
0.451728 0.894972 0.806271
0.452506 0.89514 0.8065
0.458305 0.895872 0.808164
0.599207 0.915434 0.846799
0.803769 0.941665 0.900938
0.903578 0.949432 0.924666
0.92668 0.952346 0.925155
0.927337 0.952102 0.925109
0.451606 0.895003 0.805997
0.451759 0.894957 0.806332
0.453315 0.895262 0.806729
0.462699 0.896239 0.809171
0.623423 0.918456 0.853223
0.811017 0.942596 0.902419
0.899565 0.949813 0.924025
0.926207 0.953887 0.925048
0.926741 0.953857 0.924865
