bundles/resolve-cinematic-luts/Gamut/_Conversion/Blackmagic/Blackmagic Pocket Cinema Camera 6K Pro BaseLUTs/BaseLUT - Blackmagic PCC 6K Pro - Gen5 Film to Rec709.cube
TITLE "BaseLUT - Blackmagic Pocket Cinema Camera 6K Pro - Gen5 Film to Rec709"
# Developed for converting Blackmagic Film Gen 5 / Blackmagic Wide Gamut to Rec.709. Version 1.0 - 05/01/2025 - Copyright 2025 Gamut, LLC.
LUT_3D_SIZE 33
0.0000000000 0.0000000000 0.0000000000
0.0000000000 0.0000000000 0.0000000000
0.0000000000 0.0000000000 0.0000000000
0.0000000000 0.0000000000 0.0000000000
0.0000000000 0.0000000000 0.0000000000
0.0000000000 0.0000000000 0.0000000000
0.0019230798 0.0000000000 0.0000000000
0.0189898267 0.0020216263 0.0020216263
0.0765786706 0.0090754105 0.0090754105
0.1568531634 0.0189651823 0.0189651823
0.2395101662 0.0298415450 0.0292986792
0.3206541490 0.0398839997 0.0393868262
0.3952857874 0.0491380199 0.0491380199
0.4706893116 0.0589405929 0.0583386542
0.5456506559 0.0695616967 0.0679027628
0.6187787482 0.0804201077 0.0772736877
0.6876257262 0.0922317243 0.0862200276
0.7504311625 0.1070310100 0.0950463666
0.8055273663 0.1264235607 0.1039070452
0.8524449338 0.1544166472 0.1135503725
0.8905807281 0.1937161276 0.1267802796
0.9205918167 0.2443083305 0.1470326963
0.9444715671 0.3028613604 0.1794615326
0.9641542256 0.3627192776 0.2267118497
0.9818014590 0.4252378844 0.2855606630
0.9941829344 0.4913404399 0.3482494454
0.9971793799 0.5592452680 0.4119095042
0.9976431505 0.6265357048 0.4774065909
0.9978820942 0.6908315388 0.5446621891
0.9980847244 0.7503795969 0.6121849826
0.9983214006 0.8035528618 0.6775668617
0.9986015483 0.8491171879 0.7385030450
0.9988613163 0.8869759246 0.7938692299
0.0000000000 0.0000000000 0.0000000000
0.0000000000 0.0000000000 0.0000000000
0.0000000000 0.0000000000 0.0000000000
0.0000000000 0.0000000000 0.0000000000
0.0000000000 0.0000000000 0.0000000000
0.0000000000 0.0000000000 0.0000000000
0.0025476850 0.0000000000 0.0000000000
0.0276214496 0.0026168217 0.0026168217
0.0908206262 0.0106289800 0.0106289800
0.1675478828 0.0205190333 0.0205190333
0.2476543996 0.0306055228 0.0306055228
0.3261819449 0.0406466952 0.0401554326
0.3995214530 0.0498156796 0.0497936622
0.4735750332 0.0595271167 0.0589405929
0.5476730821 0.0695616967 0.0681994344
0.6201093579 0.0808759674 0.0775267624
0.6884497366 0.0930654599 0.0862200276
0.7510175695 0.1077528920 0.0950463666
0.8059255261 0.1273009092 0.1039070452
0.8526009351 0.1554167669 0.1135503725
0.8906771486 0.1947762032 0.1266673155
0.9206697338 0.2454288621 0.1470326963
0.9445496568 0.3037342188 0.1794615326
0.9641341887 0.3632719697 0.2265904923
0.9818633311 0.4256946235 0.2854596276
0.9941829344 0.4916074685 0.3482321131
0.9971793799 0.5595194124 0.4118948520
0.9976431505 0.6267291753 0.4773467300
0.9978820942 0.6909694257 0.5446759841
0.9980847244 0.7504184180 0.6121403832
0.9983214006 0.8036237699 0.6775642322
0.9986015483 0.8491820844 0.7385416897
0.9988613163 0.8870370560 0.7938342888
0.0000000000 0.0000000000 0.0000000000
0.0000000000 0.0000000000 0.0000000000
0.0000000000 0.0000000000 0.0000000000
0.0000000000 0.0000000000 0.0000000000
0.0000000000 0.0000000000 0.0000000000
0.0000000000 0.0000000000 0.0000000000
0.0051292970 0.0000000000 0.0000000000
0.0409620065 0.0047843686 0.0047843686
0.1051015501 0.0123797676 0.0123797676
0.1793388421 0.0220726028 0.0215050612
0.2560034786 0.0316169458 0.0316169458
0.3316982734 0.0409177841 0.0409177841
0.4032941042 0.0504436751 0.0498156796
0.4763358980 0.0600940497 0.0591521078
0.5495053307 0.0700911144 0.0684073484
0.6213291461 0.0811335769 0.0775267624
0.6892512494 0.0934684341 0.0866643782
0.7516352658 0.1084704269 0.0952340146
0.8062353727 0.1282249820 0.1039070452
0.8528625348 0.1565287199 0.1135503725
0.8907872941 0.1957607776 0.1266673155
0.9207071640 0.2463990949 0.1468494580
0.9445296804 0.3045424999 0.1793983578
0.9641219923 0.3638747872 0.2265415356
0.9818633311 0.4261697681 0.2853289052
0.9941829344 0.4918975255 0.3482288221
0.9971793799 0.5598526951 0.4118403132
0.9976431505 0.6268869651 0.4772767204
0.9978820942 0.6910822308 0.5446063819
0.9980847244 0.7504970604 0.6121342929
0.9983214006 0.8036597241 0.6775642322
0.9986015483 0.8491841466 0.7385429383
0.9988613163 0.8870390280 0.7938331616
0.0000000000 0.0000000000 0.0000000000
0.0000000000 0.0000000000 0.0000000000
0.0000000000 0.0000000000 0.0000000000
0.0000000000 0.0000000000 0.0000000000
0.0000000000 0.0000000000 0.0000000000
0.0000000000 0.0000000000 0.0000000000
0.0119856129 0.0013562576 0.0013562576
0.0571269794 0.0062639423 0.0062639423
0.1203424502 0.0145257421 0.0145257421
0.1905576899 0.0230535801 0.0230535801
0.2640996256 0.0324551696 0.0323811425
0.3367687268 0.0418730378 0.0416758823
0.4067308337 0.0510877770 0.0504873345
0.4788263755 0.0606662719 0.0595271167
0.5512644725 0.0709031926 0.0687369835
0.6226096103 0.0817811503 0.0777603842
0.6901029759 0.0942829517 0.0866643782
0.7520751965 0.1093463055 0.0952340146
0.8066812830 0.1292704319 0.1039070452
0.8530067577 0.1576213007 0.1135503725
0.8908830354 0.1968972286 0.1266673155
0.9207362659 0.2474501569 0.1468494580
0.9445865725 0.3054881095 0.1792407960
0.9641446427 0.3645477681 0.2264139411
0.9818633311 0.4265522298 0.2851984324
0.9941829344 0.4922096109 0.3481249221
0.9971793799 0.5600757526 0.4117637334
0.9976431505 0.6270753736 0.4772868690
0.9978820942 0.6911813066 0.5446164146
0.9980847244 0.7505684825 0.6121342929
0.9983214006 0.8037272556 0.6775193433
0.9986015483 0.8492427628 0.7385079770
0.9988613163 0.8870390280 0.7938331616
0.0000000000 0.0000000000 0.0000000000
0.0000000000 0.0000000000 0.0000000000
0.0000000000 0.0000000000 0.0000000000
0.0000000000 0.0000000000 0.0000000000
0.0000000000 0.0000000000 0.0000000000
0.0019970444 0.0013316444 0.0000000000
0.0183483518 0.0060667241 0.0019723687
0.0629635220 0.0108262294 0.0071020410
0.1270287257 0.0163752951 0.0153891420
0.1972348529 0.0247364233 0.0240455032
0.2698838542 0.0339255342 0.0332443574
0.3408578767 0.0430746421 0.0424283822
0.4099846347 0.0517265623 0.0507466641
0.4811525032 0.0612330003 0.0597042097
0.5529150749 0.0715921112 0.0687369835
0.6238443481 0.0825299912 0.0780123955
0.6910270075 0.0948799853 0.0866643782
0.7526552077 0.1102155126 0.0952340146
0.8070076297 0.1303076252 0.1039070452
0.8532643056 0.1588292225 0.1134125450
0.8910672051 0.1980484801 0.1264665321
0.9208263167 0.2485547411 0.1467617325
0.9445605530 0.3063685155 0.1791773084
0.9641542256 0.3651945314 0.2263705006
0.9818633311 0.4270180469 0.2851142362
0.9941829344 0.4924938561 0.3480349694
0.9971793799 0.5603226780 0.4117410037
0.9976431505 0.6272647871 0.4772652915
0.9978820942 0.6913101552 0.5446095171
0.9980847244 0.7506499693 0.6120881007
0.9983214006 0.8038012276 0.6776055525
0.9986015483 0.8492500430 0.7384643378
0.9988613163 0.8870942434 0.7938971577
0.0000000000 0.0000000000 0.0000000000
0.0000000000 0.0000000000 0.0000000000
0.0000000000 0.0000000000 0.0000000000
0.0004550879 0.0004550879 0.0004550879
0.0000000000 0.0019970444 0.0000000000
0.0026330964 0.0074476887 0.0004550879
0.0224916071 0.0177318342 0.0020956222
0.0642653303 0.0249085278 0.0072007439
0.1254824744 0.0275228718 0.0147969248
0.1990952506 0.0294712215 0.0246130447
0.2733329199 0.0362779045 0.0337804627
0.3444072753 0.0445155916 0.0425741848
0.4128960077 0.0530103251 0.0511526094
0.4837111273 0.0623748075 0.0601326373
0.5548186246 0.0725241278 0.0692700916
0.6252985036 0.0833763152 0.0781672052
0.6920155014 0.0960905029 0.0866643782
0.7532650974 0.1112611116 0.0952340146
0.8074829777 0.1317178730 0.1039070452
0.8535726999 0.1602401482 0.1134125450
0.8911877990 0.1996402483 0.1264665321
0.9208802473 0.2498857410 0.1466221224
0.9446744311 0.3072960861 0.1791773084
0.9641662975 0.3658495969 0.2262263574
0.9819094556 0.4276015349 0.2851687454
0.9941946330 0.4929490171 0.3479718145
0.9971793799 0.5606808822 0.4117410037
0.9976431505 0.6274543775 0.4772067108
0.9978820942 0.6914778148 0.5445499476
0.9980847244 0.7507773101 0.6121555619
0.9983214006 0.8038610367 0.6775290160
0.9986015483 0.8492768515 0.7384318738
0.9988613163 0.8871021314 0.7939063000
0.0000000000 0.0000000000 0.0000000000
0.0000000000 0.0019230798 0.0000000000
0.0000000000 0.0033532707 0.0000000000
0.0007887160 0.0074230443 0.0007887160
0.0013316131 0.0152901264 0.0013316131
0.0034519111 0.0274488134 0.0026816535
0.0208144226 0.0389773782 0.0042907604
0.0606962018 0.0483080213 0.0072254196
0.1196988174 0.0529875572 0.0147476359
0.1929440315 0.0518338969 0.0238482538
0.2728327734 0.0479471428 0.0337804627
0.3461656809 0.0510600051 0.0431718438
0.4157979340 0.0567722933 0.0518121298
0.4865823965 0.0649722631 0.0607234108
0.5571944421 0.0744230068 0.0694069496
0.6270610042 0.0854531726 0.0782446100
0.6933833708 0.0979323311 0.0871067272
0.7541618511 0.1133952814 0.0953771276
0.8080961709 0.1338536105 0.1039070452
0.8538850041 0.1625819647 0.1134125450
0.8913820407 0.2017493460 0.1263531927
0.9210013923 0.2517741512 0.1464907687
0.9446608109 0.3086324166 0.1789565717
0.9642182566 0.3667618446 0.2260274277
0.9819179971 0.4282525308 0.2849372372
0.9942573040 0.4936277434 0.3478762202
0.9971793799 0.5611583004 0.4116718126
0.9976431505 0.6278118854 0.4771367013
0.9978820942 0.6916723700 0.5445092523
0.9980847244 0.7509089955 0.6120836033
0.9983214006 0.8039621151 0.6774855357
0.9986015483 0.8493363738 0.7384244445
0.9988613163 0.8871534028 0.7938761805
0.0000000000 0.0101109150 0.0000000000
0.0013808708 0.0150682013 0.0013808708
0.0020216263 0.0215541625 0.0020216263
0.0034273604 0.0296685960 0.0034273604
0.0042907917 0.0412613990 0.0042907917
0.0064612542 0.0550791762 0.0064612542
0.0117884261 0.0720811220 0.0088036648
0.0504481161 0.0808582659 0.0095686121
0.1079879525 0.0875242754 0.0132431033
0.1815527193 0.0884089422 0.0222944278
0.2644911629 0.0837047931 0.0323811425
0.3444897737 0.0747595676 0.0424283822
0.4167926862 0.0714945029 0.0518121298
0.4889800325 0.0735095303 0.0607234108
0.5600540824 0.0800061248 0.0698011981
0.6293677447 0.0895094667 0.0786183736
0.6951967581 0.1014380346 0.0871067272
0.7554514865 0.1167220937 0.0954551891
0.8088857313 0.1372611115 0.1039070452
0.8543688963 0.1659442112 0.1134125450
0.8916701547 0.2050581869 0.1263531927
0.9211326685 0.2544549383 0.1463677341
0.9447222430 0.3107238193 0.1787355223
0.9642618151 0.3681781257 0.2257668478
0.9819179971 0.4292597838 0.2847644168
0.9942573040 0.4945227549 0.3476745633
0.9971793799 0.5618421874 0.4115035000
0.9976431505 0.6282438442 0.4770666917
0.9978820942 0.6919681277 0.5444517521
0.9980847244 0.7511251997 0.6120039302
0.9983214006 0.8040906437 0.6775041612
0.9986015483 0.8494004267 0.7384567837
0.9988613163 0.8871652347 0.7938692299
0.0041427686 0.0393012587 0.0041427686
0.0055238583 0.0469839766 0.0055238583
0.0064612855 0.0560717406 0.0064612855
0.0078917266 0.0662017957 0.0078917266
0.0093712689 0.0768094777 0.0093712689
0.0109987718 0.0903898488 0.0109987718
0.0133171962 0.1081635911 0.0133171962
0.0275674382 0.1240789295 0.0156111922
0.0885721334 0.1303968831 0.0157837033
0.1633166068 0.1343677036 0.0201979674
0.2490905493 0.1323264171 0.0308275730
0.3351475065 0.1235151722 0.0416018551
0.4140158195 0.1101679225 0.0513237444
0.4896097239 0.1005774181 0.0607234108
0.5625718669 0.0965905850 0.0700385104
0.6321329989 0.0996858396 0.0789756555
0.6974799729 0.1090052551 0.0875475750
0.7571921251 0.1230860837 0.0956423681
0.8100116889 0.1431168567 0.1040271399
0.8550491951 0.1714779524 0.1134125450
0.8920023895 0.2098468997 0.1261190079
0.9212870059 0.2583964757 0.1461300779
0.9448905084 0.3138427590 0.1783502809
0.9643119384 0.3703534688 0.2255566663
0.9819724147 0.4310488059 0.2845450702
0.9942573040 0.4958793952 0.3475778406
0.9971793799 0.5627460079 0.4114259184
0.9976431505 0.6289181543 0.4769352599
0.9978820942 0.6923770970 0.5443274714
0.9980847244 0.7514012296 0.6119814119
0.9983214006 0.8042299899 0.6774434015
0.9986015483 0.8495055047 0.7383857373
0.9988613163 0.8871962856 0.7938061105
0.0101606730 0.0871554844 0.0101606730
0.0115171183 0.0953158917 0.0115171183
0.0124784183 0.1041214956 0.0124784183
0.0140321339 0.1127117108 0.0140321339
0.0147969873 0.1222155218 0.0147969873
0.0163505568 0.1338541734 0.0163505568
0.0186937494 0.1492815957 0.0186937494
0.0211848711 0.1696214563 0.0210862308
0.0520730231 0.1832121057 0.0231510189
0.1354020822 0.1873234816 0.0233500054
0.2254771838 0.1887746142 0.0285090561
0.3190588078 0.1839483509 0.0400567298
0.4040093023 0.1716039580 0.0504218453
0.4862602317 0.1546467976 0.0606472257
0.5626911699 0.1395881976 0.0703284266
0.6344231370 0.1287103337 0.0794537515
0.7000693596 0.1278840255 0.0878603218
0.7593789768 0.1366855011 0.0958624792
0.8115261927 0.1540984900 0.1041232157
0.8559676257 0.1806720640 0.1134125450
0.8925077137 0.2176040577 0.1260384443
0.9215435970 0.2644982468 0.1458571125
0.9450177250 0.3184019416 0.1780719363
0.9644311020 0.3736829794 0.2250960598
0.9820270808 0.4335693406 0.2842282120
0.9942573040 0.4976801667 0.3472965113
0.9971793799 0.5640385235 0.4112047575
0.9976431505 0.6298531175 0.4768076064
0.9978820942 0.6929439331 0.5442772762
0.9980847244 0.7518315125 0.6118943681
0.9983214006 0.8045244710 0.6773999212
0.9986015483 0.8496607002 0.7383969749
0.9988613163 0.8873357954 0.7938072376
0.0182496490 0.1471773104 0.0182496490
0.0192613535 0.1539619760 0.0192613535
0.0200253625 0.1610891618 0.0200253625
0.0208642744 0.1684000551 0.0208642744
0.0223437617 0.1757432865 0.0223437617
0.0233499419 0.1848931452 0.0233499419
0.0249089657 0.1976540508 0.0249089657
0.0272512825 0.2148441483 0.0272512825
0.0312220717 0.2364952071 0.0301866298
0.0852381904 0.2480026987 0.0316909104
0.1899998687 0.2503578591 0.0324551696
0.2922817901 0.2498494770 0.0378315679
0.3858954494 0.2426335095 0.0486320582
0.4752083527 0.2272645712 0.0594718648
0.5584413190 0.2071037400 0.0698011981
0.6339003653 0.1877125715 0.0794537515
0.7017903440 0.1714984373 0.0880699247
0.7616355684 0.1664822920 0.0962677678
0.8133101397 0.1753602968 0.1043799183
0.8571995831 0.1967150642 0.1136234927
0.8931111667 0.2299953636 0.1259243543
0.9219425713 0.2739233761 0.1453987196
0.9451626636 0.3247602693 0.1774834720
0.9645537813 0.3784552696 0.2244727553
0.9821245479 0.4371848511 0.2837115282
0.9942998585 0.5003689193 0.3469481406
0.9971793799 0.5660178314 0.4108820956
0.9976431505 0.6312176693 0.4766118169
0.9978820942 0.6937537867 0.5440334490
0.9980847244 0.7523931057 0.6117634121
0.9983214006 0.8048691004 0.6772840051
0.9986015483 0.8498048349 0.7383583301
0.9988613163 0.8874503267 0.7938103059
0.0275721294 0.2144482323 0.0275721294
0.0283364199 0.2199642587 0.0283364199
0.0291013672 0.2255555066 0.0291013672
0.0298660643 0.2311039096 0.0298660643
0.0301127277 0.2366488863 0.0301127277
0.0313950207 0.2434377145 0.0313950207
0.0324304314 0.2537310322 0.0324304314
0.0347736552 0.2672009667 0.0346009251
0.0371905621 0.2851885303 0.0371905621
0.0443080215 0.3066978222 0.0402047215
0.1257601935 0.3160548604 0.0416758823
0.2509825294 0.3170423420 0.0421572934
0.3585789673 0.3150070295 0.0470906858
0.4555110874 0.3059906662 0.0582597169
0.5472983627 0.2884714113 0.0692185822
0.6294608316 0.2664752203 0.0793923280
0.7008448058 0.2443784242 0.0884227656
0.7628314756 0.2242408536 0.0966720555
0.8150070459 0.2165738048 0.1047439242
0.8584677717 0.2256903726 0.1136234927
0.8939421175 0.2507108867 0.1257197241
0.9223841539 0.2888510818 0.1450444713
0.9454531984 0.3346937979 0.1767639668
0.9647078539 0.3854408249 0.2236913603
0.9822269537 0.4423507976 0.2829218618
0.9943232556 0.5042347726 0.3464089574
0.9971793799 0.5687943358 0.4103956608
0.9976431505 0.6329493520 0.4763007397
0.9978820942 0.6950067667 0.5438122895
0.9980847244 0.7532934616 0.6116315815
0.9983214006 0.8054082579 0.6771369109
0.9986015483 0.8500746695 0.7382797921
0.9988613163 0.8876153157 0.7937476248
0.0373874987 0.2865618034 0.0373874987
0.0381696158 0.2905819531 0.0381696158
0.0384160603 0.2944434065 0.0384160603
0.0391659332 0.2985147316 0.0391659332
0.0399108647 0.3025844484 0.0399108647
0.0406499478 0.3073603189 0.0406499478
0.0413847150 0.3144420564 0.0413847150
0.0428619743 0.3241009043 0.0428619743
0.0450302922 0.3370687565 0.0450302922
0.0476948187 0.3538817309 0.0476948187
0.0613585369 0.3736413122 0.0513393192
0.1733531819 0.3815403948 0.0526083830
0.3150181780 0.3817127131 0.0526083830
0.4256491314 0.3787075516 0.0578845459
0.5267708384 0.3692760190 0.0684944171
0.6180899377 0.3515887569 0.0792234135
0.6963729862 0.3294294520 0.0886914776
0.7616028270 0.3066141097 0.0973223498
0.8156662562 0.2850502494 0.1051774850
0.8596448370 0.2760295097 0.1140481402
0.8948798632 0.2856735294 0.1258106396
0.9229910554 0.3120936912 0.1445827320
0.9458545742 0.3499355256 0.1759538276
0.9649636978 0.3962903244 0.2228121146
0.9823652650 0.4501324573 0.2819638030
0.9943809130 0.5096471483 0.3457489180
0.9971793799 0.5725043705 0.4098880616
0.9976431505 0.6355691467 0.4759736433
0.9978820942 0.6969332936 0.5434655325
0.9980847244 0.7545499155 0.6113766341
0.9983214006 0.8060649078 0.6770764643
0.9986015483 0.8505181344 0.7381388231
0.9988613163 0.8878531115 0.7936557009
0.0484070995 0.3567498479 0.0484070995
0.0486990173 0.3594879439 0.0486990173
0.0493363952 0.3620928018 0.0493363952
0.0497700811 0.3647875343 0.0497700811
0.0500563069 0.3672367265 0.0500563069
0.0506165927 0.3703261276 0.0506165927
0.0512596939 0.3749638029 0.0512596939
0.0525513067 0.3817794431 0.0525513067
0.0542924618 0.3917171463 0.0542924618
0.0567585012 0.4048595749 0.0567585012
0.0602035278 0.4223137982 0.0601464949
0.0845385447 0.4422336570 0.0641859552
0.2283823858 0.4495514650 0.0657904399
0.3795224440 0.4491917140 0.0657904399
0.4952194372 0.4454041581 0.0705438153
0.5974302607 0.4350227885 0.0802822489
0.6856997957 0.4161766368 0.0900043259
0.7576169185 0.3935177747 0.0985229221
0.8145624927 0.3705849016 0.1066442048
0.8601170899 0.3490318813 0.1149955127
0.8957276714 0.3393350589 0.1261960374
0.9236495701 0.3481660087 0.1444038409
0.9462661573 0.3740818927 0.1750242191
0.9652535795 0.4131059449 0.2214596314
0.9825933095 0.4620076958 0.2808637334
0.9944310499 0.5181232603 0.3448284546
0.9971793799 0.5784225503 0.4091568595
0.9976431505 0.6397296610 0.4754236530
0.9978820942 0.6997263678 0.5430109234
0.9980847244 0.7563420892 0.6110800856
0.9983214006 0.8070368608 0.6768229076
0.9986015483 0.8512139677 0.7380431477
0.9988613163 0.8881516631 0.7935562628
0.0612678403 0.4261811858 0.0606815027
0.0615836520 0.4280629845 0.0612678403
0.0618502999 0.4299197642 0.0618122073
0.0623714298 0.4318951194 0.0618502999
0.0627400644 0.4338535040 0.0624281933
0.0633122659 0.4362317854 0.0629092291
0.0638811522 0.4394084944 0.0634613835
0.0648779700 0.4440309772 0.0645739801
0.0665239249 0.4515448826 0.0660807002
0.0688955148 0.4616327850 0.0682270499
0.0722779023 0.4753008801 0.0714807733
0.0769450534 0.4933170329 0.0756358955
0.1168172313 0.5130759945 0.0805675053
0.2877398697 0.5198686638 0.0824137119
0.4463268224 0.5188323266 0.0824137119
0.5656015311 0.5146692611 0.0864046107
0.6658308032 0.5037322426 0.0943324283
0.7479249182 0.4842194807 0.1021263277
0.8111919909 0.4611659549 0.1097621023
0.8592255135 0.4378863220 0.1179071225
0.8960716812 0.4153051997 0.1283241227
0.9242370186 0.4046678207 0.1451052068
0.9467769963 0.4133496124 0.1747620748
0.9656136526 0.4399162076 0.2203083032
0.9828928548 0.4803454642 0.2793450530
0.9945238030 0.5307463531 0.3433992415
0.9971793799 0.5870734039 0.4080150823
0.9976431505 0.6455696381 0.4747219648
0.9978327184 0.7036092433 0.5424747982
0.9980847244 0.7586544996 0.6106597019
0.9983214006 0.8085442450 0.6765525723
0.9985513162 0.8521512337 0.7378175537
0.9988613163 0.8885992087 0.7934070430
0.0780715359 0.4975003458 0.0768491340
0.0783161039 0.4988699533 0.0770746244
0.0787983907 0.5002276560 0.0773384888
0.0792782068 0.5016027315 0.0778259046
0.0796924398 0.5030575469 0.0783103181
0.0801524903 0.5045871966 0.0784685680
0.0806102577 0.5067106459 0.0791776274
0.0815340491 0.5101031217 0.0801151171
0.0830231928 0.5151080491 0.0813895288
0.0852709037 0.5225688525 0.0832144687
0.0887149649 0.5330439677 0.0860578997
0.0934593332 0.5468639065 0.0900634976
0.1009501184 0.5650528731 0.0959244969
0.1597997382 0.5839559401 0.1024397625
0.3504500427 0.5902496313 0.1047969348
0.5160025347 0.5892871722 0.1044329601
0.6350680402 0.5849127758 0.1069942935
0.7295975036 0.5741699608 0.1119437195
0.8026864031 0.5550283039 0.1173342955
0.8563725251 0.5324831955 0.1242867497
0.8953032240 0.5091859881 0.1337212248
0.9245055952 0.4860393449 0.1490821258
0.9472411507 0.4745585728 0.1761433208
0.9659967806 0.4825091214 0.2197467431
0.9832413200 0.5091093728 0.2777476023
0.9946305345 0.5502259071 0.3419728805
0.9972246142 0.6000613539 0.4067769072
0.9976431505 0.6540923672 0.4735699922
0.9978327184 0.7091435485 0.5415833567
0.9980847244 0.7621553707 0.6100437430
0.9983214006 0.8107980579 0.6760444573
0.9985513162 0.8535238967 0.7375239723
0.9988613163 0.8893464953 0.7932478042
0.1026414841 0.5695256460 0.0976430404
0.1028201251 0.5704648308 0.0978410091
0.1033795665 0.5714200108 0.0982271888
0.1037603669 0.5723224568 0.0984416705
0.1041396662 0.5733549884 0.0988379832
0.1045174643 0.5745119824 0.0992337955
0.1053686359 0.5760940354 0.0997575837
0.1063874710 0.5784289858 0.1007120556
0.1077400069 0.5816759730 0.1017600387
0.1099437456 0.5864508109 0.1034483395
0.1135355170 0.5939992119 0.1061808392
0.1188213438 0.6042482730 0.1100558966
0.1264348821 0.6178380096 0.1153547649
0.1388573710 0.6355079998 0.1229960439
0.2155437123 0.6532157729 0.1314519656
0.4185022924 0.6589066753 0.1344355697
0.5864188250 0.6576895751 0.1341383351
0.7010235413 0.6536653692 0.1346024826
0.7867173835 0.6437969100 0.1361160205
0.8492444327 0.6260186214 0.1387529761
0.8930854614 0.6051222459 0.1458273077
0.9239063494 0.5829342801 0.1589698647
0.9473491736 0.5598014606 0.1823784086
0.9663509421 0.5474987902 0.2216257457
0.9835835731 0.5542492396 0.2770644596
0.9947818770 0.5801935149 0.3404798229
0.9972246142 0.6197994639 0.4050041140
0.9976431505 0.6669066921 0.4720732178
0.9978327184 0.7174119112 0.5404962139
0.9980847244 0.7673394432 0.6091192113
0.9983214006 0.8139942087 0.6753225407
0.9985513162 0.8552513039 0.7371315004
0.9988613163 0.8903359285 0.7930311444
0.1409046738 0.6396755059 0.1252667417
0.1412993915 0.6403387261 0.1255841797
0.1415916846 0.6409780681 0.1260185849
0.1421271696 0.6416628879 0.1261857793
0.1425569462 0.6423054137 0.1264904259
0.1430696319 0.6430932374 0.1267946034
0.1438403025 0.6440953404 0.1272352949
0.1448894115 0.6455979174 0.1279526109
0.1464441069 0.6476338985 0.1289985611
0.1486510357 0.6506911476 0.1304230913
0.1521707502 0.6555431613 0.1328439053
0.1576809102 0.6625944221 0.1363373201
0.1658911068 0.6724126571 0.1415089318
0.1774903211 0.6852776934 0.1486448433
0.1966370596 0.7018242433 0.1584783206
0.2851635503 0.7177876562 0.1689468928
0.4912532401 0.7227707643 0.1726465932
0.6553905292 0.7219949661 0.1721939861
0.7612292743 0.7187186705 0.1712187166
0.8356080096 0.7102390823 0.1694013764
0.8871950926 0.6946817684 0.1700776913
0.9219698996 0.6760603246 0.1788648431
0.9466495919 0.6555584871 0.1977499103
0.9662202356 0.6331203697 0.2302587017
0.9837952799 0.6199693145 0.2794618985
0.9949141259 0.6257328911 0.3397086120
0.9972246142 0.6496741246 0.4032697046
0.9976431505 0.6860839981 0.4703445875
0.9978327184 0.7295052820 0.5390808120
0.9980847244 0.7748577115 0.6078977562
0.9983214006 0.8184445623 0.6744968851
0.9985513162 0.8578393909 0.7366851195
0.9988613163 0.8918756521 0.7926709943
0.1992548253 0.7055636183 0.1614791571
0.1998358956 0.7059881678 0.1617177516
0.2001237952 0.7063884717 0.1619711077
0.2006952019 0.7068542451 0.1622173020
0.2011587404 0.7072912620 0.1624619325
0.2017069294 0.7077548114 0.1627066881
0.2025516776 0.7084056850 0.1631467228
0.2036155822 0.7093729424 0.1636255068
0.2051630427 0.7107912818 0.1645226834
0.2072644085 0.7128047360 0.1658788784
0.2104933805 0.7156461762 0.1676996275
0.2156534818 0.7198812401 0.1705947555
0.2236250529 0.7265146816 0.1751698965
0.2351835180 0.7354269072 0.1814834137
0.2514731288 0.7470828661 0.1902021722
