bundles/resolve-cinematic-luts/Gamut/_Conversion/Blackmagic/Blackmagic Pocket Cinema Camera 6K Pro BaseLUTs/BaseLUT - Blackmagic PCC 6K Pro - Gen5 Film to Rec709.cube
TITLE "BaseLUT - Blackmagic Pocket Cinema Camera 6K Pro - Gen5 Film to Rec709"
# Developed for converting Blackmagic Film Gen 5 / Blackmagic Wide Gamut to Rec.709. Version 1.0 - 05/01/2025 - Copyright 2025 Gamut, LLC.
LUT_3D_SIZE 5
0.0000000000 0.0000000000 0.0000000000
0.0765786706 0.0090754105 0.0090754105
0.6876257262 0.0922317243 0.0862200276
0.9818014590 0.4252378844 0.2855606630
0.9988613163 0.8869759246 0.7938692299
0.0041427686 0.0393012587 0.0041427686
0.0885721334 0.1303968831 0.0157837033
0.6974799729 0.1090052551 0.0875475750
0.9819724147 0.4310488059 0.2845450702
0.9988613163 0.8871962856 0.7938061105
0.1026414841 0.5695256460 0.0976430404
0.1077400069 0.5816759730 0.1017600387
0.5864188250 0.6576895751 0.1341383351
0.9835835731 0.5542492396 0.2770644596
0.9988613163 0.8903359285 0.7930311444
0.7587156656 0.9436303445 0.4842771453
0.7594118122 0.9438264584 0.4848754429
0.7695610278 0.9464483876 0.4930873793
0.9548517216 0.9696799542 0.5757716152
0.9987818121 0.9441747968 0.7851467286
0.9990193434 0.9994380826 0.9071005002
0.9990193434 0.9994380826 0.9071005002
0.9990193434 0.9994380826 0.9071005002
0.9992019774 0.9994380826 0.9107077922
0.9999653589 0.9999613267 0.9430880881
0.0132183848 0.0132183848 0.1091693846
0.1481929242 0.0187430383 0.1360163169
0.7015162496 0.0950384854 0.1019699543
0.9820750379 0.4260429880 0.3003038200
0.9988613163 0.8870390280 0.7947977364
0.0165725758 0.1321382528 0.1270352308
0.1555375705 0.1555375705 0.1555375705
0.7124445767 0.1121256354 0.0988660053
0.9822320786 0.4318985821 0.2993444350
0.9988613163 0.8872749144 0.7947797023
0.1121080559 0.5910161495 0.1053576272
0.1176795992 0.6022292540 0.1096455103
0.6006051576 0.6663312828 0.1385100344
0.9838837396 0.5545696271 0.2908606553
0.9988613163 0.8903985311 0.7939240836
0.7602163873 0.9440360802 0.4856278739
0.7609503461 0.9441955957 0.4862439081
0.7709488135 0.9468966907 0.4943260480
0.9550511505 0.9698343037 0.5762963704
0.9987818121 0.9441893310 0.7858761084
0.9990193434 0.9994380826 0.9071005002
0.9990193434 0.9994380826 0.9071005002
0.9990193434 0.9994380826 0.9072993622
0.9992019774 0.9994380826 0.9107303924
0.9999653589 0.9999613267 0.9430880881
0.1737265703 0.1499833369 0.6585518819
0.2745895616 0.1517629910 0.6591704576
0.6745530470 0.1723815090 0.6597054556
0.9846060772 0.4343964997 0.5321687784
0.9989133376 0.8874006203 0.8066474037
0.1486705511 0.1570288958 0.6698855969
0.2595925809 0.1586601829 0.6704791073
0.6800589907 0.1769661263 0.6664279603
0.9848580381 0.4401325511 0.5301037870
0.9989133376 0.8876525330 0.8065762691
0.1747959140 0.6416094820 0.6343028115
0.1802058051 0.6465836334 0.6400849433
0.6612557349 0.6612567996 0.6612566692
0.9867952051 0.5585087161 0.5039733768
0.9989133376 0.8907110430 0.8058624186
0.7801304356 0.9492920676 0.5042628741
0.7807284204 0.9494719903 0.5048166407
0.7896980980 0.9519240002 0.5129447955
0.9583543317 0.9719802008 0.5846120887
0.9988613163 0.9441965981 0.7973738599
0.9990193434 0.9994380826 0.9075282790
0.9990193434 0.9994380826 0.9075282790
0.9990193434 0.9994380826 0.9079420302
0.9992260022 0.9994499761 0.9115151214
0.9999653589 0.9999613267 0.9431178934
0.6916728173 0.6140512316 0.9713939385
0.6990533944 0.6142797408 0.9714076712
0.7777555241 0.6170608532 0.9717135281
0.9693764833 0.6560023090 0.9749489413
0.9994227327 0.8910181916 0.9396921236
0.6903412018 0.6147627604 0.9715539872
0.6974392831 0.6149542681 0.9715679696
0.7771743169 0.6177031292 0.9719015116
0.9694874952 0.6563741218 0.9750458040
0.9994491617 0.8912302366 0.9396198942
0.6662033906 0.6261262195 0.9742699040
0.6748527667 0.6262999765 0.9742836345
0.7673326076 0.6288377489 0.9745892013
0.9706421687 0.6624570669 0.9765262052
0.9994491617 0.8941165133 0.9390145666
0.8488409282 0.9637870682 0.9617840172
0.8490744916 0.9638570901 0.9618478873
0.8523188171 0.9650439495 0.9632135052
0.9708507827 0.9708494088 0.9708494499
0.9997480771 0.9445384010 0.9295790986
0.9993747690 0.9994856568 0.9161900978
0.9993747690 0.9994856568 0.9161900978
0.9993791738 0.9994776286 0.9162885342
0.9994491617 0.9994936849 0.9196383857
0.9999653589 0.9999613267 0.9459833348
0.9789847986 0.9545122179 1.0000000000
0.9790813757 0.9545332620 1.0000000000
0.9804839987 0.9545833671 1.0000000000
0.9975100671 0.9555403739 1.0000000000
1.0000000000 0.9658656407 1.0000000000
0.9789296117 0.9545402767 1.0000000000
0.9790399855 0.9545122179 1.0000000000
0.9804154100 0.9545833671 1.0000000000
0.9975100671 0.9555403739 1.0000000000
1.0000000000 0.9658656407 1.0000000000
0.9787073590 0.9547116361 1.0000000000
0.9788117124 0.9547116361 1.0000000000
0.9801276359 0.9547687559 1.0000000000
0.9974345477 0.9557327773 1.0000000000
1.0000000000 0.9659780773 1.0000000000
0.9730063014 0.9579632044 1.0000000000
0.9731390008 0.9579632044 1.0000000000
0.9748884255 0.9580200736 1.0000000000
0.9964484141 0.9588370367 1.0000000000
1.0000000000 0.9675973661 1.0000000000
1.0000000000 1.0000000000 1.0000000000
1.0000000000 1.0000000000 1.0000000000
1.0000000000 1.0000000000 1.0000000000
1.0000000000 1.0000000000 1.0000000000
1.0000000000 1.0000000000 1.0000000000
