bundles/resolve-cinematic-luts/Gamut/_Conversion/Sony/Sony A7RV BaseLUTs/Monitor LUTs/BaseLUT - Sony A7RV - S-Log3 to Rec709.cube
TITLE "BaseLUT - Sony A7RV - S-Log3 to Rec709 ML"
# Monitoring LUT. Developed for converting S-Log3 / S-Gamut3.Cine to Rec.709. Version 1.0 - 05/01/2025 - Copyright 2025 Gamut, LLC.
LUT_3D_SIZE 17
0.0000000000 0.0000000000 0.0000000000
0.0000000000 0.0000000000 0.0000000000
0.0000000000 0.0000000000 0.0000000000
0.0000000000 0.0000000000 0.0000000000
0.0222943402 0.0025645234 0.0025645234
0.1551721183 0.0187925148 0.0187925148
0.3084393649 0.0384649597 0.0379793407
0.4385754843 0.0547520118 0.0544035494
0.5638154555 0.0713701902 0.0703169144
0.6803249179 0.0886859811 0.0852236167
0.7671042472 0.1076745076 0.0972625416
0.8392412246 0.1386514585 0.1111773559
0.9109542894 0.1941332099 0.1354598778
0.9713773140 0.2758702761 0.1837886342
0.9965209396 0.3708256638 0.2703968944
0.9973858691 0.4696985151 0.3680509457
0.9975687593 0.5751639410 0.4712435757
0.0000000000 0.0000000000 0.0000000000
0.0000000000 0.0000000000 0.0000000000
0.0000000000 0.0000000000 0.0000000000
0.0003893012 0.0000000000 0.0000000000
0.0637695642 0.0075956805 0.0075956805
0.1970036287 0.0239221246 0.0239221246
0.3309761711 0.0410199272 0.0410199272
0.4520998685 0.0566269912 0.0562464409
0.5720546886 0.0726643587 0.0711136747
0.6841459910 0.0895481181 0.0858989879
0.7687698043 0.1086106739 0.0976613414
0.8400476300 0.1395763132 0.1111773559
0.9113642748 0.1953140658 0.1355296829
0.9715796665 0.2768017558 0.1839892300
0.9965542016 0.3712971509 0.2705203091
0.9973858691 0.4699822355 0.3681413237
0.9975687593 0.5753821275 0.4713102093
0.0000000000 0.0000000000 0.0000000000
0.0000000000 0.0000000000 0.0000000000
0.0000000000 0.0000000000 0.0000000000
0.0195813247 0.0039949020 0.0019723687
0.1157090325 0.0140074269 0.0139088491
0.2323251319 0.0286571105 0.0285584076
0.3492240650 0.0433191788 0.0432234783
0.4624247569 0.0580485503 0.0574393196
0.5788783777 0.0738867129 0.0721578792
0.6875205260 0.0904031603 0.0863149023
0.7701817418 0.1094868856 0.0979121472
0.8408947097 0.1404950381 0.1115317127
0.9117916544 0.1963340861 0.1357533594
0.9717598614 0.2776121456 0.1840398324
0.9965542016 0.3718407891 0.2706586036
0.9973858691 0.4702664574 0.3682373230
0.9975687593 0.5755510480 0.4712435757
0.0000000000 0.0032054041 0.0000000000
0.0013809646 0.0121329534 0.0013809646
0.0035506139 0.0339348996 0.0035506139
0.0400238914 0.0493470598 0.0058690056
0.1298097949 0.0537906256 0.0156358367
0.2518321305 0.0440051576 0.0309755022
0.3667997105 0.0480290199 0.0454962716
0.4754155080 0.0604029079 0.0592149706
0.5866836541 0.0753716931 0.0730922205
0.6915801477 0.0920131091 0.0867291363
0.7723180968 0.1108487922 0.0980581497
0.8421276203 0.1421100106 0.1117100777
0.9125053978 0.1975463474 0.1357533594
0.9719359992 0.2787651234 0.1843897960
0.9965542016 0.3723455960 0.2707978983
0.9973858691 0.4707238319 0.3684839731
0.9975687593 0.5758278396 0.4713279783
0.0086803488 0.0750223861 0.0086803488
0.0117883010 0.0966250096 0.0117883010
0.0148956277 0.1196610586 0.0148956277
0.0278682380 0.1388363544 0.0171647930
0.1238519692 0.1385145380 0.0173619486
0.2490605160 0.1295655397 0.0310740799
0.3749275329 0.1035791079 0.0466401741
0.4893606217 0.0786493839 0.0609534673
0.5985611127 0.0811719542 0.0745889807
0.6980691066 0.0952105399 0.0875802577
0.7757910898 0.1140223272 0.0986027031
0.8442354501 0.1456136392 0.1118843832
0.9135742956 0.2003618455 0.1360460904
0.9723694156 0.2807839124 0.1846264202
0.9965542016 0.3735136664 0.2710558563
0.9973858691 0.4714467537 0.3687658501
0.9975687593 0.5763380487 0.4715091093
0.0245636307 0.1939949761 0.0245636307
0.0263886836 0.2099897880 0.0263886836
0.0286571105 0.2249126474 0.0286571105
0.0310742050 0.2423668992 0.0309755022
0.0855290041 0.2531102917 0.0326523252
0.2279881247 0.2439749216 0.0319129919
0.3686975411 0.2245816746 0.0462079581
0.4955384671 0.1867385158 0.0620059852
0.6113684689 0.1354083372 0.0764647187
0.7075883718 0.1118998090 0.0888574999
0.7806799668 0.1229112895 0.0993642688
0.8475088198 0.1532756845 0.1123690788
0.9158710338 0.2069924454 0.1363385711
0.9731238996 0.2842720875 0.1849307228
0.9966074078 0.3756166317 0.2716794317
0.9973858691 0.4727375607 0.3690767704
0.9975687593 0.5771757569 0.4717889707
0.0427404722 0.3221796749 0.0427404722
0.0437682832 0.3308131546 0.0437682832
0.0452181771 0.3385018426 0.0452181771
0.0466401741 0.3485533462 0.0466401741
0.0507370315 0.3638583154 0.0492260894
0.1687375714 0.3669553735 0.0498156796
0.3416975629 0.3537956199 0.0491380199
0.4863207166 0.3300244046 0.0625826902
0.6156031343 0.2867704391 0.0780024257
0.7162653338 0.2193196700 0.0905453665
0.7882898376 0.1661093102 0.1005082044
0.8524480931 0.1740234920 0.1133959889
0.9190370241 0.2206257165 0.1369202801
0.9743754019 0.2933124769 0.1851790361
0.9966613062 0.3797790336 0.2725056974
0.9973858691 0.4750415072 0.3698184697
0.9975687593 0.5784366754 0.4721116279
0.0638324263 0.4400927363 0.0638324263
0.0649216607 0.4446091230 0.0647024878
0.0658174300 0.4496230012 0.0655156919
0.0670601605 0.4556284143 0.0670601605
0.0694549289 0.4654395958 0.0689448842
0.0817484683 0.4806800851 0.0724342381
0.2707493434 0.4801506001 0.0724681294
0.4532628853 0.4638656327 0.0706834191
0.6041808596 0.4370913021 0.0821071774
0.7194082534 0.3910201524 0.0943751639
0.7948553380 0.3202942159 0.1039671891
0.8590479896 0.2511412310 0.1157209164
0.9236449214 0.2549186754 0.1386847973
0.9764707678 0.3115229701 0.1860562236
0.9967320478 0.3895482966 0.2724274222
0.9973858691 0.4796878627 0.3707376147
0.9975687593 0.5805943460 0.4724878423
0.0969585759 0.5593141133 0.0951484297
0.0981453794 0.5621848230 0.0959344537
0.0991100128 0.5649523627 0.0967145031
0.1006477013 0.5685352341 0.0976792650
0.1030554291 0.5743606437 0.0995250210
0.1076134885 0.5846975541 0.1025565124
0.1409630949 0.5993567080 0.1075417332
0.3793782419 0.5965323559 0.1064623628
0.5687615795 0.5791342955 0.1027951955
0.7104428312 0.5502140216 0.1077831129
0.7973328620 0.5018231906 0.1150118282
0.8646495019 0.4283891275 0.1244920993
0.9297340056 0.3527069315 0.1439856046
0.9792877870 0.3515095749 0.1897077943
0.9968322339 0.4097976430 0.2737473465
0.9973858691 0.4903729071 0.3701394459
0.9976227454 0.5853716470 0.4731546170
0.1638378128 0.6738119420 0.1448314595
0.1649851733 0.6752196413 0.1455237557
0.1663780848 0.6765670689 0.1462007899
0.1681063859 0.6784291581 0.1468510530
0.1709513181 0.6812828773 0.1483818858
0.1758356718 0.6865280233 0.1510300377
0.1849931471 0.6949111178 0.1554555294
0.2420356566 0.7059404971 0.1621822118
0.4946582802 0.7023436555 0.1594579373
0.6807486988 0.6875936601 0.1535475240
0.7906593025 0.6629536111 0.1491185921
0.8660332373 0.6197895369 0.1535689159
0.9342710652 0.5463292831 0.1661240093
0.9826818936 0.4612181523 0.2008489728
0.9969533806 0.4562763418 0.2797997297
0.9973858691 0.5135379160 0.3712433442
0.9976227454 0.5974922408 0.4731504876
0.2854252816 0.7616310164 0.2165877248
0.2865877355 0.7621566202 0.2170073487
0.2877891027 0.7626812284 0.2174558951
0.2893210250 0.7634600828 0.2180390802
0.2920074630 0.7647578830 0.2192192883
0.2963554042 0.7669844346 0.2210075522
0.3040353702 0.7707592369 0.2242355776
0.3174949822 0.7770080386 0.2297913568
0.3792718303 0.7849827561 0.2374945726
0.6182403057 0.7815535517 0.2332682146
0.7682860041 0.7710039006 0.2259711704
0.8577255667 0.7540039350 0.2174769636
0.9332994293 0.7246948080 0.2233986983
0.9845644822 0.6673247342 0.2407758189
0.9970679146 0.5788502331 0.2954250405
0.9973858691 0.5658043618 0.3769153606
0.9976227454 0.6224395311 0.4741152682
0.4409035848 0.8305482576 0.3047276338
0.4416663221 0.8308490658 0.3050462470
0.4424379832 0.8311951229 0.3052951811
0.4433873588 0.8316399555 0.3056328999
0.4449680601 0.8323727126 0.3063998067
0.4481175127 0.8335286426 0.3075882221
0.4532884295 0.8356910011 0.3094989022
0.4619679974 0.8389893104 0.3127443528
0.4771802040 0.8449239114 0.3185567543
0.5370458212 0.8525549036 0.3262415105
0.7295127142 0.8497819383 0.3216866295
0.8380903093 0.8420041219 0.3150099728
0.9230833786 0.8287394873 0.3081056953
0.9827542889 0.8076983830 0.3174128683
0.9971623644 0.7646104750 0.3412527892
0.9974651611 0.6896039407 0.3932603221
0.9976227454 0.6738230430 0.4805096611
0.6102462197 0.8967599647 0.3952284245
0.6106915309 0.8970130376 0.3953993431
0.6111006821 0.8971565416 0.3955029473
0.6116704653 0.8974007238 0.3956745553
0.6127212989 0.8978311105 0.3959564739
0.6142142821 0.8985200173 0.3963416205
0.6173273736 0.8998117411 0.3975371733
0.6224656317 0.9020314824 0.3996206004
0.6306501295 0.9055893421 0.4030727553
0.6449861517 0.9116011862 0.4087539346
0.6910705691 0.9191679527 0.4168925498
0.8121277894 0.9181344192 0.4127203495
0.9056016018 0.9125361856 0.4073871497
0.9760389118 0.9021794944 0.4036134648
0.9972492170 0.8838182948 0.4149694404
0.9975290196 0.8382166572 0.4423309285
0.9977037244 0.7743478761 0.4983329144
0.7455620976 0.9590145900 0.4933850396
0.7457873643 0.9591367309 0.4936488839
0.7458985260 0.9591969281 0.4936649636
0.7460760088 0.9592998558 0.4937566866
0.7464599079 0.9594505046 0.4939569004
0.7470906171 0.9597574165 0.4942923838
0.7481496901 0.9602401165 0.4947693308
0.7501545451 0.9611653434 0.4959295075
0.7535472609 0.9627476861 0.4979681162
0.7588112117 0.9651891948 0.5016441976
0.7677007812 0.9692368132 0.5077207530
0.7954768556 0.9741697362 0.5167355523
0.8855180933 0.9744421713 0.5138085727
0.9661460982 0.9720227777 0.5094702948
0.9970896957 0.9673239164 0.5094620968
0.9977172209 0.9506647879 0.5203584187
0.9978218189 0.9080692314 0.5503666286
0.8374111915 0.9950453920 0.6028544259
0.8375130967 0.9950453920 0.6030625438
0.8375470652 0.9950453920 0.6029580463
0.8376724099 0.9950453920 0.6031005088
0.8377858469 0.9950997954 0.6032908345
0.8380959498 0.9951711999 0.6036126592
0.8385120943 0.9952188028 0.6040449957
0.8394722350 0.9953597857 0.6048904356
0.8408906360 0.9955756992 0.6057817341
0.8435963220 0.9959820245 0.6082986953
0.8478551365 0.9965203203 0.6118609896
0.8550657899 0.9970391554 0.6184478245
0.8774543681 0.9974615371 0.6266794864
0.9545039702 0.9974514147 0.6232606246
0.9964186019 0.9972997039 0.6200165068
0.9980637563 0.9966981032 0.6221422877
0.9980703796 0.9919833124 0.6284937888
0.9151116556 0.9983039442 0.7013080549
0.9151687776 0.9983039442 0.7012283764
0.9151742713 0.9983039442 0.7012386877
0.9152585495 0.9983039442 0.7013989822
0.9153512556 0.9983039442 0.7014209172
0.9154662485 0.9983039442 0.7015032829
0.9156997305 0.9983039442 0.7016547659
0.9161589533 0.9983039442 0.7019837289
0.9169399317 0.9983039442 0.7025134818
0.9183727242 0.9983798621 0.7035809866
0.9208431380 0.9983798621 0.7052051164
0.9248206965 0.9983832362 0.7078113856
0.9313269084 0.9983931711 0.7130186008
0.9509488687 0.9984362850 0.7192795517
0.9943417901 0.9984362850 0.7183665971
0.9984329108 0.9984329108 0.7169267279
0.9984362850 0.9984362850 0.7232958868
0.9760584480 0.9988006606 0.7779779029
0.9760584480 0.9988006606 0.7779779029
0.9760584480 0.9988006606 0.7779779029
0.9761413364 0.9988006606 0.7781642289
0.9761413364 0.9988006606 0.7781642289
0.9762434489 0.9988006606 0.7782489396
0.9763350755 0.9988006606 0.7784266881
0.9765474770 0.9988006606 0.7784193002
0.9768468863 0.9988006606 0.7787252104
0.9773752998 0.9988006606 0.7791609728
0.9782724667 0.9988006606 0.7799043985
0.9797195181 0.9988006606 0.7812589560
0.9819062788 0.9988006606 0.7834484744
0.9855815644 0.9988119314 0.7870156531
0.9944701868 0.9988607715 0.7926149657
0.9988006606 0.9988607715 0.7901321234
0.9988407345 0.9988407345 0.7899708862
0.0000000000 0.0000000000 0.0000000000
0.0000000000 0.0000000000 0.0000000000
0.0000000000 0.0000000000 0.0000000000
0.0000000000 0.0000000000 0.0000000000
0.0444698367 0.0046856970 0.0046856970
0.1812252993 0.0221464736 0.0221464736
0.3216816895 0.0400095675 0.0395343961
0.4458595757 0.0556637937 0.0553818213
0.5676500565 0.0718922924 0.0708450642
0.6825331049 0.0891178275 0.0856734495
0.7681596970 0.1079068318 0.0980581497
0.8398400591 0.1387362129 0.1126713500
0.9113217524 0.1943817060 0.1378213035
0.9715744236 0.2760057993 0.1870279700
0.9965542016 0.3709880037 0.2729484022
0.9973858691 0.4697685224 0.3699382658
0.9975687593 0.5752165915 0.4722179290
0.0000000000 0.0000000000 0.0000000000
0.0000000000 0.0000000000 0.0000000000
0.0000000000 0.0000000000 0.0000000000
0.0210116407 0.0020216576 0.0020216576
0.1135411815 0.0138102088 0.0138102088
0.2284069835 0.0278682380 0.0278682380
0.3460616075 0.0432227277 0.0427692449
0.4595289120 0.0574786006 0.0568649289
0.5764670984 0.0734087071 0.0718922924
0.6859719833 0.0899495940 0.0863430323
0.7696957422 0.1087653069 0.0984283838
0.8406975424 0.1398613506 0.1126713500
0.9117341873 0.1955141114 0.1378901078
0.9718054874 0.2769372165 0.1872378805
0.9965542016 0.3713924755 0.2729727850
0.9973858691 0.4700488539 0.3700337655
0.9975687593 0.5754372852 0.4722890049
0.0000000000 0.0000000000 0.0000000000
0.0000000000 0.0000000000 0.0000000000
0.0090259965 0.0117879257 0.0013809646
0.0709286956 0.0139087865 0.0080395932
0.1622312505 0.0202227057 0.0195325362
0.2630987233 0.0327017392 0.0325536849
0.3654678446 0.0456333172 0.0454035734
0.4725160470 0.0592533759 0.0586921831
0.5839298245 0.0743950822 0.0731249778
0.6895653120 0.0907743279 0.0867851475
0.7712127471 0.1096697472 0.0986524909
0.8414895331 0.1407779488 0.1129152278
0.9122916432 0.1963596849 0.1380733774
0.9719412421 0.2778417039 0.1872740311
0.9965542016 0.3719361137 0.2732214275
0.9973858691 0.4703377628 0.3701351987
0.9975687593 0.5756036986 0.4722978268
0.0020216576 0.0235275007 0.0020216576
0.0049817431 0.0452309372 0.0049817431
0.0088776294 0.0727068173 0.0088283406
0.0655698596 0.0741408346 0.0089763323
0.1640288563 0.0656437930 0.0196805279
0.2784963136 0.0492885762 0.0342308206
0.3824292720 0.0502880523 0.0475646535
0.4853361050 0.0616849194 0.0604029079
0.5927437855 0.0763375949 0.0741141877
0.6944533500 0.0924050008 0.0872257067
0.7733649619 0.1111359498 0.0988226405
0.8426496034 0.1423922567 0.1130213975
0.9129218572 0.1977061216 0.1381783978
0.9721542678 0.2790078654 0.1874973029
0.9965542016 0.3724347827 0.2733500313
0.9973858691 0.4707413149 0.3703082723
0.9975687593 0.5759140236 0.4724257760
0.0133167706 0.1107974560 0.0133167706
0.0158331173 0.1307136956 0.0164245840
0.0187923897 0.1507185419 0.0187923897
0.0356182903 0.1658765016 0.0204693378
0.1451889291 0.1568990433 0.0196805279
0.2717211133 0.1393750294 0.0336392914
0.3893773787 0.1087610601 0.0482566370
0.4993012544 0.0802306205 0.0621170729
0.6045205095 0.0820816644 0.0755953882
0.7007811575 0.0958674269 0.0880998550
0.7770123586 0.1144777949 0.0993889760
0.8448478568 0.1457357980 0.1133698837
0.9140075482 0.2005563967 0.1384478604
0.9726042244 0.2809168739 0.1878260920
0.9965542016 0.3735801807 0.2735203360
0.9973858691 0.4714641743 0.3705771578
0.9975687593 0.5763794170 0.4725404610
0.0279175269 0.2187404362 0.0279175269
0.0296932405 0.2331224140 0.0296932405
0.0318636404 0.2465507620 0.0318636404
0.0341813441 0.2626531125 0.0340827663
0.0949476067 0.2699735502 0.0349709045
0.2436553298 0.2557754528 0.0334912371
0.3813426971 0.2319052781 0.0480342740
0.5037983868 0.1907569722 0.0631188007
0.6162386969 0.1366084716 0.0770532176
0.7099712704 0.1123450969 0.0895066076
0.7819312750 0.1233176726 0.1001197356
0.8482911071 0.1536114494 0.1137176204
0.9162780041 0.2070967139 0.1387534765
0.9732891146 0.2843612491 0.1879514639
0.9966074078 0.3757237309 0.2742983987
0.9973858691 0.4728081795 0.3709581570
0.9976193712 0.5772681461 0.4728149417
0.0444971082 0.3351120735 0.0451713902
0.0458865170 0.3429505370 0.0458865170
0.0472494048 0.3502939816 0.0472947531
0.0485880235 0.3596452829 0.0486769686
0.0527466986 0.3742919208 0.0511949553
0.1764335811 0.3762985594 0.0517265623
0.3505313537 0.3601386143 0.0500339768
0.4937249101 0.3341795677 0.0636876871
0.6198916157 0.2893664163 0.0788815204
0.7183898337 0.2202812193 0.0911834586
0.7894891067 0.1664903609 0.1014218094
0.8532129615 0.1744621506 0.1148628784
0.9195496855 0.2210315120 0.1391487884
0.9745436128 0.2934393311 0.1881963387
0.9966613062 0.3798193680 0.2752893422
0.9973858691 0.4751124382 0.3715770621
0.9976227454 0.5784401228 0.4731150748
0.0652621794 0.4471943265 0.0660336005
0.0663336497 0.4522067175 0.0668823327
0.0674273831 0.4565984465 0.0676739772
0.0686415355 0.4623452710 0.0689445692
0.0709789622 0.4719779870 0.0710382697
0.0836407119 0.4869176430 0.0741083922
0.2763565030 0.4855003965 0.0734980340
0.4586309471 0.4676021840 0.0716991499
0.6081763087 0.4395178130 0.0828302965
0.7212379524 0.3927475273 0.0953658777
0.7958414818 0.3212686167 0.1049034804
0.8597519006 0.2514700337 0.1171605141
0.9241146322 0.2552168700 0.1409928058
0.9766141372 0.3117597954 0.1888736466
0.9967320478 0.3896330930 0.2751603633
0.9973858691 0.4796878627 0.3722888435
0.9976227454 0.5806451162 0.4735253255
0.0987368856 0.5635596297 0.0977050924
0.0997228134 0.5664044529 0.0984985845
0.1008547063 0.5691388979 0.0992610215
0.1023306556 0.5724244816 0.1002040013
0.1047293576 0.5786780532 0.1020051953
0.1092232987 0.5884449850 0.1048685068
0.1432001099 0.6028743344 0.1094362989
0.3824791309 0.5993045816 0.1075418581
0.5717674149 0.5815269766 0.1039124806
0.7122895341 0.5518164589 0.1086967338
0.7981811403 0.5030735328 0.1165217476
0.8652088325 0.4290697738 0.1264468290
0.9301684506 0.3529345459 0.1463419013
0.9795014368 0.3516826671 0.1927662317
0.9968524458 0.4098963107 0.2763445565
0.9973858691 0.4904068741 0.3717295242
0.9976227454 0.5854494317 0.4744369868
0.1656915431 0.6758506443 0.1478845559
0.1669672997 0.6772903924 0.1485629036
0.1683585224 0.6786830395 0.1490801242
0.1700499819 0.6803034773 0.1497581592
0.1726923167 0.6832963044 0.1512074902
0.1777790802 0.6883753111 0.1534569525
0.1868809191 0.6966860494 0.1578128894
0.2442104408 0.7075983284 0.1639556522
0.4969210761 0.7037196158 0.1606516291
0.6821865111 0.6887048300 0.1543063102
0.7914472531 0.6637403186 0.1501497807
0.8665393785 0.6205667747 0.1559083867
0.9346050669 0.5467420845 0.1687807305
0.9828563768 0.4613449369 0.2038688246
0.9969533806 0.4563585101 0.2822557693
0.9973858691 0.5136029250 0.3727396093
0.9976227454 0.5975181483 0.4743004034
0.2871462716 0.7623973638 0.2194297236
0.2883445028 0.7629452437 0.2197814049
0.2896137562 0.7635443337 0.2202348132
0.2911683504 0.7643084411 0.2207489336
0.2936393423 0.7656048724 0.2217387775
0.2980328779 0.7678250149 0.2233368019
0.3057046394 0.7715445003 0.2264720763
0.3189576222 0.7777454709 0.2316475011
0.3807303767 0.7856654360 0.2389672393
0.6194903792 0.7821570821 0.2343814935
0.7689815101 0.7715110239 0.2266401253
0.8581978110 0.7543657158 0.2183941898
0.9335226573 0.7250209075 0.2256154374
0.9846467751 0.6674884274 0.2434933764
0.9970679146 0.5789141659 0.2978843496
0.9973858691 0.5658571377 0.3784754586
0.9976227454 0.6225076585 0.4752671862
0.4419939119 0.8309945841 0.3066210191
0.4427399055 0.8313226536 0.3069370724
0.4435076185 0.8316830882 0.3071688989
0.4444313804 0.8321241241 0.3074843903
0.4461487176 0.8328018606 0.3081264242
0.4493447060 0.8339890976 0.3093423116
0.4543555293 0.8360780746 0.3111676411
0.4630951007 0.8394440393 0.3142315550
0.4782281469 0.8453243694 0.3198104881
0.5379374818 0.8529155412 0.3271859874
0.7300858444 0.8501318695 0.3223468464
0.8384139494 0.8422817214 0.3153521400
0.9233163611 0.8289537190 0.3088250881
0.9828088810 0.8078715463 0.3189516786
0.9971623644 0.7646300755 0.3427928950
0.9974651611 0.6895726507 0.3948531807
0.9976227454 0.6738259280 0.4815552155
0.6108893341 0.8970499153 0.3963544065
0.6113314552 0.8972204672 0.3964686656
0.6117776037 0.8974492471 0.3965573528
0.6123653613 0.8976758357 0.3967335989
0.6132889446 0.8980906324 0.3969807320
0.6148650070 0.8988164796 0.3974639673
0.6180408152 0.9000744561 0.3987557284
0.6230142305 0.9022993315 0.4007369929
0.6312665826 0.9058440429 0.4039848853
0.6455646780 0.9118660904 0.4095700443
0.6915314536 0.9193885961 0.4175344578
0.8123611960 0.9183155463 0.4131291878
0.9058274887 0.9127129496 0.4077224686
0.9761567531 0.9023110397 0.4042665532
0.9972492170 0.8838810915 0.4161413927
0.9975290196 0.8382440430 0.4436220674
0.9977037244 0.7743363988 0.4991934498
0.7458191785 0.9591507041 0.4943365560
0.7459800654 0.9592553162 0.4944232736
0.7461264856 0.9592963001 0.4943653367
0.7463464291 0.9594324143 0.4946609024
0.7466600615 0.9595866188 0.4947269104
0.7473890313 0.9598777484 0.4951682569
0.7483593629 0.9603391142 0.4954906638
0.7504119390 0.9612731368 0.4966280652
0.7537801621 0.9628711994 0.4986180291
0.7589957081 0.9653097762 0.5023129247
0.7678471341 0.9692942656 0.5081849695
0.7956872096 0.9742669898 0.5172064023
0.8856979645 0.9745549354 0.5141291061
0.9661816434 0.9721274738 0.5093881902
0.9970896957 0.9673307783 0.5096170443
0.9977172209 0.9507114608 0.5209450412
0.9978218189 0.9080692314 0.5510000906
0.8375622319 0.9950453920 0.6034374944
0.8376087348 0.9950453920 0.6034329211
0.8376470276 0.9950861946 0.6034693198
0.8377434177 0.9950997954 0.6036330826
0.8378942701 0.9950997954 0.6037232963
0.8381322997 0.9951711999 0.6040233194
0.8386139996 0.9952460045 0.6044871680
0.8395443082 0.9953954879 0.6053321693
0.8409866501 0.9956318027 0.6062655048
0.8436595668 0.9959820245 0.6086898718
0.8479261229 0.9965203203 0.6122153074
0.8551530090 0.9970391554 0.6186915002
0.8776082037 0.9974615371 0.6270974044
0.9545857838 0.9974514147 0.6235724793
0.9964186019 0.9973501908 0.6203163189
0.9980637563 0.9966981032 0.6221830571
0.9980703796 0.9919833124 0.6286544831
0.9151986807 0.9983039442 0.7015721502
0.9152267735 0.9983039442 0.7014900344
0.9152286463 0.9983039442 0.7014847225
0.9153193547 0.9983039442 0.7016901369
0.9153493203 0.9983039442 0.7015668383
0.9155267416 0.9983039442 0.7017621913
0.9157599738 0.9983039442 0.7019271102
0.9162421702 0.9983039442 0.7022529486
0.9169866905 0.9983393725 0.7027532048
0.9184160495 0.9983798621 0.7036864748
0.9208392675 0.9983798621 0.7052444245
0.9248093970 0.9983832362 0.7078847524
0.9313341273 0.9983931711 0.7129910105
0.9509792690 0.9984362850 0.7191770804
0.9943417901 0.9984362850 0.7183665971
0.9984329108 0.9984329108 0.7169267279
0.9984362850 0.9984362850 0.7232958868
0.9760854117 0.9988006606 0.7783515566
0.9761413364 0.9988006606 0.7781999163
0.9761413364 0.9988006606 0.7781999163
0.9761413364 0.9988006606 0.7782022955
0.9762242248 0.9988006606 0.7783886215
0.9762521871 0.9988006606 0.7782393603
0.9763519278 0.9988006606 0.7783704647
0.9765579629 0.9988006606 0.7785964852
0.9768603682 0.9988006606 0.7786691123
0.9774390265 0.9988006606 0.7791659816
0.9782724667 0.9988006606 0.7800818340
0.9797195181 0.9988006606 0.7812960209
0.9819682491 0.9988006606 0.7836245324
0.9855815644 0.9988119314 0.7870156531
0.9944735202 0.9988607715 0.7930836001
0.9988006606 0.9988419868 0.7901321234
0.9988407345 0.9988407345 0.7899708862
0.0000000000 0.0000000000 0.0000000000
0.0000000000 0.0000000000 0.0000000000
0.0000000000 0.0000000000 0.0000000000
0.0044885415 0.0003893012 0.0003893012
0.0759325329 0.0085817710 0.0099634862
0.2046085459 0.0253525838 0.0255004621
0.3339420177 0.0417299249 0.0417299249
0.4530890082 0.0566269912 0.0566269912
0.5724549899 0.0724118749 0.0718922924
0.6844909637 0.0895481181 0.0865611026
0.7692131360 0.1082708062 0.0991910697
0.8404329397 0.1390228765 0.1143440837
0.9116926764 0.1945827506 0.1402113768
0.9717913190 0.2762776579 0.1899982475
0.9965542016 0.3710780673 0.2758780315
0.9973858691 0.4698311765 0.3716305269
0.9976227454 0.5752752593 0.4731991646
0.0000000000 0.0000000000 0.0000000000
0.0000000000 0.0000000000 0.0000000000
0.0034519736 0.0005860729 0.0041428937
0.0500673782 0.0057210764 0.0107522335
0.1393765931 0.0171153790 0.0181014696
0.2476201046 0.0303839730 0.0309754396
0.3568236680 0.0441921801 0.0446369060
0.4667896424 0.0586144343 0.0580875811
0.5802299436 0.0738867129 0.0726429404
0.6880743653 0.0903760260 0.0871978256
0.7706288438 0.1089721503 0.0995825258
0.8413011400 0.1398613506 0.1143879255
0.9122134205 0.1957014200 0.1404946002
0.9719204576 0.2771755223 0.1902044118
0.9965542016 0.3714713907 0.2758935365
