bundles/resolve-cinematic-luts/Phantom Luts/A7s3 Phntm Arri LUTs G7/ATOMOS Monitoring LUTs/Slog2+Sgamut3cine/IceBlue A7s3 Sl2sg3c AML.cube
TITLE "Generated by Resolve"
LUT_3D_SIZE 5
0.0841993 0.0947127 0.0949264
0.233173 0.0929885 0.108659
0.568444 0.109865 0.189425
0.78587 0.234562 0.370398
0.91014 0.408301 0.584283
0.0748608 0.275334 0.13579
0.246937 0.273381 0.0957504
0.596704 0.181201 0.150286
0.784131 0.240864 0.350942
0.905211 0.408576 0.543999
0.122927 0.621469 0.320333
0.150286 0.629633 0.250721
0.634653 0.667826 0.229892
0.902968 0.660182 0.38793
0.904845 0.553094 0.393545
0.344762 0.855344 0.538811
0.358083 0.857923 0.518318
0.55758 0.877714 0.487114
0.908614 0.911498 0.581262
0.948821 0.912596 0.70106
0.639078 0.903502 0.733257
0.644099 0.901549 0.723201
0.74403 0.911788 0.751736
0.917128 0.929793 0.797086
0.944823 0.935302 0.855299
0.0768139 0.0951247 0.222309
0.234653 0.0901503 0.226566
0.579187 0.103731 0.292012
0.789105 0.226673 0.419745
0.910887 0.408179 0.626322
0.0713207 0.268345 0.254124
0.241398 0.268528 0.274815
0.636591 0.157366 0.250858
0.803494 0.255726 0.402548
0.933547 0.457099 0.638941
0.126497 0.624445 0.393729
0.135607 0.634165 0.342397
0.624689 0.667277 0.233845
0.916335 0.64123 0.417304
0.931762 0.532174 0.495949
0.348775 0.85832 0.568368
0.355123 0.859739 0.549157
0.533135 0.877653 0.499077
0.908598 0.911452 0.585931
0.948837 0.91284 0.711086
0.652476 0.901305 0.751095
0.657588 0.903838 0.745068
0.736706 0.91078 0.756542
0.914229 0.929778 0.797742
0.943786 0.935241 0.859358
0.0804761 0.106111 0.47747
0.243809 0.0933852 0.530373
0.560021 0.111421 0.524804
0.757107 0.182971 0.557183
0.868391 0.345037 0.694194
0.0636454 0.213214 0.508354
0.0970474 0.150408 0.564263
0.58584 0.123262 0.561379
0.761654 0.185901 0.552285
0.905684 0.403098 0.724346
0.148348 0.619974 0.592371
0.161578 0.633326 0.605783
0.598489 0.63418 0.639277
0.948913 0.554009 0.616754
0.948806 0.535973 0.721874
0.360647 0.862425 0.679591
0.37145 0.865476 0.676417
0.47631 0.879088 0.623819
0.903105 0.9131 0.666789
0.948837 0.910277 0.764508
0.661509 0.906401 0.802014
0.680537 0.907179 0.809934
0.716869 0.909895 0.796017
0.89958 0.929 0.808469
0.946181 0.934417 0.858259
0.107073 0.134569 0.616602
0.210483 0.115526 0.651987
0.47744 0.121965 0.676295
0.720745 0.194751 0.709804
0.737041 0.219821 0.729519
0.0745098 0.218387 0.624643
0.0795453 0.170672 0.633692
0.484977 0.130282 0.704799
0.721187 0.197879 0.718151
0.747189 0.235264 0.744305
0.16228 0.608591 0.716686
0.166537 0.612604 0.727932
0.520455 0.630915 0.938979
0.911803 0.482246 0.903593
0.84535 0.376364 0.851133
0.399817 0.866087 0.845014
0.41709 0.869596 0.849134
0.522103 0.893889 0.879072
0.878904 0.894789 0.899992
0.936278 0.89276 0.90544
0.660197 0.927001 0.902342
0.708171 0.921111 0.904005
0.753002 0.924926 0.908812
0.89099 0.934096 0.916472
0.947494 0.938476 0.919402
0.111818 0.151644 0.660166
0.163165 0.127932 0.669306
0.474098 0.132067 0.714275
0.706554 0.187732 0.719722
0.726528 0.21442 0.739055
0.0780652 0.233616 0.65594
0.0767224 0.228 0.659113
0.449531 0.130404 0.71371
0.710842 0.189776 0.719234
0.729961 0.219089 0.742916
0.175708 0.620035 0.747433
0.181201 0.625879 0.758022
0.438087 0.646357 0.917739
0.920882 0.529412 0.92781
0.739544 0.230838 0.750408
0.386435 0.859251 0.864424
0.406683 0.864195 0.869123
0.550652 0.894713 0.910124
0.863233 0.894774 0.931579
0.932296 0.879149 0.927337
0.638437 0.936553 0.928908
0.698268 0.927855 0.924743
0.754711 0.929107 0.927886
0.888273 0.936339 0.939345
0.945418 0.939315 0.940856
