bundles/resolve-cinematic-luts/Phantom Luts/A7s3 Phntm Arri LUTs G7/ATOMOS Monitoring LUTs/Slog2+Sgamut3cine/IceBlue A7s3 Sl2sg3c-Legacy AML.cube
TITLE "Generated by Resolve"
LUT_3D_SIZE 5
0.0911574 0.101762 0.10396
0.192615 0.100557 0.111467
0.523964 0.109316 0.170962
0.763516 0.209766 0.331487
0.885893 0.367178 0.524163
0.0854353 0.224826 0.131319
0.200366 0.223819 0.106157
0.543267 0.147509 0.137011
0.762142 0.215351 0.316152
0.878523 0.365026 0.48661
0.113664 0.578576 0.276143
0.134569 0.587701 0.21912
0.5841 0.62446 0.199802
0.904295 0.608911 0.37641
0.884459 0.489357 0.368673
0.333333 0.854429 0.508293
0.343709 0.856107 0.490242
0.516304 0.877043 0.451316
0.900725 0.908537 0.533043
0.948898 0.910719 0.647837
0.579049 0.897856 0.677684
0.583581 0.896101 0.667613
0.684306 0.904952 0.694179
0.9084 0.924743 0.745724
0.944686 0.929534 0.815991
0.0849622 0.105043 0.192248
0.192966 0.101167 0.194644
0.53167 0.104234 0.250141
0.765316 0.200198 0.371679
0.888655 0.366552 0.564965
0.082475 0.217929 0.212741
0.195712 0.219883 0.229236
0.5841 0.138216 0.21503
0.778317 0.225483 0.35874
0.914931 0.413916 0.580133
0.114275 0.580118 0.342199
0.123201 0.591043 0.295338
0.573556 0.623606 0.203815
0.912016 0.587259 0.397406
0.912627 0.482582 0.452949
0.334554 0.856931 0.533837
0.340108 0.857618 0.516854
0.492622 0.877317 0.463096
0.900786 0.908293 0.53666
0.948928 0.911208 0.655695
0.590692 0.895766 0.69572
0.59646 0.898207 0.690669
0.676585 0.904051 0.700023
0.903563 0.924407 0.746807
0.943694 0.929503 0.819806
0.0820172 0.119448 0.440879
0.202136 0.103487 0.4822
0.522301 0.109911 0.477089
0.756893 0.177661 0.504036
0.853223 0.31017 0.633753
0.064744 0.185168 0.462119
0.0910506 0.147066 0.526787
0.549447 0.117296 0.518517
0.760372 0.179995 0.497337
0.888655 0.361608 0.663981
0.129915 0.57406 0.543435
0.140032 0.587564 0.558267
0.548211 0.584695 0.589197
0.945129 0.507393 0.564218
0.948699 0.488746 0.669841
0.341573 0.859586 0.640925
0.351385 0.86331 0.637339
0.435645 0.879332 0.57937
0.890654 0.911528 0.612116
0.948898 0.907408 0.712306
0.602106 0.901381 0.759777
0.62005 0.901869 0.767742
0.655039 0.904448 0.748257
0.8822 0.923781 0.759838
0.945891 0.928634 0.819074
0.100465 0.153323 0.60734
0.174136 0.131228 0.64181
0.44036 0.124895 0.665843
0.722622 0.193179 0.698299
0.735576 0.212207 0.715099
0.0720684 0.20209 0.601007
0.080415 0.184298 0.629007
0.441825 0.136645 0.705837
0.721859 0.196902 0.712428
0.743542 0.225467 0.731823
0.138537 0.559884 0.691646
0.144091 0.563607 0.707729
0.466468 0.582498 0.933181
0.892134 0.440955 0.88806
0.824964 0.344091 0.830915
0.383581 0.859068 0.834684
0.400275 0.864027 0.840208
0.487633 0.890867 0.872633
0.863081 0.889662 0.896559
0.937407 0.883528 0.903456
0.613489 0.929778 0.900816
0.665782 0.923079 0.902831
0.709972 0.926268 0.906981
0.870771 0.930861 0.909697
0.94316 0.936706 0.912566
0.105364 0.180377 0.6645
0.140963 0.16466 0.678126
0.427405 0.140475 0.719722
0.705348 0.1906 0.7205
0.723781 0.21033 0.735744
0.0760662 0.22031 0.642329
0.0753796 0.218616 0.650584
0.401816 0.13933 0.717983
0.711223 0.192538 0.719799
0.725765 0.213779 0.738674
0.157031 0.571969 0.736431
0.161761 0.577981 0.750698
0.388861 0.593042 0.904509
0.909377 0.485054 0.916503
0.734295 0.223209 0.745083
0.37644 0.8533 0.86537
0.395087 0.858763 0.86923
0.511711 0.890806 0.909743
0.844083 0.889937 0.934356
0.932723 0.864561 0.92987
0.592264 0.940856 0.932448
0.656764 0.930419 0.925628
0.71429 0.930816 0.9281
0.867292 0.934096 0.936446
0.944472 0.937606 0.93817
