bundles/resolve-cinematic-luts/Phantom Luts/A7s3 Phntm Arri LUTs G7/ATOMOS Monitoring LUTs/Slog2+Sgamut3cine/IceBlue A7s3 Sl2sg3c AML.cube
TITLE "Generated by Resolve"
LUT_3D_SIZE 9
0.0841993 0.0947127 0.0949264
0.0931106 0.0934005 0.0957198
0.233173 0.0929885 0.108659
0.416632 0.0936751 0.135515
0.568444 0.109865 0.189425
0.685939 0.150652 0.269078
0.78587 0.234562 0.370398
0.867124 0.341207 0.491447
0.91014 0.408301 0.584283
0.0843366 0.108797 0.100023
0.0973068 0.10837 0.0989548
0.22298 0.0985733 0.10457
0.42031 0.0945144 0.12958
0.575586 0.112627 0.187304
0.691936 0.157107 0.266239
0.785901 0.236973 0.36492
0.859312 0.332494 0.473762
0.899229 0.391318 0.561028
0.0748608 0.275334 0.13579
0.0820935 0.274052 0.102739
0.246937 0.273381 0.0957504
0.483589 0.227192 0.135866
0.596704 0.181201 0.150286
0.685832 0.158602 0.224659
0.784131 0.240864 0.350942
0.864042 0.34844 0.460517
0.905211 0.408576 0.543999
0.0741283 0.451255 0.194919
0.076524 0.455711 0.169162
0.147326 0.459586 0.106676
0.440223 0.468833 0.112184
0.680125 0.461494 0.209827
0.796185 0.427283 0.280858
0.801053 0.323751 0.280537
0.862211 0.368215 0.420874
0.906752 0.42298 0.520165
0.122927 0.621469 0.320333
0.130831 0.627207 0.304112
0.150286 0.629633 0.250721
0.389456 0.646021 0.181994
0.634653 0.667826 0.229892
0.836271 0.667567 0.340963
0.902968 0.660182 0.38793
0.903273 0.597543 0.384344
0.904845 0.553094 0.393545
0.246906 0.776455 0.458503
0.2542 0.780606 0.447471
0.268208 0.782498 0.41944
0.325567 0.791196 0.346944
0.625025 0.815625 0.331655
0.804196 0.837568 0.397009
0.933501 0.829206 0.503273
0.936202 0.823941 0.509407
0.935241 0.819333 0.510033
0.344762 0.855344 0.538811
0.345708 0.856092 0.529519
0.358083 0.857923 0.518318
0.416114 0.866224 0.490532
0.55758 0.877714 0.487114
0.772717 0.897002 0.523369
0.908614 0.911498 0.581262
0.948837 0.909743 0.684153
0.948821 0.912596 0.70106
0.500542 0.881849 0.627375
0.501579 0.882383 0.620874
0.512627 0.882765 0.619852
0.553643 0.885786 0.626596
0.641382 0.894575 0.643854
0.782849 0.906996 0.679194
0.898756 0.921447 0.715084
0.948745 0.924254 0.758877
0.947845 0.932586 0.83415
0.639078 0.903502 0.733257
0.637629 0.901839 0.72665
0.644099 0.901549 0.723201
0.67303 0.903685 0.72874
0.74403 0.911788 0.751736
0.847196 0.921096 0.773999
0.917128 0.929793 0.797086
0.948669 0.931792 0.828138
0.944823 0.935302 0.855299
0.0813916 0.0933394 0.10486
0.0929122 0.0928664 0.103624
0.234577 0.0897841 0.154879
0.418082 0.0901656 0.18233
0.569238 0.104631 0.22359
0.681224 0.137209 0.302632
0.7906 0.233249 0.404059
0.870192 0.340993 0.52546
0.91194 0.41146 0.613657
0.0829938 0.107652 0.108263
0.093843 0.107408 0.112428
0.262257 0.0970474 0.124392
0.429801 0.0929274 0.149325
0.580301 0.110033 0.207736
0.695994 0.153933 0.288792
0.79202 0.239567 0.391684
0.869017 0.343053 0.509682
0.910582 0.411078 0.601038
0.0744945 0.278035 0.187045
0.0742199 0.282765 0.142138
0.242267 0.274144 0.0973983
0.486122 0.221927 0.143236
0.607858 0.165454 0.168109
0.70695 0.175006 0.256413
0.795041 0.255451 0.365835
0.875669 0.360678 0.491737
0.918898 0.429725 0.58674
0.0743114 0.453376 0.234577
0.0743725 0.459419 0.201984
0.107561 0.461509 0.115831
0.43827 0.470481 0.111681
0.686351 0.458717 0.217975
0.801572 0.415763 0.289082
0.796109 0.297276 0.292958
0.876112 0.377691 0.457465
0.925673 0.454261 0.565499
0.12343 0.623453 0.347997
0.127977 0.629786 0.331258
0.144945 0.633219 0.27689
0.357992 0.648539 0.186557
0.634592 0.670573 0.231235
0.842466 0.667918 0.34931
0.905776 0.656352 0.393759
0.907134 0.575402 0.393439
0.912612 0.523293 0.425177
0.248569 0.778088 0.47715
0.254475 0.783581 0.4663
0.264591 0.786267 0.442115
0.31107 0.791272 0.363928
0.618906 0.816968 0.333776
0.805585 0.839475 0.399649
0.93489 0.829908 0.509056
0.936477 0.823728 0.51342
0.935454 0.814878 0.511528
0.346105 0.857267 0.551095
0.347341 0.857954 0.542428
0.353216 0.858091 0.528496
0.405066 0.865538 0.498192
0.550774 0.877943 0.492302
0.771771 0.897017 0.527077
0.908965 0.911574 0.58407
0.948867 0.91014 0.688289
0.948821 0.912871 0.704158
0.506477 0.884581 0.637156
0.512139 0.884672 0.634272
0.524529 0.884337 0.633265
0.556497 0.886625 0.634821
0.642512 0.895033 0.650813
0.781872 0.907301 0.683909
0.898848 0.921584 0.71783
0.948699 0.924315 0.760098
0.948211 0.932784 0.833387
0.647898 0.902022 0.741619
0.647776 0.90222 0.736858
0.650645 0.902892 0.73196
0.673289 0.90396 0.731884
0.743343 0.911833 0.75375
0.84622 0.921035 0.77435
0.91635 0.929808 0.797253
0.94815 0.931701 0.828397
0.94464 0.935241 0.856443
0.0768139 0.0951247 0.222309
0.118379 0.0913863 0.224659
0.234653 0.0901503 0.226566
0.425467 0.0887922 0.264897
0.579187 0.103731 0.292012
0.685863 0.136019 0.338201
0.789105 0.226673 0.419745
0.869261 0.336309 0.540337
0.910887 0.408179 0.626322
0.0715496 0.106889 0.208118
0.0761425 0.0983139 0.244327
0.253285 0.0902419 0.250034
0.433204 0.0888685 0.257633
0.584039 0.104082 0.278126
0.68455 0.135485 0.318486
0.794186 0.235904 0.415534
0.868406 0.336904 0.529946
0.909758 0.406836 0.617624
0.0713207 0.268345 0.254124
0.0708629 0.275334 0.259937
0.241398 0.268528 0.274815
0.499504 0.216541 0.257084
0.636591 0.157366 0.250858
0.695628 0.151583 0.286198
0.803494 0.255726 0.402548
0.890303 0.375204 0.537697
0.933547 0.457099 0.638941
0.0751354 0.454566 0.308797
0.0748455 0.460838 0.293339
0.0927596 0.45716 0.226581
0.435126 0.471641 0.204379
0.679316 0.444022 0.256519
0.813062 0.382895 0.316258
0.816327 0.307759 0.353109
0.896742 0.408087 0.492027
0.941405 0.488228 0.610468
0.126497 0.624445 0.393729
0.129534 0.630777 0.382513
0.135607 0.634165 0.342397
0.248936 0.644388 0.21561
0.624689 0.667277 0.233845
0.850187 0.660349 0.374685
0.916335 0.64123 0.417304
0.919173 0.551507 0.430991
0.931762 0.532174 0.495949
0.250416 0.777996 0.499016
0.255375 0.783536 0.493996
0.26157 0.787366 0.475044
0.292546 0.789532 0.396643
0.5944 0.8168 0.339513
0.803861 0.83978 0.401266
0.935912 0.827863 0.522545
0.937057 0.820462 0.533059
0.936904 0.80798 0.535241
0.348775 0.85832 0.568368
0.349706 0.859663 0.562829
0.355123 0.859739 0.549157
0.383276 0.862867 0.514031
0.533135 0.877653 0.499077
0.767163 0.896727 0.531533
0.908598 0.911452 0.585931
0.948867 0.909773 0.69604
0.948837 0.91284 0.711086
0.513146 0.884291 0.649943
0.515084 0.885939 0.648554
0.531792 0.885267 0.648295
0.547387 0.886015 0.638331
0.634806 0.894926 0.655299
0.776013 0.907088 0.686259
0.897887 0.921401 0.718364
0.948745 0.924102 0.760342
0.947723 0.932647 0.835386
0.652476 0.901305 0.751095
0.646723 0.903822 0.746548
0.657588 0.903838 0.745068
0.671366 0.903426 0.738186
0.736706 0.91078 0.756542
0.841459 0.920623 0.775311
0.914229 0.929778 0.797742
0.946929 0.931548 0.828702
0.943786 0.935241 0.859358
0.074342 0.100252 0.359823
0.115221 0.0921187 0.377188
0.251148 0.0878309 0.381003
0.418479 0.090425 0.38024
0.581491 0.104829 0.401801
0.695689 0.141024 0.429267
0.770153 0.19292 0.457115
0.858549 0.315373 0.567254
0.904921 0.396033 0.650828
0.0652934 0.108034 0.366613
0.072694 0.101946 0.383413
0.237598 0.088777 0.411032
0.428626 0.0910048 0.39675
0.589883 0.106752 0.406317
0.700694 0.143084 0.421653
0.77467 0.199313 0.45684
0.857664 0.314305 0.562799
0.903258 0.392844 0.647303
0.063508 0.259251 0.378592
0.062211 0.258625 0.39704
0.158297 0.216968 0.481819
0.477363 0.149722 0.46009
0.609583 0.114229 0.397879
0.703807 0.144793 0.388998
0.786892 0.21735 0.443992
0.882383 0.352193 0.571206
0.931914 0.449165 0.672129
0.0767071 0.451148 0.417914
0.0776379 0.458824 0.425742
0.0905776 0.458183 0.429587
0.429068 0.460044 0.458793
0.689708 0.418357 0.438804
0.838544 0.355459 0.42034
0.805692 0.25742 0.406882
0.908782 0.403937 0.567651
0.948943 0.514412 0.690135
0.133593 0.62594 0.483696
0.137636 0.633173 0.484993
0.143343 0.636591 0.466804
0.238285 0.642557 0.402228
0.609659 0.659937 0.413748
0.845762 0.641733 0.447883
0.937285 0.591974 0.477256
0.934218 0.527672 0.51165
0.948852 0.536599 0.641474
0.254475 0.777447 0.558846
0.260975 0.782727 0.556756
0.265995 0.78584 0.541848
0.274067 0.788647 0.488838
0.495659 0.816083 0.423941
0.78732 0.834882 0.443061
0.937469 0.820859 0.556893
0.939773 0.808331 0.57174
0.939254 0.788861 0.599405
0.355077 0.860578 0.60473
0.357687 0.862684 0.60293
0.363928 0.863371 0.595453
0.372137 0.863828 0.564492
0.492622 0.874601 0.515953
0.750134 0.894865 0.540749
0.90779 0.910964 0.589899
0.948898 0.908721 0.711025
0.948867 0.912535 0.728756
0.523033 0.885359 0.677134
0.52726 0.886397 0.678477
0.538033 0.887999 0.678798
0.558709 0.8878 0.670695
0.611261 0.892653 0.663233
0.759136 0.906142 0.689296
0.894835 0.920867 0.720378
0.948028 0.92372 0.760601
0.947158 0.932509 0.837873
0.655833 0.902983 0.769558
0.65568 0.904097 0.769818
0.663844 0.90547 0.770718
0.686946 0.905943 0.768536
0.719295 0.908949 0.761196
0.826352 0.919402 0.778195
0.909209 0.929473 0.800275
0.944991 0.931472 0.829969
0.944549 0.935042 0.859739
0.0804761 0.106111 0.47747
0.114809 0.0975052 0.500328
0.243809 0.0933852 0.530373
0.406134 0.0930648 0.527459
0.560021 0.111421 0.524804
0.691173 0.145022 0.52874
0.757107 0.182971 0.557183
0.817594 0.263142 0.614572
0.868391 0.345037 0.694194
0.072343 0.111696 0.484794
0.0819104 0.108186 0.495705
0.21825 0.0953231 0.546242
0.4065 0.094377 0.542977
0.566613 0.114031 0.535271
0.696452 0.147936 0.534325
0.757259 0.1841 0.562585
0.812955 0.257572 0.614374
0.862211 0.337743 0.695003
0.0636454 0.213214 0.508354
0.0633249 0.207767 0.51545
0.0970474 0.150408 0.564263
0.388342 0.106081 0.593393
0.58584 0.123262 0.561379
0.703578 0.149996 0.528679
0.761654 0.185901 0.552285
0.841108 0.292378 0.629206
0.905684 0.403098 0.724346
0.0814069 0.445014 0.530236
0.0823682 0.449607 0.538766
0.0840772 0.443061 0.559258
0.352789 0.423987 0.681117
0.66981 0.352834 0.665354
0.797024 0.257954 0.583764
0.768383 0.190036 0.524407
0.870634 0.331563 0.631785
0.9402 0.474296 0.743664
0.148348 0.619974 0.592371
0.153597 0.627848 0.599207
0.161578 0.633326 0.605783
0.222705 0.643839 0.621256
0.598489 0.63418 0.639277
0.845747 0.609598 0.632136
0.948913 0.554009 0.616754
0.935988 0.460456 0.622965
0.948806 0.535973 0.721874
0.266392 0.775753 0.654215
0.273884 0.781277 0.657115
0.278965 0.785031 0.654353
0.285176 0.787442 0.631418
0.503487 0.805585 0.608286
0.764981 0.816968 0.626368
0.927428 0.803296 0.651392
0.942138 0.774853 0.65359
0.941466 0.762463 0.702434
0.360647 0.862425 0.679591
0.365988 0.863996 0.680705
0.37145 0.865476 0.676417
0.387396 0.8692 0.659037
0.47631 0.879088 0.623819
0.708675 0.896666 0.646479
0.903105 0.9131 0.666789
0.94876 0.907088 0.744701
0.948837 0.910277 0.764508
0.537011 0.889281 0.722789
0.54699 0.889601 0.729976
0.559716 0.890608 0.732891
0.577966 0.892744 0.730999
0.600595 0.892943 0.709331
0.712474 0.90309 0.701259
0.885405 0.920378 0.731151
0.946624 0.92372 0.763745
0.947494 0.93312 0.845502
0.661509 0.906401 0.802014
0.668147 0.906722 0.806363
0.680537 0.907179 0.809934
0.700755 0.909453 0.81239
0.716869 0.909895 0.796017
0.787106 0.917494 0.788754
0.89958 0.929 0.808469
0.943999 0.931365 0.833158
0.946181 0.934417 0.858259
0.0901503 0.118868 0.554131
0.142397 0.105333 0.581476
0.242054 0.104692 0.61239
0.380011 0.104662 0.620935
0.515709 0.111528 0.615518
0.668437 0.154498 0.627787
0.740826 0.188083 0.643458
0.753231 0.207477 0.665782
0.791394 0.267521 0.722408
0.0818799 0.125719 0.557687
0.0912184 0.121843 0.564233
0.195453 0.106386 0.608682
0.372885 0.10692 0.632807
0.516243 0.113024 0.622614
0.67306 0.1579 0.635782
0.739635 0.188998 0.64947
0.750729 0.207462 0.671275
0.780148 0.257404 0.722118
0.0694133 0.198291 0.575387
0.0686351 0.19527 0.578317
0.0860151 0.140215 0.592798
0.323888 0.111818 0.654276
0.527977 0.126894 0.660243
0.680858 0.163012 0.64509
0.742824 0.19144 0.65214
0.758221 0.214832 0.676112
0.833143 0.326879 0.770535
0.0917983 0.416709 0.621302
0.092195 0.418479 0.625864
0.0934157 0.406348 0.639551
0.28365 0.378897 0.783978
0.584497 0.297124 0.805905
0.709133 0.202228 0.68249
0.746761 0.196323 0.655039
0.77612 0.236988 0.689754
0.892042 0.413092 0.818357
0.148531 0.609705 0.665034
0.151369 0.615183 0.670619
0.154162 0.61677 0.678706
0.183139 0.6215 0.711437
0.553399 0.628092 0.845823
0.831266 0.574258 0.832273
0.946471 0.49546 0.811109
0.881392 0.371893 0.757122
0.923415 0.463981 0.821729
0.287266 0.770214 0.745403
0.295445 0.776211 0.750881
0.302129 0.780636 0.755627
0.313008 0.78584 0.761852
0.510674 0.810788 0.799084
0.758892 0.793118 0.799969
0.917205 0.77705 0.794934
0.948684 0.731365 0.792187
0.939254 0.721721 0.802808
0.38381 0.865751 0.780789
0.393881 0.86714 0.783703
0.398856 0.869032 0.784161
0.405005 0.872297 0.780636
0.494713 0.885954 0.777676
0.721889 0.89633 0.794293
0.889265 0.907362 0.809735
0.944945 0.903716 0.828779
0.939727 0.900191 0.835111
0.540124 0.90193 0.80444
0.566842 0.897551 0.810636
0.585473 0.897307 0.813596
0.604379 0.90013 0.814054
0.63331 0.902068 0.806104
0.724224 0.910491 0.805051
0.873457 0.92668 0.826978
0.944671 0.930632 0.836378
0.948775 0.934813 0.873137
0.667323 0.914061 0.854398
0.692775 0.909255 0.85832
0.709087 0.90898 0.86038
0.725658 0.913237 0.863157
0.740108 0.916381 0.858579
0.781506 0.918715 0.84712
0.889921 0.930312 0.858717
0.940673 0.934279 0.864454
0.944793 0.93576 0.873213
0.107073 0.134569 0.616602
0.128832 0.127184 0.62797
0.210483 0.115526 0.651987
0.349538 0.118212 0.678981
0.47744 0.121965 0.676295
0.621256 0.148287 0.682338
0.720745 0.194751 0.709804
0.733791 0.210605 0.719799
0.737041 0.219821 0.729519
0.0975662 0.140246 0.616297
0.101732 0.138537 0.619379
0.172641 0.117235 0.644251
0.341115 0.119234 0.682567
0.485969 0.12462 0.683986
0.628748 0.152377 0.687556
0.72018 0.195789 0.713436
0.731395 0.210864 0.723507
0.735546 0.21976 0.732113
0.0745098 0.218387 0.624643
0.0739605 0.21651 0.626993
0.0795453 0.170672 0.633692
0.276188 0.120424 0.682841
0.484977 0.130282 0.704799
0.653361 0.167971 0.710033
0.721187 0.197879 0.718151
0.73518 0.214511 0.726818
0.747189 0.235264 0.744305
0.0996262 0.402014 0.666926
0.100053 0.404944 0.670176
0.0998856 0.389776 0.679942
0.203387 0.353567 0.765393
0.508873 0.281529 0.828641
0.657465 0.198352 0.740001
0.728115 0.207492 0.72549
0.738293 0.218387 0.730388
0.808652 0.322316 0.812589
0.16228 0.608591 0.716686
0.164904 0.613657 0.720668
0.166537 0.612604 0.727932
0.188632 0.607401 0.755871
0.520455 0.630915 0.938979
0.790204 0.567163 0.942367
0.911803 0.482246 0.903593
0.814618 0.321553 0.803326
0.84535 0.376364 0.851133
0.250263 0.748638 0.77351
0.257847 0.753765 0.777127
0.267048 0.758068 0.783734
0.299367 0.76878 0.803708
0.474449 0.814862 0.885527
0.732235 0.790265 0.911757
0.90605 0.756756 0.906615
0.946258 0.705852 0.903395
0.933547 0.681437 0.905959
0.399817 0.866087 0.845014
0.41091 0.86772 0.846723
0.41709 0.869596 0.849134
0.426291 0.873014 0.853162
0.522103 0.893889 0.879072
0.734051 0.897795 0.894652
0.878904 0.894789 0.899992
0.940734 0.889815 0.896422
0.936278 0.89276 0.90544
0.532753 0.920073 0.878584
0.567041 0.914611 0.879393
0.589548 0.914672 0.88188
0.614649 0.917159 0.885634
0.652293 0.91809 0.887861
0.747311 0.921462 0.892866
0.877531 0.931868 0.90663
0.938689 0.936461 0.910643
0.946197 0.936812 0.920272
0.660197 0.927001 0.902342
0.688136 0.922377 0.90341
0.708171 0.921111 0.904005
0.731182 0.923384 0.907286
0.753002 0.924926 0.908812
0.798398 0.925933 0.907637
0.89099 0.934096 0.916472
0.934569 0.93901 0.9187
0.947494 0.938476 0.919402
0.113481 0.147295 0.652903
0.111727 0.147951 0.652461
0.178607 0.122499 0.667155
0.323781 0.124056 0.699931
0.470481 0.130922 0.710857
0.590661 0.142031 0.702907
0.711513 0.193301 0.723018
0.723079 0.208011 0.733211
0.729198 0.216739 0.740322
0.103029 0.151019 0.647501
0.107057 0.149722 0.650278
0.145022 0.133333 0.662531
0.314687 0.123827 0.698726
0.478264 0.131762 0.712215
0.596857 0.143023 0.70251
0.713954 0.195254 0.724315
0.723064 0.208118 0.733394
0.727413 0.216938 0.742321
0.0771954 0.227314 0.649012
0.0763409 0.227085 0.650324
0.0745556 0.212009 0.654459
0.221408 0.122637 0.681468
0.45893 0.131121 0.714061
0.644038 0.164523 0.717311
0.715938 0.196643 0.724147
0.727047 0.210391 0.733333
0.731884 0.221912 0.744625
0.104417 0.406668 0.687343
0.105119 0.411261 0.690181
0.104982 0.399695 0.699718
0.122103 0.360555 0.718929
0.467704 0.292302 0.832532
0.637461 0.203479 0.756512
0.72694 0.211887 0.735439
0.729809 0.213031 0.734157
0.742199 0.234394 0.752834
0.169848 0.61146 0.73991
0.172305 0.616022 0.742901
0.174121 0.615534 0.750271
0.174853 0.602777 0.762264
0.472358 0.63267 0.93283
0.751888 0.57792 0.948974
0.914076 0.504082 0.920516
0.80351 0.312749 0.805097
0.764065 0.264378 0.774197
0.251438 0.749508 0.791135
0.256886 0.753643 0.793591
0.259937 0.755886 0.796826
0.273243 0.758358 0.806745
0.467994 0.811704 0.900649
0.717708 0.796262 0.932647
0.887526 0.759243 0.933425
0.940169 0.705974 0.929976
0.928328 0.671351 0.928542
0.393866 0.861036 0.863554
0.404639 0.863447 0.86508
0.412787 0.866331 0.868727
0.428397 0.871168 0.8766
0.526909 0.894331 0.908568
0.722362 0.899046 0.926818
0.865827 0.892134 0.93106
0.934707 0.882155 0.929152
0.932204 0.878096 0.92668
0.524483 0.924392 0.908751
0.556435 0.920913 0.908293
0.583185 0.922042 0.910826
0.613825 0.925826 0.916503
0.659968 0.928603 0.921675
0.753094 0.930434 0.926909
0.875166 0.932067 0.93283
0.9337 0.933013 0.934936
0.948272 0.933486 0.934279
0.646738 0.934493 0.925689
0.677333 0.928679 0.923232
0.698466 0.927581 0.923384
0.721416 0.929717 0.92665
0.744717 0.931792 0.929397
0.792126 0.932677 0.931334
0.888411 0.935927 0.935836
0.932616 0.939483 0.939513
0.945815 0.939788 0.937896
0.111818 0.151644 0.660166
0.110384 0.152102 0.659754
0.163165 0.127932 0.669306
0.315129 0.124208 0.700374
0.474098 0.132067 0.714275
0.593713 0.143999 0.708522
0.706554 0.187732 0.719722
0.721462 0.205402 0.731487
0.726528 0.21442 0.739055
0.100053 0.155779 0.653712
0.104814 0.154299 0.657099
0.13312 0.14081 0.665537
0.307988 0.123995 0.699229
0.483162 0.132769 0.714336
0.601404 0.144457 0.706828
0.710369 0.190784 0.721126
0.721736 0.205921 0.731868
0.725078 0.215015 0.741283
0.0780652 0.233616 0.65594
0.0774395 0.234211 0.657404
0.0767224 0.228 0.659113
0.188846 0.126802 0.676219
0.449531 0.130404 0.71371
0.644343 0.164904 0.717861
0.710842 0.189776 0.719234
0.724498 0.207233 0.730816
0.729961 0.219089 0.742916
0.108324 0.418845 0.696788
0.108797 0.424674 0.698802
0.110079 0.419028 0.709361
0.103395 0.384527 0.706218
0.457038 0.324132 0.849226
0.65098 0.233127 0.780713
0.727275 0.212741 0.736248
0.727337 0.20943 0.73167
0.734691 0.223957 0.745342
0.175708 0.620035 0.747433
0.17879 0.625025 0.750988
0.181201 0.625879 0.758022
0.177386 0.613947 0.76347
0.438087 0.646357 0.917739
0.731258 0.596613 0.948653
0.920882 0.529412 0.92781
0.825895 0.344076 0.826978
0.739544 0.230838 0.750408
0.258137 0.755642 0.798535
0.263996 0.759579 0.800397
0.267201 0.761913 0.803494
0.271443 0.761425 0.808637
0.465766 0.814252 0.897444
0.712612 0.80589 0.92723
0.877836 0.772808 0.929534
0.936049 0.722194 0.92813
0.924712 0.682536 0.924773
0.386435 0.859251 0.864424
0.397375 0.861433 0.865934
0.406683 0.864195 0.869123
0.425971 0.869459 0.877287
0.550652 0.894713 0.910124
0.737255 0.899382 0.926665
0.863233 0.894774 0.931579
0.933837 0.884565 0.930282
0.932296 0.879149 0.927337
0.537255 0.924666 0.915541
0.56492 0.922667 0.915175
0.59649 0.922576 0.916442
0.636957 0.924895 0.919783
0.693065 0.926741 0.924102
0.76614 0.929091 0.929488
0.872114 0.931807 0.93698
0.928557 0.933257 0.940993
0.947036 0.931853 0.936614
0.638437 0.936553 0.928908
0.673793 0.929763 0.925307
0.698268 0.927855 0.924743
0.726543 0.928374 0.926238
0.754711 0.929107 0.927886
0.801511 0.930877 0.93138
0.888273 0.936339 0.939345
0.929427 0.939986 0.944015
0.945418 0.939315 0.940856
