bundles/resolve-cinematic-luts/Phantom Luts/A7s3 Phntm Arri LUTs G7/ATOMOS Monitoring LUTs/Slog2+Sgamut3cine/IceBlue A7s3 Sl2sg3c AML.cube
TITLE "Generated by Resolve"
LUT_3D_SIZE 33
0.0841993 0.0947127 0.0949264
0.0842145 0.0947127 0.0949111
0.0842298 0.0947127 0.0948806
0.084596 0.0947433 0.0947127
0.0931106 0.0934005 0.0957198
0.115999 0.0924392 0.0968948
0.149737 0.0931106 0.100526
0.189532 0.093492 0.104677
0.233173 0.0929885 0.108659
0.278859 0.0926833 0.114015
0.326375 0.0927291 0.119265
0.372686 0.0937819 0.125444
0.416632 0.0936751 0.135515
0.460288 0.0957961 0.147189
0.500526 0.0992905 0.160357
0.535698 0.10425 0.174197
0.568444 0.109865 0.189425
0.597787 0.115831 0.20589
0.626795 0.124208 0.224842
0.656153 0.135531 0.245792
0.685939 0.150652 0.269078
0.714183 0.167483 0.293095
0.741314 0.187274 0.318166
0.764965 0.209598 0.343801
0.78587 0.234562 0.370398
0.807263 0.26186 0.399664
0.827741 0.288685 0.428901
0.847654 0.315099 0.459693
0.867124 0.341207 0.491447
0.884138 0.365576 0.522789
0.896956 0.385336 0.548852
0.905333 0.399161 0.569116
0.91014 0.408301 0.584283
0.0842756 0.0946822 0.0947738
0.0842451 0.0946975 0.0948348
0.0842298 0.0947127 0.0948653
0.0845502 0.0947585 0.0946517
0.0935073 0.0934462 0.0957351
0.11751 0.092546 0.0973068
0.152102 0.0931868 0.101503
0.19321 0.0931868 0.105348
0.237781 0.0929885 0.10956
0.284779 0.0927596 0.114641
0.332769 0.0928054 0.12015
0.379599 0.0936904 0.127932
0.423789 0.0938125 0.138216
0.467048 0.0961929 0.150393
0.506493 0.0999466 0.163088
0.540856 0.104891 0.176562
0.573098 0.110719 0.191913
0.602335 0.117067 0.208637
0.631022 0.125841 0.227512
0.660304 0.137667 0.248615
0.689052 0.152407 0.270985
0.716945 0.169482 0.294957
0.74403 0.189715 0.319692
0.766674 0.211795 0.345022
0.787442 0.237064 0.371542
0.808072 0.263432 0.399741
0.828016 0.28954 0.428107
0.847425 0.315175 0.458061
0.865858 0.340002 0.488106
0.881773 0.362707 0.517983
0.894408 0.38146 0.542962
0.902358 0.3944 0.562966
0.906844 0.402838 0.577874
0.0842756 0.0946822 0.0947738
0.0842451 0.0946975 0.0948348
0.0842298 0.0947127 0.0948653
0.0843824 0.0948043 0.0945907
0.090837 0.0942855 0.0957656
0.111452 0.0930953 0.0966049
0.143893 0.0932479 0.100587
0.185458 0.0936141 0.105501
0.23093 0.0930343 0.109361
0.279622 0.0926986 0.114183
0.32929 0.0924849 0.120119
0.378378 0.0934157 0.12784
0.423514 0.093843 0.137865
0.467811 0.0961166 0.150805
0.508003 0.100084 0.164462
0.542535 0.105226 0.177615
0.574472 0.11107 0.192279
0.603387 0.11751 0.208743
0.631922 0.126314 0.227634
0.661311 0.138369 0.248768
0.68983 0.153124 0.27097
0.717571 0.170169 0.29482
0.744427 0.190249 0.319493
0.76669 0.211948 0.344274
0.787137 0.236805 0.370398
0.807355 0.262837 0.39794
0.826886 0.288441 0.425605
0.845457 0.312779 0.454292
0.863127 0.336721 0.483192
0.878782 0.35845 0.51165
0.890242 0.375463 0.535241
0.898039 0.387823 0.555413
0.902251 0.39501 0.569421
0.0838941 0.0953231 0.0944228
0.0839399 0.0953536 0.0945144
0.0841535 0.0953384 0.0945907
0.0845045 0.0952621 0.0945602
0.0877394 0.0955367 0.09514
0.103105 0.0948196 0.095964
0.131807 0.0943618 0.09897
0.171481 0.0940414 0.103548
0.220142 0.0935836 0.109133
0.269596 0.0927596 0.11397
0.321675 0.0926375 0.119081
0.372351 0.0925002 0.127535
0.419593 0.0937819 0.136355
0.464973 0.0961013 0.149203
0.506615 0.0998245 0.16376
0.542229 0.105211 0.17763
0.574304 0.111131 0.192157
0.603052 0.117708 0.207874
0.631601 0.126528 0.226551
0.660975 0.138567 0.247562
0.689632 0.153399 0.26978
0.717464 0.170504 0.293629
0.743999 0.190204 0.317998
0.765972 0.21117 0.342687
0.786053 0.235706 0.368368
0.806043 0.26128 0.395773
0.825193 0.286473 0.423011
0.843366 0.309972 0.450401
0.8598 0.332265 0.477394
0.874647 0.352956 0.50457
0.886213 0.369375 0.527489
0.893904 0.381308 0.547692
0.898009 0.388312 0.562066
0.0843366 0.108797 0.100023
0.0845197 0.109468 0.100023
0.0863203 0.108492 0.0986038
0.0898451 0.106996 0.0980087
0.0973068 0.10837 0.0989548
0.112016 0.10808 0.0999619
0.136843 0.105699 0.100816
0.174884 0.102632 0.102174
0.22298 0.0985733 0.10457
0.275517 0.0965286 0.110079
0.326574 0.0949416 0.115221
0.37406 0.0941939 0.11986
0.42031 0.0945144 0.12958
0.467048 0.0967422 0.142306
0.509453 0.100618 0.159136
0.544137 0.105821 0.174975
0.575586 0.112627 0.187304
0.605051 0.120211 0.20354
0.633936 0.129641 0.222568
0.662989 0.14197 0.243473
0.691936 0.157107 0.266239
0.718975 0.173663 0.289647
0.744884 0.193027 0.314366
0.766018 0.212848 0.338842
0.785901 0.236973 0.36492
0.805966 0.262608 0.392264
0.824735 0.287175 0.419028
0.842771 0.310369 0.446693
0.859312 0.332494 0.473762
0.874495 0.353674 0.500587
0.886076 0.370275 0.524346
0.894438 0.382971 0.545266
0.899229 0.391318 0.561028
0.0834821 0.141695 0.109529
0.0834974 0.14342 0.109346
0.0848707 0.141527 0.106874
0.0903182 0.138109 0.104097
0.103517 0.137453 0.103716
0.124086 0.139803 0.102754
0.156054 0.138598 0.104463
0.199588 0.131579 0.106859
0.241138 0.124422 0.107317
0.285527 0.117174 0.106569
0.334707 0.110933 0.109529
0.382162 0.104082 0.110689
0.426764 0.0999619 0.115587
0.470771 0.0990005 0.127611
0.507897 0.0998856 0.141558
0.543114 0.106523 0.160754
0.579416 0.114549 0.182162
0.608133 0.121965 0.199451
0.636393 0.130846 0.219699
0.666423 0.14638 0.239261
0.694759 0.16199 0.26154
0.721752 0.178729 0.285634
0.747524 0.197604 0.310979
0.767391 0.216388 0.335332
0.786999 0.240452 0.361227
0.806302 0.265217 0.388327
0.825452 0.289754 0.415961
0.843305 0.312886 0.443397
0.860349 0.335775 0.471077
0.875654 0.357107 0.498329
0.887358 0.373861 0.521904
0.895293 0.385794 0.543282
0.900374 0.394293 0.560174
0.079942 0.185275 0.11632
0.0799573 0.187427 0.116045
0.0805829 0.185931 0.111635
0.0851911 0.181735 0.106325
0.100816 0.180423 0.104952
0.128801 0.181842 0.103227
0.161807 0.181842 0.101579
0.206531 0.179736 0.102358
0.262531 0.167834 0.10808
0.312322 0.154223 0.112383
0.352834 0.145495 0.11194
0.392935 0.13698 0.110552
0.434058 0.125612 0.110155
0.475288 0.114412 0.115709
0.510704 0.108446 0.125704
0.541466 0.10837 0.142016
0.571008 0.112428 0.160983
0.606149 0.12285 0.186481
0.641032 0.135958 0.212833
0.668925 0.147402 0.236805
0.69575 0.1617 0.260136
0.72369 0.182223 0.282322
0.749584 0.20174 0.307362
0.768475 0.219883 0.332433
0.78761 0.243442 0.358953
0.806928 0.267613 0.386252
0.826093 0.292256 0.414084
0.844144 0.315618 0.441413
0.86157 0.338964 0.469413
0.876921 0.360494 0.495857
0.888609 0.377386 0.518318
0.896803 0.389868 0.537545
0.902373 0.398672 0.55198
0.0767071 0.230381 0.124987
0.0763714 0.232761 0.12372
0.0765698 0.232105 0.117937
0.0781567 0.228504 0.108415
0.0920729 0.227298 0.102815
0.125582 0.228519 0.102205
0.161166 0.228824 0.099321
0.203174 0.226841 0.0990158
0.256123 0.224186 0.0986801
0.321324 0.212284 0.107393
0.381033 0.193912 0.118975
0.420737 0.182712 0.121904
0.455177 0.173098 0.122469
0.489952 0.160998 0.122942
0.522332 0.146242 0.12462
0.550423 0.132876 0.134508
0.575097 0.125032 0.145495
0.600702 0.12517 0.165576
0.626581 0.129229 0.187274
0.666255 0.149279 0.220798
0.700282 0.168261 0.252659
0.72491 0.18291 0.278676
0.74876 0.199557 0.305364
0.768704 0.223407 0.325994
0.787884 0.247013 0.353353
0.807767 0.271672 0.38204
0.826978 0.295842 0.410956
0.845258 0.31931 0.438926
0.862638 0.342962 0.46656
0.877974 0.364263 0.492622
0.88954 0.381262 0.514656
0.897902 0.393866 0.533974
0.903502 0.403098 0.548806
0.0748608 0.275334 0.13579
0.0743267 0.277821 0.134401
0.074052 0.277653 0.127077
0.0743725 0.275441 0.115587
0.0820935 0.274052 0.102739
0.11136 0.27512 0.0996262
0.154192 0.275319 0.0991226
0.194385 0.275563 0.0954452
0.246937 0.273381 0.0957504
0.308217 0.271107 0.0944686
0.375845 0.260792 0.10634
0.438056 0.243565 0.125612
0.483589 0.227192 0.135866
0.514931 0.218296 0.139498
0.545357 0.20885 0.141344
0.57406 0.196185 0.144976
0.596704 0.181201 0.150286
0.616053 0.162737 0.160845
0.631662 0.14699 0.172244
0.655421 0.146487 0.196185
0.685832 0.158602 0.224659
0.726009 0.190295 0.264424
0.750378 0.205356 0.295491
0.765805 0.220325 0.32105
0.784131 0.240864 0.350942
0.808026 0.27599 0.374212
0.82739 0.300343 0.403647
0.845655 0.323888 0.432044
0.864042 0.34844 0.460517
0.879561 0.369818 0.487129
0.89102 0.386587 0.509148
0.899611 0.399252 0.529168
0.905211 0.408576 0.543999
0.0737011 0.320363 0.147845
0.0733806 0.323415 0.14725
0.0730755 0.324392 0.14049
0.072755 0.322148 0.126757
0.0758221 0.320134 0.107866
0.0935531 0.321004 0.0970779
0.131807 0.323339 0.0973983
0.181994 0.32343 0.0962081
0.232685 0.324468 0.0926833
0.29337 0.322042 0.0935683
0.360464 0.32015 0.0914778
0.425498 0.313573 0.104829
0.488731 0.298894 0.132967
0.538415 0.283574 0.151751
0.572076 0.273426 0.160189
0.600458 0.263981 0.165881
0.625986 0.253971 0.171527
0.647211 0.240223 0.177768
0.662531 0.221836 0.183246
0.676463 0.197406 0.194171
0.685969 0.174899 0.204807
0.705486 0.172946 0.228992
0.74406 0.205295 0.270573
0.764889 0.227466 0.304494
0.78323 0.244953 0.339239
0.803754 0.269581 0.370626
0.823758 0.293828 0.402274
0.846387 0.329763 0.423545
0.865095 0.354757 0.452415
0.880827 0.376318 0.479347
0.892515 0.393225 0.50222
0.901106 0.405661 0.522118
0.906645 0.414832 0.537224
0.0731212 0.364843 0.160998
0.0727703 0.367666 0.160845
0.0725719 0.369009 0.155612
0.0723735 0.367788 0.143114
0.0729992 0.366827 0.124132
0.0807813 0.365805 0.102846
0.105776 0.367987 0.0973068
0.154742 0.370016 0.0978408
0.217563 0.370214 0.0956741
0.273945 0.371511 0.0914168
0.341665 0.370489 0.0944686
0.412055 0.369711 0.0908827
0.474434 0.366766 0.106035
0.536492 0.356725 0.142443
0.588312 0.344457 0.167788
0.626535 0.334844 0.183124
0.652949 0.327794 0.193362
0.678477 0.315923 0.203174
0.699611 0.302876 0.210727
0.714855 0.285756 0.216693
0.722942 0.260807 0.220417
0.729686 0.230854 0.228901
0.733181 0.204685 0.237797
0.752941 0.220615 0.270558
0.783612 0.259358 0.31722
0.802991 0.2766 0.35491
0.822522 0.296727 0.390677
0.841871 0.320317 0.422827
0.860243 0.343908 0.453803
0.881788 0.383734 0.470115
0.8934 0.399771 0.493355
0.902373 0.413046 0.512932
0.908171 0.422385 0.528328
0.0730755 0.40798 0.176013
0.0731365 0.410819 0.176394
0.0732738 0.412345 0.17322
0.0730907 0.411643 0.162219
0.073991 0.41117 0.146059
0.0776989 0.411139 0.124102
0.088365 0.41091 0.106737
0.122225 0.413733 0.102129
0.186954 0.416114 0.100557
0.259586 0.416358 0.0952926
0.321279 0.418662 0.0924086
0.390921 0.419089 0.0994278
0.461845 0.418982 0.0957961
0.522194 0.418082 0.113222
0.581994 0.412406 0.155032
0.636103 0.403571 0.187076
0.675227 0.395544 0.207279
0.701656 0.391653 0.220493
0.727886 0.379782 0.234775
0.750072 0.364309 0.245869
0.764981 0.34815 0.252461
0.77261 0.326253 0.255772
0.774777 0.296864 0.256947
0.769116 0.259739 0.258839
0.764508 0.241611 0.271962
0.795819 0.28072 0.321981
0.822278 0.310735 0.367025
0.841978 0.330037 0.405951
0.860624 0.351385 0.440894
0.876692 0.370504 0.47306
0.889204 0.386664 0.499779
0.899199 0.403449 0.517678
0.907454 0.420661 0.527489
0.0741283 0.451255 0.194919
0.0739757 0.453712 0.195209
0.0742504 0.455467 0.193118
0.0745098 0.45539 0.184497
0.076524 0.455711 0.169162
0.0806287 0.456519 0.152926
0.0845808 0.455924 0.130007
0.0995041 0.456245 0.1122
0.147326 0.459586 0.106676
0.229328 0.461646 0.104036
0.308034 0.46273 0.0982376
0.369268 0.467338 0.0989395
0.440223 0.468833 0.112184
0.510246 0.468971 0.110063
0.568521 0.469306 0.129046
0.626078 0.467918 0.172793
0.680125 0.461494 0.209827
0.721645 0.454841 0.235096
0.747921 0.45127 0.249805
0.773281 0.443305 0.265431
0.796185 0.427283 0.280858
0.811109 0.409247 0.289204
0.818128 0.389334 0.291951
0.817273 0.360662 0.290288
0.801053 0.323751 0.280537
0.78497 0.280705 0.279683
0.809079 0.305318 0.324834
0.843595 0.351598 0.381338
0.862211 0.368215 0.420874
0.878584 0.386145 0.454383
0.890944 0.401114 0.481437
0.900404 0.412924 0.504448
0.906752 0.42298 0.520165
0.0777447 0.493843 0.220249
0.0780957 0.496605 0.221607
0.0786908 0.498527 0.220127
0.0804761 0.499275 0.211948
0.0841077 0.499153 0.197009
0.0872816 0.499825 0.182681
0.0901503 0.500587 0.168002
0.0965133 0.50016 0.142275
0.122499 0.502388 0.122103
0.189868 0.505714 0.116808
0.2813 0.507759 0.114199
0.35996 0.51075 0.108904
0.419165 0.51693 0.114885
0.488228 0.518532 0.131701
0.55726 0.518471 0.135332
0.61387 0.520165 0.153521
0.669154 0.520531 0.197452
0.722683 0.516701 0.237644
0.764874 0.511757 0.265629
0.79173 0.509148 0.282307
0.813123 0.504494 0.295735
0.834836 0.492226 0.310796
0.850919 0.470863 0.323384
0.857114 0.450065 0.326268
0.84712 0.422217 0.318395
0.834531 0.390265 0.309789
0.819699 0.353124 0.3028
0.824796 0.342092 0.326741
0.855802 0.378271 0.380499
0.877379 0.406043 0.422873
0.890898 0.420218 0.453162
0.900755 0.432471 0.476051
0.907393 0.442832 0.490135
0.0894026 0.537148 0.249866
0.0901961 0.539391 0.250751
0.0913252 0.541894 0.250629
0.0925154 0.542641 0.244404
0.0947433 0.542901 0.2318
0.0978256 0.543191 0.217426
0.100755 0.543938 0.205035
0.105745 0.544717 0.186618
0.118853 0.544579 0.157977
0.160403 0.547753 0.137881
0.245426 0.552056 0.132845
0.341787 0.554559 0.128695
0.417319 0.559319 0.126894
0.470436 0.566644 0.137911
0.537758 0.568887 0.158709
0.604837 0.567956 0.16849
0.659007 0.570382 0.187137
0.713588 0.571771 0.229953
0.765087 0.570367 0.271092
0.80322 0.566888 0.298344
0.829221 0.564721 0.315587
0.847211 0.562036 0.326619
0.865614 0.552789 0.338796
0.880629 0.537209 0.349691
0.882078 0.514138 0.351965
0.87451 0.485908 0.346563
0.864424 0.456062 0.338704
0.853803 0.425711 0.331945
0.843915 0.393912 0.33077
0.865751 0.414084 0.371435
0.881804 0.434302 0.403235
0.895613 0.449943 0.431571
0.903319 0.460655 0.447547
0.103853 0.579812 0.283955
0.105043 0.582391 0.285832
0.106096 0.584421 0.284474
0.107652 0.585336 0.278218
0.110246 0.585565 0.267185
0.113695 0.585962 0.254582
0.117586 0.586725 0.241672
0.122179 0.587304 0.226795
0.129427 0.58732 0.202823
0.151492 0.588739 0.174487
0.21796 0.594614 0.160342
0.315496 0.598688 0.154788
0.407477 0.60267 0.151568
0.47097 0.608865 0.15462
0.521141 0.616312 0.169589
0.586496 0.618433 0.191913
0.650492 0.617288 0.206989
0.703731 0.620325 0.226917
0.757321 0.621637 0.267353
0.802655 0.6206 0.305974
0.83682 0.618143 0.331441
0.859739 0.616556 0.347021
0.874235 0.615747 0.355703
0.888594 0.609415 0.364981
0.897169 0.597406 0.370275
0.896498 0.579416 0.36936
0.894652 0.55613 0.367712
0.888945 0.525246 0.364736
0.883146 0.499382 0.360998
0.87599 0.473381 0.356847
0.881437 0.468956 0.373007
0.882704 0.462608 0.380041
0.891279 0.475425 0.395636
0.122927 0.621469 0.320333
0.124437 0.624002 0.322042
0.126299 0.626276 0.320012
0.128161 0.626932 0.313207
0.130831 0.627207 0.304112
0.134615 0.627756 0.293294
0.138872 0.628214 0.280995
0.143832 0.628809 0.267308
0.150286 0.629633 0.250721
0.16286 0.629511 0.222156
0.204379 0.633768 0.196185
0.292012 0.641718 0.186282
0.389456 0.646021 0.181994
0.472938 0.651087 0.182498
0.523262 0.658595 0.190906
0.57116 0.666194 0.207874
0.634653 0.667826 0.229892
0.695903 0.666514 0.248569
0.747539 0.668269 0.269337
0.796735 0.669276 0.305867
0.836271 0.667567 0.340963
0.865644 0.66627 0.364965
0.884794 0.665248 0.379187
0.895109 0.664866 0.384039
0.902968 0.660182 0.38793
0.903105 0.65008 0.386892
0.903166 0.635966 0.386023
0.903456 0.618814 0.385229
0.903273 0.597543 0.384344
0.902937 0.576135 0.384344
0.901167 0.558434 0.384298
0.902098 0.551278 0.38735
0.904845 0.553094 0.393545
0.147936 0.662745 0.357122
0.149844 0.664988 0.357839
0.151888 0.667124 0.355306
0.154742 0.668528 0.349691
0.157763 0.669291 0.342489
0.161395 0.670069 0.333837
0.165209 0.670329 0.322667
0.170397 0.670527 0.309163
0.176959 0.671199 0.293614
0.185611 0.671962 0.274678
0.205905 0.672587 0.243
0.270893 0.68188 0.225406
0.368887 0.688624 0.216464
0.460716 0.693935 0.215808
0.531548 0.699886 0.220096
0.573754 0.708171 0.23212
0.619486 0.715114 0.249195
0.680446 0.716686 0.271153
0.739376 0.714397 0.291188
0.788128 0.714809 0.311559
0.832624 0.714961 0.344457
0.866926 0.712902 0.379538
0.889067 0.711971 0.400916
0.903746 0.710353 0.411582
0.908278 0.710079 0.411704
0.907546 0.705837 0.409003
0.907134 0.698009 0.406958
0.907286 0.686412 0.405386
0.908217 0.673411 0.404395
0.908995 0.659236 0.403693
0.91017 0.647334 0.40415
0.91107 0.641184 0.406058
0.912398 0.640955 0.409705
0.180301 0.704341 0.3944
0.182696 0.706844 0.393439
0.185107 0.708873 0.391363
0.187198 0.710002 0.38706
0.190127 0.710689 0.381506
0.193484 0.711345 0.37435
0.197513 0.711757 0.365972
0.201984 0.711971 0.353475
0.208072 0.712123 0.337835
0.215335 0.712383 0.320516
0.225605 0.71284 0.29865
0.260716 0.717647 0.269627
0.347082 0.728649 0.25742
0.443061 0.734676 0.252354
0.524926 0.73991 0.254322
0.582589 0.746426 0.261723
0.620768 0.754208 0.274678
0.664332 0.760632 0.291722
0.72398 0.762158 0.3131
0.78085 0.759594 0.334249
0.825055 0.759136 0.353796
0.864836 0.758602 0.389563
0.892531 0.756329 0.420218
0.909636 0.754849 0.438056
0.917281 0.75346 0.445167
0.916274 0.752651 0.440955
0.914275 0.749432 0.436103
0.913008 0.743221 0.432868
0.912673 0.734493 0.430915
0.91313 0.725078 0.429709
0.913619 0.717723 0.429526
0.913832 0.713832 0.430594
0.914427 0.714305 0.43357
0.214374 0.74258 0.427817
0.216648 0.744717 0.426581
0.218845 0.746578 0.42472
0.220783 0.747524 0.421012
0.223117 0.748074 0.416449
0.22623 0.74873 0.410986
0.22948 0.749264 0.404318
0.233326 0.749569 0.395132
0.238651 0.749615 0.38056
0.245457 0.749508 0.362676
0.253742 0.749737 0.344472
0.270863 0.752071 0.321599
0.328649 0.762661 0.302281
0.422263 0.770886 0.291417
0.509163 0.775662 0.289677
0.581003 0.78056 0.293706
0.627192 0.787289 0.3028
0.663462 0.794507 0.31664
0.706218 0.800809 0.333486
0.765499 0.802014 0.354513
0.817594 0.79913 0.375479
0.858534 0.799558 0.403586
0.89218 0.798215 0.435172
0.915297 0.795575 0.46186
0.926497 0.794141 0.476112
0.927794 0.791623 0.478813
0.926741 0.790982 0.474205
0.925368 0.788876 0.468727
0.924361 0.784787 0.464942
0.923201 0.779629 0.462287
0.923033 0.77496 0.462089
0.923003 0.772442 0.462821
0.923949 0.773465 0.466377
0.246906 0.776455 0.458503
0.248569 0.777752 0.455817
0.250355 0.77911 0.453605
0.251789 0.780011 0.450782
0.2542 0.780606 0.447471
0.257359 0.781353 0.443397
0.26038 0.782071 0.438437
0.263859 0.782376 0.430961
0.268208 0.782498 0.41944
0.274159 0.782361 0.403525
0.282445 0.782452 0.384192
0.29662 0.785183 0.367453
0.325567 0.791196 0.346944
0.398672 0.801083 0.332647
0.486122 0.806317 0.325185
0.564523 0.810178 0.325597
0.625025 0.815625 0.331655
0.666407 0.822736 0.342901
0.702693 0.829374 0.356451
0.74728 0.83566 0.374411
0.804196 0.837568 0.397009
0.849989 0.834714 0.423743
0.885847 0.834195 0.450629
0.914672 0.832288 0.478386
0.933501 0.829206 0.503273
0.938689 0.826841 0.515023
0.938506 0.824598 0.518227
0.937575 0.824689 0.514504
0.936202 0.823941 0.509407
0.934905 0.821714 0.506554
0.934157 0.819608 0.505501
0.934264 0.81825 0.506737
0.935241 0.819333 0.510033
0.277134 0.80444 0.484306
0.278553 0.805661 0.482292
0.280095 0.806867 0.479805
0.281102 0.807553 0.476921
0.28307 0.808164 0.474022
0.285679 0.808698 0.470497
0.28838 0.80914 0.466606
0.291386 0.809308 0.460517
0.295323 0.809445 0.451514
0.300481 0.809598 0.438895
0.3093 0.810498 0.422553
0.324468 0.813397 0.405341
0.346014 0.818387 0.391775
0.387549 0.826185 0.380087
0.463004 0.832746 0.369345
0.540246 0.835843 0.36495
0.609979 0.83975 0.36759
0.661845 0.845609 0.375448
0.703075 0.852842 0.388235
0.741985 0.859434 0.403281
0.788022 0.864576 0.421744
0.838453 0.866072 0.444251
0.877943 0.862028 0.469078
0.909392 0.861509 0.495079
0.933806 0.859785 0.52192
0.947524 0.856565 0.546807
0.948837 0.853819 0.558526
0.948898 0.852445 0.562799
0.948562 0.852781 0.55967
0.947005 0.853803 0.554116
0.946456 0.853437 0.552575
0.946151 0.853086 0.552636
0.946654 0.854765 0.555703
0.303838 0.827436 0.506798
0.304967 0.828428 0.504768
0.306188 0.829389 0.502693
0.307393 0.830076 0.499779
0.308659 0.830396 0.497276
0.310674 0.830777 0.494362
0.313237 0.831083 0.491142
0.315969 0.831373 0.486107
0.319219 0.831724 0.479011
0.323522 0.831891 0.46865
0.332952 0.833539 0.455482
0.349218 0.837522 0.441215
0.373205 0.842329 0.427848
0.404089 0.848051 0.4215
0.452171 0.853803 0.415869
0.517876 0.856886 0.408972
0.585092 0.85977 0.408331
0.64741 0.8645 0.413169
0.695781 0.871061 0.423377
0.739803 0.877455 0.437217
0.781567 0.882979 0.453361
0.824506 0.886931 0.469749
0.867231 0.888304 0.489784
0.900252 0.88426 0.513832
0.926833 0.883772 0.540047
0.945891 0.882124 0.567773
0.948898 0.879011 0.593606
0.948913 0.876799 0.605447
0.948928 0.876066 0.610178
0.948928 0.876814 0.608255
0.948913 0.878584 0.603311
0.948898 0.879301 0.602777
0.948684 0.880858 0.60499
0.327169 0.845335 0.525582
0.328283 0.84625 0.523781
0.329076 0.846922 0.521691
0.329549 0.847257 0.518975
0.330312 0.847684 0.516533
0.331548 0.848173 0.513924
0.333257 0.848524 0.51104
0.335531 0.848783 0.506737
0.338491 0.848875 0.50045
0.345922 0.850553 0.493523
0.356512 0.852872 0.484535
0.369818 0.85478 0.471733
0.395499 0.859068 0.461097
0.428443 0.864027 0.455406
0.460212 0.868009 0.4542
0.506981 0.87126 0.45156
0.567834 0.873777 0.449348
0.63093 0.877668 0.452949
0.690379 0.884459 0.461784
0.734478 0.889982 0.473457
0.780346 0.895369 0.488548
0.820417 0.899031 0.504677
0.85536 0.902724 0.517327
0.891417 0.904341 0.535378
0.918593 0.900404 0.561105
0.939544 0.900435 0.589227
0.948745 0.898711 0.615305
0.948745 0.896345 0.639017
0.948669 0.895048 0.65095
0.948684 0.894957 0.657084
0.94873 0.896178 0.654917
0.948837 0.897505 0.652171
0.948837 0.899123 0.653315
0.344762 0.855344 0.538811
0.34493 0.855558 0.536568
0.345205 0.855894 0.534539
0.345266 0.85597 0.531899
0.345708 0.856092 0.529519
0.346502 0.85626 0.527153
0.347982 0.856519 0.524987
0.35201 0.857298 0.521965
0.358083 0.857923 0.518318
0.364538 0.858747 0.51223
0.373159 0.8598 0.504723
0.389273 0.862303 0.496834
0.416114 0.866224 0.490532
0.446174 0.869596 0.4851
0.476829 0.872526 0.482612
0.510369 0.875181 0.484627
0.55758 0.877714 0.487114
0.616938 0.88098 0.491386
0.677333 0.885634 0.49865
0.72871 0.891524 0.509163
0.772717 0.897002 0.523369
0.815259 0.901595 0.539147
0.84947 0.905303 0.551614
0.879469 0.909117 0.56321
0.908614 0.911498 0.581262
0.933059 0.910826 0.610864
0.947204 0.911009 0.637018
0.948943 0.910918 0.661707
0.948837 0.909743 0.684153
0.948867 0.909728 0.696452
0.948821 0.910094 0.701411
0.948821 0.911086 0.701183
0.948821 0.912596 0.70106
0.364508 0.86215 0.550912
0.365103 0.862348 0.549172
0.365805 0.862638 0.547387
0.366079 0.862699 0.544884
0.366842 0.862882 0.542855
0.367864 0.863035 0.541329
0.369162 0.863005 0.538994
0.371435 0.863096 0.536049
0.375891 0.863478 0.532921
0.384222 0.864683 0.529107
0.399771 0.867002 0.526299
0.418753 0.869535 0.523796
0.440818 0.871809 0.520409
0.466789 0.874037 0.517525
0.496742 0.876524 0.516793
0.529198 0.879194 0.5196
0.566354 0.881392 0.526787
0.613764 0.884047 0.533806
0.669276 0.887877 0.540642
0.72488 0.893217 0.549264
0.769711 0.898772 0.561563
0.81001 0.903441 0.576623
0.846632 0.907591 0.590677
0.87538 0.91107 0.599313
0.898665 0.913725 0.608804
0.920409 0.912703 0.627085
0.942046 0.914946 0.653712
0.948867 0.917525 0.679622
0.948913 0.919661 0.703304
0.948806 0.920211 0.724285
0.948821 0.920989 0.735821
0.948837 0.922148 0.742718
0.948852 0.923033 0.745556
0.394491 0.870069 0.566674
0.395743 0.870161 0.565316
0.397101 0.870268 0.56379
0.397543 0.87013 0.561761
0.398795 0.870222 0.560128
0.400916 0.870512 0.559106
0.403388 0.870741 0.557931
0.405783 0.870756 0.5561
0.411704 0.871092 0.554284
0.423346 0.87245 0.55436
0.436515 0.873594 0.553872
0.45275 0.874922 0.553292
0.471977 0.876616 0.553475
0.494896 0.878401 0.55407
0.522423 0.880522 0.555642
0.553124 0.883085 0.558938
0.587823 0.885863 0.56524
0.624826 0.888304 0.574777
0.66952 0.891295 0.583337
0.722515 0.89572 0.591287
0.770687 0.901396 0.601724
0.809674 0.906264 0.614862
0.843778 0.909895 0.628077
0.873213 0.913649 0.636576
0.896651 0.916716 0.644343
0.914107 0.91751 0.653986
0.932723 0.916518 0.671702
0.948013 0.919005 0.696086
0.948791 0.921828 0.720958
0.948852 0.924224 0.746502
0.948837 0.926284 0.768627
0.948867 0.927718 0.783383
