bundles/resolve-cinematic-luts/Phantom Luts/A7s3 Phntm Arri LUTs G7/ATOMOS Monitoring LUTs/Slog2+Sgamut3cine/IceBlue A7s3 Sl2sg3c-Legacy AML.cube
TITLE "Generated by Resolve"
LUT_3D_SIZE 9
0.0911574 0.101762 0.10396
0.0967117 0.101198 0.104646
0.192615 0.100557 0.111467
0.352468 0.102831 0.130236
0.523964 0.109316 0.170962
0.6542 0.140749 0.237629
0.763516 0.209766 0.331487
0.838514 0.303166 0.434623
0.885893 0.367178 0.524163
0.092195 0.110353 0.106462
0.0991989 0.109743 0.105364
0.183352 0.103151 0.107576
0.355856 0.102129 0.126635
0.532311 0.111269 0.169772
0.660975 0.145937 0.236225
0.763149 0.211124 0.326955
0.831037 0.295445 0.420096
0.873411 0.350027 0.5019
0.0854353 0.224826 0.131319
0.0920424 0.22356 0.112001
0.200366 0.223819 0.106157
0.412314 0.185199 0.129244
0.543267 0.147509 0.137011
0.658549 0.144442 0.207782
0.762142 0.215351 0.316152
0.835309 0.3084 0.411124
0.878523 0.365026 0.48661
0.085008 0.39617 0.176089
0.0871595 0.401419 0.156619
0.135027 0.406989 0.116045
0.384756 0.417182 0.114488
0.635889 0.404761 0.195514
0.761028 0.369543 0.255528
0.773999 0.269734 0.260441
0.834669 0.325902 0.378653
0.880766 0.379019 0.467887
0.113664 0.578576 0.276143
0.119783 0.58468 0.262242
0.134569 0.587701 0.21912
0.329793 0.604181 0.168521
0.5841 0.62446 0.199802
0.820691 0.622126 0.319188
0.904295 0.608911 0.37641
0.892561 0.535164 0.367483
0.884459 0.489357 0.368673
0.231144 0.757259 0.418769
0.239765 0.763409 0.410407
0.252567 0.765606 0.38584
0.303243 0.776883 0.328374
0.585168 0.802899 0.308629
0.770184 0.822828 0.364858
0.932235 0.811063 0.472801
0.932647 0.803708 0.476478
0.931655 0.797482 0.476143
0.333333 0.854429 0.508293
0.333989 0.854856 0.499886
0.343709 0.856107 0.490242
0.393378 0.864347 0.464393
0.516304 0.877043 0.451316
0.731289 0.892851 0.468711
0.900725 0.908537 0.533043
0.948714 0.909163 0.629267
0.948898 0.910719 0.647837
0.454398 0.881025 0.579995
0.45565 0.881422 0.573037
0.464668 0.881636 0.570489
0.501122 0.883864 0.574105
0.582101 0.889891 0.586389
0.727581 0.899947 0.619852
0.882628 0.915496 0.658686
0.948867 0.917266 0.70399
0.947768 0.926116 0.788678
0.579049 0.897856 0.677684
0.577478 0.896513 0.671351
0.583581 0.896101 0.667613
0.612192 0.897856 0.672145
0.684306 0.904952 0.694179
0.810788 0.91429 0.718379
0.9084 0.924743 0.745724
0.948821 0.925414 0.782376
0.944686 0.929534 0.815991
0.090013 0.101549 0.110552
0.0966354 0.101274 0.110292
0.19263 0.100542 0.143999
0.352789 0.0999313 0.16347
0.52282 0.106035 0.196933
0.65005 0.130465 0.265339
0.767117 0.206744 0.360113
0.84387 0.304479 0.465736
0.889311 0.369696 0.552972
0.0913558 0.109606 0.112551
0.0972152 0.109209 0.114321
0.21384 0.101762 0.121263
0.365835 0.102037 0.141329
0.537072 0.10927 0.186313
0.665476 0.14345 0.255421
0.767437 0.210727 0.349752
0.841718 0.304936 0.452781
0.887724 0.369314 0.54081
0.0852064 0.226368 0.165805
0.0849928 0.230732 0.135454
0.196445 0.22446 0.106935
0.413947 0.180499 0.133486
0.555825 0.1364 0.149676
0.67744 0.155779 0.232181
0.771206 0.225772 0.329335
0.846708 0.319432 0.437446
0.895338 0.386801 0.527092
0.085008 0.397589 0.205158
0.085359 0.4047 0.180697
0.107546 0.408347 0.121187
0.383368 0.418814 0.114397
0.641611 0.401968 0.201968
0.76524 0.360418 0.26009
0.766522 0.24799 0.265629
0.847486 0.334783 0.409766
0.902495 0.409491 0.509377
0.113558 0.579599 0.299138
0.117372 0.587472 0.285496
0.130709 0.591257 0.241291
0.302754 0.606806 0.172564
0.583932 0.627283 0.201007
0.828473 0.621912 0.32726
0.905501 0.604334 0.380255
0.890242 0.514199 0.370413
0.888029 0.468284 0.390036
0.232471 0.759106 0.436149
0.239689 0.766278 0.427115
0.250324 0.770581 0.407401
0.292287 0.77731 0.342153
0.576638 0.80531 0.311086
0.771221 0.825055 0.367147
0.933272 0.811856 0.477378
0.932769 0.803342 0.480323
0.932296 0.791989 0.477653
0.333684 0.856123 0.519097
0.334874 0.856336 0.511254
0.33962 0.856138 0.499245
0.383993 0.863569 0.471748
0.509163 0.877256 0.45594
0.730068 0.892958 0.471397
0.901122 0.908461 0.534859
0.948714 0.909163 0.63357
0.948913 0.911086 0.649653
0.459648 0.882597 0.588876
0.463828 0.883101 0.585077
0.474403 0.882872 0.583124
0.503197 0.884276 0.581842
0.583215 0.890471 0.593683
0.726528 0.900298 0.62472
0.882704 0.915679 0.661555
0.948882 0.917342 0.705409
0.948058 0.926345 0.788342
0.587823 0.895842 0.686259
0.586892 0.8963 0.681712
0.589792 0.897047 0.676524
0.612207 0.898146 0.675822
0.68336 0.905058 0.696681
0.809079 0.914061 0.718639
0.907317 0.924681 0.745998
0.948806 0.925338 0.782879
0.944228 0.929442 0.818265
0.0849622 0.105043 0.192248
0.113588 0.102449 0.193881
0.192966 0.101167 0.194644
0.36112 0.100114 0.224277
0.53167 0.104234 0.250141
0.653635 0.127367 0.295674
0.765316 0.200198 0.371679
0.8448 0.302495 0.478721
0.888655 0.366552 0.564965
0.0840772 0.1093 0.181827
0.084535 0.106493 0.209232
0.208148 0.101366 0.21294
0.368154 0.0998093 0.217868
0.53814 0.104463 0.239246
0.654719 0.129091 0.279576
0.76936 0.207675 0.368536
0.843275 0.30248 0.469459
0.887572 0.36582 0.556466
0.082475 0.217929 0.212741
0.0820783 0.223301 0.217334
0.195712 0.219883 0.229236
0.42562 0.178958 0.216022
0.5841 0.138216 0.21503
0.666545 0.142611 0.253391
0.778317 0.225483 0.35874
0.862928 0.33521 0.476814
0.914931 0.413916 0.580133
0.0868696 0.396979 0.264469
0.0863355 0.404181 0.251225
0.0974594 0.402106 0.200793
0.380255 0.417853 0.185321
0.627741 0.387961 0.230777
0.775265 0.326909 0.280797
0.790906 0.269947 0.319982
0.868757 0.364202 0.440848
0.923568 0.443046 0.553323
0.114275 0.580118 0.342199
0.117052 0.587716 0.33138
0.123201 0.591043 0.295338
0.212863 0.601709 0.19498
0.573556 0.623606 0.203815
0.834333 0.613672 0.347356
0.912016 0.587259 0.397406
0.897627 0.497032 0.397574
0.912627 0.482582 0.452949
0.231235 0.758556 0.454902
0.23827 0.765499 0.451575
0.246143 0.770825 0.435798
0.274983 0.774395 0.368246
0.548424 0.805066 0.316442
0.768994 0.825681 0.368338
0.934371 0.809033 0.486961
0.934752 0.798917 0.493446
0.935515 0.782452 0.495201
0.334554 0.856931 0.533837
0.335622 0.857771 0.528557
0.340108 0.857618 0.516854
0.36463 0.860731 0.486168
0.492622 0.877317 0.463096
0.72488 0.892424 0.47451
0.900786 0.908293 0.53666
0.948745 0.908553 0.641032
0.948928 0.911208 0.655695
0.46363 0.882795 0.601038
0.465461 0.884199 0.598932
0.479286 0.883741 0.597253
0.49398 0.884321 0.585916
0.575097 0.890074 0.598428
0.719509 0.900023 0.626917
0.881117 0.915419 0.661921
0.948837 0.917174 0.705638
0.947585 0.926192 0.790311
0.590692 0.895766 0.69572
0.584985 0.898192 0.691051
0.59646 0.898207 0.690669
0.61004 0.897642 0.683207
0.676585 0.904051 0.700023
0.80177 0.913481 0.719661
0.903563 0.924407 0.746807
0.948791 0.925246 0.782742
0.943694 0.929503 0.819806
0.0814527 0.110857 0.309438
0.109636 0.105089 0.323217
0.208499 0.100771 0.325399
0.356588 0.101381 0.325933
0.53904 0.105989 0.352544
0.668025 0.133471 0.377752
0.75671 0.18143 0.401099
0.837736 0.285603 0.504753
0.884215 0.355169 0.589639
0.0761578 0.115053 0.317617
0.0801862 0.11281 0.334539
0.196048 0.101427 0.3552
0.367147 0.101701 0.341863
0.548379 0.106813 0.356786
0.674296 0.135927 0.370733
0.759808 0.185748 0.401053
0.836606 0.28452 0.50016
0.882048 0.352377 0.585611
0.0677195 0.2112 0.322286
0.0657816 0.211505 0.340337
0.132219 0.181476 0.408728
0.405081 0.134936 0.390646
0.56643 0.110918 0.346868
0.674968 0.136004 0.339651
0.766003 0.196551 0.388815
0.858564 0.317479 0.507286
0.913725 0.405509 0.612299
0.0858015 0.391058 0.363241
0.0856336 0.399496 0.371405
0.0929427 0.397635 0.373861
0.374258 0.405539 0.405356
0.632944 0.366171 0.386877
0.802365 0.309911 0.373373
0.780072 0.226993 0.361624
0.882734 0.363439 0.505821
0.942168 0.46833 0.635248
0.119127 0.579904 0.429145
0.122133 0.588006 0.430823
0.12726 0.59144 0.413397
0.209537 0.59588 0.358938
0.560098 0.612894 0.368246
0.824292 0.591867 0.406226
0.923552 0.544732 0.443168
0.916106 0.481132 0.4654
0.942824 0.489448 0.587167
0.232776 0.755474 0.50985
0.239811 0.762432 0.5093
0.244633 0.766979 0.495933
0.254475 0.770352 0.447684
0.451255 0.801053 0.386053
0.750637 0.818906 0.40029
0.937667 0.799313 0.512352
0.940627 0.782086 0.524102
0.944213 0.754681 0.549401
0.336934 0.8589 0.5664
0.339239 0.861067 0.565545
0.344442 0.861631 0.558648
0.353475 0.861555 0.530556
0.457527 0.874739 0.481239
0.704402 0.890745 0.482734
0.89955 0.908019 0.538979
0.948775 0.907423 0.656596
0.948989 0.911376 0.673869
0.470192 0.884047 0.627085
0.473182 0.885023 0.62768
0.482612 0.885847 0.627085
0.50367 0.885542 0.61883
0.553002 0.888563 0.608072
0.701198 0.899565 0.629984
0.876112 0.914748 0.663905
0.948821 0.916686 0.706661
0.946822 0.925994 0.793912
0.591562 0.897978 0.716121
0.592233 0.899016 0.716869
0.600992 0.900008 0.717968
0.625879 0.899977 0.715984
0.658473 0.902724 0.706218
0.782452 0.912993 0.723659
0.896574 0.924163 0.750057
0.94876 0.925139 0.784482
0.944793 0.929244 0.819745
0.0820172 0.119448 0.440879
0.106905 0.112398 0.460929
0.202136 0.103487 0.4822
0.355581 0.100206 0.477134
0.522301 0.109911 0.477089
0.670314 0.136889 0.480781
0.756893 0.177661 0.504036
0.807324 0.241443 0.555428
0.853223 0.31017 0.633753
0.0760662 0.123888 0.455238
0.0823682 0.121584 0.464363
0.181308 0.105577 0.506065
0.358984 0.100969 0.497551
0.530236 0.11162 0.489662
0.677424 0.13994 0.486671
0.757076 0.178271 0.509102
0.803677 0.237217 0.55613
0.848035 0.304051 0.635554
0.064744 0.185168 0.462119
0.064332 0.181537 0.473487
0.0910506 0.147066 0.526787
0.340764 0.110155 0.556252
0.549447 0.117296 0.518517
0.685222 0.141817 0.478294
0.760372 0.179995 0.497337
0.827283 0.265949 0.567452
0.888655 0.361608 0.663981
0.0714885 0.386648 0.477653
0.0723583 0.391867 0.489082
0.0739757 0.38381 0.512734
0.297459 0.367437 0.619959
0.611734 0.302724 0.60647
0.769818 0.228733 0.524239
0.7635 0.183429 0.466728
0.85211 0.299474 0.569085
0.92813 0.429679 0.687068
0.129915 0.57406 0.543435
0.1337 0.582025 0.551766
0.140032 0.587564 0.558267
0.190936 0.593698 0.57026
0.548211 0.584695 0.589197
0.820035 0.559823 0.581201
0.945129 0.507393 0.564218
0.915724 0.417182 0.563653
0.948699 0.488746 0.669841
0.239231 0.74873 0.608133
0.246021 0.755322 0.611078
0.251164 0.760281 0.608194
0.256336 0.762524 0.584207
0.451453 0.781201 0.556222
0.720897 0.78996 0.572564
0.930907 0.775021 0.603342
0.948302 0.734493 0.602304
0.948837 0.722087 0.654337
0.341573 0.859586 0.640925
0.346822 0.86183 0.642359
0.351385 0.86331 0.637339
0.363714 0.867979 0.62063
0.435645 0.879332 0.57937
0.650278 0.893751 0.586801
0.890654 0.911528 0.612116
0.948852 0.904433 0.692882
0.948898 0.907408 0.712306
0.480674 0.887221 0.673075
0.487053 0.887724 0.678752
0.49865 0.888502 0.680964
0.516518 0.88954 0.678233
0.54226 0.88896 0.656352
0.652598 0.896788 0.642893
0.862364 0.91429 0.675105
0.948837 0.916793 0.709255
0.947387 0.926894 0.802548
0.602106 0.901381 0.759777
0.608438 0.901503 0.76408
0.62005 0.901869 0.767742
0.63975 0.904494 0.769879
0.655039 0.904448 0.748257
0.732189 0.910719 0.736446
0.8822 0.923781 0.759838
0.94876 0.925063 0.790005
0.945891 0.928634 0.819074
0.0872969 0.133028 0.537209
0.124941 0.123186 0.566064
0.202213 0.112581 0.588647
0.33785 0.109133 0.596841
0.485512 0.112673 0.592264
0.647745 0.14551 0.593805
0.745724 0.182483 0.60293
0.755444 0.197955 0.627787
0.786007 0.246906 0.683955
0.0815595 0.139788 0.5449
0.0881819 0.136553 0.549813
0.163241 0.117357 0.588617
0.331289 0.111345 0.610742
0.486015 0.113878 0.600153
0.653498 0.148745 0.60238
0.744686 0.183703 0.611307
0.752728 0.19823 0.635187
0.775647 0.238499 0.686046
0.0685283 0.179965 0.548104
0.0679484 0.17879 0.552575
0.0851148 0.153445 0.581079
0.280644 0.11783 0.636591
0.496147 0.126787 0.642115
0.663493 0.154009 0.613596
0.747402 0.186069 0.615518
0.759136 0.204501 0.640864
0.820233 0.296483 0.732403
0.0780652 0.358358 0.578546
0.0781109 0.360967 0.583108
0.0791485 0.34905 0.597986
0.230533 0.32639 0.732982
0.523583 0.258045 0.767529
0.687144 0.183749 0.648447
0.750683 0.189548 0.617533
0.773983 0.222065 0.651896
0.874968 0.372549 0.780529
0.122484 0.562844 0.624491
0.125032 0.568734 0.6309
0.127947 0.570352 0.640772
0.157992 0.575555 0.680797
0.498939 0.57966 0.818723
0.802869 0.523964 0.80531
0.936416 0.450385 0.768551
0.866438 0.335485 0.706416
0.910735 0.419913 0.781369
0.257862 0.738659 0.710857
0.265751 0.746181 0.717433
0.271534 0.751156 0.722637
0.28043 0.755337 0.728374
0.457786 0.780758 0.766278
0.715801 0.759106 0.767163
0.92546 0.738781 0.761715
0.948913 0.688899 0.758709
0.948852 0.677729 0.773129
0.360235 0.859449 0.748867
0.369787 0.862165 0.752911
0.3738 0.864042 0.752468
0.378363 0.867796 0.74789
0.447166 0.884306 0.737957
0.664439 0.89308 0.748806
0.874723 0.905196 0.767056
0.948928 0.897978 0.793576
0.944884 0.893278 0.800656
0.485832 0.899443 0.768795
0.507027 0.89662 0.776013
0.524437 0.896178 0.778729
0.542931 0.898329 0.777996
0.57351 0.898054 0.76614
0.662913 0.905241 0.759594
0.844312 0.921141 0.783871
0.948745 0.924681 0.795254
0.94844 0.929625 0.839658
0.610407 0.911665 0.829557
0.633234 0.907607 0.834607
0.649821 0.907225 0.837034
0.665415 0.91133 0.838346
0.680964 0.91339 0.830549
0.726711 0.913542 0.813657
0.868376 0.925597 0.825589
0.943008 0.929183 0.831342
0.944183 0.930434 0.840208
0.100465 0.153323 0.60734
0.115541 0.149737 0.620432
0.174136 0.131228 0.64181
0.304189 0.124773 0.667628
0.44036 0.124895 0.665843
0.594934 0.147738 0.672999
0.722622 0.193179 0.698299
0.733471 0.20502 0.70631
0.735576 0.212207 0.715099
0.0940261 0.158785 0.608469
0.0965286 0.157427 0.610483
0.14696 0.142306 0.640848
0.295369 0.126452 0.672145
0.447913 0.128191 0.676463
0.602121 0.150713 0.678538
0.72166 0.194293 0.703639
0.730648 0.205554 0.711559
0.73344 0.212528 0.719738
0.0720684 0.20209 0.601007
0.0716106 0.201709 0.60441
0.080415 0.184298 0.629007
0.230854 0.13167 0.674952
0.441825 0.136645 0.705837
0.629313 0.166598 0.707485
0.721859 0.196902 0.712428
0.733791 0.209033 0.717403
0.743542 0.225467 0.731823
0.0861524 0.34725 0.632166
0.0862287 0.349615 0.635737
0.0871443 0.335515 0.648524
0.16405 0.31223 0.731884
0.440604 0.251057 0.802457
0.620417 0.186145 0.732723
0.726696 0.20441 0.720119
0.735561 0.212024 0.721721
0.792645 0.297032 0.795895
0.138537 0.559884 0.691646
0.140642 0.564858 0.696406
0.144091 0.563607 0.707729
0.176196 0.558541 0.749203
0.466468 0.582498 0.933181
0.748241 0.519585 0.948775
0.892134 0.440955 0.88806
0.798993 0.296178 0.785016
0.824964 0.344091 0.830915
0.227817 0.716991 0.754788
0.234485 0.723079 0.759655
0.241794 0.727321 0.766766
0.266423 0.735714 0.786038
0.420859 0.782818 0.87718
0.687312 0.759274 0.922484
0.911421 0.716243 0.915557
0.948837 0.662791 0.914733
0.943786 0.636637 0.915084
0.383581 0.859068 0.834684
0.394217 0.861494 0.837308
0.400275 0.864027 0.840208
0.408515 0.86743 0.844678
0.487633 0.890867 0.872633
0.692348 0.896864 0.891844
0.863081 0.889662 0.896559
0.944625 0.880095 0.891463
0.937407 0.883528 0.903456
0.497383 0.918761 0.867918
0.525704 0.915038 0.87039
0.546075 0.915373 0.873991
0.57052 0.917998 0.878309
0.606302 0.91931 0.880476
0.699977 0.920546 0.883192
0.852308 0.928893 0.89601
0.939773 0.935149 0.900328
0.944595 0.936355 0.913268
0.613489 0.929778 0.900816
0.6439 0.924758 0.901976
0.665782 0.923079 0.902831
0.688487 0.925048 0.905989
0.709972 0.926268 0.906981
0.755611 0.925139 0.902556
0.870771 0.930861 0.909697
0.934005 0.936461 0.910689
0.94316 0.936706 0.912566
0.106371 0.174075 0.653651
0.104982 0.174563 0.653132
0.152514 0.156161 0.674128
0.274418 0.134203 0.696208
0.424475 0.138338 0.713924
0.557076 0.148669 0.710094
0.710842 0.194659 0.722972
0.721004 0.205646 0.731044
0.725292 0.212268 0.736965
0.0987564 0.17644 0.648249
0.101335 0.175616 0.650477
0.127962 0.166476 0.666712
0.266072 0.134142 0.694743
0.432746 0.139742 0.716731
0.564675 0.149645 0.709545
0.71342 0.19617 0.723674
0.720974 0.205737 0.731197
0.723537 0.212512 0.738888
0.0750591 0.214725 0.633524
0.0742962 0.215259 0.635798
0.0742046 0.20911 0.647929
0.183902 0.146532 0.684565
0.411124 0.139284 0.718181
0.617639 0.166445 0.722423
0.714977 0.19704 0.723461
0.723735 0.206989 0.730053
0.727565 0.215854 0.740291
0.0917678 0.353552 0.658213
0.0921645 0.357275 0.661555
0.0930495 0.346639 0.675364
0.106889 0.315694 0.696818
0.39942 0.259571 0.802899
0.590021 0.191058 0.753384
0.72311 0.208347 0.732601
0.726543 0.209155 0.731197
0.736278 0.22594 0.747127
0.150607 0.562188 0.725368
0.152712 0.567437 0.729747
0.155367 0.566613 0.740383
0.163058 0.553094 0.760082
0.419867 0.581094 0.919219
0.703746 0.53048 0.948974
0.897398 0.461311 0.904997
0.787869 0.290044 0.790921
0.754543 0.250599 0.765301
0.232227 0.719341 0.781415
0.237858 0.724926 0.785214
0.240681 0.727047 0.789212
0.246372 0.727535 0.797726
0.415808 0.776989 0.892546
0.670527 0.76611 0.947036
0.886137 0.71928 0.945174
0.948821 0.662608 0.941863
0.937224 0.626062 0.939422
0.381216 0.853498 0.861982
0.391913 0.85687 0.864408
0.399237 0.859876 0.868147
0.411734 0.864302 0.875624
0.492988 0.889891 0.908614
0.681453 0.899184 0.932601
0.847791 0.886488 0.935332
0.938689 0.869337 0.932525
0.933257 0.863172 0.929305
0.499382 0.92639 0.910201
0.525109 0.923812 0.91014
0.546578 0.925322 0.913817
0.573999 0.929839 0.920745
0.619074 0.933043 0.926329
0.712062 0.934737 0.931395
0.852293 0.93489 0.935241
0.935882 0.936309 0.937545
0.946792 0.934874 0.935164
0.602472 0.9393 0.931365
0.635615 0.932479 0.926711
0.657191 0.930785 0.925994
0.680262 0.932479 0.928527
0.703319 0.934173 0.93106
0.750927 0.93431 0.932387
0.867704 0.934447 0.935546
0.931548 0.937835 0.94052
0.943481 0.937835 0.938674
0.105364 0.180377 0.6645
0.104173 0.180682 0.663905
0.140963 0.16466 0.678126
0.266438 0.134905 0.697627
0.427405 0.140475 0.719722
0.559365 0.151934 0.719676
0.705348 0.1906 0.7205
0.719371 0.203601 0.729625
0.723781 0.21033 0.735744
0.0970016 0.182727 0.658152
0.100069 0.182071 0.661387
0.119905 0.173861 0.671183
0.259068 0.134966 0.696101
0.436591 0.140734 0.71989
0.568872 0.152392 0.71751
0.710811 0.193317 0.721431
0.719753 0.20412 0.730007
0.722377 0.210925 0.737926
0.0760662 0.22031 0.642329
0.0754101 0.221393 0.644755
0.0753796 0.218616 0.650584
0.158572 0.155154 0.680613
0.401816 0.13933 0.717983
0.617914 0.166796 0.722637
0.711223 0.192538 0.719799
0.722545 0.20499 0.728893
0.725765 0.213779 0.738674
0.0952621 0.365576 0.670085
0.0959029 0.371633 0.672938
0.0977188 0.366705 0.687922
0.0952621 0.336965 0.689525
0.389593 0.287541 0.816724
0.599329 0.215183 0.774304
0.723537 0.209003 0.733593
0.724193 0.206378 0.729076
0.730083 0.217838 0.741039
0.157031 0.571969 0.736431
0.158236 0.576959 0.739986
0.161761 0.577981 0.750698
0.160662 0.564569 0.759838
0.388861 0.593042 0.904509
0.682933 0.550134 0.948898
0.909377 0.485054 0.916503
0.806912 0.315663 0.809125
0.734295 0.223209 0.745083
0.239536 0.726848 0.79115
0.24593 0.732555 0.794766
0.248981 0.734737 0.798245
0.249805 0.733043 0.802808
0.412879 0.780926 0.888533
0.664149 0.778134 0.940108
0.874525 0.734005 0.942763
0.947723 0.679545 0.939849
0.934249 0.637598 0.936263
0.37644 0.8533 0.86537
0.387106 0.855955 0.866545
0.395087 0.858763 0.86923
0.411078 0.863371 0.876265
0.511711 0.890806 0.909743
0.698054 0.89929 0.930922
0.844083 0.889937 0.934356
0.937255 0.87277 0.93373
0.932723 0.864561 0.92987
0.510063 0.926528 0.915663
0.532448 0.925093 0.915282
0.557687 0.925536 0.917098
0.595499 0.9281 0.920943
0.651591 0.930236 0.925322
0.726329 0.932143 0.929854
0.848783 0.934615 0.936416
0.931105 0.936141 0.939513
0.946838 0.934371 0.935134
0.592264 0.940856 0.932448
0.631724 0.932754 0.926802
0.656764 0.930419 0.925628
0.685679 0.930694 0.927092
0.71429 0.930816 0.9281
0.762692 0.931456 0.930465
0.867292 0.934096 0.936446
0.927184 0.938216 0.941985
0.944472 0.937606 0.93817
