bundles/resolve-cinematic-luts/Phantom Luts/A7s3 Phntm Arri LUTs G7/ATOMOS Monitoring LUTs/Slog2+Sgamut3cine/IceBlue A7s3 Sl2sg3c-Legacy AML.cube
TITLE "Generated by Resolve"
LUT_3D_SIZE 33
0.0911574 0.101762 0.10396
0.0911727 0.101762 0.103944
0.0911727 0.101762 0.103914
0.09131 0.101747 0.103807
0.0967117 0.101198 0.104646
0.112459 0.100755 0.104494
0.135332 0.100557 0.105486
0.160723 0.100404 0.107927
0.192615 0.100557 0.111467
0.228351 0.101015 0.115389
0.266896 0.101854 0.119692
0.308461 0.102617 0.12311
0.352468 0.102831 0.130236
0.397269 0.103777 0.138781
0.44184 0.104997 0.148318
0.485588 0.106752 0.158892
0.523964 0.109316 0.170962
0.557321 0.113664 0.183871
0.58967 0.120012 0.198764
0.621332 0.128679 0.21651
0.6542 0.140749 0.237629
0.687678 0.156573 0.260441
0.721141 0.175357 0.285801
0.746258 0.19324 0.309361
0.763516 0.209766 0.331487
0.780682 0.230365 0.355016
0.800687 0.255085 0.381277
0.819562 0.279118 0.407416
0.838514 0.303166 0.434623
0.856229 0.326482 0.462928
0.870344 0.345708 0.487922
0.87982 0.358557 0.507942
0.885893 0.367178 0.524163
0.091249 0.101717 0.103777
0.0912032 0.101747 0.103853
0.0911879 0.101762 0.103914
0.09131 0.101747 0.103792
0.0970626 0.101198 0.104723
0.113542 0.100801 0.104677
0.13669 0.100572 0.106233
0.163684 0.100404 0.108583
0.196292 0.100572 0.1122
0.232975 0.101183 0.116014
0.273045 0.102022 0.120562
0.315114 0.102602 0.124926
0.359792 0.102861 0.132387
0.40444 0.103944 0.141039
0.448768 0.105211 0.150332
0.492195 0.107134 0.160998
0.52932 0.109865 0.172763
0.562875 0.114672 0.186328
0.594293 0.121248 0.2009
0.625437 0.129976 0.218692
0.658015 0.142702 0.239567
0.691707 0.158755 0.262852
0.724666 0.17792 0.287633
0.749065 0.195636 0.310796
0.764157 0.210666 0.331807
0.781811 0.231983 0.355627
0.801038 0.256016 0.380682
0.819165 0.278859 0.406058
0.837354 0.302251 0.431922
0.853727 0.323491 0.458656
0.86714 0.341115 0.482307
0.87628 0.353689 0.502174
0.881956 0.361578 0.517754
0.091249 0.101717 0.103777
0.0912032 0.101747 0.103853
0.0911879 0.101762 0.103914
0.091249 0.101762 0.103792
0.0951858 0.101488 0.104417
0.109041 0.101015 0.104204
0.131014 0.100664 0.105425
0.158221 0.100313 0.108217
0.191409 0.10045 0.111711
0.229053 0.100999 0.11548
0.269703 0.101869 0.120378
0.313863 0.102464 0.124987
0.359304 0.102831 0.132403
0.405158 0.103883 0.141711
0.450721 0.105211 0.150973
0.494057 0.107149 0.161517
0.530846 0.110109 0.172915
0.56379 0.114885 0.186267
0.595254 0.121508 0.200977
0.626383 0.130434 0.218936
0.658732 0.14313 0.239399
0.692393 0.159243 0.26273
0.725261 0.178454 0.287663
0.74934 0.196048 0.310307
0.763745 0.210391 0.331029
0.781186 0.231495 0.354192
0.799756 0.254673 0.37847
0.817319 0.276692 0.403372
0.834867 0.299123 0.42797
0.850401 0.31899 0.452995
0.86276 0.335378 0.475257
0.871794 0.34725 0.494743
0.876799 0.353872 0.509239
0.0911727 0.1019 0.103716
0.0911421 0.10193 0.103807
0.0911727 0.101946 0.103883
0.0912642 0.10193 0.103868
0.0934005 0.101991 0.104189
0.103212 0.101534 0.104417
0.122667 0.101427 0.10515
0.149325 0.100664 0.1075
0.182696 0.100404 0.110994
0.2215 0.100908 0.115129
0.262928 0.10161 0.119249
0.308431 0.102205 0.125048
0.355016 0.10277 0.131456
0.402274 0.103792 0.140444
0.448844 0.105104 0.150652
0.493553 0.107088 0.16141
0.530465 0.11014 0.172595
0.563363 0.115023 0.185321
0.594873 0.121614 0.200153
0.62591 0.13051 0.217807
0.658442 0.143297 0.238453
0.692287 0.159472 0.261906
0.724788 0.178485 0.28658
0.748989 0.19585 0.309209
0.763027 0.209735 0.329503
0.779873 0.230121 0.351995
0.797803 0.252399 0.375647
0.815229 0.274006 0.399695
0.831525 0.295247 0.423026
0.84622 0.313787 0.446891
0.858427 0.329427 0.468223
0.86717 0.340658 0.487511
0.87216 0.347005 0.502129
0.092195 0.110353 0.106462
0.092195 0.110658 0.106325
0.0927596 0.110109 0.10576
0.0947585 0.109331 0.105577
0.0991989 0.109743 0.105364
0.109453 0.109621 0.106523
0.125322 0.1084 0.10663
0.149828 0.106294 0.106523
0.183352 0.103151 0.107576
0.224155 0.102037 0.111864
0.266484 0.101793 0.116396
0.309178 0.101808 0.12015
0.355856 0.102129 0.126635
0.404852 0.10399 0.135836
0.453117 0.105501 0.147982
0.496666 0.107286 0.159884
0.532311 0.111269 0.169772
0.565286 0.116411 0.181964
0.596796 0.123537 0.196506
0.628077 0.133059 0.214817
0.660975 0.145937 0.236225
0.693828 0.161959 0.259495
0.726574 0.181003 0.284169
0.749447 0.197772 0.306661
0.763149 0.211124 0.326955
0.779965 0.231128 0.34931
0.797467 0.253056 0.372961
0.814664 0.27425 0.396658
0.831037 0.295445 0.420096
0.84567 0.313985 0.443519
0.858106 0.330068 0.465324
0.867399 0.342199 0.48574
0.873411 0.350027 0.5019
0.0934462 0.131167 0.113466
0.0931716 0.131975 0.112932
0.0936904 0.131365 0.111498
0.0964065 0.129412 0.110384
0.103716 0.128817 0.10956
0.117113 0.130571 0.109422
0.136614 0.12961 0.109895
0.163745 0.125719 0.110887
0.193896 0.120638 0.110658
0.229282 0.115251 0.110445
0.268177 0.110933 0.111986
0.311849 0.106523 0.11313
0.357916 0.103593 0.116213
0.40647 0.103136 0.124681
0.452644 0.1037 0.135363
0.496574 0.106691 0.149065
0.537346 0.1122 0.166018
0.569924 0.117769 0.179706
0.600427 0.124636 0.195285
0.631205 0.135805 0.211002
0.664668 0.150332 0.232364
0.697871 0.166812 0.256657
0.729595 0.185412 0.281331
0.750134 0.200549 0.302968
0.763546 0.213748 0.323415
0.780407 0.233494 0.346334
0.798535 0.255909 0.370733
0.815152 0.276432 0.394217
0.832013 0.298039 0.41825
0.846952 0.317067 0.4421
0.859266 0.332815 0.463706
0.868208 0.344793 0.484184
0.874388 0.352499 0.501167
0.0922866 0.158343 0.119127
0.0921798 0.159854 0.118837
0.0925154 0.158709 0.11577
0.0935683 0.156527 0.112535
0.102129 0.155627 0.111803
0.118807 0.156405 0.110369
0.140658 0.156344 0.108965
0.168185 0.155123 0.10927
0.208301 0.147692 0.112459
0.247089 0.138323 0.114
0.281315 0.132342 0.112734
0.317815 0.126085 0.111482
0.361257 0.117678 0.113085
0.405066 0.110735 0.114763
0.450965 0.107439 0.122957
0.494057 0.107149 0.135637
0.529076 0.108949 0.149645
0.56733 0.116106 0.169268
0.605142 0.12723 0.191562
0.635569 0.136919 0.210971
0.666728 0.150469 0.232288
0.700587 0.169741 0.254856
0.732845 0.189532 0.280095
0.7514 0.203845 0.300481
0.764584 0.216922 0.320394
0.780743 0.235904 0.343328
0.799115 0.258534 0.367788
0.815839 0.27892 0.391562
0.833021 0.300969 0.416236
0.847822 0.319753 0.439536
0.860121 0.336049 0.460349
0.869307 0.348013 0.478645
0.875288 0.356146 0.492454
0.0890974 0.189685 0.124437
0.0885634 0.191623 0.123735
0.0893873 0.190845 0.120424
0.0908675 0.188098 0.115084
0.0974289 0.187533 0.112413
0.116838 0.188144 0.11165
0.139635 0.188449 0.109163
0.166796 0.186664 0.107912
0.204715 0.184985 0.107378
0.254917 0.175448 0.112764
0.30634 0.160723 0.118059
0.345129 0.15288 0.118669
0.379858 0.146456 0.118013
0.416403 0.137743 0.117708
0.455589 0.127428 0.120012
0.494224 0.118791 0.125231
0.529549 0.11606 0.137407
0.561746 0.116854 0.15346
0.591119 0.119951 0.171145
0.632258 0.135348 0.199695
0.672312 0.154711 0.229419
0.703807 0.170977 0.254673
0.733577 0.188006 0.280369
0.752285 0.207141 0.297704
0.765484 0.220218 0.317937
0.78146 0.238499 0.34139
0.799954 0.261189 0.366384
0.816999 0.282078 0.39057
0.834409 0.304311 0.415045
0.848951 0.323171 0.4374
0.861341 0.339483 0.457877
0.870451 0.351553 0.476036
0.877012 0.360281 0.490669
0.0854353 0.224826 0.131319
0.0848249 0.226993 0.130236
0.0852216 0.226841 0.125963
0.0866712 0.224796 0.119219
0.0920424 0.22356 0.112001
0.107973 0.225101 0.110933
0.135195 0.225605 0.110262
0.161563 0.22594 0.107118
0.200366 0.223819 0.106157
0.247791 0.222461 0.105196
0.306676 0.213565 0.113481
0.366751 0.19736 0.125093
0.412314 0.185199 0.129244
0.444266 0.178897 0.130266
0.477455 0.171252 0.131197
0.513054 0.160113 0.132616
0.543267 0.147509 0.137011
0.569192 0.13579 0.145068
0.595514 0.131395 0.160693
0.623163 0.13312 0.181048
0.658549 0.144442 0.207782
0.702434 0.169635 0.242878
0.737392 0.193942 0.2757
0.750423 0.204852 0.294774
0.762142 0.215351 0.316152
0.782147 0.242435 0.336538
0.800824 0.265217 0.361975
0.817731 0.286 0.386633
0.835309 0.3084 0.411124
0.850599 0.328084 0.433768
0.86247 0.343999 0.453635
0.872038 0.356329 0.472206
0.878523 0.365026 0.48661
0.0823987 0.262745 0.139788
0.0818341 0.265156 0.139162
0.0820783 0.265888 0.134478
0.08365 0.264073 0.126314
0.0868086 0.262669 0.115129
0.0967727 0.263539 0.108904
0.120256 0.2663 0.109651
0.15436 0.26775 0.109041
0.19144 0.269184 0.105318
0.240513 0.268009 0.105028
0.297337 0.266621 0.102708
0.360998 0.260105 0.115023
0.424872 0.245258 0.133776
0.475929 0.23061 0.144762
0.510018 0.223392 0.148913
0.539666 0.217243 0.150225
0.569802 0.208438 0.15256
0.596567 0.19588 0.157122
0.617456 0.178714 0.164187
0.63592 0.160967 0.17438
0.659007 0.155154 0.194186
0.685161 0.157382 0.216846
0.728283 0.184421 0.253712
0.750469 0.210651 0.284077
0.762341 0.21976 0.308003
0.778637 0.237186 0.333211
0.797406 0.259525 0.360525
0.81912 0.291661 0.380713
0.836591 0.313787 0.405035
0.852186 0.334112 0.428367
0.864225 0.350164 0.448264
0.873671 0.362264 0.466896
0.88043 0.371344 0.481392
0.0808881 0.304326 0.149325
0.0805676 0.307683 0.149355
0.0808881 0.309133 0.145541
0.0825666 0.30779 0.1364
0.085008 0.306813 0.124269
0.0896315 0.306172 0.112276
0.103929 0.309682 0.110109
0.137118 0.31342 0.110689
0.18201 0.31606 0.108843
0.228489 0.317586 0.104082
0.286351 0.316915 0.104738
0.350454 0.315969 0.100526
0.412604 0.312749 0.11487
0.477745 0.300893 0.142962
0.532265 0.287022 0.161089
0.570779 0.276143 0.170703
0.599222 0.270359 0.175021
0.626856 0.263371 0.179629
0.650889 0.251591 0.185046
0.669413 0.23534 0.190433
0.684367 0.213535 0.198795
0.695689 0.186938 0.207965
0.717937 0.182849 0.230854
0.737148 0.196872 0.255879
0.760906 0.226123 0.290547
0.778195 0.242969 0.321202
0.796384 0.261875 0.352056
0.814404 0.282689 0.379339
0.832212 0.304677 0.405829
0.853468 0.340917 0.421775
0.865461 0.35613 0.4421
0.874952 0.369116 0.459983
0.882109 0.378729 0.474937
0.0820783 0.350408 0.161456
0.0819257 0.353155 0.161639
0.0826123 0.354879 0.159503
0.0844129 0.354314 0.151293
0.0862745 0.354116 0.139254
0.0879072 0.354437 0.125322
0.0938888 0.354437 0.114794
0.116564 0.35845 0.112428
0.161257 0.362448 0.112108
0.217655 0.364462 0.109606
0.270649 0.366476 0.10399
0.335119 0.366918 0.107088
0.403647 0.366674 0.100633
0.4636 0.365545 0.116915
0.528267 0.357443 0.15285
0.584146 0.346426 0.176883
0.627466 0.336828 0.191943
0.655848 0.331289 0.201724
0.682307 0.321599 0.210895
0.705989 0.310719 0.21799
0.724636 0.294972 0.22475
0.736477 0.273884 0.229725
0.746624 0.246098 0.239002
0.743603 0.215015 0.238788
0.747234 0.213611 0.257343
0.771084 0.242741 0.293965
0.796704 0.273686 0.333059
0.81529 0.291768 0.366461
0.83241 0.310414 0.396002
0.848051 0.328374 0.423117
0.860609 0.343908 0.446006
0.871778 0.360296 0.46276
0.881209 0.376837 0.473762
0.085008 0.39617 0.176089
0.0853437 0.398795 0.176699
0.0855116 0.400595 0.174701
0.0863355 0.400839 0.167987
0.0871595 0.401419 0.156619
0.0887312 0.40235 0.145022
0.0906844 0.401984 0.129519
0.101244 0.402564 0.118105
0.135027 0.406989 0.116045
0.194385 0.410712 0.115068
0.261463 0.412299 0.110445
0.318318 0.415747 0.106889
0.384756 0.417182 0.114488
0.454795 0.417487 0.108995
0.514626 0.417319 0.125109
0.576913 0.413245 0.164935
0.635889 0.404761 0.195514
0.679789 0.396262 0.216114
0.708705 0.391318 0.229984
0.73669 0.38056 0.244312
0.761028 0.369543 0.255528
0.779004 0.355444 0.263279
0.789593 0.336645 0.267704
0.790112 0.307958 0.266651
0.773999 0.269734 0.260441
0.756817 0.232853 0.255039
0.783261 0.264179 0.297032
0.816709 0.309346 0.345327
0.834669 0.325902 0.378653
0.850614 0.343221 0.407202
0.863081 0.357488 0.431113
0.873121 0.368994 0.451911
0.880766 0.379019 0.467887
0.0876173 0.441581 0.193896
0.0878462 0.444541 0.194446
0.0878614 0.446723 0.193317
0.0885939 0.447761 0.18732
0.090135 0.447684 0.177188
0.0919509 0.448463 0.16669
0.0935531 0.44947 0.155688
0.0975967 0.449195 0.136736
0.116655 0.451331 0.124224
0.163958 0.455802 0.122576
0.236896 0.458625 0.121386
0.308858 0.461067 0.115694
0.367544 0.46598 0.116014
0.434974 0.468406 0.127611
0.50547 0.468635 0.124727
0.564034 0.469383 0.139361
0.624186 0.468071 0.181598
0.683619 0.461402 0.218433
0.730312 0.454368 0.244663
0.762493 0.449821 0.262913
0.788128 0.442466 0.278355
0.811627 0.427405 0.293431
0.827817 0.414023 0.301579
0.833249 0.395285 0.303181
0.821637 0.367742 0.295186
0.80708 0.33579 0.285344
0.79089 0.296849 0.278813
0.791089 0.283238 0.29482
0.825895 0.327977 0.345144
0.850385 0.359686 0.384054
0.864775 0.374838 0.411124
0.875288 0.38764 0.432197
0.882856 0.397757 0.445899
0.0916152 0.487892 0.215213
0.0920272 0.490715 0.215915
0.0925002 0.493111 0.21561
0.0930953 0.494224 0.210819
0.0944991 0.494514 0.201511
0.096437 0.494926 0.190661
0.098558 0.495979 0.181231
0.101701 0.497215 0.167605
0.111604 0.497169 0.14612
0.142214 0.49955 0.134035
0.20737 0.504891 0.133562
0.288655 0.507362 0.131182
0.362356 0.511727 0.126665
0.417716 0.517815 0.130495
0.484611 0.520577 0.145525
0.554177 0.5196 0.147662
0.612009 0.521065 0.164004
0.671153 0.521752 0.206821
0.732174 0.517433 0.248783
0.779995 0.511254 0.278843
0.81146 0.506996 0.298772
0.833875 0.50219 0.312963
0.855116 0.489143 0.327596
0.867018 0.472313 0.335729
0.859907 0.452461 0.330434
0.850629 0.428382 0.32256
0.838544 0.399161 0.313329
0.825681 0.368582 0.304829
0.812512 0.335012 0.300542
0.833021 0.353994 0.336858
0.854093 0.380407 0.369711
0.869108 0.397482 0.395727
0.876356 0.407462 0.409018
0.0995499 0.533669 0.243595
0.100221 0.536278 0.244862
0.101137 0.538689 0.244327
0.102296 0.539757 0.239216
0.104219 0.540017 0.230106
0.106615 0.540429 0.219425
0.109483 0.541161 0.209537
0.113024 0.541985 0.198474
0.117968 0.54229 0.179614
0.1337 0.543603 0.158083
0.184176 0.549203 0.150164
0.265034 0.554009 0.149233
0.350973 0.557137 0.14548
0.420066 0.562356 0.141665
0.469352 0.569863 0.150942
0.534493 0.572198 0.168978
0.602335 0.570748 0.178622
0.659617 0.572656 0.197147
0.71928 0.573938 0.23949
0.779263 0.57084 0.283696
0.823392 0.566262 0.313832
0.852964 0.562646 0.333562
0.871824 0.560174 0.345693
0.888563 0.551278 0.356954
0.888548 0.535088 0.357763
0.883635 0.514214 0.354681
0.876585 0.491096 0.349065
0.867643 0.464454 0.341985
0.859312 0.440589 0.33576
0.849577 0.41471 0.329381
0.853605 0.411795 0.341665
0.853346 0.404776 0.346426
0.863355 0.418387 0.361624
0.113664 0.578576 0.276143
0.11458 0.581125 0.277592
0.115969 0.583612 0.275853
0.117647 0.584436 0.270008
0.119783 0.58468 0.262242
0.122728 0.585489 0.253788
0.125933 0.586053 0.243946
0.129381 0.586618 0.232563
0.134569 0.587701 0.21912
0.143908 0.587976 0.196933
0.174441 0.592142 0.178592
0.2448 0.599695 0.172213
0.329793 0.604181 0.168521
0.413993 0.60856 0.165576
0.472999 0.614633 0.167239
0.5205 0.622339 0.179995
0.5841 0.62446 0.199802
0.650248 0.62266 0.215427
0.706508 0.623453 0.23563
0.765713 0.624491 0.27689
0.820691 0.622126 0.319188
0.86041 0.619089 0.348135
0.885878 0.616495 0.365774
0.898604 0.615015 0.373266
0.904295 0.608911 0.37641
0.902632 0.59704 0.374716
0.900694 0.580606 0.37322
0.897322 0.56025 0.370642
0.892561 0.535164 0.367483
0.8878 0.514839 0.364096
0.883268 0.498421 0.361334
0.882063 0.489372 0.363043
0.884459 0.489357 0.368673
0.133745 0.623224 0.309834
0.135134 0.625528 0.31014
0.13698 0.628061 0.308721
0.139528 0.629572 0.303868
0.142046 0.630304 0.298421
0.145037 0.631174 0.291325
0.148425 0.631662 0.282322
0.152453 0.631907 0.27071
0.157259 0.632547 0.258244
0.163943 0.633646 0.242634
0.17995 0.635019 0.217853
0.231525 0.643641 0.205844
0.314107 0.651011 0.198367
0.39968 0.656092 0.19527
0.477775 0.661234 0.195514
0.525917 0.668498 0.202289
0.570321 0.675212 0.21619
0.632364 0.677134 0.236698
0.697307 0.674372 0.255344
0.752544 0.673823 0.276738
0.808911 0.674754 0.315831
0.856886 0.672145 0.356893
0.889265 0.669657 0.382422
0.908049 0.667323 0.395544
0.911391 0.666499 0.395697
0.910246 0.661219 0.392844
0.90985 0.652384 0.391104
0.909682 0.639323 0.389776
0.90956 0.624323 0.389013
0.908232 0.608057 0.387701
0.907469 0.593973 0.387381
0.908263 0.587137 0.38909
0.909804 0.586847 0.392218
0.161685 0.668925 0.347539
0.163684 0.671565 0.346349
0.166033 0.674128 0.345083
0.168368 0.675517 0.340764
0.171008 0.676356 0.335897
0.173754 0.677211 0.329793
0.177142 0.677745 0.322942
0.181231 0.678187 0.312718
0.186969 0.67892 0.300282
0.193484 0.679484 0.286336
0.201862 0.680278 0.269169
0.230442 0.685313 0.245762
0.299901 0.696895 0.237522
0.38613 0.704204 0.231571
0.466941 0.709346 0.230716
0.536309 0.714519 0.233387
0.576532 0.721447 0.242496
0.619303 0.727825 0.257359
0.679194 0.729549 0.277485
0.74313 0.726467 0.297749
0.796582 0.724208 0.319692
0.847547 0.724178 0.359014
0.886763 0.721447 0.396384
0.91043 0.718502 0.416663
0.918135 0.71632 0.42327
0.916854 0.715267 0.419532
0.915663 0.711482 0.416159
0.914702 0.704204 0.413367
0.914961 0.694118 0.411841
0.915831 0.683207 0.41088
0.916518 0.674311 0.410422
0.917174 0.669795 0.411307
0.917922 0.670329 0.413947
0.196277 0.715114 0.384527
0.199069 0.718029 0.383368
0.201297 0.720088 0.381491
0.202899 0.721187 0.377966
0.205432 0.721935 0.374136
0.208484 0.722805 0.369482
0.21181 0.723873 0.364263
0.215656 0.724468 0.356146
0.220172 0.724575 0.343969
0.226001 0.724697 0.329458
0.232792 0.724987 0.314916
0.247883 0.728283 0.296407
0.293904 0.739452 0.282841
0.374166 0.749218 0.273075
0.454612 0.754879 0.269154
0.528283 0.75935 0.270024
0.588098 0.764263 0.274662
0.624918 0.770611 0.284581
0.665599 0.776745 0.299458
0.725185 0.778592 0.319951
0.7879 0.775326 0.341741
0.837659 0.773617 0.369787
0.881849 0.772442 0.405264
0.912139 0.768917 0.435203
0.925093 0.765988 0.448905
0.925231 0.762463 0.450523
0.924346 0.761852 0.447059
0.923278 0.759625 0.442817
0.921981 0.75407 0.439384
0.921767 0.747921 0.437339
0.921828 0.741894 0.436835
0.921965 0.738857 0.438117
0.922423 0.740032 0.44065
0.231144 0.757259 0.418769
0.233753 0.759548 0.417411
0.236271 0.761669 0.41561
0.237858 0.76289 0.41355
0.239765 0.763409 0.410407
0.242329 0.764141 0.406592
0.244984 0.764843 0.402213
0.248356 0.765301 0.395651
0.252567 0.765606 0.38584
0.258244 0.765576 0.371862
0.265736 0.765866 0.355673
0.278187 0.769574 0.343511
0.303243 0.776883 0.328374
0.362066 0.787778 0.317494
0.441627 0.794644 0.308156
0.51632 0.798749 0.305776
0.585168 0.802899 0.308629
0.634958 0.80766 0.314778
0.66894 0.813977 0.325887
0.709316 0.819989 0.341619
0.770184 0.822828 0.364858
0.830045 0.821759 0.393652
0.873747 0.818357 0.420417
0.910307 0.815869 0.449439
0.932235 0.811063 0.472801
0.934859 0.806775 0.480827
0.935012 0.804013 0.48307
0.933806 0.804288 0.480339
0.932647 0.803708 0.476478
0.931411 0.800702 0.474235
0.93048 0.797772 0.472679
0.930571 0.796002 0.47361
0.931655 0.797482 0.476143
0.265049 0.79379 0.44918
0.266804 0.795453 0.447715
0.268772 0.797208 0.446265
0.270298 0.79826 0.443809
0.272145 0.799054 0.441444
0.274449 0.799741 0.438682
0.277104 0.800351 0.435157
0.280018 0.800671 0.43006
0.283268 0.800916 0.422385
0.288045 0.801144 0.411383
0.295735 0.801968 0.397253
0.310033 0.806104 0.383642
0.328557 0.811902 0.373922
0.364324 0.820371 0.364736
0.428672 0.827909 0.353613
0.501427 0.832334 0.347005
0.569238 0.835126 0.346288
0.629984 0.838788 0.350622
0.674586 0.844755 0.359609
0.709804 0.851392 0.372412
0.752132 0.857771 0.389761
0.814588 0.861418 0.415381
0.866789 0.859174 0.441642
0.903792 0.85452 0.466026
0.933318 0.852003 0.490822
0.946288 0.846174 0.508751
0.946715 0.842222 0.51635
0.946441 0.840253 0.519417
0.94551 0.840696 0.517235
0.944274 0.842039 0.513207
0.943343 0.841581 0.512047
0.942962 0.841077 0.51223
0.943801 0.843214 0.514565
0.294408 0.823316 0.475242
0.295796 0.824689 0.473701
0.297246 0.82591 0.471946
0.29865 0.826841 0.46978
0.300084 0.827527 0.467887
0.302296 0.828092 0.465446
0.304463 0.828565 0.46273
0.307042 0.828885 0.45864
0.309926 0.829282 0.452842
0.313893 0.82945 0.443946
0.322499 0.831113 0.433234
0.33608 0.835187 0.421668
0.356619 0.840299 0.410971
0.383627 0.846586 0.405524
0.424308 0.853269 0.39971
0.484306 0.857359 0.390112
0.548943 0.859998 0.385855
0.610788 0.86305 0.387137
0.664775 0.867948 0.393713
0.708705 0.874556 0.404685
0.747387 0.881209 0.41857
0.794263 0.886931 0.436866
0.85066 0.88954 0.460151
0.895293 0.887083 0.48423
0.926589 0.88333 0.507362
0.946883 0.880293 0.528328
0.948989 0.874891 0.545937
0.948867 0.871778 0.555337
0.948882 0.870756 0.559304
0.948882 0.871687 0.557717
0.948882 0.87422 0.553765
0.948928 0.874876 0.553399
0.948806 0.876997 0.555123
0.318318 0.844999 0.495583
0.319326 0.845701 0.493767
0.320363 0.846555 0.492195
0.320989 0.847028 0.490043
0.321752 0.84744 0.48777
0.32285 0.847791 0.48574
0.324544 0.848264 0.483162
0.326711 0.848753 0.479896
0.329534 0.849088 0.474952
0.334951 0.850065 0.469017
0.342702 0.851118 0.460777
0.354513 0.85301 0.449821
0.37641 0.85716 0.44033
0.405066 0.862272 0.434455
0.432242 0.86659 0.431998
0.473045 0.870314 0.427008
0.529366 0.872816 0.421042
0.589105 0.874861 0.419333
0.648814 0.878584 0.423377
0.699016 0.884459 0.431846
0.742763 0.890562 0.444297
0.785306 0.896239 0.459754
0.830976 0.900633 0.476936
0.879133 0.90454 0.498405
0.915908 0.903273 0.522805
0.942641 0.902296 0.546365
0.948867 0.899733 0.566354
0.94876 0.895964 0.585672
0.948775 0.893736 0.597284
0.948791 0.8934 0.603647
0.948791 0.89514 0.601572
0.948943 0.896925 0.599313
0.948943 0.899062 0.6
0.333333 0.854429 0.508293
0.333379 0.854566 0.506401
0.333593 0.854749 0.504555
0.333608 0.85478 0.502251
0.333989 0.854856 0.499886
0.334676 0.854887 0.497841
0.335866 0.855024 0.496025
0.338811 0.85565 0.493416
0.343709 0.856107 0.490242
0.349096 0.856779 0.484825
0.356252 0.857755 0.477897
0.370321 0.860227 0.470787
0.393378 0.864347 0.464393
0.419242 0.868299 0.458686
0.446235 0.871977 0.454871
0.474098 0.874815 0.454124
0.516304 0.877043 0.451316
0.570535 0.878813 0.449332
0.628641 0.881834 0.45124
0.685847 0.887282 0.457725
0.731289 0.892851 0.468711
0.777432 0.898039 0.48307
0.820706 0.901839 0.498878
0.859815 0.905623 0.513024
0.900725 0.908537 0.533043
0.933227 0.907256 0.559731
0.948837 0.909255 0.583963
0.948791 0.909941 0.606836
0.948714 0.909163 0.629267
0.948745 0.908476 0.642008
0.94876 0.908446 0.647425
0.94876 0.909712 0.647593
0.948898 0.910719 0.647837
0.348302 0.859586 0.518761
0.34873 0.859815 0.516884
0.349325 0.860166 0.515206
0.349493 0.860319 0.513161
0.350195 0.860517 0.511528
0.351141 0.86067 0.50988
0.35227 0.860685 0.507866
0.354192 0.860929 0.505547
0.357931 0.861173 0.502358
0.364843 0.862303 0.498741
0.37818 0.865095 0.496178
0.394812 0.867933 0.492729
0.413413 0.870817 0.489082
0.435447 0.873594 0.484504
0.460639 0.876143 0.481102
0.487068 0.878508 0.479744
0.518166 0.880339 0.481453
0.561318 0.88246 0.483467
0.614954 0.884962 0.486046
0.672862 0.888853 0.492058
0.725093 0.89424 0.500664
0.769833 0.899062 0.51397
0.81503 0.903471 0.529305
0.852827 0.907134 0.541619
0.885542 0.910338 0.552972
0.916426 0.909178 0.571237
0.945266 0.910323 0.598154
0.948867 0.912123 0.6224
0.948913 0.913695 0.64564
0.948745 0.915114 0.667063
0.94876 0.916243 0.678523
0.948775 0.916945 0.685328
0.948821 0.917174 0.688182
0.372656 0.867704 0.531716
0.37377 0.867781 0.530388
0.374929 0.867918 0.528878
0.375235 0.867857 0.527047
0.37615 0.868009 0.525719
0.37818 0.868315 0.524727
0.380255 0.86865 0.523812
0.382605 0.868879 0.521965
0.387655 0.869474 0.520211
0.396857 0.870954 0.51957
0.408316 0.872724 0.518349
0.421576 0.874434 0.516762
0.437186 0.876371 0.51516
0.455756 0.878111 0.512947
0.478126 0.879789 0.510704
0.504402 0.881682 0.51017
0.53431 0.883635 0.512718
0.569039 0.885405 0.519448
0.612512 0.887343 0.525277
0.666087 0.890562 0.530968
0.722301 0.895552 0.538659
0.767773 0.900755 0.550835
0.810147 0.905074 0.565393
0.849668 0.908873 0.578515
0.8813 0.911925 0.58674
0.906447 0.912795 0.597467
0.933394 0.911345 0.615839
0.948898 0.913314 0.640101
0.94873 0.914748 0.662867
0.948806 0.917128 0.689189
0.948898 0.918975 0.711391
0.948806 0.920378 0.727428
0.948821 0.921187 0.736049
0.413581 0.87538 0.554116
0.414771 0.875578 0.552987
0.41622 0.875883 0.551339
0.416205 0.875868 0.548898
