bundles/resolve-cinematic-luts/Phantom Luts/A7s3 Phntm Arri LUTs G7/ATOMOS Monitoring LUTs/Slog2+Sgamut3cine/Jamaica A7s3 Sl2sg3c AML.cube
TITLE "Generated by Resolve"
LUT_3D_SIZE 9
0.0711833 0.0847181 0.0707103
0.0970016 0.0835279 0.07187
0.273426 0.0831311 0.0985733
0.459937 0.0834821 0.142794
0.609461 0.0995499 0.210315
0.691371 0.156802 0.303059
0.786328 0.243442 0.419409
0.897154 0.347524 0.559106
0.949889 0.443153 0.665965
0.0638132 0.119234 0.0770581
0.100298 0.111727 0.0713359
0.254139 0.0939498 0.0835584
0.447715 0.0861677 0.120821
0.607675 0.103349 0.196002
0.690394 0.160632 0.289296
0.779095 0.239384 0.401984
0.880049 0.330327 0.52697
0.936263 0.408621 0.619074
0.0528267 0.314488 0.119905
0.0701152 0.308583 0.059205
0.26775 0.294163 0.0741741
0.512703 0.237293 0.13904
0.627741 0.189105 0.155154
0.672023 0.160876 0.234165
0.773434 0.240162 0.378607
0.885847 0.344457 0.504387
0.940475 0.421332 0.603601
0.0613107 0.520119 0.210498
0.0699626 0.520577 0.171893
0.193576 0.529931 0.102602
0.476448 0.498741 0.118059
0.721691 0.477256 0.226459
0.830777 0.429694 0.298787
0.793744 0.328084 0.300023
0.882155 0.3617 0.452934
0.94081 0.427482 0.586633
0.166278 0.712734 0.374197
0.173114 0.714183 0.347829
0.203998 0.718868 0.282887
0.468971 0.721508 0.205982
0.684443 0.699687 0.246967
0.876448 0.685756 0.361669
0.934813 0.668971 0.402411
0.933806 0.578927 0.396521
0.937285 0.49897 0.449134
0.334691 0.873411 0.55494
0.33901 0.874388 0.535912
0.353475 0.877195 0.498131
0.453895 0.902831 0.433127
0.699931 0.88217 0.385687
0.851865 0.86627 0.429725
0.949828 0.850767 0.534798
0.949859 0.840421 0.525612
0.94725 0.79971 0.503304
0.450324 0.948974 0.664363
0.450141 0.948943 0.649958
0.459068 0.948959 0.634836
0.513741 0.948821 0.600885
0.679225 0.949004 0.596338
0.84097 0.948898 0.57969
0.941131 0.945205 0.614862
0.949859 0.930022 0.695491
0.949905 0.928191 0.680537
0.580941 0.948882 0.741924
0.568383 0.948989 0.726177
0.571832 0.94902 0.718105
0.616754 0.948852 0.718257
0.703334 0.948974 0.719051
0.82855 0.948882 0.72108
0.919005 0.947509 0.727275
0.94995 0.942962 0.76434
0.949889 0.941451 0.833204
0.720958 0.948867 0.826474
0.703777 0.948959 0.810636
0.707652 0.948959 0.808011
0.720562 0.948821 0.804944
0.764446 0.948898 0.810529
0.840513 0.948989 0.81709
0.908537 0.94754 0.825788
0.945373 0.942092 0.843992
0.949966 0.942184 0.872435
0.066453 0.0823835 0.0882124
0.0970626 0.0823072 0.0921492
0.27686 0.0788128 0.159533
0.46128 0.0793317 0.187869
0.60943 0.0938582 0.244053
0.686778 0.143816 0.326986
0.790127 0.242771 0.440635
0.899657 0.349142 0.579583
0.949859 0.452537 0.684977
0.0666209 0.113954 0.103395
0.0898146 0.110903 0.0926375
0.287419 0.0910048 0.101976
0.458457 0.0842451 0.137118
0.609583 0.101472 0.205753
0.691676 0.158511 0.298955
0.784451 0.24239 0.414282
0.890822 0.341634 0.547463
0.944991 0.429755 0.646143
0.0527504 0.308858 0.185473
0.0529641 0.313939 0.119402
0.262974 0.293172 0.0745708
0.511864 0.231022 0.143374
0.631006 0.174884 0.161288
0.690379 0.175555 0.258976
0.787182 0.255772 0.384939
0.897337 0.355001 0.52874
0.949096 0.441291 0.635325
0.0606088 0.515267 0.254337
0.0598611 0.520867 0.209476
0.140917 0.529976 0.107164
0.474968 0.498283 0.117693
0.724254 0.471366 0.231983
0.832792 0.416999 0.306127
0.784604 0.304723 0.304601
0.896117 0.36733 0.489357
0.949935 0.471855 0.604181
0.161929 0.7093 0.400961
0.165774 0.712627 0.372534
0.192462 0.717784 0.305913
0.447303 0.727855 0.211734
0.683925 0.699214 0.246662
0.880507 0.68304 0.367422
0.937377 0.660761 0.407095
0.934707 0.548852 0.405524
0.949035 0.524392 0.523903
0.33106 0.8719 0.572763
0.335134 0.873564 0.553628
0.346288 0.87715 0.521965
0.422873 0.895888 0.443565
0.695094 0.883711 0.386572
0.851804 0.866285 0.429862
0.949828 0.848951 0.539422
0.94995 0.836042 0.527611
0.946349 0.776989 0.507225
0.448936 0.949004 0.67512
0.448966 0.948974 0.661921
0.454078 0.948943 0.646799
0.499763 0.948974 0.609155
0.666697 0.948928 0.600549
0.838743 0.948898 0.581109
0.94107 0.94522 0.614939
0.949935 0.929381 0.69778
0.949905 0.926986 0.679316
0.584558 0.948898 0.749798
0.576013 0.948837 0.73669
0.580728 0.948867 0.729747
0.614786 0.948867 0.724697
0.70042 0.948943 0.72398
0.824948 0.948913 0.725093
0.918105 0.947509 0.728283
0.94995 0.942962 0.764538
0.949889 0.942397 0.831693
0.72694 0.948928 0.833341
0.718532 0.948852 0.82327
0.722194 0.948852 0.821408
0.729946 0.948913 0.815946
0.768978 0.948959 0.819486
0.840711 0.948989 0.823148
0.907759 0.947692 0.825711
0.945144 0.942077 0.843809
0.94995 0.942702 0.871412
0.0694438 0.0817273 0.216037
0.137041 0.0801709 0.224948
0.269627 0.0783398 0.251667
0.46569 0.0760662 0.299931
0.619608 0.0928969 0.324483
0.685771 0.136172 0.3617
0.787396 0.236637 0.458915
0.896696 0.343801 0.595697
0.949889 0.448692 0.696773
0.0601053 0.105165 0.199451
0.0696727 0.0893721 0.235538
0.284123 0.0791791 0.260884
0.464408 0.0767071 0.260624
0.61326 0.0915389 0.282475
0.680064 0.135164 0.330526
0.786755 0.238712 0.440757
0.890074 0.337285 0.570214
0.945434 0.429191 0.665766
0.0529183 0.286259 0.260517
0.0529335 0.287694 0.254017
0.259449 0.28571 0.252171
0.516243 0.221118 0.237201
0.668681 0.159609 0.252934
0.691402 0.159533 0.295567
0.797024 0.254826 0.424857
0.913878 0.370062 0.578271
0.949859 0.480995 0.696529
0.0625925 0.50312 0.328862
0.0603037 0.507256 0.301167
0.0942092 0.512947 0.213031
0.46656 0.490471 0.182055
0.713985 0.453208 0.259693
0.833143 0.381491 0.325307
0.805646 0.298863 0.35465
0.916655 0.385641 0.536309
0.949828 0.504219 0.666865
0.159792 0.703136 0.445548
0.159655 0.706416 0.421195
0.171618 0.712535 0.367605
0.368627 0.737957 0.236606
0.679179 0.695033 0.247059
0.885695 0.67216 0.391333
0.945739 0.640742 0.427405
0.939132 0.51838 0.435065
0.949828 0.534966 0.609903
0.326345 0.868559 0.590341
0.328664 0.870176 0.576364
0.336843 0.874525 0.551415
0.384985 0.885298 0.462409
0.682795 0.886442 0.389242
0.851347 0.865614 0.43003
0.949722 0.844648 0.550805
0.949813 0.830014 0.541604
0.94905 0.758846 0.529534
0.447044 0.948959 0.686519
0.446815 0.948959 0.675731
0.450843 0.948974 0.661051
0.482063 0.948852 0.623285
0.646326 0.948806 0.60679
0.835554 0.948852 0.584436
0.940856 0.944884 0.615198
0.94995 0.927733 0.703059
0.949828 0.925292 0.685283
0.584558 0.948913 0.757519
0.574197 0.948852 0.743786
0.582818 0.948882 0.739345
0.604791 0.948806 0.728084
0.692256 0.948898 0.726589
0.81973 0.948852 0.727993
0.917571 0.947433 0.728939
0.94995 0.942962 0.764004
0.949889 0.942397 0.832639
0.727489 0.948928 0.836759
0.716381 0.948867 0.825238
0.72488 0.948913 0.826856
0.731579 0.948943 0.82118
0.766445 0.948959 0.821546
0.837247 0.948959 0.82388
0.906493 0.948058 0.826093
0.944793 0.942061 0.84387
0.949935 0.942779 0.871199
0.0734722 0.0825208 0.35314
0.142901 0.0775006 0.372061
0.278569 0.075761 0.394064
0.448585 0.0771649 0.425254
0.610056 0.0931258 0.45626
0.692073 0.141146 0.45655
0.759396 0.206378 0.497032
0.880415 0.324163 0.623041
0.948669 0.440864 0.722148
0.0529793 0.0935225 0.355505
0.0684062 0.0850233 0.375006
0.262989 0.0760662 0.413687
0.449226 0.0772259 0.424399
0.610193 0.092546 0.445701
0.692638 0.140093 0.434165
0.763012 0.209567 0.481544
0.875319 0.318212 0.603479
0.941436 0.419974 0.694759
0.0529488 0.256855 0.375036
0.0528267 0.247562 0.386648
0.210208 0.221454 0.439445
0.500771 0.160281 0.462928
0.638407 0.105165 0.411078
0.690394 0.138445 0.390005
0.776745 0.224491 0.466667
0.906508 0.35494 0.619196
0.949844 0.476204 0.727825
0.0656443 0.470497 0.437568
0.0651255 0.471717 0.433768
0.0938277 0.469306 0.42092
0.455924 0.472023 0.433997
0.70985 0.419867 0.42533
0.862333 0.355383 0.426612
0.803525 0.263645 0.422354
0.931517 0.397925 0.598764
0.949935 0.529778 0.735561
0.157321 0.68455 0.525902
0.156954 0.687907 0.514229
0.164736 0.694667 0.484459
0.303777 0.722164 0.416693
0.660044 0.677089 0.39678
0.878981 0.649104 0.447349
0.949767 0.58819 0.490074
0.944411 0.498985 0.508751
0.949966 0.543191 0.700999
0.318364 0.858961 0.634043
0.319524 0.861341 0.621469
0.32398 0.866255 0.601572
0.343633 0.877073 0.537896
0.63154 0.913024 0.470497
0.84593 0.861738 0.460822
0.949828 0.834165 0.578515
0.949798 0.811231 0.579019
0.949859 0.718975 0.589181
0.443854 0.948806 0.709499
0.443534 0.948882 0.702022
0.446189 0.948898 0.692058
0.456352 0.94902 0.657633
0.602899 0.948974 0.617227
0.826108 0.948837 0.593591
0.940475 0.943954 0.615915
0.949798 0.92459 0.713924
0.949905 0.919646 0.702342
0.585687 0.94902 0.77409
0.574365 0.948882 0.762509
0.581292 0.948913 0.757992
0.598398 0.948852 0.744518
0.671214 0.948913 0.733486
0.805554 0.949004 0.734249
0.915541 0.947433 0.730587
0.94995 0.942977 0.762783
0.949889 0.942351 0.835218
0.728634 0.948943 0.845045
0.716243 0.948882 0.833799
0.722652 0.948898 0.833829
0.736889 0.949004 0.833112
0.760021 0.948928 0.82591
0.82855 0.948913 0.826413
0.904143 0.948775 0.827695
0.943938 0.942 0.844129
0.949966 0.942443 0.872007
0.0880446 0.0842298 0.478798
0.147707 0.0777142 0.497749
0.277409 0.0776532 0.52398
0.432563 0.0784924 0.542657
0.579889 0.0997635 0.558145
0.675212 0.146029 0.549279
0.723751 0.185306 0.574563
0.824125 0.282536 0.666896
0.926665 0.40531 0.765606
0.0622568 0.0908522 0.495125
0.087892 0.0856184 0.498589
0.252552 0.0783398 0.539635
0.42678 0.0788281 0.546441
0.579828 0.0996262 0.557229
0.674647 0.144137 0.543969
0.725261 0.184176 0.566217
0.817197 0.273854 0.650462
0.914076 0.381277 0.741772
0.0529793 0.21001 0.506249
0.0528725 0.199527 0.510857
0.145312 0.146288 0.56524
0.42446 0.0947738 0.590585
0.596323 0.107546 0.566949
0.677638 0.144198 0.536843
0.729564 0.185016 0.555291
0.851362 0.303014 0.668833
0.946212 0.44564 0.773327
0.0682841 0.435142 0.542519
0.0669871 0.432181 0.543984
0.0683146 0.417945 0.560815
0.40444 0.412772 0.614176
0.69485 0.355261 0.642695
0.818296 0.264347 0.583871
0.745876 0.194217 0.517632
0.888792 0.335561 0.66099
0.949752 0.51725 0.79202
0.158846 0.645274 0.617548
0.157992 0.646693 0.613916
0.163592 0.648905 0.611734
0.278157 0.66482 0.612985
0.631968 0.638514 0.603479
0.868711 0.608591 0.609155
0.949966 0.544839 0.599145
0.949584 0.442939 0.614145
0.949844 0.592035 0.778378
0.309026 0.834516 0.699886
0.308614 0.836606 0.692714
0.310674 0.841123 0.684215
0.321813 0.853727 0.650416
0.570062 0.880934 0.630503
0.813962 0.830839 0.608103
0.943801 0.812512 0.637583
0.949722 0.764752 0.643778
0.949828 0.683162 0.678798
0.43621 0.945724 0.757519
0.435721 0.946746 0.751003
0.438926 0.948821 0.742763
0.447929 0.948867 0.720989
0.55729 0.948852 0.688304
0.799069 0.948867 0.665476
0.934417 0.938918 0.652583
0.949874 0.918486 0.738094
0.949783 0.907134 0.737758
0.589609 0.948852 0.804608
0.57882 0.949004 0.794903
0.584817 0.948791 0.79205
0.600107 0.948898 0.784298
0.630106 0.949004 0.754467
0.773266 0.948837 0.743954
0.909224 0.947906 0.736614
0.94995 0.943008 0.762036
0.949905 0.941695 0.841093
0.727596 0.948974 0.85919
0.717128 0.948913 0.851408
0.723415 0.948959 0.851377
0.736187 0.948852 0.84976
0.755505 0.948913 0.841611
0.81062 0.948837 0.832563
0.899016 0.948943 0.830686
0.943664 0.941985 0.846098
0.949966 0.942153 0.872801
0.105638 0.0917525 0.564095
0.177844 0.0825971 0.584939
0.281407 0.0843214 0.60972
0.41004 0.0868696 0.617151
0.53077 0.102632 0.61236
0.649836 0.156451 0.624353
0.70164 0.189181 0.646906
0.720211 0.214313 0.672312
0.853635 0.344228 0.798062
0.078294 0.101183 0.564492
0.107439 0.0936751 0.570764
0.239124 0.0846418 0.606622
0.400793 0.0883803 0.623697
0.527016 0.101396 0.612055
0.648859 0.155505 0.622721
0.70251 0.187991 0.644297
0.715099 0.207416 0.663584
0.830457 0.319402 0.770733
0.0646372 0.170428 0.584115
0.064332 0.159777 0.582055
0.108019 0.107073 0.584924
0.360555 0.0922713 0.635874
0.542016 0.119722 0.638575
0.651484 0.157275 0.624613
0.703517 0.189075 0.646403
0.744015 0.23769 0.687663
0.897505 0.391913 0.831388
0.0908827 0.398932 0.635874
0.0895247 0.391592 0.635416
0.0943465 0.370611 0.646174
0.34023 0.342672 0.743404
0.624491 0.280903 0.777768
0.700069 0.203265 0.663142
0.707637 0.19144 0.642664
0.779461 0.267704 0.709209
0.936172 0.462867 0.856275
0.158389 0.598505 0.676966
0.156374 0.596307 0.674571
0.157214 0.591302 0.678676
0.207111 0.597467 0.729671
0.591516 0.59527 0.766979
0.858503 0.557549 0.798108
0.949905 0.470954 0.792294
0.875837 0.340398 0.743313
0.949859 0.542977 0.854109
0.303151 0.792203 0.766857
0.302113 0.793317 0.762905
0.303548 0.79556 0.763073
0.308156 0.800839 0.760967
0.544518 0.82562 0.773175
0.784924 0.790051 0.755276
0.929885 0.769009 0.766766
0.949966 0.710124 0.754299
0.94992 0.643442 0.775265
0.426566 0.919066 0.821057
0.425666 0.920439 0.816037
0.427008 0.922927 0.812528
0.432975 0.930205 0.804669
0.549477 0.948821 0.799542
0.751797 0.948608 0.785519
0.908629 0.917281 0.769192
0.949889 0.906447 0.788846
0.949889 0.885237 0.805203
0.573373 0.948867 0.854978
0.566064 0.948806 0.848066
0.576486 0.948852 0.845899
0.599374 0.94902 0.840528
0.636973 0.94902 0.825589
0.738781 0.948959 0.805982
0.895033 0.948806 0.789731
0.949828 0.941009 0.798398
0.949935 0.940795 0.856046
0.724239 0.948959 0.880888
0.716884 0.948974 0.876463
0.724559 0.949004 0.876967
0.737972 0.948898 0.876493
0.759213 0.948989 0.87303
0.779217 0.948852 0.848905
0.88629 0.948867 0.838468
0.94229 0.942687 0.850965
0.949966 0.942168 0.87396
0.12958 0.105196 0.592355
0.172198 0.0964065 0.602502
0.257649 0.0952773 0.626856
0.379278 0.101228 0.647501
0.488838 0.110933 0.643595
0.622492 0.160784 0.668162
0.687083 0.193545 0.695415
0.699107 0.210636 0.705165
0.749004 0.271931 0.756298
0.104814 0.114778 0.585611
0.118471 0.109148 0.589471
0.217548 0.0940414 0.614755
0.367529 0.10193 0.648142
0.487114 0.111421 0.644892
0.620951 0.160128 0.667506
0.687083 0.192966 0.693996
0.697856 0.209247 0.702205
0.725704 0.245426 0.729931
0.0865492 0.182345 0.605219
0.0858167 0.175555 0.601907
0.106203 0.12575 0.593545
0.317479 0.102678 0.644785
0.490425 0.119539 0.659022
0.633158 0.168505 0.678843
0.687922 0.194766 0.697948
0.701076 0.212955 0.707347
0.797971 0.320043 0.806989
0.118837 0.370382 0.673091
0.117174 0.362783 0.671183
0.121538 0.342199 0.671748
0.286366 0.305852 0.774945
0.546456 0.250294 0.804166
0.636637 0.183963 0.693202
0.691844 0.200412 0.700847
0.703059 0.215183 0.708858
0.878553 0.39939 0.882689
0.184894 0.577249 0.722881
0.182879 0.573724 0.721416
0.183978 0.566445 0.724804
0.220188 0.560281 0.774289
0.546197 0.560143 0.868452
0.816342 0.522911 0.911009
0.902052 0.427893 0.897063
0.752544 0.273304 0.755779
0.924453 0.480598 0.91635
0.287144 0.7402 0.788586
0.286 0.740108 0.786892
0.290333 0.74139 0.792157
0.30396 0.747707 0.811353
0.485603 0.771756 0.872038
0.754086 0.75874 0.866545
0.922301 0.733013 0.890593
0.947295 0.663569 0.894835
0.945403 0.564981 0.896544
0.419791 0.885161 0.869413
0.418616 0.886091 0.865843
0.41976 0.887587 0.866026
0.422248 0.890364 0.866514
0.498436 0.919692 0.887572
0.732235 0.91342 0.87985
0.885008 0.895445 0.868833
0.94725 0.883741 0.879759
0.944915 0.876371 0.891875
0.535851 0.948974 0.908766
0.530999 0.948928 0.904295
0.542977 0.948943 0.904738
0.56939 0.948943 0.905196
0.614969 0.948898 0.901732
0.743297 0.948928 0.891752
0.871336 0.948882 0.883238
0.944472 0.939193 0.884077
0.949844 0.938094 0.886992
0.71191 0.948943 0.916915
0.703319 0.948959 0.912734
0.7149 0.948913 0.911254
0.734356 0.948913 0.909773
0.760525 0.948882 0.907012
0.785214 0.948882 0.898466
0.860441 0.948837 0.887678
0.93492 0.942275 0.887236
0.948821 0.941558 0.896162
0.146029 0.118349 0.609949
0.151965 0.116793 0.611505
0.229038 0.100801 0.626245
0.357763 0.110094 0.658228
0.474144 0.120821 0.666484
0.581857 0.13785 0.670573
0.681361 0.1935 0.711559
0.691081 0.209125 0.720851
0.700389 0.221714 0.727337
0.122286 0.125139 0.604303
0.134676 0.121019 0.606653
0.196689 0.103258 0.618769
0.343725 0.109163 0.656275
0.477165 0.122072 0.66862
0.580438 0.137438 0.669856
0.681361 0.1935 0.711559
0.690333 0.208179 0.720073
0.697032 0.220066 0.723262
0.098909 0.192813 0.618448
0.0982223 0.189395 0.617243
0.0932631 0.161212 0.611139
0.278202 0.105699 0.643503
0.466133 0.12285 0.673381
0.624338 0.165194 0.694072
0.682567 0.195041 0.712917
0.69276 0.211139 0.722637
0.709972 0.236057 0.736522
0.134966 0.366201 0.685649
0.13341 0.358587 0.683421
0.135622 0.337774 0.681971
0.21091 0.296361 0.727489
0.495674 0.243442 0.798474
0.613809 0.184543 0.710719
0.689586 0.206592 0.719554
0.694362 0.213809 0.724468
0.783734 0.316976 0.811841
0.19913 0.568338 0.743877
0.197498 0.563622 0.743221
0.197772 0.554101 0.745922
0.21767 0.535225 0.771588
0.506661 0.550317 0.898131
0.776852 0.519158 0.934462
0.89398 0.43447 0.92079
0.717464 0.245716 0.746883
0.871839 0.403616 0.899306
0.279347 0.722515 0.801633
0.278004 0.720943 0.800946
0.277028 0.718029 0.801694
0.282734 0.713985 0.808225
0.449287 0.753689 0.90898
0.725597 0.740124 0.912917
0.903075 0.717586 0.936599
0.935256 0.641611 0.949767
0.924834 0.520363 0.947448
0.412528 0.861341 0.884962
0.411521 0.861433 0.882979
0.41326 0.862547 0.885237
0.418418 0.865888 0.891646
0.482017 0.888853 0.922805
0.706401 0.881514 0.925017
0.872389 0.880415 0.920485
0.942214 0.868803 0.932311
0.940581 0.832822 0.928267
0.504509 0.939254 0.935805
0.501045 0.939849 0.932464
0.511574 0.943465 0.93547
0.537331 0.94847 0.939742
0.586511 0.948943 0.943893
0.720333 0.948898 0.941344
0.866896 0.939529 0.930602
0.934737 0.933669 0.928405
0.949798 0.931167 0.935821
0.683223 0.948882 0.944945
0.676432 0.948837 0.942351
0.690791 0.948928 0.941939
0.71342 0.948852 0.94081
0.74406 0.948867 0.939422
0.774441 0.948821 0.936416
0.867521 0.946029 0.929473
0.927245 0.942733 0.928664
0.948867 0.940505 0.934066
0.144564 0.1252 0.617594
0.14342 0.12549 0.617182
0.200961 0.105364 0.624216
0.337865 0.110384 0.657908
0.4757 0.123796 0.673564
0.580743 0.139956 0.679149
0.676463 0.185199 0.706874
0.687221 0.202976 0.717098
0.695811 0.21619 0.72517
0.122377 0.131792 0.612604
0.1355 0.127657 0.615122
0.170855 0.116335 0.621942
0.322469 0.109163 0.654917
0.47454 0.123644 0.673503
0.57789 0.139452 0.679072
0.677317 0.186526 0.707607
0.687099 0.202777 0.716976
0.693843 0.21503 0.722728
0.103655 0.198489 0.6271
0.103029 0.19556 0.626291
0.101625 0.188846 0.625071
0.224292 0.104601 0.630243
0.442191 0.120165 0.671839
0.615122 0.159442 0.690578
0.676158 0.184604 0.706767
0.688106 0.204135 0.718288
0.698253 0.219806 0.727459
0.143069 0.369284 0.692912
0.141314 0.364294 0.690745
0.144244 0.353445 0.692683
0.136248 0.312871 0.679759
0.457572 0.261326 0.808743
0.604562 0.195438 0.725017
0.689723 0.20705 0.719493
0.689433 0.206058 0.719707
0.701961 0.225132 0.731151
0.206378 0.568978 0.75404
0.204929 0.564492 0.753262
0.205997 0.557595 0.756786
0.20206 0.535515 0.75642
0.429435 0.550561 0.89073
0.723461 0.530495 0.926696
0.904479 0.459648 0.933028
0.726635 0.257237 0.755657
0.742809 0.275502 0.771084
0.282506 0.721859 0.81091
0.280949 0.720027 0.81004
0.280659 0.717891 0.811521
0.27718 0.708675 0.812009
0.411643 0.747524 0.906371
0.697765 0.741924 0.914702
0.883314 0.725658 0.934844
0.933593 0.655879 0.949142
0.92137 0.501411 0.945785
0.392187 0.84123 0.875441
0.390784 0.840543 0.874235
0.393439 0.841672 0.876188
0.405203 0.847562 0.886656
0.455146 0.873793 0.9243
0.685588 0.874159 0.93341
0.858015 0.874556 0.931197
0.936767 0.863584 0.942733
0.93521 0.820157 0.941634
0.495048 0.926833 0.9449
0.493309 0.926848 0.942718
0.500435 0.929793 0.946029
0.531212 0.93669 0.94992
0.601633 0.941146 0.949874
0.705089 0.938354 0.949706
0.851957 0.931182 0.946258
0.929885 0.930648 0.941878
0.946426 0.925673 0.945998
0.657938 0.948989 0.949966
0.65359 0.948943 0.94992
0.667506 0.948806 0.949798
0.689998 0.948959 0.949935
0.724315 0.948959 0.94995
0.757595 0.948928 0.94992
0.855482 0.945281 0.946563
0.926345 0.942687 0.942824
0.947112 0.941176 0.946303
