bundles/resolve-cinematic-luts/Phantom Luts/A7s3 Phntm Arri LUTs G7/ATOMOS Monitoring LUTs/Slog2+Sgamut3cine/Jamaica A7s3 Sl2sg3c-Legacy AML.cube
TITLE "Generated by Resolve"
LUT_3D_SIZE 9
0.0829633 0.0923018 0.0827039
0.0976272 0.092195 0.0829023
0.226108 0.0920729 0.0990768
0.390951 0.0936904 0.131823
0.564874 0.0991379 0.185229
0.672297 0.143175 0.26656
0.754299 0.216403 0.371298
0.858839 0.310613 0.49395
0.934356 0.398947 0.600992
0.0804608 0.113832 0.0858625
0.0998856 0.109133 0.0834669
0.209979 0.0972457 0.0873426
0.381247 0.0936904 0.116121
0.562921 0.101564 0.175021
0.671168 0.145647 0.256046
0.749249 0.214191 0.357671
0.839536 0.295125 0.465553
0.910124 0.366781 0.55317
0.0608377 0.252537 0.109346
0.0781872 0.246342 0.0762341
0.218418 0.239322 0.0833143
0.438422 0.193027 0.128008
0.56936 0.151125 0.135683
0.653895 0.143236 0.215793
0.746014 0.216922 0.339391
0.844419 0.306661 0.447913
0.914992 0.377829 0.541009
0.0760815 0.453376 0.179828
0.0794842 0.453376 0.150347
0.163333 0.461952 0.103655
0.415976 0.440208 0.115755
0.671351 0.413977 0.21033
0.791226 0.367803 0.271565
0.755886 0.274876 0.275364
0.84123 0.320714 0.407645
0.914458 0.382467 0.526268
0.144686 0.665934 0.318288
0.149905 0.66659 0.295155
0.173327 0.670542 0.240177
0.403021 0.680507 0.188785
0.632303 0.652567 0.214008
0.864347 0.63238 0.337789
0.935256 0.607691 0.391241
0.913283 0.506722 0.379263
0.903731 0.439658 0.406516
0.316243 0.854353 0.507973
0.320195 0.854231 0.491218
0.333318 0.854948 0.456703
0.417166 0.879561 0.408743
0.661906 0.867475 0.357626
0.822141 0.847684 0.395453
0.94995 0.825406 0.49865
0.949813 0.811475 0.489113
0.948669 0.760983 0.470344
0.452461 0.948928 0.638987
0.45275 0.948898 0.625788
0.460365 0.948913 0.612375
0.501122 0.948898 0.580011
0.639307 0.948882 0.563729
0.812039 0.948837 0.537133
0.938888 0.948837 0.571633
0.949981 0.934295 0.646372
0.949828 0.932128 0.630961
0.543832 0.94902 0.702098
0.53228 0.948882 0.686091
0.534981 0.948898 0.678157
0.576303 0.948913 0.678248
0.660533 0.948837 0.679561
0.793545 0.948821 0.683131
0.907729 0.948882 0.679545
0.949844 0.943175 0.714687
0.950027 0.9411 0.788647
0.681025 0.949004 0.794995
0.661189 0.948821 0.775845
0.664942 0.948852 0.772732
0.678096 0.948898 0.769299
0.723445 0.948928 0.774853
0.807263 0.948882 0.781125
0.894987 0.948821 0.785275
0.949828 0.941375 0.804166
0.949905 0.940734 0.839109
0.081651 0.0919203 0.0923934
0.0974746 0.091783 0.0942702
0.227497 0.0905318 0.140536
0.391424 0.0903487 0.162188
0.562127 0.0951553 0.208301
0.668589 0.131075 0.283589
0.757259 0.215702 0.388098
0.864683 0.313863 0.51194
0.93817 0.407019 0.620447
0.0822309 0.110246 0.102083
0.0941787 0.108537 0.0951095
0.237095 0.094728 0.0995651
0.390326 0.0942245 0.128084
0.564645 0.100496 0.181842
0.672358 0.144335 0.263188
0.752544 0.215824 0.367208
0.852293 0.305303 0.483742
0.924331 0.386755 0.580514
0.0635538 0.248615 0.156268
0.0615244 0.251835 0.108797
0.214939 0.238437 0.0837568
0.436347 0.188769 0.129244
0.576471 0.138445 0.141527
0.66807 0.154513 0.234531
0.755169 0.228397 0.3449
0.856992 0.315709 0.469093
0.929213 0.396628 0.571374
0.075288 0.448966 0.213657
0.0747539 0.453941 0.178714
0.124086 0.461097 0.105638
0.414603 0.439765 0.115541
0.673655 0.408148 0.215228
0.791592 0.358648 0.274937
0.746365 0.254932 0.276921
0.855467 0.326192 0.437522
0.936278 0.423728 0.545968
0.141527 0.662257 0.341711
0.143648 0.665751 0.316915
0.164828 0.66949 0.259556
0.381735 0.68542 0.193301
0.631617 0.651911 0.213672
0.869825 0.628717 0.343328
0.936095 0.598947 0.394232
0.907149 0.482307 0.380743
0.935592 0.470253 0.474601
0.311055 0.852903 0.524285
0.316442 0.854246 0.507042
0.327306 0.856413 0.478187
0.393957 0.872862 0.415702
0.656107 0.870054 0.359823
0.821958 0.847745 0.395499
0.949783 0.823087 0.502022
0.949889 0.805936 0.491157
0.949874 0.731044 0.471412
0.45037 0.948943 0.648722
0.45124 0.948928 0.636759
0.455512 0.948943 0.622721
0.490105 0.948821 0.587823
0.627008 0.948775 0.567987
0.809873 0.948837 0.538552
0.93875 0.948821 0.571679
0.949981 0.933562 0.64831
0.949783 0.930648 0.629404
0.546761 0.948806 0.710277
0.538689 0.948959 0.696895
0.542657 0.948989 0.689708
0.574395 0.948928 0.684611
0.657404 0.948837 0.684718
0.789014 0.949004 0.687526
0.906462 0.948882 0.680552
0.949844 0.94316 0.714824
0.949874 0.941863 0.787335
0.686687 0.948852 0.802258
0.67602 0.948943 0.78912
0.679774 0.948989 0.787518
0.68748 0.948974 0.781048
0.728206 0.948821 0.784497
0.807645 0.948898 0.787457
0.894041 0.948882 0.78529
0.949828 0.941451 0.803906
0.949889 0.941222 0.838346
0.0814374 0.0930648 0.180484
0.126116 0.0924697 0.186542
0.223865 0.0908217 0.208042
0.398962 0.0885328 0.243168
0.57232 0.0926833 0.270329
0.668605 0.123308 0.314412
0.756512 0.21117 0.40264
0.864393 0.310872 0.526024
0.93756 0.404044 0.631846
0.0796063 0.104204 0.170169
0.0828717 0.0965591 0.196918
0.234684 0.090837 0.215488
0.39559 0.0890669 0.213138
0.566232 0.0927443 0.238529
0.664225 0.124605 0.28716
0.754818 0.212558 0.38819
0.854887 0.304006 0.503182
0.925994 0.386511 0.599359
0.0704662 0.231769 0.211322
0.0712596 0.23267 0.206729
0.213657 0.233356 0.208331
0.441428 0.181369 0.196902
0.616693 0.136797 0.215747
0.672404 0.145769 0.261219
0.763272 0.2271 0.376501
0.878218 0.330571 0.512688
0.949874 0.433661 0.63534
0.0796368 0.438865 0.274815
0.0767071 0.442649 0.251209
0.0939498 0.44416 0.182483
0.407065 0.430655 0.165621
0.658717 0.39118 0.234119
0.787137 0.323812 0.287922
0.768261 0.260197 0.324056
0.879591 0.343435 0.478096
0.949859 0.454994 0.60798
0.139773 0.656565 0.384665
0.138994 0.659358 0.361059
0.149218 0.663767 0.313161
0.310201 0.687205 0.210529
0.626398 0.647105 0.214237
0.87332 0.617212 0.360494
0.939071 0.576516 0.405875
0.907469 0.45893 0.39704
0.94992 0.484703 0.553811
0.304479 0.849241 0.540047
0.307561 0.850599 0.527321
0.31725 0.854597 0.504936
0.360616 0.861723 0.428656
0.642603 0.873762 0.363363
0.821118 0.846998 0.395239
0.949828 0.817823 0.511849
0.949981 0.798215 0.503288
0.949813 0.70985 0.489418
0.447364 0.948943 0.658747
0.447974 0.948943 0.649134
0.452735 0.948913 0.636072
0.47602 0.948959 0.600946
0.607126 0.948913 0.574151
0.806775 0.948806 0.541741
0.938537 0.948837 0.571832
0.949844 0.932021 0.652796
0.949783 0.928359 0.635386
0.546914 0.948821 0.718151
0.536934 0.948974 0.704158
0.544076 0.949004 0.699214
0.564721 0.948898 0.687724
0.649668 0.948974 0.687053
0.782971 0.948989 0.690394
0.905226 0.948882 0.681178
0.949844 0.943175 0.714443
0.949874 0.941817 0.788296
0.686824 0.948852 0.805768
0.673594 0.948943 0.791302
0.682429 0.948989 0.793149
0.688975 0.948806 0.78674
0.725536 0.948806 0.786755
0.803098 0.948913 0.788449
0.892744 0.948928 0.78613
0.949691 0.941543 0.804013
0.949889 0.941207 0.838361
0.0840925 0.0946975 0.295445
0.129885 0.0911269 0.309514
0.231708 0.0892195 0.327916
0.38819 0.0890059 0.359808
0.571908 0.0923476 0.396612
0.683757 0.129335 0.401984
0.746426 0.194308 0.435294
0.851926 0.294697 0.551247
0.934554 0.396689 0.656458
0.0722972 0.0996567 0.298466
0.0817731 0.0962387 0.316945
0.218875 0.0896468 0.346975
0.388861 0.0890669 0.358648
0.570794 0.0923476 0.385321
0.680903 0.127581 0.379141
0.743816 0.19292 0.420752
0.845716 0.289647 0.532341
0.923064 0.37821 0.627314
0.0594034 0.209171 0.312169
0.0588388 0.201877 0.323751
0.173892 0.18262 0.370016
0.427512 0.138888 0.388296
0.593668 0.100175 0.346395
0.673701 0.124575 0.339391
0.749584 0.201312 0.408072
0.875044 0.320134 0.54815
0.949798 0.429664 0.666331
0.0859998 0.409125 0.37554
0.0848707 0.410132 0.371908
0.0977493 0.406104 0.35935
0.398993 0.414191 0.379141
0.650477 0.365011 0.370169
0.821881 0.309224 0.380362
0.768231 0.234318 0.375372
0.900511 0.355749 0.533501
0.949828 0.480339 0.679637
0.13962 0.637339 0.466545
0.13817 0.640406 0.454185
0.145846 0.645319 0.424857
0.262348 0.664897 0.363256
0.607004 0.62591 0.348074
0.860441 0.594217 0.405997
0.946166 0.53283 0.450446
0.92459 0.445701 0.461845
0.949844 0.492973 0.645289
0.293233 0.839078 0.583062
0.294591 0.84123 0.570581
0.299748 0.84567 0.551141
0.319051 0.853223 0.490959
0.583261 0.895521 0.42977
0.814435 0.841932 0.416648
0.949859 0.805264 0.536706
0.949798 0.775158 0.536324
0.949874 0.666667 0.545785
0.441505 0.948974 0.679377
0.442161 0.948959 0.672541
0.44538 0.948928 0.663493
0.456153 0.948959 0.632593
0.568261 0.948898 0.58529
0.796719 0.949004 0.552682
0.937545 0.948699 0.572152
0.949859 0.928115 0.663691
0.949905 0.921599 0.652476
0.547478 0.948852 0.735393
0.536431 0.94902 0.723064
0.542306 0.948852 0.718029
0.558358 0.948882 0.704356
0.628351 0.948898 0.693889
0.767224 0.948913 0.69633
0.9019 0.948837 0.682979
0.949844 0.943252 0.713008
0.949828 0.941665 0.791257
0.686488 0.948867 0.814801
0.672831 0.948959 0.800946
0.679637 0.949004 0.801083
0.694255 0.948882 0.799908
0.718883 0.948852 0.791638
0.792706 0.948806 0.791791
0.889525 0.949035 0.788296
0.948501 0.941695 0.804532
0.949905 0.940826 0.839017
0.0906996 0.0977035 0.420951
0.133288 0.092134 0.437171
0.233173 0.0884108 0.460822
0.380301 0.0867628 0.486275
0.548287 0.0959029 0.517052
0.672847 0.132631 0.508553
0.728573 0.179187 0.520012
0.808682 0.258427 0.599329
0.910674 0.36437 0.698436
0.0739757 0.102098 0.440833
0.0906081 0.0988479 0.443381
0.21297 0.0888991 0.480186
0.374655 0.0867475 0.490166
0.548074 0.0958114 0.51574
0.672389 0.130922 0.503182
0.729397 0.178347 0.510262
0.802289 0.251179 0.583307
0.894255 0.342473 0.671656
0.0561685 0.1776 0.442023
0.0561685 0.170047 0.447517
0.126757 0.132753 0.502937
0.369009 0.09691 0.534249
0.567819 0.100191 0.528191
0.67538 0.131289 0.49395
0.731899 0.179156 0.497642
0.831098 0.276661 0.598154
0.93608 0.401328 0.709667
0.0582895 0.376165 0.481834
0.0568246 0.37322 0.483558
0.0656748 0.358602 0.502876
0.350118 0.358419 0.55378
0.63563 0.304295 0.581033
0.789639 0.233753 0.51635
0.741161 0.186984 0.456062
0.862547 0.304387 0.587961
0.949874 0.468956 0.737865
0.139223 0.596521 0.564538
0.13785 0.597803 0.5608
0.143999 0.598901 0.557839
0.244053 0.608667 0.555093
0.579248 0.586206 0.550179
0.845045 0.554406 0.553719
0.949828 0.494148 0.544121
0.927596 0.397406 0.55256
0.950011 0.542428 0.729976
0.278706 0.812375 0.651301
0.278325 0.814359 0.644007
0.280964 0.818967 0.635279
0.290211 0.828031 0.598795
0.51577 0.858335 0.578714
0.77734 0.801862 0.554223
0.949172 0.77937 0.591775
0.949981 0.715236 0.593118
0.94992 0.632456 0.626825
0.431556 0.94847 0.725551
0.431724 0.948959 0.719478
0.434516 0.948989 0.71133
0.44239 0.948989 0.689647
0.525109 0.948989 0.651698
0.764492 0.948928 0.62829
0.931029 0.945068 0.60502
0.949981 0.919356 0.689769
0.949813 0.903365 0.690715
0.549035 0.948959 0.767102
0.537911 0.948852 0.756436
0.543313 0.948898 0.753445
0.558648 0.948989 0.745144
0.588312 0.948882 0.714763
0.732464 0.948913 0.705348
0.893538 0.948806 0.689891
0.949844 0.943267 0.712337
0.949874 0.940826 0.798611
0.684382 0.948867 0.831876
0.672099 0.949004 0.821241
0.678569 0.948791 0.821088
0.692164 0.948882 0.819486
0.713695 0.948791 0.809384
0.772107 0.948913 0.799222
0.882887 0.948989 0.792676
0.947112 0.941375 0.807248
0.949905 0.940719 0.839567
0.100832 0.10457 0.534371
0.156161 0.0963149 0.556313
0.24126 0.0909743 0.577508
0.369223 0.0912184 0.588632
0.513771 0.10013 0.603311
0.644144 0.14374 0.597772
0.708858 0.18265 0.609049
0.723629 0.202823 0.635493
0.831952 0.311208 0.746105
0.0819562 0.111711 0.549889
0.101625 0.106355 0.548074
0.206348 0.092134 0.580377
0.361273 0.092134 0.599252
0.509361 0.0992905 0.602548
0.642802 0.142245 0.596155
0.709728 0.181582 0.605478
0.719722 0.196948 0.62562
0.812558 0.290181 0.719005
0.0609903 0.150622 0.550103
0.0621653 0.143282 0.553475
0.103166 0.116579 0.580682
0.324941 0.0966812 0.624872
0.520256 0.109636 0.627726
0.646326 0.144945 0.597711
0.710689 0.182681 0.607553
0.743725 0.22182 0.645869
0.876814 0.35259 0.779812
0.074403 0.339208 0.590677
0.0719768 0.331701 0.589731
0.0723888 0.314229 0.603555
0.288655 0.291341 0.690257
0.565927 0.240116 0.728908
0.68896 0.181109 0.627054
0.714717 0.184466 0.601999
0.772808 0.246326 0.659388
0.928649 0.417594 0.81326
0.122362 0.550637 0.637797
0.119631 0.54815 0.635477
0.119326 0.542626 0.640024
0.177584 0.543465 0.685573
0.537896 0.542367 0.723888
0.835401 0.503807 0.755306
0.948653 0.424994 0.73341
0.855299 0.307378 0.674464
0.94995 0.493233 0.817838
0.267674 0.763088 0.728328
0.266438 0.764065 0.724132
0.26743 0.765713 0.723232
0.271717 0.768048 0.718471
0.489372 0.792233 0.729549
0.74316 0.750637 0.709407
0.939223 0.727825 0.722911
0.949859 0.66363 0.708217
0.949798 0.594308 0.72961
0.417533 0.920958 0.791547
0.416999 0.922133 0.786496
0.41825 0.924773 0.782559
0.422889 0.931746 0.773007
0.512413 0.948943 0.763287
0.712932 0.948867 0.751293
0.901274 0.918853 0.724422
0.949859 0.901671 0.745815
0.949767 0.873121 0.764736
0.53724 0.948959 0.822828
0.529976 0.948943 0.814862
0.538933 0.948989 0.812924
0.55906 0.948882 0.80708
0.592538 0.948867 0.790387
0.696864 0.948821 0.770153
0.876951 0.948837 0.746303
0.94992 0.941161 0.7505
0.949859 0.939834 0.817227
0.681346 0.948928 0.859907
0.673152 0.948867 0.853788
0.681071 0.948913 0.854536
0.694697 0.94902 0.85452
0.71632 0.948913 0.849638
0.738354 0.948989 0.818799
0.865751 0.948867 0.803067
0.94316 0.941268 0.813275
0.949905 0.940703 0.841123
0.119783 0.118212 0.59704
0.153979 0.113573 0.610208
0.224399 0.100908 0.625727
0.345724 0.10248 0.649149
0.467536 0.108003 0.648432
0.604273 0.152789 0.655756
0.68809 0.190631 0.68249
0.698726 0.203708 0.690074
0.736919 0.253727 0.734096
0.101747 0.127459 0.59324
0.111009 0.122377 0.595605
0.191287 0.106874 0.62034
0.333135 0.10396 0.650355
0.464805 0.108766 0.650126
0.60209 0.151568 0.655024
0.688518 0.190143 0.68043
0.69778 0.202548 0.686366
0.719905 0.231891 0.710582
0.0752117 0.164157 0.593072
0.0764172 0.159731 0.592065
0.105165 0.139025 0.598795
0.281163 0.107134 0.645533
0.462058 0.12105 0.666545
0.614282 0.162142 0.66743
0.688411 0.191821 0.685832
0.700328 0.205478 0.692195
0.773831 0.294484 0.77644
0.0932021 0.3178 0.64361
0.0919356 0.310246 0.641733
0.0979019 0.290089 0.644663
0.241062 0.267826 0.734539
0.481956 0.218677 0.773327
0.611719 0.17026 0.680247
0.692485 0.196429 0.68864
0.701671 0.207095 0.693507
0.848508 0.363546 0.848661
0.15108 0.525338 0.695674
0.149676 0.521523 0.694469
0.152468 0.513146 0.699931
0.199725 0.504112 0.756252
0.490547 0.505653 0.857572
0.7794 0.469795 0.903059
0.877745 0.388937 0.866377
0.740673 0.253803 0.731319
0.910826 0.435721 0.897276
0.256626 0.704158 0.765332
0.25507 0.703624 0.763088
0.258122 0.703685 0.768154
0.268086 0.705989 0.784909
0.427695 0.729061 0.85478
0.707652 0.713008 0.852949
0.930739 0.686336 0.882216
0.949844 0.613733 0.883864
0.949874 0.514473 0.879911
0.407126 0.879393 0.852247
0.405814 0.880278 0.848096
0.407065 0.881758 0.848295
0.408881 0.884596 0.847898
0.465965 0.916381 0.868162
0.688777 0.91429 0.864637
0.869825 0.887098 0.846845
0.949905 0.869368 0.858869
0.94902 0.858854 0.877363
0.507958 0.948974 0.891249
0.503883 0.948913 0.886198
0.512673 0.949004 0.886778
0.533654 0.948867 0.887221
0.574975 0.948943 0.884153
0.700587 0.948837 0.874464
0.845411 0.948882 0.861982
0.947875 0.939483 0.857008
0.949889 0.939467 0.860395
0.667659 0.948928 0.907149
0.658991 0.948867 0.902296
0.671122 0.948913 0.901152
0.690517 0.948837 0.899001
0.718181 0.948989 0.896254
0.743709 0.948928 0.884306
0.83093 0.948821 0.867903
0.933867 0.941619 0.861204
0.949538 0.940597 0.871809
0.136858 0.139147 0.615442
0.141253 0.138247 0.617151
0.202152 0.120592 0.632563
0.317662 0.115862 0.659373
0.438865 0.123903 0.67274
0.555413 0.143557 0.672999
0.6804 0.194003 0.710369
0.688472 0.205921 0.718318
0.695659 0.21471 0.721904
0.119402 0.144594 0.609537
0.128054 0.141238 0.612009
0.177462 0.129824 0.628977
0.303944 0.115221 0.656535
0.440482 0.125597 0.674662
0.55407 0.143053 0.672251
0.6804 0.194003 0.710369
0.687984 0.205173 0.717769
0.692943 0.213962 0.718044
0.0903639 0.177569 0.60557
0.0902876 0.17554 0.605097
0.0964675 0.164858 0.611139
0.241657 0.116365 0.64303
0.425345 0.128634 0.680079
0.599115 0.165393 0.693782
0.68127 0.195056 0.711376
0.689403 0.207019 0.719448
0.703685 0.226719 0.729473
0.113085 0.315312 0.660838
0.111833 0.307378 0.658274
0.117571 0.288899 0.657847
0.182528 0.260029 0.694896
0.429633 0.21561 0.766369
0.575235 0.17435 0.708324
0.687083 0.203769 0.717052
0.690883 0.20885 0.721096
0.759533 0.293187 0.787884
0.174823 0.513741 0.724941
0.174685 0.50901 0.725444
0.178622 0.498634 0.730709
0.204822 0.477714 0.759457
0.453666 0.497551 0.893935
0.729519 0.466484 0.930877
0.866987 0.397009 0.895064
0.709529 0.234821 0.7393
0.839048 0.368704 0.86746
0.256245 0.683177 0.784955
0.255009 0.68127 0.784466
0.25452 0.678096 0.78616
0.257099 0.671855 0.792462
0.401572 0.707195 0.905257
0.67306 0.692149 0.917266
0.904433 0.668986 0.947829
0.939681 0.591257 0.949874
0.916121 0.474174 0.942092
0.399603 0.848264 0.876722
0.39823 0.847929 0.874769
0.399863 0.848646 0.876982
0.403876 0.85037 0.882734
0.450141 0.875288 0.917632
0.656886 0.869749 0.928206
0.851987 0.864546 0.92256
0.945159 0.848295 0.936904
0.943984 0.801541 0.932403
0.491554 0.9402 0.932052
0.489448 0.94049 0.928161
0.495384 0.94432 0.931426
0.512413 0.948882 0.938033
0.549203 0.948913 0.944198
0.675303 0.948837 0.945846
0.84036 0.946868 0.933501
0.935485 0.936538 0.925673
0.945998 0.934874 0.932799
0.636912 0.948837 0.947188
0.630808 0.949004 0.944579
0.644358 0.948867 0.944152
0.666972 0.948867 0.943542
0.698634 0.948989 0.942565
0.730114 0.948974 0.938704
0.838148 0.948959 0.928496
0.921965 0.941405 0.924025
0.946715 0.938979 0.929427
0.137789 0.150072 0.625025
0.13669 0.150301 0.624598
0.181765 0.135958 0.636149
0.296803 0.117739 0.657755
0.435798 0.12987 0.681193
0.550591 0.148257 0.685893
0.676783 0.188861 0.706813
0.685069 0.200916 0.714794
0.692241 0.211032 0.72163
0.121843 0.153933 0.619989
0.130953 0.151308 0.622477
0.157565 0.144594 0.630808
0.282124 0.117067 0.654185
0.434562 0.129717 0.681086
0.546944 0.147463 0.685863
0.677394 0.189685 0.707362
0.684977 0.200748 0.714702
0.690745 0.209949 0.719799
0.0976883 0.185122 0.615976
0.0974594 0.183352 0.615961
0.0980697 0.180102 0.617975
0.199207 0.12813 0.637964
0.400824 0.12604 0.677653
0.58912 0.16173 0.691981
0.676524 0.188464 0.706691
0.685878 0.201801 0.715953
0.694072 0.213855 0.723384
0.123735 0.31899 0.6692
0.122438 0.314366 0.667216
0.128756 0.304524 0.670466
0.125292 0.270191 0.660548
0.392721 0.229816 0.771267
0.557977 0.181125 0.720851
0.687404 0.204288 0.717159
0.6869 0.20325 0.717174
0.697414 0.218265 0.726787
0.187716 0.513893 0.739696
0.186862 0.509163 0.739208
0.190234 0.501991 0.744106
0.187716 0.478813 0.743664
0.38265 0.497826 0.881224
0.670558 0.476478 0.923629
0.884916 0.419455 0.913207
0.716304 0.243656 0.745785
0.728695 0.258778 0.757443
0.262181 0.682597 0.798489
0.260639 0.680308 0.797803
0.260792 0.678203 0.800153
0.257771 0.667628 0.801312
0.370581 0.700603 0.898299
0.643534 0.694942 0.918242
0.87631 0.677363 0.943725
0.939315 0.60499 0.949767
0.908827 0.456886 0.935699
0.380468 0.82829 0.872312
0.378668 0.827192 0.870771
0.380865 0.827863 0.872663
0.390723 0.830701 0.881025
0.428748 0.855817 0.916686
0.631724 0.861799 0.935637
0.83238 0.85655 0.932006
0.939132 0.841016 0.946075
0.938659 0.78497 0.947753
0.487449 0.925566 0.944274
0.486152 0.925399 0.942229
0.490959 0.929122 0.945907
0.509102 0.937987 0.949767
0.563012 0.946929 0.949996
0.660578 0.947341 0.949966
0.820172 0.937652 0.949798
0.930129 0.932235 0.942565
0.945083 0.925505 0.94548
0.612787 0.948867 0.949859
0.608164 0.948867 0.949859
0.621515 0.948974 0.949966
0.643061 0.948882 0.949859
0.677287 0.948852 0.949844
0.711513 0.948867 0.949859
0.822232 0.946456 0.949844
0.920729 0.941039 0.94313
0.945876 0.939467 0.945281
