bundles/resolve-cinematic-luts/Phantom Luts/A7s3 Phntm Arri LUTs G7/ATOMOS Monitoring LUTs/Slog2+Sgamut3cine/Jamaica A7s3 Sl2sg3c-Legacy AML.cube
TITLE "Generated by Resolve"
LUT_3D_SIZE 5
0.0829633 0.0923018 0.0827039
0.226108 0.0920729 0.0990768
0.564874 0.0991379 0.185229
0.754299 0.216403 0.371298
0.934356 0.398947 0.600992
0.0608377 0.252537 0.109346
0.218418 0.239322 0.0833143
0.56936 0.151125 0.135683
0.746014 0.216922 0.339391
0.914992 0.377829 0.541009
0.144686 0.665934 0.318288
0.173327 0.670542 0.240177
0.632303 0.652567 0.214008
0.935256 0.607691 0.391241
0.903731 0.439658 0.406516
0.452461 0.948928 0.638987
0.460365 0.948913 0.612375
0.639307 0.948882 0.563729
0.938888 0.948837 0.571633
0.949828 0.932128 0.630961
0.681025 0.949004 0.794995
0.664942 0.948852 0.772732
0.723445 0.948928 0.774853
0.894987 0.948821 0.785275
0.949905 0.940734 0.839109
0.0814374 0.0930648 0.180484
0.223865 0.0908217 0.208042
0.57232 0.0926833 0.270329
0.756512 0.21117 0.40264
0.93756 0.404044 0.631846
0.0704662 0.231769 0.211322
0.213657 0.233356 0.208331
0.616693 0.136797 0.215747
0.763272 0.2271 0.376501
0.949874 0.433661 0.63534
0.139773 0.656565 0.384665
0.149218 0.663767 0.313161
0.626398 0.647105 0.214237
0.939071 0.576516 0.405875
0.94992 0.484703 0.553811
0.447364 0.948943 0.658747
0.452735 0.948913 0.636072
0.607126 0.948913 0.574151
0.938537 0.948837 0.571832
0.949783 0.928359 0.635386
0.686824 0.948852 0.805768
0.682429 0.948989 0.793149
0.725536 0.948806 0.786755
0.892744 0.948928 0.78613
0.949889 0.941207 0.838361
0.0906996 0.0977035 0.420951
0.233173 0.0884108 0.460822
0.548287 0.0959029 0.517052
0.728573 0.179187 0.520012
0.910674 0.36437 0.698436
0.0561685 0.1776 0.442023
0.126757 0.132753 0.502937
0.567819 0.100191 0.528191
0.731899 0.179156 0.497642
0.93608 0.401328 0.709667
0.139223 0.596521 0.564538
0.143999 0.598901 0.557839
0.579248 0.586206 0.550179
0.949828 0.494148 0.544121
0.950011 0.542428 0.729976
0.431556 0.94847 0.725551
0.434516 0.948989 0.71133
0.525109 0.948989 0.651698
0.931029 0.945068 0.60502
0.949813 0.903365 0.690715
0.684382 0.948867 0.831876
0.678569 0.948791 0.821088
0.713695 0.948791 0.809384
0.882887 0.948989 0.792676
0.949905 0.940719 0.839567
0.119783 0.118212 0.59704
0.224399 0.100908 0.625727
0.467536 0.108003 0.648432
0.68809 0.190631 0.68249
0.736919 0.253727 0.734096
0.0752117 0.164157 0.593072
0.105165 0.139025 0.598795
0.462058 0.12105 0.666545
0.688411 0.191821 0.685832
0.773831 0.294484 0.77644
0.15108 0.525338 0.695674
0.152468 0.513146 0.699931
0.490547 0.505653 0.857572
0.877745 0.388937 0.866377
0.910826 0.435721 0.897276
0.407126 0.879393 0.852247
0.407065 0.881758 0.848295
0.465965 0.916381 0.868162
0.869825 0.887098 0.846845
0.94902 0.858854 0.877363
0.667659 0.948928 0.907149
0.671122 0.948913 0.901152
0.718181 0.948989 0.896254
0.83093 0.948821 0.867903
0.949538 0.940597 0.871809
0.137789 0.150072 0.625025
0.181765 0.135958 0.636149
0.435798 0.12987 0.681193
0.676783 0.188861 0.706813
0.692241 0.211032 0.72163
0.0976883 0.185122 0.615976
0.0980697 0.180102 0.617975
0.400824 0.12604 0.677653
0.676524 0.188464 0.706691
0.694072 0.213855 0.723384
0.187716 0.513893 0.739696
0.190234 0.501991 0.744106
0.38265 0.497826 0.881224
0.884916 0.419455 0.913207
0.728695 0.258778 0.757443
0.380468 0.82829 0.872312
0.380865 0.827863 0.872663
0.428748 0.855817 0.916686
0.83238 0.85655 0.932006
0.938659 0.78497 0.947753
0.612787 0.948867 0.949859
0.621515 0.948974 0.949966
0.677287 0.948852 0.949844
0.822232 0.946456 0.949844
0.945876 0.939467 0.945281
