bundles/resolve-cinematic-luts/Phantom Luts/A7s3 Phntm Arri LUTs G7/ATOMOS Monitoring LUTs/Slog2+Sgamut3cine/Jamaica A7s3 Sl2sg3c-Legacy AML.cube
TITLE "Generated by Resolve"
LUT_3D_SIZE 33
0.0829633 0.0923018 0.0827039
0.0829633 0.0923018 0.0827039
0.0829633 0.0923018 0.0827039
0.0831617 0.0923629 0.0826581
0.0976272 0.092195 0.0829023
0.127993 0.092134 0.0846876
0.159182 0.0916915 0.0880446
0.191028 0.0914778 0.0928969
0.226108 0.0920729 0.0990768
0.262943 0.0925002 0.105135
0.30309 0.0936294 0.110796
0.34638 0.0936751 0.120607
0.390951 0.0936904 0.131823
0.437034 0.0942092 0.143938
0.483299 0.0949569 0.157122
0.526604 0.0965438 0.170565
0.564874 0.0991379 0.185229
0.599252 0.10396 0.201328
0.62829 0.111971 0.220081
0.651316 0.12398 0.241749
0.672297 0.143175 0.26656
0.694102 0.16463 0.292958
0.719493 0.185794 0.322698
0.737331 0.201205 0.34699
0.754299 0.216403 0.371298
0.778088 0.238788 0.400015
0.804059 0.262242 0.430121
0.830014 0.284718 0.460914
0.858839 0.310613 0.49395
0.885481 0.336751 0.526131
0.907347 0.360922 0.555627
0.924498 0.38352 0.582238
0.934356 0.398947 0.600992
0.0829633 0.0923323 0.0826886
0.0829633 0.0923171 0.0827039
0.0829633 0.0923018 0.0827039
0.0831159 0.0923629 0.0826581
0.0955825 0.0924086 0.0829786
0.12398 0.0922866 0.0842298
0.15581 0.0917372 0.0872206
0.188083 0.0914778 0.0924239
0.223377 0.0920729 0.0983902
0.260868 0.0925154 0.104555
0.302037 0.093492 0.110918
0.345281 0.0937209 0.120104
0.39028 0.0937362 0.131365
0.437766 0.0941939 0.14406
0.48368 0.0950027 0.157275
0.526955 0.0965896 0.170672
0.565255 0.0991836 0.185382
0.599344 0.104021 0.201251
0.628138 0.111986 0.219684
0.650919 0.123903 0.240864
0.671473 0.142519 0.264485
0.692973 0.163806 0.290517
0.718196 0.185351 0.319646
0.736202 0.200565 0.343633
0.751781 0.214633 0.367025
0.774273 0.235996 0.394156
0.799161 0.258427 0.422721
0.823804 0.279927 0.452232
0.850813 0.303807 0.482795
0.875761 0.327398 0.512352
0.897459 0.350027 0.539925
0.914427 0.370642 0.563684
0.924681 0.38471 0.580316
0.082948 0.0923476 0.0827039
0.0829633 0.0923323 0.0827039
0.0829786 0.0923323 0.0826886
0.0830549 0.0923781 0.0826581
0.0916762 0.092607 0.0828565
0.1131 0.0925002 0.0831617
0.14435 0.0920882 0.0855268
0.177615 0.0913863 0.0897688
0.213809 0.0918593 0.0957504
0.252552 0.0927138 0.102571
0.294286 0.0931258 0.109697
0.33959 0.0935988 0.119036
0.385595 0.0937819 0.129
0.433753 0.0943618 0.14255
0.482002 0.0950027 0.156237
0.52517 0.0965896 0.169497
0.563195 0.0991684 0.183932
0.597742 0.103929 0.19942
0.626764 0.111559 0.21799
0.649927 0.123308 0.239094
0.670329 0.141512 0.262531
0.691752 0.162676 0.289052
0.716503 0.183932 0.317739
0.735531 0.200061 0.342306
0.7505 0.213306 0.364904
0.77258 0.234302 0.391775
0.796078 0.255695 0.419257
0.820096 0.276539 0.447547
0.845335 0.298863 0.476509
0.869474 0.321309 0.504875
0.891234 0.343282 0.531609
0.907652 0.362142 0.554223
0.917952 0.37612 0.569421
0.0827649 0.094255 0.0832532
0.082826 0.0939651 0.082826
0.0834058 0.0935683 0.0826276
0.0843214 0.0933394 0.0829633
0.0889296 0.0938277 0.0832074
0.104021 0.0937972 0.0832837
0.133989 0.0932937 0.0847028
0.166384 0.0923018 0.0874342
0.203174 0.0920424 0.0925917
0.243931 0.0926833 0.0997787
0.28661 0.0934005 0.107057
0.333761 0.0934005 0.117876
0.379446 0.0938582 0.126589
0.428901 0.0944381 0.139773
0.477455 0.095079 0.15346
0.521553 0.0966354 0.167147
0.561181 0.0992142 0.181888
0.595865 0.104036 0.197436
0.625284 0.111406 0.215946
0.6486 0.122759 0.236774
0.669001 0.140505 0.260197
0.690425 0.161791 0.2869
0.714916 0.183001 0.314946
0.734493 0.199435 0.339864
0.749096 0.212177 0.362387
0.769558 0.231678 0.387747
0.792279 0.252201 0.414496
0.815747 0.272938 0.441871
0.839292 0.293797 0.469169
0.862272 0.314611 0.495903
0.883696 0.335576 0.521279
0.899855 0.35317 0.54229
0.910201 0.366033 0.556558
0.0804608 0.113832 0.0858625
0.0805371 0.11313 0.0852522
0.0817273 0.110643 0.0827955
0.0876936 0.108492 0.0827497
0.0998856 0.109133 0.0834669
0.119783 0.108385 0.085771
0.145037 0.106355 0.0871595
0.173968 0.102327 0.0872511
0.209979 0.0972457 0.0873426
0.251606 0.0956436 0.0933394
0.293019 0.0946517 0.100053
0.334661 0.0936599 0.106188
0.381247 0.0936904 0.116121
0.434073 0.0953536 0.132128
0.482765 0.0961013 0.148531
0.526162 0.0975509 0.163882
0.562921 0.101564 0.175021
0.597604 0.106783 0.191165
0.626505 0.114778 0.208972
0.649531 0.126619 0.230274
0.671168 0.145647 0.256046
0.692393 0.166262 0.282658
0.716701 0.187015 0.310719
0.734722 0.201678 0.335042
0.749249 0.214191 0.357671
0.769741 0.233417 0.383215
0.792813 0.254124 0.410697
0.815869 0.274067 0.437964
0.839536 0.295125 0.465553
0.862501 0.315831 0.492302
0.88368 0.336461 0.517845
0.899916 0.353918 0.539086
0.910124 0.366781 0.55317
0.077409 0.145693 0.0894636
0.0775158 0.145312 0.0885786
0.0779126 0.142351 0.0838331
0.0834821 0.138735 0.081651
0.101579 0.138491 0.0812543
0.126574 0.138064 0.0830701
0.15462 0.136919 0.0857557
0.189044 0.130282 0.0911727
0.220905 0.123308 0.0945602
0.253941 0.116411 0.0945296
0.289723 0.109407 0.0935683
0.333532 0.101472 0.0939345
0.38201 0.0969253 0.101427
0.432441 0.0948196 0.115618
0.476829 0.0934462 0.128679
0.52134 0.0964981 0.145754
0.567712 0.102968 0.168902
0.600885 0.107774 0.187243
0.628061 0.115099 0.207721
0.652201 0.13312 0.224125
0.671992 0.150256 0.250477
0.693843 0.170855 0.278172
0.7178 0.190188 0.306783
0.735256 0.204273 0.330907
0.749905 0.216541 0.353491
0.770092 0.235264 0.379568
0.7935 0.256107 0.40737
0.816327 0.275685 0.434607
0.840681 0.297108 0.462791
0.863706 0.31783 0.489952
0.884474 0.338247 0.515038
0.900587 0.355688 0.536446
0.910842 0.368658 0.550744
0.0719463 0.1785 0.09337
0.0720073 0.178424 0.092607
0.0744793 0.174578 0.086183
0.077348 0.171115 0.0802319
0.0962387 0.170886 0.0801862
0.126284 0.169284 0.0789349
0.154589 0.166903 0.0821698
0.186343 0.165606 0.0840314
0.231907 0.156039 0.0928206
0.275486 0.141939 0.0996567
0.307942 0.134997 0.100908
0.343343 0.126925 0.100633
0.383841 0.116686 0.100404
0.426139 0.105852 0.101839
0.472892 0.100084 0.112932
0.518395 0.0992905 0.130724
0.554925 0.0983597 0.146899
0.592691 0.105257 0.170062
0.631083 0.120119 0.20058
0.65185 0.132601 0.223545
0.672221 0.15198 0.248417
0.695872 0.175555 0.274571
0.720088 0.194903 0.30312
0.735744 0.207523 0.325444
0.750668 0.219837 0.348318
0.770306 0.237324 0.374945
0.793835 0.258091 0.403067
0.816617 0.277531 0.430564
0.841367 0.299062 0.459236
0.864805 0.320211 0.486503
0.88571 0.340551 0.512123
0.901625 0.357839 0.533867
0.911711 0.370382 0.548531
0.0653239 0.213535 0.0993515
0.0652781 0.213428 0.0981918
0.06804 0.210376 0.0910201
0.0706951 0.207141 0.0818341
0.0872816 0.206806 0.0783703
0.122011 0.205844 0.0780957
0.151125 0.203952 0.0779431
0.183017 0.199969 0.0818036
0.222599 0.198108 0.0829023
0.27895 0.186862 0.0960403
0.332128 0.168673 0.107836
0.371954 0.159091 0.111604
0.404105 0.151766 0.112093
0.439918 0.140566 0.112078
0.478737 0.12694 0.112734
0.515526 0.114305 0.116732
0.553552 0.10901 0.130907
0.588403 0.108995 0.151904
0.612253 0.110384 0.172122
0.64329 0.129442 0.206287
0.673014 0.157244 0.242741
0.695171 0.17528 0.272389
0.717525 0.191592 0.301259
0.735759 0.210849 0.318639
0.75108 0.223224 0.341695
0.770703 0.24036 0.368231
0.794232 0.260822 0.396521
0.817441 0.280568 0.42501
0.842756 0.302342 0.454398
0.866163 0.323278 0.482414
0.886763 0.343221 0.508095
0.903136 0.360784 0.530663
0.913085 0.373495 0.545327
0.0608377 0.252537 0.109346
0.0607919 0.252567 0.108202
0.0624704 0.250141 0.0990463
0.0651102 0.247257 0.0886702
0.0781872 0.246342 0.0762341
0.107301 0.247974 0.0773327
0.144793 0.246296 0.0776989
0.177539 0.243763 0.0776989
0.218418 0.239322 0.0833143
0.266438 0.237995 0.082948
0.330144 0.226703 0.101381
0.391501 0.207889 0.119692
0.438422 0.193027 0.128008
0.469368 0.187579 0.130175
0.503319 0.178119 0.131395
0.538521 0.166354 0.133776
0.56936 0.151125 0.135683
0.594827 0.133028 0.141375
0.617319 0.126436 0.159808
0.635752 0.129732 0.186465
0.653895 0.143236 0.215793
0.688884 0.173709 0.255711
0.720592 0.199695 0.293477
0.731914 0.206989 0.314931
0.746014 0.216922 0.339391
0.77055 0.243885 0.360052
0.794598 0.264607 0.389044
0.818753 0.284718 0.418219
0.844419 0.306661 0.447913
0.867964 0.327688 0.476646
0.888487 0.34725 0.50309
0.904402 0.364828 0.525567
0.914992 0.377829 0.541009
0.0583352 0.295628 0.121889
0.057969 0.29575 0.121477
0.0594492 0.294453 0.112032
0.0621195 0.292531 0.0998245
0.0693675 0.291157 0.0818647
0.0887922 0.293202 0.0768292
0.127611 0.294606 0.0790875
0.170306 0.292348 0.0795605
0.211215 0.289952 0.0801709
0.26128 0.285557 0.0872969
0.317357 0.284855 0.0839246
0.384558 0.274815 0.108965
0.450187 0.256687 0.132769
0.503059 0.238239 0.14844
0.536889 0.230304 0.153231
0.566949 0.224475 0.156024
0.597833 0.21471 0.158938
0.625971 0.200412 0.163119
0.644404 0.18291 0.167529
0.650477 0.163317 0.177249
0.65742 0.158312 0.201678
0.669978 0.160754 0.227176
0.706645 0.188617 0.267231
0.732189 0.215213 0.300664
0.746166 0.222919 0.327489
0.76434 0.236225 0.357076
0.78854 0.25684 0.388312
0.820249 0.289891 0.410178
0.845579 0.311421 0.439902
0.869902 0.332921 0.469429
0.889647 0.351919 0.495689
0.906416 0.370062 0.519646
0.916106 0.382223 0.534646
0.0597543 0.345403 0.137316
0.0592813 0.346014 0.13724
0.0609445 0.345129 0.129625
0.0640879 0.342947 0.115419
0.0680095 0.342718 0.0986191
0.0771496 0.342473 0.0839399
0.10605 0.346624 0.0835279
0.154101 0.348791 0.0847181
0.204166 0.34583 0.0844434
0.251652 0.34139 0.0847791
0.309514 0.336065 0.0935836
0.371817 0.335836 0.0840314
0.436042 0.328893 0.114504
0.507195 0.311345 0.147555
0.561883 0.29485 0.168368
0.600198 0.281926 0.180148
0.62742 0.276234 0.185382
0.656886 0.267201 0.189822
0.681804 0.253391 0.195087
0.695323 0.236744 0.20148
0.695308 0.217655 0.211337
0.684459 0.19382 0.218112
0.696727 0.188602 0.242466
0.713634 0.200214 0.268315
0.742748 0.229206 0.306172
0.764874 0.244617 0.341054
0.788113 0.261357 0.376028
0.811307 0.278767 0.408759
0.838575 0.302235 0.439979
0.871626 0.338903 0.461036
0.891844 0.358434 0.4878
0.908217 0.376333 0.511864
0.917967 0.388739 0.528054
0.0666209 0.399664 0.157427
0.0659953 0.399893 0.157122
0.0669413 0.399695 0.151019
0.0701457 0.39791 0.137926
0.0727703 0.398825 0.122957
0.0755627 0.399344 0.103929
0.0894789 0.400793 0.0927291
0.131411 0.405447 0.092256
0.187335 0.404654 0.0924849
0.245838 0.397452 0.0910048
0.296727 0.392859 0.0911269
0.362066 0.387304 0.101839
0.427405 0.38909 0.0876173
0.49131 0.382757 0.123186
0.561715 0.368597 0.163806
0.616541 0.354711 0.187915
0.658518 0.342809 0.204425
0.686549 0.33669 0.214313
0.7149 0.323278 0.22356
0.737606 0.31107 0.231922
0.747311 0.295064 0.241413
0.742855 0.277073 0.248768
0.732723 0.252033 0.253712
0.720119 0.22092 0.251499
0.723217 0.216632 0.269291
0.752422 0.243931 0.308751
0.788067 0.273167 0.353262
0.81323 0.288533 0.392096
0.83827 0.306233 0.428428
0.86302 0.326223 0.462165
0.886519 0.349233 0.489632
0.909728 0.383383 0.502739
0.918822 0.39501 0.519142
0.0760815 0.453376 0.179828
0.0753796 0.453651 0.179553
0.0753948 0.454124 0.174487
0.0768902 0.453101 0.164248
0.0794842 0.453376 0.150347
0.0823987 0.454795 0.136172
0.0865339 0.45507 0.115084
0.1131 0.457923 0.105592
0.163333 0.461952 0.103655
0.229206 0.458106 0.101549
0.295201 0.448249 0.0978103
0.346593 0.445716 0.101274
0.415976 0.440208 0.115755
0.482109 0.441413 0.0996414
0.544854 0.436851 0.134936
0.613382 0.426123 0.181323
0.671351 0.413977 0.21033
0.715541 0.402472 0.231083
0.743374 0.395758 0.243275
0.771923 0.380774 0.259159
0.791226 0.367803 0.271565
0.797467 0.354299 0.282567
0.793027 0.337667 0.289662
0.779171 0.311345 0.287541
0.755886 0.274876 0.275364
0.73315 0.236896 0.266346
0.765393 0.264118 0.311025
0.815244 0.30634 0.366201
0.84123 0.320714 0.407645
0.865766 0.337774 0.444968
0.886366 0.353506 0.47892
0.904051 0.371206 0.506844
0.914458 0.382467 0.526268
0.0856031 0.50808 0.207095
0.085069 0.508293 0.206775
0.0848402 0.508782 0.203357
0.0861372 0.508705 0.194812
0.0890516 0.508476 0.181262
0.0920119 0.509712 0.169604
0.0955062 0.511193 0.153536
0.106859 0.512612 0.130526
0.14313 0.51751 0.1205
0.204456 0.520729 0.119173
0.28014 0.513008 0.115709
0.345556 0.502037 0.110201
0.39884 0.50045 0.118288
0.470283 0.493843 0.133425
0.535698 0.494865 0.118761
0.59646 0.492576 0.150408
0.664622 0.48423 0.202152
0.723766 0.471977 0.235523
0.770062 0.460655 0.259907
0.800061 0.453361 0.276661
0.823972 0.442969 0.293339
0.841016 0.425299 0.311345
0.845304 0.412558 0.321935
0.838605 0.394141 0.324956
0.819791 0.365576 0.315022
0.79675 0.33225 0.302113
0.772885 0.294469 0.291615
0.775433 0.284306 0.30837
0.83006 0.329152 0.36817
0.867765 0.357458 0.41706
0.889265 0.370275 0.456626
0.906538 0.384436 0.489662
0.916533 0.393988 0.511131
0.0998398 0.562631 0.238712
0.099382 0.562783 0.238361
0.0994278 0.563622 0.236713
0.100389 0.563333 0.22945
0.10312 0.563317 0.216434
0.106386 0.563622 0.203647
0.110216 0.565194 0.193164
0.117357 0.567163 0.172824
0.137758 0.56965 0.148745
0.188113 0.576822 0.142397
0.261051 0.578271 0.14052
0.341115 0.56553 0.132967
0.400946 0.556603 0.128099
0.453696 0.556268 0.140902
0.52578 0.54818 0.155459
0.588403 0.54786 0.144152
0.647822 0.546502 0.173831
0.715251 0.539315 0.228824
0.775631 0.527779 0.26569
0.822156 0.516823 0.294179
0.84979 0.510399 0.312367
0.868772 0.502953 0.327337
0.883803 0.486641 0.345113
0.886931 0.467918 0.354971
0.875273 0.446189 0.349004
0.859785 0.420417 0.340505
0.8392 0.388586 0.329671
0.816251 0.353628 0.31783
0.805295 0.327443 0.321706
0.842206 0.352132 0.366247
0.885359 0.387655 0.419028
0.907347 0.405798 0.459586
0.91809 0.413199 0.487587
0.11928 0.615381 0.277424
0.118837 0.615778 0.277287
0.119097 0.616358 0.273793
0.120531 0.616159 0.266209
0.123384 0.616373 0.254002
0.127611 0.616999 0.241856
0.132479 0.618555 0.230564
0.138613 0.620127 0.215976
0.147982 0.620279 0.189212
0.181903 0.626459 0.173373
0.249744 0.634684 0.169467
0.329274 0.631434 0.164446
0.409735 0.613886 0.15108
0.458488 0.610559 0.151141
0.510582 0.609628 0.166217
0.579583 0.600473 0.181842
0.639857 0.598932 0.176242
0.697719 0.597787 0.206012
0.76733 0.59057 0.262516
0.824262 0.581262 0.30135
0.86508 0.571862 0.329259
0.889464 0.566079 0.347234
0.903716 0.561654 0.358999
0.917464 0.548165 0.373037
0.915038 0.527428 0.374029
0.907118 0.502083 0.370764
0.895628 0.475532 0.364584
0.879957 0.445823 0.35613
0.861616 0.414435 0.347036
0.845823 0.384924 0.342763
0.863569 0.388022 0.371099
0.895888 0.411551 0.415824
0.913985 0.429618 0.446265
0.144686 0.665934 0.318288
0.144396 0.666209 0.317556
0.145083 0.666804 0.313298
0.14699 0.666728 0.305089
0.149905 0.66659 0.295155
0.153719 0.667323 0.284535
0.158358 0.667872 0.271885
0.16434 0.669276 0.25951
0.173327 0.670542 0.240177
0.191241 0.671473 0.213931
0.243626 0.683726 0.204883
0.320211 0.690547 0.199924
0.403021 0.680507 0.188785
0.470344 0.665248 0.177401
0.513741 0.664103 0.181109
0.565866 0.662058 0.197299
0.632303 0.652567 0.214008
0.689723 0.649393 0.216297
0.746441 0.64831 0.245686
0.815564 0.639963 0.302358
0.864347 0.63238 0.337789
0.898939 0.625345 0.363561
0.918334 0.621424 0.379126
0.929305 0.618585 0.386648
0.935256 0.607691 0.391241
0.932631 0.591379 0.389029
0.928969 0.568902 0.386511
0.922744 0.540688 0.382849
0.913283 0.506722 0.379263
0.900633 0.475868 0.372763
0.886275 0.446204 0.366155
0.882795 0.426642 0.373953
0.903731 0.439658 0.406516
0.177661 0.715145 0.361196
0.17789 0.71545 0.359152
0.17882 0.715908 0.354879
0.18024 0.715923 0.348348
0.183078 0.716304 0.340536
0.186435 0.716518 0.331334
0.191058 0.71693 0.319203
0.196582 0.717479 0.306142
0.203769 0.718715 0.292393
0.215564 0.718853 0.268742
0.248417 0.72723 0.25153
0.315877 0.740108 0.241489
0.397009 0.742199 0.232425
0.475364 0.727062 0.218341
0.529839 0.716838 0.212467
0.568765 0.716762 0.219852
0.619364 0.713603 0.235035
0.683055 0.703548 0.251926
0.737743 0.698482 0.261128
0.793027 0.697139 0.289693
0.856046 0.688594 0.341878
0.896193 0.683314 0.375189
0.922683 0.677394 0.396338
0.938323 0.673442 0.406989
0.940703 0.672145 0.406317
0.940581 0.663386 0.404547
0.940581 0.650126 0.403082
0.940551 0.631327 0.401617
0.939483 0.608164 0.399725
0.935103 0.57818 0.396521
0.928801 0.544305 0.393683
0.921111 0.513024 0.391226
0.915343 0.493935 0.389822
0.219074 0.763912 0.409354
0.219791 0.764202 0.405692
0.220493 0.764355 0.401968
0.221881 0.764355 0.39646
0.223804 0.76437 0.389105
0.226429 0.764462 0.381048
0.229908 0.764477 0.371115
0.234867 0.764553 0.358434
0.242267 0.765454 0.34461
0.251682 0.766613 0.330175
0.269978 0.767941 0.305882
0.320073 0.7841 0.295064
0.396368 0.795529 0.28426
0.474449 0.79176 0.271824
0.545388 0.774945 0.257145
0.588037 0.769619 0.256977
0.622858 0.76965 0.265751
0.671138 0.765515 0.280156
0.731777 0.754437 0.295476
0.783383 0.746929 0.307912
0.834989 0.745861 0.335988
0.88925 0.736522 0.385428
0.919951 0.732158 0.41651
0.939834 0.72723 0.433387
0.946181 0.723384 0.436179
0.944137 0.722667 0.42948
0.943786 0.715496 0.425223
0.943801 0.703609 0.420996
0.944686 0.687205 0.418418
0.94519 0.667475 0.415717
0.945998 0.644373 0.413794
0.945113 0.617273 0.411688
0.942626 0.596033 0.41033
0.267643 0.811551 0.459846
0.269062 0.812055 0.455879
0.269932 0.812024 0.451926
0.270878 0.811749 0.446891
0.272602 0.81178 0.440742
0.274678 0.811963 0.43418
0.277424 0.812009 0.426307
0.28188 0.812299 0.415305
0.288182 0.812421 0.401602
0.296452 0.813214 0.387625
0.307973 0.813809 0.370855
0.341924 0.825025 0.356695
0.404318 0.842695 0.34519
0.47982 0.849027 0.333028
0.548852 0.840558 0.319249
0.606714 0.824613 0.306111
0.643229 0.819898 0.307546
0.67512 0.818952 0.316243
0.720729 0.813931 0.329534
0.778546 0.804013 0.345861
0.826658 0.795605 0.360571
0.871687 0.7944 0.388952
0.91545 0.785245 0.433371
0.937652 0.780209 0.45861
0.94754 0.776196 0.469825
0.94757 0.772305 0.469139
0.946441 0.771862 0.46215
0.945327 0.765301 0.456062
0.944915 0.755367 0.450782
0.946029 0.740948 0.44564
0.94754 0.723659 0.440574
0.948547 0.704067 0.435767
0.948867 0.685206 0.432929
0.316243 0.854353 0.507973
0.317433 0.85452 0.503868
0.318456 0.854597 0.499886
0.318959 0.854292 0.496132
0.320195 0.854231 0.491218
0.322118 0.854429 0.485481
0.324697 0.854841 0.47895
0.328176 0.854917 0.469383
0.333318 0.854948 0.456703
0.340414 0.854871 0.441718
0.350774 0.856458 0.428794
0.372885 0.86363 0.417624
0.417166 0.879561 0.408743
0.485344 0.892989 0.396216
0.5552 0.89308 0.382925
0.614755 0.881331 0.368078
0.661906 0.867475 0.357626
0.69398 0.863493 0.360174
0.723659 0.862181 0.367773
0.766995 0.856947 0.379416
0.822141 0.847684 0.395453
0.865873 0.840803 0.417166
0.904494 0.838804 0.442527
0.936522 0.831128 0.478004
0.94995 0.825406 0.49865
0.949783 0.819745 0.504326
0.94995 0.816739 0.504005
0.94992 0.816617 0.495735
0.949813 0.811475 0.489113
0.949874 0.80296 0.483406
0.949828 0.790341 0.478843
0.949126 0.775631 0.474357
0.948669 0.760983 0.470344
0.362081 0.891539 0.551934
0.363088 0.891569 0.548241
0.364065 0.891524 0.544106
0.364828 0.891371 0.540078
0.365988 0.891447 0.535927
0.367483 0.891676 0.531624
0.369192 0.891844 0.526619
0.371725 0.891951 0.519539
0.375708 0.892088 0.508843
0.382269 0.892287 0.494972
0.394247 0.895048 0.482124
0.411627 0.901015 0.473991
0.440742 0.911604 0.46746
0.491981 0.926665 0.456947
0.558236 0.933913 0.44152
0.620539 0.929274 0.426383
0.672282 0.915419 0.411063
0.71136 0.904204 0.403983
0.739666 0.900984 0.406821
0.768505 0.900099 0.415
0.811399 0.895323 0.427375
0.863142 0.888548 0.447547
0.901122 0.880812 0.468482
0.931044 0.877562 0.490959
0.949828 0.869307 0.519997
0.949935 0.862867 0.536233
0.949783 0.857725 0.541863
0.949905 0.854917 0.541619
0.949859 0.855909 0.53225
0.949798 0.851926 0.52604
0.949844 0.844572 0.51928
0.949905 0.833967 0.514305
0.949798 0.821958 0.50898
0.402579 0.922179 0.590524
0.403403 0.922148 0.587152
0.404227 0.922133 0.583597
0.404929 0.922148 0.580407
0.405966 0.922194 0.576761
0.407355 0.922393 0.57258
0.408911 0.922545 0.568063
0.410971 0.922713 0.562173
0.413901 0.92285 0.553841
0.419883 0.924178 0.543893
0.430381 0.926955 0.532723
0.447288 0.933013 0.522881
0.468803 0.941711 0.516823
0.499962 0.948974 0.51223
0.551751 0.948837 0.499779
0.613642 0.948959 0.485542
0.669612 0.948852 0.47187
0.71632 0.948425 0.459739
0.751522 0.939071 0.454673
0.779675 0.935027 0.457481
0.809293 0.932769 0.46511
0.851743 0.927398 0.476143
0.896193 0.920241 0.492821
0.927001 0.912551 0.512535
0.949752 0.909041 0.534005
0.949874 0.901762 0.557855
0.949752 0.895003 0.571969
0.949996 0.890593 0.578759
0.949874 0.888319 0.577996
0.949966 0.889464 0.568612
0.949783 0.886305 0.561547
0.949828 0.880934 0.555276
0.949889 0.871824 0.55079
0.433402 0.946578 0.619257
0.433753 0.946334 0.615946
0.434379 0.946242 0.613077
0.435004 0.946059 0.609461
0.435645 0.945953 0.606622
0.437171 0.94641 0.603769
0.438453 0.946624 0.600351
0.440192 0.946899 0.595895
0.443351 0.94789 0.589929
0.447684 0.948943 0.581796
0.45626 0.948821 0.572076
0.47129 0.948882 0.562768
0.491386 0.948989 0.554971
0.515999 0.948928 0.550164
0.548852 0.948898 0.546227
0.599649 0.94902 0.534783
0.656794 0.948898 0.523552
0.708659 0.94902 0.512657
0.750912 0.948837 0.503334
0.784298 0.948898 0.499977
0.813886 0.948974 0.502358
0.845792 0.949004 0.508965
0.885237 0.946609 0.518837
0.922118 0.940551 0.534051
0.946471 0.934966 0.553872
0.949889 0.930938 0.573785
0.949767 0.924498 0.595728
0.950011 0.918746 0.609827
0.949874 0.915221 0.615763
0.949874 0.914427 0.61413
0.949859 0.915969 0.605219
0.949828 0.914199 0.597391
0.949889 0.909392 0.590738
0.452461 0.948928 0.638987
0.451759 0.948913 0.635401
0.451637 0.948913 0.631312
0.452155 0.948898 0.628534
0.45275 0.948898 0.625788
0.453513 0.948882 0.623331
0.455573 0.948928 0.620951
0.457511 0.948928 0.617456
0.460365 0.948913 0.612375
0.46479 0.948943 0.606348
0.471458 0.948974 0.59884
0.483467 0.948821 0.58938
0.501122 0.948898 0.580011
0.526375 0.948806 0.574655
0.552972 0.949004 0.573358
0.587762 0.949004 0.571267
0.639307 0.948882 0.563729
0.693767 0.948989 0.556313
0.741833 0.948821 0.547005
0.781079 0.948867 0.539223
0.812039 0.948837 0.537133
0.842527 0.948806 0.540124
0.874159 0.948791 0.546365
0.908904 0.948821 0.555398
0.938888 0.948837 0.571633
0.949828 0.94612 0.592447
0.949844 0.943069 0.612253
0.949722 0.938262 0.632044
0.949981 0.934295 0.646372
0.949844 0.931868 0.652033
0.949859 0.932143 0.6486
0.949966 0.933196 0.639521
0.949828 0.932128 0.630961
0.460334 0.948943 0.648493
0.45893 0.948989 0.644236
0.458183 0.948974 0.640604
0.45832 0.948974 0.637232
0.458656 0.948959 0.635111
0.459464 0.948959 0.632776
0.46038 0.948959 0.630655
0.463157 0.949004 0.628397
0.466285 0.948989 0.624628
0.472145 0.948837 0.620417
0.479347 0.948837 0.614145
0.489738 0.948867 0.607248
0.509361 0.948943 0.601358
0.533364 0.948898 0.596414
0.560739 0.948867 0.594354
0.589975 0.948837 0.595499
0.627771 0.948852 0.596689
0.678859 0.948974 0.592752
0.728542 0.948821 0.586206
0.772549 0.948867 0.577432
0.806821 0.948867 0.57142
0.8365 0.948837 0.57116
0.867308 0.948821 0.57528
0.896544 0.948821 0.580957
0.925429 0.948806 0.589303
0.949752 0.948989 0.606943
0.949966 0.947829 0.627878
0.949844 0.946883 0.647486
0.949737 0.944732 0.668177
0.949935 0.942367 0.682368
0.950011 0.941176 0.687953
0.949996 0.942138 0.681712
0.949981 0.942657 0.671946
0.475288 0.948898 0.660517
0.472908 0.948867 0.656062
0.471061 0.948867 0.651789
0.470298 0.948852 0.64863
0.470481 0.948852 0.645838
0.471092 0.948852 0.644038
0.471717 0.948837 0.641978
0.473869 0.948837 0.639475
0.478325 0.948898 0.637324
0.483192 0.948898 0.63447
0.493339 0.948974 0.631296
0.507027 0.948821 0.627878
0.524224 0.948913 0.624979
0.546258 0.948837 0.621653
0.572671 0.948974 0.6206
0.601389 0.948989 0.621149
0.633021 0.948959 0.624659
0.670619 0.948974 0.626902
0.716625 0.948852 0.62324
0.762737 0.948913 0.616678
0.801602 0.948928 0.608133
0.832044 0.948898 0.60473
0.861341 0.948867 0.606668
0.890379 0.948852 0.611093
0.915801 0.948791 0.615534
0.937713 0.948943 0.624048
0.949844 0.94786 0.641291
0.949844 0.946517 0.662348
0.949767 0.945724 0.682963
