bundles/resolve-cinematic-luts/Phantom Luts/A7s3 Phntm Arri LUTs G7/ATOMOS Monitoring LUTs/Slog2+Sgamut3cine/Jamaica A7s3 Sl2sg3c AML.cube
TITLE "Generated by Resolve"
LUT_3D_SIZE 5
0.0711833 0.0847181 0.0707103
0.273426 0.0831311 0.0985733
0.609461 0.0995499 0.210315
0.786328 0.243442 0.419409
0.949889 0.443153 0.665965
0.0528267 0.314488 0.119905
0.26775 0.294163 0.0741741
0.627741 0.189105 0.155154
0.773434 0.240162 0.378607
0.940475 0.421332 0.603601
0.166278 0.712734 0.374197
0.203998 0.718868 0.282887
0.684443 0.699687 0.246967
0.934813 0.668971 0.402411
0.937285 0.49897 0.449134
0.450324 0.948974 0.664363
0.459068 0.948959 0.634836
0.679225 0.949004 0.596338
0.941131 0.945205 0.614862
0.949905 0.928191 0.680537
0.720958 0.948867 0.826474
0.707652 0.948959 0.808011
0.764446 0.948898 0.810529
0.908537 0.94754 0.825788
0.949966 0.942184 0.872435
0.0694438 0.0817273 0.216037
0.269627 0.0783398 0.251667
0.619608 0.0928969 0.324483
0.787396 0.236637 0.458915
0.949889 0.448692 0.696773
0.0529183 0.286259 0.260517
0.259449 0.28571 0.252171
0.668681 0.159609 0.252934
0.797024 0.254826 0.424857
0.949859 0.480995 0.696529
0.159792 0.703136 0.445548
0.171618 0.712535 0.367605
0.679179 0.695033 0.247059
0.945739 0.640742 0.427405
0.949828 0.534966 0.609903
0.447044 0.948959 0.686519
0.450843 0.948974 0.661051
0.646326 0.948806 0.60679
0.940856 0.944884 0.615198
0.949828 0.925292 0.685283
0.727489 0.948928 0.836759
0.72488 0.948913 0.826856
0.766445 0.948959 0.821546
0.906493 0.948058 0.826093
0.949935 0.942779 0.871199
0.0880446 0.0842298 0.478798
0.277409 0.0776532 0.52398
0.579889 0.0997635 0.558145
0.723751 0.185306 0.574563
0.926665 0.40531 0.765606
0.0529793 0.21001 0.506249
0.145312 0.146288 0.56524
0.596323 0.107546 0.566949
0.729564 0.185016 0.555291
0.946212 0.44564 0.773327
0.158846 0.645274 0.617548
0.163592 0.648905 0.611734
0.631968 0.638514 0.603479
0.949966 0.544839 0.599145
0.949844 0.592035 0.778378
0.43621 0.945724 0.757519
0.438926 0.948821 0.742763
0.55729 0.948852 0.688304
0.934417 0.938918 0.652583
0.949783 0.907134 0.737758
0.727596 0.948974 0.85919
0.723415 0.948959 0.851377
0.755505 0.948913 0.841611
0.899016 0.948943 0.830686
0.949966 0.942153 0.872801
0.12958 0.105196 0.592355
0.257649 0.0952773 0.626856
0.488838 0.110933 0.643595
0.687083 0.193545 0.695415
0.749004 0.271931 0.756298
0.0865492 0.182345 0.605219
0.106203 0.12575 0.593545
0.490425 0.119539 0.659022
0.687922 0.194766 0.697948
0.797971 0.320043 0.806989
0.184894 0.577249 0.722881
0.183978 0.566445 0.724804
0.546197 0.560143 0.868452
0.902052 0.427893 0.897063
0.924453 0.480598 0.91635
0.419791 0.885161 0.869413
0.41976 0.887587 0.866026
0.498436 0.919692 0.887572
0.885008 0.895445 0.868833
0.944915 0.876371 0.891875
0.71191 0.948943 0.916915
0.7149 0.948913 0.911254
0.760525 0.948882 0.907012
0.860441 0.948837 0.887678
0.948821 0.941558 0.896162
0.144564 0.1252 0.617594
0.200961 0.105364 0.624216
0.4757 0.123796 0.673564
0.676463 0.185199 0.706874
0.695811 0.21619 0.72517
0.103655 0.198489 0.6271
0.101625 0.188846 0.625071
0.442191 0.120165 0.671839
0.676158 0.184604 0.706767
0.698253 0.219806 0.727459
0.206378 0.568978 0.75404
0.205997 0.557595 0.756786
0.429435 0.550561 0.89073
0.904479 0.459648 0.933028
0.742809 0.275502 0.771084
0.392187 0.84123 0.875441
0.393439 0.841672 0.876188
0.455146 0.873793 0.9243
0.858015 0.874556 0.931197
0.93521 0.820157 0.941634
0.657938 0.948989 0.949966
0.667506 0.948806 0.949798
0.724315 0.948959 0.94995
0.855482 0.945281 0.946563
0.947112 0.941176 0.946303
