bundles/resolve-cinematic-luts/Phantom Luts/A7s3 Phntm Arri LUTs G7/ATOMOS Monitoring LUTs/Slog2+Sgamut3cine/Jamaica A7s3 Sl2sg3c AML.cube
TITLE "Generated by Resolve"
LUT_3D_SIZE 33
0.0711833 0.0847181 0.0707103
0.0711833 0.0847181 0.0707103
0.0711833 0.0847181 0.0707103
0.0719463 0.0848402 0.0705577
0.0970016 0.0835279 0.07187
0.140108 0.0831311 0.0770275
0.183413 0.0837262 0.0838941
0.227741 0.0836347 0.0910506
0.273426 0.0831311 0.0985733
0.320485 0.0826886 0.106493
0.367315 0.0835889 0.114565
0.413931 0.0827955 0.12752
0.459937 0.0834821 0.142794
0.504021 0.0857862 0.158816
0.544503 0.0895552 0.175418
0.580346 0.0942855 0.19237
0.609461 0.0995499 0.210315
0.632975 0.107942 0.230838
0.651911 0.120378 0.253101
0.670939 0.137209 0.277424
0.691371 0.156802 0.303059
0.713741 0.176333 0.330816
0.737377 0.197543 0.36022
0.760143 0.219333 0.388464
0.786328 0.243442 0.419409
0.81442 0.268116 0.452735
0.84303 0.293477 0.487297
0.87042 0.31899 0.522332
0.897154 0.347524 0.559106
0.918975 0.375723 0.593011
0.935042 0.402319 0.622919
0.946029 0.425925 0.64863
0.949889 0.443153 0.665965
0.0711833 0.0847334 0.0707256
0.0711833 0.0847181 0.0707103
0.0711833 0.0847181 0.0707103
0.0717632 0.0848554 0.070573
0.0931106 0.0840772 0.071397
0.134905 0.0833295 0.0760357
0.178439 0.0837415 0.0827649
0.22356 0.0839551 0.0902571
0.26978 0.0832685 0.0976272
0.317815 0.0827497 0.105776
0.366354 0.0832227 0.114885
0.412757 0.0829328 0.12694
0.459251 0.0835126 0.142229
0.504723 0.085832 0.159091
0.544884 0.0896162 0.175555
0.580697 0.0943618 0.192554
0.60972 0.0995804 0.210513
0.633036 0.108034 0.230747
0.651804 0.120455 0.252461
0.670497 0.137102 0.275975
0.690547 0.156466 0.301076
0.712581 0.175784 0.328008
0.735973 0.196628 0.356619
0.758556 0.218051 0.384329
0.783307 0.241245 0.414084
0.810407 0.265309 0.446296
0.838117 0.289357 0.479011
0.864561 0.313787 0.512261
0.890166 0.33994 0.546517
0.911604 0.366155 0.57847
0.927977 0.390372 0.606943
0.939529 0.412085 0.63064
0.945815 0.427115 0.646357
0.0711223 0.0848096 0.0707256
0.0711833 0.0847791 0.0706951
0.0712444 0.0847791 0.0706951
0.0714427 0.0849317 0.070573
0.0859541 0.0851453 0.0709697
0.120134 0.0842756 0.0737011
0.163012 0.0844739 0.0798352
0.208682 0.0842451 0.0869459
0.256916 0.0838788 0.0946059
0.306447 0.0831159 0.102541
0.357992 0.0826429 0.113649
0.407523 0.0826429 0.125689
0.454383 0.0835737 0.139162
0.501045 0.0858625 0.156817
0.543297 0.0896315 0.174334
0.57911 0.0943313 0.190951
0.608377 0.0996719 0.208545
0.631861 0.107759 0.228672
0.650721 0.119829 0.250629
0.669535 0.136431 0.274037
0.689616 0.15581 0.299351
0.711376 0.174899 0.326131
0.734401 0.195209 0.354696
0.756924 0.216419 0.382467
0.781384 0.239597 0.411719
0.807813 0.262898 0.442679
0.834623 0.286473 0.474952
0.860212 0.309636 0.507225
0.885176 0.334493 0.540017
0.906569 0.359686 0.57055
0.923156 0.382681 0.598321
0.935027 0.403754 0.621042
0.941253 0.417868 0.635721
0.0701915 0.0882734 0.0711528
0.0705272 0.0878462 0.0707408
0.0726635 0.0872511 0.0700847
0.0739147 0.0868086 0.0708629
0.0815137 0.0876783 0.0712444
0.10695 0.0874342 0.0728008
0.149523 0.0870832 0.0780652
0.194446 0.0859998 0.0847486
0.243961 0.0846723 0.090898
0.295277 0.0837415 0.0991836
0.349004 0.0830243 0.108583
0.401938 0.0823987 0.124025
0.447791 0.083711 0.135561
0.496345 0.0858167 0.153033
0.539483 0.0894026 0.170901
0.576333 0.0942245 0.187823
0.606958 0.0998245 0.205936
0.630594 0.107652 0.225895
0.649866 0.119615 0.247883
0.668528 0.136004 0.271794
0.688426 0.155093 0.296803
0.710109 0.174166 0.323644
0.732845 0.194141 0.351843
0.754589 0.214572 0.37911
0.778714 0.237293 0.40798
0.804685 0.260349 0.438666
0.83061 0.283009 0.469398
0.85568 0.305531 0.500542
0.879347 0.328496 0.53135
0.900587 0.352453 0.560754
0.917357 0.374762 0.587045
0.929534 0.394247 0.60914
0.936065 0.407492 0.62298
0.0638132 0.119234 0.0770581
0.0641337 0.118181 0.075761
0.0683909 0.114504 0.0704662
0.0798505 0.110903 0.0699779
0.100298 0.111727 0.0713359
0.13051 0.111055 0.0772412
0.16582 0.106661 0.0801709
0.206683 0.100725 0.0820325
0.254139 0.0939498 0.0835584
0.305852 0.0910048 0.0914931
0.356664 0.0888838 0.0991379
0.401526 0.0867933 0.106889
0.447715 0.0861677 0.120821
0.499641 0.0871901 0.142016
0.543053 0.0911116 0.163958
0.57908 0.0958267 0.182895
0.607675 0.103349 0.196002
0.631907 0.112566 0.215991
0.651408 0.125093 0.23856
0.670741 0.142321 0.263691
0.690394 0.160632 0.289296
0.71165 0.178973 0.316304
0.734447 0.198489 0.345388
0.755169 0.217151 0.3729
0.779095 0.239384 0.401984
0.804883 0.262211 0.432746
0.830915 0.28481 0.464195
0.85597 0.307042 0.495567
0.880049 0.330327 0.52697
0.901625 0.354467 0.556558
0.917845 0.376013 0.583383
0.929915 0.395621 0.605158
0.936263 0.408621 0.619074
0.0569467 0.167742 0.0823835
0.0572366 0.167102 0.0809339
0.0605936 0.162783 0.0739452
0.073228 0.157076 0.0677501
0.104952 0.155962 0.0692454
0.140108 0.156008 0.0725719
0.181003 0.154574 0.0777752
0.23061 0.143069 0.0871748
0.27158 0.133043 0.0926986
0.313634 0.123491 0.0932021
0.357839 0.113069 0.0910353
0.404929 0.101106 0.09131
0.453071 0.0941939 0.100175
0.499031 0.0911421 0.118959
0.535103 0.0892958 0.135317
0.572885 0.096849 0.16022
0.609522 0.105852 0.187503
0.632197 0.114137 0.210407
0.650141 0.125093 0.235218
0.67364 0.151202 0.253773
0.692134 0.166155 0.282048
0.713436 0.183917 0.309606
0.735454 0.201999 0.339025
0.755596 0.219837 0.367041
0.779736 0.241962 0.39649
0.80528 0.264225 0.427466
0.831586 0.286809 0.459846
0.856809 0.309087 0.491432
0.881148 0.332464 0.523064
0.902876 0.357 0.553262
0.918959 0.378637 0.579843
0.930892 0.397848 0.602335
0.936934 0.410941 0.6159
0.0530709 0.216068 0.0907912
0.0530556 0.215991 0.0888533
0.052903 0.211246 0.078584
0.0617838 0.206073 0.0639048
0.0994583 0.20528 0.0658274
0.143359 0.20322 0.0669871
0.181659 0.200443 0.0719921
0.227268 0.19823 0.075349
0.288701 0.184268 0.0899977
0.343603 0.164645 0.101976
0.380819 0.15584 0.104631
0.419089 0.144381 0.104784
0.459098 0.128985 0.103807
0.497948 0.112169 0.105226
0.536049 0.101747 0.115526
0.571206 0.101595 0.138918
0.596765 0.102327 0.160433
0.62533 0.114733 0.190417
0.653025 0.133974 0.225101
0.670832 0.148745 0.251667
0.691402 0.167193 0.277806
0.714748 0.188876 0.302602
0.736645 0.206821 0.331731
0.756054 0.223133 0.359609
0.780407 0.244968 0.389822
0.806165 0.266972 0.421607
0.832319 0.289113 0.454368
0.857725 0.311223 0.486763
0.882216 0.335149 0.518944
0.903807 0.359762 0.549111
0.920256 0.381643 0.576135
0.931746 0.400198 0.598627
0.938262 0.413123 0.61355
0.0529641 0.264805 0.103243
0.0529641 0.264714 0.101091
0.0529335 0.260807 0.0875715
0.0529335 0.257084 0.0702525
0.0839094 0.256962 0.0622873
0.138903 0.254246 0.0636149
0.179522 0.250813 0.0651408
0.223255 0.24654 0.0726177
0.275669 0.243854 0.0732586
0.345632 0.229389 0.0940261
0.40621 0.208286 0.112337
0.448768 0.193637 0.119783
0.482307 0.184176 0.121477
0.516655 0.17052 0.122438
0.549386 0.15317 0.124285
0.57702 0.134218 0.129442
0.598901 0.119722 0.139574
0.620737 0.12108 0.167239
0.633631 0.12398 0.191577
0.663828 0.149935 0.23032
0.692775 0.174014 0.268025
0.712734 0.187381 0.298207
0.733227 0.202213 0.329625
0.756039 0.227283 0.350149
0.78056 0.248707 0.381079
0.806943 0.270954 0.413108
0.833005 0.292592 0.446128
0.858824 0.314885 0.479149
0.884031 0.339101 0.512764
0.905211 0.363073 0.54377
0.921416 0.384802 0.571054
0.932754 0.403693 0.594293
0.939162 0.416403 0.609354
0.0528267 0.314488 0.119905
0.052842 0.314565 0.118441
0.0529641 0.311711 0.103792
0.0527657 0.308751 0.0857404
0.0701152 0.308583 0.059205
0.121462 0.308751 0.0611887
0.172137 0.304616 0.0640879
0.216022 0.300221 0.0658885
0.26775 0.294163 0.0741741
0.32813 0.292271 0.0719005
0.399161 0.279011 0.0978103
0.463584 0.258244 0.123232
0.512703 0.237293 0.13904
0.542763 0.228458 0.143496
0.573983 0.217304 0.146059
0.604028 0.204761 0.150484
0.627741 0.189105 0.155154
0.641505 0.169268 0.163165
0.641489 0.148836 0.174121
0.653147 0.149523 0.204196
0.672023 0.160876 0.234165
0.712276 0.196475 0.279728
0.734691 0.210925 0.315419
0.750637 0.221393 0.345159
0.773434 0.240162 0.378607
0.806821 0.274723 0.40267
0.833524 0.296712 0.435874
0.859983 0.319509 0.4701
0.885847 0.344457 0.504387
0.907286 0.368368 0.536553
0.923278 0.389685 0.564797
0.934554 0.408759 0.588357
0.940475 0.421332 0.603601
0.0528115 0.366659 0.138308
0.0528115 0.366888 0.137484
0.052781 0.365789 0.124651
0.0529641 0.364401 0.105745
0.057023 0.363943 0.0710918
0.0948043 0.365545 0.0601358
0.150622 0.363729 0.0654459
0.20647 0.356985 0.0679026
0.256931 0.351125 0.069276
0.31693 0.344686 0.0785077
0.381826 0.343481 0.0702068
0.44979 0.333013 0.101228
0.51751 0.313573 0.135668
0.56875 0.295125 0.15787
0.603174 0.282536 0.169467
0.63151 0.27216 0.175814
0.658137 0.260624 0.18085
0.679301 0.245655 0.187564
0.688853 0.227878 0.194278
0.685924 0.206592 0.204273
0.675669 0.182437 0.213382
0.686213 0.177493 0.238804
0.724086 0.210056 0.28481
0.750484 0.231846 0.323415
0.773342 0.246723 0.362448
0.79939 0.266148 0.400122
0.826566 0.287877 0.43592
0.861204 0.325139 0.459358
0.887587 0.35053 0.494255
0.908537 0.374075 0.52697
0.92459 0.395377 0.555947
0.935668 0.414008 0.580468
0.941817 0.426917 0.596521
0.052903 0.418006 0.158587
0.0530251 0.418647 0.158618
0.0528725 0.418021 0.147967
0.0527962 0.416358 0.129076
0.0529641 0.417304 0.102602
0.0701152 0.41796 0.0725414
0.119554 0.420203 0.0695506
0.183459 0.417609 0.0741436
0.248234 0.407706 0.0744945
0.302083 0.40145 0.0745556
0.368429 0.39501 0.086305
0.436118 0.395346 0.0725109
0.502113 0.387106 0.10808
0.569436 0.371756 0.151354
0.622736 0.356481 0.179446
0.659846 0.34519 0.195544
0.686152 0.336919 0.205753
0.713115 0.321035 0.21651
0.73225 0.306874 0.224414
0.740063 0.290074 0.233036
0.732723 0.266911 0.238025
0.721004 0.240589 0.243244
0.711894 0.211337 0.249149
0.732433 0.224933 0.284077
0.773861 0.261845 0.335256
0.799619 0.275853 0.378256
0.825956 0.293217 0.419669
0.85243 0.313115 0.459129
0.880232 0.338888 0.49546
0.910002 0.380972 0.516274
0.925795 0.402335 0.545892
0.936965 0.420829 0.571084
0.942977 0.433707 0.587671
0.0532692 0.469596 0.182422
0.0529946 0.469764 0.181979
0.0530556 0.469902 0.173754
0.0528573 0.468315 0.157183
0.0576638 0.469718 0.136843
0.066804 0.470802 0.107561
0.0911269 0.472663 0.0879835
0.150805 0.476143 0.0865949
0.225071 0.469932 0.0852216
0.296605 0.456672 0.080705
0.350958 0.452766 0.0839704
0.421668 0.446189 0.0986191
0.490105 0.447242 0.0843977
0.553903 0.441428 0.121645
0.619745 0.429404 0.170916
0.673243 0.416739 0.201709
0.7131 0.405921 0.222324
0.738293 0.401419 0.234073
0.765332 0.385122 0.249866
0.783719 0.367102 0.263035
0.789029 0.35079 0.271885
0.783368 0.330587 0.277302
0.769909 0.303685 0.277653
0.750271 0.266468 0.272114
0.742962 0.244648 0.282414
0.786526 0.280659 0.336934
0.82562 0.307561 0.389364
0.853391 0.323995 0.436667
0.880323 0.34464 0.480751
0.902815 0.36669 0.519112
0.921614 0.391638 0.548806
0.937484 0.428367 0.559426
0.943557 0.441245 0.577081
0.0613107 0.520119 0.210498
0.0607309 0.520378 0.210193
0.060853 0.520867 0.203845
0.0623789 0.519844 0.190005
0.0699626 0.520577 0.171893
0.0783398 0.522576 0.152331
0.086305 0.52314 0.122774
0.124163 0.52726 0.107134
0.193576 0.529931 0.102602
0.276295 0.520485 0.0979324
0.347539 0.507347 0.0917372
0.403235 0.505592 0.100404
0.476448 0.498741 0.118059
0.542336 0.499809 0.104097
0.603616 0.496178 0.138918
0.667048 0.488289 0.191531
0.721691 0.477256 0.226459
0.762646 0.466819 0.250385
0.787869 0.462013 0.264225
0.812894 0.449973 0.280949
0.830777 0.429694 0.298787
0.836713 0.411246 0.309804
0.831907 0.391928 0.314458
0.817853 0.364446 0.312703
0.793744 0.328084 0.300023
0.767193 0.28426 0.29044
0.80061 0.304204 0.337072
0.855192 0.346746 0.401877
0.882155 0.3617 0.452934
0.904402 0.379705 0.497154
0.92195 0.397299 0.535973
0.934066 0.415396 0.565911
0.94081 0.427482 0.586633
0.0764172 0.569924 0.24564
0.0759289 0.570077 0.245411
0.0767681 0.570565 0.241596
0.0816663 0.570947 0.23006
0.088777 0.571389 0.211398
0.0942245 0.572717 0.195972
0.100816 0.574228 0.175937
0.118288 0.575967 0.145235
0.167361 0.58262 0.12987
0.247242 0.585 0.124834
0.336294 0.570504 0.116243
0.401831 0.55996 0.111376
0.456931 0.558984 0.124651
0.530037 0.550988 0.142901
0.592981 0.551171 0.131426
0.651041 0.549706 0.161944
0.713359 0.543633 0.217197
0.766354 0.534066 0.254261
0.807691 0.524498 0.280735
0.831983 0.519768 0.296162
0.852445 0.512093 0.310597
0.870253 0.495781 0.32781
0.878889 0.472251 0.342748
0.876295 0.450874 0.347906
0.8598 0.421454 0.33991
0.838132 0.386725 0.328939
0.815198 0.349386 0.319509
0.824262 0.340368 0.34406
0.872877 0.376211 0.404074
0.903441 0.402335 0.459251
0.921553 0.415183 0.506783
0.934539 0.429801 0.543725
0.941665 0.440482 0.56791
0.105013 0.62002 0.284306
0.10457 0.620157 0.284016
0.105043 0.620905 0.281727
0.106783 0.620798 0.272465
0.110826 0.621012 0.256458
0.116197 0.621637 0.239948
0.122377 0.623453 0.225971
0.133288 0.62504 0.200748
0.160739 0.627985 0.169711
0.225498 0.637232 0.157687
0.314305 0.636057 0.150469
0.403998 0.616159 0.136584
0.458198 0.611048 0.136294
0.513695 0.611032 0.153216
0.583413 0.602121 0.171969
0.64303 0.601312 0.166842
0.697917 0.600977 0.195758
0.759899 0.594705 0.250919
0.808911 0.587884 0.288212
0.845808 0.58053 0.314199
0.86833 0.575967 0.329351
0.884565 0.570642 0.340566
0.900114 0.557321 0.354314
0.910643 0.537514 0.366629
0.908553 0.50985 0.369787
0.896635 0.478431 0.364904
0.880476 0.446479 0.356542
0.860975 0.411078 0.348379
0.854093 0.385962 0.355795
0.891524 0.409033 0.408789
0.91812 0.436805 0.459693
0.931991 0.453681 0.505302
0.939727 0.461707 0.537591
0.132464 0.66714 0.327962
0.132296 0.667475 0.327901
0.133028 0.668025 0.323995
0.13518 0.668162 0.314702
0.139376 0.668772 0.301137
0.144808 0.669795 0.286427
0.151812 0.671641 0.27219
0.160937 0.673274 0.254231
0.175616 0.67303 0.222126
0.217517 0.681163 0.200259
0.29929 0.689967 0.189059
0.391455 0.680629 0.176806
0.467781 0.663081 0.163745
0.5149 0.662013 0.169558
0.568933 0.660777 0.18732
0.634836 0.651576 0.206668
0.691127 0.650095 0.209537
0.743404 0.650263 0.23772
0.804273 0.643687 0.2907
0.845685 0.638529 0.324971
0.877134 0.632227 0.348058
0.896498 0.628763 0.361593
0.90808 0.626429 0.368933
0.921965 0.615976 0.379889
0.92961 0.599039 0.385916
0.927779 0.575601 0.384756
0.923568 0.545449 0.383001
0.913802 0.506813 0.380102
0.900694 0.472587 0.374731
0.890745 0.44361 0.375647
0.908629 0.446052 0.411826
0.929641 0.469535 0.458915
0.938216 0.485557 0.492149
0.166278 0.712734 0.374197
0.166308 0.712963 0.373342
0.167407 0.713527 0.368429
0.16968 0.713787 0.359548
0.173114 0.714183 0.347829
0.1785 0.71516 0.335088
0.184527 0.716136 0.320668
0.192325 0.717906 0.306233
0.203998 0.718868 0.282887
0.228061 0.720241 0.251041
0.291768 0.734173 0.234531
0.38204 0.738338 0.222766
0.468971 0.721508 0.205982
0.528099 0.710781 0.200732
0.569192 0.711192 0.210208
0.622339 0.709072 0.228061
0.684443 0.699687 0.246967
0.737346 0.697673 0.256565
0.787518 0.697643 0.283757
0.842237 0.690074 0.331273
0.876448 0.685756 0.361669
0.90222 0.681468 0.382239
0.917327 0.67866 0.393057
0.925505 0.677623 0.397086
0.934813 0.668971 0.402411
0.93521 0.654841 0.400732
0.935561 0.635264 0.399207
0.935302 0.610101 0.39762
0.933806 0.578927 0.396521
0.929747 0.54226 0.396246
0.920317 0.504524 0.394141
0.921141 0.485618 0.408347
0.937285 0.49897 0.449134
0.205539 0.756313 0.421225
0.206012 0.756634 0.418875
0.207279 0.757168 0.414466
0.209171 0.757595 0.406683
0.212558 0.75845 0.39736
0.216495 0.759106 0.386328
0.221622 0.759762 0.373114
0.228595 0.760632 0.357336
0.237675 0.762173 0.341482
0.252705 0.761913 0.313497
0.293477 0.771786 0.289982
0.373114 0.785031 0.273136
0.462547 0.781292 0.258381
0.539498 0.763027 0.242878
0.585077 0.758724 0.244999
0.622034 0.759991 0.256687
0.673579 0.756725 0.272953
0.731533 0.746944 0.291524
0.781552 0.743343 0.304341
0.827161 0.742702 0.329412
0.873976 0.734356 0.37116
0.902388 0.730495 0.400473
0.920119 0.727764 0.419242
0.932021 0.725429 0.426719
0.936339 0.724544 0.42533
0.93695 0.716976 0.42298
0.937636 0.705577 0.420218
0.93904 0.688914 0.418112
0.939941 0.668559 0.415488
0.940871 0.642466 0.413352
0.941299 0.612741 0.412573
0.941344 0.584482 0.413565
0.941146 0.560998 0.418021
0.250324 0.799558 0.469398
0.251164 0.799847 0.465705
0.251881 0.800107 0.461555
0.253452 0.800473 0.455467
0.255894 0.801053 0.447578
0.259068 0.801678 0.438911
0.262989 0.802258 0.427527
0.268742 0.802853 0.412436
0.277501 0.804303 0.396384
0.288487 0.805478 0.378332
0.31136 0.807248 0.349081
0.371984 0.824811 0.331746
0.458335 0.83267 0.315099
0.538384 0.822003 0.298894
0.599771 0.807248 0.28864
0.638682 0.805203 0.294514
0.672908 0.80621 0.306523
0.722087 0.801923 0.32192
0.776577 0.792294 0.339544
0.821973 0.787198 0.353796
0.861234 0.786862 0.376089
0.90042 0.778592 0.418799
0.921263 0.774258 0.445106
0.934356 0.771496 0.4607
0.940261 0.769284 0.464027
0.938933 0.768261 0.455634
0.938201 0.762234 0.450294
0.937881 0.752102 0.445533
0.93875 0.737621 0.441901
0.940459 0.720348 0.437995
0.942535 0.699977 0.434669
0.944289 0.676219 0.432563
0.945342 0.657099 0.432212
0.294102 0.838819 0.514031
0.29546 0.839368 0.509911
0.296162 0.839551 0.505806
0.297169 0.839612 0.500664
0.299046 0.840055 0.494041
0.301457 0.840604 0.486564
0.304173 0.841077 0.477638
0.309377 0.841993 0.464759
0.316625 0.842786 0.44831
0.326436 0.844236 0.431617
0.340093 0.845228 0.411032
0.37998 0.857099 0.391455
0.455024 0.872847 0.373922
0.538354 0.872343 0.358709
0.606653 0.85713 0.342641
0.654185 0.846815 0.338231
0.687175 0.845548 0.345602
0.719188 0.845563 0.357076
0.76582 0.840269 0.370306
0.816678 0.831495 0.387335
0.856718 0.826642 0.402029
0.891829 0.82623 0.42858
0.922255 0.819654 0.467399
0.937209 0.815442 0.490349
0.947082 0.812848 0.503014
0.946807 0.809644 0.502037
0.945876 0.809491 0.492424
0.94435 0.804089 0.485222
0.94316 0.795636 0.479042
0.94229 0.783948 0.474342
0.941543 0.769619 0.469551
0.941375 0.753201 0.465187
0.942321 0.736156 0.46183
0.334691 0.873411 0.55494
0.335821 0.873732 0.549935
0.336767 0.873869 0.545541
0.33756 0.87393 0.541238
0.33901 0.874388 0.535912
0.341192 0.874937 0.529992
0.343893 0.875669 0.523064
0.347539 0.876371 0.51252
0.353475 0.877195 0.498131
0.361975 0.878065 0.480537
0.374105 0.879988 0.463645
0.398413 0.886717 0.447471
0.453895 0.902831 0.433127
0.532479 0.911574 0.417182
0.60528 0.904112 0.40029
0.661311 0.888975 0.386435
0.699931 0.88217 0.385687
0.730022 0.881041 0.392706
0.761105 0.8804 0.403265
0.806424 0.874754 0.414618
0.851865 0.86627 0.429725
0.88809 0.862776 0.453758
0.916991 0.861036 0.479728
0.939605 0.855146 0.513634
0.949828 0.850767 0.534798
0.949844 0.846616 0.542947
0.949905 0.844175 0.542275
0.949874 0.844251 0.532952
0.949859 0.840421 0.525612
0.949905 0.833982 0.519203
0.949981 0.824094 0.513619
0.948775 0.812024 0.508019
0.94725 0.79971 0.503304
0.372061 0.902586 0.591028
0.372839 0.902724 0.586526
0.373617 0.9028 0.582162
0.374548 0.902937 0.577737
0.376013 0.903502 0.573434
0.377966 0.904097 0.568521
0.380118 0.904692 0.562646
0.383001 0.905425 0.554543
0.387869 0.906294 0.542657
0.394903 0.90724 0.527077
0.407736 0.910307 0.511116
0.426673 0.916213 0.498299
0.460182 0.926818 0.486137
0.522362 0.940291 0.470436
0.597543 0.942275 0.454948
0.660395 0.931273 0.439139
0.706203 0.918318 0.428641
0.739849 0.912352 0.42887
0.769238 0.910063 0.43473
0.801678 0.908583 0.444663
0.844602 0.904051 0.458396
0.882887 0.896376 0.477928
0.914076 0.892378 0.50251
0.93666 0.890455 0.527749
0.949859 0.884062 0.558526
0.949889 0.879255 0.577996
0.949905 0.874937 0.584726
0.949737 0.872908 0.584604
0.949737 0.874037 0.573846
0.949935 0.871092 0.566873
0.949752 0.865599 0.55935
0.949798 0.857374 0.55404
0.949844 0.848142 0.548623
0.404776 0.927611 0.621958
0.405325 0.927672 0.618296
0.405997 0.927733 0.613947
0.406683 0.92781 0.610193
0.40795 0.928206 0.605997
0.409445 0.928695 0.601495
0.411063 0.929137 0.596567
0.413352 0.929778 0.58996
0.416785 0.930373 0.580255
0.423514 0.93228 0.568475
0.434821 0.935775 0.55436
0.453574 0.942275 0.541039
0.478233 0.948867 0.531167
0.516915 0.948867 0.524742
0.579736 0.948837 0.51284
0.647364 0.948913 0.500954
0.70312 0.948898 0.488624
0.744854 0.946334 0.481392
0.776806 0.940246 0.4822
0.806271 0.936004 0.487312
0.838178 0.931899 0.495811
0.875166 0.926894 0.50695
0.907362 0.919112 0.525124
0.932357 0.915297 0.548928
0.94992 0.912963 0.573266
0.94992 0.907286 0.601694
0.949783 0.901884 0.618769
0.949798 0.897856 0.625635
0.94992 0.896513 0.625177
0.949905 0.897795 0.614832
0.949828 0.895918 0.606943
0.949813 0.891829 0.599176
0.949859 0.885359 0.594385
0.430884 0.948211 0.646006
0.431189 0.948165 0.642603
0.431586 0.94815 0.639017
0.43212 0.948119 0.635081
0.432761 0.948226 0.631739
0.434028 0.948852 0.628122
0.43534 0.948974 0.624201
0.437263 0.948959 0.618738
0.441306 0.948898 0.611826
0.446632 0.948791 0.602289
0.456519 0.948852 0.591165
0.474388 0.948928 0.578683
0.498543 0.948867 0.568902
0.529915 0.948837 0.564645
0.572229 0.948882 0.562966
0.631678 0.948791 0.555367
0.69189 0.948943 0.547677
0.741726 0.948806 0.53817
0.779644 0.948806 0.533165
0.810742 0.948837 0.534112
0.841413 0.948882 0.539117
0.871321 0.945876 0.545739
0.90248 0.941909 0.555047
0.927398 0.935683 0.571099
0.945907 0.931762 0.593515
0.949798 0.928618 0.616556
0.949874 0.923079 0.642695
0.94992 0.918288 0.658335
0.949767 0.915343 0.664652
0.949752 0.914672 0.66305
0.949737 0.916106 0.653315
0.94992 0.915206 0.645426
0.949935 0.911864 0.638498
0.450324 0.948974 0.664363
0.449638 0.948974 0.660487
0.449348 0.948959 0.656291
0.449622 0.948959 0.653071
0.450141 0.948943 0.649958
0.45095 0.948943 0.647395
0.453651 0.948943 0.644312
0.455573 0.948974 0.640452
0.459068 0.948959 0.634836
0.465354 0.948989 0.628107
0.474617 0.948791 0.619791
0.490852 0.948867 0.610147
0.513741 0.948821 0.600885
0.54728 0.948974 0.597955
0.580682 0.948943 0.598856
0.622568 0.948867 0.600183
0.679225 0.949004 0.596338
0.732998 0.948867 0.589456
0.778042 0.948913 0.581643
0.811414 0.948928 0.578256
0.84097 0.948898 0.57969
0.870146 0.948867 0.584894
0.896147 0.948821 0.590524
0.921691 0.948791 0.59881
0.941131 0.945205 0.614862
0.949905 0.941299 0.637232
0.949783 0.938201 0.65861
0.949828 0.93373 0.680934
0.949859 0.930022 0.695491
0.94995 0.928038 0.701701
0.949935 0.928176 0.698619
0.94992 0.929076 0.689067
0.949905 0.928191 0.680537
0.463661 0.948882 0.676081
0.462196 0.948837 0.671626
0.461402 0.948806 0.667872
0.461128 0.948791 0.664195
0.46125 0.948791 0.661219
0.461982 0.948806 0.658686
0.462974 0.948821 0.656352
0.467262 0.948821 0.654002
0.471733 0.948867 0.65005
0.479957 0.948913 0.645808
0.489265 0.948943 0.640177
0.503059 0.948791 0.633509
0.529702 0.948989 0.629084
0.56144 0.948928 0.627024
0.594614 0.948943 0.627085
0.629282 0.948974 0.630671
0.669627 0.948989 0.633127
0.71989 0.948882 0.629511
0.767391 0.948974 0.622873
0.805661 0.948974 0.616037
0.835523 0.948928 0.614649
0.863645 0.948898 0.61796
0.89012 0.948882 0.623423
0.912902 0.948821 0.628717
0.933562 0.948974 0.637385
0.949691 0.94818 0.655589
0.949752 0.945205 0.677195
0.949798 0.942687 0.69807
0.949828 0.939529 0.718746
0.949889 0.937301 0.732265
0.949966 0.936278 0.736996
0.94995 0.936934 0.730968
0.94992 0.937255 0.721736
0.486641 0.948821 0.690593
0.484413 0.948821 0.686351
0.482597 0.948898 0.682078
0.481636 0.948974 0.678691
0.481422 0.948974 0.675715
0.482078 0.948974 0.673548
0.482689 0.948959 0.671473
0.485069 0.949004 0.668711
0.491295 0.948821 0.666712
0.498222 0.948837 0.663905
0.512474 0.948943 0.662058
0.531151 0.948821 0.660319
0.553948 0.948959 0.659251
0.581399 0.948928 0.657984
0.61146 0.948898 0.657908
0.642878 0.948882 0.659556
0.675975 0.948882 0.662776
0.713039 0.948898 0.66479
0.757916 0.948959 0.661158
0.799832 0.949004 0.654658
0.832212 0.949004 0.64976
0.859098 0.948928 0.651026
0.884276 0.948898 0.656077
0.907393 0.948837 0.660716
0.926085 0.948989 0.665385
0.940536 0.948394 0.67454
0.949798 0.945998 0.692103
0.949844 0.945068 0.714168
0.949889 0.944472 0.7355
