bundles/resolve-cinematic-luts/Phantom Luts/A7s3 Phntm Arri LUTs G7/ATOMOS Monitoring LUTs/Slog2+Sgamut3cine/Neutral A7s3 Sl2sg3c-Legacy AML.cube
TITLE "Generated by Resolve"
LUT_3D_SIZE 5
0.0833295 0.0831006 0.0831159
0.23299 0.0820783 0.105577
0.57023 0.0868544 0.203189
0.939086 0.148623 0.401419
0.945998 0.375479 0.594736
0.0675364 0.244892 0.103365
0.221942 0.239933 0.0802319
0.573526 0.146227 0.138613
0.936904 0.147112 0.359228
0.946563 0.349111 0.540032
0.10135 0.623056 0.2551
0.131655 0.625269 0.163531
0.597864 0.635416 0.176669
0.949905 0.57995 0.311269
0.949767 0.408286 0.371221
0.235447 0.946197 0.449134
0.251514 0.946227 0.412772
0.55169 0.940017 0.412757
0.904875 0.936431 0.48278
0.94995 0.913527 0.547814
0.596338 0.944656 0.694026
0.584314 0.944671 0.674113
0.658732 0.944625 0.691142
0.861219 0.941909 0.736858
0.946075 0.938811 0.803113
0.0842145 0.0833448 0.196902
0.23238 0.0809033 0.210742
0.569314 0.0812695 0.295354
0.938338 0.139864 0.446387
0.946059 0.378027 0.623621
0.0711223 0.227146 0.212284
0.229847 0.22858 0.229801
0.618738 0.126467 0.23653
0.939971 0.160143 0.408469
0.945708 0.414588 0.626932
0.102403 0.614267 0.336751
0.11545 0.617731 0.260456
0.592004 0.627985 0.184588
0.949844 0.546807 0.349218
0.946319 0.460502 0.548531
0.236286 0.942718 0.484581
0.239902 0.946014 0.450385
0.514 0.942443 0.421256
0.904326 0.936095 0.482841
0.949813 0.907088 0.559457
0.603738 0.944595 0.708736
0.604608 0.944579 0.700801
0.659983 0.944671 0.703441
0.857801 0.941924 0.737667
0.946075 0.938811 0.80325
0.102449 0.0907912 0.454398
0.2636 0.0738537 0.487556
0.573663 0.0838178 0.52694
0.933349 0.105501 0.626383
0.946258 0.32639 0.704128
0.0602426 0.176257 0.474067
0.148867 0.122545 0.545586
0.60058 0.0877699 0.548516
0.933043 0.106188 0.599084
0.946044 0.373037 0.703761
0.109087 0.574914 0.548638
0.12195 0.574044 0.548745
0.569848 0.569009 0.570535
0.946471 0.469032 0.546883
0.944884 0.519677 0.716075
0.239857 0.921767 0.61117
0.244984 0.924086 0.59382
0.442908 0.936797 0.549096
0.895277 0.9243 0.568353
0.949874 0.871275 0.648127
0.604074 0.943358 0.748226
0.606836 0.94374 0.74406
0.644633 0.94464 0.73283
0.843153 0.942061 0.744976
0.946029 0.938857 0.80441
0.132692 0.110536 0.748089
0.276341 0.0743572 0.789502
0.562631 0.0716869 0.765942
0.930816 0.102739 0.881178
0.939101 0.160418 0.8878
0.0549325 0.166644 0.757
0.101442 0.128771 0.833143
0.586954 0.0723735 0.848753
0.931044 0.103655 0.887251
0.942031 0.216464 0.909789
0.0528725 0.54609 0.775998
0.0529488 0.534096 0.800122
0.51133 0.51252 0.897612
0.941909 0.366705 0.908736
0.942123 0.404273 0.908629
0.221866 0.874846 0.8439
0.226703 0.875273 0.84448
0.414435 0.879545 0.853773
0.861967 0.861845 0.862745
0.94583 0.820386 0.881239
0.583734 0.941772 0.857511
0.59736 0.941817 0.856611
0.655772 0.942046 0.856352
0.80383 0.94403 0.849638
0.94287 0.941054 0.869673
0.131441 0.132647 0.914794
0.210742 0.109102 0.915114
0.582345 0.0722362 0.914595
0.928191 0.0939345 0.928206
0.934127 0.120226 0.934142
0.0529641 0.182513 0.88954
0.0528267 0.176913 0.907362
0.529641 0.0720836 0.914488
0.927977 0.0932479 0.927977
0.934737 0.12311 0.934737
0.0607767 0.544701 0.87895
0.0610819 0.534707 0.906706
0.379187 0.511421 0.937118
0.934813 0.411582 0.941802
0.935988 0.133913 0.935988
0.11136 0.857145 0.932708
0.130007 0.856291 0.937469
0.376959 0.852689 0.939544
0.826246 0.843061 0.945449
0.944137 0.760189 0.944121
0.537774 0.939788 0.940368
0.554482 0.939864 0.94049
0.621469 0.940108 0.940902
0.797925 0.941863 0.94226
0.941695 0.941695 0.941711
