bundles/resolve-cinematic-luts/Phantom Luts/A7s3 Phntm Arri LUTs G7/ATOMOS Monitoring LUTs/Slog2+Sgamut3cine/Neutral A7s3 Sl2sg3c-Legacy AML.cube
TITLE "Generated by Resolve"
LUT_3D_SIZE 9
0.0833295 0.0831006 0.0831159
0.104524 0.0823987 0.0838026
0.23299 0.0820783 0.105577
0.388556 0.0847486 0.144183
0.57023 0.0868544 0.203189
0.79234 0.10013 0.290822
0.939086 0.148623 0.401419
0.94667 0.264973 0.505211
0.945998 0.375479 0.594736
0.0822003 0.108812 0.0853285
0.101946 0.105745 0.0830243
0.21915 0.0866102 0.0902724
0.382696 0.0837262 0.129107
0.569848 0.0899062 0.191882
0.788632 0.104051 0.275547
0.937987 0.145846 0.383032
0.945968 0.245441 0.479393
0.946426 0.337453 0.554559
0.0675364 0.244892 0.103365
0.0893111 0.239414 0.0737469
0.221942 0.239933 0.0802319
0.430365 0.192264 0.125521
0.573526 0.146227 0.138613
0.802396 0.0928206 0.222553
0.936904 0.147112 0.359228
0.946014 0.25803 0.455344
0.946563 0.349111 0.540032
0.0782483 0.426383 0.158236
0.0840314 0.425574 0.127718
0.177768 0.432563 0.0943008
0.406622 0.43563 0.108553
0.643992 0.409506 0.19144
0.816342 0.352193 0.225544
0.949752 0.220508 0.226383
0.945296 0.273121 0.40029
0.946532 0.351919 0.527016
0.10135 0.623056 0.2551
0.110094 0.622858 0.228794
0.131655 0.625269 0.163531
0.385046 0.631266 0.152514
0.597864 0.635416 0.176669
0.84007 0.611948 0.275883
0.949905 0.57995 0.311269
0.949844 0.483482 0.312688
0.949767 0.408286 0.371221
0.157351 0.82504 0.36527
0.163058 0.824704 0.343526
0.181094 0.824338 0.296483
0.294133 0.837369 0.229191
0.592111 0.832486 0.239673
0.777676 0.830533 0.276509
0.937118 0.796231 0.415061
0.935897 0.783383 0.406867
0.932677 0.730602 0.399924
0.235447 0.946197 0.449134
0.236133 0.94638 0.432654
0.251514 0.946227 0.412772
0.348135 0.94612 0.389029
0.55169 0.940017 0.412757
0.742336 0.939818 0.432059
0.904875 0.936431 0.48278
0.949783 0.915877 0.571679
0.94995 0.913527 0.547814
0.406149 0.94551 0.554055
0.4 0.945708 0.541421
0.409918 0.945495 0.535546
0.472557 0.945449 0.54461
0.575677 0.944793 0.557534
0.731167 0.940719 0.582635
0.870726 0.940719 0.610132
0.949874 0.934447 0.653666
0.949447 0.936477 0.733349
0.596338 0.944656 0.694026
0.580148 0.944686 0.676768
0.584314 0.944671 0.674113
0.602487 0.944671 0.674922
0.658732 0.944625 0.691142
0.760311 0.942672 0.713603
0.861219 0.941909 0.736858
0.937957 0.937865 0.760235
0.946075 0.938811 0.803113
0.082002 0.0815595 0.0984512
0.103777 0.0819562 0.0988937
0.230869 0.0811322 0.152712
0.386084 0.0805066 0.178744
0.560678 0.082414 0.230671
0.775479 0.088838 0.316548
0.939269 0.147219 0.424964
0.94696 0.267185 0.523415
0.946014 0.381537 0.611704
0.082536 0.103868 0.100801
0.101167 0.100511 0.100725
0.246754 0.0855116 0.111635
0.387655 0.0847181 0.143893
0.570336 0.0872969 0.203449
0.789288 0.100664 0.289738
0.938857 0.147265 0.399405
0.946426 0.259327 0.499962
0.946197 0.364385 0.584115
0.0678264 0.242206 0.150439
0.0695201 0.243839 0.104356
0.219928 0.237125 0.0810101
0.42414 0.188525 0.127337
0.591882 0.124987 0.150088
0.823896 0.107301 0.251896
0.938781 0.161791 0.363394
0.946746 0.270085 0.480018
0.946136 0.375067 0.57258
0.0770428 0.423194 0.192691
0.079057 0.426429 0.158709
0.134737 0.431525 0.0917067
0.4056 0.434318 0.108461
0.64654 0.402625 0.198413
0.825772 0.337499 0.230533
0.949889 0.185733 0.244373
0.946334 0.280507 0.439887
0.946227 0.402502 0.544228
0.100847 0.619211 0.283696
0.102266 0.62269 0.255375
0.124025 0.625086 0.192355
0.361028 0.632319 0.155032
0.597238 0.63473 0.176593
0.846571 0.607401 0.284199
0.949981 0.570489 0.319341
0.949874 0.457465 0.320348
0.94992 0.448035 0.461509
0.158038 0.821744 0.390906
0.158129 0.824811 0.365713
0.173419 0.826078 0.325841
0.253056 0.837171 0.22797
0.586297 0.83299 0.241566
0.777478 0.830381 0.27686
0.936965 0.79353 0.420783
0.935775 0.777951 0.412314
0.936843 0.699947 0.41091
0.236347 0.945174 0.465568
0.236164 0.946197 0.449393
0.242786 0.946181 0.427039
0.32488 0.946059 0.391897
0.538231 0.940764 0.415305
0.739452 0.939742 0.43328
0.904814 0.93637 0.482841
0.949783 0.914839 0.574334
0.94995 0.910918 0.547692
0.412436 0.945541 0.566003
0.408103 0.945495 0.555184
0.414908 0.94551 0.547173
0.468132 0.945434 0.550118
0.571588 0.944991 0.562005
0.726436 0.940734 0.585229
0.869169 0.940642 0.6112
0.949874 0.934447 0.653635
0.949432 0.936492 0.733532
0.60354 0.944579 0.704036
0.597848 0.944533 0.695186
0.601068 0.944564 0.692912
0.611521 0.944595 0.687526
0.664073 0.944564 0.701671
0.759808 0.942885 0.718318
0.859861 0.941909 0.736828
0.937469 0.937926 0.760052
0.946075 0.938811 0.803128
0.0842145 0.0833448 0.196902
0.141253 0.0810864 0.20148
0.23238 0.0809033 0.210742
0.391455 0.0802167 0.251667
0.569314 0.0812695 0.295354
0.777127 0.082536 0.361669
0.938338 0.139864 0.446387
0.94667 0.264256 0.5402
0.946059 0.378027 0.623621
0.0805676 0.0954299 0.185733
0.0872816 0.084184 0.220523
0.243503 0.0812695 0.221592
0.38674 0.0804761 0.233249
0.564614 0.0795605 0.266987
0.765728 0.0831769 0.32726
0.938857 0.14284 0.428916
0.946426 0.255894 0.52047
0.946151 0.36025 0.599176
0.0711223 0.227146 0.212284
0.0734112 0.227787 0.213489
0.229847 0.22858 0.229801
0.436469 0.182818 0.223346
0.618738 0.126467 0.23653
0.790387 0.0969406 0.288838
0.939971 0.160143 0.408469
0.946777 0.287877 0.521172
0.945708 0.414588 0.626932
0.0798505 0.416724 0.260792
0.0792401 0.419318 0.238117
0.104189 0.41883 0.176165
0.405936 0.426795 0.184649
0.625284 0.387488 0.228077
0.858473 0.293019 0.261814
0.9411 0.211612 0.328984
0.946761 0.312764 0.470695
0.945876 0.435325 0.600046
0.102403 0.614267 0.336751
0.102358 0.616236 0.310933
0.11545 0.617731 0.260456
0.294286 0.628061 0.171786
0.592004 0.627985 0.184588
0.843 0.595239 0.318715
0.949844 0.546807 0.349218
0.949752 0.438087 0.361746
0.946319 0.460502 0.548531
0.158312 0.816693 0.418402
0.158785 0.818341 0.401816
0.163302 0.823804 0.367559
0.212451 0.829572 0.260014
0.573251 0.83212 0.247959
0.776165 0.829099 0.278538
0.937316 0.787472 0.440177
0.935927 0.769223 0.436606
0.941238 0.679438 0.44416
0.236286 0.942718 0.484581
0.236164 0.943618 0.472343
0.239902 0.946014 0.450385
0.289387 0.946166 0.404715
0.514 0.942443 0.421256
0.734508 0.939666 0.437232
0.904326 0.936095 0.482841
0.949828 0.912474 0.583154
0.949813 0.907088 0.559457
0.412955 0.945541 0.577203
0.409277 0.945495 0.56817
0.417929 0.945525 0.560876
0.453147 0.945388 0.552407
0.562356 0.944961 0.564202
0.719127 0.94078 0.587427
0.867262 0.940505 0.612207
0.949889 0.934447 0.652873
0.949355 0.936553 0.735592
0.603738 0.944595 0.708736
0.598047 0.944549 0.700847
0.604608 0.944579 0.700801
0.612131 0.94461 0.693874
0.659983 0.944671 0.703441
0.754726 0.943084 0.719402
0.857801 0.941924 0.737667
0.936568 0.937972 0.760235
0.946075 0.938811 0.80325
0.0906081 0.0859083 0.32015
0.148196 0.0789502 0.336843
0.251057 0.0762646 0.342596
0.392554 0.0801556 0.35874
0.575845 0.0825055 0.407919
0.782696 0.0915084 0.465827
0.933852 0.118578 0.499092
0.946227 0.240055 0.577996
0.945983 0.370153 0.650248
0.0768444 0.0931106 0.328649
0.0937819 0.0862898 0.348775
0.240101 0.0760967 0.364141
0.39295 0.0802014 0.359106
0.572412 0.082414 0.397803
0.777432 0.091371 0.441321
0.934524 0.116365 0.484138
0.945815 0.234058 0.560906
0.946166 0.351614 0.629572
0.0599985 0.205402 0.332082
0.0593118 0.198688 0.349737
0.190402 0.175296 0.399924
0.428321 0.133486 0.39324
0.588632 0.0867018 0.38381
0.780346 0.0874037 0.402335
0.936721 0.125124 0.465675
0.946761 0.267674 0.561669
0.945846 0.408148 0.655573
0.0842908 0.394965 0.371801
0.0849928 0.395972 0.372915
0.0987869 0.389624 0.369009
0.406653 0.405829 0.407156
0.627939 0.361822 0.399756
0.870985 0.276112 0.394781
0.940002 0.159396 0.411505
0.946548 0.312596 0.540093
0.945327 0.469062 0.672114
0.104646 0.601083 0.432868
0.106264 0.602319 0.422858
0.119738 0.602487 0.395331
0.275563 0.61117 0.361532
0.582422 0.605509 0.372335
0.813809 0.572488 0.398474
0.949722 0.504067 0.423484
0.946792 0.428305 0.456107
0.945235 0.474098 0.646784
0.164492 0.80235 0.489326
0.164553 0.803861 0.476158
0.167178 0.808789 0.450278
0.197955 0.809827 0.379232
0.513237 0.822843 0.369818
0.767666 0.814069 0.372854
0.936675 0.772702 0.480812
0.936675 0.743038 0.487877
0.948379 0.629358 0.520348
0.238071 0.936782 0.525917
0.237034 0.937865 0.516213
0.239857 0.939574 0.501305
0.252537 0.945235 0.455177
0.450889 0.945571 0.435019
0.721386 0.939803 0.448386
0.903471 0.935347 0.483436
0.94992 0.907164 0.601007
0.949859 0.896345 0.589303
0.413931 0.945556 0.602426
0.410849 0.94551 0.595834
0.42031 0.945556 0.590753
0.441291 0.945388 0.574121
0.534386 0.944976 0.572488
0.697704 0.941436 0.594171
0.862287 0.940246 0.615106
0.949935 0.934462 0.650736
0.949126 0.936645 0.740307
0.603586 0.944579 0.721736
0.597665 0.944549 0.714244
0.60499 0.944579 0.714397
0.621134 0.944686 0.713832
0.650248 0.94464 0.708965
0.739803 0.943801 0.722408
0.852598 0.941985 0.740215
0.934401 0.93814 0.761013
0.946059 0.938827 0.803601
0.102449 0.0907912 0.454398
0.158419 0.0795911 0.473854
0.2636 0.0738537 0.487556
0.406302 0.0720531 0.495537
0.573663 0.0838178 0.52694
0.796155 0.0905623 0.577081
0.933349 0.105501 0.626383
0.944228 0.188418 0.655726
0.946258 0.32639 0.704128
0.0850385 0.0965591 0.477119
0.109636 0.0911116 0.482918
0.24361 0.0743877 0.511559
0.401144 0.0720989 0.500664
0.572885 0.0837873 0.526055
0.790127 0.0903487 0.56936
0.933043 0.104906 0.615579
0.943542 0.180713 0.643046
0.946548 0.304112 0.689326
0.0602426 0.176257 0.474067
0.0616159 0.166903 0.486473
0.148867 0.122545 0.545586
0.400473 0.0838026 0.552956
0.60058 0.0877699 0.548516
0.793591 0.0903182 0.561395
0.933043 0.106188 0.599084
0.945678 0.211536 0.643442
0.946044 0.373037 0.703761
0.0529946 0.37554 0.493919
0.0541695 0.371908 0.501274
0.0662699 0.35613 0.527825
0.36585 0.353094 0.581247
0.621286 0.300237 0.579416
0.849439 0.190188 0.574212
0.932616 0.109377 0.547951
0.946563 0.242969 0.619852
0.945357 0.445548 0.718547
0.109087 0.574914 0.548638
0.110765 0.575311 0.548974
0.12195 0.574044 0.548745
0.255085 0.576867 0.556069
0.569848 0.569009 0.570535
0.808347 0.536965 0.569574
0.946471 0.469032 0.546883
0.94612 0.359075 0.563989
0.944884 0.519677 0.716075
0.161273 0.779217 0.592294
0.162325 0.779873 0.587259
0.167407 0.782223 0.577142
0.198825 0.779278 0.53933
0.492546 0.787076 0.548669
0.742489 0.770962 0.553429
0.920394 0.742596 0.565484
0.936126 0.677852 0.569894
0.946349 0.598535 0.6262
0.239857 0.921767 0.61117
0.240452 0.922286 0.605219
0.244984 0.924086 0.59382
0.257725 0.930266 0.560922
0.442908 0.936797 0.549096
0.691371 0.931487 0.56408
0.895277 0.9243 0.568353
0.949889 0.894759 0.641077
0.949874 0.871275 0.648127
0.418326 0.943282 0.650004
0.416678 0.943465 0.645304
0.426566 0.94406 0.642237
0.446998 0.945235 0.63241
0.483101 0.945251 0.599023
0.654231 0.943114 0.606485
0.851484 0.939544 0.627619
0.949935 0.934462 0.650874
0.948577 0.936782 0.750347
0.604074 0.943358 0.748226
0.599176 0.943465 0.74316
0.606836 0.94374 0.74406
0.622675 0.944228 0.743969
0.644633 0.94464 0.73283
0.712596 0.944549 0.730007
0.843153 0.942061 0.744976
0.931502 0.938384 0.764294
0.946029 0.938857 0.80441
0.114778 0.0990921 0.594888
0.187015 0.0831464 0.624582
0.282933 0.0732586 0.638285
0.415518 0.0720684 0.627665
0.57612 0.0738231 0.653483
0.795087 0.0920729 0.707454
0.933593 0.103258 0.747417
0.936233 0.120089 0.772519
0.945006 0.24976 0.806134
0.0931258 0.107042 0.626291
0.120623 0.100099 0.62118
0.245487 0.0739452 0.652598
0.412024 0.0720989 0.648859
0.570184 0.0729534 0.652338
0.789929 0.0918441 0.703716
0.93344 0.102556 0.740932
0.93611 0.118776 0.76672
0.945342 0.227054 0.794003
0.0608072 0.152026 0.622904
0.0620279 0.144579 0.637873
0.123781 0.106218 0.692073
0.3823 0.072755 0.705165
0.595392 0.0838788 0.70106
0.800595 0.092607 0.711574
0.933761 0.10367 0.743008
0.937072 0.122011 0.761807
0.945022 0.308339 0.808164
0.0576638 0.343435 0.633707
0.0557412 0.336736 0.638819
0.052903 0.320424 0.667384
0.315129 0.290562 0.745449
0.593912 0.23061 0.762539
0.820417 0.124773 0.726009
0.934905 0.107576 0.73257
0.941604 0.155764 0.754788
0.945296 0.391287 0.807706
0.0527962 0.555611 0.661997
0.0527962 0.553017 0.665812
0.0529793 0.549142 0.677791
0.15964 0.54403 0.721569
0.541756 0.534813 0.751125
0.802289 0.495445 0.749477
0.945632 0.402914 0.750134
0.946654 0.256764 0.729763
0.945098 0.467613 0.793774
0.158297 0.744671 0.711498
0.15938 0.744778 0.711635
0.164889 0.745571 0.712749
0.19086 0.739651 0.707851
0.479789 0.74519 0.723415
0.725643 0.725368 0.726787
0.919982 0.697078 0.728161
0.945602 0.637629 0.705104
0.944839 0.561608 0.731716
0.23006 0.899702 0.727062
0.23061 0.900069 0.72401
0.234806 0.901183 0.7187
0.245808 0.903502 0.704845
0.439078 0.910445 0.696254
0.670176 0.904311 0.7122
0.876112 0.89276 0.717617
0.949828 0.873487 0.724651
0.944884 0.843183 0.766094
0.396155 0.941649 0.735637
0.397162 0.941695 0.732509
0.412665 0.941787 0.730831
0.44564 0.941741 0.72517
0.496468 0.942458 0.706584
0.645335 0.944595 0.714427
0.839857 0.941695 0.725582
0.94934 0.936553 0.735805
0.94728 0.937804 0.778088
0.603464 0.942031 0.790997
0.601434 0.942031 0.788174
0.611002 0.941924 0.789654
0.630014 0.942245 0.792889
0.6542 0.942718 0.790066
0.673487 0.944625 0.755215
0.820188 0.942229 0.755703
0.925551 0.939895 0.77322
0.945907 0.938949 0.80679
0.132692 0.110536 0.748089
0.181384 0.10013 0.771847
0.276341 0.0743572 0.789502
0.424903 0.0719768 0.784741
0.562631 0.0716869 0.765942
0.77499 0.0871443 0.821897
0.930816 0.102739 0.881178
0.933822 0.117556 0.880186
0.939101 0.160418 0.8878
0.107591 0.119127 0.768795
0.11899 0.115557 0.761486
0.232609 0.085008 0.792325
0.413764 0.0719615 0.798871
0.568826 0.0719005 0.781811
0.770932 0.0869001 0.82005
0.930739 0.102403 0.876692
0.933501 0.116594 0.876493
0.936645 0.137881 0.873747
0.0549325 0.166644 0.757
0.0556191 0.161013 0.770977
0.101442 0.128771 0.833143
0.357992 0.0723583 0.841749
0.586954 0.0723735 0.848753
0.807584 0.0914626 0.859113
0.931044 0.103655 0.887251
0.933944 0.119402 0.880858
0.942031 0.216464 0.909789
0.0529335 0.330266 0.745373
0.0529793 0.321157 0.752209
0.0528267 0.299886 0.787808
0.253544 0.263951 0.890654
0.552132 0.195544 0.904997
0.780941 0.106905 0.862364
0.932387 0.110552 0.887602
0.934234 0.121721 0.881239
0.941924 0.309453 0.918349
0.0528725 0.54609 0.775998
0.0528878 0.541619 0.782269
0.0529488 0.534096 0.800122
0.156832 0.517906 0.861402
0.51133 0.51252 0.897612
0.780377 0.467994 0.911574
0.941909 0.366705 0.908736
0.941512 0.188418 0.886244
0.942123 0.404273 0.908629
0.059968 0.719478 0.811994
0.0591745 0.718273 0.815076
0.0702373 0.717723 0.82269
0.119127 0.714504 0.839414
0.424872 0.716915 0.872236
0.702998 0.698787 0.878874
0.914717 0.667048 0.877989
0.943511 0.596414 0.878355
0.943145 0.496681 0.872557
0.221866 0.874846 0.8439
0.222629 0.874846 0.843915
0.226703 0.875273 0.84448
0.236255 0.875319 0.844816
0.414435 0.879545 0.853773
0.662593 0.874495 0.860258
0.861967 0.861845 0.862745
0.945403 0.842695 0.864103
0.94583 0.820386 0.881239
0.351415 0.941787 0.843168
0.354147 0.941695 0.842039
0.373144 0.941695 0.842039
0.412482 0.941756 0.841993
0.472724 0.941726 0.838682
0.649302 0.942168 0.843122
0.825025 0.943755 0.852979
0.937636 0.940627 0.856199
0.942931 0.93843 0.853651
0.583734 0.941772 0.857511
0.584146 0.941772 0.856291
0.59736 0.941817 0.856611
0.62298 0.941894 0.856703
0.655772 0.942046 0.856352
0.687755 0.942443 0.844511
0.80383 0.94403 0.849638
0.918456 0.942473 0.85713
0.94287 0.941054 0.869673
0.139773 0.125551 0.876463
0.14551 0.124239 0.877394
0.247669 0.0915999 0.893034
0.417197 0.0719463 0.89839
0.576181 0.0720989 0.8878
0.742489 0.0738994 0.89276
0.93051 0.100557 0.93051
0.932754 0.113252 0.932754
0.934798 0.124941 0.934798
0.113787 0.131518 0.876707
0.12546 0.128695 0.874327
0.207553 0.106996 0.890013
0.399145 0.0721752 0.899306
0.580636 0.0720836 0.8963
0.734798 0.0740368 0.886458
0.930495 0.100649 0.93051
0.932723 0.112764 0.932723
0.934676 0.123369 0.934691
0.0529335 0.176455 0.84976
0.0529488 0.174502 0.857466
0.0530556 0.158679 0.913359
0.311269 0.0753796 0.915892
0.563256 0.0722362 0.914626
0.80853 0.0853895 0.920684
0.930907 0.101778 0.930922
0.933196 0.114809 0.933211
0.93579 0.129961 0.93579
0.0528725 0.331136 0.814893
0.0529335 0.322713 0.82092
0.052842 0.302327 0.860075
0.155749 0.261845 0.913161
0.504372 0.192767 0.931395
0.74699 0.106157 0.925582
0.932845 0.113451 0.93286
0.933654 0.116945 0.933669
0.941756 0.204532 0.941756
0.0578927 0.541421 0.847578
0.0599374 0.536233 0.855283
0.0610056 0.52752 0.876402
0.108354 0.501045 0.924422
0.471626 0.506874 0.933318
0.73843 0.470329 0.941817
0.941787 0.378851 0.941772
0.938338 0.153262 0.938338
0.941756 0.305531 0.941756
0.0529183 0.716304 0.877516
0.0528267 0.714611 0.881285
0.0529793 0.712108 0.888197
0.0534066 0.705699 0.904662
0.410895 0.705089 0.931502
0.679866 0.690959 0.938293
0.901137 0.656947 0.942794
0.941695 0.584024 0.941695
0.941741 0.458976 0.941741
0.184009 0.860075 0.909941
0.185092 0.85948 0.910994
0.194736 0.858976 0.914153
0.222156 0.855421 0.918914
0.386099 0.859815 0.933944
0.640436 0.853498 0.937957
0.846448 0.845731 0.940291
0.944442 0.82295 0.939849
0.944305 0.769238 0.938445
0.310903 0.936568 0.917983
0.312444 0.936873 0.918379
0.330068 0.938384 0.920851
0.380728 0.9393 0.923995
0.456535 0.939757 0.926452
0.63682 0.938903 0.92932
0.818891 0.937194 0.932174
0.932067 0.932052 0.932265
0.942107 0.933913 0.939147
0.558831 0.940734 0.918883
0.560357 0.940734 0.918517
0.575021 0.940658 0.919326
0.603204 0.940826 0.920378
0.638636 0.941009 0.922576
0.674327 0.941451 0.920851
0.809155 0.942504 0.92314
0.91574 0.942092 0.92723
0.941772 0.94168 0.930678
0.131441 0.132647 0.914794
0.129259 0.133135 0.914794
0.210742 0.109102 0.915114
0.393683 0.0721599 0.914763
0.582345 0.0722362 0.914595
0.74464 0.0742657 0.917296
0.928191 0.0939345 0.928206
0.932097 0.107774 0.932113
0.934127 0.120226 0.934142
0.107332 0.13785 0.914992
0.120043 0.135256 0.914946
0.171359 0.122393 0.914977
0.373877 0.0721752 0.914961
0.580102 0.0721752 0.914519
0.738781 0.0740826 0.917098
0.928161 0.0937667 0.928161
0.932113 0.10779 0.932113
0.933944 0.119112 0.933959
0.0529641 0.182513 0.88954
0.0529641 0.180835 0.896376
0.0528267 0.176913 0.907362
0.239292 0.0978408 0.915694
0.529641 0.0720836 0.914488
0.791547 0.0836042 0.919646
0.927977 0.0932479 0.927977
0.932219 0.108507 0.932219
0.934737 0.12311 0.934737
0.0528725 0.33518 0.849821
0.052842 0.331502 0.852628
0.0528725 0.322469 0.890105
0.0527657 0.288014 0.900526
0.451011 0.219577 0.932082
0.712154 0.131319 0.930449
0.932723 0.113146 0.932723
0.932555 0.109834 0.932555
0.935378 0.127932 0.935378
0.0607767 0.544701 0.87895
0.0608377 0.539925 0.885893
0.0610819 0.534707 0.906706
0.0595865 0.51371 0.92546
0.379187 0.511421 0.937118
0.679057 0.489311 0.941741
0.934813 0.411582 0.941802
0.94107 0.18584 0.94107
0.935988 0.133913 0.935988
0.0529793 0.719127 0.90367
0.0529793 0.717632 0.907866
0.0529946 0.715923 0.915358
0.0529183 0.705684 0.9243
0.342641 0.703685 0.93167
0.643793 0.696727 0.937682
0.869688 0.669184 0.943191
0.941939 0.603235 0.941939
0.941741 0.447379 0.941741
0.11136 0.857145 0.932708
0.112169 0.856535 0.934203
0.130007 0.856291 0.937469
0.184985 0.852064 0.937758
0.376959 0.852689 0.939544
0.631373 0.850065 0.94049
0.826246 0.843061 0.945449
0.944381 0.820096 0.944381
0.944137 0.760189 0.944121
0.285817 0.928817 0.94081
0.28716 0.928847 0.940826
0.300755 0.930434 0.94081
0.355016 0.932921 0.941283
0.480262 0.932326 0.940536
0.626322 0.931716 0.941054
0.803021 0.930953 0.943191
0.925353 0.927428 0.942596
0.942611 0.916335 0.942611
0.537774 0.939788 0.940368
0.539803 0.939788 0.940368
0.554482 0.939864 0.94049
0.582086 0.939849 0.940566
0.621469 0.940108 0.940902
0.663523 0.940383 0.9411
0.797925 0.941863 0.94226
0.912749 0.941955 0.942031
0.941695 0.941695 0.941711
