bundles/resolve-cinematic-luts/Phantom Luts/A7s3 Phntm Arri LUTs G7/ATOMOS Monitoring LUTs/Slog2+Sgamut3cine/Neutral A7s3 Sl2sg3c-Legacy AML.cube
TITLE "Generated by Resolve"
LUT_3D_SIZE 33
0.0833295 0.0831006 0.0831159
0.0833295 0.0831006 0.0831159
0.0833295 0.0831006 0.0831159
0.0836194 0.0832074 0.0830549
0.104524 0.0823987 0.0838026
0.138262 0.0822156 0.0869001
0.167834 0.0810864 0.092195
0.199039 0.0810254 0.0984512
0.23299 0.0820783 0.105577
0.268833 0.0831617 0.113313
0.306844 0.0847791 0.119585
0.347082 0.0844129 0.131273
0.388556 0.0847486 0.144183
0.431876 0.0852369 0.157778
0.47686 0.0856794 0.172396
0.523629 0.0862745 0.187167
0.57023 0.0868544 0.203189
0.619242 0.0885786 0.220615
0.671382 0.0908675 0.240528
0.728527 0.0941787 0.264408
0.79234 0.10013 0.290822
0.856107 0.107469 0.319432
0.915145 0.117357 0.351247
0.935546 0.131121 0.377127
0.939086 0.148623 0.401419
0.94136 0.175723 0.427115
0.943603 0.204883 0.453086
0.945312 0.232883 0.479088
0.94667 0.264973 0.505211
0.946777 0.297429 0.530724
0.946517 0.326802 0.553841
0.946273 0.353643 0.575448
0.945998 0.375479 0.594736
0.0833295 0.0831006 0.0831159
0.0833295 0.0831006 0.0831159
0.0833295 0.0831006 0.0831159
0.0835737 0.0832074 0.0830396
0.102403 0.0825208 0.0836652
0.135439 0.0822309 0.0862898
0.166094 0.081239 0.0917678
0.197467 0.0810712 0.098024
0.231891 0.082063 0.105226
0.268223 0.0831617 0.113069
0.306844 0.0847791 0.119585
0.347082 0.0844129 0.131273
0.388556 0.0847486 0.144183
0.431876 0.0852369 0.157778
0.47686 0.0856794 0.172396
0.523629 0.0862745 0.187167
0.57023 0.0868544 0.203189
0.618906 0.0886091 0.22031
0.670039 0.0909285 0.239582
0.725872 0.0942397 0.262592
0.78883 0.100053 0.288151
0.852186 0.107301 0.316487
0.911711 0.117235 0.347021
0.935241 0.130388 0.372503
0.938552 0.14609 0.396262
0.940887 0.172152 0.421256
0.942855 0.199939 0.445747
0.944961 0.226291 0.471107
0.946303 0.256565 0.495659
0.946777 0.285466 0.519615
0.946548 0.313451 0.541146
0.946197 0.338109 0.560586
0.946059 0.359197 0.577844
0.0833295 0.0831006 0.0831159
0.0833295 0.0831006 0.0831159
0.0833295 0.0831006 0.0831159
0.0834058 0.083238 0.0830243
0.0963455 0.0831769 0.0834363
0.122713 0.0831006 0.0846876
0.155673 0.0818189 0.0890974
0.187884 0.0809949 0.0952773
0.223102 0.0820783 0.10277
0.260243 0.0829633 0.110506
0.300206 0.0840925 0.119539
0.341756 0.0846418 0.128801
0.384497 0.0848096 0.142046
0.429236 0.0852674 0.156466
0.475792 0.0856794 0.171557
0.521859 0.0864118 0.18616
0.567987 0.0870069 0.201663
0.615976 0.0887312 0.218219
0.667063 0.0910048 0.23769
0.72282 0.0942702 0.260227
0.785687 0.100191 0.285481
0.848951 0.107362 0.314046
0.90811 0.116854 0.344182
0.93489 0.129412 0.369512
0.938399 0.144427 0.393378
0.94081 0.169589 0.417578
0.943008 0.195941 0.441627
0.944518 0.221881 0.465919
0.945953 0.249531 0.489448
0.946929 0.27689 0.512093
0.946685 0.303899 0.532937
0.946548 0.326528 0.551186
0.94641 0.347402 0.567269
0.0831464 0.0836957 0.0830701
0.0832074 0.0836805 0.0830701
0.08336 0.08365 0.0830854
0.0836194 0.0836194 0.0830854
0.0906233 0.0844587 0.0833448
0.109712 0.0841382 0.0838788
0.144091 0.0831311 0.0865492
0.176638 0.0810101 0.0919814
0.213657 0.0818494 0.0997024
0.252354 0.0830854 0.107973
0.292485 0.0840009 0.116045
0.336599 0.084123 0.129107
0.3794 0.0849622 0.138781
0.425071 0.0853895 0.153628
0.471946 0.0858015 0.168704
0.518456 0.0864729 0.183734
0.565393 0.0872663 0.199649
0.613458 0.0889754 0.215839
0.664652 0.0912337 0.235645
0.719783 0.094377 0.257725
0.782086 0.100191 0.282933
0.845396 0.107256 0.311147
0.904494 0.116655 0.340581
0.9346 0.128725 0.366796
0.938125 0.14316 0.390311
0.94052 0.166659 0.413809
0.942336 0.191775 0.437339
0.94435 0.217502 0.461143
0.945876 0.243397 0.483391
0.946838 0.268986 0.50518
0.946654 0.294728 0.524727
0.946532 0.316518 0.542245
0.94641 0.335348 0.557168
0.0822003 0.108812 0.0853285
0.0823682 0.107713 0.0847028
0.0839094 0.105196 0.0830396
0.0899672 0.102602 0.0833295
0.101946 0.105745 0.0830243
0.125765 0.103487 0.0856336
0.152361 0.100114 0.0872816
0.181811 0.0939956 0.0876783
0.21915 0.0866102 0.0902724
0.260075 0.0855268 0.100267
0.29958 0.0845045 0.108644
0.338933 0.0830549 0.116365
0.382696 0.0837262 0.129107
0.432609 0.0864118 0.146685
0.478935 0.086656 0.164233
0.524895 0.0870069 0.180591
0.569848 0.0899062 0.191882
0.618509 0.0920729 0.208896
0.669993 0.094377 0.227497
0.725582 0.0981918 0.249577
0.788632 0.104051 0.275547
0.850858 0.110704 0.303426
0.909667 0.119905 0.332509
0.934524 0.13193 0.358984
0.937987 0.145846 0.383032
0.940612 0.168856 0.407248
0.942672 0.194278 0.43212
0.944213 0.219089 0.45565
0.945968 0.245441 0.479393
0.947021 0.271046 0.50135
0.946822 0.296742 0.521737
0.9467 0.318273 0.539361
0.946426 0.337453 0.554559
0.0803082 0.143435 0.0877852
0.0804303 0.142901 0.0870527
0.0814374 0.139361 0.0826581
0.0882582 0.136126 0.0818952
0.106691 0.138048 0.0814221
0.131548 0.13875 0.0816052
0.161288 0.137316 0.0833906
0.19736 0.12784 0.0912642
0.22591 0.120333 0.0936294
0.258457 0.113054 0.0944991
0.294453 0.103655 0.0967727
0.337377 0.0923476 0.0995499
0.384009 0.0869764 0.111986
0.432212 0.0839094 0.128939
0.475425 0.0815747 0.143404
0.523766 0.0849775 0.161868
0.579705 0.0907759 0.186221
0.627253 0.0919203 0.205188
0.677363 0.0931868 0.225925
0.732219 0.101381 0.242481
0.794568 0.107637 0.267597
0.857114 0.114611 0.295949
0.913542 0.122972 0.326085
0.934478 0.13489 0.352056
0.937972 0.14876 0.376257
0.940444 0.170642 0.401541
0.942672 0.196551 0.427161
0.944198 0.220645 0.451392
0.945876 0.247562 0.475517
0.947051 0.273243 0.497902
0.946822 0.298878 0.518547
0.9467 0.320027 0.53666
0.946365 0.339117 0.551934
0.0770886 0.174685 0.0910201
0.077409 0.174426 0.0903334
0.0790723 0.170809 0.0837262
0.082948 0.168002 0.0797742
0.104768 0.169055 0.0805219
0.132113 0.169299 0.078584
0.158083 0.167575 0.0800183
0.191455 0.166705 0.079469
0.240818 0.153964 0.0935378
0.280781 0.13933 0.099382
0.307988 0.134752 0.0997482
0.343053 0.125139 0.10164
0.38265 0.11194 0.105104
0.424506 0.0983597 0.1093
0.472694 0.0907912 0.124743
0.522972 0.088014 0.145571
0.56878 0.0834516 0.162692
0.62237 0.0878462 0.186587
0.687297 0.0966659 0.215778
0.742351 0.0999313 0.239811
0.800473 0.104036 0.267185
0.86334 0.117906 0.288914
0.918288 0.12726 0.318624
0.934524 0.138476 0.342962
0.938094 0.152392 0.367666
0.940597 0.17322 0.394842
0.942641 0.198993 0.421057
0.944442 0.222675 0.446082
0.945846 0.249866 0.470741
0.94696 0.275563 0.493721
0.946822 0.30135 0.514519
0.946471 0.322255 0.533089
0.94638 0.341512 0.548882
0.0715343 0.208515 0.0954604
0.0716259 0.208362 0.094377
0.0746166 0.204715 0.0869764
0.0777447 0.201617 0.078706
0.0972152 0.203143 0.0783703
0.132372 0.202945 0.0791485
0.154223 0.203586 0.0771344
0.186557 0.200397 0.0791791
0.227604 0.199588 0.0773327
0.286229 0.185016 0.0963607
0.335103 0.165652 0.107652
0.368551 0.158633 0.109743
0.397879 0.152193 0.111345
0.434211 0.139712 0.114244
0.474876 0.123629 0.118685
0.516915 0.107271 0.124819
0.566491 0.098024 0.142458
0.619287 0.0921645 0.164508
0.6701 0.0852522 0.185199
0.740063 0.0949416 0.218463
0.816327 0.108934 0.254612
0.871962 0.115114 0.286229
0.92166 0.12134 0.318486
0.934417 0.142061 0.331685
0.937881 0.156222 0.357107
0.940475 0.176623 0.384726
0.942718 0.202396 0.411933
0.944533 0.226123 0.438361
0.94612 0.253681 0.464317
0.946929 0.27895 0.48806
0.946761 0.304219 0.509773
0.94667 0.325368 0.528832
0.946395 0.344869 0.545083
0.0675364 0.244892 0.103365
0.0676432 0.244877 0.102174
0.0700084 0.241749 0.0927291
0.0732586 0.239307 0.0833143
0.0893111 0.239414 0.0737469
0.120974 0.241505 0.078233
0.152514 0.242191 0.0785382
0.18024 0.242817 0.0769513
0.221942 0.239933 0.0802319
0.269108 0.239384 0.0756237
0.334188 0.225071 0.101976
0.389624 0.205463 0.119051
0.430365 0.192264 0.125521
0.457542 0.188479 0.127214
0.492607 0.178439 0.129534
0.532052 0.164324 0.133501
0.573526 0.146227 0.138613
0.619303 0.12195 0.145266
0.672694 0.105791 0.165682
0.733166 0.0963149 0.193179
0.802396 0.0928206 0.222553
0.879271 0.109743 0.261814
0.92987 0.129702 0.301732
0.933486 0.137667 0.328603
0.936904 0.147112 0.359228
0.940337 0.180377 0.372213
0.942535 0.206256 0.400809
0.944289 0.230518 0.428397
0.946014 0.25803 0.455344
0.947036 0.284062 0.480659
0.946731 0.308476 0.503273
0.946654 0.329824 0.523018
0.946563 0.349111 0.540032
0.0653849 0.284413 0.113558
0.0654765 0.284428 0.112917
0.0682078 0.282124 0.102953
0.0712291 0.279896 0.092546
0.0809186 0.278676 0.0742504
0.102083 0.282475 0.0758984
0.142199 0.284657 0.0802777
0.17818 0.286244 0.0807965
0.213016 0.287694 0.0784466
0.263584 0.285527 0.0842603
0.317128 0.28603 0.0745708
0.383032 0.273747 0.10811
0.443259 0.255482 0.131472
0.489998 0.237736 0.14464
0.521065 0.231189 0.147555
0.552865 0.224582 0.149172
0.59028 0.212757 0.15172
0.6327 0.194446 0.156435
0.677607 0.16994 0.16144
0.733501 0.1364 0.169528
0.798032 0.113298 0.196414
0.861173 0.0971695 0.226154
0.93315 0.112688 0.266957
0.93312 0.147341 0.302892
0.936812 0.15639 0.33695
0.93959 0.170764 0.371679
0.941802 0.193286 0.405844
0.944396 0.2365 0.416754
0.946044 0.262943 0.444617
0.946899 0.289982 0.47126
0.946853 0.313741 0.49482
0.946578 0.335256 0.515511
0.946502 0.353933 0.533425
0.0665141 0.329702 0.125612
0.0665141 0.329702 0.125612
0.0693828 0.328435 0.117067
0.0731365 0.326009 0.104234
0.0787671 0.325628 0.0866102
0.0900893 0.325612 0.0776989
0.121263 0.331121 0.0804913
0.168872 0.334432 0.0844129
0.21062 0.336568 0.085008
0.251759 0.337911 0.0827955
0.309331 0.335119 0.0896162
0.366949 0.336736 0.0716564
0.427634 0.328008 0.111025
0.493919 0.310079 0.14403
0.54345 0.294499 0.161166
0.58175 0.28159 0.170871
0.610773 0.275456 0.17293
0.648936 0.264057 0.17438
0.692622 0.245716 0.17702
0.739681 0.220462 0.180179
0.794461 0.18706 0.185901
0.859525 0.139712 0.194171
0.918776 0.117021 0.229145
0.938842 0.123568 0.26041
0.937697 0.161807 0.302174
0.939544 0.181292 0.344533
0.94197 0.202197 0.383917
0.943725 0.222278 0.41944
0.945815 0.247196 0.452155
0.946929 0.296422 0.460121
0.946731 0.319875 0.484657
0.946715 0.342153 0.506355
0.946548 0.360372 0.525475
0.0714275 0.378454 0.140932
0.0714275 0.378454 0.140932
0.0739757 0.377752 0.134874
0.0783551 0.375921 0.12163
0.0812695 0.376944 0.10692
0.0836805 0.375677 0.0880903
0.102968 0.376867 0.0831617
0.14789 0.382605 0.0861982
0.200763 0.384543 0.0908217
0.24976 0.385199 0.0894942
0.292973 0.387717 0.0878309
0.358175 0.385367 0.096849
0.415824 0.388144 0.0708324
0.476066 0.381064 0.116289
0.542443 0.366964 0.155734
0.593561 0.353582 0.175998
0.636667 0.3411 0.188891
0.667811 0.333715 0.194827
0.708247 0.317678 0.199786
0.753902 0.300069 0.200595
0.805676 0.274327 0.202304
0.856291 0.242329 0.204898
0.91252 0.199542 0.210315
0.949706 0.150027 0.219104
0.945434 0.1411 0.24979
0.943008 0.174807 0.295567
0.941268 0.215381 0.346548
0.943572 0.234989 0.392996
0.945724 0.25742 0.431586
0.946685 0.280049 0.465095
0.946944 0.302785 0.494545
0.946578 0.349111 0.49546
0.94641 0.366857 0.51548
0.0782483 0.426383 0.158236
0.0782483 0.426383 0.158236
0.0792706 0.426368 0.153017
0.0811933 0.424949 0.141405
0.0840314 0.425574 0.127718
0.0869459 0.426215 0.11339
0.0913558 0.425284 0.092195
0.124544 0.428122 0.0901961
0.177768 0.432563 0.0943008
0.239841 0.433188 0.0975204
0.294881 0.433646 0.0935836
0.338186 0.43801 0.096849
0.406622 0.43563 0.108553
0.464714 0.43859 0.0776837
0.524147 0.433051 0.121996
0.589593 0.422156 0.167895
0.643992 0.409506 0.19144
0.691371 0.397147 0.207355
0.724483 0.389471 0.214267
0.76907 0.371328 0.223636
0.816342 0.352193 0.225544
0.865614 0.328435 0.225788
0.912032 0.299596 0.226673
0.949813 0.261341 0.227893
0.949752 0.220508 0.226383
0.949813 0.164004 0.229191
0.949737 0.193133 0.284901
0.943572 0.255207 0.349905
0.945296 0.273121 0.40029
0.946609 0.295064 0.440345
0.946761 0.315114 0.474662
0.946563 0.334295 0.503059
0.946532 0.351919 0.527016
0.0819257 0.47541 0.178302
0.0819257 0.47541 0.178302
0.0824598 0.475868 0.173541
0.0846571 0.474556 0.163729
0.088304 0.474662 0.149722
0.0908675 0.475883 0.139635
0.094377 0.476265 0.121111
0.108492 0.476127 0.0981918
0.152941 0.480156 0.0985275
0.216297 0.482765 0.105104
0.285756 0.482795 0.107774
0.339117 0.48397 0.102037
0.38587 0.489479 0.111315
0.455482 0.485969 0.122698
0.513344 0.488731 0.0898909
0.570916 0.48481 0.127779
0.636591 0.475883 0.181353
0.694789 0.463172 0.208484
0.746136 0.450858 0.226108
0.785183 0.441917 0.235416
0.824811 0.427863 0.243656
0.872404 0.403555 0.251575
0.916838 0.381628 0.250706
0.949935 0.355383 0.249378
0.949966 0.324895 0.245869
0.949828 0.289738 0.242313
0.949828 0.24123 0.2392
0.949859 0.215335 0.266789
0.94995 0.274388 0.339803
0.946075 0.31664 0.398871
0.946502 0.332784 0.445274
0.946532 0.350622 0.479591
0.94641 0.365743 0.507347
0.0871138 0.524895 0.200595
0.0871138 0.524895 0.200595
0.0875257 0.525322 0.197894
0.0896773 0.524712 0.189029
0.0928054 0.524727 0.175189
0.095964 0.525124 0.163256
0.0995193 0.526589 0.15288
0.106752 0.527031 0.127428
0.132662 0.526848 0.10605
0.192248 0.531594 0.112673
0.265248 0.533181 0.120119
0.337942 0.532341 0.119097
0.385748 0.535683 0.114229
0.433295 0.54081 0.129137
0.503777 0.536141 0.138766
0.561013 0.538048 0.106249
0.619058 0.535637 0.13904
0.685161 0.52697 0.198688
0.746868 0.514748 0.228687
0.800626 0.502251 0.248722
0.839338 0.493248 0.258839
0.873777 0.482887 0.265324
0.916442 0.460777 0.274235
0.949966 0.43592 0.278019
0.949935 0.414054 0.273808
0.949844 0.387167 0.267308
0.949905 0.353536 0.261479
0.949889 0.316136 0.257115
0.949844 0.271931 0.264668
0.94995 0.297826 0.324559
0.949813 0.346426 0.390936
0.946181 0.372656 0.439017
0.946548 0.384604 0.479393
0.0930495 0.574014 0.227481
0.0930495 0.574014 0.227481
0.0936904 0.574701 0.223133
0.0964828 0.573938 0.213901
0.100191 0.573983 0.200488
0.104601 0.574105 0.18854
0.10898 0.574853 0.176806
0.114336 0.575769 0.159289
0.122057 0.576165 0.12578
0.168826 0.579141 0.121157
0.24654 0.581674 0.131334
0.323186 0.581888 0.137209
0.396033 0.580941 0.128771
0.433005 0.587152 0.129534
0.48307 0.591409 0.146624
0.551476 0.585748 0.157183
0.608209 0.586389 0.126619
0.666697 0.584222 0.156603
0.736873 0.574716 0.220081
0.797177 0.564263 0.252064
0.846769 0.552819 0.27245
0.88452 0.544259 0.282979
0.911894 0.537392 0.287617
0.945525 0.520012 0.295155
0.949889 0.499733 0.298634
0.949798 0.47483 0.298817
0.949874 0.448432 0.294362
0.949752 0.41799 0.287114
0.949767 0.386572 0.281529
0.949767 0.345861 0.276738
0.949935 0.341207 0.319615
0.949874 0.371496 0.378866
0.949966 0.400092 0.425895
0.10135 0.623056 0.2551
0.10135 0.623056 0.2551
0.102907 0.623926 0.248188
0.106188 0.622965 0.239246
0.110094 0.622858 0.228794
0.114458 0.622873 0.217365
0.118791 0.623224 0.203082
0.123827 0.624537 0.18938
0.131655 0.625269 0.163531
0.151965 0.62536 0.134356
0.222705 0.630655 0.141726
0.305119 0.631632 0.151354
0.385046 0.631266 0.152514
0.443763 0.632395 0.143694
0.480064 0.639216 0.148333
0.532006 0.642191 0.166003
0.597864 0.635416 0.176669
0.654902 0.634562 0.154208
0.714519 0.632105 0.179065
0.786282 0.621042 0.245335
0.84007 0.611948 0.275883
0.885328 0.602472 0.296284
0.916899 0.595346 0.306142
0.935897 0.591272 0.307713
0.949905 0.57995 0.311269
0.949798 0.565148 0.311574
0.949935 0.544259 0.312444
0.949798 0.517891 0.312566
0.949844 0.483482 0.312688
0.949905 0.452567 0.308827
0.949935 0.421942 0.303685
0.949813 0.388098 0.306905
0.949767 0.408286 0.371221
0.112261 0.672984 0.281834
0.112505 0.673106 0.28069
0.114336 0.673777 0.273335
0.117037 0.672923 0.266804
0.121202 0.672923 0.258137
0.125353 0.672969 0.247547
0.130556 0.67303 0.233234
0.135363 0.673426 0.21799
0.140566 0.674769 0.200259
0.149233 0.675166 0.164889
0.195438 0.679103 0.154513
0.285237 0.681651 0.164446
0.368475 0.682155 0.171008
0.444083 0.681636 0.168582
0.491051 0.685222 0.163485
0.526452 0.691081 0.171237
0.578256 0.692561 0.187076
0.644007 0.685557 0.19884
0.700481 0.681941 0.184558
0.762081 0.679347 0.204852
0.829068 0.667094 0.270268
0.874662 0.659388 0.303883
0.911467 0.651331 0.323232
0.934874 0.645594 0.329763
0.94081 0.644663 0.324926
0.941955 0.6365 0.324361
0.943908 0.624338 0.32459
0.946441 0.606409 0.325643
0.949752 0.584726 0.326604
0.949905 0.557229 0.328054
0.949767 0.523156 0.329564
0.949981 0.491371 0.331716
0.949813 0.461921 0.328481
0.126696 0.724041 0.311147
0.12697 0.724239 0.308049
0.127687 0.724529 0.301823
0.130373 0.72372 0.295369
0.133776 0.72372 0.28658
0.136828 0.723735 0.277546
0.141497 0.723568 0.265675
0.147051 0.72343 0.249836
0.152819 0.724041 0.230777
0.158923 0.725399 0.210163
0.176074 0.727413 0.170871
0.254948 0.733639 0.179339
0.350805 0.734325 0.189914
0.429984 0.734447 0.193423
0.500252 0.733806 0.187106
0.537514 0.738918 0.187793
0.572152 0.743893 0.197223
0.62417 0.744076 0.213474
0.689235 0.736141 0.222416
0.745327 0.729412 0.213458
0.805234 0.726268 0.230945
0.864393 0.712245 0.305257
0.900771 0.705943 0.341634
0.926741 0.699184 0.35877
0.935622 0.695277 0.361624
0.935058 0.695186 0.350698
0.935515 0.688243 0.345632
0.93666 0.677638 0.341436
0.93901 0.662135 0.342382
0.941802 0.643381 0.343099
0.94522 0.620951 0.34432
0.949325 0.594079 0.34609
0.949874 0.567926 0.349126
0.141329 0.776883 0.33904
0.141695 0.77705 0.333974
0.142245 0.777371 0.327596
0.144854 0.776471 0.322148
0.148287 0.776333 0.315084
0.151308 0.776349 0.307698
0.155047 0.776272 0.297566
0.159655 0.776135 0.28101
0.165682 0.776196 0.26273
0.173007 0.777005 0.243366
0.180774 0.777951 0.21384
0.231159 0.785672 0.198199
0.327016 0.787869 0.209827
0.416342 0.787381 0.218173
0.48777 0.786908 0.21915
0.548119 0.786328 0.212192
0.582681 0.790738 0.214679
0.61622 0.794339 0.224628
0.668421 0.793667 0.24007
0.733501 0.785718 0.249058
0.788876 0.777218 0.246403
0.843397 0.773709 0.273869
0.893904 0.759228 0.346792
0.921843 0.751842 0.378439
0.933272 0.747112 0.393011
0.933074 0.743328 0.394232
0.932845 0.743496 0.383581
0.932403 0.737881 0.378027
0.931884 0.728435 0.37409
0.933242 0.714733 0.371176
0.935424 0.697337 0.368978
0.937881 0.678035 0.367376
0.940917 0.655482 0.369055
0.157351 0.82504 0.36527
0.157687 0.825391 0.359274
0.157916 0.825666 0.354208
0.159854 0.824857 0.349584
0.163058 0.824704 0.343526
0.166354 0.824659 0.336553
0.170413 0.824552 0.327398
0.175341 0.824445 0.314351
0.181094 0.824338 0.296483
0.187671 0.824384 0.27361
0.194629 0.825101 0.252659
0.219684 0.832532 0.226902
0.294133 0.837369 0.229191
0.396139 0.83621 0.240879
0.474662 0.834501 0.246632
0.541375 0.832914 0.245594
0.592111 0.832486 0.239673
0.62417 0.836149 0.243336
0.65803 0.83949 0.253056
0.711604 0.838239 0.266621
0.777676 0.830533 0.276509
0.828275 0.820996 0.304356
0.876493 0.816709 0.332647
0.917891 0.803189 0.388388
0.937118 0.796231 0.415061
0.936904 0.790738 0.425025
0.936904 0.787854 0.425666
0.936614 0.78851 0.414038
0.935897 0.783383 0.406867
0.935241 0.775051 0.401846
0.93434 0.762554 0.399817
0.933486 0.747585 0.39942
0.932677 0.730602 0.399924
0.175341 0.867933 0.388754
0.175753 0.868193 0.382544
0.176028 0.868513 0.376989
0.177874 0.867933 0.3729
0.180331 0.86775 0.367788
0.183047 0.867552 0.36257
0.186206 0.867414 0.355749
0.19028 0.867308 0.345113
0.196262 0.86717 0.328603
0.203967 0.867002 0.30782
0.215595 0.868711 0.285664
0.234882 0.874403 0.270802
0.274907 0.88069 0.254673
0.369299 0.880415 0.263539
0.457237 0.877256 0.270832
0.529259 0.874403 0.273671
0.590265 0.871656 0.270359
0.632639 0.872953 0.267796
0.663203 0.87631 0.274647
0.698116 0.879484 0.287007
0.755032 0.877882 0.304829
0.819226 0.871458 0.330846
0.863722 0.860258 0.36051
0.904067 0.854536 0.388052
0.935927 0.841901 0.431357
0.941588 0.835157 0.453254
0.941283 0.829953 0.461524
0.941009 0.827192 0.461143
0.940581 0.82855 0.448157
0.940108 0.824552 0.441489
0.939345 0.817136 0.435233
0.938293 0.805997 0.432395
0.937163 0.79266 0.429313
0.194018 0.903227 0.410803
0.194308 0.90338 0.40531
0.194476 0.903471 0.400336
0.195499 0.903288 0.395331
0.198566 0.903075 0.390753
0.20145 0.902953 0.385946
0.204669 0.902861 0.379934
0.208591 0.902739 0.371221
0.213657 0.90251 0.359304
0.219684 0.902342 0.341451
0.235706 0.905287 0.323613
0.256596 0.910369 0.306905
0.284886 0.914443 0.298756
0.348394 0.916259 0.304143
0.438621 0.912016 0.312413
0.513954 0.908171 0.317937
0.578149 0.905074 0.320531
0.63064 0.903517 0.320668
0.669657 0.905959 0.323491
0.702235 0.9093 0.332036
0.739605 0.912108 0.344594
0.798383 0.910643 0.358801
0.854261 0.903365 0.38201
0.892424 0.891997 0.411658
0.926146 0.88658 0.437507
0.946426 0.875486 0.472389
0.947112 0.868711 0.489799
0.946777 0.864149 0.497978
0.946502 0.862196 0.496742
0.946136 0.864164 0.482734
0.945586 0.860594 0.475944
0.944427 0.854017 0.46949
0.943099 0.844053 0.46656
0.214954 0.930236 0.430411
0.215106 0.930236 0.425544
0.215198 0.930297 0.420523
0.215213 0.930282 0.416312
0.216938 0.930312 0.412573
0.219089 0.930159 0.408957
0.221714 0.929992 0.404196
0.225101 0.929824 0.396963
0.229801 0.929625 0.386847
0.23859 0.930312 0.37435
0.25687 0.93315 0.362173
0.276402 0.936248 0.346654
0.316899 0.937652 0.344472
0.36025 0.938216 0.352193
0.423484 0.936843 0.358129
0.498772 0.932754 0.364218
0.564324 0.929519 0.368551
0.621241 0.927321 0.371389
0.666789 0.92752 0.373526
0.705364 0.93019 0.379019
0.740948 0.93283 0.388128
0.78291 0.934539 0.399374
0.836362 0.932509 0.411048
0.883726 0.925689 0.433127
0.916152 0.916167 0.459907
0.941833 0.911208 0.483543
0.948714 0.901595 0.515633
0.949584 0.895781 0.530983
0.949905 0.892103 0.537682
0.949813 0.891539 0.534157
0.948959 0.89366 0.520302
0.948455 0.890684 0.512367
0.948119 0.884855 0.505623
0.235447 0.946197 0.449134
0.235462 0.946212 0.444739
0.235492 0.946303 0.440558
0.235508 0.946365 0.436179
0.236133 0.94638 0.432654
0.238178 0.94638 0.429129
0.24062 0.946303 0.425071
0.243915 0.946242 0.418692
0.251514 0.946227 0.412772
0.263615 0.946258 0.406744
0.279591 0.946319 0.397604
0.302251 0.946151 0.385718
0.348135 0.94612 0.389029
0.388495 0.945937 0.393378
0.425147 0.945693 0.401633
0.487785 0.943206 0.407904
0.55169 0.940017 0.412757
0.609339 0.937758 0.416892
0.662226 0.936477 0.419852
0.704051 0.938079 0.42417
0.742336 0.939818 0.432059
0.780575 0.941314 0.441993
0.822034 0.941573 0.451209
0.867964 0.942184 0.459922
0.904875 0.936431 0.48278
0.934462 0.932189 0.506767
0.949615 0.927672 0.529931
0.94992 0.920501 0.557916
0.949783 0.915877 0.571679
0.949783 0.91339 0.577264
0.949767 0.914488 0.569528
0.949752 0.915587 0.556619
0.94995 0.913527 0.547814
0.253758 0.946303 0.464179
0.253758 0.946288 0.460761
0.253651 0.946303 0.456565
0.253468 0.946288 0.452811
0.254398 0.946288 0.449882
0.255467 0.946273 0.44715
0.260441 0.946303 0.445487
0.266957 0.946288 0.442557
0.276097 0.946136 0.438834
0.287541 0.946151 0.433219
0.300542 0.946197 0.425574
0.337407 0.946105 0.427451
0.375174 0.945983 0.429297
0.412497 0.945693 0.432105
0.448386 0.945571 0.437552
0.485542 0.944839 0.446174
0.542306 0.942626 0.45185
0.598566 0.940444 0.456016
0.651591 0.939467 0.459709
0.700236 0.940078 0.462898
0.737408 0.941192 0.470726
0.777752 0.941543 0.479988
0.816098 0.940871 0.489738
0.851575 0.941512 0.494865
0.891859 0.942214 0.504601
0.925017 0.935653 0.528878
0.946593 0.935775 0.551446
0.949813 0.935317 0.575067
0.949752 0.932021 0.600809
0.949783 0.928939 0.613443
0.949981 0.927825 0.616938
0.949783 0.929885 0.603922
0.949935 0.930098 0.592966
0.288075 0.945998 0.48629
0.287663 0.94609 0.482811
0.287266 0.946166 0.479332
0.286809 0.946181 0.475639
0.287541 0.946181 0.473075
0.28835 0.946197 0.470329
0.289693 0.946212 0.467628
0.295644 0.946014 0.465202
0.302693 0.946029 0.462165
0.32134 0.94609 0.46276
0.347402 0.945968 0.465003
0.374624 0.9458 0.467201
0.405234 0.945708 0.469169
0.438163 0.945541 0.47126
0.471061 0.945418 0.474601
0.503639 0.945205 0.480827
0.541604 0.944152 0.489693
0.591058 0.942763 0.494652
0.642374 0.94139 0.49865
0.693141 0.940826 0.502998
0.735851 0.941161 0.5084
0.772961 0.941085 0.51693
0.812604 0.940734 0.526543
0.846693 0.941024 0.532525
0.877607 0.941741 0.536233
0.907759 0.937774 0.54818
0.939712 0.935531 0.57023
0.949859 0.935088 0.594797
