bundles/resolve-cinematic-luts/Phantom Luts/A7s3 Phntm Arri LUTs G7/ATOMOS Monitoring LUTs/Slog2+Sgamut3cine/Utopia A7s3 Sl2sg3c AML.cube
TITLE "Generated by Resolve"
LUT_3D_SIZE 5
0.0599985 0.0822461 0.0902266
0.243717 0.0717784 0.103044
0.586572 0.0824903 0.19263
0.845441 0.200244 0.405554
0.905425 0.430137 0.616388
0.0529793 0.305272 0.0812848
0.264363 0.285451 0.0878767
0.616236 0.180179 0.144671
0.847532 0.196521 0.360128
0.906462 0.410071 0.566705
0.0635538 0.710994 0.264042
0.130404 0.717235 0.129656
0.685527 0.669108 0.22446
0.915785 0.641672 0.351507
0.925368 0.475929 0.40798
0.245304 0.949783 0.490517
0.275868 0.949874 0.446006
0.647181 0.949828 0.442802
0.938766 0.911162 0.561303
0.949844 0.895506 0.62414
0.627588 0.949874 0.725368
0.624949 0.949828 0.707591
0.712444 0.949752 0.722179
0.897795 0.941131 0.780804
0.948867 0.936858 0.842939
0.0529946 0.086656 0.231891
0.22678 0.0699931 0.23798
0.56997 0.0826581 0.312367
0.840711 0.191791 0.450843
0.901427 0.433692 0.643336
0.0529641 0.278187 0.264042
0.252781 0.279393 0.285039
0.653635 0.149401 0.251804
0.854643 0.214221 0.417105
0.910353 0.471031 0.649516
0.0528573 0.693843 0.379538
0.0776837 0.710201 0.271244
0.67921 0.663981 0.233219
0.925643 0.61297 0.398917
0.924224 0.51664 0.566339
0.238605 0.949828 0.531456
0.249302 0.949783 0.490898
0.605478 0.949783 0.447837
0.938613 0.911025 0.56199
0.949859 0.892256 0.634913
0.63267 0.949874 0.740856
0.640742 0.949767 0.733455
0.709987 0.949798 0.733989
0.895613 0.941436 0.781231
0.948592 0.937011 0.843671
0.0528267 0.106645 0.496696
0.204395 0.0807813 0.528267
0.551751 0.0959487 0.53315
0.796658 0.154894 0.592172
0.883314 0.39118 0.707057
0.0528573 0.245548 0.503349
0.0529641 0.174975 0.598749
0.580789 0.105852 0.554208
0.795483 0.156619 0.570397
0.894759 0.438697 0.713893
0.0529335 0.649149 0.614206
0.0590372 0.651026 0.616693
0.615961 0.628138 0.623133
0.925917 0.534295 0.579843
0.915465 0.570718 0.727581
0.220478 0.935439 0.66067
0.226001 0.939422 0.642527
0.491356 0.949813 0.580423
0.925139 0.905303 0.638346
0.949294 0.875761 0.702739
0.62536 0.949767 0.77937
0.6327 0.949813 0.778027
0.682017 0.949889 0.762509
0.883238 0.94374 0.784558
0.948806 0.936965 0.844327
0.0529335 0.138094 0.710552
0.170596 0.104021 0.746929
0.497612 0.0958267 0.722774
0.767422 0.166552 0.756161
0.809766 0.225132 0.796338
0.0530098 0.23447 0.70869
0.052842 0.160647 0.755077
0.511116 0.102663 0.772839
0.762112 0.170703 0.756069
0.835401 0.293965 0.83006
0.0528725 0.633509 0.772641
0.0530251 0.629602 0.786114
0.496788 0.617487 0.89659
0.885908 0.462486 0.86183
0.887831 0.473777 0.866316
0.202197 0.89575 0.86009
0.204013 0.897749 0.863188
0.421332 0.901213 0.869612
0.876051 0.876371 0.869429
0.940429 0.849439 0.877501
0.594202 0.947463 0.869856
0.610697 0.947463 0.871031
0.67512 0.947402 0.869688
0.832776 0.948211 0.859052
0.947677 0.939437 0.888258
0.0529488 0.163409 0.797345
0.0712444 0.122286 0.810391
0.49015 0.107515 0.811124
0.748302 0.156725 0.780423
0.779721 0.189166 0.807645
0.0529488 0.255222 0.770626
0.0528725 0.241215 0.780636
0.443732 0.106996 0.815335
0.750317 0.161242 0.778042
0.782147 0.193423 0.809888
0.0529793 0.64329 0.822843
0.052842 0.63946 0.83563
0.35317 0.631449 0.907469
0.8804 0.498329 0.905028
0.799527 0.225834 0.825711
0.115572 0.878706 0.91252
0.1234 0.882399 0.921096
0.386145 0.885954 0.939452
0.828916 0.872221 0.939452
0.92929 0.808804 0.930739
0.544594 0.946975 0.940978
0.565744 0.947127 0.943221
0.639231 0.946746 0.944198
0.819898 0.945632 0.94403
0.944884 0.94168 0.940383
