bundles/resolve-cinematic-luts/Phantom Luts/A7s3 Phntm Arri LUTs G7/ATOMOS Monitoring LUTs/Slog2+Sgamut3cine/Utopia A7s3 Sl2sg3c AML.cube
TITLE "Generated by Resolve"
LUT_3D_SIZE 9
0.0599985 0.0822461 0.0902266
0.0854658 0.0786145 0.093492
0.243717 0.0717784 0.103044
0.418448 0.0676738 0.130938
0.586572 0.0824903 0.19263
0.74551 0.119127 0.288792
0.845441 0.200244 0.405554
0.884031 0.319966 0.521584
0.905425 0.430137 0.616388
0.0529183 0.114046 0.0909438
0.0820172 0.110506 0.0861982
0.23299 0.0832532 0.0912032
0.416159 0.0703136 0.11281
0.590661 0.0861219 0.179355
0.748791 0.123934 0.271061
0.84538 0.196933 0.387121
0.881407 0.304128 0.497292
0.901289 0.397589 0.58117
0.0529793 0.305272 0.0812848
0.061326 0.298634 0.0530404
0.264363 0.285451 0.0878767
0.492119 0.226886 0.143694
0.616236 0.180179 0.144671
0.752346 0.121431 0.198627
0.847532 0.196521 0.360128
0.888136 0.317494 0.473899
0.906462 0.410071 0.566705
0.0529793 0.515282 0.130541
0.0529183 0.515633 0.0834669
0.197406 0.517174 0.0529793
0.486458 0.484596 0.125429
0.68632 0.469383 0.208026
0.824842 0.419547 0.267628
0.886442 0.312627 0.258732
0.893019 0.337804 0.40824
0.908782 0.414221 0.551827
0.0635538 0.710994 0.264042
0.0803082 0.714473 0.224537
0.130404 0.717235 0.129656
0.490379 0.687556 0.152804
0.685527 0.669108 0.22446
0.844587 0.658366 0.315648
0.915785 0.641672 0.351507
0.925765 0.566751 0.357809
0.925368 0.475929 0.40798
0.140246 0.88072 0.400427
0.151064 0.884199 0.371389
0.18941 0.887358 0.308186
0.384268 0.887907 0.226459
0.692515 0.848051 0.294865
0.848112 0.828336 0.361944
0.936431 0.808774 0.477546
0.937514 0.800443 0.472114
0.92752 0.762585 0.454124
0.245304 0.949783 0.490517
0.248081 0.949737 0.471519
0.275868 0.949874 0.446006
0.411765 0.949798 0.409689
0.647181 0.949828 0.442802
0.830137 0.936339 0.505501
0.938766 0.911162 0.561303
0.949828 0.898222 0.643275
0.949844 0.895506 0.62414
0.429358 0.949844 0.585519
0.427695 0.949813 0.574166
0.446937 0.949905 0.567285
0.52668 0.949767 0.572793
0.650278 0.949752 0.588006
0.811765 0.947112 0.631968
0.914 0.932464 0.673579
0.94995 0.92578 0.717723
0.949767 0.931868 0.789319
0.627588 0.949874 0.725368
0.61767 0.949798 0.710491
0.624949 0.949828 0.707591
0.650141 0.949813 0.70808
0.712444 0.949752 0.722179
0.815808 0.948898 0.745647
0.897795 0.941131 0.780804
0.944579 0.934737 0.808759
0.948867 0.936858 0.842939
0.0530098 0.0814527 0.108492
0.0797436 0.0785992 0.112367
0.232425 0.0695506 0.159884
0.409155 0.0641031 0.177951
0.573632 0.0769665 0.230579
0.730098 0.105333 0.319539
0.847303 0.199145 0.430167
0.882185 0.32047 0.540505
0.903365 0.435752 0.632471
0.0529946 0.108415 0.115251
0.0781567 0.105257 0.113848
0.2663 0.0816815 0.113436
0.420905 0.0685588 0.131807
0.589837 0.0836194 0.194247
0.750988 0.119707 0.289998
0.850599 0.199771 0.406439
0.883787 0.317082 0.519478
0.903166 0.422538 0.610071
0.0528267 0.300542 0.16112
0.0529793 0.305211 0.0824445
0.261677 0.282795 0.0892958
0.487098 0.221332 0.148867
0.627436 0.158358 0.152056
0.775402 0.139818 0.240482
0.856733 0.214252 0.370031
0.890455 0.331121 0.500526
0.908385 0.434638 0.600412
0.0528115 0.509972 0.189181
0.0528115 0.51635 0.131533
0.130373 0.521752 0.0529335
0.485481 0.483558 0.125292
0.689219 0.462043 0.217044
0.830976 0.402747 0.277333
0.878813 0.280232 0.265934
0.895888 0.344366 0.456016
0.916472 0.459571 0.574228
0.0539864 0.704814 0.308461
0.0634318 0.711971 0.264714
0.110201 0.718761 0.172732
0.462806 0.694163 0.149401
0.685298 0.668818 0.224491
0.847196 0.655375 0.324666
0.918624 0.633494 0.362234
0.930709 0.537301 0.375219
0.923598 0.504829 0.491279
0.135653 0.875898 0.431266
0.138735 0.882277 0.400397
0.170397 0.887861 0.34818
0.321248 0.892653 0.223026
0.687724 0.849119 0.294286
0.84828 0.828458 0.3626
0.936553 0.807263 0.483024
0.936187 0.79704 0.475929
0.923888 0.743526 0.462486
0.241947 0.949783 0.508614
0.244251 0.949737 0.490455
0.259648 0.949813 0.463264
0.385458 0.949844 0.414664
0.632792 0.949737 0.444068
0.827893 0.937057 0.506752
0.938811 0.911192 0.561654
0.949828 0.897734 0.64596
0.949844 0.894041 0.624063
0.432395 0.949859 0.598688
0.433616 0.949889 0.588037
0.44744 0.949935 0.578225
0.519188 0.949737 0.578714
0.644648 0.949935 0.591852
0.808484 0.94754 0.633158
0.913207 0.93254 0.674525
0.94995 0.925795 0.717891
0.949722 0.932067 0.790494
0.633692 0.949905 0.735454
0.632273 0.94992 0.727474
0.6383 0.949874 0.724636
0.655909 0.949828 0.719448
0.715251 0.949844 0.731594
0.813962 0.949035 0.748791
0.896895 0.941238 0.780911
0.944366 0.934737 0.808804
0.948638 0.93698 0.843427
0.0529946 0.086656 0.231891
0.0942702 0.0784466 0.240848
0.22678 0.0699931 0.23798
0.400977 0.0656443 0.269306
0.56997 0.0826581 0.312367
0.725078 0.106691 0.366903
0.840711 0.191791 0.450843
0.878264 0.316289 0.556848
0.901427 0.433692 0.643336
0.0529793 0.109392 0.21297
0.0528267 0.0915999 0.26276
0.243214 0.0713054 0.250843
0.401694 0.0657054 0.247715
0.572793 0.0784772 0.27631
0.723369 0.100465 0.331746
0.845411 0.196063 0.435523
0.879469 0.312764 0.540215
0.900679 0.420539 0.624598
0.0529641 0.278187 0.264042
0.0528267 0.280156 0.264897
0.252781 0.279393 0.285039
0.493065 0.218952 0.256855
0.653635 0.149401 0.251804
0.75259 0.118669 0.289067
0.854643 0.214221 0.417105
0.890883 0.346609 0.541619
0.910353 0.471031 0.649516
0.052903 0.49572 0.295201
0.0529946 0.501045 0.262867
0.0620584 0.512459 0.164218
0.478386 0.48188 0.218463
0.674693 0.446555 0.261387
0.844785 0.366232 0.306462
0.878538 0.286397 0.341253
0.90071 0.365942 0.497261
0.917998 0.490929 0.625071
0.0528573 0.693843 0.379538
0.0527962 0.700008 0.345449
0.0776837 0.710201 0.271244
0.371557 0.707179 0.154879
0.67921 0.663981 0.233219
0.846464 0.645258 0.363775
0.925643 0.61297 0.398917
0.932403 0.513603 0.422599
0.924224 0.51664 0.566339
0.133791 0.868101 0.466545
0.132326 0.873533 0.445212
0.146136 0.883207 0.401892
0.248829 0.891936 0.259342
0.675227 0.850568 0.295277
0.847715 0.827955 0.364294
0.934951 0.803479 0.499641
0.935134 0.792096 0.497307
0.925231 0.728435 0.496941
0.238605 0.949828 0.531456
0.237766 0.949783 0.516976
0.249302 0.949783 0.490898
0.337346 0.949767 0.432502
0.605478 0.949783 0.447837
0.823041 0.938033 0.509865
0.938613 0.911025 0.56199
0.949798 0.896544 0.653498
0.949859 0.892256 0.634913
0.430411 0.949905 0.6121
0.430777 0.949889 0.603632
0.447623 0.949783 0.594034
0.500008 0.949859 0.583291
0.63299 0.949859 0.594156
0.801434 0.948272 0.633768
0.912016 0.932631 0.675441
0.94995 0.92575 0.717464
0.949737 0.932219 0.792538
0.63267 0.949874 0.740856
0.63003 0.949935 0.734539
0.640742 0.949767 0.733455
0.653239 0.949844 0.725078
0.709987 0.949798 0.733989
0.80914 0.949172 0.749477
0.895613 0.941436 0.781231
0.943908 0.934798 0.809018
0.948592 0.937011 0.843671
0.0529641 0.0962234 0.369284
0.0637369 0.0837873 0.393118
0.219364 0.0707256 0.388235
0.393774 0.0689708 0.389136
0.563394 0.0882277 0.423316
0.718059 0.117067 0.465858
0.814298 0.159136 0.495155
0.866072 0.294682 0.586557
0.896819 0.428 0.665644
0.0528878 0.111376 0.374228
0.052842 0.0978866 0.400946
0.202502 0.0732738 0.414664
0.39733 0.0694438 0.391913
0.56347 0.0877699 0.415518
0.719478 0.115709 0.445991
0.818784 0.163592 0.48307
0.866789 0.291447 0.573922
0.895308 0.414618 0.650401
0.052842 0.270329 0.375845
0.0529335 0.265949 0.390829
0.146487 0.238972 0.47657
0.461112 0.164508 0.450111
0.590692 0.102266 0.406088
0.727031 0.1149 0.408316
0.828214 0.179263 0.466712
0.878187 0.325887 0.578332
0.905592 0.467796 0.674998
0.0528878 0.469017 0.440436
0.0529946 0.470909 0.442359
0.0529488 0.469322 0.44033
0.451102 0.470024 0.469917
0.674449 0.422049 0.445823
0.852811 0.347158 0.423804
0.862547 0.237766 0.429648
0.896574 0.370993 0.560174
0.914305 0.522698 0.689509
0.0528878 0.675166 0.492119
0.0528573 0.678157 0.480995
0.0569009 0.682597 0.447089
0.286168 0.702235 0.390967
0.651041 0.653544 0.430777
0.830762 0.624399 0.450065
0.936019 0.561181 0.475151
0.92224 0.498772 0.4934
0.9187 0.529549 0.663996
0.125368 0.851347 0.542626
0.125292 0.854734 0.52903
0.135607 0.861997 0.49929
0.194949 0.876554 0.410666
0.600504 0.870787 0.396536
0.832441 0.821454 0.445151
0.930556 0.7944 0.536385
0.931517 0.775921 0.542229
0.926421 0.690883 0.572381
0.234852 0.949218 0.575784
0.233524 0.949722 0.566293
0.240375 0.949874 0.54934
0.268925 0.949935 0.493385
0.53167 0.949783 0.460014
0.809537 0.940719 0.517632
0.938094 0.91043 0.562814
0.949706 0.894072 0.667918
0.949752 0.886534 0.658885
0.428244 0.949828 0.640482
0.426917 0.94995 0.634974
0.441672 0.949798 0.627649
0.475975 0.949737 0.606729
0.598993 0.949874 0.603403
0.77882 0.949493 0.634836
0.909087 0.932921 0.677455
0.949935 0.925719 0.715846
0.949828 0.932586 0.796292
0.630579 0.949767 0.754513
0.62742 0.94992 0.74966
0.636439 0.949798 0.749035
0.658488 0.949935 0.746151
0.697292 0.949935 0.740276
0.794797 0.949783 0.751354
0.891295 0.942367 0.78233
0.942779 0.934981 0.809445
0.948699 0.93698 0.843854
0.0528267 0.106645 0.496696
0.0529488 0.0919051 0.52047
0.204395 0.0807813 0.528267
0.382193 0.0732738 0.519951
0.551751 0.0959487 0.53315
0.716075 0.122835 0.556893
0.796658 0.154894 0.592172
0.839963 0.24361 0.639399
0.883314 0.39118 0.707057
0.0529183 0.115663 0.513512
0.0529946 0.108324 0.525032
0.172549 0.0846265 0.552377
0.378195 0.0740826 0.527993
0.553307 0.0961318 0.533974
0.715175 0.122225 0.55227
0.797559 0.154391 0.585229
0.838865 0.238285 0.630396
0.879805 0.374456 0.694972
0.0528573 0.245548 0.503349
0.0527962 0.234653 0.516808
0.0529641 0.174975 0.598749
0.380118 0.099794 0.58587
0.580789 0.105852 0.554208
0.718181 0.12369 0.545144
0.795483 0.156619 0.570397
0.850584 0.272312 0.63621
0.894759 0.438697 0.713893
0.052903 0.458747 0.552285
0.0529335 0.457633 0.558587
0.0530251 0.450141 0.574136
0.362264 0.443168 0.645747
0.651621 0.3738 0.623484
0.80206 0.264698 0.585031
0.812451 0.174365 0.539559
0.864652 0.305867 0.622492
0.907408 0.506172 0.731106
0.0529335 0.649149 0.614206
0.052903 0.650401 0.616114
0.0590372 0.651026 0.616693
0.236561 0.653986 0.622126
0.615961 0.628138 0.623133
0.826123 0.595331 0.607172
0.925917 0.534295 0.579843
0.910582 0.438468 0.597833
0.915465 0.570718 0.727581
0.11632 0.828519 0.648722
0.114839 0.83032 0.64416
0.121996 0.833661 0.633341
0.167086 0.836378 0.590951
0.534569 0.847257 0.578927
0.797147 0.80029 0.609964
0.915755 0.777111 0.61857
0.932906 0.733761 0.626123
0.930297 0.661692 0.661021
0.220478 0.935439 0.66067
0.219074 0.937011 0.654902
0.226001 0.939422 0.642527
0.252262 0.947066 0.607156
0.491356 0.949813 0.580423
0.772091 0.940261 0.607217
0.925139 0.905303 0.638346
0.949828 0.889555 0.699351
0.949294 0.875761 0.702739
0.423545 0.949813 0.688197
0.423499 0.949783 0.685466
0.439094 0.949889 0.682124
0.469368 0.949859 0.671092
0.527382 0.949935 0.631693
0.72987 0.949935 0.640467
0.90103 0.934249 0.686412
0.94995 0.925734 0.716365
0.949859 0.932998 0.804181
0.62536 0.949767 0.77937
0.623194 0.949767 0.776867
0.6327 0.949813 0.778027
0.654536 0.949798 0.777279
0.682017 0.949889 0.762509
0.765576 0.949752 0.758053
0.883238 0.94374 0.784558
0.942306 0.936049 0.811505
0.948806 0.936965 0.844327
0.052903 0.12137 0.607462
0.060853 0.0999008 0.635691
0.201694 0.0918746 0.644831
0.365881 0.0845808 0.630365
0.526802 0.0893568 0.63299
0.703273 0.131777 0.65977
0.783093 0.160266 0.67866
0.791989 0.181765 0.703288
0.855558 0.320104 0.768612
0.0528115 0.132921 0.625254
0.0528878 0.123262 0.631083
0.146777 0.0963912 0.660334
0.359442 0.0866865 0.649226
0.523613 0.0888685 0.635264
0.70312 0.131563 0.659678
0.783383 0.159579 0.675959
0.793667 0.179492 0.702068
0.851698 0.302678 0.760235
0.052903 0.213458 0.619089
0.0528573 0.203052 0.632288
0.0528725 0.136416 0.683177
0.316167 0.0933242 0.695842
0.551812 0.11107 0.684291
0.708812 0.135607 0.663874
0.778729 0.163333 0.674296
0.793896 0.187488 0.698802
0.873579 0.383932 0.7832
0.0529641 0.453971 0.636576
0.0529488 0.448554 0.641443
0.052903 0.433814 0.659068
0.269825 0.400397 0.783215
0.593713 0.312184 0.783001
0.750301 0.194873 0.698131
0.78381 0.168704 0.669779
0.812207 0.218265 0.702098
0.89369 0.462028 0.794461
0.052842 0.631479 0.704768
0.0528573 0.631067 0.710033
0.0528725 0.629038 0.718578
0.120638 0.639551 0.756588
0.550149 0.619577 0.789593
0.807828 0.568826 0.766995
0.904036 0.488869 0.750454
0.87248 0.358907 0.720424
0.906767 0.527459 0.788571
0.116854 0.801175 0.760037
0.114702 0.802487 0.761959
0.121355 0.803891 0.762936
0.155337 0.80058 0.758618
0.495827 0.797391 0.764858
0.764858 0.771023 0.761181
0.910689 0.745647 0.75346
0.931624 0.693797 0.732891
0.920211 0.629465 0.755657
0.208164 0.913756 0.769802
0.204746 0.915236 0.768307
0.210025 0.916701 0.763272
0.223224 0.919249 0.748608
0.45301 0.929931 0.731411
0.71313 0.924453 0.737026
0.898878 0.892973 0.76405
0.946807 0.880659 0.768353
0.943679 0.861341 0.79469
0.38645 0.949172 0.771557
0.388846 0.949203 0.770047
0.408087 0.949538 0.768215
0.447501 0.949844 0.761303
0.515404 0.949859 0.740993
0.694484 0.94995 0.744717
0.884062 0.942565 0.767773
0.949569 0.932082 0.787793
0.949859 0.933639 0.823789
0.61619 0.949065 0.815183
0.616541 0.949096 0.81445
0.628107 0.949203 0.816114
0.650584 0.949203 0.818433
0.679881 0.949462 0.813886
0.714885 0.949935 0.78114
0.863157 0.946014 0.787564
0.940459 0.938293 0.817853
0.948745 0.937179 0.846006
0.0529335 0.138094 0.710552
0.0529641 0.116335 0.732036
0.170596 0.104021 0.746929
0.347402 0.0971847 0.740795
0.497612 0.0958267 0.722774
0.67776 0.13254 0.738979
0.767422 0.166552 0.756161
0.778256 0.184314 0.764721
0.809766 0.225132 0.796338
0.0530251 0.151034 0.717372
0.0528878 0.145342 0.721309
0.109728 0.107683 0.749859
0.334676 0.0987869 0.752819
0.501122 0.0968032 0.732586
0.677577 0.13257 0.739742
0.767483 0.166323 0.755306
0.780255 0.182452 0.765728
0.802029 0.206607 0.785397
0.0530098 0.23447 0.70869
0.0528573 0.226123 0.719783
0.052842 0.160647 0.755077
0.264927 0.103807 0.780133
0.511116 0.102663 0.772839
0.697917 0.14284 0.758373
0.762112 0.170703 0.756069
0.777188 0.188113 0.765347
0.835401 0.293965 0.83006
0.0529335 0.445045 0.704768
0.052781 0.43827 0.710933
0.0529641 0.419226 0.730648
0.174472 0.369085 0.857832
0.522713 0.281727 0.86804
0.703197 0.172412 0.784878
0.76759 0.180194 0.759426
0.776211 0.191959 0.764355
0.865019 0.390478 0.856931
0.0528725 0.633509 0.772641
0.0528878 0.632853 0.778851
0.0530251 0.629602 0.786114
0.0822309 0.63682 0.821759
0.496788 0.617487 0.89659
0.777569 0.554955 0.896651
0.885908 0.462486 0.86183
0.833127 0.293019 0.814176
0.887831 0.473777 0.866316
0.0535897 0.775616 0.823163
0.0529641 0.777127 0.828641
0.0591592 0.77911 0.835615
0.110063 0.782116 0.852399
0.443244 0.791806 0.878813
0.715206 0.763836 0.883619
0.896666 0.726101 0.866911
0.917708 0.668177 0.858106
0.907958 0.584009 0.850278
0.202197 0.89575 0.86009
0.198962 0.896941 0.862394
0.204013 0.897749 0.863188
0.216495 0.898558 0.8636
0.421332 0.901213 0.869612
0.686091 0.891539 0.87039
0.876051 0.876371 0.869429
0.942473 0.863722 0.865766
0.940429 0.849439 0.877501
0.345296 0.947036 0.8607
0.348577 0.947311 0.861097
0.369512 0.947463 0.861128
0.412375 0.947951 0.860456
0.477852 0.948226 0.855879
0.677592 0.947707 0.856077
0.850462 0.945022 0.858167
0.94107 0.93341 0.874327
0.946975 0.931868 0.874952
0.594202 0.947463 0.869856
0.595712 0.94754 0.870604
0.610697 0.947463 0.871031
0.640314 0.947372 0.871168
0.67512 0.947402 0.869688
0.713848 0.947845 0.858457
0.832776 0.948211 0.859052
0.929549 0.941451 0.875441
0.947677 0.939437 0.888258
0.0529488 0.153552 0.780148
0.0528115 0.147692 0.785901
0.120897 0.113252 0.800244
0.323171 0.105791 0.806165
0.488228 0.104433 0.79176
0.631754 0.112322 0.769345
0.759701 0.167514 0.787137
0.769802 0.182757 0.797208
0.782452 0.19498 0.807919
0.0528725 0.16376 0.771954
0.0528878 0.15996 0.778561
0.0673381 0.120256 0.796933
0.303975 0.106569 0.808576
0.495201 0.105364 0.798444
0.63122 0.112139 0.769131
0.759838 0.167681 0.787091
0.770886 0.181735 0.798413
0.784451 0.192844 0.810117
0.0529793 0.247745 0.75375
0.0529946 0.245808 0.762387
0.052842 0.207828 0.77319
0.203235 0.111177 0.816968
0.477348 0.10724 0.813153
0.687037 0.138567 0.793881
0.757488 0.170886 0.784726
0.768688 0.186099 0.795239
0.788739 0.203128 0.814481
0.0529641 0.447623 0.744335
0.0530404 0.441321 0.751537
0.0528115 0.420859 0.770031
0.0529946 0.370474 0.846708
0.466712 0.278111 0.887709
0.674022 0.173251 0.829725
0.767666 0.185214 0.794522
0.768338 0.189609 0.794461
0.827451 0.286671 0.851698
0.0529946 0.637598 0.807263
0.0530251 0.636439 0.813016
0.0528725 0.631693 0.819608
0.052903 0.62623 0.843153
0.447486 0.621073 0.926528
0.73959 0.56144 0.935607
0.881849 0.472236 0.898436
0.809659 0.256779 0.832853
0.859388 0.383978 0.879896
0.0528725 0.772045 0.85919
0.0530098 0.772885 0.864576
0.0528878 0.771466 0.867979
0.0573281 0.770932 0.880537
0.407843 0.79617 0.917464
0.683253 0.765988 0.936553
0.882139 0.721431 0.928206
0.912825 0.660166 0.916838
0.899626 0.555825 0.912459
0.175647 0.885847 0.90338
0.172213 0.887114 0.906706
0.183688 0.887327 0.909545
0.214298 0.886198 0.914397
0.399847 0.890013 0.929839
0.66511 0.884062 0.93228
0.84863 0.871534 0.927779
0.9355 0.85214 0.919875
0.931456 0.815274 0.917006
0.309316 0.940276 0.9149
0.308415 0.941558 0.91722
0.332387 0.942412 0.918791
0.385977 0.943587 0.921736
0.463432 0.943999 0.924132
0.660853 0.940551 0.925444
0.837873 0.934401 0.92488
0.930922 0.927855 0.92343
0.946075 0.929046 0.927672
0.567102 0.946929 0.917754
0.570459 0.947036 0.918853
0.586816 0.946822 0.919463
0.618952 0.94667 0.920226
0.656458 0.946563 0.921172
0.698466 0.946456 0.918914
0.83212 0.945403 0.918181
0.918761 0.943832 0.919387
0.94548 0.941314 0.92697
0.0529488 0.163409 0.797345
0.0529488 0.16405 0.79794
0.0712444 0.122286 0.810391
0.294575 0.108324 0.819501
0.49015 0.107515 0.811124
0.628351 0.115007 0.786908
0.748302 0.156725 0.780423
0.766354 0.176272 0.794263
0.779721 0.189166 0.807645
0.052842 0.172152 0.78648
0.0528573 0.16878 0.793805
0.0529183 0.141863 0.80856
0.272084 0.108873 0.819593
0.490837 0.107378 0.811917
0.630243 0.115557 0.785367
0.748928 0.157595 0.781125
0.76672 0.176272 0.794583
0.781384 0.18732 0.809964
0.0529488 0.255222 0.770626
0.0529641 0.253758 0.778561
0.0528725 0.241215 0.780636
0.115312 0.117281 0.814694
0.443732 0.106996 0.815335
0.675303 0.132555 0.794064
0.750317 0.161242 0.778042
0.763592 0.179156 0.790433
0.782147 0.193423 0.809888
0.0527962 0.453864 0.763088
0.052781 0.452613 0.768612
0.0528878 0.441215 0.785641
0.0530556 0.397543 0.791531
0.412619 0.307652 0.895613
0.654292 0.195819 0.846433
0.768444 0.184451 0.795911
0.762798 0.181735 0.789166
0.783932 0.199573 0.811048
0.0529793 0.64329 0.822843
0.0528267 0.642176 0.828321
0.052842 0.63946 0.83563
0.0529641 0.624628 0.837858
0.35317 0.631449 0.907469
0.686381 0.57998 0.940871
0.8804 0.498329 0.905028
0.823758 0.285817 0.846006
0.799527 0.225834 0.825711
0.0528725 0.774365 0.873793
0.052842 0.775479 0.879469
0.0528573 0.774441 0.883131
0.0529335 0.768673 0.888212
0.3561 0.791638 0.917296
0.649607 0.775326 0.933501
0.861784 0.73167 0.933761
0.914153 0.673884 0.919524
0.898421 0.545266 0.91075
0.115572 0.878706 0.91252
0.110201 0.880323 0.916457
0.1234 0.882399 0.921096
0.176089 0.88365 0.929168
0.386145 0.885954 0.939452
0.652491 0.884428 0.940993
0.828916 0.872221 0.939452
0.931991 0.849912 0.933928
0.92929 0.808804 0.930739
0.294469 0.934356 0.933364
0.293782 0.935424 0.935683
0.308568 0.936996 0.937591
0.375433 0.938872 0.940093
0.49575 0.939132 0.942901
0.644739 0.935683 0.943511
0.82211 0.930419 0.943084
0.920165 0.925612 0.940703
0.943206 0.918074 0.938003
0.544594 0.946975 0.940978
0.548623 0.947021 0.942245
0.565744 0.947127 0.943221
0.598062 0.946929 0.94374
0.639231 0.946746 0.944198
0.68513 0.946487 0.944228
0.819898 0.945632 0.94403
0.91429 0.943664 0.942763
0.944884 0.94168 0.940383
