bundles/resolve-cinematic-luts/Phantom Luts/A7s3 Phntm Arri LUTs G7/ATOMOS Monitoring LUTs/Slog2+Sgamut3cine/Utopia A7s3 Sl2sg3c AML.cube
TITLE "Generated by Resolve"
LUT_3D_SIZE 33
0.0599985 0.0822461 0.0902266
0.0599985 0.0822461 0.0902266
0.0599985 0.0822461 0.0902266
0.0610666 0.0822003 0.0898604
0.0854658 0.0786145 0.093492
0.121874 0.0771649 0.094728
0.160525 0.0760204 0.0976272
0.201602 0.074052 0.100084
0.243717 0.0717784 0.103044
0.287251 0.0696727 0.106294
0.331991 0.0699016 0.110872
0.37464 0.0674449 0.119051
0.418448 0.0676738 0.130938
0.462837 0.0695354 0.144213
0.506111 0.0732891 0.159075
0.547265 0.0780804 0.175006
0.586572 0.0824903 0.19263
0.62533 0.0877852 0.212436
0.665461 0.0953078 0.235492
0.706355 0.105608 0.26041
0.74551 0.119127 0.288792
0.779995 0.133913 0.317403
0.810208 0.151888 0.347051
0.83154 0.173816 0.376165
0.845441 0.200244 0.405554
0.857053 0.229114 0.435187
0.867353 0.25922 0.464775
0.875578 0.288609 0.493065
0.884031 0.319966 0.521584
0.891432 0.351476 0.54902
0.897704 0.38114 0.574426
0.902373 0.40734 0.596826
0.905425 0.430137 0.616388
0.0600137 0.0822461 0.0902419
0.0599985 0.0822461 0.0902266
0.0599985 0.0822461 0.0902266
0.0608835 0.0822461 0.0898756
0.0829633 0.0791485 0.0934005
0.119493 0.0773327 0.0945907
0.158145 0.0762493 0.0974746
0.199786 0.0742504 0.0999161
0.242679 0.071931 0.102937
0.286931 0.069688 0.106065
0.332403 0.0699016 0.110857
0.375082 0.0673991 0.119158
0.418967 0.0677195 0.131136
0.46334 0.0696117 0.144457
0.506645 0.0733654 0.159319
0.547753 0.0781109 0.175097
0.587045 0.0825513 0.192782
0.625574 0.0878767 0.212345
0.665171 0.0953994 0.234684
0.705562 0.105638 0.259113
0.744289 0.118914 0.286549
0.778668 0.13344 0.314382
0.809247 0.151003 0.343145
0.830961 0.172732 0.371969
0.84506 0.198077 0.400717
0.855924 0.225772 0.429297
0.865843 0.254368 0.457588
0.874678 0.283177 0.485435
0.882521 0.312566 0.512337
0.889448 0.341756 0.538293
0.89572 0.369253 0.562417
0.90013 0.393866 0.583444
0.90341 0.414893 0.601511
0.0600137 0.0822461 0.0902419
0.0599985 0.0822461 0.0902266
0.0599985 0.0822461 0.0902266
0.0604105 0.0823529 0.0899519
0.0750286 0.0815442 0.0919509
0.106783 0.078706 0.0936751
0.14464 0.0773785 0.0964523
0.186877 0.0752575 0.0987564
0.231281 0.0727703 0.101366
0.277638 0.0703899 0.104097
0.324926 0.068513 0.110689
0.370657 0.0680247 0.117388
0.415381 0.0676738 0.128664
0.461112 0.0694591 0.14287
0.505653 0.0734417 0.158404
0.546883 0.0782635 0.174212
0.58587 0.0827344 0.191089
0.624155 0.087892 0.210117
0.663691 0.0952926 0.232319
0.70428 0.105638 0.257084
0.743114 0.118639 0.283879
0.777569 0.133043 0.311803
0.808225 0.150561 0.340749
0.829953 0.171054 0.368994
0.844083 0.195819 0.397269
0.855406 0.223377 0.425864
0.864988 0.251209 0.453727
0.873411 0.278508 0.480262
0.880934 0.306203 0.506035
0.887938 0.334386 0.531258
0.894026 0.360784 0.55436
0.898512 0.384131 0.574716
0.901457 0.404028 0.591852
0.0597086 0.0835737 0.0905928
0.0599374 0.0835279 0.0905928
0.0604868 0.0834058 0.0904707
0.0613718 0.0832532 0.0902724
0.0686503 0.0839094 0.0904097
0.0935683 0.0818189 0.093019
0.132998 0.080293 0.0954299
0.174166 0.0767987 0.0972457
0.220768 0.0740673 0.099733
0.268818 0.071397 0.10277
0.317479 0.0688182 0.106645
0.365454 0.0670481 0.117037
0.411063 0.0676738 0.125689
0.457877 0.069688 0.139605
0.503471 0.073518 0.155734
0.545113 0.0785534 0.17174
0.584741 0.0830701 0.188434
0.623316 0.0883497 0.207675
0.663096 0.0958114 0.229755
0.703639 0.106111 0.253956
0.742306 0.118853 0.280934
0.776867 0.133074 0.308705
0.807538 0.150393 0.337591
0.829389 0.170062 0.365896
0.843595 0.194141 0.393957
0.85449 0.221118 0.422126
0.864332 0.248463 0.449638
0.872877 0.275456 0.476005
0.88014 0.302068 0.50106
0.886946 0.328847 0.525231
0.892821 0.354208 0.547417
0.897231 0.376516 0.566842
0.900069 0.395453 0.583459
0.0529183 0.114046 0.0909438
0.0529641 0.113008 0.0903944
0.0586557 0.109743 0.0865034
0.0670634 0.106035 0.0876478
0.0820172 0.110506 0.0861982
0.114809 0.10631 0.0952773
0.148623 0.0999313 0.0959945
0.186801 0.0925307 0.09308
0.23299 0.0832532 0.0912032
0.282765 0.0788281 0.0956283
0.329641 0.0747539 0.0982376
0.371374 0.0708019 0.101213
0.416159 0.0703136 0.11281
0.465904 0.0705119 0.128603
0.510307 0.0746777 0.147646
0.551125 0.0797131 0.165774
0.590661 0.0861219 0.179355
0.62948 0.0926528 0.197177
0.670146 0.100664 0.219699
0.710811 0.111238 0.245029
0.748791 0.123934 0.271061
0.782727 0.138201 0.299733
0.812085 0.154467 0.329
0.832273 0.173434 0.358358
0.84538 0.196933 0.387121
0.856321 0.223667 0.416144
0.866011 0.250965 0.444556
0.874281 0.277455 0.471473
0.881407 0.304128 0.497292
0.888334 0.331502 0.521523
0.894118 0.356771 0.544091
0.898085 0.378683 0.563973
0.901289 0.397589 0.58117
0.052903 0.159915 0.0824598
0.052903 0.159182 0.0814069
0.0529488 0.154086 0.0755627
0.06009 0.149844 0.073228
0.0877241 0.15285 0.0760662
0.124269 0.151873 0.083711
0.166873 0.148959 0.0936446
0.216587 0.134508 0.103182
0.252064 0.125124 0.103395
0.292073 0.11548 0.099321
0.335164 0.102861 0.0942702
0.379385 0.0886549 0.0897993
0.425757 0.0796979 0.0944839
0.471641 0.0747234 0.107118
0.508354 0.072221 0.119722
0.550576 0.0799115 0.14255
0.597009 0.0875257 0.16759
0.636271 0.0933394 0.190265
0.675517 0.099855 0.214969
0.716915 0.114336 0.237354
0.75462 0.128374 0.262455
0.787381 0.141436 0.291035
0.816648 0.158404 0.321172
0.834669 0.175982 0.350652
0.847181 0.199817 0.380774
0.857877 0.226047 0.410697
0.866804 0.252476 0.439185
0.874846 0.279133 0.466972
0.882292 0.306172 0.4934
0.889158 0.333654 0.518456
0.895003 0.359014 0.541054
0.899153 0.381109 0.561593
0.902144 0.399771 0.579065
0.0529641 0.206332 0.0766918
0.0529641 0.206073 0.0752422
0.052781 0.201068 0.0661173
0.0529946 0.196002 0.0571756
0.0846571 0.199557 0.0634775
0.127291 0.198154 0.0693217
0.16701 0.19321 0.0839551
0.215518 0.190188 0.0905318
0.276478 0.172763 0.104509
0.327123 0.152728 0.111376
0.359472 0.146273 0.110201
0.395941 0.13521 0.106798
0.433982 0.119341 0.10161
0.47396 0.101122 0.0987259
0.514061 0.0890669 0.103868
0.554757 0.0864881 0.121752
0.589914 0.0841535 0.139147
0.632334 0.0929732 0.166873
0.68249 0.105669 0.198672
0.723415 0.115526 0.228565
0.758099 0.125704 0.259327
0.791577 0.14316 0.284337
0.821088 0.161776 0.311666
0.838087 0.179675 0.341299
0.849561 0.202747 0.372351
0.859586 0.228717 0.403082
0.868574 0.255177 0.433219
0.876539 0.281666 0.461845
0.883711 0.30901 0.489067
0.890593 0.336645 0.514488
0.896513 0.361975 0.537667
0.900633 0.383917 0.558053
0.903319 0.402457 0.575662
0.0529641 0.254871 0.0763256
0.0529641 0.254719 0.0740826
0.0527657 0.250004 0.0614023
0.0529488 0.245716 0.0529488
0.0735485 0.249042 0.0529488
0.127016 0.247608 0.0587472
0.163409 0.245136 0.0662089
0.214221 0.238102 0.0855421
0.267597 0.234928 0.0882124
0.334249 0.218799 0.107256
0.390967 0.195331 0.121752
0.427787 0.182437 0.124727
0.458839 0.173999 0.123552
0.493584 0.161166 0.121462
0.528618 0.144533 0.118364
0.561196 0.125826 0.118746
0.596399 0.108263 0.12282
0.634058 0.10277 0.142931
0.669673 0.0986038 0.163302
0.718151 0.113085 0.198459
0.764736 0.131701 0.237858
0.797391 0.145434 0.273899
0.821607 0.157488 0.308919
0.839216 0.180255 0.332967
0.851316 0.205356 0.361944
0.862135 0.232532 0.393118
0.870939 0.259037 0.424323
0.878874 0.285298 0.454215
0.886137 0.313024 0.482948
0.892638 0.340383 0.509194
0.898177 0.365652 0.532998
0.901869 0.387198 0.553597
0.904555 0.40557 0.571847
0.0529793 0.305272 0.0812848
0.0529793 0.305379 0.0791485
0.0527657 0.301488 0.0627756
0.0529488 0.29778 0.0529488
0.061326 0.298634 0.0530404
0.110643 0.300862 0.0529641
0.159579 0.298146 0.0551003
0.205951 0.294255 0.0670176
0.264363 0.285451 0.0878767
0.323812 0.282506 0.0869612
0.385672 0.269413 0.108751
0.446891 0.246876 0.131136
0.492119 0.226886 0.143694
0.520607 0.219745 0.144961
0.553445 0.208774 0.144167
0.585199 0.195865 0.144686
0.616236 0.180179 0.144671
0.646769 0.158083 0.145403
0.678767 0.131884 0.147982
0.715877 0.121279 0.170733
0.752346 0.121431 0.198627
0.796033 0.147372 0.242771
0.8271 0.166293 0.28542
0.838758 0.178805 0.32224
0.847532 0.196521 0.360128
0.861631 0.23093 0.385382
0.872831 0.261967 0.414572
0.880705 0.289113 0.443976
0.888136 0.317494 0.473899
0.894652 0.345357 0.501457
0.899977 0.369985 0.526284
0.903807 0.391806 0.548241
0.906462 0.410071 0.566705
0.0527962 0.358297 0.0884565
0.052781 0.358511 0.0871901
0.0529641 0.356146 0.0723583
0.052781 0.352987 0.052903
0.0529488 0.350835 0.0529488
0.0851759 0.355657 0.0529488
0.142245 0.355688 0.0530098
0.200351 0.350637 0.0567636
0.25304 0.345586 0.0711528
0.31873 0.335866 0.0923476
0.380804 0.333608 0.0856794
0.435737 0.325689 0.111116
0.497444 0.305821 0.140032
0.546502 0.287358 0.159274
0.580774 0.275074 0.1682
0.610513 0.264912 0.172473
0.641123 0.253483 0.174487
0.671885 0.23743 0.175845
0.701152 0.21709 0.175311
0.732372 0.189059 0.174807
0.759167 0.157 0.177478
0.783475 0.139498 0.199023
0.819379 0.158923 0.242023
0.839933 0.185748 0.287739
0.851331 0.206561 0.333791
0.860594 0.227771 0.37673
0.868605 0.251179 0.415717
0.880842 0.28835 0.438834
0.889799 0.321981 0.464591
0.896925 0.351278 0.492164
0.902449 0.375723 0.51812
0.905623 0.396597 0.54052
0.90808 0.414771 0.559731
0.052842 0.411032 0.0985275
0.0528725 0.411231 0.098436
0.0527504 0.409857 0.0848096
0.0529488 0.407568 0.0648356
0.0528878 0.406424 0.0528878
0.0635538 0.406607 0.0530251
0.112993 0.411154 0.0529641
0.181353 0.408194 0.0529335
0.249393 0.400519 0.0636759
0.303944 0.395712 0.0779736
0.375158 0.385428 0.0995804
0.436942 0.384665 0.0860914
0.48806 0.379797 0.115572
0.545693 0.366918 0.150546
0.596338 0.351354 0.174716
0.634501 0.339437 0.189334
0.663172 0.330999 0.198413
0.695674 0.315282 0.206348
0.727901 0.299153 0.208774
0.758267 0.27866 0.209155
0.78407 0.251423 0.205783
0.808194 0.218021 0.203433
0.821515 0.180819 0.207294
0.833921 0.179385 0.23769
0.851698 0.213809 0.290303
0.863813 0.239338 0.343908
0.872221 0.260471 0.390509
0.879103 0.282872 0.431724
0.885206 0.307744 0.468177
0.896483 0.348501 0.488212
0.903548 0.379873 0.50901
0.908003 0.403006 0.531304
0.910323 0.420874 0.551659
0.0529793 0.46334 0.11223
0.0529793 0.463554 0.112428
0.0529641 0.462867 0.101274
0.0527504 0.461204 0.0814374
0.0530098 0.462242 0.0586709
0.0528878 0.460594 0.0528878
0.0810407 0.462913 0.0531014
0.148989 0.465263 0.0528573
0.23122 0.458778 0.0567636
0.306004 0.447807 0.0726329
0.359136 0.445945 0.0884565
0.431403 0.435508 0.110018
0.492134 0.434821 0.0916915
0.541131 0.432044 0.123873
0.592416 0.424109 0.162478
0.64268 0.411948 0.190158
0.68304 0.400488 0.209003
0.711055 0.394095 0.218921
0.745907 0.378546 0.232166
0.780438 0.358862 0.240024
0.810162 0.339117 0.24213
0.834333 0.314778 0.239933
0.853468 0.284779 0.23595
0.859586 0.243717 0.228962
0.851392 0.210529 0.235584
0.860883 0.232837 0.284016
0.873838 0.269932 0.345235
0.882658 0.296101 0.400183
0.889311 0.319326 0.445487
0.895155 0.343618 0.483131
0.899916 0.366339 0.515633
0.907393 0.400305 0.528847
0.911727 0.425696 0.543297
0.0529793 0.515282 0.130541
0.0529335 0.515435 0.130892
0.0530098 0.515648 0.122087
0.0529641 0.514427 0.104372
0.0529183 0.515633 0.0834669
0.0540627 0.51606 0.0618601
0.0666819 0.514672 0.0530098
0.11281 0.518639 0.052842
0.197406 0.517174 0.0529793
0.291325 0.50602 0.0694285
0.361639 0.496101 0.0839399
0.415259 0.495109 0.103212
0.486458 0.484596 0.125429
0.544915 0.484077 0.104646
0.591913 0.482658 0.135821
0.638376 0.479301 0.178607
0.68632 0.469383 0.208026
0.728603 0.458228 0.229465
0.75877 0.452262 0.241276
0.791379 0.439918 0.254047
0.824842 0.419547 0.267628
0.85388 0.397269 0.272847
0.876036 0.374655 0.272099
0.890623 0.345861 0.267582
0.886442 0.312627 0.258732
0.871702 0.261845 0.245014
0.873899 0.262287 0.278874
0.884703 0.307683 0.347173
0.893019 0.337804 0.40824
0.898985 0.358724 0.455482
0.903899 0.379126 0.494072
0.906828 0.397482 0.52549
0.908782 0.414221 0.551827
0.0528725 0.565469 0.157717
0.0528725 0.565652 0.158007
0.052842 0.566476 0.150454
0.0528115 0.566247 0.133501
0.0529793 0.567102 0.112169
0.0587167 0.568368 0.0971389
0.0696269 0.56846 0.070634
0.094255 0.568627 0.0529793
0.161639 0.57113 0.0531167
0.259449 0.565393 0.0658274
0.35787 0.551034 0.0878309
0.418509 0.544778 0.0998856
0.471244 0.544152 0.12369
0.539605 0.532464 0.144396
0.595468 0.531823 0.12343
0.64094 0.531441 0.150515
0.684108 0.529335 0.198566
0.729747 0.521843 0.229343
0.772869 0.512245 0.252628
0.802441 0.50602 0.265476
0.829496 0.497292 0.275853
0.859998 0.48098 0.289021
0.888319 0.456291 0.30074
0.908522 0.43299 0.302831
0.909392 0.405936 0.297124
0.903212 0.375036 0.288533
0.893614 0.335302 0.277165
0.889235 0.311894 0.290745
0.895415 0.338308 0.344518
0.901701 0.375647 0.406928
0.906676 0.397101 0.458808
0.91043 0.413184 0.49865
0.912642 0.428092 0.530404
0.0529335 0.615686 0.189914
0.0529335 0.61593 0.189776
0.0529183 0.616663 0.18407
0.0528878 0.616815 0.168627
0.0588083 0.617838 0.148058
0.0666361 0.618875 0.130785
0.0753796 0.620478 0.112902
0.0923781 0.620249 0.0792096
0.135027 0.619806 0.0566567
0.227115 0.619913 0.0707256
0.332555 0.609522 0.091371
0.42948 0.59266 0.11104
0.474372 0.591943 0.122423
0.527398 0.590509 0.14789
0.590784 0.579187 0.168505
0.643793 0.577935 0.148531
0.688304 0.578058 0.172763
0.730999 0.575738 0.223896
0.772793 0.570871 0.25568
0.81033 0.562982 0.277821
0.838651 0.557351 0.290974
0.861143 0.551125 0.299138
0.886488 0.538125 0.309987
0.910414 0.518517 0.320745
0.921477 0.493584 0.326467
0.920241 0.465446 0.324941
0.91574 0.436179 0.318212
0.910155 0.403571 0.310079
0.902663 0.367895 0.308263
0.905486 0.376974 0.348226
0.909865 0.407935 0.405249
0.91223 0.432486 0.453559
0.914977 0.447227 0.49572
0.0528573 0.664164 0.226001
0.0528878 0.664439 0.225147
0.0548257 0.665461 0.218036
0.060853 0.666041 0.203342
0.0686656 0.666987 0.185534
0.0768902 0.66772 0.167224
0.0861219 0.669078 0.14931
0.0997787 0.669886 0.122179
0.123873 0.668742 0.0818799
0.193851 0.670283 0.0790265
0.308324 0.664073 0.099794
0.414694 0.649241 0.122179
0.489296 0.636851 0.134707
0.528969 0.638437 0.149538
0.580972 0.63621 0.174838
0.639078 0.624613 0.194827
0.690547 0.622965 0.180911
0.733913 0.622904 0.202152
0.775372 0.619547 0.25359
0.81091 0.61619 0.284947
0.843229 0.609949 0.304997
0.867735 0.605524 0.317266
0.885084 0.602274 0.322667
0.905577 0.592218 0.331518
0.920623 0.577081 0.338338
0.924773 0.557168 0.340841
0.92668 0.53228 0.342138
0.925109 0.49865 0.343084
0.921736 0.467658 0.340276
0.916167 0.433188 0.333501
0.915297 0.42298 0.360449
0.917357 0.44033 0.406363
0.918639 0.464591 0.452338
0.0635538 0.710994 0.264042
0.0636454 0.711391 0.262577
0.0669413 0.712856 0.252567
0.0725567 0.713314 0.240177
0.0803082 0.714473 0.224537
0.0894636 0.715404 0.207538
0.0996567 0.716442 0.188174
0.111269 0.717678 0.166583
0.130404 0.717235 0.129656
0.172641 0.715709 0.0963149
0.278538 0.715023 0.110338
0.393622 0.703838 0.132464
0.490379 0.687556 0.152804
0.543069 0.68217 0.163272
0.580255 0.684047 0.180163
0.630777 0.680568 0.204501
0.685527 0.669108 0.22446
0.734356 0.66659 0.217578
0.77789 0.666117 0.236789
0.815152 0.66154 0.285344
0.844587 0.658366 0.315648
0.870466 0.654276 0.334218
0.89044 0.650492 0.344732
0.90341 0.648981 0.347219
0.915785 0.641672 0.351507
0.919005 0.630503 0.353109
0.921248 0.61445 0.354513
0.923415 0.593774 0.355993
0.925765 0.566751 0.357809
0.928893 0.53547 0.360998
0.927321 0.500694 0.362997
0.923888 0.471305 0.367025
0.925368 0.475929 0.40798
0.0773175 0.756802 0.302022
0.0779278 0.757656 0.298619
0.0818341 0.759045 0.288762
0.0874189 0.759487 0.277867
0.0950484 0.760723 0.264027
0.103319 0.761746 0.248234
0.113268 0.762432 0.228611
0.125154 0.763394 0.206439
0.139086 0.76434 0.179828
0.165362 0.763241 0.135866
0.241154 0.763775 0.124681
0.367041 0.756176 0.144533
0.474434 0.742367 0.167361
0.554635 0.728313 0.183841
0.594018 0.728298 0.196216
0.628946 0.730037 0.214343
0.677867 0.724926 0.236378
0.730007 0.713466 0.25687
0.776898 0.708858 0.255192
0.818051 0.707744 0.271641
0.85008 0.701656 0.31809
0.873579 0.697887 0.349371
0.892439 0.695689 0.370092
0.907423 0.692851 0.37705
0.914885 0.692287 0.374197
0.916091 0.686854 0.372473
0.916716 0.677791 0.371496
0.917647 0.663996 0.371695
0.919905 0.646983 0.372656
0.922545 0.625238 0.374136
0.925536 0.598871 0.376959
0.92874 0.571527 0.381048
0.930938 0.540352 0.385718
0.096437 0.802884 0.338689
0.0971847 0.803906 0.332677
0.0996567 0.804959 0.323934
0.104311 0.805386 0.314778
0.110903 0.806409 0.302815
0.118181 0.807355 0.289494
0.127794 0.808133 0.271153
0.139956 0.808743 0.247929
0.15375 0.809445 0.222873
0.171862 0.809674 0.190433
0.214679 0.80943 0.147326
0.330953 0.807553 0.160967
0.453437 0.795712 0.184024
0.54432 0.781933 0.205264
0.606394 0.772061 0.217929
0.641367 0.7729 0.232059
0.674525 0.773953 0.250431
0.722667 0.768399 0.271458
0.773037 0.756771 0.290669
0.816571 0.750027 0.29276
0.854109 0.748516 0.306386
0.87985 0.741588 0.361257
0.897566 0.737682 0.391577
0.911925 0.734997 0.408957
0.919448 0.733043 0.413901
0.920012 0.732387 0.405951
0.919127 0.728008 0.400229
0.917525 0.720165 0.395743
0.917067 0.70898 0.394461
0.917556 0.694179 0.393576
0.919402 0.676326 0.393713
0.921752 0.654734 0.395483
0.924453 0.632654 0.398764
0.117678 0.844602 0.371328
0.118471 0.845609 0.364645
0.12018 0.846601 0.35639
0.124315 0.846906 0.348257
0.129976 0.847959 0.338598
0.136202 0.848936 0.328099
0.144884 0.849805 0.31284
0.157122 0.850538 0.290913
0.171328 0.851072 0.265019
0.186755 0.851347 0.236789
0.212909 0.851286 0.19971
0.29366 0.853101 0.184497
0.423758 0.844343 0.203372
0.528069 0.831189 0.225727
0.606104 0.817456 0.244099
0.652827 0.812085 0.255589
0.684443 0.81297 0.27071
0.716136 0.813062 0.288533
0.763775 0.806317 0.306935
0.812497 0.794553 0.32546
0.851667 0.787655 0.333135
0.883207 0.785595 0.363104
0.905348 0.779385 0.409674
0.918471 0.775311 0.434699
0.9281 0.772885 0.448218
0.928649 0.770184 0.44976
0.928862 0.770153 0.441291
0.927779 0.766308 0.43415
0.926223 0.759655 0.42884
0.924086 0.749706 0.425299
0.921431 0.737072 0.422889
0.919234 0.722774 0.421469
0.919234 0.704234 0.421897
0.140246 0.88072 0.400427
0.141665 0.881804 0.392813
0.142489 0.88278 0.385901
0.146059 0.883223 0.379431
0.151064 0.884199 0.371389
0.157092 0.885039 0.362417
0.164477 0.885801 0.350805
0.17528 0.886687 0.33254
0.18941 0.887358 0.308186
0.205661 0.887648 0.279377
0.225132 0.887953 0.249531
0.273503 0.890929 0.22121
0.384268 0.887907 0.226459
0.502388 0.87628 0.246998
0.591714 0.862181 0.267109
0.655055 0.850782 0.282383
0.692515 0.848051 0.294865
0.722957 0.84802 0.309804
0.755062 0.847486 0.327306
0.803174 0.839887 0.343404
0.848112 0.828336 0.361944
0.881514 0.822538 0.391196
0.9084 0.819104 0.42063
0.926925 0.812177 0.456153
0.936431 0.808774 0.477546
0.938537 0.80557 0.487022
0.938277 0.80351 0.48809
0.938628 0.803571 0.479576
0.937514 0.800443 0.472114
0.936172 0.795026 0.466148
0.933593 0.78645 0.461585
0.931044 0.775677 0.457542
0.92752 0.762585 0.454124
0.166339 0.911879 0.426978
0.167819 0.91284 0.419547
0.168536 0.913802 0.412909
0.17142 0.914275 0.407294
0.175784 0.915053 0.400824
0.180941 0.915831 0.393378
0.187564 0.916411 0.383642
0.197299 0.917281 0.369284
0.21004 0.918059 0.34905
0.225971 0.918547 0.322606
0.248615 0.919463 0.295125
0.283268 0.922667 0.274174
0.35082 0.923598 0.25626
0.469886 0.915129 0.271473
0.568887 0.902358 0.289876
0.643656 0.888655 0.307759
0.69337 0.880491 0.320607
0.728618 0.878752 0.334569
0.759121 0.877958 0.349676
0.794354 0.876432 0.367163
0.840681 0.86949 0.387564
0.877577 0.857633 0.416434
0.90695 0.851682 0.443793
0.929854 0.848081 0.470024
0.944991 0.841245 0.500526
0.94786 0.837842 0.519249
0.947555 0.834867 0.527123
0.947066 0.832853 0.527138
0.947234 0.833097 0.517739
0.946639 0.830442 0.51043
0.945785 0.825589 0.504082
0.943771 0.818189 0.499107
0.940398 0.808972 0.493996
0.193317 0.937118 0.450706
0.194232 0.937957 0.444358
0.194598 0.938766 0.438224
0.196521 0.939437 0.432349
0.200366 0.940154 0.426596
0.204883 0.940688 0.420462
0.21059 0.941299 0.412451
0.218997 0.942016 0.400824
0.230091 0.942718 0.384482
0.244831 0.943328 0.362203
0.272099 0.945296 0.340063
0.306569 0.947005 0.320073
0.352255 0.947646 0.309224
0.438148 0.946395 0.316518
0.539223 0.937697 0.330114
0.619852 0.925658 0.346044
0.683635 0.914031 0.362341
0.72636 0.908858 0.37644
0.761578 0.906493 0.392386
0.794049 0.904448 0.408591
0.829709 0.899779 0.425193
0.870207 0.892348 0.441581
0.90132 0.880247 0.467338
0.927245 0.875334 0.492744
0.945342 0.871336 0.51606
0.949691 0.86595 0.5449
0.94995 0.862013 0.561288
0.949828 0.859266 0.568566
0.949798 0.857862 0.567651
0.949783 0.858534 0.557244
0.949767 0.856291 0.549172
0.949722 0.851957 0.541756
0.949264 0.845472 0.536583
0.219913 0.949722 0.471809
0.220768 0.949752 0.466392
0.220966 0.949737 0.460609
0.22153 0.949737 0.455131
0.224216 0.949783 0.450507
0.228229 0.949767 0.44564
0.233234 0.949798 0.438911
0.240421 0.949828 0.429267
0.249943 0.949844 0.416236
0.266377 0.949905 0.400336
0.295689 0.949874 0.383322
0.331106 0.949798 0.365484
0.38262 0.94995 0.36112
0.438224 0.949859 0.368002
0.516457 0.94992 0.375875
0.595956 0.949432 0.387945
0.664302 0.944381 0.402487
0.719249 0.935973 0.418326
0.75938 0.931243 0.434119
0.795575 0.926345 0.450675
0.829099 0.921065 0.466194
0.862486 0.915648 0.479026
0.897093 0.90988 0.49247
0.922271 0.898573 0.515038
0.943572 0.894087 0.538262
0.94992 0.890761 0.56112
0.949828 0.885359 0.588937
0.949859 0.881865 0.603006
0.949706 0.879744 0.60882
0.949783 0.879179 0.606729
0.949859 0.87982 0.596536
0.949889 0.877882 0.588357
0.949706 0.873945 0.581628
0.245304 0.949783 0.490517
0.246281 0.949783 0.485298
0.246372 0.949767 0.480705
0.246876 0.949752 0.475929
0.248081 0.949737 0.471519
0.251331 0.949737 0.467445
0.255909 0.949767 0.461921
0.262623 0.949798 0.454246
0.275868 0.949874 0.446006
0.295827 0.949767 0.435935
0.321187 0.949889 0.422827
0.356512 0.949874 0.409445
0.411765 0.949798 0.409689
0.460197 0.949874 0.413748
0.508202 0.949783 0.422217
0.579034 0.949828 0.431357
0.647181 0.949828 0.442802
0.707759 0.949767 0.457099
0.758297 0.947448 0.473274
0.793652 0.943313 0.489494
0.830137 0.936339 0.505501
0.86125 0.930098 0.520058
0.888945 0.925933 0.527687
0.918669 0.921736 0.538964
0.938766 0.911162 0.561303
0.949554 0.907805 0.584497
0.949889 0.904952 0.606241
0.949783 0.900908 0.630396
0.949828 0.898222 0.643275
0.949828 0.896757 0.648676
0.949813 0.897017 0.643107
0.949783 0.897047 0.633112
0.949844 0.895506 0.62414
0.266499 0.949874 0.50547
0.267552 0.94992 0.501472
0.267857 0.949935 0.497154
0.268437 0.949935 0.492668
0.269764 0.94992 0.489418
0.272419 0.94992 0.485771
0.27982 0.949722 0.482567
0.290242 0.949828 0.478325
0.303883 0.949905 0.47245
0.320684 0.949752 0.464668
0.344472 0.949889 0.456321
0.388312 0.949813 0.45359
0.436027 0.949813 0.453162
0.481727 0.949889 0.455146
0.523339 0.949752 0.460975
0.569986 0.949844 0.470054
0.630365 0.949813 0.47895
0.691432 0.949783 0.492226
0.746426 0.949523 0.50753
0.788266 0.946456 0.524178
0.823301 0.940932 0.540658
0.856214 0.934066 0.555184
0.88304 0.929961 0.564279
0.907271 0.927382 0.571099
0.932555 0.925826 0.582223
0.948272 0.919524 0.606241
0.949859 0.917021 0.627482
0.949874 0.915022 0.648707
0.949966 0.912276 0.670558
0.949996 0.911025 0.682048
0.949905 0.910399 0.685649
0.949966 0.910811 0.676555
0.949844 0.910216 0.667002
0.302724 0.949783 0.525551
0.303471 0.949798 0.521416
0.303822 0.949767 0.517891
0.304784 0.949767 0.513909
0.306294 0.949752 0.511315
0.308202 0.949752 0.507973
0.312169 0.949783 0.50457
0.321065 0.949844 0.501305
0.333684 0.94992 0.497414
0.357794 0.949844 0.495598
0.388388 0.949798 0.494606
0.424292 0.949813 0.494804
0.463325 0.949874 0.495354
0.503563 0.949889 0.496696
0.542062 0.949844 0.499611
0.580728 0.949783 0.506645
0.624643 0.949859 0.518166
0.679103 0.949813 0.528435
0.734203 0.949828 0.541451
0.782406 0.948165 0.556603
0.81828 0.943709 0.572274
0.849882 0.937575 0.587289
0.878187 0.932143 0.598764
0.901686 0.929717 0.604868
0.921675 0.928023 0.610376
0.938399 0.922515 0.62298
