bundles/resolve-cinematic-luts/Phantom Luts/Apple Log Phantom LUTS/iPhone 15 Phantom Movie LUTs/33x/Bleach_Legacy iPhone_15_33x.cube
TITLE "Generated by Resolve"
LUT_3D_SIZE 9
0.0316777 0.0446021 0.0332036
0.0316777 0.0446021 0.0332036
0.0370947 0.0453803 0.0339666
0.128008 0.050782 0.038468
0.264698 0.0535897 0.0398108
0.43592 0.0592355 0.0485542
0.605661 0.0724956 0.0730907
0.721584 0.0949874 0.112215
0.750317 0.103655 0.150942
0.0316777 0.0446021 0.0332036
0.0316777 0.0446021 0.0332036
0.0459754 0.0481575 0.0350652
0.160922 0.0517433 0.038529
0.33785 0.0541543 0.0387884
0.513497 0.0512093 0.0391852
0.652338 0.0652476 0.066453
0.718318 0.0933547 0.108705
0.749722 0.103426 0.149569
0.0345617 0.067216 0.0406195
0.0350042 0.0721904 0.0412146
0.0648508 0.0766918 0.0452125
0.166262 0.0781872 0.0458991
0.325902 0.0633555 0.0437629
0.52845 0.0508278 0.0386816
0.660136 0.0578164 0.0487678
0.686656 0.0672923 0.0721599
0.730159 0.0979171 0.122728
0.0308537 0.167025 0.0613413
0.0318303 0.181857 0.0428016
0.0325017 0.174395 0.0410468
0.195178 0.204257 0.0428626
0.482063 0.183764 0.0735332
0.64918 0.160754 0.102358
0.72755 0.133165 0.093431
0.712886 0.0862898 0.0647746
0.672847 0.0593729 0.0494698
0.0216983 0.300877 0.0688792
0.0199741 0.317479 0.0571756
0.0218967 0.323934 0.0156252
0.0229038 0.327581 0.0145571
0.414099 0.417823 0.0332647
0.736278 0.496559 0.144961
0.876616 0.503243 0.231586
0.915679 0.492378 0.256687
0.914839 0.474311 0.25742
0.00146487 0.505043 0.114748
0.00392157 0.526329 0.115175
0.00988785 0.549615 0.0962081
0.0407721 0.588052 0.019379
0.189517 0.625925 0.0402533
0.680858 0.685649 0.105638
0.879637 0.722774 0.168872
0.921996 0.733913 0.19733
0.92253 0.73547 0.197971
0.0436561 0.724422 0.332433
0.0453956 0.728176 0.322683
0.0508888 0.737911 0.290196
0.0757153 0.764797 0.192218
0.152605 0.779828 0.074403
0.5664 0.797925 0.110124
0.817151 0.828626 0.148989
0.917571 0.845472 0.188388
0.920851 0.84712 0.194766
0.0508125 0.781949 0.52224
0.0519417 0.782986 0.498131
0.0537423 0.784451 0.445045
0.0625467 0.794278 0.344167
0.0834058 0.78378 0.151369
0.421958 0.810071 0.138476
0.754894 0.863676 0.169711
0.898024 0.895659 0.248631
0.920897 0.901442 0.266346
0.0495308 0.770062 0.621912
0.0491646 0.771878 0.608774
0.049546 0.775494 0.585657
0.0515755 0.782574 0.506935
0.0671397 0.791821 0.310399
0.321553 0.801511 0.231235
0.715572 0.85034 0.272496
0.880125 0.894545 0.328832
0.923064 0.904845 0.369177
0.0316777 0.0446021 0.0332036
0.0316777 0.0446021 0.0332036
0.0444495 0.0470588 0.0372015
0.159747 0.0544289 0.0714885
0.302541 0.0634165 0.0770581
0.48777 0.0710918 0.078645
0.637644 0.0850843 0.0997024
0.738582 0.100313 0.133791
0.760174 0.0994888 0.169146
0.0316777 0.0446021 0.0332036
0.0316777 0.0446021 0.0332036
0.0798962 0.0498054 0.0361486
0.206592 0.0536049 0.0425269
0.361654 0.0630503 0.052491
0.5458 0.0685588 0.0650797
0.684672 0.0881361 0.0978561
0.733867 0.0988632 0.127184
0.759854 0.101686 0.168002
0.0352178 0.0797284 0.0546273
0.0351415 0.0895247 0.0470893
0.0729229 0.0850996 0.0471504
0.188281 0.0740826 0.0458076
0.339559 0.0618448 0.0429541
0.54548 0.0537575 0.0433661
0.674052 0.0619516 0.063859
0.710536 0.087953 0.0995193
0.744762 0.102007 0.142565
0.0290074 0.172381 0.0814069
0.0308995 0.184695 0.0633555
0.0323186 0.184878 0.0398566
0.200504 0.209094 0.0426642
0.4916 0.186999 0.0746624
0.65481 0.162417 0.103777
0.73019 0.133288 0.0935988
0.710613 0.0839704 0.0639658
0.683619 0.0643778 0.0615549
0.0202335 0.302785 0.083299
0.0188449 0.318486 0.0706645
0.0198367 0.32755 0.0382696
0.0217136 0.332265 0.0138857
0.422248 0.425757 0.0343633
0.740917 0.503212 0.147112
0.879301 0.507057 0.232532
0.915328 0.494209 0.255909
0.914992 0.469062 0.258946
0.000671397 0.504829 0.127245
0.00311284 0.524987 0.126909
0.00834669 0.546639 0.106676
0.0370642 0.588235 0.0228122
0.191135 0.62974 0.0410468
0.683375 0.688029 0.107149
0.88069 0.723339 0.169238
0.92192 0.732982 0.197772
0.922591 0.731167 0.203693
0.0428473 0.723659 0.34667
0.0439918 0.727367 0.336492
0.0486 0.734203 0.30106
0.0748608 0.760555 0.225742
0.1355 0.773297 0.0826429
0.563363 0.794522 0.110384
0.814893 0.824414 0.155779
0.91783 0.8421 0.221118
0.922164 0.845029 0.236576
0.0503853 0.781033 0.534081
0.0513924 0.782467 0.512978
0.0531624 0.78407 0.461799
0.0613107 0.791913 0.358083
0.0788739 0.784924 0.182605
0.405234 0.808881 0.159426
0.749477 0.862043 0.195972
0.896712 0.895903 0.269581
0.922927 0.902754 0.291737
0.0496681 0.769619 0.626169
0.0492714 0.771252 0.612909
0.0493935 0.774624 0.591455
0.0507668 0.781781 0.522499
0.0638895 0.793347 0.326711
0.303899 0.799802 0.247807
0.702602 0.845518 0.2869
0.87541 0.894057 0.344305
0.922866 0.905333 0.390951
0.031693 0.0445411 0.0327001
0.0316777 0.0446021 0.0332341
0.0559396 0.0480812 0.049546
0.169726 0.0509651 0.109361
0.323644 0.0601358 0.104036
0.514 0.0697337 0.0973983
0.659403 0.0894636 0.121111
0.755108 0.104982 0.15819
0.770352 0.0955062 0.197116
0.0316625 0.0446326 0.0335393
0.0306706 0.0454108 0.0471351
0.0946212 0.0498054 0.0769207
0.231785 0.0582132 0.0747997
0.398322 0.069276 0.0782788
0.576349 0.0778668 0.090074
0.70869 0.0953994 0.122042
0.755032 0.104463 0.158145
0.77171 0.0958419 0.201328
0.0339971 0.0858778 0.070161
0.0339818 0.0918135 0.0758373
0.0714733 0.0842145 0.0713207
0.192966 0.0827497 0.0720531
0.358434 0.0772717 0.0681315
0.58793 0.0786297 0.085359
0.718898 0.0949416 0.113298
0.73875 0.100374 0.134066
0.762737 0.0968643 0.175982
0.0262303 0.173098 0.11017
0.0273442 0.185 0.101183
0.0298772 0.184634 0.0772717
0.201495 0.211093 0.0902876
0.498543 0.189929 0.112993
0.663066 0.181445 0.136858
0.749279 0.1608 0.12755
0.749386 0.115221 0.106889
0.735241 0.101793 0.122942
0.0187991 0.299794 0.114855
0.0175784 0.313466 0.104082
0.0181277 0.321614 0.0758984
0.020676 0.325124 0.0299992
0.429923 0.43032 0.072343
0.747845 0.50901 0.196963
0.884504 0.513985 0.285832
0.924453 0.507088 0.318456
0.927672 0.489311 0.334356
0 0.496956 0.155734
0.000183108 0.513497 0.155642
0.00299077 0.525673 0.130083
0.0171664 0.561807 0.0597848
0.168627 0.60914 0.0535134
0.680705 0.681636 0.147494
0.885863 0.716075 0.253666
0.933913 0.7299 0.304845
0.936202 0.730068 0.323247
0.0404364 0.720134 0.379065
0.0413062 0.722545 0.369436
0.0435187 0.723445 0.331304
0.0558633 0.741314 0.266865
0.0766613 0.75819 0.138369
0.540337 0.785138 0.153353
0.817349 0.822309 0.225727
0.933654 0.841306 0.312352
0.940978 0.843793 0.331609
0.0496986 0.778668 0.560159
0.0501106 0.780301 0.543221
0.0517891 0.782864 0.502449
0.0563058 0.786419 0.399405
0.0828107 0.789456 0.277485
0.357488 0.804669 0.211002
0.733043 0.856443 0.256733
0.89482 0.897475 0.328344
0.92578 0.903792 0.359319
0.0500496 0.768643 0.637232
0.0496071 0.769863 0.624155
0.0491493 0.772381 0.605356
0.0497902 0.779232 0.55433
0.0599374 0.790478 0.366094
0.273991 0.797055 0.29427
0.67071 0.833524 0.320897
0.864744 0.892012 0.394324
0.922438 0.905989 0.45243
0.0294804 0.045655 0.0637064
0.052369 0.0462348 0.0725261
0.103731 0.0473945 0.0875257
0.176379 0.0483406 0.131853
0.333959 0.0533913 0.17052
0.541146 0.0648203 0.140627
0.684443 0.0836042 0.159167
0.77258 0.0959793 0.203189
0.791638 0.102907 0.27097
0.0302129 0.0469215 0.0599527
0.0255741 0.0428779 0.109957
0.108003 0.0413367 0.158389
0.23653 0.0457771 0.173587
0.438087 0.0572519 0.165713
0.612573 0.0733196 0.147677
0.742077 0.0916762 0.175448
0.778943 0.0976883 0.222538
0.795987 0.10692 0.293797
0.0334783 0.10045 0.107103
0.0324102 0.0946517 0.127474
0.0574502 0.0840314 0.1346
0.206165 0.0755474 0.159274
0.409796 0.0723125 0.127062
0.63006 0.0759899 0.152804
0.759838 0.094316 0.1841
0.776486 0.0967575 0.213809
0.79205 0.103441 0.274052
0.0240635 0.172305 0.152575
0.0238346 0.17995 0.160403
0.0238041 0.180072 0.160937
0.213947 0.221012 0.207614
0.521065 0.217212 0.197223
0.705653 0.230259 0.219471
0.806195 0.2224 0.22974
0.811429 0.173739 0.213611
0.784878 0.105821 0.214939
0.0162203 0.291676 0.184207
0.0147555 0.303166 0.184298
0.0149233 0.308248 0.166598
0.0195621 0.324453 0.136187
0.466056 0.468421 0.215671
0.772656 0.538064 0.32752
0.907012 0.549844 0.412772
0.93341 0.54284 0.444648
0.932418 0.530861 0.456367
0 0.492332 0.222065
0 0.507637 0.224903
0 0.508583 0.198245
0.00134279 0.51986 0.139925
0.153689 0.59649 0.165789
0.687556 0.687877 0.268956
0.901762 0.715434 0.412512
0.9514 0.735332 0.479591
0.953033 0.737713 0.499519
0.0373083 0.713909 0.451759
0.0378119 0.716167 0.443412
0.0387427 0.715785 0.402029
0.0413214 0.714748 0.328237
0.0799725 0.74522 0.27689
0.475517 0.764233 0.24538
0.813703 0.818112 0.339284
0.953338 0.833661 0.482887
0.956039 0.834821 0.502831
0.0492561 0.773693 0.59678
0.049546 0.775387 0.586419
0.0496834 0.778408 0.562387
0.0522011 0.783368 0.490059
0.0619974 0.795453 0.355947
0.307881 0.798581 0.298817
0.695552 0.840848 0.347494
0.888563 0.894316 0.446265
0.928389 0.901213 0.488777
0.0512703 0.767422 0.659541
0.0505531 0.768017 0.646662
0.0496986 0.769406 0.62858
0.0492561 0.773739 0.596933
0.0532692 0.784726 0.461128
0.296513 0.795605 0.396277
0.636515 0.825803 0.399878
0.85156 0.889616 0.500374
0.926696 0.909789 0.546487
0.02327 0.0409705 0.132403
0.132219 0.0411536 0.179706
0.176349 0.0385595 0.186908
0.236866 0.0396277 0.214771
0.342199 0.0445563 0.246342
0.556237 0.0557259 0.280446
0.720272 0.0922103 0.289723
0.804944 0.112444 0.354406
0.812131 0.106157 0.489464
0.022858 0.0500649 0.142641
0.0166629 0.0358587 0.210208
0.0761425 0.0382544 0.258442
0.264607 0.0430152 0.298192
0.44126 0.0459907 0.300282
0.632929 0.066453 0.339208
0.782422 0.105669 0.354803
0.810208 0.108415 0.446097
0.814603 0.10396 0.529839
0.0204318 0.0919814 0.188296
0.0154726 0.0791943 0.212482
0.0292821 0.0684825 0.222889
0.194583 0.0579232 0.282445
0.396414 0.049012 0.280598
0.631373 0.066865 0.331762
0.798795 0.107729 0.400946
0.811337 0.107301 0.470176
0.814603 0.10396 0.529931
0.0225071 0.168978 0.217868
0.0218814 0.171206 0.233295
0.0213016 0.164645 0.246006
0.158114 0.205554 0.323552
0.514321 0.172473 0.394308
0.738018 0.214771 0.395407
0.853834 0.232227 0.387945
0.836728 0.174945 0.400992
0.814969 0.113619 0.467872
0.0153201 0.281407 0.263081
0.0141299 0.290791 0.272282
0.0140841 0.291218 0.272816
0.0171817 0.296056 0.275456
0.506279 0.493141 0.469535
0.784772 0.543679 0.514702
0.924804 0.582025 0.555352
0.935073 0.573419 0.562127
0.934539 0.548791 0.574823
0 0.479637 0.310445
0 0.492515 0.319799
0 0.491188 0.306752
0 0.494148 0.281132
0.197421 0.610788 0.371283
0.711635 0.700191 0.503075
0.916197 0.731975 0.598611
0.961715 0.763012 0.640848
0.961852 0.763806 0.655421
0.0339513 0.697719 0.5346
0.0340276 0.698802 0.531762
0.0336461 0.696452 0.513405
0.0337987 0.698589 0.465415
0.0374762 0.699077 0.375586
0.49099 0.762173 0.43418
0.830381 0.821744 0.543175
0.961975 0.839521 0.632319
0.962219 0.843809 0.648585
0.0500038 0.768734 0.636103
0.0496986 0.76936 0.628809
0.0493629 0.770718 0.616464
0.0495613 0.775265 0.587594
0.0509041 0.780194 0.494514
0.354131 0.801221 0.471351
0.682155 0.841474 0.515923
0.901045 0.895567 0.596551
0.951446 0.904555 0.630823
0.0530404 0.765942 0.694911
0.0522469 0.766262 0.682628
0.051545 0.767178 0.667002
0.0501869 0.768475 0.639887
0.0496529 0.776699 0.580774
0.307057 0.800031 0.531228
0.645624 0.840284 0.562982
0.850019 0.89807 0.627405
0.941588 0.921782 0.654871
0.0161593 0.0363928 0.223896
0.109438 0.0390173 0.276631
0.154742 0.0407568 0.314199
0.224735 0.0433356 0.349706
0.422019 0.0465858 0.374884
0.580758 0.0509651 0.415961
0.731868 0.079942 0.514977
0.817685 0.101228 0.581094
0.820401 0.0910506 0.629908
0.01178 0.0438087 0.243519
0.0112306 0.0388952 0.299046
0.0314946 0.0404059 0.325704
0.172015 0.0434577 0.407202
0.51107 0.0474556 0.480247
0.656138 0.0573434 0.510277
0.789197 0.0897841 0.585382
0.819623 0.0947433 0.619806
0.823133 0.0847486 0.644862
0.0138705 0.0783246 0.288655
0.0124819 0.0711986 0.319982
0.0116579 0.0612345 0.317372
0.126223 0.0587778 0.399588
0.44361 0.0465095 0.444007
0.624537 0.0542458 0.475013
0.793912 0.0898909 0.593591
0.820859 0.0897383 0.633082
0.824704 0.0822919 0.650309
0.0172732 0.153368 0.327306
0.0168765 0.155749 0.353948
0.0158999 0.15024 0.372763
0.0928206 0.168612 0.433783
0.482734 0.156695 0.55201
0.699123 0.152529 0.580926
0.859709 0.205707 0.641749
0.873915 0.173236 0.659113
0.846021 0.113237 0.65127
0.0127565 0.295323 0.363851
0.0113832 0.305867 0.381964
0.0116884 0.303639 0.395651
0.0129702 0.288975 0.386099
0.425834 0.472129 0.611337
0.776623 0.478843 0.692546
0.931365 0.529305 0.687266
0.94992 0.533501 0.706203
0.952224 0.503761 0.73756
0 0.486229 0.458061
0 0.497047 0.46981
0 0.492958 0.465064
0 0.488975 0.461509
0.193408 0.574807 0.545998
0.726635 0.708873 0.687343
0.923232 0.734462 0.715282
0.961929 0.759106 0.740703
0.961715 0.754009 0.745998
0.0357519 0.692576 0.611368
0.0356146 0.692439 0.609979
0.0339361 0.68603 0.595605
0.0318151 0.680247 0.572915
0.0260166 0.65951 0.528405
0.564752 0.776211 0.652064
0.859312 0.83743 0.703273
0.962188 0.85684 0.75346
0.962325 0.866148 0.766476
0.0524453 0.76614 0.686076
0.0520333 0.766384 0.679271
0.0515145 0.76672 0.669001
0.049958 0.766232 0.647349
0.0466316 0.757809 0.607431
0.346853 0.786511 0.610071
0.746899 0.87422 0.693919
0.923903 0.90695 0.724773
0.962417 0.911055 0.756329
0.0564736 0.765515 0.728893
0.0557107 0.765423 0.721569
0.0545815 0.765576 0.711604
0.0527504 0.766033 0.690471
0.0506752 0.76846 0.64802
0.242283 0.78085 0.615549
0.712917 0.880186 0.707988
0.860533 0.914946 0.739956
0.956085 0.936858 0.757122
0.0147707 0.0406195 0.354925
0.0382849 0.0417792 0.37969
0.0820783 0.043122 0.441016
0.163836 0.0453498 0.505364
0.39794 0.0498665 0.554162
0.643626 0.0573281 0.576944
0.761563 0.0711376 0.615564
0.833265 0.0818952 0.665614
0.845518 0.0848859 0.69247
0.00973526 0.0495766 0.365621
0.0087892 0.0455634 0.421042
0.00965896 0.0419165 0.418677
0.098085 0.0445258 0.49601
0.375738 0.0504158 0.567529
0.65037 0.0581674 0.584512
0.803891 0.0778668 0.654734
0.844923 0.0847334 0.690898
0.852216 0.0868238 0.711131
0.0120699 0.0902571 0.443992
0.01149 0.0899062 0.491997
0.0113832 0.0825666 0.488777
0.0867628 0.0791791 0.529625
0.395682 0.074876 0.604242
0.673594 0.070573 0.613306
0.787213 0.0764935 0.642878
0.838361 0.082948 0.67332
0.849683 0.0860304 0.703853
0.0142367 0.173556 0.500954
0.0141604 0.181903 0.53138
0.0142214 0.179416 0.547143
0.0611582 0.179232 0.548852
0.374289 0.194476 0.660166
0.721889 0.197391 0.681941
0.863645 0.220127 0.728176
0.919417 0.225284 0.766049
0.904906 0.185397 0.755352
0.0104982 0.323781 0.529229
0.0104219 0.335561 0.545205
0.0109712 0.331197 0.558694
0.011841 0.312749 0.546914
0.321859 0.452125 0.661891
0.77232 0.499489 0.77702
0.906004 0.484154 0.796963
0.958053 0.496284 0.820935
0.957977 0.477562 0.830549
0.00563058 0.520165 0.562066
0.00747692 0.530205 0.572213
0.00645457 0.523354 0.570687
0.00590524 0.515953 0.573404
0.176486 0.561395 0.615564
0.703578 0.704143 0.773968
0.901549 0.697307 0.814084
0.961746 0.716335 0.825864
0.961715 0.709255 0.838437
0.0416114 0.695521 0.673793
0.0410315 0.694347 0.672267
0.0392309 0.687236 0.66511
0.0379797 0.681117 0.659281
0.0344701 0.652583 0.62565
0.591104 0.766049 0.741512
0.869032 0.845136 0.814755
0.962264 0.858656 0.831357
0.962081 0.863767 0.84004
0.0564889 0.765545 0.729046
0.0561379 0.765377 0.725628
0.0552834 0.764553 0.718868
0.0539406 0.762402 0.706584
0.0485542 0.743404 0.671275
0.386954 0.772168 0.693462
0.797299 0.89546 0.809567
0.936416 0.914839 0.821866
0.962417 0.919005 0.840833
0.0589914 0.766629 0.750179
0.0585641 0.766537 0.746273
0.0578775 0.766232 0.741192
0.056611 0.765621 0.730449
0.053254 0.766186 0.696742
0.280552 0.770382 0.67541
0.726818 0.894041 0.788525
0.888945 0.934142 0.828473
0.962768 0.945998 0.834501
0.0118105 0.0420539 0.434882
0.0148013 0.04448 0.530999
0.0396277 0.0455024 0.546639
0.0933547 0.046479 0.557305
0.28423 0.0514534 0.607217
0.591455 0.0548409 0.625284
0.758312 0.0725872 0.661692
0.84715 0.0853437 0.696223
0.860426 0.0889754 0.737606
0.0107729 0.0780041 0.529015
0.0109102 0.0830549 0.563546
0.0107729 0.0790265 0.562417
0.0737774 0.0835279 0.589334
0.326467 0.0898146 0.664683
0.659022 0.0862287 0.681956
0.803479 0.0941634 0.703365
0.858061 0.0911421 0.723339
0.859403 0.0887465 0.733623
0.0133059 0.130739 0.581979
0.01355 0.138918 0.604349
0.0137484 0.134142 0.604044
0.0745556 0.140993 0.623423
0.340047 0.150332 0.697871
0.694377 0.151369 0.724819
0.848051 0.168231 0.750347
0.905318 0.169238 0.772671
0.896117 0.145068 0.77261
0.0155642 0.223957 0.616037
0.0158694 0.234714 0.632547
0.0158389 0.235477 0.638544
0.0545815 0.236606 0.637949
0.320836 0.268025 0.721202
0.741894 0.305303 0.797238
0.908873 0.335149 0.823301
0.961944 0.352117 0.847517
0.963043 0.342275 0.85333
0.0112917 0.372641 0.620325
0.0104067 0.385046 0.627283
0.0120089 0.379171 0.63798
0.0125582 0.363256 0.628885
0.288045 0.475212 0.703319
0.73077 0.545861 0.835996
0.903883 0.53962 0.836545
0.952636 0.531579 0.847166
0.953323 0.527184 0.851469
0.0173495 0.565637 0.635874
0.0188449 0.572595 0.642252
0.0177157 0.56527 0.640848
0.0137636 0.542779 0.632349
0.183352 0.57995 0.667399
0.675654 0.701259 0.812253
0.902846 0.715358 0.86244
0.96199 0.702785 0.87158
0.961975 0.702327 0.876722
0.0473793 0.707866 0.712093
0.0471504 0.705608 0.711208
0.0452583 0.698192 0.706432
0.0440528 0.691325 0.705196
0.0406195 0.665003 0.678355
0.606775 0.760601 0.788144
0.861494 0.84445 0.861418
0.957671 0.838819 0.877653
0.962066 0.840421 0.886992
0.0589914 0.766629 0.750179
0.0587625 0.766583 0.748287
0.0583658 0.766445 0.744579
0.0572366 0.762524 0.739559
0.0517739 0.739818 0.713252
0.414954 0.766567 0.73991
0.818845 0.89482 0.859052
0.940078 0.917647 0.87805
0.962463 0.920714 0.882948
0.059266 0.766705 0.752361
0.059266 0.766705 0.752361
0.059266 0.766705 0.752361
0.0590524 0.766644 0.750744
0.0568856 0.766354 0.732265
0.318166 0.768902 0.720394
0.757641 0.897826 0.840238
0.91548 0.944396 0.883421
0.9626 0.949737 0.882353
0.00796521 0.0429236 0.51783
0.00944533 0.0485695 0.561593
0.0084535 0.0543984 0.563317
0.0499428 0.0686961 0.596277
0.230259 0.0968032 0.670161
0.578485 0.101884 0.715801
0.788113 0.133867 0.746456
0.907759 0.172503 0.791592
0.919097 0.184146 0.813321
0.013901 0.137026 0.626261
0.0148623 0.152255 0.644465
0.0142824 0.147784 0.641199
0.0656138 0.167498 0.668467
0.286473 0.190509 0.730709
0.663081 0.203479 0.784817
0.865934 0.247547 0.816526
0.952972 0.278584 0.848463
0.954787 0.275395 0.856458
0.0159762 0.199741 0.657282
0.0168002 0.215549 0.669276
0.0166018 0.206378 0.663523
0.0710155 0.229572 0.689189
0.301564 0.256031 0.751644
0.705242 0.292668 0.827909
0.905425 0.338857 0.855573
0.967727 0.360967 0.874662
0.967681 0.361242 0.88159
0.017319 0.290822 0.679103
0.0177462 0.303609 0.687465
0.0178225 0.30042 0.687037
0.0583658 0.312367 0.692836
0.314504 0.376776 0.76289
0.733135 0.440864 0.86685
0.914809 0.458915 0.871962
0.964508 0.466987 0.87776
0.964492 0.469535 0.882841
0.0101625 0.438071 0.663355
0.0102388 0.449836 0.668238
0.010544 0.446967 0.672999
0.0100557 0.432883 0.664103
0.289494 0.534936 0.740032
0.685771 0.601785 0.860868
0.901747 0.607797 0.877607
0.955627 0.597681 0.875044
0.957351 0.598749 0.877974
0.030045 0.609705 0.690486
0.0311894 0.613336 0.695018
0.029633 0.605615 0.694743
0.0231632 0.577737 0.676127
0.216358 0.615076 0.715114
0.657893 0.711574 0.831556
0.894667 0.742199 0.899794
0.961944 0.734615 0.899351
0.961959 0.733318 0.901961
0.052491 0.720088 0.739498
0.0516823 0.717159 0.738231
0.0505684 0.710246 0.735866
0.0493477 0.702998 0.734142
0.0875105 0.684504 0.719966
0.614908 0.760616 0.815351
0.851026 0.847074 0.885679
0.956939 0.849882 0.907744
0.96202 0.844251 0.911009
0.059266 0.766705 0.752361
0.059266 0.766705 0.752361
0.059266 0.766705 0.752361
0.0588693 0.764294 0.751522
0.0603799 0.745632 0.739635
0.45452 0.770352 0.768246
0.830686 0.892363 0.883665
0.936538 0.91899 0.902464
0.962524 0.916426 0.904585
0.059266 0.766705 0.752361
0.059266 0.766705 0.752377
0.059266 0.766705 0.752361
0.059266 0.766705 0.752361
0.0588998 0.767178 0.747707
0.351186 0.774289 0.750256
0.766873 0.89691 0.863645
0.926772 0.944686 0.907301
0.962676 0.950912 0.910277
