bundles/resolve-cinematic-luts/Phantom Luts/Apple Log Phantom LUTS/iPhone 15 Phantom Movie LUTs/33x/Bleach_Legacy iPhone_15_33x.cube
TITLE "Generated by Resolve"
LUT_3D_SIZE 5
0.0316777 0.0446021 0.0332036
0.0370947 0.0453803 0.0339666
0.264698 0.0535897 0.0398108
0.605661 0.0724956 0.0730907
0.750317 0.103655 0.150942
0.0345617 0.067216 0.0406195
0.0648508 0.0766918 0.0452125
0.325902 0.0633555 0.0437629
0.660136 0.0578164 0.0487678
0.730159 0.0979171 0.122728
0.0216983 0.300877 0.0688792
0.0218967 0.323934 0.0156252
0.414099 0.417823 0.0332647
0.876616 0.503243 0.231586
0.914839 0.474311 0.25742
0.0436561 0.724422 0.332433
0.0508888 0.737911 0.290196
0.152605 0.779828 0.074403
0.817151 0.828626 0.148989
0.920851 0.84712 0.194766
0.0495308 0.770062 0.621912
0.049546 0.775494 0.585657
0.0671397 0.791821 0.310399
0.715572 0.85034 0.272496
0.923064 0.904845 0.369177
0.031693 0.0445411 0.0327001
0.0559396 0.0480812 0.049546
0.323644 0.0601358 0.104036
0.659403 0.0894636 0.121111
0.770352 0.0955062 0.197116
0.0339971 0.0858778 0.070161
0.0714733 0.0842145 0.0713207
0.358434 0.0772717 0.0681315
0.718898 0.0949416 0.113298
0.762737 0.0968643 0.175982
0.0187991 0.299794 0.114855
0.0181277 0.321614 0.0758984
0.429923 0.43032 0.072343
0.884504 0.513985 0.285832
0.927672 0.489311 0.334356
0.0404364 0.720134 0.379065
0.0435187 0.723445 0.331304
0.0766613 0.75819 0.138369
0.817349 0.822309 0.225727
0.940978 0.843793 0.331609
0.0500496 0.768643 0.637232
0.0491493 0.772381 0.605356
0.0599374 0.790478 0.366094
0.67071 0.833524 0.320897
0.922438 0.905989 0.45243
0.02327 0.0409705 0.132403
0.176349 0.0385595 0.186908
0.342199 0.0445563 0.246342
0.720272 0.0922103 0.289723
0.812131 0.106157 0.489464
0.0204318 0.0919814 0.188296
0.0292821 0.0684825 0.222889
0.396414 0.049012 0.280598
0.798795 0.107729 0.400946
0.814603 0.10396 0.529931
0.0153201 0.281407 0.263081
0.0140841 0.291218 0.272816
0.506279 0.493141 0.469535
0.924804 0.582025 0.555352
0.934539 0.548791 0.574823
0.0339513 0.697719 0.5346
0.0336461 0.696452 0.513405
0.0374762 0.699077 0.375586
0.830381 0.821744 0.543175
0.962219 0.843809 0.648585
0.0530404 0.765942 0.694911
0.051545 0.767178 0.667002
0.0496529 0.776699 0.580774
0.645624 0.840284 0.562982
0.941588 0.921782 0.654871
0.0147707 0.0406195 0.354925
0.0820783 0.043122 0.441016
0.39794 0.0498665 0.554162
0.761563 0.0711376 0.615564
0.845518 0.0848859 0.69247
0.0120699 0.0902571 0.443992
0.0113832 0.0825666 0.488777
0.395682 0.074876 0.604242
0.787213 0.0764935 0.642878
0.849683 0.0860304 0.703853
0.0104982 0.323781 0.529229
0.0109712 0.331197 0.558694
0.321859 0.452125 0.661891
0.906004 0.484154 0.796963
0.957977 0.477562 0.830549
0.0416114 0.695521 0.673793
0.0392309 0.687236 0.66511
0.0344701 0.652583 0.62565
0.869032 0.845136 0.814755
0.962081 0.863767 0.84004
0.0589914 0.766629 0.750179
0.0578775 0.766232 0.741192
0.053254 0.766186 0.696742
0.726818 0.894041 0.788525
0.962768 0.945998 0.834501
0.00796521 0.0429236 0.51783
0.0084535 0.0543984 0.563317
0.230259 0.0968032 0.670161
0.788113 0.133867 0.746456
0.919097 0.184146 0.813321
0.0159762 0.199741 0.657282
0.0166018 0.206378 0.663523
0.301564 0.256031 0.751644
0.905425 0.338857 0.855573
0.967681 0.361242 0.88159
0.0101625 0.438071 0.663355
0.010544 0.446967 0.672999
0.289494 0.534936 0.740032
0.901747 0.607797 0.877607
0.957351 0.598749 0.877974
0.052491 0.720088 0.739498
0.0505684 0.710246 0.735866
0.0875105 0.684504 0.719966
0.851026 0.847074 0.885679
0.96202 0.844251 0.911009
0.059266 0.766705 0.752361
0.059266 0.766705 0.752361
0.0588998 0.767178 0.747707
0.766873 0.89691 0.863645
0.962676 0.950912 0.910277
