bundles/resolve-cinematic-luts/Phantom Luts/Apple Log Phantom LUTS/iPhone 15 Phantom Movie LUTs/33x/Bleach iPhone_15_33x.cube
TITLE "Generated by Resolve"
LUT_3D_SIZE 33
0.020325 0.0324712 0.0222019
0.020325 0.0324712 0.0222019
0.020325 0.0324712 0.0222019
0.020325 0.0324712 0.0222019
0.020325 0.0324712 0.0222019
0.020325 0.0324712 0.0222019
0.020325 0.0324712 0.0222019
0.0205386 0.0325017 0.0222477
0.0296483 0.0338903 0.0238651
0.0571603 0.036347 0.0247807
0.0887465 0.0384375 0.0275425
0.124254 0.0402075 0.0297093
0.161471 0.0416724 0.0309453
0.198489 0.0431983 0.0320745
0.235737 0.0453498 0.033463
0.271412 0.0475319 0.0345006
0.308095 0.049836 0.0357214
0.346288 0.052018 0.0378729
0.389227 0.0543374 0.041886
0.442145 0.0584878 0.0492256
0.496361 0.0650797 0.0602579
0.540719 0.0704814 0.0697642
0.58024 0.0753643 0.0788891
0.619974 0.080827 0.0897536
0.656992 0.0867628 0.100862
0.694804 0.0930343 0.114046
0.729793 0.0991684 0.127916
0.762432 0.10457 0.142443
0.776379 0.108125 0.154925
0.780163 0.110842 0.167117
0.780484 0.106554 0.17644
0.778317 0.098146 0.18529
0.78117 0.0984207 0.203449
0.020325 0.0324712 0.0222019
0.020325 0.0324712 0.0222019
0.020325 0.0324712 0.0222019
0.020325 0.0324712 0.0222019
0.020325 0.0324712 0.0222019
0.020325 0.0324712 0.0222019
0.020325 0.0324712 0.0222019
0.0241093 0.0331884 0.0233158
0.0475624 0.0354467 0.0239567
0.0818494 0.038056 0.0268864
0.118883 0.0400244 0.0294041
0.156359 0.0415045 0.0307774
0.194812 0.0431067 0.0320897
0.234806 0.0455177 0.0336309
0.271138 0.0476844 0.0346685
0.308904 0.0500343 0.0359655
0.34934 0.053254 0.039353
0.393347 0.055787 0.0437324
0.448234 0.0596475 0.0508888
0.498482 0.0639048 0.0586557
0.540337 0.0682231 0.0665141
0.581659 0.0749371 0.0785992
0.621195 0.0809033 0.0894942
0.65771 0.0866712 0.10016
0.693965 0.0926833 0.11252
0.728939 0.098909 0.126207
0.760128 0.103868 0.139773
0.774487 0.107439 0.151125
0.778759 0.109895 0.162524
0.781415 0.110552 0.173892
0.778927 0.101442 0.180484
0.779751 0.0982376 0.194415
0.782727 0.0987106 0.213504
0.020325 0.0324712 0.0222019
0.020325 0.0324712 0.0222019
0.020325 0.0324712 0.0222019
0.020325 0.0324712 0.0222019
0.020325 0.0324712 0.0222019
0.020325 0.0324712 0.0222019
0.020325 0.0324712 0.0222019
0.0320439 0.0343023 0.0238804
0.0641947 0.0369573 0.0255436
0.101839 0.0393683 0.0287175
0.141115 0.0410163 0.0304723
0.179355 0.0424353 0.0314336
0.218952 0.0441596 0.0327153
0.256992 0.0464942 0.0338293
0.294804 0.0482185 0.0343938
0.332555 0.0498054 0.0351873
0.372076 0.0508736 0.0361486
0.418799 0.051606 0.0380713
0.468849 0.0548714 0.0439155
0.51548 0.0605325 0.0537423
0.557549 0.0674296 0.0641337
0.598871 0.0749981 0.0775006
0.638483 0.0826581 0.0904097
0.673945 0.0886702 0.10164
0.708186 0.0941634 0.113451
0.74081 0.100038 0.125826
0.766232 0.104555 0.138979
0.773693 0.10724 0.149493
0.778286 0.109483 0.160723
0.780774 0.109987 0.171527
0.779721 0.102968 0.179797
0.779477 0.0986954 0.192111
0.78233 0.0986648 0.210773
0.020325 0.0324712 0.0222019
0.020325 0.0324712 0.0222019
0.020325 0.0324712 0.0222019
0.020325 0.0324712 0.0222019
0.020325 0.0324712 0.0222019
0.020325 0.0324712 0.0222019
0.0210575 0.0325933 0.0223697
0.0301823 0.0340124 0.0239567
0.0564126 0.0363317 0.0246433
0.0932326 0.0392004 0.0275731
0.132662 0.0408942 0.0294499
0.172656 0.0422675 0.0306554
0.216068 0.0439612 0.0320897
0.259007 0.0463111 0.0335088
0.29984 0.0486152 0.0345464
0.339361 0.049897 0.0353094
0.381048 0.0506294 0.0358892
0.426291 0.0503548 0.0357671
0.470497 0.049836 0.0368353
0.509972 0.0514229 0.0398718
0.550256 0.0569314 0.0489509
0.592828 0.0657054 0.0633249
0.633646 0.0753643 0.0784466
0.67126 0.0841993 0.0923934
0.707057 0.0926833 0.106981
0.739849 0.0988327 0.119814
0.760647 0.1028 0.131701
0.769268 0.105577 0.142962
0.775906 0.108003 0.154482
0.780224 0.110918 0.167224
0.779538 0.104814 0.175921
0.778897 0.0990768 0.187137
0.78146 0.0984054 0.205585
0.020325 0.0324712 0.0222019
0.020325 0.0324712 0.0222019
0.020325 0.0324712 0.0222019
0.020325 0.0324712 0.0222019
0.020325 0.0324712 0.0222019
0.020325 0.0324712 0.0222019
0.0204471 0.0324865 0.0222324
0.0268101 0.0335393 0.0236973
0.0479286 0.0362707 0.0241245
0.080705 0.040589 0.0269932
0.114076 0.0429694 0.0292515
0.15407 0.0437018 0.0303807
0.200534 0.0446326 0.0314641
0.247547 0.0458991 0.0325322
0.293523 0.0481117 0.0337987
0.339818 0.0496223 0.0345922
0.383551 0.05066 0.035935
0.429908 0.0504463 0.0357519
0.47425 0.0498665 0.0369573
0.512657 0.0501869 0.0384833
0.547616 0.0510567 0.0405432
0.584405 0.0547951 0.0471351
0.62446 0.0637217 0.0620737
0.664607 0.074876 0.0798505
0.703517 0.0873121 0.098085
0.738521 0.0975357 0.114611
0.755901 0.101686 0.125963
0.764675 0.104082 0.137072
0.773968 0.107256 0.149523
0.778836 0.109895 0.162585
0.781506 0.110018 0.175204
0.778073 0.098497 0.182849
0.780835 0.0983597 0.201709
0.020325 0.0324712 0.0222019
0.020325 0.0324712 0.0222019
0.020325 0.0324712 0.0222019
0.020325 0.0324712 0.0222019
0.020325 0.0324712 0.0222019
0.020325 0.0324712 0.0222019
0.0205234 0.0325017 0.0222477
0.0248722 0.0335851 0.0235294
0.0410925 0.037644 0.024155
0.0713512 0.0428779 0.0275578
0.101061 0.0464485 0.029221
0.138323 0.0476844 0.0303197
0.184863 0.047837 0.0317845
0.235386 0.0477913 0.0328374
0.285389 0.0490425 0.0338598
0.335225 0.0498817 0.0343938
0.386557 0.0507362 0.0359045
0.436637 0.0501564 0.0366369
0.480446 0.0499123 0.0371557
0.518639 0.0502937 0.0386969
0.55259 0.0508736 0.0403449
0.585382 0.0516365 0.0424353
0.618784 0.0548714 0.0490272
0.66009 0.0664836 0.068452
0.699687 0.0792401 0.0876326
0.737163 0.092958 0.107561
0.751308 0.0999313 0.120256
0.760555 0.1028 0.131548
0.770459 0.10602 0.144579
0.77731 0.108751 0.157443
0.77969 0.108202 0.169741
0.780041 0.103166 0.181445
0.780072 0.0982528 0.196658
0.020325 0.0324712 0.0222019
0.020325 0.0324712 0.0222019
0.0204929 0.0327001 0.0223697
0.0205081 0.0327001 0.0223697
0.0204318 0.0325322 0.0222477
0.0203403 0.0324865 0.0222019
0.0218051 0.0334783 0.0230106
0.0285496 0.0373388 0.0248112
0.0450599 0.0453498 0.0276341
0.0725719 0.0510262 0.0294499
0.102174 0.0531624 0.0313115
0.137423 0.0548562 0.0319371
0.179385 0.0548104 0.0327459
0.225605 0.0536202 0.0340581
0.275715 0.0527962 0.0349889
0.330953 0.0512093 0.0349279
0.385534 0.0503243 0.0349126
0.443427 0.0500954 0.0365759
0.487465 0.0500496 0.0374609
0.525109 0.0504768 0.0390021
0.559243 0.0510262 0.0406958
0.59144 0.0515908 0.0424659
0.623072 0.0539559 0.046067
0.657237 0.060441 0.0566262
0.693294 0.0686809 0.0733654
0.728405 0.0815747 0.0930343
0.744228 0.0952773 0.111879
0.754757 0.101289 0.124376
0.764431 0.104036 0.13666
0.774029 0.107347 0.15021
0.779248 0.11043 0.164721
0.77911 0.103838 0.175158
0.779217 0.0990921 0.189288
0.0214847 0.037995 0.023621
0.0232242 0.0456703 0.0260166
0.0241703 0.0531014 0.0284886
0.0235752 0.0519112 0.0275731
0.0234836 0.0467994 0.0261845
0.0247959 0.0464637 0.026276
0.0329747 0.0513771 0.0280766
0.0457618 0.0577096 0.0314031
0.0631266 0.0663005 0.0336919
0.0894331 0.0698863 0.0334783
0.118196 0.0707408 0.0352026
0.154055 0.0688334 0.0356909
0.195438 0.067216 0.0362554
0.236255 0.0654917 0.0366979
0.277729 0.0630808 0.0379644
0.32076 0.0596933 0.0384985
0.367941 0.0556344 0.037232
0.430152 0.0515145 0.035172
0.487343 0.0495613 0.0361944
0.529992 0.0504463 0.038941
0.565682 0.0512245 0.0411536
0.597925 0.0520943 0.0429999
0.628779 0.0545968 0.0457618
0.657938 0.057496 0.0486915
0.685069 0.0608682 0.0541085
0.711315 0.0671397 0.0740368
0.728084 0.0812238 0.0926375
0.744015 0.0946365 0.111574
0.755642 0.101564 0.125673
0.766186 0.104555 0.138994
0.77615 0.107897 0.153887
0.781094 0.111376 0.16994
0.778332 0.100542 0.178683
0.0264134 0.0758373 0.0338445
0.0273594 0.0859693 0.0360723
0.0277867 0.0929885 0.0360266
0.0278172 0.0932326 0.0359655
0.0277256 0.0842145 0.0348363
0.0320897 0.0790265 0.0336156
0.042771 0.0823072 0.0341039
0.0609293 0.0850843 0.0357366
0.0788739 0.0923018 0.0376593
0.104265 0.0981308 0.0369573
0.140337 0.0966964 0.0391852
0.177066 0.09337 0.0404822
0.217578 0.0881971 0.0415656
0.261769 0.0821393 0.0436561
0.303593 0.0782788 0.0450141
0.344289 0.0740063 0.045182
0.384771 0.0691691 0.0444648
0.426413 0.0628519 0.0412757
0.466957 0.0572061 0.0382544
0.512444 0.0519265 0.0370336
0.560723 0.0509499 0.039292
0.599496 0.0519875 0.0424659
0.634394 0.0550851 0.0463722
0.663539 0.0582284 0.0493324
0.688365 0.0610819 0.0519875
0.697429 0.0621958 0.0543679
0.703273 0.0641489 0.0626383
0.721614 0.0751965 0.0852064
0.740978 0.0926833 0.107881
0.753201 0.100221 0.122423
0.764813 0.104204 0.137377
0.774807 0.107805 0.15375
0.779522 0.10779 0.169909
0.0290684 0.110536 0.0436103
0.0295262 0.117891 0.0452888
0.0302281 0.124147 0.0411688
0.0302739 0.126055 0.0377661
0.0301366 0.120348 0.0379339
0.0314183 0.11284 0.0371862
0.0402686 0.112749 0.0366674
0.0582895 0.116274 0.0372625
0.0886702 0.119249 0.0392004
0.11136 0.125536 0.0379034
0.149416 0.129473 0.0381018
0.200549 0.1243 0.0428931
0.243687 0.118791 0.0457771
0.289235 0.112703 0.0493172
0.337942 0.105806 0.0534371
0.389914 0.0970932 0.0557717
0.44213 0.0907301 0.0557717
0.481727 0.0847486 0.0539559
0.511025 0.0784161 0.0518502
0.533867 0.0716259 0.0484169
0.555154 0.0648814 0.0445258
0.581415 0.057435 0.0419013
0.622049 0.0547036 0.0435035
0.660609 0.0578622 0.0478523
0.693233 0.0617533 0.0526436
0.696468 0.0621347 0.0531319
0.696468 0.0621347 0.0531319
0.697688 0.0622416 0.0546578
0.708339 0.0680858 0.0675212
0.72604 0.0790265 0.0902266
0.746319 0.0968032 0.114488
0.760342 0.102693 0.131319
0.77319 0.107378 0.150164
0.0303502 0.139467 0.0538949
0.0309148 0.146914 0.054078
0.0312352 0.152331 0.0465705
0.0320745 0.155703 0.0369268
0.0317998 0.153994 0.0363012
0.0317998 0.149233 0.0367285
0.0317082 0.142901 0.0357977
0.0424048 0.144732 0.0334325
0.0773938 0.150561 0.0368811
0.114366 0.154025 0.0381781
0.148196 0.161608 0.0350195
0.205127 0.165072 0.0368048
0.266682 0.158175 0.0462806
0.318898 0.153735 0.0519722
0.375097 0.146624 0.0574655
0.438224 0.137896 0.0614481
0.493675 0.128389 0.0661173
0.536477 0.121157 0.0702525
0.568658 0.115862 0.0723278
0.593179 0.110872 0.0721141
0.611124 0.103395 0.0696117
0.625605 0.0937819 0.064622
0.637049 0.0819867 0.0577401
0.65066 0.0699626 0.0518807
0.671824 0.0624857 0.0493324
0.691493 0.0615244 0.050721
0.695354 0.0620127 0.051957
0.695216 0.0619974 0.0524453
0.696864 0.06215 0.0536049
0.698817 0.0624857 0.0565347
0.709728 0.0680095 0.0703136
0.726238 0.0796063 0.0905318
0.748852 0.0980697 0.117693
0.0309148 0.169589 0.0601816
0.0310063 0.176379 0.0601205
0.0313726 0.181918 0.0534524
0.0323186 0.186191 0.0390631
0.0326238 0.186694 0.0325017
0.0326543 0.186358 0.0323339
0.0326848 0.183017 0.032578
0.0328527 0.174716 0.0316777
0.0423743 0.178836 0.0294041
0.0908064 0.188876 0.0329442
0.142397 0.195377 0.0363928
0.192721 0.204028 0.031754
0.264073 0.20882 0.0349889
0.339696 0.200473 0.048661
0.407675 0.1935 0.0560616
0.474708 0.184283 0.0633555
0.528023 0.179232 0.0714427
0.57203 0.175235 0.0804761
0.607919 0.168444 0.0890516
0.638453 0.161837 0.0965286
0.663355 0.156542 0.0992142
0.684184 0.149767 0.0988022
0.701076 0.141024 0.0959335
0.714061 0.129671 0.090074
0.721508 0.114809 0.0809491
0.725216 0.097612 0.0701305
0.719676 0.0793164 0.0609445
0.709026 0.0711376 0.0551766
0.701701 0.0651865 0.0532387
0.696223 0.0621195 0.0518502
0.695705 0.0621042 0.054078
0.700236 0.0627298 0.058732
0.707729 0.0649424 0.0699626
0.0304417 0.201511 0.0661479
0.0299687 0.209003 0.0655528
0.0303502 0.214008 0.0597238
0.0306554 0.216968 0.047425
0.0316014 0.218616 0.0315709
0.0317845 0.220218 0.0264439
0.031693 0.221729 0.0262913
0.0316472 0.217365 0.0264591
0.0320592 0.208865 0.0270237
0.0433204 0.215747 0.0274205
0.103273 0.229358 0.0319677
0.17499 0.239261 0.035523
0.239963 0.248615 0.0289006
0.320867 0.257252 0.0330358
0.42298 0.245533 0.0477913
0.496086 0.239704 0.0598154
0.553353 0.237751 0.0733806
0.599023 0.234241 0.088426
0.636576 0.234134 0.100771
0.669139 0.232578 0.112306
0.699107 0.227146 0.122927
0.725841 0.218814 0.130144
0.749767 0.208118 0.133608
0.77026 0.200427 0.132876
0.78674 0.190753 0.129488
0.798032 0.178408 0.123507
0.79762 0.164111 0.114717
0.784344 0.148043 0.104265
0.77023 0.131456 0.0931563
0.75111 0.110872 0.0793317
0.730892 0.0896773 0.0668803
0.712566 0.0738384 0.0574502
0.701579 0.064683 0.0538949
0.0282902 0.234119 0.0709392
0.0276493 0.240848 0.0701915
0.0277256 0.245838 0.0645914
0.0282139 0.249027 0.0548714
0.0285039 0.251423 0.0429389
0.029099 0.252644 0.0280003
0.0291752 0.255207 0.0233616
0.0290074 0.257008 0.0231479
0.0296025 0.25034 0.0239109
0.0298161 0.244541 0.0240635
0.0471962 0.254322 0.024445
0.12224 0.271015 0.0294957
0.212909 0.284916 0.0348058
0.289006 0.295857 0.0275425
0.383078 0.308156 0.0315099
0.501564 0.300114 0.0474403
0.566903 0.301076 0.0695811
0.618082 0.303746 0.0883803
0.660945 0.306508 0.109438
0.698344 0.305928 0.128023
0.732204 0.308507 0.14464
0.763119 0.308904 0.158785
0.79263 0.305928 0.17116
0.817075 0.296788 0.180041
0.838148 0.282322 0.184558
0.855802 0.271534 0.184024
0.861219 0.261097 0.179355
0.854475 0.248951 0.170642
0.846677 0.23473 0.161456
0.836561 0.219608 0.150774
0.825406 0.20267 0.140047
0.811627 0.182589 0.127092
0.793759 0.159548 0.111864
0.0252384 0.266682 0.0740215
0.0247044 0.274098 0.0738537
0.0238041 0.279057 0.069276
0.0242008 0.282322 0.0616007
0.0243076 0.28484 0.0522011
0.0245975 0.286732 0.0422217
0.0257725 0.287221 0.0232395
0.0256962 0.293416 0.0187686
0.0250401 0.295384 0.0180362
0.026276 0.283879 0.019791
0.0264286 0.282918 0.0200351
0.0560311 0.295659 0.0204776
0.150179 0.316258 0.0274662
0.253513 0.335973 0.0334173
0.345083 0.350439 0.0282444
0.453086 0.364767 0.0319219
0.560815 0.37406 0.0513619
0.629709 0.383917 0.0852979
0.680201 0.394553 0.114076
0.723857 0.401617 0.139925
0.761807 0.405631 0.164523
0.79675 0.405142 0.186648
0.827634 0.403769 0.203952
0.856062 0.401679 0.218601
0.881178 0.40058 0.230396
0.901869 0.394553 0.240467
0.910292 0.386282 0.244099
0.908186 0.374838 0.24062
0.905119 0.363958 0.236652
0.901946 0.353933 0.232227
0.896834 0.337881 0.22678
0.889815 0.319509 0.215457
0.880766 0.300786 0.203861
0.0208438 0.301518 0.0788281
0.0198672 0.30959 0.0791638
0.0191348 0.314916 0.0749523
0.0190433 0.3178 0.0685435
0.0190738 0.320577 0.0618753
0.0189975 0.323629 0.0543526
0.0196689 0.326589 0.0433356
0.0212406 0.328801 0.0200961
0.0206455 0.338842 0.0129702
0.0204166 0.340322 0.012726
0.0218509 0.324666 0.0144656
0.0236515 0.327947 0.0145724
0.0727092 0.344015 0.0155947
0.184024 0.369955 0.0247196
0.296498 0.39678 0.03122
0.410101 0.415518 0.0301213
0.519036 0.442863 0.0392157
0.613397 0.466743 0.0644846
0.674784 0.480537 0.0951858
0.721309 0.489036 0.128405
0.760906 0.494011 0.152407
0.796979 0.495933 0.174136
0.829419 0.495842 0.194614
0.860288 0.49337 0.213519
0.886412 0.489387 0.228992
0.908186 0.48513 0.242679
0.920089 0.481758 0.250385
0.919814 0.478279 0.250416
0.919753 0.472755 0.250858
0.919936 0.467872 0.251301
0.919936 0.462272 0.251637
0.919493 0.454994 0.251881
0.919066 0.443229 0.252461
0.0145571 0.340215 0.0865187
0.0132448 0.348745 0.0872206
0.0125124 0.354284 0.0840467
0.0124514 0.35758 0.077821
0.0125277 0.361364 0.072282
0.0122072 0.365591 0.0653697
0.0123903 0.36907 0.0572519
0.012604 0.373754 0.0455482
0.0153353 0.380285 0.0156863
0.0147707 0.394644 0.00662242
0.0150301 0.390906 0.0068513
0.0168917 0.37528 0.00859083
0.02916 0.382803 0.0081178
0.0963607 0.403937 0.0101015
0.226902 0.4383 0.0238193
0.358022 0.473075 0.0344549
0.490257 0.493965 0.0441138
0.583047 0.521782 0.0572519
0.659861 0.542428 0.0805676
0.714382 0.554803 0.104509
0.75819 0.561273 0.134539
0.794583 0.565621 0.160143
0.828595 0.567697 0.179461
0.859983 0.567437 0.197711
0.885939 0.567071 0.213931
0.90724 0.564645 0.228412
0.918166 0.562478 0.236393
0.918349 0.56054 0.236866
0.918212 0.55938 0.237079
0.918196 0.55642 0.237552
0.918242 0.552483 0.238056
0.918593 0.548104 0.239078
0.918883 0.541863 0.240345
0.00714122 0.384543 0.0962387
0.00556954 0.394491 0.0971847
0.00450141 0.401266 0.0941024
0.00442512 0.404593 0.0886244
0.00425727 0.408209 0.0827802
0.00456245 0.412726 0.076585
0.00408942 0.418418 0.0680552
0.00440986 0.424842 0.0589151
0.0059968 0.43122 0.0400092
0.0103151 0.442695 0.00793469
0.0111696 0.458595 0.00231937
0.0111696 0.444419 0.00270085
0.0120394 0.437812 0.00303655
0.0467079 0.448447 0.00321965
0.137362 0.475059 0.0109865
0.30222 0.521798 0.038468
0.449989 0.549676 0.0491798
0.562341 0.56527 0.0654459
0.636057 0.584741 0.0766003
0.702541 0.601465 0.0975967
0.753902 0.612116 0.11664
0.795697 0.619089 0.140108
0.830854 0.62324 0.164935
0.862364 0.625681 0.186786
0.888838 0.626368 0.202502
0.911559 0.625681 0.215671
0.919188 0.626902 0.221286
0.919478 0.626215 0.222309
0.919387 0.625208 0.222538
0.919371 0.62472 0.222049
0.919631 0.623407 0.221607
0.919585 0.621271 0.222904
0.919264 0.618524 0.224277
4.57771e-05 0.436118 0.10721
0 0.446265 0.109758
0 0.452064 0.107805
0 0.454597 0.103609
0 0.457313 0.0982528
0.000289921 0.462303 0.0931563
0.000595102 0.468177 0.086183
0.00177005 0.474922 0.0784924
0.00291447 0.484108 0.0686351
0.00689708 0.492805 0.0394293
0.0144198 0.508583 0.00901808
0.0177157 0.520195 0.00643931
0.0139773 0.496956 0.00421149
0.0273289 0.502129 0.00468452
0.0926375 0.523064 0.0108949
0.235019 0.563378 0.0332952
0.400549 0.597589 0.0614786
0.534066 0.61117 0.0637675
0.619883 0.623133 0.0855116
0.682902 0.637659 0.0946059
0.742885 0.652125 0.112779
0.791287 0.660471 0.128634
0.830945 0.667292 0.144183
0.864759 0.670939 0.165835
0.892683 0.673777 0.187564
0.913848 0.675288 0.205371
0.920455 0.676844 0.211353
0.920485 0.677501 0.211902
0.920424 0.677455 0.212085
0.920409 0.677028 0.21178
0.920439 0.676738 0.211582
0.920485 0.676356 0.211673
0.920882 0.674784 0.212787
0 0.488441 0.131075
0 0.499855 0.136492
0.000183108 0.505348 0.136507
0.000534066 0.507546 0.132494
0.000869764 0.509255 0.127199
0.00199893 0.512993 0.122194
0.00291447 0.519661 0.116442
0.00447089 0.527718 0.110246
0.00648508 0.536202 0.101823
0.0102083 0.546777 0.0877089
0.0176852 0.556466 0.0462654
0.0340887 0.580957 0.0190738
0.0393378 0.583062 0.0179446
0.034165 0.562112 0.0136568
0.0772412 0.577356 0.0191501
0.177401 0.607294 0.0349432
0.340719 0.638956 0.062501
0.497963 0.651347 0.0765545
0.597589 0.663096 0.0776532
0.668193 0.671855 0.102373
0.72343 0.682155 0.110857
0.771496 0.691859 0.128588
0.824414 0.702022 0.139605
0.862379 0.70811 0.151873
0.893095 0.713146 0.165698
0.91342 0.71693 0.179644
0.920485 0.717693 0.190265
0.921004 0.718212 0.192828
0.921004 0.718685 0.19237
0.921035 0.719432 0.191379
0.920974 0.719661 0.190829
0.920928 0.720058 0.190951
0.921065 0.719112 0.192477
0.00411994 0.547295 0.17438
0.00587472 0.558846 0.183871
0.00704967 0.564034 0.184878
0.00755322 0.564843 0.180392
0.0081178 0.56611 0.174029
0.00927749 0.56939 0.168551
0.0107881 0.575189 0.162936
0.0131075 0.58294 0.15668
0.0160525 0.591577 0.14931
0.020737 0.603571 0.140276
0.0273442 0.615656 0.112505
0.0437171 0.63093 0.0601968
0.0741741 0.655024 0.0383612
0.0636912 0.630686 0.0310826
0.0778515 0.633494 0.0329747
0.158129 0.654169 0.0435035
0.27686 0.675227 0.0605936
0.441016 0.689265 0.0824445
0.56791 0.696437 0.0892653
0.646281 0.705455 0.0899977
0.708965 0.71281 0.116396
0.758389 0.720989 0.124804
0.802167 0.729213 0.140108
0.852232 0.739666 0.148302
0.887922 0.744823 0.158801
0.913405 0.749554 0.168292
0.921706 0.751492 0.17499
0.921935 0.752056 0.176669
0.921965 0.752834 0.176272
0.921996 0.753628 0.17615
0.922011 0.753811 0.176577
0.922011 0.753964 0.176852
0.921996 0.75407 0.176761
0.0158541 0.609796 0.236286
0.018143 0.619547 0.245304
0.0192416 0.623621 0.246174
0.0195315 0.623941 0.241337
0.0199741 0.62472 0.23505
0.0211185 0.626474 0.227817
0.0225071 0.630091 0.220569
0.0248264 0.636271 0.213626
0.0273594 0.643183 0.204593
0.0315404 0.652811 0.194171
0.0431373 0.665965 0.180392
0.0472114 0.675929 0.127596
0.0841688 0.699657 0.0688334
0.105119 0.709987 0.0552987
0.097261 0.687694 0.0483558
0.145403 0.695781 0.0535744
0.235737 0.709758 0.0639353
0.370398 0.724056 0.0822614
0.529641 0.726604 0.0953841
0.621271 0.73492 0.100984
0.688121 0.74316 0.10103
0.743908 0.749447 0.127794
0.79028 0.75642 0.136828
0.829007 0.763729 0.147326
0.87187 0.773327 0.156832
0.906081 0.779049 0.165591
0.923033 0.781765 0.171893
0.923308 0.781811 0.174853
0.923354 0.782315 0.174868
0.923415 0.78294 0.174945
0.923262 0.783627 0.17467
0.923278 0.7841 0.174777
0.923369 0.784619 0.174884
0.0289158 0.665034 0.297353
0.0306859 0.673289 0.304784
0.0314794 0.675563 0.304677
0.0317235 0.675303 0.299336
0.0319677 0.674922 0.292531
0.0326696 0.675807 0.285145
0.0334783 0.677531 0.275959
0.0345922 0.680888 0.265507
0.0373999 0.687022 0.256229
0.0404669 0.693477 0.243915
0.0471809 0.702998 0.228946
0.0655222 0.715587 0.205005
0.0665599 0.726101 0.12604
0.126055 0.751629 0.071519
0.122896 0.734966 0.062211
0.135424 0.733349 0.0624704
0.218036 0.744015 0.0699474
0.311223 0.752743 0.0803235
0.467597 0.755962 0.0955978
0.591684 0.760769 0.106676
0.665187 0.769726 0.111345
0.725017 0.777096 0.110719
0.776074 0.782956 0.138109
0.819043 0.789044 0.148638
0.852369 0.794827 0.15555
0.882033 0.8 0.171389
0.918105 0.810529 0.170397
0.923705 0.811154 0.172839
0.923766 0.8112 0.173495
0.923919 0.811887 0.173709
0.923964 0.812604 0.173983
0.923461 0.812985 0.174868
0.923415 0.813352 0.174853
0.0385443 0.709712 0.350439
0.0397803 0.715221 0.357122
0.0401465 0.716609 0.355779
0.040238 0.715923 0.350332
0.0404059 0.715038 0.342901
0.0409552 0.7149 0.334524
0.0417487 0.715984 0.32575
0.04271 0.718059 0.314824
0.0448768 0.721462 0.301671
0.0471199 0.725841 0.286885
0.0509346 0.733379 0.271687
0.0653086 0.743694 0.251606
0.0784314 0.75523 0.198352
0.099443 0.771771 0.112108
0.146532 0.780407 0.0771038
0.146151 0.769162 0.0718395
0.201938 0.773678 0.0755169
0.280217 0.78024 0.0823987
0.400671 0.78529 0.0952468
0.552163 0.784146 0.106065
0.642283 0.792477 0.116365
0.704341 0.801068 0.120302
0.758755 0.808133 0.119829
0.804471 0.813001 0.147219
0.844251 0.818891 0.160662
0.874449 0.824308 0.162768
0.898604 0.828824 0.173327
0.914443 0.83183 0.183474
0.917052 0.831724 0.187503
0.917464 0.832227 0.186816
0.918471 0.833616 0.185641
0.919219 0.834653 0.184192
0.919646 0.834867 0.183841
0.0458686 0.744656 0.401495
0.0466316 0.749111 0.407446
0.0467994 0.749203 0.403998
0.0467842 0.747875 0.397421
0.0469215 0.747082 0.389639
0.047303 0.746929 0.381216
0.0478676 0.74725 0.371084
0.0487068 0.74815 0.359121
0.0502327 0.750393 0.344747
0.0527657 0.753506 0.328145
0.054963 0.758343 0.309911
0.0619516 0.766583 0.28983
0.0849928 0.7785 0.26273
0.0829938 0.78468 0.17557
0.126284 0.78613 0.0970321
0.153399 0.788983 0.0789349
0.178103 0.791714 0.0783246
0.259846 0.799512 0.0842451
0.348013 0.804562 0.093019
0.499336 0.804746 0.104067
0.614221 0.81117 0.117189
0.684047 0.820493 0.125551
0.73814 0.828458 0.128176
0.787747 0.835462 0.127581
0.828717 0.839506 0.154513
0.865171 0.844099 0.171054
0.890501 0.848646 0.170993
0.910369 0.852201 0.177066
0.921263 0.854261 0.184176
0.9234 0.854917 0.187716
0.923644 0.854948 0.18967
0.924285 0.855283 0.192279
0.924804 0.855314 0.194842
0.0504005 0.771862 0.453117
0.0507668 0.774243 0.456336
0.0509041 0.774212 0.452155
0.0509194 0.773114 0.444572
0.0511177 0.772274 0.435523
0.0514534 0.771984 0.425528
0.0519417 0.772061 0.414679
0.0526436 0.772564 0.401938
0.0536202 0.773877 0.386664
0.0557717 0.776532 0.368765
0.0580301 0.779858 0.348074
0.0620127 0.785595 0.326589
0.0720378 0.790967 0.299321
0.0949416 0.788281 0.258122
0.0889143 0.783841 0.14226
0.116213 0.785306 0.104784
0.151354 0.788876 0.0836805
0.238468 0.798611 0.0852369
0.31754 0.806332 0.0901961
0.449836 0.811841 0.10132
0.577554 0.819455 0.114382
0.663706 0.834623 0.127275
0.719097 0.843046 0.132845
0.767742 0.850355 0.134127
0.811704 0.855634 0.135088
0.848737 0.85922 0.165805
0.880308 0.863447 0.184985
0.902876 0.867384 0.189227
0.918822 0.871229 0.198169
0.925185 0.872755 0.205219
0.925246 0.873121 0.209155
0.925322 0.87361 0.212772
