bundles/resolve-cinematic-luts/Phantom Luts/Apple Log Phantom LUTS/iPhone 15 Phantom Movie LUTs/33x/Bleach iPhone_15_33x.cube
TITLE "Generated by Resolve"
LUT_3D_SIZE 9
0.020325 0.0324712 0.0222019
0.020325 0.0324712 0.0222019
0.0296483 0.0338903 0.0238651
0.161471 0.0416724 0.0309453
0.308095 0.049836 0.0357214
0.496361 0.0650797 0.0602579
0.656992 0.0867628 0.100862
0.776379 0.108125 0.154925
0.78117 0.0984207 0.203449
0.020325 0.0324712 0.0222019
0.020325 0.0324712 0.0222019
0.0479286 0.0362707 0.0241245
0.200534 0.0446326 0.0314641
0.383551 0.05066 0.035935
0.547616 0.0510567 0.0405432
0.703517 0.0873121 0.098085
0.773968 0.107256 0.149523
0.780835 0.0983597 0.201709
0.0264134 0.0758373 0.0338445
0.0277256 0.0842145 0.0348363
0.0788739 0.0923018 0.0376593
0.217578 0.0881971 0.0415656
0.384771 0.0691691 0.0444648
0.560723 0.0509499 0.039292
0.688365 0.0610819 0.0519875
0.740978 0.0926833 0.107881
0.779522 0.10779 0.169909
0.0304417 0.201511 0.0661479
0.0316014 0.218616 0.0315709
0.0320592 0.208865 0.0270237
0.239963 0.248615 0.0289006
0.553353 0.237751 0.0733806
0.699107 0.227146 0.122927
0.78674 0.190753 0.129488
0.77023 0.131456 0.0931563
0.701579 0.064683 0.0538949
0.0145571 0.340215 0.0865187
0.0125277 0.361364 0.072282
0.0153353 0.380285 0.0156863
0.02916 0.382803 0.0081178
0.490257 0.493965 0.0441138
0.75819 0.561273 0.134539
0.885939 0.567071 0.213931
0.918212 0.55938 0.237079
0.918883 0.541863 0.240345
0.00411994 0.547295 0.17438
0.0081178 0.56611 0.174029
0.0160525 0.591577 0.14931
0.0741741 0.655024 0.0383612
0.27686 0.675227 0.0605936
0.708965 0.71281 0.116396
0.887922 0.744823 0.158801
0.921965 0.752834 0.176272
0.921996 0.75407 0.176761
0.0458686 0.744656 0.401495
0.0469215 0.747082 0.389639
0.0502327 0.750393 0.344747
0.0849928 0.7785 0.26273
0.178103 0.791714 0.0783246
0.614221 0.81117 0.117189
0.828717 0.839506 0.154513
0.921263 0.854261 0.184176
0.924804 0.855314 0.194842
0.0521706 0.79147 0.570199
0.0524147 0.79321 0.553201
0.0534981 0.795651 0.510765
0.0598306 0.798459 0.396017
0.077821 0.785046 0.189395
0.478264 0.80972 0.160479
0.763943 0.86598 0.199771
0.900511 0.89691 0.275044
0.923095 0.902907 0.294682
0.0520485 0.781598 0.644953
0.0518807 0.782864 0.633494
0.051545 0.785534 0.615015
0.0523079 0.792599 0.559472
0.0621347 0.795254 0.35082
0.356283 0.801968 0.263676
0.718212 0.85008 0.310658
0.879866 0.895537 0.370138
0.922545 0.905669 0.415549
0.020325 0.0324712 0.0222019
0.020325 0.0324712 0.0222019
0.0450141 0.0361181 0.0276951
0.209903 0.0454719 0.107698
0.371389 0.0573434 0.101854
0.550958 0.0690776 0.103227
0.69308 0.0941176 0.140551
0.778103 0.0995956 0.179782
0.786572 0.100237 0.239948
0.020325 0.0324712 0.0222019
0.020325 0.0324712 0.0222019
0.0975814 0.0391241 0.0284886
0.2495 0.0504768 0.0393988
0.42916 0.065507 0.0618143
0.598444 0.078584 0.0875563
0.736721 0.100313 0.132113
0.780697 0.107424 0.176074
0.785763 0.0999008 0.234958
0.0265202 0.0949874 0.0620127
0.0287022 0.108537 0.0437171
0.0901045 0.10396 0.0382391
0.242267 0.0826429 0.0426947
0.39762 0.0665599 0.0436255
0.583566 0.0579538 0.0508736
0.722866 0.0815442 0.0925154
0.76556 0.104402 0.138109
0.77911 0.0981918 0.190799
0.0276799 0.206409 0.0952316
0.0294041 0.220249 0.0698558
0.0317082 0.221454 0.0263218
0.245106 0.253697 0.0289158
0.560815 0.241428 0.0746471
0.704402 0.230549 0.124636
0.789059 0.191073 0.130037
0.766949 0.128084 0.0913558
0.726986 0.0787976 0.0822919
0.0131991 0.340917 0.107378
0.0113527 0.359152 0.0912337
0.0112764 0.377798 0.0525978
0.0274968 0.38854 0.0074464
0.498024 0.501427 0.0458686
0.762097 0.566064 0.135729
0.888457 0.56994 0.214832
0.918257 0.559777 0.237003
0.918975 0.53785 0.243503
0.00352483 0.549905 0.194202
0.00743114 0.567498 0.193301
0.0136263 0.585946 0.162051
0.06392 0.650813 0.0462959
0.278477 0.678172 0.0616007
0.710964 0.714626 0.117388
0.888701 0.74551 0.159182
0.921935 0.751781 0.176959
0.922667 0.750393 0.185946
0.0454108 0.744808 0.418189
0.0462806 0.747478 0.405814
0.0487831 0.748898 0.360662
0.0713664 0.771374 0.278141
0.165331 0.784634 0.0927443
0.610727 0.806271 0.119066
0.826734 0.834257 0.17055
0.92076 0.849546 0.236316
0.924224 0.851331 0.256138
0.0520027 0.790509 0.578607
0.0522621 0.792203 0.563394
0.0531472 0.795087 0.525658
0.0588998 0.799268 0.416114
0.0861982 0.787655 0.242451
0.457527 0.808087 0.185809
0.756832 0.863828 0.229633
0.898924 0.897505 0.300893
0.924712 0.904067 0.325628
0.052079 0.781308 0.648783
0.0519875 0.782437 0.636881
0.0516518 0.784833 0.619852
0.0521553 0.791394 0.570397
0.0611887 0.796658 0.37084
0.339071 0.800412 0.280369
0.703975 0.844495 0.325017
0.87483 0.894591 0.389639
0.922499 0.905867 0.44033
0.0203098 0.0323491 0.021561
0.0203403 0.0324712 0.0222782
0.0662699 0.0377966 0.0537881
0.215824 0.0427253 0.143694
0.392676 0.0539406 0.156832
0.571923 0.0666667 0.137316
0.709407 0.087068 0.167468
0.782864 0.0987106 0.214618
0.794797 0.106188 0.287572
0.0203403 0.032517 0.0227359
0.019379 0.0327764 0.0470588
0.125643 0.0398718 0.0967727
0.291096 0.052781 0.102144
0.47837 0.0614023 0.0985733
0.631281 0.0805066 0.124361
0.76405 0.102937 0.169955
0.78291 0.0987411 0.214939
0.796139 0.107378 0.2934
0.025803 0.102754 0.0862287
0.0253605 0.109819 0.0934157
0.0900282 0.101854 0.0888533
0.248981 0.0996872 0.0882582
0.439872 0.0876173 0.0823987
0.642481 0.0870832 0.117327
0.775509 0.108431 0.157763
0.779034 0.10135 0.181491
0.788907 0.101762 0.252445
0.0248722 0.205936 0.133288
0.025391 0.218845 0.121843
0.0280461 0.219318 0.0886854
0.251789 0.259434 0.104799
0.571176 0.252293 0.145113
0.723491 0.252308 0.196216
0.81117 0.240314 0.199069
0.816236 0.187213 0.172473
0.783886 0.11809 0.16846
0.01149 0.337636 0.148745
0.00987259 0.352682 0.137118
0.0107271 0.361639 0.0986801
0.0196078 0.373632 0.0382544
0.504845 0.505821 0.102663
0.771313 0.568505 0.224277
0.894865 0.582269 0.305653
0.929931 0.571466 0.343297
0.930861 0.559075 0.36408
0.00234989 0.547768 0.230396
0.00529488 0.563714 0.233555
0.00723278 0.568414 0.198016
0.0272221 0.614862 0.135912
0.251774 0.655253 0.0936294
0.707759 0.707118 0.176104
0.898589 0.734325 0.286809
0.938949 0.74583 0.33817
0.941604 0.745754 0.3626
0.0433509 0.741833 0.457603
0.0444038 0.744183 0.446601
0.0455787 0.743893 0.400443
0.052842 0.751446 0.314672
0.0904555 0.768551 0.171267
0.578485 0.791516 0.183383
0.826886 0.830777 0.259159
0.939788 0.845762 0.35378
0.945357 0.848203 0.375982
0.0515755 0.788251 0.59646
0.0518196 0.789776 0.58471
0.0523537 0.792905 0.556481
0.0553445 0.796994 0.466545
0.0678874 0.791959 0.311269
0.395926 0.804715 0.242527
0.736751 0.856886 0.294514
0.894682 0.898253 0.368109
0.925765 0.904784 0.404883
0.0525063 0.780545 0.659175
0.0521096 0.78146 0.647227
0.0518044 0.783291 0.630396
0.051545 0.7888 0.592554
0.0579843 0.798596 0.425788
0.3131 0.797803 0.327321
0.673564 0.833814 0.362264
0.864729 0.891997 0.446616
0.923812 0.907027 0.497841
0.0181125 0.0317845 0.071809
0.0649119 0.0354009 0.0905623
0.139223 0.0380407 0.112352
0.231098 0.040177 0.169451
0.394171 0.0472572 0.224994
0.59382 0.0675364 0.220005
0.736919 0.0922103 0.237324
0.796643 0.107836 0.296727
0.809033 0.109331 0.426169
0.0188144 0.0340276 0.0664683
0.0166629 0.0330663 0.133593
0.149493 0.0370947 0.205234
0.298878 0.042771 0.219226
0.50135 0.0517891 0.238849
0.664561 0.0813916 0.224521
0.789593 0.102022 0.257115
0.801099 0.11107 0.328344
0.811521 0.107912 0.461112
0.0238956 0.117617 0.130846
0.0224002 0.109361 0.155169
0.0674907 0.0989242 0.170169
0.262867 0.0868086 0.204486
0.493706 0.0778058 0.181964
0.681544 0.0845197 0.23122
0.791577 0.103136 0.267918
0.799237 0.110506 0.312062
0.809476 0.109102 0.430838
0.0231632 0.201266 0.18291
0.0221866 0.209064 0.191135
0.0221714 0.209079 0.191516
0.26775 0.27248 0.258274
0.593805 0.281788 0.260456
0.776516 0.318914 0.308125
0.87599 0.311849 0.326192
0.846448 0.228916 0.292805
0.806806 0.124987 0.308644
0.0103151 0.327611 0.217868
0.00823987 0.340383 0.220295
0.00802625 0.345449 0.206531
0.0233158 0.367651 0.167224
0.539834 0.538705 0.275822
0.794049 0.593103 0.381445
0.922362 0.608515 0.475853
0.942794 0.605905 0.502724
0.941863 0.595956 0.518746
0.000671397 0.541909 0.298741
0.00334173 0.55787 0.306889
0.00381476 0.560861 0.281987
0.00633249 0.566201 0.213809
0.240116 0.646265 0.238987
0.714397 0.712993 0.320806
0.912169 0.736034 0.469947
0.956497 0.756008 0.52433
0.958572 0.759441 0.542458
0.040528 0.732708 0.521096
0.0409857 0.734966 0.515358
0.0416724 0.735882 0.484276
0.0441444 0.736858 0.399069
0.111147 0.754391 0.314031
0.513878 0.769192 0.28481
0.824262 0.82678 0.389776
0.957122 0.8421 0.525597
0.958892 0.843565 0.542535
0.0517433 0.784253 0.623545
0.0515602 0.785428 0.615534
0.0515908 0.788006 0.598154
0.0526284 0.793729 0.547509
0.0599527 0.798733 0.396826
0.344564 0.798886 0.33193
0.701473 0.842329 0.39585
0.890684 0.89572 0.493965
0.931075 0.903334 0.530373
0.0536812 0.779599 0.680064
0.0529488 0.780118 0.667536
0.0521096 0.78114 0.651087
0.0517433 0.784146 0.624079
0.0531624 0.794995 0.523156
0.339712 0.798932 0.436072
0.655253 0.832532 0.459678
0.857282 0.892866 0.544198
0.930724 0.91281 0.580804
0.0153201 0.0340276 0.162448
0.191226 0.0390173 0.232136
0.239734 0.0402838 0.238544
0.304982 0.043534 0.269047
0.431464 0.0458686 0.298146
0.605112 0.0582589 0.365316
0.762646 0.0945296 0.435248
0.817212 0.105699 0.51635
0.828519 0.104723 0.584649
0.0138094 0.0460212 0.169497
0.0124971 0.0372931 0.255619
0.110948 0.0407568 0.321889
0.345525 0.0461433 0.360479
0.528969 0.0479744 0.366018
0.676265 0.0695354 0.448081
0.816159 0.106081 0.506004
0.824308 0.104891 0.560189
0.832319 0.102754 0.611841
0.0181582 0.104509 0.222171
0.0158694 0.090959 0.249165
0.0309453 0.0788891 0.25864
0.248127 0.0682994 0.334478
0.482261 0.05243 0.332753
0.673426 0.0698405 0.437324
0.820127 0.105028 0.535973
0.826673 0.104936 0.573144
0.832334 0.102754 0.611902
0.0212558 0.196948 0.249668
0.0204623 0.200717 0.266026
0.020325 0.194934 0.2795
0.20647 0.253529 0.389395
0.579217 0.224964 0.480201
0.793515 0.283497 0.509758
0.901122 0.305318 0.526101
0.870069 0.220035 0.545525
0.835767 0.125353 0.573129
0.00953689 0.323064 0.304875
0.00825513 0.334981 0.316106
0.00819409 0.335653 0.316701
0.0229953 0.337087 0.315038
0.566918 0.552331 0.530694
0.805508 0.590219 0.566369
0.938094 0.624109 0.601373
0.944884 0.617319 0.608133
0.943542 0.595743 0.618524
0.000534066 0.533959 0.390051
0.00265507 0.546822 0.404318
0.00169375 0.544182 0.386618
0.00148013 0.544732 0.353674
0.278416 0.656825 0.463401
0.739147 0.724453 0.556893
0.924788 0.751507 0.631418
0.961868 0.781842 0.669093
0.961898 0.782742 0.681834
0.0395056 0.720729 0.578805
0.0395209 0.721492 0.57641
0.0381781 0.718669 0.561257
0.0377508 0.718959 0.528832
0.0555276 0.709239 0.423545
0.551308 0.775357 0.501122
0.84596 0.833982 0.584894
0.962142 0.849531 0.659831
0.962203 0.853925 0.674205
0.0524605 0.780606 0.658335
0.0521248 0.781125 0.651362
0.052018 0.782055 0.640238
0.0515755 0.785229 0.616999
0.0510719 0.784283 0.536797
0.411765 0.807019 0.514977
0.705974 0.852125 0.561608
0.908431 0.901015 0.627008
0.954955 0.90898 0.65684
0.0563821 0.778241 0.712337
0.0553292 0.778698 0.701427
0.054078 0.77937 0.686854
0.0526131 0.780453 0.661555
0.0514229 0.785809 0.610864
0.357412 0.806653 0.562066
0.672892 0.851774 0.599725
0.860349 0.903716 0.655192
0.946136 0.925307 0.678187
0.0126345 0.0378729 0.27071
0.165408 0.0419013 0.342275
0.223331 0.0440528 0.382559
0.304341 0.0466316 0.42327
0.516533 0.047425 0.453849
0.641917 0.0559548 0.499107
0.774426 0.0827802 0.58706
0.83418 0.0928817 0.643153
0.83772 0.0827802 0.671717
0.0107271 0.0475624 0.279301
0.00921645 0.0400397 0.3411
0.0454261 0.0419165 0.38378
0.246494 0.0459602 0.483574
0.586587 0.0520333 0.542077
0.710033 0.0641337 0.572824
0.826444 0.0893568 0.641184
0.834867 0.0819257 0.664271
0.842512 0.0840162 0.684764
0.0144045 0.0968643 0.32845
0.0133364 0.0912184 0.364538
0.0125124 0.0773022 0.357504
0.173465 0.0747692 0.472145
0.519173 0.057557 0.501488
0.670863 0.0600137 0.53492
0.825025 0.0859236 0.644724
0.838773 0.0830701 0.674418
0.844541 0.0846418 0.689906
0.0172885 0.196185 0.370504
0.0164034 0.201816 0.402487
0.0158389 0.195117 0.427405
0.131502 0.219684 0.492454
0.560708 0.218204 0.602747
0.745968 0.217975 0.634668
0.90483 0.279652 0.704601
0.908309 0.232136 0.717403
0.86804 0.133867 0.697215
0.00743114 0.345052 0.424262
0.00601205 0.35671 0.443442
0.00631724 0.355474 0.45243
0.00903334 0.329412 0.424048
0.514427 0.5402 0.646998
0.791394 0.540002 0.709728
0.937194 0.575036 0.708537
0.95523 0.57847 0.725261
0.955688 0.5523 0.751019
0.00579843 0.544488 0.521599
0.00813306 0.555413 0.533059
0.00697337 0.550988 0.528115
0.00636301 0.547265 0.524651
0.284489 0.631495 0.6056
0.751522 0.732754 0.710445
0.92781 0.754086 0.734844
0.961837 0.77641 0.758312
0.961883 0.771939 0.7626
0.0423438 0.717067 0.646464
0.0422675 0.716991 0.645121
0.0404822 0.711635 0.633692
0.0387579 0.707317 0.615534
0.0477455 0.672099 0.554498
0.615869 0.795285 0.681987
0.870375 0.848478 0.723232
0.962325 0.865461 0.767498
0.96231 0.873671 0.779355
0.0556039 0.778561 0.704402
0.0550546 0.77879 0.698207
0.0541848 0.778836 0.688807
0.0528115 0.778546 0.668574
0.048127 0.761547 0.621027
0.417975 0.798093 0.635706
0.768704 0.883787 0.716121
0.928038 0.911665 0.741482
0.962432 0.914763 0.770443
0.059266 0.777981 0.742565
0.0586557 0.77792 0.736095
0.0576486 0.77789 0.727199
0.0560006 0.778393 0.708263
0.052781 0.77911 0.666789
0.298283 0.78822 0.633051
0.736904 0.88925 0.728206
0.869657 0.919173 0.755398
0.958114 0.939208 0.770413
0.0144656 0.0418402 0.418524
0.0639963 0.0433967 0.456321
0.12961 0.0454719 0.517769
0.248356 0.0488441 0.567178
0.515984 0.0508431 0.592508
0.696529 0.0640879 0.622782
0.810742 0.0790417 0.662669
0.849653 0.0860151 0.703578
0.858106 0.0883497 0.729183
0.010956 0.0650339 0.422354
0.00973526 0.0604715 0.476173
0.0105592 0.0514229 0.464134
0.140368 0.0511635 0.537774
0.468864 0.0510109 0.591897
0.689357 0.0630961 0.61883
0.846769 0.0852827 0.696208
0.85771 0.0882277 0.727657
0.862776 0.0899062 0.747021
0.0132753 0.122179 0.494331
0.0129091 0.123598 0.531792
0.0127108 0.113405 0.528359
0.122469 0.110231 0.569268
0.488243 0.10428 0.634348
0.716655 0.108736 0.654398
0.829679 0.10576 0.685786
0.848859 0.0857862 0.701823
0.860487 0.0889906 0.737804
0.014313 0.222965 0.540978
0.014374 0.23241 0.565332
0.0146181 0.230091 0.577951
0.0933089 0.230655 0.575875
0.47837 0.25893 0.695644
0.775143 0.284611 0.732601
0.903761 0.30309 0.776257
0.9505 0.308339 0.81149
0.940719 0.2692 0.803769
0.00656138 0.383551 0.554269
0.00587472 0.397162 0.56495
0.00679026 0.392859 0.576669
0.0105135 0.359564 0.555261
0.423896 0.532891 0.696757
0.790021 0.559289 0.787518
0.907591 0.540368 0.801785
0.958114 0.545434 0.823056
0.955688 0.528771 0.829496
0.0163119 0.57641 0.608667
0.0188602 0.585153 0.617792
0.0177005 0.57911 0.616358
0.0165866 0.572274 0.617868
0.276448 0.619715 0.665553
0.731945 0.729335 0.787701
0.909895 0.721859 0.824292
0.961791 0.73843 0.832502
0.961669 0.732418 0.845563
0.0474403 0.719341 0.697795
0.0470283 0.718425 0.696605
0.0456703 0.711971 0.690852
0.0444953 0.70724 0.686122
0.0704662 0.665156 0.638956
0.640558 0.788373 0.764111
0.87924 0.854994 0.823072
0.962234 0.866621 0.837598
0.962066 0.871031 0.845518
0.0592966 0.777981 0.742763
0.0589761 0.777905 0.739178
0.0583352 0.77702 0.733791
0.0570687 0.774746 0.722698
0.0509499 0.745693 0.676143
0.471901 0.78584 0.710643
0.814771 0.902144 0.819715
0.939712 0.918471 0.828977
0.96257 0.922042 0.846555
0.063386 0.784451 0.772412
0.0611429 0.778958 0.758618
0.0604868 0.778576 0.753674
0.0594644 0.778103 0.743679
0.0550851 0.773404 0.707362
0.341741 0.782757 0.691905
0.751888 0.903166 0.802731
0.896239 0.936217 0.836088
0.962509 0.947601 0.840284
0.00875868 0.042771 0.479072
0.0151522 0.0458228 0.560601
0.0623331 0.0474861 0.58381
0.143801 0.0489509 0.595804
0.37406 0.0534829 0.63473
0.641703 0.0595865 0.650675
0.792538 0.0780041 0.692027
0.857252 0.0881056 0.726482
0.867079 0.0915541 0.76817
0.0122835 0.110262 0.563729
0.0128634 0.118257 0.593378
0.0130007 0.112215 0.591012
0.106172 0.118425 0.618875
0.414435 0.122545 0.690867
0.704524 0.131685 0.715755
0.843351 0.141833 0.742199
0.885985 0.128359 0.759716
0.873915 0.104723 0.761028
0.0146944 0.17641 0.605966
0.0152285 0.186908 0.626093
0.0150454 0.180499 0.624369
0.108293 0.188647 0.642908
0.426474 0.198871 0.72256
0.740322 0.22089 0.761639
0.89044 0.247562 0.794553
0.940307 0.250996 0.817929
0.931395 0.219593 0.816205
0.0159152 0.277806 0.636133
0.0161746 0.289418 0.650507
0.016434 0.290669 0.656077
0.0856336 0.287922 0.646494
0.412604 0.345327 0.753231
0.791302 0.397147 0.833082
0.923125 0.402472 0.841413
0.965515 0.410361 0.857725
0.966155 0.40145 0.864576
0.00723278 0.43711 0.625635
0.00737011 0.449592 0.632746
0.00788891 0.444297 0.641505
0.0138857 0.413977 0.623178
0.371832 0.552666 0.729656
0.756664 0.595605 0.84416
0.908812 0.585687 0.842359
0.953017 0.573556 0.850263
0.95317 0.569162 0.853971
0.028397 0.61294 0.672679
0.0300603 0.618585 0.678431
0.0288243 0.61207 0.67718
0.0238193 0.591409 0.664317
0.272816 0.626276 0.703639
0.710307 0.726207 0.826215
0.910842 0.737835 0.86865
0.961959 0.725734 0.877852
0.961807 0.724971 0.88217
0.0523384 0.728267 0.730739
0.052079 0.726726 0.729747
0.0509957 0.720516 0.726802
0.0502174 0.714977 0.726253
0.097261 0.677195 0.68748
0.655909 0.782879 0.80798
0.872511 0.854902 0.86537
0.959182 0.849119 0.879744
0.962188 0.850492 0.887465
0.0633249 0.783963 0.77171
0.0619669 0.780789 0.763714
0.0610056 0.779171 0.757595
0.0603799 0.775631 0.752651
0.0584878 0.743084 0.716365
0.498604 0.780789 0.754025
0.83592 0.901793 0.865095
0.943374 0.920943 0.88127
0.962402 0.923781 0.885145
0.0640726 0.786831 0.779797
0.0640726 0.786831 0.779797
0.0640726 0.786831 0.779797
0.0636454 0.785946 0.775586
0.0574044 0.768048 0.733639
0.383749 0.782223 0.734142
0.778439 0.906157 0.848264
0.92018 0.945861 0.886625
0.962844 0.951247 0.885374
0.00729381 0.038117 0.53106
0.0102846 0.0639353 0.589014
0.0107881 0.076051 0.593088
0.07393 0.0995346 0.624384
0.293935 0.132418 0.699962
0.634607 0.150668 0.746227
0.829328 0.20058 0.784787
0.942779 0.254856 0.83476
0.952453 0.268345 0.853422
0.015671 0.185595 0.645533
0.0164492 0.204059 0.662486
0.016144 0.196567 0.657481
0.0971847 0.219242 0.683772
0.358419 0.250095 0.756115
0.7196 0.285237 0.823102
0.902937 0.32932 0.851423
0.968261 0.349584 0.87158
0.968429 0.346899 0.87924
0.0171511 0.254627 0.673182
0.0176242 0.270695 0.683986
0.0174258 0.258122 0.675593
0.105531 0.282933 0.697765
0.376181 0.32311 0.776104
0.757641 0.381613 0.859892
0.919203 0.404761 0.869337
0.965866 0.416892 0.88072
0.965896 0.417075 0.887358
0.016556 0.351202 0.689632
0.0160525 0.365667 0.695232
0.0166323 0.361364 0.695369
0.0897841 0.365606 0.694072
0.392767 0.467063 0.7832
0.750591 0.512047 0.868177
0.911238 0.516991 0.868406
0.958373 0.514183 0.871992
0.959335 0.516197 0.876783
0.0129244 0.500633 0.677012
0.0150149 0.512078 0.68513
0.0149386 0.509926 0.688365
0.0243229 0.480507 0.66569
0.361868 0.590234 0.758465
0.715969 0.639323 0.868818
0.909987 0.642252 0.883375
0.957763 0.630137 0.879576
0.959457 0.631251 0.882689
0.0385901 0.646342 0.716762
0.039826 0.649165 0.720165
0.0387274 0.643153 0.71986
0.0297398 0.608911 0.691066
0.291539 0.648325 0.738201
0.694804 0.734157 0.844938
0.903517 0.761654 0.903227
0.961837 0.753704 0.903181
0.961852 0.752285 0.905715
0.0564584 0.738918 0.755596
0.0561379 0.736202 0.755077
0.0551156 0.730282 0.753094
0.0540627 0.724208 0.751415
0.157198 0.691051 0.724224
0.662623 0.78172 0.832975
0.86392 0.857023 0.88922
0.958251 0.858717 0.908888
0.962051 0.853361 0.911467
0.0640726 0.786831 0.779797
0.0640726 0.786831 0.779797
0.0640726 0.786831 0.779797
0.0640879 0.784833 0.778988
0.0781415 0.745571 0.738521
0.530388 0.785672 0.783108
0.847089 0.899687 0.888426
0.940398 0.922271 0.904906
0.962432 0.919615 0.906096
0.0640726 0.786831 0.779797
0.0640726 0.786831 0.779797
0.0640726 0.786831 0.779797
0.0640726 0.786831 0.779812
0.0596017 0.767651 0.747448
0.42179 0.786252 0.761837
0.787839 0.905562 0.870893
0.93106 0.946517 0.909483
0.962661 0.952346 0.911543
