bundles/resolve-cinematic-luts/Phantom Luts/Apple Log Phantom LUTS/iPhone 15 Phantom Movie LUTs/33x/Bleach iPhone_15_33x.cube
TITLE "Generated by Resolve"
LUT_3D_SIZE 5
0.020325 0.0324712 0.0222019
0.0296483 0.0338903 0.0238651
0.308095 0.049836 0.0357214
0.656992 0.0867628 0.100862
0.78117 0.0984207 0.203449
0.0264134 0.0758373 0.0338445
0.0788739 0.0923018 0.0376593
0.384771 0.0691691 0.0444648
0.688365 0.0610819 0.0519875
0.779522 0.10779 0.169909
0.0145571 0.340215 0.0865187
0.0153353 0.380285 0.0156863
0.490257 0.493965 0.0441138
0.885939 0.567071 0.213931
0.918883 0.541863 0.240345
0.0458686 0.744656 0.401495
0.0502327 0.750393 0.344747
0.178103 0.791714 0.0783246
0.828717 0.839506 0.154513
0.924804 0.855314 0.194842
0.0520485 0.781598 0.644953
0.051545 0.785534 0.615015
0.0621347 0.795254 0.35082
0.718212 0.85008 0.310658
0.922545 0.905669 0.415549
0.0203098 0.0323491 0.021561
0.0662699 0.0377966 0.0537881
0.392676 0.0539406 0.156832
0.709407 0.087068 0.167468
0.794797 0.106188 0.287572
0.025803 0.102754 0.0862287
0.0900282 0.101854 0.0888533
0.439872 0.0876173 0.0823987
0.775509 0.108431 0.157763
0.788907 0.101762 0.252445
0.01149 0.337636 0.148745
0.0107271 0.361639 0.0986801
0.504845 0.505821 0.102663
0.894865 0.582269 0.305653
0.930861 0.559075 0.36408
0.0433509 0.741833 0.457603
0.0455787 0.743893 0.400443
0.0904555 0.768551 0.171267
0.826886 0.830777 0.259159
0.945357 0.848203 0.375982
0.0525063 0.780545 0.659175
0.0518044 0.783291 0.630396
0.0579843 0.798596 0.425788
0.673564 0.833814 0.362264
0.923812 0.907027 0.497841
0.0153201 0.0340276 0.162448
0.239734 0.0402838 0.238544
0.431464 0.0458686 0.298146
0.762646 0.0945296 0.435248
0.828519 0.104723 0.584649
0.0181582 0.104509 0.222171
0.0309453 0.0788891 0.25864
0.482261 0.05243 0.332753
0.820127 0.105028 0.535973
0.832334 0.102754 0.611902
0.00953689 0.323064 0.304875
0.00819409 0.335653 0.316701
0.566918 0.552331 0.530694
0.938094 0.624109 0.601373
0.943542 0.595743 0.618524
0.0395056 0.720729 0.578805
0.0381781 0.718669 0.561257
0.0555276 0.709239 0.423545
0.84596 0.833982 0.584894
0.962203 0.853925 0.674205
0.0563821 0.778241 0.712337
0.054078 0.77937 0.686854
0.0514229 0.785809 0.610864
0.672892 0.851774 0.599725
0.946136 0.925307 0.678187
0.0144656 0.0418402 0.418524
0.12961 0.0454719 0.517769
0.515984 0.0508431 0.592508
0.810742 0.0790417 0.662669
0.858106 0.0883497 0.729183
0.0132753 0.122179 0.494331
0.0127108 0.113405 0.528359
0.488243 0.10428 0.634348
0.829679 0.10576 0.685786
0.860487 0.0889906 0.737804
0.00656138 0.383551 0.554269
0.00679026 0.392859 0.576669
0.423896 0.532891 0.696757
0.907591 0.540368 0.801785
0.955688 0.528771 0.829496
0.0474403 0.719341 0.697795
0.0456703 0.711971 0.690852
0.0704662 0.665156 0.638956
0.87924 0.854994 0.823072
0.962066 0.871031 0.845518
0.063386 0.784451 0.772412
0.0604868 0.778576 0.753674
0.0550851 0.773404 0.707362
0.751888 0.903166 0.802731
0.962509 0.947601 0.840284
0.00729381 0.038117 0.53106
0.0107881 0.076051 0.593088
0.293935 0.132418 0.699962
0.829328 0.20058 0.784787
0.952453 0.268345 0.853422
0.0171511 0.254627 0.673182
0.0174258 0.258122 0.675593
0.376181 0.32311 0.776104
0.919203 0.404761 0.869337
0.965896 0.417075 0.887358
0.0129244 0.500633 0.677012
0.0149386 0.509926 0.688365
0.361868 0.590234 0.758465
0.909987 0.642252 0.883375
0.959457 0.631251 0.882689
0.0564584 0.738918 0.755596
0.0551156 0.730282 0.753094
0.157198 0.691051 0.724224
0.86392 0.857023 0.88922
0.962051 0.853361 0.911467
0.0640726 0.786831 0.779797
0.0640726 0.786831 0.779797
0.0596017 0.767651 0.747448
0.787839 0.905562 0.870893
0.962661 0.952346 0.911543
