bundles/resolve-cinematic-luts/Phantom Luts/Apple Log Phantom LUTS/iPhone 15 Phantom Movie LUTs/33x/Bleach_Legacy iPhone_15_33x.cube
TITLE "Generated by Resolve"
LUT_3D_SIZE 33
0.0316777 0.0446021 0.0332036
0.0316777 0.0446021 0.0332036
0.0316777 0.0446021 0.0332036
0.0316777 0.0446021 0.0332036
0.0316777 0.0446021 0.0332036
0.0316777 0.0446021 0.0332036
0.0316777 0.0446021 0.0332036
0.0317998 0.0446326 0.0332189
0.0370947 0.0453803 0.0339666
0.0513161 0.0481422 0.0344244
0.073579 0.0493477 0.0356756
0.0989548 0.0506752 0.0372625
0.128008 0.050782 0.038468
0.159701 0.0507973 0.0387732
0.194751 0.0514534 0.0390326
0.22974 0.0525673 0.0394751
0.264698 0.0535897 0.0398108
0.300679 0.054612 0.0403296
0.339406 0.0557107 0.0416419
0.38146 0.0575418 0.0438239
0.43592 0.0592355 0.0485542
0.484733 0.0610208 0.0527199
0.527657 0.0638285 0.0581521
0.567163 0.0677195 0.0645762
0.605661 0.0724956 0.0730907
0.642786 0.0784466 0.0825208
0.677455 0.0850843 0.0931563
0.708415 0.0917067 0.104707
0.721584 0.0949874 0.112215
0.727459 0.0969253 0.119188
0.734432 0.0990005 0.127886
0.742168 0.101198 0.138735
0.750317 0.103655 0.150942
0.0316777 0.0446021 0.0332036
0.0316777 0.0446021 0.0332036
0.0316777 0.0446021 0.0332036
0.0316777 0.0446021 0.0332036
0.0316777 0.0446021 0.0332036
0.0316777 0.0446021 0.0332036
0.0316777 0.0446021 0.0332036
0.0340429 0.0449683 0.0335699
0.0457465 0.047715 0.0349126
0.0694285 0.0492256 0.0356298
0.0954452 0.0505684 0.0370031
0.124544 0.0507973 0.0382849
0.156176 0.0508888 0.0388342
0.193668 0.0515297 0.0391394
0.22948 0.0526131 0.0395819
0.265278 0.0536812 0.0399329
0.302678 0.0551156 0.0412146
0.341695 0.056199 0.042359
0.387442 0.0580301 0.0457313
0.439399 0.059144 0.0484627
0.487419 0.0604562 0.0518959
0.529778 0.0636912 0.0579385
0.568582 0.0674449 0.0642863
0.606409 0.0718242 0.0722057
0.641855 0.0772564 0.080827
0.676387 0.0836347 0.0917983
0.706218 0.0905013 0.102144
0.719478 0.093904 0.10985
0.725185 0.0961776 0.116548
0.731487 0.0984054 0.124376
0.738231 0.100252 0.133318
0.746807 0.102602 0.145525
0.754833 0.105379 0.157626
0.0316777 0.0446021 0.0332036
0.0316777 0.0446021 0.0332036
0.0316777 0.0446021 0.0332036
0.0316777 0.0446021 0.0332036
0.0316777 0.0446021 0.0332036
0.0316777 0.0446021 0.0332036
0.0316777 0.0446021 0.0332036
0.0388495 0.0457465 0.034287
0.0570077 0.0482795 0.034638
0.0830549 0.0499886 0.036286
0.111391 0.0508125 0.0378271
0.143145 0.0508431 0.0387274
0.178836 0.0512398 0.0390478
0.215686 0.0518349 0.0389868
0.25211 0.0526589 0.0388952
0.288426 0.0535744 0.0388647
0.326711 0.054139 0.0388952
0.368673 0.05449 0.0393378
0.416114 0.0549325 0.0413825
0.46424 0.05626 0.0446479
0.507988 0.0585031 0.0489357
0.54815 0.061799 0.0559091
0.586465 0.0662547 0.0635691
0.622202 0.0707866 0.0713207
0.655756 0.0758068 0.0805066
0.687175 0.0815747 0.0900282
0.711208 0.0885786 0.100359
0.718578 0.0938125 0.109102
0.724376 0.0958877 0.115572
0.730404 0.0980545 0.122972
0.736919 0.0998398 0.131716
0.745251 0.10219 0.143282
0.753552 0.104967 0.155932
0.0316777 0.0446021 0.0332036
0.0316777 0.0446021 0.0332036
0.0316777 0.0446021 0.0332036
0.0316777 0.0446021 0.0332036
0.0316777 0.0446021 0.0332036
0.0316777 0.0446021 0.0332036
0.0321355 0.0446937 0.0332494
0.0374914 0.0454566 0.0340429
0.0505684 0.0481117 0.0342412
0.0767376 0.0500038 0.0357977
0.105058 0.0512093 0.0373541
0.137255 0.0510262 0.0383307
0.175662 0.0512245 0.0386664
0.217884 0.0518196 0.0387732
0.256825 0.0528725 0.0389715
0.295567 0.0537118 0.03888
0.335332 0.0541695 0.0387884
0.377569 0.0539712 0.0385748
0.424887 0.052781 0.0378729
0.469764 0.051957 0.038941
0.509804 0.0531014 0.0415198
0.548028 0.0565042 0.0478676
0.585794 0.0607919 0.0554055
0.620722 0.0649577 0.0638285
0.653651 0.0700389 0.0724956
0.685161 0.0760052 0.0826886
0.705776 0.0831769 0.0936599
0.713939 0.0906386 0.103502
0.72137 0.0949111 0.112016
0.727642 0.0969863 0.119356
0.734813 0.0991531 0.12842
0.742931 0.101366 0.13959
0.751186 0.10396 0.152377
0.0316777 0.0446021 0.0332036
0.0316777 0.0446021 0.0332036
0.0316777 0.0446021 0.0332036
0.0316777 0.0446021 0.0332036
0.0316777 0.0446021 0.0332036
0.0316777 0.0446021 0.0332036
0.0317388 0.0446174 0.0332189
0.0358129 0.0451667 0.0337224
0.0459754 0.0481575 0.0350652
0.0678111 0.0504616 0.035523
0.0911879 0.0523079 0.0371557
0.121523 0.0522621 0.0381018
0.160922 0.0517433 0.038529
0.206195 0.0517586 0.0384527
0.250767 0.0525978 0.0384527
0.296208 0.0537118 0.0384985
0.33785 0.0541543 0.0387884
0.381369 0.0539559 0.0385748
0.42887 0.0527657 0.0378271
0.474708 0.0514382 0.0384375
0.513497 0.0512093 0.0391852
0.548974 0.0522316 0.0416419
0.583764 0.0551003 0.0475319
0.618494 0.0599222 0.05626
0.652338 0.0652476 0.066453
0.682628 0.071107 0.0761578
0.700175 0.0785382 0.0873121
0.709758 0.0872663 0.0987259
0.718318 0.0933547 0.108705
0.725261 0.0962081 0.116564
0.732509 0.0986038 0.125566
0.740688 0.100816 0.136492
0.749722 0.103426 0.149569
0.0316777 0.0446021 0.0332036
0.0316777 0.0446021 0.0332036
0.0316777 0.0446021 0.0332036
0.0316777 0.0446021 0.0332036
0.0316777 0.0446021 0.0332036
0.0316777 0.0446021 0.0332036
0.0317998 0.0446326 0.0332189
0.0346838 0.0451362 0.0336004
0.043183 0.0485695 0.0355688
0.0606241 0.0518807 0.0357061
0.082002 0.0536355 0.0375525
0.109148 0.0542153 0.0384222
0.147448 0.053254 0.0391089
0.193774 0.0526741 0.0389105
0.24239 0.0527047 0.0384375
0.291127 0.0537728 0.0384833
0.340887 0.0541543 0.0387121
0.38706 0.0538949 0.0385443
0.435874 0.0526284 0.0376898
0.481788 0.0513466 0.038529
0.519463 0.0511635 0.0393072
0.554116 0.0513466 0.0408789
0.586007 0.0521401 0.043183
0.619058 0.0557717 0.0505684
0.65211 0.0612497 0.0607614
0.682795 0.0672923 0.0717021
0.69546 0.0742657 0.0819562
0.705684 0.0830549 0.0935225
0.715785 0.0920577 0.105638
0.722881 0.0954604 0.113725
0.7299 0.0978714 0.122408
0.737743 0.100145 0.132799
0.747845 0.102937 0.146929
0.0316777 0.0446021 0.0332036
0.0316777 0.0446021 0.0332036
0.0317082 0.0447852 0.0332494
0.0317082 0.0447852 0.0332494
0.031693 0.0446632 0.0332189
0.0316777 0.0446021 0.0332036
0.0325017 0.0452125 0.033463
0.0366522 0.0476539 0.034638
0.0452125 0.0521859 0.0371862
0.0583047 0.0561532 0.0376135
0.0809644 0.0576028 0.0385443
0.10663 0.0581064 0.0389715
0.140734 0.0567636 0.0396277
0.182895 0.0551003 0.0399329
0.232609 0.0540322 0.0394751
0.286763 0.0542306 0.0389105
0.340291 0.0540322 0.038056
0.393957 0.0537575 0.038407
0.445136 0.0521553 0.038407
0.488853 0.0513924 0.0387732
0.526223 0.0512856 0.0395972
0.560739 0.0514076 0.0411078
0.592798 0.0517586 0.0426947
0.623072 0.0540322 0.0470436
0.652857 0.0576638 0.0541848
0.67953 0.0619669 0.0643473
0.689113 0.0691539 0.0748455
0.699001 0.0773938 0.0860609
0.709468 0.0868086 0.0983139
0.71902 0.0938582 0.109483
0.726452 0.0965286 0.117998
0.734462 0.0990158 0.128069
0.743816 0.101701 0.140993
0.0319066 0.0479133 0.0338903
0.032639 0.052018 0.0353246
0.0333104 0.0555276 0.0366674
0.0332341 0.054612 0.036408
0.0327459 0.0521859 0.0353552
0.0338293 0.052018 0.0352941
0.0385595 0.0543679 0.0366522
0.0449073 0.0571908 0.0385138
0.0546426 0.061677 0.0418555
0.0680858 0.0661631 0.0411994
0.0910811 0.0671244 0.0417945
0.117327 0.0666056 0.0420233
0.149187 0.0639658 0.0413977
0.187457 0.061677 0.0413214
0.230137 0.0601358 0.0417029
0.274372 0.058381 0.0413062
0.322072 0.0560311 0.0398718
0.381155 0.0541543 0.0378271
0.444419 0.0518196 0.0367132
0.49453 0.0511177 0.0384375
0.533303 0.0513008 0.0398718
0.567468 0.0514992 0.0414282
0.599359 0.0521248 0.0430457
0.629435 0.0546273 0.045594
0.655879 0.0572519 0.0487221
0.673121 0.0594797 0.0551308
0.679637 0.0624094 0.06421
0.689357 0.0693828 0.0750896
0.700023 0.0783703 0.0870985
0.710979 0.0882124 0.0999771
0.720928 0.0946365 0.111437
0.728786 0.0974594 0.120867
0.737545 0.100069 0.132509
0.0345617 0.067216 0.0406195
0.0349432 0.0730449 0.0420996
0.0346685 0.0780346 0.042298
0.0347448 0.0782635 0.0423438
0.0350042 0.0721904 0.0412146
0.038056 0.0692607 0.0405737
0.0436255 0.0708934 0.0411536
0.0522469 0.0733196 0.0423133
0.0648508 0.0766918 0.0452125
0.0808881 0.0818952 0.0466468
0.103273 0.0845197 0.0461128
0.131441 0.0825818 0.0462043
0.166262 0.0781872 0.0458991
0.205585 0.0732586 0.0457618
0.245136 0.0701762 0.0451362
0.285756 0.0666819 0.0448768
0.325902 0.0633555 0.0437629
0.369299 0.0598001 0.0418708
0.416648 0.0557412 0.0384527
0.472526 0.0515908 0.0359503
0.52845 0.0508278 0.0386816
0.56875 0.051194 0.0406653
0.604944 0.0522621 0.0433814
0.635126 0.0551766 0.0462348
0.660136 0.0578164 0.0487678
0.668681 0.0589151 0.0499428
0.670481 0.059205 0.0522469
0.675959 0.0601511 0.0600137
0.686656 0.0672923 0.0721599
0.69749 0.0762646 0.0843977
0.709682 0.0867323 0.0984665
0.720974 0.0946975 0.111666
0.730159 0.0979171 0.122728
0.0354772 0.090959 0.0475319
0.0347448 0.0970169 0.0485847
0.0340581 0.101793 0.0471351
0.0334936 0.103304 0.0463111
0.0337224 0.0987564 0.0454719
0.037232 0.0929122 0.045182
0.0439765 0.0932784 0.0456397
0.0530709 0.0955215 0.0455024
0.0707256 0.0980697 0.0469825
0.0896468 0.101411 0.0496376
0.11281 0.106737 0.0492256
0.147585 0.106264 0.0499428
0.184588 0.101305 0.0505989
0.226749 0.093431 0.0513161
0.269368 0.0852369 0.0526284
0.310674 0.081117 0.052018
0.353094 0.076936 0.0512398
0.397147 0.0719768 0.0486915
0.440818 0.0663462 0.0454719
0.47805 0.0602884 0.041474
0.51162 0.0557717 0.0388952
0.54696 0.0529335 0.0395972
0.592279 0.0516823 0.0415503
0.632197 0.0547799 0.0446326
0.665095 0.0584115 0.0492103
0.66833 0.0588693 0.0496681
0.66833 0.0588693 0.0496681
0.668788 0.0589303 0.0500038
0.672145 0.0595254 0.0543984
0.679286 0.0628672 0.0631723
0.690303 0.070634 0.0763561
0.70547 0.0828717 0.0932479
0.71809 0.0920119 0.10811
0.0332494 0.115206 0.0539406
0.0325322 0.121462 0.0547189
0.0308995 0.125261 0.051133
0.0306554 0.127901 0.0469368
0.0303502 0.126238 0.0464179
0.0313726 0.122835 0.0468757
0.0365301 0.118532 0.047364
0.0470893 0.120104 0.0478523
0.0650034 0.123583 0.0476234
0.0926986 0.125978 0.0498207
0.118379 0.1299 0.0501869
0.154772 0.134722 0.050248
0.203265 0.130114 0.0532692
0.248035 0.12401 0.0551003
0.296101 0.116625 0.0580148
0.347112 0.107424 0.0616007
0.400229 0.100359 0.06215
0.451041 0.0930648 0.0599832
0.492424 0.0867018 0.0581369
0.524453 0.0805066 0.0551461
0.548928 0.0745861 0.0514382
0.570687 0.0691234 0.048188
0.591531 0.0622416 0.0457465
0.61413 0.0574807 0.0441901
0.642664 0.0559854 0.0455024
0.664515 0.05832 0.0481727
0.667338 0.058732 0.0489509
0.667002 0.0586862 0.0491188
0.668482 0.0588846 0.0497749
0.66923 0.0589761 0.0503243
0.672541 0.0594492 0.0548104
0.68014 0.0636301 0.0636301
0.69337 0.0728771 0.0796368
0.0301366 0.139971 0.0585184
0.0305028 0.14583 0.0585641
0.0306859 0.149935 0.0544442
0.0311437 0.152956 0.0471199
0.0312963 0.153307 0.0443885
0.0313115 0.153094 0.0443122
0.0313268 0.150713 0.0447852
0.0326696 0.145159 0.0454414
0.0475013 0.14876 0.0449836
0.078294 0.154253 0.0459297
0.114397 0.15787 0.0489815
0.15259 0.163424 0.0472267
0.209735 0.168032 0.0498817
0.268116 0.162692 0.0567788
0.32221 0.155612 0.062089
0.381277 0.147265 0.066743
0.448981 0.137362 0.0700236
0.506432 0.127367 0.0741741
0.54757 0.122423 0.0762951
0.578775 0.117525 0.0768292
0.602945 0.112169 0.0754711
0.62269 0.105531 0.0724956
0.64036 0.0975814 0.0680705
0.654612 0.0879377 0.0624399
0.666407 0.0771038 0.0573434
0.677501 0.0673991 0.0528115
0.681758 0.0617227 0.0494087
0.677012 0.0610513 0.0497444
0.672618 0.0593271 0.0487221
0.668971 0.0588998 0.0491646
0.666728 0.0586557 0.0491798
0.669749 0.0590524 0.0509346
0.672145 0.0594186 0.0538949
0.0308537 0.167025 0.0613413
0.0311589 0.17377 0.0611887
0.0311284 0.177935 0.0567636
0.0314183 0.18024 0.0496681
0.0318303 0.181857 0.0428016
0.0323186 0.183352 0.0405737
0.0323033 0.184802 0.040177
0.0319066 0.180789 0.0403754
0.0325017 0.174395 0.0410468
0.0459449 0.18056 0.0375219
0.0887007 0.190402 0.0403754
0.139223 0.197131 0.0448768
0.195178 0.204257 0.0428626
0.266606 0.209979 0.0471809
0.33901 0.202899 0.0594186
0.409659 0.193942 0.0667124
0.482063 0.183764 0.0735332
0.538506 0.178332 0.0820478
0.583459 0.172381 0.0904402
0.619135 0.164446 0.0978714
0.64918 0.160754 0.102358
0.673655 0.156298 0.103151
0.695216 0.150408 0.101823
0.713085 0.142702 0.0987106
0.72755 0.133165 0.093431
0.737774 0.121965 0.0868696
0.736767 0.110292 0.0790417
0.723613 0.0976425 0.0705119
0.712886 0.0862898 0.0647746
0.699886 0.0747082 0.057969
0.689113 0.0668345 0.0532082
0.677501 0.0603647 0.0493324
0.672847 0.0593729 0.0494698
0.030518 0.198459 0.0638132
0.0304112 0.205219 0.0633097
0.0304265 0.209323 0.0589303
0.0310674 0.211368 0.0525063
0.031342 0.212741 0.0449226
0.0315099 0.214206 0.0388647
0.0314946 0.216419 0.0342412
0.0312657 0.217777 0.0329595
0.0317845 0.212085 0.0344091
0.0318303 0.208148 0.0329137
0.046128 0.215518 0.0276951
0.100099 0.228244 0.0322271
0.170764 0.237903 0.0389715
0.240467 0.247501 0.0378424
0.326314 0.25597 0.0439307
0.425223 0.247288 0.0591287
0.50341 0.240131 0.0712596
0.561913 0.235248 0.0854353
0.609415 0.2327 0.0996414
0.648981 0.231937 0.11223
0.683452 0.229557 0.123568
0.7131 0.222187 0.133639
0.740322 0.215122 0.138598
0.764065 0.209216 0.13901
0.784237 0.203113 0.137804
0.799924 0.196384 0.135576
0.803113 0.187228 0.129839
0.796231 0.177111 0.123568
0.787366 0.165713 0.116365
0.77673 0.15314 0.107851
0.765194 0.140093 0.0994583
0.750927 0.124712 0.0887007
0.73257 0.106081 0.0759594
0.0289616 0.230182 0.065095
0.0286412 0.237293 0.0644541
0.0282139 0.241489 0.0608072
0.0282902 0.243763 0.0543832
0.0285191 0.244953 0.0473793
0.0288853 0.24564 0.0415045
0.0295109 0.246311 0.0331579
0.0297398 0.248631 0.0243076
0.0296178 0.250233 0.0239414
0.030396 0.241566 0.0252842
0.0303197 0.241825 0.0245975
0.0478981 0.252308 0.0245518
0.118334 0.268589 0.0293278
0.207614 0.283436 0.0349889
0.29102 0.296315 0.0339361
0.393729 0.306996 0.0405737
0.508064 0.302022 0.059556
0.576394 0.30277 0.0824598
0.630274 0.305303 0.103487
0.67509 0.305638 0.124727
0.713512 0.306462 0.14284
0.748257 0.308659 0.159609
0.779278 0.307576 0.173236
0.808118 0.302251 0.185153
0.833158 0.294942 0.19353
0.85478 0.287007 0.19678
0.862181 0.280827 0.194064
0.857191 0.270191 0.187961
0.852049 0.261875 0.18117
0.846845 0.25243 0.174517
0.841184 0.242527 0.167636
0.83212 0.229038 0.158099
0.821836 0.21413 0.148074
0.0263371 0.264057 0.0671397
0.0251926 0.271336 0.0660258
0.0250553 0.276081 0.0633402
0.0249485 0.277897 0.0575418
0.0248722 0.279118 0.0516976
0.024979 0.280369 0.0456245
0.0256046 0.281468 0.0374609
0.0265049 0.281498 0.022385
0.0260624 0.286336 0.0193942
0.0259861 0.287297 0.0192416
0.0270542 0.276478 0.0207675
0.0265965 0.281117 0.0202792
0.0549172 0.294331 0.0204471
0.141924 0.314412 0.0262455
0.248127 0.335164 0.0339666
0.346975 0.351217 0.0327764
0.467582 0.367926 0.0391546
0.573907 0.377813 0.0659342
0.640818 0.390143 0.100649
0.695766 0.400092 0.130938
0.739498 0.404776 0.158572
0.77882 0.407645 0.184573
0.814145 0.407782 0.205844
0.84593 0.408331 0.222507
0.873259 0.408392 0.23566
0.8963 0.406851 0.247593
0.908888 0.404105 0.254307
0.907546 0.398535 0.25304
0.906477 0.391073 0.250935
0.904952 0.384268 0.248859
0.902617 0.376394 0.24622
0.899443 0.366323 0.241993
0.893767 0.34786 0.234852
0.0216983 0.300877 0.0688792
0.0205692 0.308766 0.0688334
0.0198978 0.313436 0.0660716
0.019791 0.315587 0.0615396
0.0199741 0.317479 0.0571756
0.0197452 0.319814 0.0513161
0.0200656 0.321233 0.0446174
0.0210422 0.321706 0.0294041
0.0218967 0.323934 0.0156252
0.0214847 0.331823 0.0139467
0.0217899 0.328939 0.0142977
0.0225681 0.320485 0.0154269
0.0229038 0.327581 0.0145571
0.0690776 0.343786 0.0152743
0.175845 0.369757 0.0238956
0.293431 0.397925 0.0313268
0.414099 0.417823 0.0332647
0.533974 0.448692 0.0487373
0.628138 0.474128 0.0777447
0.689921 0.488014 0.113787
0.736278 0.496559 0.144961
0.778195 0.502327 0.170336
0.814115 0.504814 0.193561
0.847059 0.50457 0.214374
0.876616 0.503243 0.231586
0.901015 0.498604 0.246983
0.914199 0.497353 0.254765
0.915541 0.49424 0.256199
0.915679 0.492378 0.256687
0.915312 0.490684 0.256153
0.9149 0.486549 0.256031
0.915587 0.480568 0.25771
0.914839 0.474311 0.25742
0.0149844 0.342199 0.0726787
0.0137942 0.351476 0.073579
0.0129244 0.357259 0.0711376
0.0129397 0.359945 0.0672313
0.0130312 0.36202 0.0632181
0.0129702 0.36434 0.0580453
0.0128939 0.367468 0.0519112
0.0135195 0.370153 0.0419928
0.0154269 0.372274 0.020264
0.0166629 0.378042 0.00881972
0.0155642 0.387274 0.00733959
0.0168765 0.375326 0.00857557
0.0168154 0.375723 0.00854505
0.0272221 0.384222 0.0077821
0.0891585 0.405554 0.00918593
0.218769 0.441871 0.0221256
0.355489 0.479713 0.035523
0.49929 0.503029 0.0486305
0.595026 0.530068 0.0669566
0.675608 0.5514 0.0940871
0.732357 0.563989 0.124804
0.775021 0.571649 0.153887
0.812787 0.577249 0.178271
0.84683 0.579736 0.197574
0.875975 0.579995 0.214817
0.900038 0.579965 0.231357
0.915404 0.579797 0.241596
0.917494 0.578424 0.243229
0.917586 0.576715 0.243687
0.917708 0.575891 0.244114
0.917357 0.574334 0.244312
0.91725 0.572351 0.244907
0.917006 0.568597 0.24538
0.00706493 0.391363 0.0790265
0.00538643 0.402075 0.0795605
0.00456245 0.408545 0.0774243
0.00451667 0.41117 0.0738231
0.00495918 0.413321 0.0699474
0.00457771 0.417411 0.0649882
0.00476081 0.421546 0.0592203
0.00492866 0.425467 0.0522621
0.00682078 0.429694 0.0348669
0.00927749 0.435538 0.0129702
0.0111391 0.445579 0.00262455
0.0110933 0.452781 0.00236515
0.0115511 0.434348 0.00320439
0.0112917 0.442191 0.00288396
0.0476387 0.456291 0.00341802
0.135378 0.483253 0.0111543
0.299351 0.531365 0.0396124
0.457481 0.56054 0.0516823
0.573007 0.576699 0.0702373
0.650629 0.596124 0.0870069
0.721508 0.613825 0.112093
0.772915 0.624445 0.133883
0.81413 0.631205 0.15967
0.848997 0.634623 0.185077
0.878965 0.63859 0.203937
0.903426 0.640665 0.218936
0.920241 0.641917 0.230549
0.920851 0.643046 0.230304
0.920974 0.642771 0.229358
0.921065 0.642084 0.229328
0.920882 0.641672 0.230564
0.920684 0.641321 0.231144
0.920729 0.639277 0.231479
0.000747692 0.446296 0.0891432
0.000183108 0.457801 0.0916609
0.000640879 0.463935 0.0915236
0.000503548 0.466102 0.087953
0.000747692 0.468208 0.0839704
0.00161746 0.471641 0.0803845
0.00192264 0.477607 0.0755474
0.0027924 0.483833 0.0698253
0.00444038 0.489326 0.0608072
0.00759899 0.493843 0.0347601
0.0121004 0.501549 0.0158236
0.016434 0.513848 0.00598154
0.0160525 0.51284 0.00549325
0.0148165 0.50338 0.00459297
0.0308385 0.512642 0.00598154
0.0993515 0.538033 0.0136873
0.233585 0.576745 0.0357366
0.40177 0.610819 0.0643015
0.544015 0.625299 0.067628
0.632547 0.6365 0.0901198
0.698192 0.650431 0.104173
0.759564 0.664668 0.125872
0.809918 0.673091 0.145144
0.849454 0.680064 0.163668
0.881865 0.685359 0.183978
0.907469 0.688487 0.206882
0.920607 0.690455 0.218936
0.922225 0.691981 0.220752
0.922148 0.692317 0.22034
0.922072 0.693065 0.219959
0.922087 0.693049 0.220432
0.922087 0.69337 0.220951
0.922087 0.69276 0.220508
0.00146487 0.505043 0.114748
0.0024567 0.516823 0.120867
0.00314336 0.522332 0.121981
0.00347906 0.524224 0.118807
0.00392157 0.526329 0.115175
0.00511177 0.530205 0.111376
0.00607309 0.536339 0.107668
0.0077821 0.543038 0.102724
0.00988785 0.549615 0.0962081
0.0134127 0.556039 0.0777905
0.0186923 0.56144 0.0471351
0.0278172 0.57377 0.026627
0.0407721 0.588052 0.019379
0.0326848 0.566979 0.0142061
0.03888 0.576471 0.0164645
0.0909438 0.597269 0.0244755
0.189517 0.625925 0.0402533
0.340047 0.654231 0.0649424
0.503044 0.665812 0.0803388
0.606638 0.676387 0.0818799
0.680858 0.685649 0.105638
0.737453 0.696193 0.118273
0.790478 0.707164 0.139452
0.841489 0.716182 0.154162
0.879637 0.722774 0.168872
0.906996 0.728069 0.183474
0.920943 0.731807 0.194324
0.922103 0.732876 0.198489
0.921996 0.733913 0.19733
0.922164 0.734997 0.196902
0.922332 0.735271 0.197162
0.922423 0.735378 0.197604
0.92253 0.73547 0.197971
0.00927749 0.568597 0.160998
0.011841 0.579721 0.170428
0.0124971 0.584604 0.171313
0.0133211 0.585946 0.168399
0.0141451 0.588373 0.164599
0.0153658 0.592248 0.160937
0.0171359 0.597284 0.156283
0.01944 0.604669 0.152575
0.0225528 0.612192 0.146731
0.0288396 0.620035 0.136553
0.0323796 0.625269 0.10074
0.0394598 0.633371 0.0693065
0.0628519 0.65124 0.0445106
0.0753185 0.658015 0.0394446
0.0703593 0.64332 0.0349584
0.0917525 0.652613 0.0385748
0.175677 0.673472 0.0501259
0.284764 0.692439 0.0659953
0.446143 0.70399 0.0846418
0.576745 0.711055 0.0935988
0.657771 0.720439 0.0946975
0.721798 0.728054 0.119142
0.773251 0.736202 0.131624
0.816266 0.744167 0.150088
0.867094 0.755367 0.160494
0.900618 0.760693 0.174441
0.923171 0.765789 0.184115
0.923964 0.766491 0.189029
0.924071 0.767086 0.189288
0.924102 0.767803 0.189288
0.924224 0.768582 0.189456
0.924239 0.769162 0.189563
0.924224 0.769711 0.189395
0.0225528 0.631159 0.222034
0.0246281 0.640925 0.231037
0.0260624 0.644404 0.23267
0.0264439 0.644923 0.228321
0.026978 0.645701 0.223346
0.027924 0.648463 0.218738
0.0297246 0.652461 0.213519
0.0323033 0.658137 0.207599
0.0351873 0.665934 0.201572
0.0424811 0.673243 0.191775
0.0497139 0.680522 0.173556
0.0518807 0.684108 0.117494
0.0646525 0.694469 0.0847028
0.104295 0.71252 0.0582589
0.0989242 0.697581 0.0516823
0.105745 0.703471 0.0529488
0.164446 0.715084 0.0595254
0.248142 0.727611 0.0687877
0.375769 0.739803 0.0855879
0.536171 0.741604 0.0981155
0.631205 0.750576 0.105333
0.701045 0.75938 0.105806
0.757885 0.76582 0.129961
0.804929 0.772671 0.142901
0.842115 0.779553 0.155047
0.882078 0.789105 0.16817
0.914611 0.795697 0.178271
0.924392 0.797803 0.184176
0.924834 0.798276 0.185626
0.924788 0.799191 0.185473
0.92491 0.799878 0.185443
0.924804 0.800656 0.185016
0.924834 0.801129 0.185077
0.034699 0.683619 0.280751
0.0362402 0.690242 0.287312
0.0368505 0.692287 0.286671
0.0371099 0.692103 0.28191
0.0375372 0.692012 0.275822
0.0383612 0.692866 0.269825
0.0396429 0.696071 0.263584
0.0416876 0.700389 0.256825
0.044358 0.706035 0.248402
0.0489662 0.712123 0.23769
0.0618906 0.719921 0.224948
0.0657054 0.726955 0.195346
0.0680247 0.73225 0.13077
0.104723 0.745892 0.0856794
0.128847 0.752682 0.0704204
0.129809 0.746456 0.0659648
0.152987 0.750469 0.0677348
0.234516 0.761532 0.0751354
0.325536 0.769482 0.0855726
0.478599 0.771496 0.0984665
0.604944 0.776608 0.110857
0.67837 0.785779 0.115953
0.73904 0.793698 0.115572
0.789624 0.799084 0.140215
0.833082 0.805432 0.155428
0.865583 0.811933 0.160967
0.892058 0.816876 0.177661
0.917388 0.824491 0.181079
0.924147 0.827588 0.182116
0.923858 0.827558 0.182925
0.922652 0.827161 0.185199
0.921355 0.826505 0.187228
0.920302 0.825483 0.189425
0.0436561 0.724422 0.332433
0.0446937 0.729244 0.338384
0.0449378 0.72958 0.335698
0.0450599 0.728511 0.329198
0.0453956 0.728176 0.322683
0.046067 0.728908 0.315709
0.0471809 0.730556 0.307973
0.0485542 0.733547 0.299687
0.0508888 0.737911 0.290196
0.0534981 0.74345 0.278508
0.0628672 0.749508 0.264149
0.0778973 0.757687 0.24622
0.0757153 0.764797 0.192218
0.0826886 0.772366 0.132753
0.133639 0.779248 0.0863661
0.145113 0.77818 0.0766461
0.152605 0.779828 0.074403
0.221149 0.78793 0.0794385
0.293233 0.794842 0.0863203
0.416724 0.798642 0.0979171
0.5664 0.797925 0.110124
0.656138 0.807202 0.120836
0.717357 0.816052 0.124773
0.772595 0.824094 0.124666
0.817151 0.828626 0.148989
0.855619 0.83386 0.166262
0.883238 0.838666 0.168017
0.904936 0.842695 0.177539
0.917571 0.845472 0.188388
0.91989 0.846265 0.191165
0.920027 0.846387 0.192111
0.920439 0.846845 0.193454
0.920851 0.84712 0.194766
0.049546 0.756237 0.382376
0.050309 0.758907 0.385901
0.0505074 0.758907 0.382361
0.0504005 0.757931 0.375006
0.050721 0.75729 0.367132
0.0512245 0.757412 0.359121
0.052018 0.758251 0.350225
0.0533608 0.759884 0.340108
0.0549935 0.763226 0.328588
0.0575113 0.767987 0.316426
0.0620127 0.773465 0.301167
0.0730449 0.780118 0.28368
0.0847944 0.78558 0.254994
0.0814221 0.784695 0.176043
0.100725 0.78407 0.116808
0.129488 0.786511 0.0947738
0.146609 0.788251 0.0823987
0.200275 0.7944 0.0804303
0.272953 0.80235 0.0859998
0.369848 0.809598 0.095964
0.521523 0.81323 0.107317
0.630228 0.82359 0.120943
0.697704 0.833448 0.129686
0.750973 0.841428 0.131838
0.798688 0.84712 0.132021
