bundles/resolve-cinematic-luts/Phantom Luts/Apple Log Phantom LUTS/iPhone 15 Phantom Movie LUTs/33x/Eastman iPhone_15_33x.cube
TITLE "Generated by Resolve"
LUT_3D_SIZE 9
0.0390021 0.0390021 0.0390021
0.0390021 0.0390021 0.0390021
0.144244 0.0390021 0.0410315
0.293416 0.047715 0.0390021
0.414191 0.0613107 0.043946
0.506859 0.097673 0.0652934
0.588769 0.0988022 0.113375
0.600488 0.076936 0.189242
0.622034 0.114748 0.34139
0.0390021 0.0390021 0.0390021
0.0390021 0.0390021 0.0390021
0.0840772 0.0390021 0.0404364
0.250324 0.0496681 0.0390021
0.381262 0.0643168 0.0390021
0.455421 0.0875257 0.0391089
0.576425 0.113909 0.0887617
0.597086 0.0699779 0.15787
0.625147 0.112886 0.332494
0.0654612 0.0948653 0.0610208
0.0619974 0.0844587 0.0551003
0.118532 0.092958 0.0560159
0.276066 0.0797131 0.0508125
0.374273 0.0803082 0.0390021
0.45597 0.0925612 0.0390021
0.505394 0.103151 0.0451209
0.586267 0.0772106 0.115038
0.612421 0.114351 0.30956
0.0772259 0.220264 0.0974899
0.0745403 0.230243 0.0686198
0.0756085 0.214786 0.0667124
0.323598 0.275456 0.090074
0.535836 0.2448 0.114336
0.615274 0.232197 0.123491
0.62948 0.200397 0.110658
0.506676 0.102205 0.0441901
0.571847 0.0787518 0.159319
0.0937209 0.425269 0.177905
0.0881208 0.434913 0.157946
0.0936751 0.442283 0.0980697
0.10248 0.437873 0.0818494
0.529717 0.511833 0.133516
0.705516 0.49012 0.166155
0.776104 0.44062 0.192844
0.776501 0.39408 0.187488
0.72256 0.296056 0.155825
0.134112 0.624674 0.355581
0.129259 0.61677 0.335271
0.125063 0.614389 0.304204
0.146624 0.615274 0.15111
0.2925 0.633127 0.150088
0.681956 0.690974 0.208865
0.823178 0.683711 0.232593
0.82359 0.668299 0.228473
0.804425 0.6374 0.222644
0.206989 0.773266 0.522713
0.202045 0.76527 0.507424
0.193103 0.753262 0.47451
0.171969 0.725536 0.387381
0.194751 0.680003 0.172427
0.581216 0.800214 0.23714
0.791653 0.804868 0.264134
0.856214 0.792416 0.277607
0.846418 0.779309 0.279072
0.215717 0.798367 0.598749
0.218067 0.797971 0.596735
0.218326 0.796872 0.583398
0.213413 0.788159 0.538308
0.171557 0.722362 0.384497
0.320516 0.709377 0.236332
0.704753 0.836454 0.291554
0.87512 0.844556 0.339742
0.873213 0.84564 0.347204
0.206043 0.799939 0.639597
0.209171 0.799146 0.635904
0.210544 0.79884 0.626841
0.210544 0.799222 0.607034
0.213184 0.797818 0.569177
0.217868 0.756817 0.458808
0.475593 0.760204 0.376364
0.814145 0.862776 0.433127
0.873335 0.862364 0.452201
0.0390021 0.0390021 0.0390021
0.0390021 0.0390021 0.0390021
0.162371 0.0390021 0.0868544
0.314275 0.0390021 0.0692302
0.423789 0.0403754 0.0539101
0.512215 0.0724041 0.08365
0.569039 0.0742809 0.13283
0.594888 0.093904 0.230747
0.611002 0.120211 0.357366
0.0390021 0.0390021 0.0390021
0.0390021 0.0390021 0.0390021
0.146075 0.0390021 0.0431067
0.292088 0.0520485 0.0390021
0.409415 0.0700084 0.0453498
0.506279 0.104341 0.0702831
0.587427 0.0934157 0.115434
0.598871 0.0812695 0.201678
0.620584 0.116091 0.349966
0.0625925 0.105272 0.0830396
0.0622568 0.105577 0.0675517
0.123568 0.099321 0.0577249
0.28336 0.0746471 0.0449989
0.372534 0.0755474 0.0390021
0.480751 0.102541 0.0487221
0.563363 0.117891 0.084596
0.576715 0.0750134 0.151202
0.614115 0.116365 0.330953
0.0795453 0.221988 0.121324
0.078294 0.227161 0.0998398
0.0798047 0.236027 0.0698863
0.325231 0.276982 0.0903182
0.536217 0.24155 0.11371
0.612253 0.228962 0.122591
0.626871 0.1953 0.107332
0.538964 0.112657 0.0599374
0.578424 0.0874495 0.198825
0.0973831 0.426688 0.207813
0.0906996 0.427848 0.181949
0.0923934 0.439384 0.143877
0.096437 0.434943 0.0822156
0.52845 0.509789 0.132982
0.703792 0.486107 0.16524
0.774166 0.435737 0.192401
0.77644 0.388785 0.186191
0.716045 0.287404 0.155276
0.137652 0.629191 0.37026
0.13257 0.6206 0.351934
0.125917 0.612375 0.317845
0.131823 0.605722 0.173953
0.285954 0.628656 0.148486
0.679103 0.686931 0.207263
0.820859 0.679088 0.230076
0.821973 0.663096 0.226658
0.802472 0.629786 0.220798
0.207553 0.774227 0.528817
0.202869 0.766125 0.513283
0.194522 0.754665 0.481804
0.174166 0.728771 0.400595
0.171557 0.678782 0.196628
0.568414 0.794919 0.236118
0.78613 0.795926 0.267201
0.855207 0.784237 0.291417
0.840635 0.769894 0.295033
0.215641 0.798306 0.600183
0.21796 0.79794 0.597971
0.218082 0.79707 0.584039
0.213687 0.789563 0.540764
0.174273 0.728466 0.399451
0.298924 0.706767 0.250294
0.694453 0.836027 0.302068
0.872389 0.846098 0.34963
0.873289 0.847272 0.358633
0.206149 0.799908 0.639582
0.209339 0.7991 0.636057
0.210575 0.79884 0.626703
0.210391 0.799237 0.606897
0.213245 0.798123 0.571511
0.215763 0.759945 0.465126
0.468437 0.758404 0.375525
0.809216 0.863416 0.436606
0.873503 0.86334 0.457252
0.0390021 0.0390021 0.0550393
0.0904402 0.0390021 0.0775158
0.166094 0.0390021 0.108034
0.304128 0.0390021 0.13434
0.430274 0.0390021 0.103792
0.521645 0.0607004 0.125383
0.572122 0.0842756 0.183322
0.608164 0.108705 0.276616
0.61416 0.121996 0.378836
0.0443122 0.0414588 0.0530251
0.0390021 0.0390021 0.0727855
0.156954 0.0390021 0.105486
0.317754 0.0390021 0.0771496
0.42974 0.0462348 0.0541848
0.521798 0.0757 0.0894636
0.574807 0.0749523 0.147982
0.610544 0.0992752 0.254078
0.623545 0.118013 0.374426
0.0599222 0.110079 0.0963607
0.0571756 0.108598 0.0965591
0.118624 0.102953 0.10454
0.298558 0.0855879 0.087602
0.413046 0.0857862 0.0612802
0.529046 0.0978866 0.0927443
0.583246 0.0883192 0.118288
0.588403 0.0899519 0.215122
0.617411 0.118349 0.359823
0.0785229 0.223453 0.144839
0.0792859 0.226871 0.132982
0.0820325 0.22771 0.110201
0.330358 0.286488 0.146059
0.551644 0.253941 0.164828
0.635294 0.245289 0.174945
0.666224 0.218769 0.172519
0.584955 0.0902266 0.112673
0.596246 0.108064 0.262577
0.103563 0.43563 0.248081
0.0972457 0.432059 0.228809
0.0955673 0.429313 0.185107
0.0937362 0.423667 0.104036
0.526711 0.508583 0.160708
0.701564 0.473899 0.20032
0.784421 0.432044 0.240711
0.794186 0.38854 0.241657
0.741436 0.301885 0.229236
0.142992 0.63798 0.39353
0.139025 0.630152 0.380545
0.131991 0.619074 0.351736
0.124254 0.607965 0.262547
0.26833 0.615015 0.157809
0.67425 0.680201 0.227237
0.820096 0.658732 0.267979
0.824628 0.638941 0.272953
0.806607 0.595682 0.271809
0.208911 0.777539 0.542977
0.204654 0.770108 0.528389
0.198779 0.760113 0.502007
0.178973 0.732021 0.428321
0.155016 0.686046 0.256077
0.537316 0.782696 0.25716
0.784329 0.796094 0.29955
0.854978 0.775402 0.337469
0.855039 0.763348 0.340352
0.215122 0.798184 0.60499
0.217395 0.797864 0.60354
0.218341 0.797833 0.592187
0.215152 0.793103 0.554147
0.183062 0.742412 0.430274
0.273198 0.708522 0.287617
0.660319 0.830991 0.335744
0.867536 0.850858 0.376181
0.872084 0.851926 0.385351
0.205875 0.799878 0.642176
0.209018 0.799146 0.63827
0.210224 0.798917 0.629297
0.210758 0.798993 0.612528
0.213031 0.798657 0.578103
0.217731 0.7682 0.481621
0.452079 0.756329 0.399145
0.806058 0.86659 0.453437
0.874601 0.865843 0.473884
0.0390021 0.0390021 0.145251
0.133379 0.0390021 0.207706
0.223545 0.0390021 0.206546
0.300969 0.0390021 0.20499
0.424277 0.0393988 0.219745
0.548028 0.0912795 0.24683
0.598566 0.115679 0.290074
0.604349 0.12166 0.350591
0.617288 0.121736 0.420539
0.0403906 0.0684825 0.118883
0.0390021 0.0390021 0.171542
0.146639 0.0390021 0.232349
0.301946 0.0390021 0.207233
0.428916 0.0416876 0.207736
0.550271 0.0882887 0.222187
0.594293 0.112612 0.272236
0.606699 0.120012 0.34374
0.627985 0.118608 0.421042
0.0511482 0.121157 0.140917
0.0399786 0.10425 0.158556
0.0687877 0.097734 0.180194
0.280262 0.0680705 0.197742
0.42414 0.0541543 0.174319
0.560693 0.095201 0.234775
0.591928 0.111894 0.265492
0.604379 0.119432 0.330724
0.623163 0.121004 0.412406
0.0654917 0.2215 0.184237
0.0641947 0.221393 0.184649
0.0636606 0.220401 0.184771
0.332753 0.311192 0.307637
0.586603 0.288121 0.303731
0.70103 0.252491 0.279957
0.715557 0.215106 0.274464
0.604837 0.108385 0.276432
0.607614 0.12163 0.359655
0.103426 0.439063 0.30106
0.102007 0.439429 0.29836
0.104677 0.440497 0.288563
0.105074 0.426093 0.235615
0.537224 0.53283 0.327916
0.724544 0.480232 0.328847
0.815473 0.449378 0.345693
0.816632 0.412207 0.346303
0.776745 0.306294 0.328084
0.147143 0.648127 0.440284
0.145724 0.64329 0.433112
0.143847 0.63856 0.416739
0.132067 0.613855 0.349279
0.240513 0.614984 0.285023
0.669734 0.688045 0.332158
0.816129 0.624704 0.356176
0.83032 0.604959 0.359319
0.824475 0.573999 0.360388
0.208057 0.778241 0.568444
0.204913 0.773068 0.555154
0.202686 0.768032 0.539528
0.193347 0.750088 0.492287
0.175525 0.717235 0.39707
0.443549 0.732036 0.307225
0.773388 0.795972 0.376242
0.872404 0.759716 0.407996
0.862165 0.737163 0.408057
0.213779 0.798077 0.616556
0.216159 0.797436 0.614206
0.216693 0.797925 0.605081
0.217609 0.797269 0.583658
0.203708 0.771542 0.497597
0.290013 0.728908 0.391608
0.578958 0.801907 0.381933
0.846922 0.861708 0.443778
0.868116 0.86038 0.444251
0.205432 0.799435 0.651499
0.208286 0.799023 0.647181
0.209583 0.798978 0.638346
0.211032 0.798703 0.624765
0.212451 0.798917 0.593423
0.217746 0.782544 0.51313
0.447562 0.764797 0.451987
0.788861 0.873884 0.513588
0.877638 0.874525 0.522667
0.0390021 0.0431983 0.263661
0.0506447 0.0446937 0.302068
0.174533 0.0390021 0.334676
0.335866 0.0390021 0.319692
0.424338 0.0482032 0.312795
0.54548 0.0937057 0.361456
0.613581 0.124529 0.41146
0.604929 0.120531 0.434226
0.591897 0.117296 0.455817
0.0390021 0.065919 0.224369
0.0390021 0.0431067 0.254261
0.0435187 0.0442359 0.290715
0.315099 0.0390021 0.329473
0.428092 0.0497139 0.31751
0.553826 0.0975357 0.364981
0.611154 0.125017 0.408865
0.603571 0.120851 0.43444
0.596063 0.116335 0.458045
0.0390021 0.108064 0.237217
0.0390021 0.0895247 0.249714
0.0390021 0.0784466 0.252079
0.245731 0.0512398 0.319127
0.396872 0.042237 0.291066
0.556451 0.0993515 0.37026
0.609659 0.124681 0.415656
0.60235 0.121752 0.433249
0.594064 0.116625 0.456458
0.0475624 0.229725 0.254429
0.0457923 0.22121 0.258839
0.041474 0.213336 0.267826
0.219928 0.288151 0.384833
0.544793 0.256703 0.455924
0.717281 0.263874 0.45687
0.737408 0.239521 0.458976
0.611597 0.127779 0.409842
0.596628 0.11751 0.441764
0.0879835 0.44683 0.373861
0.0870222 0.444053 0.372778
0.0879377 0.442802 0.37113
0.0846113 0.41236 0.344717
0.541482 0.552636 0.536171
0.750072 0.502861 0.501945
0.840299 0.466011 0.482963
0.83093 0.427863 0.489967
0.800519 0.327184 0.500053
0.142733 0.648478 0.491264
0.141405 0.643656 0.486152
0.140169 0.639246 0.47686
0.13901 0.632029 0.454459
0.304158 0.65684 0.477028
0.693767 0.708385 0.529595
0.831296 0.642359 0.505348
0.8542 0.635523 0.511971
0.855909 0.602777 0.514717
0.20235 0.773236 0.597177
0.199145 0.768017 0.586435
0.197589 0.763851 0.577081
0.195544 0.757046 0.55581
0.181094 0.724788 0.486488
0.442176 0.737102 0.467811
0.785397 0.806104 0.519478
0.873121 0.749691 0.520974
0.860655 0.732738 0.523995
0.213031 0.797848 0.642878
0.214145 0.797604 0.636606
0.214191 0.797787 0.626154
0.215351 0.797696 0.612512
0.218128 0.795819 0.575555
0.334066 0.770428 0.508431
0.55404 0.794553 0.485039
0.85008 0.878706 0.546105
0.873549 0.874556 0.557992
0.208804 0.796414 0.67686
0.208347 0.797559 0.666804
0.207904 0.79855 0.656046
0.210651 0.798383 0.647593
0.214054 0.797833 0.626673
0.219257 0.793713 0.569238
0.505791 0.799985 0.569787
0.789822 0.887922 0.612299
0.883162 0.894652 0.624323
0.0390021 0.0499886 0.32697
0.0390021 0.0522774 0.34696
0.0688334 0.0486305 0.389929
0.291142 0.0450294 0.427741
0.456123 0.0712291 0.417411
0.550607 0.102296 0.432044
0.595438 0.120897 0.469154
0.599481 0.12639 0.487068
0.605875 0.132692 0.511772
0.0390021 0.0773022 0.315068
0.0390021 0.0620584 0.324712
0.0390021 0.0515908 0.320806
0.170031 0.0390021 0.389853
0.417777 0.0572366 0.391699
0.557 0.105715 0.439475
0.596399 0.122011 0.472862
0.601282 0.126085 0.488533
0.607141 0.133288 0.515023
0.0390021 0.124117 0.332815
0.0390021 0.110979 0.341863
0.0390021 0.0969253 0.332784
0.133196 0.0840925 0.401007
0.421668 0.0789807 0.411002
0.521279 0.0913863 0.408423
0.596475 0.122667 0.474662
0.600931 0.12723 0.491142
0.608362 0.133547 0.517082
0.0390021 0.263416 0.36875
0.0390021 0.250965 0.372076
0.0390021 0.239246 0.378134
0.116274 0.256367 0.421439
0.521996 0.266773 0.570108
0.659388 0.245624 0.548028
0.754086 0.254505 0.586099
0.631067 0.152972 0.498497
0.60296 0.1299 0.501488
0.0807507 0.480308 0.463996
0.0795453 0.476112 0.463478
0.0783703 0.471885 0.464561
0.0714275 0.42887 0.432212
0.458808 0.53109 0.621332
0.741833 0.49041 0.661006
0.8654 0.465202 0.640635
0.860319 0.430152 0.649134
0.812589 0.331212 0.631968
0.139315 0.651316 0.560891
0.136339 0.645945 0.552117
0.134386 0.641062 0.547677
0.131212 0.633356 0.539925
0.303822 0.649851 0.578012
0.698604 0.724163 0.699794
0.851011 0.674083 0.665003
0.874693 0.652522 0.66215
0.87335 0.607095 0.66479
0.196078 0.769345 0.638453
0.19321 0.764263 0.629816
0.191073 0.759121 0.621653
0.188037 0.751308 0.604929
0.173571 0.716945 0.557626
0.540841 0.78967 0.663874
0.806226 0.82887 0.692805
0.888579 0.784787 0.674479
0.884077 0.773159 0.67718
0.209735 0.796536 0.67393
0.210895 0.796918 0.667643
0.211261 0.797513 0.659434
0.21265 0.797848 0.647257
0.215381 0.797604 0.623285
0.345785 0.811673 0.612772
0.627237 0.845853 0.665019
0.87393 0.902251 0.694484
0.904082 0.890517 0.698558
0.208301 0.796216 0.692775
0.208453 0.796002 0.688487
0.208545 0.796048 0.683192
0.209445 0.796323 0.676402
0.212009 0.797375 0.659266
0.216266 0.793408 0.615106
0.571054 0.84831 0.690883
0.786358 0.897963 0.720653
0.902235 0.922652 0.735622
0.0390021 0.0686809 0.362676
0.0390021 0.0636606 0.36495
0.0390021 0.0593881 0.364752
0.117189 0.0561379 0.427497
0.382757 0.0649424 0.459632
0.527993 0.101106 0.467491
0.608026 0.134478 0.520378
0.613764 0.14023 0.54696
0.61561 0.142199 0.558328
0.0390021 0.134203 0.39086
0.0390021 0.124331 0.393011
0.0390021 0.110292 0.383383
0.0840009 0.1037 0.432609
0.404929 0.115831 0.509529
0.55935 0.135332 0.503105
0.605478 0.132494 0.501198
0.615015 0.140734 0.550591
0.615732 0.142168 0.55845
0.0390021 0.194324 0.413306
0.0390021 0.184054 0.415641
0.0390021 0.167468 0.407675
0.0980697 0.178195 0.462974
0.446723 0.191318 0.583017
0.631479 0.209491 0.579583
0.689616 0.20621 0.577905
0.610651 0.135485 0.518242
0.616495 0.141878 0.558877
0.0390021 0.3299 0.471885
0.0390021 0.318273 0.472007
0.0390021 0.313893 0.473487
0.0943923 0.310079 0.489296
0.402945 0.312932 0.64744
0.697566 0.320104 0.662882
0.787594 0.314183 0.66099
0.765545 0.273899 0.642054
0.616129 0.141497 0.528023
0.0882429 0.520714 0.547738
0.0862135 0.514748 0.547875
0.0834363 0.507729 0.549676
0.0738842 0.469642 0.521202
0.377951 0.524453 0.649989
0.735073 0.521859 0.763668
0.838376 0.465217 0.725948
0.857816 0.43154 0.722789
0.824826 0.367575 0.693599
0.14403 0.666819 0.610376
0.141802 0.660243 0.607385
0.138598 0.654276 0.602747
0.134051 0.64332 0.600641
0.28397 0.640681 0.630365
0.648875 0.711467 0.769146
0.850614 0.672236 0.786755
0.907469 0.634485 0.775418
0.901656 0.58233 0.764355
0.193103 0.767697 0.670176
0.190112 0.761379 0.664729
0.186389 0.755734 0.656992
0.182498 0.747662 0.649302
0.16759 0.709453 0.611337
0.560098 0.791211 0.740658
0.81207 0.839429 0.811948
0.908614 0.809049 0.789776
0.905303 0.787076 0.786099
0.208057 0.796399 0.696178
0.208316 0.796201 0.692409
0.207965 0.796231 0.688014
0.208377 0.796155 0.681453
0.210681 0.796857 0.668727
0.367849 0.806043 0.672358
0.696773 0.886275 0.791165
0.891752 0.918807 0.808957
0.922377 0.904097 0.813123
0.21146 0.803754 0.717052
0.210269 0.800641 0.709422
0.208927 0.797818 0.702113
0.207965 0.796445 0.695674
0.208545 0.795911 0.68687
0.229496 0.791089 0.649165
0.602411 0.87837 0.772061
0.817441 0.92282 0.819196
0.915465 0.945098 0.827848
0.0390021 0.213855 0.45301
0.0390021 0.218784 0.457633
0.0390021 0.20705 0.448783
0.100389 0.242329 0.519203
0.340658 0.2477 0.637507
0.65481 0.289021 0.701747
0.769802 0.301183 0.696406
0.773404 0.28072 0.686183
0.656657 0.177752 0.593576
0.0390021 0.283894 0.487221
0.0390021 0.28426 0.489158
0.0390021 0.266026 0.475898
0.105333 0.298009 0.540902
0.3337 0.292714 0.655406
0.674174 0.326299 0.732631
0.790158 0.330526 0.717632
0.799496 0.310613 0.708034
0.711208 0.224521 0.640131
0.0410315 0.34403 0.522133
0.0410468 0.344137 0.523705
0.0390021 0.323552 0.506798
0.119814 0.355779 0.569833
0.341497 0.346075 0.681254
0.699947 0.375219 0.769268
0.809445 0.368597 0.739025
0.821439 0.349599 0.731563
0.775769 0.283238 0.693156
0.0673381 0.447303 0.573938
0.0662699 0.442481 0.573404
0.064332 0.435386 0.569085
0.116747 0.434409 0.59089
0.340887 0.442039 0.692607
0.704158 0.453864 0.812863
0.828199 0.429755 0.768109
0.843427 0.405554 0.755062
0.826719 0.358068 0.737926
0.10959 0.578149 0.617395
0.107713 0.571679 0.61706
0.106081 0.567178 0.618067
0.0958877 0.537316 0.593835
0.336538 0.566552 0.686397
0.611521 0.551141 0.811109
0.848524 0.547936 0.81561
0.874632 0.507118 0.790127
0.862867 0.461799 0.778027
0.154864 0.690181 0.656306
0.151812 0.68336 0.652781
0.148882 0.676875 0.649958
0.139605 0.655528 0.63566
0.287495 0.657191 0.678203
0.596124 0.699702 0.795727
0.844297 0.703365 0.868864
0.905089 0.649943 0.831586
0.897368 0.613504 0.821118
0.195926 0.774136 0.69366
0.192279 0.767254 0.690776
0.18883 0.760266 0.687099
0.183642 0.751171 0.682414
0.183703 0.719249 0.657526
0.555016 0.775235 0.785107
0.780026 0.833371 0.866499
0.919493 0.799283 0.872358
0.919676 0.776898 0.86656
0.211383 0.803861 0.717281
0.211475 0.803815 0.717479
0.211444 0.8038 0.717083
0.210285 0.802747 0.712886
0.203128 0.785916 0.688624
0.385397 0.799619 0.72192
0.720882 0.890532 0.85034
0.900862 0.926177 0.897978
0.929885 0.915557 0.892836
0.211475 0.803815 0.717479
0.211475 0.803815 0.717479
0.211475 0.803815 0.717479
0.211307 0.803906 0.717113
0.211337 0.803479 0.715984
0.251545 0.7935 0.692683
0.631251 0.879576 0.820188
0.85481 0.943847 0.900206
0.926589 0.956497 0.904479
0.0698558 0.456687 0.587823
0.064271 0.435447 0.575753
0.0703441 0.449912 0.582925
0.156008 0.476524 0.632517
0.328099 0.49543 0.699367
0.575906 0.4925 0.80763
0.83267 0.521187 0.827298
0.874891 0.499886 0.797894
0.868391 0.477836 0.789883
0.0821241 0.498726 0.603296
0.0751812 0.477363 0.59176
0.0785077 0.485267 0.594263
0.169085 0.505821 0.639902
0.344579 0.524834 0.70489
0.584756 0.516838 0.81268
0.840909 0.542229 0.833661
0.879118 0.51722 0.804089
0.872633 0.493111 0.795682
0.093431 0.531945 0.61178
0.0881819 0.517052 0.60383
0.0913405 0.522362 0.604639
0.193042 0.540627 0.65069
0.372122 0.560983 0.714977
0.600351 0.550942 0.819532
0.85034 0.570428 0.841276
0.884901 0.542596 0.812909
0.878614 0.515846 0.803647
0.111955 0.583169 0.625834
0.105699 0.566232 0.616724
0.106294 0.568017 0.616037
0.199008 0.582498 0.656016
0.385138 0.601938 0.719875
0.595056 0.597498 0.819776
0.853208 0.613031 0.85655
0.892439 0.578912 0.824704
0.887358 0.55024 0.815961
0.139528 0.654948 0.644526
0.133715 0.641032 0.638956
0.128405 0.627283 0.630854
0.172168 0.63505 0.650568
0.388357 0.651499 0.725948
0.600168 0.673045 0.81738
0.847318 0.682628 0.882429
0.902937 0.642634 0.844358
0.898741 0.614404 0.835874
0.170352 0.723995 0.673518
0.167681 0.7187 0.671412
0.161639 0.705242 0.664576
0.15198 0.68394 0.649241
0.351446 0.701823 0.718441
0.609293 0.743465 0.814557
0.786816 0.758068 0.889815
0.916884 0.730449 0.871763
0.913222 0.706447 0.864118
0.204211 0.790372 0.706477
0.199649 0.781613 0.699489
0.195987 0.77348 0.694652
0.180117 0.743297 0.674784
0.269154 0.745037 0.698268
0.575494 0.79173 0.807721
0.773877 0.848219 0.880217
0.918944 0.837278 0.902434
0.924819 0.818082 0.89575
0.211414 0.803845 0.717342
0.211475 0.803815 0.717479
0.211475 0.803815 0.717479
0.21117 0.803967 0.716823
0.199329 0.779553 0.68719
0.440055 0.814679 0.756924
0.731319 0.893797 0.872007
0.899535 0.931731 0.922835
0.93193 0.92314 0.924056
0.211475 0.803815 0.717479
0.211475 0.803815 0.717479
0.211475 0.803815 0.717479
0.211292 0.803906 0.717098
0.211444 0.803738 0.717281
0.317128 0.798444 0.717037
0.658381 0.887022 0.845548
0.869062 0.948226 0.919966
0.930861 0.958877 0.930129
