bundles/resolve-cinematic-luts/Phantom Luts/Apple Log Phantom LUTS/iPhone 15 Phantom Movie LUTs/33x/Eastman iPhone_15_33x.cube
TITLE "Generated by Resolve"
LUT_3D_SIZE 33
0.0390021 0.0390021 0.0390021
0.0390021 0.0390021 0.0390021
0.0390021 0.0390021 0.0390021
0.0390021 0.0390021 0.0390021
0.0390021 0.0390021 0.0390021
0.0402991 0.0390021 0.0390021
0.0686503 0.0390021 0.0390021
0.10573 0.0390021 0.0400092
0.144244 0.0390021 0.0410315
0.184955 0.0408942 0.0397345
0.222477 0.043534 0.0390021
0.258793 0.0454871 0.0390021
0.293416 0.047715 0.0390021
0.326299 0.0495155 0.0390021
0.355795 0.0518807 0.0390021
0.385153 0.0543374 0.039704
0.414191 0.0613107 0.043946
0.436164 0.0708476 0.0469062
0.453986 0.0818647 0.0501869
0.479988 0.0905776 0.056672
0.506859 0.097673 0.0652934
0.533959 0.103914 0.0763409
0.561563 0.108003 0.0897993
0.582895 0.107225 0.103151
0.588769 0.0988022 0.113375
0.587839 0.0830549 0.117113
0.581765 0.0690623 0.12546
0.590234 0.0716411 0.155825
0.600488 0.076936 0.189242
0.610147 0.0868849 0.225925
0.622934 0.101244 0.267018
0.626642 0.108919 0.30721
0.622034 0.114748 0.34139
0.0390021 0.0390021 0.0390021
0.0390021 0.0390021 0.0390021
0.0390021 0.0390021 0.0390021
0.0390021 0.0390021 0.0390021
0.0390021 0.0390021 0.0390021
0.0390021 0.0390021 0.0390021
0.0544747 0.0390021 0.0390021
0.0903639 0.0390021 0.0390021
0.129458 0.0390021 0.0404517
0.171679 0.0396735 0.0392462
0.214694 0.043595 0.0390021
0.25362 0.0458686 0.0390021
0.287709 0.0486915 0.0390021
0.321309 0.05066 0.0390021
0.350896 0.0527504 0.0390021
0.375311 0.0554971 0.0390021
0.398138 0.0586099 0.0390021
0.417304 0.0633249 0.0390021
0.436606 0.0735332 0.0415961
0.466743 0.0873274 0.0480507
0.497459 0.0988479 0.0578775
0.525826 0.10634 0.0689708
0.554314 0.112764 0.0817273
0.575814 0.113069 0.0943465
0.583627 0.106355 0.104585
0.590326 0.0950637 0.115434
0.585 0.0717784 0.115572
0.58822 0.0694591 0.14168
0.597864 0.0738842 0.176577
0.607385 0.0835584 0.214878
0.61973 0.0980545 0.257389
0.6262 0.107973 0.300526
0.621698 0.114382 0.336751
0.0390021 0.0390021 0.0390021
0.0390021 0.0390021 0.0390021
0.0390021 0.0390021 0.0390021
0.0390021 0.0390021 0.0390021
0.0390021 0.0390021 0.0390021
0.0390021 0.0390021 0.0390021
0.0458991 0.0390021 0.0390021
0.0737011 0.0390021 0.0390021
0.110002 0.0390021 0.0402838
0.147417 0.0390021 0.0409247
0.19205 0.0435492 0.0390021
0.238636 0.0454871 0.0390021
0.279469 0.0484627 0.0390021
0.315801 0.0515145 0.0390021
0.348165 0.0531777 0.0390021
0.375204 0.0555734 0.0390021
0.397848 0.0589609 0.0390021
0.413901 0.0630045 0.0390021
0.429145 0.0708171 0.0390021
0.453696 0.0793011 0.0414282
0.484459 0.0931411 0.0485084
0.517052 0.105379 0.061387
0.547967 0.114778 0.0759747
0.5682 0.116426 0.0873732
0.577798 0.111269 0.0975814
0.589029 0.101793 0.110628
0.589395 0.0815747 0.115999
0.587976 0.0680705 0.131762
0.597116 0.0719768 0.168063
0.605722 0.0810254 0.207507
0.617411 0.0953689 0.251225
0.626093 0.107546 0.296056
0.621546 0.114199 0.334173
0.0390021 0.0390021 0.0390021
0.0390021 0.0390021 0.0390021
0.0390021 0.0390021 0.0390021
0.0390021 0.0390021 0.0390021
0.0390021 0.0390021 0.0390021
0.0390021 0.0390021 0.0390021
0.0410315 0.0390021 0.0390021
0.061738 0.0390021 0.0390021
0.094728 0.0390021 0.0407568
0.126848 0.0390021 0.0424811
0.169009 0.0436561 0.0415351
0.218723 0.0464027 0.0390021
0.265583 0.0480659 0.0390021
0.307729 0.0515755 0.0390021
0.343145 0.0538949 0.0390021
0.373083 0.0563058 0.0390021
0.397787 0.059144 0.0390021
0.414176 0.0633097 0.0390021
0.426734 0.0706188 0.0390021
0.445502 0.0767681 0.0390021
0.471305 0.0850996 0.0424964
0.503594 0.099733 0.0506142
0.537087 0.112016 0.0657816
0.560784 0.117586 0.0814069
0.571817 0.114778 0.0924697
0.58265 0.106508 0.105226
0.593057 0.0906996 0.118425
0.588098 0.0673991 0.124361
0.596735 0.0712291 0.162402
0.604532 0.0798657 0.202884
0.616281 0.0942397 0.247593
0.625772 0.107118 0.293721
0.621378 0.114153 0.332921
0.0390021 0.0390021 0.0390021
0.0390021 0.0390021 0.0390021
0.0390021 0.0390021 0.0390021
0.0390021 0.0390021 0.0390021
0.0390021 0.0390021 0.0390021
0.0390021 0.0390021 0.0390021
0.0390021 0.0390021 0.0390021
0.0539559 0.0390021 0.0390021
0.0840772 0.0390021 0.0404364
0.114473 0.0390021 0.0432898
0.152758 0.0436713 0.0433051
0.200336 0.0481727 0.0390631
0.250324 0.0496681 0.0390021
0.298207 0.0514992 0.0390021
0.337942 0.0542 0.0390021
0.355978 0.0613107 0.0390021
0.381262 0.0643168 0.0390021
0.400793 0.0678569 0.0390021
0.415946 0.0746014 0.0390021
0.435035 0.0804913 0.0390021
0.455421 0.0875257 0.0391089
0.486076 0.096376 0.0450752
0.525322 0.108782 0.0571603
0.558526 0.115572 0.0756237
0.576425 0.113909 0.0887617
0.587961 0.106615 0.101656
0.595758 0.0926986 0.115389
0.591714 0.0685283 0.122179
0.597086 0.0699779 0.15787
0.604929 0.0792248 0.199741
0.616693 0.0932326 0.245441
0.626581 0.106172 0.292332
0.625147 0.112886 0.332494
0.039292 0.0390021 0.0390021
0.0390021 0.0390021 0.0390021
0.0390021 0.0390021 0.0390021
0.0390021 0.0390021 0.0390021
0.0390021 0.0390021 0.0390021
0.0390021 0.0390021 0.0390021
0.0408942 0.0390021 0.0390021
0.0540322 0.0390021 0.0390021
0.0811933 0.0390021 0.0408026
0.110765 0.0395972 0.0438392
0.14612 0.0450752 0.0446784
0.189761 0.0493019 0.0413825
0.237156 0.0514229 0.0390021
0.286366 0.0535286 0.0390021
0.328954 0.0553292 0.0390021
0.357733 0.0601816 0.0390021
0.380392 0.0650339 0.0390021
0.400259 0.0688792 0.0390021
0.416434 0.0753948 0.0390021
0.436118 0.0817121 0.0390021
0.455817 0.0894026 0.0390021
0.478889 0.0961013 0.0420691
0.513222 0.106081 0.050248
0.548409 0.11516 0.0695048
0.570306 0.115679 0.0845197
0.583902 0.109499 0.0973831
0.593408 0.0975052 0.112779
0.585595 0.070222 0.115572
0.592416 0.0701762 0.151568
0.602808 0.0781567 0.194873
0.614374 0.0922408 0.241093
0.625864 0.106355 0.289525
0.624414 0.113024 0.331365
0.0463722 0.0390021 0.0390021
0.0451362 0.0390021 0.0390021
0.0425269 0.0390021 0.0390021
0.0399329 0.0390021 0.0390021
0.0397192 0.0390021 0.0390021
0.0439765 0.0390021 0.0390021
0.0539406 0.0390021 0.0390021
0.0716716 0.0439612 0.0433814
0.0952316 0.0490883 0.0471809
0.121935 0.0513619 0.049546
0.155016 0.0520027 0.0483711
0.196185 0.0534371 0.0435492
0.238071 0.0551614 0.0390021
0.277775 0.0560769 0.0390021
0.319188 0.0577096 0.0390021
0.353292 0.0604105 0.0390021
0.380011 0.065156 0.0390021
0.40058 0.0695201 0.0390021
0.416419 0.0764782 0.0390021
0.437079 0.0830701 0.0390021
0.457023 0.0906233 0.0390478
0.476326 0.0983444 0.0410925
0.500481 0.103853 0.0450141
0.527428 0.109361 0.0559701
0.557641 0.115541 0.0756237
0.577798 0.113054 0.0915694
0.590158 0.102861 0.107332
0.589303 0.0808881 0.116869
0.584085 0.0708324 0.142107
0.596094 0.0772869 0.185901
0.610834 0.0902724 0.234211
0.624277 0.105715 0.283619
0.622858 0.113298 0.327611
0.060029 0.0695659 0.0514992
0.0587625 0.0717174 0.0512703
0.0576333 0.0670939 0.05037
0.0540932 0.058381 0.0472114
0.0541085 0.0542 0.0456092
0.0590524 0.0570993 0.0466316
0.0703746 0.0613565 0.0483406
0.0886091 0.0674907 0.050782
0.112551 0.071397 0.0534829
0.138582 0.0707408 0.0556191
0.172122 0.066804 0.0543679
0.212894 0.063447 0.0481575
0.254643 0.0626688 0.0412909
0.289586 0.0627146 0.0390021
0.319631 0.0634928 0.0390021
0.341833 0.0666056 0.0390021
0.370413 0.0663005 0.0390021
0.397314 0.0695048 0.0390021
0.416495 0.0770428 0.0390021
0.436744 0.0841535 0.0390021
0.45745 0.0914626 0.0390021
0.477791 0.0997787 0.0413672
0.49424 0.105898 0.0432746
0.506844 0.105409 0.0464942
0.535546 0.111589 0.060502
0.566857 0.116472 0.0826886
0.583581 0.109194 0.0982681
0.592905 0.0927291 0.115557
0.581415 0.0700847 0.127794
0.587198 0.0767834 0.173571
0.602182 0.0886854 0.223011
0.619852 0.103334 0.274586
0.620752 0.113283 0.32137
0.0654612 0.0948653 0.0610208
0.0641031 0.0984207 0.0578927
0.0632181 0.0964828 0.0569467
0.0621347 0.0902724 0.0563668
0.0619974 0.0844587 0.0551003
0.0660258 0.0852064 0.0549935
0.0770275 0.0874495 0.0558633
0.0981918 0.0900893 0.0549783
0.118532 0.092958 0.0560159
0.151949 0.0942855 0.0591592
0.192554 0.0867628 0.060914
0.235569 0.0820478 0.0570535
0.276066 0.0797131 0.0508125
0.313573 0.0783551 0.0444038
0.343618 0.0787976 0.0412299
0.360052 0.0807813 0.0391699
0.374273 0.0803082 0.0390021
0.388922 0.0764782 0.0390021
0.405768 0.0769665 0.0390021
0.432273 0.0835126 0.0390021
0.45597 0.0925612 0.0390021
0.477531 0.100969 0.0413367
0.492454 0.106371 0.043061
0.495888 0.105348 0.0433509
0.505394 0.103151 0.0451209
0.540291 0.110674 0.0615396
0.571069 0.115526 0.0853895
0.588067 0.104738 0.104921
0.586267 0.0772106 0.115038
0.583078 0.0735332 0.153368
0.586114 0.0860761 0.20441
0.606531 0.103639 0.259251
0.612421 0.114351 0.30956
0.0675669 0.119432 0.0709392
0.0652934 0.122866 0.0624247
0.0650797 0.123217 0.0605783
0.0648356 0.119936 0.0606851
0.0638132 0.11252 0.0595254
0.0648051 0.108858 0.0586404
0.0714122 0.111116 0.0581521
0.0974594 0.115557 0.0610666
0.124117 0.118517 0.0599527
0.153887 0.12166 0.0619821
0.207843 0.119326 0.0659648
0.259297 0.108415 0.0673533
0.302892 0.106172 0.0640116
0.343313 0.105074 0.0601053
0.377249 0.104677 0.0554513
0.401038 0.106065 0.0519112
0.418082 0.107179 0.0487984
0.426642 0.1066 0.0458228
0.428336 0.104234 0.0432898
0.434028 0.0941176 0.0405127
0.447425 0.0888991 0.0390021
0.473564 0.0973068 0.04065
0.494667 0.105501 0.0432593
0.498161 0.104662 0.0437018
0.501915 0.103548 0.043946
0.507958 0.101808 0.0446937
0.535775 0.107149 0.0569314
0.570382 0.115434 0.0863508
0.589349 0.101915 0.11014
0.580316 0.072282 0.124605
0.581903 0.0792706 0.177646
0.594034 0.0963302 0.234897
0.604776 0.113985 0.292058
0.0684367 0.14725 0.0783246
0.0671244 0.150439 0.0685588
0.0669566 0.153292 0.06215
0.0668345 0.152224 0.0618601
0.0669261 0.148409 0.0618296
0.0669261 0.141543 0.0610513
0.0674144 0.137453 0.0597696
0.0737163 0.140688 0.0593576
0.11133 0.151507 0.0661021
0.152743 0.158694 0.0677348
0.198779 0.160754 0.0684977
0.271366 0.159106 0.073167
0.327825 0.146212 0.0782177
0.3729 0.14374 0.0777752
0.412695 0.143297 0.0771038
0.441459 0.144686 0.0761273
0.464164 0.142321 0.0728466
0.479133 0.142519 0.0707866
0.484306 0.143572 0.0679026
0.489143 0.1402 0.0630198
0.489738 0.133547 0.0567788
0.484428 0.120577 0.0486915
0.487785 0.109285 0.0438849
0.495735 0.105516 0.0431525
0.500145 0.103807 0.0437781
0.506035 0.102342 0.0442359
0.509606 0.101427 0.0446174
0.527611 0.10663 0.0516976
0.568353 0.116304 0.085008
0.58761 0.0991073 0.110903
0.576028 0.0725719 0.13695
0.5841 0.0856947 0.199649
0.59736 0.108431 0.263493
0.0706798 0.180499 0.0859083
0.0676585 0.183658 0.0770275
0.0684825 0.187076 0.0678111
0.0687724 0.188235 0.0629282
0.0688487 0.187015 0.0628824
0.0694896 0.186648 0.0629892
0.0695811 0.179873 0.062211
0.0692454 0.172381 0.0607156
0.075349 0.178073 0.0626078
0.125429 0.19675 0.0735943
0.191821 0.211124 0.0792096
0.257771 0.213519 0.0786297
0.339071 0.217609 0.0846723
0.399466 0.201755 0.0915236
0.442878 0.194263 0.0962539
0.47567 0.19321 0.0968185
0.505394 0.19237 0.0982071
0.526909 0.190387 0.0990921
0.538201 0.188006 0.0996872
0.551446 0.185473 0.0987869
0.561959 0.182177 0.0950637
0.565087 0.177249 0.090074
0.561273 0.168185 0.0814221
0.548684 0.153414 0.0672923
0.52578 0.128084 0.0526741
0.510948 0.10811 0.0450599
0.507469 0.101747 0.0442664
0.508751 0.101534 0.0444495
0.51664 0.103471 0.0473182
0.558465 0.11519 0.0766766
0.581704 0.0962387 0.108904
0.575647 0.0753643 0.150378
0.584283 0.0941176 0.221485
0.0772259 0.220264 0.0974899
0.073518 0.223972 0.0900282
0.0732433 0.227604 0.0817121
0.0736858 0.229236 0.072694
0.0745403 0.230243 0.0686198
0.0758831 0.232364 0.0692149
0.0769207 0.233677 0.0694438
0.0766308 0.225956 0.0684825
0.0756085 0.214786 0.0667124
0.0807355 0.223651 0.0687114
0.150103 0.252354 0.0856641
0.246708 0.274311 0.0927901
0.323598 0.275456 0.090074
0.407126 0.281514 0.0946975
0.466835 0.263523 0.100969
0.502251 0.251408 0.109941
0.535836 0.2448 0.114336
0.562905 0.241215 0.116701
0.580667 0.240696 0.11873
0.599557 0.237858 0.121752
0.615274 0.232197 0.123491
0.626535 0.225544 0.123842
0.636408 0.221942 0.123705
0.639139 0.215167 0.120165
0.62948 0.200397 0.110658
0.606668 0.178607 0.0935836
0.566491 0.151003 0.0714885
0.524025 0.117952 0.049134
0.506676 0.102205 0.0441901
0.509697 0.102251 0.0450752
0.541253 0.113741 0.0641489
0.578988 0.0983597 0.10753
0.571847 0.0787518 0.159319
0.0868849 0.267353 0.113191
0.0823682 0.271382 0.106828
0.0822156 0.275654 0.100633
0.0822461 0.279118 0.09308
0.0820325 0.280385 0.0831769
0.0832074 0.282567 0.0766003
0.0852369 0.288777 0.0773632
0.0867781 0.289387 0.0771954
0.0863355 0.279988 0.0759136
0.0848554 0.268147 0.0746319
0.0935225 0.279545 0.0770275
0.181521 0.31577 0.0962387
0.304555 0.34023 0.0999924
0.386847 0.338643 0.0986343
0.46508 0.344686 0.102007
0.52224 0.332448 0.107134
0.558755 0.313787 0.117479
0.589563 0.298924 0.128298
0.611643 0.293675 0.131579
0.634607 0.288518 0.134707
0.656107 0.285832 0.13817
0.673976 0.282887 0.14136
0.687999 0.277943 0.144732
0.69604 0.269566 0.147158
0.694102 0.259525 0.144335
0.691356 0.243702 0.139055
0.677699 0.225315 0.129946
0.648051 0.203586 0.115816
0.595987 0.170474 0.0865034
0.528328 0.124544 0.0524147
0.501396 0.103456 0.0438697
0.525689 0.113466 0.0552377
0.569192 0.107973 0.102693
0.0934615 0.318761 0.130251
0.0885023 0.322362 0.124407
0.0884413 0.32639 0.119524
0.0877699 0.330419 0.114244
0.0873579 0.334112 0.108736
0.0877699 0.33521 0.0967269
0.0890974 0.337758 0.0843977
0.0913405 0.345205 0.0802472
0.0933394 0.347829 0.0801556
0.0926833 0.333867 0.0795148
0.0923171 0.327596 0.0795605
0.114061 0.341985 0.0828412
0.219883 0.379751 0.101198
0.362127 0.404944 0.102632
0.443503 0.399939 0.104997
0.509621 0.40737 0.110414
0.569604 0.399588 0.115145
0.605356 0.379583 0.126513
0.628626 0.362295 0.136187
0.654887 0.348653 0.147341
0.679286 0.341024 0.152667
0.700526 0.334417 0.156207
0.718532 0.330266 0.160052
0.733242 0.327184 0.164584
0.737423 0.321355 0.165194
0.734249 0.311406 0.161837
0.736507 0.295186 0.157382
0.727504 0.274342 0.151232
0.705455 0.252369 0.142245
0.673289 0.224231 0.128893
0.603708 0.179812 0.0943008
0.513603 0.11928 0.0474708
0.502144 0.107774 0.0460059
0.0949874 0.371115 0.149722
0.0905623 0.374746 0.14522
0.0899519 0.378775 0.14023
0.0891432 0.3823 0.135393
0.0889448 0.38555 0.131365
0.0893568 0.389548 0.126177
0.0899977 0.391745 0.115328
0.0921798 0.391852 0.0896773
0.0953689 0.401923 0.0813001
0.0957198 0.404242 0.0809186
0.0946822 0.385489 0.0807202
0.0947127 0.384375 0.0810101
0.140047 0.404974 0.0844282
0.280812 0.446738 0.104707
0.414557 0.464927 0.104021
0.487541 0.457954 0.116533
0.551507 0.462699 0.125246
0.608103 0.457908 0.131518
0.642435 0.445762 0.141176
0.667247 0.426993 0.15053
0.691905 0.411429 0.157961
0.714717 0.398032 0.167773
0.735576 0.387549 0.176211
0.753628 0.381033 0.180346
0.763104 0.375555 0.183062
0.759793 0.36733 0.180972
0.757214 0.356909 0.178058
0.761242 0.342718 0.173541
0.760021 0.326055 0.167849
0.747082 0.30544 0.160647
0.721721 0.276783 0.151629
0.681239 0.238315 0.135256
0.597238 0.186419 0.095964
0.0937209 0.425269 0.177905
0.0897231 0.42739 0.172793
0.0890974 0.429572 0.167147
0.0885939 0.432441 0.162539
0.0881208 0.434913 0.157946
0.0879072 0.438132 0.152728
0.0885786 0.442191 0.145205
0.0903639 0.444724 0.132204
0.0936751 0.442283 0.0980697
0.0978561 0.452369 0.084184
0.0984512 0.454246 0.0833753
0.0964218 0.434211 0.0818647
0.10248 0.437873 0.0818494
0.176989 0.462379 0.0874342
0.350622 0.509529 0.114046
0.456367 0.520729 0.116655
0.529717 0.511833 0.133516
0.592081 0.51371 0.14374
0.643336 0.511757 0.151476
0.680476 0.504295 0.157244
0.705516 0.49012 0.166155
0.726085 0.475685 0.172992
0.74696 0.462562 0.178851
0.765179 0.449027 0.186725
0.776104 0.44062 0.192844
0.774258 0.433097 0.193118
0.773144 0.423178 0.193942
0.771664 0.41091 0.191959
0.776501 0.39408 0.187488
0.778851 0.375006 0.183078
0.768475 0.353918 0.177005
0.753918 0.3299 0.168704
0.72256 0.296056 0.155825
0.0944839 0.478202 0.21593
0.0916152 0.477897 0.211139
0.0910353 0.478447 0.205158
0.0910811 0.479805 0.200168
0.0911727 0.48127 0.195758
0.091249 0.483772 0.190494
0.0918746 0.486534 0.183322
0.0939651 0.489555 0.171206
0.0964523 0.491646 0.153948
0.100526 0.489632 0.114488
0.108278 0.500404 0.0963607
0.108186 0.498512 0.0955978
0.103563 0.480934 0.0904555
0.1337 0.491356 0.0908217
0.235203 0.517281 0.101961
0.402594 0.564858 0.1308
0.498726 0.572457 0.132082
0.572274 0.562387 0.151888
0.628275 0.562264 0.163012
0.678645 0.561517 0.170489
0.717342 0.557076 0.174731
0.74258 0.550439 0.18146
0.762005 0.537789 0.189105
0.778561 0.52546 0.195392
0.787259 0.518135 0.198032
0.786862 0.511528 0.197421
0.785534 0.503548 0.196414
0.7832 0.491981 0.194568
0.780911 0.477241 0.193408
0.783139 0.45803 0.192386
0.785595 0.433829 0.19173
0.781872 0.406485 0.190707
0.766278 0.38117 0.184176
0.104738 0.528374 0.260853
0.102312 0.527047 0.256962
0.101518 0.526421 0.251087
0.101091 0.526696 0.246311
0.100832 0.527459 0.242298
0.100496 0.528084 0.236744
0.10045 0.5299 0.22974
0.100618 0.532357 0.219867
0.102541 0.533989 0.203647
0.105364 0.535348 0.178119
0.11133 0.532647 0.129
0.123873 0.543038 0.111711
0.119371 0.530556 0.106493
0.121355 0.525002 0.103853
0.176043 0.541482 0.106538
0.298192 0.572427 0.125216
0.453346 0.616434 0.150607
0.541222 0.619516 0.15111
0.610498 0.609659 0.171267
0.663691 0.60763 0.181994
0.708797 0.607217 0.190204
0.748394 0.604898 0.193698
0.774166 0.601205 0.197818
0.793667 0.594781 0.204135
0.803159 0.587503 0.209308
0.802472 0.583947 0.209888
0.80087 0.577173 0.20911
0.798856 0.568673 0.207568
0.795895 0.557702 0.205447
0.792157 0.544289 0.203601
0.788464 0.527276 0.20032
0.79173 0.50251 0.195529
0.78294 0.474586 0.19266
0.11783 0.577371 0.306676
0.115526 0.575174 0.302739
0.114977 0.574136 0.297795
0.114214 0.573053 0.292775
0.113497 0.572534 0.288319
0.112795 0.572351 0.283101
0.112123 0.572473 0.276295
0.111879 0.574182 0.268589
0.111727 0.57557 0.25716
0.113039 0.576593 0.237949
0.116091 0.574334 0.195239
0.124041 0.573938 0.142397
0.141619 0.583673 0.127016
0.135454 0.5664 0.119661
0.152209 0.570397 0.11928
0.224094 0.58732 0.127916
0.366094 0.627405 0.152209
0.509255 0.662715 0.169894
0.582925 0.662562 0.171359
0.648783 0.652934 0.190356
0.696025 0.649271 0.201068
0.736324 0.649668 0.209522
0.774273 0.648035 0.212589
0.802701 0.645716 0.215671
0.816419 0.642634 0.21854
0.815793 0.639719 0.219425
0.81442 0.636347 0.218677
0.812894 0.631266 0.21738
0.811627 0.624537 0.216434
0.807828 0.615488 0.215335
0.8009 0.604318 0.214923
0.798993 0.588052 0.211627
0.796109 0.566873 0.207385
0.134112 0.624674 0.355581
0.132631 0.621988 0.350164
0.131502 0.62002 0.345037
0.13051 0.618433 0.340368
0.129259 0.61677 0.335271
0.128084 0.615076 0.329091
0.127001 0.614267 0.322362
0.125978 0.614038 0.314458
0.125063 0.614389 0.304204
0.124178 0.614694 0.290654
0.126986 0.615763 0.268101
0.128008 0.609003 0.201175
0.146624 0.615274 0.15111
0.160082 0.620951 0.14287
0.153933 0.603769 0.135927
0.19675 0.613809 0.141329
0.2925 0.633127 0.150088
0.442222 0.681712 0.178531
0.563104 0.703624 0.189029
0.622309 0.700114 0.191592
0.681956 0.690974 0.208865
0.725872 0.686748 0.219089
0.761746 0.688151 0.226993
0.795727 0.687007 0.231418
0.823178 0.683711 0.232593
0.827146 0.680232 0.232456
0.826078 0.676524 0.231174
0.825208 0.673396 0.229862
0.82359 0.668299 0.228473
0.820645 0.662974 0.22707
0.81445 0.657252 0.22681
0.810513 0.648157 0.224384
0.804425 0.6374 0.222644
0.152529 0.668345 0.404456
0.150912 0.665492 0.398367
0.149752 0.6636 0.39144
0.148577 0.661357 0.386648
0.147417 0.659098 0.381476
0.146227 0.657496 0.376303
0.14435 0.655344 0.36878
0.142214 0.652796 0.359213
0.140429 0.651469 0.348699
0.13872 0.650172 0.335424
0.13814 0.650034 0.318929
0.140261 0.649531 0.288563
0.142458 0.642084 0.204211
0.174945 0.654093 0.161517
0.170962 0.639353 0.15256
0.181216 0.639872 0.156161
0.250034 0.651057 0.159518
0.367315 0.680583 0.175189
0.51043 0.725826 0.201709
0.605356 0.737728 0.205509
0.65745 0.733318 0.210986
0.712154 0.725124 0.226688
0.752987 0.721187 0.23711
0.781445 0.720302 0.244343
0.81442 0.720989 0.249592
0.831968 0.718547 0.249332
0.832441 0.714778 0.247807
0.832197 0.711131 0.245945
0.83151 0.706737 0.244175
0.82945 0.701991 0.242542
0.824765 0.697063 0.242237
0.821866 0.689967 0.239597
0.816236 0.682414 0.237934
0.171893 0.707927 0.446967
0.170474 0.705394 0.444251
0.168673 0.702892 0.437522
0.166979 0.700832 0.430411
0.166064 0.69897 0.425574
0.164462 0.696376 0.420203
0.162524 0.693538 0.412757
0.160632 0.690852 0.40441
0.157366 0.687205 0.392477
0.154833 0.684306 0.378592
0.151919 0.681636 0.362158
0.152087 0.680659 0.340841
0.149935 0.677607 0.298314
0.169818 0.67454 0.195682
0.189059 0.67805 0.173526
0.184665 0.666896 0.171481
0.230869 0.673381 0.173175
0.315206 0.687587 0.176486
0.448402 0.729992 0.203342
0.571221 0.762798 0.221607
0.643107 0.768109 0.222095
0.689906 0.762707 0.228962
0.739666 0.755734 0.243946
0.777249 0.75169 0.253788
0.804425 0.75024 0.259663
0.830854 0.750515 0.264332
0.833768 0.746441 0.265141
0.832959 0.742809 0.263386
0.833707 0.739849 0.260639
0.833814 0.737102 0.259083
0.829694 0.734218 0.259632
0.826062 0.729091 0.258503
0.82356 0.721996 0.255818
0.190036 0.742977 0.4869
0.188556 0.74049 0.482719
0.187793 0.738659 0.479606
0.186374 0.73637 0.474327
0.184588 0.734035 0.467094
0.182666 0.731411 0.460456
0.180941 0.728756 0.454322
0.178561 0.725948 0.44651
0.17583 0.721782 0.435843
0.172076 0.716838 0.420584
0.16788 0.712154 0.403464
0.163989 0.708385 0.383169
0.165652 0.706661 0.356771
0.154604 0.689265 0.281117
0.181155 0.678492 0.184955
0.190448 0.679179 0.178866
0.206928 0.683162 0.180926
0.277729 0.69395 0.181216
0.381979 0.721386 0.196277
0.516197 0.771221 0.227451
0.62153 0.793332 0.238819
0.675731 0.794888 0.2383
0.71812 0.789654 0.24506
0.763745 0.783185 0.258793
0.799435 0.778561 0.269764
0.824598 0.776638 0.273198
0.840452 0.774853 0.277012
0.841749 0.771893 0.276524
0.840177 0.768811 0.275395
0.838483 0.765347 0.274693
0.83238 0.762463 0.275898
0.827832 0.758175 0.275837
0.825589 0.75288 0.27396
0.206989 0.773266 0.522713
0.204929 0.770825 0.518029
0.204028 0.768917 0.514824
0.203357 0.767208 0.511452
0.202045 0.76527 0.507424
0.200076 0.763195 0.500679
0.197971 0.759945 0.492363
0.195972 0.756924 0.484657
0.193103 0.753262 0.47451
0.18909 0.748074 0.459236
0.183795 0.741482 0.437797
0.178897 0.735286 0.41529
0.171969 0.725536 0.387381
0.1664 0.709361 0.344854
0.15584 0.682185 0.234897
0.173358 0.678187 0.190356
0.194751 0.680003 0.172427
0.251637 0.6907 0.173068
0.334661 0.709224 0.180636
0.461646 0.755734 0.210986
0.581216 0.800214 0.23714
0.66659 0.817945 0.245274
0.709789 0.817746 0.245197
0.750057 0.811658 0.25127
0.791653 0.804868 0.264134
0.825116 0.800229 0.276997
0.849424 0.797177 0.278187
0.856214 0.794598 0.278737
0.856214 0.792416 0.277607
0.855253 0.789425 0.276921
0.851209 0.786694 0.279179
0.848035 0.783658 0.280034
0.846418 0.779309 0.279072
0.21445 0.790249 0.544686
0.213809 0.788968 0.54107
0.213779 0.787991 0.540169
0.213779 0.78674 0.540261
0.212955 0.785367 0.537591
0.212177 0.783825 0.532921
0.210864 0.781674 0.526741
0.209003 0.779202 0.518898
0.206226 0.775692 0.508721
0.203067 0.770901 0.495308
0.198169 0.764935 0.476951
0.190967 0.755169 0.452308
0.181888 0.741436 0.423804
0.172107 0.726101 0.389563
0.161563 0.704234 0.33109
0.155383 0.680781 0.232609
0.166979 0.677897 0.199893
0.21355 0.686442 0.182254
0.293873 0.699001 0.178836
0.402869 0.732433 0.198627
0.519127 0.778866 0.227054
0.619928 0.811048 0.243519
0.685206 0.824903 0.2486
0.727581 0.828138 0.253147
0.769146 0.827207 0.261997
0.808759 0.82269 0.279149
0.840208 0.818173 0.291783
0.859251 0.815503 0.293355
0.859922 0.813123 0.292683
0.859373 0.810773 0.292638
0.856031 0.808896 0.294652
0.853559 0.806287 0.295232
0.852857 0.80267 0.294514
0.216327 0.795285 0.565942
0.216205 0.794781 0.563363
0.216541 0.794278 0.562875
0.217273 0.793713 0.563714
0.217227 0.793042 0.560998
0.216892 0.792218 0.557382
0.21648 0.791043 0.553124
0.21561 0.789242 0.547311
0.213748 0.786648 0.538949
