bundles/resolve-cinematic-luts/Phantom Luts/Apple Log Phantom LUTS/iPhone 15 Phantom Movie LUTs/33x/Eterna_Legacy iPhone_15_33x.cube
TITLE "Generated by Resolve"
LUT_3D_SIZE 33
0.0316777 0.0505837 0.0445869
0.0315709 0.0506447 0.0447852
0.0311131 0.0508431 0.0454871
0.0305638 0.0511025 0.0463264
0.0303349 0.0512245 0.0466011
0.0327306 0.0514076 0.0462348
0.0528725 0.053666 0.0455787
0.0858015 0.0580606 0.0514229
0.111986 0.0630808 0.0603037
0.13994 0.0684367 0.0698711
0.171786 0.0750286 0.0822919
0.208667 0.0821088 0.0951247
0.238224 0.0779431 0.0826276
0.278294 0.0843824 0.0920424
0.323049 0.0906386 0.10338
0.369894 0.0969863 0.114748
0.415167 0.102617 0.12488
0.46424 0.10779 0.137667
0.521324 0.112322 0.153124
0.575799 0.117189 0.167865
0.627115 0.122698 0.18323
0.667964 0.1299 0.205798
0.67631 0.132021 0.215808
0.686885 0.135149 0.228489
0.684627 0.127901 0.235782
0.684504 0.126436 0.247318
0.688045 0.12958 0.263676
0.697032 0.133288 0.284932
0.710185 0.139406 0.31339
0.722789 0.144549 0.35108
0.725292 0.140917 0.39472
0.723171 0.136675 0.433234
0.72398 0.132616 0.472679
0.0337224 0.0496376 0.0413977
0.0320134 0.0504311 0.0440833
0.0310216 0.0508888 0.0456245
0.030396 0.051194 0.04654
0.0301976 0.0513008 0.0467842
0.0332799 0.0515908 0.0464027
0.0519417 0.0535897 0.0452583
0.0793622 0.0557107 0.0446326
0.107286 0.0588693 0.0467384
0.135348 0.0614328 0.0500496
0.165682 0.0632944 0.0536812
0.199512 0.0663615 0.0587625
0.235569 0.0695964 0.0646067
0.274601 0.0741131 0.0715801
0.315953 0.0799878 0.0817884
0.362692 0.0878614 0.0971695
0.40972 0.0951095 0.111513
0.46006 0.101686 0.126696
0.518624 0.1075 0.143832
0.57435 0.113664 0.160204
0.626581 0.120821 0.177035
0.653834 0.126055 0.190341
0.664546 0.128786 0.201923
0.676295 0.131945 0.215793
0.688487 0.13579 0.231281
0.683772 0.127169 0.240101
0.686458 0.128252 0.257206
0.694331 0.132265 0.279438
0.708217 0.138323 0.310079
0.722393 0.144183 0.351583
0.72517 0.140597 0.397681
0.722942 0.136355 0.436561
0.722911 0.132128 0.477974
0.0337835 0.0496071 0.0412909
0.0320287 0.0504158 0.0440223
0.0310369 0.0508888 0.0456092
0.0303502 0.0512245 0.0465858
0.0300755 0.0513619 0.0469368
0.0312047 0.0514382 0.0467689
0.042771 0.0525978 0.0459144
0.0677195 0.0547036 0.0445563
0.100084 0.0582895 0.0462043
0.130922 0.0611276 0.0491493
0.164065 0.0627451 0.0521859
0.200107 0.0650187 0.0559854
0.236988 0.0672618 0.0594339
0.275792 0.0692607 0.0629129
0.316396 0.0715343 0.0678569
0.355871 0.074876 0.0747845
0.399176 0.0800793 0.0874647
0.448936 0.0874189 0.105531
0.508339 0.0939345 0.125704
0.565393 0.102525 0.145434
0.619348 0.113451 0.166369
0.647044 0.12372 0.183368
0.658274 0.127092 0.19501
0.671458 0.130694 0.209873
0.685634 0.135012 0.226963
0.684215 0.12752 0.237568
0.686732 0.127749 0.255695
0.694209 0.132174 0.278981
0.709285 0.138903 0.311864
0.723049 0.144198 0.355474
0.725216 0.140139 0.40296
0.722606 0.13579 0.442832
0.721569 0.131426 0.484932
0.0337835 0.0496071 0.0412909
0.0320439 0.0504158 0.0440223
0.0310521 0.0508736 0.0455634
0.0302892 0.0512398 0.0466621
0.0300145 0.0513771 0.0470283
0.0301366 0.0513771 0.0469673
0.0363165 0.0521401 0.0467079
0.0571756 0.0543984 0.0455177
0.0886854 0.0583352 0.0463111
0.11696 0.061326 0.0480201
0.150347 0.0626993 0.0509651
0.190631 0.0645609 0.0540475
0.233829 0.0668803 0.0584573
0.276692 0.0693523 0.0628824
0.319493 0.0713664 0.068513
0.362264 0.0732738 0.0743877
0.401007 0.0747539 0.079942
0.445533 0.077821 0.0912032
0.503258 0.0844129 0.112535
0.560555 0.093904 0.13492
0.612436 0.104936 0.156344
0.639521 0.118654 0.176135
0.655131 0.125841 0.190799
0.668605 0.129549 0.205921
0.683635 0.134005 0.223911
0.68983 0.130526 0.239307
0.689616 0.126833 0.256275
0.696025 0.131975 0.280949
0.710658 0.139666 0.314763
0.723568 0.143786 0.361089
0.724788 0.139406 0.408804
0.722377 0.135363 0.448203
0.719753 0.130266 0.490623
0.0337835 0.0496071 0.0412909
0.0320439 0.0504005 0.0440223
0.0310826 0.0508583 0.0455329
0.0302892 0.0512398 0.0466621
0.0299992 0.0513771 0.0470436
0.0299992 0.0513924 0.0470436
0.0331579 0.0518654 0.0469825
0.0481422 0.0545357 0.0466163
0.0759594 0.0590066 0.046952
0.104616 0.0625315 0.0485542
0.136416 0.0646677 0.0511025
0.176913 0.065507 0.0535744
0.224201 0.0667277 0.0570077
0.273426 0.0691844 0.0618906
0.321248 0.0713359 0.0687114
0.37673 0.0705119 0.0771191
0.420905 0.0712596 0.0833448
0.465797 0.0715953 0.0907301
0.514366 0.0739147 0.102998
0.566873 0.0825513 0.125292
0.616449 0.0948043 0.149111
0.636866 0.112688 0.170291
0.650645 0.124865 0.186679
0.661631 0.12961 0.201205
0.67715 0.134356 0.220005
0.68336 0.129946 0.235904
0.689113 0.127092 0.256336
0.700618 0.131334 0.284352
0.71223 0.14023 0.318425
0.724025 0.143297 0.366995
0.724422 0.138766 0.414267
0.721767 0.13489 0.454231
0.717845 0.130282 0.491615
0.0357214 0.0486458 0.0382696
0.0345769 0.0492256 0.0400397
0.0336309 0.0496834 0.0415351
0.0325628 0.0501717 0.0431983
0.0321202 0.0503853 0.0439155
0.0320439 0.0504005 0.0440223
0.0331884 0.05066 0.0440528
0.0437476 0.0538796 0.0448615
0.0670787 0.0598611 0.0462196
0.0946517 0.0636912 0.0478828
0.12546 0.0669871 0.0510719
0.164904 0.0675822 0.0537118
0.213291 0.067689 0.0562448
0.267323 0.0696269 0.0614176
0.323308 0.070985 0.0688945
0.374945 0.0713054 0.0764172
0.423362 0.0714427 0.0837568
0.471778 0.0710002 0.0913558
0.521798 0.0701915 0.099794
0.569528 0.0763714 0.116472
0.610651 0.0881514 0.140826
0.629633 0.106416 0.163073
0.648524 0.123445 0.184039
0.66067 0.128664 0.199344
0.677226 0.133639 0.21886
0.686885 0.130999 0.237079
0.692622 0.126345 0.258778
0.706493 0.130404 0.289342
0.719738 0.139742 0.325872
0.724804 0.142733 0.373205
0.724086 0.138125 0.419776
0.721279 0.134585 0.459464
0.717479 0.129992 0.492638
0.0359808 0.0493782 0.0386053
0.0346075 0.0492256 0.0400092
0.0336614 0.0496529 0.041474
0.0326238 0.0501411 0.043122
0.0321813 0.0503548 0.0438087
0.032105 0.0503853 0.0439155
0.0323491 0.0505074 0.0439918
0.0391394 0.0533913 0.0449683
0.0600595 0.0609903 0.0471809
0.0881514 0.0654917 0.0485389
0.119524 0.0693675 0.0517128
0.157794 0.0699626 0.0541848
0.205554 0.0695506 0.0565652
0.261295 0.0704662 0.0610056
0.319234 0.070573 0.0673381
0.37995 0.0712749 0.0773327
0.428565 0.0712596 0.0846571
0.477989 0.0707561 0.0923018
0.530159 0.0695506 0.0995651
0.577676 0.0737316 0.111864
0.611093 0.0819104 0.134676
0.628519 0.100511 0.157809
0.648341 0.121248 0.181567
0.659953 0.127825 0.197543
0.677043 0.133196 0.218021
0.687892 0.131258 0.237491
0.693492 0.126253 0.259388
0.708492 0.130388 0.291493
0.725048 0.139193 0.332113
0.732082 0.14049 0.383749
0.725216 0.137194 0.425772
0.720729 0.134264 0.463828
0.717449 0.130266 0.491661
0.0400854 0.0619974 0.0469673
0.0373999 0.0611429 0.0452888
0.0362402 0.0609293 0.0460975
0.0348821 0.0576028 0.0462654
0.0334173 0.0539101 0.0453193
0.0326696 0.0514687 0.0444038
0.0336461 0.052491 0.0449683
0.0428016 0.0585641 0.0479286
0.0616007 0.0669566 0.0511635
0.0903639 0.0727855 0.0525826
0.121492 0.0753643 0.0543526
0.157595 0.0749065 0.0560311
0.202396 0.0735943 0.0575875
0.255741 0.0721141 0.0610513
0.317861 0.0707713 0.0672465
0.379065 0.0705577 0.0757153
0.433478 0.0713664 0.0855879
0.484581 0.0702983 0.0932021
0.537087 0.0694438 0.10071
0.584588 0.0737774 0.108766
0.608316 0.0771191 0.125032
0.627054 0.0919661 0.150134
0.647349 0.114092 0.175891
0.659571 0.126177 0.194308
0.674495 0.131991 0.214725
0.687633 0.131914 0.23563
0.692988 0.126024 0.257725
0.70837 0.130144 0.290471
0.725597 0.139086 0.332082
0.734813 0.13962 0.387198
0.732311 0.134951 0.434546
0.725307 0.132509 0.470985
0.720134 0.130465 0.490715
0.0449378 0.0865187 0.0636301
0.0426184 0.0887312 0.0583352
0.0407263 0.0927291 0.0567788
0.0392615 0.0920272 0.057435
0.0382086 0.0843061 0.0555123
0.0395209 0.0752728 0.0526741
0.0432136 0.0711986 0.0514382
0.0521248 0.0750134 0.0533303
0.0719615 0.0826276 0.0578164
0.0988785 0.0909895 0.0627604
0.130953 0.0940719 0.0642405
0.168658 0.090486 0.0639506
0.209125 0.0865492 0.0629892
0.252964 0.0827497 0.0640421
0.302663 0.0767376 0.0672313
0.369711 0.0711833 0.0737926
0.433265 0.0703441 0.0832685
0.488106 0.0701915 0.0937362
0.541497 0.0698405 0.101427
0.587533 0.074052 0.109056
0.601846 0.0761578 0.112749
0.613535 0.0805982 0.133104
0.637705 0.102602 0.162997
0.659342 0.122621 0.188754
0.673075 0.129412 0.208804
0.69218 0.135805 0.2336
0.692241 0.125551 0.252613
0.706493 0.128939 0.285328
0.723995 0.137713 0.32723
0.734905 0.139895 0.382727
0.739132 0.133364 0.438376
0.736095 0.129503 0.481621
0.733227 0.127504 0.500648
0.0426184 0.117769 0.0881056
0.0417182 0.120165 0.0778058
0.0399329 0.124681 0.0708629
0.0391089 0.128222 0.0686809
0.0398871 0.124498 0.0669413
0.0423743 0.114641 0.063859
0.0498665 0.106371 0.0615396
0.0601053 0.106844 0.0606088
0.0804608 0.10956 0.0620432
0.108034 0.114199 0.0674907
0.142687 0.122347 0.0757916
0.18201 0.120089 0.0766308
0.227359 0.109194 0.0758373
0.269505 0.101656 0.0743114
0.313649 0.0958114 0.0753033
0.358267 0.085481 0.0762951
0.403738 0.0749828 0.0786755
0.468482 0.0712139 0.088716
0.533059 0.0713817 0.0991379
0.581582 0.076173 0.108659
0.592966 0.0779583 0.111131
0.592935 0.0780804 0.11162
0.606485 0.0840772 0.134997
0.63856 0.111315 0.169833
0.662684 0.125673 0.195636
0.684092 0.132219 0.221714
0.691096 0.124575 0.242863
0.705837 0.12607 0.276493
0.723339 0.133928 0.318532
0.738018 0.139757 0.374212
0.739742 0.134234 0.430655
0.73846 0.129686 0.47602
0.739391 0.127031 0.498589
0.0411688 0.147768 0.108904
0.0386664 0.152193 0.0949264
0.037995 0.156222 0.0860914
0.0391852 0.160891 0.0770886
0.0415808 0.1626 0.0740063
0.0432288 0.15964 0.0733806
0.0428626 0.149157 0.0712749
0.0528725 0.143496 0.0706951
0.0722057 0.145068 0.0694285
0.108965 0.14815 0.0710307
0.148165 0.1514 0.0773327
0.195819 0.158251 0.0875105
0.246616 0.151553 0.0904097
0.299367 0.140475 0.0924392
0.347768 0.129732 0.0943008
0.391165 0.118425 0.0936904
0.430091 0.105226 0.0933089
0.465522 0.0911879 0.093492
0.504387 0.0759899 0.0942855
0.564431 0.0742046 0.103807
0.592065 0.0778363 0.110307
0.592828 0.0779889 0.111116
0.591455 0.078294 0.110948
0.60032 0.0840772 0.129503
0.637537 0.113054 0.171069
0.666636 0.127413 0.201068
0.691737 0.133562 0.23212
0.698085 0.124407 0.259281
0.717174 0.129625 0.30071
0.738628 0.140291 0.35494
0.745403 0.134569 0.420996
0.74464 0.128679 0.471214
0.745174 0.126925 0.492119
0.0415198 0.182071 0.124971
0.0403296 0.188251 0.110445
0.0401923 0.19295 0.0998398
0.0414435 0.19762 0.0903182
0.0454719 0.20145 0.080705
0.05037 0.20238 0.0760815
0.0524147 0.201068 0.0757916
0.0518044 0.194842 0.0756695
0.0517739 0.1841 0.0745708
0.0742809 0.185901 0.0724804
0.133089 0.192676 0.0755169
0.19295 0.195926 0.0823529
0.261921 0.202533 0.0961013
0.325399 0.194553 0.105516
0.387045 0.185931 0.1131
0.44564 0.172427 0.119402
0.491981 0.160174 0.119799
0.527916 0.145861 0.119127
0.557885 0.12668 0.117327
0.577111 0.102129 0.112703
0.591058 0.0821241 0.108888
0.594675 0.078294 0.109758
0.592111 0.0780804 0.110506
0.588861 0.0788891 0.110628
0.586755 0.080705 0.116136
0.628 0.108705 0.163958
0.668894 0.12813 0.203983
0.694682 0.13164 0.238911
0.705379 0.125734 0.274952
0.728389 0.134829 0.32668
0.745052 0.136858 0.39588
0.746929 0.130053 0.454841
0.750042 0.126818 0.480354
0.0473182 0.223636 0.139788
0.0442206 0.231556 0.125261
0.0442206 0.237751 0.114229
0.0448615 0.243412 0.104814
0.0468452 0.248798 0.0950942
0.0511177 0.252506 0.0851759
0.0565652 0.253727 0.0767529
0.0597543 0.2533 0.0757458
0.0603799 0.250355 0.0756695
0.0586862 0.232807 0.0750591
0.067277 0.234073 0.066392
0.153002 0.247547 0.071931
0.246326 0.250233 0.0793774
0.336934 0.257435 0.0959335
0.412833 0.24918 0.114458
0.484855 0.23769 0.128893
0.548272 0.224872 0.138628
0.599466 0.20853 0.145327
0.643168 0.197208 0.146197
0.669871 0.180423 0.144747
0.679347 0.158145 0.142367
0.662501 0.129549 0.134798
0.626368 0.0987411 0.120195
0.598321 0.078996 0.109743
0.58854 0.0789654 0.110201
0.583215 0.0804608 0.111131
0.610742 0.0972457 0.148501
0.668086 0.127962 0.202991
0.690822 0.125032 0.241535
0.714031 0.127672 0.291081
0.741054 0.138903 0.354452
0.748486 0.133196 0.427497
0.751675 0.128573 0.460502
0.052781 0.273671 0.151949
0.0495613 0.283665 0.138262
0.0487984 0.290806 0.128023
0.049073 0.297795 0.119921
0.0497139 0.304356 0.111467
0.051667 0.310323 0.10309
0.0538643 0.315679 0.0938125
0.0555428 0.317342 0.0773327
0.0567788 0.317998 0.0671702
0.0585336 0.316167 0.0674449
0.0604257 0.295293 0.0677501
0.0662547 0.293446 0.0679637
0.175647 0.312078 0.0660105
0.304631 0.313726 0.0675364
0.412802 0.323598 0.0847028
0.503029 0.314794 0.114748
0.582727 0.300374 0.136706
0.647654 0.286168 0.153063
0.700343 0.272419 0.164523
0.740749 0.254734 0.172656
0.76379 0.239719 0.176898
0.764141 0.224018 0.174426
0.739849 0.200412 0.163668
0.705486 0.168765 0.150713
0.650782 0.120821 0.130724
0.598657 0.0812848 0.110033
0.583291 0.0800793 0.109819
0.590951 0.0836652 0.127657
0.663661 0.126253 0.198978
0.696147 0.126131 0.249134
0.722667 0.129442 0.307057
0.745541 0.137179 0.381888
0.751858 0.132723 0.427375
0.052491 0.335653 0.167132
0.0476844 0.348669 0.153735
0.0461433 0.357595 0.144594
0.0456397 0.366522 0.138155
0.0454108 0.375036 0.132326
0.0465248 0.383352 0.126009
0.0483711 0.390372 0.119112
0.0499123 0.396567 0.110735
0.0508736 0.399863 0.0872969
0.051667 0.401617 0.062501
0.0512703 0.403555 0.0620584
0.0532998 0.375341 0.0644236
0.0590982 0.372976 0.06421
0.203555 0.39234 0.056199
0.366629 0.388128 0.0549477
0.483497 0.396933 0.0754101
0.582574 0.391073 0.112108
0.661265 0.374624 0.142596
0.725139 0.35552 0.167132
0.774914 0.341207 0.183581
0.810758 0.327886 0.197787
0.828717 0.30985 0.208408
0.820188 0.288869 0.204898
0.804974 0.267613 0.195697
0.780133 0.239094 0.182269
0.740795 0.201373 0.164004
0.670649 0.140185 0.138766
0.592859 0.0851148 0.111376
0.581872 0.0809186 0.111467
0.657816 0.122499 0.192416
0.700236 0.124514 0.254154
0.730419 0.131472 0.321553
0.749279 0.137301 0.372885
0.0453651 0.414572 0.188693
0.0394141 0.431846 0.178485
0.0373083 0.444068 0.171206
0.0365301 0.454673 0.165927
0.0361181 0.464439 0.161257
0.0370642 0.473899 0.15729
0.0392309 0.481147 0.153414
0.0413672 0.487892 0.148745
0.0423896 0.494316 0.1411
0.043534 0.500237 0.112688
0.0462654 0.501274 0.0661784
0.0466163 0.506233 0.0572213
0.0456397 0.469398 0.0575875
0.0618143 0.471122 0.05626
0.248295 0.483055 0.0466163
0.427161 0.470619 0.0496986
0.548379 0.472404 0.0813153
0.64799 0.470832 0.117906
0.721477 0.458061 0.154971
0.784512 0.438987 0.182177
0.831983 0.41854 0.205768
0.863798 0.403616 0.223407
0.866316 0.389776 0.225834
0.858839 0.370336 0.222477
0.848447 0.344945 0.217548
0.8327 0.310719 0.210956
0.806699 0.269871 0.196857
0.757473 0.21796 0.171344
0.650523 0.126848 0.132219
0.583688 0.0800793 0.110048
0.656687 0.122728 0.187488
0.702373 0.122133 0.255329
0.727077 0.126238 0.303334
0.0385595 0.50927 0.224826
0.0339971 0.525551 0.218601
0.0332036 0.537484 0.214679
0.0337377 0.548028 0.211978
0.0345006 0.557488 0.209384
0.0356603 0.566232 0.207568
0.0388495 0.5729 0.204959
0.0432441 0.578393 0.20206
0.046067 0.583871 0.197131
0.0484169 0.590661 0.188434
0.0514229 0.594141 0.156039
0.0576638 0.592691 0.0962081
0.0626078 0.596231 0.0717937
0.0513619 0.56257 0.0623178
0.111009 0.568978 0.0572519
0.313268 0.571801 0.0505379
0.492027 0.550195 0.0576486
0.609216 0.546044 0.0967117
0.706752 0.546883 0.130327
0.777203 0.536812 0.168887
0.835279 0.52311 0.197162
0.878737 0.505104 0.223972
0.896117 0.486839 0.237201
0.89189 0.468437 0.23624
0.886488 0.446174 0.234806
0.87808 0.419974 0.231296
0.866194 0.389563 0.225727
0.848936 0.34583 0.217517
0.814023 0.282139 0.20087
0.734783 0.19762 0.164034
0.613321 0.0979477 0.118837
0.633402 0.102998 0.165057
0.689235 0.122835 0.22417
0.0467079 0.601495 0.279026
0.0436255 0.616495 0.27631
0.0452125 0.626596 0.274586
0.0475624 0.634577 0.272999
0.0497749 0.642313 0.271946
0.051667 0.649378 0.270985
0.0539406 0.655451 0.269581
0.0576638 0.659693 0.267399
0.062974 0.663417 0.263676
0.0680858 0.66865 0.258045
0.0729076 0.674434 0.246876
0.0789807 0.67602 0.208881
0.0932479 0.671244 0.139849
0.108614 0.672145 0.108583
0.0870375 0.644724 0.0928206
0.181811 0.657816 0.0758831
0.388983 0.652415 0.0648356
0.558083 0.624323 0.0749065
0.668467 0.614893 0.117922
0.761654 0.616968 0.153017
0.826551 0.612284 0.186511
0.87657 0.600504 0.218708
0.907256 0.588174 0.237446
0.906279 0.572519 0.237079
0.90518 0.553979 0.236835
0.903136 0.531121 0.237644
0.898955 0.502449 0.237583
0.8907 0.464408 0.235538
0.87657 0.417411 0.230182
0.852445 0.353338 0.219104
0.803464 0.269093 0.193256
0.674617 0.141375 0.140749
0.622019 0.0997635 0.122789
0.0696117 0.684733 0.343679
0.0682231 0.696696 0.343008
0.0712291 0.704189 0.342794
0.0750591 0.710765 0.342885
0.0778973 0.716381 0.342565
0.0808423 0.721614 0.34255
0.083238 0.725795 0.341253
0.0861219 0.729091 0.339315
0.090486 0.73196 0.335851
0.0968948 0.73492 0.330755
0.103517 0.738567 0.322271
0.110796 0.744549 0.3084
0.120317 0.745861 0.260685
0.136568 0.742123 0.181537
0.162737 0.742718 0.143664
0.147021 0.722713 0.128557
0.262623 0.735927 0.108156
0.469047 0.722896 0.0934005
0.622019 0.692622 0.105577
0.72253 0.679973 0.146548
0.808423 0.680919 0.183749
0.867506 0.679957 0.212314
0.908476 0.671672 0.239246
0.910582 0.660533 0.241749
0.910079 0.646616 0.24094
0.909514 0.630198 0.239872
0.908614 0.610269 0.238422
0.906889 0.582467 0.237049
0.904982 0.544671 0.237797
0.89688 0.493477 0.236942
0.880888 0.42771 0.232334
0.851011 0.349752 0.218677
0.821927 0.291051 0.205203
0.0968338 0.758297 0.417365
0.101564 0.764981 0.417151
0.108309 0.769528 0.417182
0.112917 0.773922 0.417197
0.115862 0.778042 0.417044
0.118135 0.782132 0.416617
0.119738 0.784543 0.414847
0.121447 0.786908 0.413001
0.123583 0.789364 0.409506
0.127672 0.791272 0.403876
0.133242 0.792554 0.394598
0.139803 0.796597 0.38172
0.153201 0.806134 0.36321
0.157595 0.807996 0.304845
0.187503 0.809537 0.208103
0.192538 0.792416 0.165545
0.213321 0.794934 0.159869
0.34696 0.804211 0.144381
0.5467 0.782406 0.132052
0.68043 0.752194 0.143923
0.771862 0.738155 0.181827
0.848035 0.740078 0.215549
0.90425 0.738994 0.240803
0.914961 0.732616 0.248066
0.913512 0.722606 0.245762
0.912261 0.711147 0.243915
0.911437 0.695445 0.243168
0.911192 0.675914 0.24303
0.910262 0.649729 0.241352
0.908614 0.617609 0.238575
0.905592 0.574075 0.235935
0.89958 0.513466 0.235798
0.892805 0.47921 0.233768
0.125795 0.820218 0.49015
0.129503 0.824994 0.489921
0.137774 0.826566 0.488884
0.148043 0.826963 0.487922
0.154284 0.828656 0.487144
0.156283 0.83093 0.486244
0.157031 0.832639 0.484215
0.15787 0.834134 0.481498
0.158648 0.835477 0.477501
0.159823 0.836973 0.471794
0.162585 0.838056 0.463157
0.167865 0.839811 0.451469
0.175051 0.84509 0.435859
0.192996 0.856626 0.411215
0.195682 0.861708 0.332036
0.243763 0.872282 0.228
0.241672 0.855528 0.197116
0.295674 0.85919 0.190555
0.434028 0.860792 0.180194
0.617502 0.832349 0.170977
0.73463 0.805264 0.181216
0.816571 0.79205 0.217945
0.880201 0.793362 0.246891
0.92314 0.790845 0.266621
0.92372 0.781567 0.265187
0.921965 0.771725 0.261326
0.919814 0.76022 0.25713
0.917571 0.746624 0.252476
0.914946 0.730877 0.247852
0.912367 0.710735 0.244175
0.91014 0.684031 0.240833
0.908751 0.649165 0.238621
0.908019 0.631937 0.237385
0.157855 0.868925 0.555962
0.159899 0.872007 0.555291
0.163195 0.87393 0.554574
0.167575 0.875517 0.554116
0.172 0.876112 0.552666
0.177188 0.875761 0.550759
0.181598 0.875532 0.548821
0.184588 0.875288 0.545708
0.186328 0.875654 0.541894
0.186923 0.876234 0.535897
0.186465 0.876905 0.527169
0.187747 0.878355 0.51574
0.19176 0.880903 0.500069
0.200092 0.887709 0.480171
0.222278 0.9019 0.450248
0.216678 0.906401 0.346136
0.276493 0.908507 0.237278
0.280476 0.90248 0.221897
0.367666 0.908934 0.217563
0.518715 0.905776 0.21297
0.681743 0.876493 0.206577
0.783902 0.8533 0.216571
0.857267 0.84094 0.25417
0.905821 0.837522 0.276402
0.931685 0.83563 0.288701
0.932296 0.828717 0.284199
0.930617 0.818173 0.280201
0.928496 0.806683 0.275532
0.925994 0.792813 0.269932
0.922469 0.777066 0.262516
0.918486 0.760052 0.254093
0.914458 0.741085 0.246677
0.91339 0.732784 0.24509
0.184344 0.904311 0.613565
0.186114 0.906325 0.613336
0.18764 0.906188 0.611994
0.189288 0.905699 0.610758
0.189517 0.905623 0.608957
0.189105 0.905898 0.607202
0.188632 0.906096 0.605158
0.188846 0.906157 0.602197
0.190631 0.905821 0.598856
0.195361 0.904723 0.592828
0.201358 0.903502 0.585199
0.204562 0.903761 0.574746
0.205844 0.906203 0.560678
0.209888 0.911147 0.540978
0.215061 0.91696 0.515663
0.222187 0.918929 0.471458
0.213733 0.91136 0.343511
0.277531 0.908888 0.23476
0.303975 0.911025 0.225299
0.41445 0.92195 0.224506
0.591485 0.928008 0.23473
0.737713 0.914275 0.241947
0.82707 0.894804 0.252216
0.893156 0.883833 0.291005
0.931609 0.880049 0.306462
0.937194 0.874052 0.310231
0.935256 0.865721 0.306767
0.932509 0.8551 0.302296
0.931304 0.845106 0.296834
0.933211 0.837842 0.288426
0.930388 0.82472 0.279744
0.926604 0.809216 0.271778
0.925826 0.804532 0.269688
0.187579 0.902937 0.654398
0.187732 0.903044 0.653239
0.18883 0.902724 0.652293
0.190555 0.902312 0.650996
0.190967 0.902419 0.649546
0.190646 0.902831 0.647913
0.19028 0.903319 0.645945
0.190173 0.903746 0.643427
0.190066 0.904173 0.639918
0.189929 0.904723 0.635172
0.190127 0.905318 0.628794
0.191806 0.905562 0.619669
0.196201 0.905074 0.606867
0.200565 0.905516 0.588891
0.20174 0.909682 0.563684
0.20322 0.918914 0.528908
0.211154 0.921202 0.477867
0.213352 0.910826 0.329961
0.266743 0.908934 0.246418
0.338506 0.915465 0.225086
0.470115 0.925246 0.225177
0.646571 0.928939 0.239414
0.780011 0.931334 0.266911
0.864637 0.925322 0.287541
0.921157 0.918227 0.327718
0.944213 0.914412 0.335256
0.943572 0.908888 0.331151
0.942504 0.902144 0.326604
0.94107 0.893584 0.321187
0.938994 0.883787 0.314824
0.935332 0.87306 0.306828
0.931548 0.861219 0.299931
0.930785 0.858595 0.298924
0.187121 0.89453 0.689982
0.187335 0.894591 0.689433
0.188861 0.89424 0.688533
0.1897 0.894148 0.687831
0.189761 0.894453 0.686854
0.189624 0.89485 0.685679
0.189334 0.895415 0.684184
0.189487 0.895811 0.682551
0.190845 0.896071 0.679759
0.193942 0.895964 0.675471
0.196765 0.896269 0.669673
0.197665 0.897505 0.662776
0.196689 0.899886 0.652338
0.195727 0.902251 0.637903
0.195972 0.904356 0.616999
0.196185 0.907347 0.587472
0.201831 0.916259 0.542855
0.215061 0.919097 0.483635
0.222278 0.907881 0.337881
0.244511 0.904753 0.282032
0.389548 0.919799 0.249714
0.554818 0.926497 0.244175
0.706752 0.926986 0.254841
0.814786 0.930556 0.28249
0.894087 0.932998 0.312535
0.943343 0.938781 0.368917
0.952987 0.93579 0.37293
0.952361 0.930602 0.367468
0.951598 0.92459 0.361059
0.949767 0.918212 0.352865
0.947021 0.912077 0.34342
0.944579 0.905333 0.335515
0.944213 0.903838 0.334585
0.198123 0.880842 0.716258
0.197436 0.881193 0.716228
0.194324 0.882322 0.716854
0.190097 0.884016 0.717357
0.188525 0.884871 0.716945
0.188495 0.885237 0.715999
0.18854 0.885649 0.714931
0.188663 0.886137 0.713634
0.189425 0.886595 0.711818
0.192203 0.886656 0.708507
0.195056 0.886961 0.704128
0.19585 0.888304 0.699245
0.194736 0.890593 0.6925
0.193606 0.893919 0.682933
0.193805 0.897597 0.668574
0.194171 0.901747 0.64683
0.194018 0.90544 0.611811
0.198123 0.912428 0.558495
0.210163 0.919905 0.490547
0.220508 0.913924 0.372
0.256809 0.915434 0.315969
0.438682 0.930632 0.280537
0.61796 0.933471 0.273274
0.760311 0.93196 0.282856
0.856947 0.934981 0.315145
0.922164 0.938903 0.358618
0.953079 0.942626 0.396811
0.954314 0.942428 0.397925
0.955245 0.942 0.3991
0.95581 0.942077 0.399344
0.955673 0.942855 0.397696
0.955322 0.941955 0.393774
0.955184 0.941009 0.392309
0.198077 0.872892 0.738979
0.197284 0.873213 0.739071
0.194171 0.874281 0.73991
0.189822 0.875822 0.740551
0.187961 0.876554 0.740566
0.187655 0.876829 0.739864
0.187778 0.876982 0.739071
0.188098 0.877104 0.738033
0.188998 0.877287 0.736248
0.191043 0.877104 0.734249
0.193515 0.877119 0.731121
0.194156 0.878141 0.727764
0.19292 0.880278 0.723491
0.191791 0.88304 0.718059
0.191821 0.886412 0.709453
