bundles/resolve-cinematic-luts/Phantom Luts/Apple Log Phantom LUTS/iPhone 15 Phantom Movie LUTs/33x/Eterna_Legacy iPhone_15_33x.cube
TITLE "Generated by Resolve"
LUT_3D_SIZE 9
0.0316777 0.0505837 0.0445869
0.0303349 0.0512245 0.0466011
0.111986 0.0630808 0.0603037
0.238224 0.0779431 0.0826276
0.415167 0.102617 0.12488
0.627115 0.122698 0.18323
0.684627 0.127901 0.235782
0.710185 0.139406 0.31339
0.72398 0.132616 0.472679
0.0337835 0.0496071 0.0412909
0.0299992 0.0513771 0.0470436
0.0759594 0.0590066 0.046952
0.224201 0.0667277 0.0570077
0.420905 0.0712596 0.0833448
0.616449 0.0948043 0.149111
0.67715 0.134356 0.220005
0.71223 0.14023 0.318425
0.717845 0.130282 0.491615
0.0449378 0.0865187 0.0636301
0.0382086 0.0843061 0.0555123
0.0719615 0.0826276 0.0578164
0.209125 0.0865492 0.0629892
0.433265 0.0703441 0.0832685
0.601846 0.0761578 0.112749
0.673075 0.129412 0.208804
0.723995 0.137713 0.32723
0.733227 0.127504 0.500648
0.0473182 0.223636 0.139788
0.0468452 0.248798 0.0950942
0.0603799 0.250355 0.0756695
0.246326 0.250233 0.0793774
0.548272 0.224872 0.138628
0.679347 0.158145 0.142367
0.58854 0.0789654 0.110201
0.690822 0.125032 0.241535
0.751675 0.128573 0.460502
0.0385595 0.50927 0.224826
0.0345006 0.557488 0.209384
0.046067 0.583871 0.197131
0.0626078 0.596231 0.0717937
0.492027 0.550195 0.0576486
0.835279 0.52311 0.197162
0.886488 0.446174 0.234806
0.814023 0.282139 0.20087
0.689235 0.122835 0.22417
0.125795 0.820218 0.49015
0.154284 0.828656 0.487144
0.158648 0.835477 0.477501
0.175051 0.84509 0.435859
0.241672 0.855528 0.197116
0.73463 0.805264 0.181216
0.92372 0.781567 0.265187
0.914946 0.730877 0.247852
0.908019 0.631937 0.237385
0.187121 0.89453 0.689982
0.189761 0.894453 0.686854
0.190845 0.896071 0.679759
0.196689 0.899886 0.652338
0.201831 0.916259 0.542855
0.389548 0.919799 0.249714
0.894087 0.932998 0.312535
0.951598 0.92459 0.361059
0.944213 0.903838 0.334585
0.201953 0.860838 0.789853
0.192416 0.864195 0.792401
0.191959 0.864958 0.788952
0.196109 0.865202 0.776516
0.192111 0.872129 0.750942
0.193286 0.904372 0.628687
0.634104 0.949355 0.429572
0.961501 0.949737 0.555535
0.962707 0.948913 0.555947
0.217151 0.849134 0.826139
0.209384 0.852018 0.827405
0.207523 0.852918 0.826322
0.214832 0.850904 0.820249
0.215579 0.852216 0.809339
0.193515 0.865476 0.781476
0.321691 0.949783 0.646525
0.937896 0.95404 0.69723
0.965362 0.956222 0.730922
0.0299382 0.0514229 0.0471351
0.0288548 0.0519265 0.0488899
0.125246 0.061677 0.0950484
0.254719 0.0740063 0.133501
0.431815 0.0998093 0.156909
0.655955 0.1243 0.218952
0.701686 0.122103 0.254612
0.733715 0.136477 0.336996
0.741619 0.126726 0.497749
0.0310216 0.0508888 0.0456245
0.0281376 0.0522621 0.0499733
0.120729 0.0634928 0.0600748
0.260334 0.0788281 0.0869459
0.438224 0.0978714 0.128267
0.651713 0.12079 0.186923
0.695323 0.130129 0.238926
0.727443 0.141726 0.339269
0.725475 0.125521 0.510613
0.0428016 0.100389 0.0832837
0.0398871 0.105974 0.0729381
0.0901656 0.0967727 0.0644999
0.231144 0.0801404 0.0631113
0.436988 0.0721447 0.0892653
0.632563 0.0912642 0.151888
0.696147 0.131334 0.228962
0.736645 0.137835 0.343786
0.730083 0.126635 0.506523
0.0466011 0.220295 0.150759
0.0478981 0.239857 0.124651
0.0588388 0.254551 0.0908522
0.249226 0.254688 0.0787213
0.541619 0.224842 0.137438
0.684306 0.168246 0.144717
0.591455 0.0798047 0.114015
0.69688 0.123842 0.248768
0.750515 0.127733 0.469551
0.0388037 0.48925 0.226963
0.031754 0.525322 0.213031
0.0399176 0.553429 0.20029
0.0540169 0.574929 0.0680095
0.483986 0.540856 0.0572366
0.826688 0.518059 0.193103
0.887861 0.45153 0.235157
0.824384 0.296452 0.207004
0.702663 0.126162 0.242512
0.1178 0.807309 0.485542
0.142962 0.812589 0.479744
0.146395 0.817578 0.46566
0.165164 0.829511 0.423148
0.233814 0.846281 0.192172
0.731197 0.797971 0.178012
0.922454 0.776181 0.262654
0.914717 0.729259 0.247486
0.907591 0.623652 0.236698
0.187167 0.895323 0.68751
0.190082 0.895399 0.682765
0.193088 0.896819 0.672984
0.196551 0.901503 0.641794
0.202457 0.916472 0.541421
0.375357 0.922774 0.276005
0.896406 0.935073 0.325811
0.953735 0.922591 0.371603
0.946395 0.901915 0.348852
0.201266 0.861845 0.784955
0.191882 0.865293 0.786679
0.193332 0.865583 0.781582
0.195392 0.86688 0.768765
0.191959 0.873838 0.745022
0.193576 0.903731 0.633646
0.627268 0.948913 0.444083
0.961837 0.95021 0.567239
0.962798 0.949462 0.566629
0.217502 0.848692 0.828412
0.209857 0.851484 0.829877
0.207828 0.852476 0.828443
0.217243 0.849973 0.820249
0.215488 0.852323 0.808881
0.193454 0.865476 0.781323
0.306035 0.941955 0.651087
0.934112 0.953964 0.700786
0.96556 0.95642 0.737057
0.0301366 0.0520638 0.0608835
0.0506142 0.0531777 0.0616465
0.138705 0.0615091 0.119036
0.260349 0.0721447 0.153567
0.431067 0.0901045 0.17763
0.647684 0.122866 0.226413
0.709941 0.121721 0.265782
0.736248 0.138231 0.343267
0.741772 0.126833 0.496818
0.0309453 0.0509957 0.0460517
0.0285191 0.0529641 0.0734112
0.136736 0.0626383 0.107271
0.268254 0.0783703 0.11165
0.434043 0.100282 0.145327
0.643183 0.122911 0.198581
0.694636 0.12314 0.247974
0.730144 0.142428 0.353353
0.722179 0.123873 0.515663
0.0436255 0.104067 0.0929732
0.0402228 0.106905 0.0964523
0.0851606 0.09514 0.0884565
0.240879 0.0902571 0.0932021
0.469398 0.102846 0.146715
0.673014 0.119249 0.193301
0.700313 0.123308 0.245747
0.742077 0.138949 0.372183
0.721859 0.122911 0.519417
0.0456855 0.213916 0.165042
0.046891 0.232258 0.152621
0.0572824 0.243 0.128115
0.246021 0.249256 0.098146
0.53901 0.222217 0.159121
0.696498 0.190051 0.173602
0.640116 0.107088 0.162539
0.704005 0.123964 0.265675
0.749172 0.126406 0.488533
0.0403143 0.46157 0.245228
0.0320897 0.489479 0.236042
0.037644 0.514992 0.219043
0.043595 0.55639 0.127672
0.472068 0.524407 0.0574807
0.807462 0.505959 0.200656
0.896925 0.451804 0.254795
0.851453 0.316609 0.245945
0.711986 0.123033 0.266682
0.108507 0.786526 0.49453
0.127108 0.787106 0.4878
0.126024 0.786679 0.464988
0.143313 0.797864 0.409262
0.182422 0.81796 0.209155
0.715465 0.777859 0.166125
0.925933 0.761822 0.275761
0.923156 0.722011 0.270497
0.92282 0.616312 0.274449
0.186969 0.892836 0.695735
0.190097 0.892958 0.691402
0.195499 0.894575 0.678462
0.196597 0.901854 0.639384
0.204303 0.917708 0.535439
0.353628 0.925704 0.310216
0.89691 0.937407 0.343084
0.955169 0.9196 0.390738
0.949996 0.895979 0.375677
0.201587 0.861479 0.786526
0.191882 0.865293 0.786862
0.191211 0.866468 0.780728
0.195026 0.867872 0.764584
0.191653 0.875486 0.738994
0.195285 0.903105 0.628962
0.614939 0.949432 0.460456
0.962249 0.950561 0.582742
0.96318 0.950103 0.585061
0.21886 0.847181 0.835248
0.210925 0.850111 0.836713
0.208713 0.851255 0.834623
0.218158 0.848981 0.824643
0.215824 0.851881 0.811124
0.193439 0.865385 0.781888
0.285222 0.941939 0.659632
0.928084 0.954055 0.705531
0.966003 0.956725 0.747539
0.0305028 0.0465248 0.142184
0.128298 0.047013 0.194781
0.172869 0.0540169 0.171252
0.274464 0.066453 0.184619
0.45417 0.094316 0.204944
0.654337 0.11284 0.24004
0.722606 0.123201 0.289311
0.74461 0.138155 0.376349
0.738628 0.125048 0.510262
0.0370489 0.0704814 0.0909285
0.0287022 0.050721 0.151415
0.123033 0.0436866 0.218036
0.283192 0.068452 0.181353
0.450965 0.0955215 0.17348
0.657557 0.119417 0.227527
0.714015 0.125338 0.284733
0.739055 0.137774 0.399359
0.716594 0.120134 0.525628
0.0458228 0.118486 0.117983
0.0446326 0.119387 0.143114
0.0415961 0.0897841 0.175479
0.253574 0.078996 0.171481
0.481773 0.0957656 0.203479
0.685603 0.113588 0.250278
0.729839 0.12578 0.306233
0.743786 0.133089 0.434531
0.704753 0.11574 0.531945
0.046479 0.209506 0.185779
0.0463264 0.221057 0.192584
0.0537881 0.227024 0.199832
0.25333 0.253132 0.232685
0.580407 0.248096 0.258717
0.771878 0.229557 0.285786
0.74435 0.150423 0.266361
0.738933 0.138933 0.352331
0.738094 0.11957 0.534295
0.0435035 0.422858 0.289097
0.0347295 0.445899 0.29807
0.035172 0.463813 0.300389
0.0381476 0.485405 0.233433
0.466117 0.519356 0.190311
0.828519 0.513039 0.316121
0.933761 0.485008 0.373449
0.906737 0.374701 0.363943
0.744442 0.13608 0.350393
0.102296 0.754604 0.526833
0.111116 0.754101 0.528359
0.108248 0.751263 0.51284
0.11162 0.751461 0.451835
0.127321 0.792111 0.346624
0.705272 0.772824 0.237354
0.951003 0.740887 0.394415
0.951385 0.712886 0.403006
0.950408 0.632761 0.410117
0.18645 0.88539 0.718257
0.188418 0.884947 0.716991
0.188876 0.888395 0.707607
0.202335 0.893645 0.671473
0.204959 0.907698 0.567071
0.31342 0.933959 0.4271
0.889998 0.935714 0.412924
0.959442 0.910857 0.489616
0.961059 0.885267 0.485191
0.203357 0.858869 0.798611
0.193683 0.862516 0.799527
0.192248 0.864195 0.792676
0.18912 0.868086 0.775769
0.191974 0.873976 0.744427
0.194247 0.902892 0.637278
0.584649 0.955749 0.520699
0.964462 0.952316 0.639048
0.964385 0.952529 0.646128
0.220722 0.845701 0.844297
0.212177 0.8486 0.846723
0.21178 0.848844 0.844923
0.212726 0.848997 0.839261
0.217441 0.849668 0.822003
0.192905 0.864057 0.792111
0.273213 0.935149 0.688655
0.916396 0.955657 0.732235
0.967117 0.957504 0.777722
0.0200504 0.0354772 0.284428
0.0379034 0.0385443 0.337285
0.173449 0.0482032 0.343786
0.319234 0.0572671 0.291676
0.478889 0.0854658 0.288365
0.694804 0.120958 0.301961
0.744366 0.134997 0.348074
0.752346 0.130449 0.444511
0.72755 0.116869 0.539574
0.0289464 0.0778515 0.202213
0.0140383 0.0467079 0.25655
0.0325322 0.0381781 0.342504
0.299962 0.055375 0.333883
0.471321 0.0816358 0.293156
0.69778 0.122637 0.304814
0.74847 0.136828 0.372457
0.741009 0.12929 0.47393
0.707698 0.109575 0.549279
0.0445106 0.130953 0.190204
0.029984 0.105241 0.228809
0.0231479 0.0751354 0.275059
0.189792 0.0496223 0.315663
0.479057 0.0762188 0.331579
0.716457 0.127443 0.353429
0.754253 0.13228 0.424323
0.740337 0.123232 0.519188
0.713527 0.110719 0.568551
0.0480812 0.208591 0.222934
0.048249 0.211276 0.241047
0.0479133 0.214496 0.272053
0.0955673 0.207431 0.323796
0.54374 0.193393 0.400244
0.785885 0.216266 0.404013
0.772168 0.154421 0.399023
0.744549 0.125475 0.50161
0.716106 0.106767 0.565164
0.0462654 0.39147 0.330297
0.0386511 0.40531 0.345769
0.0390784 0.417227 0.365866
0.0486763 0.416449 0.367056
0.475425 0.505623 0.466804
0.859724 0.519677 0.507515
0.952346 0.507897 0.539925
0.931167 0.402792 0.536751
0.739239 0.121447 0.526314
0.0996109 0.708446 0.558816
0.0942245 0.70898 0.565255
0.0905928 0.703197 0.56463
0.0890059 0.70193 0.544625
0.0714733 0.71165 0.469993
0.684504 0.75845 0.437034
0.965057 0.751644 0.560372
0.968551 0.740642 0.592874
0.967788 0.667201 0.600458
0.184497 0.876738 0.743572
0.188891 0.874403 0.743633
0.202213 0.867887 0.734539
0.200305 0.868498 0.714992
0.200626 0.885878 0.652873
0.379767 0.948959 0.58677
0.875669 0.924117 0.554559
0.965423 0.895888 0.627192
0.96379 0.873182 0.628412
0.202045 0.856001 0.819715
0.196399 0.858 0.821347
0.194369 0.859525 0.816358
0.19118 0.863233 0.801572
0.188754 0.86978 0.767803
0.199908 0.895247 0.69308
0.628824 0.954101 0.666804
0.96408 0.957168 0.741436
0.967193 0.956497 0.755459
0.221347 0.845197 0.856001
0.219165 0.845945 0.856733
0.217288 0.846586 0.856062
0.215442 0.847303 0.852369
0.212222 0.848722 0.844312
0.196658 0.860212 0.806729
0.336812 0.930861 0.749706
0.905379 0.9579 0.792599
0.969146 0.959472 0.834546
0.0148623 0.0396429 0.429755
0.0288548 0.0433814 0.493385
0.116854 0.0520638 0.540581
0.294362 0.0607919 0.503304
0.537469 0.0748455 0.453727
0.733425 0.120226 0.47924
0.748516 0.125994 0.492348
0.738338 0.119585 0.533989
0.727016 0.104082 0.584222
0.0211948 0.0801404 0.358541
0.0207523 0.0699626 0.409293
0.0186923 0.0526284 0.46392
0.140505 0.0493019 0.458595
0.54316 0.0739757 0.498772
0.727031 0.116457 0.500587
0.742046 0.123171 0.518181
0.723644 0.109361 0.558633
0.722362 0.11162 0.603159
0.0335088 0.115877 0.313313
0.0323339 0.101869 0.349981
0.031693 0.0896468 0.407904
0.0726482 0.078996 0.42742
0.475181 0.0686809 0.481712
0.713344 0.105013 0.53138
0.736767 0.117372 0.541421
0.723293 0.105058 0.578347
0.72636 0.113191 0.631189
0.046067 0.213809 0.313146
0.0487068 0.204364 0.342916
0.0504311 0.201114 0.390417
0.0517128 0.196368 0.446998
0.431952 0.180987 0.559365
0.732235 0.155856 0.559091
0.77734 0.148409 0.533898
0.71841 0.107271 0.566033
0.731395 0.110094 0.62948
0.0391852 0.397711 0.419394
0.0395361 0.40621 0.44065
0.047013 0.417121 0.465431
0.0452583 0.427787 0.50573
0.278462 0.457145 0.588846
0.808164 0.414832 0.661891
0.948257 0.448798 0.660929
0.924269 0.346136 0.671748
0.751125 0.11989 0.595544
0.0781567 0.691447 0.621241
0.0907607 0.679347 0.617563
0.0885176 0.670497 0.620432
0.0835889 0.663447 0.61825
0.0609293 0.63978 0.591073
0.690761 0.732921 0.693309
0.969818 0.747265 0.734112
0.969802 0.72343 0.753033
0.969314 0.628672 0.760906
0.187961 0.862821 0.77174
0.198505 0.854597 0.767361
0.19791 0.845884 0.76112
0.1897 0.837247 0.746517
0.169619 0.843427 0.726375
0.365499 0.88072 0.707958
0.868986 0.908034 0.707271
0.965255 0.885008 0.76582
0.964904 0.878584 0.785
0.204623 0.852003 0.84152
0.196323 0.854688 0.845167
0.197604 0.854688 0.84155
0.198184 0.855604 0.832944
0.190707 0.862333 0.807889
0.206348 0.877226 0.754665
0.690089 0.954681 0.795636
0.966949 0.960189 0.846113
0.966491 0.962142 0.86685
0.208591 0.849241 0.873716
0.217563 0.846265 0.869932
0.22005 0.845441 0.868574
0.218112 0.846128 0.867521
0.212863 0.847974 0.864759
0.195651 0.855848 0.838285
0.493065 0.919921 0.828321
0.906813 0.959564 0.867948
0.965606 0.964034 0.901457
0.0354314 0.12195 0.588785
0.043183 0.149584 0.616861
0.0485237 0.14255 0.621149
0.122072 0.099794 0.592844
0.493278 0.0722057 0.615274
0.728023 0.104173 0.610773
0.722683 0.109682 0.589517
0.725017 0.110338 0.603876
0.739345 0.1093 0.659129
0.0377661 0.145342 0.561624
0.0430304 0.172381 0.601236
0.0532998 0.182132 0.630076
0.0582132 0.175494 0.633249
0.444266 0.11249 0.659846
0.703151 0.0979324 0.609003
0.730755 0.109255 0.620645
0.732357 0.111574 0.645838
0.738598 0.112734 0.695232
0.0373236 0.160998 0.524376
0.0459907 0.178012 0.557076
0.0569619 0.180301 0.589288
0.057908 0.187945 0.608148
0.375097 0.179843 0.693843
0.698665 0.1028 0.638285
0.735393 0.109636 0.642863
0.735424 0.111635 0.661112
0.736889 0.114458 0.706966
0.0425422 0.241443 0.503899
0.0497749 0.24892 0.54316
0.0588693 0.25275 0.585855
0.0593118 0.265446 0.633524
0.265888 0.272862 0.680583
0.741894 0.199527 0.724926
0.778668 0.149935 0.65362
0.731106 0.109178 0.621698
0.741131 0.112093 0.70341
0.0337682 0.452689 0.565377
0.0380255 0.456352 0.591104
0.049546 0.456367 0.613336
0.0514076 0.460304 0.652506
0.101946 0.443595 0.672404
0.69366 0.432013 0.816541
0.922454 0.357397 0.766491
0.914168 0.314366 0.752651
0.81738 0.18265 0.703838
0.101213 0.683528 0.699199
0.0991989 0.677562 0.701213
0.103838 0.663142 0.693507
0.111803 0.651408 0.690806
0.0844892 0.629938 0.698421
0.565866 0.692378 0.810086
0.948867 0.656855 0.84239
0.969757 0.638895 0.84065
0.953368 0.531624 0.839597
0.192081 0.846693 0.81471
0.183902 0.841154 0.814374
0.193484 0.824109 0.800702
0.18497 0.81146 0.790082
0.163439 0.811002 0.787793
0.380026 0.820737 0.788098
0.870283 0.8916 0.863127
0.97258 0.886992 0.87454
0.969192 0.87126 0.884474
0.198444 0.852827 0.86421
0.198886 0.85272 0.863249
0.210956 0.848768 0.855695
0.213291 0.848096 0.850141
0.194125 0.855177 0.847608
0.233921 0.871839 0.815518
0.711116 0.939559 0.88098
0.965515 0.963638 0.91986
0.965057 0.965621 0.9346
0.200748 0.85182 0.878965
0.204974 0.850431 0.877058
0.212024 0.848127 0.873686
0.211093 0.848432 0.874067
0.203433 0.85095 0.877791
0.196506 0.854353 0.863371
0.604913 0.906508 0.884352
0.92845 0.961746 0.933013
0.965286 0.966262 0.943618
0.0689555 0.295109 0.736294
0.0749828 0.343236 0.760327
0.0773022 0.362005 0.764553
0.10074 0.367391 0.782437
0.398093 0.297688 0.837537
0.746654 0.179843 0.772595
0.741238 0.110597 0.686076
0.741619 0.112871 0.718303
0.741421 0.113054 0.719799
0.0635691 0.286671 0.7205
0.0720226 0.329488 0.751476
0.0780957 0.375235 0.769314
0.0811322 0.398917 0.778134
0.347753 0.39736 0.852155
0.772351 0.265019 0.853849
0.800336 0.168612 0.757565
0.740551 0.113375 0.718166
0.74139 0.113069 0.719738
0.0582589 0.2766 0.698207
0.0653391 0.314916 0.732113
0.0758984 0.350927 0.759136
0.0803082 0.378241 0.767895
0.280079 0.432227 0.847211
0.744091 0.330755 0.886656
0.861601 0.238972 0.813092
0.743709 0.115801 0.71548
0.74049 0.113405 0.717983
0.0532845 0.328923 0.69572
0.0598306 0.360098 0.727504
0.0712902 0.374914 0.755535
0.0829175 0.400504 0.767056
0.179278 0.430198 0.822171
0.649592 0.406622 0.905119
0.897597 0.295567 0.84239
0.819348 0.189776 0.767971
0.741634 0.112978 0.72015
0.0600137 0.515267 0.712963
0.0688792 0.526894 0.735515
0.0786603 0.525979 0.752316
0.0902113 0.52137 0.76405
0.085771 0.505302 0.766155
0.514488 0.55259 0.879988
0.894606 0.424628 0.875578
0.911421 0.333471 0.826871
0.863661 0.237598 0.789105
0.127733 0.705867 0.775479
0.125307 0.703441 0.782971
0.126909 0.689555 0.779141
0.132097 0.672251 0.772534
0.121401 0.659876 0.782345
0.406989 0.683925 0.846922
0.865156 0.686259 0.941482
0.946838 0.590051 0.885573
0.939315 0.535698 0.876707
0.196231 0.840177 0.853117
0.187778 0.836912 0.854368
0.185702 0.824109 0.845212
0.185657 0.805386 0.830747
0.168444 0.797986 0.833219
0.243381 0.796323 0.840986
0.7935 0.863111 0.932601
0.968902 0.845396 0.933974
0.965988 0.827451 0.935531
0.199557 0.852216 0.879225
0.19971 0.852171 0.879438
0.201022 0.851728 0.877943
0.214633 0.847288 0.869108
0.197971 0.852918 0.870802
0.21471 0.859937 0.857664
0.70898 0.922972 0.922621
0.965576 0.965789 0.962158
0.966903 0.966293 0.965209
0.199741 0.852155 0.879423
0.199557 0.852216 0.879499
0.202914 0.851118 0.878004
0.201541 0.851575 0.878614
0.199878 0.85211 0.879362
0.199069 0.852262 0.877531
0.645777 0.911131 0.925917
0.942321 0.959792 0.960632
0.967544 0.967681 0.965316
0.0901503 0.504997 0.79176
0.10071 0.567971 0.797635
0.112078 0.619974 0.802823
0.184054 0.649607 0.833951
0.375662 0.632166 0.857176
0.728176 0.540322 0.929946
0.917021 0.364004 0.882551
0.853376 0.231037 0.813886
0.741512 0.113024 0.719966
0.0888075 0.495583 0.79118
0.0949111 0.538079 0.794385
0.108186 0.601587 0.80238
0.158465 0.651011 0.822599
0.355169 0.66923 0.857755
0.717845 0.649165 0.938125
0.928512 0.477119 0.902785
0.912123 0.336263 0.873838
0.791821 0.162387 0.76875
0.0844892 0.460533 0.786984
0.0928817 0.524529 0.794125
0.101381 0.567605 0.798642
0.118334 0.620462 0.801678
0.306355 0.670512 0.853117
0.686748 0.698436 0.926207
0.936843 0.560037 0.91812
0.921508 0.408652 0.889723
0.876204 0.261265 0.835569
0.0866865 0.479622 0.789578
0.0936751 0.529183 0.794522
0.0988632 0.558297 0.796368
0.110674 0.597681 0.800061
0.205692 0.646662 0.840452
0.585962 0.690944 0.89955
0.913664 0.610132 0.929335
0.925856 0.451148 0.896406
0.896162 0.294789 0.856428
0.107973 0.599619 0.802182
0.112932 0.621378 0.804715
0.116732 0.633371 0.805798
0.118883 0.636896 0.805264
0.116457 0.635554 0.806409
0.447562 0.679454 0.873106
0.844648 0.680156 0.94696
0.93431 0.526711 0.910216
0.918929 0.378683 0.885664
0.15111 0.739437 0.836561
0.151751 0.740887 0.837568
0.149813 0.735439 0.83505
0.146624 0.724392 0.830396
0.133242 0.694194 0.817075
0.3252 0.722148 0.864759
0.768154 0.785153 0.936751
0.954131 0.702449 0.940688
0.941512 0.590143 0.923308
0.197559 0.847486 0.877363
0.196063 0.844846 0.876341
0.19234 0.83711 0.873198
0.186969 0.823117 0.866484
0.177996 0.805508 0.861006
0.208286 0.791836 0.860929
0.719982 0.854429 0.934371
0.958312 0.894133 0.956252
0.960525 0.839292 0.952819
0.199542 0.852232 0.879515
0.199542 0.852232 0.879515
0.199588 0.852201 0.879484
0.200778 0.85182 0.878965
0.199542 0.852232 0.879515
0.199405 0.854337 0.875563
0.60943 0.9066 0.922316
0.943679 0.962402 0.963485
0.966659 0.965438 0.966583
0.199542 0.852232 0.879515
0.199542 0.852232 0.879515
0.199588 0.852201 0.879484
0.199542 0.852232 0.879515
0.199542 0.852232 0.879515
0.199542 0.852232 0.879515
0.570687 0.900618 0.917006
0.935683 0.960754 0.962264
0.968139 0.968139 0.968139
