bundles/resolve-cinematic-luts/Phantom Luts/Apple Log Phantom LUTS/iPhone 15 Phantom Movie LUTs/33x/Eterna_Legacy iPhone_15_33x.cube
TITLE "Generated by Resolve"
LUT_3D_SIZE 5
0.0316777 0.0505837 0.0445869
0.111986 0.0630808 0.0603037
0.415167 0.102617 0.12488
0.684627 0.127901 0.235782
0.72398 0.132616 0.472679
0.0449378 0.0865187 0.0636301
0.0719615 0.0826276 0.0578164
0.433265 0.0703441 0.0832685
0.673075 0.129412 0.208804
0.733227 0.127504 0.500648
0.0385595 0.50927 0.224826
0.046067 0.583871 0.197131
0.492027 0.550195 0.0576486
0.886488 0.446174 0.234806
0.689235 0.122835 0.22417
0.187121 0.89453 0.689982
0.190845 0.896071 0.679759
0.201831 0.916259 0.542855
0.894087 0.932998 0.312535
0.944213 0.903838 0.334585
0.217151 0.849134 0.826139
0.207523 0.852918 0.826322
0.215579 0.852216 0.809339
0.321691 0.949783 0.646525
0.965362 0.956222 0.730922
0.0301366 0.0520638 0.0608835
0.138705 0.0615091 0.119036
0.431067 0.0901045 0.17763
0.709941 0.121721 0.265782
0.741772 0.126833 0.496818
0.0436255 0.104067 0.0929732
0.0851606 0.09514 0.0884565
0.469398 0.102846 0.146715
0.700313 0.123308 0.245747
0.721859 0.122911 0.519417
0.0403143 0.46157 0.245228
0.037644 0.514992 0.219043
0.472068 0.524407 0.0574807
0.896925 0.451804 0.254795
0.711986 0.123033 0.266682
0.186969 0.892836 0.695735
0.195499 0.894575 0.678462
0.204303 0.917708 0.535439
0.89691 0.937407 0.343084
0.949996 0.895979 0.375677
0.21886 0.847181 0.835248
0.208713 0.851255 0.834623
0.215824 0.851881 0.811124
0.285222 0.941939 0.659632
0.966003 0.956725 0.747539
0.0200504 0.0354772 0.284428
0.173449 0.0482032 0.343786
0.478889 0.0854658 0.288365
0.744366 0.134997 0.348074
0.72755 0.116869 0.539574
0.0445106 0.130953 0.190204
0.0231479 0.0751354 0.275059
0.479057 0.0762188 0.331579
0.754253 0.13228 0.424323
0.713527 0.110719 0.568551
0.0462654 0.39147 0.330297
0.0390784 0.417227 0.365866
0.475425 0.505623 0.466804
0.952346 0.507897 0.539925
0.739239 0.121447 0.526314
0.184497 0.876738 0.743572
0.202213 0.867887 0.734539
0.200626 0.885878 0.652873
0.875669 0.924117 0.554559
0.96379 0.873182 0.628412
0.221347 0.845197 0.856001
0.217288 0.846586 0.856062
0.212222 0.848722 0.844312
0.336812 0.930861 0.749706
0.969146 0.959472 0.834546
0.0354314 0.12195 0.588785
0.0485237 0.14255 0.621149
0.493278 0.0722057 0.615274
0.722683 0.109682 0.589517
0.739345 0.1093 0.659129
0.0373236 0.160998 0.524376
0.0569619 0.180301 0.589288
0.375097 0.179843 0.693843
0.735393 0.109636 0.642863
0.736889 0.114458 0.706966
0.0337682 0.452689 0.565377
0.049546 0.456367 0.613336
0.101946 0.443595 0.672404
0.922454 0.357397 0.766491
0.81738 0.18265 0.703838
0.192081 0.846693 0.81471
0.193484 0.824109 0.800702
0.163439 0.811002 0.787793
0.870283 0.8916 0.863127
0.969192 0.87126 0.884474
0.200748 0.85182 0.878965
0.212024 0.848127 0.873686
0.203433 0.85095 0.877791
0.604913 0.906508 0.884352
0.965286 0.966262 0.943618
0.0901503 0.504997 0.79176
0.112078 0.619974 0.802823
0.375662 0.632166 0.857176
0.917021 0.364004 0.882551
0.741512 0.113024 0.719966
0.0844892 0.460533 0.786984
0.101381 0.567605 0.798642
0.306355 0.670512 0.853117
0.936843 0.560037 0.91812
0.876204 0.261265 0.835569
0.107973 0.599619 0.802182
0.116732 0.633371 0.805798
0.116457 0.635554 0.806409
0.844648 0.680156 0.94696
0.918929 0.378683 0.885664
0.197559 0.847486 0.877363
0.19234 0.83711 0.873198
0.177996 0.805508 0.861006
0.719982 0.854429 0.934371
0.960525 0.839292 0.952819
0.199542 0.852232 0.879515
0.199588 0.852201 0.879484
0.199542 0.852232 0.879515
0.570687 0.900618 0.917006
0.968139 0.968139 0.968139
