bundles/resolve-cinematic-luts/Phantom Luts/Apple Log Phantom LUTS/iPhone 15 Phantom Movie LUTs/33x/Eterna iPhone_15_33x.cube
TITLE "Generated by Resolve"
LUT_3D_SIZE 33
0.0127413 0.0338598 0.0287327
0.0126192 0.0339513 0.0287327
0.0121767 0.034165 0.0290532
0.0115816 0.0344549 0.0300298
0.0114443 0.0345312 0.0303197
0.0159457 0.0345159 0.0288396
0.0531624 0.037171 0.0287327
0.100755 0.0473793 0.0446326
0.13817 0.0562295 0.0655833
0.177417 0.0636912 0.0834516
0.217151 0.0708476 0.102586
0.259754 0.0806287 0.122011
0.282628 0.0766308 0.0982528
0.325032 0.0851453 0.111299
0.37113 0.0936141 0.12578
0.418479 0.101472 0.139681
0.464256 0.108659 0.151324
0.517311 0.115312 0.167361
0.579858 0.121126 0.187381
0.637003 0.127749 0.206485
0.687282 0.135805 0.225757
0.710765 0.138781 0.249409
0.703731 0.129961 0.255818
0.704662 0.128817 0.26923
0.706661 0.131426 0.285267
0.708247 0.136172 0.303014
0.715984 0.142565 0.326146
0.7234 0.144076 0.358419
0.725917 0.141115 0.394781
0.727611 0.138521 0.429587
0.729091 0.13724 0.462165
0.726223 0.134783 0.494896
0.718395 0.126787 0.52369
0.0145724 0.032929 0.0260014
0.0130159 0.0337072 0.0284886
0.0121462 0.0341802 0.0291142
0.0115358 0.0344854 0.0301518
0.0113832 0.0345617 0.0304265
0.0172427 0.0346838 0.0290532
0.051667 0.0365606 0.0287175
0.0891432 0.0407263 0.0308385
0.12459 0.0460059 0.0367132
0.160281 0.0498054 0.0413062
0.195514 0.0537881 0.0473945
0.232334 0.0595712 0.0564736
0.270985 0.0656748 0.0662547
0.31194 0.0727092 0.0778821
0.355978 0.0830396 0.0957656
0.406897 0.0960861 0.119554
0.456992 0.105882 0.13756
0.512932 0.113497 0.156085
0.576104 0.11928 0.176059
0.633875 0.12604 0.195758
0.684321 0.134447 0.216403
0.707683 0.14049 0.233417
0.708415 0.137514 0.244709
0.701869 0.128435 0.254658
0.703914 0.129641 0.272633
0.705333 0.13344 0.29192
0.711757 0.140185 0.31606
0.72282 0.144778 0.350347
0.725673 0.141421 0.391348
0.727581 0.138476 0.429694
0.72929 0.137285 0.464561
0.725322 0.13431 0.497688
0.71606 0.125139 0.526436
0.0145876 0.032929 0.0259709
0.0130312 0.0336919 0.0284581
0.0121767 0.034165 0.0290532
0.0115358 0.0344854 0.0301213
0.0113069 0.0346075 0.0305943
0.0131685 0.0346227 0.0298924
0.0353552 0.0354925 0.0286412
0.0745708 0.0389715 0.0292363
0.115511 0.0448768 0.0349584
0.155413 0.0494087 0.0400549
0.192645 0.052842 0.0445258
0.231693 0.0575113 0.0513161
0.269429 0.0614023 0.0560159
0.308965 0.0654307 0.0619974
0.347936 0.0687419 0.0688182
0.38703 0.0750439 0.0803388
0.435645 0.0877089 0.103868
0.497871 0.10312 0.132982
0.567025 0.113939 0.160082
0.628489 0.123583 0.183505
0.679469 0.132219 0.205722
0.702571 0.138293 0.224094
0.71017 0.140902 0.239307
0.703349 0.130953 0.249317
0.7037 0.128923 0.267185
0.705806 0.132418 0.288533
0.711559 0.139467 0.313939
0.722484 0.144533 0.349523
0.725795 0.141268 0.39292
0.727749 0.138338 0.432502
0.729335 0.137133 0.468711
0.723659 0.133394 0.502358
0.712581 0.122972 0.529442
0.0145876 0.032929 0.0259556
0.0130312 0.0336919 0.0284581
0.012192 0.0341497 0.0290379
0.01149 0.0345006 0.0302129
0.0112917 0.0346227 0.0306401
0.0114595 0.0346075 0.0305028
0.0240482 0.0352636 0.0290074
0.0590829 0.0379492 0.028748
0.101381 0.0452125 0.0338598
0.137942 0.0493782 0.0380865
0.177813 0.0527352 0.0419471
0.221607 0.05626 0.0474861
0.266407 0.0609751 0.0543221
0.309697 0.0652781 0.0618601
0.350637 0.068574 0.0690929
0.391394 0.0715648 0.0767071
0.430503 0.0747387 0.0845655
0.4813 0.0822919 0.103792
0.556023 0.102083 0.142885
0.625589 0.120348 0.174884
0.677501 0.130297 0.198779
0.697978 0.135714 0.2168
0.709773 0.140063 0.234318
0.705058 0.132082 0.245792
0.70518 0.128191 0.264561
0.711711 0.13051 0.289509
0.718334 0.137179 0.31754
0.724361 0.143969 0.352682
0.726009 0.140978 0.396551
0.727886 0.138079 0.436774
0.729091 0.136873 0.474113
0.721981 0.132296 0.506432
0.709407 0.120729 0.532158
0.0145724 0.032929 0.0259861
0.0130312 0.0336919 0.0284581
0.012192 0.0341497 0.0290379
0.01149 0.0345006 0.0302129
0.0112917 0.0346075 0.0306249
0.0112917 0.0346075 0.0306249
0.0167086 0.0350652 0.0299229
0.0454871 0.038117 0.0292058
0.0871138 0.0466621 0.0335851
0.121889 0.0529335 0.0382544
0.161837 0.0564126 0.041825
0.207263 0.0582589 0.0459449
0.257237 0.0611124 0.0525521
0.307057 0.0648051 0.0607004
0.352651 0.068513 0.0694438
0.406302 0.0690471 0.0795605
0.449027 0.0708782 0.0872206
0.496635 0.071107 0.0953231
0.554253 0.0806287 0.119326
0.622675 0.104143 0.159854
0.679911 0.125856 0.192721
0.693919 0.133669 0.210376
0.705257 0.139605 0.228824
0.70692 0.138354 0.244465
0.700557 0.129076 0.259724
0.707744 0.131304 0.286473
0.718471 0.137469 0.317861
0.728176 0.14313 0.357488
0.726848 0.140505 0.401022
0.728115 0.137896 0.441001
0.728847 0.136645 0.478813
0.720088 0.131075 0.510369
0.706935 0.120348 0.531884
0.0163424 0.0320287 0.0228275
0.0150912 0.0326848 0.0251774
0.0142977 0.0330663 0.0264439
0.0133211 0.0335546 0.0280156
0.0129549 0.0337377 0.0285954
0.0129702 0.0337224 0.0285496
0.0149233 0.0339361 0.0281529
0.0357824 0.0380102 0.0286564
0.0762646 0.0483253 0.0329137
0.110689 0.0564126 0.0379187
0.149203 0.0615244 0.0420386
0.193988 0.0631418 0.0456092
0.246021 0.0643168 0.0514076
0.300374 0.0657511 0.058793
0.355184 0.0679637 0.0693828
0.4056 0.06981 0.0793317
0.452201 0.0708019 0.0876173
0.501534 0.0704204 0.0955062
0.556527 0.0742351 0.10988
0.615717 0.0892958 0.141253
0.672618 0.117601 0.182696
0.690211 0.131579 0.204929
0.703288 0.138293 0.224674
0.706493 0.137057 0.241917
0.701869 0.128695 0.258793
0.709178 0.130632 0.286809
0.721279 0.137057 0.32076
0.732906 0.141543 0.364111
0.733455 0.138354 0.411017
0.729534 0.137407 0.44622
0.728298 0.136202 0.48368
0.718318 0.129992 0.513771
0.706325 0.119905 0.532403
0.0168307 0.0331579 0.0235904
0.0149844 0.0327306 0.0253452
0.0142672 0.0330816 0.0264744
0.0133516 0.0335393 0.0279698
0.0129702 0.0337224 0.0285649
0.0129702 0.0337224 0.0285496
0.0135195 0.0337987 0.0283055
0.0264744 0.0379797 0.0287327
0.0670329 0.0509651 0.0340276
0.10457 0.059678 0.0392004
0.14284 0.0656901 0.043183
0.18706 0.0682841 0.0463569
0.237675 0.0687572 0.0512703
0.294194 0.0677348 0.0578775
0.350515 0.0678264 0.0669261
0.409216 0.0699931 0.0801099
0.45716 0.0706951 0.0886091
0.508339 0.0699626 0.0966201
0.56141 0.0724041 0.105104
0.613519 0.0805676 0.129732
0.667262 0.106432 0.172473
0.692988 0.128176 0.201709
0.703395 0.136355 0.221592
0.709316 0.139284 0.241062
0.702007 0.128679 0.257649
0.709606 0.130602 0.286656
0.72195 0.137041 0.321431
0.733593 0.141253 0.367102
0.736385 0.13727 0.417639
0.737026 0.134966 0.458137
0.731289 0.134798 0.491981
0.716808 0.129122 0.51693
0.706828 0.120165 0.532296
0.0246586 0.0578622 0.0379034
0.0213474 0.0563516 0.0334936
0.0198215 0.0555734 0.0338598
0.0175326 0.0479896 0.032578
0.0153201 0.0406806 0.0306249
0.0139162 0.0355993 0.0287327
0.0157321 0.0372473 0.0293126
0.0338293 0.049424 0.0343938
0.0702831 0.0659953 0.041062
0.109422 0.0743114 0.0456245
0.148119 0.0758679 0.0487068
0.190768 0.0776837 0.0505531
0.236728 0.0766155 0.0532387
0.289235 0.07187 0.058381
0.349355 0.0685283 0.0665904
0.408423 0.0694896 0.0783856
0.461982 0.0707256 0.0893416
0.514168 0.0702678 0.0976577
0.567514 0.0727398 0.10605
0.612528 0.0778668 0.115663
0.651576 0.0924086 0.155367
0.686549 0.120394 0.192126
0.703716 0.133318 0.216709
0.713939 0.139879 0.239567
0.703548 0.128344 0.254673
0.709514 0.129885 0.283726
0.721523 0.136431 0.319493
0.733913 0.141344 0.365255
0.736751 0.137209 0.417258
0.738613 0.1346 0.460655
0.736568 0.132769 0.500267
0.723217 0.126238 0.52755
0.712413 0.120012 0.535912
0.0347906 0.101503 0.0710918
0.0319982 0.104753 0.0565499
0.0312352 0.111238 0.051194
0.0296941 0.109514 0.0511025
0.0267491 0.0979171 0.0478828
0.0277562 0.0823987 0.0433661
0.0345006 0.0745556 0.040238
0.0552834 0.0808423 0.0429541
0.0871901 0.096437 0.0503243
0.124956 0.105638 0.0591135
0.164981 0.107012 0.0623636
0.207706 0.100786 0.062623
0.252033 0.0962387 0.0632792
0.292882 0.0906539 0.06421
0.337148 0.0814374 0.0676738
0.399069 0.0708476 0.0750134
0.462135 0.0701457 0.08748
0.517968 0.0703899 0.0981003
0.571603 0.0731823 0.106798
0.614832 0.0783093 0.115343
0.628336 0.0809033 0.121843
0.66363 0.103563 0.168673
0.696239 0.129168 0.20528
0.712352 0.137575 0.230701
0.710307 0.13138 0.250095
0.712139 0.127749 0.277745
0.723171 0.133272 0.314351
0.736385 0.140063 0.360601
0.739284 0.136828 0.414618
0.739681 0.13431 0.458595
0.742947 0.131258 0.504967
0.732952 0.123964 0.538201
0.727504 0.117845 0.551217
0.0353857 0.13994 0.105241
0.0351415 0.144625 0.0854047
0.0379034 0.150744 0.0694591
0.0400549 0.15462 0.0620432
0.0405585 0.150393 0.0610361
0.0380255 0.138293 0.0578164
0.0453346 0.127657 0.0545968
0.0635386 0.128786 0.0527504
0.102113 0.131609 0.055787
0.134417 0.139544 0.0614023
0.181537 0.144152 0.0720226
0.229557 0.1402 0.0766308
0.277913 0.131502 0.0795911
0.325048 0.121614 0.0829786
0.365759 0.113832 0.0834363
0.400885 0.0998245 0.0831159
0.436454 0.0831159 0.0836652
0.497841 0.0717784 0.0919203
0.563256 0.0747387 0.104845
0.608362 0.0806439 0.114961
0.618494 0.0826429 0.117617
0.618372 0.0829938 0.119463
0.660517 0.110338 0.172686
0.696376 0.132784 0.210758
0.712169 0.13698 0.238743
0.707713 0.12726 0.261936
0.717662 0.130083 0.298589
0.735378 0.140185 0.344915
0.741314 0.137072 0.404608
0.744564 0.133074 0.455787
0.746944 0.130953 0.502052
0.738018 0.124529 0.537926
0.73402 0.119448 0.551522
0.0424964 0.175616 0.130709
0.0407263 0.181933 0.106828
0.0417487 0.18819 0.0917372
0.0448005 0.19498 0.0727092
0.0492561 0.197086 0.0660563
0.050721 0.193118 0.0653391
0.0487831 0.17998 0.0639963
0.0496834 0.171283 0.0613413
0.0795148 0.174456 0.0588998
0.136019 0.178546 0.0629587
0.182788 0.184604 0.0682231
0.24683 0.188403 0.0816205
0.307637 0.183749 0.0919203
0.364553 0.176272 0.0999313
0.416602 0.165301 0.107134
0.461631 0.152758 0.11017
0.493019 0.137057 0.108766
0.517494 0.116426 0.106462
0.542275 0.0890822 0.102281
0.59205 0.0782177 0.108537
0.617838 0.0825666 0.116777
0.618006 0.0827497 0.117601
0.614923 0.0834669 0.117388
0.646693 0.10425 0.162615
0.696208 0.133684 0.211917
0.71281 0.136431 0.24477
0.711269 0.12784 0.275685
0.725643 0.134615 0.320806
0.739666 0.13904 0.380316
0.744198 0.133989 0.44036
0.749294 0.131167 0.490761
0.745586 0.125612 0.535637
0.74374 0.120455 0.553017
0.0465553 0.216831 0.149401
0.0439002 0.225086 0.128115
0.0445258 0.231434 0.11281
0.0459907 0.238392 0.0970474
0.0501411 0.244648 0.0763409
0.0555886 0.246143 0.065156
0.0586099 0.244312 0.0657206
0.0586862 0.23624 0.0661021
0.0565347 0.221485 0.0623331
0.0778821 0.224002 0.0634318
0.163485 0.233646 0.0659495
0.237385 0.238148 0.0691234
0.322026 0.242802 0.0843977
0.393652 0.236683 0.102022
0.457938 0.228122 0.115465
0.516335 0.218647 0.126055
0.564202 0.201846 0.133776
0.603571 0.188083 0.136385
0.632349 0.17023 0.134936
0.643565 0.143206 0.131426
0.631815 0.10367 0.121614
0.618128 0.082826 0.113985
0.617014 0.0828412 0.116564
0.613123 0.0839094 0.117189
0.61973 0.0885176 0.137377
0.69012 0.131456 0.206195
0.713436 0.136263 0.247715
0.714244 0.128801 0.287144
0.734722 0.13991 0.342519
0.743145 0.136065 0.413413
0.748501 0.131533 0.471107
0.749783 0.128191 0.521385
0.749538 0.123552 0.54403
0.0508888 0.263233 0.165377
0.0472725 0.273686 0.145449
0.0467689 0.281559 0.131838
0.0478676 0.289433 0.119432
0.0502785 0.297475 0.104967
0.0533608 0.304356 0.0856489
0.0560159 0.307744 0.0676432
0.0579385 0.308476 0.0675059
0.059617 0.304692 0.0676738
0.0608072 0.281224 0.0674601
0.0723735 0.281819 0.0677043
0.187747 0.297536 0.0666056
0.296971 0.299489 0.0647288
0.398413 0.307881 0.0760357
0.481498 0.298878 0.102266
0.55314 0.288624 0.122545
0.614069 0.275792 0.139727
0.664927 0.264546 0.150637
0.707439 0.243793 0.161334
0.736187 0.228565 0.164279
0.745281 0.210193 0.164492
0.728878 0.182712 0.157809
0.680552 0.136995 0.139712
0.622553 0.0844587 0.115663
0.615152 0.0833448 0.116594
0.611749 0.0849165 0.121691
0.676112 0.125338 0.191745
0.712398 0.1355 0.245991
0.717281 0.129946 0.296483
0.739162 0.139071 0.366201
0.747173 0.133303 0.440909
0.752209 0.130068 0.497566
0.754131 0.126741 0.527733
0.0530556 0.317678 0.183108
0.0483711 0.331044 0.1635
0.0471199 0.340795 0.151095
0.0472419 0.350027 0.141314
0.0484016 0.35935 0.131579
0.0504005 0.368215 0.120653
0.0514534 0.377569 0.106798
0.0524147 0.38265 0.0781262
0.0524453 0.389441 0.0633402
0.052491 0.389319 0.0633555
0.0546883 0.360998 0.0653239
0.0632639 0.355779 0.0654765
0.21387 0.372641 0.0582895
0.358953 0.36936 0.0549477
0.468437 0.379919 0.0649729
0.561807 0.372305 0.0987106
0.636347 0.360418 0.127306
0.697398 0.345205 0.151614
0.747112 0.331762 0.167773
0.785412 0.318517 0.181003
0.8103 0.299138 0.194217
0.815625 0.27718 0.198306
0.797665 0.25275 0.188388
0.768887 0.221958 0.174029
0.717296 0.172335 0.153903
0.63624 0.100908 0.122881
0.609766 0.0846571 0.116686
0.642603 0.105196 0.160174
0.708034 0.133501 0.240345
0.721019 0.131121 0.304967
0.743893 0.137438 0.388907
0.750134 0.131411 0.462486
0.755611 0.129229 0.498589
0.0481117 0.386496 0.208301
0.0418097 0.402625 0.190585
0.0400397 0.414572 0.179522
0.0393225 0.426139 0.171511
0.0395819 0.437049 0.164294
0.041474 0.447761 0.157473
0.0431525 0.45774 0.150271
0.0434424 0.466926 0.141695
0.0439307 0.475868 0.12224
0.0464332 0.483009 0.0645151
0.046891 0.491081 0.0573281
0.0474556 0.458274 0.0583963
0.0649119 0.449363 0.0574655
0.257221 0.460014 0.0476234
0.422095 0.448783 0.0497902
0.532616 0.456092 0.0684367
0.626184 0.454597 0.100206
0.696773 0.440696 0.138018
0.757198 0.42414 0.163668
0.804623 0.405417 0.186084
0.839704 0.388525 0.204761
0.859861 0.375784 0.217304
0.855741 0.356863 0.216037
0.845273 0.331609 0.211856
0.827451 0.29456 0.204623
0.798138 0.253407 0.18851
0.738262 0.193561 0.16202
0.622065 0.0935836 0.117586
0.61178 0.0852522 0.123445
0.710979 0.137224 0.237278
0.725917 0.131563 0.312413
0.747616 0.135454 0.408103
0.753887 0.130678 0.458381
0.039765 0.472129 0.245045
0.0337682 0.489464 0.231662
0.0322118 0.501854 0.223102
0.0323491 0.51252 0.217319
0.0332036 0.522499 0.212238
0.0357671 0.532189 0.207996
0.0391241 0.540551 0.20354
0.0413977 0.54905 0.198688
0.0430457 0.558267 0.190524
0.0450599 0.568643 0.174624
0.0507973 0.573587 0.108766
0.059617 0.58529 0.0685588
0.0493782 0.548318 0.0602579
0.11165 0.546395 0.0544289
0.325887 0.543999 0.0491951
0.483497 0.527321 0.0556802
0.590875 0.527596 0.0836652
0.681941 0.52961 0.111711
0.750423 0.51928 0.148714
0.807492 0.502693 0.178088
0.852293 0.484672 0.203677
0.884932 0.46659 0.226093
0.888609 0.450065 0.230182
0.883635 0.428061 0.229374
0.875166 0.406683 0.224887
0.864012 0.377447 0.219852
0.846189 0.334173 0.211933
0.811215 0.270176 0.195819
0.720638 0.179446 0.155871
0.611185 0.0844739 0.117037
0.712581 0.136446 0.229908
0.728847 0.1308 0.31574
0.750042 0.13669 0.382086
0.0409247 0.562799 0.296223
0.0367895 0.576913 0.287236
0.0368963 0.587121 0.281239
0.0383764 0.596307 0.276936
0.039704 0.60444 0.273045
0.0416114 0.612192 0.270375
0.0452583 0.61854 0.266911
0.0506447 0.624002 0.263264
0.0543374 0.630076 0.257557
0.0581521 0.638834 0.248249
0.0630198 0.648997 0.230503
0.0749523 0.65156 0.156817
0.101808 0.661051 0.102785
0.0760662 0.625376 0.0839399
0.180713 0.631861 0.0687114
0.397436 0.622293 0.0594644
0.545602 0.599756 0.0695811
0.64799 0.593973 0.105043
0.735088 0.595743 0.133608
0.798444 0.591257 0.163897
0.851225 0.577813 0.198505
0.891981 0.562249 0.222416
0.901656 0.548669 0.229557
0.90045 0.531518 0.230274
0.898512 0.511177 0.231052
0.894835 0.484321 0.230838
0.888258 0.450492 0.229786
0.875792 0.407202 0.225391
0.851789 0.346761 0.213901
0.792447 0.249195 0.187289
0.667323 0.130587 0.136706
0.686458 0.120516 0.205921
0.728313 0.132738 0.27628
0.0576944 0.646082 0.356283
0.0542 0.658564 0.351385
0.0557565 0.666545 0.34789
0.0583963 0.673213 0.344732
0.0601968 0.6795 0.342077
0.0622568 0.685145 0.339269
0.0649424 0.690166 0.336568
0.0684825 0.693812 0.33315
0.0742046 0.696834 0.328008
0.0802472 0.702174 0.320546
0.0860914 0.709392 0.308659
0.0942702 0.718486 0.287709
0.114931 0.721141 0.202045
0.157519 0.73167 0.138888
0.13138 0.695399 0.117922
0.256199 0.708232 0.0931411
0.469856 0.691051 0.0808118
0.605524 0.665049 0.0935988
0.700755 0.65568 0.131518
0.782956 0.65745 0.163546
0.841672 0.655772 0.190173
0.888899 0.645502 0.220645
0.906264 0.635782 0.232975
0.905806 0.622858 0.232258
0.905119 0.607111 0.230991
0.904234 0.588113 0.230106
0.902754 0.562814 0.229725
0.899962 0.527932 0.23003
0.894011 0.47892 0.230457
0.877897 0.41796 0.225025
0.843687 0.325628 0.210407
0.738109 0.190112 0.163149
0.659968 0.114107 0.13785
0.083299 0.721736 0.42475
0.0849012 0.730037 0.422583
0.0883345 0.735561 0.420645
0.0914931 0.740703 0.419287
0.0941634 0.745159 0.41767
0.0960708 0.749111 0.415671
0.098146 0.752422 0.41326
0.100221 0.754971 0.409552
0.103349 0.756786 0.403632
0.108751 0.75877 0.395056
0.115145 0.761761 0.383185
0.122347 0.768841 0.366613
0.135821 0.780377 0.339666
0.155093 0.786358 0.237568
0.204807 0.796063 0.170428
0.191592 0.765209 0.147494
0.338888 0.774411 0.125048
0.539162 0.750546 0.114061
0.66215 0.724269 0.127993
0.748577 0.712459 0.16437
0.824674 0.714046 0.19501
0.880507 0.712764 0.217929
0.908522 0.707637 0.233951
0.908751 0.697459 0.235645
0.908003 0.685969 0.234928
0.907469 0.671733 0.23447
0.906966 0.654521 0.234028
0.90605 0.631449 0.232685
0.904936 0.599527 0.23061
0.90219 0.554467 0.229816
0.895781 0.49305 0.230167
0.876967 0.410315 0.225376
0.856718 0.358022 0.215244
0.112673 0.787854 0.494362
0.114809 0.793469 0.493339
0.123262 0.796063 0.491951
0.129473 0.798505 0.490761
0.132326 0.801389 0.489601
0.133654 0.804471 0.488151
0.134478 0.806302 0.485771
0.135378 0.807935 0.482521
0.136507 0.80943 0.477821
0.138689 0.810376 0.470039
0.142382 0.810559 0.457282
0.147738 0.812985 0.44007
0.15523 0.820951 0.41857
0.177371 0.837263 0.383093
0.197543 0.847471 0.254704
0.229175 0.837217 0.1879
0.266423 0.830427 0.174014
0.421607 0.832059 0.159457
0.603159 0.802396 0.150896
0.713268 0.776532 0.163287
0.793759 0.764172 0.199023
0.859297 0.765927 0.225269
0.91249 0.764355 0.24538
0.916609 0.756436 0.246983
0.914855 0.747784 0.243885
0.912978 0.737621 0.240879
0.911025 0.725475 0.237903
0.90901 0.710918 0.235325
0.907698 0.689464 0.234226
0.906538 0.661112 0.233433
0.905104 0.624323 0.23061
0.901991 0.572915 0.228183
0.899443 0.540383 0.227497
0.142412 0.842954 0.557549
0.145022 0.846998 0.556802
0.149233 0.849317 0.555825
0.155337 0.850202 0.554376
0.163317 0.850446 0.552926
0.168704 0.850706 0.551141
0.170886 0.85153 0.549004
0.171786 0.852293 0.54609
0.171969 0.852949 0.541878
0.172045 0.853651 0.535698
0.172351 0.853681 0.525704
0.175036 0.853559 0.510521
0.180316 0.856199 0.489052
0.187488 0.864256 0.461357
0.220859 0.887617 0.418647
0.254337 0.902083 0.259327
0.269108 0.885588 0.212543
0.345251 0.884459 0.202029
0.500679 0.877913 0.19324
0.660243 0.847227 0.186358
0.760662 0.823941 0.196765
0.834073 0.812589 0.232822
0.884779 0.809522 0.255665
0.926207 0.809949 0.269123
0.92575 0.800855 0.266285
0.923888 0.791714 0.262135
0.921859 0.781033 0.257832
0.919387 0.768719 0.252491
0.916457 0.754711 0.246662
0.912749 0.738003 0.240543
0.908736 0.717311 0.234546
0.9066 0.688045 0.232593
0.906081 0.672999 0.232242
0.172534 0.886397 0.613443
0.174609 0.889143 0.613001
0.177676 0.89073 0.612055
0.180713 0.892012 0.6112
0.181689 0.893462 0.610056
0.182162 0.894682 0.608438
0.183291 0.895354 0.60679
0.186297 0.894774 0.603861
0.191516 0.893416 0.599695
0.196155 0.891859 0.593912
0.198001 0.890593 0.585351
0.197269 0.890791 0.573785
0.197818 0.891554 0.555978
0.202182 0.894652 0.528954
0.210224 0.904662 0.495537
0.237156 0.918318 0.432868
0.274464 0.90837 0.2392
0.29427 0.909606 0.225437
0.406104 0.920363 0.224292
0.573938 0.914168 0.222843
0.714321 0.887633 0.219425
0.804364 0.867399 0.229755
0.870771 0.856489 0.267231
0.914672 0.852735 0.284077
0.931182 0.847028 0.292622
0.929702 0.839017 0.288777
0.930297 0.831754 0.283803
0.930755 0.824002 0.278141
0.927977 0.811185 0.271397
0.924422 0.79678 0.263386
0.92015 0.781033 0.254322
0.916197 0.763775 0.246036
0.914611 0.756771 0.243549
0.19678 0.915419 0.664042
0.198245 0.917281 0.663539
0.199954 0.917113 0.662165
0.201831 0.916609 0.660853
0.201892 0.916686 0.659113
0.201312 0.917037 0.65745
0.200763 0.917327 0.655406
0.200565 0.917556 0.652781
0.200488 0.917845 0.649744
0.200809 0.91812 0.644785
0.20354 0.9178 0.637507
0.209308 0.916625 0.62739
0.213535 0.916472 0.61387
0.215152 0.918685 0.593805
0.213733 0.92015 0.560891
0.209049 0.919554 0.512764
0.222278 0.917891 0.406821
0.279744 0.908736 0.232486
0.323781 0.913161 0.225193
0.458549 0.924163 0.225238
0.637613 0.928771 0.239078
0.763455 0.921126 0.253437
0.842954 0.904875 0.26389
0.902998 0.895293 0.30222
0.937545 0.89131 0.315068
0.941863 0.885161 0.316243
0.940169 0.87747 0.312566
0.937362 0.867918 0.307759
0.933181 0.856962 0.301305
0.929397 0.845838 0.293202
0.929091 0.837217 0.282856
0.928801 0.826703 0.273732
0.927733 0.822385 0.27129
0.198291 0.911665 0.698024
0.198566 0.911772 0.697154
0.200046 0.911437 0.696315
0.201968 0.91104 0.695384
0.202289 0.911238 0.694331
0.201862 0.911772 0.692958
0.201572 0.912276 0.691478
0.201602 0.912764 0.689555
0.201587 0.913344 0.687068
0.201678 0.914244 0.682994
0.20174 0.915404 0.677409
0.20148 0.916793 0.669383
0.201678 0.918288 0.657649
0.205173 0.918868 0.640192
0.208011 0.920027 0.616754
0.204013 0.924102 0.5785
0.199313 0.923064 0.519036
0.215518 0.916793 0.381735
0.259083 0.909117 0.253925
0.37142 0.918593 0.224979
0.520378 0.927016 0.228916
0.68365 0.928923 0.244083
0.796597 0.931945 0.272084
0.875837 0.930236 0.296269
0.927459 0.925353 0.337087
0.948577 0.921538 0.343847
0.948211 0.916609 0.340307
0.947585 0.910567 0.335943
0.946242 0.903029 0.330037
0.944091 0.894255 0.322438
0.94049 0.88455 0.313283
0.936431 0.873854 0.305303
0.935393 0.871443 0.304097
0.197665 0.90399 0.725612
0.197879 0.904036 0.725185
0.199664 0.903609 0.724315
0.200565 0.903532 0.723537
0.200534 0.903807 0.722759
0.200305 0.904219 0.721782
0.200061 0.904692 0.720684
0.200473 0.904921 0.719585
0.202914 0.904814 0.71696
0.206348 0.90454 0.71342
0.208286 0.905135 0.709178
0.208698 0.906554 0.70396
0.207401 0.908873 0.695933
0.206394 0.912047 0.684565
0.206699 0.915343 0.666728
0.206455 0.918517 0.638804
0.207507 0.923018 0.594965
0.206439 0.92108 0.525002
0.220462 0.915038 0.40209
0.2392 0.907988 0.298131
0.418784 0.924437 0.259968
0.591043 0.928985 0.254795
0.73106 0.92813 0.262577
0.826886 0.931243 0.288563
0.900359 0.933974 0.320455
0.945953 0.939681 0.374533
0.956283 0.939742 0.383322
0.956191 0.934981 0.37908
0.955657 0.929366 0.372442
0.953902 0.923644 0.363668
0.951278 0.918303 0.353948
0.949004 0.912215 0.34638
0.948791 0.910903 0.346639
0.209461 0.89189 0.745281
0.208637 0.892256 0.745312
0.205081 0.893568 0.745953
0.2009 0.895171 0.746578
0.199207 0.89601 0.746319
0.199161 0.896315 0.745541
0.199298 0.896513 0.744778
0.199847 0.89662 0.743893
0.201602 0.896513 0.742
0.204517 0.896254 0.73933
0.206165 0.896681 0.736233
0.206439 0.897993 0.732448
0.20531 0.900343 0.727153
0.204303 0.903273 0.719783
0.204562 0.90663 0.708827
0.205035 0.910887 0.691905
0.205844 0.916365 0.661585
0.207004 0.921004 0.611612
0.206683 0.921523 0.532403
0.215915 0.918898 0.434516
0.288289 0.92636 0.338277
0.470176 0.938857 0.296162
0.63682 0.939101 0.286809
0.769848 0.937041 0.299504
0.863981 0.938399 0.331258
0.926452 0.941253 0.376211
0.955352 0.944259 0.414496
0.95639 0.944106 0.415641
0.95729 0.943664 0.416541
0.957977 0.943679 0.416556
0.957794 0.944442 0.414527
0.958083 0.944884 0.413535
0.95761 0.943725 0.411841
0.209903 0.885466 0.765637
0.209079 0.885817 0.765652
0.205539 0.887083 0.766522
0.201282 0.888685 0.767315
0.199451 0.889448 0.767559
0.199115 0.889738 0.766979
0.199344 0.88986 0.766262
0.200198 0.88983 0.765042
0.202258 0.889525 0.763027
0.204578 0.889204 0.760632
0.205829 0.889494 0.75819
0.205722 0.890517 0.755276
0.204288 0.892103 0.751873
0.202655 0.894179 0.747082
0.202548 0.896681 0.740581
0.203235 0.900145 0.730144
0.204089 0.905257 0.714061
