bundles/resolve-cinematic-luts/Phantom Luts/Apple Log Phantom LUTS/iPhone 15 Phantom Movie LUTs/33x/Eterna iPhone_15_33x.cube
TITLE "Generated by Resolve"
LUT_3D_SIZE 9
0.0127413 0.0338598 0.0287327
0.0114443 0.0345312 0.0303197
0.13817 0.0562295 0.0655833
0.282628 0.0766308 0.0982528
0.464256 0.108659 0.151324
0.687282 0.135805 0.225757
0.706661 0.131426 0.285267
0.725917 0.141115 0.394781
0.718395 0.126787 0.52369
0.0145724 0.032929 0.0259861
0.0112917 0.0346075 0.0306249
0.0871138 0.0466621 0.0335851
0.257237 0.0611124 0.0525521
0.449027 0.0708782 0.0872206
0.679911 0.125856 0.192721
0.700557 0.129076 0.259724
0.726848 0.140505 0.401022
0.706935 0.120348 0.531884
0.0347906 0.101503 0.0710918
0.0267491 0.0979171 0.0478828
0.0871901 0.096437 0.0503243
0.252033 0.0962387 0.0632792
0.462135 0.0701457 0.08748
0.628336 0.0809033 0.121843
0.710307 0.13138 0.250095
0.739284 0.136828 0.414618
0.727504 0.117845 0.551217
0.0508888 0.263233 0.165377
0.0502785 0.297475 0.104967
0.059617 0.304692 0.0676738
0.296971 0.299489 0.0647288
0.614069 0.275792 0.139727
0.745281 0.210193 0.164492
0.615152 0.0833448 0.116594
0.717281 0.129946 0.296483
0.754131 0.126741 0.527733
0.0409247 0.562799 0.296223
0.039704 0.60444 0.273045
0.0543374 0.630076 0.257557
0.101808 0.661051 0.102785
0.545602 0.599756 0.0695811
0.851225 0.577813 0.198505
0.898512 0.511177 0.231052
0.851789 0.346761 0.213901
0.728313 0.132738 0.27628
0.142412 0.842954 0.557549
0.163317 0.850446 0.552926
0.171969 0.852949 0.541878
0.180316 0.856199 0.489052
0.269108 0.885588 0.212543
0.760662 0.823941 0.196765
0.92575 0.800855 0.266285
0.916457 0.754711 0.246662
0.906081 0.672999 0.232242
0.197665 0.90399 0.725612
0.200534 0.903807 0.722759
0.202914 0.904814 0.71696
0.207401 0.908873 0.695933
0.207507 0.923018 0.594965
0.418784 0.924437 0.259968
0.900359 0.933974 0.320455
0.955657 0.929366 0.372442
0.948791 0.910903 0.346639
0.212085 0.874983 0.813962
0.203967 0.877806 0.816312
0.203861 0.878431 0.812894
0.207523 0.879103 0.800702
0.203845 0.88513 0.77702
0.204623 0.914382 0.677516
0.657404 0.950301 0.479393
0.962234 0.951324 0.595911
0.963516 0.950484 0.596277
0.228275 0.863508 0.845563
0.220203 0.866423 0.847318
0.218601 0.867155 0.846372
0.22385 0.865919 0.841306
0.227314 0.866194 0.830533
0.204852 0.87921 0.806134
0.367727 0.951614 0.669169
0.940551 0.954772 0.728054
0.966781 0.957153 0.75996
0.0112764 0.0346227 0.0306554
0.0105135 0.0350652 0.032105
0.152377 0.0500954 0.118227
0.296437 0.0682536 0.175051
0.478416 0.0960098 0.193332
0.700252 0.117464 0.263188
0.726513 0.131212 0.313603
0.745007 0.134859 0.424933
0.736049 0.119875 0.551431
0.0121767 0.034165 0.0290532
0.00978103 0.0354009 0.0331121
0.147463 0.0538643 0.0556344
0.30634 0.0771038 0.100694
0.487572 0.104036 0.154574
0.707469 0.134829 0.229603
0.716381 0.128252 0.288151
0.735546 0.137026 0.423911
0.712764 0.113802 0.54905
0.0350042 0.120241 0.0996719
0.0303655 0.127108 0.0771344
0.113024 0.116075 0.0580453
0.270405 0.087068 0.0615702
0.46978 0.075227 0.0994125
0.697215 0.123796 0.197726
0.719646 0.124681 0.271733
0.748821 0.133379 0.434394
0.723445 0.11516 0.554406
0.05066 0.258595 0.180224
0.0514992 0.282994 0.1449
0.0573739 0.307652 0.0988174
0.300099 0.304311 0.0638285
0.607172 0.2748 0.138262
0.748837 0.218982 0.166217
0.622522 0.0867018 0.127016
0.723339 0.130449 0.306401
0.752117 0.125521 0.535241
0.0391699 0.545907 0.298894
0.0339818 0.57644 0.279728
0.0453498 0.600641 0.261707
0.074464 0.638911 0.117098
0.538003 0.591272 0.0686351
0.843442 0.573571 0.193713
0.898802 0.516426 0.230579
0.858518 0.364019 0.217304
0.727092 0.127108 0.293202
0.135561 0.8318 0.553918
0.15317 0.837171 0.547753
0.161318 0.837491 0.532677
0.171618 0.842206 0.478401
0.26215 0.87808 0.208209
0.757946 0.817655 0.19411
0.924575 0.795834 0.263706
0.916274 0.753399 0.246372
0.905669 0.666362 0.23151
0.197711 0.904692 0.723491
0.200732 0.904677 0.719844
0.205005 0.905501 0.712032
0.207568 0.910918 0.687861
0.207538 0.922683 0.593317
0.401251 0.92871 0.292699
0.902571 0.937194 0.340124
0.957305 0.927398 0.387762
0.950744 0.908629 0.36553
0.211276 0.876036 0.809705
0.203296 0.879042 0.810697
0.206409 0.87866 0.805661
0.206683 0.880629 0.793637
0.203479 0.886687 0.771374
0.204639 0.91339 0.681422
0.650385 0.950286 0.49276
0.9626 0.951751 0.607141
0.963775 0.950912 0.606668
0.228595 0.86305 0.847807
0.2206 0.865965 0.849454
0.218891 0.866789 0.848203
0.22707 0.864729 0.840909
0.227237 0.8663 0.829953
0.204776 0.879286 0.80589
0.341802 0.945556 0.671046
0.93727 0.954696 0.731106
0.966995 0.957305 0.765423
0.0125124 0.0341039 0.0590066
0.0536049 0.0375372 0.0577859
0.170291 0.0504616 0.141756
0.296849 0.0618448 0.194339
0.479347 0.0967422 0.227222
0.694453 0.118273 0.275959
0.736461 0.132372 0.329259
0.745205 0.134417 0.430808
0.736263 0.120211 0.550942
0.0120851 0.0343175 0.0296635
0.0116121 0.0341192 0.0784619
0.1673 0.0514076 0.130129
0.317006 0.0728161 0.135897
0.482963 0.0975967 0.175204
0.694286 0.127733 0.240482
0.721874 0.130678 0.306371
0.735058 0.136461 0.434592
0.711391 0.113252 0.55256
0.0369879 0.123812 0.113283
0.0331731 0.127291 0.116152
0.107027 0.112825 0.105669
0.289586 0.102403 0.113481
0.523781 0.109438 0.180514
0.729534 0.133425 0.237995
0.727275 0.127321 0.302739
0.748272 0.132128 0.455802
0.712978 0.110338 0.559289
0.0500801 0.250034 0.196124
0.0491035 0.272023 0.182589
0.0584421 0.286839 0.150149
0.297429 0.298054 0.0960403
0.611963 0.276905 0.18117
0.768688 0.245945 0.216297
0.7093 0.141955 0.207752
0.731441 0.134966 0.329152
0.746654 0.121736 0.549874
0.0381628 0.521416 0.317861
0.0316777 0.547158 0.309255
0.0399023 0.567834 0.288212
0.0518502 0.617746 0.202426
0.52697 0.575219 0.0678874
0.82945 0.561807 0.213977
0.915297 0.518959 0.269245
0.892439 0.386435 0.277592
0.737591 0.131991 0.330129
0.126574 0.813779 0.565499
0.143572 0.814588 0.557595
0.145937 0.812039 0.534905
0.153903 0.815305 0.472587
0.185107 0.845258 0.244846
0.743389 0.797635 0.184665
0.931609 0.780392 0.29073
0.929793 0.744183 0.286839
0.929839 0.655924 0.295155
0.197574 0.90248 0.730037
0.200763 0.90251 0.726406
0.206302 0.903777 0.715892
0.207507 0.911406 0.685924
0.207782 0.922805 0.585504
0.381476 0.932769 0.332708
0.903471 0.940764 0.364752
0.957732 0.923903 0.418723
0.954681 0.901152 0.40737
0.211887 0.875593 0.81091
0.203326 0.878935 0.81117
0.202625 0.880293 0.805051
0.206424 0.881407 0.789899
0.203235 0.888273 0.765713
0.206577 0.913283 0.6766
0.639368 0.950927 0.508064
0.963134 0.952239 0.621973
0.964309 0.951659 0.624369
0.229511 0.861936 0.853666
0.221317 0.864713 0.85565
0.219562 0.86569 0.853849
0.229252 0.86334 0.844129
0.227543 0.865873 0.832135
0.204761 0.879179 0.806424
0.309316 0.944854 0.677287
0.931746 0.954833 0.735775
0.967269 0.957443 0.774517
0.0169528 0.0317388 0.168475
0.1682 0.0444953 0.234745
0.216464 0.0475166 0.207645
0.313222 0.0585489 0.223331
0.498375 0.099794 0.265553
0.710521 0.122835 0.302129
0.749355 0.137377 0.361776
0.749111 0.131792 0.458396
0.729595 0.115694 0.557092
0.0251011 0.0710155 0.106142
0.0138094 0.0345617 0.177798
0.163455 0.04477 0.261143
0.32221 0.0605325 0.221012
0.497932 0.0978256 0.21767
0.707835 0.12108 0.281376
0.742885 0.139879 0.356146
0.742901 0.133242 0.471366
0.710201 0.112383 0.561074
0.0399023 0.139361 0.141665
0.0350042 0.138109 0.169299
0.0306249 0.100313 0.203189
0.293477 0.0804608 0.207538
0.529671 0.102205 0.259617
0.737942 0.124971 0.313848
0.752636 0.135683 0.38851
0.748272 0.130648 0.503182
0.708751 0.114946 0.570626
0.0505379 0.24303 0.219043
0.0488441 0.256428 0.226947
0.0568399 0.26244 0.234882
0.305684 0.30164 0.278737
0.654047 0.3028 0.309285
0.839979 0.281147 0.345785
0.777203 0.170153 0.323461
0.745769 0.133791 0.438331
0.727153 0.10753 0.574197
0.0389868 0.481422 0.354711
0.0312505 0.504509 0.367605
0.0332799 0.521935 0.373053
0.0375677 0.542992 0.305547
0.515801 0.568292 0.237629
0.851926 0.566247 0.358587
0.948196 0.547738 0.415427
0.932555 0.448569 0.414878
0.752667 0.132204 0.439155
0.122683 0.780011 0.590829
0.133425 0.778256 0.590936
0.131212 0.776028 0.578927
0.135286 0.78085 0.525719
0.133639 0.811292 0.398596
0.72958 0.792676 0.284581
0.9561 0.75874 0.434409
0.956344 0.736095 0.444083
0.956069 0.673075 0.453071
0.19704 0.896376 0.747677
0.199069 0.895979 0.74641
0.199496 0.89839 0.739422
0.210819 0.903639 0.710781
0.213153 0.917983 0.619562
0.36289 0.944717 0.46154
0.89485 0.938704 0.460014
0.961242 0.91487 0.530816
0.962875 0.891508 0.524727
0.214542 0.872679 0.821057
0.204898 0.876265 0.822568
0.203769 0.877867 0.81648
0.200855 0.881773 0.800519
0.203571 0.886809 0.770611
0.205509 0.912505 0.684428
0.61529 0.956283 0.565576
0.965133 0.953735 0.675074
0.96553 0.953857 0.682094
0.232074 0.860975 0.861692
0.222782 0.864027 0.864378
0.221927 0.864347 0.862806
0.223514 0.863935 0.857038
0.228717 0.863951 0.841657
0.204349 0.877714 0.815961
0.304906 0.939803 0.704372
0.921233 0.956252 0.759075
0.968399 0.958251 0.801175
0.0179446 0.0368505 0.32874
0.0572976 0.0413977 0.383154
0.232166 0.0535897 0.393164
0.378347 0.0623484 0.342657
0.52639 0.086305 0.349859
0.743099 0.133806 0.385245
0.753796 0.132036 0.437888
0.756054 0.127977 0.514122
0.721248 0.108568 0.577203
0.0245518 0.0872358 0.232532
0.0120699 0.0486458 0.288701
0.0476081 0.0406348 0.389029
0.364309 0.0605478 0.386419
0.519249 0.0822919 0.355657
0.743984 0.134539 0.388373
0.754025 0.130663 0.458076
0.740017 0.125246 0.535164
0.716182 0.113695 0.591134
0.0433967 0.151064 0.219242
0.0343328 0.121157 0.26038
0.0285496 0.0922866 0.307652
0.231693 0.0554208 0.349996
0.529564 0.0758679 0.392599
0.754406 0.130114 0.439506
0.758541 0.128145 0.49865
0.730983 0.112444 0.565026
0.719799 0.114458 0.61265
0.0515602 0.240742 0.259236
0.051667 0.24358 0.279072
0.0513924 0.250584 0.3122
0.118761 0.252384 0.369451
0.603555 0.22858 0.463523
0.838117 0.254749 0.475578
0.799664 0.170504 0.484489
0.738766 0.118563 0.555383
0.723781 0.111467 0.607797
0.0408179 0.455131 0.39791
0.0334325 0.470466 0.416663
0.0354162 0.483543 0.439475
0.0449378 0.483467 0.441535
0.5252 0.550652 0.514702
0.878157 0.564034 0.553887
0.961303 0.556451 0.589349
0.946578 0.455055 0.590616
0.729137 0.111147 0.568856
0.12488 0.739345 0.61088
0.119738 0.740276 0.617014
0.116442 0.735561 0.617334
0.113817 0.733608 0.598947
0.0897536 0.730968 0.522332
0.712032 0.77731 0.489921
0.966888 0.770825 0.600626
0.968521 0.762341 0.630045
0.969223 0.697383 0.638544
0.196109 0.889601 0.770245
0.20061 0.887236 0.769924
0.214008 0.88101 0.761288
0.211902 0.881514 0.743557
0.212207 0.896223 0.695308
0.432212 0.950545 0.619379
0.88365 0.926986 0.599374
0.965606 0.900893 0.66096
0.963836 0.880461 0.662348
0.212772 0.87013 0.840513
0.206882 0.872175 0.841794
0.205203 0.873549 0.837507
0.202487 0.876951 0.824537
0.200214 0.883345 0.792859
0.205905 0.899245 0.72015
0.664866 0.954147 0.698528
0.965331 0.957992 0.769024
0.968292 0.957275 0.781369
0.230976 0.861097 0.873274
0.229831 0.861463 0.873579
0.228107 0.862043 0.872908
0.22652 0.862654 0.869383
0.222156 0.864302 0.862333
0.207553 0.874128 0.828901
0.393118 0.932372 0.764782
0.910033 0.958633 0.811307
0.969573 0.960235 0.851301
0.0139315 0.0405127 0.463798
0.0271916 0.0444495 0.516594
0.171893 0.0572824 0.574029
0.36643 0.0663157 0.549233
0.599634 0.0793164 0.517037
0.752499 0.12372 0.542077
0.745327 0.120745 0.551141
0.727825 0.107683 0.574716
0.735622 0.108034 0.631434
0.0269322 0.109209 0.401434
0.0285039 0.0994736 0.447013
0.0268254 0.0807202 0.495506
0.182864 0.0532235 0.483574
0.602594 0.078172 0.556848
0.742596 0.117708 0.554284
0.732921 0.112963 0.564736
0.727443 0.108553 0.599329
0.72871 0.114183 0.650828
0.0395209 0.147646 0.353277
0.0417334 0.137255 0.390036
0.0419318 0.125795 0.446616
0.10045 0.113939 0.462837
0.524208 0.0709087 0.527504
0.73373 0.107546 0.573678
0.727306 0.105669 0.580728
0.732372 0.109026 0.625452
0.730205 0.115434 0.675608
0.0465095 0.257649 0.3608
0.0536049 0.2542 0.392248
0.0557259 0.259648 0.447929
0.0538338 0.250126 0.506874
0.497063 0.230152 0.617075
0.777157 0.190463 0.612406
0.801328 0.170214 0.598535
0.727764 0.109865 0.612421
0.735836 0.11249 0.675608
0.0339055 0.467811 0.493065
0.0360876 0.47599 0.512566
0.0466011 0.485573 0.535454
0.0438087 0.495384 0.575067
0.352071 0.509529 0.63447
0.829007 0.466636 0.694865
0.957809 0.495979 0.695277
0.938979 0.393072 0.705501
0.759579 0.128817 0.633539
0.10573 0.726436 0.673091
0.118257 0.715114 0.669337
0.116472 0.707515 0.67155
0.111345 0.701747 0.670085
0.0826429 0.66479 0.62417
0.718608 0.754406 0.719463
0.969497 0.765652 0.754879
0.969589 0.744945 0.772122
0.9691 0.661387 0.780072
0.200473 0.877211 0.797681
0.210758 0.869368 0.793072
0.210651 0.86157 0.788602
0.203525 0.854353 0.775982
0.182879 0.860746 0.758007
0.42623 0.886976 0.731716
0.877363 0.913008 0.733791
0.965362 0.893263 0.786191
0.96466 0.887205 0.802762
0.212314 0.867674 0.861295
0.206394 0.86949 0.863645
0.20824 0.869276 0.860182
0.208698 0.869917 0.852659
0.200916 0.876478 0.830442
0.207538 0.877989 0.762005
0.718807 0.954818 0.811948
0.96759 0.960922 0.861234
0.96643 0.96318 0.880339
0.222126 0.87361 0.906264
0.234928 0.8692 0.901076
0.237766 0.868376 0.899519
0.23209 0.866499 0.893217
0.217899 0.865553 0.884321
0.205158 0.870558 0.857649
0.543557 0.924147 0.840574
0.912245 0.960143 0.878325
0.965576 0.96524 0.911803
0.0442512 0.171206 0.622324
0.0518959 0.203021 0.653193
0.0559243 0.196201 0.664973
0.162478 0.144488 0.634791
0.546181 0.0764935 0.647623
0.73933 0.108934 0.655818
0.730663 0.111864 0.639933
0.735515 0.111391 0.659175
0.741863 0.111696 0.703151
0.0447242 0.196094 0.6009
0.0498512 0.227161 0.64007
0.0585794 0.238911 0.675349
0.079408 0.228885 0.677928
0.502068 0.153063 0.70396
0.727993 0.105455 0.643641
0.735897 0.111742 0.66807
0.736843 0.113375 0.692332
0.738888 0.114702 0.734493
0.0438392 0.212436 0.568276
0.049424 0.232502 0.606989
0.0610361 0.236194 0.639094
0.0590219 0.24213 0.656672
0.429969 0.224628 0.739132
0.746822 0.142168 0.686946
0.739727 0.111727 0.68957
0.739101 0.113359 0.70663
0.736568 0.115755 0.734218
0.0420996 0.309163 0.562997
0.0479133 0.315648 0.60296
0.0569467 0.316121 0.644419
0.0606088 0.328206 0.68304
0.321614 0.329915 0.722896
0.772457 0.243259 0.757916
0.821698 0.18912 0.702586
0.73846 0.110552 0.6692
0.739467 0.114565 0.737026
0.040238 0.515831 0.623346
0.0470588 0.519585 0.641077
0.0590982 0.519539 0.659419
0.0629892 0.523308 0.692439
0.155444 0.494102 0.696254
0.723445 0.487098 0.837736
0.933181 0.404883 0.785534
0.927291 0.358892 0.772778
0.85684 0.224369 0.742168
0.124666 0.720088 0.737621
0.121798 0.715221 0.739986
0.12752 0.701976 0.732219
0.13695 0.69041 0.728206
0.103624 0.663722 0.72607
0.611322 0.717449 0.828138
0.952712 0.686503 0.854414
0.96968 0.67068 0.852567
0.958801 0.572183 0.853056
0.203449 0.862211 0.836713
0.19527 0.857588 0.837354
0.205493 0.842023 0.825086
0.197253 0.831342 0.816281
0.176822 0.831586 0.815518
0.44155 0.832486 0.803571
0.87837 0.898894 0.873335
0.972366 0.893828 0.882048
0.968811 0.880156 0.891691
0.207202 0.868849 0.881559
0.209186 0.868177 0.880156
0.221241 0.864271 0.872786
0.223011 0.863844 0.867964
0.204211 0.87013 0.865461
0.261158 0.87631 0.819333
0.738598 0.94313 0.890745
0.96614 0.964843 0.92723
0.965942 0.967086 0.941268
0.217838 0.8757 0.912047
0.222599 0.874144 0.910079
0.224277 0.873594 0.909331
0.223331 0.873899 0.909789
0.218036 0.875639 0.911971
0.202136 0.86305 0.872374
0.645304 0.913252 0.893751
0.93164 0.962402 0.93666
0.966461 0.967636 0.94905
0.0775921 0.358053 0.769421
0.0846113 0.408316 0.791318
0.0860761 0.423865 0.788983
0.135088 0.424216 0.814725
0.447211 0.350958 0.863828
0.783886 0.221607 0.810208
0.741955 0.112413 0.714183
0.739162 0.114778 0.7393
0.739162 0.114778 0.7393
0.0716259 0.34966 0.753902
0.0817731 0.393606 0.783093
0.0892653 0.444587 0.798291
0.0892805 0.456062 0.795377
0.397086 0.449683 0.86331
0.790143 0.308873 0.871412
0.838499 0.210666 0.794186
0.739116 0.114794 0.739208
0.739055 0.114824 0.739086
0.0648661 0.339605 0.734417
0.074342 0.378485 0.763745
0.0852064 0.41706 0.791028
0.0884108 0.439429 0.791196
0.331243 0.48101 0.852277
0.761975 0.381033 0.899519
0.889738 0.278874 0.839246
0.754406 0.127596 0.743191
0.738964 0.114855 0.738903
0.0597696 0.401831 0.730266
0.0700847 0.434424 0.756115
0.0829786 0.447639 0.783627
0.0949264 0.472435 0.79498
0.227634 0.481163 0.838407
0.678889 0.45922 0.917296
0.912367 0.331807 0.859739
0.856168 0.231235 0.801205
0.739162 0.114778 0.7393
0.0819562 0.570123 0.740215
0.0892042 0.580972 0.761563
0.0981918 0.580621 0.777478
0.10837 0.57673 0.788739
0.097612 0.548867 0.776165
0.560891 0.590127 0.894179
0.902159 0.470024 0.885512
0.918379 0.373693 0.837446
0.892271 0.27715 0.815747
0.145953 0.739147 0.804532
0.143359 0.736934 0.811612
0.145449 0.724163 0.808103
0.1514 0.707973 0.801358
0.139895 0.695781 0.809796
0.470115 0.704311 0.86273
0.875135 0.711955 0.94548
0.951217 0.623362 0.894804
0.944244 0.573404 0.886625
0.207279 0.857084 0.871489
0.198871 0.854261 0.872892
0.197818 0.842771 0.864805
0.198978 0.825788 0.851606
0.181613 0.819913 0.855207
0.303029 0.806073 0.849699
0.810575 0.872969 0.935943
0.969436 0.856199 0.936996
0.966781 0.839826 0.93843
0.217288 0.875761 0.91165
0.217655 0.875761 0.912093
0.218723 0.875105 0.909712
0.229465 0.867063 0.894438
0.208362 0.868498 0.887373
0.239902 0.863554 0.860533
0.73817 0.927932 0.927901
0.967559 0.967132 0.964126
0.968215 0.967758 0.966842
0.217472 0.875822 0.912154
0.217487 0.875822 0.912139
0.221286 0.874571 0.910628
0.218875 0.875364 0.911635
0.217655 0.875761 0.912093
0.206622 0.863462 0.890227
0.681514 0.917159 0.931456
0.946731 0.961471 0.962203
0.968872 0.969039 0.967178
0.103792 0.558404 0.80911
0.111757 0.605753 0.810147
0.15552 0.652003 0.824384
0.243717 0.674403 0.851255
0.432822 0.660197 0.869322
0.748837 0.579812 0.936095
0.92137 0.404303 0.890074
0.882445 0.271336 0.840955
0.739055 0.114824 0.739101
0.105058 0.555108 0.813764
0.108705 0.585931 0.811566
0.116396 0.629786 0.809094
0.216693 0.679454 0.847791
0.416114 0.691173 0.870329
0.740597 0.677867 0.942565
0.93286 0.516899 0.90988
0.918242 0.373678 0.882933
0.828916 0.203693 0.806806
0.0995651 0.524895 0.810117
0.109514 0.579858 0.816922
0.111482 0.6038 0.809369
0.169039 0.65391 0.82681
0.3682 0.691066 0.864179
0.714168 0.721447 0.932708
0.9411 0.59498 0.924559
0.925765 0.450584 0.897108
0.899199 0.298711 0.859785
0.102388 0.541497 0.812284
0.110552 0.584024 0.817441
0.112627 0.603449 0.813504
0.119783 0.627756 0.809155
0.267597 0.66949 0.852216
0.626276 0.712688 0.909682
0.919814 0.642237 0.935256
0.930266 0.491997 0.903685
0.912016 0.330495 0.874571
0.124437 0.644648 0.82504
0.129412 0.663523 0.827695
0.13312 0.673976 0.828702
0.134813 0.676219 0.827451
0.125139 0.658747 0.812985
0.503594 0.699779 0.886183
0.856123 0.706188 0.950637
0.938827 0.563775 0.917159
0.922972 0.419989 0.892836
0.165499 0.767376 0.859754
0.166217 0.768566 0.860761
0.164538 0.763684 0.858518
0.161685 0.75378 0.854505
0.14522 0.719432 0.835126
0.391516 0.73547 0.875654
0.785916 0.801541 0.940063
0.956558 0.724849 0.944427
0.945342 0.622568 0.929152
0.215457 0.871794 0.909651
0.213718 0.869505 0.908339
0.208377 0.86041 0.901305
0.199329 0.842908 0.886763
0.190234 0.826459 0.880674
0.261189 0.805661 0.87747
0.746792 0.864439 0.938842
0.959548 0.901274 0.957702
0.961456 0.850797 0.954574
0.217472 0.875822 0.912154
0.217472 0.875822 0.912154
0.217533 0.875807 0.912139
0.218784 0.875395 0.911665
0.217472 0.875822 0.912154
0.201053 0.854917 0.875257
0.648478 0.912886 0.927932
0.947387 0.963912 0.964858
0.968017 0.967041 0.967956
0.217472 0.875822 0.912154
0.217472 0.875822 0.912154
0.217533 0.875807 0.912139
0.217472 0.875822 0.912154
0.217472 0.875822 0.912154
0.217472 0.875822 0.912154
0.613581 0.907195 0.922866
0.940337 0.962448 0.96379
0.969436 0.969436 0.969436
