bundles/resolve-cinematic-luts/Phantom Luts/Apple Log Phantom LUTS/iPhone 15 Phantom Movie LUTs/33x/Vision iPhone_15_33x.cube
TITLE "Generated by Resolve"
LUT_3D_SIZE 33
0.0223239 0.0265049 0.0223239
0.0223239 0.0265049 0.0223239
0.0223239 0.0265049 0.0223239
0.0223239 0.0265049 0.0223239
0.0223239 0.0265049 0.0223239
0.0223697 0.0261692 0.0223697
0.0221714 0.0275273 0.0221714
0.0413367 0.0288243 0.0224918
0.0720989 0.0325933 0.0212711
0.0991379 0.0362554 0.0206455
0.132219 0.0385901 0.0197757
0.17847 0.0397955 0.0192569
0.233433 0.0390936 0.0183566
0.296086 0.0381628 0.0175326
0.353033 0.0382239 0.0170901
0.425895 0.0444953 0.0235294
0.475364 0.0491188 0.0286107
0.525643 0.0551766 0.0328222
0.581476 0.0647746 0.040238
0.63711 0.0775158 0.0489662
0.671641 0.080827 0.0558022
0.698436 0.0753033 0.0809644
0.727581 0.0823072 0.111513
0.747051 0.0863661 0.149493
0.747967 0.0906233 0.199176
0.741466 0.0925765 0.247227
0.741283 0.105867 0.30396
0.743053 0.125978 0.367117
0.740795 0.129458 0.432898
0.743648 0.119799 0.477073
0.74847 0.109361 0.517815
0.757351 0.119692 0.572106
0.759762 0.121431 0.584741
0.0223239 0.0265049 0.0223239
0.0223239 0.0265049 0.0223239
0.0223239 0.0265049 0.0223239
0.0223239 0.0265049 0.0223239
0.0223239 0.0265049 0.0223239
0.0223392 0.0263981 0.0223392
0.0234073 0.0280919 0.0222629
0.0433814 0.0293889 0.0223392
0.0729381 0.0333257 0.0212253
0.101061 0.0369268 0.0205234
0.134463 0.0404517 0.0202182
0.175357 0.0408789 0.0195315
0.231373 0.0405127 0.0186007
0.295094 0.0393072 0.0177157
0.34786 0.0387884 0.0172427
0.412985 0.0433356 0.0212406
0.476585 0.0492256 0.0287327
0.527687 0.0557107 0.0331579
0.583978 0.0653239 0.0405127
0.638392 0.0780804 0.0493324
0.669612 0.0833906 0.0540932
0.692424 0.0729839 0.0750439
0.725048 0.0840314 0.108995
0.745571 0.0857557 0.145571
0.748898 0.09131 0.19585
0.742061 0.0917983 0.245045
0.741436 0.10547 0.302708
0.742824 0.125521 0.366491
0.740749 0.129641 0.431998
0.743633 0.11986 0.47689
0.748425 0.109499 0.517418
0.757412 0.119783 0.572061
0.759686 0.12137 0.583566
0.0223239 0.0265049 0.0223239
0.0223239 0.0265049 0.0223239
0.0223239 0.0265049 0.0223239
0.0223239 0.0265049 0.0223239
0.0223239 0.0265049 0.0223239
0.0223239 0.0264591 0.0223239
0.0222629 0.0278477 0.0222629
0.0413672 0.0299992 0.0223239
0.0706188 0.0343633 0.0213169
0.0957504 0.0386206 0.0207218
0.128756 0.0424811 0.0205386
0.175189 0.0424659 0.0196994
0.226963 0.0417639 0.0187686
0.293843 0.0400854 0.0179141
0.353628 0.0396124 0.0171969
0.410834 0.0430304 0.020798
0.47744 0.0493324 0.0288243
0.529061 0.0558175 0.0332341
0.585214 0.0655222 0.0406195
0.64007 0.0781109 0.0493019
0.669078 0.0838483 0.0537118
0.685313 0.0749218 0.0674449
0.722179 0.0846571 0.105989
0.742824 0.0844129 0.140307
0.74995 0.0925154 0.192676
0.742626 0.0911574 0.241779
0.741894 0.10454 0.299718
0.742687 0.124544 0.362737
0.740642 0.130037 0.430152
0.743618 0.120134 0.475471
0.748302 0.10985 0.516564
0.75729 0.119661 0.570794
0.759564 0.121263 0.5823
0.0223239 0.0265049 0.0223239
0.0223239 0.0265049 0.0223239
0.0223239 0.0265049 0.0223239
0.0223239 0.0265049 0.0223239
0.0223239 0.0265049 0.0223239
0.0223239 0.0265202 0.0223239
0.0222171 0.0278172 0.0222171
0.0405127 0.0304265 0.0222934
0.0675212 0.0349432 0.0214084
0.0949722 0.0394903 0.0212711
0.130739 0.0433051 0.0205844
0.177615 0.0424659 0.0196994
0.23154 0.0418097 0.018677
0.295781 0.0402533 0.0179904
0.356832 0.0400092 0.01738
0.408988 0.0427253 0.020325
0.473381 0.0487831 0.0280766
0.52958 0.0558328 0.0332494
0.586908 0.0655833 0.0406195
0.641779 0.0780652 0.0491951
0.669306 0.0838178 0.053666
0.680812 0.0778668 0.062562
0.71812 0.0839704 0.1019
0.740917 0.0829633 0.134478
0.750469 0.0932174 0.19057
0.743343 0.0903792 0.238193
0.742657 0.103441 0.296025
0.742657 0.123461 0.359182
0.740429 0.13048 0.42826
0.743557 0.120394 0.474342
0.748272 0.110231 0.515465
0.757122 0.119463 0.569253
0.759304 0.121019 0.580972
0.0223239 0.0265049 0.0223239
0.0223239 0.0265049 0.0223239
0.0223239 0.0265049 0.0223239
0.0223239 0.0265049 0.0223239
0.0223239 0.0265049 0.0223239
0.0223239 0.0265049 0.0223239
0.0221866 0.0271611 0.0221866
0.0344091 0.031342 0.0224002
0.0632029 0.0362097 0.0216526
0.0969863 0.0399634 0.0217746
0.133547 0.0431678 0.0205692
0.183459 0.0420844 0.0195773
0.234257 0.0415198 0.0185092
0.295125 0.0408484 0.0180972
0.359091 0.0401312 0.0174563
0.413382 0.0432746 0.0217136
0.477546 0.0490578 0.0288853
0.529793 0.0554818 0.0332189
0.589242 0.0651713 0.0404822
0.644053 0.0776989 0.0490425
0.670314 0.0836347 0.0534981
0.677348 0.0777447 0.0588693
0.712947 0.0817273 0.0958114
0.73785 0.0809033 0.127825
0.750683 0.0937362 0.184604
0.743343 0.0899367 0.231968
0.742107 0.10193 0.29073
0.743481 0.122103 0.35404
0.740261 0.131044 0.425452
0.743297 0.120958 0.472007
0.74818 0.11078 0.513588
0.757046 0.11931 0.567544
0.758679 0.120882 0.578851
0.0223239 0.0264897 0.0223239
0.0223239 0.0264897 0.0223239
0.0223239 0.0264897 0.0223239
0.0223239 0.0264897 0.0223239
0.0223239 0.0265049 0.0223239
0.0223239 0.0264897 0.0223239
0.0222171 0.0269932 0.0222171
0.0273442 0.032578 0.0226291
0.0544594 0.0383459 0.021912
0.0892653 0.041474 0.0231174
0.131197 0.0436866 0.0206455
0.185702 0.0421149 0.01944
0.239109 0.0418097 0.0185092
0.296101 0.0412604 0.0180819
0.358343 0.0404822 0.0178683
0.416388 0.0438239 0.0222629
0.478386 0.0489967 0.0284581
0.532143 0.0552987 0.0332189
0.590723 0.065507 0.0407721
0.645304 0.0778668 0.0491493
0.670359 0.0836194 0.0534829
0.672084 0.0815595 0.0551614
0.703975 0.078294 0.086244
0.733684 0.0791028 0.118669
0.750484 0.0920119 0.175341
0.744427 0.0888533 0.224323
0.742184 0.100099 0.284016
0.744381 0.119738 0.34818
0.740597 0.131777 0.42118
0.742947 0.121569 0.469215
0.747875 0.111559 0.510719
0.756786 0.118929 0.565026
0.758343 0.1205 0.575936
0.0221866 0.0284276 0.0221866
0.0221866 0.0278325 0.0221866
0.0221866 0.0271458 0.0221866
0.0222324 0.0269017 0.0222324
0.0222629 0.0267491 0.0222629
0.0222019 0.0270237 0.0222019
0.0221866 0.0287175 0.0221866
0.0255131 0.0347295 0.022446
0.0484474 0.0426032 0.0222782
0.0833906 0.0437629 0.0231327
0.124254 0.0449683 0.0222477
0.17821 0.0435798 0.0197757
0.23772 0.0424353 0.0186007
0.299184 0.0409705 0.0178988
0.361196 0.040528 0.0180362
0.418906 0.0437934 0.0221866
0.478676 0.0489662 0.0280613
0.534615 0.055436 0.0334325
0.590936 0.0652476 0.0406653
0.645472 0.077821 0.049134
0.670436 0.0835889 0.0534676
0.670298 0.08365 0.0534981
0.691341 0.0760967 0.0718395
0.728511 0.0815442 0.112123
0.749783 0.089601 0.162676
0.744915 0.0878767 0.215488
0.742306 0.0981003 0.275654
0.744289 0.117144 0.339849
0.741512 0.132769 0.415763
0.742809 0.122347 0.465278
0.747478 0.112093 0.508049
0.756252 0.118578 0.561318
0.757748 0.11989 0.572763
0.0213474 0.052781 0.0258488
0.0216068 0.048127 0.0245975
0.0223087 0.0409552 0.023209
0.0222019 0.0376287 0.0225528
0.0222782 0.0357366 0.0222782
0.0223087 0.0353857 0.0223087
0.0245518 0.0399329 0.0229953
0.0327611 0.0485695 0.0245212
0.0557412 0.0575113 0.0232853
0.0897536 0.0583658 0.025742
0.12369 0.0551156 0.0273289
0.17763 0.0498207 0.0220188
0.231586 0.0466926 0.0191196
0.288319 0.0439765 0.0182803
0.35169 0.0419623 0.0180819
0.419883 0.0438392 0.0222019
0.479026 0.0490272 0.027924
0.537102 0.0554513 0.0336156
0.593561 0.0655375 0.0408026
0.649912 0.0784314 0.0497444
0.670634 0.0835126 0.0534524
0.669779 0.0843977 0.0527504
0.678172 0.0782177 0.0605478
0.718669 0.0838636 0.10251
0.744503 0.0856031 0.1449
0.74696 0.0882124 0.20296
0.743145 0.0957656 0.264363
0.743603 0.11284 0.328954
0.742473 0.131701 0.405127
0.743145 0.123201 0.460761
0.747692 0.113191 0.504234
0.755291 0.117769 0.556985
0.75729 0.11928 0.567956
0.0221103 0.0910048 0.0373541
0.0221103 0.0895094 0.0344091
0.0214542 0.0801251 0.0322728
0.0225986 0.0716716 0.0310979
0.0248112 0.0671702 0.0301213
0.0271153 0.0652171 0.0287633
0.0339971 0.0690166 0.0299229
0.0430457 0.0735027 0.029572
0.0607767 0.0830701 0.0276493
0.101244 0.0874037 0.0249943
0.138903 0.0803998 0.0312047
0.187137 0.0698558 0.0309606
0.242176 0.0616922 0.0278325
0.294209 0.0568246 0.0257572
0.341146 0.0528115 0.0239872
0.393561 0.0484169 0.0230716
0.471061 0.0484321 0.0269169
0.53782 0.0558938 0.0330968
0.597314 0.0664683 0.0413825
0.652262 0.0786755 0.0499733
0.671122 0.0833906 0.0533455
0.67071 0.0834821 0.0534371
0.660029 0.0846113 0.0445258
0.681834 0.0761425 0.0665293
0.735805 0.0799268 0.123308
0.750286 0.0928664 0.190021
0.742824 0.0918746 0.247211
0.742992 0.108736 0.314656
0.743603 0.130159 0.392264
0.742779 0.124529 0.453803
0.748867 0.114214 0.499138
0.756207 0.115465 0.550958
0.757702 0.118288 0.562829
0.0249943 0.122377 0.0512551
0.0255894 0.123583 0.0414893
0.0254673 0.11632 0.0406958
0.0245518 0.106325 0.0386053
0.0271 0.101045 0.0376135
0.0298772 0.099733 0.0361486
0.0364385 0.102571 0.0361028
0.0514534 0.106035 0.0370184
0.0678721 0.109239 0.0322271
0.0982834 0.114977 0.0274357
0.152117 0.111742 0.0287327
0.204715 0.100023 0.0337682
0.255802 0.0905013 0.0373999
0.31281 0.0841382 0.0368963
0.368597 0.0768902 0.0366369
0.411521 0.0715343 0.0340734
0.449622 0.061799 0.030457
0.502937 0.0546731 0.0302434
0.587793 0.0664988 0.0401617
0.652323 0.0791333 0.050309
0.670619 0.0834974 0.0534524
0.670542 0.0835431 0.0534676
0.670222 0.0836805 0.0535286
0.661418 0.0818799 0.0472877
0.712764 0.0877241 0.0975052
0.753368 0.0945907 0.148791
0.744442 0.0889143 0.224475
0.743038 0.103426 0.296635
0.744732 0.126711 0.373373
0.742779 0.126543 0.444984
0.747845 0.115785 0.492287
0.755825 0.112825 0.543099
0.757855 0.116335 0.555673
0.0242466 0.157519 0.0599832
0.0246128 0.16054 0.0427253
0.0255131 0.156161 0.0423438
0.0258183 0.145251 0.0425727
0.0259403 0.134829 0.0413214
0.0280461 0.130755 0.0404059
0.03122 0.13228 0.0387884
0.0427253 0.138323 0.0400092
0.0643931 0.142672 0.0408331
0.0893721 0.146715 0.0319371
0.140307 0.148745 0.0243381
0.219303 0.143801 0.0318303
0.277836 0.134264 0.0417945
0.333135 0.127642 0.0510262
0.393866 0.124407 0.0559396
0.45095 0.115648 0.0582284
0.495583 0.106188 0.055314
0.528023 0.0937362 0.0492561
0.555947 0.0762341 0.0407416
0.622522 0.0756847 0.0453803
0.670146 0.083711 0.0530404
0.670665 0.0834974 0.0534524
0.670527 0.0835584 0.0534676
0.670161 0.0835889 0.0536049
0.68191 0.0749828 0.0635538
0.733227 0.0791638 0.11548
0.749813 0.0913252 0.188128
0.743008 0.0939193 0.25594
0.744961 0.119692 0.34818
0.742412 0.129534 0.43151
0.746471 0.117739 0.48336
0.753902 0.110277 0.532906
0.757259 0.113008 0.545052
0.0251621 0.201862 0.0721447
0.0260014 0.203326 0.0496986
0.0249485 0.200992 0.0436866
0.0242771 0.196277 0.0428626
0.0234073 0.183047 0.0408484
0.0237583 0.173129 0.039704
0.0240177 0.168444 0.0390173
0.0261082 0.171054 0.0386511
0.0395361 0.182193 0.0400549
0.0702373 0.192538 0.0437324
0.114412 0.200183 0.0332647
0.19881 0.197833 0.02327
0.288273 0.195804 0.0361791
0.350515 0.185977 0.0534524
0.405951 0.179522 0.0649271
0.463767 0.173693 0.0749218
0.520485 0.161227 0.0796521
0.570413 0.147066 0.0796368
0.607187 0.133837 0.0738689
0.635142 0.114595 0.0640421
0.6607 0.090959 0.0544137
0.670161 0.0849317 0.0523995
0.670649 0.0834974 0.0534524
0.670436 0.0835889 0.0534981
0.672129 0.081239 0.0553902
0.70399 0.0750439 0.0853437
0.747036 0.086244 0.14995
0.744442 0.0884871 0.226062
0.742977 0.105684 0.306523
0.743648 0.130144 0.395987
0.745998 0.120455 0.471397
0.751598 0.108476 0.521981
0.75462 0.109804 0.53106
0.0329137 0.254017 0.0934462
0.0342412 0.256733 0.0740215
0.033402 0.257069 0.0604105
0.0325322 0.253925 0.0572519
0.0320897 0.250065 0.0561379
0.0309148 0.24007 0.0534218
0.028687 0.227314 0.049836
0.0269322 0.218112 0.0468452
0.0271916 0.218662 0.047303
0.0430152 0.236622 0.0533913
0.0877699 0.253605 0.0581216
0.149538 0.260471 0.042237
0.258686 0.25008 0.0244602
0.350713 0.249165 0.0385595
0.416144 0.237812 0.0632029
0.468956 0.23299 0.0783398
0.525475 0.224063 0.094728
0.576455 0.214878 0.0990158
0.628 0.194263 0.100725
0.672129 0.179522 0.0980392
0.706294 0.160098 0.0917983
0.717845 0.132845 0.0772259
0.687236 0.0961318 0.0582589
0.66952 0.0845045 0.0522621
0.670344 0.0836347 0.0534981
0.671351 0.0819867 0.0551003
0.72076 0.0798352 0.102617
0.75024 0.0915999 0.189899
0.743618 0.0964523 0.27013
0.745602 0.123674 0.362127
0.743832 0.125399 0.448768
0.750713 0.111498 0.50837
0.751904 0.109957 0.515084
0.0399176 0.307073 0.116014
0.0419318 0.312261 0.101198
0.0413977 0.31223 0.081529
0.0409857 0.314824 0.0752728
0.04065 0.312535 0.0725719
0.040116 0.310338 0.0716564
0.0394598 0.305669 0.0703899
0.0374609 0.293385 0.066743
0.0363775 0.280781 0.0639658
0.0363928 0.279606 0.063859
0.0488136 0.29395 0.0679942
0.105684 0.31397 0.0730907
0.194324 0.318853 0.050782
0.318914 0.304631 0.0269017
0.413458 0.308553 0.0412451
0.482277 0.295842 0.0775464
0.531991 0.290349 0.0943008
0.580758 0.280446 0.116701
0.630243 0.269337 0.12314
0.675975 0.252964 0.124636
0.721157 0.232044 0.123049
0.750591 0.213092 0.116106
0.743923 0.183993 0.103243
0.726116 0.14522 0.0843824
0.684901 0.09514 0.0568399
0.669261 0.0843366 0.0527962
0.669841 0.083711 0.0536049
0.718471 0.0827497 0.101686
0.745815 0.0871443 0.213672
0.74403 0.109194 0.317952
0.743145 0.131106 0.423301
0.748547 0.116579 0.48687
0.750256 0.114839 0.494591
0.0487984 0.365393 0.149233
0.0513313 0.372824 0.136339
0.0534524 0.377935 0.12781
0.0524605 0.375738 0.104921
0.052369 0.378515 0.096788
0.0520638 0.379355 0.0922255
0.0517433 0.377844 0.0912184
0.0517739 0.376776 0.0909895
0.0511788 0.374502 0.090135
0.0474403 0.351217 0.0834821
0.046067 0.345006 0.0816815
0.0640574 0.359289 0.0859541
0.132265 0.378195 0.0915084
0.240757 0.381308 0.0636454
0.382208 0.364202 0.032929
0.474586 0.368002 0.0456092
0.542901 0.356359 0.0915847
0.588785 0.350271 0.112627
0.631968 0.340337 0.13196
0.675578 0.327047 0.150973
0.717174 0.31368 0.154025
0.752178 0.296162 0.154894
0.758053 0.272221 0.14522
0.75848 0.241993 0.131609
0.750988 0.207752 0.113085
0.73341 0.157671 0.0911421
0.681132 0.0920882 0.0560159
0.669841 0.0837262 0.0535744
0.706661 0.0781262 0.0881819
0.74548 0.0883803 0.224872
0.74522 0.122225 0.365576
0.746014 0.122271 0.462333
0.746853 0.122286 0.461387
0.0613107 0.430121 0.202869
0.0637369 0.438071 0.19028
0.0666209 0.443244 0.182712
0.0681468 0.447807 0.174533
0.0689708 0.448249 0.154971
0.0687419 0.446921 0.13341
0.0686961 0.449622 0.123995
0.0688487 0.452186 0.118349
0.0687572 0.452659 0.116625
0.0681468 0.449973 0.115496
0.0629129 0.427253 0.107668
0.0606394 0.418463 0.104692
0.0918135 0.433204 0.109438
0.177111 0.445396 0.112917
0.296361 0.443824 0.078172
0.442451 0.423926 0.04271
0.53698 0.425162 0.0540627
0.599847 0.417227 0.103227
0.643778 0.410666 0.133623
0.680919 0.401114 0.14934
0.717617 0.387808 0.171969
0.750774 0.375296 0.189731
0.762478 0.359854 0.186481
0.75996 0.341817 0.176928
0.758663 0.31606 0.165225
0.757946 0.279622 0.14905
0.756619 0.231479 0.126131
0.735485 0.165713 0.0952163
0.670039 0.0860151 0.052491
0.681071 0.077821 0.0616159
0.746227 0.0910964 0.234363
0.74403 0.129992 0.407218
0.744701 0.131273 0.415274
0.0795758 0.50013 0.264027
0.0811933 0.507057 0.253529
0.0825971 0.511193 0.246479
0.0842756 0.515358 0.239719
0.0864118 0.519173 0.234348
0.0874189 0.521675 0.226749
0.0881666 0.521096 0.210132
0.0882429 0.51986 0.187213
0.0883497 0.522332 0.156741
0.0893721 0.528405 0.149233
0.089189 0.527916 0.14902
0.0831617 0.506157 0.139178
0.0800488 0.493935 0.133089
0.126757 0.508186 0.138903
0.228672 0.513039 0.140826
0.349523 0.507927 0.0957656
0.503365 0.485512 0.0573739
0.596551 0.483421 0.0606088
0.655497 0.477256 0.11252
0.697932 0.470634 0.151171
0.730327 0.464057 0.170397
0.75906 0.453773 0.188922
0.772595 0.442267 0.199481
0.769741 0.427741 0.202319
0.766781 0.410895 0.205676
0.765408 0.387427 0.199084
0.762219 0.359228 0.186145
0.757946 0.318853 0.165743
0.75819 0.249638 0.135485
0.726665 0.149767 0.0868391
0.680949 0.0831922 0.0620432
0.745312 0.0911116 0.239612
0.745861 0.0992447 0.280064
0.0978866 0.569116 0.32929
0.102831 0.574136 0.319539
0.10312 0.576989 0.312093
0.103639 0.579873 0.305882
0.104631 0.582803 0.300923
0.10515 0.58555 0.295445
0.106096 0.588159 0.290318
0.107393 0.59147 0.283238
0.109361 0.591012 0.257252
0.110079 0.591653 0.227329
0.114031 0.60293 0.195575
0.115084 0.603647 0.190997
0.107042 0.581521 0.177951
0.103685 0.56788 0.170443
0.171572 0.580224 0.173053
0.281422 0.581537 0.176349
0.407233 0.572366 0.111131
0.561227 0.547951 0.0743725
0.648539 0.544182 0.066041
0.708431 0.537057 0.117098
0.748882 0.531365 0.161776
0.775662 0.526833 0.192737
0.789456 0.521508 0.202823
0.787091 0.511589 0.201511
0.783536 0.498314 0.199054
0.780667 0.4822 0.198291
0.775677 0.461234 0.199054
0.770718 0.433066 0.200412
0.765667 0.393988 0.202136
0.759152 0.338399 0.175143
0.752941 0.231144 0.126558
0.679103 0.0929732 0.0568704
0.702358 0.0883345 0.0802014
0.115755 0.63566 0.394629
0.121279 0.638682 0.384695
0.12546 0.641535 0.378546
0.12697 0.643198 0.373526
0.126848 0.645014 0.368017
0.127169 0.646479 0.363317
0.126848 0.648035 0.358144
0.127092 0.650889 0.352041
0.128328 0.655695 0.345754
0.132357 0.661677 0.331579
0.131884 0.660426 0.289311
0.140078 0.669673 0.244831
0.149172 0.676188 0.230579
0.138125 0.652567 0.217151
0.14052 0.642664 0.212177
0.224948 0.64976 0.208255
0.340932 0.645533 0.215045
0.467033 0.632456 0.126574
0.61387 0.606775 0.0917678
0.693599 0.599741 0.0691844
0.753979 0.595438 0.118196
0.789578 0.592081 0.156481
0.807309 0.585779 0.195651
0.804715 0.578515 0.203677
0.802899 0.569955 0.205554
0.800092 0.560311 0.206607
0.796475 0.547219 0.205829
0.792035 0.531151 0.204242
0.785321 0.505547 0.200305
0.777173 0.467918 0.198459
0.766094 0.411612 0.203037
0.758495 0.312932 0.163455
0.75668 0.256809 0.133959
0.133593 0.698116 0.459907
0.138231 0.700313 0.45156
0.142275 0.701503 0.444465
0.145892 0.702464 0.43946
0.149035 0.703075 0.434485
0.151308 0.703655 0.429496
0.152453 0.704601 0.425132
0.152743 0.706325 0.42002
0.153185 0.709972 0.413306
0.155169 0.715587 0.405768
0.163806 0.723033 0.394659
0.164172 0.725139 0.354345
0.16553 0.731594 0.300023
0.189517 0.740932 0.26656
0.174228 0.714839 0.25098
0.194034 0.710063 0.246067
0.285176 0.711879 0.242481
0.399466 0.699763 0.246723
0.521065 0.687099 0.143557
0.659922 0.661936 0.108721
0.735348 0.651545 0.0796521
0.788632 0.648936 0.115984
0.819928 0.64477 0.15079
0.821469 0.639948 0.160662
0.819181 0.633005 0.16347
0.817731 0.626383 0.168353
0.815473 0.616983 0.175128
0.812177 0.605066 0.1841
0.807523 0.587701 0.19649
0.802121 0.565606 0.2056
0.79295 0.531731 0.203494
0.779232 0.477836 0.198215
0.773159 0.445121 0.199207
0.15433 0.756725 0.524712
0.157702 0.757244 0.517769
0.160037 0.757412 0.51252
0.16257 0.756878 0.505974
0.164828 0.756268 0.500725
0.167025 0.756191 0.496193
0.169711 0.756237 0.491173
0.173877 0.757198 0.486366
0.179797 0.758602 0.480125
0.184955 0.763012 0.47335
0.18793 0.767758 0.46363
0.198993 0.774563 0.449851
0.200259 0.7794 0.411078
0.20415 0.786358 0.344533
0.230991 0.794553 0.306157
0.214603 0.770047 0.283696
0.255604 0.767254 0.277211
0.345922 0.7626 0.279103
0.452049 0.746105 0.261936
0.568444 0.733349 0.161547
0.700206 0.709026 0.12285
0.766491 0.699184 0.0992752
0.812024 0.69691 0.1149
0.833326 0.692851 0.135851
0.832013 0.68687 0.139544
0.83122 0.681727 0.142626
0.829389 0.674846 0.145525
0.827314 0.665782 0.148394
0.824384 0.655146 0.152819
0.821561 0.641047 0.160403
0.81622 0.620722 0.172534
0.807706 0.586648 0.199649
0.802686 0.565957 0.205386
0.178622 0.804746 0.58645
0.181552 0.804669 0.581323
0.183078 0.804166 0.575906
0.184497 0.803128 0.57116
0.18616 0.802563 0.566827
0.187747 0.801816 0.562631
0.189837 0.801373 0.55845
0.192355 0.80119 0.552865
0.196735 0.800839 0.545022
0.203021 0.801221 0.535378
0.212924 0.804456 0.526314
0.219913 0.810483 0.515221
0.230625 0.816892 0.498894
0.230396 0.822278 0.45417
0.236332 0.821698 0.367651
0.25034 0.819608 0.326009
0.247761 0.811322 0.312963
0.314549 0.810803 0.308721
0.411276 0.801114 0.317342
0.507027 0.784802 0.268894
0.621836 0.771267 0.17789
0.735378 0.75111 0.140383
0.794491 0.741222 0.120928
0.833906 0.74052 0.110445
0.841733 0.735683 0.121141
0.839567 0.730785 0.122942
0.838163 0.725307 0.125124
0.8383 0.719295 0.126879
0.837766 0.711818 0.128817
0.834806 0.700374 0.132708
0.831525 0.685374 0.140139
0.827649 0.66424 0.148684
0.824384 0.650721 0.155703
0.203098 0.843244 0.643961
0.204959 0.842939 0.638804
0.206546 0.842084 0.635142
0.207492 0.841062 0.630915
0.207782 0.83978 0.626337
0.208164 0.838575 0.622202
0.20882 0.837598 0.617655
0.209857 0.836484 0.611627
0.212497 0.835813 0.604547
0.216144 0.835615 0.596124
0.222644 0.836011 0.585031
0.233661 0.838819 0.572442
0.246387 0.844282 0.558083
0.250675 0.845762 0.534371
0.241596 0.836606 0.477501
0.243839 0.821042 0.351095
0.251942 0.82002 0.321324
0.279179 0.821729 0.319219
0.35906 0.824018 0.320806
0.467781 0.823087 0.343694
0.562768 0.816831 0.270588
0.668589 0.803754 0.194766
0.765682 0.786328 0.159319
0.815808 0.776791 0.145693
0.844129 0.772946 0.130724
0.847623 0.769879 0.129015
0.845685 0.765911 0.127489
0.844022 0.761532 0.125795
0.841291 0.755413 0.124025
0.839384 0.748226 0.123354
0.836927 0.737301 0.126268
0.839445 0.724971 0.122744
0.837812 0.715129 0.126818
0.183001 0.862333 0.69221
0.190082 0.862043 0.68748
0.197681 0.861524 0.682475
0.204303 0.860761 0.677974
0.209247 0.859998 0.673945
0.214603 0.859113 0.669703
0.21593 0.859052 0.665064
0.218265 0.858717 0.659892
0.220356 0.85861 0.653956
0.223133 0.858503 0.646296
0.227176 0.858457 0.636866
0.233341 0.858961 0.623438
0.241657 0.857923 0.60499
0.250736 0.853941 0.579782
0.248203 0.848539 0.544884
0.255238 0.836408 0.484916
0.250187 0.820188 0.32694
0.253559 0.82002 0.319661
0.316381 0.823056 0.318975
0.41033 0.823987 0.332311
0.511833 0.824521 0.336629
0.608194 0.831205 0.25507
0.711376 0.827573 0.202716
0.791211 0.81529 0.176303
0.833783 0.804608 0.171054
0.847639 0.801328 0.156252
0.848081 0.798566 0.153079
0.847471 0.794888 0.148898
0.848249 0.791089 0.144884
0.84802 0.785809 0.139696
0.847883 0.779751 0.134478
0.84596 0.770123 0.128786
0.844282 0.763134 0.125185
0.129274 0.861021 0.728862
0.134524 0.861692 0.725948
0.140047 0.86215 0.722255
0.145205 0.862669 0.718761
0.150698 0.86276 0.714809
0.157229 0.862486 0.710079
0.164096 0.862394 0.705058
0.172183 0.862425 0.700175
0.181811 0.861921 0.693767
0.194919 0.861097 0.685512
0.210544 0.859678 0.673777
0.218189 0.858839 0.661799
0.224018 0.858671 0.645685
0.2336 0.858915 0.624308
0.246891 0.855955 0.593088
0.252384 0.849332 0.550484
0.247532 0.832898 0.458152
0.234607 0.821332 0.359655
0.281605 0.821759 0.331136
0.362203 0.823835 0.321981
0.464668 0.822812 0.344137
0.55288 0.827558 0.302342
0.645014 0.832944 0.235508
0.747478 0.831083 0.186236
0.805859 0.826276 0.197147
0.839902 0.822934 0.19704
0.844007 0.82153 0.19176
0.844923 0.819837 0.188937
0.845273 0.816663 0.184268
0.845747 0.813123 0.17818
0.846876 0.809018 0.170214
0.847288 0.803326 0.160678
0.847745 0.800015 0.155444
0.091249 0.856214 0.758785
0.0936599 0.856657 0.756176
0.0973983 0.857694 0.753002
0.101701 0.858579 0.750072
0.106355 0.859495 0.747173
0.110903 0.860059 0.743145
0.115633 0.860197 0.740383
0.120623 0.860395 0.735317
0.127794 0.860578 0.730465
0.137377 0.861616 0.725032
0.149554 0.862394 0.717144
0.166155 0.862272 0.704021
0.189899 0.861555 0.688243
0.21561 0.859174 0.667323
0.225422 0.859098 0.640421
0.241886 0.857603 0.604196
0.251987 0.849638 0.550118
0.238361 0.83183 0.448997
0.228183 0.824216 0.385245
0.335134 0.825422 0.368688
0.439292 0.82446 0.366018
0.516503 0.824872 0.357702
0.604303 0.831968 0.275486
0.695827 0.832258 0.234257
0.785245 0.834394 0.193286
0.82179 0.827924 0.238804
0.837827 0.827146 0.231647
0.837873 0.827146 0.232197
0.838285 0.827115 0.232593
0.839124 0.827024 0.23122
0.840665 0.826856 0.229374
0.842115 0.825147 0.222919
0.843549 0.821469 0.214405
0.0801709 0.852415 0.78175
0.0826734 0.852888 0.779889
0.0850843 0.853391 0.777218
0.0851606 0.853986 0.774411
0.0852979 0.854353 0.772778
0.0855116 0.854704 0.770123
0.0857557 0.855192 0.767147
0.086717 0.855619 0.764508
