bundles/resolve-cinematic-luts/Phantom Luts/Apple Log Phantom LUTS/iPhone 15 Phantom Movie LUTs/33x/Vision iPhone_15_33x.cube
TITLE "Generated by Resolve"
LUT_3D_SIZE 5
0.0223239 0.0265049 0.0223239
0.0720989 0.0325933 0.0212711
0.475364 0.0491188 0.0286107
0.747967 0.0906233 0.199176
0.759762 0.121431 0.584741
0.0221103 0.0910048 0.0373541
0.0607767 0.0830701 0.0276493
0.471061 0.0484321 0.0269169
0.735805 0.0799268 0.123308
0.757702 0.118288 0.562829
0.0795758 0.50013 0.264027
0.0883497 0.522332 0.156741
0.503365 0.485512 0.0573739
0.766781 0.410895 0.205676
0.745861 0.0992447 0.280064
0.129274 0.861021 0.728862
0.181811 0.861921 0.693767
0.247532 0.832898 0.458152
0.805859 0.826276 0.197147
0.847745 0.800015 0.155444
0.064744 0.845365 0.868849
0.0585184 0.845518 0.865461
0.0383154 0.847272 0.845106
0.619898 0.866423 0.691585
0.847547 0.878691 0.610636
0.0245518 0.028397 0.095079
0.19205 0.0251011 0.12755
0.589822 0.0603952 0.175097
0.749004 0.125216 0.366323
0.764645 0.119356 0.603815
0.0199741 0.116197 0.106249
0.0937667 0.108034 0.0952926
0.558129 0.0484474 0.0728008
0.744732 0.094667 0.263005
0.760678 0.12108 0.585565
0.0542611 0.482872 0.319509
0.0771496 0.490227 0.257313
0.495216 0.474495 0.0554055
0.76701 0.395651 0.214572
0.747662 0.127153 0.38471
0.114794 0.860273 0.740826
0.159792 0.862333 0.70927
0.250004 0.845121 0.530907
0.799023 0.827222 0.258824
0.842832 0.781567 0.25359
0.0708324 0.845243 0.872953
0.0640879 0.845441 0.868727
0.0417792 0.847242 0.851148
0.60679 0.868955 0.706188
0.849134 0.881773 0.62414
0.0472572 0.0572671 0.511345
0.245808 0.0409857 0.466239
0.611215 0.0670176 0.483589
0.765576 0.119173 0.607034
0.770077 0.101976 0.647929
0.0366522 0.128695 0.411078
0.0383764 0.0795605 0.426246
0.526314 0.0486305 0.406058
0.761257 0.117052 0.566979
0.767849 0.106249 0.638086
0.0200656 0.460014 0.488182
0.0200809 0.445747 0.472526
0.533837 0.549599 0.526299
0.866972 0.474464 0.502403
0.759915 0.115862 0.559182
0.0677958 0.850492 0.79176
0.0865034 0.853468 0.773877
0.197665 0.856413 0.675135
0.790738 0.834485 0.510781
0.862837 0.784543 0.527932
0.079118 0.844633 0.889326
0.0799268 0.844892 0.884611
0.0618296 0.84567 0.868132
0.580087 0.873976 0.738262
0.860273 0.896132 0.68574
0.107362 0.35314 0.821363
0.105913 0.326314 0.80734
0.540337 0.294011 0.775784
0.819928 0.238712 0.767971
0.780331 0.110628 0.744167
0.109209 0.418189 0.828534
0.104082 0.381476 0.812528
0.510918 0.350378 0.792218
0.830243 0.283207 0.769574
0.780331 0.110628 0.744167
0.0289006 0.59144 0.818143
0.0404669 0.572763 0.822477
0.400931 0.550332 0.796811
0.840146 0.466606 0.777371
0.801785 0.16144 0.746899
0.078233 0.845197 0.916503
0.0753033 0.836515 0.89572
0.0692607 0.816815 0.87155
0.841352 0.869322 0.85124
0.918013 0.817166 0.829969
0.0838636 0.848432 0.934279
0.0839399 0.848417 0.934249
0.0838788 0.848447 0.934249
0.506783 0.851606 0.820661
0.891173 0.94049 0.855482
0.262196 0.726253 0.838361
0.349645 0.728481 0.840146
0.614771 0.760616 0.882963
0.909224 0.762142 0.897826
0.899138 0.702052 0.877058
0.244572 0.730755 0.840192
0.333532 0.732311 0.839658
0.601617 0.762264 0.88127
0.907439 0.77142 0.901106
0.901335 0.712093 0.880476
0.140215 0.754711 0.856428
0.254322 0.749203 0.844099
0.550408 0.772076 0.870695
0.885145 0.808896 0.916838
0.909056 0.754833 0.895781
0.0838636 0.848432 0.934279
0.0707561 0.826032 0.892454
0.29691 0.806073 0.853025
0.821515 0.897658 0.929458
0.918517 0.876722 0.92874
0.0838636 0.848432 0.934279
0.0838636 0.848432 0.934279
0.0838636 0.848432 0.934279
0.634897 0.869062 0.889723
0.919646 0.954223 0.937957
