bundles/resolve-cinematic-luts/Phantom Luts/Apple Log Phantom LUTS/iPhone 15 Phantom Movie LUTs/33x/Vision iPhone_15_33x.cube
TITLE "Generated by Resolve"
LUT_3D_SIZE 9
0.0223239 0.0265049 0.0223239
0.0223239 0.0265049 0.0223239
0.0720989 0.0325933 0.0212711
0.233433 0.0390936 0.0183566
0.475364 0.0491188 0.0286107
0.671641 0.080827 0.0558022
0.747967 0.0906233 0.199176
0.740795 0.129458 0.432898
0.759762 0.121431 0.584741
0.0223239 0.0265049 0.0223239
0.0223239 0.0265049 0.0223239
0.0632029 0.0362097 0.0216526
0.234257 0.0415198 0.0185092
0.477546 0.0490578 0.0288853
0.670314 0.0836347 0.0534981
0.750683 0.0937362 0.184604
0.740261 0.131044 0.425452
0.758679 0.120882 0.578851
0.0221103 0.0910048 0.0373541
0.0248112 0.0671702 0.0301213
0.0607767 0.0830701 0.0276493
0.242176 0.0616922 0.0278325
0.471061 0.0484321 0.0269169
0.671122 0.0833906 0.0533455
0.735805 0.0799268 0.123308
0.743603 0.130159 0.392264
0.757702 0.118288 0.562829
0.0329137 0.254017 0.0934462
0.0320897 0.250065 0.0561379
0.0271916 0.218662 0.047303
0.258686 0.25008 0.0244602
0.525475 0.224063 0.094728
0.706294 0.160098 0.0917983
0.670344 0.0836347 0.0534981
0.743618 0.0964523 0.27013
0.751904 0.109957 0.515084
0.0795758 0.50013 0.264027
0.0864118 0.519173 0.234348
0.0883497 0.522332 0.156741
0.0800488 0.493935 0.133089
0.503365 0.485512 0.0573739
0.730327 0.464057 0.170397
0.766781 0.410895 0.205676
0.75819 0.249638 0.135485
0.745861 0.0992447 0.280064
0.15433 0.756725 0.524712
0.164828 0.756268 0.500725
0.179797 0.758602 0.480125
0.200259 0.7794 0.411078
0.255604 0.767254 0.277211
0.700206 0.709026 0.12285
0.832013 0.68687 0.139544
0.824384 0.655146 0.152819
0.802686 0.565957 0.205386
0.129274 0.861021 0.728862
0.150698 0.86276 0.714809
0.181811 0.861921 0.693767
0.224018 0.858671 0.645685
0.247532 0.832898 0.458152
0.464668 0.822812 0.344137
0.805859 0.826276 0.197147
0.845273 0.816663 0.184268
0.847745 0.800015 0.155444
0.0391699 0.847929 0.829084
0.043534 0.849165 0.818738
0.0551614 0.849515 0.80528
0.0749828 0.851682 0.785534
0.125048 0.860365 0.732448
0.359991 0.84332 0.552316
0.655863 0.847883 0.443549
0.832914 0.845487 0.419867
0.83299 0.845136 0.416052
0.064744 0.845365 0.868849
0.0622416 0.845365 0.867491
0.0585184 0.845518 0.865461
0.0514687 0.846036 0.860273
0.0383154 0.847272 0.845106
0.0834669 0.853223 0.77911
0.619898 0.866423 0.691585
0.820691 0.880247 0.620737
0.847547 0.878691 0.610636
0.0223239 0.0265049 0.0223239
0.0222324 0.0269017 0.0222324
0.187991 0.0292821 0.0911269
0.379644 0.0315404 0.076051
0.563806 0.0496681 0.0747539
0.747082 0.0837415 0.141619
0.744686 0.0950637 0.264042
0.74493 0.123201 0.458534
0.763653 0.120165 0.591546
0.0222782 0.0266575 0.0222782
0.0223239 0.0264897 0.0223239
0.152941 0.033814 0.0189517
0.326299 0.0375525 0.017731
0.509209 0.0552224 0.0418555
0.733639 0.0779736 0.115694
0.743954 0.0919814 0.248249
0.742229 0.125521 0.449699
0.761471 0.120806 0.586999
0.0199893 0.113939 0.0826581
0.0241093 0.111315 0.0471504
0.0836347 0.10338 0.0287938
0.282475 0.0572213 0.0260777
0.487953 0.0496529 0.0284276
0.695933 0.0720531 0.0754559
0.747433 0.0870527 0.207462
0.743404 0.129732 0.429908
0.758709 0.119341 0.572442
0.0211948 0.255146 0.137179
0.0336919 0.260639 0.0971237
0.0335546 0.262226 0.0593576
0.267979 0.258228 0.0245518
0.536721 0.217639 0.0945449
0.705959 0.154665 0.0883497
0.687083 0.0738689 0.0676738
0.744961 0.111437 0.324681
0.754177 0.109102 0.528099
0.06215 0.48893 0.295491
0.0783551 0.496864 0.261402
0.0819867 0.507012 0.236728
0.0816968 0.501869 0.136812
0.502495 0.48336 0.0564126
0.729015 0.45597 0.170474
0.765957 0.402762 0.204532
0.757473 0.242222 0.132082
0.746578 0.117403 0.351705
0.145769 0.752743 0.539727
0.151751 0.750591 0.517845
0.159716 0.749325 0.496284
0.186023 0.764401 0.446555
0.23827 0.760906 0.274052
0.695323 0.702541 0.122225
0.830076 0.678569 0.142779
0.822492 0.646525 0.156664
0.798062 0.550118 0.205295
0.122225 0.860426 0.734081
0.142275 0.862196 0.720531
0.170718 0.862211 0.701885
0.220432 0.858747 0.65565
0.245014 0.840314 0.502373
0.46688 0.824277 0.365209
0.802136 0.82536 0.223484
0.845472 0.809445 0.215564
0.846281 0.787976 0.196231
0.0391852 0.847959 0.828885
0.0438544 0.84921 0.818372
0.0553902 0.849409 0.805356
0.0743267 0.851545 0.786099
0.119158 0.86038 0.737057
0.350637 0.846738 0.56556
0.648814 0.84828 0.470069
0.83267 0.847883 0.437461
0.832609 0.847578 0.433585
0.0673228 0.845319 0.870619
0.06421 0.845457 0.868818
0.0618143 0.845396 0.867323
0.0549783 0.84564 0.861631
0.0397345 0.847395 0.847807
0.0747234 0.851896 0.78584
0.617609 0.867521 0.701457
0.814572 0.881849 0.63006
0.847974 0.88043 0.618357
0.0245518 0.028397 0.095079
0.103517 0.0274662 0.0929732
0.19205 0.0251011 0.12755
0.360021 0.029221 0.18706
0.589822 0.0603952 0.175097
0.74612 0.0915389 0.250446
0.749004 0.125216 0.366323
0.750408 0.111833 0.507897
0.764645 0.119356 0.603815
0.0217441 0.0501106 0.0502785
0.0257725 0.028809 0.11075
0.167987 0.0267796 0.114809
0.376089 0.0321202 0.0930343
0.581567 0.0576944 0.104585
0.750317 0.0901961 0.199634
0.744823 0.112795 0.329931
0.746014 0.116838 0.488548
0.762692 0.120424 0.599283
0.0199741 0.116197 0.106249
0.0199435 0.111467 0.10193
0.0937667 0.108034 0.0952926
0.317342 0.0694133 0.056199
0.558129 0.0484474 0.0728008
0.744396 0.0813306 0.133043
0.744732 0.094667 0.263005
0.744366 0.124132 0.454124
0.760678 0.12108 0.585565
0.0189822 0.251621 0.170794
0.0232395 0.255421 0.131914
0.0324254 0.256764 0.10042
0.270191 0.265904 0.0599374
0.547738 0.224918 0.124056
0.716335 0.162951 0.111437
0.739742 0.0802472 0.12752
0.745953 0.122454 0.359121
0.757275 0.112184 0.542718
0.0542611 0.482872 0.319509
0.0642557 0.486564 0.285206
0.0771496 0.490227 0.257313
0.080705 0.495613 0.138766
0.495216 0.474495 0.0554055
0.72224 0.449073 0.174746
0.76701 0.395651 0.214572
0.763226 0.253574 0.165698
0.747662 0.127153 0.38471
0.139681 0.750072 0.551095
0.143923 0.747814 0.530999
0.149737 0.743358 0.510323
0.177142 0.750256 0.45684
0.226856 0.74815 0.266453
0.690227 0.693996 0.120073
0.827985 0.669429 0.151995
0.819379 0.635676 0.178653
0.792874 0.538659 0.23975
0.114794 0.860273 0.740826
0.133288 0.861372 0.726635
0.159792 0.862333 0.70927
0.217548 0.858839 0.663706
0.250004 0.845121 0.530907
0.467597 0.825925 0.387076
0.799023 0.827222 0.258824
0.843946 0.806439 0.260807
0.842832 0.781567 0.25359
0.0391394 0.847852 0.829618
0.0432746 0.849165 0.819104
0.0549935 0.849515 0.805432
0.0735637 0.851453 0.786801
0.114763 0.860182 0.741024
0.340764 0.849439 0.574517
0.641337 0.848615 0.487968
0.832639 0.849241 0.4477
0.832715 0.848875 0.444175
0.0708324 0.845243 0.872953
0.067216 0.845426 0.870985
0.0640879 0.845441 0.868727
0.0570993 0.845426 0.863569
0.0417792 0.847242 0.851148
0.0661326 0.850278 0.793698
0.60679 0.868955 0.706188
0.807034 0.882414 0.637934
0.849134 0.881773 0.62414
0.030396 0.0336614 0.294987
0.181811 0.0305486 0.272679
0.26511 0.0269169 0.257816
0.366949 0.0267948 0.26453
0.580789 0.0733959 0.344244
0.747478 0.128481 0.390188
0.745846 0.125917 0.445594
0.757107 0.110811 0.538155
0.766979 0.11809 0.619791
0.024567 0.074464 0.21239
0.0299992 0.0347448 0.308492
0.169558 0.0310979 0.290562
0.353262 0.0259556 0.254932
0.580911 0.0814069 0.313008
0.74638 0.112413 0.330404
0.744411 0.131319 0.414633
0.751842 0.10901 0.52491
0.76553 0.120958 0.615839
0.0194553 0.134249 0.203952
0.0236973 0.101411 0.253025
0.0594186 0.0874952 0.264622
0.29807 0.0484321 0.215946
0.568475 0.0784772 0.29308
0.746227 0.0966812 0.275776
0.748333 0.127901 0.386542
0.751202 0.110643 0.512673
0.763043 0.120546 0.60763
0.0188907 0.242374 0.244099
0.0188754 0.237827 0.239078
0.0189975 0.232944 0.234195
0.292058 0.309651 0.282292
0.623896 0.273686 0.255772
0.783642 0.185412 0.233265
0.745541 0.0981308 0.280919
0.743679 0.124208 0.454597
0.761593 0.119051 0.576654
0.0256352 0.465415 0.36817
0.0313878 0.466835 0.350912
0.0389258 0.465629 0.330663
0.0607004 0.465293 0.265827
0.500664 0.506737 0.22182
0.743206 0.497566 0.324956
0.79762 0.450614 0.346532
0.804059 0.300237 0.297124
0.745937 0.124025 0.453605
0.0962692 0.743145 0.589715
0.11104 0.741909 0.570718
0.126284 0.736584 0.550057
0.143145 0.730312 0.499626
0.208377 0.735103 0.38146
0.681254 0.698283 0.246571
0.827237 0.670283 0.356878
0.819348 0.646143 0.368231
0.804807 0.567864 0.368658
0.0911116 0.856565 0.758129
0.1075 0.859251 0.746944
0.127123 0.860136 0.731594
0.178973 0.862043 0.695552
0.250782 0.854124 0.58088
0.478279 0.832471 0.456977
0.792477 0.829084 0.350347
0.846189 0.804532 0.367697
0.851759 0.776501 0.367178
0.0385443 0.847257 0.837018
0.0391089 0.848295 0.826337
0.0486152 0.849485 0.813428
0.0657206 0.850233 0.793866
0.0947738 0.85716 0.755032
0.334951 0.853178 0.601892
0.641459 0.851072 0.541711
0.834043 0.85536 0.485527
0.833844 0.854734 0.48278
0.0803235 0.845304 0.878813
0.0753948 0.845289 0.876783
0.0714885 0.845365 0.873823
0.0637827 0.845411 0.868467
0.0455024 0.846815 0.856092
0.0549783 0.8495 0.805524
0.59794 0.869535 0.71548
0.800244 0.885374 0.657954
0.851499 0.885344 0.641474
0.0472572 0.0572671 0.511345
0.127825 0.049897 0.493111
0.245808 0.0409857 0.466239
0.436988 0.0545815 0.452308
0.611215 0.0670176 0.483589
0.761273 0.117647 0.570733
0.765576 0.119173 0.607034
0.76791 0.109285 0.632624
0.770077 0.101976 0.647929
0.0379034 0.085359 0.413001
0.0383001 0.0509957 0.45861
0.0831617 0.0515145 0.458793
0.377615 0.0519112 0.442771
0.598047 0.0636301 0.471885
0.758816 0.114122 0.551507
0.764858 0.119646 0.594812
0.767956 0.115572 0.62359
0.768765 0.104265 0.643595
0.0366522 0.128695 0.411078
0.0401007 0.0987411 0.439109
0.0383764 0.0795605 0.426246
0.259648 0.0472572 0.393851
0.526314 0.0486305 0.406058
0.757397 0.110506 0.538277
0.761257 0.117052 0.566979
0.76611 0.119661 0.605997
0.767849 0.106249 0.638086
0.0188907 0.258747 0.396689
0.0192111 0.239963 0.41442
0.0233616 0.224674 0.428702
0.196216 0.254704 0.48275
0.564218 0.198672 0.463661
0.778256 0.207507 0.495186
0.751995 0.110338 0.512566
0.761349 0.117906 0.572915
0.767636 0.113558 0.626261
0.0200656 0.460014 0.488182
0.0200961 0.453803 0.481559
0.0200809 0.445747 0.472526
0.0200504 0.432578 0.458885
0.533837 0.549599 0.526299
0.832273 0.53695 0.523964
0.866972 0.474464 0.502403
0.799268 0.281209 0.481285
0.759915 0.115862 0.559182
0.0478523 0.722499 0.651881
0.0514382 0.718791 0.640436
0.0520027 0.712474 0.627008
0.0528725 0.705333 0.598444
0.149401 0.693019 0.512978
0.697841 0.725078 0.473594
0.849912 0.719524 0.541695
0.850172 0.70193 0.549172
0.846311 0.605402 0.53286
0.0677958 0.850492 0.79176
0.0788281 0.85185 0.782971
0.0865034 0.853468 0.773877
0.0936294 0.855406 0.755459
0.197665 0.856413 0.675135
0.521523 0.852049 0.612726
0.790738 0.834485 0.510781
0.864668 0.812726 0.521706
0.862837 0.784543 0.527932
0.0477913 0.846555 0.858839
0.0386511 0.847745 0.848096
0.0383917 0.847471 0.835386
0.0439307 0.849088 0.818723
0.0765545 0.852049 0.783825
0.29456 0.860288 0.656382
0.672755 0.862058 0.638697
0.842329 0.872358 0.575265
0.841871 0.871427 0.569909
0.079118 0.844633 0.889326
0.0800488 0.844694 0.886458
0.0799268 0.844892 0.884611
0.07953 0.845396 0.880232
0.0618296 0.84567 0.868132
0.0389868 0.848264 0.827008
0.580087 0.873976 0.738262
0.800183 0.894423 0.708446
0.860273 0.896132 0.68574
0.0635843 0.101381 0.636835
0.060914 0.0845655 0.642634
0.105241 0.0803845 0.613794
0.307652 0.0583963 0.58941
0.64828 0.0932784 0.647593
0.773938 0.101823 0.688197
0.776135 0.110796 0.706172
0.779858 0.110597 0.742397
0.780255 0.110628 0.744121
0.0743725 0.192462 0.661707
0.0784466 0.168154 0.676829
0.0717937 0.140063 0.650752
0.241688 0.106188 0.617075
0.568032 0.108629 0.596063
0.771389 0.0961166 0.665049
0.776287 0.107866 0.700969
0.779461 0.111635 0.738201
0.779965 0.110552 0.742626
0.0731975 0.234455 0.66482
0.0777295 0.210681 0.680064
0.0770886 0.197574 0.674968
0.218173 0.165072 0.636271
0.55848 0.147051 0.606714
0.75639 0.101457 0.630045
0.774868 0.104082 0.693126
0.778347 0.113878 0.72781
0.778958 0.112917 0.732616
0.0666361 0.337575 0.669947
0.0724956 0.315801 0.684337
0.0740368 0.300877 0.687419
0.138872 0.272709 0.643809
0.523934 0.240604 0.633036
0.758526 0.216999 0.64416
0.782208 0.125261 0.661463
0.776806 0.107576 0.701198
0.777508 0.109224 0.705455
0.0205234 0.510735 0.667903
0.0202945 0.500999 0.66862
0.0204013 0.491981 0.669429
0.0201877 0.474067 0.6757
0.459754 0.504982 0.709819
0.765148 0.450889 0.684337
0.842451 0.434775 0.694652
0.805508 0.258427 0.666575
0.771695 0.0964523 0.664286
0.0466011 0.716381 0.767315
0.0470893 0.709773 0.761639
0.0456703 0.700832 0.751965
0.0440986 0.688167 0.740185
0.0674449 0.638361 0.673228
0.733501 0.753704 0.734676
0.911711 0.74107 0.734356
0.916091 0.699641 0.727871
0.886 0.566003 0.6981
0.0441291 0.847211 0.856123
0.0393072 0.847471 0.847288
0.0370336 0.844526 0.83624
0.0382239 0.840055 0.821195
0.0547951 0.83154 0.781781
0.515084 0.837034 0.731716
0.816999 0.851972 0.707393
0.8925 0.83212 0.71873
0.888502 0.816434 0.717708
0.0785077 0.844388 0.893263
0.0787366 0.84506 0.885771
0.0758526 0.845548 0.877607
0.0564889 0.845624 0.864027
0.0371099 0.84741 0.839445
0.101152 0.852781 0.765301
0.739086 0.887984 0.767742
0.866804 0.904707 0.719524
0.864851 0.9028 0.711528
0.0764782 0.844617 0.913878
0.0777142 0.843275 0.905898
0.0779278 0.84358 0.902449
0.0781415 0.843946 0.898589
0.0783856 0.844663 0.890852
0.0498665 0.846555 0.860838
0.496498 0.867689 0.771939
0.818647 0.910658 0.791287
0.871443 0.917067 0.76347
0.107362 0.35314 0.821363
0.106752 0.343862 0.820249
0.105913 0.326314 0.80734
0.268223 0.326452 0.795102
0.540337 0.294011 0.775784
0.777478 0.278691 0.758373
0.819928 0.238712 0.767971
0.783413 0.115267 0.747662
0.780331 0.110628 0.744167
0.108598 0.395377 0.827131
0.109041 0.388342 0.828748
0.103853 0.362219 0.810681
0.245289 0.364538 0.800244
0.525734 0.331472 0.788403
0.77232 0.307546 0.75845
0.826856 0.268101 0.77113
0.786282 0.12076 0.749859
0.780331 0.110628 0.744167
0.109209 0.418189 0.828534
0.109682 0.409461 0.831083
0.104082 0.381476 0.812528
0.223484 0.381292 0.800137
0.510918 0.350378 0.792218
0.763851 0.320836 0.754253
0.830243 0.283207 0.769574
0.796185 0.141024 0.755825
0.780331 0.110628 0.744167
0.0912947 0.480247 0.826368
0.102525 0.465476 0.832334
0.105867 0.457877 0.831235
0.16495 0.427543 0.803006
0.482597 0.412268 0.807431
0.750927 0.372091 0.756848
0.830472 0.337575 0.767102
0.820569 0.241428 0.766629
0.780331 0.110628 0.744167
0.0289006 0.59144 0.818143
0.0353094 0.581613 0.820813
0.0404669 0.572763 0.822477
0.0448005 0.535027 0.800641
0.400931 0.550332 0.796811
0.75433 0.519707 0.802319
0.840146 0.466606 0.777371
0.830121 0.39411 0.766125
0.801785 0.16144 0.746899
0.030396 0.734966 0.849424
0.0294499 0.727443 0.845533
0.027924 0.718166 0.840513
0.0251774 0.703609 0.834943
0.0574502 0.657557 0.789929
0.695689 0.725048 0.849058
0.885344 0.692256 0.836713
0.888548 0.64593 0.825833
0.846189 0.494667 0.768719
0.078233 0.845197 0.916503
0.0771191 0.842985 0.906416
0.0753033 0.836515 0.89572
0.0717174 0.827588 0.884077
0.0692607 0.816815 0.87155
0.50135 0.80061 0.813535
0.841352 0.869322 0.85124
0.912505 0.853407 0.843915
0.918013 0.817166 0.829969
0.0838636 0.848432 0.934279
0.0838788 0.848432 0.934279
0.0846418 0.847852 0.931868
0.0780041 0.844266 0.91284
0.078233 0.844236 0.895369
0.129488 0.83415 0.824277
0.72369 0.909697 0.836561
0.887678 0.938537 0.845762
0.886275 0.933669 0.838895
0.0838636 0.848432 0.934279
0.0839094 0.848432 0.934264
0.0839399 0.848417 0.934249
0.0838788 0.848432 0.934279
0.0838788 0.848447 0.934249
0.0778668 0.843976 0.899016
0.506783 0.851606 0.820661
0.852445 0.931884 0.864256
0.891173 0.94049 0.855482
0.0493629 0.573861 0.839078
0.0492409 0.571649 0.835416
0.116991 0.577478 0.835279
0.289525 0.577417 0.824079
0.547158 0.599619 0.855772
0.787305 0.584222 0.850675
0.861524 0.559213 0.828855
0.854002 0.526909 0.818875
0.84535 0.487022 0.808331
0.0417945 0.590814 0.840696
0.0412757 0.585718 0.835843
0.0825818 0.589654 0.83566
0.270848 0.588495 0.823835
0.540108 0.611383 0.853391
0.785748 0.595239 0.856748
0.863096 0.565835 0.830518
0.854704 0.52903 0.819806
0.844083 0.48127 0.806622
0.0363775 0.602335 0.841443
0.0383001 0.593042 0.836805
0.0549477 0.592096 0.834958
0.250751 0.592126 0.824704
0.525872 0.613336 0.850065
0.779278 0.596475 0.859907
0.862455 0.563638 0.829694
0.853315 0.525216 0.818036
0.840848 0.463661 0.802518
0.0258946 0.628061 0.845594
0.0298619 0.611719 0.837385
0.0310826 0.606714 0.835737
0.194308 0.608347 0.829023
0.493568 0.625299 0.845258
0.768002 0.614816 0.873472
0.867048 0.58146 0.835721
0.858091 0.543572 0.824125
0.842374 0.471077 0.804196
0.0213169 0.686305 0.851698
0.0211337 0.672007 0.84918
0.0209659 0.650828 0.83711
0.0233005 0.644099 0.83389
0.422477 0.657908 0.838758
0.73994 0.675898 0.905806
0.879576 0.63859 0.855436
0.873091 0.599649 0.84213
0.851286 0.513924 0.815473
0.0340887 0.771801 0.884703
0.0324254 0.765072 0.882734
0.0309758 0.757015 0.878614
0.0265202 0.729625 0.862135
0.225483 0.712917 0.838529
0.681712 0.753964 0.893812
0.873091 0.749264 0.900801
0.901503 0.714199 0.88069
0.885069 0.645731 0.856886
0.0838636 0.848432 0.934279
0.0838636 0.848432 0.934279
0.0814069 0.846784 0.932967
0.0714275 0.837781 0.924651
0.0513313 0.793637 0.878874
0.534463 0.801724 0.868254
0.81825 0.860716 0.927459
0.916869 0.839612 0.919738
0.914229 0.80557 0.910842
0.0838636 0.848432 0.934279
0.0838636 0.848432 0.934279
0.0838636 0.848432 0.934279
0.0838636 0.848432 0.934279
0.0838636 0.848432 0.934279
0.240757 0.822934 0.865125
0.728786 0.897917 0.908751
0.91783 0.952834 0.936202
0.917861 0.94342 0.935454
0.0838636 0.848432 0.934279
0.0838636 0.848432 0.934279
0.0838636 0.848432 0.934279
0.0838636 0.848432 0.934279
0.0838636 0.848432 0.934279
0.0838636 0.848432 0.934279
0.541222 0.846326 0.868391
0.857664 0.94464 0.928832
0.920775 0.953338 0.935256
0.262196 0.726253 0.838361
0.313222 0.727367 0.838773
0.349645 0.728481 0.840146
0.442039 0.734142 0.849668
0.614771 0.760616 0.882963
0.784695 0.790509 0.927413
0.909224 0.762142 0.897826
0.90544 0.734218 0.88835
0.899138 0.702052 0.877058
0.252995 0.728588 0.839399
0.303609 0.729442 0.838483
0.340917 0.730846 0.839857
0.435676 0.736034 0.848814
0.610376 0.762081 0.882551
0.781994 0.793561 0.925368
0.909483 0.766323 0.899641
0.906722 0.73962 0.890227
0.900038 0.706813 0.878218
0.244572 0.730755 0.840192
0.29543 0.731319 0.838544
0.333532 0.732311 0.839658
0.426825 0.737179 0.847044
0.601617 0.762264 0.88127
0.775937 0.795636 0.921981
0.907439 0.77142 0.901106
0.908003 0.745937 0.892515
0.901335 0.712093 0.880476
0.219745 0.736706 0.844511
0.275563 0.736065 0.840604
0.313375 0.736767 0.840681
0.40734 0.740902 0.845533
0.585061 0.764294 0.87834
0.766598 0.80116 0.916197
0.901076 0.783169 0.905791
0.90985 0.759014 0.897307
0.904005 0.726223 0.885313
0.140215 0.754711 0.856428
0.209796 0.751003 0.848249
0.254322 0.749203 0.844099
0.356756 0.750378 0.842908
0.550408 0.772076 0.870695
0.749706 0.811597 0.911162
0.885145 0.808896 0.916838
0.911681 0.78555 0.904692
0.909056 0.754833 0.895781
0.0484627 0.787839 0.8766
0.0509499 0.783566 0.87303
0.0981613 0.783246 0.869169
0.229389 0.775769 0.851957
0.460273 0.78381 0.854322
0.712932 0.824369 0.91194
0.852201 0.852049 0.938384
0.916594 0.829145 0.917189
0.913558 0.802899 0.909819
0.0838636 0.848432 0.934279
0.0727398 0.83447 0.903761
0.0707561 0.826032 0.892454
0.0698863 0.821454 0.888151
0.29691 0.806073 0.853025
0.620432 0.844953 0.886748
0.821515 0.897658 0.929458
0.918379 0.899184 0.933532
0.918517 0.876722 0.92874
0.0838636 0.848432 0.934279
0.0838636 0.848432 0.934279
0.0838636 0.848432 0.934279
0.0838636 0.848432 0.934279
0.0729534 0.831678 0.893172
0.475715 0.83328 0.860731
0.757824 0.909224 0.914427
0.914855 0.953857 0.936919
0.918349 0.953155 0.937774
0.0838636 0.848432 0.934279
0.0838636 0.848432 0.934279
0.0838636 0.848432 0.934279
0.0838636 0.848432 0.934279
0.0838636 0.848432 0.934279
0.0768902 0.830564 0.892058
0.634897 0.869062 0.889723
0.866865 0.946365 0.933623
0.919646 0.954223 0.937957
