bundles/resolve-cinematic-luts/Phantom Luts/P4k & P6k Phntm Arri LUTs - V6/P6k/Gen 5 Colour/P6k IceBlue Gen5.cube
TITLE "Generated by Resolve"
LUT_3D_SIZE 5
0.0291905 0.0418708 0.0404059
0.0935531 0.0425879 0.0442512
0.591562 0.0748302 0.119753
0.730083 0.150576 0.191089
0.736492 0.148058 0.213397
0.0399481 0.124422 0.0767834
0.0990921 0.126665 0.0608682
0.62649 0.112963 0.120256
0.744244 0.180331 0.181216
0.751232 0.18468 0.193698
0.117281 0.672145 0.361532
0.129427 0.685435 0.331716
0.660227 0.710079 0.213886
0.950835 0.756909 0.383429
0.957351 0.786664 0.405249
0.284428 0.869184 0.571344
0.288136 0.865736 0.550439
0.539055 0.883574 0.42855
0.970916 0.929534 0.586145
0.967575 0.929747 0.594141
0.284581 0.870237 0.578454
0.289525 0.864561 0.540993
0.72192 0.898726 0.45388
0.972885 0.928862 0.586618
0.96553 0.930022 0.597787
0.0341344 0.0446174 0.117433
0.109651 0.04477 0.116228
0.628702 0.0929732 0.192798
0.773114 0.191577 0.265904
0.77734 0.189761 0.284581
0.0399939 0.106752 0.117037
0.0888838 0.10959 0.126131
0.612924 0.0841077 0.140536
0.735485 0.15314 0.202747
0.741344 0.154818 0.217548
0.113985 0.672999 0.406348
0.126802 0.687602 0.387564
0.656367 0.709804 0.213321
0.949279 0.752834 0.380194
0.956222 0.781811 0.401953
0.282185 0.874083 0.598962
0.283192 0.870787 0.579553
0.52079 0.882506 0.42768
0.970169 0.929274 0.586511
0.967727 0.929946 0.593973
0.282872 0.878706 0.62591
0.281605 0.873549 0.594797
0.684169 0.894423 0.447349
0.972839 0.929015 0.588663
0.964721 0.930205 0.601785
0.189807 0.0598459 0.576577
0.283757 0.0601511 0.585626
0.630945 0.0962234 0.57554
0.776211 0.155901 0.587839
0.768124 0.158297 0.621668
0.0585794 0.0698711 0.549386
0.198993 0.0619974 0.592035
0.637995 0.102251 0.597238
0.775586 0.156893 0.599008
0.769253 0.160098 0.630732
0.141695 0.658839 0.650187
0.154925 0.676127 0.666728
0.621454 0.668757 0.688365
0.990982 0.669673 0.651301
0.977432 0.704021 0.695644
0.387991 0.919936 0.822385
0.403983 0.917723 0.825391
0.391867 0.905165 0.702968
0.965148 0.944366 0.70515
0.973205 0.950423 0.783078
0.489418 0.945235 0.894133
0.517098 0.93608 0.889464
0.627863 0.921431 0.816251
0.967346 0.951751 0.779873
0.970123 0.954421 0.795453
0.388571 0.0931868 0.713024
0.420829 0.0977493 0.719234
0.669398 0.167514 0.75433
0.774823 0.210163 0.763577
0.771542 0.210697 0.767407
0.341314 0.0887312 0.704601
0.383322 0.0930953 0.713466
0.670588 0.169604 0.757214
0.777218 0.209766 0.760693
0.772656 0.21062 0.766522
0.25536 0.675593 0.873838
0.264897 0.689433 0.877165
0.688289 0.598199 0.99353
0.980102 0.576867 0.965301
0.969787 0.626886 0.965789
0.689433 0.956466 0.951141
0.705028 0.952438 0.949691
0.722057 0.952911 0.948898
0.957977 0.9561 0.958404
0.979355 0.956985 0.963241
0.683391 0.958144 0.952468
0.708705 0.951446 0.948653
0.792279 0.954498 0.952682
0.96202 0.967437 0.967086
0.977493 0.968826 0.963134
0.394537 0.0939651 0.714122
0.427329 0.0988022 0.720409
0.679255 0.171786 0.755917
0.774838 0.210147 0.763577
0.773419 0.210391 0.765194
0.348455 0.0887312 0.704555
0.388083 0.0934768 0.714092
0.680781 0.174151 0.759121
0.777234 0.209827 0.760815
0.773053 0.210758 0.766476
0.264118 0.686427 0.877317
0.274891 0.701289 0.880888
0.700282 0.612543 0.98909
0.982422 0.59321 0.964874
0.966964 0.641657 0.962875
0.691722 0.95584 0.950835
0.709804 0.951141 0.948409
0.746578 0.950027 0.949676
0.95639 0.956283 0.966369
0.974105 0.957427 0.965148
0.684627 0.957641 0.95108
0.713924 0.950011 0.947478
0.806378 0.952316 0.95256
0.959884 0.968795 0.973098
0.979461 0.968353 0.967285
