bundles/resolve-cinematic-luts/Phantom Luts/P4k & P6k Phntm Arri LUTs - V6/P6k/Gen 5 Colour/P6k Tungsten Gen5-Legacy.cube
TITLE "Generated by Resolve"
LUT_3D_SIZE 5
0.0172732 0.0162966 0.0215305
0.0973678 0.0295567 0.037644
0.621775 0.0628367 0.157565
0.769497 0.11252 0.226612
0.771634 0.113863 0.229999
0.0436866 0.112688 0.0698558
0.0972 0.112505 0.0541695
0.639002 0.0842145 0.13846
0.770657 0.119203 0.204395
0.772168 0.120409 0.205936
0.0127108 0.556695 0.2271
0.00874342 0.562081 0.182559
0.600336 0.59733 0.0996872
0.97406 0.68481 0.307591
0.976516 0.708339 0.31809
0.134981 0.794766 0.414557
0.135348 0.791241 0.393713
0.389181 0.7841 0.257557
0.969436 0.893812 0.500145
0.969314 0.894041 0.500526
0.134554 0.79704 0.425147
0.135332 0.790936 0.39263
0.456672 0.787106 0.263279
0.969573 0.893553 0.499748
0.969345 0.893996 0.500435
0.0268406 0.0247044 0.101472
0.103975 0.0340887 0.103441
0.647913 0.0901045 0.213764
0.819257 0.160372 0.284932
0.821866 0.162463 0.28893
0.0473945 0.0971389 0.102159
0.0856947 0.0994125 0.106416
0.614099 0.0667887 0.157748
0.771878 0.114656 0.228382
0.773968 0.116228 0.23125
0.0170901 0.553674 0.277775
0.0132906 0.558206 0.241581
0.59733 0.594141 0.0992142
0.973465 0.679881 0.305303
0.975814 0.702312 0.315206
0.134661 0.800839 0.442176
0.13463 0.796231 0.421546
0.374304 0.783719 0.256504
0.969436 0.893828 0.500145
0.969314 0.894163 0.501259
0.134966 0.805371 0.459968
0.134493 0.797498 0.428016
0.434028 0.78555 0.260456
0.969573 0.893553 0.499794
0.969207 0.894286 0.501228
0.152743 0.0612345 0.542931
0.234211 0.0621958 0.547616
0.643122 0.0904402 0.550195
0.816876 0.138537 0.567269
0.816861 0.139452 0.575463
0.0113527 0.0810559 0.509728
0.141939 0.0604868 0.533333
0.627985 0.0880293 0.540291
0.81767 0.137942 0.55433
0.81738 0.138674 0.564462
0.0804456 0.583291 0.56466
0.0817578 0.591089 0.57229
0.596139 0.60322 0.587564
1 0.628336 0.592721
1 0.649989 0.614878
0.2 0.863142 0.689113
0.199054 0.863111 0.690425
0.242664 0.799603 0.466606
0.970397 0.908858 0.589548
0.972381 0.915587 0.620523
0.252628 0.890105 0.760967
0.243336 0.885679 0.749645
0.313726 0.802396 0.508705
0.970382 0.90959 0.593347
0.972183 0.916075 0.621759
0.334005 0.109468 0.775158
0.37113 0.109331 0.781781
0.691936 0.157412 0.811795
0.793713 0.187976 0.808209
0.793683 0.188373 0.809155
0.281315 0.109789 0.762112
0.327626 0.10956 0.773861
0.674296 0.152544 0.811414
0.793729 0.187671 0.807523
0.793698 0.188266 0.808911
0.172946 0.655589 0.879408
0.174228 0.659403 0.880293
0.718791 0.549508 1
0.958358 0.489403 0.977142
0.962203 0.518837 0.981567
0.569986 0.978469 0.973556
0.569589 0.979065 0.974746
0.573877 0.978042 0.972808
0.987259 0.987549 0.985306
0.994812 0.985199 0.98854
0.574685 0.978775 0.974411
0.574655 0.978866 0.974594
0.607233 0.978576 0.974365
0.979217 0.988861 0.986267
0.990814 0.989609 0.981872
0.340322 0.109407 0.776349
0.376394 0.109453 0.782696
0.69778 0.159136 0.811963
0.793713 0.187961 0.808194
0.793683 0.188434 0.809293
0.289036 0.109316 0.763729
0.334203 0.109483 0.775219
0.681025 0.154437 0.811749
0.793729 0.187671 0.807507
0.793713 0.188296 0.808927
0.170611 0.653864 0.877699
0.176684 0.658564 0.882567
0.724392 0.546853 1
0.958358 0.489601 0.977371
0.962325 0.519615 0.981674
0.574823 0.978408 0.973693
0.574655 0.978866 0.974594
0.621592 0.978622 0.974838
0.987778 0.982879 0.988296
0.988952 0.983139 0.988052
0.574807 0.978454 0.97377
0.574655 0.978866 0.974594
0.657252 0.978805 0.975464
0.981491 0.989715 0.989471
0.99025 0.990051 0.989532
