bundles/resolve-cinematic-luts/Phantom Luts/P4k & P6k Phntm Arri LUTs - V6/P6k/Gen 5 Colour/P6k Tungsten Gen5-Legacy.cube
TITLE "Generated by Resolve"
LUT_3D_SIZE 33
0.0172732 0.0162966 0.0215305
0.0172732 0.0162966 0.0215305
0.0172732 0.0162966 0.0215305
0.0193332 0.0166781 0.0218662
0.0310979 0.0188754 0.0245518
0.040238 0.0215915 0.0267338
0.0531319 0.0244602 0.0290074
0.0727703 0.0273747 0.0327001
0.0973678 0.0295567 0.037644
0.129305 0.0322423 0.0454871
0.172824 0.0353704 0.0556954
0.230152 0.0383459 0.0669108
0.299779 0.0416876 0.0794842
0.37142 0.044419 0.0954299
0.448997 0.0479438 0.113634
0.532601 0.0542 0.133867
0.621775 0.0628367 0.157565
0.703868 0.079408 0.186419
0.75288 0.101472 0.213199
0.765774 0.109407 0.22153
0.767102 0.110536 0.22327
0.767926 0.111238 0.224338
0.768505 0.111711 0.225223
0.769085 0.112184 0.226032
0.769497 0.11252 0.226612
0.769802 0.112764 0.227054
0.770016 0.112917 0.227359
0.770184 0.113039 0.227634
0.770367 0.113161 0.227909
0.770642 0.113329 0.228367
0.770993 0.113512 0.228931
0.771389 0.113725 0.229587
0.771634 0.113863 0.229999
0.0172732 0.0163119 0.021561
0.0172732 0.0162966 0.0215305
0.0172732 0.0162966 0.0215305
0.0181582 0.0165713 0.0217136
0.0276799 0.0191043 0.0237278
0.0365606 0.0223545 0.0257725
0.0482643 0.0257572 0.0281529
0.0682689 0.0286412 0.0312657
0.0932937 0.0297856 0.0348516
0.124712 0.0311437 0.0419013
0.168383 0.0342565 0.0520027
0.226749 0.0374609 0.0627604
0.298405 0.0406348 0.0749828
0.371649 0.0435187 0.0910964
0.449683 0.0471351 0.10869
0.532876 0.052781 0.129534
0.621973 0.0619974 0.153658
0.703441 0.0789044 0.183337
0.751736 0.100938 0.210086
0.764935 0.109026 0.218692
0.766155 0.110063 0.220401
0.767163 0.110903 0.22182
0.767773 0.111467 0.222629
0.7682 0.111818 0.223301
0.768582 0.112139 0.223835
0.768826 0.112367 0.224155
0.769024 0.112551 0.224384
0.769192 0.112688 0.224613
0.76936 0.11281 0.224872
0.76965 0.112978 0.225345
0.770001 0.113176 0.22591
0.770581 0.113497 0.226871
0.771176 0.113817 0.227863
0.0188296 0.021088 0.0261387
0.0187991 0.0212863 0.0264744
0.0184634 0.0207523 0.0254978
0.0190738 0.0198672 0.0244602
0.0245212 0.0215915 0.0250248
0.034165 0.0252232 0.0267033
0.044419 0.0278935 0.0288853
0.0626383 0.030808 0.0319524
0.0878004 0.0319524 0.0354314
0.120455 0.0321202 0.0408331
0.164111 0.0348821 0.0505684
0.222965 0.0379492 0.061265
0.296345 0.0408789 0.0728161
0.370748 0.0436866 0.0879988
0.450065 0.0470588 0.104356
0.533165 0.0514382 0.125078
0.621942 0.0608988 0.150103
0.702525 0.0781262 0.179721
0.750317 0.100221 0.206668
0.763851 0.108385 0.215854
0.765179 0.109545 0.217517
0.766186 0.11046 0.218814
0.766934 0.111086 0.219867
0.767452 0.111513 0.220615
0.767758 0.111742 0.221088
0.767971 0.111925 0.221439
0.768139 0.112062 0.221683
0.768307 0.1122 0.221942
0.76849 0.112337 0.222217
0.768795 0.112505 0.22269
0.769146 0.112718 0.22327
0.769726 0.113039 0.224201
0.770291 0.11339 0.22504
0.0234379 0.0319982 0.0340429
0.0233768 0.0321965 0.0343938
0.0224765 0.0315557 0.0317693
0.0236515 0.0302739 0.0293889
0.0284123 0.0290837 0.0288701
0.0361944 0.0326848 0.031342
0.0448463 0.0350347 0.0327764
0.0613565 0.0357214 0.0349584
0.0864271 0.0362402 0.0382544
0.117891 0.0356146 0.0419623
0.161608 0.0363928 0.0502937
0.219837 0.0385901 0.0606546
0.293477 0.0417182 0.0717479
0.369177 0.0446174 0.0861982
0.449409 0.047776 0.101915
0.533272 0.0513924 0.121416
0.622705 0.0602274 0.146181
0.70164 0.0773022 0.176257
0.748775 0.0992905 0.203281
0.762325 0.107362 0.212268
0.763973 0.108782 0.214389
0.765164 0.109819 0.215915
0.766018 0.110582 0.217029
0.766629 0.111116 0.217792
0.766995 0.111467 0.218265
0.767239 0.111696 0.21857
0.767376 0.111833 0.218784
0.767514 0.111925 0.219013
0.767666 0.112016 0.219242
0.767926 0.112169 0.219684
0.768261 0.112367 0.220249
0.768826 0.112688 0.22121
0.769421 0.112993 0.222187
0.0282139 0.0410163 0.0412909
0.0281682 0.0412451 0.0416876
0.0269932 0.041062 0.0391699
0.0276951 0.0400854 0.0358129
0.0333715 0.0392004 0.0341039
0.0403601 0.0400397 0.0351263
0.048249 0.0422827 0.0370184
0.0648814 0.0446326 0.0397192
0.0899672 0.044358 0.043183
0.122408 0.043061 0.0462654
0.164385 0.040589 0.0518502
0.219028 0.0401465 0.060029
0.290883 0.0427253 0.0708019
0.366995 0.0457618 0.0851759
0.447623 0.0488746 0.101122
0.53315 0.0525826 0.119799
0.622309 0.0606088 0.143664
0.700725 0.0770733 0.173175
0.747189 0.0983902 0.200076
0.760708 0.106172 0.208881
0.76228 0.107561 0.21088
0.763653 0.108827 0.212467
0.764691 0.109743 0.213794
0.765438 0.110399 0.214755
0.765957 0.110857 0.215427
0.766293 0.111162 0.215854
0.766552 0.111391 0.21619
0.766735 0.111543 0.216434
0.766873 0.11165 0.216648
0.767132 0.111788 0.217044
0.767437 0.111971 0.217533
0.768002 0.112306 0.218418
0.768582 0.112657 0.219257
0.0318608 0.0518654 0.0468757
0.0318151 0.0521248 0.0473182
0.0310826 0.052018 0.0455177
0.0311742 0.051194 0.0431983
0.0357519 0.0499733 0.038941
0.0426032 0.0498665 0.0387274
0.0522164 0.0510567 0.0404059
0.0661326 0.0536202 0.0426795
0.0933089 0.0546883 0.0468147
0.125887 0.0534676 0.0497597
0.170504 0.0510262 0.0540322
0.227115 0.0474708 0.0612345
0.29305 0.0461738 0.0702983
0.366461 0.0475166 0.0839399
0.445701 0.0500801 0.100145
0.531289 0.0540475 0.118807
0.621195 0.0621042 0.14255
0.700114 0.0778821 0.171237
0.746075 0.0983749 0.197009
0.760021 0.10605 0.205615
0.761135 0.106996 0.207309
0.762249 0.107942 0.208896
0.763165 0.108659 0.210224
0.763851 0.109255 0.211185
0.764324 0.109697 0.211749
0.764614 0.109972 0.2121
0.764904 0.110246 0.212406
0.765118 0.110445 0.21265
0.765286 0.110582 0.212848
0.765499 0.110735 0.213153
0.76582 0.110933 0.213626
0.766384 0.111254 0.214527
0.766995 0.111589 0.215457
0.0364385 0.0687419 0.0540932
0.036408 0.0691691 0.0545968
0.0360723 0.0684215 0.0508888
0.035996 0.0677806 0.0485389
0.0390478 0.0665141 0.0450752
0.0444495 0.0653544 0.0434577
0.0545815 0.066041 0.0434882
0.0714733 0.0676738 0.0461128
0.0943618 0.0702678 0.0486152
0.128374 0.0700236 0.0526436
0.172824 0.068864 0.057023
0.234531 0.0655222 0.0636301
0.30605 0.0579385 0.0721752
0.3738 0.0535134 0.0834516
0.445228 0.0522164 0.0982528
0.529702 0.0558633 0.117525
0.619806 0.0641184 0.141024
0.69958 0.0796216 0.169711
0.746624 0.100206 0.195529
0.761913 0.108629 0.203998
0.762158 0.108782 0.204501
0.762585 0.109056 0.205325
0.762875 0.109255 0.20589
0.763088 0.109422 0.206287
0.763378 0.109636 0.206821
0.763592 0.109804 0.207218
0.763745 0.109941 0.207446
0.763867 0.110033 0.20763
0.763958 0.110124 0.207782
0.764096 0.110216 0.207965
0.764294 0.110353 0.20824
0.76466 0.110567 0.208743
0.765042 0.11078 0.209262
0.0409247 0.0889754 0.0610666
0.0408942 0.0892805 0.0615396
0.0404059 0.0893721 0.05832
0.0400092 0.0890364 0.0551461
0.0413672 0.0880903 0.0520943
0.0461128 0.087129 0.0486763
0.05449 0.0865492 0.0486915
0.0725872 0.0878309 0.0490883
0.0974899 0.0893263 0.0527199
0.128542 0.0916457 0.0548562
0.1738 0.0896925 0.059617
0.23505 0.0869154 0.0668956
0.311803 0.0818799 0.0757458
0.389502 0.0734875 0.0868391
0.461509 0.0635538 0.096849
0.535866 0.0621805 0.115618
0.618967 0.067277 0.139239
0.699275 0.0825055 0.167407
0.747753 0.103243 0.194369
0.766217 0.11368 0.204318
0.76614 0.113588 0.204318
0.766049 0.113481 0.204318
0.766003 0.11342 0.204318
0.765942 0.113344 0.204318
0.765911 0.113298 0.204364
0.765911 0.113283 0.20444
0.765911 0.113268 0.204486
0.765911 0.113268 0.204532
0.765942 0.113298 0.204532
0.766049 0.113375 0.204669
0.766262 0.113527 0.204883
0.76669 0.113832 0.205371
0.767193 0.114183 0.205875
0.0436866 0.112688 0.0698558
0.043534 0.113237 0.0706493
0.0428931 0.113634 0.0670787
0.0422675 0.113664 0.0634165
0.0424506 0.113161 0.0599069
0.0448768 0.111604 0.0558022
0.0520943 0.110796 0.0529793
0.0691539 0.111208 0.0538186
0.0972 0.112505 0.0541695
0.129473 0.114183 0.0582895
0.172534 0.117159 0.0602426
0.238422 0.113024 0.0692454
0.313878 0.11165 0.0791485
0.396429 0.108354 0.0909895
0.483513 0.102098 0.104738
0.565591 0.0926528 0.122377
0.639002 0.0842145 0.13846
0.703716 0.0902724 0.164996
0.749172 0.107607 0.192081
0.771069 0.119722 0.204425
0.770962 0.119585 0.20441
0.770886 0.119493 0.20441
0.770794 0.119387 0.20441
0.770718 0.119295 0.204395
0.770657 0.119203 0.204395
0.770596 0.119142 0.204395
0.770565 0.119097 0.204395
0.770581 0.119112 0.204395
0.770596 0.119142 0.204395
0.770718 0.119249 0.204517
0.770993 0.119463 0.204761
0.771511 0.11986 0.20531
0.772168 0.120409 0.205936
0.0453956 0.14168 0.0807813
0.0452735 0.142321 0.0817731
0.0443122 0.142657 0.0769513
0.0433204 0.143023 0.071931
0.0426795 0.142916 0.067628
0.0435645 0.141817 0.0633402
0.0475166 0.140169 0.0581674
0.0599527 0.13994 0.0565652
0.0894484 0.141665 0.0575875
0.127306 0.143999 0.0578622
0.172717 0.146242 0.0637675
0.230228 0.151461 0.0660105
0.326543 0.14519 0.0826276
0.402838 0.150973 0.0942245
0.496757 0.15288 0.111223
0.592401 0.150668 0.131502
0.681056 0.144991 0.15198
0.744564 0.140215 0.178775
0.781003 0.146929 0.202686
0.796399 0.150591 0.21387
0.785519 0.137499 0.208103
0.779828 0.130587 0.205814
0.777676 0.127993 0.20499
0.777554 0.127855 0.20499
0.777462 0.127733 0.20499
0.777432 0.127703 0.204974
0.777401 0.127657 0.204974
0.777386 0.127642 0.204959
0.777417 0.127687 0.204959
0.7776 0.127855 0.205081
0.77792 0.128161 0.20531
0.778576 0.128786 0.205783
0.779355 0.129503 0.206409
0.0457771 0.179385 0.0936141
0.0455482 0.180362 0.094728
0.044419 0.180713 0.0897231
0.0433661 0.180728 0.083711
0.0422675 0.180652 0.0771649
0.041825 0.180346 0.0719463
0.0434272 0.178805 0.0661173
0.0491493 0.177142 0.0594186
0.0725414 0.178546 0.0581826
0.116426 0.182467 0.0586709
0.167025 0.185962 0.0592508
0.232181 0.190036 0.0680858
0.30808 0.20061 0.0721447
0.42443 0.199344 0.0992905
0.502312 0.205631 0.113497
0.601968 0.208057 0.135409
0.701823 0.207858 0.160189
0.786404 0.211048 0.191684
0.833463 0.222187 0.224033
0.851316 0.22739 0.238743
0.844617 0.215061 0.238239
0.837339 0.204639 0.234638
0.831479 0.196429 0.231769
0.827573 0.191058 0.229862
0.825284 0.187762 0.228824
0.823423 0.185306 0.227848
0.822187 0.183688 0.227298
0.821591 0.182879 0.227024
0.821546 0.182773 0.227024
0.822156 0.18352 0.22739
0.824048 0.185855 0.228367
0.826642 0.189029 0.229999
0.829862 0.19324 0.231754
0.0442817 0.226062 0.107317
0.044007 0.226917 0.108568
0.0428016 0.227329 0.102983
0.0416724 0.227359 0.0969863
0.0405432 0.227268 0.0908522
0.0394903 0.226978 0.0836957
0.0390173 0.226612 0.0755779
0.0413367 0.223896 0.0657359
0.0506447 0.221622 0.0571756
0.0894331 0.226581 0.0561685
0.152041 0.234165 0.0559854
0.224186 0.241428 0.058793
0.310826 0.249226 0.0708324
0.394675 0.263981 0.0762036
0.519219 0.265858 0.117662
0.601038 0.272587 0.137453
0.707744 0.274586 0.163867
0.808957 0.280873 0.197269
0.872389 0.295216 0.238163
0.897948 0.305394 0.259831
0.894972 0.299641 0.258839
0.890883 0.29221 0.257069
0.887709 0.286442 0.255756
0.884962 0.281804 0.254444
0.882902 0.278111 0.25362
0.881254 0.275395 0.252827
0.880247 0.273701 0.252369
0.87982 0.272953 0.252186
0.880323 0.273808 0.252415
0.881209 0.275288 0.252842
0.882887 0.277974 0.253712
0.885481 0.282475 0.254917
0.889433 0.288991 0.257023
0.0365759 0.285023 0.120333
0.0362097 0.286015 0.121675
0.0352026 0.286305 0.116777
0.0343175 0.286351 0.110857
0.0336156 0.286488 0.104677
0.0328527 0.286488 0.0982681
0.0319829 0.286183 0.0888838
0.0317082 0.28455 0.0758984
0.0341802 0.279911 0.0605325
0.0496986 0.27895 0.0491035
0.11104 0.289525 0.0486
0.201099 0.299306 0.047837
0.293584 0.307332 0.0532998
0.393637 0.31577 0.0720531
0.479118 0.332616 0.0840009
0.608621 0.338872 0.13109
0.704387 0.348409 0.163333
0.813336 0.349981 0.201114
0.894926 0.3626 0.244846
0.929656 0.374594 0.273381
0.930068 0.373007 0.274861
0.928206 0.368353 0.274098
0.926345 0.364401 0.27306
0.924895 0.361013 0.272465
0.923735 0.35848 0.271901
0.92311 0.357031 0.271626
0.922667 0.356069 0.271427
0.922789 0.356329 0.271473
0.92311 0.357061 0.271595
0.923644 0.358373 0.271794
0.924804 0.360983 0.272297
0.926696 0.365255 0.273167
0.929107 0.370718 0.274449
0.0238651 0.34667 0.134585
0.0235142 0.347707 0.13611
0.0224613 0.347936 0.131228
0.0213626 0.348287 0.124956
0.0203861 0.348363 0.118791
0.0195621 0.348272 0.112902
0.018677 0.348028 0.105196
0.0172885 0.347417 0.092256
0.0173953 0.345449 0.074052
0.0213321 0.340749 0.0505379
0.0525063 0.342275 0.035935
0.143282 0.352911 0.0362707
0.264073 0.363348 0.0394293
0.367239 0.373495 0.0506447
0.474845 0.383413 0.0770733
0.566644 0.404074 0.0961624
0.698451 0.415351 0.147677
0.810925 0.423636 0.198383
0.900175 0.432822 0.244602
0.950637 0.44271 0.283619
0.957488 0.44564 0.29044
0.956115 0.44155 0.289403
0.95491 0.438239 0.288518
0.954391 0.435966 0.288228
0.953735 0.434058 0.2878
0.953323 0.43328 0.287556
0.953292 0.433219 0.287541
0.953384 0.433494 0.287587
0.953811 0.434348 0.287816
0.954391 0.436133 0.288151
0.955108 0.438834 0.288579
0.956863 0.4439 0.289723
0.95874 0.450523 0.291035
0.00988785 0.41004 0.154879
0.00981155 0.411185 0.156832
0.00865187 0.411841 0.152285
0.00758373 0.411963 0.146593
0.00648508 0.41207 0.140017
0.00552377 0.41207 0.133272
0.00453193 0.412009 0.125734
0.00311284 0.411994 0.114458
0.00144961 0.411246 0.0954147
0.00260929 0.408209 0.0704204
0.0115206 0.402853 0.0396887
0.0649424 0.40647 0.0254978
0.190646 0.418616 0.0280003
0.335668 0.430701 0.0371252
0.443305 0.443748 0.0523232
0.5561 0.45539 0.0867628
0.656336 0.477928 0.11751
0.787549 0.494774 0.174807
0.900069 0.505409 0.243641
0.954818 0.520821 0.282536
0.974487 0.525246 0.29987
0.974166 0.52192 0.299779
0.9738 0.519051 0.299596
0.973526 0.516976 0.299474
0.97322 0.515694 0.299199
0.973144 0.515404 0.299138
0.973144 0.515465 0.299138
0.973419 0.516258 0.299413
0.973678 0.51783 0.29958
0.974212 0.52018 0.299886
0.974838 0.524208 0.300267
0.97499 0.529778 0.300069
0.975372 0.536721 0.299977
0.00393683 0.478798 0.184527
0.0037995 0.480507 0.186862
0.00282292 0.480903 0.182605
0.00196841 0.481209 0.177615
0.00114443 0.481498 0.172183
0.00047303 0.481697 0.166613
0 0.482124 0.158953
0 0.482292 0.148165
0 0.481956 0.131731
0 0.481025 0.104112
0.00015259 0.477012 0.0713817
0.0187839 0.472129 0.0347448
0.101884 0.476753 0.0222629
0.258656 0.48838 0.0254063
0.411841 0.50135 0.0442664
0.521157 0.517372 0.0673533
0.636851 0.530465 0.108278
0.746044 0.555428 0.153719
0.866041 0.579019 0.215961
0.955169 0.592752 0.281376
0.974487 0.605097 0.296376
0.974777 0.605722 0.296986
0.974868 0.603555 0.297032
0.975097 0.602808 0.297093
0.974762 0.602106 0.296864
0.974762 0.602106 0.29688
0.974807 0.60264 0.296941
0.974884 0.603845 0.297047
0.974853 0.606012 0.297139
0.974685 0.608988 0.29723
0.974807 0.612863 0.297688
0.974731 0.61799 0.298177
0.974807 0.624796 0.299001
0.0127108 0.556695 0.2271
0.0128939 0.558236 0.229297
0.0123293 0.558862 0.225925
0.0120089 0.559411 0.221653
0.0115053 0.55996 0.217548
0.0111086 0.56109 0.212848
0.0105592 0.561563 0.206363
0.00973526 0.561868 0.196765
0.00874342 0.562081 0.182559
0.00791943 0.561944 0.160555
0.00920119 0.560647 0.124575
0.0171206 0.555001 0.0813001
0.0541238 0.551095 0.0453346
0.167941 0.55404 0.0336156
0.334707 0.563577 0.0392462
0.491966 0.578347 0.0693065
0.600336 0.59733 0.0996872
0.718791 0.611429 0.146807
0.833188 0.637568 0.204395
0.922316 0.666056 0.262379
0.973404 0.68069 0.305379
0.974289 0.686397 0.308385
0.974197 0.685847 0.30808
0.974105 0.685054 0.307698
0.97406 0.68481 0.307591
0.974105 0.685283 0.307774
0.974212 0.68632 0.308202
0.974395 0.688014 0.308934
0.974624 0.69041 0.310002
0.974899 0.693278 0.311147
0.975479 0.697093 0.312932
0.975845 0.702037 0.315099
0.976516 0.708339 0.31809
0.0386206 0.641505 0.278172
0.0389868 0.643 0.280858
0.0389105 0.643626 0.277943
0.0389258 0.644511 0.274907
0.0391241 0.645624 0.271458
0.0391241 0.646189 0.267506
0.0390173 0.646662 0.262516
0.0386816 0.646967 0.254627
0.0381018 0.64712 0.242878
0.0375372 0.647166 0.224414
0.0378271 0.646754 0.194965
0.0421607 0.642145 0.152926
0.0563668 0.63444 0.103349
0.124636 0.634165 0.0704967
0.259312 0.638529 0.0634165
0.423499 0.647532 0.0743877
0.577356 0.66305 0.111986
0.679164 0.682536 0.149157
0.79855 0.696895 0.203464
0.907134 0.722438 0.266926
0.966583 0.750149 0.319417
0.985931 0.762448 0.346517
0.986465 0.763821 0.349157
0.986465 0.763668 0.349096
0.986481 0.76376 0.349157
0.986572 0.764141 0.349477
0.986877 0.765377 0.350362
0.987167 0.766506 0.351141
0.987564 0.768048 0.352148
0.988281 0.770199 0.35375
0.988815 0.772854 0.355428
0.990082 0.776837 0.358465
0.991485 0.781918 0.361959
0.0768902 0.720333 0.328359
0.0776837 0.721569 0.330709
0.0779431 0.722133 0.32845
0.0786297 0.723049 0.326024
0.0789197 0.723568 0.323156
0.0792248 0.724041 0.320073
0.0793317 0.724315 0.316381
0.0793927 0.724483 0.310597
0.0797589 0.72488 0.30219
0.0798505 0.724315 0.288426
0.0804608 0.723003 0.266499
0.0832227 0.718807 0.232944
0.0934615 0.712367 0.189044
0.123827 0.70811 0.141543
0.219547 0.711711 0.116396
0.356451 0.716655 0.113939
0.514244 0.726253 0.131701
0.659663 0.744152 0.177584
0.759091 0.764508 0.223529
0.867918 0.780835 0.28333
0.959075 0.802533 0.341039
0.997345 0.820142 0.380041
0.999985 0.823667 0.392355
0.999939 0.823621 0.392309
0.999969 0.823774 0.392493
0.999985 0.824613 0.393164
0.999969 0.825254 0.393668
0.999954 0.826139 0.394324
0.999939 0.827375 0.395239
0.999878 0.828901 0.396445
0.999634 0.831144 0.397803
0.999481 0.834653 0.40032
0.998779 0.838361 0.402594
0.118257 0.776364 0.370626
0.118822 0.777096 0.372824
0.118975 0.777127 0.370977
0.11902 0.777111 0.368521
0.119112 0.777096 0.366033
0.119203 0.77705 0.363821
0.119387 0.776974 0.36083
0.119783 0.776776 0.356954
0.12018 0.776013 0.350271
0.120516 0.774685 0.340581
0.121294 0.772778 0.32575
0.123125 0.769802 0.302495
0.132494 0.766445 0.268849
0.155932 0.763836 0.228183
0.21561 0.763531 0.19237
0.321767 0.765881 0.179843
0.45243 0.77232 0.183429
0.605432 0.786694 0.214252
0.741863 0.809262 0.270573
0.832715 0.830304 0.323796
0.917861 0.845914 0.380682
0.976883 0.861219 0.414099
0.988708 0.868116 0.431739
0.988403 0.868681 0.434058
0.987808 0.869184 0.434897
0.987655 0.869459 0.435325
0.987335 0.869749 0.435828
0.986847 0.87013 0.436652
0.986343 0.870863 0.438087
0.985687 0.872099 0.44062
0.984878 0.873396 0.443015
0.983536 0.875181 0.446433
0.981643 0.877287 0.450736
0.135363 0.791241 0.394842
0.135332 0.791592 0.39678
0.135378 0.791363 0.39472
0.135332 0.791119 0.392935
0.135332 0.79086 0.390814
0.135393 0.790539 0.388357
0.135607 0.790188 0.385916
0.135866 0.789731 0.382345
0.136492 0.789014 0.376532
0.137499 0.788006 0.367742
0.138811 0.786633 0.354925
0.1411 0.784726 0.335637
0.149325 0.782498 0.307118
0.175326 0.781949 0.280537
0.225971 0.782147 0.255192
0.314366 0.782879 0.241566
0.418692 0.785748 0.244724
0.548791 0.797818 0.262425
0.708766 0.822904 0.314595
0.823606 0.848402 0.37554
0.891569 0.866651 0.424262
0.951232 0.881315 0.459876
0.972442 0.88835 0.478019
0.971923 0.889311 0.483085
0.971908 0.889357 0.48333
0.971847 0.889418 0.483619
0.971756 0.889494 0.484031
0.971649 0.88957 0.48452
0.971496 0.889723 0.485451
0.971405 0.889921 0.48632
0.971252 0.890227 0.487449
0.970993 0.890715 0.489494
0.970626 0.891402 0.492287
0.135393 0.792081 0.400977
0.135332 0.792477 0.402823
0.135439 0.792264 0.40116
0.135409 0.79202 0.399268
0.135393 0.79176 0.397177
0.135378 0.791409 0.394675
0.135332 0.791043 0.392523
0.135378 0.790463 0.388388
0.13579 0.78967 0.382696
0.136721 0.788617 0.373938
0.138155 0.787137 0.360693
0.14023 0.78526 0.342229
0.146883 0.782727 0.312688
0.170703 0.781888 0.284901
0.22092 0.782513 0.266285
0.304662 0.783032 0.255451
0.407004 0.784619 0.258305
0.52575 0.794873 0.274693
0.688014 0.82034 0.321889
0.818006 0.848875 0.386786
0.887785 0.867491 0.43537
0.939178 0.882231 0.470695
0.96791 0.891737 0.491081
0.969726 0.893248 0.499214
0.969726 0.893248 0.499214
0.969726 0.893248 0.499214
0.969726 0.893248 0.499214
0.969726 0.893248 0.499214
0.969726 0.893248 0.499214
0.969726 0.893248 0.499214
0.969726 0.893248 0.499214
0.969726 0.893248 0.499214
0.969726 0.893248 0.499214
0.135225 0.792996 0.406287
0.135149 0.793393 0.40824
0.135286 0.793164 0.406455
0.135378 0.792905 0.404456
0.135439 0.792599 0.402304
0.135424 0.792264 0.400305
0.135409 0.791852 0.397574
0.135348 0.791211 0.393591
0.135409 0.790326 0.387411
0.136217 0.789181 0.378561
0.137652 0.787671 0.365499
0.13962 0.785733 0.347005
0.145037 0.783047 0.317494
0.166522 0.781765 0.287022
0.216022 0.782483 0.267704
0.296452 0.783047 0.255985
0.397925 0.784298 0.257877
0.514015 0.793423 0.272847
0.674556 0.817914 0.316625
0.80972 0.84683 0.381704
0.881178 0.866041 0.430854
0.933257 0.88069 0.466682
0.965057 0.890806 0.48809
0.969665 0.893324 0.498512
0.969619 0.893431 0.49958
0.969619 0.893446 0.49958
0.969619 0.893446 0.49958
0.969604 0.893477 0.499641
0.969573 0.893538 0.499748
0.969528 0.893645 0.499886
0.969482 0.893721 0.499992
0.969482 0.893721 0.500008
0.969497 0.893675 0.499947
0.135103 0.793988 0.410849
0.135042 0.794293 0.412558
0.135134 0.793957 0.410483
0.135241 0.793622 0.408576
0.135332 0.793271 0.406394
0.135409 0.792889 0.403952
0.135454 0.792493 0.401465
0.135424 0.791836 0.397467
0.135332 0.790875 0.391348
0.135836 0.789624 0.382223
0.13724 0.788037 0.368963
0.139254 0.786068 0.350301
0.143847 0.783276 0.320562
0.163668 0.781674 0.288502
0.212787 0.782498 0.268681
0.290623 0.783062 0.256321
0.392416 0.784131 0.257603
0.507012 0.792676 0.271748
0.666606 0.816617 0.313573
0.80383 0.845624 0.378698
0.876967 0.865171 0.426947
0.928664 0.879698 0.463905
0.962554 0.890166 0.485924
0.969558 0.893462 0.497871
0.969467 0.893751 0.500038
0.969467 0.893736 0.500038
0.969467 0.893736 0.500038
0.969451 0.893767 0.500084
0.969421 0.893828 0.50016
0.96939 0.893919 0.500282
0.96936 0.893965 0.500374
0.969345 0.893996 0.500435
0.969345 0.89398 0.500404
0.134981 0.794766 0.414557
0.134874 0.79501 0.415961
0.135042 0.794553 0.413565
0.135134 0.794141 0.4112
0.135241 0.79379 0.409125
0.135317 0.793393 0.406912
0.135409 0.792935 0.404135
0.135439 0.792248 0.400244
0.135348 0.791241 0.393713
0.135637 0.789914 0.384665
0.13698 0.788312 0.371221
0.13904 0.786267 0.352148
0.143496 0.783429 0.32253
0.161624 0.781613 0.289418
0.211063 0.782559 0.269306
0.287434 0.783032 0.256535
0.389181 0.7841 0.257557
0.504494 0.792432 0.271473
0.662501 0.816037 0.312215
0.799847 0.844648 0.37644
0.874159 0.864591 0.424552
0.925566 0.879088 0.461707
0.960845 0.889586 0.484627
0.969543 0.893431 0.497307
0.969436 0.893812 0.500145
0.969436 0.893812 0.500145
0.969436 0.893812 0.500145
0.969421 0.893843 0.500191
0.96939 0.893904 0.500267
0.96936 0.89398 0.500389
0.969329 0.894026 0.500481
0.969314 0.894041 0.500526
0.969314 0.894041 0.500526
0.134844 0.795285 0.417075
0.134768 0.795514 0.418143
0.134905 0.795026 0.41593
0.135058 0.794537 0.413352
0.135149 0.794156 0.411017
0.135271 0.793759 0.408881
0.135348 0.793271 0.406119
0.13547 0.792554 0.401892
0.135393 0.791531 0.395407
0.135546 0.790143 0.386206
0.136812 0.788479 0.372656
0.138933 0.786374 0.353292
0.143297 0.78352 0.323568
0.160632 0.781567 0.289662
0.210697 0.782559 0.269413
0.285832 0.783062 0.256535
0.388952 0.784085 0.257557
0.503349 0.792355 0.271412
0.660731 0.815824 0.311727
0.798291 0.844343 0.375647
0.872557 0.864118 0.42356
0.923369 0.87863 0.460807
0.960098 0.889265 0.483726
0.969558 0.8934 0.497002
0.969436 0.893812 0.500145
0.969436 0.893812 0.500145
0.969436 0.893812 0.500145
0.969421 0.893843 0.500191
0.96939 0.893904 0.500267
0.96936 0.89398 0.500389
0.969329 0.894026 0.500481
0.969314 0.894041 0.500526
0.969314 0.894041 0.500526
0.134768 0.795605 0.41854
0.134661 0.795834 0.419684
0.134829 0.795331 0.417319
0.134981 0.794842 0.414908
0.135103 0.7944 0.41239
0.135195 0.793988 0.410178
0.135302 0.793484 0.407446
0.135454 0.792737 0.402945
0.135409 0.791684 0.396506
0.135561 0.790249 0.386816
0.136736 0.788556 0.373266
0.138903 0.786419 0.353796
0.143267 0.783536 0.323827
0.160174 0.781537 0.289372
0.211261 0.782559 0.2692
0.286824 0.783062 0.256336
0.389776 0.784131 0.257649
0.504799 0.792554 0.271687
0.661814 0.816037 0.31223
0.798276 0.844404 0.375784
