bundles/resolve-cinematic-luts/Phantom Luts/P4k & P6k Phntm Arri LUTs - V6/P6k/Gen 5 Colour/P6k IceBlue Gen5.cube
TITLE "Generated by Resolve"
LUT_3D_SIZE 9
0.0291905 0.0418708 0.0404059
0.0379339 0.0416419 0.0420539
0.0935531 0.0425879 0.0442512
0.319966 0.0458839 0.0590982
0.591562 0.0748302 0.119753
0.725582 0.145693 0.184436
0.730083 0.150576 0.191089
0.731563 0.151492 0.194369
0.736492 0.148058 0.213397
0.031281 0.0498207 0.0439918
0.0348058 0.0485237 0.0433204
0.0889754 0.0495613 0.0470741
0.329 0.0488289 0.0555123
0.60148 0.0773938 0.113298
0.719966 0.140673 0.171206
0.72459 0.145754 0.177996
0.725902 0.147082 0.17998
0.730571 0.144015 0.196628
0.0399481 0.124422 0.0767834
0.0395056 0.125673 0.0637217
0.0990921 0.126665 0.0608682
0.36527 0.12282 0.0721294
0.62649 0.112963 0.120256
0.744396 0.180575 0.181323
0.744244 0.180331 0.181216
0.744671 0.180941 0.181506
0.751232 0.18468 0.193698
0.0380865 0.357015 0.152224
0.0363775 0.367483 0.131823
0.0375525 0.36379 0.0864729
0.317494 0.380819 0.0639048
0.707179 0.404974 0.164553
0.876524 0.438529 0.276173
0.874037 0.429129 0.27364
0.874922 0.431754 0.274357
0.885939 0.462837 0.285557
0.117281 0.672145 0.361532
0.125261 0.6822 0.357549
0.129427 0.685435 0.331716
0.158556 0.67631 0.209659
0.660227 0.710079 0.213886
0.92195 0.744244 0.354345
0.950835 0.756909 0.383429
0.951125 0.760983 0.387198
0.957351 0.786664 0.405249
0.287419 0.865888 0.553155
0.288151 0.865644 0.547951
0.293202 0.863722 0.535805
0.30753 0.860304 0.476356
0.5682 0.883101 0.421088
0.908217 0.919203 0.519585
0.972641 0.92578 0.576425
0.971496 0.926436 0.586023
0.971649 0.928573 0.593088
0.284428 0.869184 0.571344
0.284688 0.868132 0.564034
0.288136 0.865736 0.550439
0.301961 0.860395 0.491218
0.539055 0.883574 0.42855
0.899382 0.921035 0.523934
0.970916 0.929534 0.586145
0.969573 0.929564 0.589899
0.967575 0.929747 0.594141
0.284184 0.870024 0.576577
0.284001 0.868818 0.568521
0.287266 0.865873 0.552316
0.302922 0.859632 0.487663
0.562173 0.884413 0.429175
0.905211 0.920806 0.527214
0.97258 0.928695 0.58616
0.972244 0.928908 0.588174
0.966232 0.930083 0.595071
0.284581 0.870237 0.578454
0.284962 0.868833 0.569986
0.289525 0.864561 0.540993
0.346685 0.865995 0.446967
0.72192 0.898726 0.45388
0.935714 0.923217 0.557412
0.972885 0.928862 0.586618
0.971984 0.929015 0.587915
0.96553 0.930022 0.597787
0.029633 0.042237 0.0461891
0.0391699 0.0420233 0.0491798
0.106783 0.0436713 0.0670787
0.33994 0.0489052 0.0926223
0.611765 0.088014 0.159167
0.740322 0.154208 0.217792
0.749294 0.165072 0.228489
0.752575 0.168597 0.233387
0.756222 0.166842 0.247898
0.0303502 0.0452888 0.0436408
0.0315404 0.0443275 0.0430915
0.0918441 0.043061 0.0478981
0.335103 0.0457618 0.0695964
0.60911 0.077348 0.140154
0.730571 0.144244 0.200809
0.734524 0.148455 0.20705
0.73579 0.149691 0.209262
0.738659 0.147799 0.220691
0.0421302 0.114763 0.0958419
0.0391089 0.119615 0.0781567
0.0905165 0.121157 0.0606546
0.372671 0.1084 0.0712444
0.617548 0.0943923 0.118883
0.733349 0.160815 0.177493
0.733211 0.160372 0.177813
0.733715 0.161181 0.178195
0.740917 0.165988 0.190448
0.0396124 0.354559 0.175204
0.037583 0.365423 0.157198
0.0367437 0.365743 0.107073
0.313191 0.380774 0.0636454
0.711727 0.402304 0.167239
0.87602 0.434867 0.275547
0.872862 0.425681 0.27248
0.873396 0.427909 0.272953
0.884565 0.459373 0.284382
0.117479 0.674784 0.378851
0.125795 0.684932 0.375814
0.130251 0.688304 0.352102
0.154086 0.679149 0.2206
0.662089 0.712352 0.215747
0.924529 0.746273 0.357
0.950713 0.75787 0.384176
0.951308 0.762066 0.387915
0.957839 0.787442 0.405539
0.285542 0.867201 0.561547
0.286549 0.866743 0.556588
0.289906 0.86482 0.543648
0.304463 0.860533 0.483452
0.565652 0.883192 0.42208
0.909514 0.919738 0.521935
0.972641 0.926268 0.578515
0.971466 0.927016 0.588251
0.971679 0.928588 0.59295
0.282719 0.870985 0.579736
0.283223 0.86978 0.572564
0.287007 0.866682 0.558892
0.300847 0.860792 0.499321
0.537423 0.883543 0.428534
0.899565 0.92105 0.524025
0.970916 0.929534 0.586145
0.969573 0.929564 0.589899
0.967742 0.929824 0.592905
0.283986 0.871458 0.585962
0.282353 0.870558 0.57705
0.285512 0.867079 0.560586
0.301228 0.860212 0.495872
0.559686 0.884306 0.428779
0.904967 0.920897 0.526925
0.972183 0.928527 0.585611
0.971557 0.928756 0.591592
0.965911 0.929992 0.596857
0.283803 0.87216 0.588998
0.282994 0.871 0.580148
0.287144 0.866011 0.551415
0.340078 0.864805 0.450477
0.717632 0.89836 0.45301
0.933883 0.92314 0.556146
0.972885 0.928862 0.586618
0.971954 0.929 0.588113
0.965331 0.929946 0.599039
0.0341344 0.0446174 0.117433
0.0580606 0.0440681 0.11249
0.109651 0.04477 0.116228
0.365499 0.047715 0.151476
0.628702 0.0929732 0.192798
0.771496 0.191028 0.261509
0.773114 0.191577 0.265904
0.773938 0.191592 0.268589
0.77734 0.189761 0.284581
0.0271611 0.0475929 0.0932784
0.0350347 0.0445716 0.11606
0.102968 0.0448768 0.115602
0.374258 0.046891 0.141909
0.635691 0.0998245 0.186999
0.768368 0.187198 0.256443
0.771679 0.190585 0.261891
0.77319 0.191882 0.264591
0.777432 0.191608 0.280262
0.0399939 0.106752 0.117037
0.0392157 0.108278 0.11902
0.0888838 0.10959 0.126131
0.374868 0.0878462 0.111772
0.612924 0.0841077 0.140536
0.731029 0.148333 0.196109
0.735485 0.15314 0.202747
0.736858 0.15465 0.204669
0.741344 0.154818 0.217548
0.0470588 0.341466 0.221103
0.0437171 0.352743 0.209934
0.03888 0.357595 0.170535
0.292638 0.375174 0.0677043
0.717189 0.385428 0.171252
0.869383 0.417685 0.269429
0.865675 0.407111 0.266346
0.866041 0.408911 0.266682
0.877516 0.437278 0.278416
0.113985 0.672999 0.406348
0.12221 0.684062 0.406332
0.126802 0.687602 0.387564
0.139513 0.678935 0.246708
0.656367 0.709804 0.213321
0.927459 0.742916 0.357824
0.949279 0.752834 0.380194
0.949981 0.756542 0.383383
0.956222 0.781811 0.401953
0.282383 0.870726 0.57937
0.283803 0.870085 0.575509
0.286778 0.867445 0.563363
0.300679 0.861204 0.505165
0.550698 0.881926 0.421012
0.907546 0.919173 0.520531
0.972625 0.92639 0.580682
0.971557 0.92723 0.588663
0.972381 0.928786 0.589685
0.282185 0.874083 0.598962
0.282032 0.873503 0.593835
0.283192 0.870787 0.579553
0.295705 0.862608 0.521538
0.52079 0.882506 0.42768
0.895918 0.920317 0.521065
0.970169 0.929274 0.586511
0.969253 0.929534 0.592569
0.967727 0.929946 0.593973
0.282231 0.875319 0.606821
0.281331 0.874723 0.601068
0.283101 0.871351 0.58558
0.296345 0.862013 0.521035
0.540658 0.882841 0.427024
0.900496 0.920119 0.522957
0.970855 0.928069 0.584207
0.971832 0.928832 0.59086
0.966262 0.930159 0.595758
0.282872 0.878706 0.62591
0.281041 0.878477 0.620706
0.281605 0.873549 0.594797
0.30985 0.861143 0.482719
0.684169 0.894423 0.447349
0.927672 0.923583 0.549569
0.972839 0.929015 0.588663
0.971618 0.929091 0.591684
0.964721 0.930205 0.601785
0.0656443 0.0488899 0.326741
0.100679 0.048127 0.321736
0.169589 0.0481727 0.312917
0.363821 0.0501869 0.315923
0.653849 0.0842451 0.34931
0.796246 0.179294 0.378531
0.79588 0.177203 0.384115
0.79588 0.176059 0.389425
0.794156 0.168978 0.42974
0.0220493 0.056611 0.31841
0.0680247 0.0492561 0.340887
0.153582 0.0485847 0.335561
0.374945 0.0508431 0.33611
0.666773 0.0886091 0.360708
0.797711 0.178729 0.389044
0.797208 0.176867 0.394736
0.797131 0.175769 0.400046
0.793317 0.167025 0.437186
0.0166781 0.0897078 0.284321
0.0148165 0.0795758 0.305333
0.0672923 0.0521248 0.345342
0.35259 0.0504311 0.33434
0.663188 0.087953 0.334508
0.798932 0.188952 0.357
0.799817 0.188495 0.362295
0.8 0.187427 0.366598
0.800549 0.180499 0.403967
0.0407416 0.328206 0.320516
0.0393378 0.338231 0.33109
0.0385901 0.338872 0.333562
0.310018 0.352956 0.365347
0.744625 0.339513 0.324483
0.866621 0.338506 0.322667
0.854032 0.315587 0.313237
0.85452 0.315633 0.31458
0.880339 0.354253 0.344533
0.113268 0.664652 0.502861
0.119966 0.676585 0.51104
0.121294 0.68127 0.503517
0.115984 0.675486 0.421805
0.619501 0.701823 0.260563
0.941604 0.730983 0.382223
0.952117 0.73286 0.387915
0.952712 0.735653 0.390311
0.958816 0.764309 0.415549
0.279896 0.876432 0.644755
0.283925 0.878187 0.646632
0.282765 0.877806 0.638666
0.280888 0.870207 0.588327
0.470558 0.87834 0.430701
0.898116 0.916106 0.511498
0.973175 0.922286 0.572442
0.97261 0.922698 0.57525
0.971923 0.925261 0.588708
0.287938 0.885344 0.666178
0.288472 0.885328 0.666255
0.286229 0.883803 0.657267
0.282628 0.875303 0.608026
0.435767 0.876875 0.440452
0.877729 0.9187 0.515435
0.963867 0.928496 0.591257
0.968658 0.930404 0.605875
0.9664 0.930755 0.61593
0.291203 0.888334 0.680079
0.292546 0.888014 0.680201
0.289342 0.88629 0.670207
0.282902 0.876493 0.617838
0.443503 0.877546 0.439506
0.879728 0.918334 0.516487
0.962295 0.926955 0.588098
0.97203 0.929641 0.604196
0.966888 0.931472 0.610468
0.317082 0.898772 0.73756
0.319249 0.898833 0.739834
0.31075 0.896193 0.724361
0.285985 0.881422 0.644648
0.579522 0.891844 0.491691
0.916503 0.927932 0.564157
0.967819 0.931105 0.614389
0.971496 0.931746 0.618967
0.96582 0.932677 0.622141
0.189807 0.0598459 0.576577
0.226658 0.0598154 0.581964
0.283757 0.0601511 0.585626
0.420508 0.0649882 0.585412
0.630945 0.0962234 0.57554
0.776547 0.15523 0.582712
0.776211 0.155901 0.587839
0.775464 0.156054 0.591684
0.768124 0.158297 0.621668
0.155779 0.0611429 0.576104
0.201251 0.0615091 0.589395
0.271809 0.0618296 0.598398
0.425483 0.0677348 0.602625
0.643503 0.102815 0.592844
0.774502 0.15639 0.59852
0.774182 0.157275 0.6038
0.773404 0.157687 0.60856
0.76585 0.160678 0.639323
0.0585794 0.0698711 0.549386
0.103639 0.0637675 0.56846
0.198993 0.0619974 0.592035
0.402365 0.0671855 0.607507
0.637995 0.102251 0.597238
0.77615 0.156329 0.593912
0.775586 0.156893 0.599008
0.775341 0.157351 0.602716
0.769253 0.160098 0.630732
0.0211795 0.296315 0.560067
0.0218509 0.301015 0.570306
0.0220188 0.287419 0.577981
0.272816 0.182071 0.693904
0.674846 0.176303 0.663111
0.807675 0.186587 0.584527
0.804013 0.181247 0.577508
0.805463 0.183597 0.58233
0.816815 0.206012 0.627955
0.141695 0.658839 0.650187
0.150561 0.671214 0.661219
0.154925 0.676127 0.666728
0.155688 0.674098 0.668589
0.621454 0.668757 0.688365
0.967712 0.673564 0.662547
0.990982 0.669673 0.651301
0.989044 0.672801 0.655726
0.977432 0.704021 0.695644
0.3346 0.88867 0.792554
0.347616 0.892653 0.799786
0.34992 0.893584 0.800092
0.333394 0.889647 0.781994
0.434546 0.886702 0.696544
0.879683 0.912139 0.688899
0.984817 0.915618 0.686931
0.984268 0.915923 0.693187
0.977478 0.923506 0.738094
0.387991 0.919936 0.822385
0.404715 0.918853 0.827268
0.403983 0.917723 0.825391
0.374121 0.912184 0.804639
0.391867 0.905165 0.702968
0.831571 0.930968 0.693416
0.965148 0.944366 0.70515
0.977752 0.948791 0.747097
0.973205 0.950423 0.783078
0.407126 0.927016 0.840085
0.428504 0.924407 0.844266
0.425757 0.92311 0.841413
0.390173 0.916869 0.818952
0.419013 0.906355 0.719829
0.835584 0.930602 0.715282
0.960586 0.943267 0.705104
0.977539 0.94934 0.755581
0.971252 0.951614 0.778195
0.489418 0.945235 0.894133
0.51902 0.939132 0.894057
0.517098 0.93608 0.889464
0.459678 0.930556 0.863279
0.627863 0.921431 0.816251
0.89778 0.945953 0.810971
0.967346 0.951751 0.779873
0.975891 0.954208 0.795224
0.970123 0.954421 0.795453
0.356786 0.0890211 0.704479
0.370855 0.0902876 0.707057
0.394659 0.0923171 0.710048
0.479347 0.105303 0.72195
0.655192 0.158007 0.744289
0.773785 0.207553 0.759793
0.774823 0.210163 0.7635
0.775708 0.21001 0.762539
0.771466 0.210697 0.767651
0.345235 0.088365 0.703304
0.361501 0.0899977 0.707195
0.389838 0.0927138 0.711696
0.484062 0.106889 0.724987
0.668345 0.165728 0.750805
0.774578 0.208408 0.760769
0.77528 0.210086 0.763012
0.774701 0.210178 0.76376
0.769924 0.210956 0.769451
0.307759 0.0853437 0.695094
0.326299 0.0878157 0.701961
0.359869 0.0901503 0.707759
0.468177 0.104646 0.724163
0.66212 0.164492 0.752544
0.776303 0.20853 0.759182
0.777722 0.209613 0.759884
0.777325 0.209751 0.760555
0.77261 0.210498 0.7664
0.144167 0.14612 0.695491
0.154238 0.136339 0.695323
0.171359 0.107118 0.682582
0.356115 0.0921645 0.709728
0.6206 0.149676 0.748058
0.780652 0.214527 0.763348
0.784787 0.216861 0.763714
0.785199 0.217823 0.765103
0.782803 0.22092 0.772747
0.151232 0.659175 0.782406
0.16495 0.671885 0.792615
0.171481 0.676066 0.799222
0.1738 0.668254 0.809689
0.658473 0.62884 0.971481
0.962295 0.605936 0.94551
0.987961 0.592248 0.932219
0.988067 0.596872 0.931807
0.972946 0.640009 0.938735
0.386358 0.896941 0.88304
0.403647 0.902129 0.888563
0.410513 0.903822 0.890639
0.406699 0.902281 0.889067
0.544305 0.908278 0.903975
0.872511 0.893172 0.902296
0.979782 0.893858 0.901946
0.980545 0.894804 0.90219
0.973541 0.905562 0.915496
0.5794 0.952743 0.924285
0.599405 0.949096 0.924529
0.601923 0.948302 0.924163
0.592981 0.946929 0.920623
0.600656 0.944808 0.912032
0.850584 0.9514 0.920439
0.964538 0.962585 0.917769
0.977615 0.962997 0.913863
0.975494 0.964141 0.927977
0.583764 0.957046 0.931319
0.610788 0.951095 0.930068
0.616251 0.94905 0.928496
0.598703 0.94931 0.924941
0.613672 0.94522 0.914275
0.858274 0.950301 0.922148
0.959518 0.963088 0.922087
0.979324 0.964141 0.914778
0.977142 0.965316 0.923781
0.641443 0.9608 0.950744
0.668147 0.953811 0.945998
0.662959 0.951812 0.942931
0.626993 0.952178 0.93521
0.738338 0.949111 0.932906
0.907225 0.957305 0.943679
0.963928 0.965255 0.940627
0.975708 0.966506 0.932128
0.973709 0.96698 0.930709
0.388571 0.0931868 0.713024
0.400381 0.09514 0.716075
0.420829 0.0977493 0.719234
0.497475 0.11075 0.729595
0.669398 0.167514 0.75433
0.774731 0.210163 0.763821
0.774823 0.210163 0.763577
0.775814 0.209995 0.762356
0.771542 0.210697 0.767407
0.375677 0.0915236 0.710292
0.386984 0.093431 0.713909
0.411521 0.0964065 0.717708
0.498009 0.110826 0.729641
0.678355 0.172015 0.756863
0.774639 0.210178 0.763928
0.774685 0.210178 0.76379
0.774304 0.210239 0.764202
0.771298 0.210727 0.767834
0.341314 0.0887312 0.704601
0.354681 0.0903792 0.708583
0.383322 0.0930953 0.713466
0.480827 0.107607 0.727611
0.670588 0.169604 0.757214
0.77612 0.209934 0.762081
0.777218 0.209766 0.760693
0.776822 0.209827 0.761196
0.772656 0.21062 0.766522
0.208835 0.118883 0.703609
0.204837 0.113649 0.699901
0.19794 0.090013 0.678737
0.376104 0.0930953 0.71284
0.624445 0.150332 0.74931
0.780362 0.217121 0.76936
0.785458 0.218647 0.766873
0.785534 0.219074 0.767544
0.782696 0.221927 0.774899
0.25536 0.675593 0.873838
0.263249 0.687633 0.87686
0.264897 0.689433 0.877165
0.25301 0.673045 0.871778
0.688289 0.598199 0.99353
0.959304 0.588037 0.972183
0.980102 0.576867 0.965301
0.980209 0.582025 0.964782
0.969787 0.626886 0.965789
0.514061 0.912077 0.948333
0.534127 0.914488 0.945953
0.540734 0.915129 0.945342
0.532509 0.913008 0.945602
0.618723 0.90277 0.950668
0.879515 0.884016 0.954238
0.968688 0.879164 0.956237
0.973571 0.879561 0.949981
0.963836 0.893965 0.95314
0.689433 0.956466 0.951141
0.702632 0.953063 0.950103
0.705028 0.952438 0.949691
0.705348 0.952331 0.949523
0.722057 0.952911 0.948898
0.876829 0.95317 0.954971
0.957977 0.9561 0.958404
0.98352 0.954726 0.959213
0.979355 0.956985 0.963241
0.685008 0.957549 0.95108
0.70161 0.953353 0.950347
0.707164 0.951858 0.949081
0.70222 0.953185 0.950256
0.718273 0.954131 0.94847
0.889097 0.958389 0.955413
0.957046 0.96611 0.963882
0.976959 0.968261 0.961913
0.976806 0.968811 0.964569
0.683391 0.958144 0.952468
0.702373 0.95314 0.950149
0.708705 0.951446 0.948653
0.704662 0.953063 0.950225
0.792279 0.954498 0.952682
0.920012 0.961685 0.961242
0.96202 0.967437 0.967086
0.974258 0.969116 0.965454
0.977493 0.968826 0.963134
0.393545 0.093843 0.71397
0.40531 0.0957656 0.716823
0.425132 0.0984817 0.720073
0.500267 0.11104 0.729595
0.672145 0.16878 0.754803
0.774746 0.210163 0.763806
0.774838 0.210147 0.763577
0.775753 0.21001 0.762432
0.773419 0.210391 0.765194
0.381033 0.0920119 0.71107
0.391516 0.0939193 0.714595
0.415518 0.0969863 0.718395
0.500816 0.111101 0.72961
0.681239 0.173327 0.757412
0.774639 0.210178 0.763928
0.774685 0.210178 0.763806
0.774319 0.210239 0.764202
0.771298 0.210727 0.767834
0.349035 0.0888228 0.704738
0.359487 0.0906691 0.7093
0.387381 0.093431 0.713954
0.483986 0.108186 0.727962
0.673136 0.170642 0.75758
0.776165 0.209934 0.762036
0.777203 0.209766 0.760723
0.776776 0.209842 0.761242
0.772702 0.210697 0.766583
0.20856 0.116396 0.701656
0.2047 0.110735 0.697795
0.196262 0.0878004 0.676249
0.379049 0.0932021 0.71313
0.627161 0.151751 0.75021
0.779049 0.215976 0.768811
0.785595 0.218799 0.767025
0.785626 0.219181 0.767666
0.782742 0.221973 0.774929
0.253849 0.673716 0.873045
0.26215 0.685939 0.876493
0.263615 0.687816 0.876524
0.251865 0.671046 0.871321
0.690562 0.594965 0.993301
0.958373 0.585702 0.972061
0.97969 0.574929 0.965057
0.980804 0.580102 0.962676
0.969024 0.625879 0.965087
0.51606 0.911391 0.948775
0.531746 0.91426 0.946838
0.538689 0.914641 0.945373
0.529366 0.912123 0.945525
0.620295 0.900511 0.950408
0.880491 0.88159 0.952697
0.968185 0.877531 0.95584
0.972686 0.877546 0.951537
0.963211 0.892088 0.953735
0.689799 0.956359 0.951095
0.702617 0.953063 0.950103
0.705013 0.952438 0.949691
0.705333 0.952331 0.949523
0.733639 0.951553 0.9505
0.884504 0.951888 0.958846
0.956252 0.95523 0.96524
0.977829 0.954131 0.961975
0.974655 0.956786 0.964645
0.684367 0.957763 0.951339
0.701595 0.953353 0.950362
0.707088 0.951888 0.949096
0.702159 0.953201 0.950271
0.742519 0.953246 0.950698
0.899718 0.959533 0.960403
0.958175 0.966781 0.968399
0.976944 0.967208 0.966384
0.985901 0.965286 0.967971
0.683391 0.958144 0.952468
0.702358 0.95314 0.950164
0.708278 0.951568 0.94876
0.704402 0.95314 0.950286
0.793149 0.954467 0.952941
0.92314 0.962036 0.963684
0.962325 0.968139 0.970214
0.974121 0.969162 0.96968
0.976959 0.9691 0.968643
0.394537 0.0939651 0.714122
0.406119 0.0958267 0.716884
0.427329 0.0988022 0.720409
0.505272 0.111925 0.730037
0.679255 0.171786 0.755917
0.774777 0.210147 0.763775
0.774838 0.210147 0.763577
0.775769 0.209995 0.762417
0.773419 0.210391 0.765194
0.381888 0.0920729 0.711116
0.392233 0.0940414 0.714748
0.417456 0.0972915 0.718746
0.506096 0.112139 0.730236
0.688457 0.176349 0.758358
0.774716 0.210163 0.763836
0.774685 0.210178 0.763806
0.774319 0.210239 0.764202
0.77142 0.210712 0.767681
0.348455 0.0887312 0.704555
0.358801 0.0906691 0.70927
0.388083 0.0934768 0.714092
0.488716 0.109041 0.728481
0.680781 0.174151 0.759121
0.776333 0.209995 0.761959
0.777234 0.209827 0.760815
0.776852 0.209903 0.761395
0.773053 0.210758 0.766476
0.210239 0.123003 0.706859
0.20528 0.120912 0.705653
0.199878 0.099443 0.687587
0.377386 0.0934157 0.713314
0.634852 0.156191 0.753079
0.780026 0.216922 0.769406
0.786267 0.219654 0.767727
0.786358 0.220066 0.768429
0.783246 0.222675 0.775555
0.264118 0.686427 0.877317
0.272694 0.699077 0.880491
0.274891 0.701289 0.880888
0.262226 0.68394 0.875303
0.700282 0.612543 0.98909
0.956222 0.604212 0.968414
0.982422 0.59321 0.964874
0.980941 0.599634 0.962448
0.966964 0.641657 0.962875
0.528954 0.91545 0.947997
0.545922 0.917906 0.945724
0.553552 0.917998 0.943816
0.544167 0.914961 0.943755
0.641443 0.90251 0.947723
0.885481 0.887495 0.951034
0.967926 0.883268 0.955657
0.971527 0.883177 0.950149
0.961807 0.897383 0.952712
0.691722 0.95584 0.950835
0.705058 0.952407 0.949538
0.709804 0.951141 0.948409
0.71191 0.950561 0.947936
0.746578 0.950027 0.949676
0.891035 0.952056 0.959411
0.95639 0.956283 0.966369
0.978882 0.95462 0.961486
0.974105 0.957427 0.965148
0.69575 0.954589 0.94902
0.706706 0.951965 0.949081
0.713375 0.950164 0.947601
0.71397 0.950027 0.947494
0.758618 0.95111 0.949966
0.903975 0.959915 0.962905
0.956741 0.96733 0.971527
0.978683 0.96669 0.96556
0.981979 0.966506 0.964752
0.684627 0.957641 0.95108
0.704463 0.95256 0.949691
0.713924 0.950011 0.947478
0.716747 0.949874 0.947417
0.806378 0.952316 0.95256
0.924193 0.961929 0.965591
0.959884 0.968795 0.973098
0.971466 0.969802 0.972427
0.979461 0.968353 0.967285
