bundles/resolve-cinematic-luts/Phantom Luts/P4k & P6k Phntm Arri LUTs - V6/P6k/Gen 5 Colour/P6k IceBlue Gen5.cube
TITLE "Generated by Resolve"
LUT_3D_SIZE 33
0.0291905 0.0418708 0.0404059
0.0292058 0.0418708 0.0403906
0.0293126 0.041825 0.0403601
0.0319219 0.0419165 0.0410315
0.0379339 0.0416419 0.0420539
0.0463874 0.0416724 0.0419776
0.0564889 0.0415503 0.0416114
0.0714885 0.0420386 0.0424506
0.0935531 0.0425879 0.0442512
0.127596 0.0431678 0.047364
0.177722 0.0434882 0.0505531
0.242481 0.0444495 0.054902
0.319966 0.0458839 0.0590982
0.399558 0.0487831 0.0673686
0.474632 0.0530861 0.0810559
0.536217 0.0613718 0.0990616
0.591562 0.0748302 0.119753
0.640848 0.092958 0.14139
0.684901 0.115831 0.162814
0.716136 0.137407 0.178546
0.725582 0.145693 0.184436
0.727214 0.147372 0.186892
0.728435 0.148699 0.188769
0.729442 0.149813 0.190219
0.730083 0.150576 0.191089
0.730449 0.150942 0.191775
0.730785 0.151263 0.192309
0.731167 0.151461 0.193179
0.731563 0.151492 0.194369
0.732326 0.15111 0.19707
0.733303 0.1505 0.200687
0.734844 0.149325 0.20676
0.736492 0.148058 0.213397
0.0293278 0.0417792 0.0401007
0.0292668 0.0418402 0.0402533
0.0292363 0.0418555 0.0403296
0.0306096 0.0420233 0.0407263
0.0356909 0.0419928 0.0418555
0.0438087 0.0418402 0.0421149
0.0542 0.0417029 0.0417792
0.0699626 0.0422065 0.0425727
0.0924086 0.0428168 0.0441596
0.128069 0.043534 0.0469673
0.181186 0.0439612 0.0501259
0.249592 0.0447852 0.0538643
0.330434 0.0462196 0.0572671
0.410605 0.049012 0.0645457
0.484215 0.0538643 0.0787518
0.54377 0.0624399 0.0975204
0.59823 0.0765545 0.119402
0.646555 0.0952773 0.141253
0.690211 0.119387 0.162692
0.717311 0.138827 0.176501
0.724422 0.145022 0.181247
0.726009 0.146563 0.183764
0.727321 0.148135 0.185458
0.728328 0.149218 0.186984
0.72903 0.149981 0.188052
0.729503 0.150469 0.188769
0.729778 0.150774 0.189242
0.730083 0.150881 0.190036
0.730373 0.150835 0.190982
0.731136 0.150378 0.19382
0.732097 0.149767 0.197299
0.73373 0.148577 0.203586
0.735454 0.147295 0.210315
0.0293278 0.0417792 0.040116
0.0292515 0.0418402 0.0402686
0.029221 0.0418555 0.0403449
0.0296941 0.0420386 0.0405432
0.0327153 0.0422522 0.0411078
0.039704 0.0424506 0.042649
0.0502174 0.0422065 0.042298
0.0659648 0.0423896 0.042649
0.0884718 0.0431373 0.0440986
0.12401 0.0440833 0.0466621
0.178836 0.0447089 0.0496223
0.249805 0.0455634 0.0535134
0.332189 0.0469825 0.0569924
0.413779 0.049424 0.0628367
0.487633 0.0542 0.0749828
0.546304 0.0626383 0.0934005
0.600061 0.0768597 0.116045
0.647776 0.0956588 0.138399
0.690974 0.120043 0.159823
0.716564 0.138552 0.172793
0.722972 0.144244 0.177386
0.724468 0.145739 0.179553
0.725597 0.146929 0.181292
0.726604 0.148013 0.182803
0.727321 0.148775 0.183902
0.72781 0.14931 0.184665
0.728145 0.149706 0.185122
0.728511 0.14992 0.185901
0.728893 0.14992 0.187015
0.729686 0.149523 0.189776
0.730663 0.148913 0.19324
0.732326 0.147677 0.199527
0.734051 0.146365 0.206226
0.0296635 0.0436866 0.04094
0.0295872 0.0436255 0.0408789
0.0298161 0.0433661 0.0408026
0.0304112 0.0430915 0.0408331
0.0322271 0.0436866 0.0414893
0.037644 0.0443122 0.0430304
0.047303 0.0439765 0.0430457
0.0629587 0.0438544 0.0433967
0.0847791 0.043946 0.044419
0.119463 0.0447242 0.0466316
0.17496 0.0455482 0.0493019
0.247181 0.0465095 0.0530556
0.331167 0.0479286 0.0564431
0.41445 0.0504005 0.0629129
0.489204 0.0550851 0.0752117
0.548257 0.0631876 0.0920729
0.60058 0.0766003 0.11342
0.648112 0.0953078 0.13608
0.690806 0.119478 0.157137
0.715267 0.137102 0.169512
0.721843 0.143206 0.174334
0.723156 0.144625 0.176318
0.724437 0.145861 0.178302
0.725292 0.146807 0.179583
0.725887 0.147372 0.180652
0.726452 0.147982 0.181552
0.726818 0.148318 0.182193
0.727153 0.148486 0.182895
0.727443 0.148516 0.183688
0.728054 0.148211 0.185687
0.728939 0.147646 0.18883
0.730587 0.146441 0.194919
0.73225 0.145159 0.201358
0.031281 0.0498207 0.0439918
0.0312047 0.049897 0.0438697
0.0313573 0.0494392 0.0432898
0.0323796 0.0485695 0.0429236
0.0348058 0.0485237 0.0433204
0.0393225 0.049546 0.0442817
0.0492866 0.0499733 0.0452735
0.0648661 0.0501411 0.0461891
0.0889754 0.0495613 0.0470741
0.1243 0.0481422 0.0478523
0.177478 0.0475319 0.0500496
0.245747 0.0476081 0.0528725
0.329 0.0488289 0.0555123
0.413718 0.0515602 0.0621958
0.490089 0.0561837 0.074876
0.549172 0.0642252 0.0924239
0.60148 0.0773938 0.113298
0.648066 0.0954147 0.134112
0.689769 0.118227 0.154467
0.714076 0.135637 0.166629
0.719966 0.140673 0.171206
0.721736 0.142779 0.173495
0.72285 0.144015 0.17528
0.723796 0.145037 0.176776
0.72459 0.145754 0.177996
0.725139 0.146349 0.17882
0.725521 0.146777 0.179324
0.725795 0.147066 0.179706
0.725902 0.147082 0.17998
0.72639 0.146899 0.181506
0.727214 0.146471 0.184268
0.728771 0.145388 0.189929
0.730571 0.144015 0.196628
0.0337835 0.0596475 0.0496986
0.0337377 0.0597543 0.0493019
0.033753 0.0591135 0.0482643
0.0345312 0.0580453 0.0474403
0.0377356 0.0569619 0.0471199
0.0435645 0.057435 0.0476844
0.0519875 0.0585946 0.0483558
0.0687724 0.0596475 0.0497139
0.0933242 0.0595102 0.0514076
0.132128 0.0586099 0.0525978
0.190036 0.0560159 0.0533608
0.258167 0.0533608 0.0542458
0.333135 0.0515145 0.0559396
0.414572 0.0529335 0.0620127
0.48983 0.0571908 0.07364
0.549035 0.0652628 0.0914626
0.601724 0.0786297 0.112581
0.648661 0.0968795 0.13344
0.689693 0.119234 0.151965
0.715068 0.13814 0.164508
0.719753 0.141726 0.167712
0.720317 0.142061 0.169085
0.721065 0.142687 0.17055
0.721874 0.143542 0.171923
0.722454 0.144106 0.172915
0.722774 0.144472 0.173419
0.723049 0.144793 0.173831
0.723339 0.145144 0.174182
0.723491 0.145281 0.174411
0.723964 0.145129 0.175845
0.724773 0.144717 0.178531
0.726421 0.143603 0.184314
0.728206 0.142245 0.190814
0.0361944 0.0742351 0.0574197
0.0361791 0.0747845 0.0560922
0.0360723 0.0743572 0.0550851
0.0366979 0.0731518 0.053666
0.0390478 0.0715801 0.0529946
0.0458534 0.0712139 0.0532845
0.0556802 0.0723125 0.0534524
0.0705119 0.0742351 0.0534676
0.0981613 0.0746777 0.0557412
0.135744 0.074464 0.0570687
0.193744 0.0730297 0.057435
0.270619 0.068986 0.0579232
0.351568 0.0634775 0.0597696
0.424506 0.0584268 0.0623331
0.490776 0.0592203 0.0727245
0.548775 0.0667124 0.0901045
0.601938 0.0804456 0.111299
0.6495 0.0991073 0.132631
0.690654 0.121996 0.151354
0.719738 0.145663 0.166323
0.724834 0.150225 0.169024
0.724636 0.149737 0.169284
0.724529 0.149386 0.169482
0.724666 0.149432 0.169909
0.724788 0.149432 0.170367
0.724819 0.149355 0.170642
0.724865 0.14931 0.17084
0.724926 0.149325 0.171023
0.724956 0.149355 0.171099
0.7252 0.149187 0.171893
0.725673 0.148867 0.17348
0.726711 0.148119 0.176928
0.728481 0.148272 0.181216
0.0383764 0.0950942 0.0659037
0.0383612 0.0961471 0.063508
0.0381476 0.0964065 0.0619516
0.0381933 0.0954604 0.0597848
0.0396887 0.0944228 0.0581216
0.044007 0.0933089 0.057908
0.0562448 0.0934768 0.0583352
0.0737774 0.0951705 0.0580453
0.0977798 0.097322 0.0585336
0.140566 0.0970626 0.0603799
0.197681 0.0955367 0.0629129
0.272725 0.0923934 0.0632334
0.360174 0.0876326 0.0649729
0.442878 0.0801556 0.0702373
0.507591 0.0727703 0.0774701
0.555077 0.073106 0.090425
0.603128 0.0835584 0.109911
0.649851 0.101991 0.130877
0.694255 0.129229 0.153033
0.727077 0.157351 0.170642
0.73312 0.163134 0.174136
0.73312 0.163134 0.174136
0.733074 0.163073 0.174105
0.733043 0.163012 0.174105
0.733013 0.162921 0.174151
0.732998 0.162814 0.174212
0.733013 0.162814 0.174289
0.733059 0.16289 0.174319
0.73315 0.163058 0.174365
0.733577 0.163226 0.17525
0.734539 0.163638 0.177157
0.736324 0.16405 0.18114
0.738979 0.165362 0.18613
0.0399481 0.124422 0.0767834
0.0396429 0.126314 0.0728618
0.0392462 0.127382 0.0692302
0.0391852 0.127138 0.066392
0.0395056 0.125673 0.0637217
0.0417792 0.124422 0.0625315
0.0499733 0.123919 0.062501
0.0714122 0.124437 0.0627756
0.0990921 0.126665 0.0608682
0.1364 0.129549 0.0611582
0.198566 0.130098 0.063508
0.279072 0.125338 0.0686351
0.36527 0.12282 0.0721294
0.450034 0.119905 0.0776379
0.528771 0.115755 0.0870375
0.585214 0.112352 0.103365
0.62649 0.112963 0.120256
0.662974 0.121767 0.137179
0.700114 0.141253 0.156161
0.737255 0.173571 0.177081
0.744396 0.180575 0.181323
0.74435 0.180499 0.181292
0.744305 0.180423 0.181262
0.744274 0.180362 0.181247
0.744244 0.180331 0.181216
0.744274 0.180362 0.181231
0.74435 0.180468 0.181277
0.744457 0.180652 0.181353
0.744671 0.180941 0.181506
0.74519 0.181201 0.182467
0.745998 0.181613 0.184115
0.74818 0.182605 0.188449
0.751232 0.18468 0.193698
0.0406958 0.166583 0.0907149
0.040177 0.169207 0.0858473
0.0395666 0.171298 0.0800336
0.0392157 0.172 0.0754253
0.0392157 0.171008 0.0707866
0.0396887 0.16907 0.0667277
0.0427405 0.167727 0.0651713
0.057969 0.167834 0.0647898
0.0925612 0.169833 0.0645609
0.134081 0.172656 0.0620127
0.190494 0.176577 0.0628519
0.269368 0.177722 0.0656291
0.371618 0.171328 0.0761425
0.457435 0.171969 0.0854963
0.537789 0.173312 0.0965286
0.608865 0.175921 0.115267
0.662821 0.181598 0.137942
0.702022 0.187808 0.158083
0.735958 0.199512 0.17882
0.764248 0.217472 0.194858
0.765789 0.215198 0.195224
0.760952 0.207416 0.192004
0.758068 0.20087 0.191806
0.758053 0.200824 0.191791
0.75816 0.200961 0.191882
0.75819 0.200961 0.191943
0.758297 0.201038 0.192111
0.758511 0.201236 0.192432
0.758907 0.201633 0.192935
0.758343 0.203128 0.190814
0.759899 0.204273 0.193149
0.764126 0.208942 0.198169
0.770748 0.217472 0.205005
0.0402533 0.22002 0.108385
0.0396735 0.223468 0.103838
0.0390326 0.225696 0.0972152
0.0384833 0.226719 0.0894484
0.0381781 0.227176 0.0835431
0.0382696 0.226154 0.0774548
0.0387274 0.22417 0.070634
0.0434577 0.222477 0.0668193
0.0689097 0.224201 0.0661631
0.120699 0.227054 0.0652018
0.182681 0.231388 0.0618601
0.257527 0.235279 0.063386
0.351598 0.239628 0.068925
0.46305 0.236088 0.087892
0.545541 0.238254 0.104372
0.620768 0.242267 0.122957
0.685069 0.250172 0.149813
0.737835 0.262592 0.178851
0.776623 0.275929 0.202976
0.80499 0.290242 0.221622
0.807645 0.287282 0.223194
0.802838 0.27866 0.219989
0.798978 0.271626 0.217533
0.796719 0.267628 0.216068
0.795087 0.264515 0.215137
0.793957 0.26244 0.214435
0.793286 0.261341 0.214008
0.79321 0.261097 0.214038
0.793988 0.262135 0.214755
0.795422 0.264515 0.215793
0.798306 0.269444 0.217853
0.803876 0.278843 0.2224
0.811948 0.291798 0.22945
0.0387427 0.284916 0.128313
0.0383459 0.289006 0.124269
0.0377813 0.291905 0.118822
0.0372625 0.293324 0.111742
0.03682 0.294255 0.104036
0.0365301 0.295155 0.0969863
0.0366522 0.294041 0.0879683
0.0373388 0.290303 0.0758068
0.0448157 0.288243 0.0680095
0.0823835 0.292027 0.0662242
0.160632 0.296803 0.0647593
0.24358 0.303136 0.0615854
0.335653 0.307988 0.065156
0.43563 0.314214 0.0742504
0.547829 0.315328 0.103838
0.629221 0.32105 0.130663
0.697993 0.323369 0.159655
0.758633 0.332738 0.192065
0.804791 0.347433 0.221271
0.83888 0.363943 0.245365
0.847883 0.366491 0.251972
0.845426 0.360662 0.250065
0.843778 0.356771 0.248936
0.841688 0.352758 0.247318
0.840192 0.34995 0.246098
0.839841 0.348775 0.24593
0.839506 0.348165 0.245624
0.84004 0.349233 0.245991
0.840665 0.35079 0.246311
0.842481 0.35436 0.24773
0.844785 0.359701 0.249546
0.849302 0.368444 0.253819
0.854749 0.379751 0.259205
0.0380865 0.357015 0.152224
0.0376287 0.361089 0.148562
0.0374456 0.364096 0.143984
0.0371252 0.365713 0.138262
0.0363775 0.367483 0.131823
0.0361791 0.368322 0.124834
0.035935 0.36878 0.115572
0.0362554 0.367742 0.102953
0.0375525 0.36379 0.0864729
0.0504158 0.362722 0.0722667
0.105318 0.367864 0.0681773
0.212238 0.373846 0.0661479
0.317494 0.380819 0.0639048
0.418494 0.385748 0.0713359
0.516915 0.392676 0.0876936
0.627131 0.39707 0.125109
0.707179 0.404974 0.164553
0.770123 0.411948 0.201038
0.822644 0.418708 0.236179
0.860868 0.431464 0.264134
0.876524 0.438529 0.276173
0.876631 0.435935 0.276097
0.875624 0.43299 0.275151
0.874662 0.430701 0.27422
0.874037 0.429129 0.27364
0.873747 0.428367 0.273365
0.873976 0.428977 0.273548
0.87425 0.429786 0.273777
0.874922 0.431754 0.274357
0.87631 0.435248 0.275669
0.878202 0.44094 0.277378
0.881346 0.450065 0.280552
0.885939 0.462837 0.285557
0.0408484 0.433356 0.185092
0.0408179 0.437552 0.182345
0.0407263 0.44094 0.178363
0.0404212 0.44303 0.17322
0.040238 0.444389 0.167712
0.0399939 0.445411 0.161242
0.0397498 0.446113 0.153155
0.0393225 0.446525 0.141222
0.0398718 0.445655 0.124666
0.0429694 0.441566 0.102205
0.0633097 0.441047 0.0824292
0.143572 0.446708 0.0751812
0.281209 0.453849 0.0733349
0.400153 0.461295 0.0755474
0.499931 0.467033 0.0878309
0.594919 0.473915 0.111879
0.697276 0.480964 0.158038
0.778836 0.488991 0.207996
0.831754 0.501076 0.244556
0.874159 0.511818 0.277256
0.898695 0.520272 0.297307
0.900435 0.518547 0.298695
0.899794 0.515969 0.298085
0.899413 0.514061 0.297749
0.899123 0.513024 0.297475
0.899138 0.513252 0.29749
0.899199 0.513466 0.297551
0.89926 0.514305 0.297597
0.899702 0.516472 0.297963
0.900542 0.520058 0.298665
0.902235 0.527199 0.300175
0.904295 0.536721 0.302403
0.906874 0.549722 0.305272
0.0504005 0.512932 0.230823
0.0507973 0.516793 0.22855
0.0514229 0.520745 0.226276
0.0515755 0.522652 0.221744
0.0516976 0.524117 0.21706
0.0517433 0.525261 0.211795
0.0518196 0.526116 0.204761
0.0520027 0.527245 0.194278
0.0522469 0.527352 0.177951
0.0538491 0.525689 0.155688
0.0591287 0.521401 0.127565
0.0884565 0.521965 0.101762
0.20267 0.528756 0.0929122
0.366354 0.536675 0.0939651
0.486503 0.544839 0.103105
0.579004 0.55024 0.12192
0.669017 0.556848 0.155474
0.760952 0.567315 0.203449
0.839048 0.576715 0.256046
0.881849 0.59202 0.287709
0.913405 0.604578 0.313283
0.91754 0.604517 0.316716
0.917021 0.602762 0.316121
0.916915 0.601938 0.316091
0.916869 0.601663 0.316167
0.916777 0.601511 0.316274
0.916716 0.601831 0.316396
0.916762 0.602869 0.316655
0.91722 0.604791 0.317311
0.918029 0.609354 0.318349
0.919066 0.61529 0.319661
0.920607 0.624552 0.32195
0.922652 0.637339 0.325277
0.0749371 0.593744 0.292012
0.0765393 0.597711 0.291356
0.0779431 0.600961 0.289769
0.0786908 0.602777 0.28687
0.0791791 0.603998 0.282643
0.0798047 0.605249 0.27866
0.0806134 0.606683 0.273701
0.0810864 0.607217 0.264591
0.0817578 0.607507 0.251026
0.0829938 0.607172 0.229694
0.086305 0.604639 0.200061
0.0969558 0.600931 0.16669
0.147982 0.603372 0.137072
0.291798 0.611795 0.124041
0.463615 0.620325 0.132174
0.573266 0.628244 0.151659
0.656626 0.633707 0.175067
0.739742 0.639841 0.210697
0.819242 0.651545 0.256519
0.8851 0.663844 0.303532
0.919585 0.678721 0.331167
0.932036 0.686137 0.341756
0.932418 0.685237 0.341787
0.932418 0.684901 0.341787
0.932357 0.684565 0.341787
0.932326 0.684565 0.341985
0.932296 0.684916 0.342351
0.932387 0.685878 0.342992
0.933196 0.68835 0.344564
0.93431 0.691676 0.346426
0.935607 0.696773 0.348791
0.93753 0.704707 0.352605
0.940032 0.71577 0.357748
0.117281 0.672145 0.361532
0.120211 0.676097 0.36228
0.122576 0.679057 0.36173
0.124041 0.680888 0.359991
0.125261 0.6822 0.357549
0.126909 0.683879 0.354894
0.127871 0.684779 0.350668
0.128618 0.685222 0.343221
0.129427 0.685435 0.331716
0.13048 0.685481 0.314183
0.132906 0.68481 0.287358
0.138506 0.680354 0.250187
0.158556 0.67631 0.209659
0.243763 0.683589 0.181445
0.409232 0.693416 0.173144
0.562142 0.702525 0.189761
0.660227 0.710079 0.213886
0.731289 0.71545 0.238285
0.806439 0.719493 0.272709
0.871717 0.731044 0.313008
0.92195 0.744244 0.354345
0.949325 0.756695 0.381491
0.951019 0.757458 0.383627
0.950957 0.757046 0.383413
0.950835 0.756909 0.383429
0.950744 0.757122 0.383719
0.950637 0.757824 0.384421
0.950668 0.759106 0.385595
0.951125 0.760983 0.387198
0.951934 0.764065 0.389578
0.952895 0.768795 0.392767
0.954681 0.776089 0.397848
0.957351 0.786664 0.405249
0.173922 0.747097 0.428305
0.176944 0.750271 0.429129
0.179568 0.752743 0.429282
0.181949 0.75465 0.428595
0.183932 0.755856 0.4271
0.185473 0.75671 0.425254
0.186633 0.757336 0.421973
0.187503 0.757671 0.416495
0.188052 0.757778 0.407904
0.18883 0.7579 0.394217
0.189822 0.757046 0.372183
0.193164 0.754086 0.337621
0.202167 0.748379 0.296056
0.241566 0.748028 0.252644
0.366567 0.759945 0.23183
0.525567 0.76968 0.234684
0.654612 0.77731 0.256855
0.740063 0.785077 0.282902
0.801892 0.790433 0.307988
0.86392 0.793561 0.338613
0.916243 0.80412 0.377295
0.95523 0.814908 0.415366
0.966567 0.819898 0.430701
0.966522 0.819776 0.430732
0.96643 0.81976 0.430945
0.9664 0.820081 0.431525
0.96643 0.82089 0.432624
0.966247 0.82153 0.433539
0.966247 0.822766 0.43473
0.966842 0.825193 0.436912
0.968124 0.829145 0.440208
0.969665 0.835081 0.444892
0.971725 0.842817 0.450919
0.225742 0.806653 0.484916
0.228367 0.809033 0.485649
0.230732 0.811093 0.485847
0.232486 0.81236 0.485054
0.233768 0.813001 0.483436
0.235019 0.813672 0.481666
0.236942 0.813794 0.479393
0.237797 0.814008 0.47483
0.238987 0.814237 0.468132
0.239322 0.813611 0.457588
0.239857 0.812512 0.441566
0.241688 0.810361 0.416876
0.250751 0.806943 0.380377
0.271336 0.804105 0.335286
0.3467 0.809766 0.299245
0.482475 0.820203 0.288869
0.62385 0.829831 0.299977
0.736431 0.837919 0.327642
0.811292 0.846387 0.355962
0.860975 0.851575 0.381353
0.909575 0.854383 0.415183
0.948837 0.860716 0.445518
0.972671 0.868223 0.470939
0.975128 0.868955 0.473503
0.975052 0.869474 0.474281
0.974929 0.869749 0.474968
0.974762 0.870192 0.475868
0.974578 0.870939 0.477348
0.974227 0.872007 0.478935
0.974365 0.874174 0.481285
0.97438 0.877546 0.484672
0.97464 0.882551 0.489128
0.974777 0.888838 0.495018
0.266758 0.848157 0.528176
0.268437 0.849515 0.528359
0.269795 0.850523 0.528191
0.270787 0.850919 0.526955
0.271855 0.851209 0.525704
0.272969 0.85124 0.52398
0.274418 0.851301 0.522286
0.276051 0.851194 0.51873
0.277836 0.850843 0.513405
0.279622 0.850309 0.505638
0.281544 0.849577 0.493782
0.283665 0.848295 0.476188
0.292576 0.84799 0.45008
0.318227 0.849622 0.420645
0.361395 0.85037 0.380575
0.46331 0.857618 0.362661
0.580636 0.865187 0.363455
0.706096 0.876158 0.381445
0.807202 0.885374 0.41265
0.866453 0.892973 0.440803
0.906508 0.897551 0.469673
0.940993 0.898772 0.496513
0.966171 0.903929 0.516548
0.974243 0.906722 0.525353
0.974121 0.906905 0.526238
0.973968 0.907164 0.527199
0.973739 0.907469 0.528649
0.973449 0.908019 0.530999
0.973159 0.908965 0.533776
0.972808 0.910643 0.53782
0.972366 0.912642 0.542535
0.97203 0.916045 0.549859
0.97203 0.918791 0.556146
0.287419 0.865888 0.553155
0.287358 0.865904 0.55201
0.287419 0.86595 0.550912
0.287724 0.865873 0.549462
0.288151 0.865644 0.547951
0.288869 0.865309 0.546258
0.289982 0.864805 0.544198
0.291386 0.864286 0.540887
0.293202 0.863722 0.535805
0.29546 0.862989 0.528344
0.297795 0.862089 0.51754
0.300343 0.860899 0.501015
0.30753 0.860304 0.476356
0.333165 0.864225 0.453178
0.383825 0.870771 0.434836
0.462852 0.876066 0.418097
0.5682 0.883101 0.421088
0.677012 0.892836 0.435065
0.790906 0.904738 0.462211
0.868299 0.91342 0.493156
0.908217 0.919203 0.519585
0.935515 0.92015 0.546685
0.960678 0.922332 0.564172
0.972732 0.925704 0.575601
0.972641 0.92578 0.576425
0.972457 0.925841 0.577798
0.972183 0.925917 0.579889
0.971832 0.926177 0.582879
0.971496 0.926436 0.586023
0.971252 0.92694 0.589136
0.97116 0.92781 0.592737
0.971359 0.928512 0.594659
0.971649 0.928573 0.593088
0.286259 0.866682 0.559426
0.286091 0.866651 0.5579
0.286122 0.866621 0.556558
0.286412 0.866499 0.555154
0.286961 0.86627 0.553582
0.287755 0.865934 0.551965
0.288701 0.865476 0.549661
0.289723 0.864759 0.545937
0.291432 0.864042 0.54107
0.293873 0.863279 0.533578
0.296834 0.862272 0.522362
0.299657 0.861067 0.506264
0.30544 0.860121 0.482094
0.328008 0.863401 0.456596
0.378439 0.87068 0.438636
0.457298 0.877882 0.427344
0.558831 0.884794 0.429679
0.666362 0.893767 0.443473
0.780331 0.906188 0.47042
0.86482 0.915419 0.501152
0.906325 0.921782 0.529137
0.931395 0.923812 0.554009
0.956466 0.924804 0.572412
0.971481 0.927977 0.584268
0.973541 0.928649 0.58674
0.97351 0.928603 0.587152
0.973358 0.928573 0.587976
0.97293 0.928588 0.589014
0.972213 0.928679 0.590494
0.971252 0.928817 0.592004
0.970642 0.928939 0.592737
0.970306 0.929046 0.59266
0.970275 0.929152 0.591791
0.285252 0.867826 0.564477
0.28513 0.867689 0.563043
0.285206 0.867491 0.561502
0.285527 0.867231 0.55993
0.285969 0.866941 0.55816
0.286671 0.866545 0.556329
0.287739 0.866056 0.55407
0.288899 0.865461 0.550637
0.290242 0.86453 0.545098
0.292668 0.863676 0.537667
0.295903 0.862593 0.526741
0.299092 0.861326 0.510887
0.304036 0.860014 0.486595
0.323827 0.862562 0.459419
0.372824 0.869871 0.440085
0.449073 0.877256 0.428122
0.548791 0.884123 0.428962
0.656886 0.892882 0.442039
0.771649 0.90515 0.467765
0.860731 0.915267 0.499275
0.903029 0.921553 0.526772
0.927199 0.92398 0.549889
0.951171 0.925231 0.570367
0.966842 0.927672 0.581033
0.971435 0.929351 0.586267
0.971435 0.929305 0.586694
0.971283 0.929274 0.587518
0.970855 0.92929 0.588647
0.970138 0.929366 0.590036
0.9691 0.929503 0.591943
0.968414 0.929595 0.593072
0.968063 0.929671 0.593408
0.968048 0.929717 0.592981
0.284947 0.868605 0.568856
0.284794 0.868421 0.567056
0.284794 0.868177 0.565316
0.285039 0.867857 0.563409
0.285466 0.867491 0.561608
0.28603 0.867124 0.559869
0.286992 0.866545 0.557366
0.288167 0.865888 0.553872
0.289509 0.865049 0.548501
0.29163 0.863981 0.540917
0.294957 0.862928 0.529839
0.298451 0.861616 0.514015
0.302861 0.860059 0.489601
0.32076 0.862074 0.461372
0.368734 0.869261 0.440925
0.443671 0.876997 0.428763
0.542 0.883726 0.428656
0.650843 0.892653 0.441672
0.766659 0.904662 0.4663
0.857267 0.914794 0.497612
0.900725 0.921111 0.524895
0.925277 0.923888 0.547585
0.948287 0.924926 0.568444
0.964691 0.927214 0.579049
0.970916 0.929534 0.586145
0.97084 0.929503 0.586557
0.970703 0.929458 0.587381
0.970275 0.929488 0.58854
0.969573 0.929564 0.589899
0.968582 0.929671 0.591821
0.967941 0.929763 0.59295
0.967681 0.929808 0.593317
0.967742 0.929824 0.592905
0.284428 0.869184 0.571344
0.284276 0.869001 0.569894
0.284276 0.868772 0.568063
0.284443 0.868437 0.565988
0.284688 0.868132 0.564034
0.28513 0.86772 0.56202
0.285771 0.867216 0.559609
0.286549 0.86659 0.555627
0.288136 0.865736 0.550439
0.289906 0.864622 0.542672
0.293324 0.863478 0.531441
0.29723 0.862089 0.515572
0.301961 0.860395 0.491218
0.318502 0.861875 0.462333
0.36614 0.869001 0.441291
0.440284 0.876921 0.42916
0.539055 0.883574 0.42855
0.648051 0.8925 0.441535
0.762753 0.904509 0.465492
0.85507 0.914717 0.496712
0.899382 0.921035 0.523934
0.92401 0.923659 0.546532
0.946365 0.924743 0.567529
0.963516 0.927047 0.57847
0.970916 0.929534 0.586145
0.97084 0.929503 0.586557
0.970703 0.929458 0.587381
0.970275 0.929488 0.58854
0.969573 0.929564 0.589899
0.968582 0.929671 0.591821
0.967865 0.929732 0.593378
0.967575 0.929747 0.594141
0.967575 0.929747 0.594141
0.284428 0.869444 0.573495
0.284367 0.86923 0.571694
0.28423 0.869032 0.570092
0.284245 0.868742 0.56791
0.284337 0.868498 0.565896
0.284566 0.868162 0.563745
0.285069 0.867643 0.561074
0.285893 0.866957 0.557168
0.287221 0.866133 0.551858
0.289143 0.864958 0.543847
0.292668 0.863691 0.532753
0.296803 0.862226 0.516793
0.301671 0.860471 0.492393
0.317556 0.861799 0.462898
0.365301 0.868849 0.441413
0.439216 0.876783 0.429099
0.539071 0.883574 0.428565
0.646693 0.892409 0.441474
0.761379 0.904585 0.465339
0.854078 0.9149 0.496498
0.898207 0.921233 0.523507
0.923095 0.923705 0.546029
0.945006 0.924681 0.566949
0.962722 0.926955 0.577966
0.970916 0.929534 0.586145
0.97084 0.929503 0.586557
0.970703 0.929458 0.587381
0.970275 0.929488 0.58854
0.969573 0.929564 0.589899
0.968582 0.929671 0.591806
0.967865 0.929732 0.593378
0.967544 0.929732 0.594385
0.967514 0.929717 0.594629
0.284428 0.869627 0.574838
0.284352 0.869413 0.573114
0.284245 0.8692 0.571313
0.284215 0.86894 0.56939
0.284291 0.868666 0.567132
0.284443 0.86836 0.565026
0.284901 0.867842 0.562219
0.285771 0.867124 0.558282
0.287037 0.866239 0.552712
0.289021 0.865034 0.544564
0.292561 0.863706 0.533379
0.296803 0.862226 0.517296
0.301778 0.860441 0.492638
0.317617 0.861814 0.462715
0.366598 0.869017 0.441291
0.440696 0.876936 0.429023
0.540871 0.883711 0.428824
0.648783 0.892576 0.44181
0.763241 0.904784 0.465797
0.855787 0.915221 0.497154
0.89781 0.921523 0.523796
0.922438 0.924208 0.546059
