bundles/resolve-cinematic-luts/Phantom Luts/P4k & P6k Phntm Arri LUTs - V6/P6k/Gen 5 Colour/P6k Tungsten Gen5-Legacy.cube
TITLE "Generated by Resolve"
LUT_3D_SIZE 9
0.0172732 0.0162966 0.0215305
0.0310979 0.0188754 0.0245518
0.0973678 0.0295567 0.037644
0.299779 0.0416876 0.0794842
0.621775 0.0628367 0.157565
0.767102 0.110536 0.22327
0.769497 0.11252 0.226612
0.770367 0.113161 0.227909
0.771634 0.113863 0.229999
0.0282139 0.0410163 0.0412909
0.0333715 0.0392004 0.0341039
0.0899672 0.044358 0.043183
0.290883 0.0427253 0.0708019
0.622309 0.0606088 0.143664
0.76228 0.107561 0.21088
0.765957 0.110857 0.215427
0.766873 0.11165 0.216648
0.768582 0.112657 0.219257
0.0436866 0.112688 0.0698558
0.0424506 0.113161 0.0599069
0.0972 0.112505 0.0541695
0.313878 0.11165 0.0791485
0.639002 0.0842145 0.13846
0.770962 0.119585 0.20441
0.770657 0.119203 0.204395
0.770596 0.119142 0.204395
0.772168 0.120409 0.205936
0.0365759 0.285023 0.120333
0.0336156 0.286488 0.104677
0.0341802 0.279911 0.0605325
0.293584 0.307332 0.0532998
0.704387 0.348409 0.163333
0.930068 0.373007 0.274861
0.923735 0.35848 0.271901
0.92311 0.357061 0.271595
0.929107 0.370718 0.274449
0.0127108 0.556695 0.2271
0.0115053 0.55996 0.217548
0.00874342 0.562081 0.182559
0.0541238 0.551095 0.0453346
0.600336 0.59733 0.0996872
0.973404 0.68069 0.305379
0.97406 0.68481 0.307591
0.974624 0.69041 0.310002
0.976516 0.708339 0.31809
0.135363 0.791241 0.394842
0.135332 0.79086 0.390814
0.136492 0.789014 0.376532
0.149325 0.782498 0.307118
0.418692 0.785748 0.244724
0.891569 0.866651 0.424262
0.971908 0.889357 0.48333
0.971496 0.889723 0.485451
0.970626 0.891402 0.492287
0.134981 0.794766 0.414557
0.135241 0.79379 0.409125
0.135348 0.791241 0.393713
0.143496 0.783429 0.32253
0.389181 0.7841 0.257557
0.874159 0.864591 0.424552
0.969436 0.893812 0.500145
0.96939 0.893904 0.500267
0.969314 0.894041 0.500526
0.134569 0.795636 0.419409
0.135012 0.794415 0.41326
0.135393 0.791409 0.396201
0.143587 0.782956 0.320623
0.397955 0.783948 0.257252
0.875715 0.864698 0.425238
0.969665 0.893385 0.499413
0.969619 0.893446 0.499596
0.969299 0.894072 0.500572
0.134554 0.79704 0.425147
0.134997 0.794934 0.415137
0.135332 0.790936 0.39263
0.153536 0.78172 0.299611
0.456672 0.787106 0.263279
0.90135 0.872053 0.444633
0.969573 0.893553 0.499748
0.969528 0.893645 0.499886
0.969345 0.893996 0.500435
0.0194705 0.0191806 0.0410468
0.0333867 0.0208896 0.0410773
0.101808 0.0317845 0.0619059
0.309438 0.0490425 0.103151
0.629068 0.0762036 0.180652
0.777401 0.117449 0.241077
0.784665 0.12462 0.248234
0.786542 0.126421 0.250202
0.788022 0.127474 0.252338
0.0261387 0.0357519 0.0422217
0.0256352 0.0341497 0.0411078
0.0922408 0.0360266 0.0447395
0.29247 0.0424353 0.0800946
0.619074 0.0632944 0.158221
0.768643 0.111666 0.224887
0.771038 0.113619 0.228458
0.771832 0.114199 0.229664
0.772915 0.114855 0.231357
0.0485847 0.104662 0.0856031
0.0435798 0.1066 0.0742046
0.0880598 0.108614 0.0538949
0.3187 0.100587 0.0791485
0.631189 0.0742809 0.141024
0.76582 0.112886 0.205112
0.765988 0.112871 0.205997
0.766262 0.113085 0.20647
0.767193 0.113802 0.206973
0.0402991 0.280735 0.139406
0.0372015 0.282429 0.12665
0.0332952 0.27985 0.0776684
0.290654 0.304784 0.0536202
0.706584 0.341772 0.164034
0.926909 0.365591 0.27335
0.919905 0.350317 0.269993
0.919326 0.34905 0.269703
0.926497 0.364492 0.273289
0.0145113 0.556115 0.244495
0.0129397 0.559274 0.23505
0.010193 0.561303 0.20293
0.0428779 0.551003 0.0499886
0.600641 0.59704 0.0999161
0.973602 0.68069 0.305806
0.973968 0.684596 0.307347
0.974548 0.690257 0.309834
0.976501 0.708156 0.317998
0.135363 0.792721 0.403952
0.135424 0.792294 0.400061
0.135561 0.790097 0.385351
0.1467 0.782925 0.313878
0.416663 0.785611 0.244739
0.891905 0.866361 0.424216
0.971984 0.889265 0.483177
0.971572 0.889677 0.485374
0.970397 0.89189 0.493507
0.134493 0.796689 0.423926
0.134783 0.795499 0.418082
0.135439 0.792706 0.402762
0.142077 0.784207 0.331411
0.386252 0.783963 0.257252
0.873198 0.864256 0.423896
0.969436 0.893812 0.500145
0.96939 0.893904 0.500267
0.969314 0.894041 0.500526
0.134554 0.798032 0.430213
0.134478 0.796399 0.422782
0.135302 0.792935 0.405371
0.142168 0.783795 0.330053
0.394247 0.783749 0.256855
0.873777 0.864164 0.424109
0.969665 0.893355 0.49929
0.969619 0.893446 0.499596
0.969299 0.894072 0.500572
0.134676 0.799084 0.43476
0.134493 0.79678 0.42446
0.135378 0.792462 0.401938
0.150393 0.782132 0.306676
0.451347 0.786755 0.262623
0.898131 0.871138 0.442741
0.969573 0.893553 0.499748
0.969528 0.893645 0.499886
0.969238 0.894194 0.500816
0.0268406 0.0247044 0.101472
0.0521553 0.0273289 0.101717
0.103975 0.0340887 0.103441
0.322118 0.0514992 0.153903
0.647913 0.0901045 0.213764
0.815274 0.15639 0.280598
0.819257 0.160372 0.284932
0.819989 0.160952 0.286091
0.821866 0.162463 0.28893
0.0185397 0.0381018 0.0779278
0.0207828 0.0245365 0.0916457
0.0914931 0.0326848 0.0970626
0.316106 0.0488289 0.137713
0.634974 0.0906081 0.198184
0.799619 0.139651 0.264805
0.805249 0.145525 0.270008
0.806973 0.147265 0.271717
0.809873 0.149859 0.275456
0.0473945 0.0971389 0.102159
0.0466163 0.0961929 0.102174
0.0856947 0.0994125 0.106416
0.313481 0.0846571 0.109361
0.614099 0.0667887 0.157748
0.768963 0.112291 0.224292
0.771878 0.114656 0.228382
0.772549 0.115206 0.229297
0.773968 0.116228 0.23125
0.0568551 0.269917 0.181186
0.052018 0.271901 0.171496
0.0411078 0.27277 0.134951
0.283406 0.298787 0.0602884
0.718059 0.323888 0.169146
0.918257 0.346395 0.269306
0.91014 0.329656 0.265446
0.909728 0.328771 0.265217
0.917937 0.345083 0.269383
0.0170901 0.553674 0.277775
0.0159915 0.557534 0.270512
0.0132906 0.558206 0.241581
0.0225376 0.548547 0.0652323
0.59733 0.594141 0.0992142
0.973571 0.676616 0.305165
0.973465 0.679881 0.305303
0.973907 0.684413 0.30721
0.975814 0.702312 0.315206
0.134585 0.795987 0.420935
0.134859 0.795468 0.417517
0.135424 0.792966 0.403861
0.142199 0.784482 0.333013
0.406775 0.785092 0.243626
0.88986 0.864897 0.421057
0.972305 0.888747 0.481773
0.972 0.889326 0.484199
0.970413 0.891951 0.493904
0.134661 0.800839 0.442176
0.134676 0.799664 0.437369
0.13463 0.796231 0.421546
0.139116 0.786252 0.351843
0.374304 0.783719 0.256504
0.867948 0.862791 0.420752
0.969436 0.893828 0.500145
0.96939 0.89398 0.500725
0.969314 0.894163 0.501259
0.134691 0.802762 0.449821
0.134707 0.801358 0.444297
0.134493 0.79707 0.426184
0.139101 0.785901 0.351431
0.380957 0.783352 0.255909
0.867277 0.862272 0.419944
0.96968 0.893324 0.499077
0.969635 0.893462 0.499687
0.969299 0.894102 0.500801
0.134966 0.805371 0.459968
0.134722 0.803098 0.451026
0.134493 0.797498 0.428016
0.142702 0.784024 0.331838
0.434028 0.78555 0.260456
0.889815 0.868589 0.437247
0.969573 0.893553 0.499794
0.969528 0.89369 0.500114
0.969207 0.894286 0.501228
0.0552987 0.0352941 0.2692
0.0850385 0.0363317 0.26865
0.144778 0.0396735 0.264378
0.31426 0.0554208 0.271138
0.65211 0.0873426 0.348837
0.83444 0.15079 0.389105
0.834119 0.150378 0.389975
0.834272 0.15053 0.389761
0.83415 0.149676 0.397436
0.00677501 0.040177 0.240467
0.0475624 0.0349889 0.261646
0.123583 0.0383001 0.264317
0.306767 0.0551766 0.265278
0.647974 0.0859541 0.337255
0.836072 0.15404 0.376455
0.836118 0.153857 0.377615
0.836301 0.153979 0.378027
0.836469 0.153109 0.386542
0.00523384 0.0893721 0.204501
0.00314336 0.081529 0.213352
0.0544442 0.0529946 0.258717
0.290562 0.0574655 0.252445
0.640848 0.0837262 0.309957
0.840055 0.164202 0.347555
0.840391 0.164263 0.349386
0.840543 0.164263 0.350225
0.842023 0.164202 0.358068
0.0652476 0.258793 0.255375
0.0648814 0.259815 0.257069
0.0650645 0.257603 0.254917
0.28925 0.296193 0.292531
0.730205 0.286702 0.288273
0.890547 0.255268 0.302022
0.872862 0.231479 0.290532
0.871397 0.229358 0.289876
0.884962 0.246723 0.300618
0.0353857 0.553887 0.384283
0.0336004 0.557534 0.38201
0.0299687 0.557397 0.365255
0.0129702 0.539193 0.233631
0.582925 0.583719 0.136965
0.980499 0.661021 0.31809
0.979767 0.657008 0.315602
0.980087 0.660609 0.317037
0.981537 0.679713 0.326314
0.133547 0.809674 0.479316
0.133806 0.809613 0.478599
0.133562 0.806943 0.468345
0.132967 0.792325 0.403067
0.352834 0.78294 0.243397
0.87837 0.859922 0.406729
0.974533 0.885863 0.476753
0.974105 0.886564 0.478325
0.971481 0.890364 0.48957
0.137423 0.816785 0.50251
0.137133 0.816388 0.500832
0.136065 0.813169 0.489113
0.134508 0.796582 0.423316
0.316609 0.783078 0.25948
0.844785 0.856611 0.408347
0.969268 0.894636 0.506294
0.969207 0.894942 0.507744
0.969116 0.895171 0.508629
0.138918 0.819944 0.514321
0.138277 0.819074 0.511147
0.136721 0.815457 0.497658
0.134493 0.797284 0.427329
0.318273 0.782727 0.258885
0.841062 0.855314 0.405066
0.969604 0.893599 0.501305
0.969451 0.894377 0.506615
0.969131 0.895079 0.508125
0.143542 0.826337 0.539742
0.142611 0.825269 0.534142
0.139269 0.820417 0.515785
0.134493 0.79765 0.429023
0.360647 0.783017 0.262989
0.862684 0.861357 0.420966
0.969451 0.894163 0.504067
0.969314 0.894804 0.508019
0.969024 0.895338 0.509056
0.152743 0.0612345 0.542931
0.178012 0.061387 0.544884
0.234211 0.0621958 0.547616
0.378622 0.0664225 0.53785
0.643122 0.0904402 0.550195
0.816876 0.138445 0.566537
0.816876 0.138537 0.567269
0.816968 0.138552 0.56672
0.816861 0.139452 0.575463
0.114549 0.0610666 0.532357
0.145922 0.0612345 0.539498
0.211139 0.061738 0.546349
0.369543 0.0660563 0.538598
0.639094 0.0898299 0.548455
0.817121 0.138308 0.56318
0.817105 0.138399 0.56408
0.817227 0.138476 0.563806
0.817014 0.139361 0.573526
0.0113527 0.0810559 0.509728
0.051957 0.068101 0.516258
0.141939 0.0604868 0.533333
0.345693 0.0652628 0.53727
0.627985 0.0880293 0.540291
0.817685 0.137835 0.553216
0.81767 0.137942 0.55433
0.81767 0.137987 0.554726
0.81738 0.138674 0.564462
0 0.271305 0.481468
0 0.269566 0.489067
0 0.258625 0.499916
0.27483 0.176364 0.612863
0.65597 0.158022 0.570382
0.84567 0.167269 0.540398
0.838849 0.158648 0.528435
0.837369 0.157 0.527794
0.842435 0.163867 0.54461
0.0804456 0.583291 0.56466
0.0809949 0.588144 0.570001
0.0817578 0.591089 0.57229
0.0855116 0.58526 0.565484
0.596139 0.60322 0.587564
1 0.63537 0.598596
1 0.628336 0.592721
1 0.632059 0.597116
1 0.649989 0.614878
0.170657 0.839567 0.657282
0.174289 0.842557 0.662974
0.174853 0.843626 0.662165
0.156878 0.833097 0.623407
0.300343 0.786786 0.467445
0.862898 0.864485 0.514916
0.985107 0.887663 0.562203
0.984649 0.888518 0.564462
0.981109 0.894926 0.576806
0.2 0.863142 0.689113
0.202686 0.86482 0.694804
0.199054 0.863111 0.690425
0.17467 0.849195 0.644144
0.242664 0.799603 0.466606
0.796338 0.859113 0.475715
0.970397 0.908858 0.589548
0.971923 0.913512 0.611582
0.972381 0.915587 0.620523
0.214725 0.871183 0.712612
0.215915 0.871931 0.71545
0.210422 0.869154 0.708293
0.181476 0.852995 0.657145
0.243214 0.80058 0.47245
0.78233 0.856596 0.474342
0.968841 0.905318 0.573663
0.971939 0.912871 0.608988
0.971939 0.914702 0.615869
0.252628 0.890105 0.760967
0.252384 0.889906 0.76054
0.243336 0.885679 0.749645
0.19765 0.862211 0.687541
0.313726 0.802396 0.508705
0.828885 0.874754 0.532616
0.970382 0.90959 0.593347
0.972641 0.916045 0.623102
0.972183 0.916075 0.621759
0.30576 0.107118 0.763851
0.318379 0.106859 0.766262
0.348028 0.105913 0.770703
0.454215 0.107225 0.781903
0.675547 0.147265 0.798566
0.793713 0.1879 0.808072
0.793667 0.187335 0.806867
0.793576 0.186908 0.806043
0.793667 0.18854 0.809537
0.28748 0.107347 0.759197
0.301549 0.106813 0.762158
0.332494 0.105821 0.767514
0.444862 0.106645 0.780835
0.671336 0.145922 0.797848
0.793408 0.186175 0.804623
0.793713 0.187854 0.80795
0.793713 0.187945 0.808164
0.793667 0.18854 0.809537
0.23975 0.106661 0.743572
0.258976 0.107134 0.750286
0.295796 0.106249 0.759289
0.42356 0.10544 0.777935
0.658915 0.141787 0.795193
0.792935 0.182315 0.796384
0.793622 0.187152 0.806516
0.793744 0.187549 0.807233
0.793698 0.188251 0.808881
0.0817426 0.185626 0.716686
0.0894789 0.173678 0.71545
0.107591 0.141741 0.707851
0.31516 0.104143 0.759564
0.605463 0.126986 0.784665
0.798093 0.177966 0.777584
0.798169 0.179019 0.780087
0.798459 0.180316 0.782788
0.799191 0.184558 0.791821
0.114839 0.634073 0.79823
0.11931 0.639033 0.804059
0.124071 0.642222 0.811505
0.13135 0.634882 0.830762
0.689387 0.59794 1
0.965057 0.523827 0.937591
0.964431 0.513039 0.929793
0.964981 0.518135 0.932067
0.966735 0.540002 0.944259
0.274464 0.884077 0.858854
0.281926 0.890074 0.865919
0.286656 0.894011 0.869627
0.283909 0.892012 0.866728
0.453651 0.891585 0.868833
0.888457 0.893721 0.883085
1 0.89897 0.881193
1 0.899474 0.882643
1 0.908644 0.893172
0.426429 0.955215 0.919127
0.429282 0.956497 0.922103
0.428824 0.956451 0.92195
0.413703 0.952026 0.911345
0.424949 0.930434 0.864622
0.807507 0.943877 0.867948
0.989471 0.968078 0.85655
0.990784 0.968429 0.85687
0.991257 0.970642 0.867384
0.440085 0.959274 0.928634
0.441672 0.960189 0.930694
0.439887 0.959548 0.929183
0.421546 0.954223 0.916823
0.425391 0.931243 0.866133
0.796353 0.94136 0.864271
0.984451 0.967712 0.858381
0.990219 0.966842 0.848768
0.990356 0.968505 0.855848
0.463996 0.966705 0.945846
0.46363 0.966644 0.945678
0.459831 0.965362 0.942733
0.438437 0.959152 0.928222
0.493767 0.939391 0.890852
0.831922 0.952636 0.892149
0.986633 0.972168 0.878843
0.991012 0.969696 0.862745
0.990539 0.969055 0.858351
0.334005 0.109468 0.775158
0.345556 0.109407 0.777356
0.37113 0.109331 0.781781
0.468986 0.111818 0.791928
0.691936 0.157412 0.811795
0.793713 0.187976 0.808225
0.793713 0.187976 0.808209
0.793729 0.187808 0.807828
0.793683 0.188373 0.809155
0.317876 0.109438 0.77142
0.330907 0.109529 0.774578
0.357946 0.109255 0.779477
0.460197 0.111406 0.79144
0.686946 0.156161 0.811963
0.793713 0.187991 0.80827
0.793713 0.187991 0.80827
0.793713 0.188052 0.808392
0.793667 0.18854 0.809537
0.281315 0.109789 0.762112
0.296345 0.109712 0.766278
0.327626 0.10956 0.773861
0.440238 0.110842 0.790204
0.674296 0.152544 0.811414
0.794018 0.188128 0.808118
0.793729 0.187671 0.807523
0.793729 0.187732 0.807645
0.793698 0.188266 0.808911
0.159747 0.14638 0.743084
0.15874 0.137209 0.736446
0.160479 0.11667 0.722728
0.346578 0.109346 0.777493
0.616846 0.137575 0.807248
0.798245 0.193912 0.81474
0.798627 0.193973 0.814343
0.798733 0.194141 0.814557
0.799313 0.19556 0.816846
0.172946 0.655589 0.879408
0.175021 0.660365 0.880812
0.174228 0.659403 0.880293
0.170703 0.636866 0.880552
0.718791 0.549508 1
0.959457 0.499382 0.979644
0.958358 0.489403 0.977142
0.95906 0.494682 0.977646
0.962203 0.518837 0.981567
0.400412 0.931167 0.983429
0.408804 0.936156 0.985702
0.415824 0.939513 0.987228
0.417334 0.937575 0.989075
0.570245 0.945052 1
0.9234 0.868376 0.995377
0.977386 0.859541 0.981292
0.977279 0.860487 0.98114
0.977554 0.872633 0.981186
0.569986 0.978469 0.973556
0.57023 0.979019 0.97467
0.569589 0.979065 0.974746
0.562936 0.979065 0.97464
0.573877 0.978042 0.972808
0.85565 0.981582 0.978897
0.987259 0.987549 0.985306
0.995163 0.98468 0.98703
0.994812 0.985199 0.98854
0.574777 0.978515 0.973907
0.57467 0.978836 0.974533
0.574655 0.978866 0.974594
0.570871 0.979019 0.974701
0.568872 0.97818 0.972839
0.859892 0.982071 0.979904
0.97734 0.988296 0.984222
0.99115 0.9888 0.980285
0.990936 0.989288 0.981765
0.574685 0.978775 0.974411
0.57467 0.978836 0.974533
0.574655 0.978866 0.974594
0.574746 0.978851 0.974563
0.607233 0.978576 0.974365
0.881331 0.983337 0.981979
0.979217 0.988861 0.986267
0.990921 0.989349 0.98201
0.990814 0.989609 0.981872
0.339208 0.109422 0.77615
0.350423 0.109255 0.778134
0.375006 0.109468 0.782513
0.471641 0.111925 0.79205
0.694377 0.158145 0.811887
0.793713 0.187976 0.808225
0.793713 0.187961 0.808194
0.793713 0.187884 0.807996
0.793683 0.188434 0.809293
0.323766 0.109316 0.772641
0.33608 0.109499 0.775601
0.36228 0.109285 0.780285
0.462806 0.111498 0.791531
0.689403 0.156756 0.811902
0.793713 0.187991 0.80827
0.793713 0.187991 0.80827
0.793713 0.188022 0.808347
0.793667 0.188525 0.809506
0.288258 0.109377 0.763561
0.302785 0.109712 0.767987
0.333059 0.109499 0.77499
0.443275 0.110826 0.79028
0.677211 0.153353 0.811536
0.794003 0.188113 0.808103
0.793729 0.187671 0.807507
0.793729 0.187716 0.80763
0.793698 0.188266 0.808911
0.159228 0.141451 0.739452
0.159838 0.132967 0.733959
0.161639 0.11368 0.721111
0.350912 0.109316 0.778271
0.619745 0.138354 0.807645
0.797208 0.192615 0.813367
0.798627 0.194018 0.814435
0.798718 0.194171 0.814664
0.799313 0.19556 0.816861
0.170581 0.649851 0.878218
0.170748 0.654261 0.878035
0.172946 0.654093 0.88014
0.170169 0.631113 0.880827
0.718441 0.540642 1
0.95845 0.492775 0.978866
0.95697 0.482658 0.976257
0.958053 0.48835 0.977127
0.961578 0.513085 0.981216
0.418906 0.933547 0.990738
0.423545 0.937636 0.99147
0.4262 0.940032 0.991318
0.420462 0.936049 0.991089
0.567956 0.942153 1
0.926314 0.859632 0.993759
0.977142 0.853513 0.981353
0.977188 0.854566 0.981308
0.977508 0.866636 0.981399
0.574823 0.978393 0.973648
0.57467 0.978836 0.974533
0.574655 0.978866 0.974594
0.574563 0.978851 0.974548
0.619928 0.978515 0.974624
0.868421 0.982925 0.981811
0.98764 0.983047 0.988083
0.988968 0.982315 0.987503
0.989059 0.983474 0.988006
0.574777 0.978515 0.973907
0.57467 0.978836 0.974533
0.574655 0.978866 0.974594
0.574716 0.978836 0.974548
0.632532 0.978302 0.974304
0.878431 0.983276 0.981888
0.980362 0.989029 0.988296
0.990387 0.9897 0.988907
0.990234 0.990082 0.989578
0.574685 0.978775 0.974411
0.57467 0.978836 0.974533
0.574655 0.978866 0.974594
0.575021 0.978836 0.974548
0.655894 0.9785 0.974823
0.893019 0.983734 0.982498
0.981506 0.989303 0.988724
0.990265 0.990021 0.989471
0.990112 0.990372 0.990112
0.340322 0.109407 0.776349
0.351553 0.109239 0.778317
0.376394 0.109453 0.782696
0.473747 0.112016 0.792142
0.69778 0.159136 0.811963
0.793713 0.187976 0.808225
0.793713 0.187961 0.808194
0.793713 0.187884 0.807996
0.793683 0.188434 0.809293
0.324666 0.109361 0.7729
0.337316 0.109422 0.775784
0.363622 0.109239 0.780468
0.465187 0.111559 0.791623
0.693141 0.157763 0.811872
0.793713 0.187991 0.80827
0.793713 0.187991 0.80827
0.793713 0.188022 0.808347
0.793683 0.188434 0.809308
0.289036 0.109316 0.763729
0.303563 0.109728 0.768215
0.334203 0.109483 0.775219
0.445441 0.110933 0.790448
0.681025 0.154437 0.811749
0.793881 0.18793 0.807889
0.793729 0.187671 0.807507
0.793729 0.187716 0.80763
0.793713 0.188296 0.808927
0.159396 0.142397 0.740169
0.15903 0.13341 0.733867
0.15848 0.113039 0.719234
0.352285 0.109346 0.778561
0.623636 0.139422 0.808148
0.797192 0.192599 0.813352
0.798779 0.194202 0.814618
0.798901 0.194415 0.814939
0.799527 0.19585 0.817182
0.170611 0.653864 0.877699
0.173617 0.658198 0.879927
0.176684 0.658564 0.882567
0.173404 0.636027 0.88304
0.724392 0.546853 1
0.959442 0.499031 0.979583
0.958358 0.489601 0.977371
0.959121 0.495262 0.977905
0.962325 0.519615 0.981674
0.421027 0.935393 0.990478
0.425772 0.939559 0.991226
0.429053 0.942306 0.991501
0.423087 0.937926 0.991302
0.574014 0.943511 1
0.928481 0.862287 0.992782
0.977234 0.85658 0.981292
0.97734 0.857527 0.981079
0.977829 0.869291 0.980957
0.574823 0.978408 0.973693
0.57467 0.978836 0.974533
0.574655 0.978866 0.974594
0.574655 0.978866 0.974594
0.621592 0.978622 0.974838
0.871153 0.983032 0.982238
0.987778 0.982879 0.988296
0.988815 0.982025 0.98764
0.988952 0.983139 0.988052
0.575051 0.977768 0.972412
0.574899 0.97818 0.973251
0.574884 0.978241 0.973358
0.574975 0.978241 0.973358
0.63563 0.978058 0.973785
0.8813 0.983108 0.981552
0.981231 0.988769 0.98793
0.990265 0.990021 0.989487
0.990265 0.990021 0.989487
0.574807 0.978454 0.97377
0.57467 0.978836 0.974533
0.574655 0.978866 0.974594
0.575067 0.978851 0.974578
0.657252 0.978805 0.975464
0.894102 0.984207 0.983337
0.981491 0.989715 0.989471
0.990112 0.990402 0.990173
0.99025 0.990051 0.989532
