bundles/resolve-cinematic-luts/Gamut/_Conversion/Sony/Sony FX30 BaseLUTs/Monitor LUTs/BaseLUT - Sony FX30 - S-Log3 to Rec709 (Bold).cube
TITLE "BaseLUT - Sony FX3 - S-Log3 to Rec709 (Bold) ML"
# Monitoring LUT. Developed for converting S-Log3 / S-Gamut3.Cine to Rec.709. Version 1.0 - 05/01/2025 - Copyright 2025 Gamut, LLC.
LUT_3D_SIZE 17
0.0000000000 0.0000000000 0.0000000000
0.0000000000 0.0000000000 0.0000000000
0.0000000000 0.0000000000 0.0000000000
0.0000000000 0.0000000000 0.0000000000
0.0230837130 0.0000000000 0.0000000000
0.1662242145 0.0013314880 0.0013314880
0.3288258052 0.0036493794 0.0036493794
0.4680047744 0.0059679587 0.0055243587
0.6012002740 0.0090751603 0.0078912262
0.7248508043 0.0141060672 0.0102590944
0.8169046380 0.0243658332 0.0121167413
0.8922423216 0.0492684168 0.0167698564
0.9641154679 0.1059443733 0.0368861147
1.0000000000 0.1869838270 0.0782036231
1.0000000000 0.2758615979 0.1549022906
1.0000000000 0.3804148771 0.2560341377
1.0000000000 0.5020236115 0.3751955035
0.0000000000 0.0000000000 0.0000000000
0.0000000000 0.0000000000 0.0000000000
0.0000000000 0.0000000000 0.0000000000
0.0003896474 0.0000000000 0.0000000000
0.0685464777 0.0000000000 0.0000000000
0.2107233992 0.0015782452 0.0015782452
0.3529274570 0.0036493794 0.0036493794
0.4821178841 0.0059679587 0.0059679587
0.6101545215 0.0094699718 0.0078912262
0.7289299879 0.0148956902 0.0102590944
0.8186002022 0.0251546821 0.0121167413
0.8930124167 0.0505961832 0.0167698564
0.9643734641 0.1074711247 0.0370799173
1.0000000000 0.1883485498 0.0786950789
1.0000000000 0.2766576510 0.1551598466
1.0000000000 0.3808732518 0.2561905774
1.0000000000 0.5022827623 0.3751955035
0.0000000000 0.0000000000 0.0000000000
0.0000000000 0.0000000000 0.0000000000
0.0000000000 0.0000000000 0.0000000000
0.0218012011 0.0027125777 0.0000000000
0.1231927901 0.0006189777 0.0001284456
0.2479461801 0.0022682897 0.0021204230
0.3722235381 0.0044386271 0.0039451127
0.4930866030 0.0067571439 0.0059679587
0.6170925715 0.0098642829 0.0082860377
0.7325481221 0.0155861725 0.0102590944
0.8201704095 0.0262218874 0.0121167413
0.8938918362 0.0518128445 0.0170166136
0.9647473844 0.1088984179 0.0375888945
1.0000000000 0.1894208723 0.0786950789
1.0000000000 0.2773185312 0.1553892578
1.0000000000 0.3813190142 0.2563396929
1.0000000000 0.5025989301 0.3752072244
0.0000000000 0.0038469728 0.0000000000
0.0000000000 0.0127249150 0.0000000000
0.0000000000 0.0344658963 0.0000000000
0.0382954953 0.0495062064 0.0000000000
0.1356596420 0.0518288219 0.0100620640
0.2679664903 0.0194829971 0.0039451752
0.3908140922 0.0069545496 0.0044386271
0.5068620154 0.0077433595 0.0059679587
0.6255018833 0.0110482094 0.0082860377
0.7368541507 0.0163258811 0.0102590944
0.8222920498 0.0274829969 0.0121167413
0.8949498087 0.0538964259 0.0175594794
0.9653644835 0.1106735652 0.0378772012
1.0000000000 0.1909807164 0.0794960401
1.0000000000 0.2781238634 0.1556738328
1.0000000000 0.3818616596 0.2567281945
1.0000000000 0.5029316755 0.3753830369
0.0000000000 0.0757746843 0.0000000000
0.0000000000 0.0977897217 0.0000000000
0.0000000000 0.1210946234 0.0000000000
0.0046855094 0.1404407841 0.0000000000
0.1222735701 0.1388952569 0.0000000000
0.2586147160 0.1226315054 0.0109006631
0.3948611459 0.0824926774 0.0174606515
0.5203816054 0.0284526271 0.0070039636
0.6377543918 0.0159808589 0.0082860377
0.7436159496 0.0197787304 0.0102590944
0.8258020094 0.0306832439 0.0121167413
0.8970555360 0.0586706232 0.0183484144
0.9663099302 0.1147131639 0.0386597130
1.0000000000 0.1937621818 0.0803087299
1.0000000000 0.2796490729 0.1563105302
1.0000000000 0.3828414081 0.2570877743
1.0000000000 0.5036650466 0.3758049871
0.0000000000 0.1965229270 0.0000000000
0.0000000000 0.2128335202 0.0000000000
0.0000000000 0.2278999468 0.0000000000
0.0000000000 0.2454306311 0.0000000000
0.0506420702 0.2561361328 0.0000000000
0.2264254001 0.2447990963 0.0000000000
0.3808272318 0.2122317199 0.0057215768
0.5180430192 0.1731351120 0.0352177411
0.6469186535 0.0888385713 0.0199270349
0.7525996721 0.0391034544 0.0109991118
0.8304800106 0.0409355273 0.0124291816
0.8998764690 0.0693705726 0.0204692127
0.9681475931 0.1239539071 0.0407023275
1.0000000000 0.1988023477 0.0815183500
1.0000000000 0.2825614975 0.1574050494
1.0000000000 0.3847986461 0.2580060570
1.0000000000 0.5048305660 0.3762611022
0.0000000000 0.3268977683 0.0000000000
0.0000000000 0.3357605032 0.0000000000
0.0000000000 0.3435283260 0.0000000000
0.0000000000 0.3538060859 0.0000000000
0.0000000000 0.3693840158 0.0000000000
0.1275109344 0.3714603497 0.0000000000
0.3402759307 0.3549828028 0.0000000000
0.5001319678 0.3144007614 0.0022189382
0.6400973872 0.2727828403 0.0403260832
0.7526821697 0.1865312982 0.0413963576
0.8348642866 0.1030315095 0.0248619998
0.9033574621 0.0989221477 0.0267385528
0.9703089722 0.1431732461 0.0448033586
1.0000000000 0.2120240640 0.0848307089
1.0000000000 0.2886756044 0.1595575619
1.0000000000 0.3882310365 0.2594070571
1.0000000000 0.5066021730 0.3771482699
0.0000000000 0.4465922024 0.0000000000
0.0000000000 0.4511881344 0.0000000000
0.0000000000 0.4562044835 0.0000000000
0.0000000000 0.4622902255 0.0000000000
0.0000000000 0.4722331968 0.0000000000
0.0037976213 0.4873341398 0.0000000000
0.2236969378 0.4851557350 0.0000000000
0.4514892448 0.4649751880 0.0000000000
0.6192796912 0.4197264682 0.0005864605
0.7446674342 0.3706546644 0.0309781146
0.8297262534 0.3001302189 0.0600712585
0.9037236619 0.2073217093 0.0509032682
0.9721432208 0.1921078130 0.0560475271
1.0000000000 0.2382642314 0.0913437905
1.0000000000 0.3037125069 0.1634292987
1.0000000000 0.3950944126 0.2617959357
1.0000000000 0.5098484971 0.3782594427
0.0000000000 0.5663638815 0.0000000000
0.0000000000 0.5693089227 0.0000000000
0.0000000000 0.5721480662 0.0000000000
0.0000000000 0.5757060715 0.0000000000
0.0000000000 0.5815637169 0.0000000000
0.0000000000 0.5918054766 0.0000000000
0.0282413353 0.6058098925 0.0000000000
0.3243907777 0.6015823771 0.0000000000
0.5665240672 0.5805584679 0.0000000000
0.7253165462 0.5322083947 0.0000000000
0.8219707292 0.4740087575 0.0167699815
0.8977160962 0.4066078857 0.0631906491
0.9705617385 0.3235570681 0.0873203557
1.0000000000 0.2954107305 0.1073290305
1.0000000000 0.3340639332 0.1722210742
1.0000000000 0.4121748757 0.2660054970
1.0000000000 0.5170333863 0.3805446944
0.0106044919 0.6789516922 0.0000000000
0.0113936443 0.6803293075 0.0000000000
0.0121689989 0.6816592172 0.0000000000
0.0133173824 0.6835401605 0.0000000000
0.0150436820 0.6863719462 0.0000000000
0.0185948588 0.6915240779 0.0000000000
0.0257857752 0.6998051957 0.0000000000
0.1080022413 0.7097086331 0.0000000000
0.4346266084 0.7062209580 0.0107522961
0.6787623747 0.6890224635 0.0261767066
0.8042248810 0.6470215434 0.0174111749
0.8882483019 0.5878512688 0.0208637115
0.9641927920 0.5121343242 0.0673408577
1.0000000000 0.4329600863 0.1361785281
1.0000000000 0.4019807158 0.1945852330
1.0000000000 0.4471834350 0.2761844196
1.0000000000 0.5354782051 0.3852465583
0.1105416704 0.7624291070 0.0162767173
0.1117500805 0.7629873288 0.0165724507
0.1131446136 0.7635353548 0.0165724507
0.1147676966 0.7642670923 0.0173620737
0.1176639665 0.7655019070 0.0179539156
0.1223156202 0.7676810796 0.0189403189
0.1304031299 0.7713684893 0.0208146728
0.1457871309 0.7773399834 0.0244154841
0.2415617890 0.7848412766 0.0356729052
0.5640318659 0.7840909653 0.0657050301
0.7684920141 0.7731252727 0.0844776139
0.8698448445 0.7396847807 0.0692174389
0.9522412493 0.6905091899 0.0661111495
0.9987692368 0.6206087414 0.1015118638
1.0000000000 0.5399667654 0.2052581175
1.0000000000 0.5208937728 0.2987165133
1.0000000000 0.5725737932 0.3959450560
0.2757356543 0.8268212635 0.0829650020
0.2766765303 0.8271445924 0.0834345756
0.2776507920 0.8274915355 0.0834345756
0.2788284999 0.8278893736 0.0839095559
0.2807908035 0.8285650520 0.0843718614
0.2846159163 0.8297307262 0.0855943020
0.2908950565 0.8318026906 0.0874919992
0.3017696691 0.8350908513 0.0906932431
0.3209878292 0.8408347703 0.0965975879
0.4175049935 0.8486549354 0.1128235246
0.6869407900 0.8510353993 0.1500628274
0.8386238506 0.8440597857 0.1692722932
0.9339438639 0.8141210090 0.1525148004
0.9945371398 0.7754738052 0.1513593635
1.0000000000 0.7186150437 0.1833164538
1.0000000000 0.6432507518 0.2785121664
1.0000000000 0.6327059932 0.4024083326
0.4816851565 0.8904814724 0.1778391905
0.4822808147 0.8906661229 0.1780640058
0.4828018043 0.8908075774 0.1782880658
0.4835967252 0.8910865938 0.1785128811
0.4849011723 0.8915257118 0.1789020910
0.4869519932 0.8922307241 0.1793833165
0.4910820116 0.8935123209 0.1807979157
0.4976504949 0.8957091660 0.1832390411
0.5081866418 0.8992901200 0.1873271341
0.5269995001 0.9053801021 0.1942962101
0.6009274567 0.9137248579 0.2121711644
0.7746347979 0.9178457307 0.2425955278
0.9050847974 0.9141596557 0.2640318290
0.9842263282 0.8905028193 0.2528170745
1.0000000000 0.8620715169 0.2609997883
1.0000000000 0.8042079211 0.2964684014
1.0000000000 0.7320017440 0.3838704197
0.6483210033 0.9506049989 0.2935689709
0.6485139941 0.9506905289 0.2937169214
0.6487009030 0.9507809122 0.2938427479
0.6489689458 0.9508857290 0.2939685743
0.6494196966 0.9510608859 0.2941886304
0.6502291546 0.9513594531 0.2946005734
0.6516716324 0.9518337445 0.2952972618
0.6542538095 0.9528252498 0.2967729027
0.6586506520 0.9544582618 0.2993629085
0.6654593028 0.9570498150 0.3039770439
0.6770547175 0.9612037585 0.3120275635
0.7220010442 0.9670100237 0.3296247261
0.8535473372 0.9726852752 0.3578166950
0.9660395446 0.9740530578 0.3810716956
1.0000000000 0.9641943019 0.3805543578
1.0000000000 0.9423739572 0.3935936704
1.0000000000 0.8895623633 0.4327259421
0.7648483520 0.9847770626 0.4375295074
0.7650145385 0.9848254210 0.4377035641
0.7650698921 0.9848254210 0.4377533745
0.7651968724 0.9848254210 0.4379084646
0.7654157107 0.9848975189 0.4381431519
0.7657464501 0.9849526600 0.4384698735
0.7664319301 0.9850380722 0.4392537813
0.7676881616 0.9852103411 0.4403252731
0.7698189927 0.9855127380 0.4419548145
0.7737142743 0.9860535982 0.4458387211
0.7798753500 0.9867831189 0.4515023532
0.7907340049 0.9877244117 0.4624644528
0.8294655908 0.9899181237 0.4820553801
0.9400531590 0.9968154144 0.5102026317
0.9979484916 0.9998978972 0.5250440524
1.0000000000 0.9985263841 0.5278439573
1.0000000000 0.9921405567 0.5371451413
0.8795659420 0.9913951649 0.5941500670
0.8795920127 0.9913951649 0.5940605617
0.8796753011 0.9913951649 0.5942176807
0.8797032519 0.9914464281 0.5942664052
0.8798231395 0.9914498457 0.5943463407
0.8800244355 0.9914498457 0.5943425879
0.8803688069 0.9914498457 0.5946361854
0.8810635662 0.9915062985 0.5953699290
0.8821967019 0.9915875602 0.5962791180
0.8844293821 0.9917178202 0.5983524392
0.8881764822 0.9919614729 0.6016970364
0.8942016903 0.9923564827 0.6070099377
0.9042281011 0.9929788131 0.6166692387
0.9362524366 0.9954075539 0.6340878299
0.9940108840 1.0000000000 0.6523543878
1.0000000000 1.0000000000 0.6532742267
1.0000000000 1.0000000000 0.6616051589
0.9692230963 0.9974536609 0.7226020126
0.9692806225 0.9975033981 0.7226148490
0.9692788793 0.9975067139 0.7226020126
0.9693468648 0.9975067139 0.7227688863
0.9693625538 0.9975067139 0.7228073957
0.9694566875 0.9975067139 0.7228125303
0.9696369861 0.9975067139 0.7230596162
0.9698833984 0.9975360035 0.7233038843
0.9703435365 0.9975587843 0.7236915450
0.9710905364 0.9976466532 0.7243303616
0.9723776745 0.9977643644 0.7258131275
0.9743796158 0.9979623304 0.7282068427
0.9775315205 0.9982531389 0.7322312247
0.9826506382 0.9988719789 0.7383371197
0.9946068905 1.0000000000 0.7497189909
1.0000000000 1.0000000000 0.7492478419
1.0000000000 1.0000000000 0.7488349986
0.0000000000 0.0000000000 0.0000000000
0.0000000000 0.0000000000 0.0000000000
0.0000000000 0.0000000000 0.0000000000
0.0000000000 0.0000000000 0.0000000000
0.0471107313 0.0000000000 0.0000000000
0.1938295116 0.0013314880 0.0013314880
0.3427422289 0.0036493794 0.0036493794
0.4756561603 0.0059679587 0.0059679587
0.6052690448 0.0090751603 0.0078912262
0.7272296294 0.0141060672 0.0106045545
0.8180185537 0.0243658332 0.0126269627
0.8927650696 0.0484482931 0.0175594794
0.9644264455 0.1043970314 0.0378285278
1.0000000000 0.1851820374 0.0796388108
1.0000000000 0.2746523144 0.1564080988
1.0000000000 0.3796836737 0.2573566329
1.0000000000 0.5016950733 0.3759280559
0.0000000000 0.0000000000 0.0000000000
0.0000000000 0.0000000000 0.0000000000
0.0000000000 0.0000000000 0.0000000000
0.0203708851 0.0000000000 0.0000000000
0.1217487574 0.0001284456 0.0001284456
0.2439641366 0.0021204230 0.0021204230
0.3690283451 0.0039451127 0.0038958238
0.4900635230 0.0067571439 0.0059679587
0.6147564012 0.0098149940 0.0082860377
0.7308371899 0.0148956902 0.0106045545
0.8196495667 0.0251546821 0.0126269627
0.8936906550 0.0497468378 0.0175594794
0.9648088328 0.1059443733 0.0378772012
1.0000000000 0.1864221254 0.0800924184
1.0000000000 0.2752297460 0.1564521923
1.0000000000 0.3800658095 0.2575110356
1.0000000000 0.5019583058 0.3760276830
0.0000000000 0.0000000000 0.0000000000
0.0000000000 0.0000000000 0.0000000000
0.0083350764 0.0110978700 0.0000000000
0.0753010611 0.0072993842 0.0006027294
0.1730707816 0.0014795424 0.0013808395
0.2804825650 0.0029097333 0.0029097333
0.3896779605 0.0044386271 0.0044386271
0.5037750169 0.0067571439 0.0059679587
0.6225413403 0.0098642829 0.0082860377
0.7347547047 0.0155861725 0.0106045545
0.8211969875 0.0259307769 0.0126269627
0.8945834213 0.0512086576 0.0175594794
0.9652143177 0.1073900107 0.0385606867
1.0000000000 0.1874842442 0.0802343015
1.0000000000 0.2759888084 0.1569337181
1.0000000000 0.3805942111 0.2577857682
1.0000000000 0.5023449284 0.3762084208
0.0000000000 0.0235275007 0.0000000000
0.0000000000 0.0455605927 0.0000000000
0.0000000000 0.0732370380 0.0000000000
0.0647020670 0.0745631158 0.0000000000
0.1711521803 0.0619838126 0.0123255729
0.2962129117 0.0223435666 0.0044880411
0.4075098427 0.0076940706 0.0044386271
0.5173545371 0.0081875225 0.0063129809
0.6320010180 0.0112949486 0.0082860377
0.7398785627 0.0164739354 0.0106045545
0.8233813687 0.0273374417 0.0125776112
0.8956241241 0.0530715137 0.0182005477
0.9657606920 0.1091885562 0.0386597130
1.0000000000 0.1890911002 0.0811024004
1.0000000000 0.2766888110 0.1569776240
1.0000000000 0.3810692768 0.2579574956
1.0000000000 0.5026560727 0.3763724502
0.0000000000 0.1120956172 0.0000000000
0.0000000000 0.1321989843 0.0000000000
0.0000000000 0.1523849894 0.0000000000
0.0084342171 0.1676801232 0.0000000000
0.1443394753 0.1575812240 0.0000000000
0.2821344378 0.1322122729 0.0129717972
0.4099286956 0.0873487590 0.0183973905
0.5309530138 0.0290326342 0.0072011192
0.6441850557 0.0161782647 0.0082860377
0.7464411645 0.0197787304 0.0106045545
0.8270952235 0.0306832439 0.0121167413
0.8976817709 0.0574963505 0.0189403189
0.9667302325 0.1130201913 0.0396021140
1.0000000000 0.1919588272 0.0819453307
1.0000000000 0.2783663721 0.1577061985
1.0000000000 0.3820920705 0.2584937901
1.0000000000 0.5033620656 0.3766586756
0.0000000000 0.2216874783 0.0000000000
0.0000000000 0.2363809101 0.0000000000
0.0000000000 0.2499743593 0.0000000000
0.0000000000 0.2661972985 0.0000000000
0.0584793563 0.2731459765 0.0000000000
0.2426564753 0.2565956018 0.0000000000
0.3936609745 0.2191356213 0.0064609102
0.5265690725 0.1771680595 0.0362394799
0.6520154796 0.0896733201 0.0201244407
0.7552207200 0.0391034544 0.0109991118
0.8317606137 0.0406693810 0.0126759388
0.9006245621 0.0685468904 0.0212094843
0.9685439884 0.1223065558 0.0414601864
1.0000000000 0.1970702934 0.0833297796
1.0000000000 0.2812771040 0.1589135469
1.0000000000 0.3840487438 0.2593073517
1.0000000000 0.5045935187 0.3771541303
0.0000000000 0.3401291034 0.0000000000
0.0000000000 0.3481320115 0.0000000000
0.0000000000 0.3556217771 0.0000000000
0.0000000000 0.3650781171 0.0000000000
0.0000000000 0.3799831703 0.0000000000
0.1347191465 0.3807191425 0.0000000000
0.3494474634 0.3612505910 0.0000000000
0.5076816222 0.3182174510 0.0025150469
0.6444570486 0.2751108114 0.0403260832
0.7549643700 0.1874755429 0.0417691450
0.8360533598 0.1028660371 0.0248619998
0.9041568244 0.0984441033 0.0272492927
0.9707496690 0.1421246868 0.0456795539
1.0000000000 0.2101030892 0.0860179406
1.0000000000 0.2873065916 0.1611010857
1.0000000000 0.3874533616 0.2606048303
1.0000000000 0.5063261934 0.3778235273
0.0000000000 0.4537903505 0.0000000000
0.0000000000 0.4587479043 0.0000000000
0.0000000000 0.4632641843 0.0000000000
0.0000000000 0.4690358028 0.0000000000
0.0000000000 0.4787380090 0.0000000000
0.0041923077 0.4935265652 0.0000000000
0.2290873543 0.4904655615 0.0000000000
0.4570297008 0.4687310494 0.0000000000
0.6233551407 0.4219906735 0.0007001986
0.7465801640 0.3721196438 0.0317958165
0.8307125680 0.3008023494 0.0606603371
0.9044569369 0.2068483139 0.0515598274
0.9725504760 0.1909067869 0.0572816299
1.0000000000 0.2369416126 0.0928578363
1.0000000000 0.3024071325 0.1649973412
1.0000000000 0.3944378423 0.2630539684
1.0000000000 0.5094978554 0.3790132547
0.0000000000 0.5705797601 0.0000000000
0.0000000000 0.5733624372 0.0000000000
0.0000000000 0.5761369490 0.0000000000
0.0000000000 0.5795241107 0.0000000000
0.0000000000 0.5857007544 0.0000000000
0.0000000000 0.5954852554 0.0000000000
0.0291268423 0.6092311938 0.0000000000
0.3273059995 0.6043325236 0.0000000000
0.5696589860 0.5828379705 0.0000000000
0.7272432688 0.5336707308 0.0000000000
0.8228053388 0.4749318717 0.0179045642
0.8982155336 0.4069306280 0.0648521544
0.9709376731 0.3227761422 0.0886189356
1.0000000000 0.2940757671 0.1088740444
1.0000000000 0.3328464436 0.1737769697
1.0000000000 0.4115193763 0.2671418891
1.0000000000 0.5166571246 0.3815862903
0.0106044919 0.6807355274 0.0000000000
0.0113936443 0.6821482776 0.0000000000
0.0125281972 0.6835911973 0.0000000000
0.0133173824 0.6852424123 0.0000000000
0.0150436820 0.6882086409 0.0000000000
0.0185948588 0.6932214248 0.0000000000
0.0265617007 0.7014151681 0.0000000000
0.1093839579 0.7112784144 0.0000000000
0.4368299025 0.7075585385 0.0115396129
0.6803341694 0.6901644649 0.0265855576
0.8050182330 0.6476901726 0.0182004226
0.8886836075 0.5882470571 0.0223934810
0.9644316751 0.5122317177 0.0701668132
1.0000000000 0.4323506849 0.1385843747
1.0000000000 0.4010575241 0.1962099679
1.0000000000 0.4467188288 0.2774409567
1.0000000000 0.5351817967 0.3862392085
0.1109077290 0.7630166108 0.0178056737
0.1121995409 0.7635947890 0.0181017823
0.1136137091 0.7641676829 0.0181510712
0.1154004388 0.7648910274 0.0188909675
0.1180929711 0.7661292615 0.0189403189
0.1228620837 0.7683332398 0.0202718070
0.1312024571 0.7719791823 0.0220971847
0.1465935624 0.7779644271 0.0253630804
0.2427587532 0.7854364809 0.0368201752
0.5653576078 0.7846714244 0.0665969414
0.7691911911 0.7735508868 0.0853636837
0.8703322485 0.7399851982 0.0699393437
0.9524096683 0.6906197383 0.0679112013
0.9987766208 0.6206407266 0.1045901394
1.0000000000 0.5398999035 0.2078765956
1.0000000000 0.5205997085 0.3000916924
1.0000000000 0.5723544602 0.3969294602
0.2764403247 0.8271467674 0.0848012843
0.2774152754 0.8274958855 0.0848012843
0.2782774789 0.8278452522 0.0852289468
0.2794342033 0.8282428417 0.0853828600
0.2815258531 0.8288789973 0.0860483083
0.2853820542 0.8300507615 0.0871927863
0.2915986366 0.8320833895 0.0889145018
0.3025904500 0.8354293430 0.0919855357
0.3219133774 0.8411620141 0.0977140246
0.4184391081 0.8490359997 0.1136627861
0.6875310851 0.8513321993 0.1507518115
0.8389063449 0.8443152662 0.1695756554
0.9341572676 0.8142973587 0.1532832779
0.9945773686 0.7755182291 0.1530826369
1.0000000000 0.7186150437 0.1855679323
1.0000000000 0.6433284602 0.2806714734
1.0000000000 0.6327660432 0.4038211031
0.4822312026 0.8906430181 0.1789950507
0.4828417696 0.8908371492 0.1792181667
0.4834560324 0.8910451557 0.1794412197
0.4842227646 0.8913082247 0.1796488528
0.4854435227 0.8916631481 0.1799347182
0.4875905609 0.8924309454 0.1805283514
0.4916834955 0.8936923099 0.1821756961
0.4981717573 0.8958877160 0.1844356807
0.5087728130 0.8994810032 0.1883069631
0.5275344646 0.9055585895 0.1951724214
0.6013896886 0.9139395191 0.2129978258
0.7748615168 0.9179859760 0.2430594009
0.9053115075 0.9143295803 0.2643414765
0.9843420698 0.8905693713 0.2534739464
1.0000000000 0.8621021761 0.2623643811
1.0000000000 0.8042101248 0.2979448524
1.0000000000 0.7320517163 0.3850835264
0.6485083511 0.9506649393 0.2944564245
0.6486919369 0.9507882235 0.2945609371
0.6489098823 0.9508510632 0.2947078905
0.6491681439 0.9509434003 0.2949133634
0.6495865415 0.9511246080 0.2951054996
0.6504938743 0.9514028169 0.2955881148
0.6518764735 0.9519536252 0.2962609965
0.6544777114 0.9529064938 0.2976277000
0.6588952450 0.9545684991 0.3001743926
0.6656371255 0.9571358493 0.3047769362
0.6772022290 0.9612547351 0.3126306061
0.7221921210 0.9670660667 0.3301868590
0.8537090318 0.9727427157 0.3581020907
0.9660951408 0.9741139909 0.3811420207
1.0000000000 0.9642363341 0.3804986838
1.0000000000 0.9424010609 0.3942794443
1.0000000000 0.8895567127 0.4335231576
0.7649323563 0.9847770626 0.4381361250
0.7649976371 0.9848254210 0.4381322073
0.7651514460 0.9848254210 0.4382913395
0.7652786776 0.9848254210 0.4384063823
0.7654634619 0.9848924319 0.4386586059
0.7658278783 0.9849526600 0.4391094492
0.7665248563 0.9850380722 0.4397849681
0.7678175923 0.9852103411 0.4410711436
0.7699573453 0.9855127380 0.4426459165
0.7738026631 0.9860468155 0.4463732859
0.7800003760 0.9867831189 0.4520914527
0.7908427872 0.9877244117 0.4628269372
0.8296299556 0.9899588201 0.4823230952
0.9400932072 0.9968187243 0.5101116392
0.9979484916 0.9998978972 0.5258098416
1.0000000000 0.9985263841 0.5278980840
1.0000000000 0.9921473934 0.5378228472
0.8795659420 0.9913951649 0.5942437630
0.8796492930 0.9913951649 0.5943894359
0.8796870204 0.9913951649 0.5943321425
0.8797190447 0.9914464281 0.5943757380
0.8798450113 0.9914464281 0.5944879481
0.8800824052 0.9914498457 0.5946989204
0.8804347357 0.9914498457 0.5950033386
0.8810970320 0.9915062985 0.5956059828
0.8822617533 0.9915875602 0.5966971848
0.8844711830 0.9917178202 0.5985976250
0.8881880761 0.9919614729 0.6017331262
0.8942290793 0.9923564827 0.6070842440
0.9042871858 0.9929805223 0.6169162583
0.9363126640 0.9954075539 0.6343157514
0.9940108840 1.0000000000 0.6523543878
1.0000000000 1.0000000000 0.6538909782
1.0000000000 1.0000000000 0.6616051589
0.9693067708 0.9974536609 0.7228484723
0.9693050276 0.9975067139 0.7229896732
0.9693538377 0.9975067139 0.7228459050
0.9693625538 0.9975067139 0.7228484723
0.9694165935 0.9975067139 0.7230701984
0.9694741197 0.9975067139 0.7229280583
0.9696369861 0.9975067139 0.7231263657
0.9699116021 0.9975360035 0.7234142777
0.9703573749 0.9975587843 0.7238558514
0.9711431400 0.9976466532 0.7246686802
0.9723840652 0.9977643644 0.7260840078
0.9743796158 0.9979623304 0.7282350829
0.9775656046 0.9982531389 0.7325245218
0.9827118035 0.9988719789 0.7385277109
0.9946135746 1.0000000000 0.7497532221
1.0000000000 1.0000000000 0.7492478419
1.0000000000 1.0000000000 0.7488349986
0.0000000000 0.0000000000 0.0000000000
0.0000000000 0.0000000000 0.0000000000
0.0000000000 0.0000000000 0.0000000000
0.0044885415 0.0000000000 0.0000000000
0.0825410332 0.0000000000 0.0013809646
0.2183839785 0.0015782452 0.0022682897
0.3559003841 0.0036493794 0.0038465349
0.4833620701 0.0059679587 0.0059679587
0.6104320472 0.0090751603 0.0082860377
0.7293477417 0.0141060672 0.0106045545
0.8190574302 0.0243658332 0.0129226960
0.8934238957 0.0475296928 0.0180030794
0.9647854861 0.1028290991 0.0386597130
1.0000000000 0.1834803274 0.0812118875
1.0000000000 0.2730738759 0.1581518241
1.0000000000 0.3789559215 0.2586498319
1.0000000000 0.5013819825 0.3766820549
0.0000000000 0.0000000000 0.0000000000
0.0000000000 0.0000000000 0.0000000000
0.0034519736 0.0000000000 0.0041428937
0.0536112689 0.0000000000 0.0063133562
0.1487915190 0.0006189366 0.0028605069
0.2643650293 0.0023175786 0.0029097333
0.3805063175 0.0044386271 0.0044386271
0.4977221249 0.0067571439 0.0062144032
0.6186692158 0.0095192607 0.0082860377
0.7329685036 0.0148956902 0.0106045545
0.8205205723 0.0248097521 0.0129226960
0.8942305176 0.0488875458 0.0183484144
0.9651788308 0.1043136712 0.0388403661
1.0000000000 0.1845856895 0.0816885717
1.0000000000 0.2736410880 0.1582116161
