bundles/resolve-cinematic-luts/Phantom Luts/P4k & P6k Phntm Arri LUTs - V6/P4K/Gen 5 Colour/White Balance Offset (Magenta Boost)/P4k IceBlue Gen 5-Legacy WBO.cube
TITLE "Generated by Resolve"
LUT_3D_SIZE 5
0.033402 0.0457618 0.0452583
0.0918135 0.0518044 0.0510719
0.558846 0.0963149 0.119142
0.760342 0.192569 0.217746
0.767514 0.19057 0.238758
0.0429084 0.110689 0.0839704
0.0768902 0.112596 0.0626535
0.561502 0.10721 0.117372
0.747875 0.188434 0.204471
0.75172 0.18764 0.214832
0.0822309 0.620722 0.344793
0.0915236 0.638514 0.327626
0.576822 0.681605 0.161685
0.96582 0.774777 0.392767
0.973999 0.810376 0.415503
0.279438 0.891752 0.593668
0.278843 0.889387 0.576211
0.441337 0.90071 0.389853
0.991562 0.953582 0.524865
0.988952 0.953994 0.530739
0.281132 0.892363 0.599329
0.276982 0.888853 0.566262
0.678691 0.914519 0.377844
0.993378 0.952911 0.525826
0.986358 0.954253 0.535821
0.0299992 0.0496986 0.111696
0.0989395 0.0505226 0.112062
0.614786 0.110796 0.181003
0.800977 0.221332 0.273884
0.806455 0.220523 0.294453
0.0410773 0.100175 0.109392
0.0766003 0.0972457 0.114275
0.588937 0.105638 0.13991
0.766033 0.193896 0.228504
0.772 0.194415 0.242329
0.0804761 0.617456 0.374243
0.0890211 0.635981 0.364034
0.57435 0.681788 0.163684
0.966461 0.765911 0.393866
0.975921 0.810605 0.423423
0.282139 0.894713 0.614191
0.279866 0.892515 0.598688
0.419089 0.898787 0.394659
0.991608 0.953765 0.527306
0.989029 0.954208 0.533181
0.287266 0.897032 0.635248
0.280354 0.894072 0.608545
0.630411 0.91104 0.378714
0.993591 0.953262 0.529
0.986099 0.954681 0.538979
0.0443427 0.0726329 0.524529
0.095079 0.0715953 0.549325
0.589929 0.0813611 0.528298
0.811246 0.178058 0.525994
0.80412 0.17995 0.57174
0.0187076 0.0785229 0.50631
0.0467536 0.0763104 0.540551
0.602228 0.0884108 0.555993
0.806043 0.171786 0.539498
0.792477 0.165454 0.57821
0.0995804 0.599329 0.587106
0.109361 0.616907 0.605112
0.563317 0.607828 0.644907
0.998886 0.622995 0.623346
0.99089 0.657603 0.664271
0.366598 0.92874 0.811246
0.380118 0.927047 0.814282
0.373709 0.924773 0.695155
0.994263 0.956588 0.595102
0.99025 0.961028 0.693278
0.43444 0.958511 0.890501
0.452155 0.951736 0.885908
0.568338 0.946212 0.80798
0.993469 0.96434 0.691966
0.986938 0.964843 0.701106
0.129473 0.151339 0.704707
0.170764 0.153597 0.722271
0.580468 0.17464 0.793149
0.766995 0.19852 0.765896
0.764035 0.19881 0.769146
0.0888838 0.149065 0.683116
0.126146 0.151476 0.703792
0.59118 0.177234 0.794766
0.770733 0.200626 0.765881
0.766918 0.201663 0.771115
0.140124 0.616663 0.812772
0.146212 0.629786 0.815137
0.493553 0.599756 0.998978
0.981598 0.526696 0.975036
0.983063 0.575525 0.986679
0.573175 0.991699 0.979263
0.594583 0.985702 0.975662
0.649165 0.98645 0.978347
0.987366 0.984436 0.987243
0.993652 0.984649 0.986007
0.562402 0.994614 0.982101
0.600656 0.984024 0.974334
0.743984 0.985763 0.981933
0.98706 0.986496 0.989502
0.989303 0.987381 0.991028
0.135515 0.151797 0.7075
0.179126 0.154147 0.725673
0.599466 0.176608 0.792218
0.767269 0.199008 0.766354
0.764035 0.199237 0.769787
0.0929427 0.148943 0.684886
0.131212 0.151873 0.706203
0.609537 0.179644 0.794354
0.771069 0.201144 0.766415
0.7673 0.202167 0.771679
0.147387 0.628168 0.816129
0.152056 0.641489 0.817517
0.513634 0.614404 0.998978
0.987076 0.543038 0.980011
0.982757 0.590799 0.98587
0.575402 0.991089 0.978821
0.600992 0.983932 0.974258
0.670726 0.984756 0.978897
0.985794 0.984207 0.987915
0.992752 0.984985 0.986694
0.559319 0.995468 0.982818
0.606485 0.982406 0.973251
0.762387 0.982025 0.979583
0.984253 0.987182 0.991699
0.989136 0.987427 0.99118
