bundles/resolve-cinematic-luts/Phantom Luts/P4k & P6k Phntm Arri LUTs - V6/P4K/Gen 5 Colour/White Balance Offset (Magenta Boost)/P4k Jamaica Gen 5 WBO.cube
TITLE "Generated by Resolve"
LUT_3D_SIZE 5
0 0.0250553 0
0.135073 0.0323644 0.0200351
0.66772 0.119783 0.157137
0.75198 0.200198 0.238193
0.753262 0.201907 0.238804
0.00172427 0.154345 0.0641489
0.0970474 0.14992 0.009308
0.658686 0.135653 0.141344
0.750805 0.209766 0.224292
0.750805 0.210147 0.223774
0.157336 0.775769 0.486946
0.158679 0.777203 0.441398
0.705928 0.759457 0.212314
0.999207 0.834684 0.442725
0.999283 0.830991 0.439612
0.39704 0.972732 0.757229
0.393942 0.972229 0.738277
0.589349 0.998932 0.562203
1 0.986938 0.61532
1 0.987411 0.619623
0.400061 0.975341 0.764248
0.394965 0.972564 0.744549
0.566461 0.998932 0.554879
1 0.986191 0.61146
1 0.987976 0.616541
0 0.0260777 0.116854
0.15349 0.0253605 0.132692
0.714778 0.14136 0.229572
0.793927 0.226673 0.298863
0.7944 0.227008 0.298848
0.00984207 0.126131 0.117845
0.100404 0.120958 0.102708
0.662608 0.119203 0.152102
0.751049 0.200443 0.235798
0.752285 0.201846 0.236728
0.14725 0.76199 0.510979
0.144167 0.762554 0.471244
0.699138 0.750332 0.205509
0.998703 0.82974 0.438102
0.997894 0.825208 0.434043
0.398688 0.971511 0.772152
0.395743 0.971481 0.754757
0.558389 0.998932 0.570382
1 0.986847 0.616434
1 0.987381 0.62208
0.401205 0.973693 0.77847
0.396307 0.971252 0.760113
0.534508 0.998932 0.563363
1 0.985962 0.611429
1 0.988052 0.618891
0.0579843 0.0315709 0.550546
0.15993 0.0333104 0.571679
0.629694 0.0707103 0.570336
0.740658 0.148699 0.594354
0.74313 0.149996 0.59234
0 0.0387274 0.530816
0.0607614 0.0310674 0.546273
0.635233 0.0716869 0.567452
0.763806 0.162783 0.58323
0.766384 0.164157 0.581155
0.138537 0.685802 0.664012
0.132403 0.682368 0.653986
0.681575 0.669795 0.625544
0.997803 0.68304 0.624537
0.996689 0.676097 0.616434
0.419669 0.959533 0.877989
0.416785 0.960555 0.867247
0.42417 0.998932 0.749096
1 0.984009 0.64184
1 0.985306 0.680186
0.420386 0.960525 0.878721
0.417594 0.960204 0.870054
0.412863 0.990539 0.745083
0.995514 0.981262 0.608103
1 0.986633 0.671504
0.204379 0.134218 0.700343
0.266987 0.139956 0.727398
0.658396 0.185794 0.765377
0.725093 0.199176 0.7514
0.723415 0.199115 0.75024
0.141314 0.128985 0.668086
0.20209 0.134112 0.69929
0.646723 0.184054 0.768795
0.727916 0.20238 0.754498
0.72697 0.202274 0.753552
0.206424 0.62295 0.822187
0.201602 0.612436 0.819165
0.58201 0.565927 0.943358
0.964279 0.52079 0.987411
0.960571 0.511711 0.984131
0.599359 0.988586 0.994125
0.589364 0.990295 0.991318
0.608484 0.988693 0.985
0.971832 0.96791 0.965194
0.985321 0.967254 0.967178
0.615732 0.988861 0.994293
0.605264 0.989715 0.992737
0.607355 0.991562 0.985351
0.959182 0.979706 0.968139
0.983948 0.978988 0.961532
0.216754 0.13547 0.706142
0.277928 0.140902 0.731548
0.661692 0.186343 0.764431
0.725902 0.200076 0.752132
0.725429 0.199619 0.751492
0.153948 0.130358 0.67509
0.214649 0.135317 0.705211
0.64979 0.184451 0.767819
0.728618 0.20322 0.755169
0.728176 0.202808 0.75436
0.204929 0.613596 0.82324
0.197498 0.600275 0.817182
0.575647 0.545357 0.941985
0.959335 0.499489 0.983169
0.955734 0.487907 0.979919
0.630076 0.987335 0.995499
0.627634 0.988434 0.993942
0.633814 0.97792 0.990082
0.966873 0.96405 0.978851
0.981872 0.961715 0.982406
0.629816 0.987442 0.995331
0.627634 0.988434 0.993942
0.673884 0.987961 0.993011
0.966628 0.980102 0.981979
0.984176 0.979187 0.983795
