bundles/resolve-cinematic-luts/Phantom Luts/P4k & P6k Phntm Arri LUTs - V6/P4K/Gen 5 Colour/White Balance Offset (Magenta Boost)/P4k Utopia Gen 5-Legacy WBO.cube
TITLE "Generated by Resolve"
LUT_3D_SIZE 33
0.00622568 0.0319677 0.040528
0.00622568 0.0319677 0.040528
0.00622568 0.0319677 0.040528
0.0169985 0.0327916 0.0408789
0.0244755 0.0338293 0.0423743
0.0336156 0.0343786 0.0444648
0.0503395 0.0352331 0.0453346
0.0690318 0.0360571 0.0467842
0.0914626 0.0372473 0.0479896
0.121874 0.0388647 0.0501869
0.162997 0.0416114 0.053727
0.215427 0.0449073 0.0583658
0.280552 0.0480507 0.0637064
0.351507 0.0522774 0.0708934
0.428489 0.0596323 0.0826276
0.509438 0.0697642 0.0974899
0.589715 0.085893 0.117586
0.676371 0.106172 0.142458
0.769711 0.13048 0.171038
0.820905 0.145495 0.188647
0.833005 0.149905 0.193759
0.835767 0.151522 0.19588
0.837934 0.152895 0.197482
0.839704 0.153857 0.198871
0.840803 0.154604 0.199863
0.841764 0.155154 0.200504
0.842481 0.15555 0.200916
0.843214 0.155749 0.201175
0.843931 0.155749 0.201266
0.845335 0.155444 0.201114
0.846906 0.155047 0.200946
0.848875 0.154498 0.200656
0.85005 0.154177 0.200427
0.00624094 0.0319677 0.040528
0.00622568 0.0319677 0.040528
0.00622568 0.0319677 0.040528
0.0140383 0.0328985 0.0406043
0.0207828 0.0345922 0.0420386
0.0280613 0.0359655 0.0437934
0.0441138 0.03682 0.045716
0.0627604 0.037583 0.0468757
0.0853895 0.038117 0.0479896
0.114931 0.0389868 0.0491493
0.154788 0.0404822 0.0508125
0.205859 0.0434272 0.0544442
0.271366 0.0464485 0.0592966
0.344411 0.0516365 0.0671702
0.422339 0.0586862 0.0790112
0.504677 0.068986 0.0943313
0.585397 0.0847791 0.114305
0.672557 0.10573 0.13991
0.76614 0.129839 0.168658
0.818433 0.144793 0.186236
0.83093 0.149264 0.191592
0.833082 0.150164 0.192844
0.835309 0.151263 0.194339
0.836942 0.152239 0.195636
0.838163 0.153017 0.196704
0.839139 0.153552 0.19736
0.839826 0.153948 0.197818
0.840406 0.154208 0.198199
0.841093 0.154314 0.198413
0.842512 0.15407 0.198337
0.84416 0.153689 0.198047
0.845991 0.153185 0.197696
0.847211 0.152865 0.197513
0.00622568 0.0319677 0.040528
0.00624094 0.0319829 0.0405432
0.0062562 0.0319982 0.0405585
0.00830091 0.0331426 0.0409552
0.017731 0.035523 0.0421759
0.024155 0.0373388 0.0431983
0.0364538 0.0390173 0.0461738
0.0569009 0.0388037 0.0473793
0.0808118 0.0390326 0.0486152
0.110903 0.0398871 0.0498207
0.151339 0.0410163 0.0509041
0.202701 0.044007 0.0544747
0.266606 0.0464179 0.0576944
0.337987 0.0510414 0.0645151
0.415702 0.0576333 0.0752422
0.499672 0.068101 0.0908064
0.581003 0.0836805 0.111025
0.668803 0.104967 0.136828
0.763272 0.129244 0.166186
0.815473 0.144244 0.18381
0.828046 0.148653 0.189258
0.830564 0.14963 0.1906
0.832212 0.150362 0.191791
0.833844 0.151125 0.192782
0.835157 0.15172 0.193545
0.836133 0.152163 0.194171
0.836835 0.152483 0.194644
0.837491 0.152667 0.19498
0.838239 0.152712 0.195132
0.839612 0.152483 0.195071
0.841321 0.152087 0.194858
0.844236 0.151247 0.194354
0.847166 0.150393 0.193805
0.00746166 0.0407416 0.0475319
0.00764477 0.0403449 0.0463722
0.00798047 0.0397498 0.044831
0.0117952 0.0389563 0.0433661
0.0182345 0.0400549 0.0438544
0.024506 0.0424201 0.0468299
0.0328527 0.0429236 0.0468757
0.0518959 0.0407874 0.0481117
0.0758526 0.0401617 0.049073
0.106752 0.0409247 0.0503243
0.147707 0.0420996 0.0514839
0.199359 0.0444953 0.0542611
0.263539 0.0468605 0.0574655
0.335195 0.0512245 0.0638437
0.411887 0.0574807 0.073518
0.493294 0.067277 0.0869459
0.57583 0.0823835 0.10721
0.66421 0.1037 0.133288
0.759106 0.128252 0.16286
0.812696 0.143893 0.181582
0.824979 0.147799 0.186496
0.827451 0.148898 0.188159
0.829587 0.149752 0.189441
0.830915 0.150118 0.18999
0.832013 0.150729 0.19089
0.832807 0.151171 0.191546
0.833509 0.151476 0.191989
0.834195 0.151629 0.192248
0.834928 0.151675 0.192386
0.836301 0.151431 0.19234
0.837995 0.151049 0.192111
0.840726 0.150286 0.191653
0.843763 0.149401 0.191089
0.00810254 0.0481117 0.0531167
0.00813306 0.0477455 0.0524758
0.00927749 0.0466926 0.0493019
0.0132906 0.0457618 0.0456397
0.0191348 0.0470588 0.0454719
0.0245212 0.0470588 0.0459449
0.0377203 0.0509957 0.0523842
0.0566567 0.0484016 0.0514992
0.0780041 0.0458534 0.0512398
0.106462 0.04477 0.0518349
0.146456 0.0445563 0.0526894
0.196674 0.0454108 0.0544594
0.260395 0.0472725 0.0571603
0.332799 0.0514534 0.0631571
0.409628 0.0577707 0.0726024
0.491279 0.0675364 0.0861372
0.571984 0.0823529 0.104982
0.658701 0.10248 0.129488
0.755245 0.127504 0.159792
0.809979 0.142824 0.178271
0.822248 0.146426 0.183261
0.825055 0.14757 0.184817
0.827176 0.148608 0.186389
0.828992 0.149264 0.187381
0.830228 0.149691 0.188052
0.831006 0.149889 0.188479
0.831571 0.150042 0.188785
0.832059 0.150286 0.189105
0.832395 0.150469 0.189349
0.833295 0.150393 0.189364
0.834669 0.150118 0.189227
0.8374 0.149371 0.188754
0.840253 0.148547 0.188235
0.00860609 0.056611 0.0563973
0.00839246 0.0563821 0.0554513
0.00939956 0.0552224 0.0535592
0.0109407 0.0543221 0.0485389
0.0187533 0.0544442 0.0467994
0.0235752 0.0563363 0.0457313
0.0330053 0.0556497 0.0473487
0.0635233 0.0586404 0.0555276
0.0857404 0.0538186 0.0548714
0.112428 0.0512856 0.0548867
0.149035 0.0499886 0.0553445
0.198169 0.049134 0.0556649
0.258579 0.0487678 0.0568246
0.330205 0.0517739 0.0619516
0.407355 0.0580453 0.0714122
0.489662 0.0679484 0.0855116
0.570672 0.0828107 0.104219
0.655665 0.102358 0.127565
0.750454 0.126879 0.156558
0.807202 0.142473 0.175448
0.819745 0.14609 0.180545
0.822065 0.147005 0.182055
0.824033 0.147738 0.183246
0.825422 0.148302 0.184222
0.826444 0.148775 0.184833
0.827268 0.149142 0.185397
0.827955 0.149432 0.18584
0.828504 0.149645 0.186175
0.828885 0.149798 0.186435
0.829679 0.149691 0.186404
0.83093 0.149371 0.186191
0.833387 0.148653 0.185733
0.836271 0.147768 0.185107
0.00669871 0.0727092 0.059205
0.00660716 0.0728618 0.0568093
0.00733959 0.0716869 0.0550393
0.00865187 0.0702678 0.0520943
0.0133974 0.0693523 0.0464485
0.0205997 0.071046 0.0446479
0.0288853 0.0725567 0.0422675
0.051957 0.0711223 0.0449378
0.0917372 0.0738231 0.0578622
0.123644 0.0639963 0.0597848
0.159655 0.0602884 0.0597086
0.204562 0.0579385 0.0588388
0.262455 0.0565805 0.059266
0.330602 0.0567941 0.0631723
0.404059 0.059205 0.0703136
0.486244 0.0683757 0.0841688
0.568124 0.0836194 0.103273
0.6533 0.103014 0.126497
0.747143 0.127123 0.155016
0.806165 0.143084 0.173693
0.817029 0.146227 0.177111
0.818647 0.146899 0.178073
0.82034 0.147616 0.179355
0.821683 0.148165 0.180362
0.822797 0.148577 0.18114
0.823606 0.148867 0.181674
0.824201 0.149065 0.182025
0.824598 0.149203 0.182284
0.824887 0.14931 0.182437
0.825437 0.149294 0.182483
0.826139 0.149157 0.182437
0.827802 0.148699 0.182116
0.829557 0.148165 0.181735
0.0041352 0.0935988 0.0607767
0.0033875 0.0940719 0.0581064
0.00395209 0.0937514 0.0557107
0.00549325 0.0926986 0.051667
0.00714122 0.0917067 0.0476539
0.0146334 0.0916457 0.0410163
0.0243534 0.0939345 0.0400244
0.0429847 0.0937667 0.0369116
0.0791028 0.092195 0.0465858
0.125566 0.093431 0.0603037
0.17528 0.0757153 0.0655528
0.219547 0.0710765 0.06392
0.274479 0.0674754 0.0630045
0.335302 0.0671855 0.0669108
0.406851 0.0686046 0.0734417
0.485649 0.0729839 0.0844434
0.564981 0.084947 0.101976
0.650034 0.10399 0.125292
0.743664 0.127749 0.153628
0.808576 0.145556 0.173953
0.819989 0.14902 0.177462
0.820356 0.14931 0.177523
0.820645 0.149538 0.177569
0.820874 0.149722 0.1776
0.821134 0.149874 0.177707
0.821332 0.149996 0.177783
0.821454 0.150103 0.177844
0.821561 0.150179 0.17789
0.821637 0.150225 0.177935
0.822019 0.150149 0.177859
0.822736 0.149966 0.177737
0.824277 0.149493 0.177386
0.825833 0.14902 0.17705
0.000869764 0.118944 0.0634775
0.000137331 0.119768 0.0588235
0 0.120394 0.0551308
0.00103761 0.119524 0.0514992
0.002533 0.118547 0.0470283
0.00497444 0.117296 0.0418402
0.0156558 0.117601 0.0346838
0.0315251 0.120592 0.0345312
0.0619364 0.118181 0.0329137
0.109834 0.115602 0.0482185
0.168093 0.114122 0.0629435
0.241032 0.0916762 0.0727092
0.295689 0.0881361 0.0734417
0.354253 0.0853437 0.0756847
0.418479 0.0859388 0.0814069
0.492912 0.0906081 0.0919509
0.571359 0.0988022 0.106661
0.651331 0.110582 0.12578
0.739162 0.129747 0.151995
0.811765 0.148943 0.174014
0.824796 0.152728 0.17821
0.824933 0.152773 0.178164
0.825116 0.152865 0.178149
0.825284 0.152987 0.178134
0.825452 0.153109 0.178164
0.82562 0.153201 0.178225
0.825742 0.153292 0.178271
0.825849 0.153353 0.178302
0.825925 0.153399 0.178317
0.826276 0.153353 0.178271
0.826947 0.153185 0.178134
0.828565 0.152728 0.177768
0.830289 0.152239 0.177325
0 0.152255 0.0712596
0 0.153292 0.0654154
0 0.154574 0.0585489
0 0.1552 0.052369
0 0.154299 0.0484321
0 0.15288 0.0437171
0.00343328 0.150439 0.0350347
0.0189212 0.152102 0.0280461
0.0468147 0.1561 0.0296025
0.0872969 0.149767 0.0309453
0.15256 0.148135 0.050309
0.22266 0.144656 0.0672007
0.320821 0.117113 0.0855268
0.383169 0.115679 0.0906233
0.445899 0.115709 0.0959793
0.516442 0.119219 0.106508
0.588525 0.12636 0.119554
0.66952 0.138781 0.138735
0.755413 0.153368 0.160601
0.829618 0.168658 0.181537
0.838193 0.166995 0.183139
0.834653 0.162097 0.181048
0.83331 0.160281 0.180468
0.83299 0.160006 0.180301
0.833204 0.16022 0.180407
0.833387 0.160403 0.180499
0.833539 0.160586 0.18056
0.833616 0.160693 0.180591
0.833707 0.1608 0.180621
0.834043 0.160784 0.18056
0.834669 0.160693 0.180453
0.83621 0.160311 0.180072
0.837919 0.159899 0.179568
0 0.197436 0.080766
0 0.198505 0.0749523
0 0.199741 0.0688792
0 0.201144 0.0612039
0 0.201801 0.0531014
0 0.200824 0.0473945
0 0.198718 0.0400244
0.00341802 0.195026 0.0280766
0.0254063 0.199298 0.0220188
0.0694896 0.20502 0.0262455
0.122179 0.194003 0.0307927
0.211704 0.194873 0.056199
0.297368 0.194537 0.0730907
0.415549 0.1617 0.107958
0.489479 0.164202 0.118898
0.556786 0.167163 0.128405
0.626627 0.173709 0.141741
0.700526 0.182925 0.15761
0.781613 0.194736 0.179004
0.858824 0.209995 0.199908
0.870954 0.20943 0.202441
0.869001 0.205753 0.200885
0.866712 0.202152 0.199207
0.86453 0.199359 0.19765
0.863386 0.197574 0.197024
0.862516 0.196185 0.196429
0.861799 0.195224 0.195972
0.861311 0.194553 0.195697
0.861006 0.194095 0.195499
0.860914 0.193851 0.195392
0.860945 0.193744 0.195315
0.861601 0.193576 0.195163
0.86276 0.193347 0.194858
0 0.256916 0.0941329
0 0.25803 0.0886244
0 0.259251 0.0836957
0 0.260502 0.0775464
0 0.262089 0.0683604
0 0.263325 0.059205
0 0.262181 0.0499733
0 0.259068 0.0379492
0.00654612 0.25359 0.0201572
0.0406958 0.262943 0.0189517
0.10312 0.272496 0.0265049
0.17644 0.254917 0.0366979
0.288045 0.25742 0.0641947
0.389517 0.269413 0.0772259
0.517723 0.238727 0.13254
0.603159 0.236027 0.155306
0.676188 0.241367 0.172335
0.751217 0.247517 0.189517
0.826627 0.256229 0.206867
0.892317 0.266789 0.223651
0.906889 0.266514 0.226352
0.906004 0.263142 0.225025
0.9037 0.259754 0.223423
0.901671 0.257252 0.222019
0.900343 0.255604 0.22121
0.89958 0.25452 0.220768
0.898878 0.253635 0.22031
0.89839 0.25301 0.219989
0.89807 0.252613 0.219776
0.897932 0.252445 0.219684
0.897887 0.252415 0.219669
0.898299 0.252384 0.219516
0.899306 0.252308 0.219226
0 0.33724 0.113939
0 0.338293 0.10901
0 0.339284 0.104448
0 0.340383 0.0990311
0 0.341619 0.0924849
0 0.343389 0.0834669
0 0.34548 0.0708324
0 0.344152 0.0569467
0.00355535 0.339803 0.0394598
0.0140993 0.333562 0.0119936
0.0709392 0.34847 0.0149233
0.156405 0.356725 0.0280613
0.248981 0.332586 0.0471809
0.375753 0.332601 0.0734569
0.495644 0.370871 0.0750744
0.62121 0.354574 0.143694
0.712001 0.321386 0.18999
0.801419 0.327932 0.219287
0.878965 0.334981 0.241276
0.933898 0.340978 0.256443
0.9411 0.341421 0.258549
0.940322 0.338186 0.257465
0.93933 0.335134 0.256321
0.938842 0.333059 0.255756
0.938506 0.331563 0.255314
0.938201 0.330541 0.254963
0.938003 0.329839 0.254734
0.937865 0.329427 0.254566
0.937804 0.329229 0.25449
0.937789 0.329183 0.25449
0.937804 0.329244 0.254505
0.938201 0.329351 0.254383
0.938933 0.329503 0.254108
0 0.425177 0.146807
0 0.426246 0.14139
0 0.427268 0.136522
0 0.428305 0.131395
0 0.42948 0.125429
0 0.430869 0.118227
0 0.433219 0.105303
0 0.435782 0.0883192
0.00321965 0.434546 0.0699779
0.0101167 0.429465 0.044358
0.0286564 0.426123 0.00869764
0.113878 0.439033 0.016495
0.23566 0.441764 0.0398413
0.339132 0.413016 0.0569619
0.468818 0.414237 0.0851606
0.597314 0.463432 0.0894942
0.707729 0.459358 0.154421
0.815305 0.428214 0.217899
0.890684 0.408576 0.254536
0.950744 0.416327 0.277378
0.959091 0.422309 0.282445
0.958938 0.421225 0.282399
0.958572 0.419593 0.281941
0.958373 0.41828 0.281682
0.958236 0.41735 0.281498
0.958144 0.41677 0.281376
0.958099 0.416449 0.281285
0.958083 0.416342 0.281254
0.958099 0.416373 0.281239
0.958129 0.41651 0.281239
0.958175 0.416739 0.281254
0.958373 0.417044 0.281102
0.958755 0.417441 0.280766
0 0.517708 0.193774
0 0.51873 0.188952
0 0.519692 0.183948
0 0.520745 0.17821
0 0.521767 0.173388
0 0.523018 0.167056
0 0.525063 0.156558
0 0.52845 0.138567
0.00270085 0.531899 0.113634
0.00985733 0.529778 0.0865644
0.0213779 0.523842 0.0526131
0.0636606 0.523461 0.0121614
0.185946 0.53402 0.0287785
0.338964 0.527779 0.0632792
0.441474 0.497307 0.0703899
0.562432 0.499992 0.106661
0.685847 0.545693 0.123888
0.790906 0.559594 0.177447
0.88574 0.533516 0.239811
0.946517 0.521614 0.273701
0.969421 0.525246 0.287572
0.971603 0.523323 0.288899
0.971374 0.521096 0.288899
0.971405 0.519509 0.289082
0.971405 0.518318 0.289219
0.971328 0.517418 0.289235
0.971298 0.516838 0.28925
0.971267 0.516518 0.289281
0.971267 0.516426 0.289281
0.971267 0.516487 0.289296
0.971283 0.51664 0.289296
0.971313 0.516976 0.289067
0.971344 0.517494 0.288685
0 0.611185 0.253239
0 0.611872 0.249516
0 0.612665 0.244617
0 0.613474 0.239994
0 0.614374 0.235004
0 0.615412 0.229191
0.000427253 0.616922 0.220203
0.00350958 0.61941 0.206561
0.00827039 0.623194 0.183551
0.0152285 0.625727 0.152041
0.0265812 0.623224 0.115526
0.0474556 0.615457 0.0666819
0.12401 0.619516 0.0309453
0.287724 0.625971 0.0574197
0.450172 0.612573 0.0907759
0.542748 0.582834 0.0956436
0.652659 0.586374 0.143496
0.780011 0.631464 0.16701
0.888762 0.665782 0.21326
0.947234 0.640848 0.265003
0.975219 0.628962 0.289128
0.978317 0.628061 0.290303
0.978225 0.626719 0.290105
0.97818 0.625544 0.290135
0.978149 0.624826 0.290196
0.978088 0.62443 0.290211
0.978058 0.624262 0.290181
0.978073 0.624262 0.290196
0.978088 0.624399 0.290242
0.978134 0.624628 0.290318
0.97818 0.624949 0.290394
0.978149 0.62536 0.290227
0.978073 0.625849 0.289815
0.00820935 0.704051 0.320668
0.00866712 0.704707 0.317281
0.00907912 0.705333 0.313771
0.00979629 0.706081 0.309697
0.0103914 0.706844 0.305867
0.0114443 0.70782 0.300313
0.013138 0.709178 0.292576
0.0160678 0.711192 0.280705
0.0209354 0.714321 0.261692
0.0280766 0.718608 0.231342
0.0385138 0.719753 0.193835
0.0552682 0.715145 0.146319
0.0914015 0.708568 0.0735943
0.225147 0.714519 0.0634775
0.419852 0.712642 0.106844
0.557229 0.699641 0.128862
0.640711 0.671748 0.136187
0.741131 0.67454 0.186877
0.878737 0.721355 0.221607
0.976165 0.764187 0.260075
0.991638 0.765759 0.304524
0.991089 0.756008 0.314549
0.990829 0.753231 0.314992
0.990631 0.751797 0.314687
0.990372 0.750698 0.314412
0.990188 0.749981 0.314275
0.990097 0.749508 0.31426
0.990051 0.749279 0.314351
0.990036 0.749203 0.314473
0.990051 0.749233 0.314656
0.990082 0.74934 0.314824
0.990082 0.749508 0.314977
0.990097 0.749706 0.315099
0.0319066 0.800168 0.384222
0.0323186 0.800839 0.38143
0.0323949 0.801511 0.378317
0.0328374 0.802243 0.375204
0.0333562 0.802976 0.371969
0.0343633 0.803754 0.367727
0.035996 0.804852 0.361471
0.038468 0.806485 0.352224
0.0427253 0.809201 0.337682
0.0491798 0.813169 0.313924
0.0587625 0.817807 0.275959
0.0742504 0.815259 0.229023
0.0977493 0.807614 0.169986
0.165179 0.804898 0.0855573
0.363378 0.808591 0.111238
0.54844 0.804273 0.162875
0.660731 0.794415 0.16849
0.736538 0.76704 0.18146
0.830686 0.765728 0.23798
0.943297 0.79353 0.279271
0.999023 0.82443 0.320775
0.999603 0.825345 0.356786
0.999496 0.825513 0.365682
0.999496 0.825605 0.366842
0.999496 0.825696 0.367178
0.999496 0.825864 0.367514
0.999496 0.826047 0.367834
0.999512 0.826246 0.368017
0.999512 0.82649 0.368154
0.999527 0.826749 0.368246
0.999542 0.827008 0.368353
0.999557 0.827283 0.368444
0.999573 0.827558 0.368536
0.058854 0.897002 0.439368
0.0590219 0.897688 0.436576
0.0587167 0.898451 0.433707
0.0586709 0.899138 0.431006
0.0588693 0.899901 0.427771
0.059556 0.900618 0.424231
0.0607919 0.901457 0.419135
0.0628672 0.902525 0.411597
0.066453 0.904295 0.399908
0.0726177 0.907454 0.38143
0.08159 0.911498 0.351247
0.0945449 0.912062 0.309728
0.114107 0.907179 0.256718
0.152972 0.899321 0.17499
0.294575 0.901061 0.12491
0.50692 0.896895 0.168505
0.666972 0.890166 0.211734
0.756359 0.882216 0.207401
0.82884 0.856718 0.230076
0.910796 0.848768 0.291478
0.992325 0.861753 0.331853
0.999969 0.894453 0.354177
0.999969 0.898924 0.376379
0.999969 0.898817 0.378378
0.999969 0.898466 0.377997
0.999969 0.898222 0.377737
0.999969 0.8981 0.377584
0.999969 0.898039 0.377539
0.999969 0.89807 0.377554
0.999969 0.898116 0.37763
0.999969 0.898207 0.377737
0.999969 0.898329 0.37789
0.999969 0.898482 0.378073
0.0872816 0.978424 0.486915
0.087129 0.979049 0.484321
0.0860609 0.979797 0.481697
0.0852827 0.980529 0.478859
0.0848096 0.981247 0.475914
0.085008 0.981765 0.473014
0.0859693 0.982406 0.468284
0.0876173 0.983017 0.46183
0.090074 0.984085 0.452094
0.0953689 0.986084 0.436362
0.103395 0.988861 0.411383
0.11606 0.989059 0.379461
0.134417 0.985061 0.333898
0.16054 0.979202 0.271107
0.236896 0.978988 0.164782
0.451316 0.973388 0.184192
0.633066 0.962554 0.234379
0.764248 0.952911 0.256748
0.840513 0.944335 0.257008
0.912566 0.922652 0.289342
0.974777 0.915572 0.356741
0.999969 0.939055 0.396048
0.999969 0.948623 0.432563
0.999969 0.949615 0.437217
0.999969 0.949599 0.437415
0.999969 0.949584 0.437461
0.999969 0.949569 0.437507
0.999969 0.949554 0.437583
0.999969 0.949569 0.437675
0.999969 0.949584 0.437797
0.999969 0.949615 0.437903
0.999969 0.949645 0.438041
0.999969 0.949691 0.438163
0.105409 0.999969 0.521721
0.104982 0.999969 0.519158
0.103578 0.999969 0.516564
0.102525 0.999969 0.513848
0.101747 0.999969 0.511131
0.102007 0.999969 0.508293
0.102998 0.999969 0.504051
0.104829 0.999969 0.498009
0.107546 0.999969 0.489448
0.113787 0.999969 0.478157
0.123537 0.999969 0.462303
0.136538 0.999969 0.439323
0.157107 0.999969 0.409354
0.177813 0.999969 0.35993
0.225559 0.999969 0.285527
0.402136 0.999969 0.252979
0.588098 0.999969 0.276356
0.742061 0.985183 0.312444
0.833906 0.969818 0.312535
0.907088 0.963363 0.327886
0.970031 0.959426 0.367895
0.999969 0.954269 0.423316
0.999969 0.961456 0.46363
0.999969 0.962203 0.475196
0.999969 0.962219 0.474449
0.999969 0.962219 0.474357
0.999969 0.962219 0.474418
0.999969 0.962219 0.474479
0.999969 0.962188 0.474571
0.999969 0.962173 0.474678
0.999969 0.962158 0.474754
0.999969 0.962158 0.47483
0.999969 0.962142 0.474922
0.10782 0.999969 0.531929
0.107561 0.999969 0.529488
0.106142 0.999969 0.526726
0.105028 0.999969 0.524239
0.104158 0.999969 0.521416
0.104372 0.999969 0.518288
0.105074 0.999969 0.514366
0.106737 0.999969 0.508431
0.109361 0.999969 0.499519
0.114199 0.999969 0.487404
0.124025 0.999969 0.472068
0.137316 0.999969 0.450095
0.15761 0.999969 0.421912
0.182956 0.999969 0.386496
0.222904 0.999969 0.33994
0.374136 0.999969 0.30277
0.559884 0.999969 0.312627
0.714778 0.995804 0.34757
0.820539 0.976425 0.356268
0.895735 0.968658 0.369879
0.96437 0.961852 0.399161
0.993439 0.950378 0.442771
0.999969 0.961852 0.477317
0.999969 0.963424 0.499901
0.999969 0.963485 0.50103
0.999969 0.963424 0.500114
0.999969 0.963394 0.499214
0.999969 0.963348 0.498482
0.999969 0.963333 0.497978
0.999969 0.963317 0.497627
0.999969 0.963302 0.497398
0.999969 0.963287 0.49723
0.999969 0.963287 0.497139
0.106142 0.999969 0.537133
0.10573 0.999969 0.534813
0.10457 0.999969 0.532219
0.103487 0.999969 0.529625
0.102724 0.999969 0.52694
0.102846 0.999969 0.524147
0.103578 0.999969 0.520012
0.105074 0.999969 0.514351
0.10753 0.999969 0.505821
0.111925 0.999969 0.493065
0.121218 0.999969 0.47686
0.134722 0.999969 0.455055
0.154269 0.999969 0.426398
0.18056 0.999969 0.390555
0.217151 0.999969 0.347219
0.357427 0.999969 0.307408
0.545846 0.999969 0.312383
0.702174 0.997269 0.345144
0.813794 0.977508 0.357702
0.889876 0.969146 0.368917
0.957565 0.962646 0.396475
0.988678 0.953689 0.436011
0.999969 0.961608 0.470451
0.999969 0.963561 0.498878
0.999969 0.963684 0.501137
0.999969 0.963699 0.501656
0.999969 0.963714 0.502022
0.999969 0.963729 0.502312
0.999969 0.963714 0.502052
0.999969 0.963699 0.501686
0.999969 0.963684 0.501411
0.999969 0.963684 0.501213
0.999969 0.963684 0.501106
0.101579 0.999969 0.540383
0.1019 0.999969 0.538277
0.101961 0.999969 0.535927
0.101854 0.999969 0.533745
0.101503 0.999969 0.531273
0.101701 0.999969 0.528328
0.102434 0.999969 0.524483
0.10396 0.999969 0.518608
0.106279 0.999969 0.510201
0.110414 0.999969 0.497841
0.119158 0.999969 0.480644
0.132601 0.999969 0.458946
0.152102 0.999969 0.429603
0.178897 0.999969 0.392782
0.21529 0.999969 0.350317
0.346365 0.999969 0.309682
0.535592 0.999969 0.31104
0.693355 0.998016 0.342367
0.809384 0.978469 0.357855
0.884398 0.969329 0.365942
0.952728 0.962844 0.393454
0.985641 0.956176 0.429496
0.999969 0.960113 0.463722
0.999969 0.963317 0.494026
0.999969 0.963668 0.500359
0.999969 0.963699 0.500877
0.999969 0.963714 0.501198
0.999969 0.963745 0.501472
0.999969 0.963775 0.501656
0.999969 0.963821 0.501778
0.999969 0.963851 0.501869
0.999969 0.963867 0.501945
0.999969 0.963867 0.501976
0.0982681 0.999969 0.542947
0.0996109 0.999969 0.541024
0.100389 0.999969 0.539055
0.100725 0.999969 0.536782
0.100572 0.999969 0.534478
0.100832 0.999969 0.531548
0.101625 0.999969 0.527489
0.103075 0.999969 0.521965
0.105303 0.999969 0.513695
0.109468 0.999969 0.500877
0.117632 0.999969 0.483116
0.131319 0.999969 0.461524
0.150408 0.999969 0.432013
0.177768 0.999969 0.394446
0.214435 0.999969 0.352407
0.338949 0.999969 0.311177
0.528359 0.999969 0.310002
0.687175 0.99852 0.34049
0.806134 0.978988 0.357778
0.880507 0.969528 0.363531
0.948806 0.963043 0.391577
0.982345 0.956329 0.426123
0.999969 0.958984 0.459281
0.999969 0.963088 0.489982
0.999969 0.963638 0.499733
0.999969 0.963684 0.50045
0.999969 0.963699 0.500694
0.999969 0.963714 0.500893
0.999969 0.963745 0.50106
0.999969 0.963806 0.501167
0.999969 0.963821 0.501244
0.999969 0.963836 0.50132
0.999969 0.963851 0.50135
0.0971542 0.999969 0.545144
0.0982223 0.999969 0.543252
0.099321 0.999969 0.541222
0.0997787 0.999969 0.539178
0.099855 0.999969 0.536706
0.10016 0.999969 0.533913
0.100954 0.999969 0.529885
0.10248 0.999969 0.52433
0.104662 0.999969 0.516045
0.108614 0.999969 0.503426
0.116518 0.999969 0.485115
0.130327 0.999969 0.463096
0.149294 0.999969 0.43357
0.177066 0.999969 0.395621
0.214206 0.999969 0.353567
0.334478 0.999969 0.312215
0.52398 0.999969 0.309361
0.683742 0.998795 0.339315
0.804013 0.979339 0.357671
0.877699 0.969665 0.361837
0.946303 0.963134 0.390661
0.980545 0.956634 0.423987
0.999969 0.958083 0.45655
0.999969 0.962982 0.487587
0.999969 0.963623 0.499336
0.999969 0.963653 0.500114
0.999969 0.963668 0.500404
0.999969 0.963699 0.500587
0.999969 0.963729 0.50071
0.999969 0.963775 0.500786
0.999969 0.963806 0.500877
0.999969 0.963821 0.500908
0.999969 0.963821 0.500954
0.0965286 0.999969 0.546853
0.0972305 0.999969 0.544839
0.0980545 0.999969 0.542794
0.0988632 0.999969 0.540658
0.0990921 0.999969 0.538415
0.0996414 0.999969 0.53547
0.100526 0.999969 0.531533
0.102022 0.999969 0.52604
0.104204 0.999969 0.517708
0.108034 0.999969 0.505196
0.115831 0.999969 0.486549
0.129656 0.999969 0.46424
0.14876 0.999969 0.434226
0.176577 0.999969 0.39649
0.214466 0.999969 0.354086
0.332235 0.999969 0.31284
0.521477 0.999969 0.309056
0.681941 0.998886 0.338537
0.802945 0.979507 0.357687
0.876066 0.969818 0.361288
0.94435 0.963287 0.389944
0.979416 0.956954 0.422431
0.999969 0.957427 0.454597
0.999969 0.962921 0.485863
0.999969 0.963607 0.499107
0.999969 0.963638 0.499825
0.999969 0.963653 0.50016
0.999969 0.963684 0.500359
0.999969 0.963714 0.500496
0.999969 0.963745 0.500587
