bundles/resolve-cinematic-luts/Phantom Luts/P4k & P6k Phntm Arri LUTs - V6/P4K/Gen 5 Colour/White Balance Offset (Magenta Boost)/P4k IceBlue Gen 5 WBO.cube
TITLE "Generated by Resolve"
LUT_3D_SIZE 33
0.0242924 0.0364385 0.0328527
0.0243076 0.0364385 0.0328374
0.0243229 0.0364233 0.0327916
0.0282444 0.0368048 0.0348211
0.0369116 0.0372473 0.037171
0.0470283 0.0379644 0.0379797
0.0595254 0.0391241 0.0392157
0.0772106 0.0405737 0.0404212
0.100465 0.0422675 0.0427405
0.135088 0.0441444 0.0459602
0.185794 0.0466468 0.0505531
0.248112 0.0493477 0.0552071
0.323415 0.0523232 0.0598611
0.402838 0.0578622 0.067689
0.482033 0.0692149 0.0834516
0.551293 0.0858015 0.107454
0.614725 0.109224 0.134874
0.670832 0.138201 0.164019
0.718639 0.167407 0.191226
0.749874 0.188113 0.210071
0.759045 0.194736 0.216114
0.76051 0.195956 0.21767
0.762036 0.197391 0.219287
0.76321 0.198535 0.220615
0.764096 0.19942 0.221485
0.764752 0.200015 0.222171
0.765225 0.200458 0.222675
0.765621 0.200687 0.223346
0.766033 0.200702 0.224384
0.766796 0.20032 0.22707
0.767697 0.199771 0.230335
0.769131 0.198703 0.235966
0.770672 0.197528 0.242115
0.024445 0.0363928 0.0326238
0.0243687 0.0364233 0.0327153
0.0243381 0.0364233 0.0327459
0.026154 0.0366522 0.0336004
0.0338903 0.0371862 0.0367285
0.0442817 0.038056 0.0380865
0.0564279 0.0389563 0.0391241
0.0742504 0.0403906 0.0403754
0.0980545 0.0421759 0.0423133
0.133501 0.0441596 0.0454719
0.185809 0.0465705 0.0501106
0.250233 0.0491035 0.0545968
0.327886 0.0520485 0.0586099
0.40885 0.058381 0.0658732
0.488441 0.0701305 0.0820325
0.557427 0.0875868 0.107378
0.620539 0.111955 0.135927
0.677211 0.142245 0.166445
0.724056 0.171283 0.193561
0.750668 0.18883 0.209445
0.758053 0.194217 0.214664
0.759686 0.195453 0.216251
0.760601 0.196262 0.217166
0.76173 0.19733 0.218372
0.762539 0.198138 0.219303
0.763119 0.198672 0.219898
0.763561 0.199084 0.220371
0.763958 0.199283 0.221118
0.764385 0.199298 0.222202
0.765133 0.198932 0.22475
0.766064 0.198352 0.228122
0.767514 0.197253 0.233921
0.769039 0.196078 0.24004
0.0244297 0.0363928 0.0326238
0.0243687 0.0364233 0.0327153
0.0243381 0.0364233 0.0327764
0.0247196 0.036759 0.0329442
0.0294041 0.0374762 0.0354772
0.0393225 0.0380255 0.0377356
0.0513466 0.0388342 0.038468
0.069276 0.040238 0.0399786
0.0937972 0.0421149 0.0419318
0.130068 0.0443427 0.0454108
0.182864 0.0467536 0.049424
0.249302 0.0493782 0.0539864
0.32668 0.0522011 0.057557
0.407202 0.057908 0.0635538
0.486824 0.0691997 0.0785229
0.556924 0.0870069 0.104372
0.620691 0.111971 0.134295
0.677821 0.142931 0.165347
0.724636 0.172076 0.192813
0.750072 0.188937 0.20798
0.756771 0.193744 0.212696
0.758373 0.194965 0.21442
0.759518 0.195834 0.215518
0.760113 0.196277 0.216098
0.760815 0.196887 0.216785
0.761334 0.19733 0.217334
0.761746 0.19762 0.217899
0.762127 0.197726 0.218708
0.762524 0.197711 0.219791
0.763241 0.19733 0.222248
0.764126 0.196765 0.225452
0.765621 0.195636 0.231235
0.767117 0.19443 0.2374
0.0245518 0.0399176 0.0353552
0.0244755 0.0397345 0.0351568
0.0244755 0.0393835 0.0348211
0.0251316 0.0392004 0.0346685
0.027863 0.0401007 0.0355535
0.0366979 0.0405127 0.0387579
0.048249 0.0407874 0.0390936
0.064744 0.0414588 0.0400092
0.0892805 0.0424506 0.0417792
0.125521 0.0445258 0.0450294
0.179751 0.0470436 0.0488441
0.246799 0.049836 0.052903
0.325246 0.0527504 0.0565194
0.406332 0.0585489 0.0626383
0.484718 0.0687572 0.0764324
0.554345 0.0856336 0.101472
0.619135 0.110704 0.133074
0.676707 0.141512 0.164996
0.724208 0.171313 0.193271
0.749798 0.188342 0.208881
0.755871 0.192615 0.213046
0.757427 0.193774 0.214679
0.758648 0.194751 0.215961
0.759594 0.195438 0.216892
0.760037 0.195727 0.217395
0.760372 0.195926 0.217807
0.760693 0.196109 0.218189
0.760967 0.196262 0.21857
0.761196 0.196353 0.218952
0.761685 0.196124 0.220539
0.762432 0.195651 0.223117
0.763821 0.194583 0.228611
0.765438 0.193317 0.234989
0.0257877 0.0490883 0.041413
0.0257572 0.0491798 0.0411383
0.0258335 0.0484474 0.0399481
0.0267185 0.0475929 0.0387732
0.0302434 0.0480049 0.0389105
0.0372473 0.0486152 0.0392462
0.0511482 0.0491035 0.042237
0.0682994 0.0484627 0.0433661
0.0915694 0.047715 0.0439918
0.12668 0.0475013 0.0458839
0.178958 0.0483101 0.0486
0.244526 0.0502937 0.0522621
0.322667 0.0531472 0.0553292
0.404593 0.0596017 0.062089
0.484871 0.0701457 0.076585
0.552956 0.0858167 0.0998093
0.615839 0.109514 0.129549
0.673747 0.139971 0.161944
0.722362 0.170306 0.191348
0.748547 0.187655 0.207507
0.754253 0.191608 0.211475
0.755901 0.192828 0.213153
0.757137 0.19382 0.214435
0.758114 0.194522 0.215427
0.758816 0.195087 0.216159
0.759289 0.195468 0.216632
0.759533 0.195621 0.216876
0.759686 0.195727 0.217029
0.759793 0.195789 0.217136
0.76022 0.195575 0.218479
0.760922 0.195102 0.221057
0.762371 0.194018 0.226596
0.764004 0.192767 0.232959
0.0272831 0.0608225 0.049012
0.0271611 0.0610056 0.0481117
0.0272984 0.0601511 0.0466468
0.0277409 0.058732 0.0443275
0.0312963 0.0583047 0.0433661
0.0394903 0.0595102 0.0439002
0.0512703 0.0602274 0.0440528
0.0738842 0.0611124 0.0481422
0.101503 0.0576333 0.0491188
0.136721 0.0557259 0.0497292
0.185855 0.0544594 0.051194
0.248981 0.0537575 0.0533913
0.322713 0.0551461 0.0563211
0.403906 0.0609903 0.062623
0.48397 0.0717937 0.0769207
0.552316 0.0868238 0.0993973
0.615152 0.109987 0.128618
0.671244 0.139101 0.158907
0.719905 0.169635 0.187869
0.747219 0.187716 0.205051
0.752758 0.191394 0.208911
0.754131 0.192355 0.210346
0.755322 0.19321 0.211627
0.756191 0.193835 0.212558
0.756848 0.194308 0.213321
0.757321 0.194659 0.213809
0.757702 0.194949 0.214191
0.757977 0.195148 0.21445
0.758144 0.195285 0.214618
0.758602 0.195117 0.215961
0.759258 0.194675 0.218387
0.760693 0.193561 0.224048
0.762295 0.192248 0.230442
0.0284428 0.0766613 0.0586099
0.0282902 0.0775006 0.0570382
0.0283818 0.0770123 0.0550393
0.0288701 0.075288 0.0517433
0.0304265 0.0736248 0.0487373
0.0379034 0.0746777 0.0484321
0.0500954 0.0762798 0.0482032
0.0703593 0.0771954 0.0475166
0.106935 0.0761425 0.0530098
0.151614 0.0698711 0.0537728
0.200855 0.0662089 0.0534676
0.260075 0.064271 0.0551461
0.331212 0.0638437 0.0587778
0.406271 0.066804 0.065095
0.482185 0.0740826 0.0775921
0.551186 0.0881971 0.0993515
0.614069 0.110628 0.127642
0.670832 0.140002 0.158129
0.718318 0.169574 0.18584
0.746075 0.188266 0.202228
0.7514 0.191913 0.205798
0.752575 0.192599 0.207141
0.753567 0.193317 0.208255
0.754376 0.193835 0.209186
0.754955 0.194171 0.209827
0.755383 0.194476 0.210269
0.755688 0.194675 0.210559
0.755901 0.194827 0.210803
0.756024 0.194934 0.21091
0.756298 0.194812 0.211795
0.756725 0.194507 0.213413
0.757549 0.19379 0.216785
0.758541 0.193118 0.2206
0.0296635 0.0988022 0.0699474
0.0292058 0.100435 0.0677348
0.0290227 0.100908 0.0647593
0.0295109 0.0995956 0.0607614
0.0301823 0.0978561 0.0560311
0.0336004 0.0967269 0.0529335
0.045655 0.0988479 0.0522164
0.0640726 0.100237 0.0508888
0.0971237 0.100999 0.0497292
0.152712 0.0971389 0.0563821
0.219287 0.0861524 0.0590829
0.282475 0.0803082 0.0596475
0.346883 0.0783398 0.0613565
0.415015 0.0791028 0.0690013
0.487633 0.084062 0.0830396
0.552682 0.0937362 0.102266
0.613352 0.112856 0.127474
0.669429 0.140841 0.156771
0.717571 0.170764 0.184894
0.748043 0.191913 0.20296
0.753491 0.195987 0.206271
0.753979 0.196567 0.206668
0.754513 0.19704 0.207218
0.754925 0.197452 0.20766
0.755169 0.197604 0.207919
0.755306 0.197696 0.208057
0.755398 0.197757 0.208133
0.755444 0.197833 0.208148
0.755474 0.197894 0.208133
0.755688 0.197787 0.208896
0.756069 0.197574 0.21033
0.757 0.196979 0.213764
0.758541 0.196872 0.21799
0.0302586 0.130343 0.0838026
0.0297246 0.132952 0.0801251
0.0291295 0.134646 0.0765698
0.0292973 0.134615 0.0721904
0.0298924 0.132967 0.0662242
0.0306096 0.130678 0.0599374
0.0364233 0.129763 0.0562905
0.0549172 0.133196 0.0555734
0.0836957 0.133715 0.0521553
0.135363 0.134142 0.0504158
0.209964 0.127291 0.0576944
0.298894 0.109255 0.0649882
0.372137 0.101915 0.0692149
0.434821 0.101183 0.075761
0.499321 0.104143 0.0884108
0.564736 0.112932 0.112215
0.622644 0.128725 0.136019
0.672908 0.149126 0.16025
0.717922 0.174456 0.185458
0.752346 0.198672 0.205829
0.758358 0.203311 0.209506
0.758709 0.203876 0.20972
0.758999 0.204318 0.209903
0.759228 0.204639 0.210025
0.75938 0.204883 0.210132
0.759533 0.205066 0.210254
0.759686 0.205219 0.210407
0.759838 0.205341 0.210636
0.760067 0.205463 0.211048
0.760525 0.205554 0.212146
0.761303 0.205676 0.214023
0.7626 0.205692 0.217502
0.764324 0.206134 0.221607
0.0303807 0.174182 0.101793
0.0295415 0.177447 0.098085
0.0286107 0.180407 0.0928817
0.0282444 0.181979 0.0868086
0.0285344 0.181476 0.0805524
0.029221 0.179812 0.073991
0.0304723 0.176654 0.0647746
0.0403906 0.175952 0.0585489
0.0679637 0.181628 0.0568704
0.110018 0.180789 0.0514534
0.185657 0.179965 0.0487984
0.278813 0.172747 0.0595712
0.385397 0.14995 0.081117
0.462837 0.141649 0.0946212
0.525353 0.143206 0.106172
0.584878 0.149844 0.123201
0.639872 0.161959 0.147555
0.691234 0.181186 0.173678
0.734981 0.201022 0.200122
0.767086 0.219089 0.219379
0.770367 0.218952 0.22118
0.768215 0.215366 0.219928
0.767208 0.213748 0.219303
0.767391 0.214038 0.219394
0.767605 0.214359 0.219516
0.767727 0.214527 0.219638
0.76788 0.214694 0.219821
0.768032 0.214862 0.220035
0.768277 0.215106 0.220386
0.768658 0.215503 0.22092
0.768994 0.215885 0.221424
0.771389 0.218662 0.224216
0.775677 0.223651 0.229068
0.0295262 0.228489 0.123033
0.0289158 0.232853 0.120104
0.0280003 0.235981 0.11519
0.0272984 0.238285 0.108858
0.0268864 0.239765 0.101289
0.0271458 0.239414 0.0941176
0.0280919 0.237583 0.0858625
0.0295567 0.233112 0.070222
0.0451362 0.233417 0.060029
0.0851453 0.240711 0.0562753
0.14757 0.238788 0.0484474
0.248676 0.23772 0.0455329
0.359991 0.236912 0.0592966
0.476295 0.211887 0.0998703
0.558328 0.202991 0.125704
0.61944 0.208225 0.142611
0.671656 0.217578 0.164157
0.719341 0.231678 0.188907
0.759213 0.248051 0.212436
0.792279 0.266026 0.23328
0.796536 0.265293 0.235889
0.793576 0.259998 0.234195
0.792203 0.255131 0.235218
0.791074 0.25301 0.234592
0.78996 0.251164 0.233845
0.789242 0.249882 0.233387
0.7888 0.249256 0.233082
0.788724 0.249119 0.233021
0.789136 0.249714 0.233326
0.790066 0.25127 0.233921
0.791653 0.254139 0.234836
0.79527 0.261982 0.23621
0.801465 0.271138 0.241962
0.0285496 0.294255 0.147112
0.0281224 0.298344 0.144259
0.0272221 0.30164 0.139895
0.0265202 0.303899 0.134676
0.0260319 0.305837 0.128649
0.0255894 0.307851 0.120745
0.0258183 0.308003 0.111666
0.0271458 0.305486 0.100099
0.0292821 0.300343 0.0768597
0.0517586 0.3019 0.0602426
0.110246 0.311528 0.0548104
0.198016 0.309606 0.044007
0.321035 0.307012 0.0428321
0.448417 0.321416 0.0563516
0.57171 0.314672 0.111284
0.658518 0.296361 0.159945
0.714687 0.296361 0.187884
0.76109 0.305608 0.213581
0.797726 0.317113 0.2365
0.825879 0.32932 0.255131
0.832212 0.329625 0.259373
0.829831 0.324773 0.257786
0.827573 0.320958 0.256184
0.826169 0.318212 0.255329
0.824781 0.315801 0.254475
0.824033 0.314549 0.253941
0.823636 0.313939 0.253666
0.824048 0.314748 0.253941
0.824811 0.31603 0.25449
0.826505 0.319112 0.255573
0.829892 0.325231 0.257832
0.83563 0.334615 0.262699
0.84329 0.347295 0.2692
0.0281529 0.36553 0.176501
0.0278019 0.369741 0.173922
0.0274968 0.373129 0.170428
0.0271153 0.375128 0.165682
0.0264744 0.377203 0.160342
0.026154 0.378653 0.154086
0.0257725 0.38027 0.145022
0.0259098 0.380499 0.13283
0.0276188 0.37792 0.117189
0.030457 0.372412 0.0851148
0.0619669 0.375769 0.060914
0.149996 0.387167 0.0541085
0.263554 0.385443 0.041001
0.400366 0.383658 0.0449378
0.539147 0.414633 0.0630198
0.664805 0.428275 0.131716
0.750744 0.416159 0.197131
0.804074 0.405753 0.23714
0.840986 0.404761 0.264622
0.866804 0.411749 0.283375
0.8757 0.413748 0.289921
0.874861 0.410407 0.289342
0.872908 0.406592 0.287816
0.871809 0.404074 0.287022
0.871015 0.402457 0.286519
0.87071 0.401755 0.28629
0.871077 0.402396 0.286549
0.87155 0.4038 0.286793
0.872618 0.406622 0.287404
0.875105 0.412299 0.289204
0.878691 0.421408 0.291569
0.884337 0.435325 0.295979
0.892271 0.454978 0.302449
0.0293889 0.440787 0.215702
0.0294347 0.44535 0.214038
0.0293584 0.448463 0.211353
0.0291447 0.450706 0.207431
0.0289616 0.452247 0.202731
0.0288701 0.453452 0.197452
0.0287633 0.454673 0.189471
0.0284123 0.456184 0.176715
0.0287633 0.456703 0.159823
0.0309911 0.453834 0.138277
0.0380713 0.448737 0.0989242
0.083238 0.45333 0.0684215
0.2065 0.465522 0.0616465
0.346441 0.465675 0.0461433
0.484993 0.465324 0.0590219
0.620401 0.498726 0.103914
0.73872 0.531594 0.174441
0.824948 0.533928 0.241077
0.872114 0.535485 0.280095
0.90399 0.539895 0.30692
0.918502 0.543755 0.319753
0.918715 0.540322 0.320256
0.917937 0.536721 0.319783
0.917082 0.533822 0.319173
0.916793 0.532326 0.319081
0.916869 0.53257 0.319173
0.91693 0.532799 0.319249
0.917159 0.533913 0.319387
0.918151 0.53698 0.320134
0.919463 0.542123 0.320974
0.922133 0.551965 0.322805
0.925505 0.565469 0.325399
0.930083 0.583963 0.329366
0.0371252 0.518822 0.267628
0.0377661 0.522927 0.266987
0.0384985 0.526818 0.266041
0.0386664 0.52845 0.26273
0.0387427 0.529793 0.259174
0.038819 0.530846 0.255177
0.0390021 0.531594 0.249378
0.039292 0.532845 0.239704
0.0396429 0.533837 0.223346
0.0408789 0.533486 0.201053
0.0449226 0.53019 0.171313
0.0600137 0.526711 0.125322
0.129488 0.534142 0.0868391
0.291356 0.548943 0.0779431
0.445914 0.551949 0.0717632
0.57145 0.55198 0.101289
0.695842 0.582513 0.160586
0.806256 0.630137 0.230884
0.882246 0.645258 0.290974
0.922255 0.65156 0.324773
0.943954 0.657969 0.343664
0.94583 0.656779 0.344991
0.945373 0.654627 0.344442
0.94519 0.653788 0.344366
0.945083 0.653529 0.344472
0.94493 0.65333 0.344625
0.944915 0.653788 0.344961
0.945037 0.655131 0.345464
0.945434 0.657465 0.346166
0.946151 0.662394 0.347326
0.947234 0.669337 0.348989
0.948882 0.680247 0.351812
0.950896 0.695323 0.35581
0.0590066 0.598383 0.33521
0.0603799 0.602197 0.335897
0.0617533 0.605478 0.335683
0.0625162 0.607233 0.333547
0.0631266 0.608621 0.331411
0.0636454 0.609735 0.328161
0.0641489 0.610712 0.324102
0.0647135 0.61117 0.316304
0.0659495 0.611566 0.303059
0.0674144 0.611917 0.283085
0.0698558 0.610422 0.255085
0.0751965 0.606165 0.216281
0.100374 0.60383 0.160601
0.213916 0.616648 0.121767
0.403326 0.635142 0.118685
0.546395 0.64033 0.126177
0.657496 0.640955 0.162432
0.770504 0.667765 0.226551
0.86685 0.712612 0.294331
0.929427 0.741085 0.348486
0.957412 0.748165 0.374838
0.959411 0.747982 0.376287
0.959274 0.746883 0.375799
0.959319 0.746487 0.375921
0.959289 0.746151 0.376028
0.959258 0.746136 0.376333
0.959258 0.746532 0.376852
0.959396 0.747463 0.377707
0.960159 0.749584 0.379522
0.960754 0.752361 0.381247
0.962081 0.757 0.384283
0.96405 0.764263 0.388861
0.9664 0.773831 0.394995
0.0971542 0.675349 0.406409
0.0992294 0.678965 0.407767
0.101442 0.682261 0.40882
0.102663 0.684108 0.407965
0.103471 0.685252 0.406195
0.104707 0.687053 0.405173
0.105318 0.687877 0.402106
0.105882 0.688472 0.396994
0.106828 0.68896 0.387747
0.108385 0.689219 0.372076
0.11104 0.689128 0.34789
0.115267 0.685573 0.31339
0.124331 0.680034 0.262928
0.175006 0.680751 0.195026
0.341817 0.700786 0.168887
0.527611 0.722744 0.180941
0.645975 0.728466 0.196139
0.742199 0.729519 0.234409
0.837201 0.74728 0.295293
0.908278 0.774029 0.349722
0.954635 0.796841 0.39707
0.96672 0.801831 0.413413
0.967163 0.801938 0.414191
0.967178 0.801816 0.41416
0.967102 0.801816 0.414313
0.96698 0.801923 0.41471
0.966751 0.802274 0.415396
0.966308 0.802762 0.416068
0.965499 0.803632 0.416678
0.965148 0.805188 0.418036
0.964446 0.807767 0.41976
0.963729 0.811536 0.422644
0.961425 0.816617 0.42591
0.150866 0.749905 0.476204
0.153811 0.753414 0.478187
0.156161 0.756024 0.479133
0.157931 0.757855 0.479118
0.159426 0.759213 0.47863
0.160601 0.760174 0.477653
0.161379 0.760891 0.475303
0.161898 0.76141 0.47126
0.16231 0.761868 0.464668
0.163516 0.762448 0.453086
0.164797 0.761761 0.433982
0.167498 0.759319 0.404974
0.172793 0.75407 0.365042
0.189242 0.747982 0.300984
0.286732 0.757549 0.231983
0.484565 0.781003 0.228031
0.640894 0.801831 0.249485
0.737285 0.80708 0.268116
0.81828 0.80734 0.307088
0.891096 0.8168 0.359609
0.941207 0.832502 0.406546
0.965515 0.847257 0.435523
0.967681 0.849165 0.443305
0.967651 0.849165 0.443244
0.967651 0.849302 0.443412
0.967666 0.849821 0.4439
0.96762 0.850721 0.444602
0.967651 0.851713 0.445533
0.9682 0.853605 0.44686
0.968902 0.856443 0.44828
0.97026 0.861158 0.450462
0.972519 0.869032 0.454032
0.974884 0.878721 0.458
0.204257 0.811872 0.540597
0.206271 0.813993 0.541726
0.208789 0.816541 0.54313
0.210346 0.81796 0.543206
0.211612 0.818936 0.542641
0.212604 0.819699 0.541604
0.213443 0.820142 0.540002
0.213504 0.820508 0.536339
0.213504 0.820798 0.530846
0.213336 0.820493 0.521096
0.213657 0.819638 0.505074
0.215228 0.817456 0.480949
0.219303 0.812802 0.4477
0.226017 0.807126 0.401938
0.264485 0.804623 0.318807
0.426505 0.823285 0.275273
0.611978 0.844251 0.289784
0.734081 0.861311 0.312337
0.818357 0.8663 0.336828
0.876707 0.864637 0.372396
0.933516 0.87454 0.423209
0.973526 0.89427 0.458122
0.979385 0.901106 0.477867
0.979416 0.901213 0.478523
0.979431 0.901579 0.47924
0.979385 0.901747 0.479942
0.979324 0.902037 0.480858
0.979294 0.902586 0.482307
0.979232 0.903471 0.484001
0.979324 0.904952 0.486076
0.979446 0.907515 0.488945
0.980224 0.911437 0.493233
0.980575 0.91606 0.498131
0.248066 0.857343 0.593561
0.2495 0.859113 0.594491
0.250614 0.860563 0.59472
0.251118 0.86125 0.594003
0.25153 0.861585 0.592996
0.252018 0.861799 0.591608
0.252598 0.862028 0.590082
0.252796 0.862043 0.586709
0.252461 0.861723 0.581521
0.252018 0.861006 0.573373
0.252445 0.859953 0.560555
0.25362 0.858122 0.541238
0.258991 0.856031 0.516472
0.264378 0.850309 0.47895
0.277211 0.845747 0.422782
0.377432 0.857389 0.348943
0.561044 0.872145 0.333883
0.716503 0.890669 0.354925
0.812772 0.903395 0.375265
0.882856 0.907332 0.404913
0.921004 0.905653 0.438056
0.965011 0.915267 0.479774
0.982315 0.926513 0.511986
0.982742 0.927825 0.517189
0.982635 0.927916 0.517235
0.982559 0.928054 0.518074
0.982422 0.928252 0.519219
0.982269 0.928573 0.520943
0.982177 0.929168 0.522774
0.982193 0.930236 0.525292
0.982086 0.931502 0.527687
0.982208 0.933501 0.531518
0.982498 0.934936 0.534737
0.271351 0.879316 0.62414
0.270832 0.879347 0.622995
0.270436 0.879393 0.621607
0.270161 0.879316 0.619989
0.269963 0.879164 0.618341
0.269871 0.878813 0.616709
0.269795 0.878309 0.61416
0.269352 0.877668 0.610559
0.26865 0.876967 0.605188
0.267247 0.875776 0.596826
0.267536 0.874495 0.585122
0.269001 0.872618 0.568261
0.273381 0.870588 0.545556
0.283284 0.869596 0.518288
0.295369 0.867857 0.479744
0.361288 0.876234 0.422614
0.520592 0.888441 0.385428
0.68806 0.899748 0.391043
0.793667 0.914626 0.404974
0.878737 0.924422 0.433463
0.918639 0.924468 0.460243
0.95111 0.924987 0.495048
0.979141 0.9355 0.531701
0.983719 0.938277 0.548608
0.983673 0.938216 0.548455
0.98349 0.938155 0.548806
0.98323 0.938094 0.550088
0.98291 0.938094 0.5523
0.982635 0.93814 0.554406
0.982406 0.938277 0.556756
0.982376 0.938628 0.558785
0.982467 0.938979 0.559625
0.982803 0.939101 0.558495
0.273243 0.880125 0.630472
0.272526 0.880095 0.629206
0.271992 0.880095 0.627802
0.271611 0.879988 0.626245
0.271366 0.87982 0.624643
0.27126 0.879484 0.622736
0.271153 0.878981 0.620356
0.270649 0.878309 0.616709
0.269627 0.877424 0.611246
0.268391 0.876448 0.603235
0.267445 0.874907 0.590478
0.268559 0.873091 0.57377
0.272374 0.870878 0.550744
0.281727 0.869612 0.52221
0.295506 0.869841 0.488945
0.356191 0.878843 0.439002
0.500175 0.890196 0.399405
0.67277 0.899565 0.399115
0.784253 0.913527 0.41117
0.872114 0.924498 0.43801
0.917067 0.927535 0.464988
0.942916 0.925277 0.493584
0.974166 0.935393 0.529503
0.983001 0.939895 0.55465
0.983093 0.939895 0.555322
0.983032 0.939849 0.556069
0.982895 0.939803 0.557183
0.982452 0.939803 0.55845
0.981781 0.939895 0.559564
0.980972 0.940032 0.560449
0.980499 0.940154 0.560861
0.980224 0.940261 0.560571
0.980255 0.940352 0.559792
0.274128 0.881254 0.63505
0.273487 0.881163 0.633829
0.273014 0.880995 0.632456
0.272648 0.880766 0.630961
0.272419 0.880507 0.62916
0.272343 0.880186 0.627436
0.27219 0.879698 0.624842
0.271717 0.878996 0.621347
0.270756 0.878096 0.616098
0.269337 0.876951 0.607889
0.26804 0.87541 0.595285
0.268696 0.873457 0.57789
0.271839 0.871138 0.554772
0.28069 0.869657 0.525811
0.294545 0.869825 0.491844
0.350072 0.87834 0.443748
0.488228 0.889586 0.401404
0.660624 0.898604 0.39791
0.777768 0.91284 0.410056
0.866438 0.923781 0.434699
0.915389 0.928344 0.462776
0.938643 0.925109 0.488746
0.970367 0.934234 0.523674
0.981933 0.939956 0.550271
0.982055 0.940246 0.554269
0.981994 0.940246 0.554894
0.981872 0.940215 0.555886
0.981476 0.940246 0.557153
0.980865 0.940291 0.558633
0.980056 0.940429 0.559991
0.979492 0.940536 0.560708
0.979263 0.940612 0.560723
0.979355 0.940642 0.560006
0.275074 0.881895 0.63856
0.274372 0.881743 0.637308
0.273869 0.881544 0.63592
0.273442 0.8813 0.634272
0.273213 0.881056 0.632609
0.273121 0.88069 0.630793
0.272969 0.880201 0.628229
0.272435 0.879545 0.624582
0.271366 0.87866 0.619348
0.269703 0.877424 0.6112
0.268132 0.875959 0.598505
0.268208 0.87393 0.58088
0.271183 0.871458 0.557488
0.279927 0.86978 0.527459
0.293706 0.869841 0.493584
0.346044 0.877836 0.446159
0.480613 0.889464 0.403098
0.652583 0.898131 0.397299
0.772747 0.91249 0.409201
0.862287 0.923247 0.432273
0.914549 0.92903 0.461341
0.937102 0.92607 0.486122
0.967926 0.933074 0.519677
0.981796 0.939635 0.546517
0.98204 0.940215 0.553689
0.981994 0.940215 0.554467
0.981888 0.940215 0.555306
0.981476 0.940246 0.556512
0.980865 0.940291 0.557992
0.980026 0.940383 0.559747
0.979416 0.94049 0.560708
0.979141 0.940551 0.561059
0.979202 0.940566 0.560662
0.27602 0.882124 0.641077
0.275303 0.882048 0.639857
0.274693 0.881865 0.638331
0.274144 0.881636 0.636774
0.273732 0.881437 0.63505
0.273472 0.881148 0.633204
0.273198 0.880659 0.630655
0.272526 0.880064 0.627008
0.271321 0.879179 0.621424
0.269474 0.877989 0.613428
0.267765 0.876493 0.600671
0.267643 0.874357 0.582559
0.270634 0.871702 0.558877
0.279271 0.869947 0.529015
0.293263 0.869886 0.494545
0.343847 0.87747 0.447196
0.477272 0.889357 0.403723
0.650202 0.898131 0.397269
0.769741 0.912413 0.408774
0.859434 0.923201 0.430671
0.914244 0.929503 0.460731
0.936309 0.926818 0.484718
0.96614 0.93254 0.517662
0.981338 0.9393 0.544259
0.982025 0.9402 0.553277
0.981979 0.9402 0.55407
0.981888 0.940185 0.554971
0.981476 0.940215 0.556176
0.98088 0.940276 0.557656
0.980041 0.940383 0.559426
0.97937 0.940459 0.560739
0.979019 0.94049 0.561486
0.979019 0.94049 0.561486
0.276692 0.88217 0.64303
0.276143 0.882109 0.641611
0.275425 0.882033 0.640269
0.274647 0.881895 0.638407
0.27396 0.881758 0.636667
0.27335 0.881559 0.634699
0.272786 0.881193 0.632105
0.272038 0.880568 0.628321
0.270893 0.879667 0.622965
0.269184 0.878401 0.614633
0.267613 0.876844 0.601984
0.267445 0.87454 0.583566
0.270375 0.871794 0.559564
0.279118 0.869978 0.529488
0.293202 0.869902 0.494835
0.34342 0.877409 0.447257
0.479194 0.889433 0.403296
0.649714 0.898146 0.397284
0.769055 0.91252 0.408728
0.857694 0.923506 0.429938
0.913588 0.929763 0.460334
0.935744 0.927474 0.484062
0.964752 0.932174 0.516136
0.98056 0.938918 0.542611
0.982025 0.940185 0.553017
0.981964 0.940185 0.553796
0.981872 0.940169 0.554757
0.981476 0.940215 0.555932
0.980865 0.940276 0.557427
0.980026 0.940368 0.559213
0.979385 0.940459 0.560464
0.979049 0.94049 0.561151
0.979049 0.940505 0.561105
0.276875 0.882368 0.644038
0.276265 0.882307 0.64271
0.275563 0.882292 0.641291
0.274861 0.88217 0.639673
0.274174 0.882002 0.637812
0.273564 0.881773 0.635935
0.272953 0.881392 0.633295
0.272221 0.880735 0.629419
0.271092 0.87982 0.623941
0.269352 0.878508 0.615473
0.267811 0.876905 0.602518
0.267628 0.874556 0.583902
0.270481 0.871702 0.559411
0.279484 0.869963 0.529061
0.29369 0.869902 0.494118
0.345571 0.877714 0.445792
0.483833 0.889632 0.402441
0.654047 0.898283 0.397482
0.771634 0.912902 0.409186
0.858747 0.923781 0.430137
0.913314 0.929839 0.460655
0.935225 0.928115 0.483986
0.963668 0.932357 0.515648
