bundles/resolve-cinematic-luts/Phantom Luts/P4k & P6k Phntm Arri LUTs - V6/P4K/Gen 5 Colour/White Balance Offset (Magenta Boost)/P4k Utopia Gen 5-Legacy WBO.cube
TITLE "Generated by Resolve"
LUT_3D_SIZE 5
0.00622568 0.0319677 0.040528
0.0914626 0.0372473 0.0479896
0.589715 0.085893 0.117586
0.840803 0.154604 0.199863
0.85005 0.154177 0.200427
0.000869764 0.118944 0.0634775
0.0619364 0.118181 0.0329137
0.571359 0.0988022 0.106661
0.825452 0.153109 0.178164
0.830289 0.152239 0.177325
0.00820935 0.704051 0.320668
0.0209354 0.714321 0.261692
0.640711 0.671748 0.136187
0.990372 0.750698 0.314412
0.990097 0.749706 0.315099
0.0982681 0.999969 0.542947
0.105303 0.999969 0.513695
0.528359 0.999969 0.310002
0.999969 0.963638 0.499733
0.999969 0.963851 0.50135
0.0931106 0.999969 0.549783
0.106569 0.999969 0.521538
0.531868 0.999969 0.310933
0.999969 0.96347 0.498787
0.999969 0.96376 0.500221
0 0.0385901 0.114656
0.0929427 0.0354162 0.12105
0.651484 0.103868 0.182757
0.887327 0.185672 0.261143
0.894148 0.183795 0.262699
0.0047303 0.102022 0.110979
0.0644999 0.0987259 0.10959
0.593072 0.0895705 0.121004
0.846387 0.154757 0.199985
0.853727 0.154391 0.200488
0 0.686061 0.361486
0.00447089 0.692805 0.316747
0.634974 0.661952 0.136034
0.98645 0.725856 0.307912
0.986267 0.724681 0.309148
0.0920882 0.999969 0.569451
0.0975204 0.999969 0.542489
0.487114 0.999969 0.305867
0.999969 0.96379 0.502647
0.999969 0.964004 0.504494
0.0882582 0.999969 0.577295
0.0992294 0.999969 0.550622
0.488182 0.999969 0.306432
0.999969 0.963485 0.499352
0.999969 0.964065 0.503426
0 0.0754559 0.544854
0.0197604 0.0722972 0.557733
0.594446 0.0652476 0.521553
0.84564 0.143877 0.554757
0.85127 0.144091 0.563134
0 0.0827649 0.530022
0 0.0754406 0.546685
0.590188 0.0657816 0.515099
0.843107 0.128954 0.534463
0.8495 0.131518 0.541665
0 0.621927 0.597436
0 0.620493 0.597635
0.606622 0.592096 0.597757
0.974166 0.596063 0.564645
0.973358 0.594034 0.56379
0.120211 0.999969 0.79144
0.10663 0.999969 0.77644
0.280278 0.999969 0.602441
0.999969 0.966293 0.562646
0.999969 0.96846 0.603479
0.118502 0.999969 0.804837
0.111345 0.999969 0.788388
0.262257 0.999969 0.599847
0.999969 0.960708 0.524208
0.999969 0.968795 0.603326
0 0.161532 0.822034
0.0716869 0.161135 0.838392
0.636469 0.162936 0.866026
0.814023 0.170657 0.832685
0.818616 0.168307 0.838499
0 0.162371 0.802197
0 0.161532 0.823514
0.617273 0.163287 0.870665
0.812055 0.175006 0.830625
0.81886 0.171847 0.839292
0 0.654887 0.896254
0 0.651072 0.899962
0.452064 0.574319 0.995163
0.938552 0.498024 0.952758
0.936797 0.495949 0.953811
0.408087 0.999969 0.996948
0.399649 0.999969 0.997208
0.462135 0.999954 0.9879
0.986862 0.977554 0.975402
0.992645 0.978439 0.974182
0.422675 0.999969 0.998917
0.420249 0.999969 0.99881
0.475837 0.999969 0.9841
0.958694 0.990341 0.977951
0.99086 0.987366 0.969131
0.0117952 0.161624 0.825635
0.0861677 0.160998 0.840757
0.647456 0.16289 0.864759
0.814511 0.171344 0.833509
0.819425 0.168658 0.839475
0 0.162692 0.804181
0.0116732 0.161639 0.826688
0.627543 0.163333 0.870054
0.812528 0.175662 0.831327
0.81915 0.172396 0.839796
0 0.649607 0.894102
0 0.643488 0.896956
0.448493 0.559106 0.994614
0.934874 0.483391 0.950362
0.933486 0.481529 0.951217
0.425055 0.999969 0.998795
0.423499 0.999969 0.999176
0.485161 0.998428 0.999573
0.978271 0.97435 0.988235
0.990387 0.969131 0.986221
0.427924 0.999969 0.99881
0.425711 0.999969 0.999176
0.530694 0.999969 0.999054
0.969589 0.990021 0.989975
0.990799 0.988693 0.987915
