bundles/resolve-cinematic-luts/Phantom Luts/P4k & P6k Phntm Arri LUTs - V6/P4K/Gen 5 Colour/White Balance Offset (Magenta Boost)/P4k Tungsten Gen 5-Legacy WBO.cube
TITLE "Generated by Resolve"
LUT_3D_SIZE 5
0.0172885 0.0162966 0.0215305
0.105516 0.0319677 0.0408179
0.64094 0.109514 0.174655
0.827771 0.184024 0.264179
0.830488 0.185809 0.267643
0.0376135 0.115465 0.0745403
0.0826734 0.117479 0.0425879
0.61355 0.117388 0.156924
0.813443 0.179873 0.242634
0.814832 0.180896 0.244419
0 0.559701 0.276204
0 0.563134 0.241123
0.588296 0.598138 0.0596323
0.979553 0.738415 0.327306
0.984283 0.757214 0.340826
0.120851 0.812284 0.481865
0.117571 0.808698 0.461936
0.330098 0.794308 0.209873
0.978302 0.89247 0.448447
0.978134 0.892744 0.44976
0.122881 0.814328 0.491707
0.117266 0.808286 0.460288
0.437934 0.797024 0.206867
0.978424 0.89218 0.447471
0.97821 0.892653 0.449012
0.00840772 0.0263371 0.107271
0.107118 0.0311894 0.110079
0.705882 0.130846 0.238773
0.870268 0.216175 0.319936
0.872053 0.217136 0.324041
0.0382696 0.102571 0.10631
0.0821698 0.099855 0.108492
0.637598 0.111223 0.176562
0.830289 0.185779 0.266896
0.833127 0.187884 0.270054
0 0.556222 0.313008
0 0.559823 0.285573
0.587808 0.594003 0.0620279
0.97879 0.725994 0.325673
0.984497 0.751247 0.344396
0.125917 0.817075 0.505135
0.121798 0.813245 0.48658
0.305715 0.794308 0.212711
0.978058 0.892653 0.451011
0.977859 0.892943 0.452308
0.12987 0.820294 0.520638
0.122866 0.814206 0.491737
0.402121 0.795377 0.205921
0.978149 0.892393 0.450614
0.977798 0.893095 0.452232
0.0245823 0.0724804 0.542016
0.104372 0.0742962 0.564218
0.634287 0.0731975 0.545663
0.836072 0.154772 0.564736
0.839246 0.160342 0.575372
0 0.0789349 0.514031
0.0223087 0.0712902 0.535485
0.626566 0.0739147 0.53901
0.831861 0.146487 0.548669
0.839017 0.157076 0.563714
0.0571908 0.582101 0.560891
0.0593576 0.589532 0.569345
0.615991 0.595041 0.596963
1 0.636728 0.619974
1 0.656855 0.640711
0.211597 0.869764 0.715755
0.2121 0.870146 0.71696
0.208804 0.825971 0.508553
0.973114 0.899748 0.526192
0.973465 0.905577 0.559792
0.253346 0.89218 0.774731
0.245563 0.888075 0.76466
0.281224 0.825208 0.541192
0.972946 0.899321 0.522499
0.973205 0.906203 0.561425
0.13637 0.173831 0.753017
0.185229 0.177234 0.779797
0.660334 0.168994 0.842161
0.787549 0.182315 0.804883
0.787427 0.182528 0.805539
0.0846265 0.170184 0.721752
0.131121 0.173556 0.750072
0.642481 0.169512 0.847395
0.789197 0.184222 0.806668
0.789212 0.184863 0.808087
0.149401 0.64535 0.860624
0.150927 0.648508 0.861814
0.582269 0.633188 1
0.959365 0.49131 0.978058
0.963363 0.520806 0.982727
0.499901 0.98114 0.973663
0.500053 0.981689 0.974777
0.562951 0.979095 0.969802
0.988281 0.986465 0.985885
0.989654 0.987335 0.987167
0.501503 0.981369 0.974105
0.501503 0.981872 0.975128
0.604654 0.980087 0.972244
0.981521 0.989471 0.9888
0.990738 0.989624 0.983902
0.143145 0.174487 0.757031
0.192447 0.177676 0.78349
0.667796 0.169299 0.840482
0.787854 0.182788 0.805432
0.787686 0.182986 0.806165
0.0913863 0.170779 0.725994
0.138018 0.174075 0.754055
0.650706 0.169421 0.845289
0.789548 0.184695 0.807202
0.789517 0.185275 0.80856
0.148913 0.644236 0.860365
0.150774 0.647959 0.861875
0.589792 0.632715 1
0.959396 0.492088 0.978469
0.963531 0.522057 0.982864
0.501503 0.98146 0.974289
0.501503 0.981872 0.975128
0.579385 0.983612 0.979126
0.986648 0.984634 0.98883
0.988922 0.983536 0.98822
0.501503 0.981781 0.974945
0.501503 0.981872 0.975128
0.631251 0.983886 0.979995
0.984863 0.990173 0.98996
0.99025 0.990051 0.989532
