bundles/resolve-cinematic-luts/Phantom Luts/P4k & P6k Phntm Arri LUTs - V6/P4K/Gen 5 Colour/White Balance Offset (Magenta Boost)/P4k Jamaica Gen 5 WBO.cube
TITLE "Generated by Resolve"
LUT_3D_SIZE 9
0 0.0250553 0
0.0293736 0.0264591 0.00357061
0.135073 0.0323644 0.0200351
0.38291 0.0445563 0.0517739
0.66772 0.119783 0.157137
0.747463 0.196185 0.233173
0.75198 0.200198 0.238193
0.753368 0.20145 0.23975
0.753262 0.201907 0.238804
0.000381476 0.0463264 0.0144503
0.0131991 0.0437018 0.00276188
0.120363 0.0416571 0.0184939
0.364248 0.0458686 0.0416419
0.651347 0.112047 0.136446
0.740688 0.193164 0.221958
0.744595 0.196399 0.226612
0.745724 0.197391 0.227863
0.745586 0.197772 0.227054
0.00172427 0.154345 0.0641489
0 0.153368 0.0327153
0.0970474 0.14992 0.009308
0.407218 0.107515 0.0648051
0.658686 0.135653 0.141344
0.749767 0.208377 0.223682
0.750805 0.209766 0.224292
0.751064 0.210071 0.224491
0.750805 0.210147 0.223774
0.00985733 0.429877 0.193393
0.00549325 0.4336 0.166247
0.00801099 0.433646 0.106218
0.311788 0.413565 0.0205844
0.805097 0.429282 0.219852
0.902541 0.423514 0.316793
0.893599 0.408469 0.311681
0.890227 0.403113 0.309651
0.887465 0.399695 0.307454
0.157336 0.775769 0.486946
0.156054 0.775341 0.471962
0.158679 0.777203 0.441398
0.1991 0.772396 0.279576
0.705928 0.759457 0.212314
0.99559 0.838407 0.440345
0.999207 0.834684 0.442725
0.99939 0.833036 0.441672
0.999283 0.830991 0.439612
0.395224 0.973022 0.74432
0.39382 0.972412 0.7355
0.392737 0.972915 0.722042
0.401358 0.983368 0.670512
0.689204 0.998932 0.502495
0.96376 0.972686 0.502205
1 0.9841 0.59144
1 0.984024 0.590921
1 0.983261 0.591196
0.39704 0.972732 0.757229
0.395117 0.971695 0.749767
0.393942 0.972229 0.738277
0.395239 0.978103 0.68806
0.589349 0.998932 0.562203
0.951995 0.983322 0.51342
1 0.986938 0.61532
1 0.987091 0.618845
1 0.987411 0.619623
0.39913 0.974563 0.763088
0.395926 0.971908 0.754757
0.394049 0.97174 0.743465
0.394247 0.97705 0.694179
0.555322 0.998932 0.558709
0.945922 0.982864 0.50901
1 0.986191 0.611109
1 0.986572 0.618341
1 0.987778 0.617533
0.400061 0.975341 0.764248
0.397131 0.973037 0.755871
0.394965 0.972564 0.744549
0.394308 0.977218 0.692897
0.566461 0.998932 0.554879
0.948882 0.982834 0.510628
1 0.986191 0.61146
1 0.986587 0.617807
1 0.987976 0.616541
0 0.0257267 0.0194858
0.0311742 0.0251164 0.0293889
0.155795 0.0260319 0.0552682
0.424918 0.0518349 0.0968032
0.693263 0.139086 0.186618
0.760266 0.20589 0.249226
0.76759 0.212222 0.257435
0.769528 0.213993 0.259541
0.769757 0.214405 0.258991
0.00164797 0.0365759 0.019089
0.007187 0.0332189 0.011841
0.12575 0.0334783 0.0189059
0.373571 0.0449836 0.051133
0.665736 0.119432 0.155291
0.747539 0.196841 0.232334
0.751858 0.20061 0.237171
0.753231 0.201862 0.238727
0.753399 0.202243 0.23827
0.00708019 0.138109 0.0895399
0.00163272 0.140124 0.0600595
0.0893721 0.14052 0.0087892
0.401541 0.0934768 0.0586557
0.654826 0.124819 0.138003
0.742489 0.19913 0.218814
0.743664 0.200336 0.219883
0.743984 0.200473 0.220447
0.743832 0.200565 0.219913
0.0102998 0.419806 0.213565
0.00726329 0.421317 0.18854
0.0047303 0.427771 0.126482
0.308064 0.408042 0.0212711
0.802976 0.413306 0.221347
0.895247 0.411261 0.312581
0.885969 0.396368 0.307149
0.882078 0.390539 0.304677
0.879591 0.387198 0.302953
0.153796 0.771328 0.495415
0.152346 0.771099 0.481193
0.152163 0.771267 0.452445
0.191089 0.771237 0.290745
0.703349 0.756024 0.209689
0.997269 0.837263 0.440528
1 0.833265 0.441947
0.999573 0.831159 0.440162
0.999283 0.828962 0.437949
0.395819 0.972686 0.750347
0.394461 0.972183 0.741909
0.393301 0.972686 0.729091
0.399008 0.981506 0.676081
0.679561 0.998932 0.502037
0.962722 0.971954 0.499931
1 0.983536 0.590127
1 0.983307 0.588251
1 0.982879 0.588266
0.397543 0.972183 0.762997
0.395804 0.971374 0.755856
0.394644 0.971984 0.744808
0.394293 0.976867 0.694606
0.577844 0.998932 0.565209
0.950729 0.98349 0.512291
1 0.986938 0.615824
1 0.987076 0.61976
1 0.987335 0.620706
0.39968 0.97406 0.768383
0.396307 0.971206 0.760327
0.394766 0.971466 0.749874
0.393561 0.975967 0.701076
0.543633 0.998932 0.561975
0.94345 0.982803 0.50782
1 0.986068 0.611368
1 0.986542 0.619364
1 0.9879 0.618311
0.400458 0.974716 0.769787
0.396689 0.971435 0.760967
0.395529 0.972168 0.750637
0.393683 0.976181 0.69984
0.55465 0.998932 0.558145
0.946487 0.982803 0.509285
1 0.986114 0.611933
1 0.986557 0.618906
1 0.987945 0.617502
0 0.0260777 0.116854
0.0469062 0.0258946 0.119814
0.15349 0.0253605 0.132692
0.437858 0.026978 0.159762
0.714778 0.14136 0.229572
0.791669 0.22649 0.293568
0.793927 0.226673 0.298863
0.794385 0.226749 0.299901
0.7944 0.227008 0.298848
6.10361e-05 0.034287 0.0878462
0 0.0261387 0.102739
0.13402 0.0256046 0.112505
0.426307 0.0374151 0.128008
0.711437 0.149645 0.211734
0.77705 0.219471 0.2692
0.783978 0.225223 0.277119
0.785367 0.226246 0.278996
0.785153 0.226337 0.277958
0.00984207 0.126131 0.117845
0.00933852 0.121981 0.112016
0.100404 0.120958 0.102708
0.418524 0.0944533 0.101167
0.662608 0.119203 0.152102
0.74699 0.196963 0.231128
0.751049 0.200443 0.235798
0.7523 0.201511 0.237232
0.752285 0.201846 0.236728
0.0119783 0.401556 0.251331
0.00923171 0.401907 0.229999
0.00714122 0.404959 0.176989
0.301793 0.397009 0.0248875
0.798459 0.377997 0.224948
0.881407 0.389502 0.304295
0.871061 0.373892 0.298009
0.867185 0.368231 0.295644
0.864713 0.365103 0.293873
0.14725 0.76199 0.510979
0.145678 0.762341 0.497368
0.144167 0.762554 0.471244
0.175372 0.767681 0.313756
0.699138 0.750332 0.205509
0.998444 0.834302 0.439307
0.998703 0.82974 0.438102
0.998123 0.827054 0.436011
0.997894 0.825208 0.434043
0.396902 0.972 0.760784
0.395636 0.971695 0.752605
0.39443 0.97229 0.740795
0.394659 0.977691 0.685588
0.661707 0.998932 0.501411
0.960433 0.970123 0.495308
1 0.982406 0.588129
1 0.98204 0.584024
1 0.981598 0.583612
0.398688 0.971511 0.772152
0.39704 0.970932 0.76495
0.395743 0.971481 0.754757
0.393866 0.975677 0.70602
0.558389 0.998932 0.570382
0.947219 0.983566 0.511177
1 0.986847 0.616434
1 0.98706 0.621347
1 0.987381 0.62208
0.400458 0.973114 0.777157
0.397482 0.970703 0.768383
0.395911 0.970993 0.759304
0.393378 0.974868 0.712245
0.523659 0.998932 0.566842
0.93875 0.983047 0.506569
1 0.985885 0.611383
1 0.986526 0.620874
1 0.987884 0.619837
0.401205 0.973693 0.77847
0.397925 0.970962 0.769406
0.396307 0.971252 0.760113
0.393484 0.975052 0.711452
0.534508 0.998932 0.563363
0.941802 0.982971 0.507927
1 0.985962 0.611429
1 0.986557 0.620432
1 0.988052 0.618891
0.0083772 0.0261082 0.337057
0.0576028 0.0261997 0.33547
0.159823 0.0269322 0.342687
0.419883 0.0276799 0.360784
0.66717 0.056611 0.357763
0.746227 0.130129 0.374365
0.7458 0.129183 0.378347
0.746426 0.129747 0.378882
0.746273 0.131716 0.376638
0 0.0282292 0.325444
0.0100252 0.0260929 0.328328
0.121965 0.0265965 0.335454
0.412375 0.0284123 0.34844
0.664408 0.0546883 0.342199
0.757 0.146792 0.364019
0.754528 0.142947 0.367269
0.75491 0.143099 0.367956
0.755779 0.145617 0.366415
0 0.090074 0.306035
0 0.071046 0.312078
0.0411536 0.0443122 0.331853
0.401846 0.0367437 0.327214
0.678309 0.0680247 0.305715
0.783734 0.188449 0.346807
0.783368 0.186725 0.350256
0.783642 0.186908 0.350744
0.784161 0.188144 0.349447
0.014374 0.370886 0.345113
0.012726 0.367849 0.338415
0.0140383 0.360449 0.328298
0.350149 0.364492 0.31606
0.793072 0.322698 0.294591
0.854871 0.320348 0.313939
0.83798 0.300435 0.301869
0.8327 0.294484 0.297902
0.830381 0.292165 0.295888
0.13637 0.730846 0.569299
0.133486 0.731685 0.558419
0.129259 0.731579 0.539559
0.130922 0.743938 0.429694
0.691112 0.73492 0.212192
1 0.817868 0.446799
1 0.812573 0.440452
1 0.808072 0.437125
1 0.805493 0.434699
0.392081 0.961791 0.787045
0.390814 0.961791 0.779934
0.388617 0.962005 0.769131
0.382193 0.964096 0.720607
0.575494 0.998932 0.51519
0.952773 0.963485 0.48043
1 0.978347 0.583062
1 0.977661 0.57995
1 0.977111 0.579248
0.402564 0.968521 0.802228
0.40148 0.96846 0.796445
0.400031 0.969192 0.787427
0.395712 0.97261 0.748089
0.484977 0.998932 0.596155
0.931975 0.984192 0.509957
1 0.986435 0.616907
1 0.986999 0.626673
1 0.987305 0.62739
0.403861 0.969665 0.805829
0.401862 0.968261 0.798749
0.400336 0.968917 0.78996
0.395712 0.971984 0.75285
0.46392 0.998932 0.596262
0.921523 0.983932 0.506233
1 0.985138 0.604486
1 0.986389 0.626474
1 0.987732 0.62533
0.404456 0.970001 0.807385
0.402228 0.968246 0.800549
0.400641 0.968872 0.791379
0.395819 0.972015 0.753246
0.470405 0.998932 0.593179
0.9243 0.983551 0.507149
1 0.985077 0.603433
1 0.986496 0.626169
1 0.987869 0.624613
0.0579843 0.0315709 0.550546
0.0891737 0.0320745 0.557046
0.15993 0.0333104 0.571679
0.398398 0.0411536 0.606195
0.629694 0.0707103 0.570336
0.746044 0.152102 0.592721
0.740658 0.148699 0.594354
0.740566 0.148623 0.594491
0.74313 0.149996 0.59234
0.0226291 0.0308232 0.539483
0.0578927 0.031342 0.548501
0.128908 0.0326085 0.564538
0.384588 0.0403449 0.604089
0.6309 0.0705119 0.568689
0.752743 0.156191 0.589578
0.74873 0.153719 0.591302
0.748974 0.153918 0.591348
0.751537 0.155169 0.589166
0 0.0387274 0.530816
0 0.0321508 0.527977
0.0607614 0.0310674 0.546273
0.349416 0.0382849 0.597711
0.635233 0.0716869 0.567452
0.766217 0.164111 0.581079
0.763806 0.162783 0.58323
0.764584 0.163317 0.583062
0.766384 0.164157 0.581155
0.0173342 0.309712 0.595697
0.0164034 0.300587 0.595529
0.0163272 0.27921 0.599466
0.240497 0.222614 0.633661
0.732845 0.179385 0.636347
0.795926 0.182803 0.549554
0.781521 0.168536 0.533593
0.776654 0.163577 0.52781
0.775143 0.161868 0.524544
0.138537 0.685802 0.664012
0.135546 0.685115 0.658564
0.132403 0.682368 0.653986
0.124971 0.672786 0.637827
0.681575 0.669795 0.625544
0.992386 0.691676 0.632959
0.997803 0.68304 0.624537
0.998169 0.677943 0.619867
0.996689 0.676097 0.616434
0.384283 0.931792 0.847166
0.382345 0.931884 0.841856
0.37911 0.931151 0.835294
0.368368 0.930648 0.808347
0.50808 0.998077 0.741604
0.943252 0.953628 0.593164
1 0.955749 0.653223
1 0.954208 0.650202
1 0.953567 0.649409
0.419669 0.959533 0.877989
0.418616 0.960021 0.873198
0.416785 0.960555 0.867247
0.410849 0.963317 0.844709
0.42417 0.998932 0.749096
0.890105 0.992157 0.577676
1 0.984009 0.64184
1 0.984985 0.680568
1 0.985306 0.680186
0.419333 0.959991 0.877134
0.418555 0.959716 0.873579
0.416861 0.960449 0.867658
0.410941 0.963043 0.84567
0.41149 0.989441 0.744228
0.872343 0.992279 0.570153
0.997513 0.980926 0.6103
1 0.984649 0.67364
1 0.986099 0.671183
0.420386 0.960525 0.878721
0.419516 0.959777 0.875883
0.417594 0.960204 0.870054
0.411353 0.96289 0.847257
0.412863 0.990539 0.745083
0.873716 0.992172 0.57113
0.995514 0.981262 0.608103
1 0.985168 0.674571
1 0.986633 0.671504
0.149325 0.0998093 0.656672
0.169863 0.0994278 0.6654
0.216983 0.101884 0.685008
0.382254 0.11281 0.729686
0.629328 0.150164 0.725612
0.71136 0.177798 0.727016
0.712367 0.182193 0.731884
0.712978 0.182956 0.733196
0.711971 0.182849 0.731594
0.127184 0.0977493 0.645106
0.147219 0.0970626 0.654139
0.193194 0.0990768 0.674556
0.368231 0.111299 0.726955
0.625727 0.148074 0.724315
0.711254 0.176944 0.72546
0.71281 0.181811 0.730877
0.712688 0.182483 0.73138
0.711574 0.182208 0.729458
0.0791028 0.0913863 0.617212
0.101335 0.0921492 0.629328
0.142885 0.0925307 0.649622
0.336294 0.107164 0.719066
0.61648 0.143465 0.722164
0.711254 0.175113 0.721965
0.71429 0.180804 0.72929
0.71397 0.181094 0.729427
0.713207 0.180453 0.727474
0.0514839 0.190677 0.639963
0.0467994 0.175631 0.632029
0.0399634 0.147906 0.618006
0.177737 0.104814 0.672374
0.582635 0.137057 0.73022
0.715801 0.172763 0.708736
0.717479 0.175341 0.712123
0.717876 0.175708 0.712352
0.717739 0.175204 0.710567
0.189685 0.638575 0.786297
0.187167 0.636637 0.783612
0.185306 0.631113 0.783261
0.17969 0.605005 0.78497
0.605798 0.596002 0.889342
0.982147 0.565591 0.927794
0.985473 0.545769 0.924361
0.985397 0.539406 0.921904
0.984482 0.536049 0.91931
0.387625 0.905715 0.89839
0.385321 0.905562 0.893843
0.382025 0.903319 0.890578
0.375753 0.899962 0.884504
0.56466 0.926284 0.901915
0.910094 0.899123 0.879042
0.981811 0.902342 0.880415
0.981521 0.899413 0.87744
0.980453 0.898466 0.874784
0.498604 0.982818 0.966003
0.494621 0.983459 0.962707
0.490715 0.982864 0.96022
0.480537 0.981201 0.952834
0.526909 0.994827 0.940764
0.837461 0.992065 0.911772
0.984009 0.977188 0.855436
0.993637 0.97734 0.854292
0.993317 0.977523 0.853407
0.500069 0.983352 0.966567
0.495995 0.983749 0.963516
0.491661 0.983124 0.960845
0.479316 0.980819 0.952377
0.501198 0.99147 0.933989
0.81738 0.993957 0.906706
0.977905 0.978363 0.85034
0.994553 0.978317 0.832944
0.992966 0.978958 0.832319
0.50222 0.98436 0.966888
0.499092 0.984253 0.965164
0.494759 0.983658 0.962631
0.481849 0.981384 0.954055
0.509209 0.992477 0.936309
0.820798 0.993255 0.908568
0.976654 0.978698 0.8542
0.994537 0.978271 0.833082
0.992889 0.978866 0.834302
0.204379 0.134218 0.700343
0.224979 0.13611 0.709819
0.266987 0.139956 0.727398
0.413687 0.151415 0.768063
0.658396 0.185794 0.765377
0.726101 0.200305 0.752331
0.725093 0.199176 0.7514
0.724239 0.199084 0.751141
0.723415 0.199115 0.75024
0.184283 0.133028 0.690867
0.204257 0.134249 0.700298
0.245792 0.138003 0.718822
0.400168 0.150469 0.765713
0.655283 0.185382 0.766384
0.726802 0.201144 0.753063
0.725963 0.200153 0.752194
0.724788 0.200229 0.75169
0.723964 0.200366 0.750881
0.141314 0.128985 0.668086
0.162707 0.131487 0.680018
0.20209 0.134112 0.69929
0.370459 0.148608 0.759762
0.646723 0.184054 0.768795
0.72842 0.202976 0.75491
0.727916 0.20238 0.754498
0.727642 0.202274 0.754253
0.72697 0.202274 0.753552
0.0592203 0.187274 0.644984
0.0538338 0.171969 0.636088
0.0454719 0.142412 0.620127
0.228702 0.136645 0.711589
0.59527 0.172396 0.773877
0.733547 0.209079 0.760128
0.734966 0.210651 0.761975
0.735195 0.210925 0.762203
0.735058 0.210834 0.761669
0.206424 0.62295 0.822187
0.204166 0.619669 0.820386
0.201602 0.612436 0.819165
0.190982 0.583337 0.811795
0.58201 0.565927 0.943358
0.958755 0.541787 0.986862
0.964279 0.52079 0.987411
0.963272 0.514534 0.986603
0.960571 0.511711 0.984131
0.423651 0.90045 0.957107
0.421057 0.89984 0.954391
0.418494 0.896513 0.953674
0.411322 0.884932 0.952804
0.590188 0.880842 0.966918
0.886183 0.88127 0.954726
0.97586 0.870237 0.971313
0.97644 0.86659 0.971084
0.975036 0.865385 0.969467
0.599359 0.988586 0.994125
0.593744 0.990051 0.991928
0.589364 0.990295 0.991318
0.579736 0.990555 0.989395
0.608484 0.988693 0.985
0.877134 0.97116 0.967208
0.971832 0.96791 0.965194
0.986954 0.96698 0.969253
0.985321 0.967254 0.967178
0.611795 0.988052 0.995499
0.605341 0.989578 0.992874
0.599847 0.989883 0.992126
0.582284 0.990524 0.989944
0.60267 0.991485 0.985382
0.871168 0.979522 0.973419
0.961013 0.979187 0.968917
0.986587 0.977584 0.963699
0.986084 0.978027 0.963561
0.615732 0.988861 0.994293
0.611597 0.989258 0.99353
0.605264 0.989715 0.992737
0.585412 0.990494 0.990372
0.607355 0.991562 0.985351
0.873014 0.979477 0.973373
0.959182 0.979706 0.968139
0.983673 0.978225 0.961837
0.983948 0.978988 0.961532
0.214191 0.135195 0.704967
0.234897 0.136919 0.714122
0.275669 0.140764 0.730755
0.419974 0.151659 0.768872
0.66125 0.186267 0.764569
0.722896 0.196521 0.749142
0.725719 0.199863 0.751949
0.725444 0.199573 0.75172
0.725322 0.199466 0.751461
0.193835 0.133593 0.695415
0.214115 0.13521 0.704936
0.254963 0.13875 0.722545
0.406775 0.150958 0.766918
0.657832 0.185672 0.765484
0.723857 0.197635 0.750072
0.726543 0.200839 0.752804
0.726223 0.200626 0.752544
0.724743 0.200916 0.751705
0.151278 0.130053 0.673609
0.172641 0.132158 0.685084
0.212131 0.135027 0.704021
0.377218 0.149187 0.761364
0.649363 0.184405 0.767987
0.725475 0.199512 0.751812
0.728466 0.203021 0.755001
0.728283 0.202792 0.754757
0.727596 0.202792 0.754116
0.0566873 0.179324 0.640604
0.0512093 0.163867 0.631556
0.0434424 0.134234 0.615778
0.238239 0.137438 0.715709
0.597345 0.171939 0.772473
0.73164 0.20679 0.758068
0.734951 0.210651 0.761944
0.735119 0.210849 0.762097
0.734981 0.210742 0.761578
0.206348 0.616693 0.824247
0.203037 0.612451 0.821347
0.198825 0.603449 0.818189
0.186328 0.571313 0.807767
0.577157 0.550027 0.942397
0.955154 0.525795 0.984802
0.960464 0.504356 0.984146
0.959579 0.497261 0.983459
0.957198 0.493889 0.981231
0.464118 0.901228 0.972686
0.46006 0.900328 0.970459
0.455909 0.896513 0.96965
0.439872 0.882536 0.966552
0.584924 0.874739 0.968566
0.880476 0.875502 0.960433
0.973175 0.864347 0.978775
0.975509 0.859373 0.980911
0.971664 0.858991 0.977783
0.630259 0.987243 0.995651
0.627863 0.988327 0.994064
0.627634 0.988434 0.993942
0.617456 0.986603 0.993378
0.640055 0.979187 0.990906
0.893034 0.964874 0.978958
0.968582 0.96466 0.979049
0.987991 0.961059 0.986038
0.984497 0.961975 0.983124
0.631708 0.986557 0.996735
0.627863 0.988327 0.994064
0.627634 0.988434 0.993942
0.630198 0.988434 0.994018
0.670359 0.987427 0.994141
0.889174 0.979156 0.982788
0.968719 0.978408 0.981659
0.985611 0.977401 0.984329
0.988388 0.976638 0.985687
0.633204 0.985885 0.997742
0.627832 0.988342 0.994049
0.627634 0.988434 0.993942
0.630259 0.988449 0.993988
0.674052 0.98735 0.993988
0.889738 0.979171 0.982483
0.968322 0.979248 0.981674
0.983902 0.978012 0.984298
0.991897 0.975555 0.987716
0.216754 0.13547 0.706142
0.237507 0.137224 0.715282
0.277928 0.140902 0.731548
0.421057 0.151629 0.768917
0.661692 0.186343 0.764431
0.72163 0.195056 0.74789
0.725902 0.200076 0.752132
0.725628 0.199741 0.751873
0.725429 0.199619 0.751492
0.19617 0.133837 0.69659
0.216663 0.13547 0.706127
0.257359 0.13901 0.723537
0.407889 0.151095 0.767163
0.658274 0.185733 0.765332
0.722667 0.196262 0.748928
0.726696 0.201022 0.752956
0.726452 0.200748 0.752667
0.726223 0.20061 0.752209
0.153948 0.130358 0.67509
0.175219 0.132342 0.686381
0.214649 0.135317 0.705211
0.378851 0.149279 0.761715
0.64979 0.184451 0.767819
0.724575 0.198398 0.750851
0.728618 0.20322 0.755169
0.72842 0.20296 0.754894
0.728176 0.202808 0.75436
0.0559396 0.177005 0.639323
0.0507362 0.161746 0.630533
0.0441138 0.131716 0.615213
0.240803 0.137728 0.716838
0.598001 0.172091 0.772457
0.731014 0.206043 0.757397
0.734936 0.210651 0.761898
0.735103 0.210849 0.762051
0.734981 0.210742 0.761578
0.204929 0.613596 0.82324
0.201572 0.609461 0.820249
0.197498 0.600275 0.817182
0.185016 0.567758 0.806638
0.575647 0.545357 0.941985
0.954162 0.520058 0.984375
0.959335 0.499489 0.983169
0.957992 0.492729 0.98201
0.955734 0.487907 0.979919
0.462287 0.899672 0.97229
0.458183 0.898329 0.970169
0.453696 0.894499 0.969238
0.436912 0.880369 0.965942
0.582361 0.872755 0.96846
0.87924 0.873045 0.960128
0.971603 0.862211 0.977569
0.97293 0.858183 0.978866
0.971435 0.856214 0.977752
0.630076 0.987335 0.995499
0.627863 0.988327 0.994064
0.627634 0.988434 0.993942
0.612253 0.985809 0.992966
0.633814 0.97792 0.990082
0.891905 0.96379 0.978073
0.966873 0.96405 0.978851
0.982284 0.962188 0.982727
0.981872 0.961715 0.982406
0.630213 0.987259 0.995605
0.627863 0.988327 0.994064
0.627634 0.988434 0.993942
0.630228 0.988479 0.993973
0.669993 0.988052 0.993149
0.891371 0.979736 0.982269
0.967056 0.978622 0.981964
0.982834 0.978119 0.983474
0.983413 0.978134 0.983551
0.629816 0.987442 0.995331
0.627832 0.988342 0.994049
0.627634 0.988434 0.993942
0.630335 0.988479 0.993957
0.673884 0.987961 0.993011
0.892714 0.979736 0.982254
0.966628 0.980102 0.981979
0.981537 0.97969 0.982406
0.984176 0.979187 0.983795
