bundles/resolve-cinematic-luts/Phantom Luts/P4k & P6k Phntm Arri LUTs - V6/P4K/Gen 5 Colour/White Balance Offset (Magenta Boost)/P4k IceBlue Gen 5 WBO.cube
TITLE "Generated by Resolve"
LUT_3D_SIZE 5
0.0242924 0.0364385 0.0328527
0.100465 0.0422675 0.0427405
0.614725 0.109224 0.134874
0.764096 0.19942 0.221485
0.770672 0.197528 0.242115
0.0302586 0.130343 0.0838026
0.0836957 0.133715 0.0521553
0.622644 0.128725 0.136019
0.75938 0.204883 0.210132
0.764324 0.206134 0.221607
0.0971542 0.675349 0.406409
0.106828 0.68896 0.387747
0.645975 0.728466 0.196139
0.967102 0.801816 0.414313
0.961425 0.816617 0.42591
0.27602 0.882124 0.641077
0.271321 0.879179 0.621424
0.477272 0.889357 0.403723
0.982025 0.9402 0.553277
0.979019 0.94049 0.561486
0.278279 0.882734 0.646723
0.268437 0.877806 0.610849
0.735821 0.906355 0.403159
0.984009 0.939498 0.554116
0.976638 0.940703 0.56643
0.0191043 0.0397345 0.121141
0.112413 0.0375067 0.122103
0.664378 0.120424 0.208957
0.803952 0.225681 0.287053
0.807233 0.219532 0.308309
0.0272374 0.114763 0.123156
0.0850385 0.110628 0.130068
0.643503 0.123156 0.161868
0.76968 0.201251 0.233188
0.774838 0.201602 0.246754
0.0974746 0.673961 0.439078
0.105898 0.688823 0.426825
0.643442 0.728405 0.197848
0.964706 0.797909 0.410407
0.957687 0.80975 0.420905
0.282109 0.884978 0.662821
0.277394 0.882765 0.646632
0.449836 0.888121 0.408103
0.981888 0.940276 0.557122
0.978729 0.94052 0.56611
0.290486 0.887831 0.684306
0.279698 0.884352 0.657435
0.692882 0.901427 0.403632
0.983917 0.939681 0.559228
0.975402 0.940719 0.575128
0.0439155 0.0585489 0.536767
0.11136 0.0578012 0.57229
0.626307 0.0887312 0.575936
0.753979 0.129015 0.574182
0.733928 0.117891 0.601038
0.011429 0.063386 0.501839
0.0469673 0.0622873 0.55111
0.636759 0.0970321 0.599802
0.752102 0.128786 0.586023
0.733059 0.117662 0.60885
0.128344 0.658763 0.646296
0.142 0.674922 0.662669
0.629236 0.671122 0.70605
0.980606 0.681697 0.682109
0.96379 0.716564 0.720256
0.385061 0.920104 0.839826
0.399695 0.918288 0.84152
0.408453 0.914809 0.74815
0.977386 0.943267 0.656275
0.979049 0.949187 0.748898
0.458305 0.94609 0.898268
0.479866 0.938323 0.893416
0.649775 0.93257 0.848661
0.97615 0.953307 0.760616
0.975891 0.952789 0.760815
0.180758 0.167865 0.732052
0.236378 0.170138 0.752117
0.646906 0.189303 0.790097
0.76704 0.20267 0.762997
0.764019 0.202838 0.766262
0.118395 0.165881 0.705379
0.176165 0.168063 0.730877
0.654566 0.191943 0.791669
0.771954 0.205646 0.763043
0.767803 0.206806 0.768856
0.165911 0.667811 0.825208
0.182101 0.681575 0.83035
0.563104 0.659068 0.995346
0.976471 0.583062 0.962081
0.965545 0.634592 0.96286
0.624018 0.96643 0.955779
0.644282 0.961181 0.952941
0.700404 0.961334 0.954986
0.966766 0.9626 0.965911
0.978927 0.965026 0.966827
0.617273 0.968292 0.957458
0.648951 0.959884 0.951934
0.794827 0.962829 0.959823
0.969604 0.972015 0.973236
0.976425 0.972854 0.972671
0.190097 0.168154 0.735485
0.247593 0.170657 0.755764
0.660914 0.191089 0.788495
0.767712 0.203525 0.763699
0.766186 0.20325 0.764904
0.124834 0.165835 0.70779
0.183627 0.168383 0.733791
0.668635 0.193835 0.790066
0.772427 0.206287 0.763653
0.768551 0.207401 0.769207
0.181201 0.679591 0.830716
0.195422 0.693446 0.83505
0.583658 0.672007 0.991165
0.978393 0.600504 0.962615
0.962524 0.649744 0.95996
0.626886 0.965667 0.955276
0.651026 0.959335 0.951354
0.71986 0.958938 0.955215
0.963638 0.963073 0.971847
0.978149 0.964294 0.970382
0.615915 0.968582 0.957336
0.654841 0.958267 0.950652
0.808484 0.960189 0.95906
0.967025 0.972793 0.977172
0.982467 0.971649 0.970596
