bundles/resolve-cinematic-luts/Phantom Luts/P4k & P6k Phntm Arri LUTs - V6/P4K/Gen 5 Colour/White Balance Offset (Magenta Boost)/P4k IceBlue Gen 5-Legacy WBO.cube
TITLE "Generated by Resolve"
LUT_3D_SIZE 33
0.033402 0.0457618 0.0452583
0.033402 0.0457618 0.0452277
0.0334173 0.0457618 0.0451972
0.0377661 0.0461891 0.0462501
0.0458839 0.0471351 0.0478828
0.0522621 0.0480507 0.0477607
0.0612802 0.0493782 0.0484932
0.0749065 0.0505837 0.0493935
0.0918135 0.0518044 0.0510719
0.114626 0.0535439 0.0536812
0.150164 0.0560159 0.0574502
0.19823 0.059266 0.0629892
0.258625 0.062974 0.069276
0.333013 0.067216 0.0763561
0.410117 0.0732738 0.0863813
0.488197 0.0824903 0.100603
0.558846 0.0963149 0.119142
0.625635 0.1187 0.143938
0.690013 0.150164 0.175677
0.738384 0.177996 0.202853
0.753582 0.187304 0.212055
0.755825 0.188968 0.213962
0.757824 0.190539 0.215625
0.759289 0.191745 0.216846
0.760342 0.192569 0.217746
0.76112 0.193179 0.218433
0.761685 0.193606 0.218906
0.762203 0.19382 0.219669
0.762692 0.193835 0.220752
0.763485 0.193454 0.223285
0.764446 0.192874 0.226719
0.765957 0.191775 0.232486
0.767514 0.19057 0.238758
0.0334936 0.0456855 0.0449226
0.0334783 0.0457313 0.0450599
0.0334478 0.0457465 0.0451362
0.0365606 0.0463874 0.0460212
0.0436255 0.0475776 0.0480659
0.0500038 0.0487526 0.048249
0.0589456 0.050248 0.0489967
0.0727092 0.0514229 0.0500954
0.0898451 0.052491 0.0513008
0.113542 0.0538949 0.0535286
0.149767 0.0559701 0.0566262
0.198581 0.0587472 0.0615396
0.261936 0.0624094 0.0675212
0.33756 0.0671702 0.075227
0.416449 0.0737469 0.0857252
0.495354 0.0833448 0.100618
0.566079 0.0985122 0.120211
0.633356 0.122255 0.146456
0.698039 0.154879 0.179217
0.740917 0.179843 0.203754
0.752712 0.187015 0.210925
0.754498 0.188037 0.21236
0.756313 0.189471 0.213855
0.757763 0.190616 0.215137
0.75874 0.19144 0.215991
0.759457 0.19202 0.21651
0.760006 0.192432 0.216968
0.760494 0.19263 0.217731
0.760922 0.19266 0.218814
0.7617 0.192264 0.221515
0.762631 0.191684 0.224826
0.764141 0.190555 0.230701
0.765713 0.189334 0.237018
0.0334936 0.0456855 0.0449073
0.0334783 0.0457313 0.0450599
0.0334478 0.0457618 0.0451514
0.0339971 0.0465705 0.045594
0.0404669 0.048127 0.0474556
0.0469062 0.0496376 0.0489204
0.0554513 0.0512551 0.0499428
0.0685588 0.0523079 0.0506752
0.0863813 0.053193 0.0519112
0.110765 0.0544747 0.0540932
0.147417 0.0562753 0.0567788
0.197345 0.0588388 0.0613107
0.259709 0.0620584 0.0665599
0.334844 0.0666972 0.0737163
0.414115 0.0732891 0.0838636
0.494881 0.0830854 0.0988785
0.566491 0.0986648 0.118914
0.634394 0.123033 0.1458
0.699596 0.156054 0.179309
0.740414 0.179919 0.202747
0.750927 0.186267 0.209079
0.752911 0.187503 0.210697
0.754376 0.188388 0.211887
0.755688 0.189334 0.213001
0.756664 0.190082 0.213733
0.757382 0.190585 0.214282
0.75787 0.190951 0.214725
0.758312 0.191135 0.215442
0.75874 0.191165 0.216373
0.759564 0.190738 0.219089
0.760494 0.190143 0.222431
0.76202 0.188998 0.228351
0.763561 0.187762 0.234684
0.0344244 0.0506752 0.0487221
0.0343938 0.0507515 0.0483253
0.0343938 0.0505531 0.0475319
0.0356756 0.0502785 0.0471199
0.0393683 0.0512093 0.0480507
0.0461433 0.0527962 0.0505989
0.0532845 0.0538796 0.0519265
0.064683 0.0539101 0.0518044
0.0822461 0.0539864 0.0528878
0.107057 0.0550546 0.0547951
0.144656 0.0568551 0.0577096
0.19469 0.0592508 0.0613565
0.257664 0.0622416 0.0664073
0.332753 0.0666056 0.0733501
0.411307 0.0729381 0.0831769
0.491661 0.0824598 0.0968185
0.564385 0.0979934 0.117037
0.632654 0.122362 0.143587
0.698497 0.155856 0.17763
0.738872 0.179416 0.200946
0.748837 0.185351 0.207141
0.750866 0.186694 0.208637
0.752453 0.187625 0.209934
0.753445 0.188205 0.210773
0.754406 0.18883 0.211597
0.755108 0.189273 0.212299
0.755642 0.189563 0.21294
0.75613 0.189654 0.213809
0.756588 0.189624 0.214862
0.757321 0.189303 0.217136
0.758221 0.188708 0.220371
0.75967 0.18761 0.226017
0.761318 0.186328 0.232517
0.036286 0.0579232 0.0549477
0.0361944 0.057969 0.0547646
0.0364385 0.0573281 0.0528725
0.0381018 0.0565347 0.0509651
0.0420233 0.0567941 0.0506905
0.0469062 0.0569467 0.0508888
0.0555734 0.0590066 0.0549477
0.0663767 0.058854 0.0550698
0.0827955 0.0577096 0.0555276
0.106401 0.0574655 0.057023
0.142397 0.0584268 0.0593729
0.191623 0.0599527 0.0620737
0.254292 0.0624399 0.0660716
0.329992 0.0667124 0.0728161
0.410712 0.0730297 0.0831159
0.490089 0.0823224 0.0971695
0.561242 0.0967575 0.116411
0.629908 0.120455 0.143526
0.696757 0.154208 0.178225
0.73756 0.177783 0.201968
0.747143 0.183459 0.207996
0.749294 0.184863 0.209674
0.750988 0.186007 0.211017
0.75227 0.186831 0.212085
0.753017 0.187198 0.212711
0.753536 0.187427 0.213169
0.754009 0.187701 0.213657
0.754345 0.187915 0.214008
0.754604 0.188067 0.214252
0.755077 0.18793 0.215564
0.755825 0.187488 0.218128
0.75729 0.186389 0.223789
0.758923 0.185107 0.230365
0.0380255 0.0644999 0.0604868
0.0378271 0.0646525 0.0601816
0.038056 0.0641184 0.059144
0.0389868 0.0630045 0.0558175
0.0437018 0.0623941 0.0541085
0.0486152 0.0631723 0.0540932
0.054612 0.0629282 0.0542458
0.0706951 0.0657359 0.0588693
0.08925 0.0645609 0.0604715
0.111391 0.0623789 0.0607462
0.145068 0.0619059 0.0627604
0.193088 0.0624247 0.0647898
0.252659 0.0634623 0.0671702
0.327855 0.0668956 0.0723888
0.408255 0.073167 0.0822614
0.48867 0.0825818 0.0964675
0.560265 0.0970169 0.115679
0.62739 0.119921 0.141665
0.693858 0.153094 0.175463
0.73579 0.177188 0.200153
0.745022 0.182528 0.206012
0.746929 0.183764 0.207507
0.748531 0.184817 0.208881
0.749676 0.185534 0.209796
0.750546 0.186099 0.210529
0.751247 0.186542 0.211063
0.751736 0.186877 0.211475
0.752087 0.187106 0.211795
0.752255 0.187198 0.211933
0.752667 0.186969 0.213214
0.753353 0.186526 0.215595
0.754894 0.185397 0.221378
0.756527 0.18407 0.227893
0.0397803 0.0744335 0.0666361
0.0395972 0.0750896 0.0658427
0.0397803 0.0747845 0.0647898
0.0403449 0.0737316 0.0630503
0.0429236 0.0725567 0.0595407
0.0491646 0.0728161 0.05832
0.0552529 0.0740978 0.057847
0.0665751 0.0736706 0.0573129
0.0928359 0.0766461 0.0632792
0.121126 0.073106 0.0654154
0.154757 0.0696574 0.0665141
0.199191 0.0686503 0.0679942
0.257313 0.0686961 0.06981
0.327581 0.0697948 0.0732433
0.405188 0.0737316 0.0815137
0.485527 0.0827802 0.0952468
0.558526 0.0974289 0.114626
0.626627 0.120439 0.140826
0.691814 0.15285 0.173602
0.734279 0.177157 0.19791
0.742779 0.18204 0.203204
0.744503 0.183154 0.204639
0.745937 0.184054 0.205921
0.747021 0.18471 0.206806
0.747768 0.185229 0.207416
0.748379 0.18558 0.20795
0.748806 0.185824 0.208301
0.749126 0.186007 0.208576
0.749294 0.186114 0.208713
0.749584 0.185992 0.209598
0.749981 0.185672 0.211215
0.750851 0.184894 0.214786
0.751675 0.184039 0.218494
0.0417182 0.0898299 0.0746471
0.0412757 0.0909743 0.0736553
0.0411536 0.0913863 0.0723583
0.0418402 0.0906386 0.070222
0.0429084 0.0896773 0.0675822
0.0469673 0.0887922 0.0633555
0.0543221 0.0898604 0.0627146
0.0641947 0.0905165 0.0608072
0.0852522 0.0909285 0.0606699
0.122194 0.0929732 0.0668345
0.167269 0.0850233 0.070985
0.213382 0.0792859 0.0715648
0.267872 0.0773785 0.0724193
0.333074 0.0772259 0.0769513
0.406851 0.0796979 0.0843214
0.483787 0.0848554 0.0951705
0.556237 0.0981003 0.113344
0.624506 0.120882 0.139467
0.690059 0.152972 0.172335
0.73579 0.179278 0.19823
0.743664 0.183917 0.202747
0.744152 0.184329 0.203067
0.744854 0.184771 0.203632
0.745373 0.185107 0.204059
0.74583 0.185397 0.204471
0.74612 0.185611 0.204746
0.746319 0.185733 0.204883
0.746426 0.185824 0.204959
0.746487 0.185901 0.204974
0.74667 0.185748 0.205753
0.746975 0.185443 0.207111
0.747707 0.184695 0.210483
0.749081 0.184253 0.214572
0.0429084 0.110689 0.0839704
0.0422217 0.112474 0.0820783
0.0415808 0.113756 0.0802319
0.0418097 0.113863 0.0782025
0.0428016 0.112932 0.0753033
0.0439612 0.111696 0.0717632
0.0496681 0.110872 0.0672618
0.0596017 0.112184 0.0655375
0.0768902 0.112596 0.0626535
0.109468 0.112947 0.0618753
0.161288 0.112963 0.0694285
0.227039 0.100465 0.076173
0.288212 0.0935531 0.078645
0.349447 0.0918746 0.0812543
0.416739 0.0929427 0.0892805
0.491173 0.0976577 0.101839
0.561502 0.10721 0.117372
0.624521 0.124086 0.139193
0.687297 0.153262 0.170336
0.738033 0.182147 0.198779
0.747189 0.187701 0.204242
0.747433 0.187976 0.204334
0.747631 0.188174 0.204395
0.747768 0.188327 0.20444
0.747875 0.188434 0.204471
0.747982 0.18854 0.204517
0.748074 0.188617 0.204562
0.748135 0.188693 0.204593
0.748226 0.1888 0.204639
0.748531 0.188739 0.205493
0.749081 0.18854 0.207187
0.75024 0.188022 0.210803
0.75172 0.18764 0.214832
0.0430152 0.139559 0.0956283
0.0424506 0.141939 0.0939193
0.0415045 0.144289 0.090837
0.0410315 0.145586 0.0872663
0.0413977 0.145342 0.0843671
0.0424659 0.144198 0.081117
0.044007 0.142153 0.0763256
0.0517128 0.141436 0.0704204
0.0680095 0.14432 0.0682078
0.0945144 0.143313 0.0632944
0.143648 0.14345 0.0621042
0.211902 0.141955 0.0715038
0.300954 0.124636 0.0840467
0.376242 0.117723 0.0915541
0.441337 0.118334 0.0988479
0.509117 0.122469 0.108827
0.576577 0.13106 0.126345
0.641138 0.14789 0.150362
0.699687 0.171237 0.177584
0.749279 0.196429 0.204883
0.755459 0.197574 0.208225
0.75288 0.194034 0.206561
0.751858 0.192905 0.205859
0.751995 0.193057 0.205951
0.752178 0.193225 0.206058
0.7523 0.193347 0.206165
0.752438 0.193423 0.206363
0.752605 0.193469 0.206638
0.752865 0.193515 0.207172
0.753368 0.193515 0.208423
0.754086 0.193545 0.210101
0.757046 0.195605 0.214679
0.761227 0.199191 0.220142
0.0432593 0.179553 0.111604
0.0424048 0.182727 0.109712
0.0413825 0.185306 0.106676
0.0404059 0.187198 0.102419
0.0400397 0.188373 0.097734
0.0404517 0.188251 0.0934157
0.0416114 0.187228 0.0886854
0.0440223 0.18407 0.0810864
0.0547036 0.184039 0.0734112
0.0803845 0.18851 0.071107
0.120027 0.18706 0.0641794
0.192172 0.187533 0.0627298
0.280339 0.18854 0.0751965
0.391836 0.170077 0.0972915
0.478614 0.16405 0.113558
0.545296 0.168414 0.125444
0.610468 0.176333 0.142931
0.669383 0.190295 0.165682
0.726024 0.209567 0.19617
0.778027 0.233433 0.228183
0.785748 0.234668 0.232578
0.782452 0.230152 0.230472
0.779767 0.226307 0.228626
0.778027 0.224033 0.227481
0.777203 0.22266 0.227161
0.776394 0.2215 0.226642
0.775921 0.220905 0.226352
0.775845 0.220737 0.226413
0.776303 0.221195 0.226841
0.777386 0.222492 0.227649
0.779034 0.224903 0.228565
0.784009 0.231144 0.23299
0.790539 0.239094 0.238956
0.0440528 0.23122 0.130816
0.043122 0.234836 0.128664
0.0420691 0.237766 0.126024
0.0410773 0.239734 0.122835
0.0401007 0.241611 0.118242
0.0395056 0.24329 0.112322
0.0398566 0.243549 0.106447
0.0417487 0.241642 0.0988479
0.0450904 0.237415 0.0867475
0.0601053 0.238361 0.077348
0.099443 0.247349 0.0761273
0.160372 0.246769 0.0662242
0.256489 0.247456 0.0648356
0.365911 0.256275 0.0771801
0.490455 0.242618 0.113069
0.585702 0.236942 0.143496
0.655619 0.243641 0.164874
0.715389 0.255009 0.190845
0.767666 0.270542 0.219669
0.811261 0.288289 0.246586
0.822034 0.290913 0.25333
0.81976 0.286748 0.251881
0.817243 0.283467 0.250019
0.815183 0.280598 0.248631
0.81384 0.278752 0.247791
0.81323 0.277852 0.24741
0.812726 0.277241 0.247089
0.813107 0.277852 0.247318
0.813672 0.278721 0.247669
0.815213 0.281209 0.248615
0.819013 0.286915 0.251362
0.824643 0.295216 0.256062
0.832486 0.306233 0.263081
0.0467842 0.29781 0.154955
0.0457313 0.301961 0.152682
0.0450904 0.305409 0.150454
0.0442359 0.307652 0.147509
0.0431067 0.310201 0.143999
0.0424353 0.31191 0.1393
0.0419013 0.313573 0.132769
0.0420996 0.314015 0.12369
0.044419 0.311437 0.11194
0.0477913 0.306279 0.0928359
0.0699016 0.309987 0.0797131
0.129747 0.322576 0.0776074
0.214328 0.32163 0.0675669
0.330922 0.320577 0.0675517
0.461036 0.344427 0.0751202
0.592828 0.350637 0.124208
0.69073 0.329534 0.178424
0.762875 0.335302 0.217548
0.819959 0.350683 0.252659
0.858305 0.363668 0.278248
0.864912 0.365393 0.282765
0.863767 0.36231 0.281941
0.862318 0.359243 0.280888
0.861051 0.356786 0.279957
0.860349 0.3552 0.279438
0.860136 0.354589 0.279286
0.860594 0.355184 0.279591
0.861021 0.3561 0.279911
0.862058 0.35819 0.280705
0.863798 0.361852 0.282032
0.86656 0.368063 0.284047
0.871275 0.377691 0.288228
0.877668 0.390661 0.294377
0.0482643 0.372168 0.186038
0.0479591 0.376699 0.184192
0.0475319 0.380118 0.182132
0.0472419 0.382788 0.179446
0.0469062 0.384604 0.176104
0.0466468 0.386114 0.172396
0.0463111 0.38761 0.166522
0.0456855 0.389517 0.156298
0.0458381 0.390494 0.143999
0.0473335 0.387701 0.128099
0.0510109 0.382895 0.101167
0.083772 0.387793 0.0832074
0.174823 0.400534 0.0791028
0.286076 0.401358 0.0673838
0.415442 0.401282 0.0715953
0.555108 0.435523 0.0892042
0.680613 0.454231 0.149233
0.782803 0.440101 0.220508
0.845228 0.428153 0.267491
0.889845 0.44033 0.300649
0.899367 0.448386 0.308186
0.898924 0.446998 0.307942
0.898329 0.445274 0.30753
0.897871 0.443915 0.307225
0.897642 0.443275 0.307057
0.897902 0.444053 0.307195
0.898085 0.444648 0.307301
0.898543 0.446052 0.307561
0.899489 0.448707 0.308156
0.900618 0.452644 0.308766
0.90309 0.460533 0.310262
0.90692 0.471351 0.313329
0.912077 0.486244 0.317693
0.0501717 0.451377 0.227039
0.0503853 0.456107 0.226459
0.050248 0.459937 0.224674
0.050248 0.462104 0.222232
0.0500496 0.463935 0.218906
0.049897 0.465431 0.215854
0.0497597 0.466789 0.211215
0.0495308 0.468772 0.203204
0.0489662 0.470802 0.189014
0.0492866 0.471031 0.170901
0.0515297 0.46717 0.14876
0.0615702 0.463264 0.115801
0.1149 0.47068 0.0910353
0.243076 0.48603 0.0868086
0.377172 0.489281 0.075349
0.504479 0.488914 0.088426
0.639063 0.52285 0.131395
0.757473 0.555444 0.196551
0.853376 0.554147 0.266606
0.906355 0.547646 0.309438
0.926863 0.552758 0.326589
0.927932 0.551354 0.327504
0.927275 0.548882 0.327016
0.927199 0.548043 0.327092
0.927138 0.547738 0.327169
0.927001 0.547463 0.327214
0.926986 0.54786 0.327321
0.927001 0.54902 0.327382
0.927687 0.551659 0.328008
0.928817 0.557031 0.328862
0.930404 0.564462 0.330053
0.93286 0.576074 0.33228
0.935821 0.591775 0.335302
0.0570535 0.535592 0.280232
0.0576944 0.540139 0.280476
0.0583505 0.543542 0.27982
0.0587167 0.545632 0.277592
0.0590524 0.547372 0.275196
0.0593576 0.548959 0.272847
0.0597848 0.550637 0.269184
0.060029 0.551553 0.262684
0.0606241 0.552819 0.252171
0.0611734 0.554406 0.235233
0.0627146 0.553994 0.212222
0.0666056 0.549615 0.181353
0.0855116 0.546761 0.138399
0.175143 0.55874 0.11107
0.336996 0.576883 0.107408
0.475944 0.582086 0.102663
0.592172 0.581872 0.130495
0.725307 0.616449 0.19263
0.846021 0.666209 0.267521
0.919295 0.67126 0.323812
0.946273 0.663249 0.348928
0.948455 0.660731 0.350591
0.948287 0.659464 0.350271
0.948226 0.659297 0.350362
0.948135 0.659037 0.350454
0.948089 0.659342 0.350729
0.94815 0.660319 0.351171
0.948394 0.662287 0.351888
0.949248 0.666438 0.353384
0.950057 0.672023 0.354864
0.951553 0.681056 0.357427
0.953689 0.695155 0.361593
0.956207 0.714031 0.367269
0.0822309 0.620722 0.344793
0.0840925 0.625025 0.34641
0.0858625 0.628946 0.347158
0.0869306 0.630945 0.346395
0.0877699 0.632685 0.345159
0.0887465 0.634867 0.34374
0.0895552 0.636286 0.340612
0.090486 0.6374 0.335897
0.0915236 0.638514 0.327626
0.0929732 0.63975 0.313893
0.095201 0.641566 0.293187
0.0978714 0.638788 0.264912
0.104646 0.632898 0.223774
0.14403 0.633265 0.16907
0.282032 0.652552 0.14931
0.452842 0.675212 0.154055
0.576822 0.681605 0.161685
0.682704 0.681102 0.19585
0.81416 0.714977 0.268971
0.922362 0.765774 0.343954
0.96202 0.784009 0.384237
0.965805 0.777462 0.392233
0.965942 0.776074 0.392676
0.965866 0.775189 0.392599
0.96582 0.774777 0.392767
0.965789 0.774807 0.393225
0.965896 0.775647 0.394171
0.966247 0.777203 0.39556
0.966644 0.779385 0.397024
0.967285 0.782757 0.399084
0.968856 0.788708 0.402716
0.970871 0.797574 0.407782
0.973999 0.810376 0.415503
0.130129 0.707561 0.413977
0.133364 0.712108 0.416068
0.136217 0.716014 0.417594
0.138705 0.719112 0.418357
0.140444 0.72105 0.417853
0.141894 0.722438 0.416739
0.143221 0.723751 0.415061
0.144518 0.724987 0.411261
0.145937 0.726375 0.40557
0.148409 0.728466 0.396567
0.150652 0.729595 0.379721
0.153307 0.729061 0.354177
0.156771 0.723659 0.319463
0.169131 0.716258 0.267399
0.247532 0.726589 0.214023
0.415015 0.752667 0.208179
0.572442 0.77673 0.223728
0.677943 0.782254 0.237781
0.773419 0.780865 0.274479
0.883467 0.801434 0.341955
0.961639 0.834531 0.402304
0.978119 0.85066 0.426108
0.979904 0.851987 0.432258
0.979889 0.852064 0.43241
0.979843 0.852262 0.4327
0.979767 0.85272 0.433173
0.979629 0.853834 0.433906
0.979568 0.854994 0.434836
0.979782 0.857053 0.435981
0.97995 0.860182 0.437186
0.980514 0.865278 0.439094
0.981247 0.873594 0.441855
0.982284 0.884474 0.445457
0.194446 0.793118 0.483848
0.197772 0.796902 0.485832
0.201099 0.800565 0.487724
0.203418 0.802838 0.488411
0.205127 0.804273 0.488121
0.206836 0.805661 0.487785
0.208301 0.80647 0.486732
0.209049 0.807431 0.483497
0.210178 0.808865 0.479225
0.211185 0.809705 0.471
0.212665 0.8103 0.457603
0.214786 0.809873 0.437507
0.217105 0.80592 0.40824
0.221653 0.799222 0.368627
0.252583 0.796735 0.304067
0.379721 0.817258 0.270054
0.54432 0.84126 0.276799
0.683299 0.862547 0.297963
0.772656 0.86746 0.317769
0.858351 0.865599 0.356039
0.940734 0.877668 0.41294
0.984207 0.910262 0.455131
0.987198 0.916197 0.469413
0.987259 0.91632 0.469871
0.98735 0.916823 0.470619
0.987335 0.917067 0.47129
0.98732 0.91751 0.472251
0.987305 0.918349 0.473655
0.987396 0.919829 0.475563
0.987854 0.922377 0.478187
0.988083 0.92607 0.48159
0.989013 0.932036 0.486809
0.989776 0.938964 0.492836
0.250935 0.859983 0.54432
0.252964 0.86244 0.545571
0.254749 0.864408 0.546487
0.255787 0.8654 0.546395
0.256809 0.866133 0.545937
0.257725 0.866621 0.545022
0.25864 0.867155 0.543587
0.259236 0.867521 0.540993
0.259541 0.867597 0.536294
0.259892 0.867445 0.529473
0.261219 0.867124 0.5187
0.263157 0.866484 0.502586
0.267506 0.865415 0.481712
0.269795 0.859556 0.44889
0.280217 0.854231 0.401923
0.359396 0.866621 0.34667
0.504967 0.883391 0.328756
0.658274 0.899474 0.3402
0.769879 0.911986 0.358877
0.852766 0.917418 0.387121
0.924727 0.923506 0.430869
0.978836 0.937316 0.476905
0.991333 0.946365 0.50135
0.991669 0.94699 0.504585
0.991592 0.946975 0.50457
0.991531 0.947066 0.505211
0.991455 0.947173 0.506111
0.991379 0.947372 0.507347
0.991348 0.947753 0.50869
0.991424 0.94844 0.510384
0.991714 0.949386 0.512337
0.991943 0.950835 0.514748
0.992142 0.951415 0.516365
0.277852 0.889632 0.577859
0.277485 0.889708 0.576883
0.277272 0.889815 0.575875
0.277195 0.889799 0.574487
0.277287 0.889708 0.573312
0.277546 0.889448 0.571801
0.277989 0.889143 0.569711
0.278157 0.888747 0.566949
0.278035 0.88806 0.561807
0.277699 0.887251 0.554482
0.278447 0.886046 0.543877
0.279835 0.884382 0.52929
0.283299 0.882826 0.509789
0.291142 0.883085 0.486625
0.299718 0.880873 0.454597
0.351949 0.887129 0.407919
0.475746 0.901701 0.374166
0.62005 0.910277 0.369512
0.748806 0.921202 0.381155
0.840223 0.93135 0.406683
0.917983 0.939376 0.445212
0.960967 0.937804 0.479561
0.992615 0.951614 0.513802
0.993118 0.952529 0.522972
0.993042 0.952468 0.522911
0.992889 0.952392 0.523247
0.992691 0.9523 0.524346
0.992432 0.952209 0.526284
0.992218 0.952148 0.528099
0.992065 0.952132 0.529915
0.992081 0.952224 0.53106
0.992233 0.952361 0.531304
0.992523 0.952483 0.530114
0.278614 0.89015 0.583566
0.278019 0.890242 0.582422
0.277668 0.890349 0.58117
0.277546 0.890303 0.579919
0.277638 0.89015 0.578546
0.277882 0.889876 0.576959
0.278202 0.889448 0.57496
0.278401 0.888975 0.571969
0.278477 0.888457 0.567376
0.278233 0.887541 0.559884
0.278462 0.886351 0.548653
0.279881 0.884642 0.533928
0.28278 0.882902 0.51429
0.290211 0.882933 0.490394
0.300282 0.882994 0.462852
0.347051 0.889601 0.422385
0.460121 0.901854 0.385336
0.601755 0.90985 0.375692
0.736141 0.920363 0.38526
0.831296 0.931289 0.40911
0.910735 0.939208 0.44535
0.951553 0.937453 0.475746
0.992645 0.950805 0.512917
0.995056 0.952316 0.527199
0.995163 0.9523 0.527825
0.995087 0.95227 0.528603
0.994949 0.952224 0.529717
0.994553 0.952239 0.530892
0.993942 0.952316 0.531792
0.993179 0.952483 0.532479
0.992676 0.952636 0.532525
0.992432 0.952789 0.531945
0.99234 0.952941 0.530877
0.278599 0.890791 0.587747
0.278111 0.890883 0.586648
0.277852 0.890898 0.585397
0.27779 0.890822 0.583978
0.277882 0.890669 0.582666
0.278172 0.89041 0.581201
0.278492 0.889998 0.57911
0.278584 0.889433 0.576013
0.278569 0.888853 0.571344
0.278431 0.88806 0.564065
0.27834 0.88687 0.552926
0.279515 0.885161 0.537743
0.282216 0.883253 0.517845
0.28925 0.882979 0.493156
0.299504 0.883101 0.465019
0.341878 0.888914 0.42591
0.450248 0.901228 0.387717
0.59144 0.909133 0.375158
0.72903 0.919738 0.384192
0.824353 0.930266 0.405753
0.903777 0.938857 0.44155
0.944701 0.939712 0.47068
0.985901 0.949813 0.505806
0.991653 0.953292 0.523079
0.991897 0.953521 0.525658
0.991913 0.953521 0.526207
0.991852 0.953506 0.52694
0.991531 0.953536 0.527825
0.990967 0.953628 0.528862
0.990173 0.953796 0.529824
0.989654 0.953948 0.530144
0.989395 0.95404 0.530053
0.989395 0.954101 0.529503
0.278737 0.891569 0.591043
0.278279 0.891493 0.589837
0.278004 0.891371 0.588525
0.277928 0.891218 0.587198
0.278035 0.891035 0.585672
0.27834 0.890776 0.584054
0.278691 0.890379 0.582132
0.278813 0.88983 0.579004
0.278645 0.889128 0.574228
0.278523 0.888441 0.567346
0.278309 0.887251 0.555627
0.279255 0.885542 0.540337
0.281834 0.883452 0.520134
0.288685 0.883009 0.494911
0.298909 0.883131 0.466575
0.338796 0.888487 0.427924
0.443961 0.900816 0.389197
0.584878 0.909026 0.375189
0.724559 0.919387 0.383536
0.819776 0.929778 0.403738
0.899275 0.938262 0.438956
0.940917 0.939651 0.467674
0.981872 0.948257 0.501244
0.991257 0.953094 0.520729
0.991562 0.953613 0.525109
0.991547 0.953628 0.525658
0.991485 0.953597 0.52639
0.991165 0.953643 0.527153
0.9906 0.953735 0.528222
0.989792 0.953872 0.529473
0.989273 0.953994 0.530205
0.989013 0.95404 0.530495
0.989059 0.954055 0.530266
0.279438 0.891752 0.593668
0.278874 0.891691 0.592203
0.278492 0.891615 0.590753
0.278279 0.891447 0.589364
0.278248 0.891279 0.5879
0.278431 0.89102 0.586374
0.278706 0.890654 0.58407
0.278813 0.890166 0.58114
0.278843 0.889387 0.576211
0.27837 0.888731 0.569039
0.277974 0.887633 0.557717
0.278782 0.885924 0.541665
0.28127 0.88368 0.521248
0.288136 0.883085 0.496056
0.298482 0.883177 0.467353
0.336996 0.888228 0.428779
0.441337 0.90071 0.389853
0.582834 0.90901 0.375143
0.722042 0.919356 0.383291
0.816602 0.929442 0.402136
0.897093 0.938064 0.437751
0.938964 0.93962 0.466117
0.979904 0.947311 0.49897
0.99118 0.952972 0.519524
0.991562 0.953582 0.524865
0.991531 0.953597 0.525399
0.991455 0.953582 0.526162
0.99115 0.953628 0.526955
0.990585 0.953719 0.528008
0.989792 0.953857 0.529244
0.989227 0.953948 0.530205
0.988952 0.953994 0.530724
0.988952 0.953994 0.530739
0.279866 0.891859 0.595346
0.279377 0.891798 0.594079
0.278843 0.891737 0.592538
0.278416 0.891615 0.590799
0.278141 0.891508 0.589303
0.277989 0.891371 0.587671
0.277989 0.891096 0.585397
0.277974 0.890654 0.582086
0.277714 0.889998 0.577157
0.277409 0.889189 0.569879
0.277317 0.888029 0.558618
0.278279 0.886213 0.542367
0.280903 0.883787 0.521706
0.287984 0.883131 0.496254
0.298405 0.883207 0.467582
0.33666 0.888151 0.428824
0.442725 0.900755 0.389334
0.582361 0.90901 0.375113
0.722103 0.919448 0.383398
0.815045 0.929564 0.401511
0.895872 0.93814 0.437095
0.938277 0.939849 0.465522
0.978424 0.946685 0.497475
0.99115 0.95288 0.518822
0.991547 0.953567 0.524681
0.991516 0.953567 0.525231
0.99144 0.953567 0.525994
0.991135 0.953613 0.526802
0.99057 0.953704 0.527855
0.989792 0.953841 0.529107
0.989227 0.953933 0.530053
0.988922 0.953964 0.530755
0.988907 0.953964 0.530922
0.28014 0.891997 0.596414
0.279667 0.891875 0.595102
0.279118 0.891829 0.593805
0.278584 0.891722 0.592004
0.278172 0.891661 0.590341
0.277897 0.891539 0.588632
0.277729 0.891325 0.586328
0.277653 0.890883 0.58294
0.277485 0.890196 0.577874
0.277226 0.889311 0.570504
0.277302 0.888121 0.559045
0.27837 0.886244 0.542672
0.280964 0.883726 0.521614
0.288212 0.883146 0.496025
0.298756 0.883177 0.466987
0.338262 0.888334 0.427726
0.446159 0.901106 0.388571
0.585885 0.909148 0.375097
0.726085 0.919783 0.384039
0.816403 0.929915 0.401846
0.895598 0.938323 0.437293
