bundles/resolve-cinematic-luts/Phantom Luts/P4k & P6k Phntm Arri LUTs - V6/P4K/Gen 5 Colour/White Balance Offset (Magenta Boost)/P4k Utopia Gen 5-Legacy WBO.cube
TITLE "Generated by Resolve"
LUT_3D_SIZE 9
0.00622568 0.0319677 0.040528
0.0244755 0.0338293 0.0423743
0.0914626 0.0372473 0.0479896
0.280552 0.0480507 0.0637064
0.589715 0.085893 0.117586
0.833005 0.149905 0.193759
0.840803 0.154604 0.199863
0.843931 0.155749 0.201266
0.85005 0.154177 0.200427
0.00810254 0.0481117 0.0531167
0.0191348 0.0470588 0.0454719
0.0780041 0.0458534 0.0512398
0.260395 0.0472725 0.0571603
0.571984 0.0823529 0.104982
0.822248 0.146426 0.183261
0.830228 0.149691 0.188052
0.832395 0.150469 0.189349
0.840253 0.148547 0.188235
0.000869764 0.118944 0.0634775
0.002533 0.118547 0.0470283
0.0619364 0.118181 0.0329137
0.295689 0.0881361 0.0734417
0.571359 0.0988022 0.106661
0.824796 0.152728 0.17821
0.825452 0.153109 0.178164
0.825925 0.153399 0.178317
0.830289 0.152239 0.177325
0 0.33724 0.113939
0 0.341619 0.0924849
0.00355535 0.339803 0.0394598
0.248981 0.332586 0.0471809
0.712001 0.321386 0.18999
0.9411 0.341421 0.258549
0.938506 0.331563 0.255314
0.937804 0.329229 0.25449
0.938933 0.329503 0.254108
0.00820935 0.704051 0.320668
0.0103914 0.706844 0.305867
0.0209354 0.714321 0.261692
0.0914015 0.708568 0.0735943
0.640711 0.671748 0.136187
0.991638 0.765759 0.304524
0.990372 0.750698 0.314412
0.990036 0.749203 0.314473
0.990097 0.749706 0.315099
0.105409 0.999969 0.521721
0.101747 0.999969 0.511131
0.107546 0.999969 0.489448
0.157107 0.999969 0.409354
0.588098 0.999969 0.276356
0.970031 0.959426 0.367895
0.999969 0.962219 0.474449
0.999969 0.962188 0.474571
0.999969 0.962142 0.474922
0.0982681 0.999969 0.542947
0.100572 0.999969 0.534478
0.105303 0.999969 0.513695
0.150408 0.999969 0.432013
0.528359 0.999969 0.310002
0.948806 0.963043 0.391577
0.999969 0.963638 0.499733
0.999969 0.963745 0.50106
0.999969 0.963851 0.50135
0.101015 0.999969 0.550164
0.102342 0.999969 0.541466
0.108843 0.999969 0.521248
0.152895 0.999969 0.4365
0.523552 0.999969 0.30985
0.944274 0.962936 0.3906
0.999969 0.96347 0.499031
0.999969 0.963561 0.500206
0.999969 0.963653 0.50045
0.0931106 0.999969 0.549783
0.0969711 0.999969 0.541604
0.106569 0.999969 0.521538
0.153948 0.999969 0.435187
0.531868 0.999969 0.310933
0.945434 0.962661 0.391852
0.999969 0.96347 0.498787
0.999969 0.963561 0.499962
0.999969 0.96376 0.500221
0.00146487 0.0346685 0.0533455
0.0198367 0.033402 0.0594339
0.101747 0.0327611 0.0736706
0.315358 0.052842 0.0893873
0.622583 0.101289 0.144167
0.856596 0.157763 0.209827
0.866133 0.163775 0.217395
0.869429 0.16553 0.219821
0.876493 0.164019 0.218982
0.00688182 0.0432441 0.053254
0.0148775 0.0420844 0.0516365
0.0872358 0.0391089 0.0512245
0.276692 0.0484627 0.0641794
0.590402 0.0866712 0.118685
0.840375 0.148455 0.192905
0.848051 0.152911 0.198611
0.85066 0.154025 0.200137
0.856352 0.152621 0.199481
0.00453193 0.109407 0.0852979
0.00222782 0.111009 0.0646525
0.0589456 0.112123 0.0339971
0.290745 0.0779889 0.0677348
0.571801 0.0901961 0.104036
0.820508 0.147829 0.176913
0.8224 0.148852 0.177691
0.824399 0.14966 0.178958
0.829053 0.148547 0.178286
0 0.326604 0.136431
0 0.329854 0.114961
0 0.336767 0.054963
0.247242 0.327047 0.048249
0.711711 0.31107 0.190463
0.938415 0.331624 0.255283
0.935561 0.321721 0.251652
0.934783 0.319432 0.250736
0.936065 0.319722 0.25034
0.00459297 0.698436 0.334524
0.00624094 0.701152 0.320958
0.0153353 0.707179 0.280781
0.0843366 0.707835 0.0858625
0.639002 0.668772 0.136126
0.99086 0.757595 0.303548
0.98883 0.742657 0.312306
0.98883 0.741146 0.312642
0.988876 0.74168 0.313146
0.103258 0.999969 0.530419
0.099382 0.999969 0.520562
0.104585 0.999969 0.499763
0.151171 0.999969 0.417411
0.579355 0.999969 0.272221
0.969314 0.959487 0.364599
0.999969 0.962173 0.473915
0.999969 0.962127 0.472816
0.999969 0.962127 0.473167
0.0962997 0.999969 0.551781
0.0982223 0.999969 0.543282
0.102785 0.999969 0.523186
0.144457 0.999969 0.440009
0.516365 0.999969 0.30837
0.945983 0.963195 0.391089
0.999969 0.963684 0.500526
0.999969 0.96379 0.502022
0.999969 0.963882 0.502327
0.0944991 0.999969 0.557504
0.10042 0.999969 0.550317
0.10631 0.999969 0.530495
0.147951 0.999969 0.44538
0.510552 0.999969 0.308431
0.940963 0.963119 0.389258
0.999969 0.963516 0.500114
0.999969 0.963607 0.500999
0.999969 0.963912 0.501228
0.0914931 0.999969 0.558404
0.0964523 0.999969 0.551049
0.104417 0.999969 0.530648
0.149004 0.999969 0.444266
0.518959 0.999969 0.309422
0.942092 0.962966 0.390326
0.999969 0.963516 0.499901
0.999969 0.963623 0.500786
0.999969 0.963928 0.501015
0 0.0385901 0.114656
0.0142672 0.0380713 0.12079
0.0929427 0.0354162 0.12105
0.314412 0.0318303 0.133059
0.651484 0.103868 0.182757
0.886412 0.185504 0.256291
0.887327 0.185672 0.261143
0.888289 0.185611 0.262852
0.894148 0.183795 0.262699
0 0.0479744 0.0952621
0 0.0376745 0.108614
0.080827 0.035935 0.11191
0.309773 0.0381628 0.117067
0.654612 0.113222 0.172549
0.880262 0.172839 0.232593
0.883741 0.178454 0.240238
0.884901 0.180346 0.242695
0.890776 0.179202 0.242649
0.0047303 0.102022 0.110979
0.00489815 0.0999161 0.109545
0.0644999 0.0987259 0.10959
0.318791 0.0800946 0.0970016
0.593072 0.0895705 0.121004
0.838834 0.150591 0.194446
0.846387 0.154757 0.199985
0.848157 0.155581 0.201053
0.853727 0.154391 0.200488
0 0.308141 0.180346
0 0.309453 0.163027
0 0.315099 0.110842
0.243946 0.314473 0.0513924
0.716258 0.294148 0.191608
0.932113 0.311269 0.247395
0.928054 0.300359 0.242786
0.926085 0.297536 0.241291
0.926986 0.297536 0.240879
0 0.686061 0.361486
0 0.688228 0.348867
0.00447089 0.692805 0.316747
0.0658122 0.705287 0.116442
0.634974 0.661952 0.136034
0.988556 0.740856 0.301457
0.98645 0.725856 0.307912
0.986221 0.72401 0.308263
0.986267 0.724681 0.309148
0.0985733 0.999969 0.54815
0.0945449 0.999969 0.538857
0.0989548 0.999969 0.520195
0.138247 0.999969 0.434363
0.558679 0.999969 0.2636
0.967605 0.959228 0.357839
0.999969 0.962142 0.472831
0.999969 0.962066 0.47013
0.999969 0.962066 0.469825
0.0920882 0.999969 0.569451
0.0930648 0.999969 0.561349
0.0975204 0.999969 0.542489
0.133394 0.999969 0.460197
0.487114 0.999969 0.305867
0.938491 0.963836 0.389853
0.999969 0.96379 0.502647
0.999969 0.963897 0.504189
0.999969 0.964004 0.504494
0.0912032 0.999969 0.575891
0.0917678 0.999969 0.567712
0.101061 0.999969 0.549599
0.136324 0.999969 0.465721
0.480018 0.999969 0.305715
0.93341 0.964187 0.38793
0.999969 0.963561 0.500694
0.999969 0.963699 0.503334
0.999969 0.964004 0.503609
0.0882582 0.999969 0.577295
0.0894179 0.999969 0.569207
0.0992294 0.999969 0.550622
0.136934 0.999969 0.464775
0.488182 0.999969 0.306432
0.934691 0.96405 0.388571
0.999969 0.963485 0.499352
0.999969 0.963729 0.503197
0.999969 0.964065 0.503426
0 0.0504921 0.296681
0 0.0504311 0.300221
0.0668803 0.0464332 0.304784
0.299077 0.0390173 0.277104
0.619196 0.0284581 0.300542
0.858671 0.101503 0.350729
0.854963 0.0956283 0.356023
0.854246 0.093019 0.357717
0.862211 0.0888533 0.360113
0 0.0548867 0.290349
0 0.0503243 0.293614
0.0347601 0.0479286 0.305531
0.294331 0.0391852 0.271427
0.620951 0.0274662 0.29073
0.869688 0.117952 0.3402
0.866804 0.11223 0.346349
0.865873 0.109529 0.348577
0.873075 0.105623 0.350301
0 0.0884108 0.262058
0 0.0768444 0.274296
0 0.0641184 0.302327
0.284764 0.0437324 0.260639
0.619699 0.0409705 0.269718
0.887205 0.152895 0.320851
0.88719 0.150668 0.325856
0.887098 0.14963 0.327947
0.892943 0.147204 0.328878
0 0.285939 0.280476
0 0.284947 0.280018
0 0.279484 0.276066
0.279667 0.294179 0.304097
0.705928 0.262943 0.264988
0.916411 0.253254 0.270207
0.910445 0.239628 0.262562
0.909453 0.236637 0.261311
0.910704 0.23624 0.260777
0 0.651408 0.457969
0 0.652171 0.451804
0 0.652934 0.430655
0.0104677 0.668727 0.299031
0.630014 0.641199 0.193301
0.984634 0.681697 0.338689
0.984558 0.671122 0.336263
0.984512 0.66949 0.33695
0.984421 0.670405 0.337987
0.0802014 0.997284 0.6009
0.0745403 0.998367 0.593332
0.0750591 0.998596 0.576226
0.094316 0.999466 0.501488
0.443458 0.999969 0.249516
0.955581 0.949187 0.332692
0.999969 0.961578 0.472694
0.999969 0.960937 0.471427
0.999969 0.960739 0.471412
0.0863355 0.999969 0.63122
0.084596 0.999969 0.623972
0.0866102 0.999969 0.607324
0.102159 0.999969 0.537408
0.351675 0.999969 0.328435
0.9066 0.968673 0.38587
0.999969 0.96379 0.503243
0.999969 0.964263 0.511406
0.999969 0.964355 0.511574
0.085481 0.999969 0.638911
0.0839857 0.999969 0.631861
0.0871748 0.999969 0.614725
0.105928 0.999969 0.544259
0.342473 0.999969 0.331411
0.899214 0.968994 0.3841
0.999969 0.963043 0.492042
0.999969 0.96405 0.511299
0.999969 0.964355 0.511528
0.0827192 0.999969 0.641657
0.0829938 0.999969 0.634852
0.0856184 0.999969 0.61709
0.105974 0.999969 0.544869
0.34902 0.999969 0.330648
0.899809 0.968811 0.384253
0.999969 0.962951 0.489754
0.999969 0.964141 0.511452
0.999969 0.964446 0.511681
0 0.0754559 0.544854
0 0.0746777 0.547814
0.0197604 0.0722972 0.557733
0.281712 0.0636606 0.556649
0.594446 0.0652476 0.521553
0.84564 0.137636 0.544961
0.84564 0.143877 0.554757
0.846006 0.145098 0.558419
0.85127 0.144091 0.563134
0 0.0753338 0.541512
0 0.0755627 0.545464
0 0.0734569 0.55581
0.269596 0.0643778 0.559152
0.594568 0.0651713 0.520058
0.84593 0.133867 0.541054
0.846708 0.142962 0.549905
0.847669 0.146365 0.553628
0.852979 0.145892 0.558099
0 0.0827649 0.530022
0 0.0768597 0.536965
0 0.0754406 0.546685
0.232258 0.0652781 0.561028
0.590188 0.0657816 0.515099
0.841199 0.121569 0.52694
0.843107 0.128954 0.534463
0.843915 0.131975 0.537469
0.8495 0.131518 0.541665
0 0.282155 0.509819
0 0.276265 0.51519
0 0.258549 0.525628
0.0946517 0.20679 0.597955
0.621683 0.151659 0.548302
0.841199 0.103914 0.493629
0.831464 0.0893263 0.479423
0.830518 0.0877241 0.477501
0.839612 0.0867933 0.482094
0 0.621927 0.597436
0 0.621927 0.598596
0 0.620493 0.597635
0.00209049 0.610101 0.589853
0.606622 0.592096 0.597757
0.969146 0.604044 0.572473
0.974166 0.596063 0.564645
0.974044 0.593774 0.563088
0.973358 0.594034 0.56379
0.0820172 0.947921 0.741146
0.0759594 0.948898 0.738674
0.0723888 0.947829 0.72987
0.0668498 0.941619 0.687831
0.385962 0.972473 0.594858
0.926497 0.92163 0.541558
0.999969 0.917983 0.569574
0.999969 0.915587 0.567132
0.999969 0.91519 0.5673
0.120211 0.999969 0.79144
0.112062 0.999969 0.787564
0.10663 0.999969 0.77644
0.0953994 0.999969 0.727016
0.280278 0.999969 0.602441
0.858717 0.988159 0.540459
0.999969 0.966293 0.562646
0.999969 0.968353 0.602853
0.999969 0.96846 0.603479
0.119112 0.999969 0.800198
0.115587 0.999969 0.796689
0.109636 0.999969 0.784482
0.0974289 0.999969 0.732418
0.257954 0.999969 0.59823
0.843076 0.990127 0.536873
0.999969 0.961715 0.528572
0.999969 0.968231 0.600534
0.999969 0.968597 0.601801
0.118502 0.999969 0.804837
0.116579 0.999969 0.800702
0.111345 0.999969 0.788388
0.0980697 0.999969 0.73489
0.262257 0.999969 0.599847
0.842268 0.990463 0.539086
0.999969 0.960708 0.524208
0.999969 0.968429 0.601984
0.999969 0.968795 0.603326
0 0.135073 0.770672
0 0.13373 0.774472
0.0309758 0.132296 0.783551
0.242008 0.126482 0.805478
0.608133 0.132631 0.806409
0.809781 0.155978 0.797131
0.809995 0.159899 0.809293
0.811048 0.160967 0.813977
0.817945 0.158358 0.823713
0 0.136355 0.766384
0 0.134829 0.771099
0.00639353 0.133165 0.780148
0.227146 0.127199 0.805585
0.605493 0.13228 0.806989
0.809796 0.156268 0.795697
0.810742 0.161303 0.809262
0.811444 0.161822 0.813184
0.818845 0.159243 0.823407
0 0.136568 0.75201
0 0.135836 0.761334
0 0.133043 0.768643
0.189105 0.127886 0.801572
0.592432 0.129961 0.805417
0.806271 0.155795 0.78407
0.807065 0.164141 0.801251
0.808331 0.165393 0.806012
0.816587 0.162509 0.817426
0 0.19881 0.700648
0 0.191135 0.706554
0 0.171115 0.712016
0.00297551 0.138872 0.774487
0.527398 0.132235 0.7991
0.806607 0.140032 0.746929
0.805432 0.145495 0.750957
0.806683 0.147677 0.754528
0.814069 0.145892 0.76318
0 0.641016 0.818311
0 0.641489 0.823835
0 0.638972 0.828321
0 0.625971 0.844343
0.481239 0.586175 0.927535
0.950042 0.520409 0.865766
0.95227 0.506493 0.856245
0.951904 0.503807 0.854551
0.951461 0.504097 0.855314
0.100328 0.918135 0.876387
0.0923629 0.9196 0.878538
0.0903487 0.918379 0.877394
0.0987564 0.908965 0.868788
0.425635 0.89369 0.869474
0.882856 0.859709 0.859312
0.990753 0.868498 0.851316
0.990478 0.866041 0.849805
0.989776 0.866056 0.850431
0.282658 0.999969 0.940612
0.277928 0.999969 0.94049
0.272892 0.999969 0.937575
0.262531 0.999969 0.923598
0.399237 0.999969 0.893767
0.75996 0.999588 0.869123
0.997665 0.977111 0.816495
0.999146 0.979492 0.835981
0.999008 0.979614 0.837415
0.292439 0.999969 0.946441
0.286931 0.999969 0.946273
0.280888 0.999969 0.94316
0.266194 0.999969 0.927001
0.384344 0.999969 0.888289
0.738842 0.999634 0.867582
0.987854 0.978698 0.834348
0.999573 0.978439 0.809964
0.999237 0.97879 0.811612
0.293431 0.999969 0.949828
0.290639 0.999969 0.948821
0.284337 0.999969 0.945403
0.268711 0.999969 0.928695
0.38761 0.999969 0.889433
0.739361 0.999588 0.868894
0.986404 0.979568 0.834669
0.999573 0.978469 0.810147
0.999222 0.978866 0.812985
0 0.161532 0.822034
0.0202792 0.161349 0.828183
0.0716869 0.161135 0.838392
0.268284 0.158251 0.862562
0.636469 0.162936 0.866026
0.814099 0.170382 0.832761
0.814023 0.170657 0.832685
0.812421 0.171145 0.830381
0.818616 0.168307 0.838499
0 0.162173 0.815839
0 0.161517 0.823301
0.0484932 0.161288 0.834012
0.253788 0.158694 0.86154
0.63299 0.163073 0.867247
0.814511 0.171008 0.833448
0.814664 0.171389 0.833692
0.815137 0.170901 0.834272
0.82118 0.16817 0.841764
0 0.162371 0.802197
0 0.162387 0.811566
0 0.161532 0.823514
0.217731 0.159304 0.858244
0.617273 0.163287 0.870665
0.812955 0.173953 0.831434
0.812055 0.175006 0.830625
0.81265 0.17464 0.83122
0.81886 0.171847 0.839292
0 0.203174 0.768597
0 0.193683 0.770993
0 0.170428 0.764691
0.0409857 0.162448 0.833097
0.529976 0.160098 0.874098
0.817884 0.180514 0.838575
0.815213 0.183993 0.835248
0.815885 0.184268 0.836149
0.822232 0.181628 0.844419
0 0.654887 0.896254
0 0.655314 0.901137
0 0.651072 0.899962
0 0.625559 0.890745
0.452064 0.574319 0.995163
0.936263 0.511406 0.957931
0.938552 0.498024 0.952758
0.937957 0.495567 0.952239
0.936797 0.495949 0.953811
0.213443 0.911604 0.993637
0.210407 0.912093 0.995438
0.209705 0.910018 0.995438
0.201053 0.901564 0.9953
0.452659 0.900923 0.999084
0.824018 0.85713 0.993637
0.980362 0.826902 0.978485
0.980453 0.824567 0.978134
0.979995 0.824598 0.978607
0.408087 0.999969 0.996948
0.403662 0.999969 0.997543
0.399649 0.999969 0.997208
0.381765 0.999969 0.993378
0.462135 0.999954 0.9879
0.806699 0.988968 0.981903
0.986862 0.977554 0.975402
0.993561 0.978454 0.97348
0.992645 0.978439 0.974182
0.421775 0.999969 0.998383
0.419287 0.999969 0.998703
0.417594 0.999969 0.998596
0.396597 0.999969 0.995163
0.474678 0.999969 0.984802
0.806897 0.995438 0.985183
0.962631 0.990066 0.977584
0.993347 0.986847 0.966278
0.992508 0.987381 0.969589
0.422675 0.999969 0.998917
0.421759 0.999969 0.998917
0.420249 0.999969 0.99881
0.398856 0.999969 0.995682
0.475837 0.999969 0.9841
0.806394 0.995453 0.984649
0.958694 0.990341 0.977951
0.992142 0.987121 0.967819
0.99086 0.987366 0.969131
0.00910964 0.161563 0.824964
0.0327306 0.161242 0.830884
0.082948 0.160998 0.840208
0.278096 0.158099 0.86331
0.644511 0.162829 0.865049
0.812696 0.167941 0.830442
0.814389 0.171145 0.833326
0.813413 0.171237 0.831739
0.819379 0.168521 0.839384
0 0.161685 0.817639
0.00839246 0.161578 0.825879
0.0582437 0.161151 0.835737
0.263218 0.158343 0.862211
0.640742 0.16286 0.866224
0.813214 0.168719 0.831342
0.814969 0.171908 0.834165
0.815167 0.171527 0.834348
0.819959 0.169345 0.840253
0 0.162661 0.803388
0 0.162387 0.814298
0.00910964 0.161563 0.826032
0.22707 0.159228 0.859281
0.624796 0.163302 0.870237
0.81149 0.17142 0.82948
0.812436 0.175494 0.831205
0.813016 0.175051 0.831632
0.819074 0.172274 0.839689
0 0.198871 0.766979
0 0.188998 0.769299
0 0.165576 0.763622
0.0504616 0.161761 0.834501
0.53492 0.159426 0.873579
0.817288 0.178149 0.837949
0.81529 0.183993 0.835325
0.816114 0.1841 0.836439
0.822202 0.181552 0.844373
0 0.651057 0.894697
0 0.650721 0.899306
0 0.645029 0.897536
0 0.615457 0.887175
0.448631 0.56199 0.994736
0.933852 0.499886 0.955947
0.935317 0.485863 0.950698
0.935012 0.483818 0.950484
0.934203 0.484276 0.951827
0.254368 0.914778 0.997253
0.250156 0.914702 0.998062
0.24593 0.912734 0.998062
0.221744 0.900786 0.996811
0.446571 0.895918 0.999146
0.819715 0.850889 0.995834
0.979599 0.820005 0.981445
0.979309 0.817548 0.981094
0.978897 0.817731 0.981476
0.424994 0.999969 0.998779
0.423453 0.999969 0.999161
0.423896 0.999969 0.999176
0.401495 0.999969 0.999222
0.48716 0.998886 0.999451
0.838453 0.985534 0.993652
0.979477 0.975311 0.987762
0.991577 0.971145 0.985595
0.990753 0.970855 0.986099
0.427619 0.999969 0.998871
0.42591 0.999969 0.999146
0.425711 0.999969 0.999176
0.431312 0.999969 0.999222
0.52929 0.999969 0.998779
0.829084 0.994858 0.992706
0.973953 0.989456 0.988174
0.992218 0.988403 0.986923
0.990997 0.988647 0.987778
0.427619 0.999969 0.998871
0.42591 0.999969 0.999146
0.425711 0.999969 0.999176
0.431403 0.999969 0.999222
0.531945 0.999969 0.998734
0.827131 0.994919 0.992767
0.972183 0.989609 0.988617
0.991058 0.988632 0.987732
0.989563 0.988922 0.988708
0.0117952 0.161624 0.825635
0.0358282 0.161273 0.831556
0.0861677 0.160998 0.840757
0.281117 0.157977 0.863416
0.647456 0.16289 0.864759
0.812284 0.167132 0.829679
0.814511 0.171344 0.833509
0.813474 0.171359 0.83183
0.819425 0.168658 0.839475
0 0.161624 0.818372
0.0111086 0.161593 0.826535
0.0608377 0.161105 0.836225
0.266041 0.158328 0.862486
0.643702 0.162875 0.865904
0.812757 0.167941 0.830564
0.815061 0.172061 0.834302
0.815305 0.171618 0.834562
0.820035 0.169467 0.840375
0 0.162692 0.804181
0 0.162325 0.815
0.0116732 0.161639 0.826688
0.229831 0.159228 0.859556
0.627543 0.163333 0.870054
0.811124 0.170825 0.828885
0.812528 0.175662 0.831327
0.813092 0.175189 0.831754
0.81915 0.172396 0.839796
0 0.197879 0.766522
0 0.188083 0.769223
0 0.163806 0.764172
0.0533761 0.161761 0.835035
0.537057 0.159579 0.873594
0.816876 0.1776 0.837354
0.81532 0.184039 0.835355
0.816144 0.184131 0.836454
0.822232 0.181582 0.844388
0 0.649607 0.894102
0 0.649317 0.898726
0 0.643488 0.896956
0 0.613367 0.88658
0.448493 0.559106 0.994614
0.93341 0.497139 0.955215
0.934874 0.483391 0.950362
0.93431 0.481071 0.949889
0.933486 0.481529 0.951217
0.253101 0.914015 0.997177
0.248936 0.913985 0.998016
0.244022 0.911772 0.997986
0.21886 0.899626 0.996765
0.444938 0.894408 0.999039
0.819059 0.848585 0.995972
0.979232 0.817533 0.98117
0.979446 0.815503 0.980865
0.9794 0.815595 0.980896
0.425055 0.999969 0.998795
0.423713 0.999969 0.999161
0.423499 0.999969 0.999176
0.396246 0.999969 0.999207
0.485161 0.998428 0.999573
0.836515 0.98439 0.994034
0.978271 0.97435 0.988235
0.990982 0.969421 0.985763
0.990387 0.969131 0.986221
0.429786 0.999969 0.998398
0.428473 0.999969 0.998703
0.42826 0.999969 0.998734
0.433814 0.999969 0.99884
0.530678 0.999969 0.998566
0.832166 0.994736 0.992355
0.977188 0.989059 0.987549
0.991196 0.988602 0.98764
0.991196 0.988602 0.98764
0.427924 0.999969 0.99881
0.42591 0.999969 0.999146
0.425711 0.999969 0.999176
0.431434 0.999969 0.999237
0.530694 0.999969 0.999054
0.829816 0.995056 0.993713
0.969589 0.990021 0.989975
0.989364 0.988952 0.988846
0.990799 0.988693 0.987915
