bundles/resolve-cinematic-luts/Phantom Luts/P4k & P6k Phntm Arri LUTs - V6/P4K/Gen 5 Colour/White Balance Offset (Magenta Boost)/P4k Neutral Gen 5-Legacy WBO.cube
TITLE "Generated by Resolve"
LUT_3D_SIZE 9
0.0183566 0.0182498 0.0183261
0.0449378 0.0230106 0.020737
0.124376 0.0318151 0.0332952
0.320226 0.0518196 0.0716411
0.642039 0.0914778 0.146899
0.925017 0.128969 0.213107
0.933211 0.132357 0.218158
0.935866 0.133242 0.219562
0.936507 0.133471 0.219913
0.0225071 0.0437171 0.0339818
0.0361486 0.0423438 0.0237736
0.10779 0.0420539 0.0345312
0.297154 0.049958 0.0607462
0.616587 0.0880293 0.131182
0.908156 0.12726 0.201373
0.917784 0.12929 0.205722
0.920653 0.130022 0.207172
0.92137 0.130205 0.207538
0.0271611 0.122988 0.0581826
0.0281376 0.121828 0.0434272
0.0896468 0.121721 0.0259861
0.322011 0.0953231 0.071519
0.607034 0.104143 0.12752
0.908919 0.133639 0.193149
0.909865 0.134203 0.193072
0.910292 0.134386 0.193133
0.910369 0.134432 0.193133
0.0416266 0.328222 0.140047
0.0373083 0.330678 0.12282
0.0419318 0.327932 0.0778515
0.251881 0.334722 0.0437324
0.725383 0.321798 0.1776
0.996094 0.326528 0.233951
0.995407 0.313985 0.231815
0.995193 0.310338 0.23122
0.995132 0.309285 0.231037
0.0635386 0.672099 0.336782
0.0642863 0.672129 0.323171
0.0666514 0.674174 0.288151
0.094255 0.664714 0.121462
0.590356 0.684443 0.0961318
1 0.778592 0.258396
1 0.759991 0.267277
1 0.757061 0.266804
1 0.756222 0.266682
0.13164 0.996201 0.522637
0.132876 0.995789 0.514214
0.135729 0.994919 0.495018
0.172122 0.98912 0.429221
0.518273 0.984955 0.294606
0.91751 0.98735 0.303471
0.992172 0.988296 0.427359
0.992172 0.988296 0.427222
0.992172 0.988296 0.427085
0.128801 0.997253 0.540749
0.130129 0.996765 0.532708
0.132769 0.995834 0.514992
0.163485 0.989532 0.445289
0.467369 0.987427 0.337224
0.893095 0.986831 0.335286
0.992157 0.988327 0.459724
0.992157 0.988327 0.461158
0.992157 0.988327 0.461509
0.127947 0.997559 0.546273
0.129213 0.997101 0.538201
0.131975 0.996094 0.520592
0.161059 0.989654 0.44918
0.453468 0.987961 0.336416
0.88481 0.986786 0.332799
0.992157 0.988327 0.45832
0.992157 0.988327 0.459892
0.992157 0.988327 0.460243
0.127779 0.997635 0.547723
0.128985 0.997177 0.53959
0.131762 0.99617 0.521889
0.1608 0.98967 0.449683
0.453147 0.987961 0.3364
0.883909 0.986786 0.332525
0.992157 0.988327 0.457984
0.992157 0.988327 0.45951
0.992157 0.988327 0.459907
0.0190433 0.0205386 0.0381476
0.0449989 0.0204166 0.04271
0.140749 0.0248264 0.0671397
0.354192 0.0580758 0.10338
0.677089 0.105165 0.173449
0.947509 0.137194 0.231525
0.956954 0.141955 0.238056
0.959335 0.143435 0.239994
0.95993 0.143801 0.240497
0.021912 0.0360571 0.0354772
0.0332189 0.0340276 0.0343481
0.118715 0.0331426 0.0355383
0.313726 0.0516518 0.0709239
0.638132 0.0912795 0.146334
0.925994 0.129381 0.213519
0.934173 0.132708 0.218509
0.936843 0.133593 0.219913
0.937484 0.133822 0.220279
0.0309606 0.112779 0.0760052
0.0275425 0.113725 0.057023
0.086717 0.11516 0.0263218
0.318105 0.0833906 0.067216
0.608927 0.0940108 0.126207
0.902129 0.12958 0.193439
0.904494 0.130358 0.194247
0.906828 0.1308 0.19559
0.907393 0.130892 0.195926
0.0433509 0.318517 0.155947
0.0408179 0.319677 0.138537
0.0371862 0.324346 0.0915999
0.250187 0.328969 0.0443122
0.724529 0.310613 0.177966
0.995453 0.314717 0.231937
0.99472 0.302403 0.229877
0.994476 0.298436 0.229267
0.9944 0.297414 0.229068
0.0621042 0.667002 0.347356
0.0627146 0.667002 0.335027
0.0649882 0.667643 0.302968
0.0902724 0.662654 0.134569
0.588418 0.680446 0.0965591
1 0.767849 0.258091
1 0.750256 0.265461
1 0.746883 0.264851
1 0.745892 0.264622
0.13051 0.996628 0.530831
0.131624 0.996216 0.522927
0.134463 0.9953 0.504723
0.167407 0.988724 0.43624
0.508324 0.98526 0.2907
0.915801 0.987274 0.298451
0.992172 0.988296 0.426001
0.992172 0.988296 0.424353
0.992172 0.988296 0.424201
0.127642 0.997711 0.549126
0.12874 0.997253 0.5411
0.131548 0.996262 0.523812
0.158755 0.989746 0.452277
0.454887 0.9879 0.336522
0.889342 0.986816 0.334936
0.992157 0.988327 0.460929
0.992157 0.988327 0.462348
0.992157 0.988327 0.46273
0.127138 0.998016 0.554574
0.127901 0.997574 0.546654
0.130648 0.996567 0.529458
0.157198 0.990311 0.457191
0.44004 0.988464 0.335851
0.880186 0.98677 0.33138
0.992157 0.988327 0.459739
0.992157 0.988327 0.461067
0.992157 0.988327 0.461341
0.127001 0.998093 0.555978
0.127749 0.99765 0.548074
0.130571 0.996612 0.53051
0.157 0.990372 0.457832
0.439597 0.988479 0.335851
0.879255 0.986755 0.331075
0.992157 0.988327 0.459419
0.992157 0.988327 0.460792
0.992157 0.988327 0.461082
0.019913 0.0204013 0.113741
0.0597238 0.0227512 0.115633
0.137163 0.0271 0.11841
0.361807 0.0311284 0.154772
0.712428 0.106294 0.216648
0.971832 0.163806 0.280644
0.972793 0.162875 0.285191
0.973068 0.162631 0.286473
0.973144 0.16257 0.286763
0.0215305 0.0361639 0.0932937
0.0213779 0.0199283 0.105135
0.121889 0.0265812 0.106691
0.349905 0.0384833 0.13518
0.709041 0.115236 0.202884
0.971557 0.15172 0.255299
0.971588 0.157198 0.262577
0.971588 0.158801 0.264637
0.971588 0.159258 0.265232
0.0315099 0.10457 0.101106
0.0312505 0.101854 0.0993362
0.0996872 0.0985275 0.102083
0.347875 0.0852522 0.106203
0.632685 0.0926528 0.147387
0.928542 0.13048 0.215045
0.936919 0.133623 0.219867
0.939422 0.134539 0.221317
0.940063 0.134768 0.221698
0.0426337 0.302785 0.188861
0.0427253 0.30219 0.174304
0.0413672 0.303883 0.134646
0.247684 0.316625 0.0462043
0.730892 0.294423 0.179294
0.994003 0.291432 0.228031
0.991745 0.278401 0.225513
0.989899 0.274464 0.224582
0.989349 0.273335 0.224323
0.0590677 0.656703 0.369192
0.0597543 0.656367 0.357321
0.0612192 0.656275 0.331014
0.0808728 0.658656 0.165362
0.584405 0.672541 0.0974594
1 0.747082 0.257603
1 0.730739 0.261357
1 0.727047 0.260761
1 0.725948 0.26067
0.127825 0.99762 0.547356
0.128969 0.997177 0.539681
0.131624 0.996231 0.52311
0.157107 0.988067 0.449485
0.48867 0.984741 0.28368
0.912856 0.987152 0.289464
0.992172 0.988296 0.424262
0.992172 0.988296 0.420203
0.992187 0.988296 0.419135
0.12575 0.998718 0.565637
0.126772 0.998199 0.5579
0.128725 0.997269 0.541222
0.151904 0.991714 0.469703
0.428031 0.988922 0.335409
0.880705 0.98677 0.334829
0.992142 0.988327 0.463478
0.992142 0.988327 0.46482
0.992142 0.988327 0.465156
0.125566 0.998947 0.571221
0.125994 0.998596 0.563439
0.127901 0.997574 0.546609
0.149828 0.992401 0.474449
0.411826 0.989517 0.3346
0.871107 0.986709 0.331624
0.992157 0.988327 0.460899
0.992142 0.988327 0.463661
0.992142 0.988327 0.463981
0.125505 0.998993 0.572702
0.125841 0.998672 0.564874
0.127764 0.997635 0.547921
0.14963 0.992508 0.474983
0.411215 0.989548 0.334585
0.87013 0.986709 0.331106
0.992157 0.988327 0.458854
0.992157 0.988327 0.463386
0.992142 0.988327 0.463691
0.0427405 0.0225834 0.314855
0.073579 0.0241398 0.313359
0.154406 0.0275731 0.314733
0.360967 0.0333715 0.308431
0.72871 0.00799573 0.369421
0.981949 0.0494545 0.41442
0.982834 0.0428626 0.421881
0.983063 0.0411383 0.423804
0.983108 0.0406653 0.424323
0.0207218 0.0277409 0.309697
0.042649 0.0226596 0.307912
0.124529 0.0261845 0.31194
0.352636 0.0328527 0.299611
0.725673 0.00471504 0.356634
0.983307 0.0749371 0.392935
0.984237 0.0677806 0.400916
0.984482 0.0655528 0.403326
0.984558 0.0649577 0.403967
0.0187076 0.065156 0.279652
0.0201419 0.0504768 0.288472
0.0572976 0.0352178 0.308705
0.335714 0.0361181 0.283375
0.701701 0.0246738 0.324239
0.991028 0.118105 0.361349
0.992584 0.115572 0.366979
0.993057 0.114672 0.368765
0.993164 0.114488 0.369146
0.0416114 0.282567 0.274037
0.0415045 0.280583 0.272511
0.0419165 0.274693 0.268971
0.306844 0.289647 0.303822
0.728298 0.257954 0.280995
0.987137 0.22594 0.28101
0.984268 0.211765 0.274983
0.983383 0.207477 0.273365
0.983169 0.206149 0.272557
0.060853 0.627298 0.452735
0.0598917 0.626566 0.445609
0.0575723 0.624781 0.427222
0.0675212 0.626932 0.319844
0.589242 0.646494 0.175235
1 0.681559 0.305287
1 0.669154 0.298116
1 0.665522 0.297215
1 0.664408 0.296925
0.116167 0.982238 0.598474
0.115846 0.981659 0.591516
0.115648 0.979858 0.57557
0.12694 0.97377 0.508598
0.383307 0.981888 0.280324
0.89807 0.977539 0.258427
0.992187 0.987564 0.42388
0.992203 0.986786 0.421592
0.992203 0.986557 0.420981
0.124025 1 0.626291
0.124102 1 0.619074
0.124453 0.999832 0.603738
0.131853 0.997177 0.540841
0.310094 0.990784 0.358801
0.843 0.987564 0.336858
0.992142 0.988327 0.464942
0.992142 0.988342 0.473655
0.992142 0.988342 0.473793
0.124193 1 0.632334
0.12398 1 0.625269
0.124331 0.999985 0.609339
0.131258 0.997452 0.545815
0.294163 0.990768 0.360723
0.831144 0.98706 0.335332
0.992157 0.988312 0.449714
0.992142 0.988342 0.473289
0.992142 0.988342 0.473442
0.124224 1 0.633936
0.124071 1 0.626673
0.1243 1 0.610697
0.131212 0.997482 0.546609
0.293324 0.990768 0.360662
0.829007 0.986984 0.334585
0.992157 0.988312 0.446387
0.992142 0.988342 0.473182
0.992142 0.988342 0.47335
0.08365 0.032517 0.59469
0.10959 0.033463 0.591699
0.170047 0.0355535 0.592569
0.388327 0.0431373 0.595529
0.70724 0.0398718 0.604929
0.966613 0.123735 0.636149
0.96408 0.125887 0.644755
0.964096 0.124605 0.647913
0.964096 0.124269 0.648737
0.0559091 0.0311284 0.593637
0.0836194 0.0322728 0.590387
0.14464 0.0345464 0.589899
0.374929 0.0426642 0.593576
0.70161 0.0395666 0.599405
0.971679 0.114336 0.631052
0.966613 0.123995 0.63621
0.965179 0.126604 0.637598
0.964797 0.127321 0.637964
0.0212558 0.039704 0.583551
0.0334936 0.0311894 0.588342
0.0920119 0.0323796 0.584802
0.3411 0.0415045 0.589578
0.689677 0.0403296 0.588952
0.979065 0.0953841 0.619608
0.976165 0.103426 0.624338
0.975326 0.105684 0.62565
0.975097 0.106279 0.626001
0 0.239078 0.568765
0 0.231434 0.57435
0 0.211444 0.585748
0.21178 0.160296 0.601144
0.683864 0.118074 0.592203
1 0.0547341 0.584222
1 0.036408 0.574044
1 0.0317082 0.57142
1 0.0320745 0.571679
0.0582132 0.599878 0.586007
0.0579538 0.59855 0.585382
0.0575265 0.595773 0.583597
0.0619364 0.582559 0.57557
0.610147 0.580163 0.599893
0.98146 0.601526 0.588144
0.981903 0.591821 0.57995
0.982162 0.588388 0.577676
0.982193 0.587457 0.577203
0.130327 0.934569 0.740261
0.128801 0.933333 0.736385
0.125643 0.931105 0.727413
0.120775 0.92192 0.687617
0.420508 0.925994 0.618433
0.892531 0.933913 0.529091
0.994156 0.933303 0.552544
0.994278 0.930465 0.549081
0.994308 0.929625 0.548241
0.163958 0.999451 0.791684
0.16173 0.999222 0.786603
0.156558 0.998749 0.775753
0.140642 0.998459 0.728954
0.307256 0.996826 0.615976
0.805264 0.984344 0.535653
0.992096 0.988388 0.539467
0.992065 0.988403 0.582803
0.992065 0.988403 0.582574
0.166796 0.999512 0.797452
0.164508 0.999451 0.79292
0.159304 0.998978 0.781415
0.141161 0.998367 0.732692
0.272618 0.997681 0.605768
0.784573 0.98291 0.531411
0.980743 0.984619 0.494743
0.992065 0.988403 0.577874
0.992065 0.988403 0.577661
0.16762 0.999588 0.799191
0.165255 0.999466 0.794171
0.160021 0.999039 0.782727
0.141283 0.998352 0.733425
0.267277 0.997757 0.603403
0.780926 0.982651 0.529915
0.97583 0.98291 0.485374
0.992081 0.988403 0.576669
0.992081 0.988403 0.576471
0.157885 0.0871138 0.879179
0.177966 0.0860914 0.877592
0.225757 0.0870222 0.878691
0.403113 0.0909895 0.895537
0.760571 0.0980697 0.92842
0.972137 0.103304 0.959655
0.972091 0.102907 0.959762
0.972076 0.102831 0.959716
0.972076 0.102815 0.959716
0.136995 0.0864881 0.876692
0.155993 0.0850996 0.87509
0.202121 0.0852674 0.87483
0.387503 0.0897383 0.891524
0.750973 0.0964218 0.924147
0.971832 0.101549 0.954803
0.972274 0.104143 0.960388
0.972259 0.104128 0.960388
0.972259 0.104128 0.960388
0.0952163 0.0844282 0.871977
0.11516 0.0837262 0.870314
0.155459 0.0816663 0.867506
0.352178 0.0877394 0.883223
0.730144 0.0934157 0.914748
0.971176 0.0980545 0.943175
0.972488 0.105806 0.960296
0.97261 0.106477 0.961547
0.97261 0.106508 0.961547
0.00077821 0.140505 0.810941
0.00395209 0.129564 0.812161
0.00936904 0.109819 0.818097
0.191165 0.0813001 0.856229
0.650843 0.0939498 0.887861
0.969711 0.0923323 0.897505
0.970306 0.0957961 0.904631
0.970489 0.0968643 0.907134
0.97055 0.0971389 0.907774
0 0.601724 0.885039
0 0.598581 0.887877
0 0.592462 0.895262
0 0.568689 0.932174
0.556023 0.525673 0.935042
0.990524 0.488243 0.91223
0.991638 0.471565 0.903944
0.992004 0.46656 0.901869
0.992081 0.465202 0.901442
0.143984 0.905791 0.881514
0.142702 0.904555 0.880552
0.140124 0.902098 0.878584
0.150027 0.891264 0.86981
0.470954 0.875624 0.8692
0.882918 0.855817 0.873137
0.987182 0.866743 0.864897
0.986954 0.864027 0.863355
0.986893 0.863249 0.862806
0.342885 1 0.940703
0.340902 1 0.939315
0.3364 1 0.936446
0.325948 0.999954 0.924071
0.452857 0.996674 0.89958
0.784482 0.991363 0.889601
0.986374 0.986236 0.824659
0.991623 0.987686 0.845685
0.991623 0.987686 0.845945
0.350408 1 0.945251
0.347936 1 0.943648
0.342611 1 0.940536
0.32781 1 0.926116
0.430045 0.996704 0.891676
0.76051 0.991608 0.885191
0.974182 0.986587 0.841856
0.991791 0.988006 0.811826
0.991791 0.988006 0.81178
0.352148 1 0.946395
0.349813 1 0.944869
0.344198 1 0.941421
0.328344 1 0.926589
0.426123 0.996658 0.890166
0.756878 0.991623 0.88336
0.972259 0.987381 0.838285
0.991806 0.988037 0.807965
0.991806 0.988022 0.809369
0.193149 0.099855 0.902556
0.213046 0.100618 0.904265
0.257496 0.102754 0.90869
0.42771 0.107103 0.926619
0.786786 0.11075 0.95523
0.972442 0.105318 0.960983
0.97232 0.104524 0.960586
0.97229 0.10425 0.960433
0.972274 0.104189 0.960403
0.172015 0.099443 0.900435
0.192737 0.0998398 0.902525
0.236332 0.101717 0.906279
0.411688 0.107012 0.924758
0.776852 0.111269 0.954711
0.972534 0.105943 0.961288
0.972473 0.105577 0.961105
0.972442 0.105348 0.960998
0.972442 0.105303 0.960983
0.131121 0.0985275 0.896452
0.151751 0.0990311 0.89839
0.193149 0.099855 0.902556
0.378744 0.106783 0.921202
0.754742 0.112535 0.953811
0.972717 0.10724 0.961913
0.972747 0.107439 0.96202
0.972717 0.107317 0.961959
0.972717 0.107301 0.961944
0.0313573 0.141054 0.881498
0.0310216 0.130816 0.877317
0.0305486 0.107546 0.869551
0.228748 0.101472 0.905852
0.663569 0.109575 0.947906
0.973602 0.113527 0.964614
0.973938 0.116014 0.965774
0.973999 0.116335 0.965972
0.973999 0.116426 0.966003
0 0.599954 1
0 0.596979 1
0 0.5897 1
0 0.555184 1
0.545434 0.503639 0.990784
0.990539 0.466575 0.990539
0.99057 0.450263 0.99057
0.99057 0.445869 0.99057
0.990585 0.444724 0.99057
0.282292 0.890028 1
0.281727 0.889006 1
0.27863 0.886229 1
0.268757 0.875731 1
0.50248 0.863386 0.9991
0.854109 0.837674 0.990875
0.99089 0.815259 0.99089
0.99089 0.811368 0.99089
0.99089 0.810346 0.99089
0.476493 0.997803 0.99527
0.472679 0.99794 0.994797
0.468086 0.998123 0.994217
0.448737 0.998978 0.989456
0.512062 0.992844 0.98381
0.82768 0.983169 0.982147
0.985122 0.979141 0.983063
0.990768 0.980896 0.982238
0.990768 0.980575 0.98201
0.481422 0.99762 0.995895
0.481422 0.99762 0.995895
0.481422 0.99762 0.995895
0.463218 0.998383 0.99144
0.519265 0.996551 0.980499
0.827802 0.991318 0.985397
0.966323 0.990951 0.984787
0.990829 0.990463 0.975235
0.991028 0.990753 0.977295
0.481422 0.99762 0.995895
0.481422 0.99762 0.995895
0.481422 0.99762 0.995895
0.464698 0.998306 0.991943
0.514977 0.996674 0.978897
0.82417 0.991333 0.984421
0.96289 0.990951 0.983841
0.990784 0.990402 0.974777
0.990707 0.990295 0.973999
0.200595 0.100221 0.90338
0.221637 0.10103 0.905104
0.264927 0.102968 0.909087
0.433921 0.107088 0.927138
0.793332 0.110399 0.955581
0.971923 0.101732 0.959228
0.972412 0.10515 0.960906
0.972366 0.104814 0.960739
0.972351 0.104723 0.960678
0.180606 0.0995804 0.901183
0.200153 0.100221 0.903334
0.243107 0.102052 0.907027
0.418051 0.107088 0.925521
0.7832 0.110933 0.955062
0.972061 0.102663 0.95964
0.972534 0.106004 0.961318
0.972503 0.105791 0.961181
0.972503 0.105745 0.961166
0.138964 0.0988174 0.897292
0.15906 0.0992447 0.899199
0.200595 0.100221 0.90338
0.385 0.106889 0.921981
0.760693 0.112215 0.954131
0.972305 0.104372 0.960494
0.972808 0.107897 0.962249
0.972778 0.107713 0.962158
0.972778 0.107683 0.962142
0.0312505 0.137331 0.879988
0.0310063 0.126665 0.875883
0.0307012 0.10309 0.868406
0.23566 0.101686 0.906218
0.667506 0.109529 0.948089
0.973327 0.11162 0.964034
0.973953 0.116045 0.965789
0.973983 0.116304 0.965957
0.973999 0.116381 0.965988
0 0.593515 1
0 0.589746 1
0 0.581521 1
0 0.544121 1
0.542519 0.492226 0.990829
0.990555 0.454566 0.990555
0.9906 0.4374 0.990585
0.9906 0.433066 0.9906
0.9906 0.431937 0.9906
0.311177 0.890608 1
0.308888 0.889097 1
0.303716 0.88603 1
0.279561 0.872206 1
0.494728 0.856123 0.999146
0.851347 0.829328 0.99086
0.99089 0.807218 0.99089
0.99089 0.803571 0.990875
0.99089 0.802777 0.990875
0.481422 0.99762 0.995895
0.481422 0.99762 0.995895
0.481422 0.99762 0.995895
0.457984 0.996445 0.99649
0.529931 0.987045 0.996658
0.856321 0.980392 0.991363
0.980423 0.976287 0.990936
0.990936 0.971969 0.990936
0.990936 0.971374 0.990936
0.481422 0.99762 0.995895
0.481422 0.99762 0.995895
0.481422 0.99762 0.995895
0.486061 0.997452 0.996017
0.567559 0.994965 0.995285
0.847181 0.990951 0.991241
0.974884 0.99089 0.990951
0.990936 0.990936 0.990936
0.990936 0.990936 0.990936
0.481422 0.99762 0.995895
0.481422 0.99762 0.995895
0.481422 0.99762 0.995895
0.486 0.997452 0.996017
0.565835 0.99501 0.995331
0.84242 0.990982 0.991257
0.973587 0.990875 0.990951
0.990936 0.990936 0.990936
0.990936 0.990936 0.990936
0.202289 0.100313 0.903578
0.223438 0.101167 0.905348
0.266865 0.103029 0.909255
0.435462 0.107057 0.927184
0.794995 0.110307 0.955627
0.971801 0.100893 0.958709
0.972442 0.105318 0.960983
0.972381 0.104952 0.9608
0.972366 0.10486 0.960754
0.182498 0.0996262 0.901396
0.201892 0.100298 0.903563
0.244648 0.102159 0.907256
0.419654 0.107088 0.925704
0.784833 0.110857 0.955139
0.971939 0.101839 0.959274
0.972549 0.106126 0.961364
0.972519 0.105882 0.961242
0.972519 0.105837 0.961227
0.140978 0.0988937 0.897551
0.160937 0.0992752 0.899397
0.202304 0.100298 0.903578
0.386587 0.10692 0.922148
0.762234 0.112139 0.954208
0.972198 0.103624 0.960128
0.972824 0.108019 0.96231
0.972793 0.10782 0.962219
0.972793 0.107774 0.962188
0.0310521 0.136431 0.879408
0.0311437 0.125658 0.875715
0.0339971 0.100999 0.868421
0.237339 0.101778 0.906416
0.668574 0.10959 0.94818
0.973266 0.111086 0.963821
0.973953 0.116045 0.965789
0.973983 0.116304 0.965957
0.973999 0.116381 0.965988
0 0.591485 1
0 0.587671 1
0 0.579385 1
0 0.541512 1
0.541863 0.489219 0.990845
0.99057 0.451423 0.990555
0.9906 0.434043 0.9906
0.990616 0.429786 0.9906
0.990616 0.428534 0.990616
0.309575 0.889616 1
0.307332 0.888121 1
0.301549 0.884794 1
0.27689 0.870695 1
0.49276 0.854246 0.999161
0.850385 0.826932 0.99086
0.99089 0.804547 0.990875
0.99089 0.801343 0.990875
0.990875 0.800366 0.990875
0.481422 0.99762 0.995895
0.481422 0.99762 0.995895
0.481422 0.99762 0.995895
0.453223 0.995773 0.996521
0.528069 0.985748 0.996765
0.854902 0.978943 0.991409
0.980209 0.975113 0.990936
0.990936 0.970199 0.990936
0.990936 0.969619 0.990936
0.481422 0.99762 0.995895
0.481422 0.99762 0.995895
0.481422 0.99762 0.995895
0.486152 0.997452 0.996033
0.5673 0.99498 0.9953
0.847318 0.990951 0.991241
0.97731 0.99089 0.990951
0.990936 0.990936 0.990936
0.990936 0.990936 0.990936
0.481422 0.99762 0.995895
0.481422 0.99762 0.995895
0.481422 0.99762 0.995895
0.486061 0.997452 0.996017
0.56556 0.995026 0.995346
0.844862 0.990967 0.991241
0.973266 0.990875 0.990951
0.990936 0.990936 0.990936
0.990936 0.990936 0.990936
