bundles/resolve-cinematic-luts/Phantom Luts/P4k & P6k Phntm Arri LUTs - V6/P4K/Gen 5 Colour/White Balance Offset (Magenta Boost)/P4k Tungsten Gen 5-Legacy WBO.cube
TITLE "Generated by Resolve"
LUT_3D_SIZE 33
0.0172885 0.0162966 0.0215305
0.0172885 0.0162966 0.0215305
0.0172885 0.0162966 0.0215305
0.0192416 0.0168307 0.0219883
0.0322271 0.0193484 0.0250706
0.0431067 0.0221561 0.027924
0.0592966 0.0249638 0.0313878
0.0804608 0.0281682 0.0356146
0.105516 0.0319677 0.0408179
0.137606 0.0366064 0.0477913
0.180972 0.0425574 0.0575875
0.237095 0.049546 0.0695506
0.306157 0.0565805 0.0843977
0.37995 0.0657359 0.102007
0.460868 0.077348 0.123598
0.547539 0.0911727 0.147036
0.64094 0.109514 0.174655
0.735088 0.135012 0.208927
0.800931 0.166049 0.243946
0.819745 0.177874 0.25687
0.822263 0.179812 0.259129
0.824292 0.181415 0.260899
0.825864 0.182589 0.262364
0.826963 0.183413 0.263401
0.827771 0.184024 0.264179
0.828367 0.184466 0.264744
0.828748 0.184726 0.26511
0.829007 0.184894 0.265385
0.829236 0.185031 0.265644
0.829557 0.185214 0.266117
0.829892 0.185428 0.266667
0.830274 0.185641 0.267292
0.830488 0.185809 0.267643
0.0172885 0.0163424 0.021622
0.0172885 0.0163119 0.0215457
0.0172885 0.0162966 0.0215305
0.0179599 0.0166934 0.0217288
0.0278325 0.0195926 0.0238651
0.0384833 0.0229648 0.0261234
0.0520638 0.0262455 0.0287327
0.0735943 0.0286717 0.0324712
0.0982071 0.0313268 0.0368658
0.12958 0.0348669 0.0435492
0.172061 0.0399023 0.0524147
0.226886 0.04654 0.0639811
0.297078 0.0543069 0.0788739
0.372061 0.0636606 0.0966049
0.453559 0.0752728 0.118181
0.542107 0.0898451 0.143236
0.636362 0.10811 0.171069
0.731594 0.133989 0.205844
0.79852 0.164965 0.241382
0.817884 0.176959 0.25452
0.82005 0.178408 0.256474
0.822003 0.179828 0.258289
0.823468 0.180957 0.259571
0.824582 0.181842 0.260533
0.825376 0.182467 0.261204
0.82594 0.18291 0.261769
0.826337 0.1832 0.262135
0.826658 0.183429 0.262455
0.826917 0.183627 0.26276
0.827253 0.183841 0.263264
0.827604 0.18407 0.263828
0.828122 0.18439 0.264729
0.828656 0.184726 0.265675
0.0186618 0.0214084 0.0266575
0.0186313 0.0215915 0.0269017
0.0183261 0.0210422 0.0263218
0.0182345 0.0202487 0.0252384
0.0234379 0.0223087 0.0258946
0.0348974 0.0263523 0.0278325
0.0464637 0.0285191 0.0293431
0.0664988 0.0305028 0.0324559
0.0926375 0.0323033 0.0366979
0.124254 0.035172 0.0428626
0.166629 0.0396887 0.0509804
0.221012 0.0458991 0.061738
0.290486 0.053315 0.0756847
0.364523 0.062501 0.0926833
0.446128 0.0737163 0.113787
0.536126 0.0886702 0.139467
0.631113 0.106996 0.167452
0.727626 0.132937 0.202747
0.796124 0.163882 0.238895
0.81593 0.175998 0.252186
0.818128 0.177508 0.254078
0.819821 0.178622 0.255604
0.821225 0.179644 0.256947
0.822309 0.180407 0.257969
0.823087 0.180957 0.258671
0.823636 0.181353 0.259129
0.824018 0.181643 0.259434
0.824323 0.181872 0.259709
0.824567 0.18204 0.260014
0.824887 0.182254 0.260441
0.825223 0.182498 0.260899
0.825757 0.182818 0.261814
0.826322 0.183154 0.262776
0.0222477 0.0327611 0.035172
0.0222171 0.0329442 0.0354925
0.0217136 0.0321355 0.0339513
0.0213626 0.0305486 0.0308995
0.025391 0.0300908 0.0283665
0.0360571 0.032578 0.0306706
0.0476844 0.0364385 0.034165
0.063859 0.0353552 0.0346075
0.0885176 0.0351415 0.0376745
0.120623 0.0370794 0.0433204
0.1635 0.0406043 0.0510567
0.21767 0.0463111 0.0614481
0.285832 0.0530861 0.0738689
0.359701 0.0623026 0.0906539
0.440177 0.0731975 0.110658
0.529519 0.0874342 0.135134
0.625986 0.10576 0.16405
0.723674 0.131716 0.199405
0.79321 0.162646 0.235874
0.813733 0.17499 0.249744
0.816068 0.176547 0.251698
0.817731 0.177691 0.253117
0.818936 0.178454 0.254185
0.820035 0.179171 0.255177
0.820752 0.17969 0.255879
0.821286 0.180041 0.256367
0.821668 0.180301 0.256718
0.821973 0.180499 0.257023
0.822217 0.180667 0.257328
0.822553 0.18088 0.257832
0.822904 0.181094 0.258412
0.823453 0.18143 0.259358
0.824002 0.181781 0.260243
0.0255131 0.041886 0.042359
0.0254673 0.0420844 0.0427253
0.0250095 0.0417945 0.0413977
0.0248722 0.04065 0.0383612
0.0289464 0.0396582 0.0332036
0.0388495 0.0415198 0.033051
0.0489509 0.0426184 0.0360113
0.0699321 0.0459754 0.0411994
0.0918288 0.0427863 0.0419165
0.121553 0.0424353 0.0459754
0.161929 0.0437934 0.0524758
0.214969 0.0475776 0.0614481
0.281666 0.0531167 0.0726635
0.356588 0.0622416 0.0894636
0.436393 0.0729686 0.109071
0.524865 0.0869612 0.132555
0.619852 0.104753 0.160403
0.718288 0.13019 0.195605
0.790234 0.161532 0.233005
0.811521 0.174029 0.247227
0.813748 0.175448 0.249317
0.815717 0.176715 0.251072
0.817182 0.177737 0.252354
0.81799 0.178271 0.252979
0.818601 0.178668 0.253483
0.819165 0.179049 0.254002
0.819577 0.179309 0.254368
0.819852 0.179492 0.254627
0.820066 0.179629 0.254826
0.820325 0.179797 0.255177
0.82063 0.17998 0.25565
0.821164 0.180301 0.256565
0.821729 0.180636 0.257527
0.0288853 0.0529183 0.0482185
0.0288396 0.0531624 0.0486305
0.0281071 0.0530861 0.0469062
0.0280766 0.0521096 0.0450599
0.0296178 0.0505684 0.0401465
0.0398566 0.0514839 0.0370794
0.0504311 0.0528573 0.0370489
0.0689708 0.0546883 0.0409552
0.100374 0.0556649 0.0476692
0.127642 0.0515908 0.0507362
0.165591 0.0512093 0.0554513
0.215991 0.0523384 0.0627756
0.2795 0.0550393 0.0724193
0.353429 0.0626841 0.0878462
0.433082 0.0731365 0.107561
0.521645 0.087068 0.131136
0.615213 0.104417 0.158114
0.712535 0.128939 0.19176
0.786252 0.159945 0.22916
0.809293 0.173251 0.244388
0.811566 0.17464 0.246509
0.813352 0.175784 0.248234
0.814679 0.176593 0.249424
0.815641 0.177188 0.250324
0.816388 0.177676 0.251026
0.816953 0.178042 0.25156
0.817304 0.178256 0.251911
0.817533 0.178408 0.252125
0.81767 0.178485 0.252232
0.817868 0.178592 0.252461
0.818128 0.178775 0.252842
0.818616 0.17911 0.25362
0.81915 0.179431 0.254566
0.0322728 0.0703136 0.0560769
0.0322576 0.0707256 0.0565805
0.0317235 0.0701762 0.0533761
0.0315251 0.0697032 0.0508583
0.0327001 0.0681315 0.047425
0.0381018 0.0672618 0.0417487
0.0498817 0.069398 0.0396887
0.0690623 0.070222 0.0396887
0.0990463 0.0726329 0.0460059
0.137377 0.0699931 0.0549935
0.175387 0.063447 0.0603189
0.222171 0.0624247 0.0653086
0.282856 0.0636606 0.0723888
0.35259 0.0669413 0.0876783
0.429374 0.0741283 0.105623
0.517739 0.0874342 0.129473
0.611704 0.105074 0.15671
0.708659 0.128664 0.189136
0.78291 0.15903 0.225513
0.807614 0.173037 0.241627
0.809018 0.173953 0.242969
0.81059 0.174914 0.244434
0.811841 0.175708 0.245487
0.812741 0.176242 0.246403
0.813367 0.176623 0.247059
0.813825 0.176913 0.247547
0.81416 0.177111 0.247868
0.814404 0.177249 0.248096
0.814572 0.177356 0.248264
0.814725 0.177432 0.248463
0.814908 0.177554 0.248737
0.815229 0.177752 0.249287
0.815534 0.177951 0.249851
0.0354467 0.0910964 0.0634928
0.0353857 0.0913863 0.0639658
0.0344091 0.0917067 0.0616922
0.0338445 0.0917525 0.0587625
0.0347906 0.0906844 0.0552529
0.0377661 0.089601 0.0501869
0.0477913 0.0900435 0.0443275
0.0639963 0.0921645 0.0420386
0.0961013 0.0928664 0.0428931
0.136034 0.09514 0.0519417
0.186618 0.0855268 0.0640574
0.237232 0.0776532 0.070985
0.294133 0.0763867 0.076997
0.35668 0.0788128 0.0884871
0.431937 0.0830243 0.10721
0.515099 0.0900282 0.127703
0.607904 0.105943 0.154711
0.705348 0.129198 0.187335
0.781384 0.15935 0.22388
0.808988 0.175219 0.241077
0.809247 0.175509 0.241184
0.809613 0.17583 0.241428
0.809964 0.176089 0.241688
0.810544 0.176425 0.242267
0.810971 0.176684 0.242695
0.811307 0.176867 0.243015
0.811536 0.176989 0.243259
0.811704 0.177096 0.243397
0.811795 0.177157 0.243488
0.811917 0.177249 0.243656
0.81207 0.177356 0.24387
0.812329 0.177569 0.244312
0.812558 0.177783 0.244678
0.0376135 0.115465 0.0745403
0.0374456 0.115984 0.0754253
0.0360723 0.116732 0.071809
0.0348211 0.117433 0.0681163
0.0349126 0.117464 0.0644846
0.0366217 0.116091 0.06009
0.0417182 0.114717 0.0530709
0.0569009 0.116045 0.0472572
0.0826734 0.117479 0.0425879
0.128466 0.117433 0.0450294
0.180957 0.118212 0.0577707
0.253132 0.103655 0.0758373
0.314412 0.0985275 0.0863661
0.374884 0.0980392 0.0965744
0.441657 0.100877 0.110979
0.524086 0.108019 0.133394
0.61355 0.117388 0.156924
0.703731 0.132143 0.185611
0.779477 0.160006 0.221836
0.812772 0.179171 0.242405
0.813001 0.1794 0.242481
0.813199 0.179614 0.242542
0.813306 0.179736 0.242588
0.813382 0.179812 0.242603
0.813443 0.179873 0.242634
0.813489 0.179904 0.242649
0.813504 0.179919 0.242664
0.813565 0.179965 0.242679
0.813596 0.180011 0.242695
0.813733 0.180102 0.242863
0.813947 0.180255 0.243137
0.814359 0.180545 0.243748
0.814832 0.180896 0.244419
0.038529 0.145449 0.088426
0.0383307 0.14609 0.0893873
0.0368353 0.146944 0.0856947
0.035172 0.148074 0.0806439
0.0340734 0.14876 0.0746319
0.0346838 0.14815 0.06981
0.0369726 0.146212 0.0639506
0.0459449 0.144778 0.0538338
0.0708019 0.147951 0.0485084
0.108537 0.148409 0.0416114
0.173083 0.148943 0.0474708
0.238392 0.149508 0.0647593
0.337606 0.129961 0.0940414
0.403174 0.129091 0.108919
0.470924 0.131212 0.124132
0.547295 0.136645 0.142321
0.631388 0.144289 0.166339
0.722789 0.157641 0.194507
0.794278 0.178561 0.227543
0.824781 0.192782 0.247715
0.820478 0.187671 0.245411
0.818387 0.185183 0.244343
0.817884 0.184604 0.244068
0.817929 0.18468 0.244083
0.817975 0.184726 0.244099
0.818051 0.184787 0.244144
0.818082 0.184833 0.24416
0.818097 0.184863 0.24416
0.818158 0.184924 0.24419
0.818311 0.185046 0.244358
0.81857 0.18526 0.244648
0.81912 0.185687 0.245258
0.819715 0.186175 0.24596
0.0376745 0.184085 0.104021
0.0374304 0.185031 0.105272
0.0358129 0.185809 0.101152
0.0342412 0.186496 0.0963607
0.0326238 0.187243 0.0905776
0.0316014 0.187686 0.0831159
0.0326543 0.186694 0.0758373
0.0359655 0.184253 0.0656443
0.0514687 0.183856 0.0530098
0.0898604 0.190188 0.0490883
0.142077 0.188144 0.0390326
0.233402 0.192203 0.0509194
0.315404 0.197009 0.0716564
0.438087 0.174655 0.120562
0.515114 0.180117 0.139284
0.589029 0.183719 0.158343
0.670237 0.18996 0.180926
0.752651 0.199786 0.206821
0.823529 0.21799 0.242924
0.856733 0.232914 0.265797
0.852827 0.227283 0.263722
0.848707 0.221988 0.261433
0.845624 0.218097 0.259632
0.843717 0.215595 0.258732
0.842344 0.213901 0.257954
0.841321 0.212711 0.257328
0.840696 0.211933 0.256977
0.840375 0.211521 0.256809
0.84033 0.21146 0.256794
0.840604 0.21178 0.256977
0.841459 0.212848 0.257465
0.842786 0.214298 0.258442
0.844572 0.216419 0.259602
0.0348974 0.231556 0.120775
0.0346227 0.232395 0.121996
0.032929 0.233112 0.11783
0.0311742 0.233768 0.11339
0.0293584 0.234394 0.108583
0.027451 0.235096 0.10132
0.0260471 0.235874 0.0918898
0.0280613 0.234211 0.0808881
0.0335393 0.22974 0.063386
0.0594339 0.232334 0.0498817
0.11519 0.244221 0.0476234
0.189105 0.239582 0.0349279
0.311269 0.248737 0.0547341
0.407385 0.266835 0.0717327
0.545647 0.246906 0.14612
0.636683 0.251377 0.17583
0.719356 0.256535 0.200305
0.801785 0.262715 0.229053
0.8636 0.276234 0.261204
0.893721 0.287327 0.283192
0.892851 0.283207 0.28333
0.888579 0.277546 0.280964
0.885954 0.273793 0.279698
0.883497 0.270512 0.278187
0.881437 0.267903 0.27689
0.88011 0.266102 0.276158
0.879469 0.265187 0.275898
0.879057 0.264637 0.275669
0.879423 0.265141 0.275883
0.879896 0.265858 0.276066
0.880964 0.267399 0.2766
0.883131 0.270176 0.278035
0.886061 0.274205 0.279942
0.0293889 0.290623 0.138384
0.0291295 0.2916 0.139651
0.0274662 0.292103 0.135286
0.0256809 0.292576 0.131167
0.0240177 0.293126 0.126055
0.0218814 0.293629 0.120394
0.0195621 0.294224 0.111315
0.0180362 0.294255 0.0981918
0.0208438 0.291691 0.0814374
0.0280919 0.285695 0.0538186
0.0708324 0.293507 0.0382849
0.148318 0.308492 0.0357977
0.250278 0.301564 0.0276646
0.393042 0.312383 0.0561074
0.51107 0.354131 0.0607767
0.650034 0.351446 0.154818
0.756283 0.331762 0.21236
0.852308 0.343618 0.251652
0.913329 0.353979 0.287068
0.93846 0.360601 0.306935
0.937179 0.356481 0.306798
0.934722 0.351553 0.305699
0.93254 0.347646 0.304494
0.930724 0.34435 0.303548
0.92961 0.342138 0.30309
0.92871 0.340673 0.302525
0.928176 0.339757 0.302251
0.928374 0.340017 0.302373
0.928847 0.340749 0.302647
0.929885 0.342245 0.303319
0.931258 0.344671 0.303975
0.933944 0.348882 0.305669
0.937102 0.35465 0.307393
0.0158694 0.351171 0.159533
0.0155032 0.352178 0.16112
0.0145724 0.352575 0.156558
0.013611 0.353155 0.151781
0.0125429 0.353552 0.147326
0.0114748 0.35378 0.141649
0.0102388 0.354055 0.133959
0.00767529 0.354589 0.120195
0.00633249 0.354055 0.102037
0.00820935 0.350652 0.0791333
0.0170443 0.34461 0.0377966
0.0861982 0.355154 0.0238651
0.197086 0.371069 0.0216678
0.321584 0.364828 0.0151064
0.477104 0.381872 0.0582589
0.614893 0.438392 0.0716259
0.740642 0.446311 0.16286
0.864149 0.43064 0.24625
0.935714 0.4271 0.295293
0.969619 0.438941 0.321279
0.970245 0.439673 0.32221
0.968978 0.435752 0.321645
0.968277 0.432853 0.321538
0.967376 0.430396 0.32105
0.966766 0.428504 0.32079
0.966567 0.427848 0.320745
0.966628 0.42797 0.32079
0.966781 0.428351 0.320867
0.967163 0.429465 0.321065
0.968002 0.431556 0.321614
0.968887 0.434791 0.321859
0.970916 0.440803 0.322911
0.9729 0.448631 0.323354
0.00117494 0.413626 0.187823
0.000808728 0.41474 0.189471
0 0.415579 0.185962
0 0.415839 0.18114
0 0.416022 0.176303
0 0.416175 0.171389
0 0.416251 0.16466
0 0.416724 0.153674
0 0.417319 0.133089
0 0.415564 0.106889
0 0.409918 0.0746624
0.0203555 0.406363 0.023621
0.122118 0.419883 0.0118105
0.266377 0.437415 0.0104677
0.406485 0.434409 0.00894179
0.563882 0.458305 0.0735637
0.705959 0.516976 0.108919
0.821317 0.541375 0.187884
0.926726 0.53051 0.271977
0.975158 0.534279 0.311055
0.984909 0.536141 0.32018
0.985092 0.532265 0.320989
0.984833 0.529107 0.321141
0.984771 0.526787 0.321416
0.984726 0.525322 0.321599
0.984726 0.524987 0.32166
0.984756 0.524941 0.321706
0.984833 0.525826 0.321691
0.98497 0.527596 0.321614
0.985138 0.530297 0.321447
0.985473 0.534569 0.32108
0.985504 0.541115 0.320531
0.985443 0.548959 0.319707
0 0.481956 0.225879
0 0.483574 0.22797
0 0.483803 0.224384
0 0.484016 0.220371
0 0.484169 0.215961
0 0.484337 0.211582
0 0.484718 0.205722
0 0.484825 0.196658
0 0.484855 0.181109
0 0.484825 0.15491
0 0.481926 0.120699
0 0.47454 0.0746471
0.0447395 0.474937 0.0191196
0.179644 0.490501 0.0116274
0.34934 0.509087 0.00737011
0.495338 0.51136 0.0218967
0.651682 0.539895 0.104997
0.80296 0.605234 0.164355
0.903212 0.646616 0.238651
0.961578 0.632639 0.29366
0.97969 0.628855 0.309941
0.979538 0.626764 0.30927
0.980041 0.624689 0.309773
0.979995 0.624018 0.309667
0.979934 0.623224 0.30959
0.979934 0.62324 0.309545
0.979919 0.623804 0.309514
0.979797 0.62501 0.309377
0.979431 0.62771 0.309178
0.97966 0.63241 0.309667
0.979004 0.637827 0.309697
0.9785 0.645365 0.310094
0.977798 0.654963 0.31075
0 0.559701 0.276204
0 0.561212 0.27837
0 0.561685 0.276127
0 0.562036 0.272816
0 0.562325 0.269764
0 0.563272 0.266468
0 0.563516 0.26154
0 0.56347 0.253773
0 0.563134 0.241123
0 0.562707 0.21915
0 0.561975 0.186892
0 0.556909 0.145296
0.00946059 0.54934 0.0760815
0.101991 0.552819 0.0276036
0.267063 0.569345 0.026688
0.442878 0.592493 0.02916
0.588296 0.598138 0.0596323
0.740536 0.628382 0.151873
0.89839 0.700511 0.242664
0.970642 0.746883 0.306981
0.98027 0.746868 0.327047
0.980209 0.741207 0.328145
0.979934 0.740139 0.327916
0.979599 0.738949 0.327352
0.979553 0.738415 0.327306
0.979644 0.738506 0.327596
0.979828 0.739193 0.328161
0.980301 0.740475 0.329137
0.980575 0.742397 0.330358
0.981155 0.744717 0.332021
0.982101 0.74789 0.334386
0.983001 0.751995 0.337118
0.984283 0.757214 0.340826
0.0145724 0.641077 0.329213
0.0150301 0.642512 0.331182
0.0150149 0.643076 0.329397
0.0151522 0.643763 0.32723
0.0154269 0.64477 0.324941
0.0153964 0.645197 0.322255
0.0155184 0.645487 0.318624
0.0154574 0.645533 0.31252
0.0152895 0.645472 0.303243
0.0151827 0.645014 0.287129
0.0145571 0.64477 0.260243
0.0158846 0.64094 0.220859
0.0217899 0.632258 0.170184
0.0540475 0.626429 0.0864271
0.188937 0.636606 0.0500038
0.371283 0.660105 0.0591287
0.54435 0.684993 0.0710307
0.678431 0.689998 0.114321
0.822538 0.71722 0.212894
0.949966 0.768246 0.304601
0.993973 0.799558 0.352026
0.996185 0.801877 0.36788
0.996368 0.802289 0.369894
0.996414 0.802472 0.370138
0.99646 0.802808 0.370321
0.996551 0.803388 0.37052
0.996689 0.804578 0.370764
0.996811 0.80557 0.370932
0.997055 0.806867 0.371237
0.997024 0.808377 0.371176
0.99733 0.810742 0.371511
0.99733 0.813794 0.371618
0.997452 0.818143 0.371908
0.0501564 0.718929 0.38172
0.0509499 0.720272 0.383841
0.051194 0.720745 0.382208
0.0516823 0.72166 0.380774
0.0519722 0.722118 0.378866
0.0522011 0.72256 0.376654
0.0523537 0.722896 0.374121
0.0522927 0.72285 0.36936
0.0523079 0.722835 0.362219
0.0522621 0.722179 0.350256
0.0525063 0.721126 0.330068
0.0530556 0.718242 0.298604
0.0553902 0.711406 0.255406
0.0656748 0.701854 0.191928
0.136522 0.70367 0.110582
0.300847 0.719158 0.0890974
0.489342 0.744701 0.105104
0.644648 0.766461 0.132906
0.768948 0.774548 0.188632
0.891173 0.796551 0.280995
0.979461 0.832715 0.352255
0.992401 0.852979 0.374212
0.993027 0.854383 0.380652
0.993057 0.854246 0.380545
0.993042 0.854261 0.380575
0.99295 0.854856 0.381064
0.992874 0.855314 0.381445
0.992782 0.85594 0.38201
0.992569 0.856733 0.382696
0.992325 0.85803 0.383581
0.991958 0.859876 0.385092
0.991547 0.862654 0.387442
0.990539 0.865599 0.389609
0.0925002 0.779232 0.430381
0.093492 0.780423 0.432654
0.0936141 0.780621 0.431342
0.0936904 0.780728 0.429541
0.0936904 0.780789 0.427741
0.0936904 0.780819 0.425956
0.0937057 0.78085 0.423758
0.0937514 0.780865 0.419989
0.0933242 0.780194 0.413901
0.0927443 0.77908 0.404395
0.0926375 0.777401 0.38851
0.0928664 0.774517 0.364034
0.0950484 0.769543 0.330632
0.0982528 0.761196 0.283742
0.12401 0.755581 0.204883
0.247913 0.766232 0.146807
0.420035 0.780102 0.143374
0.606226 0.802976 0.164279
0.740108 0.822293 0.204898
0.854093 0.837858 0.270253
0.942016 0.85658 0.348608
0.98526 0.881041 0.396582
0.983505 0.884718 0.410819
0.98349 0.884733 0.410834
0.983429 0.884855 0.4112
0.983413 0.884947 0.411444
0.983352 0.885069 0.41178
0.983291 0.885237 0.412146
0.983154 0.885496 0.41268
0.982956 0.885908 0.413733
0.982727 0.886366 0.414923
0.982467 0.886961 0.416495
0.982147 0.887739 0.418509
0.117571 0.808621 0.462226
0.117845 0.808942 0.463844
0.117601 0.808713 0.462211
0.117311 0.808408 0.460472
0.117021 0.808087 0.458503
0.116686 0.807706 0.456275
0.116304 0.807263 0.453803
0.11574 0.806577 0.450004
0.114885 0.805478 0.443824
0.113741 0.803876 0.434333
0.113359 0.801511 0.420874
0.113527 0.798154 0.401205
0.115984 0.794675 0.374105
0.120806 0.790768 0.338598
0.13135 0.785657 0.287312
0.216373 0.7906 0.219028
0.373266 0.794568 0.189899
0.551812 0.807111 0.198154
0.709056 0.828763 0.223987
0.829892 0.851652 0.280171
0.913054 0.867475 0.343679
0.97113 0.884916 0.405402
0.979568 0.891234 0.43473
0.979263 0.891463 0.437827
0.979355 0.891402 0.436942
0.979385 0.891386 0.436728
0.979385 0.891386 0.436713
0.979385 0.891371 0.436805
0.979355 0.89134 0.437217
0.979339 0.891279 0.437613
0.979278 0.891264 0.438331
0.979217 0.89134 0.439246
0.979065 0.891463 0.440803
0.118486 0.809613 0.468391
0.118791 0.809979 0.470054
0.118563 0.80975 0.468498
0.118334 0.809506 0.46685
0.118044 0.809216 0.464897
0.117693 0.808835 0.46273
0.117296 0.808377 0.460365
0.116716 0.807706 0.456596
0.115801 0.806607 0.450507
0.114565 0.804974 0.441108
0.113481 0.802548 0.426703
0.113588 0.799146 0.407111
0.11545 0.795346 0.379919
0.12195 0.793133 0.346929
0.131777 0.790509 0.308202
0.200229 0.792432 0.244724
0.351919 0.794369 0.208225
0.520012 0.80354 0.21239
0.68632 0.825528 0.232654
0.812131 0.849424 0.284077
0.903075 0.867094 0.346639
0.957549 0.880049 0.403479
0.979095 0.891478 0.440452
0.978408 0.891997 0.448737
0.978408 0.891997 0.448737
0.978424 0.891981 0.448478
0.978439 0.891981 0.448341
0.978469 0.891951 0.448035
0.978469 0.891936 0.447776
0.978485 0.891936 0.447669
0.978485 0.891936 0.447684
0.978469 0.891951 0.447837
0.978454 0.891966 0.448142
0.119326 0.810559 0.473625
0.1196 0.81088 0.475242
0.119402 0.810697 0.473762
0.119142 0.810437 0.471946
0.118868 0.810147 0.470008
0.118563 0.809781 0.468116
0.118181 0.809369 0.465629
0.117525 0.808652 0.461753
0.116594 0.807568 0.455787
0.115236 0.80589 0.44651
0.113832 0.803418 0.431846
0.113649 0.799939 0.411368
0.115023 0.795895 0.384253
0.121263 0.793378 0.349966
0.130617 0.790753 0.31194
0.19205 0.792187 0.249592
0.340642 0.794263 0.209018
0.507057 0.802319 0.21091
0.676326 0.823789 0.230076
0.802457 0.84741 0.278416
0.893919 0.865705 0.33933
0.950057 0.87895 0.394202
0.978149 0.89099 0.434928
0.978317 0.892378 0.448737
0.978286 0.892393 0.449195
0.978241 0.892409 0.449546
0.978225 0.892439 0.44979
0.978195 0.89247 0.449928
0.978164 0.892531 0.450019
0.978119 0.892622 0.450141
0.978103 0.892683 0.450233
0.978103 0.892683 0.450294
0.978119 0.892653 0.450294
0.120195 0.811582 0.478355
0.120455 0.811856 0.479896
0.120104 0.81149 0.477745
0.119799 0.81117 0.475898
0.119493 0.810849 0.474067
0.119158 0.810483 0.47187
0.118776 0.81004 0.469261
0.118181 0.809354 0.465614
0.117174 0.808225 0.459556
0.115785 0.806561 0.450233
0.114168 0.804059 0.435279
0.113664 0.800519 0.414694
0.114763 0.796277 0.387076
0.120882 0.7935 0.351843
0.130159 0.790906 0.313741
0.186816 0.79202 0.252949
0.333669 0.794324 0.209628
0.49897 0.801709 0.209964
0.670008 0.822766 0.228626
0.796643 0.84622 0.274815
0.887922 0.864408 0.334707
0.945281 0.877821 0.387778
0.976379 0.889891 0.42977
0.978424 0.892363 0.446754
0.978286 0.892485 0.44889
0.978256 0.8925 0.44918
0.978241 0.892515 0.449363
0.97821 0.892561 0.449577
0.978164 0.892607 0.449775
0.978119 0.892699 0.449943
0.978103 0.892744 0.450034
0.978088 0.892775 0.45008
0.978103 0.89276 0.45005
0.120851 0.812284 0.481865
0.121096 0.812528 0.483024
0.120653 0.81207 0.480903
0.120256 0.811658 0.478599
0.119936 0.811337 0.476539
0.119615 0.810987 0.474815
0.119203 0.810529 0.472129
0.118578 0.809827 0.468269
0.117571 0.808698 0.461936
0.116121 0.806989 0.45272
0.114412 0.804471 0.437659
0.11371 0.8009 0.416648
0.114611 0.796414 0.388342
0.120638 0.793606 0.353368
0.129961 0.790982 0.314626
0.184207 0.79202 0.254704
0.330098 0.794308 0.209873
0.496056 0.801602 0.209461
0.667582 0.822446 0.228183
0.792691 0.845365 0.272389
0.884123 0.863584 0.332067
0.942153 0.876738 0.38436
0.975326 0.889113 0.426764
0.978485 0.892271 0.445487
0.978302 0.89247 0.448447
0.978286 0.892485 0.448814
0.978271 0.8925 0.449027
0.978241 0.892531 0.44921
0.97821 0.892592 0.449378
0.978164 0.892668 0.449577
0.978149 0.892714 0.449683
0.978134 0.892744 0.449744
0.978134 0.892744 0.44976
0.121294 0.812757 0.483986
0.121477 0.81294 0.484993
0.121096 0.812543 0.48307
0.120653 0.812085 0.480842
0.120256 0.811673 0.478569
0.119905 0.811307 0.476356
0.119509 0.810864 0.474128
0.118868 0.810132 0.46981
0.117861 0.809018 0.463676
0.116365 0.807294 0.454154
0.114595 0.80473 0.43917
0.113741 0.801038 0.417197
0.114519 0.79646 0.388952
0.120607 0.793652 0.353765
0.129961 0.790982 0.314748
0.183154 0.791943 0.255009
0.330602 0.794324 0.209827
0.495506 0.801602 0.209155
0.666957 0.822385 0.228153
0.791287 0.845121 0.271778
0.88246 0.863218 0.330846
0.94052 0.876173 0.382376
0.974594 0.88864 0.425101
0.978546 0.892226 0.444724
0.978317 0.892439 0.448142
0.978302 0.89247 0.448493
0.978271 0.892485 0.448737
0.978271 0.892515 0.448951
0.978241 0.892576 0.449149
0.978195 0.892653 0.449317
0.978164 0.892699 0.449454
0.978149 0.892729 0.449516
0.978149 0.892729 0.449531
0.121584 0.813046 0.485512
0.121798 0.81326 0.486671
0.12134 0.812802 0.484276
0.120943 0.812375 0.482399
0.120516 0.811948 0.480018
0.120134 0.811551 0.477775
0.119707 0.811109 0.475456
0.119036 0.81033 0.471
0.118029 0.809216 0.46479
0.116487 0.807446 0.45507
0.114672 0.804822 0.439612
0.113787 0.801099 0.417472
0.114488 0.796399 0.388769
0.12076 0.793652 0.353368
0.130205 0.790951 0.314076
0.184924 0.791943 0.253513
0.332799 0.794369 0.209674
0.497795 0.801862 0.208896
0.668223 0.822644 0.228489
0.79205 0.845335 0.27248
0.882536 0.863294 0.331167
0.94052 0.876081 0.382208
0.974258 0.888472 0.424247
0.978576 0.89221 0.44445
0.978332 0.892439 0.447944
0.978317 0.892454 0.448295
0.978302 0.89247 0.448539
0.978271 0.8925 0.448753
0.978256 0.892561 0.448966
0.978241 0.892592 0.449073
