bundles/resolve-cinematic-luts/Phantom Luts/P4k & P6k Phntm Arri LUTs - V6/P4K/Gen 5 Colour/White Balance Offset (Magenta Boost)/P4k Neutral Gen 5-Legacy WBO.cube
TITLE "Generated by Resolve"
LUT_3D_SIZE 5
0.0183566 0.0182498 0.0183261
0.124376 0.0318151 0.0332952
0.642039 0.0914778 0.146899
0.933211 0.132357 0.218158
0.936507 0.133471 0.219913
0.0271611 0.122988 0.0581826
0.0896468 0.121721 0.0259861
0.607034 0.104143 0.12752
0.909865 0.134203 0.193072
0.910369 0.134432 0.193133
0.0635386 0.672099 0.336782
0.0666514 0.674174 0.288151
0.590356 0.684443 0.0961318
1 0.759991 0.267277
1 0.756222 0.266682
0.128801 0.997253 0.540749
0.132769 0.995834 0.514992
0.467369 0.987427 0.337224
0.992157 0.988327 0.459724
0.992157 0.988327 0.461509
0.127779 0.997635 0.547723
0.131762 0.99617 0.521889
0.453147 0.987961 0.3364
0.992157 0.988327 0.457984
0.992157 0.988327 0.459907
0.019913 0.0204013 0.113741
0.137163 0.0271 0.11841
0.712428 0.106294 0.216648
0.972793 0.162875 0.285191
0.973144 0.16257 0.286763
0.0315099 0.10457 0.101106
0.0996872 0.0985275 0.102083
0.632685 0.0926528 0.147387
0.936919 0.133623 0.219867
0.940063 0.134768 0.221698
0.0590677 0.656703 0.369192
0.0612192 0.656275 0.331014
0.584405 0.672541 0.0974594
1 0.730739 0.261357
1 0.725948 0.26067
0.12575 0.998718 0.565637
0.128725 0.997269 0.541222
0.428031 0.988922 0.335409
0.992142 0.988327 0.463478
0.992142 0.988327 0.465156
0.125505 0.998993 0.572702
0.127764 0.997635 0.547921
0.411215 0.989548 0.334585
0.992157 0.988327 0.458854
0.992142 0.988327 0.463691
0.08365 0.032517 0.59469
0.170047 0.0355535 0.592569
0.70724 0.0398718 0.604929
0.96408 0.125887 0.644755
0.964096 0.124269 0.648737
0.0212558 0.039704 0.583551
0.0920119 0.0323796 0.584802
0.689677 0.0403296 0.588952
0.976165 0.103426 0.624338
0.975097 0.106279 0.626001
0.0582132 0.599878 0.586007
0.0575265 0.595773 0.583597
0.610147 0.580163 0.599893
0.981903 0.591821 0.57995
0.982193 0.587457 0.577203
0.163958 0.999451 0.791684
0.156558 0.998749 0.775753
0.307256 0.996826 0.615976
0.992096 0.988388 0.539467
0.992065 0.988403 0.582574
0.16762 0.999588 0.799191
0.160021 0.999039 0.782727
0.267277 0.997757 0.603403
0.97583 0.98291 0.485374
0.992081 0.988403 0.576471
0.193149 0.099855 0.902556
0.257496 0.102754 0.90869
0.786786 0.11075 0.95523
0.97232 0.104524 0.960586
0.972274 0.104189 0.960403
0.131121 0.0985275 0.896452
0.193149 0.099855 0.902556
0.754742 0.112535 0.953811
0.972747 0.107439 0.96202
0.972717 0.107301 0.961944
0 0.599954 1
0 0.5897 1
0.545434 0.503639 0.990784
0.99057 0.450263 0.99057
0.990585 0.444724 0.99057
0.476493 0.997803 0.99527
0.468086 0.998123 0.994217
0.512062 0.992844 0.98381
0.985122 0.979141 0.983063
0.990768 0.980575 0.98201
0.481422 0.99762 0.995895
0.481422 0.99762 0.995895
0.514977 0.996674 0.978897
0.96289 0.990951 0.983841
0.990707 0.990295 0.973999
0.202289 0.100313 0.903578
0.266865 0.103029 0.909255
0.794995 0.110307 0.955627
0.972442 0.105318 0.960983
0.972366 0.10486 0.960754
0.140978 0.0988937 0.897551
0.202304 0.100298 0.903578
0.762234 0.112139 0.954208
0.972824 0.108019 0.96231
0.972793 0.107774 0.962188
0 0.591485 1
0 0.579385 1
0.541863 0.489219 0.990845
0.9906 0.434043 0.9906
0.990616 0.428534 0.990616
0.481422 0.99762 0.995895
0.481422 0.99762 0.995895
0.528069 0.985748 0.996765
0.980209 0.975113 0.990936
0.990936 0.969619 0.990936
0.481422 0.99762 0.995895
0.481422 0.99762 0.995895
0.56556 0.995026 0.995346
0.973266 0.990875 0.990951
0.990936 0.990936 0.990936
