bundles/resolve-cinematic-luts/Phantom Luts/P4k & P6k Phntm Arri LUTs - V6/P4K/Gen 5 Colour/White Balance Offset (Magenta Boost)/P4k IceBlue Gen 5 WBO.cube
TITLE "Generated by Resolve"
LUT_3D_SIZE 9
0.0242924 0.0364385 0.0328527
0.0369116 0.0372473 0.037171
0.100465 0.0422675 0.0427405
0.323415 0.0523232 0.0598611
0.614725 0.109224 0.134874
0.759045 0.194736 0.216114
0.764096 0.19942 0.221485
0.766033 0.200702 0.224384
0.770672 0.197528 0.242115
0.0257877 0.0490883 0.041413
0.0302434 0.0480049 0.0389105
0.0915694 0.047715 0.0439918
0.322667 0.0531472 0.0553292
0.615839 0.109514 0.129549
0.754253 0.191608 0.211475
0.758816 0.195087 0.216159
0.759793 0.195789 0.217136
0.764004 0.192767 0.232959
0.0302586 0.130343 0.0838026
0.0298924 0.132967 0.0662242
0.0836957 0.133715 0.0521553
0.372137 0.101915 0.0692149
0.622644 0.128725 0.136019
0.758358 0.203311 0.209506
0.75938 0.204883 0.210132
0.760067 0.205463 0.211048
0.764324 0.206134 0.221607
0.0281529 0.36553 0.176501
0.0264744 0.377203 0.160342
0.0276188 0.37792 0.117189
0.263554 0.385443 0.041001
0.750744 0.416159 0.197131
0.8757 0.413748 0.289921
0.871015 0.402457 0.286519
0.872618 0.406622 0.287404
0.892271 0.454978 0.302449
0.0971542 0.675349 0.406409
0.103471 0.685252 0.406195
0.106828 0.68896 0.387747
0.124331 0.680034 0.262928
0.645975 0.728466 0.196139
0.954635 0.796841 0.39707
0.967102 0.801816 0.414313
0.965499 0.803632 0.416678
0.961425 0.816617 0.42591
0.271351 0.879316 0.62414
0.269963 0.879164 0.618341
0.26865 0.876967 0.605188
0.273381 0.870588 0.545556
0.520592 0.888441 0.385428
0.918639 0.924468 0.460243
0.983673 0.938216 0.548455
0.982635 0.93814 0.554406
0.982803 0.939101 0.558495
0.27602 0.882124 0.641077
0.273732 0.881437 0.63505
0.271321 0.879179 0.621424
0.270634 0.871702 0.558877
0.477272 0.889357 0.403723
0.914244 0.929503 0.460731
0.982025 0.9402 0.553277
0.98088 0.940276 0.557656
0.979019 0.94049 0.561486
0.277531 0.882658 0.645533
0.274708 0.882033 0.639292
0.271275 0.879301 0.62414
0.271366 0.87071 0.554208
0.518959 0.890623 0.396551
0.920195 0.928023 0.46511
0.983963 0.939452 0.553429
0.983108 0.939681 0.55552
0.977478 0.940993 0.560952
0.278279 0.882734 0.646723
0.27538 0.882124 0.639475
0.268437 0.877806 0.610849
0.288762 0.86949 0.505226
0.735821 0.906355 0.403159
0.953445 0.928588 0.501442
0.984009 0.939498 0.554116
0.983124 0.939712 0.555749
0.976638 0.940703 0.56643
0.0238804 0.0373236 0.0408026
0.0367742 0.0364843 0.0462196
0.111513 0.0365301 0.066865
0.368002 0.0563821 0.0984054
0.6486 0.128008 0.175845
0.773083 0.201617 0.242191
0.780667 0.208881 0.250614
0.782712 0.210437 0.253834
0.786221 0.208438 0.267628
0.0255283 0.0424659 0.0396887
0.0270237 0.0409857 0.0392004
0.101518 0.0432746 0.047303
0.342657 0.0529183 0.0703746
0.636225 0.11545 0.158053
0.763882 0.192737 0.23238
0.768582 0.197238 0.237476
0.770062 0.198581 0.239078
0.772931 0.196796 0.250172
0.0304265 0.120531 0.0998093
0.0295109 0.124392 0.084123
0.0777752 0.126696 0.0521401
0.370871 0.09131 0.0681773
0.623362 0.120089 0.137957
0.754208 0.194553 0.21004
0.756085 0.196109 0.211902
0.756802 0.196231 0.212955
0.760113 0.196277 0.222522
0.0283665 0.362814 0.195193
0.0276646 0.373236 0.180804
0.0268406 0.377783 0.136049
0.2607 0.38497 0.0417029
0.754711 0.408911 0.201312
0.873243 0.407858 0.288014
0.868299 0.397513 0.284459
0.87039 0.402884 0.285832
0.89044 0.449729 0.301549
0.0983291 0.677089 0.418738
0.104723 0.68748 0.419425
0.10753 0.691249 0.402533
0.123232 0.683436 0.276493
0.648493 0.731167 0.198749
0.95729 0.798825 0.400092
0.966628 0.802167 0.41503
0.964263 0.8038 0.417166
0.960204 0.815976 0.425315
0.273289 0.88043 0.631678
0.27248 0.880095 0.626337
0.269749 0.87805 0.613123
0.271794 0.87126 0.551644
0.516243 0.888502 0.387167
0.919387 0.924636 0.462287
0.983749 0.938415 0.550347
0.982605 0.938369 0.557
0.982559 0.939208 0.560143
0.277241 0.883146 0.647868
0.275273 0.882521 0.642023
0.273335 0.880217 0.628901
0.269978 0.872267 0.565286
0.476112 0.889326 0.403769
0.914763 0.929335 0.46128
0.982025 0.940246 0.554284
0.980835 0.940276 0.558755
0.979141 0.940566 0.561364
0.280507 0.883391 0.652659
0.276265 0.882948 0.64622
0.272999 0.88043 0.631556
0.27039 0.871458 0.560769
0.514763 0.8907 0.396933
0.919783 0.927764 0.465034
0.984009 0.939529 0.554376
0.982513 0.939544 0.559976
0.976562 0.940688 0.567498
0.280552 0.883986 0.65481
0.277531 0.883192 0.64802
0.270634 0.879149 0.620768
0.286641 0.869535 0.511513
0.730419 0.905959 0.402564
0.951141 0.927855 0.499626
0.984009 0.939574 0.555077
0.983108 0.939757 0.556695
0.97641 0.940642 0.568658
0.0191043 0.0397345 0.121141
0.0450904 0.0381476 0.12578
0.112413 0.0375067 0.122103
0.371481 0.0375219 0.147784
0.664378 0.120424 0.208957
0.799649 0.223163 0.280583
0.803952 0.225681 0.287053
0.804761 0.225147 0.290227
0.807233 0.219532 0.308309
0.0203861 0.0452888 0.105318
0.0194095 0.039704 0.118074
0.104601 0.037705 0.121386
0.381659 0.0419928 0.140017
0.685283 0.141634 0.213626
0.794781 0.220935 0.272831
0.80116 0.227085 0.280919
0.80293 0.228305 0.283391
0.807904 0.226627 0.300908
0.0272374 0.114763 0.123156
0.0262303 0.116472 0.125643
0.0850385 0.110628 0.130068
0.40531 0.0970779 0.125887
0.643503 0.123156 0.161868
0.764431 0.196307 0.227543
0.76968 0.201251 0.233188
0.771038 0.202426 0.234806
0.774838 0.201602 0.246754
0.0283818 0.354253 0.23386
0.0277562 0.363592 0.225177
0.0283818 0.364767 0.188495
0.246494 0.377249 0.0479438
0.755764 0.373251 0.208331
0.862058 0.385092 0.280049
0.856275 0.373678 0.27602
0.857542 0.376654 0.276875
0.876448 0.412573 0.292744
0.0974746 0.673961 0.439078
0.104189 0.684977 0.441489
0.105898 0.688823 0.426825
0.115633 0.683391 0.30808
0.643442 0.728405 0.197848
0.959106 0.796567 0.40029
0.964706 0.797909 0.410407
0.962905 0.799481 0.412116
0.957687 0.80975 0.420905
0.277089 0.882383 0.646677
0.276555 0.882322 0.642527
0.27454 0.880568 0.631052
0.269841 0.872648 0.56997
0.492638 0.887449 0.39028
0.918959 0.924971 0.462211
0.983703 0.938415 0.553445
0.982681 0.938537 0.559808
0.9832 0.939422 0.560235
0.282109 0.884978 0.662821
0.280522 0.884642 0.658335
0.277394 0.882765 0.646632
0.268788 0.874998 0.585351
0.449836 0.888121 0.408103
0.911284 0.928756 0.459831
0.981888 0.940276 0.557122
0.980545 0.940215 0.562997
0.978729 0.94052 0.56611
0.284581 0.88603 0.66923
0.282002 0.885771 0.664439
0.279179 0.882963 0.65185
0.269398 0.874296 0.584115
0.480766 0.889509 0.400824
0.913954 0.927184 0.462455
0.983978 0.93959 0.555734
0.982574 0.939651 0.561868
0.97702 0.940963 0.566857
0.290486 0.887831 0.684306
0.287541 0.887739 0.679896
0.279698 0.884352 0.657435
0.27602 0.870893 0.547021
0.692882 0.901427 0.403632
0.940276 0.925551 0.490898
0.983917 0.939681 0.559228
0.982528 0.939696 0.563241
0.975402 0.940719 0.575128
0.0195163 0.0451057 0.337072
0.0434424 0.0432593 0.34551
0.119615 0.0408789 0.34844
0.365927 0.0411231 0.32546
0.642817 0.0627756 0.329717
0.770825 0.124071 0.354284
0.77145 0.123201 0.358343
0.770687 0.121019 0.362539
0.75697 0.100145 0.391379
0.0102083 0.047715 0.339574
0.0196536 0.0455177 0.351308
0.0895247 0.0417182 0.368597
0.377722 0.0419165 0.345617
0.654795 0.0649882 0.340978
0.760159 0.109071 0.356008
0.757549 0.104051 0.359716
0.754864 0.100008 0.361746
0.751522 0.0955673 0.396094
0.0111238 0.0829786 0.333227
0.0100252 0.0688945 0.348104
0.024567 0.0489815 0.364477
0.357931 0.0423743 0.347601
0.655238 0.0653544 0.316609
0.786099 0.14995 0.344976
0.784756 0.146365 0.347936
0.7832 0.142901 0.350362
0.771267 0.119539 0.376959
0.0233768 0.349935 0.336629
0.0225681 0.360159 0.347387
0.0227817 0.360098 0.350561
0.30634 0.352834 0.376364
0.78172 0.324376 0.337865
0.861616 0.31368 0.331487
0.852232 0.298436 0.324346
0.854459 0.301076 0.327581
0.881117 0.337881 0.360845
0.103639 0.663157 0.517296
0.11078 0.674403 0.525963
0.111559 0.678157 0.519692
0.101518 0.674098 0.4448
0.634165 0.72163 0.259144
0.973404 0.781857 0.430762
0.973724 0.7776 0.427909
0.972961 0.778561 0.431479
0.968048 0.793072 0.456565
0.293156 0.881544 0.694423
0.297963 0.883253 0.696986
0.293812 0.884184 0.690394
0.277134 0.879667 0.645823
0.368872 0.879606 0.441886
0.913344 0.923583 0.452415
0.983749 0.936934 0.550851
0.983276 0.937285 0.554711
0.980957 0.937621 0.577737
0.306111 0.891783 0.717067
0.309819 0.890837 0.717693
0.30486 0.890181 0.709667
0.285451 0.88481 0.66537
0.337194 0.878065 0.47013
0.884413 0.926879 0.450828
0.980697 0.939773 0.556985
0.979828 0.940368 0.575235
0.97554 0.939971 0.596216
0.309682 0.894179 0.728695
0.314687 0.892775 0.729183
0.309499 0.891752 0.72018
0.289067 0.885054 0.673106
0.34107 0.878309 0.466285
0.885237 0.926223 0.451102
0.980163 0.937514 0.549966
0.982406 0.939712 0.57496
0.975906 0.940841 0.588342
0.332296 0.901946 0.774258
0.337713 0.900908 0.776013
0.329702 0.898665 0.762371
0.298939 0.888731 0.690349
0.504845 0.897093 0.477424
0.923018 0.929107 0.48809
0.982696 0.940017 0.575143
0.981598 0.940337 0.587945
0.975235 0.941299 0.59556
0.0439155 0.0585489 0.536767
0.0624552 0.0584878 0.550317
0.11136 0.0578012 0.57229
0.342061 0.0594949 0.606897
0.626307 0.0887312 0.575936
0.761349 0.136248 0.572351
0.753979 0.129015 0.574182
0.749905 0.125521 0.57644
0.733928 0.117891 0.601038
0.0295872 0.0596017 0.527199
0.0466621 0.0611429 0.547768
0.0927443 0.061387 0.576043
0.340139 0.0627756 0.623011
0.639872 0.0956588 0.592981
0.751873 0.129107 0.585534
0.746914 0.124865 0.588296
0.744823 0.123705 0.591821
0.735622 0.124727 0.620645
0.011429 0.063386 0.501839
0.0153658 0.0613565 0.512627
0.0469673 0.0622873 0.55111
0.298299 0.0625315 0.624186
0.636759 0.0970321 0.599802
0.753811 0.129503 0.581369
0.752102 0.128786 0.586023
0.750607 0.127901 0.589181
0.733059 0.117662 0.60885
0.0261387 0.299489 0.594461
0.0271153 0.304997 0.604013
0.0263981 0.287221 0.607645
0.150927 0.218509 0.68777
0.669978 0.164263 0.661906
0.794186 0.170077 0.568689
0.791806 0.166629 0.564294
0.792493 0.167956 0.569741
0.795514 0.180117 0.614298
0.128344 0.658763 0.646296
0.137606 0.670726 0.657084
0.142 0.674922 0.662669
0.14049 0.670512 0.664683
0.629236 0.671122 0.70605
0.967544 0.685802 0.689143
0.980606 0.681697 0.682109
0.979049 0.684001 0.687037
0.96379 0.716564 0.720256
0.337118 0.886961 0.80238
0.350805 0.89099 0.80943
0.353475 0.891783 0.809995
0.338109 0.88687 0.793378
0.450401 0.895293 0.734432
0.903868 0.928618 0.681178
0.97969 0.920394 0.70074
0.978698 0.920638 0.708019
0.973251 0.927138 0.757382
0.385061 0.920104 0.839826
0.400107 0.919478 0.843427
0.399695 0.918288 0.84152
0.376211 0.912123 0.823041
0.408453 0.914809 0.74815
0.839719 0.93724 0.688457
0.977386 0.943267 0.656275
0.984817 0.948211 0.708995
0.979049 0.949187 0.748898
0.39884 0.927169 0.854215
0.417899 0.924926 0.857114
0.415427 0.92343 0.854414
0.38793 0.916823 0.834089
0.443702 0.91574 0.762814
0.842283 0.936721 0.715129
0.971252 0.943069 0.665675
0.984268 0.948592 0.718502
0.977157 0.950423 0.743267
0.458305 0.94609 0.898268
0.481209 0.94168 0.898238
0.479866 0.938323 0.893416
0.450172 0.932692 0.87187
0.649775 0.93257 0.848661
0.908537 0.95349 0.81622
0.97615 0.953307 0.760616
0.982055 0.952758 0.761318
0.975891 0.952789 0.760815
0.138598 0.153536 0.707057
0.159442 0.154086 0.715633
0.198337 0.153841 0.728954
0.347646 0.159045 0.768826
0.630671 0.175158 0.776349
0.764035 0.197665 0.757275
0.765286 0.200488 0.761105
0.765713 0.200275 0.760555
0.762112 0.201251 0.765499
0.123949 0.157153 0.702861
0.145754 0.159411 0.713695
0.188357 0.160006 0.729839
0.355276 0.166552 0.776318
0.650355 0.183978 0.782345
0.766064 0.200153 0.75964
0.767178 0.202152 0.762112
0.766598 0.202182 0.762707
0.762417 0.203235 0.768307
0.0872511 0.154818 0.682658
0.105135 0.160082 0.696162
0.145571 0.161532 0.715053
0.328496 0.168383 0.773236
0.64509 0.186572 0.786999
0.76939 0.202319 0.759854
0.771725 0.204471 0.761379
0.77142 0.204669 0.762036
0.767269 0.206043 0.768154
0.0283207 0.21326 0.649714
0.0268559 0.209796 0.649241
0.0244907 0.189532 0.641428
0.155688 0.166369 0.721325
0.590051 0.184802 0.795331
0.772641 0.207126 0.763149
0.778668 0.211994 0.765713
0.779751 0.213764 0.767834
0.777584 0.216785 0.774746
0.157626 0.669642 0.791043
0.164172 0.679911 0.796368
0.166003 0.682185 0.799664
0.162631 0.671946 0.806729
0.568215 0.676478 0.979644
0.962448 0.610269 0.948211
0.981277 0.597025 0.935637
0.981765 0.601465 0.935439
0.968307 0.645991 0.940108
0.375479 0.89395 0.877287
0.392935 0.899962 0.88336
0.399161 0.901503 0.885496
0.398703 0.89955 0.884016
0.557183 0.914488 0.911101
0.888823 0.901137 0.915892
0.971023 0.905943 0.912428
0.971679 0.907195 0.913207
0.967041 0.917021 0.924498
0.525689 0.958602 0.929244
0.547036 0.954528 0.928618
0.549447 0.953689 0.928038
0.540932 0.952255 0.923858
0.6094 0.95137 0.920409
0.868666 0.959655 0.936843
0.973022 0.969589 0.926863
0.980377 0.967941 0.929976
0.978592 0.969482 0.942168
0.538674 0.962585 0.936751
0.564965 0.957092 0.935012
0.56791 0.955413 0.933577
0.548531 0.955016 0.92871
0.626184 0.952178 0.923278
0.876234 0.958892 0.937911
0.965652 0.969512 0.93106
0.981811 0.967971 0.923201
0.978729 0.969253 0.933852
0.596216 0.969299 0.956237
0.625422 0.961547 0.950729
0.62501 0.958846 0.947082
0.587518 0.958297 0.938979
0.754711 0.957549 0.942901
0.92282 0.964614 0.955581
0.970443 0.971099 0.949538
0.979583 0.970031 0.940276
0.976883 0.970397 0.940703
0.180758 0.167865 0.732052
0.200549 0.168597 0.739651
0.236378 0.170138 0.752117
0.373129 0.175113 0.785977
0.646906 0.189303 0.790097
0.763851 0.198825 0.760174
0.76704 0.20267 0.762997
0.767727 0.202045 0.761501
0.764019 0.202838 0.766262
0.160998 0.166979 0.723644
0.180209 0.168139 0.732296
0.221286 0.169574 0.747234
0.37583 0.174868 0.786282
0.661936 0.191684 0.789288
0.765896 0.201358 0.762112
0.768002 0.203967 0.764126
0.767407 0.203784 0.764385
0.76408 0.204471 0.768612
0.118395 0.165881 0.705379
0.135805 0.167041 0.714336
0.176165 0.168063 0.730877
0.348226 0.174121 0.781308
0.654566 0.191943 0.791669
0.768795 0.20322 0.762325
0.771954 0.205646 0.763043
0.771542 0.205615 0.763394
0.767803 0.206806 0.768856
0.0291142 0.212879 0.657206
0.0273747 0.206271 0.654063
0.0248112 0.180728 0.641581
0.181613 0.169528 0.733364
0.593927 0.184771 0.796292
0.773648 0.211612 0.770611
0.77995 0.214542 0.769253
0.780423 0.215305 0.770108
0.777874 0.218189 0.777111
0.165911 0.667811 0.825208
0.17879 0.680125 0.829389
0.182101 0.681575 0.83035
0.168841 0.664393 0.824689
0.563104 0.659068 0.995346
0.952239 0.59762 0.970443
0.976471 0.583062 0.962081
0.976837 0.588449 0.961852
0.965545 0.634592 0.96286
0.489998 0.916457 0.947219
0.506447 0.919203 0.945571
0.511681 0.919783 0.945266
0.505272 0.915541 0.944427
0.633844 0.913359 0.957702
0.872404 0.901869 0.958526
0.968032 0.890272 0.957946
0.969543 0.891386 0.956191
0.964736 0.904448 0.956146
0.624018 0.96643 0.955779
0.641428 0.961944 0.953445
0.644282 0.961181 0.952941
0.647211 0.961425 0.953262
0.700404 0.961334 0.954986
0.890486 0.960433 0.962829
0.966766 0.9626 0.965911
0.982269 0.96286 0.962768
0.978927 0.965026 0.966827
0.616785 0.968429 0.95758
0.640497 0.962203 0.953658
0.645899 0.960723 0.95259
0.644053 0.962402 0.95404
0.706935 0.96231 0.954543
0.905043 0.965606 0.963821
0.966064 0.971527 0.970932
0.98117 0.971633 0.967636
0.979263 0.972198 0.970169
0.617273 0.968292 0.957458
0.64065 0.962142 0.953597
0.648951 0.959884 0.951934
0.650019 0.962081 0.954009
0.794827 0.962829 0.959823
0.933623 0.968368 0.968414
0.969604 0.972015 0.973236
0.978531 0.972015 0.971786
0.976425 0.972854 0.972671
0.188891 0.168002 0.734951
0.208667 0.169055 0.742657
0.243977 0.17055 0.754635
0.378088 0.174807 0.786404
0.651255 0.18999 0.789776
0.762936 0.197589 0.759182
0.767605 0.203387 0.763577
0.768826 0.202579 0.761334
0.766049 0.203098 0.764797
0.168109 0.167071 0.726406
0.186877 0.168322 0.734798
0.227832 0.169726 0.749371
0.381338 0.174792 0.786969
0.665568 0.192081 0.788754
0.764294 0.199298 0.76051
0.768322 0.204379 0.764492
0.76788 0.20415 0.764523
0.765316 0.204654 0.767758
0.125795 0.165866 0.708232
0.142 0.167346 0.717083
0.182528 0.168399 0.733425
0.353826 0.17435 0.782437
0.658045 0.192203 0.791089
0.767269 0.201205 0.76054
0.772244 0.206058 0.763424
0.771771 0.205951 0.763699
0.768322 0.207111 0.768872
0.0287175 0.209751 0.655436
0.0270237 0.203571 0.652644
0.0241245 0.177401 0.639521
0.186526 0.169802 0.735286
0.597742 0.185565 0.796445
0.772564 0.210742 0.770321
0.780148 0.214786 0.769467
0.780606 0.215503 0.770275
0.777935 0.21828 0.777173
0.166873 0.666636 0.825711
0.179187 0.67892 0.829862
0.182101 0.680491 0.830427
0.167407 0.662501 0.823896
0.56495 0.656199 0.99527
0.951568 0.595789 0.970748
0.976089 0.58143 0.962371
0.976333 0.587198 0.961212
0.965118 0.634119 0.962448
0.491554 0.916136 0.947631
0.505409 0.918914 0.945861
0.511315 0.919524 0.94548
0.503639 0.914595 0.94432
0.635218 0.911376 0.957229
0.872206 0.90045 0.957916
0.968826 0.88867 0.956573
0.972656 0.88896 0.952148
0.964645 0.90277 0.955795
0.624308 0.966354 0.955718
0.641367 0.961959 0.95346
0.64419 0.961196 0.952956
0.645716 0.961349 0.953124
0.701137 0.960433 0.955978
0.901381 0.959579 0.966308
0.963607 0.962066 0.970626
0.981811 0.960723 0.966308
0.978531 0.963424 0.969558
0.619974 0.967407 0.956085
0.640436 0.962219 0.953658
0.645792 0.960754 0.952621
0.644205 0.962432 0.95407
0.717662 0.962722 0.956786
0.911177 0.96643 0.967102
0.966369 0.971695 0.973861
0.981247 0.971786 0.971603
0.979553 0.972366 0.97322
0.6177 0.968139 0.957259
0.640665 0.962142 0.953597
0.648554 0.960006 0.952026
0.649973 0.962112 0.954025
0.79324 0.962829 0.959838
0.934478 0.968658 0.970077
0.969619 0.972137 0.974777
0.979675 0.972274 0.973037
0.980896 0.97203 0.972015
0.190097 0.168154 0.735485
0.209918 0.169207 0.743175
0.247593 0.170657 0.755764
0.387076 0.175021 0.787793
0.660914 0.191089 0.788495
0.762997 0.197635 0.759167
0.767712 0.203525 0.763699
0.76907 0.202716 0.761334
0.766186 0.20325 0.764904
0.169268 0.166995 0.726802
0.188037 0.168399 0.735241
0.231113 0.16997 0.75053
0.390814 0.175113 0.788479
0.675486 0.193347 0.787396
0.764401 0.199329 0.760433
0.768383 0.204486 0.764599
0.767895 0.204273 0.764721
0.765377 0.204746 0.767865
0.124834 0.165835 0.70779
0.140948 0.1673 0.716609
0.183627 0.168383 0.733791
0.362264 0.174762 0.784131
0.668635 0.193835 0.790066
0.76788 0.201678 0.760754
0.772427 0.206287 0.763653
0.772061 0.20621 0.763989
0.768551 0.207401 0.769207
0.0295415 0.216754 0.658763
0.0280919 0.214862 0.657938
0.0257572 0.188937 0.646052
0.185992 0.17174 0.736049
0.608392 0.188693 0.797772
0.773632 0.21178 0.770916
0.780987 0.215702 0.770169
0.781369 0.216449 0.771008
0.778546 0.219074 0.777798
0.181201 0.679591 0.830716
0.193225 0.69192 0.834836
0.195422 0.693446 0.83505
0.17702 0.674678 0.826932
0.583658 0.672007 0.991165
0.949401 0.614572 0.96701
0.978393 0.600504 0.962615
0.976303 0.607217 0.960937
0.962524 0.649744 0.95996
0.501457 0.920348 0.947433
0.515846 0.922866 0.945846
0.52282 0.923323 0.944884
0.515663 0.918105 0.943816
0.658701 0.913039 0.955215
0.87982 0.905135 0.956436
0.969009 0.894255 0.956664
0.97203 0.894209 0.951644
0.963684 0.90782 0.955108
0.626886 0.965667 0.955276
0.644862 0.960998 0.952712
0.651026 0.959335 0.951354
0.654643 0.959014 0.951171
0.71986 0.958938 0.955215
0.907485 0.960052 0.967147
0.963638 0.963073 0.971847
0.981414 0.961563 0.967208
0.978149 0.964294 0.970382
0.631449 0.964233 0.953506
0.646143 0.960647 0.952453
0.654078 0.95848 0.950774
0.659068 0.958541 0.950988
0.739696 0.959854 0.955795
0.915846 0.966659 0.969299
0.964553 0.972274 0.976379
0.982055 0.971542 0.970794
0.980728 0.972 0.972076
0.615915 0.968582 0.957336
0.64358 0.961334 0.952972
0.654841 0.958267 0.950652
0.664515 0.958236 0.950957
0.808484 0.960189 0.95906
0.935531 0.968536 0.971832
0.967025 0.972793 0.977172
0.977905 0.972686 0.974578
0.982467 0.971649 0.970596
