bundles/resolve-cinematic-luts/Phantom Luts/P4k & P6k Phntm Arri LUTs - V6/P4K/Gen 5 Colour/White Balance Offset (Magenta Boost)/P4k Neutral Gen 5-Legacy WBO.cube
TITLE "Generated by Resolve"
LUT_3D_SIZE 33
0.0183566 0.0182498 0.0183261
0.0183566 0.0182498 0.0183261
0.0183566 0.0182498 0.0183261
0.0344244 0.0208743 0.0196231
0.0449378 0.0230106 0.020737
0.0570535 0.0250858 0.0224155
0.0776684 0.0273747 0.0256657
0.0994278 0.0291447 0.0289464
0.124376 0.0318151 0.0332952
0.157687 0.0353704 0.0397498
0.201373 0.0407416 0.0489662
0.254749 0.0465248 0.0596323
0.320226 0.0518196 0.0716411
0.39028 0.0585184 0.0862287
0.467338 0.0675669 0.104723
0.550256 0.0781567 0.124743
0.642039 0.0914778 0.146899
0.750881 0.106355 0.173053
0.873137 0.121202 0.199985
0.921416 0.127642 0.211017
0.925017 0.128969 0.213107
0.927901 0.13022 0.214954
0.930266 0.131182 0.216403
0.931945 0.131868 0.217426
0.933211 0.132357 0.218158
0.934234 0.132708 0.218723
0.934966 0.132967 0.21912
0.9355 0.133135 0.219379
0.935866 0.133242 0.219562
0.936126 0.133333 0.219684
0.936324 0.133394 0.219806
0.936431 0.13344 0.219867
0.936507 0.133471 0.219913
0.0183566 0.0182498 0.0183261
0.0183566 0.0182498 0.0183261
0.0183566 0.0182498 0.0183261
0.0293278 0.0209812 0.0192569
0.0396735 0.0239414 0.0209506
0.0501869 0.0268559 0.0225223
0.0691081 0.0293278 0.0247196
0.0920272 0.03093 0.0281224
0.117388 0.032639 0.0323033
0.149798 0.0351568 0.0372778
0.192447 0.0390631 0.0443732
0.24448 0.0442206 0.0536507
0.311025 0.0500496 0.0659648
0.382345 0.0574197 0.0809339
0.460151 0.0661173 0.0997787
0.543755 0.0772106 0.120668
0.635981 0.0906081 0.143114
0.744213 0.105776 0.169512
0.867323 0.120897 0.197086
0.918059 0.127291 0.208377
0.921736 0.128267 0.210239
0.925032 0.129015 0.211734
0.927413 0.129824 0.213062
0.929061 0.130556 0.214145
0.930282 0.131121 0.214954
0.931228 0.131472 0.215473
0.931884 0.131762 0.215915
0.932342 0.131975 0.216236
0.932631 0.132128 0.216449
0.93283 0.132219 0.216587
0.932967 0.13228 0.216678
0.933074 0.132326 0.216739
0.93315 0.132357 0.216785
0.0183566 0.0182498 0.0183261
0.0183566 0.0182498 0.0183261
0.0183566 0.0182498 0.0183261
0.0205081 0.0207065 0.0187076
0.0344396 0.0254826 0.0209201
0.0441138 0.028687 0.0223392
0.0603647 0.0316777 0.0248417
0.0851301 0.0321813 0.0281224
0.112367 0.0335546 0.0322271
0.145418 0.0360418 0.0374914
0.188464 0.0393378 0.0437934
0.240757 0.0446021 0.0531014
0.305241 0.0496529 0.0631266
0.374929 0.0566567 0.0769818
0.452583 0.0650034 0.0947738
0.537865 0.0763714 0.116442
0.630152 0.0896162 0.139254
0.738323 0.105333 0.166155
0.861997 0.120607 0.194095
0.913848 0.127123 0.205737
0.917815 0.127932 0.207431
0.920958 0.128756 0.209018
0.923323 0.129366 0.210193
0.925292 0.129809 0.211093
0.926757 0.130175 0.211795
0.927825 0.130434 0.212314
0.928603 0.130617 0.212696
0.929137 0.130755 0.212955
0.929549 0.130861 0.213153
0.929824 0.130922 0.213275
0.930022 0.130968 0.213382
0.930159 0.130999 0.213443
0.930251 0.131029 0.213504
0.0204623 0.0334478 0.0267796
0.020325 0.0328374 0.0250401
0.0202029 0.0319677 0.0224613
0.0244297 0.031342 0.0209201
0.0339361 0.0329137 0.0214847
0.0438544 0.0358892 0.0260624
0.056199 0.0365911 0.026566
0.0784466 0.0344244 0.0280003
0.106279 0.0346532 0.0319219
0.140398 0.0371099 0.0374456
0.184207 0.0404669 0.0438849
0.236545 0.0449226 0.0521859
0.301183 0.0498054 0.0618753
0.37174 0.0567178 0.0757
0.447654 0.0647593 0.0919509
0.530037 0.0753643 0.111086
0.623346 0.0885481 0.134936
0.731594 0.104356 0.161807
0.855207 0.120027 0.190402
0.909178 0.126864 0.202808
0.913268 0.127733 0.2047
0.916426 0.128267 0.205966
0.919036 0.128908 0.207248
0.921035 0.129412 0.20824
0.922271 0.129793 0.208942
0.923278 0.130053 0.209461
0.924056 0.13022 0.209796
0.92462 0.130327 0.210025
0.925017 0.130419 0.210208
0.925292 0.130495 0.210361
0.925475 0.130541 0.210437
0.925597 0.130571 0.210513
0.925704 0.130602 0.210559
0.0225071 0.0437171 0.0339818
0.0223545 0.043183 0.0331121
0.0227665 0.0417029 0.0284123
0.0277867 0.0404974 0.0238651
0.0361486 0.0423438 0.0237736
0.0435645 0.0422522 0.0241855
0.0620279 0.0472114 0.0327153
0.0832074 0.0444343 0.032166
0.10779 0.0420539 0.0345312
0.139284 0.0419471 0.0388495
0.181872 0.043122 0.0444953
0.232853 0.0455482 0.0515602
0.297154 0.049958 0.0607462
0.368475 0.0569162 0.0743267
0.444648 0.0649577 0.090486
0.527184 0.0756237 0.109728
0.616587 0.0880293 0.131182
0.723033 0.103502 0.157275
0.847639 0.119707 0.186526
0.904326 0.126513 0.199557
0.908156 0.12726 0.201373
0.911437 0.128038 0.202991
0.914183 0.128649 0.204273
0.916274 0.128954 0.205005
0.917784 0.12929 0.205722
0.918898 0.12958 0.206287
0.919676 0.129778 0.206683
0.920256 0.129915 0.206973
0.920653 0.130022 0.207172
0.920943 0.130098 0.207324
0.921141 0.130144 0.207431
0.921279 0.130175 0.207492
0.92137 0.130205 0.207538
0.024094 0.0545663 0.0380255
0.0237278 0.0541848 0.0368048
0.024445 0.0526589 0.0345159
0.0260624 0.0512856 0.0281987
0.0372473 0.0513161 0.0264591
0.0440986 0.0533303 0.0255589
0.0562905 0.0523232 0.0269017
0.091371 0.0580301 0.0372778
0.115801 0.0519417 0.038941
0.144411 0.0495308 0.0419013
0.182712 0.0491035 0.0463874
0.233371 0.0500649 0.0521706
0.294041 0.0513924 0.0597086
0.364813 0.0568704 0.072282
0.441337 0.0652628 0.088777
0.524529 0.0760052 0.108583
0.614069 0.0885634 0.130098
0.717372 0.103365 0.15433
0.838972 0.119402 0.182147
0.901091 0.126802 0.196521
0.904524 0.127489 0.198352
0.90724 0.127977 0.19971
0.909529 0.128405 0.200885
0.910979 0.12874 0.201724
0.912276 0.128985 0.20238
0.913298 0.129183 0.202884
0.914137 0.129366 0.203281
0.914748 0.129503 0.203571
0.915175 0.129595 0.203769
0.915465 0.129564 0.203769
0.915694 0.129595 0.203861
0.915846 0.129625 0.203922
0.915938 0.129641 0.203967
0.0253605 0.0734722 0.0438392
0.0247959 0.0735637 0.0413825
0.025803 0.0721447 0.0392309
0.0271 0.0704204 0.0359655
0.0333867 0.0689403 0.029633
0.0435035 0.0707408 0.0286412
0.054078 0.0720226 0.0269169
0.0779583 0.0712291 0.0291447
0.121569 0.0762493 0.0410468
0.154955 0.0645151 0.0464637
0.192081 0.0617838 0.0505837
0.237629 0.0603494 0.054139
0.295369 0.060029 0.0601816
0.362905 0.0619516 0.0717479
0.436301 0.065507 0.0861982
0.519966 0.0763409 0.10663
0.609934 0.0895247 0.128374
0.712871 0.104051 0.152712
0.833219 0.11989 0.180026
0.899489 0.127687 0.193774
0.89987 0.127947 0.193744
0.902388 0.128481 0.195193
0.904662 0.128908 0.19646
0.906355 0.129213 0.197391
0.907622 0.129442 0.198108
0.908583 0.129595 0.198581
0.909224 0.129686 0.198886
0.909682 0.129763 0.19913
0.910018 0.129824 0.199313
0.910246 0.12987 0.199435
0.910399 0.1299 0.199527
0.910521 0.129915 0.199588
0.910582 0.129931 0.199634
0.0265202 0.0965133 0.0500191
0.0255741 0.0968795 0.047425
0.0259403 0.0962692 0.0449683
0.0275425 0.0949264 0.0409094
0.0291447 0.0936751 0.0368353
0.0384527 0.092958 0.0303502
0.0509346 0.095201 0.0302434
0.0700999 0.0953231 0.0265965
0.10457 0.0962234 0.0298466
0.155673 0.098497 0.0447852
0.206729 0.078706 0.055375
0.250278 0.0755016 0.0586557
0.304814 0.0726024 0.0623941
0.364584 0.0731518 0.0733043
0.436759 0.0757 0.0872511
0.516793 0.0798962 0.104753
0.603891 0.0903334 0.125978
0.70692 0.105211 0.150561
0.826444 0.120851 0.177981
0.903212 0.130144 0.193484
0.903639 0.130419 0.193439
0.904005 0.130648 0.193408
0.90428 0.130816 0.193393
0.904494 0.130953 0.193378
0.904631 0.131044 0.193362
0.904753 0.131121 0.193362
0.90483 0.131167 0.193347
0.904891 0.131197 0.193347
0.904921 0.131228 0.193347
0.904952 0.131228 0.193347
0.904967 0.131243 0.193347
0.904967 0.131258 0.193347
0.904982 0.131258 0.193347
0.0271611 0.122988 0.0581826
0.0260777 0.123674 0.0540627
0.0252537 0.124208 0.0510262
0.026627 0.123095 0.0474861
0.0281376 0.121828 0.0434272
0.0302434 0.120241 0.0383764
0.0425727 0.120027 0.0313268
0.0611887 0.122988 0.0312657
0.0896468 0.121721 0.0259861
0.134463 0.122484 0.0301366
0.197223 0.121096 0.0485695
0.269978 0.0970474 0.0650187
0.322011 0.0953231 0.071519
0.379889 0.0931258 0.0793469
0.444144 0.0941176 0.0917983
0.520302 0.0983902 0.108766
0.607034 0.104143 0.12752
0.703731 0.109972 0.148241
0.815946 0.122118 0.174517
0.908522 0.133379 0.193179
0.908919 0.133639 0.193149
0.90927 0.133837 0.193133
0.909529 0.134005 0.193118
0.909712 0.134112 0.193088
0.909865 0.134203 0.193072
0.910033 0.134279 0.193103
0.91014 0.134325 0.193118
0.910216 0.134371 0.193118
0.910292 0.134386 0.193133
0.910338 0.134417 0.193133
0.910338 0.134417 0.193133
0.910369 0.134432 0.193149
0.910369 0.134432 0.193133
0.0276799 0.156344 0.072282
0.026566 0.157137 0.0674296
0.0253452 0.15819 0.0615549
0.0252079 0.158663 0.0562295
0.0265354 0.157504 0.052842
0.0282597 0.155993 0.0483711
0.0311894 0.153201 0.0402075
0.0490272 0.154269 0.0326238
0.0783398 0.15848 0.0334783
0.113756 0.155001 0.026566
0.174731 0.157137 0.0316167
0.248768 0.153002 0.0543832
0.345296 0.124956 0.0809033
0.403952 0.125292 0.0911421
0.467185 0.124605 0.10312
0.538933 0.12755 0.117922
0.618631 0.132143 0.134844
0.71664 0.138903 0.155673
0.827314 0.145251 0.177249
0.924483 0.151324 0.195468
0.92079 0.145312 0.194186
0.917952 0.14049 0.193103
0.916426 0.138613 0.192645
0.916487 0.138827 0.19266
0.91664 0.138994 0.192706
0.916732 0.139132 0.192737
0.916823 0.139223 0.192767
0.916854 0.139284 0.192782
0.916915 0.13933 0.192782
0.91693 0.139361 0.192798
0.916945 0.139376 0.192798
0.91696 0.139391 0.192798
0.916945 0.139406 0.192798
0.0292821 0.200015 0.0896162
0.0282444 0.200748 0.085008
0.027039 0.201678 0.0800641
0.0257572 0.202792 0.0740063
0.0254978 0.203265 0.0670024
0.0269932 0.20209 0.0619974
0.0294194 0.199985 0.0551919
0.0337377 0.196063 0.0430152
0.0586252 0.199374 0.0358892
0.101488 0.205966 0.0379797
0.145159 0.199725 0.0285344
0.228489 0.204822 0.037705
0.318944 0.203738 0.0620584
0.433371 0.170336 0.104082
0.504784 0.175097 0.118257
0.573693 0.176089 0.132586
0.652338 0.178744 0.14934
0.741848 0.182162 0.166873
0.843549 0.186694 0.185824
0.944305 0.19353 0.205005
0.946731 0.189258 0.204837
0.943969 0.184894 0.203677
0.942535 0.181338 0.202991
0.940841 0.178408 0.202228
0.939666 0.176211 0.201724
0.93904 0.174685 0.201419
0.938308 0.173648 0.201114
0.937865 0.172793 0.200931
0.93753 0.172168 0.200778
0.937316 0.171801 0.200687
0.937163 0.171527 0.20061
0.937041 0.171344 0.200565
0.936965 0.171221 0.200534
0.0331579 0.255528 0.111528
0.0321508 0.256199 0.107088
0.0309911 0.257038 0.10312
0.0296483 0.257923 0.0982376
0.0284428 0.259129 0.0910353
0.0277562 0.260136 0.0836805
0.0294347 0.258762 0.0756847
0.0331884 0.255787 0.0643015
0.0393225 0.25005 0.045655
0.0760815 0.258183 0.043473
0.132677 0.269551 0.047013
0.191745 0.259556 0.0347753
0.296452 0.267475 0.0462043
0.403967 0.277653 0.0656596
0.529442 0.247181 0.126543
0.614221 0.24358 0.149889
0.695109 0.245945 0.166918
0.78648 0.245762 0.184253
0.882124 0.247318 0.201358
0.966552 0.250584 0.216876
0.977172 0.24712 0.21825
0.974777 0.242496 0.217105
0.972885 0.239139 0.216236
0.971054 0.236393 0.215473
0.96968 0.234318 0.214908
0.968978 0.233021 0.214618
0.968063 0.231922 0.214252
0.967544 0.231052 0.214038
0.967147 0.230411 0.21387
0.966857 0.229953 0.213748
0.966659 0.229648 0.213672
0.966506 0.229404 0.213611
0.966415 0.229252 0.213565
0.0416266 0.328222 0.140047
0.0406043 0.328756 0.136034
0.0397498 0.32932 0.132128
0.0385595 0.329931 0.127779
0.0373083 0.330678 0.12282
0.0361486 0.331884 0.115969
0.0345922 0.333669 0.105699
0.0370184 0.332052 0.0937209
0.0419318 0.327932 0.0778515
0.0470741 0.321447 0.0484474
0.10367 0.335409 0.0497139
0.176684 0.34725 0.0540322
0.251881 0.334722 0.0437324
0.37293 0.34165 0.0534218
0.499336 0.379187 0.0560006
0.630869 0.357168 0.137743
0.725383 0.321798 0.1776
0.83061 0.326497 0.201755
0.927352 0.327291 0.2206
0.995438 0.327581 0.233448
0.996094 0.326528 0.233951
0.995865 0.322271 0.233158
0.995682 0.318791 0.232547
0.995529 0.316045 0.232151
0.995407 0.313985 0.231815
0.995346 0.312734 0.231647
0.995285 0.31165 0.231449
0.995239 0.310887 0.231312
0.995193 0.310338 0.23122
0.995178 0.309926 0.231144
0.995163 0.309636 0.231098
0.995148 0.309422 0.231067
0.995132 0.309285 0.231037
0.0458991 0.406317 0.177249
0.0458076 0.406744 0.17261
0.0455787 0.407172 0.168643
0.0452735 0.40763 0.16434
0.0449378 0.408164 0.159686
0.0445716 0.408896 0.154116
0.0439612 0.410437 0.144091
0.0432593 0.41265 0.130404
0.0446326 0.410986 0.114641
0.0477913 0.406226 0.0920577
0.0598306 0.402792 0.0547951
0.137865 0.416236 0.0573587
0.238285 0.42742 0.0627146
0.325719 0.41413 0.0459144
0.454658 0.422583 0.0629435
0.592264 0.471992 0.0629282
0.721263 0.45893 0.141756
0.837552 0.425025 0.198062
0.925093 0.401694 0.227451
0.997986 0.408576 0.245624
0.998123 0.414115 0.248371
0.998154 0.411322 0.248066
0.998184 0.409339 0.247852
0.998199 0.407599 0.247669
0.998215 0.406287 0.247532
0.99823 0.40531 0.24744
0.998245 0.404608 0.247379
0.998245 0.404089 0.247333
0.998245 0.403723 0.247272
0.998245 0.403479 0.247242
0.998245 0.403281 0.247211
0.998245 0.403143 0.247196
0.998245 0.403037 0.247181
0.0496376 0.489815 0.223667
0.0497292 0.490135 0.219745
0.0497749 0.490425 0.215274
0.0496834 0.4907 0.210636
0.0494698 0.491051 0.206577
0.0492409 0.491524 0.20174
0.0489967 0.49247 0.193835
0.0482185 0.494514 0.179858
0.0474098 0.497032 0.160037
0.0501106 0.494713 0.137148
0.0554971 0.488548 0.106645
0.088365 0.488548 0.0637369
0.194018 0.503655 0.0705577
0.318105 0.513787 0.075227
0.411826 0.500191 0.0513466
0.538521 0.509087 0.0825818
0.677394 0.555886 0.0879988
0.806485 0.561898 0.151156
0.912184 0.530312 0.213291
0.9785 0.519173 0.239231
1 0.523857 0.249744
1 0.520317 0.249882
1 0.517311 0.250019
1 0.515236 0.250156
1 0.513619 0.250248
1 0.512276 0.250294
1 0.511284 0.25034
1 0.510536 0.250385
1 0.510018 0.250416
1 0.509621 0.250446
1 0.509316 0.250462
1 0.509117 0.250477
1 0.508965 0.250477
0.0532082 0.578775 0.277836
0.0533303 0.578882 0.274311
0.0536812 0.578897 0.270115
0.0538491 0.579004 0.266056
0.0540169 0.579156 0.261784
0.054139 0.579385 0.257053
0.0542306 0.579828 0.250019
0.0546426 0.580911 0.239429
0.0544747 0.583154 0.221363
0.0545968 0.584695 0.195727
0.0588388 0.581628 0.164691
0.0693523 0.573663 0.119738
0.132784 0.578805 0.080293
0.272709 0.594903 0.0938582
0.407919 0.604746 0.0881514
0.500542 0.589715 0.067216
0.622721 0.59823 0.111711
0.771572 0.645914 0.119478
0.90544 0.676417 0.167224
0.97232 0.640757 0.229801
1 0.629389 0.250477
1 0.629404 0.248386
1 0.627176 0.248264
1 0.625498 0.248234
1 0.624292 0.248356
1 0.623362 0.248356
1 0.622705 0.248234
1 0.622202 0.248142
1 0.621805 0.248112
1 0.6215 0.248096
1 0.621271 0.248081
1 0.621103 0.248081
1 0.620981 0.248081
0.0635386 0.672099 0.336782
0.0637369 0.672145 0.333532
0.0639048 0.672114 0.330266
0.0641642 0.672084 0.32668
0.0642863 0.672129 0.323171
0.0643626 0.672175 0.318639
0.0647288 0.67245 0.312367
0.0654459 0.67303 0.303029
0.0666514 0.674174 0.288151
0.0670481 0.676692 0.263355
0.0695354 0.676112 0.232303
0.0772259 0.670756 0.192721
0.094255 0.664714 0.121462
0.211963 0.674266 0.107118
0.376791 0.690227 0.126925
0.499413 0.70074 0.109468
0.590356 0.684443 0.0961318
0.706889 0.691417 0.145037
0.871992 0.741497 0.163851
0.987182 0.782589 0.19794
1 0.778592 0.258396
1 0.765972 0.268437
1 0.7635 0.267964
1 0.761532 0.267552
1 0.759991 0.267277
1 0.758816 0.267048
1 0.758022 0.266896
1 0.757473 0.26685
1 0.757061 0.266804
1 0.756771 0.266773
1 0.756542 0.266743
1 0.756374 0.266712
1 0.756222 0.266682
0.0805676 0.770977 0.393362
0.0808728 0.770932 0.390585
0.0809186 0.770871 0.387717
0.0813916 0.77084 0.38497
0.0817426 0.770809 0.381888
0.0821393 0.770718 0.378424
0.0827802 0.770718 0.373098
0.0835126 0.770977 0.365682
0.0852979 0.771878 0.353964
0.0871138 0.773327 0.335348
0.0879377 0.776059 0.303502
0.0942397 0.771725 0.263905
0.104768 0.762692 0.214115
0.146365 0.762722 0.127199
0.322515 0.775998 0.143496
0.484535 0.794171 0.162814
0.591928 0.805219 0.130724
0.680003 0.786526 0.127398
0.793133 0.788098 0.184817
0.930648 0.816785 0.218158
1 0.846677 0.261845
1 0.843137 0.309957
1 0.842924 0.317708
1 0.842618 0.318441
1 0.842359 0.31902
1 0.842176 0.319539
1 0.842039 0.31989
1 0.841932 0.320073
1 0.841856 0.320195
1 0.84181 0.320287
1 0.841764 0.320378
1 0.841733 0.320455
1 0.841703 0.320531
0.0991989 0.871214 0.445075
0.0995041 0.871092 0.442588
0.0997787 0.87097 0.440116
0.100038 0.870848 0.437552
0.100359 0.870741 0.434821
0.100649 0.870634 0.431891
0.101183 0.870527 0.427359
0.102007 0.870344 0.420874
0.103273 0.870436 0.4112
0.105943 0.871473 0.396063
0.108461 0.873152 0.370565
0.112871 0.871412 0.335836
0.120974 0.864607 0.291127
0.137285 0.856123 0.215442
0.252766 0.864118 0.16051
0.440803 0.876143 0.183902
0.589868 0.892546 0.18819
0.680323 0.900832 0.151019
0.768261 0.881971 0.163027
0.870283 0.875196 0.229435
0.970199 0.888701 0.26627
0.994842 0.924895 0.284169
0.994766 0.925933 0.314214
0.994797 0.925368 0.313558
0.994812 0.924773 0.312886
0.994842 0.924315 0.312337
0.994858 0.92398 0.311879
0.994873 0.92372 0.311543
0.994873 0.923537 0.311284
0.994888 0.923369 0.311086
0.994888 0.923247 0.310933
0.994888 0.923156 0.310811
0.994904 0.923079 0.310704
0.118807 0.954147 0.490517
0.119112 0.953964 0.488212
0.11931 0.95378 0.485924
0.119463 0.953613 0.48365
0.119646 0.95346 0.481224
0.119753 0.953277 0.47863
0.120073 0.953063 0.474586
0.120638 0.952712 0.468864
0.121065 0.952453 0.460548
0.12343 0.952529 0.447135
0.12639 0.953079 0.425452
0.133211 0.950729 0.398703
0.14255 0.943984 0.359884
0.153033 0.936172 0.30721
0.192782 0.940291 0.198276
0.387686 0.943938 0.210086
0.553826 0.951202 0.231998
0.682567 0.963638 0.215015
0.764126 0.967437 0.189868
0.853529 0.951156 0.215702
0.932921 0.944121 0.294575
0.992737 0.970291 0.331502
0.992462 0.977035 0.378607
0.992462 0.97702 0.380667
0.992462 0.976928 0.380514
0.992477 0.976852 0.380377
0.992477 0.976791 0.38024
0.992477 0.97673 0.380163
0.992477 0.976699 0.380072
0.992477 0.976654 0.380041
0.992477 0.976623 0.379995
0.992477 0.976608 0.379934
0.992477 0.976593 0.379919
0.13164 0.996201 0.522637
0.131975 0.996109 0.520546
0.132311 0.995987 0.518395
0.132616 0.995895 0.516289
0.132876 0.995789 0.514214
0.133288 0.995666 0.511635
0.133852 0.995468 0.50811
0.134752 0.995209 0.502663
0.135729 0.994919 0.495018
0.140444 0.993729 0.485542
0.148135 0.991913 0.472496
0.156909 0.989593 0.453071
0.172122 0.98912 0.429221
0.180865 0.984375 0.387106
0.201984 0.983337 0.319753
0.35172 0.990112 0.288334
0.518273 0.984955 0.294606
0.664591 0.981155 0.29572
0.759304 0.984375 0.26566
0.842283 0.987289 0.265766
0.91751 0.98735 0.303471
0.973449 0.982071 0.368307
0.992187 0.988281 0.417182
0.992172 0.988296 0.429725
0.992172 0.988296 0.427359
0.992172 0.988296 0.427329
0.992172 0.988296 0.427298
0.992172 0.988296 0.427237
0.992172 0.988296 0.427222
0.992172 0.988296 0.427176
0.992172 0.988296 0.427146
0.992172 0.988296 0.427115
0.992172 0.988296 0.427085
0.130709 0.996536 0.529046
0.131044 0.996429 0.526986
0.131365 0.996323 0.524895
0.131624 0.996216 0.522896
0.13193 0.996109 0.52079
0.132326 0.995987 0.518273
0.132784 0.995819 0.51487
0.133593 0.995575 0.509621
0.134844 0.995193 0.502068
0.137407 0.994659 0.49102
0.145418 0.99266 0.478111
0.154803 0.990341 0.459281
0.169497 0.989273 0.43534
0.186343 0.990723 0.40647
0.207309 0.990723 0.366781
0.333608 0.990784 0.33608
0.499641 0.986206 0.338735
0.643015 0.981521 0.347082
0.748791 0.982956 0.324254
0.832334 0.987167 0.320974
0.913542 0.986954 0.343908
0.95227 0.975021 0.396506
0.992172 0.988296 0.433707
0.992157 0.988327 0.461769
0.992157 0.988327 0.46128
0.992157 0.988327 0.459678
0.992157 0.988327 0.458427
0.992157 0.988327 0.457527
0.992157 0.988327 0.456916
0.992157 0.988327 0.456474
0.992157 0.988327 0.456184
0.992157 0.988327 0.45597
0.992157 0.988327 0.455848
0.129824 0.996857 0.534051
0.130282 0.996704 0.532006
0.130602 0.996582 0.530007
0.130877 0.996475 0.528008
0.131212 0.996368 0.525887
0.131609 0.996246 0.523415
0.132036 0.996078 0.520073
0.132738 0.995834 0.515129
0.133928 0.995453 0.507759
0.136019 0.99498 0.496513
0.143099 0.993301 0.482475
0.153033 0.990967 0.464012
0.166796 0.989364 0.439826
0.184741 0.990723 0.4094
0.202564 0.990723 0.371878
0.318334 0.990784 0.338842
0.486152 0.986709 0.338109
0.630381 0.981857 0.346639
0.74107 0.982513 0.326268
0.824948 0.986847 0.319951
0.904753 0.986893 0.34023
0.945357 0.97818 0.387427
0.990845 0.987884 0.42417
0.992157 0.988327 0.460472
0.992157 0.988327 0.46128
0.992157 0.988327 0.461906
0.992157 0.988327 0.462364
0.992157 0.988327 0.462715
0.992157 0.988327 0.462318
0.992157 0.988327 0.461845
0.992157 0.988327 0.461509
0.992157 0.988327 0.46128
0.992157 0.988327 0.461173
0.129213 0.997086 0.537911
0.129473 0.996979 0.536004
0.129854 0.996857 0.533928
0.130327 0.996689 0.531807
0.130617 0.996582 0.529839
0.130968 0.99646 0.527459
0.131518 0.996277 0.523949
0.132219 0.996017 0.519051
0.133242 0.995682 0.511864
0.135286 0.995148 0.50106
0.141238 0.993866 0.485985
0.151476 0.991394 0.467658
0.16492 0.989441 0.442863
0.183444 0.990723 0.41149
0.201282 0.990723 0.375036
0.307149 0.990784 0.34081
0.475319 0.987137 0.337682
0.620737 0.982116 0.345998
0.735546 0.982177 0.32781
0.817777 0.986542 0.31725
0.898039 0.986862 0.337194
0.940322 0.981216 0.378271
0.986099 0.986358 0.415854
0.992157 0.988327 0.454124
0.992157 0.988327 0.460472
0.992157 0.988327 0.460975
0.992157 0.988327 0.461326
0.992157 0.988327 0.461646
0.992157 0.988327 0.461875
0.992157 0.988327 0.462043
0.992157 0.988327 0.46215
0.992157 0.988327 0.462242
0.992157 0.988327 0.462287
0.128801 0.997253 0.540749
0.129122 0.997131 0.53875
0.129351 0.99704 0.536904
0.129671 0.996918 0.534829
0.130129 0.996765 0.532708
0.130602 0.996597 0.530266
0.131044 0.996429 0.52697
0.131716 0.996185 0.522133
0.132769 0.995834 0.514992
0.134813 0.99527 0.504173
0.139895 0.994293 0.488426
0.150378 0.991699 0.47013
0.163485 0.989532 0.445289
0.182483 0.9906 0.413153
0.200366 0.990723 0.377401
0.298955 0.990768 0.342245
0.467369 0.987427 0.337224
0.613809 0.982315 0.345495
0.731548 0.981918 0.329244
0.812573 0.986313 0.315129
0.893095 0.986831 0.335286
0.93579 0.981308 0.373983
0.982528 0.985168 0.410147
0.992157 0.988312 0.448569
0.992157 0.988327 0.459724
0.992157 0.988327 0.460334
0.992157 0.988327 0.460731
0.992157 0.988327 0.460975
0.992157 0.988327 0.461158
0.992157 0.988327 0.46128
0.992157 0.988327 0.461372
0.992157 0.988327 0.461448
0.992157 0.988327 0.461509
0.128435 0.997375 0.542931
0.128771 0.997253 0.540902
0.129107 0.997147 0.538872
0.12932 0.99704 0.536995
0.129656 0.996918 0.534905
0.13019 0.996735 0.532464
0.130694 0.996551 0.529168
0.131487 0.996277 0.524147
0.132525 0.995926 0.517052
0.13431 0.995392 0.506615
0.138827 0.994614 0.490257
0.149493 0.991943 0.472023
0.162432 0.989609 0.446998
0.18175 0.990509 0.414786
0.199725 0.990723 0.378897
0.29308 0.990768 0.343328
0.461585 0.98764 0.336889
0.608652 0.982467 0.345098
0.72874 0.98175 0.330068
0.808652 0.98613 0.31368
0.889906 0.986816 0.334325
0.933135 0.981552 0.371298
0.979934 0.984298 0.406744
0.992157 0.988312 0.445045
0.992157 0.988327 0.45919
0.992157 0.988327 0.459785
0.992157 0.988327 0.460227
0.992157 0.988327 0.460548
0.992157 0.988327 0.460731
0.992157 0.988327 0.460838
0.992157 0.988327 0.460929
0.992157 0.988327 0.46099
0.992157 0.988327 0.461021
0.128176 0.997452 0.544533
0.128527 0.997345 0.542473
0.128862 0.997223 0.540429
0.129183 0.997101 0.538354
0.129397 0.997009 0.536477
0.129824 0.996857 0.534051
0.130556 0.996628 0.530541
0.131228 0.996368 0.525734
0.132265 0.996002 0.518654
0.133898 0.995499 0.508339
0.138125 0.994827 0.491646
0.148867 0.992111 0.47335
0.161776 0.989654 0.447944
0.181231 0.990463 0.416114
0.199344 0.990723 0.379797
0.289265 0.990768 0.343984
0.457435 0.987808 0.336675
0.605432 0.982559 0.344793
0.726741 0.981613 0.330694
0.805951 0.986007 0.3131
0.88748 0.986801 0.333593
0.93138 0.981796 0.369253
0.977646 0.98352 0.404196
0.992157 0.988312 0.442283
0.992157 0.988327 0.458793
0.992157 0.988327 0.459403
0.992157 0.988327 0.459846
0.992157 0.988327 0.460136
0.992157 0.988327 0.460365
0.992157 0.988327 0.460533
0.992157 0.988327 0.460609
0.992157 0.988327 0.46067
0.992157 0.988327 0.460716
