bundles/resolve-cinematic-luts/Phantom Luts/P4k & P6k Phntm Arri LUTs - V6/P4K/Gen 5 Colour/White Balance Offset (Magenta Boost)/P4k IceBlue Gen 5-Legacy WBO.cube
TITLE "Generated by Resolve"
LUT_3D_SIZE 9
0.033402 0.0457618 0.0452583
0.0458839 0.0471351 0.0478828
0.0918135 0.0518044 0.0510719
0.258625 0.062974 0.069276
0.558846 0.0963149 0.119142
0.753582 0.187304 0.212055
0.760342 0.192569 0.217746
0.762692 0.193835 0.220752
0.767514 0.19057 0.238758
0.036286 0.0579232 0.0549477
0.0420233 0.0567941 0.0506905
0.0827955 0.0577096 0.0555276
0.254292 0.0624399 0.0660716
0.561242 0.0967575 0.116411
0.747143 0.183459 0.207996
0.753017 0.187198 0.212711
0.754604 0.188067 0.214252
0.758923 0.185107 0.230365
0.0429084 0.110689 0.0839704
0.0428016 0.112932 0.0753033
0.0768902 0.112596 0.0626535
0.288212 0.0935531 0.078645
0.561502 0.10721 0.117372
0.747189 0.187701 0.204242
0.747875 0.188434 0.204471
0.748226 0.1888 0.204639
0.75172 0.18764 0.214832
0.0467842 0.29781 0.154955
0.0431067 0.310201 0.143999
0.044419 0.311437 0.11194
0.214328 0.32163 0.0675669
0.69073 0.329534 0.178424
0.864912 0.365393 0.282765
0.860349 0.3552 0.279438
0.862058 0.35819 0.280705
0.877668 0.390661 0.294377
0.0822309 0.620722 0.344793
0.0877699 0.632685 0.345159
0.0915236 0.638514 0.327626
0.104646 0.632898 0.223774
0.576822 0.681605 0.161685
0.96202 0.784009 0.384237
0.96582 0.774777 0.392767
0.966644 0.779385 0.397024
0.973999 0.810376 0.415503
0.277852 0.889632 0.577859
0.277287 0.889708 0.573312
0.278035 0.88806 0.561807
0.283299 0.882826 0.509789
0.475746 0.901701 0.374166
0.917983 0.939376 0.445212
0.993042 0.952468 0.522911
0.992218 0.952148 0.528099
0.992523 0.952483 0.530114
0.279438 0.891752 0.593668
0.278248 0.891279 0.5879
0.278843 0.889387 0.576211
0.28127 0.88368 0.521248
0.441337 0.90071 0.389853
0.897093 0.938064 0.437751
0.991562 0.953582 0.524865
0.990585 0.953719 0.528008
0.988952 0.953994 0.530739
0.280766 0.892042 0.598062
0.278218 0.89163 0.59144
0.277562 0.889662 0.577691
0.281621 0.882719 0.51725
0.473014 0.90277 0.382742
0.905196 0.937453 0.442771
0.993408 0.952834 0.525383
0.992782 0.953017 0.527016
0.987305 0.954528 0.530098
0.281132 0.892363 0.599329
0.279362 0.8916 0.592157
0.276982 0.888853 0.566262
0.295064 0.882887 0.476356
0.678691 0.914519 0.377844
0.962554 0.941436 0.482734
0.993378 0.952911 0.525826
0.99263 0.953109 0.526986
0.986358 0.954253 0.535821
0.0330663 0.0471199 0.0554818
0.0449836 0.0464485 0.059266
0.102541 0.0484474 0.0733806
0.297475 0.0653849 0.0944839
0.592828 0.109026 0.152163
0.769436 0.194156 0.236561
0.777951 0.200855 0.244022
0.780636 0.202716 0.247623
0.784192 0.200641 0.26125
0.03505 0.0529183 0.0532998
0.0382086 0.0518502 0.0533303
0.0921798 0.052903 0.0565042
0.276356 0.0634165 0.0777905
0.582757 0.100175 0.139132
0.758648 0.185504 0.227878
0.764996 0.190448 0.233524
0.766735 0.191577 0.235203
0.769528 0.189685 0.246143
0.0439307 0.10454 0.093492
0.0423438 0.107408 0.0837568
0.0732738 0.108476 0.0623941
0.288121 0.0860151 0.0776226
0.565194 0.10161 0.120119
0.744549 0.182849 0.206607
0.747082 0.184604 0.208545
0.748348 0.185428 0.209567
0.751064 0.184146 0.219272
0.0480201 0.293767 0.168124
0.0459602 0.304448 0.15758
0.043183 0.310857 0.125628
0.212528 0.321096 0.0683299
0.695293 0.323354 0.181552
0.863005 0.36022 0.281392
0.858732 0.35108 0.278386
0.860014 0.354009 0.279255
0.876844 0.388266 0.29395
0.0825818 0.622156 0.356207
0.0884871 0.634806 0.357366
0.0919203 0.640269 0.34136
0.104494 0.636973 0.23534
0.57937 0.684871 0.16434
0.96318 0.782635 0.385534
0.966232 0.774395 0.394522
0.967178 0.779599 0.399435
0.975189 0.81265 0.418952
0.278187 0.890471 0.584543
0.27866 0.890318 0.580606
0.278187 0.888945 0.568917
0.281941 0.883436 0.515099
0.472328 0.901396 0.375448
0.919844 0.939635 0.447105
0.993133 0.952621 0.523934
0.992386 0.9523 0.52874
0.992599 0.952575 0.530419
0.279667 0.892821 0.600031
0.278477 0.89218 0.594202
0.27895 0.890349 0.582712
0.280598 0.884184 0.526696
0.439948 0.90071 0.390127
0.896529 0.937942 0.437842
0.991592 0.953643 0.525521
0.990585 0.95375 0.528756
0.98909 0.954101 0.530404
0.28246 0.892683 0.604669
0.278996 0.892622 0.598184
0.277943 0.890486 0.584314
0.280873 0.883452 0.522957
0.469718 0.902617 0.383291
0.904265 0.937377 0.442466
0.993469 0.952895 0.526024
0.992447 0.952895 0.530236
0.98674 0.954314 0.53492
0.282078 0.893492 0.606744
0.279942 0.892851 0.600275
0.277424 0.88957 0.57496
0.293446 0.882856 0.481819
0.67512 0.914199 0.377646
0.959335 0.940154 0.480354
0.993423 0.952972 0.526467
0.992676 0.95317 0.527504
0.986511 0.95436 0.5355
0.0299992 0.0496986 0.111696
0.0500191 0.0491035 0.114153
0.0989395 0.0505226 0.112062
0.306615 0.0508431 0.132952
0.614786 0.110796 0.181003
0.797314 0.217258 0.268345
0.800977 0.221332 0.273884
0.802319 0.222248 0.277028
0.806455 0.220523 0.294453
0.032166 0.0579538 0.0990311
0.0305638 0.0495766 0.109926
0.0924392 0.0504158 0.111589
0.31516 0.0548867 0.126955
0.636164 0.124758 0.185687
0.791348 0.210956 0.261204
0.796017 0.215839 0.267185
0.797864 0.2177 0.269932
0.803204 0.218296 0.286549
0.0410773 0.100175 0.109392
0.0400854 0.101442 0.111452
0.0766003 0.0972457 0.114275
0.319753 0.0867018 0.110307
0.588937 0.105638 0.13991
0.760281 0.18941 0.223804
0.766033 0.193896 0.228504
0.767788 0.195239 0.230091
0.772 0.194415 0.242329
0.0479896 0.28304 0.19472
0.0475319 0.291951 0.188724
0.0476844 0.294636 0.162966
0.201511 0.312688 0.0728466
0.699641 0.304509 0.185565
0.854093 0.341222 0.275273
0.848539 0.331182 0.271244
0.849287 0.333684 0.271855
0.865293 0.363806 0.285649
0.0804761 0.617456 0.374243
0.086183 0.630655 0.376883
0.0890211 0.635981 0.364034
0.0986191 0.636332 0.260578
0.57435 0.681788 0.163684
0.962219 0.772793 0.382864
0.966461 0.765911 0.393866
0.967803 0.771908 0.398825
0.975921 0.810605 0.423423
0.279057 0.892287 0.598093
0.279637 0.892088 0.594995
0.279957 0.890532 0.585138
0.280522 0.884443 0.530907
0.453849 0.899672 0.378775
0.91548 0.93901 0.445426
0.993149 0.952743 0.525841
0.992523 0.952499 0.530236
0.993072 0.952895 0.529656
0.282139 0.894713 0.614191
0.280995 0.894392 0.609781
0.279866 0.892515 0.598688
0.279179 0.886641 0.544213
0.419089 0.898787 0.394659
0.888792 0.937102 0.43476
0.991608 0.953765 0.527306
0.990356 0.95378 0.532372
0.989029 0.954208 0.533181
0.283375 0.895201 0.620172
0.281712 0.895354 0.615625
0.280919 0.892576 0.603204
0.279973 0.885969 0.542931
0.442664 0.900618 0.388159
0.8963 0.937377 0.439033
0.993591 0.952956 0.526909
0.992828 0.953094 0.530877
0.987396 0.95465 0.533608
0.287266 0.897032 0.635248
0.284047 0.897276 0.630396
0.280354 0.894072 0.608545
0.285771 0.883604 0.511482
0.630411 0.91104 0.378714
0.945449 0.93817 0.472038
0.993591 0.953262 0.529
0.992599 0.953353 0.531334
0.986099 0.954681 0.538979
0.0312505 0.0555276 0.289311
0.047425 0.0552224 0.292302
0.102892 0.0543984 0.293019
0.300679 0.0549325 0.271962
0.60737 0.0595712 0.284001
0.784512 0.157427 0.325414
0.784573 0.155352 0.328618
0.783566 0.152529 0.33193
0.770825 0.127932 0.357137
0.0204166 0.0599527 0.295354
0.0310063 0.0561379 0.302922
0.0815137 0.054963 0.312779
0.312856 0.0554513 0.289158
0.620813 0.0599527 0.291783
0.782483 0.154009 0.327825
0.780285 0.148623 0.331136
0.778851 0.145037 0.335119
0.77052 0.124269 0.361837
0.0216526 0.0806287 0.27306
0.0204623 0.0736858 0.291203
0.0334325 0.0621805 0.313771
0.294896 0.0564279 0.289555
0.620111 0.0651102 0.273243
0.797818 0.181567 0.317418
0.79762 0.179309 0.320287
0.795972 0.175341 0.322194
0.784772 0.149737 0.344732
0.0398871 0.275883 0.270451
0.0383001 0.284672 0.279545
0.0370642 0.284367 0.282185
0.249409 0.287877 0.312352
0.712139 0.265156 0.286168
0.844617 0.284764 0.310109
0.837018 0.273411 0.30367
0.838666 0.275334 0.306188
0.859586 0.30248 0.333028
0.0818952 0.604303 0.448203
0.086656 0.617166 0.457572
0.0873732 0.621485 0.451118
0.0838331 0.617594 0.380392
0.568154 0.669856 0.222446
0.975662 0.728313 0.412497
0.973861 0.720348 0.406455
0.974319 0.724544 0.408591
0.981918 0.767666 0.438514
0.280644 0.889479 0.643214
0.284596 0.892348 0.646159
0.283665 0.892866 0.639689
0.27744 0.888594 0.597299
0.356207 0.890166 0.422965
0.895811 0.9346 0.431662
0.993133 0.952621 0.525246
0.992966 0.952605 0.527062
0.993027 0.953048 0.532799
0.291722 0.901625 0.666804
0.292607 0.901564 0.667109
0.291035 0.900603 0.659236
0.283665 0.89482 0.616297
0.331044 0.888441 0.447181
0.846799 0.93431 0.420829
0.99144 0.953674 0.527794
0.990494 0.954299 0.539132
0.988449 0.954757 0.543984
0.294911 0.903517 0.679118
0.296162 0.903243 0.679255
0.29369 0.901778 0.669841
0.28484 0.895048 0.623163
0.333928 0.888701 0.443748
0.851026 0.933623 0.422278
0.994003 0.951965 0.524071
0.994308 0.953201 0.538552
0.989273 0.955047 0.539834
0.313893 0.910582 0.72874
0.314916 0.910689 0.730495
0.307912 0.908888 0.71519
0.290349 0.898833 0.640238
0.460472 0.909789 0.442695
0.91725 0.941894 0.46244
0.994064 0.954162 0.538659
0.992828 0.954314 0.544732
0.987274 0.955734 0.546792
0.0443427 0.0726329 0.524529
0.0591897 0.0724651 0.534386
0.095079 0.0715953 0.549325
0.294133 0.0699168 0.572045
0.589929 0.0813611 0.528298
0.8112 0.176699 0.518822
0.811246 0.178058 0.525994
0.81149 0.179278 0.532021
0.80412 0.17995 0.57174
0.033402 0.073991 0.521584
0.0462959 0.075288 0.536736
0.0807813 0.0749523 0.556848
0.292027 0.0724651 0.592905
0.605524 0.086717 0.548287
0.809461 0.177234 0.539879
0.811246 0.181964 0.547967
0.809277 0.180652 0.553643
0.784314 0.160006 0.586023
0.0187076 0.0785229 0.50631
0.0235752 0.0768292 0.518242
0.0467536 0.0763104 0.540551
0.25182 0.0731823 0.596139
0.602228 0.0884108 0.555993
0.806363 0.170855 0.532799
0.806043 0.171786 0.539498
0.804532 0.170687 0.544182
0.792477 0.165454 0.57821
0.0159152 0.243915 0.533104
0.0159457 0.24625 0.542962
0.0168154 0.231937 0.550149
0.109987 0.176333 0.621744
0.615747 0.134218 0.602731
0.812696 0.172412 0.496452
0.810498 0.169619 0.49189
0.81529 0.176501 0.498833
0.837339 0.212741 0.556359
0.0995804 0.599329 0.587106
0.106157 0.612192 0.599008
0.109361 0.616907 0.605112
0.106996 0.612512 0.606775
0.563317 0.607828 0.644907
0.993927 0.628183 0.630182
0.998886 0.622995 0.623346
0.998886 0.625895 0.627726
0.99089 0.657603 0.664271
0.314199 0.883268 0.76318
0.328664 0.889693 0.772778
0.331746 0.891539 0.773785
0.313359 0.885298 0.751507
0.394629 0.897673 0.674418
0.882185 0.940215 0.6065
0.99762 0.933883 0.636332
0.996811 0.933776 0.644083
0.990402 0.941924 0.701152
0.366598 0.92874 0.811246
0.380529 0.928374 0.816678
0.380118 0.927047 0.814282
0.356481 0.921035 0.789319
0.373709 0.924773 0.695155
0.773114 0.940658 0.609735
0.994263 0.956588 0.595102
0.996582 0.961074 0.649454
0.99025 0.961028 0.693278
0.378912 0.936248 0.829816
0.396155 0.934539 0.835019
0.394003 0.932815 0.831174
0.3682 0.925704 0.804013
0.397574 0.927794 0.711223
0.777646 0.940154 0.636103
0.988113 0.954849 0.600748
0.995789 0.961105 0.658793
0.988159 0.962524 0.684916
0.43444 0.958511 0.890501
0.453727 0.955047 0.892088
0.452155 0.951736 0.885908
0.422507 0.94345 0.853468
0.568338 0.946212 0.80798
0.882338 0.95993 0.750835
0.993469 0.96434 0.691966
0.993332 0.964721 0.701106
0.986938 0.964843 0.701106
0.100923 0.139193 0.681834
0.114351 0.139818 0.688869
0.141711 0.13994 0.69984
0.269581 0.14406 0.742885
0.565377 0.161425 0.776806
0.76582 0.194598 0.759289
0.765988 0.19704 0.764279
0.765667 0.196979 0.764599
0.761913 0.197848 0.769558
0.0922103 0.142077 0.679469
0.105272 0.14403 0.688045
0.135286 0.144915 0.70193
0.276463 0.150973 0.751247
0.588373 0.169711 0.78439
0.76701 0.196506 0.761837
0.767346 0.198184 0.765042
0.766735 0.198245 0.765728
0.76257 0.199145 0.770932
0.0705119 0.140215 0.665095
0.0804761 0.144335 0.675166
0.105394 0.145846 0.689738
0.251041 0.152728 0.746395
0.57969 0.172 0.789029
0.76939 0.198001 0.76199
0.770947 0.199512 0.763836
0.770565 0.19971 0.764523
0.766506 0.200961 0.770367
0.0255436 0.179278 0.626062
0.0259556 0.176974 0.629129
0.0279698 0.162249 0.629587
0.112551 0.149752 0.695247
0.513146 0.16907 0.79176
0.771923 0.201587 0.76379
0.777157 0.205844 0.766903
0.777844 0.207538 0.769497
0.775067 0.209934 0.77586
0.12813 0.613855 0.769985
0.134768 0.626352 0.778531
0.137926 0.62974 0.784726
0.137011 0.619272 0.798367
0.49987 0.619608 0.998978
0.979812 0.552056 0.967666
0.991073 0.539193 0.951125
0.992401 0.54377 0.952117
0.988556 0.586465 0.964843
0.35697 0.888182 0.869642
0.374487 0.896635 0.878096
0.380926 0.899275 0.881346
0.378973 0.89575 0.878798
0.502525 0.914122 0.911681
0.869734 0.895171 0.918563
0.989654 0.897597 0.913893
0.990524 0.899245 0.915343
0.983063 0.914321 0.931136
0.492882 0.975097 0.937194
0.510567 0.972457 0.938186
0.512779 0.971649 0.937606
0.504906 0.969345 0.93048
0.557595 0.971786 0.925093
0.827787 0.974746 0.941238
0.988388 0.980224 0.916777
0.994354 0.97908 0.912032
0.991318 0.979889 0.932128
0.503792 0.980423 0.94876
0.525383 0.97641 0.94847
0.528466 0.97464 0.946441
0.512276 0.972808 0.937728
0.571221 0.973678 0.930175
0.83888 0.973602 0.944076
0.980758 0.982254 0.925811
0.993667 0.978668 0.901686
0.989715 0.979736 0.917922
0.549447 0.992447 0.976837
0.576837 0.985031 0.971984
0.578088 0.981872 0.967605
0.54464 0.979477 0.954986
0.700496 0.980728 0.961807
0.911665 0.979889 0.971466
0.986969 0.984436 0.957549
0.992645 0.980179 0.9281
0.990036 0.980194 0.925216
0.129473 0.151339 0.704707
0.143618 0.152132 0.71107
0.170764 0.153597 0.722271
0.291539 0.158465 0.761913
0.580468 0.17464 0.793149
0.765087 0.195895 0.763577
0.766995 0.19852 0.765896
0.76762 0.198138 0.764782
0.764035 0.19881 0.769146
0.115679 0.150423 0.697658
0.128969 0.151598 0.704982
0.159548 0.153307 0.718044
0.294469 0.15848 0.762692
0.601114 0.177203 0.792889
0.766201 0.197696 0.765377
0.767346 0.199313 0.766796
0.767865 0.199008 0.765896
0.763043 0.199939 0.771664
0.0888838 0.149065 0.683116
0.0993973 0.150301 0.690303
0.126146 0.151476 0.703792
0.269444 0.157794 0.756024
0.59118 0.177234 0.794766
0.768048 0.19881 0.765469
0.770733 0.200626 0.765881
0.770306 0.20061 0.766247
0.766918 0.201663 0.771115
0.0358129 0.17731 0.647776
0.0345159 0.173449 0.64625
0.0320287 0.155917 0.636713
0.130571 0.152743 0.70605
0.517067 0.169741 0.794476
0.771603 0.205859 0.773358
0.777218 0.208255 0.771908
0.777508 0.208881 0.772641
0.775097 0.211383 0.778897
0.140124 0.616663 0.812772
0.146273 0.62887 0.815564
0.146212 0.629786 0.815137
0.136278 0.61149 0.809857
0.493553 0.599756 0.998978
0.96585 0.540551 0.986831
0.981598 0.526696 0.975036
0.982773 0.531731 0.976074
0.983063 0.575525 0.986679
0.450584 0.915221 0.954498
0.465812 0.920577 0.95462
0.470207 0.921645 0.954589
0.463478 0.915236 0.952819
0.569253 0.923522 0.980163
0.846784 0.899962 0.982086
0.987961 0.873533 0.978927
0.987076 0.875364 0.979843
0.979477 0.895125 0.974853
0.573175 0.991699 0.979263
0.591196 0.986633 0.976349
0.594583 0.985702 0.975662
0.597787 0.985885 0.976089
0.649165 0.98645 0.978347
0.867109 0.983398 0.98378
0.987366 0.984436 0.987243
0.996963 0.982986 0.983108
0.993652 0.984649 0.986007
0.564019 0.994202 0.98143
0.590234 0.986908 0.976562
0.597375 0.984924 0.975052
0.594415 0.986938 0.976974
0.654246 0.98793 0.980072
0.884169 0.982315 0.982559
0.981857 0.98616 0.988495
0.994659 0.986068 0.985702
0.99234 0.986633 0.988342
0.562402 0.994614 0.982101
0.590723 0.98677 0.97644
0.600656 0.984024 0.974334
0.600931 0.98677 0.977295
0.743984 0.985763 0.981933
0.927703 0.982651 0.984176
0.98706 0.986496 0.989502
0.992737 0.986557 0.987915
0.989303 0.987381 0.991028
0.134661 0.151781 0.707149
0.150057 0.152544 0.713817
0.176318 0.153903 0.724498
0.297139 0.158587 0.763272
0.58584 0.175387 0.793149
0.764477 0.19498 0.762707
0.767208 0.198917 0.766278
0.767544 0.198535 0.765484
0.763973 0.199176 0.769696
0.120806 0.150439 0.700008
0.133669 0.151904 0.707103
0.164523 0.153643 0.720119
0.299641 0.158709 0.764035
0.606134 0.177722 0.792554
0.765209 0.19617 0.763821
0.767544 0.199634 0.767117
0.767086 0.199466 0.767285
0.76318 0.200183 0.771939
0.0934005 0.148928 0.68513
0.102983 0.150622 0.692363
0.130556 0.151781 0.705867
0.27451 0.158083 0.757549
0.596002 0.17763 0.794446
0.7673 0.197559 0.764111
0.770947 0.200961 0.766201
0.770489 0.2009 0.766537
0.767086 0.201938 0.771389
0.0356146 0.17557 0.646891
0.0341497 0.171817 0.645151
0.0316625 0.153796 0.635386
0.133639 0.152789 0.707317
0.52134 0.170626 0.795117
0.771054 0.205051 0.772503
0.77734 0.208438 0.772045
0.777615 0.209049 0.772793
0.775158 0.21149 0.778958
0.139422 0.61471 0.81236
0.145052 0.627131 0.814847
0.145068 0.628519 0.814618
0.13547 0.609476 0.809537
0.495567 0.597025 0.998978
0.964736 0.538491 0.986297
0.980636 0.5252 0.974731
0.982376 0.53051 0.975921
0.982986 0.574762 0.986664
0.45095 0.914992 0.954681
0.464408 0.91989 0.954787
0.46981 0.921126 0.954604
0.462043 0.913817 0.95256
0.569314 0.922011 0.980514
0.84625 0.897688 0.982391
0.986435 0.871611 0.980484
0.987259 0.872984 0.980102
0.97937 0.892607 0.974823
0.57319 0.991699 0.979248
0.591165 0.986648 0.976349
0.594522 0.985718 0.975662
0.596185 0.985824 0.975921
0.649912 0.986908 0.979843
0.882841 0.982681 0.98439
0.985397 0.983261 0.986648
0.996963 0.981369 0.982956
0.993393 0.984054 0.985885
0.563973 0.994217 0.981445
0.590219 0.986908 0.976562
0.597253 0.98497 0.975067
0.594507 0.986984 0.97702
0.664546 0.98819 0.98143
0.892866 0.982208 0.982696
0.983001 0.986191 0.988602
0.994232 0.986191 0.986526
0.992264 0.986648 0.988403
0.562112 0.99469 0.982208
0.590753 0.986755 0.97644
0.600061 0.984192 0.974472
0.6009 0.986786 0.97731
0.742367 0.985794 0.981888
0.928573 0.98262 0.984192
0.986831 0.986542 0.989456
0.991592 0.986816 0.988998
0.989303 0.987381 0.991028
0.135515 0.151797 0.7075
0.151095 0.152651 0.71429
0.179126 0.154147 0.725673
0.305348 0.158984 0.765469
0.599466 0.176608 0.792218
0.764569 0.195041 0.762676
0.767269 0.199008 0.766354
0.767636 0.198627 0.76553
0.764035 0.199237 0.769787
0.12166 0.150469 0.700404
0.134356 0.151934 0.707393
0.166812 0.153643 0.720943
0.308812 0.15906 0.766369
0.619913 0.179431 0.791836
0.765316 0.196201 0.763745
0.767575 0.199695 0.767178
0.767132 0.199557 0.767361
0.763226 0.200259 0.772015
0.0929427 0.148943 0.684886
0.102373 0.150561 0.691997
0.131212 0.151873 0.706203
0.28249 0.15845 0.759777
0.609537 0.179644 0.794354
0.767758 0.19791 0.764279
0.771069 0.201144 0.766415
0.770657 0.201114 0.766827
0.7673 0.202167 0.771679
0.0361639 0.180041 0.649119
0.0347753 0.179675 0.648997
0.032929 0.161288 0.639979
0.133272 0.154101 0.70782
0.532601 0.173297 0.797086
0.771923 0.205905 0.773144
0.777951 0.209201 0.772641
0.778256 0.209812 0.773449
0.775814 0.212238 0.779675
0.147387 0.628168 0.816129
0.152758 0.640131 0.81825
0.152056 0.641489 0.817517
0.142138 0.622354 0.812497
0.513634 0.614404 0.998978
0.96643 0.555886 0.98732
0.987076 0.543038 0.980011
0.987457 0.549035 0.980209
0.982757 0.590799 0.98587
0.461189 0.921233 0.956344
0.475624 0.926116 0.956725
0.481895 0.927001 0.956268
0.474464 0.918914 0.954009
0.594842 0.925978 0.979553
0.856458 0.904341 0.980331
0.986282 0.879774 0.979995
0.984955 0.881285 0.977981
0.977951 0.900755 0.97348
0.575402 0.991089 0.978821
0.59382 0.985916 0.975784
0.600992 0.983932 0.974258
0.605966 0.98323 0.973907
0.670726 0.984756 0.978897
0.892241 0.982116 0.984634
0.985794 0.984207 0.987915
0.996078 0.982391 0.983948
0.992752 0.984985 0.986694
0.575051 0.991165 0.978988
0.59617 0.985275 0.97528
0.605829 0.982589 0.973342
0.610941 0.982635 0.973724
0.6907 0.983871 0.978851
0.901183 0.981476 0.983795
0.98143 0.98677 0.991043
0.993362 0.986404 0.98732
0.993042 0.986465 0.987671
0.559319 0.995468 0.982818
0.592996 0.986145 0.975967
0.606485 0.982406 0.973251
0.616556 0.982635 0.97409
0.762387 0.982025 0.979583
0.93196 0.982177 0.985519
0.984253 0.987182 0.991699
0.988983 0.987457 0.991241
0.989136 0.987427 0.99118
