bundles/resolve-cinematic-luts/Phantom Luts/P4k & P6k Phntm Arri LUTs - V6/P4K/Gen 5 Colour/White Balance Offset (Magenta Boost)/P4k Tungsten Gen 5-Legacy WBO.cube
TITLE "Generated by Resolve"
LUT_3D_SIZE 9
0.0172885 0.0162966 0.0215305
0.0322271 0.0193484 0.0250706
0.105516 0.0319677 0.0408179
0.306157 0.0565805 0.0843977
0.64094 0.109514 0.174655
0.822263 0.179812 0.259129
0.827771 0.184024 0.264179
0.829236 0.185031 0.265644
0.830488 0.185809 0.267643
0.0255131 0.041886 0.042359
0.0289464 0.0396582 0.0332036
0.0918288 0.0427863 0.0419165
0.281666 0.0531167 0.0726635
0.619852 0.104753 0.160403
0.813748 0.175448 0.249317
0.818601 0.178668 0.253483
0.820066 0.179629 0.254826
0.821729 0.180636 0.257527
0.0376135 0.115465 0.0745403
0.0349126 0.117464 0.0644846
0.0826734 0.117479 0.0425879
0.314412 0.0985275 0.0863661
0.61355 0.117388 0.156924
0.813001 0.1794 0.242481
0.813443 0.179873 0.242634
0.813596 0.180011 0.242695
0.814832 0.180896 0.244419
0.0293889 0.290623 0.138384
0.0240177 0.293126 0.126055
0.0208438 0.291691 0.0814374
0.250278 0.301564 0.0276646
0.756283 0.331762 0.21236
0.937179 0.356481 0.306798
0.92961 0.342138 0.30309
0.928847 0.340749 0.302647
0.937102 0.35465 0.307393
0 0.559701 0.276204
0 0.562325 0.269764
0 0.563134 0.241123
0.00946059 0.54934 0.0760815
0.588296 0.598138 0.0596323
0.98027 0.746868 0.327047
0.979553 0.738415 0.327306
0.980575 0.742397 0.330358
0.984283 0.757214 0.340826
0.117571 0.808621 0.462226
0.117021 0.808087 0.458503
0.114885 0.805478 0.443824
0.115984 0.794675 0.374105
0.373266 0.794568 0.189899
0.913054 0.867475 0.343679
0.979355 0.891402 0.436942
0.979355 0.89134 0.437217
0.979065 0.891463 0.440803
0.120851 0.812284 0.481865
0.119936 0.811337 0.476539
0.117571 0.808698 0.461936
0.114611 0.796414 0.388342
0.330098 0.794308 0.209873
0.884123 0.863584 0.332067
0.978302 0.89247 0.448447
0.97821 0.892592 0.449378
0.978134 0.892744 0.44976
0.121752 0.813107 0.486595
0.120638 0.812009 0.480964
0.117906 0.808972 0.464302
0.114443 0.795544 0.384909
0.346456 0.794064 0.207874
0.886 0.863554 0.33344
0.978454 0.892134 0.447242
0.978378 0.892241 0.448188
0.978149 0.892805 0.449348
0.122881 0.814328 0.491707
0.121019 0.812482 0.482689
0.117266 0.808286 0.460288
0.118563 0.793973 0.362829
0.437934 0.797024 0.206867
0.915862 0.869535 0.358877
0.978424 0.89218 0.447471
0.978347 0.892302 0.448295
0.97821 0.892653 0.449012
0.0160983 0.0214237 0.0417792
0.0326238 0.0201877 0.0431983
0.108568 0.028336 0.0642863
0.337148 0.0636606 0.11284
0.674723 0.12459 0.20061
0.838636 0.19115 0.277378
0.845228 0.196429 0.283726
0.847028 0.197971 0.285466
0.848447 0.198932 0.287709
0.0239109 0.0367132 0.0429847
0.0234684 0.0350347 0.0420233
0.10103 0.0365301 0.0474861
0.300954 0.0571756 0.0856947
0.639979 0.110033 0.176257
0.823758 0.18088 0.261265
0.829267 0.185031 0.266438
0.830564 0.185901 0.267643
0.831647 0.186603 0.269306
0.0403449 0.107866 0.0876478
0.0380102 0.108583 0.0781567
0.0767071 0.112367 0.0439918
0.310384 0.0884565 0.0833753
0.613489 0.109728 0.156329
0.80972 0.175433 0.242451
0.812467 0.177127 0.244953
0.813657 0.177829 0.246113
0.814282 0.178363 0.247166
0.0337835 0.285756 0.155306
0.0303349 0.287449 0.143557
0.0204166 0.289433 0.0993057
0.250019 0.298238 0.0294957
0.75697 0.323873 0.213519
0.932799 0.347753 0.304707
0.925139 0.333547 0.300999
0.924987 0.33286 0.30103
0.934005 0.348089 0.306096
0 0.559304 0.288518
0 0.56202 0.282918
0 0.562295 0.256077
0.00607309 0.550072 0.0887617
0.588876 0.597467 0.0607767
0.97966 0.742748 0.326604
0.979507 0.735195 0.327337
0.980774 0.740154 0.331136
0.984573 0.756512 0.342611
0.118837 0.81004 0.470069
0.118364 0.809598 0.466712
0.116091 0.807004 0.452399
0.115251 0.795438 0.38085
0.370413 0.794568 0.190433
0.912703 0.866941 0.344518
0.979278 0.891463 0.43772
0.979248 0.891478 0.437919
0.978805 0.891844 0.442679
0.122469 0.813886 0.489967
0.12137 0.812818 0.484443
0.118868 0.810147 0.469871
0.114168 0.797345 0.395026
0.324819 0.794263 0.2103
0.882536 0.863203 0.331273
0.978241 0.892515 0.449256
0.978119 0.892653 0.450095
0.978042 0.892805 0.450431
0.12369 0.815045 0.495491
0.122332 0.813718 0.489357
0.119173 0.810407 0.472343
0.114321 0.796719 0.392126
0.340002 0.793988 0.208392
0.884215 0.86334 0.331914
0.978393 0.89218 0.448173
0.978332 0.892271 0.448951
0.978058 0.892851 0.450034
0.124651 0.815976 0.499718
0.122621 0.814023 0.490654
0.118608 0.809812 0.468681
0.117647 0.794766 0.370626
0.429831 0.796551 0.206424
0.913542 0.869154 0.35642
0.978378 0.892241 0.448417
0.978302 0.892348 0.449073
0.978058 0.892897 0.45005
0.00840772 0.0263371 0.107271
0.0347906 0.0260319 0.112734
0.107118 0.0311894 0.110079
0.326711 0.0424201 0.152819
0.705882 0.130846 0.238773
0.869764 0.21651 0.317861
0.870268 0.216175 0.319936
0.870588 0.216327 0.320714
0.872053 0.217136 0.324041
0.0146639 0.0395361 0.0899519
0.0104067 0.0289769 0.0983597
0.0936294 0.0303197 0.104143
0.323323 0.0476997 0.138872
0.707927 0.138125 0.230365
0.858473 0.207004 0.299153
0.861906 0.210437 0.303944
0.862959 0.21149 0.305196
0.865248 0.213321 0.308629
0.0382696 0.102571 0.10631
0.0374609 0.101472 0.106386
0.0821698 0.099855 0.108492
0.338003 0.0919661 0.122301
0.637598 0.111223 0.176562
0.825116 0.18201 0.261982
0.830289 0.185779 0.266896
0.831678 0.186862 0.268009
0.833127 0.187884 0.270054
0.0386206 0.276905 0.189517
0.0374762 0.27779 0.181262
0.0341039 0.276753 0.147402
0.251087 0.290486 0.0386816
0.762203 0.307805 0.216266
0.922515 0.327642 0.299931
0.913832 0.313695 0.295048
0.913207 0.312688 0.294774
0.922225 0.327047 0.300175
0 0.556222 0.313008
0 0.559655 0.308156
0 0.559823 0.285573
0 0.549554 0.1205
0.587808 0.594003 0.0620279
0.978714 0.732509 0.325246
0.97879 0.725994 0.325673
0.980224 0.731151 0.33019
0.984497 0.751247 0.344396
0.121477 0.812848 0.485054
0.120958 0.812436 0.482368
0.118791 0.810101 0.4692
0.113527 0.797086 0.395895
0.356069 0.793744 0.190677
0.910262 0.866926 0.342184
0.979156 0.891569 0.439017
0.979156 0.891554 0.438972
0.978607 0.892027 0.444892
0.125917 0.817075 0.505135
0.12491 0.816205 0.500923
0.121798 0.813245 0.48658
0.114321 0.800412 0.412695
0.305715 0.794308 0.212711
0.876097 0.862135 0.327153
0.978058 0.892653 0.451011
0.977951 0.892775 0.451774
0.977859 0.892943 0.452308
0.127611 0.818479 0.511864
0.126406 0.817533 0.50721
0.122621 0.813947 0.4907
0.114275 0.800061 0.41088
0.318044 0.793927 0.210407
0.87863 0.86302 0.327489
0.978256 0.892271 0.449943
0.978149 0.892393 0.450767
0.977844 0.892989 0.451957
0.12987 0.820294 0.520638
0.127916 0.818769 0.512978
0.122866 0.814206 0.491737
0.1149 0.797253 0.39292
0.402121 0.795377 0.205921
0.907362 0.868757 0.349996
0.978149 0.892393 0.450614
0.978073 0.892515 0.451148
0.977798 0.893095 0.452232
0.00680552 0.0394446 0.285756
0.029572 0.0400549 0.288533
0.110552 0.0402838 0.299779
0.316991 0.0473945 0.276387
0.649882 0.0491951 0.338659
0.829267 0.140475 0.381582
0.830808 0.141772 0.383108
0.832074 0.143038 0.383459
0.826963 0.136614 0.387884
0 0.0457618 0.276707
0.00376898 0.03888 0.279973
0.0806744 0.0403906 0.295964
0.310628 0.0471656 0.270619
0.64889 0.0490425 0.329885
0.840848 0.155337 0.375097
0.840787 0.154726 0.37702
0.841154 0.154971 0.377676
0.836942 0.149126 0.382422
0 0.0864729 0.252003
0 0.0764019 0.261021
0.0154726 0.0578622 0.285878
0.297887 0.0519875 0.259388
0.647578 0.0655985 0.306249
0.86331 0.186404 0.362432
0.863523 0.186099 0.364233
0.863462 0.185763 0.364981
0.862638 0.182895 0.370336
0.0425574 0.27396 0.26717
0.0421302 0.275135 0.26894
0.0426184 0.271748 0.266712
0.298238 0.291218 0.298787
0.76582 0.274205 0.308476
0.905165 0.269352 0.328023
0.895232 0.256001 0.320577
0.89395 0.254246 0.319768
0.904082 0.26746 0.328603
0.0174411 0.555886 0.403281
0.0159762 0.559625 0.402686
0.01149 0.558541 0.387717
0 0.539925 0.269108
0.589075 0.58117 0.114519
0.989044 0.69601 0.353231
0.988846 0.690745 0.35172
0.989731 0.697383 0.357916
0.991135 0.721645 0.375982
0.127596 0.816266 0.531304
0.128084 0.816999 0.531304
0.125795 0.815457 0.52166
0.113252 0.803265 0.459312
0.266041 0.791318 0.211154
0.897353 0.862089 0.326192
0.979141 0.891417 0.4392
0.979126 0.891371 0.439765
0.978576 0.891951 0.445426
0.140612 0.828199 0.557916
0.140154 0.827939 0.556527
0.136721 0.825483 0.544976
0.121675 0.812604 0.482033
0.214008 0.793774 0.251759
0.847333 0.857359 0.310369
0.977462 0.89305 0.45658
0.97731 0.893217 0.457923
0.977188 0.8934 0.458808
0.144121 0.830549 0.568994
0.143282 0.83003 0.566522
0.139116 0.827222 0.553048
0.122316 0.813001 0.484092
0.220996 0.793637 0.249714
0.843839 0.856184 0.307958
0.977951 0.892393 0.453376
0.977554 0.892714 0.456977
0.977203 0.89337 0.458549
0.152117 0.835737 0.591836
0.150317 0.834546 0.586877
0.144167 0.830594 0.569055
0.122805 0.813031 0.48278
0.2804 0.794553 0.23331
0.871656 0.861967 0.32639
0.977615 0.89276 0.455833
0.977325 0.893034 0.458503
0.977066 0.893568 0.459434
0.0245823 0.0724804 0.542016
0.0463264 0.0729229 0.547463
0.104372 0.0742962 0.564218
0.336873 0.0668193 0.579187
0.634287 0.0731975 0.545663
0.838788 0.158114 0.564523
0.836072 0.154772 0.564736
0.834775 0.152911 0.563684
0.839246 0.160342 0.575372
0 0.0707713 0.531304
0.0206912 0.0718547 0.538903
0.0793469 0.0737163 0.556985
0.324971 0.067277 0.581567
0.633005 0.0733959 0.544518
0.837339 0.155062 0.560433
0.837552 0.155962 0.561563
0.837217 0.155535 0.561273
0.842863 0.165011 0.574533
0 0.0789349 0.514031
0 0.0737621 0.519249
0.0223087 0.0712902 0.535485
0.290394 0.068574 0.582376
0.626566 0.0739147 0.53901
0.830732 0.144884 0.547051
0.831861 0.146487 0.548669
0.832288 0.147112 0.549538
0.839017 0.157076 0.563714
0 0.286641 0.542504
0 0.284291 0.549706
0 0.268605 0.558083
0.177783 0.211551 0.623423
0.651072 0.143816 0.564248
0.813306 0.118959 0.504021
0.801801 0.106538 0.490089
0.800824 0.105562 0.489876
0.81738 0.124071 0.512367
0.0571908 0.582101 0.560891
0.0584115 0.586892 0.566537
0.0593576 0.589532 0.569345
0.0619059 0.581537 0.563012
0.615991 0.595041 0.596963
1 0.643214 0.623865
1 0.636728 0.619974
1 0.640146 0.623728
1 0.656855 0.640711
0.172107 0.830198 0.674464
0.176455 0.834318 0.680369
0.177478 0.836255 0.680522
0.158755 0.824247 0.643824
0.271626 0.791058 0.496178
0.882155 0.860334 0.46302
0.982452 0.888991 0.543099
0.982483 0.889647 0.546502
0.981003 0.895521 0.562631
0.211597 0.869764 0.715755
0.214572 0.871641 0.720974
0.2121 0.870146 0.71696
0.1879 0.856321 0.673167
0.208804 0.825971 0.508553
0.765362 0.849378 0.412375
0.973114 0.899748 0.526192
0.973419 0.903868 0.55111
0.973465 0.905577 0.559792
0.223529 0.876677 0.735576
0.225177 0.877653 0.738079
0.221698 0.875547 0.731823
0.193866 0.859754 0.683528
0.211872 0.826444 0.513161
0.74905 0.846387 0.410483
0.972595 0.896178 0.502632
0.973434 0.903471 0.548943
0.973175 0.905074 0.55584
0.253346 0.89218 0.774731
0.253269 0.892119 0.774563
0.245563 0.888075 0.76466
0.208942 0.868223 0.7075
0.281224 0.825208 0.541192
0.794675 0.862623 0.466117
0.972946 0.899321 0.522499
0.973556 0.90605 0.562631
0.973205 0.906203 0.561425
0.105837 0.161837 0.727962
0.119448 0.161791 0.735225
0.156344 0.162737 0.754513
0.323156 0.163485 0.821164
0.643717 0.156313 0.826551
0.786954 0.181338 0.803586
0.78645 0.180224 0.801801
0.786191 0.179538 0.800595
0.786557 0.181537 0.804623
0.0889296 0.160464 0.717479
0.102266 0.160662 0.725093
0.137911 0.161379 0.744366
0.310582 0.163851 0.817609
0.639536 0.155398 0.82623
0.787045 0.180331 0.801175
0.787381 0.181933 0.804288
0.78735 0.181994 0.804471
0.787366 0.18262 0.805859
0.0544442 0.156085 0.694438
0.0673075 0.157488 0.703014
0.0989853 0.157992 0.721279
0.278584 0.163897 0.806683
0.626703 0.153124 0.825513
0.787091 0.17731 0.794095
0.788525 0.183017 0.804959
0.788586 0.183246 0.805386
0.788678 0.184161 0.807279
0 0.198856 0.657679
0 0.19237 0.657008
0 0.174136 0.652735
0.132891 0.157656 0.737942
0.569833 0.150225 0.828229
0.792081 0.172168 0.773892
0.793042 0.174716 0.778454
0.793744 0.176623 0.78201
0.794766 0.181109 0.791104
0.119326 0.638605 0.804288
0.122744 0.642557 0.808637
0.125872 0.643809 0.814099
0.131136 0.63241 0.831861
0.592798 0.646677 1
0.966339 0.521309 0.92105
0.966064 0.509819 0.913863
0.96672 0.514763 0.916426
0.968246 0.53756 0.92871
0.256504 0.865141 0.838468
0.264073 0.871321 0.845609
0.269398 0.875654 0.850141
0.270222 0.873854 0.847974
0.467811 0.885527 0.866819
0.902602 0.887663 0.88925
0.988495 0.903456 0.894606
0.988479 0.904067 0.895766
0.987533 0.913191 0.905272
0.375692 0.947494 0.901427
0.378988 0.949035 0.904936
0.378714 0.948959 0.904738
0.36762 0.943587 0.892058
0.438407 0.929885 0.861646
0.792782 0.949493 0.879911
0.990097 0.964126 0.840726
0.992294 0.96698 0.853758
0.992599 0.968917 0.863767
0.389502 0.952712 0.913069
0.391485 0.953735 0.915114
0.389319 0.952987 0.913695
0.374517 0.946303 0.898161
0.440253 0.930098 0.862379
0.783001 0.947402 0.877623
0.982116 0.965499 0.853758
0.991501 0.963943 0.83711
0.991638 0.965652 0.844663
0.414755 0.962097 0.933242
0.414542 0.962051 0.933074
0.409659 0.960479 0.929686
0.390723 0.95172 0.909712
0.504845 0.939483 0.88661
0.826413 0.959274 0.905852
0.984878 0.970504 0.877546
0.992172 0.966537 0.85037
0.991775 0.96614 0.847318
0.13637 0.173831 0.753017
0.149996 0.174929 0.760861
0.185229 0.177234 0.779797
0.343862 0.178073 0.841443
0.660334 0.168994 0.842161
0.78793 0.182879 0.805524
0.787549 0.182315 0.804883
0.787442 0.181964 0.804257
0.787427 0.182528 0.805539
0.11899 0.172824 0.742947
0.13312 0.173617 0.751202
0.16791 0.176165 0.770687
0.330892 0.178912 0.838254
0.656046 0.169162 0.843534
0.788327 0.183444 0.806195
0.788052 0.183062 0.805753
0.787915 0.18294 0.805676
0.787915 0.183444 0.806806
0.0846265 0.170184 0.721752
0.0982834 0.171359 0.730449
0.131121 0.173556 0.750072
0.301396 0.17998 0.82948
0.642481 0.169512 0.847395
0.789242 0.184405 0.807004
0.789197 0.184222 0.806668
0.789136 0.184192 0.806714
0.789212 0.184863 0.808087
0.0117647 0.201343 0.686046
0.0103456 0.194339 0.682353
0.00654612 0.173739 0.670924
0.164828 0.176135 0.769131
0.572717 0.166537 0.855482
0.793713 0.190082 0.813123
0.794736 0.191058 0.813825
0.794949 0.191379 0.814206
0.79559 0.192798 0.816388
0.149401 0.64535 0.860624
0.151186 0.649256 0.861875
0.150927 0.648508 0.861814
0.14107 0.625284 0.856367
0.582269 0.633188 1
0.960449 0.502159 0.980941
0.959365 0.49131 0.978058
0.960098 0.496574 0.978836
0.963363 0.520806 0.982727
0.384146 0.921386 0.979187
0.391119 0.926665 0.981521
0.396231 0.929824 0.982834
0.394873 0.926177 0.983764
0.574777 0.950423 1
0.885161 0.897276 1
0.977432 0.859968 0.980896
0.977447 0.861021 0.980911
0.977676 0.873304 0.981048
0.499901 0.98114 0.973663
0.49984 0.981628 0.97464
0.500053 0.981689 0.974777
0.498497 0.980972 0.973159
0.562951 0.979095 0.969802
0.866163 0.985 0.981521
0.988281 0.986465 0.985885
0.989776 0.986831 0.98526
0.989654 0.987335 0.987167
0.501503 0.981186 0.973693
0.501503 0.981842 0.975082
0.501503 0.981872 0.975128
0.502693 0.98172 0.974746
0.560388 0.977539 0.966674
0.871382 0.985809 0.983307
0.979843 0.989166 0.987381
0.991073 0.988846 0.982101
0.990784 0.989487 0.984268
0.501503 0.981369 0.974105
0.501503 0.981842 0.975082
0.501503 0.981872 0.975128
0.506569 0.982055 0.975525
0.604654 0.980087 0.972244
0.893217 0.986893 0.985641
0.981521 0.989471 0.9888
0.99086 0.989288 0.983719
0.990738 0.989624 0.983902
0.142107 0.174411 0.756436
0.156298 0.175219 0.764294
0.190646 0.177569 0.782559
0.347707 0.177874 0.84239
0.663218 0.169039 0.841459
0.786587 0.181033 0.803433
0.787793 0.182696 0.805341
0.787671 0.182422 0.804898
0.787625 0.18291 0.806073
0.125216 0.172885 0.746334
0.138796 0.174105 0.754513
0.173419 0.176684 0.773739
0.335348 0.178744 0.83946
0.659144 0.169177 0.842756
0.787305 0.181964 0.804486
0.788296 0.183398 0.806134
0.788174 0.183261 0.806027
0.788159 0.183749 0.807126
0.0907607 0.170672 0.725567
0.103777 0.171801 0.733867
0.136873 0.174029 0.753414
0.305898 0.17969 0.830808
0.64564 0.169375 0.846479
0.788251 0.183078 0.805478
0.789456 0.184588 0.80708
0.789364 0.184512 0.807065
0.78941 0.185153 0.808423
0.0108186 0.19791 0.68394
0.00991836 0.190585 0.680491
0.00650034 0.170199 0.669337
0.170306 0.176364 0.771984
0.575891 0.166415 0.855039
0.792767 0.189014 0.812161
0.794781 0.191135 0.813916
0.79498 0.19147 0.814328
0.795682 0.192874 0.816449
0.14699 0.639979 0.859236
0.149187 0.644511 0.860853
0.148959 0.643885 0.860761
0.138582 0.619333 0.854932
0.581323 0.626001 1
0.959274 0.495567 0.980056
0.957992 0.484794 0.977295
0.959182 0.49073 0.978271
0.962432 0.515328 0.98204
0.397269 0.925811 0.984466
0.401083 0.929458 0.985245
0.403616 0.931746 0.985656
0.396841 0.925399 0.985
0.571969 0.948333 1
0.884215 0.892393 1
0.977249 0.855268 0.981384
0.977295 0.856504 0.981323
0.977691 0.868498 0.981491
0.501503 0.981445 0.974243
0.501503 0.981842 0.975067
0.501503 0.981872 0.975128
0.503288 0.981994 0.975357
0.575555 0.983474 0.978851
0.888731 0.986175 0.986038
0.986419 0.98468 0.988556
0.988998 0.982513 0.987549
0.98909 0.983719 0.988067
0.501503 0.981567 0.974487
0.501503 0.981842 0.975082
0.501503 0.981872 0.975128
0.50573 0.982086 0.975555
0.595102 0.98349 0.978882
0.883818 0.986587 0.98526
0.98381 0.989593 0.988968
0.990387 0.989715 0.988937
0.990234 0.990082 0.989578
0.501503 0.981781 0.974945
0.501503 0.981842 0.975082
0.501503 0.981872 0.975128
0.507576 0.982162 0.975753
0.628855 0.983581 0.979385
0.90045 0.987106 0.98587
0.985229 0.989792 0.989273
0.99025 0.990036 0.989502
0.990112 0.990372 0.990112
0.143145 0.174487 0.757031
0.157855 0.175326 0.765148
0.192447 0.177676 0.78349
0.351217 0.17763 0.843168
0.667796 0.169299 0.840482
0.786435 0.180789 0.803128
0.787854 0.182788 0.805432
0.787732 0.182498 0.805005
0.787686 0.182986 0.806165
0.126177 0.172976 0.746914
0.139986 0.174228 0.75523
0.175174 0.176791 0.774655
0.338781 0.178408 0.840223
0.663767 0.16936 0.841718
0.787152 0.181796 0.804318
0.788357 0.183474 0.806226
0.788235 0.183368 0.806149
0.788205 0.183841 0.807248
0.0913863 0.170779 0.725994
0.104372 0.171862 0.734249
0.138018 0.174075 0.754055
0.309331 0.17969 0.831968
0.650706 0.169421 0.845289
0.788052 0.182818 0.805203
0.789548 0.184695 0.807202
0.789456 0.184619 0.807187
0.789517 0.185275 0.80856
0.0111086 0.198962 0.684581
0.00967422 0.191608 0.68072
0.005066 0.169299 0.667781
0.172045 0.176684 0.773053
0.581292 0.166567 0.854627
0.792782 0.189029 0.812177
0.794919 0.191318 0.814115
0.795132 0.191684 0.814572
0.795972 0.19321 0.816785
0.148913 0.644236 0.860365
0.15082 0.648234 0.861738
0.150774 0.647959 0.861875
0.140444 0.623774 0.856016
0.589792 0.632715 1
0.960433 0.502174 0.981048
0.959396 0.492088 0.978469
0.96022 0.497749 0.979156
0.963531 0.522057 0.982864
0.399252 0.927687 0.984512
0.403372 0.931548 0.985534
0.405966 0.933623 0.985809
0.399558 0.92726 0.985733
0.578576 0.949676 1
0.88751 0.894423 1
0.97734 0.858503 0.981308
0.977478 0.859541 0.981109
0.977707 0.871275 0.980758
0.501503 0.98146 0.974289
0.501503 0.981842 0.975067
0.501503 0.981872 0.975128
0.503212 0.98201 0.975387
0.579385 0.983612 0.979126
0.892073 0.98616 0.98645
0.986648 0.984634 0.98883
0.988876 0.982391 0.987716
0.988922 0.983536 0.98822
0.501503 0.980865 0.973159
0.501503 0.981262 0.973861
0.501503 0.981308 0.973953
0.506081 0.981506 0.974411
0.599344 0.982986 0.978119
0.886366 0.986435 0.984909
0.984436 0.989334 0.988495
0.990265 0.990021 0.989487
0.990265 0.990021 0.989487
0.501503 0.981781 0.974945
0.501503 0.981842 0.975082
0.501503 0.981872 0.975128
0.507698 0.982193 0.975799
0.631251 0.983886 0.979995
0.900893 0.987533 0.986526
0.984863 0.990173 0.98996
0.990097 0.990402 0.990173
0.99025 0.990051 0.989532
