bundles/resolve-cinematic-luts/Phantom Luts/P4k & P6k Phntm Arri LUTs - V6/P4K/Gen 5 Colour/White Balance Offset (Magenta Boost)/P4k Jamaica Gen 5 WBO.cube
TITLE "Generated by Resolve"
LUT_3D_SIZE 33
0 0.0250553 0
0 0.0250553 0
0 0.0250553 0
0.0108949 0.025452 0.00102235
0.0293736 0.0264591 0.00357061
0.0483253 0.0273747 0.00588998
0.0727855 0.0286259 0.0093843
0.100893 0.0301976 0.0136416
0.135073 0.0323644 0.0200351
0.179294 0.0348058 0.0269932
0.235706 0.0376593 0.0350042
0.305653 0.0406195 0.0429541
0.38291 0.0445563 0.0517739
0.46363 0.0543374 0.0680705
0.541588 0.0687572 0.0944533
0.6112 0.0898299 0.124117
0.66772 0.119783 0.157137
0.707195 0.153262 0.191333
0.734524 0.182925 0.219974
0.745632 0.194568 0.231083
0.747463 0.196185 0.233173
0.749081 0.197711 0.234882
0.750195 0.198657 0.236149
0.751202 0.199557 0.237293
0.75198 0.200198 0.238193
0.75256 0.200671 0.23888
0.752972 0.201038 0.239353
0.753216 0.201282 0.239612
0.753368 0.20145 0.23975
0.753429 0.201587 0.239689
0.75346 0.201724 0.239567
0.753384 0.201831 0.239231
0.753262 0.201907 0.238804
0 0.0250553 0
0 0.0250553 0
0 0.0250553 0
0.00469978 0.0252842 6.10361e-05
0.0209964 0.0263218 0.00239567
0.0397803 0.0273289 0.0047303
0.0636759 0.0284733 0.00776684
0.0929885 0.0300908 0.0120546
0.127047 0.0320897 0.0178836
0.171435 0.0346838 0.0249943
0.227649 0.0374304 0.032578
0.297261 0.0402228 0.0396277
0.376333 0.0439918 0.0470283
0.457435 0.0532387 0.0608835
0.535912 0.0666514 0.086656
0.606516 0.0879835 0.118502
0.664561 0.118273 0.152834
0.705074 0.152102 0.188022
0.73344 0.182666 0.217884
0.744335 0.194064 0.228885
0.745678 0.195163 0.230518
0.746899 0.196185 0.231937
0.748074 0.197223 0.233265
0.74902 0.198138 0.234257
0.749584 0.198642 0.234852
0.74995 0.198962 0.235264
0.750362 0.199329 0.235721
0.750637 0.199573 0.236011
0.75082 0.199756 0.236164
0.750896 0.199908 0.236164
0.750927 0.200015 0.236072
0.750851 0.200122 0.235752
0.750713 0.200198 0.23534
0 0.025803 0.000503548
0 0.0255436 0
0 0.0254063 0
0.00128176 0.0259709 1.5259e-05
0.0118105 0.0268711 0.00105287
0.0304265 0.0279088 0.00425727
0.0547799 0.0290532 0.00636301
0.0851453 0.0305943 0.0105287
0.120577 0.0322118 0.0160067
0.16585 0.0348363 0.02327
0.222827 0.0377356 0.0310063
0.293462 0.0407721 0.0383459
0.371862 0.0443732 0.0442359
0.450553 0.0519875 0.0546883
0.528817 0.0645914 0.0780194
0.601465 0.0861219 0.112352
0.660273 0.115785 0.147662
0.703014 0.150942 0.184833
0.731609 0.181674 0.214939
0.742763 0.193408 0.226215
0.744427 0.194812 0.228153
0.745678 0.195865 0.229633
0.746609 0.196628 0.230732
0.747311 0.197223 0.231571
0.74786 0.197681 0.232242
0.748257 0.198016 0.2327
0.748547 0.198245 0.233036
0.74873 0.198413 0.233249
0.748837 0.19852 0.233341
0.748837 0.198596 0.233265
0.748821 0.198688 0.233097
0.748699 0.198779 0.2327
0.748577 0.198871 0.232288
0.000244144 0.0330358 0.0069276
0.000198367 0.0324559 0.00502022
9.15541e-05 0.0314183 0.00268559
0.00251774 0.0309606 0.000991836
0.0115511 0.031632 0.00155642
0.0285191 0.0320745 0.00540169
0.0510719 0.0327764 0.00827039
0.0794995 0.0328527 0.0105287
0.114534 0.0333867 0.0145876
0.159518 0.0357061 0.0215457
0.218585 0.0382544 0.0288853
0.288975 0.0413367 0.0365911
0.367819 0.0448157 0.0425422
0.448615 0.0535592 0.055436
0.525017 0.064622 0.0749828
0.594491 0.0839857 0.104814
0.655543 0.113664 0.141634
0.699565 0.148867 0.179721
0.728985 0.179995 0.211048
0.741009 0.19266 0.223255
0.742702 0.194049 0.225284
0.743908 0.195102 0.226673
0.744991 0.196002 0.227939
0.7458 0.196689 0.228885
0.74638 0.197177 0.229587
0.746807 0.197543 0.23006
0.747066 0.197757 0.230381
0.747265 0.197925 0.230579
0.747402 0.198062 0.230747
0.747463 0.198169 0.230747
0.747448 0.198245 0.23061
0.747356 0.198352 0.230243
0.747219 0.198444 0.229831
0.000381476 0.0463264 0.0144503
0.000244144 0.0458228 0.0116274
0.000320439 0.0443427 0.00779736
0.00285344 0.0430762 0.00344854
0.0131991 0.0437018 0.00276188
0.0297551 0.0440528 0.00416571
0.0551156 0.0453346 0.0112764
0.0874495 0.0437171 0.0162661
0.120363 0.0416571 0.0184939
0.163088 0.0411536 0.0215457
0.217746 0.0406195 0.0271763
0.284733 0.0426032 0.0351568
0.364248 0.0458686 0.0416419
0.445151 0.055375 0.0555428
0.523262 0.0665751 0.0756847
0.593881 0.0849317 0.104967
0.651347 0.112047 0.136446
0.695903 0.146639 0.174426
0.726482 0.178698 0.206897
0.739208 0.192004 0.220081
0.740688 0.193164 0.221958
0.742123 0.194324 0.223651
0.743206 0.195239 0.224964
0.743984 0.19588 0.225879
0.744595 0.196399 0.226612
0.745022 0.19678 0.22707
0.745327 0.19707 0.22739
0.745556 0.197269 0.227665
0.745724 0.197391 0.227863
0.745785 0.197498 0.227893
0.7458 0.197589 0.227802
0.745708 0.197696 0.227451
0.745586 0.197772 0.227054
0.000732433 0.0606851 0.0233768
0.000320439 0.0604562 0.0188144
0.000503548 0.0587015 0.0142214
0.00114443 0.0567941 0.00759899
0.0100099 0.0564126 0.00418097
0.0287633 0.0576791 0.00453193
0.0523995 0.0579995 0.00721752
0.0914015 0.0581369 0.019028
0.130816 0.0543526 0.0244755
0.173297 0.0505684 0.0268101
0.22298 0.0491646 0.0295872
0.289052 0.0485237 0.0355535
0.362448 0.0491035 0.0415656
0.442756 0.0573129 0.0555734
0.520806 0.0682536 0.0755016
0.592142 0.0853437 0.104082
0.651362 0.112963 0.136629
0.694179 0.145953 0.171557
0.723873 0.177401 0.202579
0.738491 0.192752 0.2177
0.739788 0.193622 0.219455
0.740627 0.194263 0.220539
0.741466 0.194842 0.221668
0.742092 0.19527 0.222492
0.74258 0.195621 0.223148
0.742992 0.195926 0.223682
0.743343 0.196201 0.224094
0.743572 0.196399 0.224384
0.74374 0.196536 0.224598
0.743847 0.196643 0.224659
0.743847 0.196735 0.224552
0.74374 0.196841 0.224201
0.743618 0.196933 0.223758
0.000747692 0.0835431 0.0350652
0 0.0838941 0.0290074
0.000228885 0.0823072 0.0234531
0.000946059 0.0800641 0.0158236
0.00436408 0.0778363 0.00814832
0.0205081 0.0788891 0.00575265
0.0458534 0.0803082 0.00619516
0.0818952 0.0805524 0.0105287
0.132815 0.0774395 0.0252689
0.18613 0.0691081 0.0330358
0.239918 0.0636759 0.0364996
0.299626 0.0614481 0.0394446
0.369024 0.0614023 0.0444953
0.443549 0.0649424 0.0579538
0.517632 0.0710155 0.0754864
0.589349 0.0870069 0.103243
0.649577 0.113176 0.134722
0.693675 0.146151 0.170336
0.723842 0.17792 0.201678
0.738293 0.193942 0.2159
0.738506 0.194446 0.215778
0.739391 0.19498 0.21706
0.740353 0.195666 0.218296
0.740993 0.196109 0.219165
0.741421 0.196414 0.219745
0.741756 0.196643 0.220188
0.74197 0.196796 0.220493
0.742153 0.196933 0.220737
0.74229 0.197024 0.220905
0.742367 0.197101 0.220966
0.742382 0.197162 0.220935
0.742336 0.197238 0.220737
0.74226 0.197299 0.220478
0.00123598 0.114641 0.0475013
0 0.115541 0.0408942
0 0.115129 0.0354314
0.000244144 0.112947 0.0274662
0.00108339 0.110582 0.0166781
0.00816358 0.109224 0.00880446
0.0328985 0.111589 0.00764477
0.0691539 0.11107 0.00762951
0.116442 0.110765 0.012726
0.181994 0.104219 0.0309606
0.255177 0.0871901 0.04271
0.320851 0.0800183 0.0471656
0.384344 0.0784009 0.0515145
0.449592 0.0795148 0.061387
0.522316 0.0847334 0.0804913
0.590494 0.0958267 0.105669
0.648203 0.115297 0.133684
0.692943 0.146593 0.168475
0.723903 0.178943 0.200244
0.743175 0.199908 0.219409
0.743847 0.200717 0.219883
0.744228 0.20119 0.220142
0.744472 0.201526 0.220295
0.74464 0.201801 0.220325
0.744762 0.202014 0.22034
0.7449 0.202197 0.220417
0.744991 0.202335 0.220462
0.745068 0.202441 0.220493
0.745113 0.202502 0.220523
0.745129 0.202548 0.220493
0.745113 0.202594 0.220386
0.745037 0.202655 0.220142
0.74493 0.202686 0.219867
0.00172427 0.154345 0.0641489
0 0.155734 0.0565805
0 0.156786 0.0486915
0 0.155978 0.0410468
0 0.153368 0.0327153
0.000701915 0.150393 0.0200504
0.0128634 0.149035 0.0106813
0.0493172 0.153094 0.00976577
0.0970474 0.14992 0.009308
0.159777 0.148806 0.0152438
0.240497 0.138552 0.0368658
0.338003 0.114626 0.0547494
0.407218 0.107515 0.0648051
0.470603 0.106386 0.0741436
0.533959 0.110124 0.0899672
0.600778 0.119982 0.114763
0.658686 0.135653 0.141344
0.699229 0.156985 0.170962
0.726223 0.182574 0.200153
0.749035 0.207446 0.223148
0.749767 0.208377 0.223682
0.750179 0.208927 0.223926
0.750469 0.209308 0.224094
0.750668 0.209583 0.224216
0.750805 0.209766 0.224292
0.750912 0.209888 0.224369
0.750988 0.209979 0.22443
0.751064 0.210056 0.224475
0.751064 0.210071 0.224491
0.751049 0.210071 0.224445
0.751003 0.210086 0.224308
0.750896 0.210117 0.224048
0.750805 0.210147 0.223774
0.00210575 0.205249 0.0879835
0.000457771 0.206638 0.0809033
0 0.208576 0.0720226
0 0.209995 0.0614939
0 0.208804 0.0523842
0 0.205829 0.0440528
0.00047303 0.201968 0.026276
0.0220798 0.201785 0.0128939
0.0718242 0.207462 0.0125887
0.131075 0.200244 0.0108797
0.213916 0.197513 0.0179294
0.312627 0.186892 0.0463722
0.425299 0.157763 0.0833143
0.498283 0.152422 0.0997635
0.561898 0.153475 0.114122
0.623102 0.159686 0.131426
0.676905 0.171283 0.153033
0.722103 0.190967 0.184527
0.74934 0.213642 0.213107
0.768658 0.233295 0.235157
0.764324 0.227436 0.232715
0.759991 0.221881 0.229877
0.758373 0.219791 0.22884
0.758495 0.219944 0.228931
0.758602 0.22005 0.228992
0.758709 0.220188 0.229084
0.758755 0.220233 0.229114
0.758755 0.220249 0.229114
0.758755 0.220249 0.229129
0.758724 0.220233 0.229099
0.758694 0.220203 0.229023
0.758648 0.220264 0.22887
0.758526 0.220249 0.228611
0.00276188 0.268406 0.115892
0.00123598 0.270268 0.109682
0 0.271641 0.102296
0 0.273335 0.0932479
0 0.274739 0.0822003
0 0.273823 0.0725414
0 0.270649 0.0603342
0.00129702 0.265904 0.0348669
0.0351263 0.267903 0.0175174
0.100862 0.274113 0.0163119
0.175875 0.260792 0.012192
0.282704 0.257816 0.021088
0.398901 0.25597 0.0528878
0.521706 0.217624 0.110842
0.59968 0.215854 0.136843
0.660914 0.219043 0.156146
0.714153 0.227054 0.178592
0.754849 0.240955 0.204395
0.78114 0.259174 0.23035
0.80238 0.279591 0.254261
0.799344 0.275227 0.252888
0.795468 0.270176 0.250385
0.79237 0.266072 0.248463
0.790036 0.262943 0.247028
0.788418 0.260777 0.246021
0.787198 0.25919 0.245274
0.786221 0.257923 0.244633
0.785519 0.256977 0.244205
0.784955 0.256367 0.243748
0.784268 0.255787 0.24303
0.784039 0.255573 0.242802
0.783597 0.255207 0.242298
0.783123 0.254856 0.241688
0.00511177 0.345937 0.150149
0.00366217 0.347005 0.143938
0.00201419 0.34818 0.137179
0.000289921 0.34934 0.129915
0 0.350774 0.120897
0 0.352544 0.110353
0 0.353017 0.098024
0.000640879 0.349905 0.0810712
0.00523384 0.343923 0.0452888
0.0567178 0.348653 0.0243229
0.140963 0.355032 0.0229038
0.235462 0.334173 0.0146639
0.362905 0.330724 0.0281529
0.497261 0.352026 0.0523842
0.627161 0.330098 0.132998
0.704784 0.304158 0.179217
0.761303 0.305791 0.207889
0.802625 0.315053 0.235264
0.829084 0.32781 0.260777
0.847044 0.341451 0.281315
0.846998 0.339422 0.283192
0.842878 0.333867 0.280446
0.839979 0.329931 0.278553
0.837461 0.326467 0.276982
0.835477 0.323751 0.275715
0.834104 0.321874 0.274815
0.833097 0.320378 0.27422
0.832135 0.319051 0.273594
0.83151 0.318212 0.273182
0.83093 0.317464 0.272831
0.83032 0.316686 0.27248
0.82977 0.31606 0.272023
0.829099 0.315404 0.271321
0.00985733 0.429877 0.193393
0.00872816 0.430823 0.187167
0.0074464 0.431647 0.180499
0.00639353 0.432288 0.173388
0.00549325 0.4336 0.166247
0.00476081 0.434669 0.157382
0.00335698 0.437034 0.144549
0.00430304 0.437201 0.128038
0.00801099 0.433646 0.106218
0.0157321 0.428473 0.0577554
0.0909743 0.437491 0.0382086
0.199466 0.441382 0.0341802
0.311788 0.413565 0.0205844
0.450736 0.41239 0.041413
0.595407 0.45539 0.0662394
0.728664 0.448417 0.159854
0.805097 0.429282 0.219852
0.853483 0.416632 0.262409
0.881544 0.414939 0.292271
0.899092 0.423041 0.312001
0.902541 0.423514 0.316793
0.899611 0.41854 0.315114
0.897322 0.414801 0.313726
0.895201 0.411185 0.312551
0.893599 0.408469 0.311681
0.892622 0.406851 0.311147
0.891508 0.405112 0.310445
0.890822 0.404059 0.310018
0.890227 0.403113 0.309651
0.88954 0.40206 0.309224
0.888914 0.401205 0.308797
0.888258 0.400519 0.308202
0.887465 0.399695 0.307454
0.0210575 0.518975 0.2486
0.0202945 0.519677 0.242908
0.0194858 0.520226 0.236728
0.0189517 0.521157 0.230823
0.0184024 0.521569 0.224079
0.0180972 0.521935 0.216327
0.0179446 0.52314 0.204654
0.0175174 0.525719 0.187396
0.0196689 0.526177 0.166064
0.0253758 0.5234 0.137728
0.0474098 0.520623 0.0819257
0.140352 0.531777 0.0617533
0.278508 0.529534 0.0564279
0.403082 0.49778 0.0350958
0.541192 0.498878 0.0705272
0.680476 0.543709 0.115724
0.804227 0.562173 0.2009
0.879957 0.551537 0.266026
0.918166 0.553491 0.30312
0.943709 0.555261 0.33077
0.953918 0.558221 0.342061
0.952468 0.551965 0.341238
0.951278 0.547219 0.340581
0.950134 0.542718 0.339956
0.949294 0.539406 0.339559
0.948577 0.536675 0.339193
0.948196 0.535195 0.33901
0.947494 0.533303 0.338506
0.946975 0.531548 0.338155
0.946807 0.530388 0.338109
0.946456 0.529152 0.337804
0.946075 0.528481 0.337346
0.94548 0.527901 0.336675
0.0475471 0.609171 0.317678
0.046952 0.609567 0.312947
0.04654 0.610468 0.307729
0.0458686 0.610452 0.302129
0.0452735 0.610407 0.296208
0.0449531 0.610452 0.289952
0.0451514 0.610742 0.280842
0.0464179 0.612772 0.266911
0.0479896 0.615076 0.245304
0.052369 0.614908 0.217258
0.0626841 0.610941 0.17763
0.103059 0.612558 0.119463
0.222217 0.627939 0.0983291
0.386099 0.616739 0.085832
0.505821 0.586191 0.0710918
0.632105 0.588968 0.11902
0.757031 0.628275 0.17908
0.868574 0.673564 0.266819
0.92987 0.666987 0.319646
0.95845 0.673442 0.347539
0.977127 0.67866 0.366583
0.976638 0.674571 0.365576
0.976165 0.671153 0.364736
0.975967 0.668559 0.364279
0.975662 0.666255 0.36376
0.975525 0.66511 0.363516
0.975158 0.663371 0.362982
0.974929 0.661814 0.362585
0.974853 0.66041 0.362356
0.974823 0.659312 0.362097
0.974731 0.658427 0.361791
0.974548 0.658289 0.36144
0.973816 0.65713 0.360525
0.0918135 0.695476 0.399771
0.091722 0.696025 0.396323
0.0914778 0.696132 0.391546
0.0912947 0.696101 0.386435
0.0909895 0.695949 0.381445
0.090837 0.695735 0.375784
0.0913558 0.696284 0.368978
0.0928359 0.697093 0.357183
0.095491 0.698665 0.33933
0.0995956 0.699886 0.3131
0.106126 0.698894 0.279042
0.11899 0.69366 0.226749
0.183169 0.703365 0.170382
0.338628 0.720378 0.150622
0.499626 0.700786 0.134752
0.606989 0.673381 0.130037
0.719326 0.678248 0.186099
0.830533 0.711177 0.254643
0.922087 0.760204 0.338003
0.971893 0.780209 0.388724
0.98732 0.77702 0.401816
0.986679 0.776471 0.400595
0.986236 0.773785 0.3991
0.98613 0.772396 0.398459
0.986038 0.770657 0.397726
0.985901 0.769162 0.397055
0.985824 0.767971 0.396521
0.985901 0.766949 0.396155
0.985779 0.765805 0.39559
0.985779 0.765713 0.395407
0.985718 0.764828 0.394842
0.98558 0.76408 0.394232
0.985245 0.763104 0.393484
0.157336 0.775769 0.486946
0.157168 0.775845 0.483558
0.156741 0.775692 0.47982
0.156359 0.775494 0.475807
0.156054 0.775341 0.471962
0.156252 0.775662 0.468269
0.156329 0.775753 0.462882
0.156939 0.776196 0.454765
0.158679 0.777203 0.441398
0.16202 0.778622 0.419974
0.167651 0.779263 0.389258
0.176333 0.777646 0.348013
0.1991 0.772396 0.279576
0.302434 0.794446 0.23267
0.476875 0.800153 0.212757
0.614038 0.781872 0.204135
0.705928 0.759457 0.212314
0.80061 0.764935 0.266072
0.893431 0.786801 0.332525
0.951217 0.814237 0.389151
0.99559 0.838407 0.440345
0.999054 0.836439 0.444175
0.999268 0.836027 0.4439
0.999252 0.835386 0.443305
0.999207 0.834684 0.442725
0.999222 0.834073 0.442298
0.999237 0.83357 0.441962
0.999283 0.833036 0.441657
0.99939 0.833036 0.441672
0.99939 0.832563 0.44123
0.999405 0.832135 0.440757
0.99939 0.831678 0.440238
0.999283 0.830991 0.439612
0.236118 0.849027 0.572549
0.235904 0.848997 0.569757
0.235584 0.848859 0.566491
0.235416 0.848829 0.563653
0.235523 0.849027 0.560845
0.235218 0.84889 0.557687
0.234882 0.848737 0.55314
0.23476 0.848798 0.546883
0.235523 0.849577 0.537331
0.237522 0.851041 0.522087
0.241489 0.852872 0.498329
0.246571 0.852552 0.462623
0.257389 0.85037 0.414145
0.304799 0.852659 0.339437
0.451392 0.881117 0.301839
0.616663 0.869871 0.286687
0.721935 0.856062 0.289418
0.797147 0.839734 0.305653
0.871962 0.840436 0.35137
0.939941 0.854322 0.404196
0.973648 0.864866 0.441672
0.989822 0.872496 0.472709
0.990539 0.872938 0.47541
0.990509 0.87219 0.474708
0.990448 0.87158 0.474144
0.990539 0.871138 0.473747
0.990524 0.870924 0.473548
0.9906 0.870634 0.473259
0.990677 0.870268 0.472892
0.990723 0.869947 0.472572
0.990784 0.869642 0.472251
0.99086 0.869352 0.471962
0.990906 0.869215 0.471839
0.307088 0.907683 0.647242
0.306828 0.907637 0.645029
0.306538 0.907561 0.642359
0.306615 0.907759 0.640085
0.306249 0.907607 0.637446
0.305806 0.907408 0.634653
0.305318 0.907225 0.630976
0.304799 0.907088 0.625772
0.305028 0.907668 0.618753
0.305806 0.908736 0.606943
0.307668 0.910262 0.588129
0.31046 0.911269 0.560433
0.315633 0.91075 0.522148
0.336126 0.910521 0.460761
0.434577 0.931579 0.396841
0.598138 0.941695 0.367926
0.727306 0.921813 0.357153
0.809888 0.911788 0.367559
0.872175 0.901671 0.387625
0.926284 0.899901 0.420768
0.975433 0.915389 0.467002
1 0.936202 0.49398
1 0.938277 0.50721
1 0.93753 0.506676
1 0.936797 0.506188
1 0.936431 0.505867
1 0.93608 0.505562
1 0.935424 0.505119
1 0.93489 0.504753
1 0.934386 0.504387
1 0.933928 0.504051
1 0.933822 0.503853
1 0.933318 0.503471
0.364736 0.950545 0.709651
0.364309 0.950301 0.707286
0.363775 0.950027 0.704677
0.3635 0.949996 0.702373
0.36318 0.94992 0.700175
0.362768 0.949828 0.697719
0.36228 0.949706 0.694575
0.361944 0.949798 0.69044
0.361242 0.949722 0.684108
0.361151 0.950408 0.674556
0.361852 0.951705 0.659586
0.363256 0.953246 0.638529
0.366644 0.954757 0.607965
0.375769 0.956054 0.5664
0.423575 0.962844 0.489128
0.567269 0.990402 0.444709
0.71635 0.973022 0.415702
0.811749 0.957595 0.412787
0.88368 0.950622 0.427771
0.924193 0.943206 0.444114
0.966628 0.945266 0.481209
1 0.959152 0.515541
1 0.968231 0.547127
1 0.968277 0.548684
1 0.968231 0.548638
1 0.968063 0.548257
1 0.967819 0.547845
1 0.967529 0.547417
1 0.967315 0.547066
1 0.967178 0.546914
1 0.967132 0.546853
1 0.966918 0.546624
1 0.96672 0.546395
0.395224 0.973022 0.74432
0.394369 0.972351 0.741711
0.393927 0.972107 0.739376
0.393881 0.972274 0.737438
0.39382 0.972412 0.7355
0.393668 0.972503 0.733654
0.393454 0.972595 0.731136
0.393149 0.972732 0.727443
0.392737 0.972915 0.722042
0.392813 0.97377 0.714672
0.393729 0.975601 0.704433
0.395483 0.978195 0.689403
0.401358 0.983368 0.670512
0.408728 0.987198 0.641047
0.430518 0.994492 0.593759
0.537209 0.998932 0.54313
0.689204 0.998932 0.502495
0.803449 0.993484 0.470893
0.877897 0.981689 0.464332
0.939727 0.979019 0.482704
0.96376 0.972686 0.502205
0.992859 0.974411 0.542031
1 0.982467 0.580636
1 0.984085 0.593042
1 0.9841 0.59144
1 0.98407 0.591165
1 0.984039 0.590921
1 0.984009 0.590677
1 0.984024 0.590921
1 0.984009 0.590921
1 0.983825 0.590784
1 0.983566 0.590906
1 0.983261 0.591196
0.395804 0.9729 0.749798
0.394827 0.972107 0.747066
0.394293 0.971786 0.74464
0.394217 0.971939 0.742718
0.394156 0.972107 0.740826
0.394003 0.972183 0.739025
0.393774 0.97229 0.736568
0.393423 0.972381 0.733257
0.392981 0.97258 0.728023
0.392599 0.973053 0.720211
0.393027 0.974548 0.709926
0.394339 0.976898 0.695262
0.398932 0.98146 0.676036
0.409384 0.988754 0.653941
0.42887 0.998856 0.625269
0.508263 0.998932 0.584329
0.657816 0.998932 0.54876
0.789456 0.998932 0.514092
0.863645 0.988281 0.493446
0.92987 0.9832 0.50312
0.963729 0.981048 0.52488
0.984619 0.978729 0.555962
1 0.984665 0.592569
1 0.986481 0.618189
1 0.986557 0.619928
1 0.986557 0.618723
1 0.986557 0.617685
1 0.986603 0.616938
1 0.986725 0.616251
1 0.986877 0.615793
1 0.986923 0.615641
1 0.986831 0.615824
1 0.986618 0.616327
0.396307 0.972778 0.753063
0.395331 0.971984 0.7505
0.394766 0.971679 0.74818
0.394659 0.971832 0.746365
0.394568 0.971923 0.744793
0.39443 0.972076 0.74284
0.394186 0.972168 0.740459
0.393835 0.972259 0.737301
0.393362 0.972412 0.732494
0.392859 0.972793 0.725124
0.392828 0.973922 0.714504
0.393774 0.976059 0.700084
0.397223 0.97998 0.680842
0.40647 0.986847 0.657877
0.423224 0.995865 0.630076
0.48957 0.998932 0.5906
0.630442 0.998932 0.553506
0.77261 0.998932 0.51838
0.85272 0.989868 0.494881
0.920043 0.98381 0.500465
0.959609 0.981872 0.520226
0.97937 0.978119 0.548074
1 0.983368 0.582467
1 0.986542 0.613626
1 0.986893 0.619394
1 0.986893 0.619974
1 0.986877 0.620356
1 0.986938 0.620554
1 0.98706 0.620157
1 0.987243 0.619623
1 0.987305 0.61941
1 0.987228 0.619669
1 0.987015 0.620249
0.396658 0.972671 0.755474
0.395712 0.971908 0.753063
0.395117 0.971542 0.751034
0.394995 0.971679 0.749355
0.394888 0.971847 0.747478
0.39472 0.971954 0.745678
0.394522 0.972045 0.743557
0.394171 0.972152 0.740414
0.393683 0.972305 0.735805
0.393133 0.972656 0.728679
0.392905 0.973587 0.718471
0.393423 0.975418 0.703914
0.396017 0.978821 0.684779
0.404028 0.985138 0.660746
0.420264 0.9944 0.634043
0.477165 0.998932 0.59765
0.608042 0.998932 0.558785
0.754971 0.998932 0.523766
0.842176 0.992035 0.496574
0.910811 0.984115 0.497505
0.955734 0.982651 0.51635
0.975906 0.978683 0.541421
0.997223 0.982208 0.574548
1 0.986328 0.606088
1 0.986923 0.617594
1 0.986893 0.61915
1 0.986893 0.619516
1 0.986938 0.619699
1 0.98706 0.619745
1 0.987243 0.619715
1 0.987366 0.619776
1 0.987411 0.620127
1 0.98732 0.620706
0.39704 0.972732 0.757229
0.396078 0.971923 0.755123
0.395468 0.971572 0.753017
0.395209 0.971542 0.751507
0.395117 0.971695 0.749767
0.394965 0.971862 0.747845
0.394751 0.971954 0.745724
0.39443 0.972076 0.742687
0.393942 0.972229 0.738277
0.393347 0.972534 0.731548
0.392966 0.973327 0.721355
0.393332 0.975067 0.707118
0.395239 0.978103 0.68806
0.402197 0.983841 0.663462
0.416953 0.992432 0.636255
0.466651 0.998932 0.601785
0.589349 0.998932 0.562203
0.740551 0.998932 0.527871
0.833661 0.994003 0.498085
0.902846 0.984573 0.495552
0.951995 0.983322 0.51342
0.974395 0.979965 0.53698
0.994217 0.981476 0.56817
1 0.985931 0.599588
1 0.986938 0.61532
1 0.986923 0.618219
1 0.986908 0.618601
1 0.986969 0.61883
1 0.987091 0.618845
1 0.987274 0.618784
1 0.987396 0.61886
1 0.987427 0.619211
1 0.987411 0.619623
0.398138 0.973678 0.759899
0.397269 0.972976 0.75758
0.396246 0.972122 0.75523
0.395636 0.971771 0.753017
0.395254 0.971588 0.751293
0.395117 0.97174 0.749523
0.394934 0.971908 0.747234
0.394614 0.972 0.744411
0.394125 0.972183 0.739925
0.39353 0.972442 0.733608
0.392966 0.973098 0.723354
0.393256 0.974777 0.709484
0.395026 0.977737 0.690486
0.400992 0.982971 0.666178
0.415259 0.991516 0.638453
0.459449 0.998932 0.604288
0.575738 0.998932 0.564538
0.729717 0.998932 0.530022
0.826841 0.995712 0.499565
0.896468 0.985077 0.494072
0.948394 0.983734 0.511025
0.972961 0.980926 0.534295
0.991913 0.981247 0.564355
1 0.985473 0.595392
1 0.986938 0.613352
1 0.986938 0.617594
1 0.986938 0.618021
1 0.986984 0.618235
1 0.987106 0.61828
1 0.987289 0.61825
1 0.987411 0.618326
1 0.987442 0.618647
1 0.987427 0.619089
0.398444 0.973922 0.761044
0.397757 0.973297 0.759075
0.396811 0.972549 0.756512
0.396078 0.97203 0.754437
0.395514 0.971695 0.752377
0.395254 0.971679 0.750683
0.395041 0.971832 0.748425
0.39472 0.971984 0.745434
0.394247 0.972137 0.741131
0.393622 0.972381 0.734783
0.393042 0.972976 0.725032
0.39321 0.974594 0.710918
0.394858 0.977493 0.692226
0.400504 0.98262 0.66775
0.414252 0.991012 0.640223
0.455589 0.998932 0.605661
0.567132 0.998932 0.565301
0.722072 0.998932 0.531518
0.822416 0.99678 0.500496
0.892363 0.985473 0.493538
0.945342 0.983948 0.509407
0.971511 0.981567 0.532494
0.990204 0.981247 0.561578
1 0.985122 0.592203
1 0.986862 0.61178
1 0.986938 0.617212
1 0.986938 0.617655
1 0.986984 0.617884
1 0.987121 0.617929
1 0.987305 0.617838
1 0.987427 0.617777
1 0.987472 0.617929
1 0.98732 0.618448
0.399115 0.974578 0.762951
0.398001 0.97348 0.760723
0.396887 0.972488 0.758358
0.39617 0.97203 0.756222
0.395544 0.971603 0.754177
0.395132 0.97145 0.752361
0.394797 0.97145 0.750134
0.394461 0.971618 0.747066
0.393988 0.971786 0.742824
