bundles/resolve-cinematic-luts/Phantom Luts/Ursa G2 Phntm Arri LUTs - V1/Gen4/White Balance Offset (Magenta Boost)/Ursa IceBlue Gen4-Legacy WBO.cube
TITLE "Generated by Resolve"
LUT_3D_SIZE 5
0.033402 0.045716 0.0451057
0.14519 0.0510719 0.0573587
0.482109 0.0618906 0.0846723
0.657816 0.0885634 0.138186
0.672053 0.0935683 0.17052
0.0456855 0.156802 0.10219
0.123262 0.15964 0.0702983
0.503975 0.132143 0.0864576
0.677119 0.115633 0.126116
0.673396 0.104448 0.131823
0.0562295 0.516442 0.272282
0.104112 0.531716 0.201236
0.475181 0.560204 0.123384
0.87715 0.580713 0.274235
0.879988 0.601251 0.278752
0.249622 0.849561 0.579644
0.24303 0.846754 0.541863
0.349462 0.848142 0.358846
0.879072 0.899306 0.40119
0.949493 0.90457 0.446097
0.253956 0.852262 0.603616
0.244022 0.847562 0.55111
0.427161 0.852018 0.32076
0.911803 0.89868 0.415961
0.947662 0.905211 0.445686
0.0443122 0.0505226 0.163287
0.158511 0.0530556 0.150774
0.505226 0.066453 0.194934
0.700984 0.111131 0.243198
0.70631 0.109651 0.271427
0.0397955 0.134997 0.142
0.120531 0.134981 0.152819
0.515923 0.115633 0.144533
0.668467 0.0955825 0.156451
0.678248 0.100481 0.177646
0.0595254 0.499916 0.335058
0.0563211 0.511513 0.286915
0.46215 0.548531 0.121889
0.872877 0.555734 0.269718
0.874983 0.571771 0.273014
0.25568 0.850431 0.616983
0.252171 0.850507 0.590188
0.312398 0.847303 0.393744
0.872053 0.89929 0.399222
0.949447 0.904372 0.44799
0.268864 0.856367 0.654246
0.256367 0.852903 0.615747
0.347478 0.847898 0.362005
0.885695 0.900298 0.404486
0.946105 0.904982 0.454429
0.120577 0.0615702 0.474998
0.257923 0.0596628 0.461753
0.512688 0.074464 0.431205
0.735943 0.125963 0.457343
0.732189 0.126467 0.49369
0.0168765 0.0815595 0.413474
0.131609 0.0616312 0.483497
0.503044 0.0741894 0.434836
0.737377 0.12604 0.428794
0.734951 0.125841 0.466545
0.0589456 0.482582 0.457069
0.0586557 0.491218 0.469093
0.476631 0.491386 0.506065
0.935866 0.502342 0.512764
0.934844 0.508431 0.532067
0.282689 0.847379 0.710582
0.290028 0.849561 0.707942
0.260563 0.843046 0.618784
0.836332 0.903517 0.504097
0.951873 0.910979 0.615122
0.320775 0.87425 0.774945
0.323339 0.869245 0.762417
0.309392 0.868742 0.673823
0.793713 0.909621 0.553185
0.951202 0.919249 0.59086
0.293263 0.0912795 0.686793
0.363714 0.0941024 0.697856
0.547524 0.119341 0.709194
0.702464 0.154772 0.699748
0.699382 0.1561 0.705882
0.176287 0.0887007 0.659129
0.296818 0.092195 0.690013
0.530068 0.117494 0.712398
0.705486 0.156252 0.700053
0.70074 0.156878 0.70634
0.0535439 0.42591 0.665934
0.05449 0.42298 0.676158
0.520607 0.375418 0.904997
0.886549 0.389792 0.858961
0.889158 0.404105 0.872953
0.300526 0.831189 0.810422
0.310796 0.836118 0.815061
0.345129 0.842741 0.826993
0.852644 0.86627 0.880461
0.947326 0.881163 0.895445
0.408087 0.907683 0.885634
0.420233 0.903365 0.880446
0.462272 0.914061 0.881865
0.852735 0.937301 0.923156
0.955901 0.946609 0.910979
0.32903 0.0933547 0.695323
0.389578 0.0974136 0.704692
0.570459 0.124849 0.713664
0.701747 0.155718 0.702968
0.70042 0.155932 0.704601
0.229282 0.0899977 0.674006
0.326497 0.0935531 0.695903
0.548608 0.121263 0.714687
0.703838 0.155489 0.700618
0.701411 0.157397 0.706783
0.0842756 0.419715 0.720699
0.0830243 0.411536 0.719402
0.535882 0.337392 0.888548
0.862852 0.361532 0.856977
0.868421 0.378058 0.871138
0.355566 0.841657 0.867582
0.363195 0.843229 0.866453
0.393683 0.838056 0.878523
0.872084 0.844556 0.938186
0.94226 0.862242 0.933761
0.417014 0.910018 0.893812
0.434821 0.90573 0.890333
0.493584 0.916854 0.90367
0.855039 0.938399 0.939986
0.961196 0.945296 0.941421
