bundles/resolve-cinematic-luts/Phantom Luts/Ursa G2 Phntm Arri LUTs - V1/Gen4/White Balance Offset (Magenta Boost)/Ursa Neutral Gen4 WBO.cube
TITLE "Generated by Resolve"
LUT_3D_SIZE 33
0.0106355 0.0106355 0.0106355
0.0106355 0.0106355 0.0106355
0.0251164 0.0111543 0.0111849
0.0537118 0.0111696 0.0132296
0.0864118 0.0113832 0.0162661
0.117998 0.0114748 0.0196841
0.15285 0.012604 0.0255741
0.190356 0.0142367 0.0321355
0.230381 0.0154879 0.0383459
0.273198 0.0169223 0.0447852
0.315648 0.0186313 0.0512245
0.356405 0.0206607 0.0575265
0.397986 0.0222934 0.0662242
0.439918 0.0241398 0.0761273
0.483345 0.0263218 0.0868086
0.527535 0.0284886 0.0970016
0.573083 0.0305028 0.107576
0.620127 0.031754 0.117784
0.670176 0.031281 0.12723
0.721813 0.0309606 0.137133
0.769558 0.0299992 0.145663
0.812268 0.0275731 0.151705
0.842451 0.0246891 0.154788
0.842344 0.0286564 0.15935
0.842298 0.0324407 0.163653
0.842206 0.0359045 0.167575
0.842115 0.0391241 0.171191
0.842054 0.0418402 0.174197
0.841962 0.044358 0.176959
0.841871 0.0464332 0.179202
0.841825 0.0483101 0.181231
0.841733 0.0499123 0.182956
0.841688 0.0509804 0.184115
0.0106355 0.0106355 0.0106355
0.0106355 0.0106355 0.0106355
0.0131991 0.0107424 0.0107424
0.0391852 0.0129854 0.0119631
0.0713359 0.0120699 0.0141756
0.104768 0.012253 0.0175479
0.139467 0.0121767 0.0218967
0.178225 0.0119783 0.0267948
0.219425 0.0116884 0.031693
0.263523 0.0113832 0.0364691
0.307622 0.0112001 0.0409094
0.350149 0.0116121 0.0450904
0.392828 0.0125582 0.0487526
0.435996 0.013077 0.0551308
0.479759 0.0135195 0.061326
0.524727 0.014725 0.070573
0.570947 0.0160983 0.0808118
0.618311 0.0177615 0.0928664
0.668696 0.0182956 0.103914
0.720714 0.0171511 0.113603
0.768444 0.0148928 0.121706
0.811627 0.0114595 0.127672
0.844465 0.00738537 0.130404
0.844602 0.0109102 0.135103
0.844633 0.014313 0.139437
0.844694 0.0181735 0.144228
0.844709 0.0215915 0.148379
0.844724 0.0244297 0.151797
0.844724 0.0269627 0.154803
0.844678 0.0291447 0.157366
0.844678 0.0311284 0.15964
0.844678 0.0327153 0.161456
0.844663 0.0339513 0.16289
0.0112612 0.0168917 0.0126192
0.0110781 0.014847 0.0110933
0.0120851 0.0124514 0.0107881
0.0257877 0.0169223 0.0118257
0.0498512 0.0178225 0.0132296
0.087892 0.0169985 0.0154879
0.124834 0.0154726 0.0178378
0.164614 0.0154116 0.0231174
0.207034 0.0152438 0.028336
0.25214 0.0152285 0.0336767
0.299001 0.0154116 0.0386511
0.343328 0.015671 0.0428168
0.387182 0.016556 0.0465095
0.431159 0.0168917 0.0528267
0.475685 0.0173342 0.0591287
0.520577 0.0175631 0.0655528
0.566522 0.0173495 0.072282
0.613718 0.0164034 0.0792096
0.663569 0.0143282 0.0860304
0.715709 0.0111086 0.0921035
0.764965 0.00794995 0.10042
0.809903 0.0043183 0.106203
0.844907 0 0.107286
0.845823 0.00175479 0.112978
0.846418 0.00407416 0.117998
0.846998 0.00576791 0.121706
0.847257 0.00726329 0.124819
0.84744 0.00881972 0.127733
0.847532 0.010193 0.13022
0.847333 0.0116579 0.132357
0.847181 0.0128786 0.134264
0.847135 0.0141604 0.135912
0.84712 0.0153658 0.137438
0.0140078 0.0443275 0.0240635
0.0138247 0.0426947 0.0206149
0.0204776 0.0395514 0.0142519
0.0331884 0.0398566 0.0150607
0.0559854 0.0420691 0.0167239
0.0891585 0.0398108 0.0210117
0.121508 0.03682 0.0215305
0.159182 0.0334325 0.0233463
0.200549 0.0291752 0.0255894
0.244388 0.0239414 0.0281071
0.291096 0.0205692 0.0337224
0.335698 0.0195621 0.0393072
0.380423 0.0202335 0.0434882
0.425483 0.0203555 0.0496529
0.470527 0.0206912 0.0559548
0.516243 0.0208591 0.0626078
0.562356 0.0205539 0.0693065
0.610101 0.0198672 0.0760967
0.659937 0.0180667 0.082475
0.712596 0.0151522 0.0882582
0.761852 0.0109102 0.0914626
0.806409 0.00544747 0.0915389
0.842969 0 0.0863813
0.845975 0 0.0854353
0.846433 0 0.08925
0.847013 0 0.0940414
0.847639 0.000793469 0.0988174
0.848295 0.00218204 0.102998
0.848554 0.00309758 0.106111
0.848875 0.00428779 0.109209
0.84918 0.00520333 0.11162
0.849515 0.00630198 0.113954
0.849683 0.00686656 0.115389
0.0171664 0.0766155 0.0352941
0.0170291 0.0754406 0.0319524
0.0218051 0.0705119 0.0216068
0.0402991 0.0682078 0.0176852
0.0561532 0.0715801 0.0194705
0.0915847 0.0731975 0.0200351
0.12784 0.0693065 0.0277867
0.168017 0.0603342 0.0322881
0.204883 0.0585184 0.0321202
0.24593 0.0548409 0.0333257
0.292332 0.0493629 0.0360418
0.336996 0.0429389 0.0390173
0.379309 0.0370184 0.0420539
0.422049 0.0297551 0.0451667
0.46508 0.0244907 0.0512703
0.510979 0.0242618 0.0585336
0.557885 0.0241398 0.0651713
0.606226 0.0237736 0.0717784
0.656184 0.022446 0.0780804
0.708858 0.0195315 0.08365
0.758755 0.0152895 0.0873732
0.804501 0.0101625 0.0881056
0.842023 0.00273136 0.0834058
0.849577 0.000808728 0.0817273
0.849561 0.000793469 0.0817426
0.849561 0.000793469 0.0817426
0.849546 0.00077821 0.0817578
0.849546 0.00077821 0.0817578
0.849546 0.00077821 0.0817578
0.849546 0.00077821 0.0817578
0.849515 0.000701915 0.0817426
0.849607 0.0009308 0.0823835
0.84979 0.00141909 0.0840925
0.0203098 0.110109 0.0458076
0.020264 0.110002 0.0408179
0.0261234 0.105821 0.0316167
0.0392004 0.102052 0.0220188
0.0637675 0.104173 0.0217899
0.0852674 0.106783 0.0242313
0.124422 0.107424 0.0232242
0.167849 0.105806 0.030869
0.215106 0.0905623 0.0402686
0.259968 0.0825055 0.0433814
0.302342 0.078294 0.0441138
0.341924 0.0755322 0.0453346
0.38497 0.0702678 0.0484169
0.42797 0.0641184 0.0518654
0.471 0.0570077 0.0551156
0.514534 0.0488594 0.0583658
0.557961 0.0405432 0.0624857
0.602335 0.0307469 0.0667735
0.651255 0.0274052 0.0727092
0.704097 0.0247196 0.0783246
0.755001 0.0205844 0.0820478
0.80145 0.0155489 0.08336
0.840467 0.0108186 0.0819715
0.85359 0.00877394 0.0806287
0.853544 0.00877394 0.0806287
0.853529 0.00874342 0.0806287
0.853529 0.00874342 0.0806287
0.853529 0.00874342 0.0806287
0.853559 0.00868238 0.0806287
0.853513 0.00869764 0.0806287
0.853513 0.00869764 0.0806287
0.853483 0.00860609 0.0806134
0.853483 0.00860609 0.0806134
0.023331 0.14432 0.0560616
0.0266423 0.145083 0.0481117
0.0315862 0.141833 0.0416114
0.0405585 0.137621 0.0303807
0.063447 0.136568 0.024155
0.0902419 0.140459 0.0263828
0.114488 0.142535 0.0287175
0.159564 0.14226 0.0274357
0.210468 0.142824 0.0325322
0.263188 0.126238 0.0459144
0.314565 0.111574 0.0526741
0.358465 0.107164 0.055024
0.397009 0.104738 0.0567483
0.434577 0.102754 0.0586404
0.477684 0.0971084 0.0620584
0.522042 0.090013 0.0654612
0.566339 0.0806134 0.068574
0.611078 0.0717479 0.0728771
0.656886 0.0614481 0.0768749
0.704723 0.049424 0.0801862
0.751553 0.0357977 0.0826276
0.797559 0.0290227 0.0849165
0.838437 0.0247807 0.0846723
0.858625 0.021912 0.0827192
0.85864 0.0219577 0.0827344
0.85864 0.0219577 0.0827344
0.85864 0.0219577 0.0827344
0.85864 0.0219577 0.0827344
0.85864 0.0219577 0.0827344
0.85864 0.0219577 0.0827344
0.858625 0.021912 0.0827192
0.858625 0.021912 0.0827192
0.858625 0.021912 0.0827192
0.0263828 0.181903 0.0719615
0.0335546 0.183368 0.0586862
0.0379797 0.181811 0.0534829
0.0471199 0.177981 0.0433356
0.0583658 0.173114 0.0284733
0.0939193 0.176867 0.0268864
0.12134 0.180606 0.0310979
0.145174 0.182712 0.0330663
0.198337 0.180682 0.0315251
0.255879 0.183383 0.0327916
0.313909 0.16759 0.0513161
0.366751 0.147448 0.0633555
0.411902 0.141833 0.0672465
0.453239 0.138567 0.0702525
0.4907 0.137606 0.0720684
0.530587 0.135332 0.0738384
0.575494 0.129091 0.0769055
0.621607 0.120806 0.0795148
0.668299 0.112581 0.0837415
0.71722 0.102205 0.087602
0.764858 0.0898146 0.0901045
0.808026 0.0762951 0.0914015
0.845441 0.0632639 0.0910353
0.867658 0.0497597 0.0868391
0.864729 0.0400397 0.0854353
0.864149 0.0382544 0.0851759
0.864164 0.0383154 0.0851759
0.864164 0.0383154 0.0851759
0.864164 0.0383154 0.0851759
0.864164 0.0383154 0.0851759
0.864164 0.0383154 0.0851759
0.864164 0.0383154 0.0851759
0.864164 0.0383154 0.0851759
0.0291905 0.222354 0.0901198
0.0358434 0.223911 0.0764172
0.0440681 0.224308 0.0678416
0.0525216 0.220905 0.0576638
0.0637675 0.216861 0.0451514
0.0769207 0.214237 0.0307317
0.121386 0.22034 0.0303349
0.152316 0.22388 0.0356756
0.179095 0.22591 0.0375677
0.240345 0.222751 0.0363165
0.305303 0.225711 0.0353857
0.363119 0.213947 0.0551919
0.416236 0.197009 0.0707256
0.464942 0.181598 0.080354
0.508614 0.17792 0.0840925
0.550652 0.175677 0.0869459
0.589227 0.175235 0.0874952
0.632364 0.171832 0.0887312
0.679347 0.164889 0.090959
0.728405 0.157427 0.0946975
0.776684 0.149126 0.097673
0.820615 0.140414 0.0993973
0.85893 0.13164 0.0996719
0.886198 0.12224 0.0973373
0.884016 0.112917 0.0960098
0.881956 0.103883 0.0948348
0.879774 0.0949874 0.0935225
0.877897 0.0869306 0.0924849
0.875929 0.0795148 0.0913252
0.874556 0.0735332 0.0906691
0.872984 0.0681315 0.0897993
0.871748 0.063508 0.089128
0.870893 0.0604715 0.0884565
0.0315557 0.265629 0.108598
0.0385443 0.26717 0.0962997
0.0527352 0.268971 0.0823224
0.0584421 0.266758 0.0750744
0.0688487 0.263523 0.0630808
0.0843671 0.258595 0.0460975
0.114504 0.259937 0.0332036
0.151415 0.26717 0.0338903
0.184985 0.270375 0.0404212
0.217121 0.272953 0.0419165
0.285679 0.268391 0.0410773
0.355505 0.271168 0.0386969
0.412406 0.264317 0.0565347
0.466545 0.249836 0.0760662
0.516976 0.233509 0.0901503
0.565225 0.22182 0.0979019
0.609155 0.219013 0.100862
0.651514 0.217563 0.102464
0.692226 0.216449 0.101976
0.738048 0.212665 0.103044
0.786053 0.207202 0.105943
0.829847 0.201083 0.107988
0.869154 0.195056 0.108766
0.901015 0.189944 0.107713
0.899931 0.182895 0.106676
0.89839 0.175723 0.105577
0.897078 0.169467 0.104616
0.895628 0.163516 0.103548
0.894682 0.158297 0.102892
0.893492 0.153613 0.102068
0.892592 0.149462 0.101427
0.891981 0.145983 0.101045
0.891234 0.143389 0.100511
0.0332494 0.312551 0.128115
0.0411688 0.314 0.116869
0.054612 0.315694 0.104433
0.0646525 0.316274 0.0954147
0.0749676 0.313619 0.0841077
0.0886397 0.309697 0.0684062
0.107408 0.304448 0.0458076
0.150774 0.310552 0.034226
0.18352 0.317922 0.0366827
0.22179 0.320806 0.0450599
0.258427 0.323949 0.046067
0.3346 0.318242 0.0461433
0.405158 0.320974 0.0420233
0.463279 0.319142 0.0537728
0.517052 0.307286 0.0783551
0.5682 0.29485 0.094667
0.619089 0.278904 0.107637
0.666773 0.267979 0.114961
0.711772 0.264897 0.116655
0.755901 0.263188 0.116579
0.79646 0.262898 0.116564
0.836988 0.261357 0.118074
0.876188 0.257939 0.119432
0.908995 0.254597 0.119127
0.91252 0.249241 0.117815
0.911528 0.243427 0.116838
0.91075 0.238483 0.115969
0.909865 0.233524 0.115053
0.908965 0.229221 0.114183
0.908476 0.225574 0.113649
0.90782 0.222278 0.113069
0.907149 0.219333 0.112505
0.906767 0.217258 0.112139
0.0339818 0.360479 0.149523
0.0420691 0.36173 0.138537
0.0546273 0.363058 0.127306
0.0702068 0.364965 0.11487
0.0796521 0.363668 0.106188
0.092607 0.360891 0.092958
0.108614 0.356725 0.0732586
0.133776 0.353231 0.0409247
0.184375 0.361959 0.0349584
0.217075 0.368673 0.038529
0.260487 0.371908 0.047364
0.303975 0.374777 0.0512093
0.383322 0.368444 0.0530556
0.454505 0.372061 0.0468147
0.513832 0.372839 0.0507362
0.5673 0.364126 0.0768597
0.618509 0.354345 0.0969711
0.669718 0.341344 0.112657
0.719936 0.327184 0.124437
0.769024 0.313939 0.131212
0.813626 0.310765 0.13109
0.849363 0.312169 0.131884
0.882322 0.313512 0.131762
0.913085 0.313558 0.131823
0.92195 0.310399 0.130877
0.921279 0.305928 0.129793
0.920775 0.30222 0.128939
0.920211 0.298375 0.128069
0.919554 0.295125 0.12726
0.919142 0.292149 0.12665
0.918975 0.289845 0.126284
0.918624 0.287648 0.12578
0.918288 0.285985 0.125368
0.0336614 0.408515 0.174701
0.0388495 0.409781 0.163455
0.0513466 0.411002 0.152117
0.0666056 0.412543 0.140322
0.0816205 0.414191 0.129625
0.0942397 0.411551 0.117983
0.1093 0.408545 0.102098
0.127596 0.404013 0.0784314
0.157641 0.403586 0.0399481
0.217121 0.413153 0.0357061
0.253529 0.419364 0.0421759
0.300862 0.423041 0.053315
0.353094 0.425635 0.0591897
0.43122 0.418235 0.0624094
0.502571 0.422187 0.0529641
0.563256 0.422675 0.0556954
0.616617 0.418097 0.0754253
0.667948 0.409857 0.100633
0.718593 0.399908 0.118715
0.770748 0.387594 0.133013
0.818296 0.375128 0.141497
0.860197 0.362554 0.147402
0.893446 0.362234 0.149248
0.920073 0.364874 0.148165
0.930709 0.364965 0.146792
0.930602 0.361715 0.145815
0.930556 0.358694 0.144869
0.930053 0.355962 0.143832
0.929503 0.353399 0.142992
0.929061 0.351202 0.142245
0.928847 0.349477 0.141741
0.928405 0.347723 0.14107
0.928206 0.346532 0.140703
0.0323644 0.457267 0.20441
0.0323949 0.458717 0.192828
0.0422065 0.459907 0.181598
0.0570077 0.461204 0.169665
0.0754101 0.462867 0.15668
0.0925917 0.463035 0.144381
0.10721 0.460487 0.131212
0.124529 0.457038 0.112673
0.147433 0.452628 0.0830243
0.199893 0.456672 0.0418402
0.250004 0.464958 0.0419165
0.293187 0.470481 0.0516213
0.343923 0.474113 0.0614939
0.401419 0.475959 0.0694591
0.478767 0.467979 0.0742351
0.549844 0.471901 0.0620432
0.611337 0.472282 0.06392
0.664561 0.472114 0.0749371
0.716182 0.463783 0.10663
0.766506 0.456504 0.126452
0.815702 0.447349 0.141176
0.858366 0.439033 0.149126
0.893965 0.43267 0.155566
0.922744 0.428534 0.160571
0.929808 0.430213 0.158175
0.930007 0.426062 0.1579
0.930205 0.422156 0.157794
0.930434 0.419043 0.157626
0.930571 0.415961 0.157366
0.930755 0.413123 0.157153
0.930831 0.410559 0.156954
0.930953 0.408362 0.156832
0.930907 0.407172 0.156573
0.0302892 0.506371 0.238315
0.0303044 0.507683 0.22739
0.0303349 0.509255 0.215595
0.040589 0.51043 0.204395
0.057084 0.511833 0.191684
0.0820478 0.513954 0.175402
0.100099 0.512291 0.161929
0.118547 0.509178 0.145693
0.138857 0.505379 0.124086
0.172061 0.503212 0.0853742
0.240284 0.509239 0.0481117
0.285969 0.515938 0.0510872
0.335943 0.520409 0.0650339
0.388632 0.524666 0.0722667
0.4495 0.52575 0.0828412
0.525368 0.517113 0.0892805
0.595621 0.520928 0.0757458
0.657572 0.520943 0.0782177
0.710613 0.522484 0.0844739
0.76257 0.516915 0.114977
0.809918 0.510887 0.136461
0.852491 0.505409 0.149157
0.890166 0.50045 0.155489
0.918898 0.498238 0.163531
0.926329 0.50103 0.161715
0.926421 0.498253 0.161456
0.926665 0.495323 0.161456
0.926772 0.492592 0.161501
0.926772 0.490181 0.161273
0.926818 0.487999 0.161135
0.926925 0.48603 0.161059
0.92697 0.484474 0.160952
0.927184 0.483436 0.161044
0.028687 0.555367 0.275471
0.027924 0.55642 0.265034
0.0279088 0.557717 0.254398
0.0279545 0.559289 0.242786
0.0357671 0.560754 0.230335
0.0553902 0.562509 0.214984
0.0834821 0.563851 0.197192
0.105074 0.561288 0.18146
0.129351 0.558007 0.161868
0.159182 0.553933 0.135775
0.204822 0.553857 0.0840772
0.280201 0.560922 0.0559243
0.326513 0.566705 0.0638437
0.38262 0.570001 0.0855116
0.433692 0.574762 0.0880903
0.497292 0.575219 0.100465
0.57113 0.566155 0.109117
0.640024 0.569162 0.0975662
0.701793 0.568948 0.0989242
0.754833 0.570397 0.1066
0.804959 0.569528 0.124239
0.847181 0.565576 0.145235
0.883528 0.56231 0.155795
0.914305 0.559579 0.163439
0.924971 0.561028 0.166857
0.924926 0.56054 0.165515
0.924819 0.558419 0.165026
0.924865 0.556313 0.164996
0.924865 0.554482 0.164828
0.924865 0.552865 0.164721
0.924987 0.551492 0.164706
0.924956 0.550515 0.164477
0.924987 0.549584 0.164462
0.0355383 0.604227 0.31696
0.0346227 0.605249 0.307149
0.0335088 0.606348 0.296773
0.0323186 0.607569 0.285634
0.03093 0.609232 0.273213
0.0341802 0.610986 0.258015
0.0535439 0.613108 0.239963
0.0844434 0.612451 0.221118
0.115373 0.609415 0.202853
0.148791 0.606043 0.179568
0.185138 0.601968 0.145907
0.240314 0.604242 0.0784924
0.319631 0.61149 0.0686503
0.371191 0.616648 0.0834821
0.429007 0.619608 0.107286
0.478828 0.624109 0.10956
0.543633 0.623545 0.122621
0.615259 0.614099 0.132311
0.683421 0.61648 0.120317
0.743999 0.61619 0.122484
0.796979 0.617411 0.130083
0.841733 0.619577 0.136965
0.879133 0.618265 0.152697
0.909728 0.617914 0.160143
0.925017 0.618082 0.168582
0.925063 0.618738 0.169024
0.925002 0.616846 0.168902
0.924956 0.615167 0.168887
0.924758 0.613565 0.16875
0.924895 0.612467 0.168856
0.92488 0.611109 0.168841
0.92488 0.610178 0.168765
0.924834 0.609506 0.168688
0.0441901 0.652766 0.358358
0.0432136 0.653758 0.349874
0.0422217 0.654673 0.340826
0.0412146 0.655818 0.331106
0.0401465 0.657023 0.320119
0.0387884 0.658885 0.305516
0.0387427 0.661128 0.287022
0.0640574 0.66334 0.264637
0.0960555 0.660807 0.246509
0.130526 0.657404 0.225101
0.16817 0.653468 0.197528
0.215015 0.651316 0.152895
0.286244 0.655558 0.0882887
0.363317 0.660914 0.091783
0.419486 0.665339 0.111635
0.473793 0.668956 0.128389
0.523629 0.672282 0.133791
0.589105 0.671412 0.145571
0.658366 0.66186 0.155596
0.724666 0.663493 0.145068
0.784909 0.663233 0.147112
0.834745 0.664378 0.155215
0.874525 0.666499 0.162325
0.906935 0.669429 0.163973
0.928328 0.672099 0.16762
0.928328 0.67332 0.172442
0.928344 0.671962 0.172457
0.928313 0.670619 0.172396
0.928191 0.669337 0.172274
0.928084 0.668193 0.172168
0.927977 0.667231 0.172061
0.927855 0.666423 0.171817
0.927749 0.665858 0.171695
0.0546578 0.700175 0.398093
0.0538338 0.701076 0.390829
0.0529946 0.70193 0.383154
0.0521401 0.702892 0.374975
0.051194 0.704021 0.365484
0.0500496 0.705547 0.353353
0.0482643 0.707607 0.337331
0.0462196 0.710384 0.316457
0.0750744 0.710811 0.29279
0.107271 0.707759 0.272297
0.145403 0.703899 0.247425
0.188067 0.69929 0.214588
0.248707 0.699413 0.155795
0.342519 0.705242 0.105165
0.411902 0.709163 0.119677
0.466865 0.712764 0.142107
0.51838 0.717174 0.150332
0.56791 0.719478 0.158053
0.633021 0.718349 0.169329
0.700618 0.709087 0.179217
0.765591 0.710369 0.172
0.822904 0.711192 0.174411
0.867475 0.711482 0.182605
0.902556 0.713756 0.188647
0.930037 0.716548 0.189197
0.933501 0.717601 0.198825
0.933486 0.717296 0.200183
0.933379 0.716274 0.199466
0.933272 0.715312 0.198764
0.933135 0.71458 0.198215
0.933043 0.713741 0.19765
0.932982 0.713115 0.197238
0.932937 0.712657 0.196918
0.0675364 0.746929 0.436439
0.066743 0.747585 0.429999
0.0657969 0.74844 0.423011
0.0648508 0.749401 0.415885
0.0637522 0.750484 0.407645
0.0624552 0.751751 0.397436
0.0609598 0.753536 0.383871
0.0589914 0.756146 0.366278
0.0572366 0.759625 0.341711
0.0873426 0.757366 0.321019
0.119524 0.753887 0.29778
0.162875 0.749477 0.268666
0.216129 0.745403 0.227893
0.290227 0.747402 0.153307
0.394369 0.753597 0.131945
0.461646 0.757168 0.149767
0.512154 0.760418 0.173632
0.562081 0.764721 0.174273
0.611749 0.766659 0.183703
0.676448 0.766232 0.193988
0.742123 0.757473 0.205722
0.806149 0.758816 0.203021
0.855817 0.760586 0.205356
0.896254 0.760708 0.21207
0.925948 0.762875 0.216144
0.938567 0.76376 0.224002
0.938521 0.763424 0.231083
0.938567 0.762661 0.23061
0.93846 0.761776 0.23006
0.938399 0.760952 0.229572
0.938308 0.760388 0.229114
0.938262 0.759747 0.228717
0.938231 0.759304 0.228473
0.0826123 0.79324 0.472374
0.0816968 0.794003 0.46659
0.0807965 0.794629 0.460639
0.0798352 0.795453 0.454383
0.0786297 0.796323 0.446952
0.0771191 0.79765 0.437888
0.0754101 0.799222 0.42594
0.0731975 0.801343 0.410895
0.0706188 0.804074 0.391455
0.0717021 0.805859 0.36643
0.103563 0.802518 0.346578
0.138186 0.798672 0.320485
0.186542 0.793454 0.286412
0.255161 0.791928 0.233356
0.345861 0.796551 0.156268
0.448737 0.800427 0.16202
0.507897 0.803494 0.180926
0.555734 0.806577 0.19794
0.605829 0.810849 0.200427
0.656291 0.813153 0.21146
0.719402 0.813291 0.221744
0.784558 0.806027 0.235126
0.842481 0.807111 0.236423
0.886213 0.809552 0.238666
0.920287 0.81088 0.243595
0.942855 0.81207 0.248859
0.94284 0.811154 0.260777
0.942779 0.810346 0.260319
0.942702 0.809689 0.259876
0.94258 0.809079 0.259373
0.942519 0.808621 0.259022
0.94255 0.808148 0.258839
0.942596 0.807889 0.258686
0.0982528 0.83537 0.506035
0.0973068 0.836027 0.500862
0.0963607 0.836683 0.495369
0.0956436 0.837217 0.489754
0.0945602 0.837934 0.48336
0.0931411 0.838941 0.475151
0.0914015 0.840192 0.464637
0.0893568 0.841856 0.451316
0.0864881 0.844114 0.434012
0.08336 0.847059 0.409613
0.0893873 0.84535 0.389197
0.123262 0.842084 0.367727
0.160555 0.837766 0.338903
0.215351 0.833097 0.298604
0.300893 0.833463 0.227939
0.415839 0.839582 0.178836
0.498802 0.841169 0.194171
0.550271 0.843839 0.213718
0.599069 0.848188 0.222416
0.648829 0.852491 0.228794
0.701122 0.854871 0.239963
0.762615 0.856138 0.251774
0.825208 0.850172 0.265095
0.875151 0.851331 0.26952
0.912795 0.853498 0.271
0.93991 0.856291 0.274144
0.9458 0.855467 0.285252
0.945769 0.854978 0.288716
0.945724 0.854444 0.288365
0.945739 0.854032 0.28809
0.945739 0.853635 0.287816
0.945678 0.8533 0.287541
0.945693 0.853162 0.287404
0.113497 0.871962 0.537301
0.112612 0.872435 0.532387
0.111696 0.873014 0.527443
0.110872 0.873549 0.522255
0.109773 0.874205 0.516335
0.1084 0.874952 0.508934
0.106676 0.876066 0.49958
0.104707 0.877485 0.487724
0.102129 0.87924 0.472587
0.0988174 0.881743 0.45185
0.100313 0.882551 0.427649
0.110201 0.879866 0.408103
0.146304 0.875959 0.383825
0.186435 0.871412 0.351232
0.257496 0.869627 0.300298
0.359976 0.872129 0.217868
0.471962 0.875883 0.210483
0.543847 0.877501 0.228275
0.593622 0.880232 0.245518
0.64126 0.885786 0.249271
0.691035 0.890074 0.25774
0.745464 0.893004 0.26978
0.805005 0.894835 0.282368
0.86099 0.890349 0.294835
0.904295 0.8916 0.30193
0.934997 0.893614 0.302525
0.950912 0.89276 0.311666
0.950668 0.891752 0.317952
0.950622 0.891493 0.317678
0.950561 0.891127 0.317388
0.950545 0.890822 0.317113
0.9505 0.890639 0.316915
0.9505 0.890455 0.316762
0.127977 0.903471 0.566339
0.127138 0.903853 0.561791
0.126207 0.904295 0.557153
0.125399 0.904799 0.552392
0.124376 0.905303 0.546914
0.123095 0.905913 0.539834
0.121462 0.906859 0.531334
0.119478 0.907958 0.520333
0.117021 0.909453 0.506462
0.113802 0.911254 0.488716
0.111864 0.913283 0.463386
0.118059 0.911192 0.443809
0.134035 0.908583 0.42211
0.172259 0.904341 0.394934
0.218738 0.900755 0.356603
0.31133 0.900252 0.288869
0.434516 0.90457 0.237613
0.524529 0.907195 0.244373
0.588022 0.909072 0.260456
0.634836 0.913191 0.271611
0.682277 0.918227 0.276753
0.732143 0.922377 0.287373
0.789837 0.925536 0.299016
0.843076 0.927871 0.312123
0.893523 0.924895 0.323293
0.928908 0.926207 0.331731
0.953216 0.924483 0.339437
0.955428 0.922225 0.347143
0.955367 0.922133 0.347112
0.955352 0.921981 0.346975
0.955276 0.921782 0.346746
0.955261 0.92163 0.346548
0.955261 0.921538 0.346471
0.141543 0.929213 0.593317
0.140703 0.929641 0.589258
0.139956 0.929885 0.584756
0.139086 0.930282 0.580255
0.138003 0.930632 0.575143
0.136721 0.931182 0.568704
0.135103 0.931838 0.560571
0.133272 0.932692 0.550256
0.130877 0.933776 0.537453
0.127733 0.935271 0.52079
0.123278 0.935668 0.496986
0.128084 0.93576 0.475959
0.136065 0.934096 0.456046
0.159731 0.930922 0.431327
0.201541 0.926558 0.400076
0.267002 0.925963 0.351263
0.381247 0.927169 0.279667
0.492012 0.930373 0.265415
0.572656 0.932631 0.276204
0.629252 0.934035 0.291783
0.673365 0.937835 0.295171
0.720806 0.941955 0.301793
0.773053 0.945602 0.312947
0.830106 0.948791 0.324269
0.877531 0.951812 0.33637
0.921599 0.950332 0.347616
0.951064 0.947295 0.364981
0.962081 0.94461 0.372808
0.961959 0.943999 0.375021
0.961898 0.943954 0.374945
0.961898 0.943862 0.374868
0.961883 0.943816 0.374746
0.961822 0.94374 0.37467
0.143221 0.930037 0.599878
0.142382 0.930388 0.595865
0.141558 0.930846 0.591531
0.140673 0.931197 0.587198
0.139834 0.931609 0.582208
0.138705 0.932326 0.576028
0.137285 0.933089 0.568338
0.1355 0.934005 0.558572
0.133227 0.935164 0.546075
0.1299 0.936156 0.529854
0.125002 0.935805 0.507561
0.126345 0.935637 0.483848
0.135058 0.935866 0.468437
0.146227 0.935988 0.449302
0.18323 0.935134 0.426505
0.234867 0.933669 0.391043
0.321401 0.930678 0.328527
0.454215 0.930571 0.290364
0.533074 0.932036 0.279957
0.60798 0.933959 0.294057
0.659617 0.936736 0.300465
0.703426 0.94049 0.304021
0.751415 0.944228 0.311574
0.809216 0.947524 0.320867
0.859449 0.950515 0.331243
0.908217 0.949691 0.343557
0.941283 0.949294 0.364126
0.963211 0.948577 0.379492
0.963394 0.948867 0.385443
0.963394 0.948867 0.385504
0.963394 0.948867 0.385504
0.963394 0.948867 0.385443
0.963394 0.948867 0.385443
0.144259 0.929564 0.604868
0.14342 0.929931 0.600748
0.14258 0.930282 0.596674
0.141695 0.930694 0.592172
0.140719 0.931151 0.587304
0.139651 0.931655 0.58117
0.138231 0.932479 0.573587
0.136553 0.933501 0.56408
0.13431 0.9346 0.55198
0.13138 0.936065 0.536278
0.126528 0.935866 0.51519
0.124727 0.935668 0.48835
0.133227 0.935775 0.471946
