bundles/resolve-cinematic-luts/Phantom Luts/Ursa G2 Phntm Arri LUTs - V1/Gen4/White Balance Offset (Magenta Boost)/Ursa Neutral Gen4 WBO.cube
TITLE "Generated by Resolve"
LUT_3D_SIZE 9
0.0106355 0.0106355 0.0106355
0.0864118 0.0113832 0.0162661
0.230381 0.0154879 0.0383459
0.397986 0.0222934 0.0662242
0.573083 0.0305028 0.107576
0.769558 0.0299992 0.145663
0.842298 0.0324407 0.163653
0.841962 0.044358 0.176959
0.841688 0.0509804 0.184115
0.0171664 0.0766155 0.0352941
0.0561532 0.0715801 0.0194705
0.204883 0.0585184 0.0321202
0.379309 0.0370184 0.0420539
0.557885 0.0241398 0.0651713
0.758755 0.0152895 0.0873732
0.849561 0.000793469 0.0817426
0.849546 0.00077821 0.0817578
0.84979 0.00141909 0.0840925
0.0291905 0.222354 0.0901198
0.0637675 0.216861 0.0451514
0.179095 0.22591 0.0375677
0.416236 0.197009 0.0707256
0.589227 0.175235 0.0874952
0.776684 0.149126 0.097673
0.884016 0.112917 0.0960098
0.875929 0.0795148 0.0913252
0.870893 0.0604715 0.0884565
0.0336614 0.408515 0.174701
0.0816205 0.414191 0.129625
0.157641 0.403586 0.0399481
0.353094 0.425635 0.0591897
0.616617 0.418097 0.0754253
0.818296 0.375128 0.141497
0.930709 0.364965 0.146792
0.929503 0.353399 0.142992
0.928206 0.346532 0.140703
0.0355383 0.604227 0.31696
0.03093 0.609232 0.273213
0.115373 0.609415 0.202853
0.319631 0.61149 0.0686503
0.543633 0.623545 0.122621
0.796979 0.617411 0.130083
0.925017 0.618082 0.168582
0.924758 0.613565 0.16875
0.924834 0.609506 0.168688
0.0826123 0.79324 0.472374
0.0786297 0.796323 0.446952
0.0706188 0.804074 0.391455
0.186542 0.793454 0.286412
0.507897 0.803494 0.180926
0.719402 0.813291 0.221744
0.920287 0.81088 0.243595
0.942702 0.809689 0.259876
0.942596 0.807889 0.258686
0.141543 0.929213 0.593317
0.138003 0.930632 0.575143
0.130877 0.933776 0.537453
0.136065 0.934096 0.456046
0.381247 0.927169 0.279667
0.673365 0.937835 0.295171
0.877531 0.951812 0.33637
0.961959 0.943999 0.375021
0.961822 0.94374 0.37467
0.145983 0.928832 0.612802
0.142382 0.930388 0.595865
0.136095 0.933745 0.561746
0.129915 0.93576 0.477531
0.27396 0.932494 0.359411
0.641718 0.935225 0.30071
0.838499 0.949157 0.326528
0.963333 0.948837 0.384451
0.963394 0.948882 0.386755
0.148074 0.927871 0.623438
0.144701 0.929351 0.60676
0.138231 0.932479 0.573632
0.126101 0.935637 0.485801
0.246433 0.933288 0.382025
0.626001 0.934386 0.299199
0.821439 0.948196 0.323262
0.962875 0.948592 0.3794
0.963394 0.948882 0.386755
0.0225223 0.0113069 0.0716869
0.0898756 0.0142672 0.0729381
0.237598 0.0209812 0.108949
0.40708 0.0272984 0.141176
0.580804 0.0320134 0.179019
0.777661 0.0429694 0.2224
0.841901 0.0471504 0.240864
0.842496 0.0477455 0.250309
0.842908 0.0482032 0.255604
0.014847 0.0528573 0.0509499
0.0501106 0.0475624 0.0488441
0.2159 0.0380407 0.0550546
0.384131 0.0234226 0.0667582
0.563928 0.0332799 0.108339
0.761975 0.0328527 0.14667
0.843015 0.0345922 0.165408
0.84268 0.0462959 0.178271
0.842435 0.0529946 0.185458
0.0279545 0.198993 0.130098
0.0278477 0.201389 0.0894789
0.172763 0.21091 0.0368811
0.422004 0.158801 0.0715953
0.585595 0.144533 0.0803082
0.775097 0.106676 0.092546
0.870176 0.0578775 0.0880903
0.86009 0.0265202 0.0832532
0.85977 0.0250553 0.0831922
0.033753 0.390417 0.218509
0.0338293 0.3953 0.17467
0.13077 0.398016 0.0710613
0.34815 0.416129 0.0587778
0.621149 0.399481 0.0851148
0.822583 0.347555 0.141222
0.928176 0.346273 0.140658
0.925811 0.33315 0.136843
0.924514 0.325307 0.134691
0.0386664 0.592035 0.352239
0.0348974 0.595621 0.315358
0.0676432 0.605005 0.226429
0.299733 0.606012 0.0651408
0.540505 0.617884 0.120607
0.799954 0.609781 0.127596
0.924819 0.607202 0.168917
0.92462 0.601663 0.168109
0.92459 0.596872 0.16788
0.0848402 0.783932 0.493355
0.0808728 0.786587 0.470695
0.0733806 0.793011 0.421408
0.156649 0.790982 0.302876
0.497612 0.799695 0.175616
0.716548 0.809033 0.219348
0.921355 0.8047 0.240101
0.942184 0.802853 0.255772
0.941833 0.800336 0.254032
0.143191 0.923934 0.608103
0.139788 0.925124 0.591104
0.133257 0.927947 0.556863
0.128908 0.932189 0.465919
0.350545 0.924895 0.293355
0.667613 0.937255 0.294041
0.874418 0.95169 0.336095
0.960861 0.941375 0.371344
0.960693 0.940795 0.370581
0.149462 0.92723 0.629938
0.146227 0.928664 0.614054
0.139879 0.931563 0.582467
0.125322 0.935714 0.494041
0.252171 0.933165 0.377234
0.632792 0.934569 0.300938
0.832074 0.948898 0.325475
0.963333 0.94876 0.38291
0.963394 0.948898 0.38703
0.151568 0.926375 0.64004
0.148318 0.927764 0.624643
0.142016 0.93048 0.593805
0.127306 0.935821 0.511025
0.226307 0.933913 0.397452
0.614878 0.934035 0.296193
0.812894 0.947738 0.321645
0.959655 0.948623 0.377096
0.963394 0.948882 0.386755
0.0532845 0.0149081 0.214359
0.133684 0.0170291 0.19527
0.244495 0.0226749 0.201129
0.410315 0.0315251 0.241978
0.585275 0.0391241 0.281178
0.784405 0.0498665 0.32668
0.847242 0.0537423 0.346242
0.847639 0.0545205 0.353506
0.847807 0.0548562 0.357412
0.0117952 0.0348669 0.159365
0.0665904 0.0148623 0.196796
0.21738 0.0211032 0.178073
0.396017 0.0301518 0.197086
0.574762 0.035111 0.232883
0.774121 0.0460212 0.27361
0.844617 0.0500191 0.292409
0.845014 0.0505531 0.300572
0.845319 0.0509651 0.305119
0.0277409 0.180926 0.173922
0.0273442 0.175647 0.169665
0.192538 0.18471 0.188571
0.407828 0.169024 0.185687
0.590585 0.143694 0.184344
0.781369 0.0898604 0.18761
0.846067 0.0460822 0.174533
0.844633 0.054139 0.184482
0.844175 0.0571298 0.189868
0.0338903 0.372763 0.270802
0.0338903 0.370199 0.250736
0.0339361 0.376303 0.176516
0.353933 0.399573 0.13463
0.620706 0.365164 0.166705
0.814679 0.324819 0.152865
0.922988 0.304753 0.141604
0.920134 0.288441 0.133639
0.918212 0.279072 0.129351
0.0428779 0.574212 0.396155
0.0403143 0.574975 0.374166
0.0335699 0.580285 0.310903
0.2177 0.5944 0.109056
0.534829 0.606332 0.120348
0.806729 0.595041 0.12871
0.924514 0.587823 0.167819
0.924514 0.579141 0.166735
0.92462 0.573938 0.166537
0.0881361 0.768383 0.524926
0.0849317 0.770062 0.507225
0.0780346 0.774884 0.467445
0.102388 0.785428 0.335058
0.475578 0.793851 0.167315
0.711009 0.800076 0.217762
0.923064 0.793164 0.233417
0.941024 0.790234 0.247593
0.940719 0.786999 0.245869
0.145754 0.914626 0.631693
0.142733 0.915831 0.617136
0.136782 0.918196 0.587381
0.123415 0.925475 0.50132
0.296437 0.921599 0.325231
0.655863 0.933165 0.290013
0.868101 0.946868 0.3346
0.959594 0.936446 0.364843
0.959106 0.935424 0.363592
0.155489 0.924956 0.657145
0.15227 0.926177 0.643198
0.146487 0.928557 0.615641
0.133761 0.935546 0.542565
0.217105 0.934218 0.404044
0.614679 0.934035 0.296147
0.819959 0.948119 0.323018
0.963272 0.948699 0.381872
0.963455 0.948928 0.388846
0.158053 0.924208 0.666514
0.154452 0.925383 0.652964
0.148623 0.927657 0.626032
0.135409 0.934112 0.557427
0.19147 0.934981 0.421271
0.592508 0.933501 0.290867
0.79733 0.946975 0.319295
0.953658 0.94873 0.373053
0.963455 0.948989 0.38761
0.115724 0.0200504 0.37911
0.194369 0.021622 0.366232
0.286641 0.0265202 0.355901
0.41883 0.0339208 0.362737
0.590295 0.0424048 0.401389
0.788342 0.0584878 0.448966
0.853193 0.0636149 0.473548
0.853376 0.0637827 0.47808
0.853498 0.0638132 0.480613
0.0125429 0.0160372 0.348501
0.120684 0.0199741 0.368719
0.255634 0.0242618 0.351354
0.405066 0.0330663 0.349157
0.578103 0.0407568 0.385183
0.779553 0.0573739 0.423514
0.852262 0.0632639 0.448157
0.852506 0.0634318 0.453178
0.852628 0.0634623 0.455924
0.0135042 0.13698 0.318029
0.0148013 0.119799 0.329229
0.199039 0.0920119 0.374701
0.405051 0.103517 0.356786
0.579293 0.0683909 0.357488
0.763546 0.0553292 0.369406
0.850111 0.0598001 0.388174
0.850416 0.0604562 0.392889
0.850568 0.0607309 0.39559
0.0350805 0.349172 0.338186
0.0350652 0.345571 0.335225
0.0361791 0.340902 0.333135
0.378225 0.364462 0.371389
0.602197 0.347707 0.370092
0.811093 0.329442 0.363684
0.908949 0.299947 0.342596
0.904921 0.273365 0.328862
0.902068 0.257053 0.322744
0.0478676 0.5552 0.454795
0.0469825 0.553735 0.445258
0.0447395 0.552148 0.42356
0.163745 0.569451 0.367391
0.529747 0.579629 0.314839
0.791058 0.560586 0.359686
0.927459 0.555947 0.323735
0.927153 0.543984 0.306889
0.926787 0.537102 0.297017
0.0953689 0.747127 0.572137
0.0927749 0.746471 0.562005
0.0877394 0.746715 0.539849
0.0766461 0.753796 0.458122
0.370825 0.780041 0.299062
0.701381 0.781109 0.262806
0.927993 0.765957 0.323796
0.938552 0.761608 0.290257
0.938109 0.757107 0.28629
0.152834 0.897536 0.669993
0.149706 0.897734 0.659876
0.143755 0.898833 0.63949
0.130571 0.902892 0.579187
0.186725 0.91664 0.41352
0.624659 0.923949 0.302007
0.857023 0.935714 0.33193
0.956588 0.926177 0.361257
0.955932 0.923934 0.35787
0.168688 0.921553 0.700587
0.16553 0.922225 0.691035
0.159487 0.923735 0.671565
0.146883 0.928344 0.61799
0.149752 0.936278 0.466484
0.551415 0.934264 0.32343
0.7897 0.946822 0.329686
0.95903 0.94876 0.379431
0.963516 0.949081 0.392065
0.171389 0.921263 0.707912
0.16788 0.921706 0.698466
0.161837 0.923217 0.679744
0.149065 0.927382 0.628061
0.140795 0.936049 0.476677
0.522698 0.933394 0.318074
0.76141 0.945251 0.3243
0.940139 0.949432 0.366369
0.963516 0.949065 0.391516
0.2056 0.0255589 0.5346
0.276493 0.0269322 0.529763
0.360739 0.0302739 0.520165
0.454887 0.0373236 0.51313
0.600458 0.0460822 0.529564
0.793576 0.0626535 0.568032
0.858824 0.067155 0.608911
0.859098 0.0673686 0.614054
0.85919 0.0674907 0.616526
0.0743725 0.0205081 0.520607
0.203113 0.02533 0.527108
0.328481 0.028336 0.521096
0.439826 0.036286 0.508827
0.590539 0.0448768 0.520043
0.784924 0.061738 0.555505
0.858183 0.0666667 0.593729
0.858381 0.0667887 0.598749
0.858534 0.0669108 0.601389
0.0135805 0.0567025 0.474205
0.0117342 0.0203555 0.489006
0.230655 0.0257877 0.520684
0.406561 0.0339818 0.500389
0.571725 0.0434119 0.502312
0.767468 0.06009 0.533989
0.857282 0.0666819 0.563531
0.857466 0.0668345 0.566842
0.857588 0.0669413 0.568811
0 0.29662 0.484611
0 0.285023 0.490105
0 0.259525 0.503044
0.395453 0.254871 0.565469
0.602152 0.269245 0.547997
0.804654 0.236927 0.554467
0.895781 0.188983 0.553307
0.887968 0.157275 0.542458
0.882902 0.138872 0.535592
0.0471351 0.532509 0.520027
0.0466163 0.530236 0.518013
0.0461128 0.525994 0.515007
0.195529 0.531807 0.52604
0.553643 0.536919 0.545327
0.771801 0.529381 0.549493
0.92163 0.52549 0.549798
0.921447 0.510826 0.544015
0.921401 0.503487 0.539544
0.100694 0.72192 0.624033
0.0995956 0.72076 0.619226
0.0975052 0.71841 0.609598
0.0950332 0.714641 0.580697
0.420539 0.733349 0.561761
0.696162 0.741054 0.522286
0.904234 0.733501 0.562264
0.931914 0.738369 0.546822
0.931579 0.733761 0.541756
0.166155 0.875395 0.717998
0.163958 0.875029 0.712383
0.159838 0.874876 0.702464
0.149645 0.874464 0.67483
0.188876 0.885512 0.587732
0.583764 0.905013 0.547036
0.840375 0.915053 0.522911
0.954101 0.905913 0.568032
0.953597 0.902296 0.563943
0.192233 0.915969 0.758938
0.189807 0.916457 0.75314
0.184955 0.917739 0.742672
0.174121 0.920913 0.715297
0.164889 0.929076 0.623407
0.505669 0.942031 0.553307
0.766262 0.94931 0.510735
0.954238 0.953964 0.50161
0.966064 0.953841 0.511162
0.194522 0.915526 0.76376
0.191897 0.916045 0.75819
0.186969 0.917235 0.747143
0.17586 0.920638 0.720333
0.159915 0.927993 0.630198
0.451225 0.940795 0.533043
0.729122 0.947005 0.492012
0.922957 0.954421 0.460594
0.965438 0.95256 0.478508
0.317311 0.0317235 0.689586
0.366995 0.032517 0.687312
0.436622 0.0345312 0.684123
0.524361 0.0401007 0.674556
0.633204 0.0519875 0.678676
0.803769 0.066804 0.708385
0.864302 0.0728923 0.73019
0.864668 0.0732586 0.740276
0.864836 0.0733654 0.744976
0.232349 0.0297704 0.680751
0.314076 0.0314946 0.683223
0.407233 0.0332952 0.683253
0.507607 0.0389868 0.67129
0.622568 0.0507973 0.67364
0.795697 0.0661021 0.699535
0.86389 0.0725567 0.718486
0.864179 0.0728161 0.727047
0.864332 0.0729534 0.731228
0.0274968 0.0205692 0.644099
0.12546 0.0243076 0.661433
0.32961 0.031632 0.677852
0.473701 0.0367132 0.668116
0.601175 0.0480812 0.663401
0.77998 0.064683 0.683162
0.863249 0.0722362 0.697032
0.863478 0.0724193 0.703151
0.8636 0.0724956 0.705974
0.00204471 0.236179 0.624811
0.00531014 0.21706 0.630243
0.00994888 0.175113 0.642496
0.408743 0.110994 0.708949
0.600534 0.134234 0.695491
0.781689 0.114473 0.685679
0.8663 0.0808576 0.666682
0.862715 0.0730907 0.660807
0.863127 0.0739605 0.661555
0 0.486122 0.650782
0 0.480522 0.653956
0 0.468956 0.660853
0.115816 0.464546 0.694209
0.581933 0.460243 0.740871
0.778058 0.473396 0.716228
0.923186 0.457206 0.721035
0.92311 0.441459 0.715908
0.923064 0.432319 0.712825
0.0963149 0.69894 0.684337
0.095613 0.697276 0.682918
0.094667 0.694636 0.680781
0.0944991 0.687388 0.674968
0.443153 0.695354 0.691417
0.713787 0.696376 0.705165
0.891951 0.695415 0.712978
0.932509 0.691417 0.713161
0.932128 0.686107 0.709773
0.176394 0.852506 0.766583
0.174685 0.851301 0.76318
0.171771 0.849058 0.757351
0.166323 0.844831 0.743297
0.346746 0.85005 0.72987
0.634607 0.864744 0.731426
0.846433 0.877379 0.703975
0.951232 0.872511 0.738064
0.950622 0.868513 0.734005
0.22826 0.914366 0.818326
0.225177 0.914397 0.814862
0.21944 0.914214 0.808408
0.20795 0.913756 0.793744
0.205219 0.916945 0.75938
0.563684 0.943709 0.757961
0.775967 0.955505 0.734615
0.948165 0.965286 0.712413
0.970047 0.965942 0.744503
0.232746 0.914809 0.823423
0.229206 0.914534 0.819699
0.223026 0.91429 0.812696
0.20914 0.913649 0.796445
0.201846 0.916609 0.759533
0.522087 0.941344 0.74551
0.744381 0.953902 0.723262
0.909361 0.963867 0.691508
0.969802 0.96492 0.727184
0.428351 0.0370642 0.81004
0.459678 0.0375067 0.809964
0.514748 0.0392462 0.811658
0.595239 0.0433967 0.811444
0.705715 0.0595865 0.819074
0.825223 0.0726787 0.831785
0.86833 0.0778821 0.850248
0.869352 0.0797894 0.858213
0.869352 0.0797894 0.858213
0.381216 0.0361486 0.803708
0.423804 0.0368505 0.805585
0.489158 0.0382544 0.809018
0.5776 0.0424048 0.808927
0.692714 0.0577249 0.814603
0.818082 0.0719005 0.827787
0.868086 0.0775158 0.844526
0.868452 0.0780499 0.853498
0.869352 0.0797894 0.858213
0.241733 0.032166 0.785534
0.327169 0.0348974 0.793057
0.42826 0.0367742 0.801343
0.54313 0.040528 0.804639
0.668391 0.0543679 0.806622
0.802701 0.0703288 0.81915
0.867872 0.0771649 0.834531
0.867979 0.0774243 0.841505
0.868132 0.0775464 0.844633
0.0603799 0.143328 0.758358
0.0849165 0.114229 0.764584
0.133043 0.0494698 0.767346
0.448264 0.0369268 0.796902
0.614588 0.0471199 0.793088
0.769909 0.0708324 0.803555
0.868208 0.0785992 0.813489
0.868803 0.0797131 0.816175
0.869123 0.0803693 0.817578
0 0.460441 0.777249
0 0.452415 0.782147
0 0.436774 0.791653
0.14786 0.418494 0.841611
0.620188 0.383169 0.890745
0.80238 0.40116 0.868101
0.921675 0.39205 0.855634
0.921279 0.37319 0.85008
0.920806 0.362112 0.846876
0.0409247 0.660197 0.790616
0.0378729 0.656504 0.792508
0.0327153 0.65037 0.796109
0.0184024 0.634318 0.803021
0.412619 0.643503 0.827924
0.741756 0.642802 0.861143
0.892943 0.655451 0.84686
0.931823 0.649729 0.844511
0.931273 0.644068 0.842039
0.165957 0.831739 0.816632
0.165225 0.830655 0.815686
0.163806 0.828321 0.813703
0.161517 0.823529 0.809567
0.327779 0.825055 0.814115
0.648783 0.83447 0.832166
0.85391 0.839521 0.846845
0.949599 0.841962 0.854826
0.949065 0.83769 0.851942
0.307637 0.919066 0.869459
0.305425 0.918883 0.867948
0.301137 0.91841 0.865309
0.291081 0.917678 0.859419
0.313664 0.913787 0.844083
0.625299 0.929259 0.865446
0.80911 0.942077 0.872679
0.94052 0.953552 0.857084
0.966415 0.946044 0.875669
0.314153 0.919768 0.874418
0.311498 0.919554 0.872419
0.306569 0.919005 0.868757
0.294392 0.918013 0.86125
0.303685 0.917967 0.844572
0.588907 0.936629 0.86305
0.776669 0.95668 0.875837
0.910384 0.966033 0.857527
0.971374 0.972381 0.871855
0.470253 0.0382696 0.829404
0.498634 0.0390173 0.831678
0.545769 0.0408484 0.833158
0.622553 0.0471046 0.834913
0.731533 0.062974 0.842786
0.844083 0.0794232 0.856077
0.869352 0.0797894 0.858213
0.869352 0.0797894 0.858213
0.869352 0.0797894 0.858213
0.433875 0.0376135 0.825055
0.469688 0.0382544 0.829343
0.524193 0.0399329 0.832761
0.606241 0.0445716 0.834073
0.720806 0.0614939 0.84242
0.83714 0.0785687 0.854902
0.869352 0.0797894 0.858213
0.869352 0.0797894 0.858213
0.869352 0.0797894 0.858213
0.339834 0.0357671 0.813245
0.398795 0.0369573 0.82063
0.475257 0.0383764 0.82974
0.575662 0.0423285 0.833478
0.698955 0.0585336 0.840192
0.823636 0.0766308 0.852827
0.870573 0.0825513 0.859754
0.870359 0.0817731 0.859464
0.869902 0.080766 0.8589
0.21735 0.102312 0.822873
0.223651 0.0706798 0.814618
0.266941 0.0340887 0.804196
0.496666 0.0389563 0.83154
0.64831 0.0510567 0.836164
0.792065 0.0705272 0.847425
0.874281 0.0908675 0.864393
0.874968 0.0925765 0.865263
0.874968 0.0926223 0.865278
0.0338293 0.442481 0.872038
0.0539254 0.433082 0.877272
0.0654765 0.412879 0.876463
0.256291 0.374731 0.893721
0.650126 0.327871 0.927413
0.82565 0.340078 0.920119
0.919142 0.338506 0.915236
0.9178 0.315984 0.913436
0.916671 0.302983 0.912077
0.0324102 0.646845 0.861311
0.0297246 0.64361 0.863691
0.0284123 0.637354 0.868269
0.0339361 0.622705 0.878538
0.431037 0.624018 0.902358
0.77969 0.608927 0.933593
0.907164 0.621759 0.928069
0.928756 0.618799 0.927138
0.928573 0.61323 0.926802
0.212833 0.81146 0.880095
0.214633 0.809018 0.880491
0.217578 0.804913 0.881529
0.220966 0.795209 0.883528
0.374853 0.78851 0.893782
0.641108 0.800137 0.898253
0.875029 0.805676 0.934173
0.947509 0.815381 0.929259
0.946868 0.810544 0.926986
0.321889 0.913191 0.902052
0.317922 0.912062 0.900938
0.310689 0.910048 0.898955
0.297414 0.906554 0.89514
0.316976 0.900511 0.889357
0.618875 0.91545 0.909697
0.819989 0.925277 0.924483
0.938582 0.930694 0.934737
0.964446 0.93077 0.936706
0.356756 0.921675 0.912139
0.35491 0.921645 0.910735
0.351949 0.921523 0.908324
0.346487 0.921447 0.903258
0.36672 0.923003 0.893797
0.615549 0.939788 0.913069
0.811139 0.956069 0.934417
0.920058 0.968475 0.9449
0.972992 0.974899 0.943343
0.482429 0.0385443 0.830427
0.508782 0.039353 0.832105
0.553124 0.0411994 0.833097
0.628855 0.0479744 0.835081
0.736858 0.0636606 0.843107
0.849302 0.079942 0.856779
0.869352 0.0797894 0.858213
0.869352 0.0797894 0.858213
0.869352 0.0797894 0.858213
0.448966 0.0378729 0.82681
0.482017 0.0385443 0.83035
0.532082 0.0402533 0.832822
0.612772 0.0456397 0.834424
0.726207 0.0623484 0.842741
0.841962 0.0791943 0.855741
0.869352 0.0797894 0.858213
0.869352 0.0797894 0.858213
0.869352 0.0797894 0.858213
0.365179 0.036286 0.816419
0.417716 0.0373236 0.823026
0.486366 0.0386511 0.830762
0.582376 0.0426795 0.83357
0.704021 0.0591135 0.840497
0.827665 0.0772717 0.853437
0.869352 0.0797894 0.858213
0.870558 0.0825208 0.859739
0.870176 0.0813764 0.859236
0.220142 0.0899977 0.819821
0.226322 0.0577096 0.810651
0.306523 0.0350195 0.80914
0.506188 0.0392615 0.831952
0.6533 0.0518502 0.836484
0.794873 0.0707866 0.847669
0.872038 0.0855726 0.86157
0.874846 0.0922255 0.865095
0.874693 0.0917372 0.864958
0.0594339 0.423011 0.876967
0.0663462 0.411322 0.876356
0.0809339 0.388342 0.875013
0.263935 0.341283 0.889372
0.646387 0.28925 0.922362
0.820233 0.302007 0.91545
0.916213 0.297993 0.911635
0.913695 0.273335 0.908949
0.9122 0.259739 0.907362
0.0471809 0.641382 0.878569
0.0439307 0.637171 0.878569
0.037644 0.628519 0.878569
0.0270085 0.609155 0.878431
0.429465 0.607965 0.903914
0.779431 0.591134 0.934142
0.905028 0.604517 0.926787
0.927611 0.601373 0.925887
0.927062 0.595392 0.925277
0.269459 0.803357 0.898192
0.266865 0.800748 0.89781
0.262119 0.795987 0.897002
0.250401 0.784756 0.895689
0.366796 0.774945 0.898161
0.63682 0.786694 0.906081
0.882368 0.788785 0.944686
0.94551 0.798749 0.944976
0.945113 0.793942 0.944579
0.335851 0.907103 0.912139
0.333883 0.905745 0.91194
0.330037 0.903151 0.91133
0.323598 0.897948 0.91017
0.353201 0.8869 0.91046
0.630823 0.89955 0.927932
0.81413 0.909758 0.941436
0.945541 0.91635 0.961852
0.962814 0.91841 0.962768
0.362875 0.92134 0.915953
0.362875 0.92134 0.915953
0.362875 0.92134 0.915953
0.362875 0.92134 0.915953
0.38851 0.923079 0.917617
0.608331 0.93959 0.935485
0.801434 0.957031 0.954681
0.924285 0.968658 0.968017
0.973892 0.973693 0.974395
