bundles/resolve-cinematic-luts/Phantom Luts/Ursa G2 Phntm Arri LUTs - V1/Gen4/White Balance Offset (Magenta Boost)/Ursa Utopia Gen4 WBO.cube
TITLE "Generated by Resolve"
LUT_3D_SIZE 5
0.000747692 0.0280613 0.0361334
0.190066 0.0207828 0.0382696
0.525704 0.0296941 0.0742046
0.73991 0.0521859 0.125887
0.756008 0.0670176 0.148226
0 0.221927 0.0757763
0.161379 0.219211 0.0428779
0.573724 0.16466 0.0944533
0.793759 0.132769 0.100923
0.774136 0.0841382 0.0803388
0 0.634852 0.300542
0.0806744 0.655756 0.158724
0.586007 0.61651 0.145495
0.904311 0.616053 0.212161
0.906081 0.609979 0.213123
0.0905623 0.950973 0.596902
0.0851759 0.961105 0.536614
0.43183 0.96527 0.243488
0.926513 0.928756 0.385367
0.996017 0.918227 0.424567
0.0930648 0.951705 0.631037
0.0913405 0.959381 0.577295
0.265522 0.981872 0.344533
0.881407 0.929778 0.36849
0.996735 0.923766 0.43476
0 0.0388495 0.211383
0.19147 0.0297246 0.188159
0.528801 0.0417182 0.241215
0.756115 0.0738079 0.297093
0.759197 0.0744488 0.31043
0 0.178088 0.181262
0.157092 0.183597 0.193088
0.569802 0.14049 0.163714
0.754452 0.0658885 0.137453
0.759213 0.0704509 0.149676
0 0.598688 0.399359
0 0.612818 0.293568
0.576333 0.600687 0.142428
0.903471 0.588296 0.211795
0.90367 0.577188 0.210147
0.0902571 0.93431 0.637964
0.0838788 0.941619 0.591257
0.326345 0.96788 0.284062
0.917494 0.924254 0.382223
0.993576 0.910063 0.414679
0.100984 0.945861 0.676051
0.0973831 0.950744 0.632853
0.187686 0.980774 0.397528
0.860563 0.931075 0.361608
0.996658 0.923934 0.43563
0.0649729 0.0577707 0.519554
0.261585 0.0488136 0.498985
0.519738 0.0599985 0.478614
0.744808 0.101503 0.528145
0.747433 0.101228 0.538949
0 0.0994125 0.451835
0.103456 0.0548104 0.512306
0.500557 0.0567483 0.458244
0.745769 0.0996109 0.489281
0.748348 0.0989853 0.496986
0 0.555169 0.537377
0 0.550088 0.533394
0.549599 0.547799 0.552316
0.909148 0.535882 0.535912
0.909712 0.517143 0.525093
0.106538 0.893629 0.727184
0.0973983 0.894713 0.712276
0.144076 0.915724 0.588235
0.875837 0.905348 0.539895
0.970794 0.887526 0.581964
0.13579 0.934417 0.773846
0.127062 0.93666 0.756848
0.111772 0.952682 0.631586
0.783154 0.959686 0.49778
0.99501 0.931319 0.516823
0.269245 0.0783246 0.736889
0.372534 0.0774701 0.735317
0.572976 0.0961776 0.728496
0.735195 0.127184 0.736858
0.73817 0.128038 0.753155
0.0286564 0.0825055 0.713222
0.276631 0.0774853 0.733181
0.542062 0.0901503 0.723384
0.73402 0.126528 0.720699
0.737758 0.125689 0.73695
0 0.510811 0.710277
0 0.494514 0.715297
0.551873 0.437446 0.889113
0.878447 0.43473 0.814267
0.873579 0.409766 0.803967
0.111421 0.851865 0.824537
0.104738 0.849943 0.82359
0.281239 0.848676 0.824994
0.854109 0.842191 0.840925
0.950362 0.84097 0.840574
0.253086 0.937194 0.882109
0.24184 0.936645 0.877455
0.248798 0.93666 0.851606
0.756344 0.967865 0.86392
0.980331 0.966339 0.868528
0.343114 0.0814374 0.763027
0.420462 0.0826734 0.763272
0.608896 0.106142 0.760906
0.735195 0.130938 0.756893
0.737163 0.130037 0.759716
0.210025 0.0826123 0.75346
0.347997 0.0812848 0.764141
0.578744 0.100725 0.762524
0.733211 0.131853 0.753902
0.73846 0.131914 0.760937
0 0.496391 0.784894
0 0.466392 0.786862
0.567956 0.345174 0.908309
0.845945 0.353964 0.86424
0.834897 0.321691 0.85565
0.208194 0.830884 0.906004
0.199344 0.825498 0.905669
0.317082 0.81239 0.908812
0.863874 0.802884 0.94789
0.935668 0.805188 0.938659
0.307561 0.939498 0.925597
0.30428 0.939773 0.927291
0.335897 0.941772 0.929656
0.780957 0.963363 0.958801
0.974487 0.971801 0.969741
