bundles/resolve-cinematic-luts/Phantom Luts/Ursa G2 Phntm Arri LUTs - V1/Gen4/White Balance Offset (Magenta Boost)/Ursa IceBlue Gen4-Legacy WBO.cube
TITLE "Generated by Resolve"
LUT_3D_SIZE 9
0.033402 0.045716 0.0451057
0.0590524 0.046952 0.0480201
0.14519 0.0510719 0.0573587
0.305653 0.0557412 0.066804
0.482109 0.0618906 0.0846723
0.614816 0.0775616 0.118822
0.657816 0.0885634 0.138186
0.663966 0.0938888 0.147448
0.672053 0.0935683 0.17052
0.040116 0.0704356 0.0639963
0.0535286 0.0682994 0.0571908
0.128084 0.0669108 0.0603037
0.286748 0.0587625 0.0582284
0.470695 0.0582895 0.0685435
0.601678 0.0711223 0.0956283
0.64155 0.0768292 0.10634
0.643442 0.0773785 0.11046
0.65008 0.0747997 0.130327
0.0456855 0.156802 0.10219
0.0520485 0.158221 0.083711
0.123262 0.15964 0.0702983
0.319356 0.139376 0.0797131
0.503975 0.132143 0.0864576
0.640803 0.129717 0.112947
0.677119 0.115633 0.126116
0.667292 0.102831 0.119905
0.673396 0.104448 0.131823
0.0469673 0.315709 0.162997
0.0612345 0.326528 0.137987
0.103349 0.318654 0.0918593
0.27451 0.342123 0.0859693
0.55259 0.341497 0.102678
0.744335 0.31812 0.180606
0.804211 0.337179 0.210422
0.800595 0.330022 0.207599
0.808591 0.343191 0.216098
0.0562295 0.516442 0.272282
0.0577249 0.526085 0.251484
0.104112 0.531716 0.201236
0.227802 0.528847 0.0984817
0.475181 0.560204 0.123384
0.756207 0.570047 0.194644
0.87715 0.580713 0.274235
0.877134 0.580652 0.274723
0.879988 0.601251 0.278752
0.14432 0.724483 0.443732
0.150118 0.733959 0.436393
0.155016 0.740551 0.40827
0.216495 0.744015 0.322118
0.463966 0.761913 0.211948
0.683833 0.792966 0.269261
0.916899 0.808362 0.364492
0.931914 0.813748 0.378393
0.936584 0.829541 0.388586
0.249622 0.849561 0.579644
0.246723 0.849149 0.567742
0.24303 0.846754 0.541863
0.247639 0.842786 0.477287
0.349462 0.848142 0.358846
0.640024 0.872175 0.32369
0.879072 0.899306 0.40119
0.950744 0.904173 0.44567
0.949493 0.90457 0.446097
0.252781 0.851194 0.596201
0.249683 0.85034 0.583963
0.245274 0.847776 0.556725
0.242481 0.84181 0.486549
0.329686 0.847791 0.377554
0.628931 0.870253 0.320089
0.861936 0.897841 0.393439
0.95378 0.903166 0.445624
0.949218 0.904555 0.447486
0.253956 0.852262 0.603616
0.250187 0.851057 0.588556
0.244022 0.847562 0.55111
0.25597 0.843519 0.464378
0.427161 0.852018 0.32076
0.688548 0.87808 0.333791
0.911803 0.89868 0.415961
0.952316 0.903853 0.444862
0.947662 0.905211 0.445686
0.0376745 0.0468299 0.0715801
0.0603952 0.0483406 0.0725109
0.153048 0.0516976 0.093492
0.317464 0.0548867 0.110796
0.496178 0.0639048 0.132799
0.643885 0.0924392 0.172473
0.685756 0.108186 0.191913
0.687587 0.108263 0.198047
0.691325 0.106172 0.214603
0.0372015 0.0621805 0.0653849
0.047715 0.0607462 0.0665293
0.140795 0.0585336 0.0689708
0.307637 0.0565042 0.0765698
0.490379 0.061677 0.0989548
0.625254 0.0785229 0.134371
0.662867 0.0884565 0.152178
0.669139 0.0940414 0.161547
0.675181 0.0944533 0.178714
0.0440833 0.143786 0.121187
0.0440986 0.147372 0.103822
0.116106 0.150622 0.0705577
0.326909 0.120638 0.0789349
0.501274 0.112703 0.0831311
0.63183 0.10486 0.111681
0.660517 0.0926833 0.119448
0.652125 0.0835431 0.114961
0.660731 0.0874495 0.128084
0.0467994 0.304631 0.187167
0.0460212 0.31371 0.16614
0.0851301 0.317052 0.109209
0.269764 0.336721 0.085832
0.559304 0.329015 0.107561
0.744076 0.30753 0.178897
0.797665 0.324468 0.205081
0.793957 0.317021 0.202502
0.802518 0.330739 0.211444
0.0575265 0.511193 0.298512
0.0567178 0.520134 0.279011
0.0746929 0.527581 0.227085
0.207019 0.527855 0.113329
0.472908 0.558312 0.122728
0.761151 0.566262 0.196643
0.875929 0.574472 0.272999
0.875807 0.573526 0.273045
0.878798 0.593729 0.277043
0.143709 0.720836 0.459541
0.149142 0.730266 0.453223
0.151446 0.736584 0.426902
0.203067 0.743709 0.336645
0.453208 0.760678 0.210636
0.682612 0.792187 0.268421
0.91722 0.806622 0.36379
0.931289 0.810712 0.377203
0.935241 0.825544 0.38645
0.250813 0.850019 0.593057
0.249363 0.850172 0.582666
0.246006 0.848157 0.558862
0.241535 0.842374 0.490959
0.337469 0.847883 0.368948
0.636469 0.871717 0.322423
0.878218 0.898833 0.400702
0.950759 0.904112 0.446021
0.949447 0.904555 0.446067
0.25568 0.852506 0.610391
0.252354 0.85153 0.599039
0.24831 0.849378 0.573693
0.238285 0.842496 0.505898
0.317739 0.847349 0.388876
0.622644 0.869642 0.318883
0.855329 0.897124 0.390738
0.953475 0.903059 0.447318
0.949126 0.904524 0.44802
0.258824 0.853483 0.620798
0.254887 0.852216 0.607095
0.247898 0.8495 0.572549
0.245853 0.842283 0.480385
0.403891 0.850935 0.329809
0.679026 0.876585 0.331228
0.904845 0.898054 0.412238
0.95227 0.903807 0.445335
0.947326 0.905104 0.447669
0.0443122 0.0505226 0.163287
0.0842908 0.0506294 0.14934
0.158511 0.0530556 0.150774
0.323537 0.0565194 0.171832
0.505226 0.066453 0.194934
0.660212 0.0955673 0.226123
0.700984 0.111131 0.243198
0.70251 0.111192 0.249363
0.70631 0.109651 0.271427
0.0291295 0.060441 0.1299
0.0471046 0.0502022 0.157763
0.143954 0.0526436 0.145403
0.319631 0.0561227 0.154116
0.50721 0.0656596 0.174411
0.658976 0.0960861 0.204807
0.694713 0.109941 0.221134
0.696468 0.110079 0.227375
0.700923 0.108415 0.248737
0.0397955 0.134997 0.142
0.0385138 0.135378 0.143008
0.120531 0.134981 0.152819
0.315328 0.126665 0.14725
0.515923 0.115633 0.144533
0.650309 0.102922 0.156771
0.668467 0.0955825 0.156451
0.672694 0.0997024 0.162844
0.678248 0.100481 0.177646
0.0471962 0.291234 0.221027
0.0458839 0.29514 0.212467
0.0473335 0.296391 0.17438
0.262715 0.326375 0.135546
0.560967 0.29955 0.156069
0.735882 0.288304 0.180423
0.781033 0.288502 0.196826
0.774655 0.277501 0.191394
0.784817 0.291936 0.202533
0.0595254 0.499916 0.335058
0.0583963 0.50782 0.325414
0.0563211 0.511513 0.286915
0.150652 0.521324 0.157626
0.46215 0.548531 0.121889
0.770169 0.55111 0.202564
0.872877 0.555734 0.269718
0.871977 0.552544 0.268772
0.874983 0.571771 0.273014
0.141039 0.710491 0.485084
0.145754 0.719539 0.48127
0.146258 0.724743 0.457816
0.165545 0.734279 0.374609
0.418952 0.753811 0.206409
0.674479 0.784543 0.262852
0.916045 0.796994 0.358968
0.927626 0.798611 0.370962
0.93196 0.813169 0.379065
0.25568 0.850431 0.616983
0.255512 0.851698 0.610437
0.252171 0.850507 0.590188
0.242298 0.846082 0.531273
0.312398 0.847303 0.393744
0.624491 0.870069 0.318807
0.872053 0.89929 0.399222
0.950896 0.90396 0.447608
0.949447 0.904372 0.44799
0.262684 0.854673 0.636957
0.259464 0.854475 0.628031
0.25507 0.85156 0.606165
0.244572 0.84683 0.548196
0.291783 0.846006 0.416022
0.602808 0.867308 0.314626
0.838697 0.895415 0.384024
0.953384 0.903029 0.447868
0.948943 0.90454 0.449882
0.268864 0.856367 0.654246
0.263935 0.855985 0.644205
0.256367 0.852903 0.615747
0.243702 0.846357 0.536446
0.347478 0.847898 0.362005
0.655039 0.87364 0.326558
0.885695 0.900298 0.404486
0.951858 0.9037 0.447593
0.946105 0.904982 0.454429
0.0677806 0.0551461 0.309285
0.116838 0.0535439 0.295247
0.195117 0.0539406 0.282673
0.326345 0.058381 0.275883
0.513115 0.0697032 0.293736
0.679408 0.102281 0.313817
0.723934 0.119875 0.332052
0.72517 0.120211 0.338613
0.727169 0.119677 0.366247
0.0202029 0.0593423 0.284932
0.0696117 0.055024 0.311986
0.175662 0.0536355 0.294118
0.325109 0.058381 0.281376
0.51693 0.0698558 0.292042
0.683803 0.103655 0.307546
0.722179 0.119051 0.324239
0.723247 0.119265 0.330251
0.725673 0.118669 0.358129
0.0235142 0.117281 0.250034
0.0218204 0.110643 0.268284
0.101122 0.0855573 0.317342
0.311284 0.0864424 0.287449
0.513375 0.0785534 0.265599
0.671183 0.0997024 0.270283
0.713283 0.116197 0.283604
0.71458 0.116716 0.287922
0.71809 0.116182 0.310231
0.0404364 0.27866 0.26894
0.0390173 0.282887 0.273259
0.0403754 0.279271 0.273747
0.282841 0.295995 0.309895
0.544701 0.287907 0.302327
0.775479 0.292973 0.301472
0.810285 0.285344 0.296971
0.799649 0.267872 0.288777
0.813031 0.280842 0.312657
0.061265 0.492409 0.389471
0.0605936 0.49987 0.391196
0.0602426 0.499458 0.377615
0.0895705 0.501915 0.328801
0.449928 0.530449 0.273228
0.78323 0.520363 0.320455
0.900008 0.530785 0.338155
0.896757 0.52253 0.332815
0.903304 0.540536 0.347951
0.142245 0.696468 0.528496
0.146761 0.703868 0.529885
0.14519 0.706172 0.516991
0.136126 0.706233 0.46389
0.272099 0.736858 0.305943
0.651072 0.766903 0.271473
0.921706 0.771481 0.377386
0.928527 0.770886 0.379599
0.931487 0.785809 0.396231
0.267826 0.851118 0.659464
0.271504 0.854261 0.659007
0.266758 0.853422 0.645487
0.253819 0.849256 0.601862
0.259648 0.845029 0.471412
0.569711 0.868299 0.327611
0.854765 0.897551 0.394812
0.953262 0.902831 0.45037
0.950973 0.902937 0.457389
0.277699 0.859983 0.681041
0.278264 0.858564 0.676387
0.272068 0.856779 0.661662
0.25977 0.852338 0.620279
0.24686 0.843351 0.489036
0.525414 0.864851 0.330022
0.795316 0.891325 0.371695
0.951171 0.9028 0.448753
0.948287 0.904479 0.456397
0.289464 0.863905 0.707561
0.289448 0.862364 0.702296
0.281209 0.859739 0.684153
0.263676 0.853788 0.634424
0.259602 0.847196 0.488457
0.565637 0.87248 0.354925
0.831662 0.896666 0.388602
0.950011 0.903548 0.44828
0.94696 0.90518 0.454063
0.120577 0.0615702 0.474998
0.176608 0.0604562 0.471412
0.257923 0.0596628 0.461753
0.361151 0.0635996 0.44329
0.512688 0.074464 0.431205
0.689097 0.106828 0.426276
0.735943 0.125963 0.457343
0.735836 0.126238 0.465415
0.732189 0.126467 0.49369
0.0492103 0.0633249 0.461265
0.12166 0.0620127 0.484169
0.233234 0.0603647 0.477058
0.357336 0.0635233 0.457496
0.518044 0.075349 0.440101
0.695262 0.108827 0.429221
0.735988 0.126085 0.458274
0.735866 0.126268 0.465507
0.732357 0.126452 0.493446
0.0168765 0.0815595 0.413474
0.0153353 0.068513 0.427649
0.131609 0.0616312 0.483497
0.322286 0.061326 0.460304
0.503044 0.0741894 0.434836
0.689326 0.106538 0.407752
0.737377 0.12604 0.428794
0.737392 0.126055 0.435264
0.734951 0.125841 0.466545
0.0155489 0.249531 0.409201
0.014313 0.248753 0.423789
0.0146029 0.231281 0.4374
0.255558 0.203998 0.528939
0.532815 0.215305 0.498924
0.765805 0.213611 0.458854
0.792126 0.19733 0.437995
0.778698 0.179828 0.426184
0.789471 0.192966 0.461707
0.0589456 0.482582 0.457069
0.0589609 0.490608 0.466911
0.0586557 0.491218 0.469093
0.0933394 0.492744 0.478981
0.476631 0.491386 0.506065
0.7635 0.492042 0.503349
0.935866 0.502342 0.512764
0.933654 0.492699 0.509804
0.934844 0.508431 0.532067
0.148272 0.682918 0.585611
0.15314 0.689845 0.58996
0.15317 0.691279 0.586389
0.146563 0.687297 0.566461
0.323171 0.70428 0.541939
0.644587 0.731395 0.489509
0.926207 0.733623 0.541787
0.947692 0.742504 0.537758
0.940597 0.758038 0.568475
0.282689 0.847379 0.710582
0.29131 0.849653 0.713191
0.290028 0.849561 0.707942
0.277012 0.84564 0.687068
0.260563 0.843046 0.618784
0.504616 0.875822 0.530327
0.836332 0.903517 0.504097
0.957794 0.907958 0.576883
0.951873 0.910979 0.615122
0.30692 0.869657 0.746456
0.314214 0.867445 0.745251
0.311376 0.866224 0.737713
0.299001 0.863447 0.716289
0.273152 0.856321 0.646464
0.456016 0.882002 0.543267
0.747127 0.900908 0.498283
0.953887 0.915145 0.534707
0.950851 0.917693 0.577554
0.320775 0.87425 0.774945
0.32665 0.871519 0.772457
0.323339 0.869245 0.762417
0.309972 0.866728 0.737881
0.309392 0.868742 0.673823
0.535271 0.891966 0.603586
0.793713 0.909621 0.553185
0.952331 0.917906 0.572
0.951202 0.919249 0.59086
0.203876 0.0747692 0.61146
0.246967 0.074403 0.616861
0.311238 0.0738537 0.618891
0.403647 0.0764172 0.612909
0.519982 0.0905013 0.601968
0.676539 0.118257 0.581064
0.726406 0.137545 0.591897
0.725383 0.139025 0.602975
0.717281 0.141894 0.629953
0.14696 0.0759899 0.602762
0.20618 0.0762341 0.618433
0.289281 0.0754711 0.626749
0.395727 0.0773175 0.623514
0.52166 0.0929427 0.614466
0.682704 0.121859 0.591394
0.725185 0.138506 0.600122
0.723079 0.139925 0.611597
0.71458 0.143069 0.638819
0.0328832 0.0731365 0.534188
0.0767987 0.075288 0.57557
0.212085 0.0761273 0.619623
0.360327 0.0760204 0.626352
0.503853 0.0903944 0.615442
0.676905 0.118898 0.585199
0.729809 0.137102 0.583078
0.728145 0.138079 0.592523
0.720623 0.140581 0.618662
0.0199588 0.195346 0.536156
0.0193027 0.187137 0.542763
0.0194095 0.158923 0.546761
0.251347 0.104341 0.650752
0.484169 0.111482 0.646784
0.673106 0.129351 0.595956
0.739406 0.140215 0.554452
0.739452 0.140627 0.556878
0.735302 0.143084 0.580148
0.0396887 0.449439 0.575189
0.0406806 0.454429 0.582666
0.0407874 0.449393 0.589471
0.0575265 0.44361 0.62504
0.471733 0.432258 0.785595
0.764523 0.436713 0.73695
0.939773 0.433677 0.707774
0.936797 0.424872 0.702892
0.936324 0.445747 0.730388
0.154208 0.670649 0.649912
0.159442 0.677913 0.655955
0.160601 0.678981 0.657832
0.158053 0.675273 0.656672
0.338399 0.697139 0.694224
0.665873 0.684947 0.707622
0.915724 0.693233 0.714885
0.955016 0.695491 0.720378
0.945434 0.711391 0.739101
0.294774 0.840375 0.761883
0.304204 0.843748 0.766079
0.304631 0.843336 0.76437
0.298604 0.839963 0.755047
0.332036 0.847776 0.741695
0.587808 0.868727 0.754803
0.842466 0.892103 0.715877
0.955032 0.89604 0.764492
0.949523 0.901701 0.792126
0.347189 0.884596 0.818387
0.356832 0.883177 0.818219
0.355596 0.881468 0.813748
0.344823 0.878706 0.801801
0.335988 0.876295 0.773159
0.551537 0.906706 0.784802
0.763073 0.920867 0.759335
0.950134 0.932937 0.729976
0.955932 0.937148 0.786099
0.371984 0.895232 0.845838
0.383017 0.892012 0.843946
0.380987 0.88922 0.838422
0.365515 0.885695 0.825177
0.411627 0.896498 0.814206
0.630259 0.914397 0.831632
0.804395 0.926787 0.805356
0.943847 0.936538 0.756603
0.952148 0.938994 0.788525
0.293263 0.0912795 0.686793
0.319783 0.0923629 0.692042
0.363714 0.0941024 0.697856
0.438285 0.102113 0.706096
0.547524 0.119341 0.709194
0.670848 0.144762 0.69894
0.702464 0.154772 0.699748
0.702693 0.155566 0.701808
0.699382 0.1561 0.705882
0.266026 0.0908675 0.682551
0.298375 0.0924239 0.690715
0.349676 0.0938888 0.698039
0.432761 0.102281 0.708293
0.549905 0.120836 0.712856
0.677852 0.148608 0.703639
0.702342 0.155428 0.701747
0.701656 0.155673 0.702998
0.698924 0.156161 0.706645
0.176287 0.0887007 0.659129
0.228138 0.0907454 0.67599
0.296818 0.092195 0.690013
0.401297 0.0980545 0.704295
0.530068 0.117494 0.712398
0.668803 0.144991 0.70222
0.705486 0.156252 0.700053
0.70457 0.155978 0.700771
0.70074 0.156878 0.70634
0.0565805 0.132631 0.621027
0.0650645 0.118853 0.624643
0.0858625 0.0914778 0.623819
0.303136 0.0923934 0.690105
0.478264 0.108705 0.709072
0.644251 0.139818 0.703502
0.711223 0.158389 0.695583
0.71194 0.159655 0.69778
0.70808 0.163439 0.709468
0.0535439 0.42591 0.665934
0.0547036 0.430274 0.67155
0.05449 0.42298 0.676158
0.100526 0.412573 0.730602
0.520607 0.375418 0.904997
0.778927 0.38526 0.895811
0.886549 0.389792 0.858961
0.882887 0.380118 0.850416
0.889158 0.404105 0.872953
0.131807 0.636164 0.723568
0.138125 0.643656 0.729793
0.138735 0.642863 0.733242
0.132448 0.633249 0.734859
0.319036 0.677897 0.849989
0.67834 0.650095 0.923476
0.91371 0.656275 0.896559
0.956207 0.655665 0.882048
0.943084 0.674464 0.890333
0.300526 0.831189 0.810422
0.309056 0.835737 0.814054
0.310796 0.836118 0.815061
0.308125 0.833371 0.813245
0.345129 0.842741 0.826993
0.616953 0.866377 0.866651
0.852644 0.86627 0.880461
0.952804 0.872084 0.885496
0.947326 0.881163 0.895445
0.392477 0.902953 0.869398
0.404059 0.900587 0.868437
0.405661 0.89958 0.867109
0.399802 0.898878 0.863386
0.411231 0.902068 0.860655
0.634867 0.922805 0.892531
0.825956 0.933486 0.910903
0.941802 0.942306 0.89778
0.955077 0.944839 0.91632
0.408087 0.907683 0.885634
0.419547 0.904875 0.883482
0.420233 0.903365 0.880446
0.413977 0.902693 0.875608
0.462272 0.914061 0.881865
0.690318 0.927687 0.907393
0.852735 0.937301 0.923156
0.935088 0.94403 0.913329
0.955901 0.946609 0.910979
0.322026 0.0930648 0.694255
0.344411 0.0941939 0.69839
0.383627 0.0965286 0.703609
0.454871 0.106157 0.712032
0.562997 0.12372 0.714199
0.680919 0.150027 0.705211
0.701747 0.155718 0.702968
0.702113 0.155657 0.702556
0.700481 0.155917 0.704524
0.294392 0.0919661 0.689204
0.320851 0.0932937 0.695064
0.366842 0.0952926 0.701549
0.446799 0.105028 0.711376
0.561715 0.123705 0.714626
0.684398 0.151202 0.705379
0.701732 0.155718 0.703029
0.701411 0.155764 0.703487
0.698924 0.156161 0.706645
0.220081 0.0898756 0.671672
0.259083 0.0915389 0.68336
0.319844 0.0932784 0.694835
0.416526 0.100771 0.708156
0.542245 0.120378 0.715038
0.67631 0.149126 0.70631
0.70399 0.155779 0.700923
0.704326 0.156512 0.702037
0.700893 0.157092 0.706584
0.106081 0.12166 0.654322
0.10576 0.109483 0.648478
0.129229 0.088426 0.644022
0.328496 0.0936599 0.696239
0.491859 0.112596 0.714839
0.6495 0.142123 0.70898
0.708827 0.161379 0.705791
0.710475 0.163012 0.707088
0.707408 0.164385 0.712612
0.0835584 0.418753 0.719768
0.0831617 0.421912 0.720088
0.0830854 0.410758 0.719234
0.124697 0.383902 0.749416
0.528786 0.336278 0.88658
0.771298 0.351751 0.881743
0.860243 0.360342 0.857801
0.85658 0.350927 0.849546
0.867765 0.376577 0.870604
0.150973 0.637827 0.764446
0.157321 0.644877 0.76846
0.158419 0.644312 0.769894
0.147967 0.631464 0.764324
0.328573 0.666285 0.877562
0.717937 0.624491 0.954116
0.920058 0.635233 0.940185
0.950347 0.635279 0.932143
0.937209 0.655192 0.932326
0.34023 0.836271 0.859571
0.350561 0.840833 0.861753
0.353384 0.840894 0.862898
0.351247 0.836439 0.862715
0.386297 0.838193 0.878279
0.615549 0.857649 0.90985
0.865812 0.845533 0.938293
0.950469 0.851026 0.933593
0.943389 0.862043 0.932906
0.415808 0.910094 0.893645
0.427039 0.90753 0.891463
0.429328 0.906966 0.890944
0.424857 0.906523 0.890715
0.433982 0.908721 0.893462
0.633402 0.92874 0.92108
0.832685 0.932631 0.933211
0.942962 0.93724 0.939925
0.957824 0.938613 0.940093
0.417792 0.909819 0.893568
0.428351 0.907485 0.891676
0.430671 0.906874 0.891173
0.430671 0.908339 0.89247
0.476005 0.919432 0.905303
0.683726 0.933364 0.92694
0.860868 0.938491 0.938079
0.939742 0.945968 0.947692
0.962448 0.944366 0.939345
0.32903 0.0933547 0.695323
0.350118 0.094316 0.699001
0.389578 0.0974136 0.704692
0.461967 0.107378 0.712749
0.570459 0.124849 0.713664
0.686336 0.151751 0.705104
0.701747 0.155718 0.702968
0.7019 0.155688 0.702785
0.70042 0.155932 0.704601
0.302205 0.0922713 0.690669
0.327276 0.0935683 0.696117
0.372686 0.0956283 0.702235
0.4533 0.105928 0.711833
0.569024 0.124804 0.714122
0.690486 0.15285 0.704448
0.701717 0.155718 0.703029
0.701411 0.155764 0.703487
0.699168 0.156115 0.706355
0.229282 0.0899977 0.674006
0.266163 0.0917983 0.684977
0.326497 0.0935531 0.695903
0.422553 0.101595 0.708873
0.548608 0.121263 0.714687
0.680888 0.150332 0.705806
0.703838 0.155489 0.700618
0.704646 0.156909 0.702541
0.701411 0.157397 0.706783
0.10602 0.120806 0.653773
0.106004 0.109255 0.648478
0.138705 0.0903792 0.649073
0.334279 0.093904 0.6972
0.497047 0.113207 0.714824
0.654459 0.143801 0.709163
0.708415 0.160647 0.704967
0.710658 0.16321 0.707332
0.707607 0.164584 0.71284
0.0842756 0.419715 0.720699
0.083238 0.422827 0.720302
0.0830243 0.411536 0.719402
0.128374 0.384115 0.752117
0.535882 0.337392 0.888548
0.775982 0.353826 0.882383
0.862852 0.361532 0.856977
0.857359 0.352285 0.85066
0.868421 0.378058 0.871138
0.159838 0.643839 0.771084
0.162829 0.649195 0.772183
0.160479 0.646922 0.770657
0.148669 0.633021 0.764385
0.336751 0.668376 0.880583
0.725978 0.626307 0.951415
0.91986 0.637964 0.938125
0.947906 0.638315 0.930251
0.933364 0.658946 0.928618
0.355566 0.841657 0.867582
0.362783 0.844419 0.867124
0.363195 0.843229 0.866453
0.357519 0.836667 0.863874
0.393683 0.838056 0.878523
0.623484 0.856855 0.909072
0.872084 0.844556 0.938186
0.951568 0.85005 0.933379
0.94226 0.862242 0.933761
0.422858 0.908492 0.892561
0.431312 0.906676 0.891035
0.43447 0.905119 0.889937
0.432929 0.904204 0.889342
0.448722 0.907439 0.894575
0.64831 0.926329 0.923033
0.839673 0.931273 0.93666
0.945129 0.935271 0.942168
0.957198 0.936584 0.940993
0.417014 0.910018 0.893812
0.429816 0.907088 0.891325
0.434821 0.90573 0.890333
0.438392 0.906538 0.891234
0.493584 0.916854 0.90367
0.695537 0.931014 0.92639
0.855039 0.938399 0.939986
0.935805 0.946319 0.94992
0.961196 0.945296 0.941421
