bundles/resolve-cinematic-luts/Phantom Luts/Ursa G2 Phntm Arri LUTs - V1/Gen4/White Balance Offset (Magenta Boost)/Ursa Neutral Gen4 WBO.cube
TITLE "Generated by Resolve"
LUT_3D_SIZE 5
0.0106355 0.0106355 0.0106355
0.230381 0.0154879 0.0383459
0.573083 0.0305028 0.107576
0.842298 0.0324407 0.163653
0.841688 0.0509804 0.184115
0.0291905 0.222354 0.0901198
0.179095 0.22591 0.0375677
0.589227 0.175235 0.0874952
0.884016 0.112917 0.0960098
0.870893 0.0604715 0.0884565
0.0355383 0.604227 0.31696
0.115373 0.609415 0.202853
0.543633 0.623545 0.122621
0.925017 0.618082 0.168582
0.924834 0.609506 0.168688
0.141543 0.929213 0.593317
0.130877 0.933776 0.537453
0.381247 0.927169 0.279667
0.877531 0.951812 0.33637
0.961822 0.94374 0.37467
0.148074 0.927871 0.623438
0.138231 0.932479 0.573632
0.246433 0.933288 0.382025
0.821439 0.948196 0.323262
0.963394 0.948882 0.386755
0.0532845 0.0149081 0.214359
0.244495 0.0226749 0.201129
0.585275 0.0391241 0.281178
0.847242 0.0537423 0.346242
0.847807 0.0548562 0.357412
0.0277409 0.180926 0.173922
0.192538 0.18471 0.188571
0.590585 0.143694 0.184344
0.846067 0.0460822 0.174533
0.844175 0.0571298 0.189868
0.0428779 0.574212 0.396155
0.0335699 0.580285 0.310903
0.534829 0.606332 0.120348
0.924514 0.587823 0.167819
0.92462 0.573938 0.166537
0.145754 0.914626 0.631693
0.136782 0.918196 0.587381
0.296437 0.921599 0.325231
0.868101 0.946868 0.3346
0.959106 0.935424 0.363592
0.158053 0.924208 0.666514
0.148623 0.927657 0.626032
0.19147 0.934981 0.421271
0.79733 0.946975 0.319295
0.963455 0.948989 0.38761
0.2056 0.0255589 0.5346
0.360739 0.0302739 0.520165
0.600458 0.0460822 0.529564
0.858824 0.067155 0.608911
0.85919 0.0674907 0.616526
0.0135805 0.0567025 0.474205
0.230655 0.0257877 0.520684
0.571725 0.0434119 0.502312
0.857282 0.0666819 0.563531
0.857588 0.0669413 0.568811
0.0471351 0.532509 0.520027
0.0461128 0.525994 0.515007
0.553643 0.536919 0.545327
0.92163 0.52549 0.549798
0.921401 0.503487 0.539544
0.166155 0.875395 0.717998
0.159838 0.874876 0.702464
0.188876 0.885512 0.587732
0.840375 0.915053 0.522911
0.953597 0.902296 0.563943
0.194522 0.915526 0.76376
0.186969 0.917235 0.747143
0.159915 0.927993 0.630198
0.729122 0.947005 0.492012
0.965438 0.95256 0.478508
0.428351 0.0370642 0.81004
0.514748 0.0392462 0.811658
0.705715 0.0595865 0.819074
0.86833 0.0778821 0.850248
0.869352 0.0797894 0.858213
0.241733 0.032166 0.785534
0.42826 0.0367742 0.801343
0.668391 0.0543679 0.806622
0.867872 0.0771649 0.834531
0.868132 0.0775464 0.844633
0 0.460441 0.777249
0 0.436774 0.791653
0.620188 0.383169 0.890745
0.921675 0.39205 0.855634
0.920806 0.362112 0.846876
0.165957 0.831739 0.816632
0.163806 0.828321 0.813703
0.327779 0.825055 0.814115
0.85391 0.839521 0.846845
0.949065 0.83769 0.851942
0.314153 0.919768 0.874418
0.306569 0.919005 0.868757
0.303685 0.917967 0.844572
0.776669 0.95668 0.875837
0.971374 0.972381 0.871855
0.482429 0.0385443 0.830427
0.553124 0.0411994 0.833097
0.736858 0.0636606 0.843107
0.869352 0.0797894 0.858213
0.869352 0.0797894 0.858213
0.365179 0.036286 0.816419
0.486366 0.0386511 0.830762
0.704021 0.0591135 0.840497
0.869352 0.0797894 0.858213
0.870176 0.0813764 0.859236
0.0594339 0.423011 0.876967
0.0809339 0.388342 0.875013
0.646387 0.28925 0.922362
0.916213 0.297993 0.911635
0.9122 0.259739 0.907362
0.269459 0.803357 0.898192
0.262119 0.795987 0.897002
0.366796 0.774945 0.898161
0.882368 0.788785 0.944686
0.945113 0.793942 0.944579
0.362875 0.92134 0.915953
0.362875 0.92134 0.915953
0.38851 0.923079 0.917617
0.801434 0.957031 0.954681
0.973892 0.973693 0.974395
