bundles/resolve-cinematic-luts/Phantom Luts/Ursa G2 Phntm Arri LUTs - V1/Gen4/White Balance Offset (Magenta Boost)/Ursa Utopia Gen4 WBO.cube
TITLE "Generated by Resolve"
LUT_3D_SIZE 33
0.000747692 0.0280613 0.0361334
0.000717174 0.0280308 0.0361028
0.0120699 0.0272374 0.03505
0.0319829 0.0261234 0.037644
0.0566415 0.0248264 0.0367132
0.0839094 0.0231479 0.0358434
0.115587 0.0223392 0.0365148
0.151568 0.0218662 0.0379339
0.190066 0.0207828 0.0382696
0.232654 0.0203555 0.0394446
0.276127 0.0204166 0.041001
0.31783 0.020737 0.0429084
0.359579 0.021088 0.0466011
0.401663 0.0222782 0.0519875
0.44448 0.023621 0.0585184
0.485893 0.0260777 0.0656138
0.525704 0.0296941 0.0742046
0.56408 0.0330053 0.0823377
0.603021 0.0363165 0.0904555
0.641306 0.0395361 0.0987564
0.677195 0.0428321 0.106737
0.707927 0.0451209 0.112871
0.729915 0.0461891 0.116487
0.737743 0.0487373 0.120912
0.73991 0.0521859 0.125887
0.741299 0.0549477 0.129824
0.743114 0.0579385 0.134066
0.744762 0.0605936 0.137575
0.7458 0.0623789 0.1402
0.747951 0.0641489 0.143069
0.750164 0.065568 0.145251
0.75317 0.0664988 0.147005
0.756008 0.0670176 0.148226
0.000701915 0.0280156 0.0360876
0.000701915 0.0280156 0.0360876
0.00274662 0.0279088 0.0358434
0.0215152 0.0277714 0.0366369
0.0448005 0.0259403 0.0365606
0.0724956 0.0242466 0.0356298
0.103487 0.0225528 0.0350652
0.139498 0.0208286 0.034699
0.17908 0.0187991 0.0340276
0.222232 0.0167697 0.033051
0.266697 0.0150759 0.0320745
0.309545 0.0141299 0.0317693
0.352117 0.0133364 0.0309911
0.395102 0.0131533 0.0326543
0.438239 0.0132296 0.0351568
0.478782 0.014847 0.0403754
0.518074 0.0174563 0.0473793
0.557321 0.0213474 0.0571908
0.595865 0.0248569 0.0664225
0.634485 0.0282444 0.0751354
0.669581 0.0306554 0.0826276
0.699123 0.0321202 0.0881971
0.720729 0.0324407 0.0911574
0.72874 0.0346075 0.0956588
0.730632 0.0370947 0.0999619
0.73315 0.0402991 0.105257
0.735454 0.0434577 0.110109
0.737011 0.0456092 0.11371
0.739025 0.0478676 0.117266
0.741436 0.0496376 0.120119
0.744121 0.0510414 0.122484
0.747372 0.0515145 0.123949
0.750835 0.0518654 0.125185
0.0015259 0.0311742 0.0380713
0.00141909 0.0300603 0.0369116
0.00215152 0.0288853 0.0363622
0.0134279 0.0303197 0.0361181
0.0298161 0.0299382 0.0378424
0.0588998 0.0280156 0.0364691
0.0910201 0.0255283 0.0340887
0.127749 0.0238193 0.0339208
0.16817 0.0218662 0.033463
0.212299 0.0199588 0.0327764
0.259205 0.0184329 0.0322271
0.3037 0.0169833 0.03122
0.348089 0.0164492 0.0306249
0.391745 0.0162051 0.0323339
0.435813 0.0162051 0.0345617
0.476219 0.0167239 0.037583
0.51519 0.0183413 0.041825
0.553216 0.0201877 0.0468605
0.590585 0.0219272 0.0522011
0.627863 0.0233463 0.0569619
0.662715 0.0248264 0.0632792
0.692805 0.026154 0.0688487
0.715007 0.0265049 0.071107
0.722789 0.027863 0.0749981
0.724346 0.0293126 0.07953
0.726299 0.0310521 0.0835584
0.727825 0.0325017 0.0870069
0.729442 0.0337835 0.0899672
0.73109 0.0349584 0.0924544
0.733288 0.0356756 0.0944228
0.735393 0.0359655 0.0958572
0.739483 0.0361334 0.09691
0.743557 0.036286 0.0978866
0.00111391 0.0487678 0.045594
0.00134279 0.0475929 0.0429694
0.00775158 0.0450446 0.0377661
0.0173953 0.0451972 0.0382391
0.0339666 0.0469368 0.0389868
0.0619211 0.0442969 0.0424201
0.0907454 0.0411383 0.040238
0.12575 0.0374456 0.0381628
0.165118 0.0326238 0.0352178
0.207294 0.0272374 0.0322423
0.253025 0.0230411 0.0309148
0.297932 0.0206912 0.0305638
0.342962 0.0197452 0.0301671
0.387762 0.0191653 0.0315557
0.432105 0.0189975 0.0336461
0.473838 0.0193484 0.0364538
0.513237 0.0208591 0.0407263
0.551812 0.0227665 0.0454414
0.589624 0.0245518 0.0504921
0.627161 0.0258488 0.0548867
0.661463 0.0265812 0.057908
0.690776 0.0268711 0.0595407
0.712108 0.0261387 0.0569772
0.71902 0.0265354 0.0558633
0.720134 0.0267948 0.0576333
0.721019 0.0269322 0.0608988
0.722377 0.0274357 0.0646677
0.723888 0.0284123 0.0681315
0.72517 0.0288853 0.070634
0.727749 0.0294347 0.0730602
0.730648 0.0298466 0.0750134
0.735332 0.0297246 0.0760662
0.739879 0.0294194 0.0768292
0 0.0755779 0.05037
0 0.0746624 0.047364
0.00471504 0.0705272 0.038056
0.0193484 0.068925 0.0341802
0.031693 0.0719005 0.0348974
0.0665751 0.0712139 0.0412299
0.0982376 0.0673533 0.0473793
0.13669 0.0592813 0.0485542
0.17319 0.0562295 0.0454719
0.213779 0.0522469 0.0422065
0.259922 0.0466011 0.0399939
0.304417 0.0401923 0.0368811
0.346838 0.0343786 0.0345159
0.388159 0.0281376 0.0323491
0.429297 0.02327 0.0321202
0.471305 0.0225986 0.0349889
0.511238 0.0238651 0.0390936
0.550408 0.0258335 0.0438392
0.588266 0.0274968 0.0483864
0.626459 0.0291447 0.052842
0.661692 0.0298161 0.0562295
0.691554 0.0298314 0.0573587
0.713634 0.0285649 0.0553445
0.721584 0.0276036 0.0534066
0.722454 0.0274357 0.0531319
0.722499 0.027451 0.0534066
0.72256 0.0274968 0.053666
0.722805 0.0275273 0.0538491
0.723201 0.027512 0.0539559
0.724605 0.0272221 0.0536965
0.72665 0.0267033 0.0531777
0.730648 0.0257572 0.0521553
0.735241 0.0248875 0.0516518
0 0.106554 0.0531014
0 0.106722 0.0476539
0.00354009 0.103075 0.0387274
0.0153964 0.0999619 0.0300908
0.0364233 0.102083 0.0301671
0.0580453 0.103517 0.0341039
0.0995499 0.101335 0.0438392
0.138125 0.100099 0.049012
0.186465 0.0849165 0.0557412
0.231556 0.0768139 0.0547646
0.274311 0.0719463 0.0515297
0.315007 0.0684215 0.0487984
0.35758 0.0633707 0.0464485
0.400595 0.0577249 0.046067
0.442008 0.0512551 0.0441138
0.482139 0.0449836 0.0427863
0.517617 0.0391546 0.0426032
0.551919 0.0339361 0.0437781
0.587961 0.0328374 0.0470588
0.626017 0.0337072 0.0513161
0.661799 0.0340276 0.0544594
0.692576 0.034165 0.056199
0.716594 0.0339055 0.0559701
0.727642 0.0338903 0.0555428
0.729686 0.0338598 0.0553597
0.729656 0.0338598 0.0553597
0.729656 0.033875 0.0553597
0.729732 0.033875 0.055375
0.72987 0.0338445 0.0553292
0.730831 0.0336004 0.055024
0.732601 0.0331426 0.0544442
0.73637 0.0321202 0.0530861
0.740658 0.0309606 0.0516518
0 0.140246 0.0555276
0 0.141405 0.0463569
0.00370794 0.138445 0.0395819
0.0129549 0.134783 0.0295415
0.0334325 0.133791 0.0247959
0.0612955 0.136614 0.0288243
0.0886244 0.136751 0.0360418
0.13666 0.133608 0.0470436
0.183337 0.134783 0.0500343
0.238544 0.117586 0.0604562
0.290929 0.102861 0.0633707
0.336385 0.0974746 0.0624094
0.375586 0.0947433 0.0610666
0.413657 0.0924544 0.0598764
0.454765 0.0878614 0.0586099
0.497017 0.0821393 0.0574502
0.534859 0.0750134 0.058381
0.570336 0.0697948 0.0594492
0.604395 0.0640421 0.0606699
0.636957 0.0570993 0.0610361
0.667765 0.0495003 0.0607614
0.697612 0.0466011 0.0623178
0.723125 0.0459754 0.0631113
0.73724 0.045655 0.0626993
0.740001 0.045243 0.0623178
0.740032 0.0452888 0.0623331
0.740063 0.0453346 0.0623484
0.740093 0.0453498 0.0623789
0.740169 0.0453803 0.0623941
0.740795 0.0452583 0.062211
0.741863 0.0449836 0.0618753
0.74435 0.0443427 0.0610819
0.747005 0.0436866 0.0602579
0 0.178988 0.0640421
0.000610361 0.181231 0.0485389
0.00512703 0.179904 0.0429694
0.0141451 0.176242 0.033051
0.0272679 0.171283 0.0209964
0.0636606 0.174075 0.0219272
0.0944991 0.176165 0.0301976
0.122652 0.175982 0.038941
0.179492 0.170901 0.0509651
0.232868 0.173983 0.05066
0.293187 0.157763 0.0642557
0.348898 0.137224 0.0740978
0.395087 0.130312 0.0754711
0.43653 0.12694 0.0757763
0.47422 0.12604 0.0758831
0.513634 0.124315 0.0756237
0.552621 0.120531 0.0761578
0.589929 0.115343 0.0764019
0.626139 0.11107 0.0782788
0.660578 0.105699 0.0789502
0.695094 0.0981308 0.0827192
0.723247 0.090425 0.0824445
0.745312 0.0829023 0.0810407
0.757427 0.0745708 0.0773175
0.755138 0.0659495 0.0726329
0.752972 0.0626383 0.0711681
0.75227 0.061738 0.0706188
0.752041 0.0613718 0.0704509
0.751766 0.0609598 0.0702525
0.752087 0.0604562 0.0699016
0.752926 0.0598306 0.069398
0.755032 0.0589303 0.0685893
0.757763 0.0582895 0.0679026
0 0.221927 0.0757763
0 0.22446 0.0590372
0.00630198 0.225437 0.0494087
0.0152438 0.222217 0.039292
0.027985 0.217792 0.0273747
0.0452277 0.214572 0.0158083
0.0934462 0.218494 0.0206149
0.129641 0.219806 0.0322118
0.161379 0.219211 0.0428779
0.22681 0.212497 0.0553292
0.287678 0.216327 0.0531777
0.346426 0.204425 0.067216
0.403433 0.18584 0.0817884
0.452949 0.170748 0.0897688
0.4963 0.166201 0.0920424
0.537575 0.164263 0.0934157
0.573724 0.16466 0.0944533
0.610376 0.163897 0.096437
0.647776 0.160616 0.098436
0.684718 0.157107 0.101274
0.719997 0.153613 0.103822
0.750805 0.149569 0.105257
0.776532 0.145571 0.105943
0.793744 0.140337 0.104524
0.793759 0.132769 0.100923
0.790356 0.123827 0.099855
0.786023 0.11606 0.0962997
0.782162 0.109041 0.0933089
0.778424 0.102419 0.0902571
0.77554 0.096788 0.087541
0.773785 0.0919509 0.0852369
0.773495 0.0873426 0.0825513
0.774136 0.0841382 0.0803388
0 0.269169 0.0880751
0 0.271901 0.0732128
0.00973526 0.274662 0.0568704
0.0168612 0.272572 0.0487984
0.0294957 0.268925 0.0372473
0.048188 0.26331 0.0221103
0.083299 0.262959 0.0136721
0.128023 0.267659 0.0206302
0.168551 0.267872 0.0355993
0.206577 0.26714 0.0477607
0.278645 0.258198 0.0598459
0.343999 0.261982 0.0569924
0.399786 0.256107 0.0687266
0.45684 0.240696 0.0867933
0.508797 0.223514 0.101091
0.556542 0.212406 0.108614
0.597772 0.209644 0.112078
0.634897 0.209796 0.115419
0.669673 0.210697 0.117632
0.705608 0.210178 0.120653
0.741817 0.208728 0.124758
0.774762 0.206836 0.12842
0.802915 0.204776 0.130922
0.824857 0.203098 0.13193
0.827787 0.197925 0.130251
0.82472 0.191638 0.127626
0.821607 0.185702 0.124895
0.819211 0.180453 0.122774
0.816724 0.175448 0.120333
0.815015 0.171283 0.11841
0.813779 0.167422 0.116503
0.813718 0.163775 0.114382
0.814359 0.161288 0.112703
0 0.321386 0.10248
0 0.323903 0.088365
0.0081178 0.327169 0.0739452
0.0195926 0.328161 0.063386
0.0327306 0.325185 0.0510414
0.0498665 0.320256 0.035584
0.0750744 0.313649 0.0167849
0.126513 0.316548 0.0126802
0.167681 0.321553 0.0220951
0.213443 0.320409 0.0406043
0.256031 0.319615 0.0529183
0.335729 0.309148 0.0658885
0.401785 0.312535 0.0622263
0.455421 0.312551 0.0685283
0.509743 0.301427 0.0892958
0.561944 0.287419 0.106401
0.611902 0.27187 0.120455
0.654765 0.262638 0.130877
0.693446 0.260548 0.136217
0.730022 0.260868 0.13991
0.763058 0.262959 0.143603
0.794736 0.264317 0.147784
0.824002 0.264454 0.151537
0.848753 0.26421 0.154437
0.854948 0.260761 0.154009
0.853544 0.255573 0.152117
0.851835 0.251011 0.150607
0.849943 0.24654 0.148913
0.848249 0.242618 0.147539
0.847105 0.239292 0.146273
0.84622 0.236179 0.144976
0.845853 0.233402 0.143297
0.846464 0.231525 0.142092
0 0.37499 0.119814
0 0.377829 0.106645
0.00547799 0.380804 0.0933089
0.0226444 0.383536 0.0785687
0.0350652 0.382254 0.0682994
0.051606 0.378683 0.0541085
0.0729076 0.373068 0.0346227
0.108309 0.3673 0.00952163
0.169665 0.371832 0.0130617
0.210407 0.375357 0.0244297
0.262287 0.373785 0.0456855
0.31136 0.371771 0.0608377
0.392355 0.360357 0.0736553
0.458671 0.364157 0.0692149
0.511116 0.367483 0.0691234
0.561303 0.3608 0.0886854
0.612482 0.350912 0.109728
0.660624 0.337682 0.128649
0.706065 0.324941 0.144503
0.74789 0.314458 0.155657
0.784604 0.31191 0.161227
0.814542 0.314458 0.165591
0.841108 0.317876 0.169177
0.864927 0.32018 0.172366
0.874617 0.31899 0.173114
0.874937 0.315297 0.171984
0.874037 0.312032 0.171069
0.872801 0.308507 0.169818
0.871656 0.305425 0.168658
0.870939 0.302861 0.167834
0.870512 0.30074 0.167239
0.870207 0.298817 0.16611
0.87042 0.297276 0.165011
0 0.429007 0.143374
0 0.431617 0.129854
0.000503548 0.434577 0.116243
0.0174411 0.43769 0.101946
0.0350958 0.439567 0.0889754
0.0517128 0.43682 0.0755169
0.0717327 0.432639 0.0585946
0.0975052 0.42623 0.0347753
0.140917 0.422599 0.00611887
0.213092 0.426444 0.0150759
0.257984 0.428779 0.0307774
0.3131 0.426429 0.0546273
0.370031 0.423423 0.0721447
0.447654 0.410819 0.084062
0.513466 0.414374 0.0774853
0.564904 0.4177 0.0769055
0.611688 0.415808 0.0928664
0.65922 0.408743 0.116457
0.70695 0.399374 0.13843
0.753552 0.387457 0.156878
0.794858 0.377066 0.170794
0.829618 0.367285 0.180774
0.857542 0.366766 0.186755
0.879561 0.37023 0.189776
0.890501 0.371878 0.190707
0.891539 0.369726 0.189868
0.890974 0.366812 0.188937
0.890501 0.364416 0.188113
0.889784 0.362264 0.187274
0.889082 0.360113 0.186526
0.888594 0.358358 0.185992
0.888243 0.356893 0.185122
0.888395 0.355886 0.184375
0 0.482795 0.173587
0 0.485405 0.159274
0 0.488624 0.146166
0.00579843 0.491859 0.131609
0.0274205 0.49514 0.115785
0.0486305 0.495674 0.100984
0.0681468 0.492424 0.085832
0.0915847 0.487572 0.0658122
0.124514 0.480903 0.0368353
0.193896 0.478798 0.0101472
0.256992 0.481407 0.0227817
0.308797 0.481422 0.0432288
0.366659 0.477989 0.0664378
0.427039 0.473503 0.085008
0.501503 0.460563 0.0966354
0.566262 0.463569 0.0892042
0.616007 0.467292 0.0912642
0.660655 0.469444 0.101411
0.705318 0.464073 0.127428
0.751537 0.457221 0.150317
0.796017 0.448981 0.169711
0.833371 0.441016 0.183001
0.864256 0.436194 0.193301
0.88867 0.433066 0.200855
0.897368 0.43444 0.201587
0.898375 0.431876 0.201236
0.898421 0.42855 0.201266
0.898253 0.425681 0.201038
0.898116 0.422858 0.200839
0.897932 0.42034 0.200626
0.89778 0.418311 0.200458
0.897902 0.416632 0.200168
0.8981 0.415671 0.199527
0 0.536004 0.210269
0 0.53846 0.196521
0 0.541115 0.18201
0 0.544656 0.168322
0.00607309 0.548882 0.152636
0.0347753 0.552407 0.13286
0.0582895 0.551186 0.116335
0.0828107 0.547311 0.0979019
0.11136 0.541909 0.0743267
0.159182 0.536324 0.0381781
0.246632 0.533379 0.0192111
0.304173 0.533806 0.0340276
0.362539 0.531518 0.0605631
0.420996 0.527977 0.0806592
0.482277 0.522347 0.100175
0.553582 0.509468 0.112535
0.616053 0.511925 0.107591
0.66453 0.514977 0.110643
0.707485 0.518975 0.117647
0.750652 0.516609 0.142428
0.792981 0.511864 0.165118
0.831495 0.507164 0.1823
0.86453 0.502632 0.193378
0.890349 0.500282 0.203876
0.899809 0.5028 0.205585
0.900786 0.501289 0.205417
0.900679 0.498604 0.205249
0.900526 0.496208 0.205097
0.900679 0.494179 0.205203
0.90071 0.492302 0.205188
0.900526 0.490654 0.204944
0.900343 0.489387 0.20441
0.900359 0.488701 0.203784
0 0.586023 0.25243
0 0.588159 0.240116
0 0.590723 0.226947
0 0.593668 0.212482
0 0.597543 0.197284
0.00833143 0.602731 0.178347
0.0386816 0.606332 0.155962
0.0659342 0.604746 0.135622
0.0972763 0.600992 0.112352
0.13817 0.595148 0.0827649
0.204349 0.589456 0.0388952
0.300343 0.585275 0.0310979
0.356329 0.58439 0.0505379
0.419043 0.579751 0.0840314
0.473716 0.576699 0.0986038
0.535698 0.57026 0.119692
0.602899 0.557214 0.134997
0.66302 0.558801 0.13257
0.710506 0.561364 0.135485
0.752712 0.565621 0.14374
0.793149 0.56701 0.159976
0.829236 0.565118 0.179385
0.862165 0.56286 0.193744
0.889555 0.560479 0.204364
0.901259 0.561318 0.209339
0.902846 0.561364 0.209354
0.9028 0.560037 0.20911
0.9028 0.558328 0.209064
0.902739 0.556756 0.208927
0.902647 0.555306 0.208804
0.902556 0.554162 0.208637
0.902464 0.553277 0.20824
0.902312 0.552773 0.207568
0 0.634852 0.300542
0 0.636896 0.288975
0 0.639078 0.276738
0 0.641535 0.262928
0 0.644556 0.247333
0 0.648569 0.228489
0.0112764 0.65449 0.206332
0.044358 0.657359 0.182528
0.0806744 0.655756 0.158724
0.123461 0.651911 0.130602
0.174426 0.64535 0.0926833
0.254841 0.638727 0.0407874
0.352193 0.63415 0.0498512
0.411994 0.631876 0.0760052
0.473686 0.62678 0.110613
0.524895 0.623774 0.123934
0.586007 0.61651 0.145495
0.649454 0.603418 0.161242
0.708064 0.604212 0.158816
0.754711 0.606607 0.163073
0.7953 0.61033 0.171099
0.832029 0.614298 0.179889
0.863249 0.615061 0.194354
0.889387 0.615625 0.20383
0.904311 0.616053 0.212161
0.906676 0.616861 0.213993
0.906508 0.615702 0.213886
0.906523 0.614466 0.213947
0.906401 0.613367 0.21387
0.90634 0.612314 0.213809
0.906264 0.611322 0.213748
0.906188 0.610483 0.213519
0.906081 0.609979 0.213123
0 0.682628 0.348501
0 0.684459 0.338659
0 0.686366 0.327977
0 0.688563 0.316487
0 0.691096 0.302678
0 0.694545 0.284611
0 0.699092 0.261967
0.024155 0.705608 0.235172
0.059678 0.706935 0.210803
0.101289 0.705455 0.183047
0.15082 0.700999 0.149187
0.216815 0.694697 0.101015
0.314717 0.687129 0.0565957
0.406912 0.680934 0.0781872
0.468956 0.67744 0.109453
0.525063 0.673075 0.137087
0.574563 0.66949 0.152331
0.63447 0.662043 0.172442
0.694697 0.649134 0.188495
0.75111 0.649042 0.187121
0.797238 0.650736 0.191546
0.835065 0.654551 0.199908
0.867185 0.658351 0.208103
0.894316 0.662211 0.212665
0.913283 0.665675 0.218128
0.916014 0.667063 0.222034
0.915923 0.666362 0.222629
0.915633 0.665354 0.222431
0.915633 0.664576 0.222522
0.915434 0.663722 0.222339
0.915236 0.662943 0.222232
0.915068 0.662303 0.222034
0.914916 0.661875 0.221836
0 0.728756 0.394095
0 0.730465 0.385565
0 0.732128 0.376928
0 0.734035 0.367208
0 0.736294 0.355673
0.000656138 0.739239 0.340902
0.00274662 0.743038 0.321126
0.00946059 0.748257 0.295491
0.0383307 0.753674 0.266773
0.0746319 0.754269 0.239673
0.121447 0.752697 0.20734
0.179217 0.747509 0.166247
0.265034 0.741146 0.108461
0.384512 0.731655 0.0825055
0.464607 0.725322 0.111879
0.522622 0.721645 0.144335
0.57496 0.718166 0.164416
0.622019 0.713771 0.180636
0.680339 0.706233 0.200015
0.738064 0.693721 0.215732
0.793484 0.693416 0.217166
0.83801 0.695705 0.222751
0.871427 0.698512 0.230701
0.899077 0.702052 0.237308
0.921828 0.705806 0.240635
0.927367 0.707637 0.247822
0.927779 0.707774 0.249943
0.927581 0.707088 0.249622
0.927352 0.706371 0.249088
0.927138 0.705791 0.248585
0.92697 0.705242 0.248173
0.926863 0.704799 0.247837
0.926772 0.704555 0.247608
0.0120241 0.774197 0.436576
0.0118257 0.775555 0.429389
0.011429 0.777188 0.421485
0.0112154 0.778973 0.413214
0.0113222 0.780957 0.403677
0.0117189 0.783444 0.391562
0.0129549 0.786786 0.37499
0.014847 0.791257 0.353399
0.0227817 0.796857 0.32462
0.053254 0.799695 0.298329
0.0914321 0.80029 0.267994
0.145251 0.798184 0.229496
0.217288 0.792935 0.178927
0.322591 0.785031 0.113481
0.447974 0.775418 0.115602
0.521492 0.769619 0.148028
0.57261 0.766583 0.179721
0.622477 0.762387 0.192889
0.668147 0.758038 0.210132
0.725444 0.751629 0.22887
0.781109 0.739757 0.245762
0.83537 0.739162 0.250889
0.875105 0.741543 0.256519
0.905455 0.743877 0.263661
0.928756 0.747326 0.268635
0.939956 0.749477 0.275441
0.940917 0.749569 0.280705
0.940856 0.749187 0.281254
0.940764 0.748684 0.280919
0.940581 0.748104 0.280476
0.940352 0.747677 0.280049
0.940154 0.747311 0.279667
0.940063 0.747066 0.279469
0.0279698 0.818906 0.474586
0.0275731 0.820249 0.468284
0.0268101 0.821637 0.461769
0.0261845 0.823224 0.454719
0.0257115 0.82501 0.446235
0.0257725 0.827344 0.435615
0.0262913 0.830243 0.421729
0.0271 0.834073 0.403998
0.0290379 0.838956 0.380255
0.0393683 0.843122 0.35172
0.0719768 0.844434 0.325856
0.1149 0.844678 0.291966
0.177295 0.842084 0.246708
0.270191 0.837324 0.18439
0.393744 0.827649 0.125887
0.510307 0.817548 0.152804
0.572641 0.812634 0.18378
0.62005 0.809262 0.209445
0.668666 0.805905 0.223468
0.714366 0.802106 0.242054
0.769558 0.796338 0.260258
0.82443 0.785809 0.278462
0.87364 0.784955 0.286229
0.909972 0.787686 0.292332
0.936492 0.790356 0.298558
0.954192 0.79263 0.303822
0.955505 0.79266 0.312367
0.955169 0.792233 0.313176
0.954955 0.791791 0.312825
0.954864 0.791394 0.312566
0.954833 0.791104 0.312428
0.954864 0.790829 0.312413
0.95491 0.790677 0.312428
0.0457465 0.85948 0.509163
0.0451209 0.8607 0.503746
0.0441138 0.862028 0.497856
0.0433356 0.863355 0.491463
0.0425116 0.864897 0.484215
0.0422522 0.866789 0.475135
0.0423285 0.869215 0.462989
0.0425727 0.872312 0.447761
0.0432136 0.876417 0.427466
0.0462959 0.881239 0.400488
0.0594034 0.882826 0.376181
0.096025 0.884245 0.348028
0.143923 0.884108 0.310338
0.217777 0.881453 0.25716
0.334188 0.874968 0.183902
0.476555 0.863813 0.158877
0.566293 0.854734 0.191089
0.618357 0.850904 0.22002
0.666835 0.847715 0.239567
0.713558 0.844739 0.255909
0.76025 0.841382 0.274693
0.813581 0.83714 0.293599
0.866209 0.828092 0.311635
0.909041 0.827359 0.321141
0.940841 0.829419 0.326787
0.963165 0.832563 0.331807
0.968856 0.832975 0.340291
0.969085 0.832776 0.343572
0.968856 0.832486 0.343618
0.968719 0.832197 0.343359
0.968643 0.831968 0.343221
0.968673 0.831754 0.343175
0.968765 0.831662 0.343252
0.0622416 0.895018 0.541039
0.0615549 0.896025 0.535927
0.0604868 0.897215 0.530755
0.0595407 0.898451 0.524956
0.0585336 0.89987 0.518425
0.057908 0.901518 0.510201
0.0576791 0.903655 0.499626
0.0576028 0.90634 0.486412
0.0578927 0.909758 0.469261
0.0593271 0.91426 0.445472
0.0655222 0.917281 0.418952
0.0821851 0.917815 0.3953
0.123064 0.918746 0.363577
0.177966 0.91841 0.320684
0.274189 0.916381 0.256184
0.410819 0.907012 0.184482
0.538506 0.896254 0.196811
0.613764 0.888716 0.229313
0.663417 0.885054 0.255818
0.710307 0.882872 0.271153
0.756161 0.880568 0.288624
0.804059 0.877348 0.30808
0.855589 0.873915 0.326879
0.902693 0.866651 0.343664
0.940093 0.866468 0.354513
0.966644 0.867903 0.35903
0.979828 0.867689 0.366949
0.980514 0.86714 0.371908
0.98027 0.866926 0.372274
0.980011 0.866728 0.371954
0.979889 0.86656 0.371756
0.979889 0.866453 0.371695
0.980041 0.866407 0.371801
0.0773327 0.925795 0.56997
0.0768749 0.926604 0.565515
0.0758679 0.927626 0.560678
0.0748913 0.92871 0.555642
0.0738079 0.929915 0.549447
0.0731823 0.931273 0.541695
0.0725414 0.933104 0.532235
0.0721294 0.935302 0.520226
0.07187 0.938216 0.504585
0.072221 0.941802 0.484306
0.075761 0.945724 0.457481
0.0856489 0.94641 0.434638
0.108354 0.947478 0.408362
0.154879 0.948409 0.3729
0.221561 0.948409 0.321614
0.345525 0.943877 0.24622
0.495277 0.933471 0.212451
0.594461 0.924697 0.236667
0.659281 0.918303 0.265934
0.705715 0.915602 0.28687
0.751308 0.913283 0.30277
0.796368 0.910826 0.321324
0.847272 0.907774 0.340688
0.893111 0.905699 0.358907
0.935882 0.900084 0.373816
0.966598 0.900114 0.384817
0.98674 0.898497 0.39292
0.98938 0.896773 0.398825
0.989319 0.896574 0.399481
0.989136 0.896483 0.399329
0.988983 0.896437 0.399176
0.988952 0.896345 0.399084
0.98909 0.89633 0.399161
0.0905623 0.950973 0.596902
0.090425 0.95169 0.592645
0.0898604 0.952392 0.588205
0.0890059 0.953338 0.583291
0.087953 0.954314 0.577768
0.0870832 0.95555 0.570733
0.086244 0.957 0.561898
0.0856641 0.958816 0.550607
0.0851759 0.961105 0.536614
0.0848707 0.964157 0.518135
0.0859083 0.967285 0.493034
0.0940871 0.969528 0.46949
0.107103 0.97055 0.446311
0.138155 0.971771 0.415869
0.192813 0.972534 0.374273
0.285618 0.973449 0.31165
0.43183 0.96527 0.243488
0.558999 0.955856 0.247013
0.644373 0.947723 0.274342
0.700603 0.941573 0.30106
0.744183 0.93814 0.315526
0.788815 0.935134 0.331823
0.835401 0.932082 0.350561
0.885252 0.929168 0.368719
0.926513 0.928756 0.385367
0.963546 0.92488 0.399115
0.987961 0.921538 0.415015
0.996139 0.91899 0.422492
0.996338 0.918364 0.424674
0.996185 0.918379 0.424811
0.996094 0.918364 0.424704
0.996033 0.918288 0.424598
0.996017 0.918227 0.424567
0.0921492 0.954742 0.605966
0.0920882 0.955306 0.601801
0.0919356 0.955947 0.597436
0.0914321 0.95671 0.592782
0.0906386 0.957641 0.587503
0.0899062 0.958877 0.580987
0.0893416 0.960372 0.572457
0.0887312 0.962051 0.561746
0.0880446 0.964294 0.547906
0.0869917 0.966461 0.52987
0.0861372 0.968032 0.505608
0.0918898 0.970352 0.480919
0.103319 0.972869 0.462242
0.122042 0.975921 0.439063
0.166812 0.979583 0.408072
0.237797 0.982132 0.359579
0.356954 0.976852 0.28896
0.511223 0.964813 0.261051
0.603098 0.954925 0.268727
0.679515 0.946593 0.298131
0.730678 0.941146 0.316701
0.772717 0.937438 0.330007
0.816663 0.934493 0.346319
0.867369 0.930816 0.363363
0.911208 0.929061 0.379065
0.95256 0.925414 0.394873
0.980392 0.924071 0.414038
0.996628 0.923095 0.428168
0.997223 0.923491 0.433616
0.997131 0.923568 0.434028
0.99707 0.923598 0.434012
0.99704 0.923629 0.433982
0.99704 0.923613 0.433967
0.0923934 0.954223 0.611246
0.0921035 0.954818 0.607019
0.091783 0.955383 0.602869
0.0915084 0.956054 0.598199
0.090837 0.95697 0.592798
0.0902876 0.958068 0.586313
0.0896162 0.959533 0.578225
0.0892348 0.961318 0.567758
0.0884413 0.963424 0.554482
0.0874037 0.965927 0.537026
0.0860914 0.967514 0.513161
0.0896468 0.969787 0.485939
0.100877 0.972427 0.466682
0.117586 0.975601 0.444434
0.157656 0.979461 0.415183
0.221332 0.982498 0.372107
0.330449 0.978943 0.302434
0.486641 0.966949 0.262623
0.587503 0.956985 0.268376
0.669001 0.947982 0.294133
0.723796 0.941985 0.315496
0.766018 0.938521 0.32874
