bundles/resolve-cinematic-luts/Phantom Luts/Ursa G2 Phntm Arri LUTs - V1/Gen4/White Balance Offset (Magenta Boost)/Ursa Utopia Gen4 WBO.cube
TITLE "Generated by Resolve"
LUT_3D_SIZE 9
0.000747692 0.0280613 0.0361334
0.0566415 0.0248264 0.0367132
0.190066 0.0207828 0.0382696
0.359579 0.021088 0.0466011
0.525704 0.0296941 0.0742046
0.677195 0.0428321 0.106737
0.73991 0.0521859 0.125887
0.7458 0.0623789 0.1402
0.756008 0.0670176 0.148226
0 0.0755779 0.05037
0.031693 0.0719005 0.0348974
0.17319 0.0562295 0.0454719
0.346838 0.0343786 0.0345159
0.511238 0.0238651 0.0390936
0.661692 0.0298161 0.0562295
0.722454 0.0274357 0.0531319
0.723201 0.027512 0.0539559
0.735241 0.0248875 0.0516518
0 0.221927 0.0757763
0.027985 0.217792 0.0273747
0.161379 0.219211 0.0428779
0.403433 0.18584 0.0817884
0.573724 0.16466 0.0944533
0.719997 0.153613 0.103822
0.793759 0.132769 0.100923
0.778424 0.102419 0.0902571
0.774136 0.0841382 0.0803388
0 0.429007 0.143374
0.0350958 0.439567 0.0889754
0.140917 0.422599 0.00611887
0.370031 0.423423 0.0721447
0.611688 0.415808 0.0928664
0.794858 0.377066 0.170794
0.890501 0.371878 0.190707
0.889784 0.362264 0.187274
0.888395 0.355886 0.184375
0 0.634852 0.300542
0 0.644556 0.247333
0.0806744 0.655756 0.158724
0.352193 0.63415 0.0498512
0.586007 0.61651 0.145495
0.7953 0.61033 0.171099
0.904311 0.616053 0.212161
0.906401 0.613367 0.21387
0.906081 0.609979 0.213123
0.0279698 0.818906 0.474586
0.0257115 0.82501 0.446235
0.0290379 0.838956 0.380255
0.177295 0.842084 0.246708
0.572641 0.812634 0.18378
0.769558 0.796338 0.260258
0.936492 0.790356 0.298558
0.954955 0.791791 0.312825
0.95491 0.790677 0.312428
0.0905623 0.950973 0.596902
0.087953 0.954314 0.577768
0.0851759 0.961105 0.536614
0.107103 0.97055 0.446311
0.43183 0.96527 0.243488
0.744183 0.93814 0.315526
0.926513 0.928756 0.385367
0.996338 0.918364 0.424674
0.996017 0.918227 0.424567
0.0954147 0.952651 0.619821
0.0937209 0.955169 0.601984
0.0925307 0.961166 0.565057
0.100633 0.970764 0.473991
0.299306 0.980926 0.322759
0.71519 0.942199 0.313268
0.894804 0.92932 0.373327
0.997436 0.9234 0.433082
0.997009 0.923705 0.434913
0.0930648 0.951705 0.631037
0.0921035 0.954009 0.613413
0.0913405 0.959381 0.577295
0.0955825 0.969635 0.482658
0.265522 0.981872 0.344533
0.701976 0.943969 0.308614
0.881407 0.929778 0.36849
0.997269 0.923033 0.429175
0.996735 0.923766 0.43476
0 0.0307317 0.0803235
0.0524453 0.0276341 0.0828717
0.19237 0.0265049 0.100511
0.367025 0.0266575 0.11632
0.532906 0.0320439 0.141131
0.692226 0.0536812 0.178256
0.753933 0.0651713 0.198337
0.754818 0.0654917 0.207294
0.759167 0.0648203 0.213062
0 0.0564584 0.0666514
0.0249027 0.0532235 0.0631418
0.181491 0.0404974 0.0580301
0.348623 0.0232548 0.0489967
0.51989 0.0314641 0.0751659
0.676677 0.0433814 0.106966
0.746319 0.0514992 0.125399
0.751553 0.0621042 0.139925
0.759152 0.0672923 0.14818
0 0.196429 0.129839
0 0.20116 0.0792401
0.154314 0.204196 0.04448
0.407645 0.14905 0.0815442
0.565255 0.136721 0.0832685
0.708354 0.116106 0.0875715
0.769284 0.0832685 0.0808728
0.750561 0.055436 0.0671244
0.754665 0.049958 0.0632639
0 0.405722 0.201617
0 0.415351 0.145815
0.103471 0.420142 0.0291447
0.364111 0.413855 0.0717784
0.61529 0.398672 0.099443
0.796765 0.351202 0.170962
0.886275 0.354559 0.184771
0.883925 0.34287 0.181064
0.882322 0.335821 0.177554
0 0.619608 0.344915
0 0.626963 0.300542
0.0274815 0.649042 0.188952
0.32842 0.631785 0.0421149
0.583108 0.611292 0.143618
0.796735 0.604028 0.168582
0.90399 0.606378 0.211902
0.905501 0.602457 0.212818
0.905043 0.598642 0.211795
0.0268406 0.808225 0.498512
0.0239567 0.813428 0.473594
0.0242313 0.82504 0.416007
0.140047 0.839414 0.268681
0.562554 0.810376 0.17734
0.766903 0.79263 0.257923
0.935958 0.785 0.294972
0.953185 0.785992 0.308659
0.95256 0.784283 0.307408
0.0900587 0.944747 0.612497
0.0874189 0.947677 0.594919
0.0844892 0.953841 0.557916
0.0961471 0.96701 0.457725
0.395331 0.966415 0.254475
0.739239 0.93843 0.313481
0.923903 0.928893 0.384817
0.995544 0.91577 0.421347
0.995178 0.915282 0.42089
0.0958419 0.950454 0.637552
0.0964675 0.952255 0.620981
0.0935073 0.957397 0.586694
0.0935531 0.968688 0.491569
0.268925 0.981796 0.341756
0.706752 0.943435 0.311208
0.88954 0.929534 0.371542
0.997467 0.923293 0.431907
0.996933 0.923751 0.435203
0.0956436 0.949355 0.648249
0.0961929 0.951003 0.632181
0.0927443 0.95581 0.598245
0.0920729 0.967514 0.507179
0.236591 0.982071 0.363684
0.691508 0.945068 0.303609
0.874479 0.930388 0.36614
0.995712 0.923049 0.427344
0.996735 0.923766 0.43476
0 0.0388495 0.211383
0.0696269 0.0325017 0.194476
0.19147 0.0297246 0.188159
0.358404 0.0344854 0.212787
0.528801 0.0417182 0.241215
0.695018 0.0632334 0.278065
0.756115 0.0738079 0.297093
0.75642 0.0748455 0.305058
0.759197 0.0744488 0.31043
0 0.0524453 0.155322
0 0.0371099 0.198062
0.168032 0.0293431 0.168811
0.350744 0.0314183 0.169924
0.526345 0.0358587 0.193988
0.691798 0.057557 0.227054
0.756664 0.0685893 0.245762
0.757214 0.069337 0.254246
0.760494 0.0687877 0.259678
0 0.178088 0.181262
0 0.173312 0.176989
0.157092 0.183597 0.193088
0.389807 0.164446 0.177035
0.569802 0.14049 0.163714
0.715862 0.102159 0.158068
0.754452 0.0658885 0.137453
0.75491 0.069749 0.145495
0.759213 0.0704509 0.149676
0 0.383688 0.268879
0 0.382467 0.24538
0 0.396551 0.150164
0.362264 0.399893 0.140124
0.617319 0.364691 0.176059
0.789746 0.328222 0.181567
0.877775 0.316487 0.181689
0.872251 0.301488 0.173602
0.870115 0.292912 0.168383
0 0.598688 0.399359
0 0.601267 0.373846
0 0.612818 0.293568
0.222721 0.634104 0.0629892
0.576333 0.600687 0.142428
0.799817 0.591333 0.169497
0.903471 0.588296 0.211795
0.904021 0.581598 0.211185
0.90367 0.577188 0.210147
0.0267796 0.791257 0.534112
0.0232242 0.794751 0.515267
0.0203403 0.802991 0.469947
0.0733501 0.829953 0.312673
0.53901 0.807767 0.165362
0.760998 0.784115 0.255314
0.934539 0.775097 0.288014
0.949218 0.774823 0.300069
0.948363 0.772396 0.298497
0.0902571 0.93431 0.637964
0.0872816 0.936889 0.623102
0.0838788 0.941619 0.591257
0.0826581 0.95671 0.496468
0.326345 0.96788 0.284062
0.727962 0.935409 0.307546
0.917494 0.924254 0.382223
0.994141 0.910796 0.415702
0.993576 0.910063 0.414679
0.100298 0.946792 0.666087
0.0980087 0.948623 0.651484
0.0968948 0.952071 0.621988
0.0928664 0.964752 0.542214
0.218143 0.981994 0.376745
0.688869 0.945296 0.302647
0.878813 0.929854 0.367773
0.997452 0.923217 0.431174
0.996963 0.923858 0.436774
0.100984 0.945861 0.676051
0.0982834 0.947555 0.661997
0.0973831 0.950744 0.632853
0.0927901 0.962478 0.557443
0.187686 0.980774 0.397528
0.669429 0.947707 0.294179
0.860563 0.931075 0.361608
0.991943 0.923217 0.423575
0.996658 0.923934 0.43563
6.10361e-05 0.0492409 0.373617
0.096025 0.0424506 0.360311
0.209064 0.0382696 0.343175
0.358419 0.0397803 0.333959
0.52015 0.0509651 0.358343
0.687129 0.0780499 0.391623
0.750957 0.0906539 0.413581
0.75082 0.0910506 0.418677
0.752834 0.0903792 0.423087
0 0.0508278 0.334432
0.00956741 0.0480812 0.36611
0.174197 0.0385443 0.342824
0.34699 0.0391394 0.321965
0.51223 0.0486305 0.343633
0.684047 0.0752117 0.369757
0.752667 0.0882429 0.390814
0.752605 0.0888228 0.396231
0.754665 0.0882734 0.400717
0 0.156161 0.296239
0 0.141756 0.309895
0.116411 0.112764 0.383688
0.36495 0.111147 0.345388
0.531975 0.0809186 0.327474
0.683467 0.0740215 0.322698
0.755749 0.0813611 0.334386
0.755718 0.0823529 0.339498
0.757885 0.0820325 0.343542
0 0.358587 0.349371
0 0.355764 0.346807
0 0.354009 0.346227
0.360281 0.371984 0.378027
0.594217 0.354772 0.364019
0.791348 0.339483 0.350103
0.874632 0.318318 0.329564
0.866407 0.293538 0.314366
0.861692 0.278645 0.307393
0 0.57792 0.467842
0 0.577142 0.458274
0 0.576608 0.432486
0.0964828 0.605966 0.36022
0.551324 0.583337 0.322652
0.787045 0.562097 0.368795
0.915526 0.556405 0.345281
0.915831 0.54638 0.330266
0.914229 0.541024 0.322026
0.03122 0.76936 0.585275
0.0274815 0.769787 0.575631
0.0228885 0.771603 0.551202
0.0185245 0.785214 0.457252
0.392508 0.823575 0.259983
0.747051 0.769375 0.290944
0.928374 0.754696 0.355306
0.93962 0.751354 0.331197
0.938384 0.747677 0.327718
0.0958724 0.915877 0.677867
0.0898909 0.917388 0.668162
0.0855268 0.919707 0.646357
0.0774395 0.928023 0.581415
0.174701 0.962341 0.392615
0.694224 0.93402 0.310475
0.907042 0.914321 0.378546
0.991089 0.901198 0.411948
0.990143 0.899489 0.409888
0.111742 0.942 0.709865
0.107759 0.943145 0.70042
0.104891 0.94493 0.679393
0.0969711 0.952071 0.622095
0.126925 0.974975 0.457984
0.617151 0.960571 0.310704
0.851789 0.932754 0.368582
0.995254 0.923247 0.428687
0.996979 0.924102 0.439506
0.113176 0.941573 0.718349
0.10985 0.942336 0.708629
0.105364 0.94432 0.688319
0.0983597 0.9505 0.632822
0.115358 0.972946 0.469673
0.588388 0.962798 0.301488
0.828244 0.934707 0.360204
0.981064 0.924269 0.417182
0.996658 0.924132 0.438926
0.0649729 0.0577707 0.519554
0.154223 0.0526284 0.513558
0.261585 0.0488136 0.498985
0.374807 0.0502022 0.482811
0.519738 0.0599985 0.478614
0.682597 0.0881819 0.497398
0.744808 0.101503 0.528145
0.744945 0.102022 0.533608
0.747433 0.101228 0.538949
0 0.0628824 0.494774
0.0657054 0.0572671 0.51516
0.223453 0.0494392 0.504128
0.360067 0.0495155 0.482048
0.513375 0.0584115 0.471794
0.677791 0.0863508 0.48806
0.745113 0.100221 0.515862
0.745235 0.100603 0.521004
0.74789 0.0997787 0.526314
0 0.0994125 0.451835
0 0.0708629 0.464424
0.103456 0.0548104 0.512306
0.324697 0.0483101 0.479759
0.500557 0.0567483 0.458244
0.666362 0.083299 0.470024
0.745769 0.0996109 0.489281
0.745876 0.0999161 0.492927
0.748348 0.0989853 0.496986
0 0.325399 0.462501
0 0.317098 0.464393
0 0.298085 0.471031
0.336461 0.284413 0.576226
0.575113 0.289982 0.538857
0.760204 0.264271 0.527977
0.831052 0.227955 0.514229
0.815991 0.199161 0.500298
0.807507 0.181857 0.492729
0 0.555169 0.537377
0 0.553521 0.536324
0 0.550088 0.533394
0.136095 0.559579 0.548333
0.549599 0.547799 0.552316
0.763775 0.540047 0.542885
0.909148 0.535882 0.535912
0.910445 0.523461 0.528878
0.909712 0.517143 0.525093
0.0364691 0.744411 0.639979
0.0335851 0.743938 0.636271
0.0311589 0.742504 0.626398
0.0289616 0.740932 0.596094
0.38175 0.763745 0.554528
0.714122 0.742 0.530175
0.90222 0.731075 0.567926
0.93164 0.735088 0.555032
0.930541 0.731014 0.550866
0.106538 0.893629 0.727184
0.101595 0.894194 0.722347
0.0973983 0.894713 0.712276
0.0888838 0.895567 0.682353
0.144076 0.915724 0.588235
0.604334 0.941024 0.519219
0.875837 0.905348 0.539895
0.971862 0.890455 0.584543
0.970794 0.887526 0.581964
0.134905 0.934783 0.767971
0.130053 0.93576 0.7626
0.124971 0.937346 0.751522
0.117052 0.940703 0.721538
0.118456 0.954742 0.624674
0.520226 0.989929 0.525795
0.816861 0.955474 0.519554
0.986389 0.933455 0.529656
0.994247 0.933242 0.540124
0.13579 0.934417 0.773846
0.132479 0.935073 0.768475
0.127062 0.93666 0.756848
0.118593 0.9402 0.72723
0.111772 0.952682 0.631586
0.465064 0.991775 0.508888
0.783154 0.959686 0.49778
0.962127 0.934569 0.497353
0.99501 0.931319 0.516823
0.164858 0.0675822 0.641398
0.22948 0.065095 0.63856
0.314427 0.0630961 0.631983
0.415549 0.0649119 0.61706
0.52871 0.0758526 0.608957
0.682475 0.100343 0.615686
0.742687 0.113603 0.627863
0.741604 0.114839 0.63621
0.744778 0.113893 0.645335
0.058854 0.0716411 0.634195
0.164141 0.0674144 0.638926
0.280903 0.0634623 0.634913
0.399802 0.064271 0.617807
0.521309 0.0747997 0.60766
0.678508 0.0992905 0.610849
0.743465 0.113039 0.620356
0.743145 0.11339 0.627649
0.746212 0.112276 0.635889
0 0.0731365 0.577783
0 0.0736553 0.607477
0.188052 0.0661173 0.636194
0.363714 0.0628824 0.619532
0.503029 0.0714733 0.602502
0.667536 0.0965133 0.597879
0.742428 0.112444 0.603067
0.742611 0.112902 0.608103
0.745632 0.111757 0.61442
0 0.286152 0.561334
0 0.269169 0.567697
0 0.229999 0.583383
0.30869 0.156069 0.690028
0.533715 0.173556 0.667994
0.701076 0.162997 0.627253
0.759823 0.13228 0.593286
0.750454 0.119402 0.582635
0.751583 0.116503 0.584024
0 0.517266 0.636057
0 0.513771 0.638788
0 0.504646 0.640711
0.0325017 0.520241 0.673548
0.53991 0.496406 0.744152
0.754849 0.498222 0.698482
0.895521 0.483452 0.691646
0.896239 0.469368 0.687022
0.89369 0.461769 0.684825
0.0356451 0.722896 0.698558
0.03299 0.722118 0.698711
0.0317082 0.720073 0.696803
0.0316014 0.713909 0.690562
0.409003 0.714611 0.70341
0.712474 0.703517 0.704875
0.887114 0.701335 0.70071
0.928954 0.697856 0.698528
0.9281 0.693614 0.695705
0.116945 0.870863 0.776135
0.111742 0.870634 0.774289
0.108858 0.869108 0.768887
0.104524 0.865644 0.754345
0.288563 0.87396 0.735576
0.611551 0.886625 0.716381
0.860914 0.874739 0.704738
0.953597 0.869245 0.736171
0.952361 0.865675 0.733349
0.16968 0.932174 0.82591
0.163149 0.932631 0.823499
0.157229 0.932525 0.816892
0.147601 0.932494 0.801602
0.163333 0.938064 0.766339
0.532784 0.970794 0.743542
0.790005 0.972534 0.70898
0.970245 0.953445 0.717891
0.987121 0.954391 0.748928
0.172122 0.932799 0.832319
0.167895 0.932784 0.828977
0.161089 0.932677 0.821698
0.148684 0.93225 0.80473
0.148196 0.936645 0.765621
0.490806 0.969284 0.734081
0.757229 0.97525 0.69836
0.935958 0.95552 0.699306
0.985931 0.953155 0.735759
0.269245 0.0783246 0.736889
0.308522 0.0774701 0.736538
0.372534 0.0774701 0.735317
0.460929 0.080415 0.730236
0.572976 0.0961776 0.728496
0.687831 0.115602 0.725399
0.735195 0.127184 0.736858
0.734447 0.129534 0.744915
0.73817 0.128038 0.753155
0.212192 0.0791943 0.73341
0.266987 0.0779736 0.735409
0.345556 0.0771954 0.735576
0.444251 0.0793774 0.730098
0.563104 0.0941024 0.727153
0.683589 0.114488 0.723522
0.735454 0.126528 0.732219
0.735241 0.127703 0.741451
0.738628 0.127428 0.750607
0.0286564 0.0825055 0.713222
0.144533 0.0804608 0.727535
0.276631 0.0774853 0.733181
0.409293 0.0777905 0.729519
0.542062 0.0901503 0.723384
0.671794 0.112367 0.717876
0.73402 0.126528 0.720699
0.733761 0.127245 0.727626
0.737758 0.125689 0.73695
0 0.206409 0.675685
0 0.180026 0.688167
0 0.120317 0.700923
0.307622 0.0784009 0.732616
0.493004 0.0848402 0.719081
0.649165 0.111742 0.712734
0.736461 0.126009 0.701366
0.737163 0.127108 0.703868
0.741787 0.126131 0.711147
0 0.510811 0.710277
0 0.506233 0.713359
0 0.494514 0.715297
0.00325017 0.497581 0.769467
0.551873 0.437446 0.889113
0.757687 0.44445 0.85008
0.878447 0.43473 0.814267
0.876951 0.418982 0.80676
0.873579 0.409766 0.803967
0 0.690196 0.780392
0 0.687999 0.783612
0 0.682322 0.784939
0 0.668421 0.787045
0.355795 0.695918 0.816403
0.708995 0.669993 0.8607
0.875975 0.672419 0.826764
0.916991 0.66714 0.822309
0.914336 0.662318 0.820645
0.111421 0.851865 0.824537
0.106371 0.851667 0.825284
0.104738 0.849943 0.82359
0.10338 0.845792 0.819333
0.281239 0.848676 0.824994
0.625452 0.845685 0.835447
0.854109 0.842191 0.840925
0.950957 0.84419 0.842512
0.950362 0.84097 0.840574
0.244144 0.93579 0.87599
0.23888 0.935882 0.875837
0.233982 0.935409 0.873152
0.223575 0.934737 0.866819
0.265538 0.933654 0.852079
0.587991 0.942321 0.86392
0.792401 0.952392 0.858091
0.950698 0.950011 0.851575
0.970687 0.943832 0.871168
0.253086 0.937194 0.882109
0.247913 0.937209 0.88127
0.24184 0.936645 0.877455
0.227832 0.935561 0.869276
0.248798 0.93666 0.851606
0.55108 0.950652 0.862303
0.756344 0.967865 0.86392
0.920485 0.965927 0.845289
0.980331 0.966339 0.868528
0.327672 0.0814374 0.762371
0.359365 0.0814832 0.764218
0.411368 0.0825971 0.763806
0.492485 0.0875715 0.761593
0.602594 0.105135 0.761318
0.706722 0.126772 0.759335
0.735195 0.130938 0.756893
0.733974 0.131502 0.755077
0.73666 0.130266 0.759045
0.286809 0.0816205 0.759701
0.327352 0.0813458 0.763622
0.388312 0.0818647 0.764126
0.476295 0.0853742 0.761456
0.593072 0.103243 0.762203
0.702098 0.125673 0.759365
0.735241 0.130938 0.756954
0.735454 0.130816 0.757275
0.737987 0.129641 0.760998
0.176455 0.083299 0.750805
0.246006 0.0819104 0.758862
0.334417 0.0814069 0.763958
0.444587 0.083711 0.762676
0.572885 0.0998093 0.76257
0.690211 0.123125 0.758144
0.735454 0.134874 0.756344
0.735195 0.134081 0.756176
0.738186 0.13138 0.760662
0.0443732 0.156451 0.769741
0.0480354 0.12546 0.76083
0.0853285 0.0857404 0.744808
0.358495 0.0814679 0.764309
0.522011 0.0919356 0.762097
0.664698 0.116884 0.759457
0.741466 0.144213 0.762631
0.742336 0.145556 0.7635
0.745922 0.144076 0.769024
0 0.507607 0.76965
0 0.502586 0.777127
0 0.489143 0.783703
0.113359 0.45626 0.851606
0.576318 0.385916 0.921294
0.765713 0.391913 0.899153
0.858183 0.391959 0.875517
0.853559 0.373587 0.86949
0.849088 0.362829 0.868269
0 0.682124 0.8309
0 0.680766 0.834241
0 0.675868 0.83534
0 0.666316 0.838987
0.345281 0.69398 0.886839
0.738598 0.645808 0.940993
0.881163 0.648539 0.915618
0.908553 0.645563 0.907988
0.906081 0.640864 0.907759
0.139193 0.835798 0.881773
0.137148 0.834699 0.883772
0.139406 0.831601 0.885191
0.141207 0.823301 0.886503
0.319585 0.822049 0.901549
0.609873 0.828305 0.895872
0.856214 0.81825 0.931258
0.941176 0.823575 0.915785
0.9402 0.819608 0.913924
0.261921 0.930907 0.90808
0.254917 0.930358 0.908736
0.24799 0.928542 0.906874
0.236713 0.925414 0.902831
0.275151 0.921096 0.898268
0.588113 0.928512 0.913832
0.80705 0.930526 0.924178
0.941634 0.930297 0.927932
0.96849 0.930907 0.928298
0.296498 0.939757 0.919005
0.292653 0.939742 0.9187
0.289433 0.93962 0.916335
0.28368 0.939391 0.91078
0.312505 0.940932 0.901549
0.582605 0.951751 0.917388
0.790799 0.961303 0.932616
0.912902 0.969894 0.934829
0.976959 0.971786 0.938399
0.343114 0.0814374 0.763027
0.37232 0.0817121 0.764202
0.420462 0.0826734 0.763272
0.500374 0.0886549 0.761578
0.608896 0.106142 0.760906
0.712215 0.127962 0.759365
0.735195 0.130938 0.756893
0.735073 0.130999 0.756725
0.737163 0.130037 0.759716
0.306188 0.081529 0.760632
0.342748 0.0813611 0.764096
0.398199 0.0821393 0.763928
0.484199 0.0863508 0.761501
0.59971 0.104387 0.762112
0.706661 0.126909 0.758816
0.73521 0.130922 0.756939
0.735576 0.130755 0.757458
0.738018 0.129641 0.761013
0.210025 0.0826123 0.75346
0.270085 0.08159 0.760418
0.347997 0.0812848 0.764141
0.452491 0.0839857 0.762295
0.578744 0.100725 0.762524
0.694896 0.124285 0.758267
0.733211 0.131853 0.753902
0.735866 0.134829 0.756924
0.73846 0.131914 0.760937
0.0467536 0.142855 0.765072
0.0497902 0.111086 0.754696
0.138827 0.0840467 0.750484
0.370367 0.0816663 0.764324
0.527749 0.0928054 0.762127
0.666163 0.116136 0.758328
0.737804 0.138933 0.758679
0.742184 0.145068 0.763409
0.745235 0.14316 0.768277
0 0.496391 0.784894
0 0.487266 0.787045
0 0.466392 0.786862
0.121248 0.417853 0.852552
0.567956 0.345174 0.908309
0.753536 0.354253 0.887282
0.845945 0.353964 0.86424
0.839231 0.333257 0.85716
0.834897 0.321691 0.85565
0 0.683192 0.84773
0 0.680842 0.849073
0 0.673289 0.845991
0 0.656992 0.839429
0.341894 0.678981 0.889845
0.740688 0.628611 0.941833
0.87924 0.632334 0.918715
0.904631 0.629313 0.912383
0.902663 0.624994 0.912795
0.208194 0.830884 0.906004
0.203647 0.829114 0.90631
0.199344 0.825498 0.905669
0.186831 0.815854 0.903014
0.317082 0.81239 0.908812
0.59791 0.821103 0.904601
0.863874 0.802884 0.94789
0.93695 0.808927 0.938659
0.935668 0.805188 0.938659
0.279469 0.925002 0.922255
0.274876 0.924102 0.923323
0.271122 0.921859 0.922988
0.265003 0.917113 0.921935
0.309102 0.908873 0.92398
0.598688 0.914672 0.938491
0.795529 0.918791 0.944884
0.941329 0.918425 0.960006
0.961852 0.919921 0.957794
0.307561 0.939498 0.925597
0.304479 0.939757 0.927184
0.30428 0.939773 0.927291
0.304738 0.939757 0.927275
0.335897 0.941772 0.929656
0.57351 0.953094 0.945174
0.780957 0.963363 0.958801
0.917006 0.969512 0.967208
0.974487 0.971801 0.969741
