bundles/resolve-cinematic-luts/Phantom Luts/Ursa G2 Phntm Arri LUTs - V1/Gen4/White Balance Offset (Magenta Boost)/Ursa IceBlue Gen4-Legacy WBO.cube
TITLE "Generated by Resolve"
LUT_3D_SIZE 33
0.033402 0.045716 0.0451057
0.033402 0.045716 0.0450752
0.0384222 0.0457313 0.0461433
0.0473182 0.0460822 0.0472114
0.0590524 0.046952 0.0480201
0.0745098 0.0483711 0.0496376
0.0927901 0.049424 0.0514076
0.115404 0.0502937 0.0545052
0.14519 0.0510719 0.0573587
0.179919 0.0519112 0.0598611
0.218067 0.0529335 0.0624094
0.260639 0.0540932 0.0640726
0.305653 0.0557412 0.066804
0.350545 0.0572366 0.0701457
0.395285 0.0586557 0.0741588
0.43949 0.0602731 0.078996
0.482109 0.0618906 0.0846723
0.519036 0.0644388 0.0915236
0.552819 0.0679484 0.0995804
0.585473 0.0724498 0.108904
0.614816 0.0775616 0.118822
0.637537 0.0821393 0.127565
0.650813 0.0849775 0.132769
0.655772 0.0867628 0.135363
0.657816 0.0885634 0.138186
0.659373 0.090074 0.140383
0.660838 0.0914931 0.14229
0.662287 0.0927138 0.14461
0.663966 0.0938888 0.147448
0.665827 0.0945754 0.151522
0.667643 0.0949416 0.156024
0.669856 0.0943465 0.163134
0.672053 0.0935683 0.17052
0.0334936 0.0456397 0.0448157
0.0334478 0.0456855 0.0449683
0.0343023 0.0457771 0.0452888
0.0433814 0.0467994 0.0474861
0.0551308 0.0482185 0.0483253
0.0704967 0.0499275 0.0500343
0.0893873 0.0509041 0.0513771
0.112673 0.0513008 0.0534218
0.142824 0.0519112 0.0552834
0.178866 0.0525216 0.0569009
0.21799 0.0529946 0.0588235
0.261662 0.0534981 0.0608682
0.30663 0.0541695 0.0619974
0.351247 0.054963 0.0640116
0.396139 0.055787 0.0666361
0.440299 0.0567178 0.0700389
0.482155 0.0580453 0.0751965
0.518288 0.0607462 0.0827344
0.551583 0.0644388 0.0915541
0.583551 0.0689097 0.101091
0.612161 0.0737011 0.11104
0.633982 0.0778515 0.119585
0.646128 0.0799878 0.124041
0.650034 0.0816052 0.126802
0.651865 0.0832227 0.129152
0.653407 0.0846418 0.131395
0.654994 0.0860151 0.133654
0.656504 0.0873121 0.13579
0.658076 0.088304 0.138506
0.659846 0.0888228 0.142428
0.661433 0.0888838 0.146792
0.663767 0.0883192 0.153903
0.665995 0.0875868 0.16112
0.0340276 0.0486915 0.0463569
0.0337987 0.0476387 0.045594
0.0340429 0.0468605 0.0457313
0.0390784 0.0483864 0.0469825
0.0493324 0.0505226 0.0493324
0.0634165 0.0519722 0.0509194
0.082063 0.0532235 0.0526589
0.105043 0.053193 0.053666
0.134554 0.0529488 0.054902
0.17116 0.0532387 0.0559091
0.21091 0.053666 0.0575265
0.25536 0.0539712 0.0590829
0.301045 0.0542 0.0604868
0.346914 0.0547189 0.0619516
0.39234 0.0553597 0.0644846
0.436622 0.0560006 0.0665904
0.47866 0.0571298 0.0702983
0.513726 0.0589303 0.0756237
0.545876 0.0618906 0.0830091
0.57705 0.0658274 0.0917067
0.60647 0.0704509 0.102373
0.628733 0.0743877 0.110918
0.641825 0.0766918 0.115572
0.644968 0.07776 0.118105
0.646601 0.0789807 0.120516
0.647715 0.0799268 0.122011
0.64892 0.0808423 0.123842
0.650065 0.0816205 0.125811
0.651194 0.0821851 0.127932
0.652674 0.0823377 0.131594
0.654185 0.0822919 0.135607
0.656306 0.0815442 0.142458
0.658549 0.0806897 0.149676
0.0368048 0.0572366 0.0537423
0.03682 0.057145 0.0533303
0.0385138 0.0559243 0.0504158
0.041825 0.0552682 0.0499733
0.0502785 0.0567941 0.0523384
0.0621653 0.05832 0.0540169
0.0784924 0.0586862 0.0549477
0.0994125 0.0582895 0.0555581
0.127306 0.0572213 0.0565042
0.162554 0.0559548 0.0563668
0.201968 0.0550393 0.0567178
0.245548 0.0547341 0.0578164
0.292699 0.0550088 0.0593423
0.340139 0.055375 0.0611887
0.386908 0.0559701 0.0637217
0.4327 0.0566415 0.0662089
0.475151 0.0576181 0.069337
0.510887 0.0594339 0.0736706
0.542947 0.0620737 0.0800031
0.573678 0.0656443 0.0877241
0.602899 0.0700389 0.0972152
0.625513 0.0737621 0.105058
0.638361 0.0751354 0.108095
0.64097 0.0756542 0.109178
0.642573 0.0767681 0.111437
0.64387 0.0775311 0.113725
0.644617 0.0779583 0.115099
0.645365 0.0783398 0.116487
0.64625 0.0785687 0.118425
0.647669 0.0785687 0.121981
0.649149 0.0783093 0.126177
0.651347 0.0775158 0.132952
0.65359 0.0766461 0.139925
0.040116 0.0704356 0.0639963
0.0401617 0.0705577 0.0631723
0.040528 0.0693675 0.060914
0.0462348 0.0678416 0.0572213
0.0535286 0.0682994 0.0571908
0.0657206 0.0688792 0.0581064
0.082475 0.0689555 0.0605173
0.102892 0.0683757 0.061326
0.128084 0.0669108 0.0603037
0.161028 0.0651408 0.0606394
0.198962 0.0628824 0.0598764
0.240864 0.0606241 0.0586709
0.286748 0.0587625 0.0582284
0.333761 0.0573281 0.058793
0.380743 0.0569162 0.0617685
0.426902 0.057435 0.065156
0.470695 0.0582895 0.0685435
0.507897 0.0601511 0.0728923
0.540841 0.0629587 0.0788434
0.572168 0.0667735 0.0864881
0.601678 0.0711223 0.0956283
0.625116 0.0751507 0.10341
0.638804 0.0767224 0.106294
0.64094 0.0764782 0.105531
0.64155 0.0768292 0.10634
0.642329 0.0773327 0.107622
0.642618 0.0774395 0.108263
0.642985 0.0774395 0.109224
0.643442 0.0773785 0.11046
0.644358 0.0770428 0.113146
0.645609 0.0766308 0.116793
0.647807 0.0757305 0.123354
0.65008 0.0747997 0.130327
0.0424659 0.0869154 0.0731365
0.0424201 0.0877241 0.0719921
0.0431678 0.0870069 0.0694285
0.0478828 0.0848402 0.0652476
0.0560616 0.0841688 0.0630655
0.0655833 0.085069 0.0628061
0.0841688 0.0850233 0.0627756
0.107424 0.0848554 0.0654307
0.135622 0.0816358 0.0664988
0.169329 0.0785992 0.0662699
0.204578 0.0758068 0.0645914
0.243778 0.0733349 0.0628367
0.288899 0.0706951 0.0621653
0.335958 0.0675059 0.0620432
0.381094 0.064744 0.0617227
0.425361 0.0626383 0.0635996
0.468086 0.0610971 0.066453
0.504723 0.0614328 0.0716259
0.538766 0.0640879 0.0781872
0.570718 0.0678569 0.086244
0.600931 0.0724346 0.0954604
0.625544 0.0766613 0.103929
0.641108 0.0791943 0.108248
0.644388 0.078996 0.107866
0.64448 0.0789502 0.10782
0.644495 0.0789349 0.107897
0.644556 0.0789044 0.108049
0.644678 0.0788434 0.1084
0.644862 0.0787823 0.108934
0.645518 0.0785229 0.110811
0.646448 0.0781415 0.113497
0.648493 0.0772412 0.119539
0.650767 0.0763256 0.126299
0.0433509 0.106401 0.0816205
0.0430457 0.107759 0.0790112
0.0431525 0.10753 0.0764019
0.0459754 0.105715 0.0726787
0.0572519 0.103487 0.0673533
0.0675517 0.104219 0.0663615
0.0814679 0.105028 0.0660716
0.105852 0.104707 0.0660868
0.136065 0.104433 0.0675822
0.173541 0.0992752 0.0694743
0.214466 0.0933242 0.0701305
0.256336 0.0892958 0.0689708
0.298253 0.0869917 0.0674449
0.341848 0.0848554 0.0662242
0.386175 0.0823377 0.0649882
0.431617 0.0790875 0.0669871
0.475502 0.0751965 0.0699931
0.512306 0.0726787 0.073167
0.543297 0.0716564 0.0787366
0.572381 0.0722362 0.0855116
0.600381 0.0745556 0.0949722
0.625895 0.078706 0.104311
0.643183 0.0816358 0.110018
0.648539 0.0821698 0.110475
0.648692 0.0821393 0.11043
0.648707 0.0821393 0.110475
0.648722 0.0821241 0.110536
0.648768 0.0821241 0.110643
0.648844 0.0821546 0.110765
0.64921 0.0820478 0.111742
0.649851 0.0818799 0.113405
0.65127 0.0813916 0.117296
0.652934 0.0809796 0.121401
0.0442969 0.128969 0.0910048
0.0442512 0.131334 0.0865644
0.0446479 0.132036 0.0839704
0.0462806 0.130465 0.0800183
0.0509499 0.127504 0.0745098
0.0679789 0.126818 0.068864
0.0831311 0.128054 0.0686351
0.100511 0.128878 0.0680095
0.130663 0.12784 0.0678874
0.170459 0.127886 0.0682994
0.215869 0.121813 0.0721294
0.264103 0.112169 0.0742809
0.313039 0.106813 0.074464
0.358557 0.10428 0.0744793
0.399512 0.103563 0.0740063
0.44184 0.10251 0.0742657
0.48603 0.100237 0.0748455
0.526421 0.0968948 0.0792554
0.560418 0.0944533 0.0865034
0.589731 0.0930343 0.0933242
0.615747 0.0919356 0.101366
0.63682 0.0916304 0.108507
0.651392 0.0914931 0.113481
0.65594 0.0897993 0.113649
0.653666 0.0870985 0.112184
0.653346 0.0867628 0.112016
0.653361 0.0867628 0.112016
0.653391 0.0867933 0.112016
0.653422 0.0868391 0.111986
0.653773 0.0867628 0.112825
0.654459 0.0866102 0.114473
0.655863 0.0861524 0.118135
0.657893 0.0862135 0.122621
0.0456855 0.156802 0.10219
0.045594 0.15967 0.0970474
0.0466163 0.161624 0.0925917
0.0487831 0.160952 0.0887007
0.0520485 0.158221 0.083711
0.0606241 0.154955 0.0741436
0.0825971 0.155856 0.0688487
0.103258 0.158053 0.06981
0.123262 0.15964 0.0702983
0.162615 0.158236 0.0706035
0.210895 0.158587 0.0704356
0.26424 0.152041 0.0755016
0.319356 0.139376 0.0797131
0.372229 0.132708 0.0821546
0.419852 0.130434 0.0832685
0.463783 0.13048 0.0851301
0.503975 0.132143 0.0864576
0.543618 0.132143 0.088304
0.579492 0.130755 0.0932326
0.611276 0.130495 0.101091
0.640803 0.129717 0.112947
0.663569 0.127794 0.123674
0.676982 0.125414 0.128359
0.681529 0.122103 0.128908
0.677119 0.115633 0.126116
0.673732 0.111116 0.124025
0.671244 0.107866 0.122515
0.669093 0.105119 0.121172
0.667292 0.102831 0.119905
0.66601 0.100694 0.11986
0.665629 0.099321 0.120897
0.66746 0.099382 0.124971
0.673396 0.104448 0.131823
0.0465095 0.188983 0.115084
0.046479 0.191913 0.109789
0.0486915 0.194919 0.10309
0.0514839 0.195453 0.0985122
0.0545968 0.19321 0.0935225
0.0592203 0.189822 0.0869764
0.0771801 0.187747 0.0739757
0.10367 0.190356 0.069337
0.127153 0.193927 0.0712139
0.152132 0.19646 0.0730907
0.199771 0.195087 0.0741741
0.258228 0.196078 0.0736248
0.319478 0.191775 0.0790112
0.379446 0.180575 0.0867628
0.43444 0.171893 0.0925307
0.483848 0.168338 0.0966812
0.528267 0.168093 0.099443
0.567269 0.169848 0.102419
0.60174 0.173037 0.106935
0.634333 0.175647 0.114366
0.664897 0.177401 0.124956
0.689906 0.178805 0.135592
0.706249 0.179004 0.142672
0.714214 0.178546 0.145449
0.709697 0.172183 0.141588
0.707683 0.164981 0.143313
0.704753 0.160006 0.141512
0.702037 0.155856 0.139605
0.700206 0.153384 0.138003
0.700023 0.152667 0.138354
0.701747 0.153521 0.141192
0.70576 0.156909 0.146822
0.711437 0.163027 0.153521
0.0472267 0.225132 0.128695
0.0473182 0.228504 0.123751
0.0493629 0.23125 0.11751
0.0534829 0.232822 0.110933
0.0572976 0.231998 0.105577
0.0619821 0.229374 0.0985275
0.0686809 0.2262 0.0897536
0.0958419 0.225681 0.0751049
0.12697 0.230701 0.0701457
0.155016 0.235477 0.0744945
0.18761 0.239582 0.0778668
0.244617 0.2392 0.0798962
0.313161 0.241016 0.0775464
0.378988 0.238895 0.0816815
0.439307 0.229938 0.0933242
0.495125 0.21854 0.103716
0.544869 0.212024 0.110079
0.590051 0.211246 0.115877
0.62829 0.21326 0.122988
0.660365 0.21767 0.1308
0.689647 0.223758 0.140826
0.715785 0.228519 0.151888
0.734981 0.231632 0.160906
0.746227 0.23418 0.16611
0.743877 0.229221 0.16437
0.741085 0.224201 0.162646
0.738521 0.219715 0.161089
0.736797 0.216648 0.160067
0.735592 0.214618 0.159289
0.73579 0.214359 0.159915
0.737652 0.216129 0.162356
0.74136 0.219974 0.167071
0.747097 0.22681 0.173449
0.0475166 0.267674 0.144808
0.0478218 0.271015 0.139666
0.0500649 0.27393 0.133974
0.0553292 0.275914 0.126757
0.0606851 0.276875 0.120134
0.065568 0.27538 0.113954
0.0724346 0.272465 0.104646
0.0828717 0.269291 0.0912642
0.116976 0.271366 0.0758831
0.155383 0.278874 0.0738231
0.188479 0.285084 0.0795605
0.229145 0.289998 0.0830701
0.294057 0.289174 0.0839399
0.369024 0.29015 0.0812543
0.43592 0.290593 0.0841382
0.497017 0.284703 0.0981765
0.552193 0.275166 0.112535
0.605447 0.263432 0.125887
0.649577 0.26128 0.137453
0.687022 0.263615 0.149523
0.719387 0.267674 0.161456
0.74377 0.275273 0.172274
0.763516 0.28304 0.18201
0.775952 0.287694 0.188144
0.776211 0.285573 0.187747
0.774411 0.281865 0.186587
0.772335 0.278157 0.185092
0.771252 0.275929 0.184466
0.770733 0.274601 0.184344
0.771023 0.274601 0.184955
0.772305 0.276432 0.186404
0.775753 0.280995 0.190234
0.780468 0.287648 0.195361
0.0469673 0.315709 0.162997
0.0476539 0.31928 0.158145
0.0502327 0.321767 0.152468
0.0551919 0.324041 0.146029
0.0612345 0.326528 0.137987
0.0679942 0.326757 0.13106
0.0755016 0.324346 0.122438
0.0851911 0.320943 0.110658
0.103349 0.318654 0.0918593
0.148211 0.323659 0.077409
0.186511 0.331502 0.0781872
0.225864 0.337331 0.0830091
0.27451 0.342123 0.0859693
0.34548 0.340917 0.0876783
0.42443 0.341329 0.0861067
0.492058 0.345281 0.0857404
0.55259 0.341497 0.102678
0.609918 0.334218 0.123461
0.661906 0.325185 0.143816
0.707103 0.316121 0.16405
0.744335 0.31812 0.180606
0.772366 0.322805 0.194491
0.791104 0.329198 0.204669
0.802274 0.335821 0.21004
0.804211 0.337179 0.210422
0.802777 0.334279 0.209277
0.801709 0.332265 0.208423
0.800992 0.330846 0.207874
0.800595 0.330022 0.207599
0.800824 0.330419 0.207919
0.801923 0.332357 0.208942
0.80473 0.336919 0.211887
0.808591 0.343191 0.216098
0.0459907 0.364401 0.183688
0.0461891 0.367941 0.179507
0.0483406 0.370642 0.173861
0.053193 0.372778 0.167102
0.0600137 0.375021 0.159136
0.0681621 0.376974 0.151049
0.0767987 0.376287 0.142535
0.0860914 0.373816 0.132372
0.101366 0.370642 0.117296
0.131228 0.369924 0.0944381
0.177859 0.37557 0.0796826
0.220691 0.3832 0.0795148
0.266239 0.389487 0.0846265
0.322683 0.394553 0.089189
0.39826 0.393744 0.0935531
0.479194 0.393652 0.0935836
0.546044 0.398276 0.0932631
0.606378 0.397955 0.112367
0.663935 0.393179 0.139895
0.71603 0.386969 0.166949
0.762051 0.377768 0.193515
0.794049 0.374701 0.211994
0.81471 0.379324 0.223941
0.826276 0.3841 0.230808
0.828046 0.386328 0.231113
0.827131 0.384298 0.23032
0.826093 0.382422 0.229343
0.825467 0.381125 0.228809
0.825315 0.380758 0.228717
0.825696 0.381628 0.229068
0.827344 0.384726 0.230625
0.829374 0.389258 0.232761
0.833082 0.396109 0.236942
0.0487068 0.414145 0.209644
0.0480049 0.417395 0.205112
0.0490272 0.420432 0.199329
0.0526131 0.422461 0.191974
0.0574044 0.424521 0.184665
0.0646677 0.426307 0.175219
0.0763561 0.428061 0.16434
0.0878004 0.426734 0.15491
0.103853 0.424155 0.142306
0.125139 0.421653 0.122988
0.16199 0.421942 0.0958572
0.21326 0.42858 0.0810712
0.258778 0.436881 0.0828717
0.310872 0.443992 0.0891432
0.372885 0.44889 0.094728
0.450523 0.447562 0.102434
0.53167 0.447074 0.105898
0.598245 0.452415 0.109911
0.658106 0.455787 0.131441
0.715358 0.453483 0.163638
0.767849 0.449775 0.19588
0.808392 0.445319 0.22208
0.833555 0.441718 0.23859
0.847364 0.443198 0.2486
0.849897 0.447425 0.249531
0.849119 0.444495 0.248936
0.848661 0.442344 0.248646
0.848234 0.440879 0.248325
0.848096 0.440421 0.248219
0.84863 0.442374 0.2486
0.84947 0.446448 0.249042
0.851484 0.453605 0.250828
0.854154 0.463798 0.25333
0.0522774 0.464927 0.239338
0.0520943 0.468147 0.234577
0.0526284 0.47097 0.229007
0.0547799 0.473106 0.222477
0.0592813 0.474876 0.215137
0.06598 0.476722 0.205951
0.0771801 0.47924 0.19353
0.0910201 0.480034 0.181094
0.106767 0.478004 0.168704
0.123293 0.475288 0.153918
0.147051 0.472724 0.129473
0.193164 0.474861 0.0966506
0.254261 0.483223 0.0839704
0.301457 0.491569 0.0895552
0.359823 0.498711 0.0983749
0.424186 0.504143 0.105516
0.50132 0.503136 0.117922
0.582208 0.502434 0.125994
0.649409 0.507698 0.136965
0.707088 0.513237 0.159365
0.764111 0.513832 0.193133
0.812207 0.512398 0.225544
0.843122 0.512459 0.246372
0.861082 0.513924 0.258717
0.865461 0.516854 0.26215
0.865171 0.516655 0.261723
0.864759 0.515007 0.261341
0.864637 0.514199 0.26128
0.864668 0.514534 0.261326
0.864958 0.515999 0.261585
0.865995 0.519692 0.262547
0.86714 0.52575 0.263844
0.868788 0.534783 0.265888
0.0562295 0.516442 0.272282
0.0561227 0.519509 0.268391
0.0561379 0.522393 0.264042
0.0560311 0.524269 0.258198
0.0577249 0.526085 0.251484
0.0633555 0.528389 0.242863
0.0726635 0.530129 0.230488
0.0873579 0.532372 0.216205
0.104112 0.531716 0.201236
0.121172 0.529397 0.186267
0.142687 0.526909 0.167391
0.173007 0.525017 0.13724
0.227802 0.528847 0.0984817
0.296223 0.538369 0.0943618
0.349615 0.547097 0.104097
0.411032 0.554818 0.116777
0.475181 0.560204 0.123384
0.551766 0.55906 0.138888
0.631647 0.557198 0.15378
0.698802 0.56286 0.170672
0.756207 0.570047 0.194644
0.809613 0.573861 0.227436
0.847013 0.575494 0.252735
0.868788 0.577813 0.267536
0.87715 0.580713 0.274235
0.877455 0.581704 0.27483
0.877241 0.580697 0.274708
0.877104 0.580362 0.274647
0.877134 0.580652 0.274723
0.87744 0.582345 0.275074
0.877836 0.585519 0.275547
0.878889 0.592111 0.276936
0.879988 0.601251 0.278752
0.0656138 0.567407 0.311559
0.0661784 0.570489 0.308736
0.0667277 0.573358 0.30573
0.0671244 0.575647 0.300801
0.0673075 0.577325 0.294316
0.0685435 0.578729 0.285908
0.0746777 0.580835 0.275425
0.085069 0.58352 0.261067
0.102495 0.586053 0.242008
0.118929 0.584649 0.226276
0.139345 0.582162 0.207324
0.165438 0.57908 0.183001
0.205829 0.579278 0.146273
0.275746 0.585397 0.111177
0.344533 0.595239 0.113283
0.401831 0.604349 0.126726
0.461891 0.611322 0.140337
0.525368 0.616358 0.148928
0.601251 0.615259 0.167803
0.680552 0.613519 0.187961
0.748882 0.619272 0.209613
0.805066 0.62739 0.235325
0.846357 0.633799 0.259724
0.873167 0.637797 0.277562
0.885634 0.64184 0.286381
0.886931 0.643595 0.28867
0.886931 0.643412 0.288823
0.886885 0.643122 0.288975
0.886854 0.64361 0.289128
0.887068 0.64535 0.28957
0.887617 0.64863 0.290425
0.888624 0.655009 0.292027
0.889815 0.663478 0.294041
0.082948 0.619135 0.355322
0.0838788 0.622141 0.353033
0.0848859 0.624979 0.350759
0.0855116 0.62707 0.346319
0.0859388 0.62884 0.341283
0.0863508 0.630381 0.335317
0.0872358 0.631968 0.326513
0.0940108 0.634485 0.313619
0.107408 0.638315 0.296178
0.12491 0.639414 0.274952
0.14229 0.637354 0.255818
0.164996 0.63473 0.232334
0.196109 0.632074 0.202045
0.2495 0.634455 0.157809
0.336339 0.643839 0.134813
0.399359 0.653056 0.14287
0.455772 0.661768 0.157473
0.513497 0.668696 0.170016
0.576028 0.673686 0.182406
0.651286 0.673777 0.20354
0.730663 0.672084 0.227695
0.79942 0.67808 0.253071
0.848035 0.685802 0.277211
0.87863 0.692805 0.295003
0.895338 0.698604 0.30576
0.899382 0.70016 0.310353
0.899779 0.700328 0.311589
0.899718 0.70016 0.311818
0.899855 0.700771 0.312245
0.900145 0.702235 0.312978
0.901381 0.705715 0.314916
0.902693 0.710567 0.317266
0.905013 0.717983 0.321187
0.10901 0.671122 0.39855
0.110689 0.674495 0.397711
0.111925 0.677317 0.396017
0.112932 0.679377 0.393057
0.113481 0.680903 0.389303
0.114031 0.682521 0.384253
0.114855 0.684474 0.377554
0.115862 0.686381 0.368277
0.125597 0.689647 0.353307
0.142214 0.693904 0.332158
0.157656 0.693233 0.311681
0.176379 0.691112 0.288853
0.200732 0.688441 0.261448
0.240269 0.687877 0.224689
0.307988 0.692515 0.177234
0.399359 0.703288 0.170138
0.45864 0.712673 0.18114
0.511391 0.721263 0.196231
0.568002 0.728588 0.208499
0.62974 0.733898 0.223194
0.703731 0.735622 0.246571
0.782345 0.734936 0.274098
0.847318 0.740932 0.300999
0.886015 0.748028 0.321111
0.907668 0.75317 0.334249
0.915892 0.755917 0.341146
0.916533 0.755993 0.343374
0.916442 0.756115 0.343572
0.916381 0.756725 0.343786
0.917144 0.759075 0.345129
0.918639 0.762676 0.347341
0.920089 0.768109 0.35021
0.92253 0.775998 0.354925
0.14432 0.724483 0.443732
0.146349 0.727657 0.443183
0.147982 0.730343 0.442039
0.149081 0.732158 0.439429
0.150118 0.733959 0.436393
0.151156 0.735622 0.432197
0.152148 0.737316 0.426627
0.152773 0.738857 0.418967
0.155016 0.740551 0.40827
0.167834 0.744671 0.391165
0.182849 0.746975 0.369131
0.196735 0.746044 0.348348
0.216495 0.744015 0.322118
0.243809 0.741375 0.290837
0.296422 0.743526 0.245762
0.380987 0.751522 0.20914
0.463966 0.761913 0.211948
0.516793 0.770489 0.223896
0.5664 0.778775 0.239658
0.623148 0.786511 0.252018
0.683833 0.792966 0.269261
0.757565 0.796597 0.294545
0.833814 0.797253 0.324346
0.887205 0.802976 0.348592
0.916899 0.808362 0.364492
0.930083 0.811994 0.373281
0.931777 0.812055 0.376471
0.931792 0.812757 0.377539
0.931914 0.813748 0.378393
0.932418 0.815747 0.379934
0.933165 0.819135 0.381949
0.934661 0.823819 0.384894
0.936584 0.829541 0.388586
0.182055 0.773404 0.487297
0.183749 0.775998 0.486549
0.185382 0.778332 0.485863
0.185992 0.779553 0.483253
0.187015 0.781094 0.480644
0.187778 0.782162 0.476875
0.188434 0.7832 0.471733
0.188922 0.784146 0.46482
0.18938 0.785153 0.45568
0.193881 0.787243 0.443015
0.207446 0.790875 0.422629
0.218708 0.790616 0.402548
0.23299 0.789609 0.379782
0.254078 0.787869 0.35111
0.290654 0.787869 0.313832
0.358679 0.791653 0.263233
0.450813 0.801175 0.244602
0.520867 0.809323 0.251362
0.569192 0.817411 0.264439
0.620157 0.825635 0.279606
0.676875 0.833997 0.293492
0.737819 0.841672 0.314076
0.813321 0.84654 0.342214
0.879225 0.847288 0.370123
0.919371 0.852094 0.389929
0.938857 0.855451 0.400946
0.944106 0.855802 0.405814
0.944045 0.856046 0.407309
0.943771 0.856992 0.408164
0.943358 0.858412 0.409186
0.943664 0.860761 0.410834
0.944427 0.863722 0.412833
0.945388 0.867628 0.415305
0.213962 0.811505 0.526406
0.214893 0.813153 0.52549
0.216007 0.814954 0.524666
0.216846 0.816297 0.522988
0.217411 0.817105 0.520302
0.217853 0.817716 0.516442
0.218082 0.818143 0.511269
0.217975 0.818418 0.504601
0.217945 0.81886 0.496193
0.217914 0.819303 0.485039
0.223392 0.820951 0.468009
0.235035 0.822339 0.447257
0.245731 0.821698 0.427146
0.260884 0.820813 0.402441
0.287419 0.820294 0.369726
0.33669 0.821958 0.324208
0.419715 0.828031 0.282597
0.505928 0.836927 0.276112
0.567636 0.844648 0.28574
0.615 0.852293 0.299641
0.667247 0.860471 0.3131
0.725078 0.868894 0.329732
0.790341 0.876585 0.353155
0.861387 0.88217 0.382483
0.912825 0.882933 0.406027
0.939971 0.886107 0.42092
0.949645 0.886244 0.427115
0.950042 0.886015 0.42887
0.94963 0.886656 0.429816
0.949172 0.887404 0.430854
0.949157 0.888624 0.432013
0.949371 0.890349 0.433417
0.95021 0.892683 0.435386
0.238361 0.838437 0.561013
0.239033 0.83978 0.560159
0.239612 0.841016 0.559075
0.239796 0.841642 0.556817
0.239887 0.842084 0.553872
0.23975 0.842237 0.550011
0.23949 0.842237 0.54493
0.239002 0.842206 0.53846
0.238148 0.841947 0.529793
0.237018 0.841443 0.519036
0.236057 0.840787 0.504326
0.241032 0.840635 0.484016
0.251408 0.841062 0.464637
0.264851 0.841352 0.442786
0.283055 0.841016 0.414923
0.319448 0.842496 0.375586
0.386191 0.845441 0.32401
0.474907 0.852338 0.299138
0.549935 0.860594 0.301671
0.607569 0.867491 0.312657
0.655589 0.873549 0.324926
0.709361 0.881132 0.337514
0.769635 0.888899 0.357153
0.841398 0.896681 0.384878
0.900191 0.900908 0.410758
0.933776 0.900664 0.427924
0.949355 0.902388 0.438941
0.952148 0.902296 0.442344
0.951858 0.902235 0.443442
0.951141 0.902449 0.444175
0.950668 0.902647 0.444709
0.950439 0.902892 0.445106
0.950637 0.903166 0.445441
0.249622 0.849561 0.579644
0.24889 0.849515 0.577173
0.248264 0.84947 0.574548
0.247456 0.849317 0.571252
0.246723 0.849149 0.567742
0.245899 0.848814 0.563302
0.244984 0.848325 0.557671
0.243885 0.847669 0.55053
0.24303 0.846754 0.541863
0.241733 0.846052 0.530694
0.239231 0.84419 0.51603
0.239292 0.842176 0.495689
0.247639 0.842786 0.477287
0.259709 0.844358 0.46009
0.274983 0.845548 0.438422
0.299596 0.846754 0.407568
0.349462 0.848142 0.358846
0.43331 0.852598 0.318364
0.513573 0.85832 0.304402
0.584573 0.866026 0.311299
0.640024 0.872175 0.32369
0.690166 0.878889 0.334035
0.746838 0.886229 0.350057
0.814817 0.894301 0.374609
0.879072 0.899306 0.40119
0.923171 0.900221 0.42237
0.944366 0.903136 0.437003
0.95111 0.903914 0.444007
0.950744 0.904173 0.44567
0.950042 0.904341 0.44622
0.949584 0.904479 0.446448
0.949355 0.904555 0.446387
0.949493 0.90457 0.446097
0.25034 0.850462 0.584985
0.249699 0.850355 0.582361
0.249104 0.850172 0.579812
0.248417 0.850019 0.576349
0.247761 0.849821 0.573098
0.247028 0.849454 0.568704
0.246067 0.84889 0.563058
0.244984 0.848188 0.555886
0.243687 0.847364 0.547066
0.242405 0.846601 0.53608
0.240208 0.845014 0.52163
0.238132 0.84242 0.501411
0.245151 0.842435 0.481071
0.257282 0.844083 0.463569
0.272374 0.845365 0.441993
0.293767 0.846632 0.414603
0.339635 0.847883 0.366903
0.419913 0.851438 0.321706
0.502892 0.857603 0.30576
0.575082 0.864912 0.309895
0.632914 0.87158 0.322087
0.682643 0.878172 0.332708
0.737957 0.88539 0.347646
0.802533 0.892927 0.369894
0.869978 0.898528 0.396933
0.916701 0.899458 0.418845
0.940902 0.902754 0.434607
0.950713 0.904021 0.443427
0.950408 0.904402 0.445319
0.949752 0.904585 0.445533
0.949355 0.904707 0.445457
0.949203 0.904799 0.445106
0.949279 0.904814 0.444648
0.250523 0.850919 0.589075
0.249989 0.850797 0.586633
0.249561 0.850675 0.583886
0.249073 0.850477 0.58085
0.248463 0.850187 0.577234
0.247807 0.849867 0.573022
0.24686 0.849332 0.567407
0.245731 0.8486 0.560449
0.244358 0.8477 0.551339
0.242847 0.846769 0.540261
0.241016 0.845563 0.526223
0.238102 0.842847 0.506416
0.243305 0.842191 0.484474
0.255604 0.843824 0.465965
0.270512 0.845182 0.444694
0.290394 0.846357 0.418143
0.332967 0.847929 0.373693
