bundles/resolve-cinematic-luts/Phantom Luts/A7s3 Phntm Arri LUTs G7/SLog2+Sgamut3cine/IceBlue A7s3-Legacy Sl2sg3c.cube
TITLE "Generated by Resolve"
LUT_3D_SIZE 33
0.0428321 0.0547799 0.0571603
0.0428473 0.0547799 0.057145
0.0428473 0.0547799 0.0571145
0.0429999 0.0547646 0.0569924
0.0492409 0.0543374 0.0580606
0.0666514 0.0537575 0.0578012
0.092195 0.0536202 0.0589609
0.120394 0.0532387 0.0616159
0.155871 0.0534371 0.0654765
0.195895 0.0541085 0.0701457
0.238972 0.0549935 0.0747539
0.285084 0.0557717 0.0786603
0.334173 0.0560616 0.086656
0.384253 0.0570535 0.0961013
0.433921 0.0584115 0.106691
0.482643 0.0603494 0.118593
0.525383 0.0633402 0.131914
0.562631 0.0680247 0.146349
0.598642 0.0751965 0.162997
0.634028 0.0848249 0.182864
0.670466 0.0982376 0.206226
0.707927 0.115892 0.2318
0.745007 0.136858 0.259892
0.773236 0.156802 0.28629
0.792187 0.175204 0.310735
0.811551 0.198138 0.337194
0.833616 0.225681 0.366201
0.854734 0.252369 0.395407
0.875914 0.279408 0.425864
0.895674 0.305348 0.45745
0.911391 0.326589 0.485161
0.921904 0.341009 0.507576
0.928679 0.350545 0.525551
0.0429236 0.0547341 0.0569467
0.0428779 0.0547646 0.0570382
0.0428626 0.0547799 0.0570993
0.0429999 0.0547799 0.0569772
0.0496223 0.0543374 0.0581521
0.0678264 0.0538033 0.0579995
0.0938582 0.0535897 0.0597086
0.123598 0.0532387 0.0623331
0.160128 0.0534981 0.0663005
0.201114 0.0542763 0.0707866
0.245624 0.0551614 0.0756847
0.29247 0.0557107 0.0805676
0.342382 0.0561532 0.0890364
0.392126 0.0572061 0.0985122
0.441733 0.0587167 0.108949
0.489906 0.0607309 0.120745
0.531395 0.0639048 0.133974
0.568643 0.0691234 0.148943
0.60383 0.0764935 0.165255
0.638346 0.0862898 0.185092
0.674769 0.100282 0.208392
0.712108 0.118318 0.234241
0.74902 0.13959 0.261814
0.776089 0.159442 0.287816
0.792874 0.176165 0.311192
0.81268 0.199924 0.337697
0.833997 0.226688 0.36556
0.854307 0.252079 0.393942
0.874601 0.278294 0.422782
0.892912 0.301823 0.452522
0.907774 0.321691 0.47892
0.917906 0.3355 0.500908
0.924437 0.344472 0.51838
0.0429236 0.0547341 0.0569467
0.0428779 0.0547646 0.0570382
0.0428626 0.0547799 0.0570993
0.0429389 0.0547951 0.0569772
0.0475929 0.0546426 0.0578164
0.0629587 0.0540322 0.0574807
0.0875257 0.0537423 0.0588846
0.117678 0.0531319 0.0619669
0.154559 0.0533303 0.0657359
0.196689 0.054139 0.0702678
0.242008 0.0550088 0.0755016
0.291112 0.0555581 0.0806287
0.341848 0.0561227 0.0890516
0.392981 0.0571145 0.0992294
0.443824 0.0587015 0.109819
0.49192 0.0607462 0.121294
0.533028 0.0641642 0.134203
0.569772 0.0693675 0.148836
0.604852 0.0767681 0.165331
0.639368 0.0867781 0.185351
0.675715 0.100923 0.208377
0.71284 0.118837 0.234104
0.749798 0.140307 0.261997
0.776394 0.159884 0.287282
0.792447 0.175875 0.310155
0.812009 0.199405 0.336156
0.832609 0.225238 0.363165
0.852323 0.24976 0.390814
0.871809 0.274769 0.418402
0.889143 0.297017 0.446235
0.902968 0.315206 0.471
0.912963 0.328511 0.49279
0.918532 0.335836 0.508858
0.0428779 0.054963 0.0569314
0.0428626 0.0550088 0.0570382
0.0428931 0.055024 0.0571145
0.0429999 0.0550088 0.0571145
0.0456703 0.0551919 0.0575723
0.0564584 0.0546426 0.0577707
0.0780652 0.0543679 0.0583963
0.107683 0.0536202 0.0612497
0.144961 0.0533303 0.0650187
0.188083 0.0538491 0.0696422
0.234501 0.0547799 0.0743267
0.285054 0.0553292 0.0807507
0.337209 0.0560464 0.0880293
0.38967 0.0570687 0.0979019
0.441794 0.0585946 0.109361
0.491386 0.0606851 0.121202
0.532631 0.06421 0.13373
0.569223 0.0695201 0.147784
0.604425 0.0768902 0.164416
0.638849 0.0868696 0.184131
0.675395 0.101091 0.20734
0.712718 0.119097 0.233204
0.749218 0.140276 0.260761
0.776028 0.159701 0.285863
0.791669 0.175174 0.308507
0.81059 0.19791 0.333776
0.830503 0.222782 0.360098
0.849882 0.246906 0.386892
0.868299 0.270466 0.412909
0.884565 0.291096 0.439338
0.898039 0.308522 0.463157
0.907805 0.321172 0.484764
0.91339 0.328267 0.50103
0.0439918 0.0643626 0.0599069
0.0439918 0.064683 0.0597543
0.0446326 0.0640879 0.059144
0.0469673 0.0632029 0.0588998
0.0519722 0.063859 0.0588846
0.0634775 0.0636454 0.0600595
0.0810101 0.0622263 0.0600595
0.108492 0.059968 0.0602426
0.145663 0.0562905 0.061326
0.191226 0.0550851 0.0659495
0.238422 0.0549477 0.0712291
0.285878 0.0549172 0.075227
0.338033 0.0552682 0.082475
0.39266 0.0572366 0.0927138
0.446433 0.0590219 0.106401
0.494835 0.0610666 0.119631
0.53463 0.0654307 0.130617
0.571511 0.0712596 0.144305
0.606363 0.0790265 0.160327
0.641321 0.089601 0.180652
0.67805 0.104112 0.204623
0.714778 0.121996 0.230701
0.751141 0.143236 0.258137
0.776532 0.161776 0.283101
0.791806 0.176669 0.305745
0.810513 0.199069 0.330694
0.830152 0.223499 0.356985
0.849256 0.247181 0.383597
0.867674 0.270649 0.409659
0.883925 0.291325 0.435706
0.897688 0.309224 0.460029
0.90811 0.32282 0.482841
0.914733 0.331533 0.500786
0.0456245 0.0876173 0.0677501
0.0454261 0.0886091 0.0672923
0.0458991 0.0878309 0.0656291
0.0486915 0.0855879 0.0642863
0.0570687 0.0850538 0.0636301
0.0718853 0.0869306 0.0633249
0.0937972 0.0859846 0.0639353
0.123873 0.0815442 0.0650187
0.157519 0.0757458 0.0647135
0.196841 0.0699321 0.0644999
0.240452 0.0651255 0.0662699
0.289036 0.0600595 0.0674296
0.340383 0.0569772 0.0710918
0.39443 0.0563363 0.080354
0.445945 0.0571145 0.0923018
0.494759 0.0602579 0.107485
0.540261 0.066392 0.126513
0.576593 0.0727245 0.141726
0.610697 0.0803845 0.159182
0.644953 0.0928359 0.176669
0.682094 0.108843 0.200427
0.719036 0.127306 0.227329
0.754467 0.147982 0.255055
0.777493 0.165011 0.279347
0.792386 0.179675 0.301839
0.811032 0.201633 0.327321
0.831312 0.226581 0.354589
0.849805 0.249546 0.380743
0.868757 0.273625 0.407538
0.885359 0.294652 0.434165
0.898863 0.312337 0.458198
0.909087 0.325597 0.481132
0.915877 0.334188 0.499977
0.0440528 0.117891 0.0740368
0.043946 0.119539 0.0737316
0.0443122 0.118303 0.0704204
0.0458381 0.115831 0.0668193
0.0552834 0.114809 0.0659648
0.07393 0.115785 0.0645609
0.0981308 0.115572 0.0628824
0.128893 0.11429 0.0632486
0.173602 0.106111 0.0668193
0.216876 0.0956588 0.0683909
0.255009 0.0888685 0.0669413
0.295827 0.0820172 0.0657359
0.344106 0.0725567 0.0673381
0.393011 0.0648966 0.0693523
0.443976 0.0612345 0.0784924
0.491966 0.0608225 0.0924239
0.530938 0.0627451 0.107942
0.573678 0.0708934 0.130053
0.615839 0.0832227 0.154955
0.649561 0.0940719 0.176532
0.684459 0.108965 0.20032
0.72224 0.130648 0.225559
0.758206 0.152728 0.253529
0.778759 0.168658 0.276265
0.793439 0.183276 0.298512
0.811505 0.204211 0.323964
0.831937 0.229419 0.3514
0.850553 0.252247 0.377874
0.869856 0.276799 0.405264
0.886381 0.297887 0.431235
0.900145 0.315969 0.454444
0.910124 0.329168 0.474739
0.916976 0.338354 0.490303
0.0406348 0.152773 0.0800488
0.040177 0.154986 0.079408
0.0409552 0.15404 0.0754711
0.0425574 0.151064 0.0696422
0.0498665 0.150423 0.0665446
0.0716564 0.151171 0.0658122
0.0968795 0.151339 0.0629587
0.127367 0.149401 0.0617685
0.169604 0.147555 0.0612192
0.225635 0.137057 0.0671092
0.282887 0.120623 0.0730449
0.325948 0.111818 0.0736095
0.364828 0.104753 0.0730297
0.405478 0.0950484 0.0726482
0.449317 0.0834363 0.0751812
0.492195 0.0737621 0.0809491
0.531533 0.0707561 0.0945602
0.5673 0.0716106 0.112398
0.600275 0.0752117 0.132235
0.646189 0.0923323 0.164065
0.690776 0.113832 0.197009
0.725902 0.131991 0.225376
0.758984 0.15108 0.253864
0.779873 0.172168 0.273213
0.794446 0.186816 0.295842
0.812406 0.207324 0.321935
0.832929 0.232624 0.349722
0.851804 0.25568 0.376577
0.871183 0.280476 0.403815
0.887617 0.301579 0.428931
0.901289 0.319738 0.451591
0.911604 0.333257 0.472023
0.918868 0.342947 0.488167
0.0365606 0.192096 0.0878614
0.0359045 0.194446 0.0866865
0.036347 0.194293 0.0818494
0.0381323 0.19205 0.0742809
0.043946 0.190738 0.0662547
0.0617533 0.192248 0.0649424
0.0919966 0.192874 0.0643015
0.121508 0.193286 0.0608988
0.16466 0.190982 0.0596628
0.217655 0.189349 0.0586404
0.283253 0.179461 0.0678721
0.350042 0.161349 0.0807965
0.400961 0.147692 0.085481
0.436683 0.140841 0.0868238
0.473671 0.132265 0.0877394
0.513283 0.11989 0.089189
0.547005 0.105867 0.0942702
0.575647 0.0926986 0.10312
0.605127 0.0879225 0.120562
0.635966 0.0897688 0.143267
0.675258 0.102327 0.172717
0.724208 0.130343 0.211933
0.763195 0.157488 0.248615
0.777676 0.169772 0.269871
0.790951 0.181537 0.293828
0.813169 0.211597 0.316457
0.833875 0.236973 0.344961
0.852872 0.260166 0.372335
0.872404 0.285161 0.39968
0.88922 0.30695 0.424826
0.902647 0.324758 0.446891
0.913146 0.338491 0.467628
0.920409 0.34815 0.483696
0.0331884 0.234195 0.0971542
0.0327611 0.236988 0.0966659
0.0330358 0.237797 0.0913863
0.0346685 0.235767 0.0822309
0.0381476 0.234073 0.0696727
0.0493629 0.235218 0.0629587
0.0755169 0.2383 0.063798
0.113451 0.239902 0.0630045
0.154757 0.241459 0.0587472
0.209384 0.24007 0.0583047
0.272892 0.238621 0.0559396
0.34374 0.231281 0.0694896
0.414862 0.214878 0.090486
0.471809 0.198474 0.102876
0.509667 0.190387 0.107195
0.542901 0.183703 0.108827
0.576577 0.173831 0.11165
0.60618 0.159747 0.116381
0.629602 0.140566 0.124361
0.650111 0.120821 0.135805
0.675837 0.114229 0.15787
0.705074 0.116899 0.183337
0.753063 0.14699 0.224308
0.777584 0.176135 0.257923
0.791043 0.186374 0.284657
0.80911 0.205661 0.31284
0.83006 0.230533 0.343175
0.854215 0.266377 0.365545
0.873625 0.291051 0.392828
0.89102 0.313802 0.41883
0.904494 0.331624 0.441047
0.915007 0.345235 0.461723
0.92253 0.355276 0.477867
0.0316472 0.280705 0.107805
0.0312963 0.284337 0.107851
0.0316472 0.285893 0.103716
0.0334783 0.284459 0.0936141
0.0361486 0.283452 0.0800488
0.0413825 0.282734 0.0665751
0.0571756 0.286549 0.0641031
0.0943618 0.290761 0.0648203
0.144289 0.293553 0.0627604
0.196048 0.295445 0.057435
0.260487 0.294499 0.0581064
0.331991 0.293492 0.0535592
0.401343 0.290013 0.0694438
0.474006 0.276768 0.10071
0.534569 0.261234 0.120974
0.577508 0.249088 0.131456
0.609384 0.242786 0.136568
0.640009 0.234989 0.141634
0.666957 0.221881 0.147646
0.687419 0.203677 0.153674
0.704143 0.179446 0.163012
0.716808 0.149859 0.173114
0.741497 0.145159 0.198672
0.762905 0.160723 0.226444
0.789364 0.193362 0.265171
0.808743 0.212253 0.299489
0.82887 0.233158 0.333547
0.848859 0.256413 0.364034
0.868818 0.280888 0.393622
0.892683 0.321447 0.411505
0.905913 0.338399 0.434226
0.916548 0.352804 0.453925
0.92462 0.363531 0.47068
0.0328222 0.331853 0.121294
0.0328527 0.335103 0.121691
0.0334783 0.337011 0.119265
0.0354314 0.336416 0.110155
0.0376745 0.336187 0.0966354
0.0394751 0.336568 0.0811322
0.0461585 0.336538 0.0693523
0.0715038 0.340978 0.0667735
0.121035 0.345296 0.0661936
0.184009 0.347555 0.0635691
0.243137 0.349859 0.0573892
0.315007 0.350347 0.0609598
0.391302 0.350134 0.0538033
0.458274 0.348898 0.07187
0.530221 0.339757 0.111803
0.592386 0.327581 0.138582
0.640604 0.316747 0.155276
0.672374 0.310719 0.166384
0.701946 0.299931 0.176623
0.728038 0.287694 0.184283
0.74902 0.270039 0.191943
0.762158 0.246815 0.197375
0.773388 0.215641 0.207706
0.770138 0.180987 0.207645
0.774151 0.179385 0.228107
0.800687 0.211887 0.26894
0.829267 0.246357 0.312581
0.849928 0.266575 0.349722
0.869139 0.287449 0.38262
0.886503 0.307301 0.412863
0.900542 0.324559 0.438315
0.913008 0.343023 0.457328
0.923323 0.361379 0.469306
0.0360876 0.38294 0.137697
0.0363165 0.385824 0.138231
0.0365606 0.387839 0.136126
0.0376135 0.388022 0.128542
0.038529 0.388663 0.115785
0.040238 0.389685 0.103029
0.0423896 0.389319 0.0858167
0.0544747 0.390127 0.073167
0.0918288 0.395026 0.0708171
0.15819 0.399069 0.069749
0.232746 0.400885 0.0643931
0.296223 0.4047 0.0604868
0.37023 0.406256 0.068864
0.448341 0.406546 0.0628977
0.514992 0.406409 0.0808423
0.584222 0.401984 0.125216
0.649912 0.392477 0.159258
0.699123 0.383032 0.182391
0.731258 0.377523 0.197528
0.762387 0.365454 0.213565
0.789517 0.353262 0.226123
0.809415 0.33753 0.23473
0.821515 0.316625 0.239918
0.822034 0.284627 0.238666
0.804135 0.2421 0.2318
0.784649 0.200824 0.225528
0.81442 0.235874 0.272587
0.851759 0.286244 0.326253
0.871519 0.304601 0.363317
0.889448 0.32401 0.395346
0.90338 0.33991 0.421897
0.914275 0.352621 0.444907
0.923003 0.363912 0.462882
0.0390936 0.4336 0.157534
0.0393378 0.43679 0.158206
0.0393683 0.43917 0.156756
0.0399939 0.44036 0.150103
0.0417029 0.440314 0.138705
0.0436713 0.441169 0.127123
0.0456245 0.442237 0.114733
0.0500343 0.441978 0.0937972
0.0714885 0.444419 0.0799115
0.124086 0.4495 0.0781262
0.205341 0.452537 0.076585
0.285512 0.455146 0.0704051
0.351186 0.460792 0.0708629
0.426307 0.463416 0.0836194
0.504906 0.46363 0.0804761
0.570062 0.46453 0.0966964
0.63711 0.46302 0.143893
0.703319 0.455604 0.184955
0.755306 0.4477 0.213962
0.791119 0.44271 0.234363
0.81973 0.434455 0.251469
0.846006 0.417853 0.268421
0.863981 0.402884 0.277455
0.870054 0.381872 0.279393
0.856977 0.351293 0.270222
0.840742 0.315572 0.259327
0.822782 0.272267 0.252033
0.823041 0.25713 0.269871
0.861921 0.306981 0.326009
0.889143 0.342245 0.369543
0.905165 0.359091 0.399588
0.916991 0.373404 0.423011
0.925231 0.384634 0.438102
0.0435492 0.485252 0.181277
0.0439765 0.488289 0.182239
0.0443275 0.490959 0.181582
0.0450904 0.492134 0.176318
0.0467079 0.492454 0.16582
0.0488289 0.492912 0.153826
0.051133 0.494072 0.14342
0.0548714 0.495506 0.128298
0.0659648 0.495583 0.104479
0.0999161 0.498299 0.0908217
0.172534 0.504112 0.0903029
0.263218 0.506966 0.0877089
0.345342 0.51165 0.0825666
0.406806 0.51841 0.0868849
0.481544 0.521645 0.103609
0.559121 0.520531 0.106126
0.623438 0.522225 0.124132
0.689265 0.522942 0.171832
0.757504 0.51812 0.218738
0.810697 0.511223 0.252247
0.845838 0.506569 0.274449
0.870787 0.501106 0.290242
0.894392 0.486442 0.306477
0.90753 0.467796 0.315541
0.899886 0.445655 0.309621
0.889296 0.41883 0.300786
0.875944 0.386328 0.290623
0.861479 0.352117 0.28101
0.847013 0.31487 0.276371
0.869856 0.336065 0.316808
0.893339 0.365316 0.353506
0.909865 0.384314 0.382162
0.918166 0.39556 0.397238
0.0524453 0.536233 0.21297
0.0531167 0.539071 0.214282
0.0541543 0.54168 0.21355
0.0554208 0.54284 0.208042
0.0575265 0.543145 0.197711
0.0601511 0.543618 0.185962
0.0634928 0.544564 0.175036
0.0673686 0.545602 0.162646
0.0729534 0.545922 0.141604
0.0903792 0.54728 0.117678
0.14667 0.553552 0.108675
0.236866 0.558923 0.107805
0.332616 0.562478 0.10367
0.409705 0.568109 0.0993057
0.4645 0.576425 0.109651
0.53724 0.579202 0.129763
0.61268 0.577554 0.140368
0.676631 0.579721 0.161212
0.743023 0.581079 0.208408
0.809766 0.577691 0.257603
0.859022 0.572534 0.291173
0.892241 0.568505 0.313344
0.912993 0.565698 0.326574
0.931731 0.555856 0.339239
0.931533 0.537743 0.339986
0.926177 0.514504 0.336721
0.918318 0.48864 0.330404
0.908492 0.459129 0.322606
0.899016 0.432547 0.315587
0.888243 0.403647 0.308476
0.892744 0.400397 0.322148
0.892378 0.392477 0.327291
0.903563 0.407691 0.344488
0.0679637 0.586282 0.24918
0.0689708 0.589029 0.250751
0.0706951 0.591714 0.248859
0.0727092 0.592798 0.242496
0.0750134 0.593118 0.233845
0.0782788 0.594018 0.224308
0.0817731 0.594659 0.213214
0.0857099 0.595224 0.200641
0.0913558 0.596429 0.185657
0.101823 0.596704 0.160906
0.135836 0.601312 0.140307
0.214252 0.609827 0.133196
0.309026 0.614816 0.129351
0.402869 0.61973 0.126101
0.468482 0.626444 0.127794
0.521431 0.634928 0.141909
0.592386 0.637461 0.164126
0.666194 0.635401 0.181399
0.728603 0.636164 0.203861
0.794888 0.637461 0.250095
0.855848 0.634668 0.297032
0.900511 0.631434 0.329564
0.928588 0.628428 0.348928
0.942946 0.626963 0.357397
0.949203 0.619974 0.360891
0.947326 0.606836 0.358999
0.945098 0.588449 0.357229
0.941497 0.565759 0.354482
0.93608 0.537896 0.350927
0.930663 0.515175 0.347112
0.925872 0.497017 0.344228
0.924666 0.486885 0.346181
0.927245 0.486839 0.352499
0.0903334 0.63592 0.286687
0.0920729 0.638651 0.287312
0.0941787 0.641413 0.285389
0.0968643 0.643061 0.280079
0.0996109 0.64387 0.273976
0.103044 0.644785 0.266011
0.106722 0.645319 0.256062
0.111315 0.645563 0.243015
0.116533 0.646296 0.229084
0.124224 0.647715 0.211948
0.142138 0.649104 0.184344
0.199435 0.658717 0.170687
0.291371 0.666926 0.162356
0.386892 0.672526 0.159121
0.47396 0.678309 0.15938
0.527428 0.686397 0.166934
0.576989 0.693812 0.182376
0.646174 0.696025 0.205142
0.718425 0.692912 0.225895
0.780087 0.692332 0.249775
0.842741 0.69337 0.293278
0.89633 0.690562 0.339147
0.932631 0.687739 0.367712
0.953292 0.685084 0.382086
0.957092 0.684138 0.382208
0.955901 0.678401 0.379324
0.955337 0.668559 0.377386
0.955123 0.653925 0.375921
0.955001 0.637247 0.374868
0.953429 0.619043 0.373312
0.952728 0.603449 0.373083
0.953506 0.595743 0.374853
0.955154 0.595407 0.37847
0.12163 0.6869 0.328832
0.123781 0.689769 0.327382
0.126604 0.692805 0.325963
0.129137 0.694301 0.321294
0.132006 0.695232 0.315816
0.13518 0.696117 0.308934
0.138857 0.696712 0.301305
0.143481 0.697154 0.289982
0.149767 0.697978 0.275959
0.156817 0.698634 0.260334
0.166293 0.699519 0.241306
0.198383 0.705242 0.215549
0.2757 0.718166 0.20618
0.371771 0.726238 0.199588
0.461784 0.732036 0.198581
0.539132 0.737591 0.201511
0.583871 0.745357 0.211643
0.63151 0.752453 0.228153
0.698589 0.754559 0.250782
0.769482 0.750988 0.273259
0.829206 0.748562 0.297719
0.88603 0.748562 0.341482
0.929702 0.745434 0.383291
0.956176 0.74226 0.405798
0.964736 0.739818 0.413092
0.963058 0.738613 0.409003
0.961822 0.73434 0.405158
0.960723 0.726162 0.402075
0.960952 0.714946 0.400381
0.96199 0.7028 0.399207
0.962661 0.692866 0.398642
0.963577 0.687907 0.399878
0.964538 0.688426 0.402792
0.160143 0.738399 0.36994
0.163149 0.741573 0.368658
0.16585 0.744045 0.366644
0.167742 0.74519 0.362799
0.170489 0.746014 0.358434
0.173724 0.74699 0.353277
0.177417 0.74815 0.347295
0.181659 0.748791 0.338293
0.186709 0.748913 0.324636
0.19324 0.74902 0.308461
0.200793 0.74931 0.292241
0.217777 0.753063 0.271916
0.268849 0.765484 0.256626
0.358297 0.776303 0.245609
0.448066 0.782605 0.241321
0.53019 0.787701 0.242283
0.596841 0.793072 0.247608
0.637888 0.800214 0.258595
0.683284 0.80705 0.275135
0.749645 0.809064 0.298039
0.819562 0.805508 0.322286
0.874678 0.803525 0.353429
0.924331 0.802243 0.393164
0.958038 0.798383 0.426505
0.972229 0.795117 0.441718
0.972595 0.791226 0.44361
0.971572 0.7906 0.439734
0.970169 0.787961 0.434836
0.968963 0.781903 0.431067
0.968673 0.774945 0.428779
0.968658 0.768109 0.428183
0.968811 0.764828 0.429557
0.969284 0.766094 0.432517
0.199161 0.785321 0.40827
0.201938 0.787991 0.406516
0.204654 0.79028 0.404578
0.206516 0.791562 0.402304
0.208652 0.792126 0.398672
0.211414 0.79292 0.394553
0.214679 0.793835 0.389731
0.218372 0.794415 0.382437
0.223072 0.79472 0.371496
0.229252 0.794736 0.355932
0.237507 0.795056 0.337865
0.251362 0.798993 0.324147
0.279561 0.807279 0.307439
0.344915 0.819272 0.295125
0.433616 0.826932 0.284718
0.516884 0.831617 0.282261
0.593439 0.836164 0.285161
0.648966 0.841459 0.292195
0.686915 0.848539 0.304707
0.731991 0.855253 0.322164
0.799741 0.858335 0.348028
0.866377 0.857191 0.380133
0.914977 0.853422 0.409934
0.955932 0.850614 0.442405
0.980285 0.84535 0.468315
0.983398 0.840604 0.477363
0.983322 0.837369 0.479561
0.982025 0.837659 0.476585
0.980743 0.837049 0.472358
0.979431 0.833799 0.469993
0.978424 0.830625 0.468299
0.978302 0.828489 0.469078
0.97969 0.830304 0.47216
0.236713 0.82594 0.442054
0.238849 0.828016 0.440497
0.241016 0.829923 0.438697
0.242664 0.831052 0.436042
0.244663 0.831922 0.433478
0.247364 0.832624 0.430213
0.250233 0.83328 0.426413
0.253391 0.833646 0.420676
0.25713 0.833875 0.4121
0.262303 0.83415 0.399893
0.271046 0.835279 0.384222
0.286976 0.839689 0.368963
0.307485 0.846189 0.357961
0.347433 0.855665 0.347875
0.419287 0.864164 0.335698
0.500175 0.869001 0.328145
0.575677 0.872053 0.327214
0.643595 0.876326 0.332174
0.693416 0.882933 0.34229
0.732479 0.890135 0.356374
0.779721 0.897307 0.375891
0.849165 0.901488 0.404318
0.907408 0.898955 0.433783
0.948592 0.89366 0.460624
0.981643 0.890852 0.488319
0.995865 0.884428 0.508309
0.996628 0.880034 0.516884
0.996262 0.877928 0.520211
0.995132 0.878431 0.517891
0.99379 0.879896 0.513527
0.992798 0.879408 0.512154
0.99237 0.878859 0.512413
0.993271 0.881163 0.515007
0.26949 0.858946 0.471015
0.271183 0.860609 0.469322
0.27277 0.861921 0.46743
0.274281 0.862928 0.46508
0.275853 0.863676 0.462806
0.278279 0.864286 0.460166
0.280781 0.864744 0.457176
0.283589 0.86511 0.452537
0.2869 0.865507 0.445991
0.291218 0.865705 0.436149
0.300801 0.867796 0.424247
0.315892 0.872114 0.411307
0.338766 0.877836 0.399207
0.369039 0.884978 0.393423
0.414054 0.892271 0.386725
0.481392 0.896971 0.376394
0.55317 0.899977 0.37145
0.622156 0.903304 0.372885
0.6822 0.908751 0.380148
0.731304 0.91606 0.392493
0.774411 0.923476 0.408057
0.826551 0.929854 0.428336
0.889296 0.932769 0.454078
0.939223 0.930114 0.481315
0.973999 0.92578 0.506783
0.996872 0.922469 0.530373
0.998886 0.916335 0.54963
0.998886 0.912902 0.560174
0.998886 0.911772 0.564691
0.998886 0.912779 0.562982
0.998886 0.915541 0.558465
0.998886 0.916426 0.558022
0.998886 0.918853 0.560021
0.29633 0.883085 0.493751
0.297383 0.884016 0.491753
0.298482 0.884962 0.490028
0.299168 0.885481 0.48748
0.299992 0.885924 0.485023
0.301183 0.886305 0.482841
0.303151 0.886793 0.479881
0.305562 0.887312 0.476249
0.308644 0.887694 0.470665
0.314702 0.888716 0.464027
0.32343 0.889952 0.454932
0.336522 0.892088 0.442695
0.361044 0.896696 0.432227
0.392859 0.902327 0.425589
0.423072 0.907103 0.422782
0.468635 0.911376 0.417395
0.531533 0.914168 0.410803
0.597955 0.916518 0.40885
0.6645 0.920623 0.413291
0.720394 0.927138 0.422629
0.7691 0.933944 0.436545
0.816617 0.940261 0.453803
0.867643 0.945113 0.473075
0.921096 0.949538 0.49691
0.962112 0.948058 0.524102
0.99202 0.94696 0.550347
0.998886 0.944076 0.572564
0.998886 0.939879 0.594293
0.998886 0.937453 0.60708
0.998886 0.937087 0.614191
0.998886 0.938964 0.611933
0.998886 0.940963 0.609262
0.998886 0.943267 0.610056
0.312917 0.893645 0.507851
0.312963 0.893782 0.505806
0.313207 0.893996 0.503578
0.313222 0.894041 0.501091
0.313649 0.894118 0.498543
0.314397 0.894163 0.496101
0.315679 0.894316 0.494133
0.319036 0.894942 0.491279
0.324376 0.895445 0.487602
0.330388 0.896132 0.481697
0.338567 0.897398 0.474174
0.354009 0.900053 0.465995
0.379767 0.904616 0.458946
0.408576 0.90901 0.452415
0.438575 0.913069 0.448386
0.46978 0.916487 0.447532
0.516793 0.918837 0.444358
0.577432 0.920821 0.442283
0.642069 0.924224 0.444251
0.705821 0.930205 0.451575
0.756466 0.936416 0.463645
0.807752 0.942245 0.479683
0.856107 0.946471 0.497566
0.899702 0.950683 0.513222
0.94519 0.953872 0.535378
0.981445 0.952407 0.565118
0.998886 0.95465 0.592111
0.998886 0.955428 0.617716
0.998886 0.954665 0.642908
0.998886 0.953902 0.656901
0.998886 0.953857 0.662989
0.998886 0.95523 0.663172
0.998886 0.956374 0.663279
0.329595 0.899367 0.519432
0.330022 0.899641 0.517357
0.330632 0.900038 0.515511
0.330816 0.900191 0.513313
0.331594 0.90042 0.511315
0.332616 0.900587 0.509529
0.333837 0.900603 0.507362
0.33611 0.900816 0.504768
0.340169 0.901106 0.501122
0.348074 0.902525 0.497398
0.362875 0.90544 0.494301
0.381323 0.908721 0.490547
0.402258 0.91194 0.486473
0.426886 0.915038 0.481605
0.45478 0.917967 0.477623
0.484352 0.920562 0.476188
0.518975 0.922576 0.47808
0.566827 0.924849 0.480171
0.62681 0.927626 0.483101
0.691249 0.93196 0.489738
0.749477 0.937896 0.499367
0.799268 0.943313 0.514199
0.849622 0.948257 0.531319
0.891997 0.952392 0.545174
0.928267 0.955886 0.557641
0.962676 0.954589 0.578149
0.994736 0.95584 0.607904
0.998886 0.957961 0.635081
0.998886 0.959609 0.660883
0.998886 0.961318 0.684962
0.998886 0.962524 0.697597
0.998886 0.963272 0.70515
0.998886 0.963516 0.708431
0.35671 0.908537 0.533974
0.3579 0.908629 0.532525
0.359152 0.908766 0.530892
0.359564 0.908705 0.528771
0.360693 0.908843 0.527199
0.36289 0.909178 0.526146
0.365118 0.909529 0.525139
0.367819 0.909743 0.52311
0.373327 0.910384 0.521111
0.383902 0.912123 0.520424
0.39649 0.914 0.519051
0.411337 0.916014 0.517372
0.428519 0.918044 0.515465
0.449409 0.920012 0.513161
0.474434 0.92192 0.510613
0.503487 0.924117 0.509972
0.536934 0.926223 0.512917
0.575525 0.928161 0.520211
0.624125 0.930404 0.526925
0.683864 0.934005 0.533196
0.746456 0.939513 0.541863
