bundles/resolve-cinematic-luts/Phantom Luts/A7s3 Phntm Arri LUTs G7/SLog2+Sgamut3cine/IceBlue A7s3-Legacy Sl2sg3c.cube
TITLE "Generated by Resolve"
LUT_3D_SIZE 5
0.0428321 0.0547799 0.0571603
0.155871 0.0534371 0.0654765
0.525383 0.0633402 0.131914
0.792187 0.175204 0.310735
0.928679 0.350545 0.525551
0.0365606 0.192096 0.0878614
0.16466 0.190982 0.0596628
0.547005 0.105867 0.0942702
0.790951 0.181537 0.293828
0.920409 0.34815 0.483696
0.0679637 0.586282 0.24918
0.0913558 0.596429 0.185657
0.592386 0.637461 0.164126
0.949203 0.619974 0.360891
0.927245 0.486839 0.352499
0.312917 0.893645 0.507851
0.324376 0.895445 0.487602
0.516793 0.918837 0.444358
0.94519 0.953872 0.535378
0.998886 0.956374 0.663279
0.586709 0.941985 0.696483
0.591775 0.940063 0.685512
0.703914 0.949935 0.715068
0.953765 0.971923 0.772595
0.994095 0.977234 0.850629
0.0361181 0.0585489 0.155734
0.156283 0.054139 0.158343
0.533913 0.0575723 0.220142
0.794415 0.164599 0.355795
0.932006 0.34995 0.571221
0.033341 0.18439 0.178531
0.159518 0.186374 0.196735
0.592371 0.0955978 0.181048
0.808652 0.192645 0.341054
0.960952 0.402655 0.587915
0.0687114 0.588037 0.32285
0.0789349 0.600168 0.27068
0.580575 0.636362 0.168536
0.957732 0.595804 0.384268
0.958679 0.479286 0.446265
0.314244 0.896345 0.536202
0.320638 0.897246 0.51751
0.49044 0.919112 0.457557
0.945235 0.953597 0.539513
0.998886 0.956893 0.671977
0.599695 0.939651 0.716869
0.606119 0.942473 0.711116
0.695369 0.949004 0.721431
0.948501 0.971572 0.77377
0.993011 0.977188 0.854978
0.0327764 0.0744488 0.432822
0.166873 0.0568246 0.478798
0.523583 0.0639963 0.473259
0.784894 0.139376 0.50309
0.892363 0.287175 0.647623
0.0136263 0.147692 0.456352
0.0428168 0.105318 0.528389
0.553918 0.0722362 0.51928
0.788876 0.142092 0.495583
0.931716 0.344411 0.681193
0.0863661 0.581247 0.547189
0.0973526 0.596139 0.5635
0.55227 0.592935 0.598016
0.994568 0.506874 0.57023
0.998886 0.486183 0.687999
0.322087 0.899367 0.655619
0.333043 0.903609 0.65185
0.426947 0.921324 0.587152
0.933989 0.957275 0.623453
0.998886 0.95259 0.735149
0.612482 0.945922 0.788251
0.632486 0.946578 0.797223
0.671397 0.949462 0.775296
0.92462 0.970764 0.788235
0.995392 0.976242 0.854185
0.0534829 0.112306 0.618341
0.13547 0.0876326 0.656519
0.432319 0.0806897 0.683619
0.746807 0.156695 0.719676
0.761013 0.177829 0.738354
0.0217899 0.166705 0.611246
0.0312047 0.146899 0.642634
0.433738 0.0936751 0.72784
0.745678 0.160784 0.735241
0.76994 0.192691 0.757
0.0958724 0.565393 0.712169
0.102083 0.569635 0.730129
0.461234 0.590524 0.98146
0.935531 0.432822 0.930892
0.860838 0.324788 0.867506
0.368994 0.898711 0.871641
0.387472 0.904265 0.877791
0.484886 0.934325 0.913893
0.903243 0.932937 0.940566
0.986023 0.926101 0.948272
0.625177 0.977722 0.945449
0.683391 0.970001 0.947387
0.732601 0.973678 0.952087
0.911833 0.978714 0.955108
0.992523 0.98529 0.95848
0.0586862 0.142443 0.681743
0.0985428 0.124971 0.697124
0.417746 0.0978866 0.743404
0.727413 0.153796 0.744274
0.748028 0.175814 0.761212
0.0261692 0.186938 0.65716
0.025391 0.185061 0.666545
0.389075 0.0966049 0.741497
0.734157 0.156039 0.743664
0.750317 0.179675 0.764752
0.116274 0.578866 0.761959
0.121706 0.58555 0.777935
0.374731 0.602457 0.949554
0.95465 0.481926 0.9626
0.759701 0.19028 0.771847
0.361013 0.89247 0.90576
0.381781 0.898497 0.910292
0.51165 0.934264 0.955215
0.882033 0.933303 0.982773
0.981048 0.904952 0.977722
0.601358 0.989868 0.980407
0.67332 0.978256 0.973068
0.737453 0.978775 0.975845
0.907942 0.982498 0.985031
0.993927 0.986252 0.986862
