bundles/resolve-cinematic-luts/Phantom Luts/A7s3 Phntm Arri LUTs G7/SLog2+Sgamut3cine/IceBlue A7s3-Legacy Sl2sg3c.cube
TITLE "Generated by Resolve"
LUT_3D_SIZE 9
0.0428321 0.0547799 0.0571603
0.0492409 0.0543374 0.0580606
0.155871 0.0534371 0.0654765
0.334173 0.0560616 0.086656
0.525383 0.0633402 0.131914
0.670466 0.0982376 0.206226
0.792187 0.175204 0.310735
0.875914 0.279408 0.425864
0.928679 0.350545 0.525551
0.0439918 0.0643626 0.0599069
0.0519722 0.063859 0.0588846
0.145663 0.0562905 0.061326
0.338033 0.0552682 0.082475
0.53463 0.0654307 0.130617
0.67805 0.104112 0.204623
0.791806 0.176669 0.305745
0.867674 0.270649 0.409659
0.914733 0.331533 0.500786
0.0365606 0.192096 0.0878614
0.043946 0.190738 0.0662547
0.16466 0.190982 0.0596628
0.400961 0.147692 0.085481
0.547005 0.105867 0.0942702
0.675258 0.102327 0.172717
0.790951 0.181537 0.293828
0.872404 0.285161 0.39968
0.920409 0.34815 0.483696
0.0360876 0.38294 0.137697
0.038529 0.388663 0.115785
0.0918288 0.395026 0.0708171
0.37023 0.406256 0.068864
0.649912 0.392477 0.159258
0.789517 0.353262 0.226123
0.804135 0.2421 0.2318
0.871519 0.304601 0.363317
0.923003 0.363912 0.462882
0.0679637 0.586282 0.24918
0.0750134 0.593118 0.233845
0.0913558 0.596429 0.185657
0.309026 0.614816 0.129351
0.592386 0.637461 0.164126
0.855848 0.634668 0.297032
0.949203 0.619974 0.360891
0.93608 0.537896 0.350927
0.927245 0.486839 0.352499
0.199161 0.785321 0.40827
0.208652 0.792126 0.398672
0.223072 0.79472 0.371496
0.279561 0.807279 0.307439
0.593439 0.836164 0.285161
0.799741 0.858335 0.348028
0.980285 0.84535 0.468315
0.980743 0.837049 0.472358
0.97969 0.830304 0.47216
0.312917 0.893645 0.507851
0.313649 0.894118 0.498543
0.324376 0.895445 0.487602
0.379767 0.904616 0.458946
0.516793 0.918837 0.444358
0.756466 0.936416 0.463645
0.94519 0.953872 0.535378
0.998886 0.954665 0.642908
0.998886 0.956374 0.663279
0.447974 0.923247 0.587915
0.449317 0.92372 0.580072
0.45922 0.923903 0.577249
0.499763 0.926329 0.581079
0.590158 0.933288 0.595041
0.752209 0.944335 0.63212
0.925231 0.96173 0.675654
0.998886 0.963577 0.725963
0.997665 0.973541 0.820371
0.586709 0.941985 0.696483
0.584894 0.940581 0.689509
0.591775 0.940063 0.685512
0.623545 0.942031 0.690517
0.703914 0.949935 0.715068
0.84506 0.960327 0.742016
0.953765 0.971923 0.772595
0.998886 0.972778 0.813397
0.994095 0.977234 0.850629
0.0416114 0.0545663 0.0645457
0.0491493 0.0543984 0.0643931
0.156039 0.0535897 0.101976
0.334615 0.0529335 0.123659
0.524041 0.0594492 0.160861
0.665766 0.0867628 0.236927
0.796384 0.17174 0.342626
0.881727 0.280735 0.46038
0.932586 0.35346 0.557626
0.0430762 0.0635233 0.0667124
0.0497597 0.0632029 0.0687266
0.179614 0.0548104 0.0763867
0.349081 0.0551919 0.0988785
0.539925 0.0631876 0.148898
0.683223 0.101259 0.226154
0.796811 0.176379 0.331273
0.879423 0.28127 0.445914
0.930709 0.35314 0.544121
0.0362249 0.193683 0.126268
0.0359808 0.19852 0.0922255
0.160418 0.191669 0.0606241
0.402716 0.142611 0.0900893
0.560723 0.0935073 0.108095
0.6963 0.114961 0.200214
0.800839 0.193072 0.308415
0.884993 0.297337 0.428794
0.939132 0.372473 0.528847
0.035935 0.384497 0.169924
0.0363928 0.392508 0.14284
0.0612955 0.396399 0.0762798
0.368658 0.408179 0.0686809
0.656382 0.389349 0.166567
0.794095 0.343023 0.231327
0.795651 0.2177 0.237247
0.886 0.314595 0.398047
0.947234 0.397848 0.509209
0.0677958 0.587335 0.274723
0.072221 0.596139 0.259525
0.087129 0.600229 0.2103
0.278874 0.617594 0.133623
0.592233 0.640543 0.165469
0.864668 0.634607 0.306172
0.950683 0.614969 0.365225
0.933471 0.514397 0.354116
0.931075 0.46331 0.376287
0.200504 0.787457 0.427451
0.208576 0.795483 0.417472
0.22031 0.800137 0.395438
0.26714 0.80766 0.322728
0.583902 0.838834 0.288136
0.800793 0.860914 0.350439
0.981521 0.846159 0.473457
0.980896 0.836637 0.47657
0.980377 0.824018 0.473823
0.313268 0.89546 0.519753
0.31458 0.895705 0.511055
0.319921 0.895445 0.497795
0.369421 0.903807 0.46717
0.508858 0.919112 0.449622
0.755123 0.936522 0.466789
0.945602 0.953765 0.537575
0.998886 0.954665 0.647562
0.998886 0.956786 0.665217
0.453513 0.924987 0.597559
0.458259 0.925521 0.593301
0.4701 0.925444 0.591257
0.502235 0.927001 0.589899
0.591348 0.933883 0.603143
0.751049 0.944686 0.637598
0.925322 0.961929 0.678752
0.998886 0.963668 0.727474
0.997986 0.9738 0.82002
0.596521 0.939651 0.706325
0.595483 0.940185 0.701122
0.59852 0.94107 0.695171
0.62356 0.942336 0.694499
0.702892 0.950042 0.717769
0.843015 0.960128 0.742336
0.952605 0.971847 0.772885
0.998886 0.972686 0.813962
0.993591 0.977127 0.853315
0.0361181 0.0585489 0.155734
0.0679026 0.0556039 0.157504
0.156283 0.054139 0.158343
0.343862 0.052903 0.191333
0.533913 0.0575723 0.220142
0.669841 0.0832685 0.270954
0.794415 0.164599 0.355795
0.882795 0.278508 0.474968
0.932006 0.34995 0.571221
0.0350805 0.0633249 0.144152
0.0356756 0.0601358 0.174853
0.173281 0.0544594 0.178714
0.351919 0.0527352 0.184375
0.541115 0.0577859 0.208087
0.671031 0.0853437 0.252903
0.798978 0.172915 0.352377
0.881163 0.278508 0.464698
0.930419 0.348989 0.561624
0.033341 0.18439 0.178531
0.0327306 0.190249 0.183551
0.159518 0.186374 0.196735
0.415915 0.14081 0.18233
0.592371 0.0955978 0.181048
0.684382 0.100343 0.223972
0.808652 0.192645 0.341054
0.903136 0.315007 0.472923
0.960952 0.402655 0.587915
0.0381933 0.383841 0.235996
0.0378271 0.391928 0.221393
0.0499886 0.389487 0.165087
0.36524 0.407095 0.147982
0.641093 0.373846 0.19881
0.805539 0.305867 0.254536
0.822904 0.242329 0.2981
0.909758 0.347387 0.432898
0.970581 0.435172 0.558007
0.0687114 0.588037 0.32285
0.07187 0.596384 0.310643
0.0789349 0.600168 0.27068
0.178515 0.611933 0.158694
0.580575 0.636362 0.168536
0.871244 0.625238 0.328603
0.957732 0.595804 0.384268
0.941863 0.495277 0.384604
0.958679 0.479286 0.446265
0.199222 0.78677 0.448508
0.207111 0.794553 0.444709
0.215717 0.800336 0.427039
0.247898 0.804456 0.351858
0.552651 0.838788 0.294118
0.798383 0.861601 0.351965
0.982864 0.843015 0.484215
0.983185 0.831754 0.491386
0.983871 0.813336 0.493141
0.314244 0.896345 0.536202
0.315557 0.897429 0.530663
0.320638 0.897246 0.51751
0.347631 0.900603 0.483116
0.49044 0.919112 0.457557
0.749325 0.935988 0.470207
0.945235 0.953597 0.539513
0.998886 0.953994 0.655848
0.998886 0.956893 0.671977
0.458213 0.925368 0.611353
0.460197 0.926894 0.608942
0.475532 0.926299 0.606928
0.491814 0.926848 0.594339
0.582391 0.933516 0.608316
0.743267 0.944442 0.640024
0.923445 0.961685 0.679194
0.998886 0.96347 0.727749
0.997482 0.973617 0.822141
0.599695 0.939651 0.716869
0.593347 0.942458 0.711513
0.606119 0.942473 0.711116
0.62121 0.941787 0.702724
0.695369 0.949004 0.721431
0.835081 0.959518 0.74345
0.948501 0.971572 0.77377
0.998886 0.97258 0.813825
0.993011 0.977188 0.854978
0.0321813 0.0649424 0.286213
0.0636606 0.0585031 0.301564
0.173648 0.0537575 0.304097
0.338674 0.0543221 0.30457
0.542245 0.0595865 0.334356
0.685863 0.0900893 0.362402
0.78468 0.143694 0.388418
0.87509 0.259831 0.504036
0.926894 0.337331 0.59855
0.0261387 0.0695506 0.295277
0.0308843 0.0671244 0.314321
0.159899 0.0544594 0.33727
0.3505 0.0548104 0.322438
0.552514 0.060502 0.339117
0.692973 0.0930037 0.354665
0.78822 0.148302 0.388312
0.873625 0.258427 0.498802
0.924498 0.334005 0.594125
0.0169223 0.176883 0.300587
0.0147707 0.177157 0.32079
0.0888533 0.143801 0.396963
0.393042 0.0918135 0.376959
0.572747 0.065095 0.328145
0.693553 0.0928969 0.319951
0.795163 0.160479 0.374609
0.898116 0.295155 0.506767
0.959747 0.393439 0.623743
0.03682 0.377172 0.346136
0.0366522 0.386603 0.355261
0.0448005 0.384512 0.357839
0.35845 0.393469 0.393271
0.646754 0.349432 0.372534
0.835721 0.286931 0.357458
0.810773 0.194507 0.34464
0.925322 0.346548 0.505302
0.991516 0.46334 0.649332
0.0741894 0.587777 0.41973
0.0776989 0.596796 0.421561
0.0832685 0.600549 0.402274
0.17496 0.605417 0.341299
0.565576 0.624353 0.351904
0.860151 0.600992 0.394186
0.970581 0.548516 0.435325
0.962402 0.477699 0.460182
0.992294 0.486961 0.595972
0.200824 0.783291 0.509544
0.208698 0.791074 0.508965
0.214099 0.796307 0.494102
0.225132 0.799985 0.440528
0.444404 0.83415 0.37174
0.777951 0.85417 0.38761
0.986282 0.832135 0.512428
0.989761 0.813062 0.525475
0.99353 0.782376 0.553643
0.316915 0.898573 0.572702
0.319417 0.900938 0.571557
0.325216 0.901717 0.564019
0.335256 0.901564 0.532631
0.451209 0.916197 0.477562
0.726345 0.934081 0.479225
0.943893 0.953292 0.542031
0.998886 0.952728 0.673152
0.998886 0.957031 0.692302
0.465446 0.926604 0.640131
0.468681 0.927657 0.640772
0.479301 0.92874 0.640314
0.502663 0.928283 0.631006
0.557702 0.931731 0.619165
0.72282 0.943801 0.643427
0.917876 0.960845 0.681208
0.998886 0.962936 0.728878
0.996658 0.973404 0.826032
0.600565 0.942214 0.739574
0.601434 0.943282 0.740337
0.61117 0.94432 0.741482
0.638865 0.94435 0.739406
0.675334 0.947341 0.728389
0.813397 0.958862 0.747906
0.94078 0.971344 0.777325
0.998886 0.972457 0.815732
0.994202 0.976913 0.854902
0.0327764 0.0744488 0.432822
0.0607614 0.0667735 0.455161
0.166873 0.0568246 0.478798
0.337728 0.0531472 0.473243
0.523583 0.0639963 0.473259
0.688396 0.0941024 0.477226
0.784894 0.139376 0.50309
0.841154 0.210559 0.560388
0.892363 0.287175 0.647623
0.0261845 0.0795911 0.44892
0.0333104 0.0769665 0.459083
0.143511 0.0589761 0.50547
0.34136 0.0539559 0.495735
0.532341 0.0657816 0.487037
0.696254 0.0973373 0.483772
0.785229 0.140185 0.508949
0.83714 0.205676 0.561212
0.886488 0.280293 0.649546
0.0136263 0.147692 0.456352
0.0130922 0.143694 0.468971
0.0428168 0.105318 0.528389
0.321187 0.0641489 0.561318
0.553918 0.0722362 0.51928
0.705135 0.0995651 0.474678
0.788876 0.142092 0.495583
0.863478 0.237797 0.573892
0.931716 0.344411 0.681193
0.0212558 0.372366 0.473869
0.0220035 0.378058 0.486275
0.0238499 0.369207 0.512932
0.272999 0.350942 0.632273
0.623178 0.27895 0.617243
0.799359 0.196307 0.525673
0.792294 0.145876 0.46157
0.89099 0.275196 0.575601
0.975723 0.420203 0.707149
0.0863661 0.581247 0.547189
0.0905013 0.590158 0.556481
0.0973526 0.596139 0.5635
0.154238 0.603174 0.577066
0.55227 0.592935 0.598016
0.855344 0.565347 0.589181
0.994568 0.506874 0.57023
0.961852 0.406241 0.56965
0.998886 0.486183 0.687999
0.208164 0.775876 0.619287
0.215763 0.783261 0.622492
0.221149 0.788693 0.619196
0.226993 0.791119 0.592325
0.444541 0.812131 0.561379
0.744823 0.821897 0.579644
0.978851 0.805264 0.61387
0.998306 0.759915 0.612665
0.998886 0.746029 0.670619
0.322087 0.899367 0.655619
0.327901 0.901808 0.657069
0.333043 0.903609 0.65185
0.346639 0.908675 0.632822
0.426947 0.921324 0.587152
0.666255 0.937423 0.595453
0.933989 0.957275 0.623453
0.998886 0.949416 0.713481
0.998886 0.95259 0.735149
0.477089 0.930114 0.691615
0.48423 0.930663 0.697841
0.49723 0.931609 0.700359
0.517098 0.932906 0.69723
0.545739 0.932128 0.672694
0.668696 0.940887 0.657832
0.90248 0.960311 0.693767
0.998886 0.963027 0.731914
0.997223 0.97435 0.835813
0.612482 0.945922 0.788251
0.619516 0.945998 0.792859
0.632486 0.946578 0.797223
0.654307 0.949447 0.799329
0.671397 0.949462 0.775296
0.757473 0.956512 0.762097
0.92462 0.970764 0.788235
0.998886 0.972351 0.821942
0.995392 0.976242 0.854185
0.0388342 0.0897231 0.540185
0.0805829 0.0786755 0.572198
0.166995 0.0669413 0.597543
0.317754 0.0630045 0.606424
0.482597 0.0669566 0.601602
0.663218 0.103609 0.60322
0.77261 0.144869 0.613413
0.783383 0.162112 0.641138
0.817288 0.216617 0.703593
0.0322423 0.0971237 0.548608
0.0395819 0.0935683 0.554101
0.123308 0.0722515 0.597421
0.31075 0.0656291 0.622187
0.483116 0.0682383 0.610361
0.669841 0.107256 0.612879
0.771466 0.146181 0.62269
0.780438 0.162387 0.649271
0.805829 0.207263 0.706004
0.0177462 0.142031 0.552132
0.0172427 0.140688 0.557336
0.0361334 0.112428 0.588983
0.254215 0.072755 0.650965
0.494301 0.0826734 0.656931
0.680766 0.113069 0.625147
0.77438 0.148714 0.627482
0.78761 0.169421 0.65565
0.85536 0.271763 0.757519
0.0284428 0.340749 0.586252
0.028275 0.343648 0.591028
0.0297398 0.33048 0.607797
0.198276 0.305211 0.758282
0.524941 0.228946 0.796872
0.707256 0.146136 0.663966
0.777996 0.152789 0.629725
0.80415 0.188891 0.668055
0.91664 0.356588 0.811261
0.0780194 0.568627 0.637385
0.0808576 0.575265 0.644648
0.0838483 0.57705 0.65539
0.117601 0.582834 0.700221
0.497551 0.587472 0.85388
0.83624 0.525322 0.83888
0.984894 0.44329 0.797864
0.906874 0.315267 0.728573
0.956466 0.409445 0.812284
0.228611 0.764569 0.733547
0.237385 0.772946 0.740902
0.244068 0.7785 0.746822
0.253986 0.783261 0.75314
0.451606 0.811551 0.795483
0.739071 0.787305 0.796277
0.972625 0.76466 0.790173
0.998886 0.709117 0.786862
0.998886 0.69662 0.803128
0.342931 0.899321 0.776043
0.353475 0.90219 0.780453
0.357977 0.904387 0.780148
0.363027 0.908553 0.774838
0.439796 0.927001 0.763958
0.681865 0.936751 0.775952
0.916396 0.950301 0.796384
0.998886 0.942123 0.825635
0.994492 0.937011 0.833753
0.483009 0.943908 0.798321
0.506508 0.940673 0.806226
0.525811 0.940047 0.809171
0.546471 0.942519 0.808331
0.58056 0.942275 0.795331
0.680064 0.95024 0.787961
0.8822 0.96791 0.814939
0.998886 0.971908 0.827893
0.99852 0.977462 0.877302
0.621622 0.957458 0.865797
0.647028 0.952819 0.871504
0.665675 0.952529 0.874235
0.683085 0.957137 0.875654
0.700282 0.959289 0.866911
0.751171 0.959411 0.848051
0.909224 0.972961 0.861509
0.992264 0.976837 0.867933
0.993729 0.978378 0.877943
0.0534829 0.112306 0.618341
0.0703136 0.108248 0.632792
0.13547 0.0876326 0.656519
0.280568 0.0805676 0.685542
0.432319 0.0806897 0.683619
0.604532 0.106111 0.691585
0.746807 0.156695 0.719676
0.758877 0.169955 0.728542
0.761013 0.177829 0.738354
0.0461585 0.118334 0.619455
0.0490272 0.116808 0.621805
0.105165 0.0998856 0.655512
0.270604 0.0823529 0.690639
0.440696 0.084184 0.695247
0.612497 0.109377 0.697551
0.74548 0.157977 0.725521
0.755871 0.170581 0.734508
0.758694 0.17818 0.743404
0.0217899 0.166705 0.611246
0.0213779 0.166262 0.614984
0.0312047 0.146899 0.642634
0.198657 0.0881056 0.693553
0.433738 0.0936751 0.72784
0.642863 0.127169 0.729793
0.745678 0.160784 0.735241
0.759091 0.174395 0.740902
0.76994 0.192691 0.757
0.0374609 0.328481 0.645899
0.0375677 0.331029 0.649805
0.0386358 0.315373 0.664134
0.124239 0.289525 0.757198
0.432486 0.221073 0.835782
0.632929 0.148959 0.758206
0.751156 0.169146 0.743801
0.761013 0.177646 0.745556
0.824628 0.272419 0.828382
0.0958724 0.565393 0.712169
0.0981918 0.571054 0.717617
0.102083 0.569635 0.730129
0.137713 0.563867 0.776257
0.461234 0.590524 0.98146
0.775433 0.520516 0.998978
0.935531 0.432822 0.930892
0.831724 0.271489 0.816129
0.860838 0.324788 0.867506
0.1953 0.740551 0.78262
0.202762 0.747387 0.788128
0.210819 0.751888 0.795987
0.238361 0.761318 0.817411
0.410437 0.813794 0.918944
0.707362 0.787579 0.969329
0.957076 0.739559 0.961532
0.998886 0.680003 0.960815
0.993027 0.650858 0.961044
0.368994 0.898711 0.871641
0.380743 0.901595 0.874495
0.387472 0.904265 0.877791
0.396704 0.908186 0.882719
0.484886 0.934325 0.913893
0.712978 0.941085 0.935409
0.903243 0.932937 0.940566
0.994079 0.922148 0.93492
0.986023 0.926101 0.948272
0.495644 0.965423 0.908766
0.527199 0.96112 0.911406
0.550027 0.961578 0.915389
0.577264 0.964508 0.92015
0.616953 0.965957 0.92253
0.721401 0.96733 0.92575
0.891188 0.976593 0.939834
0.988891 0.983642 0.944808
0.994064 0.984924 0.959243
0.625177 0.977722 0.945449
0.659175 0.971969 0.946624
0.683391 0.970001 0.947387
0.708721 0.972198 0.951095
0.732601 0.973678 0.952087
0.783475 0.972351 0.947158
0.911833 0.978714 0.955108
0.982437 0.985092 0.956497
0.992523 0.98529 0.95848
0.059968 0.135576 0.669963
0.0584726 0.136095 0.669413
0.111406 0.115343 0.692699
0.247379 0.090959 0.717372
0.414405 0.0956436 0.736965
0.562402 0.107118 0.732891
0.733562 0.158373 0.747097
0.744793 0.170504 0.75613
0.74966 0.177905 0.762692
0.0515145 0.138155 0.663905
0.0545205 0.13724 0.666529
0.0840162 0.127092 0.68455
0.23798 0.0909895 0.715877
0.423514 0.0970932 0.740185
0.570809 0.108125 0.73225
0.736339 0.160006 0.747906
0.744793 0.170626 0.756329
0.747753 0.178149 0.764828
0.0250248 0.180606 0.647349
0.0242924 0.181277 0.650034
0.0240635 0.174502 0.663371
0.146258 0.104646 0.704158
0.399634 0.0967422 0.741878
0.629694 0.12694 0.746349
0.738125 0.160922 0.747646
0.748165 0.172137 0.75523
0.752224 0.182071 0.766461
0.0436255 0.335515 0.675074
0.0439918 0.339559 0.67863
0.0450141 0.327657 0.693965
0.0606241 0.293248 0.718059
0.386587 0.230686 0.836301
0.59884 0.154253 0.781003
0.747463 0.173602 0.757977
0.751019 0.174548 0.756298
0.761837 0.193225 0.774044
0.109316 0.567971 0.74992
0.11162 0.573739 0.75462
0.114641 0.572992 0.766629
0.123186 0.5579 0.788663
0.409506 0.589105 0.965988
0.725658 0.53257 0.998978
0.941741 0.455573 0.95021
0.819348 0.264591 0.822736
0.78233 0.220615 0.794202
0.200183 0.742977 0.812253
0.206485 0.749279 0.816388
0.209751 0.751736 0.821103
0.216129 0.752255 0.830533
0.404913 0.807446 0.936233
0.688594 0.795316 0.996933
0.928908 0.742977 0.994659
0.998886 0.67982 0.991119
0.985931 0.63917 0.988479
0.366171 0.892683 0.902098
0.37821 0.896315 0.904707
0.386297 0.899702 0.908919
0.400397 0.904616 0.917342
0.490776 0.933135 0.953857
0.700908 0.943542 0.980835
0.886427 0.929458 0.983948
0.987488 0.910353 0.980789
0.981628 0.903441 0.977111
0.497978 0.973846 0.955642
0.526528 0.97084 0.955581
0.550454 0.972564 0.959777
0.581231 0.977752 0.967681
0.631159 0.981201 0.973693
0.734874 0.983078 0.979232
0.891157 0.983307 0.983688
0.984405 0.984863 0.986206
0.996582 0.983215 0.98352
0.612772 0.988098 0.979202
0.649729 0.980697 0.974289
0.673899 0.978622 0.973449
0.699565 0.980591 0.97615
0.725231 0.982528 0.978927
0.778073 0.982605 0.980377
0.908492 0.982849 0.984024
0.979507 0.986557 0.9897
0.992844 0.986496 0.987411
0.0586862 0.142443 0.681743
0.0573892 0.142763 0.681102
0.0985428 0.124971 0.697124
0.238468 0.0917983 0.718975
0.417746 0.0978866 0.743404
0.564691 0.110689 0.743297
0.727413 0.153796 0.744274
0.743023 0.168292 0.754406
0.748028 0.175814 0.761212
0.0494545 0.145037 0.674937
0.0528725 0.144289 0.678401
0.0749371 0.13521 0.689265
0.230167 0.0918898 0.717342
0.428107 0.0983597 0.743786
0.575402 0.111376 0.741146
0.733715 0.156878 0.745434
0.74342 0.168841 0.754955
0.746303 0.176501 0.763851
0.0261692 0.186938 0.65716
0.0254368 0.188098 0.660014
0.025391 0.185061 0.666545
0.118273 0.114321 0.700023
0.389075 0.0966049 0.741497
0.630106 0.127428 0.746792
0.734157 0.156039 0.743664
0.746487 0.169787 0.753552
0.750317 0.179675 0.764752
0.0475929 0.34876 0.68809
0.0483253 0.355612 0.691463
0.0504311 0.350179 0.708293
0.0477455 0.317021 0.709987
0.375845 0.261906 0.85185
0.609445 0.181125 0.804395
0.747799 0.17438 0.758907
0.748684 0.171496 0.753948
0.755077 0.184176 0.767178
0.116274 0.578866 0.761959
0.117998 0.584436 0.766217
0.121706 0.58555 0.777935
0.1205 0.570672 0.788281
0.374731 0.602457 0.949554
0.70251 0.554604 0.998978
0.95465 0.481926 0.9626
0.840803 0.293324 0.843229
0.759701 0.19028 0.771847
0.208438 0.751431 0.823117
0.215488 0.757748 0.82707
0.218982 0.760296 0.831113
0.219654 0.758251 0.836088
0.401602 0.81178 0.93164
0.681514 0.808591 0.989242
0.915984 0.75935 0.99202
0.997574 0.698741 0.988815
0.982483 0.651896 0.984649
0.361013 0.89247 0.90576
0.372732 0.895293 0.906966
0.381781 0.898497 0.910292
0.399527 0.903655 0.918074
0.51165 0.934264 0.955215
0.719265 0.943557 0.978729
0.882033 0.933303 0.982773
0.986007 0.914107 0.982193
0.981048 0.904952 0.977722
0.509697 0.973922 0.9617
0.534829 0.972412 0.961501
0.563027 0.972961 0.963409
0.605051 0.975708 0.967742
0.667689 0.978088 0.972671
0.750851 0.980163 0.97763
0.887236 0.982925 0.984863
0.979034 0.984726 0.988556
0.996628 0.982666 0.98349
0.601358 0.989868 0.980407
0.645457 0.981018 0.97435
0.67332 0.978256 0.973068
0.705577 0.978592 0.974701
0.737453 0.978775 0.975845
0.791363 0.979355 0.978271
0.907942 0.982498 0.985031
0.974792 0.986969 0.991272
0.993927 0.986252 0.986862
