bundles/resolve-cinematic-luts/Phantom Luts/A7s3 Phntm Arri LUTs G7/SLog2+Sgamut3cine/Jamaica A7s3-Legacy Sl2sg3c.cube
TITLE "Generated by Resolve"
LUT_3D_SIZE 9
0.0339208 0.0442512 0.0336309
0.0501869 0.0440681 0.0337835
0.193408 0.0439155 0.0517281
0.377188 0.0459144 0.0883497
0.571099 0.0518959 0.14786
0.690761 0.100877 0.238483
0.78201 0.182635 0.355154
0.898451 0.287678 0.491905
0.982788 0.386114 0.611292
0.0311742 0.0682231 0.0371252
0.0526131 0.0630198 0.0343023
0.175448 0.0496986 0.0387427
0.36611 0.0458076 0.0707713
0.568689 0.0546426 0.136461
0.689204 0.1037 0.226658
0.776379 0.180072 0.340017
0.877134 0.270237 0.460273
0.955657 0.350134 0.5579
0.0090486 0.222827 0.0631723
0.0285344 0.215961 0.0262455
0.184939 0.20827 0.034287
0.430076 0.156573 0.0841077
0.575891 0.109987 0.0926223
0.670176 0.100969 0.181994
0.772717 0.183108 0.319615
0.882353 0.283116 0.44065
0.961013 0.362432 0.544198
0.0262303 0.446677 0.141939
0.0300603 0.446586 0.108843
0.12343 0.456214 0.0569772
0.405081 0.432135 0.0706035
0.689433 0.402747 0.175814
0.823148 0.35137 0.243961
0.78378 0.247852 0.248356
0.878904 0.298802 0.395666
0.960586 0.367773 0.527901
0.102693 0.683604 0.296178
0.108415 0.684382 0.270268
0.134615 0.688563 0.209049
0.390555 0.699947 0.151919
0.646097 0.668727 0.179873
0.904707 0.646204 0.31783
0.983627 0.618662 0.377401
0.959121 0.506081 0.363928
0.948791 0.431403 0.394598
0.293812 0.89366 0.507607
0.298161 0.893355 0.488701
0.313024 0.894331 0.450507
0.406348 0.921675 0.396979
0.678981 0.90808 0.339879
0.857588 0.886168 0.382055
1 0.861265 0.497154
1 0.845869 0.486503
0.998566 0.789395 0.465522
0.445563 0.998932 0.653483
0.445914 0.998932 0.638773
0.454368 0.998932 0.623774
0.499886 0.998932 0.587823
0.653895 0.998932 0.569757
0.846464 0.998932 0.540093
0.987701 0.998932 0.578607
1 0.982559 0.661646
1 0.980194 0.644663
0.547372 0.998932 0.723781
0.534554 0.998932 0.706111
0.537697 0.998932 0.697063
0.583551 0.998932 0.697139
0.677607 0.998932 0.698894
0.825757 0.998932 0.70277
0.952987 0.998932 0.698833
1 0.992554 0.737911
1 0.990112 0.820233
0.700282 0.998932 0.827314
0.678325 0.998932 0.806134
0.682521 0.998932 0.802655
0.697002 0.998932 0.798733
0.747692 0.998932 0.804944
0.841001 0.998932 0.812009
0.938796 0.998932 0.816571
1 0.990631 0.837705
1 0.989837 0.8766
0.0324712 0.0438239 0.0443427
0.0501717 0.0437629 0.0467079
0.195056 0.0423743 0.098146
0.377798 0.0421607 0.12224
0.56788 0.0475929 0.173541
0.686442 0.0874952 0.25745
0.78526 0.181811 0.373861
0.904997 0.291173 0.511849
0.986969 0.395132 0.632868
0.0330358 0.0643015 0.0552224
0.0463569 0.0623636 0.047364
0.205554 0.0470436 0.0522621
0.376532 0.0464942 0.0840772
0.570672 0.0534371 0.14403
0.690669 0.102205 0.234562
0.780179 0.18201 0.350607
0.891264 0.281743 0.48069
0.971511 0.372488 0.588479
0.012253 0.218616 0.115633
0.00981155 0.221988 0.062623
0.180743 0.207111 0.0345617
0.427573 0.15172 0.0853895
0.583856 0.0958267 0.0991531
0.685969 0.113634 0.202808
0.783093 0.195987 0.325795
0.89659 0.293309 0.464332
0.976928 0.38349 0.578256
0.0251774 0.441718 0.179355
0.0247959 0.447318 0.140566
0.0798352 0.455283 0.0591592
0.403464 0.431388 0.0702373
0.692271 0.396292 0.181201
0.823606 0.341085 0.247929
0.773342 0.225635 0.250126
0.894667 0.30486 0.42884
0.985 0.413764 0.550011
0.0992142 0.679561 0.322393
0.101457 0.683452 0.294499
0.125093 0.687465 0.230625
0.366949 0.705409 0.156954
0.64535 0.668025 0.179522
0.910796 0.642176 0.323995
0.984588 0.60885 0.380682
0.952499 0.478981 0.365789
0.983948 0.465431 0.47013
0.288014 0.891859 0.525521
0.29398 0.893507 0.506554
0.306294 0.895918 0.474464
0.380591 0.91426 0.404822
0.672587 0.911131 0.342382
0.857389 0.886244 0.382116
1 0.858701 0.500969
1 0.839567 0.488762
1 0.756207 0.466819
0.44329 0.998932 0.66424
0.444236 0.998932 0.651072
0.449088 0.998932 0.635401
0.487572 0.998932 0.596597
0.640208 0.998932 0.574472
0.844114 0.998932 0.541619
0.987549 0.998932 0.578653
1 0.981765 0.663737
1 0.978592 0.64303
0.550774 0.998932 0.733104
0.54165 0.998932 0.717983
0.546151 0.998932 0.709941
0.581476 0.998932 0.70425
0.67422 0.998932 0.704463
0.820661 0.998932 0.707561
0.951614 0.998932 0.699916
1 0.992538 0.738109
1 0.991104 0.818769
0.706828 0.998932 0.83563
0.694697 0.998932 0.820829
0.69897 0.998932 0.818875
0.707546 0.998932 0.811841
0.752956 0.998932 0.815732
0.841398 0.998932 0.818921
0.937713 0.998932 0.816526
1 0.990707 0.83743
1 0.990387 0.875608
0.0321508 0.0451209 0.142611
0.0819562 0.044358 0.149248
0.190967 0.0425422 0.173129
0.386191 0.0401923 0.212451
0.579278 0.0445869 0.242664
0.686564 0.0789654 0.291829
0.784497 0.176837 0.390112
0.904646 0.287892 0.527504
0.986236 0.391638 0.645594
0.0302129 0.0575418 0.131029
0.0338445 0.049134 0.161028
0.203082 0.0427253 0.181674
0.382177 0.04065 0.178882
0.572534 0.0448005 0.207401
0.681483 0.0802319 0.26128
0.782712 0.178378 0.374044
0.894163 0.280278 0.502113
0.973449 0.372122 0.609476
0.0198825 0.199832 0.177005
0.0209201 0.200778 0.171756
0.179477 0.201511 0.17348
0.433448 0.143603 0.160876
0.628611 0.0938735 0.181735
0.690715 0.103761 0.232425
0.791943 0.194446 0.361028
0.920134 0.309728 0.512901
1 0.424796 0.649348
0.0302586 0.430457 0.247791
0.0267948 0.43473 0.221241
0.0461585 0.436362 0.144778
0.395163 0.421393 0.126177
0.675547 0.377386 0.202274
0.818753 0.302388 0.262379
0.797543 0.231388 0.302342
0.921599 0.324102 0.474266
1 0.4486 0.619074
0.0972457 0.673091 0.370214
0.0963455 0.67628 0.343893
0.10779 0.681208 0.290578
0.287205 0.707332 0.176074
0.63946 0.662562 0.180117
0.914626 0.629313 0.343236
0.987884 0.583856 0.393805
0.952834 0.452964 0.384115
1 0.481621 0.558495
0.280827 0.887861 0.543221
0.284184 0.889357 0.529213
0.295018 0.893965 0.504189
0.343389 0.901839 0.419181
0.657649 0.915206 0.346532
0.856336 0.885283 0.381689
1 0.852949 0.511803
1 0.830869 0.502144
1 0.732631 0.486839
0.439902 0.998932 0.675547
0.440696 0.998932 0.664683
0.445853 0.998932 0.650278
0.471717 0.998932 0.611109
0.618036 0.998932 0.581231
0.840558 0.998932 0.545357
0.98732 0.998932 0.57882
1 0.980026 0.668971
1 0.97612 0.649485
0.550912 0.998932 0.741833
0.539727 0.998932 0.72607
0.547662 0.998932 0.720439
0.570809 0.998932 0.707897
0.665217 0.998932 0.707088
0.813901 0.998932 0.710689
0.950286 0.998932 0.700587
1 0.992554 0.73756
1 0.991058 0.82002
0.706966 0.998932 0.839429
0.692073 0.998932 0.823194
0.701823 0.998932 0.825132
0.709346 0.998932 0.818173
0.750072 0.998932 0.818173
0.836469 0.998932 0.820157
0.936248 0.998932 0.81738
0.999863 0.990799 0.837537
1 0.990372 0.875624
0.03505 0.0469978 0.270634
0.0863813 0.0430152 0.286519
0.199832 0.04094 0.306966
0.373877 0.040528 0.342229
0.579019 0.0443885 0.383719
0.703426 0.0856947 0.389395
0.77319 0.157961 0.426444
0.890745 0.269749 0.555795
0.982925 0.383551 0.672877
0.0221866 0.0525521 0.274189
0.0326238 0.0487526 0.294606
0.185336 0.0412757 0.328176
0.374609 0.040589 0.340978
0.577615 0.0441901 0.370825
0.700328 0.0835584 0.363973
0.77052 0.156435 0.410468
0.88394 0.264256 0.5346
0.970031 0.362905 0.640421
0.0075227 0.174517 0.28925
0.00708019 0.166537 0.30219
0.135378 0.145052 0.353918
0.417945 0.0962539 0.37409
0.603113 0.0531319 0.327443
0.692195 0.0802014 0.319692
0.776883 0.16585 0.396338
0.916777 0.298299 0.552285
1 0.420325 0.684153
0.0372015 0.397269 0.359915
0.0359197 0.398428 0.355901
0.0502327 0.393973 0.341741
0.386084 0.403006 0.363897
0.66656 0.348302 0.354116
0.857343 0.286 0.365301
0.797574 0.202518 0.359701
0.945037 0.338003 0.535958
1 0.476768 0.698985
0.0968795 0.651621 0.461189
0.0955062 0.655131 0.447623
0.10399 0.660624 0.414801
0.233875 0.68249 0.346334
0.618006 0.638987 0.329458
0.90045 0.603708 0.393957
0.996017 0.535317 0.443595
0.971679 0.438041 0.45597
1 0.490883 0.660624
0.268116 0.87657 0.591104
0.269596 0.878904 0.577386
0.275517 0.884016 0.555749
0.29691 0.892256 0.488319
0.591562 0.939513 0.420554
0.849042 0.879728 0.405737
1 0.838865 0.53959
1 0.805417 0.539254
1 0.684428 0.549645
0.433417 0.998932 0.698543
0.43415 0.998932 0.690929
0.437659 0.998932 0.680705
0.44976 0.998932 0.646296
0.574639 0.998932 0.593744
0.829236 0.998932 0.557214
0.986252 0.998795 0.579171
1 0.975769 0.68098
1 0.968444 0.668574
0.551492 0.998932 0.760922
0.539132 0.998932 0.747143
0.545907 0.998932 0.74168
0.563699 0.998932 0.72636
0.641794 0.998932 0.714717
0.79649 0.998932 0.717418
0.946502 0.998932 0.702586
1 0.99263 0.736004
1 0.990936 0.823255
0.706584 0.998932 0.849409
0.691234 0.998932 0.833844
0.698787 0.998932 0.833936
0.715206 0.998932 0.832807
0.742596 0.998932 0.823667
0.824857 0.998932 0.823865
0.932677 0.998932 0.819852
0.998566 0.990967 0.838102
1 0.989944 0.876493
0.0424506 0.0502632 0.41059
0.090013 0.0440681 0.428672
0.201328 0.0399939 0.454917
0.365087 0.0380865 0.483268
0.5523 0.0482643 0.517571
0.691432 0.0893111 0.508263
0.753384 0.141115 0.52105
0.842634 0.229419 0.609567
0.956252 0.347372 0.719631
0.0237583 0.0551308 0.432685
0.0424506 0.051606 0.435676
0.178653 0.0404059 0.476478
0.358785 0.038117 0.487526
0.552041 0.048127 0.516121
0.6907 0.0872358 0.501991
0.754345 0.140215 0.510155
0.835706 0.221332 0.591501
0.938094 0.323217 0.690059
0.00389105 0.1393 0.434089
0.0040589 0.131044 0.440436
0.0827802 0.0895094 0.502022
0.352651 0.0493019 0.536721
0.574105 0.0530404 0.530053
0.693965 0.0876478 0.491783
0.757229 0.141085 0.496025
0.867613 0.249638 0.607828
0.984665 0.388693 0.732418
0.00628672 0.360571 0.478187
0.0047303 0.357336 0.480491
0.0146944 0.341039 0.501839
0.33167 0.340887 0.558602
0.649607 0.280552 0.588891
0.821454 0.201907 0.516823
0.767269 0.149737 0.449638
0.902663 0.280659 0.596658
1 0.463951 0.763806
0.0965286 0.606119 0.570581
0.0950637 0.607523 0.566308
0.102052 0.608942 0.563241
0.213367 0.619852 0.560006
0.586938 0.59469 0.554543
0.883192 0.559335 0.558602
1 0.492164 0.54789
0.975204 0.384405 0.557214
1 0.545861 0.754818
0.252064 0.84686 0.66743
0.251667 0.849027 0.659312
0.254551 0.854063 0.64921
0.264912 0.86421 0.608698
0.516182 0.897856 0.586404
0.807599 0.835019 0.558923
0.99942 0.810071 0.601083
1 0.738491 0.60238
1 0.646189 0.639841
0.422171 0.998383 0.749905
0.422385 0.998932 0.74313
0.425605 0.998932 0.734035
0.434363 0.998932 0.70988
0.526452 0.998932 0.667643
0.793256 0.998932 0.641642
0.979034 0.994705 0.615747
1 0.965927 0.710002
1 0.948226 0.711208
0.553155 0.998932 0.796307
0.540917 0.998932 0.78439
0.546944 0.998932 0.781109
0.563912 0.998932 0.771801
0.59707 0.998932 0.737972
0.757702 0.998932 0.727413
0.937255 0.998932 0.710338
1 0.99266 0.735271
1 0.989975 0.831403
0.704067 0.998932 0.868589
0.690333 0.998932 0.856474
0.697673 0.998932 0.856519
0.712703 0.998932 0.854704
0.736797 0.998932 0.843473
0.801755 0.998932 0.832029
0.925307 0.998932 0.824643
0.99707 0.990631 0.841031
1 0.989822 0.877089
0.0538186 0.057847 0.536934
0.115328 0.0486915 0.561395
0.210437 0.0428931 0.585046
0.352911 0.0429389 0.597345
0.514092 0.0531014 0.613779
0.659419 0.101656 0.607584
0.731548 0.145052 0.620264
0.747799 0.167391 0.649378
0.868513 0.288167 0.772808
0.0328679 0.0660105 0.554437
0.0548867 0.0599985 0.55227
0.171511 0.0441749 0.588434
0.344106 0.0439612 0.609293
0.509178 0.0520943 0.613062
0.657969 0.100023 0.605951
0.732387 0.143801 0.616068
0.743587 0.161044 0.638712
0.846845 0.264729 0.742565
0.00943008 0.109316 0.55462
0.0106966 0.101045 0.558251
0.0563668 0.0713512 0.58854
0.303639 0.0491493 0.637781
0.521202 0.0636149 0.640879
0.661692 0.102998 0.607431
0.733532 0.145083 0.618647
0.770367 0.188632 0.661295
0.918669 0.334325 0.810422
0.0242161 0.319432 0.599496
0.0215915 0.310979 0.598459
0.0222171 0.29163 0.614069
0.263188 0.266163 0.710689
0.572061 0.208972 0.753567
0.709194 0.143267 0.640101
0.737972 0.147005 0.612406
0.802548 0.215885 0.676188
0.976318 0.406699 0.84773
0.077821 0.555062 0.652186
0.0748608 0.552377 0.649714
0.0742657 0.546151 0.654566
0.139178 0.547036 0.705257
0.540734 0.545815 0.748089
0.872572 0.502998 0.783337
0.998779 0.415061 0.758846
0.894682 0.283986 0.693156
1 0.491051 0.852827
0.23978 0.791775 0.752987
0.2383 0.792859 0.748486
0.23949 0.794705 0.747448
0.244236 0.797467 0.742184
0.48687 0.824414 0.754589
0.769696 0.778012 0.732235
0.988067 0.752468 0.747097
1 0.680919 0.7308
1 0.603861 0.754574
0.406699 0.967834 0.82359
0.406134 0.969131 0.817899
0.407584 0.971954 0.813626
0.412772 0.979797 0.803113
0.512474 0.998932 0.791959
0.735912 0.998932 0.778592
0.945678 0.965423 0.748714
1 0.946227 0.772671
1 0.914488 0.793698
0.540078 0.998932 0.858228
0.532006 0.998932 0.849393
0.541863 0.998932 0.847257
0.564462 0.998932 0.840803
0.601877 0.998932 0.822293
0.718105 0.998932 0.799756
0.918807 0.998932 0.77322
1 0.990295 0.777646
1 0.988922 0.852277
0.70071 0.998932 0.899794
0.691691 0.998932 0.893004
0.700435 0.998932 0.893767
0.715557 0.998932 0.893645
0.739757 0.998932 0.888228
0.764218 0.998932 0.853834
0.906172 0.998932 0.836469
0.992493 0.990448 0.84773
1 0.989807 0.878767
0.0749218 0.0732128 0.606806
0.113176 0.06804 0.621607
0.191592 0.0539864 0.638727
0.326589 0.0556497 0.664744
0.462455 0.0619364 0.664057
0.614771 0.111711 0.672114
0.708415 0.153964 0.702129
0.719982 0.168414 0.710384
0.762753 0.224262 0.759503
0.0548562 0.0833906 0.602625
0.0650645 0.0778363 0.605127
0.154589 0.0605325 0.63267
0.312688 0.0572061 0.666255
0.459495 0.0627604 0.666087
0.612421 0.110399 0.671321
0.708751 0.153323 0.699779
0.718959 0.167163 0.706386
0.743679 0.199924 0.733364
0.0252842 0.124331 0.602502
0.0265965 0.119554 0.601358
0.0586404 0.0964675 0.608774
0.254826 0.0608072 0.660807
0.456458 0.0763409 0.684398
0.625986 0.122011 0.685161
0.708751 0.155245 0.705867
0.721706 0.170321 0.712688
0.803891 0.269505 0.806714
0.0452277 0.295552 0.658671
0.0436255 0.287144 0.656352
0.0505379 0.264836 0.659968
0.210147 0.24004 0.760037
0.478431 0.185122 0.803326
0.623087 0.131106 0.69958
0.712978 0.160281 0.708812
0.723598 0.172259 0.714366
0.887037 0.346578 0.887205
0.109926 0.526848 0.716793
0.108217 0.522789 0.715541
0.11136 0.513359 0.721309
0.16405 0.503258 0.784283
0.488045 0.505104 0.897139
0.809888 0.465049 0.947677
0.919783 0.374945 0.907012
0.766857 0.224338 0.756512
0.956558 0.426993 0.941421
0.227298 0.726085 0.794141
0.225605 0.725505 0.791714
0.228901 0.725567 0.797436
0.240253 0.728145 0.816129
0.418235 0.753918 0.894179
0.729946 0.735912 0.892027
0.978607 0.706447 0.924712
1 0.62536 0.926513
0.999924 0.514748 0.921874
0.395178 0.921431 0.891157
0.393774 0.922393 0.886641
0.39498 0.924041 0.886702
0.397101 0.927321 0.886442
0.460853 0.962753 0.909178
0.709087 0.960372 0.904997
0.910765 0.929931 0.885206
1 0.910277 0.898451
0.9991 0.898482 0.919219
0.507439 0.998932 0.9346
0.502861 0.998932 0.928969
0.512734 0.998932 0.929488
0.536049 0.998932 0.930098
0.582101 0.998932 0.926726
0.722164 0.998932 0.916014
0.883558 0.998932 0.902098
0.997833 0.988434 0.896452
1 0.988388 0.900359
0.685435 0.998932 0.952316
0.675898 0.998932 0.946883
0.689189 0.998932 0.945602
0.710979 0.998932 0.943358
0.74168 0.998932 0.940032
0.770169 0.998932 0.926894
0.867613 0.998932 0.908797
0.982223 0.99086 0.901259
0.999542 0.989624 0.912856
0.0940871 0.0965591 0.627405
0.0988479 0.0955978 0.629267
0.166888 0.0758068 0.646433
0.295399 0.0705577 0.676234
0.43035 0.079469 0.691157
0.560388 0.101442 0.6916
0.699718 0.157641 0.733074
0.708644 0.170779 0.741863
0.716838 0.180728 0.745937
0.074403 0.102602 0.620691
0.0839704 0.0987259 0.623346
0.139086 0.0861372 0.64242
0.280278 0.0699626 0.67303
0.432441 0.0814374 0.69337
0.558984 0.100877 0.690852
0.699718 0.157641 0.733074
0.70811 0.16997 0.741283
0.713542 0.179797 0.74165
0.0421607 0.13933 0.616281
0.0420844 0.137148 0.615763
0.0489357 0.125185 0.622477
0.210758 0.0711986 0.658137
0.415595 0.0848249 0.699519
0.609125 0.125841 0.714565
0.700618 0.158801 0.734127
0.709819 0.172152 0.743267
0.725658 0.19408 0.754284
0.0675059 0.292897 0.678019
0.0660716 0.284016 0.675181
0.0723583 0.26334 0.67454
0.144884 0.231327 0.715938
0.420203 0.181659 0.795575
0.582437 0.135775 0.730907
0.707134 0.16846 0.740505
0.71136 0.174258 0.744976
0.788022 0.268177 0.819623
0.136278 0.514031 0.74934
0.136049 0.508598 0.749813
0.140383 0.497215 0.755825
0.169558 0.473762 0.787762
0.446998 0.495903 0.937682
0.754376 0.46128 0.978759
0.907408 0.383871 0.93872
0.732204 0.203067 0.765347
0.876402 0.352224 0.907912
0.2271 0.702892 0.816312
0.225528 0.700587 0.815534
0.225177 0.697093 0.817533
0.228 0.690318 0.824628
0.388891 0.729442 0.950317
0.69163 0.712749 0.963668
0.949477 0.686992 0.997848
0.988754 0.600259 1
0.962417 0.469917 0.991455
0.386755 0.886763 0.918502
0.385275 0.886397 0.916365
0.387045 0.887175 0.918776
0.391363 0.889021 0.925216
0.443153 0.917006 0.964187
0.673411 0.910674 0.975799
0.890776 0.90483 0.969482
0.994766 0.886915 0.985595
0.993423 0.834714 0.980591
0.489158 0.989151 0.979858
0.486686 0.989517 0.975708
0.493553 0.993851 0.979431
0.512551 0.998932 0.986709
0.553475 0.998932 0.993591
0.694057 0.998932 0.995453
0.877836 0.996597 0.981674
0.983993 0.985138 0.973144
0.995529 0.983261 0.981018
0.651331 0.998932 0.997147
0.644312 0.998932 0.993912
0.659586 0.998932 0.993591
0.684764 0.998932 0.99292
0.719829 0.998932 0.991745
0.755062 0.998932 0.98735
0.875273 0.998932 0.976089
0.968841 0.990585 0.971069
0.996735 0.98793 0.97731
0.0951553 0.108675 0.638071
0.0939651 0.108919 0.637613
0.144045 0.0929885 0.650446
0.272343 0.0727092 0.674632
0.427024 0.0861524 0.700526
0.555016 0.106538 0.705745
0.695521 0.151858 0.728939
0.704952 0.165362 0.738216
0.712779 0.176623 0.74551
0.0773022 0.113069 0.632349
0.0874037 0.11014 0.635203
0.116915 0.102632 0.64445
0.255863 0.07187 0.670405
0.425681 0.0859846 0.700404
0.550881 0.10573 0.70576
0.696178 0.152758 0.729549
0.704845 0.165194 0.738079
0.711162 0.175448 0.743542
0.050309 0.147723 0.628
0.0500496 0.145815 0.627985
0.050721 0.142306 0.630152
0.163561 0.0842908 0.652613
0.38822 0.0819715 0.696651
0.598001 0.121706 0.712566
0.695247 0.151431 0.728817
0.705806 0.166339 0.739391
0.7149 0.179614 0.7476
0.0793927 0.297017 0.68719
0.0779736 0.291752 0.685039
0.0847639 0.280781 0.688457
0.0811475 0.242634 0.677668
0.379294 0.19762 0.801083
0.563226 0.143267 0.74461
0.707485 0.169024 0.740612
0.706935 0.16791 0.740642
0.718608 0.18468 0.751339
0.150561 0.514046 0.765637
0.149752 0.508888 0.765301
0.153368 0.500786 0.770718
0.150698 0.475044 0.770138
0.368063 0.496208 0.923522
0.68867 0.472572 0.970703
0.927504 0.408865 0.95906
0.739773 0.212863 0.772595
0.75346 0.229755 0.785504
0.233677 0.70219 0.831327
0.232013 0.699718 0.830594
0.232105 0.697124 0.833066
0.22858 0.685435 0.834287
0.354528 0.722255 0.942657
0.658534 0.715785 0.964675
0.918166 0.696345 0.993225
0.988357 0.615702 1
0.954223 0.450675 0.984253
0.365316 0.864408 0.913451
0.363363 0.863218 0.911788
0.365743 0.863951 0.913832
0.376898 0.867185 0.923125
0.419257 0.895186 0.962921
0.645487 0.90193 0.984161
0.869123 0.895964 0.97995
0.988022 0.878752 0.995743
0.987381 0.816175 0.997696
0.484642 0.972961 0.993713
0.483268 0.972763 0.991531
0.488426 0.976806 0.995438
0.508873 0.986786 1
0.568673 0.996689 1
0.677501 0.997162 1
0.855512 0.986374 1
0.978027 0.980407 0.991943
0.994522 0.972778 0.994949
0.624247 0.998932 1
0.619257 0.998932 1
0.634058 0.998932 1
0.658122 0.998932 1
0.696178 0.998932 1
0.734371 0.998932 1
0.857694 0.996262 1
0.967453 0.990127 0.992386
0.995499 0.98851 0.994858
