bundles/resolve-cinematic-luts/Phantom Luts/A7s3 Phntm Arri LUTs G7/SLog2+Sgamut3cine/Jamaica A7s3-Legacy Sl2sg3c.cube
TITLE "Generated by Resolve"
LUT_3D_SIZE 5
0.0339208 0.0442512 0.0336309
0.193408 0.0439155 0.0517281
0.571099 0.0518959 0.14786
0.78201 0.182635 0.355154
0.982788 0.386114 0.611292
0.0090486 0.222827 0.0631723
0.184939 0.20827 0.034287
0.575891 0.109987 0.0926223
0.772717 0.183108 0.319615
0.961013 0.362432 0.544198
0.102693 0.683604 0.296178
0.134615 0.688563 0.209049
0.646097 0.668727 0.179873
0.983627 0.618662 0.377401
0.948791 0.431403 0.394598
0.445563 0.998932 0.653483
0.454368 0.998932 0.623774
0.653895 0.998932 0.569757
0.987701 0.998932 0.578607
1 0.980194 0.644663
0.700282 0.998932 0.827314
0.682521 0.998932 0.802655
0.747692 0.998932 0.804944
0.938796 0.998932 0.816571
1 0.989837 0.8766
0.0321508 0.0451209 0.142611
0.190967 0.0425422 0.173129
0.579278 0.0445869 0.242664
0.784497 0.176837 0.390112
0.986236 0.391638 0.645594
0.0198825 0.199832 0.177005
0.179477 0.201511 0.17348
0.628611 0.0938735 0.181735
0.791943 0.194446 0.361028
1 0.424796 0.649348
0.0972457 0.673091 0.370214
0.10779 0.681208 0.290578
0.63946 0.662562 0.180117
0.987884 0.583856 0.393805
1 0.481621 0.558495
0.439902 0.998932 0.675547
0.445853 0.998932 0.650278
0.618036 0.998932 0.581231
0.98732 0.998932 0.57882
1 0.97612 0.649485
0.706966 0.998932 0.839429
0.701823 0.998932 0.825132
0.750072 0.998932 0.818173
0.936248 0.998932 0.81738
1 0.990372 0.875624
0.0424506 0.0502632 0.41059
0.201328 0.0399939 0.454917
0.5523 0.0482643 0.517571
0.753384 0.141115 0.52105
0.956252 0.347372 0.719631
0.00389105 0.1393 0.434089
0.0827802 0.0895094 0.502022
0.574105 0.0530404 0.530053
0.757229 0.141085 0.496025
0.984665 0.388693 0.732418
0.0965286 0.606119 0.570581
0.102052 0.608942 0.563241
0.586938 0.59469 0.554543
1 0.492164 0.54789
1 0.545861 0.754818
0.422171 0.998383 0.749905
0.425605 0.998932 0.734035
0.526452 0.998932 0.667643
0.979034 0.994705 0.615747
1 0.948226 0.711208
0.704067 0.998932 0.868589
0.697673 0.998932 0.856519
0.736797 0.998932 0.843473
0.925307 0.998932 0.824643
1 0.989822 0.877089
0.0749218 0.0732128 0.606806
0.191592 0.0539864 0.638727
0.462455 0.0619364 0.664057
0.708415 0.153964 0.702129
0.762753 0.224262 0.759503
0.0252842 0.124331 0.602502
0.0586404 0.0964675 0.608774
0.456458 0.0763409 0.684398
0.708751 0.155245 0.705867
0.803891 0.269505 0.806714
0.109926 0.526848 0.716793
0.11136 0.513359 0.721309
0.488045 0.505104 0.897139
0.919783 0.374945 0.907012
0.956558 0.426993 0.941421
0.395178 0.921431 0.891157
0.39498 0.924041 0.886702
0.460853 0.962753 0.909178
0.910765 0.929931 0.885206
0.9991 0.898482 0.919219
0.685435 0.998932 0.952316
0.689189 0.998932 0.945602
0.74168 0.998932 0.940032
0.867613 0.998932 0.908797
0.999542 0.989624 0.912856
0.0951553 0.108675 0.638071
0.144045 0.0929885 0.650446
0.427024 0.0861524 0.700526
0.695521 0.151858 0.728939
0.712779 0.176623 0.74551
0.050309 0.147723 0.628
0.050721 0.142306 0.630152
0.38822 0.0819715 0.696651
0.695247 0.151431 0.728817
0.7149 0.179614 0.7476
0.150561 0.514046 0.765637
0.153368 0.500786 0.770718
0.368063 0.496208 0.923522
0.927504 0.408865 0.95906
0.75346 0.229755 0.785504
0.365316 0.864408 0.913451
0.365743 0.863951 0.913832
0.419257 0.895186 0.962921
0.869123 0.895964 0.97995
0.987381 0.816175 0.997696
0.624247 0.998932 1
0.634058 0.998932 1
0.696178 0.998932 1
0.857694 0.996262 1
0.995499 0.98851 0.994858
