bundles/resolve-cinematic-luts/Phantom Luts/A7s3 Phntm Arri LUTs G7/SLog2+Sgamut3cine/Jamaica A7s3-Legacy Sl2sg3c.cube
TITLE "Generated by Resolve"
LUT_3D_SIZE 33
0.0339208 0.0442512 0.0336309
0.0339208 0.0442512 0.0336309
0.0339208 0.0442512 0.0336309
0.0341344 0.0443122 0.0335851
0.0501869 0.0440681 0.0337835
0.0839857 0.044007 0.0357061
0.118883 0.0434882 0.0395514
0.154299 0.0432898 0.0449378
0.193408 0.0439155 0.0517281
0.234638 0.0445869 0.0587015
0.27924 0.0457923 0.0648203
0.327276 0.0457923 0.0756237
0.377188 0.0459144 0.0883497
0.428351 0.0463722 0.101717
0.480095 0.047303 0.116442
0.52813 0.0489509 0.13138
0.571099 0.0518959 0.14786
0.609476 0.0573739 0.165789
0.641627 0.0660868 0.186587
0.667292 0.0795758 0.210758
0.690761 0.100877 0.238483
0.715007 0.124804 0.267842
0.743206 0.148379 0.300969
0.763378 0.165667 0.328359
0.78201 0.182635 0.355154
0.808438 0.207538 0.387152
0.837583 0.233738 0.420783
0.866407 0.258793 0.45507
0.898451 0.287678 0.491905
0.928222 0.316655 0.527672
0.952514 0.343679 0.560449
0.971695 0.368994 0.590341
0.982788 0.386114 0.611292
0.0339208 0.0442817 0.0336156
0.0339208 0.0442664 0.0336309
0.0339208 0.0442512 0.0336309
0.0340887 0.0443122 0.0335851
0.0479438 0.0442664 0.0338293
0.0796521 0.0441749 0.0352178
0.115038 0.043595 0.0387121
0.151125 0.0433051 0.0443275
0.190463 0.0439155 0.0509804
0.23238 0.0445869 0.0580606
0.277913 0.0456855 0.0650034
0.326024 0.0458534 0.0750896
0.376455 0.0459602 0.0878462
0.429145 0.0463569 0.1019
0.480568 0.0473335 0.116594
0.528557 0.0489967 0.131502
0.571511 0.0519417 0.148028
0.609583 0.057435 0.165682
0.641428 0.0661173 0.186175
0.666789 0.0794232 0.209735
0.689708 0.100221 0.236179
0.713649 0.123949 0.265278
0.741802 0.14789 0.297658
0.761959 0.165026 0.324529
0.779461 0.180667 0.3505
0.804501 0.204471 0.380758
0.832105 0.229435 0.412589
0.859617 0.25333 0.445396
0.889418 0.279957 0.47924
0.917479 0.306294 0.512474
0.941649 0.331487 0.543053
0.96051 0.354528 0.569726
0.971893 0.37026 0.588251
0.0339055 0.0442969 0.0336309
0.0339208 0.0442817 0.0336309
0.0339361 0.0442817 0.0336156
0.0340124 0.0443427 0.0335851
0.0435187 0.0445411 0.0337377
0.0675059 0.0445106 0.034165
0.10248 0.0440375 0.0367285
0.139422 0.0433051 0.0415503
0.179736 0.0437781 0.0482338
0.222965 0.0446326 0.0557412
0.269368 0.0453346 0.0637675
0.319875 0.045716 0.0739452
0.371206 0.046067 0.0852827
0.424826 0.0465553 0.100099
0.478569 0.0473793 0.115511
0.526589 0.0489967 0.130236
0.569253 0.0519417 0.146471
0.607569 0.0572976 0.163668
0.639811 0.0656901 0.184375
0.665568 0.0787823 0.207813
0.688457 0.0991379 0.234073
0.712322 0.122728 0.263691
0.739971 0.146365 0.295567
0.761028 0.164263 0.322881
0.777768 0.179156 0.348119
0.802274 0.202441 0.377997
0.828656 0.226352 0.408728
0.855375 0.249653 0.440299
0.883497 0.27454 0.472618
0.910445 0.299489 0.50399
0.934676 0.323949 0.533822
0.952956 0.345113 0.559045
0.964492 0.360616 0.575875
0.0335241 0.0464332 0.0340581
0.0335851 0.046128 0.0335851
0.0342107 0.0456855 0.0333715
0.0352178 0.0454414 0.0337377
0.0403906 0.0459144 0.0339513
0.0573281 0.0460365 0.0341802
0.0907301 0.0455177 0.0357519
0.127092 0.0443427 0.0390784
0.168063 0.0440375 0.0446937
0.213245 0.0447242 0.0526589
0.260624 0.0454566 0.0605783
0.31339 0.0455634 0.0727398
0.364126 0.0459602 0.0823072
0.419379 0.0466773 0.0971389
0.473655 0.0474708 0.11252
0.522667 0.0490425 0.127687
0.566903 0.0520333 0.144305
0.605386 0.0572519 0.161379
0.638209 0.0655222 0.182116
0.664088 0.0782177 0.205112
0.687022 0.0980545 0.231556
0.710903 0.121782 0.261143
0.738216 0.145388 0.292378
0.759884 0.163577 0.320226
0.776135 0.177829 0.345281
0.798993 0.199634 0.373419
0.824247 0.222522 0.403281
0.850507 0.245579 0.433997
0.87686 0.268788 0.464286
0.902419 0.292012 0.494041
0.926284 0.315373 0.522423
0.944259 0.33492 0.545876
0.955734 0.349294 0.561776
0.0311742 0.0682231 0.0371252
0.0312657 0.0674601 0.0363622
0.0325475 0.0647746 0.0336919
0.0391852 0.0624094 0.0336004
0.0526131 0.0630198 0.0343023
0.0748913 0.0623178 0.0369726
0.10312 0.0598306 0.0385901
0.135393 0.0555123 0.0387274
0.175448 0.0496986 0.0387427
0.221714 0.0479591 0.0454566
0.268009 0.047013 0.0530404
0.314397 0.0458686 0.0596475
0.36611 0.0458076 0.0707713
0.425193 0.0476387 0.0886091
0.479423 0.0485847 0.106966
0.527687 0.0500649 0.123949
0.568689 0.0546426 0.136461
0.607462 0.0605173 0.154543
0.639521 0.0692454 0.174319
0.665385 0.0826429 0.198123
0.689204 0.1037 0.226658
0.712856 0.126696 0.256382
0.740093 0.149752 0.287663
0.760235 0.166247 0.31487
0.776379 0.180072 0.340017
0.799176 0.201511 0.368521
0.824857 0.224628 0.398962
0.850477 0.246891 0.429374
0.877134 0.270237 0.460273
0.902678 0.293324 0.49015
0.926284 0.31635 0.518486
0.944305 0.335927 0.542138
0.955657 0.350134 0.5579
0.0275273 0.103777 0.0410468
0.0276493 0.103365 0.0400854
0.0283665 0.100084 0.0348821
0.0344701 0.0961471 0.0324865
0.054612 0.0957351 0.0319066
0.0824598 0.0953689 0.0339666
0.113771 0.0941482 0.0369726
0.152102 0.0866407 0.0428931
0.187457 0.0788128 0.0467536
0.224521 0.0712444 0.0468605
0.264347 0.0633707 0.0457465
0.313008 0.0544137 0.0460059
0.367102 0.0494698 0.0545815
0.42327 0.0471504 0.0703593
0.472801 0.0455329 0.0845808
0.522484 0.0489509 0.103883
0.574014 0.0561379 0.129595
0.611093 0.0615854 0.150149
0.641413 0.0697795 0.172824
0.668254 0.0897078 0.191226
0.690532 0.108888 0.220615
0.714824 0.131884 0.251514
0.741482 0.153475 0.283375
0.760815 0.169162 0.31017
0.777111 0.182879 0.335439
0.799588 0.203525 0.364355
0.825589 0.226764 0.395361
0.850996 0.248631 0.425742
0.878202 0.27245 0.457115
0.903838 0.295567 0.487236
0.927123 0.318303 0.515419
0.945098 0.337926 0.539376
0.95642 0.352178 0.555062
0.0216373 0.14023 0.0455329
0.0217288 0.140154 0.04448
0.0243992 0.136004 0.0375067
0.0276799 0.132204 0.0310521
0.0486915 0.131807 0.0308385
0.0821698 0.130114 0.0295262
0.113771 0.127565 0.033051
0.148867 0.125963 0.0348669
0.200015 0.115343 0.0449226
0.248615 0.0996414 0.0525368
0.284611 0.0918441 0.0540169
0.32401 0.0827955 0.0536355
0.3691 0.0713512 0.053254
0.416556 0.0594186 0.0550851
0.468498 0.0530861 0.0672618
0.519158 0.0520638 0.0872511
0.559792 0.0509957 0.105165
0.602029 0.0586404 0.130877
0.644785 0.0752575 0.164889
0.667872 0.0891432 0.1906
0.690623 0.110826 0.218204
0.716899 0.137011 0.247425
0.743786 0.158633 0.27924
0.761349 0.172671 0.304265
0.777951 0.18645 0.329686
0.799969 0.205951 0.359289
0.826123 0.229084 0.390646
0.851408 0.250629 0.421134
0.87921 0.27483 0.4533
0.905257 0.29839 0.483726
0.928328 0.320867 0.51194
0.946242 0.340261 0.5364
0.95758 0.354253 0.552636
0.0143893 0.179461 0.0521401
0.0143435 0.179355 0.0508888
0.0171054 0.17583 0.0426642
0.0201877 0.172274 0.0326848
0.0386816 0.171756 0.0287785
0.077348 0.170733 0.028397
0.10988 0.168704 0.0282139
0.145541 0.164355 0.0327306
0.189624 0.16231 0.033875
0.252186 0.14963 0.0484016
0.311604 0.129335 0.0616312
0.355795 0.118654 0.0656138
0.391775 0.110689 0.0663462
0.431769 0.0981918 0.0664225
0.474937 0.0827802 0.0669413
0.515984 0.0687114 0.0715648
0.558251 0.0629282 0.0873274
0.597055 0.0628519 0.110674
0.623606 0.0643931 0.133059
0.658213 0.0855879 0.171069
0.691493 0.116533 0.211856
0.716152 0.136736 0.244846
0.741207 0.155001 0.27718
0.761212 0.176364 0.296513
0.778225 0.190204 0.322133
0.80032 0.209369 0.351949
0.826474 0.232197 0.383413
0.852552 0.254185 0.415045
0.880659 0.278386 0.447959
0.906737 0.301732 0.479072
0.929717 0.323995 0.50779
0.947723 0.343511 0.532738
0.959106 0.357671 0.549218
0.0090486 0.222827 0.0631723
0.00895705 0.222827 0.0619211
0.0109712 0.220157 0.0517281
0.0140383 0.217014 0.040238
0.0285344 0.215961 0.0262455
0.0610819 0.217746 0.0274662
0.1028 0.215915 0.0278325
0.139376 0.213153 0.0281224
0.184939 0.20827 0.034287
0.238285 0.206744 0.0337987
0.309361 0.194141 0.054551
0.37789 0.173098 0.0748455
0.430076 0.156573 0.0841077
0.464378 0.150439 0.0864271
0.502281 0.139834 0.0878767
0.541451 0.126802 0.0903639
0.575891 0.109987 0.0926223
0.60444 0.0897536 0.0990005
0.62945 0.0823377 0.119615
0.649805 0.0860456 0.149065
0.670176 0.100969 0.181994
0.709194 0.135119 0.226413
0.744396 0.163882 0.268406
0.757244 0.172137 0.292439
0.772717 0.183108 0.319615
0.800198 0.213214 0.342657
0.827008 0.236286 0.374929
0.85391 0.258717 0.407462
0.882353 0.283116 0.44065
0.90869 0.306508 0.472602
0.931502 0.32842 0.501961
0.949401 0.347982 0.527062
0.961013 0.362432 0.544198
0.00650034 0.270939 0.0772869
0.00608835 0.271092 0.0766766
0.00784314 0.269642 0.066392
0.0105287 0.267353 0.0525521
0.0185855 0.265858 0.032578
0.0404364 0.268177 0.0270085
0.0835737 0.269657 0.0296483
0.131106 0.267155 0.0301061
0.176715 0.2645 0.0306859
0.232578 0.259541 0.0386816
0.295094 0.258915 0.0349126
0.369924 0.247669 0.0627909
0.44329 0.227588 0.0895094
0.501854 0.206867 0.106645
0.539925 0.198138 0.112352
0.573205 0.191623 0.11519
0.607675 0.180697 0.1187
0.638972 0.16466 0.123125
0.659541 0.14519 0.128054
0.666545 0.123476 0.13901
0.674189 0.117952 0.16614
0.688075 0.120668 0.194644
0.728893 0.15172 0.239353
0.757443 0.18117 0.276448
0.772992 0.189883 0.306371
0.793225 0.204669 0.339422
0.820279 0.227604 0.37409
0.855497 0.26453 0.398413
0.883818 0.288579 0.431571
0.910887 0.312505 0.464607
0.93312 0.3337 0.49395
0.951537 0.353841 0.520378
0.962402 0.367468 0.537453
0.00810254 0.326345 0.0946212
0.00759899 0.327016 0.0945296
0.00941482 0.32607 0.0860761
0.0130007 0.323705 0.0702373
0.0172427 0.323415 0.0513008
0.0274357 0.323217 0.0350195
0.0595407 0.32781 0.0344701
0.113085 0.330083 0.0356603
0.169146 0.326894 0.0355993
0.221988 0.321996 0.035874
0.286412 0.315969 0.0458534
0.355901 0.315801 0.035111
0.42739 0.307942 0.0689097
0.506722 0.288472 0.105837
0.567636 0.270024 0.129168
0.610346 0.255634 0.142214
0.640513 0.249271 0.14789
0.673335 0.239185 0.152865
0.701305 0.223911 0.158938
0.716518 0.20531 0.166064
0.716381 0.18407 0.176989
0.704128 0.157427 0.184512
0.7178 0.151583 0.21149
0.73669 0.164508 0.240543
0.769116 0.196796 0.282658
0.79382 0.21413 0.32163
0.819669 0.232578 0.360403
0.845624 0.252033 0.396918
0.876158 0.278325 0.43183
0.912627 0.319066 0.454978
0.935332 0.340826 0.485023
0.953582 0.360952 0.511818
0.964508 0.374517 0.529946
0.0157626 0.386923 0.116823
0.0150759 0.387182 0.116503
0.0160983 0.386954 0.10988
0.01944 0.384909 0.0951247
0.0225528 0.385916 0.0784924
0.0254978 0.386404 0.0571145
0.0411994 0.388144 0.0447852
0.087892 0.393347 0.0441138
0.150225 0.392386 0.0442969
0.215396 0.384375 0.0426795
0.27216 0.379217 0.0428626
0.345129 0.373129 0.0551003
0.417884 0.375051 0.0391852
0.488869 0.367987 0.0786755
0.567254 0.352209 0.123796
0.628565 0.336828 0.150942
0.67541 0.323476 0.169268
0.70663 0.316579 0.180148
0.738293 0.301701 0.190753
0.763363 0.288014 0.199786
0.774319 0.270191 0.210498
0.769146 0.250156 0.218585
0.758022 0.222431 0.224231
0.743923 0.187594 0.221668
0.747402 0.182849 0.241459
0.780102 0.213245 0.285481
0.81976 0.245731 0.335012
0.847715 0.262989 0.378424
0.875608 0.28275 0.418952
0.903212 0.305013 0.456428
0.92932 0.330617 0.486976
0.955047 0.368658 0.501549
0.965545 0.381643 0.519936
0.0262303 0.446677 0.141939
0.0254826 0.446983 0.141558
0.025452 0.447517 0.135958
0.0270237 0.446311 0.124361
0.0300603 0.446586 0.108843
0.033051 0.448218 0.0930343
0.0377813 0.448508 0.0695048
0.0673381 0.451713 0.0589761
0.12343 0.456214 0.0569772
0.196872 0.452064 0.0547494
0.270375 0.441123 0.0504311
0.32781 0.438148 0.0544289
0.405081 0.432135 0.0706035
0.478645 0.433448 0.0523842
0.548608 0.428229 0.0916915
0.624933 0.41648 0.143603
0.689433 0.402747 0.175814
0.739055 0.389975 0.19913
0.769863 0.382483 0.212543
0.801801 0.365896 0.230335
0.823148 0.35137 0.243961
0.830137 0.336324 0.256352
0.825177 0.317693 0.264332
0.809613 0.288411 0.261707
0.78378 0.247852 0.248356
0.75848 0.205341 0.238163
0.794263 0.235676 0.288075
0.850019 0.282963 0.349599
0.878904 0.298802 0.395666
0.906294 0.317861 0.437369
0.929091 0.335286 0.47509
0.949004 0.355093 0.506325
0.960586 0.367773 0.527901
0.0368048 0.507759 0.172213
0.0361944 0.508003 0.171893
0.0359808 0.508553 0.168215
0.0373846 0.508293 0.158556
0.0405737 0.508019 0.143404
0.0439155 0.509499 0.130449
0.0480507 0.511223 0.112718
0.0604562 0.51281 0.0869306
0.100847 0.518135 0.075639
0.169162 0.521706 0.074052
0.253544 0.513252 0.0704509
0.326528 0.501015 0.0643626
0.385931 0.499153 0.0731975
0.46569 0.491875 0.0901503
0.538567 0.492988 0.0738231
0.606012 0.490333 0.108812
0.681941 0.481117 0.166735
0.748089 0.467445 0.20383
0.799603 0.454719 0.231174
0.833127 0.446738 0.249897
0.859876 0.435187 0.268345
0.878798 0.415518 0.288563
0.883299 0.401221 0.300099
0.876204 0.380774 0.303807
0.855085 0.348837 0.292485
0.829374 0.311757 0.277958
0.802777 0.269459 0.266361
0.805707 0.25835 0.285084
0.866361 0.308186 0.351797
0.908675 0.339849 0.40621
0.932525 0.35407 0.450309
0.951644 0.369833 0.486961
0.96289 0.380606 0.511101
0.0528573 0.568521 0.207691
0.0522164 0.568734 0.207309
0.0521706 0.569711 0.205173
0.0534218 0.56936 0.197055
0.0563516 0.569284 0.182712
0.0598917 0.569665 0.168414
0.0643168 0.571405 0.156649
0.0722667 0.573526 0.134081
0.09514 0.576303 0.10724
0.151308 0.584329 0.100191
0.232395 0.585916 0.0979782
0.32163 0.57171 0.0895857
0.388251 0.561837 0.0841077
0.446876 0.561303 0.0983291
0.527443 0.552377 0.114778
0.597314 0.552026 0.102312
0.663401 0.5505 0.135286
0.738598 0.542367 0.196323
0.805722 0.52958 0.237293
0.857679 0.517464 0.269276
0.888441 0.510185 0.28957
0.909667 0.501884 0.306218
0.926375 0.483726 0.325887
0.929808 0.462821 0.337087
0.917006 0.438651 0.330449
0.899672 0.409995 0.320943
0.876814 0.374456 0.308827
0.851026 0.335622 0.29575
0.838895 0.306371 0.299916
0.880095 0.333867 0.349599
0.928084 0.373373 0.408484
0.952544 0.393683 0.453498
0.964538 0.401816 0.484642
0.0743267 0.627329 0.250614
0.0738537 0.627756 0.250462
0.0741436 0.628382 0.246647
0.0757305 0.628199 0.238041
0.0790265 0.628397 0.224567
0.0836194 0.629114 0.210986
0.0890974 0.630777 0.198383
0.0959487 0.632441 0.182223
0.10634 0.632624 0.152346
0.14432 0.639643 0.134844
0.219699 0.64863 0.130236
0.308278 0.64506 0.124514
0.398032 0.625605 0.109941
0.452399 0.621866 0.109972
0.510491 0.620951 0.126848
0.587366 0.610666 0.144091
0.654414 0.608804 0.137758
0.718959 0.607553 0.170962
0.796628 0.599512 0.233982
0.860029 0.58912 0.277089
0.905455 0.578805 0.308324
0.932692 0.572229 0.328389
0.948623 0.567254 0.341405
0.96405 0.552331 0.357198
0.961044 0.529183 0.358068
0.952453 0.50106 0.354742
0.939635 0.471489 0.347906
0.922057 0.438254 0.338369
0.901595 0.403189 0.328145
0.884092 0.370398 0.323354
0.903838 0.3738 0.355016
0.939727 0.400168 0.404807
0.95993 0.420111 0.438575
0.102693 0.683604 0.296178
0.102388 0.683894 0.295293
0.103151 0.68455 0.290547
0.105226 0.684489 0.281453
0.108415 0.684382 0.270268
0.112749 0.68513 0.258503
0.117983 0.68571 0.244327
0.124483 0.687251 0.230594
0.134615 0.688563 0.209049
0.15465 0.689784 0.179889
0.212802 0.703304 0.169696
0.298268 0.710918 0.164096
0.390555 0.699947 0.151919
0.465599 0.682826 0.138994
0.514061 0.681437 0.143343
0.572183 0.679316 0.161425
0.646097 0.668727 0.179873
0.710094 0.665049 0.182589
0.773342 0.663874 0.21532
0.850309 0.654673 0.278431
0.904707 0.646204 0.31783
0.943191 0.638254 0.346548
0.964889 0.634028 0.363867
0.977111 0.630823 0.372335
0.983627 0.618662 0.377401
0.980835 0.600366 0.374838
0.976745 0.575433 0.372198
0.969787 0.543969 0.368246
0.959121 0.506081 0.363928
0.94519 0.471794 0.356893
0.929122 0.438666 0.349447
0.925155 0.416815 0.3579
0.948791 0.431403 0.394598
0.139269 0.738399 0.343969
0.139498 0.738766 0.341497
0.140505 0.739254 0.336873
0.14226 0.739239 0.329549
0.145342 0.739666 0.320882
0.149004 0.73994 0.310506
0.154208 0.740353 0.297093
0.160418 0.740932 0.282475
0.168658 0.742489 0.267353
0.18172 0.742611 0.241032
0.218235 0.751797 0.221653
0.2934 0.766262 0.210544
0.384024 0.768521 0.200519
0.471244 0.751781 0.184909
0.531838 0.740276 0.178103
0.575097 0.740154 0.186297
0.631754 0.736767 0.203464
0.702678 0.725551 0.222339
0.763714 0.719814 0.232517
0.825208 0.718425 0.264424
0.895338 0.708766 0.322347
0.940078 0.702892 0.359442
0.969787 0.696422 0.383307
0.987045 0.692012 0.39501
0.989822 0.690562 0.394247
0.989792 0.68072 0.392416
0.989731 0.666056 0.390555
0.989731 0.645075 0.388998
0.988281 0.619135 0.38677
0.98349 0.585733 0.383261
0.976577 0.548135 0.380209
0.967803 0.513115 0.377325
0.96141 0.491829 0.375891
0.185702 0.792828 0.397696
0.186481 0.793149 0.393744
0.187259 0.793317 0.389487
0.188769 0.793332 0.383474
0.191058 0.793317 0.375128
0.193927 0.793439 0.36614
0.197696 0.793469 0.355184
0.203281 0.793545 0.340978
0.21146 0.794507 0.325475
0.221805 0.795773 0.309224
0.24239 0.797375 0.282399
0.298268 0.815351 0.270253
0.383169 0.828092 0.258213
0.470268 0.823911 0.244434
0.549233 0.805127 0.227955
0.596857 0.799191 0.227848
0.635706 0.799237 0.237583
0.689357 0.794614 0.253635
0.757061 0.782284 0.270771
0.814542 0.773938 0.284596
0.871855 0.77261 0.31574
0.932555 0.762173 0.370977
0.966628 0.757336 0.405463
0.988815 0.751736 0.424292
0.995682 0.74757 0.427405
0.993561 0.746777 0.42005
0.993042 0.738766 0.415091
0.993164 0.725536 0.41059
0.994049 0.707271 0.407614
0.994827 0.685435 0.404807
0.995483 0.659525 0.402518
0.994736 0.629465 0.400443
0.991867 0.6056 0.39855
0.239658 0.845777 0.453727
0.241199 0.846311 0.449439
0.242161 0.846311 0.444938
0.243198 0.846021 0.439261
0.24506 0.846052 0.432624
0.247517 0.84622 0.425254
0.250492 0.846281 0.41651
0.255543 0.846586 0.40412
0.262379 0.846754 0.388861
0.271992 0.847776 0.373449
0.284672 0.848402 0.354818
0.322499 0.860945 0.338933
0.391974 0.880507 0.325994
0.476173 0.887617 0.312642
0.553002 0.878202 0.29723
0.617441 0.860441 0.282521
0.658442 0.855222 0.284184
0.693904 0.854215 0.293858
0.744717 0.848615 0.308782
0.808957 0.837461 0.326696
0.862593 0.828061 0.34316
0.912947 0.826825 0.374914
0.961608 0.81651 0.424445
0.986435 0.810941 0.452613
0.997482 0.806455 0.465095
0.997589 0.80209 0.464317
0.99617 0.801511 0.456397
0.99501 0.7944 0.449912
0.994537 0.783352 0.443931
0.995621 0.767163 0.43801
0.997314 0.747814 0.432273
0.99855 0.726055 0.427054
0.999084 0.705135 0.423987
0.293812 0.89366 0.507607
0.295232 0.893858 0.502937
0.296422 0.893904 0.498604
0.296849 0.893446 0.494179
0.298161 0.893355 0.488701
0.300282 0.893614 0.482444
0.30338 0.894179 0.475257
0.30724 0.894301 0.464683
0.313024 0.894331 0.450507
0.320928 0.89424 0.433814
0.332357 0.895933 0.419348
0.356924 0.903868 0.406729
0.406348 0.921675 0.396979
0.482368 0.936568 0.382895
0.560098 0.936706 0.368292
0.626627 0.923583 0.351736
0.678981 0.90808 0.339879
0.714885 0.903731 0.342733
0.747967 0.902312 0.351385
0.796368 0.896498 0.364324
0.857588 0.886168 0.382055
0.906218 0.878401 0.406165
0.949523 0.876341 0.434653
0.984985 0.867689 0.474098
1 0.861265 0.497154
1 0.855085 0.503471
1 0.85156 0.502937
1 0.851453 0.493797
1 0.845869 0.486503
1 0.836362 0.480201
1 0.822278 0.475135
0.999191 0.805844 0.469993
0.998566 0.789395 0.465522
0.345006 0.935012 0.556527
0.346105 0.935058 0.5523
0.347158 0.935012 0.547829
0.347997 0.934859 0.543252
0.349264 0.934936 0.538766
0.351003 0.93518 0.533852
0.352941 0.935347 0.528206
0.355703 0.935485 0.520333
0.360204 0.935607 0.508492
0.367407 0.935836 0.493019
0.380865 0.938933 0.478767
0.400412 0.945632 0.469749
0.432547 0.957275 0.46215
0.489677 0.974075 0.450584
0.563607 0.982284 0.433539
0.632914 0.97705 0.416739
0.690776 0.961578 0.399466
0.734157 0.949157 0.39147
0.765911 0.945617 0.39498
0.797833 0.944442 0.40383
0.845716 0.939101 0.417777
0.903273 0.931579 0.440162
0.945739 0.923064 0.463539
0.979034 0.919524 0.488624
1 0.910307 0.520958
1 0.902998 0.53901
1 0.897337 0.545495
1 0.894179 0.545113
1 0.895308 0.534539
1 0.890822 0.527642
1 0.882582 0.520043
1 0.870802 0.514595
1 0.857466 0.508721
0.390097 0.969207 0.599557
0.390951 0.969131 0.595865
0.391913 0.969085 0.591745
0.392752 0.969039 0.588251
0.393896 0.969116 0.584085
0.395438 0.969375 0.579599
0.397177 0.969604 0.574548
0.399496 0.969833 0.567987
0.402869 0.969985 0.55874
0.409552 0.971374 0.547707
0.420935 0.974426 0.534951
0.439765 0.981186 0.524041
0.463844 0.991028 0.517449
0.498558 0.998932 0.512169
0.55639 0.998932 0.498497
0.625101 0.998932 0.482506
0.687633 0.998932 0.467338
0.739742 0.998383 0.453666
0.778943 0.987915 0.448295
0.810239 0.983505 0.451316
0.843091 0.980926 0.459663
0.890517 0.97496 0.471992
0.940124 0.967041 0.490715
0.974456 0.958358 0.512612
1 0.954543 0.53666
1 0.946303 0.563165
1 0.938888 0.579034
1 0.933852 0.586358
1 0.931365 0.58555
1 0.932677 0.574945
1 0.929198 0.567254
1 0.92311 0.560174
1 0.912947 0.555261
0.424369 0.996323 0.631418
0.424872 0.996017 0.627863
0.425589 0.995926 0.624567
0.426291 0.995712 0.620691
0.427024 0.995605 0.617441
0.42858 0.996139 0.614237
0.429923 0.996384 0.610498
0.43183 0.996704 0.605402
0.435416 0.997757 0.598703
0.440284 0.998856 0.589624
0.450019 0.998932 0.57908
0.466682 0.998932 0.568475
0.488945 0.998932 0.559686
0.516426 0.998932 0.554559
0.552987 0.998932 0.550103
0.609659 0.998932 0.537346
0.67335 0.998932 0.524865
0.731121 0.998932 0.512718
0.778195 0.998932 0.502342
0.815457 0.998932 0.498665
0.84831 0.998932 0.501137
0.883925 0.998932 0.508492
0.92784 0.996277 0.519417
0.968978 0.989639 0.536492
0.996094 0.983307 0.558511
1 0.978805 0.580865
1 0.97171 0.605432
1 0.96524 0.62089
1 0.961318 0.627695
1 0.960464 0.625864
1 0.962173 0.615839
1 0.960281 0.607156
1 0.954787 0.59968
0.445563 0.998932 0.653483
0.444816 0.998932 0.649378
0.444694 0.998932 0.644968
0.445243 0.998932 0.641962
0.445914 0.998932 0.638773
0.446738 0.998932 0.636118
0.449165 0.998932 0.633356
0.45127 0.998932 0.62948
0.454368 0.998932 0.623774
0.459358 0.998932 0.616983
0.466773 0.998932 0.608606
0.480385 0.998932 0.598276
0.499886 0.998932 0.587823
0.528023 0.998932 0.581888
0.557534 0.998932 0.580285
0.596338 0.998932 0.578012
0.653895 0.998932 0.569757
0.714427 0.998932 0.561318
0.76817 0.998932 0.551019
0.811994 0.998932 0.542306
0.846464 0.998932 0.540093
0.880415 0.998932 0.543359
0.915633 0.998932 0.550362
0.954345 0.998932 0.560342
0.987701 0.998932 0.578607
1 0.995789 0.601816
1 0.992447 0.623697
1 0.987121 0.645945
1 0.982559 0.661646
1 0.979843 0.668162
1 0.980179 0.664195
1 0.981399 0.654017
1 0.980194 0.644663
0.454292 0.998932 0.663981
0.45272 0.998932 0.659327
0.451926 0.998932 0.655177
0.452079 0.998932 0.651545
0.452461 0.998932 0.649012
0.45333 0.998932 0.646494
0.454337 0.998932 0.644205
0.457527 0.998932 0.641703
0.460914 0.998932 0.637415
0.467658 0.998932 0.632776
0.475685 0.998932 0.625971
0.487129 0.998932 0.61825
0.508995 0.998932 0.611582
0.535714 0.998932 0.606027
0.566308 0.998932 0.603845
0.598917 0.998932 0.605127
0.641016 0.998932 0.606378
0.697841 0.998932 0.601999
0.753307 0.998932 0.594842
0.802365 0.998932 0.584817
0.840543 0.998932 0.578332
0.873625 0.998932 0.578088
0.908019 0.998932 0.582559
0.940673 0.998932 0.588937
0.972885 0.998932 0.598215
0.999756 0.998932 0.617639
1 0.997696 0.641001
1 0.996796 0.662989
1 0.994339 0.686198
1 0.991577 0.701823
1 0.990204 0.708003
1 0.991272 0.701045
1 0.991852 0.690135
0.471 0.998932 0.677516
0.468437 0.998932 0.67248
0.466453 0.998932 0.667857
0.465644 0.998932 0.664225
0.465843 0.998932 0.661204
0.466499 0.998932 0.659251
0.467185 0.998932 0.656809
0.46952 0.998932 0.654093
0.474525 0.998932 0.651728
0.479881 0.998932 0.648386
0.491157 0.998932 0.644877
0.506584 0.998932 0.641215
0.525567 0.998932 0.637858
0.550195 0.998932 0.634363
0.579568 0.998932 0.632822
0.611566 0.998932 0.633555
0.646769 0.998932 0.637476
0.688594 0.998932 0.639887
0.740154 0.998932 0.636057
0.791409 0.998932 0.628656
0.834699 0.998932 0.619165
0.868742 0.998932 0.615274
0.901411 0.998932 0.617426
0.933791 0.998932 0.622446
0.962051 0.998932 0.627543
0.986297 0.998932 0.636835
1 0.997864 0.656062
1 0.996353 0.67953
1 0.995377 0.702632
1 0.994171 0.726223
1 0.993301 0.742351
1 0.992767 0.746365
1 0.992935 0.73518
0.50251 0.998932 0.697612
0.498344 0.998932 0.691829
0.495811 0.998932 0.686915
