bundles/resolve-cinematic-luts/Phantom Luts/A7s3 Phntm Arri LUTs G7/SLog2+Sgamut3cine/Neutral A7s3-Legacy Sl2sg3c.cube
TITLE "Generated by Resolve"
LUT_3D_SIZE 9
0.0342412 0.0339971 0.0340124
0.0579843 0.0333257 0.0348516
0.201205 0.0329595 0.0590982
0.374472 0.035874 0.102312
0.576883 0.0382239 0.167849
0.824414 0.0531014 0.265568
0.987976 0.107073 0.388815
0.996643 0.236744 0.504585
0.995697 0.360021 0.604349
0.033051 0.0628061 0.0364385
0.0551461 0.059266 0.0339666
0.185672 0.0380255 0.0419776
0.367956 0.0346075 0.0852979
0.57641 0.0415808 0.1552
0.820417 0.0573892 0.248585
0.986633 0.10396 0.368338
0.995483 0.214984 0.475624
0.996139 0.317388 0.559335
0.0166629 0.214405 0.0565957
0.0409857 0.208347 0.0236667
0.188754 0.208927 0.0309453
0.42118 0.155795 0.0814679
0.580499 0.104311 0.0958267
0.835828 0.0449226 0.189502
0.985443 0.105303 0.341619
0.995773 0.229038 0.449104
0.996246 0.330404 0.543069
0.0287022 0.416693 0.117861
0.0349584 0.415747 0.0836347
0.139681 0.423575 0.0467842
0.394659 0.426978 0.062501
0.659251 0.397787 0.154772
0.851316 0.333989 0.19295
1 0.187259 0.193835
0.994888 0.245762 0.387579
0.996307 0.333516 0.528695
0.0544442 0.635843 0.225742
0.0641642 0.635645 0.196338
0.0881971 0.638254 0.123613
0.370581 0.644968 0.111452
0.607782 0.649607 0.13843
0.877806 0.623468 0.249042
1 0.587762 0.28835
1 0.480369 0.289952
1 0.396521 0.35523
0.116655 0.860945 0.34844
0.122942 0.860456 0.324086
0.14313 0.860014 0.271717
0.269169 0.87454 0.196765
0.601358 0.869261 0.208591
0.808011 0.866926 0.249546
0.985687 0.828809 0.403937
0.984497 0.814557 0.394949
0.980758 0.755596 0.386984
0.203876 0.996002 0.44213
0.204425 0.996017 0.423392
0.22179 0.996002 0.401572
0.329442 0.995727 0.374853
0.556222 0.989059 0.401434
0.768673 0.988922 0.422858
0.950027 0.985092 0.479469
1 0.962142 0.578683
1 0.959426 0.551751
0.394263 0.995209 0.558984
0.387198 0.995254 0.544884
0.398367 0.995224 0.538521
0.468025 0.994934 0.548318
0.582925 0.994278 0.562829
0.756283 0.989822 0.590646
0.911665 0.989746 0.621256
1 0.982849 0.669886
0.999451 0.984955 0.758587
0.606027 0.994171 0.715007
0.588067 0.994232 0.695659
0.592569 0.994217 0.69279
0.612894 0.994171 0.693614
0.675578 0.994049 0.711574
0.788724 0.991897 0.736522
0.901137 0.991012 0.762463
0.986618 0.986511 0.788693
0.995712 0.987594 0.836545
0.0327764 0.0322881 0.0510414
0.0571298 0.0328069 0.051606
0.198749 0.0318303 0.11165
0.37174 0.03122 0.140581
0.566354 0.0333715 0.198657
0.805585 0.0403296 0.293996
0.988159 0.105486 0.414923
0.996735 0.239155 0.524605
0.995636 0.366552 0.623102
0.0332952 0.0570993 0.0537728
0.0542611 0.0535439 0.0537881
0.21651 0.0366217 0.0658274
0.37351 0.0358587 0.101961
0.57702 0.0386816 0.168124
0.821103 0.0536965 0.264378
0.987686 0.105608 0.386648
0.996216 0.230365 0.49868
0.995789 0.347448 0.592248
0.0170138 0.211337 0.10898
0.0189517 0.213214 0.0578164
0.186496 0.205585 0.0317235
0.414008 0.151568 0.083238
0.601068 0.080766 0.108614
0.859602 0.0610208 0.22211
0.987594 0.121782 0.346487
0.996612 0.242405 0.476356
0.995804 0.359335 0.579599
0.0273289 0.413153 0.156222
0.0296025 0.416739 0.118379
0.0915389 0.422309 0.0435645
0.393545 0.425559 0.0624094
0.661906 0.390021 0.162478
0.861906 0.317617 0.198489
1 0.148318 0.213642
0.99617 0.254124 0.431632
0.996063 0.390051 0.548089
0.0540169 0.631556 0.257725
0.055436 0.635447 0.226032
0.0796979 0.638041 0.155734
0.343801 0.646006 0.114092
0.607111 0.648859 0.138354
0.884794 0.61825 0.257984
1 0.577203 0.297246
1 0.45127 0.298436
0.999893 0.440665 0.455451
0.11751 0.857084 0.377066
0.117678 0.86067 0.348882
0.134813 0.862119 0.304662
0.22356 0.874342 0.195453
0.594934 0.869841 0.210666
0.807813 0.866743 0.249958
0.985687 0.825788 0.410513
0.984268 0.808347 0.401007
0.985443 0.721386 0.399252
0.204883 0.994842 0.46041
0.204654 0.996002 0.442405
0.212055 0.996002 0.417517
0.3037 0.995804 0.378317
0.541299 0.989975 0.404288
0.765545 0.98883 0.424292
0.94995 0.985031 0.479545
1 0.961013 0.581567
1 0.956603 0.551614
0.401205 0.995163 0.572305
0.396368 0.995193 0.560204
0.403937 0.995178 0.551263
0.463035 0.994949 0.554559
0.578439 0.994415 0.56759
0.750973 0.989868 0.593683
0.909972 0.989654 0.6224
1 0.982849 0.669856
0.999435 0.98497 0.758801
0.614115 0.994141 0.726131
0.607782 0.994156 0.716381
0.611475 0.994156 0.713664
0.622965 0.994141 0.707774
0.681422 0.994049 0.723507
0.788159 0.992111 0.741848
0.899641 0.991028 0.762417
0.986053 0.986542 0.788464
0.995712 0.987594 0.836561
0.0351568 0.034226 0.160861
0.0988327 0.0318456 0.165927
0.200519 0.0316777 0.17641
0.377783 0.0309148 0.221958
0.575723 0.0319371 0.27042
0.807431 0.0333257 0.344518
0.987167 0.0974136 0.438926
0.996567 0.235889 0.543389
0.995651 0.362722 0.636439
0.0311437 0.047715 0.148226
0.0388647 0.0352636 0.187274
0.212726 0.0319982 0.188312
0.372305 0.0310521 0.201282
0.570703 0.0301366 0.239048
0.794949 0.0341802 0.306264
0.987793 0.100694 0.419623
0.996201 0.226596 0.521553
0.995819 0.342885 0.609277
0.0206302 0.194491 0.177935
0.0233616 0.195331 0.1794
0.197482 0.196109 0.197436
0.427893 0.14522 0.190494
0.631067 0.0824445 0.205051
0.822217 0.0493629 0.263294
0.988968 0.119844 0.396506
0.996689 0.26215 0.522332
0.995361 0.403555 0.640116
0.0305486 0.405859 0.232212
0.0297856 0.408789 0.206851
0.0574807 0.408255 0.137713
0.393912 0.417182 0.147189
0.638392 0.373358 0.195697
0.898009 0.267887 0.233173
0.990188 0.177188 0.307927
0.996582 0.289937 0.46598
0.995331 0.42649 0.610132
0.0555734 0.626078 0.316655
0.0555734 0.62826 0.28806
0.0702373 0.629892 0.23183
0.269291 0.641382 0.132753
0.60119 0.641306 0.147097
0.880873 0.604822 0.296696
1 0.550774 0.330648
1 0.429725 0.344778
0.99617 0.454658 0.552712
0.117876 0.851514 0.40763
0.118364 0.853376 0.389059
0.1234 0.859663 0.351156
0.178363 0.866041 0.231464
0.580194 0.868742 0.217655
0.806439 0.865339 0.251804
0.985916 0.818906 0.431891
0.984451 0.798703 0.428
0.990372 0.698665 0.436347
0.204776 0.992142 0.481651
0.204669 0.993149 0.467964
0.208927 0.995743 0.443488
0.264088 0.995895 0.392615
0.51426 0.991684 0.410864
0.759976 0.988754 0.428702
0.949386 0.984695 0.4795
1 0.958419 0.591287
1 0.952361 0.564965
0.401755 0.995132 0.584634
0.397604 0.995163 0.574685
0.407172 0.995148 0.566522
0.446448 0.99501 0.557137
0.568048 0.994461 0.570291
0.742885 0.989975 0.596155
0.907759 0.989548 0.623545
1 0.982834 0.669017
0.999359 0.985031 0.761028
0.614298 0.994141 0.731441
0.60798 0.994156 0.722698
0.615259 0.994141 0.72256
0.623606 0.994141 0.714809
0.67689 0.994064 0.725307
0.782483 0.99237 0.743069
0.897231 0.991073 0.7635
0.985077 0.986603 0.788663
0.995697 0.987594 0.836698
0.042359 0.0371557 0.298253
0.106447 0.0294041 0.31667
0.221195 0.0264134 0.323293
0.378958 0.0308385 0.341207
0.583185 0.0334173 0.396094
0.813703 0.0432898 0.460517
0.982254 0.0735943 0.497765
0.99588 0.208972 0.58555
0.995682 0.35407 0.6663
0.0269017 0.0451362 0.307591
0.0459297 0.0375677 0.330068
0.20911 0.0262303 0.347311
0.3794 0.0308843 0.341588
0.579507 0.033341 0.384939
0.807874 0.0432441 0.433402
0.982773 0.0710002 0.480903
0.995361 0.202243 0.566461
0.99585 0.333242 0.643153
0.00828565 0.170321 0.31162
0.00762951 0.162905 0.331273
0.153704 0.136904 0.387228
0.418738 0.0900893 0.379599
0.597269 0.0379797 0.369085
0.81088 0.038819 0.38967
0.98526 0.080827 0.460334
0.996567 0.239734 0.567224
0.995377 0.396216 0.671916
0.0353704 0.381628 0.355871
0.0361334 0.382727 0.357061
0.0514534 0.375738 0.352773
0.394659 0.393774 0.395209
0.641215 0.344717 0.386938
0.912001 0.249119 0.381262
0.988998 0.119036 0.399939
0.996399 0.289845 0.543267
0.994888 0.464149 0.690593
0.0580453 0.611399 0.423758
0.0598764 0.612818 0.412772
0.0748913 0.61297 0.38201
0.248661 0.622568 0.344503
0.590448 0.616144 0.356344
0.848264 0.579416 0.385504
1 0.503258 0.413474
0.996536 0.418662 0.449668
0.994873 0.469841 0.662333
0.124666 0.835737 0.486702
0.124788 0.837385 0.472129
0.12784 0.842725 0.44332
0.161929 0.84387 0.363928
0.513603 0.858442 0.353735
0.796933 0.848539 0.356832
0.985199 0.802472 0.477165
0.985367 0.769528 0.485222
0.998337 0.642847 0.521309
0.206821 0.985351 0.527413
0.205478 0.986542 0.516701
0.208804 0.988647 0.500145
0.22298 0.994766 0.448814
0.444053 0.995239 0.426413
0.745159 0.988769 0.441093
0.94815 0.983703 0.480095
1 0.952331 0.611215
1 0.940337 0.598154
0.402731 0.995087 0.612787
0.399237 0.995102 0.605493
0.409857 0.995071 0.599664
0.433387 0.99501 0.581338
0.537194 0.994583 0.579583
0.718883 0.99057 0.603571
0.902327 0.989258 0.626902
1 0.982788 0.666651
0.999146 0.985168 0.7664
0.614115 0.99411 0.745708
0.607553 0.994141 0.737438
0.615656 0.994125 0.737545
0.633631 0.99411 0.736812
0.666148 0.994079 0.731563
0.765957 0.993255 0.746456
0.891524 0.991165 0.766278
0.982742 0.986786 0.789502
0.995682 0.98761 0.837064
0.0556191 0.0425269 0.447852
0.118029 0.0301366 0.469429
0.235248 0.0238193 0.48484
0.394293 0.0218204 0.493645
0.580789 0.0348058 0.528649
0.828855 0.0423896 0.584527
0.98175 0.0590219 0.639521
0.993729 0.151537 0.67219
0.995972 0.305241 0.726162
0.0360113 0.0489509 0.473182
0.0637675 0.0430152 0.479683
0.212787 0.0242771 0.511406
0.388479 0.0218662 0.499443
0.57995 0.0347753 0.527642
0.822095 0.0421454 0.575936
0.981445 0.0583963 0.627634
0.99295 0.142916 0.658152
0.996155 0.280247 0.709499
0.00866712 0.137972 0.46981
0.0100404 0.127504 0.483604
0.107317 0.0781415 0.549493
0.387717 0.0347448 0.557641
0.610666 0.0391241 0.552453
0.825895 0.0421759 0.567147
0.981399 0.0597391 0.609186
0.995285 0.177234 0.658656
0.995605 0.357061 0.725719
0 0.360006 0.49189
0.00177005 0.355901 0.500099
0.0152743 0.338293 0.529702
0.349142 0.334905 0.589242
0.633814 0.275914 0.587137
0.888029 0.153353 0.581308
0.980697 0.0632486 0.551873
0.996536 0.212238 0.632242
0.995026 0.438041 0.742351
0.063035 0.582086 0.552712
0.0648356 0.582513 0.553155
0.0773175 0.58114 0.552834
0.225864 0.584344 0.561318
0.57641 0.575463 0.577356
0.842145 0.539834 0.576059
0.996216 0.464057 0.550805
0.995941 0.34168 0.570199
0.994476 0.520562 0.739635
0.121141 0.809705 0.601572
0.122286 0.810437 0.595926
0.128084 0.81326 0.584558
0.163073 0.809888 0.542535
0.490394 0.818448 0.552743
0.768826 0.800565 0.55816
0.967285 0.769039 0.571786
0.984771 0.696864 0.576623
0.996201 0.608469 0.639323
0.208789 0.968688 0.622538
0.209461 0.969268 0.615869
0.214572 0.971176 0.603281
0.228687 0.97821 0.566613
0.435142 0.985473 0.553475
0.712032 0.979568 0.570321
0.939162 0.971496 0.574868
1 0.938476 0.655787
1 0.912367 0.663645
0.407736 0.992721 0.665949
0.405844 0.992966 0.660731
0.416938 0.993515 0.657084
0.439643 0.994873 0.646311
0.479774 0.994766 0.609018
0.670481 0.992447 0.617182
0.890288 0.988586 0.640787
1 0.982788 0.666804
0.998718 0.985489 0.777661
0.614572 0.992706 0.77525
0.609247 0.992859 0.769558
0.617624 0.993103 0.770703
0.635508 0.993744 0.770733
0.659846 0.994064 0.758083
0.735515 0.993988 0.755032
0.880995 0.991302 0.771725
0.979416 0.987091 0.793103
0.995636 0.98764 0.837949
0.0694591 0.0518807 0.604547
0.150072 0.0341344 0.637598
0.256855 0.0231632 0.652842
0.404364 0.0217136 0.640711
0.583337 0.0236515 0.669627
0.827634 0.043946 0.729763
0.981964 0.0565347 0.774426
0.984894 0.0753033 0.802457
0.994522 0.219715 0.839811
0.0451667 0.0606546 0.639277
0.0756847 0.0529335 0.633677
0.215137 0.0238804 0.668788
0.400534 0.0216831 0.664302
0.576806 0.0227054 0.668376
0.821866 0.0437476 0.725765
0.981826 0.0558022 0.767193
0.984771 0.0738842 0.796094
0.994949 0.194537 0.826276
0.00918593 0.110948 0.635691
0.0103914 0.102556 0.652262
0.0795453 0.0598306 0.712749
0.367376 0.0225071 0.727199
0.604898 0.0347601 0.722728
0.833555 0.0445106 0.734417
0.982162 0.0570077 0.769436
0.985702 0.0774548 0.790433
0.994598 0.285054 0.842069
0.00587472 0.324239 0.6477
0.00350958 0.316732 0.653437
0 0.29865 0.685328
0.292531 0.265248 0.772229
0.603326 0.198352 0.79118
0.855634 0.0803998 0.750439
0.983246 0.0613107 0.757748
0.990799 0.114931 0.782559
0.994751 0.377493 0.841428
0 0.560769 0.679377
0 0.557946 0.683742
0 0.553475 0.696727
0.119295 0.547646 0.745373
0.54522 0.537484 0.778317
0.835721 0.493629 0.776699
0.995331 0.390524 0.777478
0.99649 0.227512 0.754681
0.994781 0.462654 0.826123
0.117845 0.771328 0.734249
0.11902 0.771435 0.734401
0.125048 0.772274 0.735576
0.154009 0.765652 0.730175
0.476158 0.772 0.747738
0.750134 0.749828 0.751369
0.966766 0.718318 0.75288
0.995209 0.652125 0.727245
0.994339 0.567239 0.756939
0.197818 0.944213 0.751781
0.198535 0.944579 0.748455
0.203159 0.945769 0.742473
0.215366 0.948257 0.726833
0.430732 0.956146 0.717433
0.688228 0.94931 0.735103
0.917906 0.936385 0.741253
1 0.914809 0.749081
0.994339 0.881025 0.79527
0.38291 0.990936 0.761212
0.384161 0.990936 0.757794
0.401297 0.990936 0.755886
0.437964 0.990936 0.749569
0.494667 0.991791 0.728832
0.66067 0.994079 0.73753
0.877501 0.990967 0.750103
0.999344 0.985031 0.761257
0.997253 0.986526 0.808545
0.613809 0.99118 0.822828
0.611612 0.99118 0.819776
0.622385 0.991257 0.821561
0.643519 0.99144 0.824918
0.670466 0.992035 0.821942
0.691981 0.994034 0.783001
0.855344 0.991379 0.783459
0.972686 0.988785 0.803052
0.995499 0.987747 0.840528
0.0893111 0.064622 0.775113
0.143664 0.0531319 0.801556
0.249409 0.0242771 0.821317
0.414801 0.0216526 0.815869
0.568307 0.0213779 0.795071
0.805051 0.0384833 0.857206
0.978698 0.0559548 0.923369
0.982055 0.0723278 0.922148
0.987915 0.120241 0.930739
0.0613565 0.0740826 0.798169
0.0738842 0.0701915 0.78999
0.200824 0.0361639 0.824506
0.402548 0.0216678 0.831662
0.575158 0.0215152 0.812665
0.800473 0.0382849 0.855268
0.978622 0.0556039 0.918502
0.981689 0.0712596 0.918135
0.985306 0.0952316 0.915145
0.00247196 0.127108 0.784878
0.00335698 0.120912 0.80061
0.054612 0.0849775 0.870024
0.340368 0.0221561 0.879515
0.595605 0.0221561 0.887312
0.841443 0.0433509 0.898848
0.978927 0.0569314 0.930144
0.982406 0.0745403 0.923095
0.991272 0.182727 0.9552
0 0.309499 0.772259
0 0.299351 0.779828
0 0.275792 0.819684
0.224063 0.235554 0.934051
0.556649 0.159319 0.94995
0.811856 0.0605936 0.902541
0.98056 0.0646677 0.930556
0.982651 0.0770733 0.923491
0.991165 0.286259 0.96495
0 0.550134 0.806394
0 0.545281 0.813397
0.000213626 0.536721 0.833112
0.116182 0.518593 0.901518
0.511086 0.512566 0.941711
0.811139 0.462989 0.957488
0.991302 0.350179 0.954238
0.990723 0.151476 0.929046
0.991333 0.391852 0.953918
0.00836194 0.743328 0.846479
0.00743114 0.741955 0.849744
0.0196384 0.74136 0.858213
0.0741741 0.737636 0.876997
0.414893 0.740505 0.913481
0.724926 0.720119 0.920836
0.960723 0.684764 0.919814
0.992889 0.606073 0.920287
0.992508 0.494896 0.913787
0.188525 0.916426 0.881758
0.18941 0.916411 0.881758
0.193942 0.916823 0.882322
0.204715 0.917067 0.882887
0.403281 0.921523 0.892943
0.679759 0.915969 0.900206
0.902083 0.901961 0.902937
0.994888 0.880476 0.904341
0.995346 0.855634 0.923384
0.33286 0.99089 0.880903
0.336141 0.99089 0.879774
0.357168 0.99089 0.879774
0.401083 0.99089 0.879652
0.468223 0.990936 0.876097
0.664866 0.991379 0.880919
0.861006 0.993225 0.892195
0.986328 0.989792 0.895628
0.992401 0.987305 0.893004
0.591897 0.991028 0.897047
0.59234 0.991028 0.89572
0.607111 0.991073 0.896071
0.635813 0.991196 0.896208
0.672251 0.991394 0.895857
0.707866 0.991653 0.882399
0.837308 0.993454 0.888273
0.964965 0.991653 0.896498
0.992126 0.990173 0.910582
0.0972 0.0813458 0.918257
0.103609 0.079881 0.919219
0.217548 0.0434882 0.936706
0.406241 0.0216373 0.942611
0.583535 0.0219272 0.930785
0.768887 0.0238804 0.936416
0.978241 0.0534829 0.978241
0.981125 0.0676585 0.981125
0.983261 0.080705 0.983261
0.0681773 0.0880751 0.918563
0.0813001 0.0848859 0.915877
0.172595 0.0606241 0.933318
0.38613 0.0217746 0.943496
0.588525 0.0218204 0.940246
0.760159 0.0238499 0.929183
0.978225 0.0535744 0.978241
0.980957 0.0670024 0.980957
0.983124 0.0790112 0.983139
0 0.13814 0.888472
0 0.136019 0.897032
0.000366217 0.118303 0.959274
0.288304 0.0253147 0.961975
0.569039 0.0218814 0.960571
0.842481 0.0365606 0.967575
0.978668 0.0547951 0.978683
0.981552 0.069398 0.981567
0.984146 0.0861982 0.984161
0 0.310536 0.849638
0 0.301091 0.856336
0 0.278538 0.900221
0.1149 0.233204 0.959045
0.503563 0.156329 0.979431
0.773892 0.059617 0.972946
0.981247 0.0679026 0.981262
0.981949 0.0717479 0.981964
0.990982 0.169375 0.990982
0.00587472 0.544732 0.885893
0.00819409 0.539055 0.894591
0.00923171 0.529274 0.918029
0.0623484 0.499916 0.971618
0.467033 0.50634 0.981582
0.764294 0.465537 0.990936
0.990982 0.363592 0.990967
0.987121 0.112322 0.987121
0.990982 0.281926 0.990982
0 0.739895 0.919478
0 0.738003 0.923751
0 0.735027 0.931228
0.000961318 0.727871 0.949722
0.399374 0.727306 0.979538
0.699138 0.71136 0.986954
0.945571 0.673487 0.99205
0.991012 0.592279 0.991012
0.990967 0.452903 0.990967
0.146365 0.899931 0.955291
0.147616 0.899229 0.956756
0.158495 0.898558 0.960143
0.188937 0.894789 0.965591
0.371588 0.89958 0.982177
0.655024 0.892592 0.986542
0.884825 0.884001 0.98941
0.993942 0.858488 0.988968
0.993805 0.798764 0.987228
0.288106 0.985245 0.964675
0.289769 0.98558 0.965118
0.309194 0.987106 0.967681
0.365698 0.988266 0.971115
0.450141 0.988678 0.973831
0.651164 0.98761 0.97702
0.854185 0.985931 0.980362
0.980072 0.980041 0.980346
0.991318 0.982223 0.987915
0.564111 0.989761 0.965423
0.565759 0.989776 0.965026
0.582223 0.989822 0.966033
0.613626 0.989975 0.967147
0.653193 0.990234 0.969573
0.692973 0.990692 0.967697
0.843137 0.991867 0.970214
0.961913 0.991363 0.974807
0.991058 0.990951 0.978576
0.0879988 0.0892958 0.960937
0.0856336 0.0898299 0.960937
0.176349 0.0630655 0.961227
0.37998 0.0217594 0.960678
0.590326 0.0219425 0.960601
0.771359 0.024155 0.963607
0.975799 0.0461433 0.975814
0.980041 0.0615854 0.980056
0.982467 0.075288 0.982483
0.0611734 0.0951553 0.961135
0.075288 0.0922255 0.961196
0.13228 0.0778821 0.961044
0.357992 0.0219272 0.961044
0.5879 0.0218814 0.960525
0.764828 0.0240177 0.963409
0.975723 0.0459144 0.975723
0.980056 0.0616007 0.980056
0.982269 0.0740826 0.982284
0 0.1449 0.932891
0 0.143069 0.940398
0 0.138735 0.952789
0.20827 0.0505074 0.961959
0.531533 0.0216526 0.960372
0.823499 0.0344854 0.966323
0.975479 0.0452583 0.975479
0.980194 0.0623636 0.980194
0.9832 0.0787213 0.9832
0 0.315129 0.888624
0 0.311116 0.891905
0 0.300893 0.933623
0 0.262562 0.94522
0.444099 0.186175 0.980117
0.735073 0.0878309 0.978302
0.981048 0.0675059 0.981048
0.980636 0.0637675 0.980636
0.983886 0.0839399 0.983886
0.0091249 0.54847 0.920913
0.00933852 0.543221 0.928817
0.009308 0.537285 0.951736
0.00769055 0.513848 0.972595
0.364141 0.511437 0.98587
0.698207 0.486625 0.990921
0.983154 0.400076 0.990951
0.99028 0.148486 0.99028
0.984619 0.0907149 0.984619
0 0.74287 0.948623
0 0.741253 0.953185
0 0.739391 0.961501
0 0.727916 0.971496
0.3234 0.725765 0.979706
0.659022 0.717922 0.986374
0.91075 0.687236 0.992615
0.991104 0.613596 0.991104
0.990967 0.44004 0.990967
0.0655375 0.896651 0.981003
0.0664225 0.895994 0.98262
0.0863813 0.895689 0.986099
0.147692 0.891066 0.986587
0.361471 0.891585 0.988388
0.645197 0.888838 0.989746
0.862364 0.881025 0.995087
0.993881 0.855421 0.993866
0.993545 0.788647 0.99353
0.259861 0.976471 0.989914
0.261311 0.976501 0.989929
0.276631 0.978363 0.990066
0.337133 0.981201 0.990478
0.476585 0.980362 0.989624
0.63946 0.979736 0.990326
0.836545 0.978943 0.99266
0.972656 0.975021 0.991897
0.991882 0.962509 0.991882
0.540719 0.988846 0.989471
0.542916 0.988846 0.989471
0.559167 0.98883 0.989502
0.590005 0.988846 0.989624
0.633967 0.989059 0.989914
0.680781 0.989502 0.99028
0.830747 0.99118 0.991608
0.958633 0.99118 0.991257
0.990936 0.990936 0.990951
