bundles/resolve-cinematic-luts/Phantom Luts/A7s3 Phntm Arri LUTs G7/SLog2+Sgamut3cine/Neutral A7s3-Legacy Sl2sg3c.cube
TITLE "Generated by Resolve"
LUT_3D_SIZE 5
0.0342412 0.0339971 0.0340124
0.201205 0.0329595 0.0590982
0.576883 0.0382239 0.167849
0.987976 0.107073 0.388815
0.995697 0.360021 0.604349
0.0166629 0.214405 0.0565957
0.188754 0.208927 0.0309453
0.580499 0.104311 0.0958267
0.985443 0.105303 0.341619
0.996246 0.330404 0.543069
0.0544442 0.635843 0.225742
0.0881971 0.638254 0.123613
0.607782 0.649607 0.13843
1 0.587762 0.28835
1 0.396521 0.35523
0.203876 0.996002 0.44213
0.22179 0.996002 0.401572
0.556222 0.989059 0.401434
0.950027 0.985092 0.479469
1 0.959426 0.551751
0.606027 0.994171 0.715007
0.592569 0.994217 0.69279
0.675578 0.994049 0.711574
0.901137 0.991012 0.762463
0.995712 0.987594 0.836545
0.0351568 0.034226 0.160861
0.200519 0.0316777 0.17641
0.575723 0.0319371 0.27042
0.987167 0.0974136 0.438926
0.995651 0.362722 0.636439
0.0206302 0.194491 0.177935
0.197482 0.196109 0.197436
0.631067 0.0824445 0.205051
0.988968 0.119844 0.396506
0.995361 0.403555 0.640116
0.0555734 0.626078 0.316655
0.0702373 0.629892 0.23183
0.60119 0.641306 0.147097
1 0.550774 0.330648
0.99617 0.454658 0.552712
0.204776 0.992142 0.481651
0.208927 0.995743 0.443488
0.51426 0.991684 0.410864
0.949386 0.984695 0.4795
1 0.952361 0.564965
0.614298 0.994141 0.731441
0.615259 0.994141 0.72256
0.67689 0.994064 0.725307
0.897231 0.991073 0.7635
0.995697 0.987594 0.836698
0.0556191 0.0425269 0.447852
0.235248 0.0238193 0.48484
0.580789 0.0348058 0.528649
0.98175 0.0590219 0.639521
0.995972 0.305241 0.726162
0.00866712 0.137972 0.46981
0.107317 0.0781415 0.549493
0.610666 0.0391241 0.552453
0.981399 0.0597391 0.609186
0.995605 0.357061 0.725719
0.063035 0.582086 0.552712
0.0773175 0.58114 0.552834
0.57641 0.575463 0.577356
0.996216 0.464057 0.550805
0.994476 0.520562 0.739635
0.208789 0.968688 0.622538
0.214572 0.971176 0.603281
0.435142 0.985473 0.553475
0.939162 0.971496 0.574868
1 0.912367 0.663645
0.614572 0.992706 0.77525
0.617624 0.993103 0.770703
0.659846 0.994064 0.758083
0.880995 0.991302 0.771725
0.995636 0.98764 0.837949
0.0893111 0.064622 0.775113
0.249409 0.0242771 0.821317
0.568307 0.0213779 0.795071
0.978698 0.0559548 0.923369
0.987915 0.120241 0.930739
0.00247196 0.127108 0.784878
0.054612 0.0849775 0.870024
0.595605 0.0221561 0.887312
0.978927 0.0569314 0.930144
0.991272 0.182727 0.9552
0 0.550134 0.806394
0.000213626 0.536721 0.833112
0.511086 0.512566 0.941711
0.991302 0.350179 0.954238
0.991333 0.391852 0.953918
0.188525 0.916426 0.881758
0.193942 0.916823 0.882322
0.403281 0.921523 0.892943
0.902083 0.901961 0.902937
0.995346 0.855634 0.923384
0.591897 0.991028 0.897047
0.607111 0.991073 0.896071
0.672251 0.991394 0.895857
0.837308 0.993454 0.888273
0.992126 0.990173 0.910582
0.0879988 0.0892958 0.960937
0.176349 0.0630655 0.961227
0.590326 0.0219425 0.960601
0.975799 0.0461433 0.975814
0.982467 0.075288 0.982483
0 0.1449 0.932891
0 0.138735 0.952789
0.531533 0.0216526 0.960372
0.975479 0.0452583 0.975479
0.9832 0.0787213 0.9832
0.0091249 0.54847 0.920913
0.009308 0.537285 0.951736
0.364141 0.511437 0.98587
0.983154 0.400076 0.990951
0.984619 0.0907149 0.984619
0.0655375 0.896651 0.981003
0.0863813 0.895689 0.986099
0.361471 0.891585 0.988388
0.862364 0.881025 0.995087
0.993545 0.788647 0.99353
0.540719 0.988846 0.989471
0.559167 0.98883 0.989502
0.633967 0.989059 0.989914
0.830747 0.99118 0.991608
0.990936 0.990936 0.990951
