bundles/resolve-cinematic-luts/Phantom Luts/A7s3 Phntm Arri LUTs G7/SLog2+Sgamut3cine/Neutral A7s3-Legacy Sl2sg3c.cube
TITLE "Generated by Resolve"
LUT_3D_SIZE 33
0.0342412 0.0339971 0.0340124
0.0342412 0.0339971 0.0340124
0.0342412 0.0339971 0.0340124
0.0345617 0.0341039 0.0339513
0.0579843 0.0333257 0.0348516
0.0956283 0.0330968 0.038407
0.128603 0.0319066 0.0441596
0.163317 0.0318608 0.0511788
0.201205 0.0329595 0.0590982
0.241123 0.0341039 0.0676738
0.283391 0.0358282 0.0746624
0.328298 0.0353857 0.0877394
0.374472 0.035874 0.102312
0.42266 0.0363165 0.117266
0.47303 0.0368963 0.133516
0.524865 0.0375219 0.149996
0.576883 0.0382239 0.167849
0.631525 0.0402075 0.187289
0.689647 0.0427558 0.209613
0.753216 0.0464179 0.236011
0.824414 0.0531014 0.265568
0.895521 0.0613107 0.297459
0.961349 0.0723125 0.332891
0.984039 0.0875868 0.361746
0.987976 0.107073 0.388815
0.990555 0.137255 0.417472
0.99295 0.169726 0.44625
0.994766 0.200916 0.475303
0.996643 0.236744 0.504585
0.996551 0.272831 0.532769
0.996185 0.305562 0.558495
0.995895 0.335515 0.582605
0.995697 0.360021 0.604349
0.0342412 0.0339971 0.0340124
0.0342412 0.0339971 0.0340124
0.0342412 0.0339971 0.0340124
0.0345006 0.0341192 0.0339361
0.0556802 0.0334478 0.034699
0.0923934 0.0331579 0.0377966
0.126635 0.0319982 0.0436255
0.161532 0.0318303 0.0506447
0.200015 0.0329442 0.0587167
0.240467 0.0341039 0.0674144
0.283391 0.0358282 0.0746624
0.328298 0.0353857 0.0877394
0.374472 0.035874 0.102312
0.42266 0.0363165 0.117266
0.47303 0.0368963 0.133516
0.524865 0.0375219 0.149996
0.576883 0.0382239 0.167849
0.631159 0.040238 0.186969
0.688197 0.0428168 0.208591
0.750332 0.046479 0.234043
0.820661 0.0530404 0.262486
0.891051 0.0611276 0.294041
0.95758 0.0721294 0.328267
0.983719 0.0868086 0.356527
0.987381 0.104341 0.383108
0.990158 0.133272 0.411017
0.992325 0.164309 0.438254
0.994583 0.193744 0.466621
0.996124 0.22739 0.493843
0.996704 0.259556 0.520409
0.996384 0.290761 0.544533
0.996048 0.318288 0.566262
0.995834 0.341772 0.585504
0.0342412 0.0339971 0.0340124
0.0342412 0.0339971 0.0340124
0.0342412 0.0339971 0.0340124
0.0343328 0.0341497 0.0339208
0.0488594 0.0341344 0.0344091
0.0782025 0.0339208 0.0356451
0.114824 0.0325628 0.0406653
0.15082 0.031632 0.0475624
0.190066 0.0327764 0.0558785
0.231647 0.0339513 0.064683
0.27602 0.0351263 0.0746624
0.322301 0.0356298 0.0849165
0.370092 0.0359655 0.0997787
0.419806 0.0363622 0.11574
0.471672 0.0369573 0.132631
0.522896 0.037644 0.148623
0.57435 0.0384222 0.16611
0.628 0.0403601 0.18471
0.684993 0.0429084 0.206485
0.746975 0.04654 0.23151
0.816846 0.0530098 0.259419
0.887373 0.0610208 0.291234
0.953323 0.0715953 0.324834
0.983337 0.0857557 0.353292
0.986999 0.102327 0.379675
0.989929 0.130343 0.406653
0.992264 0.159762 0.43357
0.994049 0.188678 0.460716
0.995575 0.219516 0.486854
0.996811 0.249989 0.512078
0.996506 0.28014 0.535225
0.996216 0.305257 0.555611
0.995941 0.328496 0.573419
0.0340429 0.034638 0.0339666
0.0341039 0.0346227 0.0339666
0.0342718 0.0345922 0.0339818
0.0345617 0.0345617 0.0339818
0.042359 0.0354467 0.0342565
0.0637675 0.0351568 0.0348669
0.102098 0.0340276 0.0379797
0.138308 0.0317693 0.0438697
0.179492 0.0326543 0.0524758
0.222675 0.033875 0.0617533
0.267475 0.0350805 0.0709392
0.316518 0.035111 0.0854047
0.364401 0.0361791 0.0962997
0.415152 0.0365301 0.112718
0.467506 0.0371099 0.129519
0.51902 0.0377661 0.146059
0.571542 0.0387121 0.163836
0.625086 0.0406806 0.182147
0.682307 0.043183 0.204135
0.743587 0.0467079 0.228611
0.81294 0.0529793 0.256657
0.883391 0.0609293 0.288167
0.949416 0.0713817 0.320943
0.982986 0.0847791 0.350072
0.986847 0.100877 0.376516
0.989609 0.127184 0.402579
0.99173 0.1552 0.428885
0.993851 0.183932 0.455299
0.995438 0.212589 0.480186
0.996658 0.241154 0.504311
0.996628 0.269856 0.526238
0.996353 0.294072 0.545815
0.996109 0.315084 0.562371
0.033051 0.0628061 0.0364385
0.0332341 0.0616159 0.0357519
0.0348363 0.0585794 0.0338903
0.0415808 0.0557259 0.0341497
0.0551461 0.059266 0.0339666
0.0816052 0.0567788 0.0367895
0.111269 0.0530098 0.0387274
0.143984 0.0461433 0.0390631
0.185672 0.0380255 0.0419776
0.231479 0.0367437 0.0533761
0.275364 0.0355993 0.0626535
0.31928 0.0339361 0.0711528
0.367956 0.0346075 0.0852979
0.423301 0.0376745 0.104768
0.475166 0.0380255 0.124315
0.526345 0.0384527 0.142763
0.57641 0.0415808 0.1552
0.630762 0.044007 0.17438
0.688014 0.0466468 0.194903
0.750072 0.0507973 0.219516
0.820417 0.0573892 0.248585
0.889693 0.0648966 0.279759
0.955276 0.0751507 0.31223
0.982986 0.0885176 0.341466
0.986633 0.10396 0.368338
0.989731 0.12958 0.395254
0.991943 0.158007 0.422843
0.993729 0.185687 0.449393
0.995483 0.214984 0.475624
0.996857 0.243381 0.500084
0.996628 0.272114 0.522835
0.996384 0.296056 0.542306
0.996139 0.317388 0.559335
0.0310216 0.101228 0.0393378
0.0311589 0.100633 0.0385595
0.0322728 0.0968338 0.0335851
0.0398108 0.0932174 0.0326696
0.0601511 0.0952621 0.0320897
0.0880293 0.0960555 0.0323339
0.121172 0.0945449 0.034287
0.161456 0.0838788 0.043122
0.19324 0.0754711 0.0458686
0.229358 0.0673228 0.0467842
0.269474 0.0569314 0.0492409
0.31751 0.0444038 0.0524605
0.369467 0.0384527 0.0662089
0.423087 0.0349432 0.0852369
0.471168 0.0323339 0.101106
0.525185 0.0360876 0.121859
0.587533 0.0425269 0.148852
0.640421 0.0437934 0.170108
0.696208 0.045304 0.193179
0.757519 0.0545205 0.211643
0.826719 0.0613413 0.239582
0.896635 0.0690929 0.271366
0.959503 0.0785077 0.304845
0.982956 0.0917372 0.333745
0.986786 0.107286 0.360952
0.989563 0.131518 0.388861
0.991943 0.160464 0.417487
0.993744 0.187396 0.444572
0.995529 0.217426 0.471351
0.996902 0.245777 0.496147
0.996643 0.274449 0.519158
0.996399 0.297963 0.539406
0.996155 0.319493 0.556558
0.0272068 0.136126 0.0427558
0.0275578 0.135836 0.0420081
0.0297398 0.131823 0.0347753
0.0337224 0.128588 0.0302892
0.0581064 0.129778 0.0311589
0.0886702 0.130083 0.029099
0.117739 0.128252 0.0306859
0.154833 0.127352 0.0301213
0.209842 0.113039 0.0457618
0.254505 0.0967727 0.0521248
0.284672 0.0915999 0.0526131
0.32369 0.0808576 0.0547189
0.367971 0.0661479 0.0585184
0.414511 0.0510567 0.0633555
0.468315 0.042649 0.0805524
0.524193 0.0394751 0.103624
0.575235 0.0343633 0.122683
0.635035 0.039292 0.149203
0.707515 0.0491798 0.181979
0.768734 0.0528725 0.208774
0.833432 0.0573434 0.239277
0.903624 0.0728771 0.263539
0.964843 0.0831159 0.296513
0.982834 0.0956893 0.323507
0.98677 0.111299 0.351202
0.989578 0.134401 0.381231
0.991928 0.163119 0.410666
0.993942 0.189639 0.438514
0.995499 0.219928 0.466194
0.996887 0.2486 0.491691
0.996658 0.277119 0.514809
0.996414 0.300618 0.535546
0.996185 0.322087 0.553109
0.0211948 0.173693 0.0477913
0.0213321 0.17351 0.0466468
0.0245823 0.169574 0.0384222
0.0281071 0.166201 0.0293278
0.0496071 0.167758 0.0287175
0.0888075 0.167514 0.029572
0.113252 0.168322 0.0272526
0.149447 0.164797 0.0298772
0.195148 0.163897 0.0276036
0.260334 0.147539 0.0487831
0.314824 0.12607 0.0614328
0.352117 0.118151 0.0636149
0.384787 0.110964 0.0653544
0.425315 0.0970321 0.0685283
0.470558 0.0792401 0.07364
0.517464 0.0610819 0.0805371
0.572702 0.0505531 0.100023
0.631708 0.0442206 0.12491
0.688334 0.0365148 0.147936
0.766171 0.0472419 0.184878
0.851072 0.0628672 0.225177
0.913069 0.0696727 0.260273
0.968658 0.0766308 0.296529
0.982773 0.0996262 0.31107
0.986572 0.115465 0.339391
0.9897 0.138338 0.370306
0.991852 0.166873 0.400412
0.993957 0.193408 0.429847
0.995651 0.224125 0.458839
0.996872 0.252277 0.485344
0.996658 0.280537 0.509514
0.996445 0.304051 0.53077
0.996216 0.325719 0.548928
0.0166629 0.214405 0.0565957
0.0167849 0.214389 0.055314
0.019501 0.210971 0.044892
0.0229953 0.208057 0.0340887
0.0409857 0.208347 0.0236667
0.0762036 0.21062 0.0287633
0.111498 0.211337 0.029099
0.142489 0.21207 0.0271916
0.188754 0.208927 0.0309453
0.241321 0.208225 0.0256199
0.313924 0.19234 0.0551308
0.37586 0.170489 0.0741588
0.42118 0.155795 0.0814679
0.451316 0.151507 0.0830854
0.490501 0.140246 0.0859083
0.534447 0.12459 0.0902876
0.580499 0.104311 0.0958267
0.631464 0.0772564 0.103288
0.691218 0.059266 0.126177
0.758587 0.0488594 0.15671
0.835828 0.0449226 0.189502
0.921279 0.0637522 0.233219
0.977661 0.0860609 0.277592
0.98175 0.0948501 0.307546
0.985443 0.105303 0.341619
0.98941 0.142489 0.356161
0.991928 0.171328 0.388174
0.99382 0.198383 0.418967
0.995773 0.229038 0.449104
0.996826 0.257893 0.476936
0.996658 0.285161 0.502266
0.99646 0.308888 0.524254
0.996246 0.330404 0.543069
0.0143893 0.258427 0.0679179
0.0144808 0.258457 0.0672313
0.0174563 0.25597 0.0562295
0.0208438 0.253239 0.044419
0.0315862 0.251911 0.0241245
0.0551003 0.256168 0.0258183
0.0998856 0.258732 0.0310063
0.139986 0.260441 0.0315557
0.178836 0.261997 0.0290074
0.235111 0.259556 0.0352026
0.294804 0.260212 0.0245823
0.368338 0.246494 0.0619364
0.43537 0.226093 0.0879072
0.487419 0.206409 0.102708
0.522057 0.199023 0.105699
0.55761 0.191852 0.107652
0.599252 0.178576 0.110643
0.646433 0.158175 0.115618
0.696559 0.130831 0.121386
0.758694 0.0933852 0.130144
0.830793 0.0675975 0.160342
0.901274 0.0497292 0.193515
0.981506 0.0669871 0.239078
0.981476 0.105684 0.279149
0.985473 0.115694 0.31693
0.988693 0.131716 0.355688
0.991211 0.156893 0.393942
0.993942 0.20499 0.40589
0.995712 0.234501 0.436942
0.996765 0.264622 0.466621
0.996628 0.290929 0.492729
0.99646 0.315084 0.515984
0.996262 0.335943 0.535775
0.0155032 0.308736 0.0813306
0.0155032 0.308736 0.0813306
0.018616 0.307378 0.0718547
0.0229038 0.304753 0.0574807
0.029221 0.304311 0.0379339
0.0416876 0.30428 0.0278019
0.0766003 0.310506 0.0313115
0.129732 0.314275 0.0355077
0.176257 0.316518 0.0361028
0.222034 0.317922 0.0336461
0.286198 0.314977 0.0413519
0.350225 0.316594 0.0213169
0.418112 0.307042 0.0652018
0.491737 0.286976 0.101808
0.547097 0.26952 0.121019
0.589609 0.255222 0.13164
0.622156 0.248539 0.134279
0.664698 0.235828 0.135973
0.713176 0.215305 0.138613
0.765805 0.187121 0.142336
0.826627 0.149874 0.148409
0.899413 0.0972 0.157992
0.965408 0.0718395 0.196674
0.987564 0.0791485 0.231662
0.986343 0.121706 0.278035
0.988602 0.143557 0.325338
0.991104 0.166735 0.369223
0.993286 0.189212 0.409125
0.995285 0.216831 0.445182
0.996658 0.271687 0.453956
0.996582 0.297902 0.48159
0.996445 0.322621 0.505684
0.996277 0.342947 0.526894
0.02121 0.363287 0.0985275
0.02121 0.363287 0.0985275
0.0238956 0.362463 0.0916609
0.0286717 0.360311 0.0766918
0.0318761 0.36144 0.0604105
0.0345464 0.360098 0.0395666
0.0562142 0.361501 0.0340734
0.106233 0.367926 0.0375982
0.164996 0.369955 0.0425116
0.21973 0.370748 0.0411536
0.267826 0.373404 0.0392767
0.340505 0.370855 0.0492714
0.404883 0.373999 0.0204166
0.471916 0.366018 0.0710765
0.545998 0.350256 0.114885
0.603006 0.335531 0.13756
0.651011 0.321584 0.151949
0.685588 0.313298 0.158556
0.730816 0.295506 0.163989
0.781674 0.275837 0.164904
0.839139 0.247089 0.166796
0.895781 0.211536 0.169848
0.958389 0.163714 0.175814
1 0.10869 0.185763
0.995056 0.0987106 0.219821
0.992416 0.136339 0.270909
0.990509 0.181399 0.327688
0.993103 0.203418 0.379538
0.9953 0.22826 0.422339
0.996658 0.253513 0.459846
0.996704 0.278752 0.492424
0.996399 0.330495 0.493538
0.996277 0.350256 0.515984
0.0287022 0.416693 0.117861
0.0287022 0.416693 0.117861
0.0298466 0.416678 0.111986
0.0319677 0.414954 0.0990005
0.0349584 0.415747 0.0836347
0.0383154 0.416449 0.067628
0.043122 0.415335 0.0440223
0.0803388 0.418677 0.0419928
0.139681 0.423575 0.0467842
0.208881 0.424323 0.0501717
0.269886 0.42472 0.0457313
0.318334 0.429603 0.049424
0.394659 0.426978 0.062501
0.459342 0.430137 0.0278782
0.525567 0.424018 0.0774548
0.598383 0.411826 0.128481
0.659251 0.397787 0.154772
0.711742 0.384009 0.172305
0.748943 0.375586 0.180209
0.798474 0.355215 0.190707
0.851316 0.333989 0.19295
0.906111 0.307515 0.193149
0.957824 0.275227 0.193957
1 0.232792 0.195392
1 0.187259 0.193835
1 0.124163 0.19678
1 0.156695 0.259022
0.99292 0.225818 0.331319
0.994888 0.245762 0.387579
0.996521 0.270191 0.432242
0.996582 0.292485 0.470268
0.99649 0.314076 0.502083
0.996307 0.333516 0.528695
0.0328374 0.471275 0.140169
0.0328374 0.471275 0.140169
0.033402 0.471778 0.134997
0.0358282 0.470375 0.123964
0.0399939 0.470481 0.108309
0.0427558 0.471824 0.0971695
0.0467079 0.472282 0.0763256
0.0624399 0.472068 0.0508125
0.112016 0.476631 0.0512551
0.182696 0.479454 0.0586099
0.259953 0.4795 0.061738
0.319463 0.480903 0.0551919
0.371481 0.48687 0.0654917
0.449012 0.482933 0.0781262
0.513649 0.486076 0.0416114
0.577813 0.481834 0.0837568
0.650965 0.471672 0.143603
0.715755 0.457649 0.173617
0.7729 0.443778 0.193317
0.816464 0.434012 0.203769
0.860761 0.418372 0.212924
0.913771 0.391226 0.221988
0.963241 0.366781 0.22089
1 0.337469 0.219226
1 0.303502 0.215412
1 0.264469 0.211475
1 0.210315 0.208103
1 0.181292 0.238788
1 0.247211 0.320089
0.99588 0.294347 0.386114
0.996262 0.312367 0.437568
0.996368 0.332174 0.475929
0.996307 0.349065 0.506966
0.0385748 0.526345 0.164889
0.0385748 0.526345 0.164889
0.0390173 0.526818 0.161959
0.0413672 0.526177 0.152163
0.0448615 0.526207 0.136721
0.0484169 0.526635 0.123339
0.0522927 0.528237 0.11191
0.0603342 0.52874 0.08336
0.0893873 0.528649 0.0596475
0.155673 0.533883 0.0669718
0.236957 0.535546 0.075227
0.317937 0.534615 0.0740826
0.371267 0.53843 0.0685435
0.424353 0.544076 0.0854505
0.5028 0.538994 0.0961166
0.566537 0.540978 0.059678
0.631189 0.538354 0.0963149
0.704982 0.528756 0.16289
0.773816 0.51516 0.196246
0.833555 0.501106 0.218555
0.876951 0.491218 0.229831
0.915236 0.479667 0.237171
0.962768 0.454963 0.247257
1 0.427161 0.251133
1 0.402823 0.24654
1 0.372885 0.239429
1 0.335409 0.232822
1 0.293645 0.227878
1 0.244434 0.236316
1 0.273274 0.302998
1 0.327565 0.377203
0.995987 0.356802 0.430701
0.996216 0.369985 0.475578
0.0450294 0.581048 0.194812
0.0450294 0.581048 0.194812
0.0458534 0.581811 0.190143
0.0488594 0.580972 0.17966
0.0530556 0.581018 0.164675
0.0578775 0.581155 0.151522
0.0628977 0.581994 0.138384
0.0689097 0.583215 0.119188
0.0775006 0.583459 0.0815747
0.129519 0.586862 0.0762798
0.216327 0.589731 0.0879072
0.301549 0.589899 0.0944381
0.382712 0.588891 0.0849317
0.423972 0.595865 0.0859388
0.479912 0.600549 0.104967
0.555901 0.594171 0.11635
0.619318 0.594995 0.0824903
0.684657 0.592584 0.116045
0.7626 0.581827 0.186603
0.829709 0.570199 0.222248
0.885206 0.557519 0.244999
0.927108 0.547921 0.256748
0.957748 0.540337 0.261845
0.995163 0.521035 0.270344
1 0.49839 0.27422
1 0.470603 0.27451
1 0.44126 0.269368
1 0.407309 0.261433
1 0.372351 0.25539
1 0.326863 0.249928
1 0.32163 0.297551
1 0.355413 0.363607
1 0.387198 0.416052
0.0544442 0.635843 0.225742
0.0544442 0.635843 0.225742
0.0561532 0.636805 0.218036
0.0597086 0.635782 0.208148
0.0641642 0.635645 0.196338
0.0688945 0.635691 0.183764
0.0738079 0.636042 0.167834
0.079469 0.637446 0.152514
0.0881971 0.638254 0.123613
0.110811 0.63827 0.0910353
0.189624 0.644282 0.0992905
0.281605 0.645441 0.110277
0.370581 0.644968 0.111452
0.436088 0.646281 0.101656
0.476417 0.653773 0.106676
0.534249 0.656992 0.126497
0.607782 0.649607 0.13843
0.671275 0.648554 0.113313
0.737697 0.645914 0.140932
0.817685 0.633677 0.215
0.877806 0.623468 0.249042
0.928008 0.612802 0.271656
0.963149 0.604913 0.282597
0.984573 0.600427 0.284459
1 0.587762 0.28835
1 0.571389 0.288792
1 0.547936 0.289586
1 0.518608 0.28986
1 0.480369 0.289952
1 0.445701 0.285466
1 0.411597 0.279866
1 0.373922 0.283452
1 0.396521 0.35523
0.0663615 0.691386 0.255482
0.0666361 0.691539 0.254124
0.0686351 0.692287 0.245838
0.0717632 0.69131 0.238651
0.0762951 0.691341 0.228916
0.0809949 0.691356 0.217182
0.0868391 0.691402 0.201221
0.0920729 0.691875 0.184283
0.0979934 0.693385 0.164462
0.107576 0.693782 0.125093
0.159243 0.698238 0.113527
0.259281 0.701106 0.124575
0.352255 0.701732 0.131991
0.436377 0.701137 0.129351
0.488594 0.704952 0.123522
0.528054 0.711574 0.132204
0.586007 0.713207 0.150072
0.65919 0.705333 0.162951
0.722026 0.701473 0.147097
0.790585 0.698497 0.169589
0.865385 0.684977 0.242695
0.91632 0.676371 0.280217
0.957214 0.667308 0.301488
0.983246 0.660853 0.308797
0.989837 0.6598 0.303502
0.991165 0.650828 0.302815
0.99324 0.637156 0.303075
0.996399 0.617273 0.304555
1 0.593164 0.305577
1 0.562478 0.306981
1 0.524575 0.308751
1 0.488945 0.311009
1 0.456184 0.307515
0.0825208 0.748348 0.288197
0.082826 0.748577 0.284627
0.0836347 0.748913 0.277668
0.0867323 0.747997 0.270451
0.090425 0.748012 0.260685
0.0939498 0.747997 0.25066
0.0990158 0.747845 0.237369
0.105257 0.747677 0.219745
0.111727 0.748333 0.198566
0.118563 0.749798 0.175631
0.137682 0.752071 0.131807
0.225559 0.758984 0.141146
0.33228 0.759686 0.153017
0.420691 0.759976 0.156985
0.499046 0.759258 0.150118
0.540337 0.764828 0.150668
0.57908 0.770459 0.161196
0.637034 0.770779 0.179278
0.709651 0.761807 0.189334
0.772229 0.75433 0.17937
0.838727 0.750698 0.198764
0.90486 0.735302 0.281788
0.945205 0.728069 0.322164
0.974411 0.720684 0.341314
0.983948 0.716167 0.34435
0.983368 0.716106 0.332097
0.98407 0.708553 0.326574
0.985412 0.696712 0.322133
0.987823 0.679332 0.323018
0.990875 0.658381 0.323598
0.994705 0.633417 0.325048
0.999451 0.603601 0.327047
1 0.574304 0.33051
0.0988937 0.807218 0.319387
0.0993057 0.807431 0.313695
0.0999161 0.807782 0.306569
0.102937 0.806775 0.300404
0.106676 0.806653 0.292546
0.110155 0.806638 0.284276
0.114214 0.806561 0.273106
0.119417 0.806409 0.254704
0.126177 0.80647 0.234226
0.13431 0.807355 0.212573
0.142992 0.808392 0.17969
0.199145 0.816968 0.162295
0.305821 0.819409 0.17525
0.405447 0.818936 0.18468
0.4851 0.818372 0.185748
0.552361 0.817838 0.178073
0.590738 0.82266 0.180575
0.628351 0.826764 0.191974
0.686366 0.825864 0.209033
0.758816 0.816968 0.218921
0.82063 0.807538 0.216052
0.881315 0.8038 0.246769
0.937407 0.787472 0.327794
0.96875 0.77937 0.36318
0.981582 0.77406 0.379416
0.981353 0.769726 0.380728
0.981064 0.769863 0.368917
0.980545 0.763836 0.362722
0.979995 0.753292 0.358373
0.981445 0.737835 0.354986
0.983963 0.718624 0.352773
0.986664 0.697078 0.350973
0.990173 0.671946 0.35288
0.116655 0.860945 0.34844
0.117052 0.861295 0.34168
0.117296 0.861524 0.336141
0.119463 0.860609 0.330861
0.122942 0.860456 0.324086
0.126726 0.860365 0.316258
0.131136 0.860288 0.306157
0.136706 0.860166 0.291569
0.14313 0.860014 0.271717
0.150484 0.860075 0.246098
0.158297 0.860899 0.222965
0.186282 0.869337 0.194324
0.269169 0.87454 0.196765
0.382818 0.873243 0.209857
0.470481 0.87155 0.216464
0.544671 0.869581 0.215076
0.601358 0.869261 0.208591
0.637079 0.873228 0.212558
0.674754 0.876951 0.223423
0.734508 0.875547 0.238621
0.808011 0.866926 0.249546
0.864439 0.856336 0.280674
0.918196 0.851545 0.312154
0.964431 0.836561 0.374121
0.985687 0.828809 0.403937
0.985611 0.822782 0.415137
0.985412 0.819379 0.415778
0.985077 0.820142 0.402762
0.984497 0.814557 0.394949
0.983734 0.805249 0.389227
0.982818 0.791318 0.387091
0.981796 0.774563 0.386572
0.980758 0.755596 0.386984
0.136889 0.908812 0.374609
0.13727 0.909026 0.367758
0.137545 0.909361 0.361563
0.139437 0.908629 0.356802
0.142336 0.90837 0.351232
0.145342 0.908186 0.345464
0.148821 0.908064 0.337911
0.15349 0.907942 0.325933
0.160204 0.907759 0.307607
0.168811 0.907576 0.284443
0.181704 0.909651 0.25977
0.203235 0.915984 0.243275
0.247852 0.922774 0.225238
0.353094 0.922515 0.235111
0.451133 0.919203 0.243336
0.531243 0.915785 0.246342
0.599268 0.912871 0.242786
0.646448 0.914214 0.239948
0.680415 0.918044 0.247547
0.719463 0.921569 0.26125
0.78294 0.91986 0.28127
0.854414 0.912566 0.310018
0.90399 0.900252 0.343221
0.949096 0.893874 0.373877
0.984543 0.879759 0.422171
0.990723 0.872053 0.446387
0.990555 0.866346 0.455726
0.990265 0.863355 0.455314
0.989807 0.864836 0.441062
0.989075 0.860304 0.433387
0.988067 0.852018 0.426352
0.986999 0.839643 0.423194
0.985885 0.824842 0.419959
0.157824 0.948058 0.399207
0.158114 0.948241 0.393225
0.158297 0.948363 0.38761
0.159457 0.948165 0.38201
0.162814 0.947921 0.377111
0.166049 0.947768 0.371695
0.16968 0.947646 0.364935
0.174029 0.947509 0.355276
0.179629 0.94728 0.341909
0.186374 0.947082 0.322118
0.203967 0.950286 0.301885
0.227329 0.955917 0.283391
0.258824 0.960418 0.274296
0.329671 0.962386 0.280369
0.430198 0.9579 0.289647
0.514366 0.953567 0.295933
0.585626 0.950011 0.298528
0.644312 0.948425 0.298833
0.687648 0.951064 0.301823
0.724147 0.954757 0.31162
0.765652 0.957946 0.325338
0.831189 0.95639 0.341238
0.893553 0.948196 0.367086
0.935927 0.93547 0.400229
0.973693 0.929473 0.429023
0.996201 0.917189 0.467887
0.996902 0.909499 0.487068
0.996704 0.904479 0.496376
0.996368 0.902373 0.494987
0.995911 0.90457 0.479423
0.995026 0.900496 0.471626
0.993835 0.893202 0.464668
0.992401 0.881941 0.461295
0.180896 0.978073 0.421057
0.181064 0.978073 0.415763
0.18117 0.978149 0.410147
0.181201 0.978164 0.405371
0.183261 0.978134 0.401282
0.185611 0.977996 0.397147
0.188449 0.977813 0.391852
0.192309 0.977584 0.383902
0.197436 0.977417 0.372519
0.207355 0.978088 0.35845
0.227573 0.981384 0.345037
0.249546 0.984863 0.327871
0.294545 0.986374 0.325307
0.343099 0.987121 0.334035
0.413306 0.985412 0.340475
0.497276 0.980896 0.347204
0.570474 0.97734 0.3523
0.633722 0.974792 0.3552
0.684627 0.975189 0.357687
0.727504 0.978027 0.363836
0.767163 0.981125 0.373907
0.813916 0.98291 0.386496
0.873426 0.980667 0.399405
0.926207 0.972976 0.423896
0.962493 0.962509 0.454047
0.990951 0.956878 0.480232
0.99884 0.946212 0.516167
0.99968 0.93959 0.53315
1 0.935592 0.540612
0.999924 0.934997 0.536706
0.999023 0.937316 0.521324
0.998505 0.934112 0.51252
0.998077 0.92752 0.504997
0.203876 0.996002 0.44213
0.203876 0.996002 0.43711
0.203815 0.996017 0.432502
0.203754 0.996017 0.427466
0.204425 0.996017 0.423392
0.206882 0.996017 0.419577
0.209598 0.996017 0.415061
0.21323 0.996017 0.408209
0.22179 0.996002 0.401572
0.235203 0.995972 0.394766
0.252872 0.995941 0.384558
0.278264 0.99588 0.371359
0.329442 0.995727 0.374853
0.374365 0.995575 0.379873
0.415396 0.995407 0.389136
0.484962 0.992493 0.395941
0.556222 0.989059 0.401434
0.620523 0.986419 0.405936
0.679454 0.985107 0.409461
0.72604 0.98677 0.414054
0.768673 0.988922 0.422858
0.811246 0.990463 0.434012
0.857359 0.990677 0.444144
0.908797 0.991455 0.453925
0.950027 0.985092 0.479469
0.982834 0.980179 0.506218
0.999771 0.975326 0.532067
1 0.967239 0.56318
1 0.962142 0.578683
1 0.959457 0.584726
1 0.960647 0.576135
1 0.961868 0.561959
1 0.959426 0.551751
0.224216 0.995926 0.458701
0.224231 0.995926 0.45478
0.224125 0.995941 0.450248
0.223941 0.995941 0.44596
0.224948 0.995941 0.442802
0.226108 0.995941 0.439689
0.231678 0.995926 0.437766
0.238972 0.995911 0.434607
0.249256 0.995895 0.430503
0.26183 0.995865 0.424277
0.276295 0.995834 0.415747
0.317372 0.995697 0.417838
0.359457 0.99556 0.419852
0.401373 0.995407 0.423041
0.441352 0.995254 0.429145
0.482689 0.994415 0.438666
0.5458 0.991836 0.444862
0.608423 0.989593 0.449714
0.667582 0.988342 0.45362
0.721691 0.989181 0.457389
0.763241 0.990295 0.466011
0.808026 0.990646 0.476234
0.850889 0.990127 0.487205
0.890425 0.990799 0.492973
0.935347 0.99147 0.503655
0.97232 0.984268 0.530999
0.996384 0.984253 0.555978
1 0.983841 0.582315
1 0.980148 0.611185
1 0.976745 0.62504
1 0.975326 0.62887
1 0.977768 0.614511
1 0.977829 0.602274
0.262516 0.995773 0.483558
0.261967 0.995789 0.479454
0.261448 0.995789 0.475608
0.260945 0.995804 0.471366
0.261753 0.995804 0.468605
0.262654 0.995804 0.465629
0.264286 0.995804 0.462425
0.271122 0.995789 0.460014
0.27895 0.995758 0.456596
0.299519 0.995697 0.457237
0.328725 0.995605 0.459709
0.358953 0.995499 0.462165
0.39324 0.995377 0.464424
0.429831 0.995224 0.466804
0.46659 0.995087 0.470405
0.502785 0.994873 0.477394
0.545205 0.993652 0.487144
0.600015 0.992065 0.492653
0.657298 0.990692 0.497322
0.713741 0.98996 0.501915
0.761273 0.990234 0.507897
0.802976 0.99028 0.51751
0.847044 0.989899 0.52813
0.885069 0.990173 0.534798
0.919463 0.990967 0.539071
0.953063 0.986465 0.552254
0.988632 0.983886 0.576806
1 0.983536 0.604318
1 0.9832 0.632212
1 0.982849 0.659876
1 0.982895 0.672145
1 0.982879 0.671275
1 0.98294 0.652934
0.320394 0.995544 0.516426
0.318624 0.99556 0.512123
