bundles/resolve-cinematic-luts/Phantom Luts/A7s3 Phntm Arri LUTs G7/SLog2+Sgamut3cine/Utopia A7s3 Sl2sg3c.cube
TITLE "Generated by Resolve"
LUT_3D_SIZE 5
0.00834669 0.0331273 0.0419928
0.212924 0.0214694 0.0562448
0.595209 0.033341 0.156039
0.883558 0.164477 0.393439
0.95053 0.420783 0.628412
0 0.281712 0.0320592
0.236072 0.259586 0.0394598
0.628138 0.14226 0.102647
0.886061 0.16054 0.342748
0.951629 0.398322 0.572976
0.0121614 0.733822 0.23566
0.0868544 0.740826 0.0860304
0.705318 0.687083 0.191653
0.962097 0.656596 0.333242
0.972763 0.471809 0.396124
0.214969 0.999969 0.488029
0.248875 0.999969 0.438346
0.662654 0.999969 0.434943
0.987488 0.956939 0.566873
0.999969 0.9393 0.637003
0.640681 0.999969 0.749783
0.637888 0.999969 0.729931
0.735454 0.999969 0.746212
0.942 0.990295 0.811597
0.999039 0.985565 0.880888
0 0.0380865 0.199939
0.194308 0.0194858 0.206897
0.57673 0.0336004 0.289677
0.878447 0.155184 0.443931
0.945785 0.424674 0.65832
0 0.251469 0.235706
0.223392 0.252872 0.25922
0.669886 0.107866 0.222141
0.893935 0.180117 0.406195
0.955764 0.466285 0.665034
0 0.7149 0.364538
0.0279393 0.732982 0.243702
0.698604 0.681407 0.20148
0.973007 0.624399 0.385992
0.971313 0.517174 0.57258
0.207431 0.999969 0.533684
0.219287 0.999969 0.488487
0.616159 0.999969 0.440665
0.987335 0.956786 0.56762
0.999969 0.935775 0.648875
0.646418 0.999969 0.76701
0.655512 0.999969 0.758877
0.732754 0.999969 0.759426
0.939437 0.990677 0.812161
0.998764 0.985748 0.881697
0 0.060441 0.495079
0.169223 0.0314641 0.530205
0.55642 0.0484321 0.535576
0.829236 0.113954 0.601343
0.92575 0.377295 0.729168
0 0.215351 0.50248
0 0.136507 0.608698
0.58883 0.0594339 0.559121
0.828016 0.115862 0.577188
0.93846 0.430213 0.736904
0 0.664851 0.626123
0.00721752 0.667002 0.628672
0.627863 0.641443 0.635859
0.973312 0.536828 0.587594
0.961486 0.577447 0.752087
0.187045 0.983871 0.677668
0.193378 0.988479 0.657465
0.489128 0.999969 0.588342
0.972427 0.950423 0.652903
0.999298 0.917388 0.724544
0.638392 0.999969 0.809964
0.646525 0.999969 0.808469
0.701442 0.999969 0.791119
0.925872 0.99321 0.815824
0.998993 0.985702 0.882414
0 0.0954452 0.733394
0.131456 0.0572824 0.773816
0.495888 0.048249 0.746944
0.796613 0.126986 0.783963
0.843961 0.192401 0.828992
0 0.202716 0.731304
0 0.120653 0.783078
0.511025 0.0559396 0.802853
0.790875 0.131716 0.7841
0.872572 0.269123 0.86656
0 0.647532 0.80267
0 0.643137 0.817411
0.494957 0.629541 0.940612
0.928649 0.45687 0.901884
0.93077 0.469383 0.906783
0.166979 0.939696 0.900175
0.168765 0.941924 0.903349
0.411093 0.9458 0.910674
0.917815 0.918166 0.910414
0.989548 0.888045 0.919356
0.603479 0.997208 0.910658
0.621942 0.99736 0.912077
0.693782 0.997314 0.910643
0.869459 0.998108 0.898589
0.997574 0.988296 0.931182
0 0.123537 0.830106
0.0208133 0.0777142 0.844556
0.487556 0.0613413 0.845411
0.775418 0.116091 0.8112
0.810178 0.152193 0.841337
0 0.22594 0.800259
0 0.210376 0.811582
0.435843 0.0605631 0.849882
0.777432 0.121035 0.808377
0.813199 0.156985 0.84416
0 0.658473 0.858366
0 0.654231 0.872816
0.335058 0.645243 0.952804
0.922515 0.49688 0.950103
0.832456 0.193179 0.861738
0.0702983 0.920653 0.958419
0.0790112 0.924895 0.967926
0.371801 0.928771 0.988449
0.865293 0.913542 0.988602
0.977081 0.842725 0.978653
0.548348 0.996872 0.990143
0.571786 0.996887 0.992416
0.653666 0.99646 0.993484
0.855314 0.995331 0.993606
0.994385 0.990906 0.989502
