bundles/resolve-cinematic-luts/Phantom Luts/A7s3 Phntm Arri LUTs G7/SLog2+Sgamut3cine/Utopia A7s3 Sl2sg3c.cube
TITLE "Generated by Resolve"
LUT_3D_SIZE 9
0.00834669 0.0331273 0.0419928
0.0365301 0.0291142 0.0456855
0.212924 0.0214694 0.0562448
0.407813 0.0168307 0.0874037
0.595209 0.033341 0.156039
0.772274 0.0740978 0.263279
0.883558 0.164477 0.393439
0.926696 0.29807 0.522789
0.95053 0.420783 0.628412
0 0.068513 0.0428016
0.0328527 0.064622 0.037583
0.201251 0.0342718 0.0431067
0.405264 0.0197757 0.067155
0.599542 0.0373541 0.141115
0.775937 0.0796521 0.243549
0.883543 0.160952 0.372839
0.923751 0.280476 0.495583
0.945678 0.384497 0.588983
0 0.281712 0.0320592
0.00970474 0.274235 0
0.236072 0.259586 0.0394598
0.489952 0.194278 0.101518
0.628138 0.14226 0.102647
0.780072 0.0767529 0.16286
0.886061 0.16054 0.342748
0.931167 0.295308 0.469551
0.951629 0.398322 0.572976
0 0.515755 0.0870069
0 0.516197 0.0344701
0.161486 0.5178 0
0.483497 0.481483 0.081117
0.70631 0.464454 0.173053
0.860655 0.408988 0.239673
0.929229 0.28983 0.229618
0.936599 0.317784 0.396323
0.954177 0.403113 0.556466
0.0121614 0.733822 0.23566
0.0310521 0.737667 0.191791
0.0868544 0.740826 0.0860304
0.487831 0.707729 0.111757
0.705318 0.687083 0.191653
0.882612 0.675258 0.293172
0.962097 0.656596 0.333242
0.973236 0.573068 0.340154
0.972763 0.471809 0.396124
0.0978256 0.922957 0.387793
0.109743 0.926772 0.35523
0.152605 0.930312 0.284855
0.369818 0.930907 0.193866
0.713161 0.886625 0.269993
0.886625 0.864515 0.344869
0.985107 0.842756 0.473808
0.986221 0.833463 0.467643
0.975174 0.791318 0.447547
0.214969 0.999969 0.488029
0.218006 0.999969 0.467033
0.248875 0.999969 0.438346
0.400473 0.999969 0.397971
0.662654 0.999969 0.434943
0.86659 0.985016 0.505013
0.987488 0.956939 0.566873
0.999969 0.942504 0.658427
0.999969 0.9393 0.637003
0.419898 0.999969 0.594034
0.418143 0.999969 0.581308
0.439338 0.999969 0.573541
0.528344 0.999969 0.579889
0.666331 0.999969 0.596826
0.84593 0.996841 0.645518
0.959915 0.980484 0.692042
0.999969 0.973114 0.741192
0.999969 0.979904 0.82121
0.640681 0.999969 0.749783
0.629816 0.999969 0.733303
0.637888 0.999969 0.729931
0.666102 0.999969 0.730663
0.735454 0.999969 0.746212
0.850507 0.998978 0.772488
0.942 0.990295 0.811597
0.994064 0.983185 0.842649
0.999039 0.985565 0.880888
0 0.0322118 0.0624094
0.0303044 0.0290532 0.0665293
0.200549 0.0189059 0.119707
0.397391 0.0129397 0.139712
0.580758 0.0271458 0.198413
0.755261 0.0588388 0.297658
0.885847 0.163409 0.42089
0.924727 0.29865 0.543755
0.948257 0.427146 0.646326
0 0.0623484 0.0699931
0.0287175 0.0587778 0.0682994
0.238254 0.0325475 0.0678416
0.410529 0.0177768 0.0883192
0.598718 0.0345464 0.158007
0.778195 0.0747234 0.264622
0.88925 0.163928 0.394354
0.926452 0.294728 0.520287
0.94789 0.412314 0.621332
0 0.276524 0.121202
0 0.281651 0.0333104
0.233005 0.256565 0.0408331
0.484245 0.188006 0.10724
0.640452 0.117906 0.110842
0.805692 0.097322 0.209522
0.896315 0.180255 0.353964
0.933913 0.310399 0.499336
0.953597 0.425757 0.610513
0 0.509941 0.152514
0 0.517082 0.0882582
0.0868849 0.523033 0
0.48246 0.480354 0.0809949
0.709621 0.456397 0.183474
0.867735 0.390311 0.250614
0.920897 0.253773 0.237797
0.939895 0.325307 0.449866
0.962814 0.453666 0.581476
0.00158694 0.726909 0.285161
0.0121614 0.735012 0.23653
0.0643473 0.742519 0.134005
0.457145 0.714946 0.107698
0.705058 0.686763 0.191684
0.885771 0.671885 0.303471
0.965301 0.64741 0.34522
0.978607 0.540291 0.359594
0.970794 0.504128 0.489158
0.0926528 0.917708 0.422065
0.0960098 0.924712 0.387579
0.131365 0.930907 0.329595
0.299474 0.936263 0.190127
0.707988 0.88777 0.269368
0.886809 0.864652 0.345571
0.985229 0.841123 0.479805
0.984787 0.82977 0.471809
0.971008 0.770077 0.456992
0.211093 0.999969 0.508309
0.213642 0.999969 0.488014
0.230838 0.999969 0.457801
0.371008 0.999969 0.40354
0.646723 0.999969 0.436408
0.864149 0.985779 0.506355
0.987549 0.95697 0.567269
0.999969 0.94197 0.661341
0.999969 0.937713 0.636927
0.423163 0.999969 0.608499
0.424689 0.999969 0.596704
0.439994 0.999969 0.585748
0.520043 0.999969 0.586557
0.6598 0.999969 0.600809
0.842191 0.997345 0.64686
0.959045 0.980575 0.693049
0.999969 0.973129 0.74136
0.999969 0.980224 0.822522
0.647486 0.999969 0.760891
0.645945 0.999969 0.751995
0.65275 0.999969 0.748974
0.672328 0.999969 0.743191
0.738643 0.999969 0.756786
0.848508 0.999115 0.775891
0.941024 0.990402 0.811749
0.993835 0.983185 0.842695
0.99881 0.985718 0.881437
0 0.0380865 0.199939
0.0465705 0.0289616 0.209857
0.194308 0.0194858 0.206897
0.388327 0.0146944 0.241642
0.57673 0.0336004 0.289677
0.749523 0.0602579 0.35024
0.878447 0.155184 0.443931
0.92018 0.293812 0.562081
0.945785 0.424674 0.65832
0 0.0634318 0.178775
0 0.0436103 0.23447
0.212299 0.0208438 0.220783
0.388907 0.0145724 0.21738
0.579721 0.0289006 0.249302
0.747539 0.0533608 0.31104
0.883436 0.159899 0.426734
0.921538 0.290059 0.543435
0.945129 0.410132 0.637491
0 0.251469 0.235706
0 0.253758 0.236759
0.223392 0.252872 0.25922
0.490867 0.185367 0.227543
0.669886 0.107866 0.222141
0.780118 0.0735485 0.263554
0.893935 0.180117 0.406195
0.934325 0.327764 0.545144
0.955764 0.466285 0.665034
0 0.49395 0.270451
0 0.49984 0.234379
0.0105287 0.512642 0.124361
0.474617 0.478386 0.184939
0.693355 0.439002 0.232792
0.882933 0.34966 0.283101
0.920485 0.260548 0.321767
0.945174 0.349187 0.495491
0.964538 0.48838 0.637964
0 0.7149 0.364538
0 0.72166 0.326528
0.0279393 0.732982 0.243702
0.355581 0.729503 0.114092
0.698604 0.681407 0.20148
0.88481 0.660533 0.346822
0.973007 0.624399 0.385992
0.980468 0.513848 0.412314
0.971313 0.517174 0.57258
0.090425 0.908888 0.461265
0.0888991 0.914824 0.437537
0.104204 0.925658 0.389151
0.218784 0.935515 0.230442
0.694087 0.889433 0.270619
0.886198 0.864118 0.347402
0.983307 0.836851 0.498238
0.98352 0.824063 0.495476
0.972641 0.753262 0.495262
0.207431 0.999969 0.533684
0.206516 0.999969 0.517586
0.219287 0.999969 0.488487
0.317372 0.999969 0.423377
0.616159 0.999969 0.440665
0.858717 0.986893 0.509773
0.987335 0.956786 0.56762
0.999969 0.940658 0.669749
0.999969 0.935775 0.648875
0.420981 0.999969 0.623438
0.421393 0.999969 0.614069
0.440452 0.999969 0.603555
0.49868 0.999969 0.591363
0.646799 0.999969 0.603601
0.834409 0.998184 0.647562
0.957748 0.980697 0.694026
0.999969 0.973068 0.740917
0.999969 0.980423 0.824704
0.646418 0.999969 0.76701
0.643503 0.999969 0.759869
0.655512 0.999969 0.758877
0.669429 0.999969 0.749508
0.732754 0.999969 0.759426
0.843107 0.999329 0.776684
0.939437 0.990677 0.812161
0.993347 0.983261 0.842924
0.998764 0.985748 0.881697
0 0.0487068 0.353094
0.0125429 0.0348516 0.37966
0.185962 0.0202335 0.374075
0.380316 0.0182956 0.375113
0.569314 0.039704 0.413062
0.741665 0.0719005 0.460563
0.848753 0.118746 0.493111
0.906569 0.269795 0.595239
0.940917 0.418387 0.683284
0 0.0656748 0.358526
0 0.0506294 0.388418
0.167147 0.0230716 0.40351
0.384329 0.0187381 0.378241
0.569436 0.0392157 0.40441
0.743252 0.0704814 0.438407
0.854063 0.123781 0.479896
0.907393 0.266331 0.581125
0.939025 0.403433 0.6663
0 0.242878 0.360571
0 0.237797 0.377142
0.10457 0.207691 0.472465
0.455299 0.124788 0.443168
0.599588 0.055375 0.393973
0.751537 0.0693675 0.396368
0.864378 0.141085 0.461509
0.919936 0.304509 0.585824
0.950683 0.462669 0.69366
0 0.464225 0.432502
0 0.466316 0.434485
0 0.464576 0.432258
0.444083 0.465248 0.465141
0.693187 0.411872 0.4383
0.891768 0.328283 0.41355
0.902724 0.20647 0.420249
0.940551 0.354818 0.565606
0.960327 0.523934 0.709819
0 0.693996 0.490074
0 0.697261 0.477592
0.00474556 0.702098 0.439567
0.260182 0.723964 0.377081
0.667124 0.669825 0.421515
0.867216 0.637217 0.442954
0.984512 0.566735 0.470832
0.969116 0.497337 0.491264
0.965408 0.531655 0.681361
0.0812238 0.890196 0.546319
0.0809949 0.893965 0.530983
0.0924849 0.902144 0.497948
0.158709 0.918273 0.398917
0.610636 0.911757 0.383276
0.869291 0.856916 0.437568
0.978485 0.826764 0.53933
0.979416 0.806134 0.545769
0.973968 0.711376 0.579416
0.203067 0.999252 0.583001
0.201663 0.999817 0.572519
0.209293 0.999969 0.553658
0.241047 0.999969 0.491203
0.533974 0.999969 0.454093
0.843656 0.989929 0.518288
0.986847 0.956115 0.568627
0.999969 0.937896 0.685924
0.999969 0.929442 0.675868
0.418708 0.999969 0.655161
0.417166 0.999969 0.648844
0.433753 0.999969 0.640848
0.471931 0.999969 0.617655
0.608911 0.999969 0.613825
0.809369 0.999664 0.64889
0.954345 0.981064 0.696193
0.999969 0.973037 0.739178
0.999969 0.980819 0.828916
0.644282 0.999969 0.782376
0.640452 0.999969 0.776715
0.650828 0.999969 0.776181
0.675242 0.999969 0.7729
0.718395 0.999969 0.766308
0.8271 0.999817 0.778531
0.934783 0.991684 0.813352
0.992111 0.983444 0.843473
0.998871 0.985718 0.88191
0 0.060441 0.495079
0 0.0438087 0.52163
0.169223 0.0314641 0.530205
0.367178 0.0230411 0.520714
0.55642 0.0484321 0.535576
0.739361 0.0782177 0.561959
0.829236 0.113954 0.601343
0.877668 0.212924 0.654078
0.92575 0.377295 0.729168
0 0.0704967 0.513893
0 0.0622263 0.526497
0.133867 0.0357977 0.557198
0.362814 0.0238956 0.529824
0.558083 0.0486305 0.536568
0.738415 0.0775616 0.556771
0.830228 0.11342 0.593622
0.876234 0.206943 0.643885
0.921904 0.358679 0.716045
0 0.215351 0.50248
0 0.203143 0.517586
0 0.136507 0.608698
0.365118 0.0527504 0.594553
0.58883 0.0594339 0.559121
0.741756 0.0792554 0.548898
0.828016 0.115862 0.577188
0.889372 0.244892 0.650614
0.93846 0.430213 0.736904
0 0.452766 0.557015
0 0.451545 0.564065
0 0.443091 0.581247
0.345312 0.435431 0.661173
0.66775 0.357992 0.636347
0.835355 0.236332 0.593378
0.846784 0.135729 0.542611
0.905074 0.282383 0.635309
0.952682 0.505638 0.756298
0 0.664851 0.626123
0 0.666484 0.628199
0.00721752 0.667002 0.628672
0.20499 0.670237 0.634836
0.627863 0.641443 0.635859
0.86215 0.604929 0.618189
0.973312 0.536828 0.587594
0.95642 0.430121 0.607706
0.961486 0.577447 0.752087
0.0710307 0.864637 0.664225
0.0694133 0.866728 0.659403
0.077409 0.870512 0.647181
0.127703 0.873472 0.599939
0.537255 0.885664 0.586648
0.829816 0.833204 0.62118
0.962066 0.807599 0.630884
0.981231 0.759182 0.6392
0.978164 0.678859 0.678126
0.187045 0.983871 0.677668
0.18555 0.985595 0.671199
0.193378 0.988479 0.657465
0.222629 0.996933 0.618067
0.489128 0.999969 0.588342
0.801648 0.989242 0.618036
0.972427 0.950423 0.652903
0.999969 0.932876 0.720729
0.999298 0.917388 0.724544
0.413413 0.999969 0.708461
0.413397 0.999969 0.705287
0.430625 0.999969 0.701564
0.46453 0.999969 0.689189
0.529107 0.999969 0.645319
0.754726 0.999969 0.655039
0.945403 0.982528 0.706386
0.999969 0.973068 0.739727
0.999969 0.981262 0.837659
0.638392 0.999969 0.809964
0.636057 0.999969 0.807263
0.646525 0.999969 0.808469
0.670863 0.999969 0.80766
0.701442 0.999969 0.791119
0.794705 0.999969 0.786221
0.925872 0.99321 0.815824
0.991592 0.984588 0.845838
0.998993 0.985702 0.882414
0 0.0766766 0.618601
0.00929274 0.052842 0.649897
0.166247 0.0437476 0.660136
0.349187 0.0356451 0.644038
0.528374 0.0409552 0.646769
0.7252 0.0882887 0.676722
0.814054 0.119966 0.697566
0.824002 0.14403 0.725216
0.894865 0.298131 0.797971
0 0.0897536 0.638437
0 0.0789807 0.644892
0.104997 0.0488136 0.677333
0.341833 0.0380102 0.664759
0.524926 0.0404364 0.649241
0.725048 0.0880598 0.676631
0.814374 0.119234 0.694621
0.82594 0.141512 0.724025
0.89044 0.278721 0.788678
0 0.179385 0.631418
0 0.167941 0.64622
0 0.0936904 0.702892
0.293599 0.0454414 0.716854
0.556497 0.0652934 0.704051
0.731502 0.092546 0.681239
0.809155 0.123339 0.692882
0.826001 0.150393 0.720058
0.914824 0.369299 0.814221
0 0.447333 0.65098
0 0.441474 0.65626
0 0.425101 0.676097
0.242161 0.387671 0.814298
0.603174 0.289403 0.814084
0.777478 0.158679 0.719387
0.814923 0.129427 0.687785
0.84654 0.184649 0.723888
0.937346 0.456245 0.826749
0 0.645365 0.727001
0 0.644907 0.732921
0 0.642695 0.742382
0.0758373 0.6542 0.784588
0.554665 0.631891 0.821485
0.841627 0.57528 0.796277
0.949035 0.486213 0.777691
0.913771 0.341421 0.74432
0.951827 0.529183 0.820188
0.0717784 0.834272 0.788602
0.0691234 0.835813 0.790539
0.0764782 0.837293 0.791562
0.114595 0.833631 0.786954
0.494026 0.830182 0.793805
0.79379 0.800702 0.789822
0.956436 0.772488 0.781186
0.979599 0.714672 0.758236
0.966812 0.642847 0.783368
0.173373 0.959838 0.79939
0.16968 0.961425 0.797757
0.175601 0.962982 0.79205
0.190326 0.965957 0.775692
0.44622 0.977722 0.756603
0.73611 0.971557 0.76289
0.943221 0.936599 0.792874
0.996689 0.922759 0.797742
0.99292 0.901259 0.826871
0.372122 0.999298 0.801236
0.374762 0.99939 0.799664
0.396139 0.999588 0.797528
0.440101 0.999893 0.789792
0.515801 0.999969 0.767163
0.715343 0.999969 0.771344
0.926711 0.991882 0.797131
0.999725 0.980148 0.819486
0.999924 0.981903 0.859464
0.628199 0.999176 0.849851
0.62858 0.999207 0.849058
0.641413 0.999237 0.850767
0.66656 0.999298 0.853574
0.69926 0.999634 0.848463
0.738033 0.999969 0.811948
0.903349 0.995575 0.819074
0.989578 0.986999 0.852934
0.998901 0.985916 0.884459
0 0.0954452 0.733394
0 0.0711681 0.757336
0.131456 0.0572824 0.773816
0.32871 0.0497444 0.76701
0.495888 0.048249 0.746944
0.696666 0.089128 0.765026
0.796613 0.126986 0.783963
0.808637 0.146746 0.79353
0.843961 0.192401 0.828992
0 0.109789 0.740917
0 0.103578 0.745327
0.0636759 0.0614481 0.776944
0.314534 0.051545 0.780575
0.49987 0.0492256 0.757809
0.696468 0.0891585 0.76585
0.796689 0.126741 0.783032
0.810788 0.144717 0.79472
0.835248 0.171527 0.816556
0 0.202716 0.731304
0 0.193606 0.743694
0 0.120653 0.783078
0.236683 0.0571756 0.810788
0.511025 0.0559396 0.802853
0.71931 0.100633 0.786648
0.790875 0.131716 0.7841
0.807553 0.151171 0.794278
0.872572 0.269123 0.86656
0 0.437446 0.726909
0 0.430045 0.733974
0 0.408789 0.75581
0.135927 0.352834 0.897353
0.523888 0.255406 0.908797
0.72517 0.133486 0.816114
0.796918 0.142351 0.787854
0.8065 0.155322 0.793194
0.905272 0.376577 0.8963
0 0.647532 0.80267
0 0.646799 0.809461
0 0.643137 0.817411
0.0329595 0.651102 0.857069
0.494957 0.629541 0.940612
0.80795 0.559808 0.940749
0.928649 0.45687 0.901884
0.869917 0.267918 0.848707
0.93077 0.469383 0.906783
0.00108339 0.805798 0.85864
0 0.807523 0.864897
0.00750744 0.809735 0.872755
0.0641489 0.813138 0.891371
0.435523 0.823911 0.920867
0.738613 0.79263 0.926238
0.940734 0.750576 0.907393
0.964172 0.686 0.897597
0.953414 0.592355 0.889128
0.166979 0.939696 0.900175
0.163119 0.9411 0.902541
0.168765 0.941924 0.903349
0.182635 0.942687 0.9037
0.411093 0.9458 0.910674
0.706203 0.935073 0.911482
0.917815 0.918166 0.910414
0.991684 0.903899 0.906111
0.989548 0.888045 0.919356
0.326085 0.996887 0.900649
0.329809 0.997116 0.90103
0.353262 0.997375 0.901152
0.400977 0.997848 0.900359
0.473991 0.998169 0.895201
0.696498 0.997681 0.895476
0.889311 0.994675 0.897887
0.990112 0.981598 0.915572
0.996841 0.979797 0.916579
0.603479 0.997208 0.910658
0.605142 0.99733 0.911498
0.621942 0.99736 0.912077
0.654963 0.997299 0.912261
0.693782 0.997314 0.910643
0.736873 0.997818 0.898039
0.869459 0.998108 0.898589
0.97734 0.990677 0.917159
0.997574 0.988296 0.931182
0 0.112612 0.810788
0 0.106203 0.817395
0.0760662 0.0675364 0.833158
0.301671 0.0594034 0.839979
0.485466 0.0577554 0.823743
0.645518 0.0665751 0.79884
0.788006 0.128008 0.818387
0.799222 0.145022 0.829816
0.813397 0.15874 0.841657
0 0.123995 0.80177
0 0.11986 0.80914
0.016556 0.0754406 0.829679
0.280293 0.0601053 0.842451
0.493431 0.0589303 0.831388
0.644938 0.0663767 0.798611
0.788205 0.128237 0.818387
0.800397 0.143923 0.831128
0.815717 0.156344 0.844434
0 0.217578 0.781506
0 0.215473 0.791058
0 0.173114 0.803372
0.168017 0.0653544 0.852033
0.473335 0.0608377 0.847456
0.707134 0.0958267 0.826001
0.785672 0.131945 0.816083
0.79826 0.148882 0.827939
0.820432 0.167788 0.848981
0 0.440452 0.771099
0 0.43331 0.778881
0 0.410697 0.799756
0 0.35436 0.885115
0.461631 0.251469 0.930739
0.692592 0.134569 0.86598
0.796933 0.147692 0.826749
0.797711 0.152758 0.826749
0.863661 0.260945 0.890608
0 0.652049 0.841016
0 0.650782 0.847456
0 0.645563 0.854978
0 0.639384 0.881132
0.440055 0.633463 0.973922
0.765667 0.567056 0.984085
0.924208 0.467643 0.942626
0.843748 0.227543 0.869627
0.899184 0.369451 0.921996
0 0.801892 0.899046
0 0.802838 0.904906
0 0.801221 0.908934
0.00534066 0.800473 0.922591
0.395789 0.828611 0.963684
0.702846 0.795163 0.985107
0.92462 0.745342 0.975875
0.95877 0.67718 0.963104
0.944015 0.560815 0.958373
0.137102 0.928542 0.948074
0.133257 0.930007 0.951919
0.146227 0.930327 0.955062
0.180301 0.929122 0.960571
0.387091 0.933394 0.977661
0.682719 0.92668 0.980362
0.887205 0.912688 0.975418
0.984131 0.891157 0.966766
0.979522 0.850065 0.963439
0.286076 0.989395 0.960998
0.285054 0.990784 0.963561
0.311971 0.99173 0.965469
0.371557 0.992966 0.968612
0.45803 0.993484 0.971283
0.677791 0.989563 0.972625
0.875105 0.982834 0.972061
0.978821 0.975509 0.970474
0.995804 0.976867 0.975387
0.573297 0.996719 0.964187
0.577111 0.996796 0.965362
0.595438 0.996704 0.966155
0.631174 0.996567 0.967025
0.672938 0.996429 0.968048
0.719768 0.996231 0.965576
0.868955 0.995041 0.964889
0.965377 0.99321 0.966064
0.995056 0.990555 0.974563
0 0.123537 0.830106
0 0.124224 0.830762
0.0208133 0.0777142 0.844556
0.269551 0.0621347 0.854627
0.487556 0.0613413 0.845411
0.641688 0.0694896 0.818173
0.775418 0.116091 0.8112
0.795544 0.137819 0.826429
0.810178 0.152193 0.841337
0 0.133333 0.81799
0 0.129671 0.826123
0 0.0995346 0.842496
0.244648 0.0628824 0.854887
0.488319 0.0611887 0.846265
0.643702 0.0701457 0.816464
0.776043 0.117021 0.81207
0.795972 0.13785 0.826917
0.812161 0.150134 0.843992
0 0.22594 0.800259
0 0.224338 0.809064
0 0.210376 0.811582
0.0700542 0.0721752 0.849302
0.435843 0.0605631 0.849882
0.694087 0.0892195 0.826322
0.777432 0.121035 0.808377
0.792508 0.141131 0.822492
0.813199 0.156985 0.84416
0 0.44741 0.79202
0 0.446036 0.79826
0 0.433356 0.817044
0 0.384512 0.823468
0.401358 0.28426 0.939422
0.670604 0.159762 0.88484
0.797757 0.146853 0.828412
0.79147 0.143984 0.820951
0.815229 0.163928 0.845502
0 0.658473 0.858366
0 0.657191 0.864698
0 0.654231 0.872816
0 0.637583 0.87509
0.335058 0.645243 0.952804
0.706523 0.587884 0.990097
0.922515 0.49688 0.950103
0.859678 0.260029 0.884459
0.832456 0.193179 0.861738
0 0.804623 0.915251
0 0.805859 0.921645
0 0.804715 0.925841
0 0.798169 0.931319
0.33846 0.823758 0.963821
0.665354 0.805585 0.981888
0.90193 0.756924 0.982147
0.960082 0.692363 0.966125
0.942687 0.549096 0.956497
0.0702983 0.920653 0.958419
0.0643015 0.922454 0.962722
0.0790112 0.924895 0.967926
0.137575 0.926146 0.976806
0.371801 0.928771 0.988449
0.668696 0.927153 0.990234
0.865293 0.913542 0.988602
0.979904 0.888518 0.982238
0.977081 0.842725 0.978653
0.26949 0.982742 0.981659
0.268742 0.983886 0.984176
0.285359 0.985733 0.986374
0.35996 0.987732 0.989288
0.493828 0.9879 0.992187
0.659983 0.984161 0.992859
0.857557 0.978271 0.992447
0.966918 0.973022 0.989853
0.99237 0.964477 0.986511
0.548348 0.996872 0.990143
0.552712 0.996933 0.991516
0.571786 0.996887 0.992416
0.607721 0.996704 0.993011
0.653666 0.99646 0.993484
0.704906 0.996323 0.993698
0.855314 0.995331 0.993606
0.960296 0.993027 0.99205
0.994385 0.990906 0.989502
