bundles/resolve-cinematic-luts/Phantom Luts/A7s3 Phntm Arri LUTs G7/SLog2+Sgamut3cine/Utopia A7s3 Sl2sg3c.cube
TITLE "Generated by Resolve"
LUT_3D_SIZE 33
0.00834669 0.0331273 0.0419928
0.00834669 0.0331273 0.0419928
0.00834669 0.0331273 0.0419928
0.00956741 0.0331273 0.0416571
0.0365301 0.0291142 0.0456855
0.0773938 0.0274205 0.0471351
0.120424 0.026154 0.0502327
0.166094 0.0239872 0.0530251
0.212924 0.0214694 0.0562448
0.26154 0.0190585 0.0598611
0.311482 0.0191806 0.0649271
0.358984 0.0167239 0.0742046
0.407813 0.0168307 0.0874037
0.45745 0.018967 0.102373
0.505409 0.0229953 0.118639
0.551202 0.0284123 0.136431
0.595209 0.033341 0.156039
0.638315 0.0393072 0.17818
0.683101 0.0476387 0.203784
0.728573 0.0590677 0.231739
0.772274 0.0740978 0.263279
0.810636 0.0906844 0.295201
0.844373 0.110704 0.328206
0.868147 0.135119 0.360632
0.883558 0.164477 0.393439
0.89662 0.19678 0.426566
0.907988 0.230182 0.459403
0.917281 0.263081 0.490959
0.926696 0.29807 0.522789
0.93492 0.333074 0.553277
0.941894 0.366064 0.581552
0.946883 0.3953 0.606424
0.95053 0.420783 0.628412
0.00836194 0.0331273 0.0420081
0.00834669 0.0331273 0.0419928
0.00834669 0.0331273 0.0419928
0.00936904 0.0331884 0.0416724
0.033814 0.0296941 0.0455787
0.0746777 0.0276493 0.0470283
0.117845 0.0263981 0.0500649
0.16405 0.0242161 0.0528267
0.211795 0.0216373 0.0561227
0.261189 0.0190738 0.0596017
0.311955 0.0192111 0.0649424
0.359518 0.0166629 0.0743114
0.408438 0.0168765 0.087602
0.458 0.0190585 0.102632
0.505989 0.0230869 0.118898
0.55172 0.0284428 0.136538
0.595712 0.0334173 0.156207
0.638575 0.0394141 0.178073
0.68278 0.0477302 0.202899
0.727657 0.0590524 0.23003
0.770977 0.0738842 0.26067
0.809201 0.0901656 0.291829
0.843214 0.109804 0.323842
0.867613 0.133928 0.355962
0.883101 0.162173 0.388006
0.895186 0.192935 0.419715
0.906294 0.224979 0.451423
0.916136 0.256962 0.482368
0.925078 0.28983 0.51252
0.932738 0.322286 0.541268
0.939483 0.352956 0.568063
0.94461 0.380392 0.591608
0.94815 0.403723 0.611749
0.00836194 0.0331273 0.0420081
0.00834669 0.0331273 0.0419928
0.00834669 0.0331273 0.0419928
0.00885023 0.0332952 0.0417487
0.0250706 0.0323491 0.0438392
0.0602274 0.0291142 0.0457923
0.1028 0.0276493 0.0489967
0.149874 0.0253758 0.0514992
0.199283 0.0225986 0.0544747
0.25095 0.0198825 0.0575418
0.303624 0.0177157 0.0647746
0.354574 0.0172427 0.0723125
0.404379 0.0168765 0.0848096
0.455375 0.0189059 0.100694
0.504921 0.0231632 0.117906
0.550744 0.0286259 0.135546
0.594446 0.0336004 0.154376
0.637049 0.0394293 0.175677
0.680995 0.0476692 0.200397
0.726268 0.0590524 0.227848
0.769512 0.07364 0.257832
0.808026 0.0897536 0.289036
0.842176 0.109285 0.321355
0.866423 0.132128 0.35288
0.882048 0.159731 0.384268
0.894621 0.190356 0.416007
0.905425 0.221363 0.447059
0.914824 0.251896 0.476768
0.92311 0.282719 0.505516
0.930846 0.314076 0.533425
0.937621 0.343496 0.559075
0.942809 0.369574 0.581888
0.946059 0.391669 0.601053
0.0081178 0.034638 0.0424659
0.00836194 0.0345922 0.0424659
0.00895705 0.0344701 0.0423438
0.00991836 0.0343023 0.0421302
0.0179751 0.0349584 0.0422217
0.0456703 0.0324865 0.0449531
0.0894942 0.030808 0.0476539
0.135546 0.0269017 0.0497292
0.187488 0.0240482 0.0525978
0.241047 0.0211032 0.0559701
0.295338 0.018143 0.0602884
0.348608 0.0161135 0.0718395
0.399588 0.0169223 0.0815747
0.451667 0.018967 0.0969711
0.502373 0.0233158 0.114855
0.548806 0.0289616 0.132601
0.593072 0.0340124 0.151537
0.636149 0.0399329 0.172808
0.680369 0.048249 0.197406
0.725582 0.059556 0.22446
0.768643 0.0738689 0.254643
0.807279 0.0897993 0.285466
0.841489 0.109117 0.317739
0.865675 0.130922 0.349142
0.881498 0.1579 0.380423
0.893828 0.187854 0.411917
0.904616 0.218296 0.442542
0.914031 0.248371 0.471702
0.92221 0.277943 0.49984
0.929732 0.30779 0.526619
0.936248 0.33611 0.551247
0.94136 0.361044 0.573083
0.944549 0.382101 0.591638
0 0.068513 0.0428016
0.000167849 0.0673533 0.0421759
0.00677501 0.0637064 0.0378424
0.0162356 0.0595712 0.0392004
0.0328527 0.064622 0.037583
0.0695964 0.0599985 0.0478218
0.107057 0.052842 0.0484474
0.14966 0.0444495 0.0452277
0.201251 0.0342718 0.0431067
0.256611 0.0293584 0.0480049
0.308843 0.0248112 0.0509194
0.355428 0.0204166 0.0543984
0.405264 0.0197757 0.067155
0.460822 0.0200809 0.0848707
0.510033 0.0245823 0.105882
0.555505 0.0301671 0.126101
0.599542 0.0373541 0.141115
0.643015 0.0445716 0.161166
0.688029 0.0535439 0.186084
0.733608 0.0653849 0.214603
0.775937 0.0796521 0.243549
0.813657 0.0953841 0.275319
0.846448 0.113558 0.308019
0.868986 0.134768 0.340703
0.883543 0.160952 0.372839
0.895644 0.190707 0.405051
0.906447 0.221027 0.43682
0.915724 0.25066 0.466926
0.923751 0.280476 0.495583
0.931456 0.310933 0.522744
0.937896 0.339117 0.547906
0.94229 0.363394 0.569986
0.945678 0.384497 0.588983
0 0.119814 0.033402
0 0.11902 0.0322576
0 0.113222 0.0256504
0.0084535 0.1084 0.0231479
0.0391699 0.111757 0.0260624
0.0798657 0.110674 0.0345464
0.127443 0.107347 0.0458381
0.182864 0.0912184 0.0563668
0.222354 0.0807813 0.0565499
0.266957 0.0702525 0.0520485
0.315038 0.0561532 0.0466163
0.364126 0.0401465 0.0413825
0.415946 0.0302434 0.0466926
0.467079 0.0246891 0.060853
0.507942 0.0219425 0.0747387
0.554986 0.030457 0.100099
0.606653 0.0389563 0.128161
0.650553 0.0454719 0.153399
0.69424 0.0526741 0.180896
0.740444 0.0687114 0.205814
0.782452 0.0844282 0.233967
0.818998 0.0991226 0.265904
0.851606 0.118105 0.299367
0.871595 0.13753 0.332158
0.885634 0.16405 0.365713
0.897353 0.193286 0.398947
0.907332 0.222919 0.430808
0.916609 0.252567 0.461891
0.924804 0.282673 0.491356
0.932403 0.313268 0.519097
0.938872 0.341558 0.544518
0.943465 0.366033 0.567178
0.946609 0.386847 0.586709
0 0.171389 0.0268711
0 0.171115 0.0252995
0 0.165637 0.0153811
4.57771e-05 0.15993 0.00518807
0.035874 0.163973 0.0122377
0.0833295 0.162356 0.0187228
0.127672 0.156725 0.0349737
0.181659 0.15349 0.0423438
0.249622 0.133989 0.0578775
0.30602 0.111666 0.0655222
0.342016 0.104524 0.0643168
0.382757 0.0921798 0.0606088
0.425116 0.074342 0.0546883
0.469657 0.0542611 0.0514229
0.514473 0.0407721 0.0572366
0.559625 0.0379339 0.0770886
0.598932 0.0352636 0.0966354
0.646082 0.0450141 0.127428
0.702052 0.0591287 0.162814
0.747738 0.0702678 0.196094
0.786221 0.0815442 0.230396
0.823682 0.100969 0.258412
0.856489 0.121736 0.288853
0.875303 0.141634 0.321813
0.888045 0.167315 0.356222
0.899489 0.196307 0.3906
0.909514 0.225864 0.424247
0.918288 0.25539 0.455955
0.92636 0.285756 0.486442
0.933959 0.316503 0.514809
0.940444 0.344808 0.540536
0.945129 0.36939 0.563439
0.948257 0.38999 0.583032
0 0.225544 0.0264744
0 0.225391 0.0240482
0 0.220249 0.0100557
0 0.215427 0
0.0234836 0.219013 0
0.0828107 0.217288 0.00682078
0.123323 0.214588 0.0150912
0.17998 0.20676 0.0364996
0.239841 0.203311 0.0398566
0.313909 0.185229 0.0609751
0.377234 0.159213 0.0770733
0.418128 0.144671 0.0803388
0.452811 0.135454 0.0792248
0.491447 0.120974 0.0766003
0.530632 0.102602 0.0733349
0.566873 0.0817273 0.0738231
0.605966 0.0620737 0.0782788
0.648005 0.0560159 0.100633
0.687831 0.0513771 0.123491
0.741863 0.0674449 0.162631
0.793698 0.0883345 0.206699
0.829999 0.103456 0.246632
0.857114 0.116976 0.28571
0.876631 0.142275 0.312444
0.890211 0.170382 0.344976
0.902251 0.200595 0.379507
0.912093 0.23006 0.414298
0.920821 0.259312 0.447578
0.928908 0.290242 0.479515
0.936248 0.320882 0.508919
0.942397 0.348837 0.535302
0.946487 0.372946 0.558389
0.949493 0.393393 0.578698
0 0.281712 0.0320592
0 0.281819 0.0297551
0 0.277607 0.0115358
0 0.273411 0
0.00970474 0.274235 0
0.0647898 0.276707 0
0.119219 0.27361 0.00263981
0.170886 0.269245 0.016083
0.236072 0.259586 0.0394598
0.30219 0.256321 0.0383764
0.371298 0.241764 0.0627298
0.43949 0.216724 0.0877089
0.489952 0.194278 0.101518
0.521675 0.186282 0.102998
0.558175 0.174121 0.10219
0.593698 0.159808 0.10277
0.628138 0.14226 0.102647
0.662211 0.117708 0.103517
0.69781 0.0883955 0.106264
0.7393 0.0764477 0.131594
0.780072 0.0767529 0.16286
0.828611 0.105638 0.211902
0.863066 0.126711 0.259358
0.876249 0.140597 0.300496
0.886061 0.16054 0.342748
0.901732 0.198886 0.370932
0.913985 0.23331 0.403357
0.922896 0.263783 0.436271
0.931167 0.295308 0.469551
0.938445 0.326268 0.500343
0.944381 0.353796 0.527825
0.948653 0.378012 0.552193
0.951629 0.398322 0.572976
0 0.340917 0.0402533
0 0.341176 0.0389105
0 0.338415 0.0221714
0 0.334997 0.00062562
0 0.332448 0
0.0363165 0.337911 0
0.0998703 0.337865 0
0.164736 0.33228 0.00474556
0.22359 0.326528 0.0208591
0.296681 0.315694 0.0442054
0.365805 0.313344 0.0368963
0.42707 0.304479 0.0652323
0.495735 0.282322 0.0975052
0.550576 0.261738 0.119142
0.588739 0.248112 0.128939
0.621942 0.236744 0.133715
0.655756 0.223896 0.135821
0.690379 0.206119 0.137514
0.722698 0.183276 0.136645
0.757702 0.152239 0.136324
0.787564 0.116304 0.139147
0.814603 0.0969406 0.16321
0.854566 0.118593 0.211063
0.877699 0.148501 0.262135
0.890059 0.171527 0.313405
0.900542 0.195163 0.361273
0.909514 0.221271 0.4047
0.923003 0.262745 0.430426
0.933074 0.30016 0.459144
0.941176 0.332952 0.490074
0.94696 0.360128 0.518685
0.950713 0.383459 0.543679
0.953414 0.403693 0.565225
0 0.399649 0.0513313
0 0.399878 0.051194
0 0.398398 0.0361028
0 0.395712 0.0138247
0 0.394553 0
0.0121157 0.394583 0
0.0673381 0.399649 0
0.143679 0.396399 0
0.219303 0.387747 0.0122377
0.280247 0.382345 0.0283207
0.359533 0.371054 0.0523842
0.42826 0.370047 0.0372625
0.48542 0.364767 0.0704051
0.549615 0.350317 0.109194
0.606119 0.333074 0.136309
0.648463 0.319829 0.152468
0.680552 0.310353 0.162661
0.716731 0.292699 0.171298
0.752651 0.274922 0.174228
0.786511 0.252079 0.174746
0.815351 0.221744 0.170855
0.842023 0.184451 0.168185
0.856931 0.143053 0.172366
0.870802 0.141238 0.206317
0.890623 0.179767 0.26511
0.904005 0.208148 0.324559
0.913375 0.231754 0.376669
0.921126 0.256748 0.422507
0.928023 0.284428 0.463188
0.940383 0.329747 0.485359
0.948501 0.364782 0.508736
0.953262 0.390417 0.533455
0.955978 0.410574 0.556298
0 0.457893 0.0664683
0 0.458122 0.0666972
0 0.457404 0.0543984
0 0.455589 0.0324559
0 0.45658 0.00683604
0 0.454795 0
0.0316625 0.457313 0
0.107561 0.460105 0
0.19913 0.452613 0.00448615
0.28249 0.440604 0.022446
0.341619 0.438361 0.0400549
0.42208 0.426749 0.0639963
0.489921 0.426017 0.0434577
0.544457 0.422797 0.0794842
0.601877 0.414145 0.122591
0.657465 0.400549 0.153262
0.702525 0.387671 0.174319
0.733974 0.380697 0.185519
0.772671 0.363226 0.200122
0.811048 0.341253 0.208911
0.844205 0.31928 0.211048
0.871351 0.292317 0.208972
0.892607 0.258747 0.204242
0.899397 0.212955 0.196506
0.890196 0.17612 0.203922
0.900908 0.200946 0.257954
0.915068 0.242161 0.325978
0.925124 0.271458 0.38735
0.932616 0.297337 0.437827
0.939025 0.324422 0.479957
0.944259 0.349554 0.51603
0.95259 0.387488 0.5308
0.957488 0.415854 0.546868
0 0.515755 0.0870069
0 0.515969 0.0874342
0 0.516106 0.0775311
0 0.514839 0.0577554
0 0.516197 0.0344701
0.00167849 0.516594 0.0103456
0.0157626 0.515038 0
0.0672618 0.519509 0
0.161486 0.5178 0
0.266072 0.505409 0.018677
0.344533 0.49424 0.0348974
0.404257 0.493248 0.0565194
0.483497 0.481483 0.081117
0.548745 0.481056 0.0580453
0.601114 0.479286 0.0928206
0.652949 0.47567 0.140444
0.70631 0.464454 0.173053
0.753445 0.452216 0.197162
0.787076 0.445426 0.210315
0.823453 0.431693 0.224674
0.860655 0.408988 0.239673
0.893095 0.384268 0.245396
0.917815 0.358892 0.244633
0.934173 0.326925 0.239872
0.929229 0.28983 0.229618
0.912917 0.233356 0.214649
0.915221 0.233753 0.25214
0.927382 0.284276 0.328405
0.936599 0.317784 0.396323
0.943328 0.341161 0.449119
0.948943 0.364004 0.492119
0.951995 0.384466 0.52694
0.954177 0.403113 0.556466
0 0.571801 0.117372
0 0.572 0.117769
0 0.572931 0.109209
0 0.572717 0.0903792
0 0.573449 0.0664073
0.00704967 0.574945 0.0497902
0.0191043 0.575051 0.0202335
0.0465705 0.575097 0
0.121447 0.57789 0
0.230549 0.571588 0.0148623
0.340322 0.555642 0.0394293
0.407935 0.548592 0.052781
0.466682 0.547906 0.0793469
0.542885 0.53492 0.102586
0.605097 0.534112 0.0790875
0.655741 0.533745 0.109163
0.703746 0.531365 0.162661
0.754665 0.523033 0.196902
0.802716 0.512245 0.222995
0.835752 0.505409 0.23714
0.865873 0.495644 0.248997
0.89987 0.477333 0.263523
0.931365 0.450019 0.276524
0.953887 0.423926 0.279042
0.954772 0.393866 0.272587
0.948013 0.35935 0.26305
0.937316 0.31516 0.25037
0.932418 0.288945 0.265339
0.939284 0.318502 0.325368
0.946136 0.360006 0.394812
0.951751 0.383978 0.452598
0.955932 0.401846 0.497124
0.958495 0.418494 0.532464
0 0.62771 0.15317
0 0.62797 0.153017
0 0.628779 0.146624
0 0.628977 0.129473
0.00703441 0.629984 0.106401
0.0157168 0.631098 0.0872358
0.0254063 0.632822 0.0671855
0.0442664 0.632578 0.0297856
0.0918746 0.632136 0.00451667
0.194537 0.632197 0.0201572
0.312215 0.620798 0.0432593
0.420005 0.601953 0.0651102
0.469993 0.601038 0.0779126
0.52932 0.599481 0.106249
0.599725 0.586954 0.129213
0.658961 0.585443 0.106874
0.708583 0.585702 0.134005
0.756115 0.582956 0.190982
0.802502 0.577585 0.2262
0.844602 0.568856 0.251041
0.875929 0.562524 0.265599
0.901106 0.555596 0.274708
0.92932 0.541146 0.287022
0.956146 0.51931 0.29897
0.968383 0.491569 0.305333
0.96701 0.460151 0.303655
0.961944 0.427588 0.296178
0.955657 0.391089 0.287098
0.947326 0.351583 0.284932
0.95053 0.361547 0.329473
0.955398 0.396109 0.393194
0.958251 0.423438 0.446921
0.961151 0.439918 0.493889
0 0.681651 0.193469
0 0.681956 0.192523
0.00234989 0.683024 0.184344
0.00909438 0.683635 0.167971
0.0178531 0.684733 0.148058
0.0271458 0.685679 0.127947
0.0375372 0.687114 0.107805
0.0526284 0.687953 0.0777295
0.0794842 0.686641 0.0326238
0.157443 0.688304 0.0295415
0.285008 0.681407 0.0526284
0.403616 0.664881 0.0776989
0.486549 0.651133 0.091371
0.531029 0.652979 0.108019
0.588769 0.65037 0.136187
0.65362 0.637491 0.158618
0.710857 0.63563 0.142992
0.759319 0.635691 0.166812
0.80557 0.6318 0.224094
0.845106 0.628077 0.258869
0.881163 0.621256 0.281422
0.908553 0.616175 0.294942
0.927687 0.612543 0.300847
0.950607 0.601419 0.310796
0.967468 0.584497 0.318502
0.971801 0.562341 0.321218
0.974258 0.53463 0.322774
0.972274 0.49723 0.32372
0.968597 0.462516 0.320684
0.962448 0.424277 0.313222
0.961471 0.412818 0.34316
0.963699 0.432105 0.394263
0.965225 0.459159 0.445411
0.0121614 0.733822 0.23566
0.0123598 0.734325 0.23415
0.0161593 0.735943 0.223117
0.0224613 0.736416 0.209216
0.0310521 0.737667 0.191791
0.0410315 0.738735 0.172534
0.0522774 0.739834 0.15111
0.0653544 0.741222 0.127077
0.0868544 0.740826 0.0860304
0.133577 0.738994 0.0486
0.251865 0.738415 0.0644388
0.380072 0.725795 0.0890211
0.487831 0.707729 0.111757
0.546777 0.701747 0.123384
0.588113 0.7037 0.142306
0.644282 0.699794 0.169192
0.705318 0.687083 0.191653
0.759686 0.684245 0.183871
0.808331 0.683879 0.205249
0.849867 0.678721 0.25948
0.882612 0.675258 0.293172
0.911467 0.670512 0.313878
0.933867 0.666499 0.325551
0.948348 0.664698 0.328557
0.962097 0.656596 0.333242
0.965621 0.644099 0.334783
0.968017 0.62623 0.336507
0.970397 0.603189 0.33814
0.973236 0.573068 0.340154
0.976425 0.538094 0.343664
0.974868 0.499428 0.345953
0.970932 0.466697 0.350317
0.972763 0.471809 0.396124
0.0276341 0.784909 0.27805
0.0284123 0.785809 0.274342
0.0325628 0.787381 0.263203
0.038819 0.787839 0.25098
0.0472877 0.789151 0.235508
0.0564736 0.790265 0.21796
0.0677043 0.791226 0.196246
0.0809796 0.792218 0.171511
0.0964828 0.793194 0.141878
0.125765 0.791913 0.0927443
0.210117 0.792477 0.0803235
0.350561 0.784237 0.102724
0.470253 0.768826 0.12813
0.559594 0.75314 0.14641
0.603525 0.753017 0.160174
0.642298 0.75491 0.180072
0.696895 0.749462 0.204883
0.755047 0.736461 0.227649
0.807141 0.731411 0.225757
0.853086 0.730068 0.244022
0.888655 0.723369 0.295903
0.914977 0.719249 0.330877
0.935882 0.716655 0.353796
0.95285 0.713649 0.361868
0.96112 0.713008 0.358495
0.962188 0.706889 0.35639
0.962966 0.696712 0.355444
0.964263 0.681376 0.355703
0.966567 0.662364 0.356603
0.969467 0.638178 0.358236
0.972992 0.608865 0.361624
0.976333 0.578347 0.365881
0.978836 0.543557 0.371298
0.0487678 0.836164 0.318791
0.0495918 0.837278 0.312139
0.0523079 0.838453 0.302235
0.0576486 0.838987 0.29218
0.0651255 0.840192 0.279103
0.0732128 0.841199 0.26421
0.0838483 0.842039 0.243656
0.0974289 0.842649 0.217777
0.112764 0.843412 0.189822
0.132921 0.8439 0.153719
0.18056 0.843381 0.105562
0.310307 0.841443 0.120958
0.446647 0.828244 0.146441
0.548028 0.812863 0.170123
0.617212 0.801846 0.184451
0.656046 0.802762 0.200031
0.693202 0.804059 0.220478
0.746777 0.797803 0.243915
0.803052 0.784741 0.2654
0.851606 0.777325 0.267781
0.8934 0.775631 0.282933
0.921889 0.767834 0.344106
0.941726 0.763577 0.377829
0.957763 0.760464 0.397131
0.966064 0.758282 0.40264
0.966705 0.757595 0.39382
0.965942 0.752819 0.387594
0.964111 0.74406 0.382452
0.963409 0.731685 0.381033
0.963897 0.715038 0.379919
0.966064 0.695094 0.380133
0.968582 0.671 0.382025
0.971511 0.646433 0.385824
0.0725719 0.882582 0.355245
0.0733654 0.883726 0.347707
0.0752117 0.884916 0.338537
0.0800641 0.88539 0.329641
0.0863966 0.886503 0.318868
0.0933547 0.887526 0.307073
0.102968 0.888457 0.290074
0.116426 0.88925 0.265644
0.132235 0.889784 0.236652
0.149752 0.890257 0.205341
0.178729 0.890105 0.163973
0.26862 0.892241 0.146975
0.413825 0.882475 0.168307
0.530022 0.867842 0.193011
0.616846 0.852567 0.213397
0.669062 0.846525 0.226337
0.704204 0.847486 0.243168
0.739605 0.847532 0.262974
0.792615 0.840055 0.283528
0.84686 0.82681 0.304158
0.890501 0.819287 0.312795
0.925826 0.816922 0.346181
0.950408 0.809888 0.397879
0.965133 0.805554 0.425971
0.975738 0.802823 0.441016
0.976394 0.799771 0.442756
0.976471 0.799588 0.433204
0.975311 0.795453 0.425254
0.973587 0.787976 0.419226
0.971191 0.776898 0.415427
0.968277 0.762936 0.41265
0.96585 0.746822 0.411078
0.96585 0.726192 0.411536
0.0978256 0.922957 0.387793
0.0991989 0.924208 0.379156
0.100114 0.925292 0.37145
0.104173 0.925734 0.364187
0.109743 0.926772 0.35523
0.11632 0.927672 0.345296
0.124681 0.928618 0.332387
0.136873 0.92961 0.312184
0.152605 0.930312 0.284855
0.170611 0.930587 0.252705
0.192493 0.931029 0.219577
0.246189 0.934356 0.187869
0.369818 0.930907 0.193866
0.501152 0.917891 0.216602
0.600778 0.902312 0.2392
0.671504 0.889601 0.256291
0.713161 0.886625 0.269993
0.747204 0.886534 0.286793
0.782895 0.885939 0.306203
0.836606 0.877501 0.324117
0.886625 0.864515 0.344869
0.92398 0.858122 0.377554
0.953628 0.854215 0.410147
0.974517 0.846601 0.449897
0.985107 0.842756 0.473808
0.987366 0.839277 0.484276
0.986908 0.836866 0.485252
0.987228 0.836896 0.475761
0.986221 0.833463 0.467643
0.984573 0.827359 0.460746
0.981872 0.817746 0.45568
0.978866 0.805844 0.451286
0.975174 0.791318 0.447547
0.126818 0.957671 0.417288
0.128435 0.95874 0.409018
0.129229 0.959792 0.401617
0.132372 0.960311 0.395331
0.137301 0.96112 0.388052
0.143069 0.961929 0.379721
0.150668 0.962753 0.369162
0.161379 0.963714 0.353094
0.175463 0.964553 0.330327
0.193133 0.965042 0.30074
0.218509 0.966186 0.270222
0.257206 0.96968 0.24712
0.332494 0.970748 0.2271
0.465309 0.961349 0.244022
0.575326 0.946914 0.264515
0.658793 0.931792 0.284306
0.714046 0.922621 0.298756
0.753323 0.920684 0.31429
0.787457 0.919783 0.331044
0.826505 0.918135 0.350423
0.878279 0.910384 0.37322
0.919387 0.897108 0.405417
0.952255 0.890562 0.436088
0.977523 0.886458 0.465202
0.994553 0.879026 0.499336
0.997818 0.875013 0.519966
0.997436 0.871748 0.528771
0.996902 0.869566 0.528801
0.997116 0.869856 0.518303
0.996582 0.866972 0.510292
0.995315 0.861524 0.503075
0.993072 0.853208 0.497642
0.989548 0.842893 0.491997
0.156878 0.985855 0.443824
0.158145 0.986801 0.436759
0.158556 0.987686 0.429908
0.16054 0.988479 0.423209
0.164645 0.989273 0.416938
0.169741 0.989822 0.410025
0.176104 0.990448 0.401083
0.185428 0.991196 0.388022
0.197635 0.991943 0.369848
0.21442 0.992752 0.34519
0.244602 0.994827 0.320485
0.282979 0.996811 0.298039
0.333944 0.997635 0.285969
0.429648 0.996094 0.294026
0.542275 0.986313 0.309194
0.632151 0.973114 0.326955
0.703334 0.960128 0.345373
0.751049 0.954376 0.361166
0.790173 0.951675 0.378744
0.826108 0.949325 0.396612
0.86598 0.944137 0.415198
0.911269 0.935927 0.433646
0.945953 0.922454 0.462303
0.97467 0.916869 0.490455
0.99498 0.912551 0.516655
0.999969 0.906554 0.548852
0.999969 0.902007 0.566766
0.999969 0.89897 0.575006
0.999969 0.897444 0.574044
0.999969 0.898177 0.56257
0.999969 0.895781 0.553582
0.999863 0.890806 0.545312
0.999283 0.883558 0.539391
0.186542 0.999908 0.467308
0.187488 0.999954 0.461234
0.187716 0.999969 0.454765
0.188327 0.999969 0.448844
0.19144 0.999969 0.443565
0.195804 0.999969 0.438071
0.201419 0.999969 0.430533
0.2094 0.999969 0.419821
0.219913 0.999969 0.405234
0.238117 0.999969 0.387488
0.27097 0.999969 0.368658
0.310369 0.999969 0.34873
0.367758 0.999969 0.343847
0.42974 0.999969 0.351629
0.516899 0.999969 0.360327
0.6056 0.999542 0.373724
0.681773 0.993957 0.390036
0.742992 0.984512 0.407645
0.787762 0.979095 0.425269
0.828046 0.973754 0.443595
0.865431 0.967987 0.461036
0.902602 0.961761 0.475257
0.941344 0.955413 0.49041
0.969253 0.942916 0.515496
0.992981 0.937789 0.541283
0.999969 0.934081 0.566613
0.999969 0.928115 0.597757
0.999969 0.9243 0.613413
0.999969 0.92192 0.620096
0.999969 0.921233 0.617594
0.999969 0.921843 0.60618
0.999969 0.919722 0.59707
0.999969 0.915419 0.589746
0.214969 0.999969 0.488029
0.216022 0.999969 0.482383
0.216144 0.999969 0.477195
0.216693 0.999969 0.471839
0.218006 0.999969 0.467033
0.221576 0.999969 0.462409
0.226688 0.999969 0.456214
0.23415 0.999969 0.4477
0.248875 0.999969 0.438346
0.27129 0.999969 0.427329
0.299306 0.999969 0.412558
0.338735 0.999969 0.39762
0.400473 0.999969 0.397971
0.454185 0.999969 0.402518
0.507881 0.999969 0.412024
0.586831 0.999969 0.422095
0.662654 0.999969 0.434943
0.730205 0.999908 0.450889
0.786267 0.997269 0.468727
0.825833 0.992676 0.48687
0.86659 0.985016 0.505013
0.90132 0.977905 0.520989
0.932235 0.973419 0.52961
0.96527 0.968582 0.541985
0.987488 0.956939 0.566873
0.999664 0.953079 0.592691
0.999969 0.94995 0.616876
0.999969 0.945434 0.644068
0.999969 0.942504 0.658427
0.999969 0.940917 0.664271
0.999969 0.941192 0.658213
0.999969 0.941268 0.646998
0.999969 0.9393 0.637003
0.238331 0.999969 0.504784
0.239597 0.999969 0.500206
0.239902 0.999969 0.495262
0.240528 0.999969 0.490425
0.241978 0.999969 0.486686
0.244862 0.999969 0.48275
0.2533 0.999969 0.47924
0.264958 0.999969 0.474556
0.280095 0.999969 0.467872
0.298894 0.999969 0.459373
0.3252 0.999969 0.449973
0.374121 0.999969 0.44686
0.427405 0.999969 0.446387
0.478172 0.999969 0.448707
0.524742 0.999969 0.455146
0.576623 0.999969 0.465354
0.644007 0.999969 0.475242
0.711986 0.999969 0.490105
0.773281 0.999603 0.507057
0.820035 0.996292 0.525597
0.858747 0.990021 0.543786
0.895659 0.982483 0.560098
0.925566 0.977737 0.570336
0.95256 0.975021 0.578027
0.98056 0.973129 0.590082
0.998123 0.966079 0.61677
0.999969 0.963256 0.640589
0.999969 0.961089 0.664256
0.999969 0.958022 0.688502
0.999969 0.956619 0.701366
0.999969 0.955917 0.705379
0.999969 0.956405 0.695216
0.999969 0.955734 0.684794
0.278935 0.999969 0.527092
0.279774 0.999969 0.522622
0.280156 0.999969 0.518593
0.281209 0.999969 0.514275
0.282856 0.999969 0.511254
0.284916 0.999969 0.507637
0.289418 0.999969 0.503685
0.299214 0.999969 0.500099
0.313268 0.999969 0.495567
0.340139 0.999969 0.49369
0.374228 0.999969 0.492653
0.414237 0.999969 0.492866
0.457816 0.999969 0.493385
0.502495 0.999969 0.49482
0.545632 0.999969 0.498283
0.588693 0.999969 0.506188
0.637537 0.999969 0.518807
0.69836 0.999969 0.530434
0.759625 0.999969 0.544976
0.813382 0.998123 0.561776
0.853483 0.993179 0.579324
0.888548 0.986236 0.595972
0.920195 0.980301 0.608759
0.946258 0.977523 0.615473
0.968658 0.975769 0.621744
0.987259 0.969604 0.635889
0.999969 0.967575 0.659571
0.999969 0.968307 0.684749
0.999969 0.969757 0.709422
0.999969 0.968414 0.731914
0.999969 0.967742 0.743053
0.999969 0.967544 0.743145
0.999969 0.967605 0.729961
0.341054 0.999969 0.555825
0.340658 0.999969 0.551415
0.339696 0.999969 0.547127
0.340093 0.999969 0.543206
0.342885 0.999969 0.541115
0.345708 0.999969 0.538888
