bundles/resolve-cinematic-luts/Gamut/Cascade/01 North-.cube
TITLE "Cascade North- by Gamut.io"
# Copyright 2020 Gamut.io
#  
# 
LUT_3D_SIZE 33
0.0000000000 0.0000000000 0.0000000000
0.0283890000 0.0015770000 0.0015770000
0.0530020000 0.0023660000 0.0039430000
0.0766620000 0.0039430000 0.0055200000
0.1007000000 0.0055200000 0.0078860000
0.1271800000 0.0047310000 0.0110400000
0.1604630000 0.0023660000 0.0134060000
0.2001200000 0.0000000000 0.0149830000
0.2494580000 0.0000000000 0.0173490000
0.3041630000 0.0000000000 0.0189260000
0.3605410000 0.0000000000 0.0197140000
0.4137370000 0.0000000000 0.0212920000
0.4637470000 0.0000000000 0.0220800000
0.5105520000 0.0000000000 0.0228690000
0.5543340000 0.0000000000 0.0236570000
0.5955830000 0.0000000000 0.0244460000
0.6341920000 0.0000000000 0.0252340000
0.6708050000 0.0000000000 0.0268120000
0.7060160000 0.0000000000 0.0283890000
0.7398020000 0.0000000000 0.0315430000
0.7721780000 0.0000000000 0.0354860000
0.8028700000 0.0000000000 0.0402170000
0.8317550000 0.0000000000 0.0461810000
0.8595110000 0.0000000000 0.0536510000
0.8861030000 0.0000000000 0.0622270000
0.9113800000 0.0055200000 0.0715840000
0.9355870000 0.0283890000 0.0824160000
0.9582840000 0.0731370000 0.0950880000
0.9779180000 0.1252840000 0.1093500000
0.9917720000 0.1719360000 0.1256020000
0.9981730000 0.2124260000 0.1439640000
0.9998120000 0.2474610000 0.1624340000
1.0000000000 0.2787870000 0.1804740000
0.0047310000 0.0205030000 0.0015770000
0.0228690000 0.0173490000 0.0031540000
0.0425160000 0.0181370000 0.0039430000
0.0721040000 0.0212920000 0.0023660000
0.0987290000 0.0205030000 0.0055200000
0.1265510000 0.0181370000 0.0086740000
0.1599660000 0.0134060000 0.0110400000
0.2024540000 0.0086740000 0.0134060000
0.2544440000 0.0055200000 0.0149830000
0.3084930000 0.0031540000 0.0165600000
0.3629040000 0.0007890000 0.0173490000
0.4144050000 0.0007890000 0.0189260000
0.4630940000 0.0000000000 0.0197140000
0.5093300000 0.0000000000 0.0205030000
0.5527110000 0.0000000000 0.0212920000
0.5936790000 0.0000000000 0.0220800000
0.6321920000 0.0000000000 0.0228690000
0.6691720000 0.0000000000 0.0236570000
0.7044460000 0.0000000000 0.0252340000
0.7383240000 0.0000000000 0.0283890000
0.7708180000 0.0000000000 0.0323320000
0.8013990000 0.0000000000 0.0370630000
0.8303510000 0.0000000000 0.0432640000
0.8579030000 0.0007890000 0.0503480000
0.8843700000 0.0047310000 0.0592670000
0.9097090000 0.0173490000 0.0689340000
0.9337680000 0.0482940000 0.0800600000
0.9564370000 0.0938460000 0.0925900000
0.9762860000 0.1414460000 0.1067860000
0.9906590000 0.1839420000 0.1233600000
0.9977430000 0.2213790000 0.1411640000
0.9997580000 0.2553390000 0.1602150000
1.0000000000 0.2859360000 0.1789340000
0.0102510000 0.0394290000 0.0039430000
0.0276000000 0.0362740000 0.0047310000
0.0432640000 0.0339090000 0.0063090000
0.0633820000 0.0339090000 0.0078860000
0.0938460000 0.0346970000 0.0063090000
0.1249650000 0.0323320000 0.0063090000
0.1602150000 0.0291770000 0.0094630000
0.2068470000 0.0244460000 0.0110400000
0.2594660000 0.0189260000 0.0126170000
0.3121640000 0.0126170000 0.0134060000
0.3649570000 0.0078860000 0.0149830000
0.4147380000 0.0047310000 0.0157710000
0.4628040000 0.0023660000 0.0165600000
0.5081040000 0.0015770000 0.0173490000
0.5509650000 0.0007890000 0.0181370000
0.5918730000 0.0007890000 0.0189260000
0.6303300000 0.0007890000 0.0189260000
0.6672600000 0.0000000000 0.0205030000
0.7026580000 0.0000000000 0.0220800000
0.7366420000 0.0007890000 0.0244460000
0.7690010000 0.0007890000 0.0283890000
0.7996000000 0.0007890000 0.0331200000
0.8284620000 0.0023660000 0.0394290000
0.8558960000 0.0055200000 0.0468920000
0.8821250000 0.0149830000 0.0555680000
0.9074250000 0.0370630000 0.0650850000
0.9316200000 0.0731370000 0.0766620000
0.9543280000 0.1170660000 0.0891650000
0.9744830000 0.1594680000 0.1037840000
0.9895440000 0.1973580000 0.1204180000
0.9973120000 0.2321110000 0.1385950000
0.9996240000 0.2643790000 0.1582150000
1.0000000000 0.2943980000 0.1776030000
0.0134060000 0.0628060000 0.0063090000
0.0299660000 0.0610560000 0.0063090000
0.0461810000 0.0586620000 0.0078860000
0.0650850000 0.0555680000 0.0102510000
0.0824160000 0.0503480000 0.0134060000
0.1187530000 0.0536510000 0.0118290000
0.1636540000 0.0536510000 0.0094630000
0.2124260000 0.0510200000 0.0102510000
0.2640930000 0.0447380000 0.0102510000
0.3164790000 0.0362740000 0.0102510000
0.3677700000 0.0276000000 0.0110400000
0.4166480000 0.0205030000 0.0118290000
0.4635300000 0.0149830000 0.0126170000
0.5081040000 0.0110400000 0.0126170000
0.5503810000 0.0078860000 0.0134060000
0.5907010000 0.0063090000 0.0141940000
0.6290520000 0.0047310000 0.0141940000
0.6657070000 0.0039430000 0.0157710000
0.7012480000 0.0039430000 0.0173490000
0.7351960000 0.0047310000 0.0197140000
0.7674060000 0.0063090000 0.0228690000
0.7977590000 0.0094630000 0.0276000000
0.8264640000 0.0141940000 0.0339090000
0.8537510000 0.0236570000 0.0417590000
0.8799990000 0.0409940000 0.0503480000
0.9053470000 0.0694700000 0.0610560000
0.9296730000 0.1060430000 0.0726220000
0.9524980000 0.1447930000 0.0856220000
0.9729550000 0.1811300000 0.1007000000
0.9884280000 0.2144320000 0.1170660000
0.9968270000 0.2459130000 0.1356830000
0.9995710000 0.2762200000 0.1554210000
1.0000000000 0.3047690000 0.1753600000
0.0094630000 0.0904630000 0.0078860000
0.0244460000 0.0896000000 0.0078860000
0.0440050000 0.0882910000 0.0094630000
0.0683940000 0.0874090000 0.0118290000
0.0934290000 0.0851700000 0.0141940000
0.1160420000 0.0791020000 0.0205030000
0.1614520000 0.0847170000 0.0157710000
0.2131580000 0.0847170000 0.0118290000
0.2652350000 0.0805360000 0.0094630000
0.3190120000 0.0736490000 0.0078860000
0.3702690000 0.0650850000 0.0063090000
0.4193700000 0.0561960000 0.0063090000
0.4654830000 0.0475960000 0.0070970000
0.5091360000 0.0394290000 0.0078860000
0.5509070000 0.0331200000 0.0078860000
0.5905940000 0.0283890000 0.0086740000
0.6284620000 0.0244460000 0.0086740000
0.6649740000 0.0228690000 0.0094630000
0.7001350000 0.0228690000 0.0110400000
0.7339080000 0.0252340000 0.0126170000
0.7661120000 0.0299660000 0.0157710000
0.7963480000 0.0370630000 0.0205030000
0.8249780000 0.0475960000 0.0268120000
0.8523940000 0.0639530000 0.0346970000
0.8787270000 0.0860720000 0.0440050000
0.9041830000 0.1143170000 0.0549340000
0.9284010000 0.1458910000 0.0673050000
0.9513240000 0.1773800000 0.0814810000
0.9718690000 0.2076000000 0.0971260000
0.9877470000 0.2367060000 0.1143170000
0.9965310000 0.2649500000 0.1330090000
0.9995170000 0.2923730000 0.1530950000
1.0000000000 0.3190120000 0.1737710000
0.0007890000 0.1314990000 0.0055200000
0.0126170000 0.1324070000 0.0063090000
0.0354860000 0.1308910000 0.0070970000
0.0667560000 0.1281180000 0.0094630000
0.0987290000 0.1256020000 0.0118290000
0.1284290000 0.1214060000 0.0157710000
0.1538750000 0.1129190000 0.0228690000
0.2036100000 0.1177440000 0.0181370000
0.2591740000 0.1177440000 0.0126170000
0.3146220000 0.1156990000 0.0078860000
0.3684440000 0.1111480000 0.0039430000
0.4186300000 0.1045420000 0.0031540000
0.4655550000 0.0967210000 0.0031540000
0.5094580000 0.0882910000 0.0031540000
0.5504980000 0.0805360000 0.0031540000
0.5897930000 0.0736490000 0.0031540000
0.6273270000 0.0689340000 0.0039430000
0.6638280000 0.0667560000 0.0039430000
0.6987620000 0.0673050000 0.0047310000
0.7324550000 0.0705330000 0.0063090000
0.7643560000 0.0771550000 0.0086740000
0.7945710000 0.0869650000 0.0126170000
0.8233510000 0.1007000000 0.0181370000
0.8507020000 0.1177440000 0.0260230000
0.8771980000 0.1383060000 0.0354860000
0.9027100000 0.1616980000 0.0468920000
0.9268300000 0.1862870000 0.0604640000
0.9497750000 0.2115080000 0.0756690000
0.9704740000 0.2368680000 0.0921680000
0.9867090000 0.2620810000 0.1104320000
0.9961000000 0.2871070000 0.1296660000
0.9993830000 0.3121640000 0.1507330000
1.0000000000 0.3367530000 0.1721670000
0.0000000000 0.1762600000 0.0015770000
0.0055200000 0.1769330000 0.0023660000
0.0236570000 0.1760360000 0.0023660000
0.0586620000 0.1730850000 0.0031540000
0.0975290000 0.1698470000 0.0063090000
0.1333080000 0.1646230000 0.0102510000
0.1648640000 0.1579630000 0.0149830000
0.1951580000 0.1496710000 0.0220800000
0.2479240000 0.1525740000 0.0173490000
0.3031910000 0.1541330000 0.0110400000
0.3579580000 0.1541330000 0.0055200000
0.4107160000 0.1520500000 0.0023660000
0.4597390000 0.1480630000 0.0007890000
0.5051850000 0.1425710000 0.0007890000
0.5473930000 0.1368550000 0.0007890000
0.5869510000 0.1318030000 0.0007890000
0.6248520000 0.1278060000 0.0007890000
0.6612510000 0.1262350000 0.0007890000
0.6960920000 0.1271800000 0.0015770000
0.7296200000 0.1308910000 0.0015770000
0.7613670000 0.1371470000 0.0031540000
0.7915110000 0.1458910000 0.0055200000
0.8201520000 0.1572050000 0.0094630000
0.8477380000 0.1710110000 0.0157710000
0.8741280000 0.1869200000 0.0236570000
0.8996310000 0.2047590000 0.0354860000
0.9239460000 0.2243320000 0.0496690000
0.9470690000 0.2449790000 0.0667560000
0.9679570000 0.2663720000 0.0847170000
0.9848500000 0.2882720000 0.1041630000
0.9951820000 0.3106310000 0.1246460000
0.9991410000 0.3331860000 0.1464370000
1.0000000000 0.3558560000 0.1691450000
0.0000000000 0.2205020000 0.0007890000
0.0039430000 0.2213790000 0.0007890000
0.0181370000 0.2199740000 0.0007890000
0.0468920000 0.2171330000 0.0007890000
0.0882910000 0.2126090000 0.0015770000
0.1311960000 0.2076000000 0.0023660000
0.1703140000 0.2026470000 0.0055200000
0.2057110000 0.1963620000 0.0110400000
0.2429410000 0.1900550000 0.0157710000
0.2918640000 0.1902620000 0.0134060000
0.3432290000 0.1910880000 0.0094630000
0.3958880000 0.1921140000 0.0047310000
0.4474440000 0.1923190000 0.0015770000
0.4956340000 0.1910880000 0.0007890000
0.5403390000 0.1890160000 0.0000000000
0.5818670000 0.1864980000 0.0000000000
0.6206140000 0.1847990000 0.0000000000
0.6574990000 0.1843710000 0.0000000000
0.6925840000 0.1854380000 0.0000000000
0.7258300000 0.1885990000 0.0000000000
0.7574740000 0.1933380000 0.0007890000
0.7874810000 0.1999240000 0.0015770000
0.8160960000 0.2083510000 0.0031540000
0.8435530000 0.2187360000 0.0070970000
0.8701410000 0.2309470000 0.0126170000
0.8958860000 0.2451350000 0.0228690000
0.9204820000 0.2610680000 0.0370630000
0.9436300000 0.2785180000 0.0549340000
0.9647850000 0.2967810000 0.0746640000
0.9823820000 0.3155520000 0.0959080000
0.9939390000 0.3349210000 0.1177440000
0.9987920000 0.3550510000 0.1405970000
1.0000000000 0.3756770000 0.1646230000
0.0000000000 0.2628010000 0.0000000000
0.0023660000 0.2646650000 0.0000000000
0.0110400000 0.2639500000 0.0000000000
0.0354860000 0.2609220000 0.0000000000
0.0761670000 0.2563780000 0.0007890000
0.1240050000 0.2515870000 0.0007890000
0.1698470000 0.2468440000 0.0007890000
0.2107700000 0.2413600000 0.0031540000
0.2473070000 0.2342570000 0.0078860000
0.2869770000 0.2289340000 0.0118290000
0.3312220000 0.2267320000 0.0118290000
0.3799730000 0.2274120000 0.0094630000
0.4309200000 0.2297750000 0.0055200000
0.4810280000 0.2319450000 0.0023660000
0.5287040000 0.2334350000 0.0007890000
0.5730800000 0.2342570000 0.0000000000
0.6143140000 0.2347490000 0.0000000000
0.6524540000 0.2357300000 0.0000000000
0.6881330000 0.2371920000 0.0000000000
0.7216440000 0.2397660000 0.0000000000
0.7532820000 0.2434130000 0.0000000000
0.7832750000 0.2485390000 0.0000000000
0.8120130000 0.2550410000 0.0007890000
0.8397460000 0.2632330000 0.0015770000
0.8666490000 0.2732130000 0.0047310000
0.8926200000 0.2851520000 0.0118290000
0.9173010000 0.2986470000 0.0236570000
0.9404940000 0.3134540000 0.0409940000
0.9618240000 0.3289110000 0.0628060000
0.9801260000 0.3450070000 0.0865200000
0.9926670000 0.3616260000 0.1100720000
0.9983620000 0.3789510000 0.1345010000
1.0000000000 0.3972960000 0.1597170000
0.0000000000 0.3013590000 0.0000000000
0.0007890000 0.3056150000 0.0000000000
0.0063090000 0.3060970000 0.0000000000
0.0252340000 0.3034350000 0.0000000000
0.0645210000 0.2990180000 0.0000000000
0.1150100000 0.2942720000 0.0000000000
0.1653450000 0.2894330000 0.0000000000
0.2104000000 0.2841030000 0.0007890000
0.2502200000 0.2777090000 0.0031540000
0.2877550000 0.2708620000 0.0070970000
0.3262470000 0.2652350000 0.0110400000
0.3683480000 0.2628010000 0.0126170000
0.4148210000 0.2638070000 0.0110400000
0.4637470000 0.2672200000 0.0070970000
0.5127300000 0.2714170000 0.0039430000
0.5596820000 0.2751310000 0.0015770000
0.6035390000 0.2783830000 0.0000000000
0.6441710000 0.2810600000 0.0000000000
0.6816520000 0.2835760000 0.0000000000
0.7161370000 0.2861960000 0.0000000000
0.7481560000 0.2894330000 0.0000000000
0.7784800000 0.2933870000 0.0000000000
0.8076190000 0.2988950000 0.0000000000
0.8356440000 0.3057350000 0.0000000000
0.8629430000 0.3142720000 0.0015770000
0.8891500000 0.3244560000 0.0047310000
0.9139540000 0.3360000000 0.0126170000
0.9372560000 0.3485320000 0.0268120000
0.9587390000 0.3616260000 0.0489850000
0.9773930000 0.3753010000 0.0741580000
0.9909850000 0.3894740000 0.1007000000
0.9977970000 0.4045910000 0.1271800000
1.0000000000 0.4209270000 0.1549070000
0.0000000000 0.3375040000 0.0000000000
0.0000000000 0.3435430000 0.0000000000
0.0031540000 0.3454240000 0.0000000000
0.0181370000 0.3433340000 0.0000000000
0.0536510000 0.3391060000 0.0000000000
0.1056690000 0.3344890000 0.0000000000
0.1594680000 0.3296840000 0.0000000000
0.2077880000 0.3249050000 0.0000000000
0.2509810000 0.3198130000 0.0007890000
0.2902030000 0.3138050000 0.0031540000
0.3270270000 0.3071780000 0.0063090000
0.3636880000 0.3013590000 0.0118290000
0.4034720000 0.2986470000 0.0157710000
0.4473680000 0.2998830000 0.0149830000
0.4946320000 0.3045270000 0.0110400000
0.5421280000 0.3102750000 0.0063090000
0.5879180000 0.3157840000 0.0023660000
0.6308700000 0.3206110000 0.0007890000
0.6706690000 0.3246810000 0.0000000000
0.7070330000 0.3281370000 0.0000000000
0.7406780000 0.3314410000 0.0000000000
0.7720270000 0.3352450000 0.0000000000
0.8018660000 0.3399560000 0.0000000000
0.8305220000 0.3459440000 0.0000000000
0.8580020000 0.3532320000 0.0000000000
0.8844640000 0.3617250000 0.0015770000
0.9094360000 0.3715110000 0.0047310000
0.9328860000 0.3820990000 0.0149830000
0.9544700000 0.3932310000 0.0331200000
0.9737890000 0.4047620000 0.0586620000
0.9885910000 0.4168140000 0.0878510000
0.9968270000 0.4300450000 0.1177440000
1.0000000000 0.4447050000 0.1486010000
0.0000000000 0.3733170000 0.0000000000
0.0000000000 0.3797880000 0.0000000000
0.0023660000 0.3821920000 0.0000000000
0.0134060000 0.3804370000 0.0000000000
0.0461810000 0.3766160000 0.0000000000
0.0971260000 0.3722720000 0.0000000000
0.1528350000 0.3677700000 0.0000000000
0.2036100000 0.3635900000 0.0000000000
0.2491520000 0.3592520000 0.0000000000
0.2905870000 0.3544460000 0.0007890000
0.3284690000 0.3487380000 0.0023660000
0.3637860000 0.3423880000 0.0070970000
0.3986990000 0.3365380000 0.0141940000
0.4362800000 0.3338380000 0.0205030000
0.4781090000 0.3355690000 0.0212920000
0.5233230000 0.3410160000 0.0165600000
0.5690690000 0.3478100000 0.0102510000
0.6134510000 0.3545470000 0.0047310000
0.6551700000 0.3604420000 0.0015770000
0.6941460000 0.3655410000 0.0007890000
0.7300660000 0.3698860000 0.0000000000
0.7635530000 0.3741690000 0.0000000000
0.7947880000 0.3787650000 0.0000000000
0.8244250000 0.3841200000 0.0000000000
0.8525260000 0.3903730000 0.0000000000
0.8791090000 0.3976480000 0.0000000000
0.9043980000 0.4058760000 0.0015770000
0.9278970000 0.4147380000 0.0063090000
0.9497750000 0.4239400000 0.0189260000
0.9695240000 0.4335320000 0.0417590000
0.9855620000 0.4436340000 0.0721040000
0.9954790000 0.4550190000 0.1052950000
1.0000000000 0.4677840000 0.1391700000
0.0000000000 0.4080930000 0.0000000000
0.0000000000 0.4145710000 0.0000000000
0.0015770000 0.4170620000 0.0000000000
0.0110400000 0.4158190000 0.0000000000
0.0409940000 0.4123980000 0.0000000000
0.0913190000 0.4082630000 0.0000000000
0.1475230000 0.4039890000 0.0000000000
0.1991380000 0.4000070000 0.0000000000
0.2457580000 0.3963290000 0.0000000000
0.2886600000 0.3923410000 0.0000000000
0.3282480000 0.3879410000 0.0007890000
0.3648600000 0.3827440000 0.0031540000
0.3986990000 0.3767100000 0.0086740000
0.4318720000 0.3710340000 0.0181370000
0.4674250000 0.3685410000 0.0276000000
0.5071980000 0.3705560000 0.0307540000
0.5502650000 0.3766160000 0.0260230000
0.5943670000 0.3842110000 0.0173490000
0.6372020000 0.3918050000 0.0094630000
0.6779120000 0.3985240000 0.0039430000
0.7163450000 0.4045050000 0.0015770000
0.7523460000 0.4099570000 0.0007890000
0.7860450000 0.4154040000 0.0000000000
0.8174280000 0.4208460000 0.0000000000
0.8468700000 0.4266850000 0.0000000000
0.8743520000 0.4331370000 0.0000000000
0.8999390000 0.4400920000 0.0000000000
0.9235590000 0.4473680000 0.0023660000
0.9455970000 0.4549450000 0.0094630000
0.9656000000 0.4626580000 0.0268120000
0.9826020000 0.4708550000 0.0555680000
0.9939390000 0.4802660000 0.0908920000
1.0000000000 0.4908710000 0.1274930000
0.0000000000 0.4400150000 0.0000000000
0.0000000000 0.4472920000 0.0000000000
0.0015770000 0.4506130000 0.0000000000
0.0110400000 0.4499360000 0.0000000000
0.0402170000 0.4469890000 0.0000000000
0.0896000000 0.4430970000 0.0000000000
0.1450680000 0.4388520000 0.0000000000
0.1959610000 0.4348690000 0.0000000000
0.2426260000 0.4313170000 0.0000000000
0.2860660000 0.4281290000 0.0000000000
0.3266930000 0.4246680000 0.0000000000
0.3647620000 0.4208460000 0.0007890000
0.3999200000 0.4161510000 0.0031540000
0.4325840000 0.4106320000 0.0110400000
0.4640370000 0.4052770000 0.0244460000
0.4975630000 0.4028690000 0.0378520000
0.5350460000 0.4050200000 0.0447380000
0.5761750000 0.4113060000 0.0402170000
0.6183560000 0.4192880000 0.0283890000
0.6598640000 0.4273270000 0.0173490000
0.6998350000 0.4347120000 0.0086740000
0.7379640000 0.4416360000 0.0039430000
0.7741730000 0.4482760000 0.0015770000
0.8081520000 0.4545730000 0.0007890000
0.8397460000 0.4607630000 0.0000000000
0.8686560000 0.4669230000 0.0000000000
0.8950480000 0.4729820000 0.0000000000
0.9192230000 0.4791540000 0.0007890000
0.9412790000 0.4852280000 0.0039430000
0.9616550000 0.4914780000 0.0157710000
0.9793540000 0.4980930000 0.0402170000
0.9922060000 0.5057710000 0.0756690000
1.0000000000 0.5148320000 0.1163850000
0.0000000000 0.4705700000 0.0000000000
0.0000000000 0.4788760000 0.0000000000
0.0015770000 0.4829620000 0.0000000000
0.0126170000 0.4828930000 0.0000000000
0.0440050000 0.4804050000 0.0000000000
0.0934290000 0.4767810000 0.0000000000
0.1469810000 0.4727700000 0.0000000000
0.1959610000 0.4689300000 0.0000000000
0.2412010000 0.4654830000 0.0000000000
0.2844960000 0.4624400000 0.0000000000
0.3253530000 0.4595190000 0.0000000000
0.3640790000 0.4565010000 0.0000000000
0.4005300000 0.4532330000 0.0007890000
0.4341620000 0.4491070000 0.0047310000
0.4651940000 0.4439400000 0.0149830000
0.4949000000 0.4387740000 0.0331200000
0.5263000000 0.4362020000 0.0523470000
0.5615070000 0.4379970000 0.0616430000
0.6004140000 0.4440160000 0.0574390000
0.6409630000 0.4520380000 0.0447380000
0.6816070000 0.4606900000 0.0299660000
0.7211490000 0.4687870000 0.0181370000
0.7592510000 0.4765710000 0.0094630000
0.7952970000 0.4839250000 0.0047310000
0.8290810000 0.4907360000 0.0023660000
0.8600680000 0.4971640000 0.0007890000
0.8880840000 0.5029660000 0.0000000000
0.9131980000 0.5084270000 0.0000000000
0.9359980000 0.5136230000 0.0015770000
0.9568640000 0.5188160000 0.0078860000
0.9754820000 0.5242560000 0.0260230000
0.9900340000 0.5308490000 0.0586620000
1.0000000000 0.5385420000 0.1022530000
0.0000000000 0.5014580000 0.0000000000
0.0007890000 0.5092650000 0.0000000000
0.0039430000 0.5132400000 0.0000000000
0.0181370000 0.5133040000 0.0000000000
0.0530020000 0.5111940000 0.0000000000
0.1026370000 0.5081040000 0.0000000000
0.1530950000 0.5043380000 0.0000000000
0.1989410000 0.5005370000 0.0000000000
0.2418350000 0.4970980000 0.0000000000
0.2837080000 0.4943650000 0.0000000000
0.3242320000 0.4918150000 0.0000000000
0.3630020000 0.4892480000 0.0000000000
0.3999200000 0.4868000000 0.0000000000
0.4345550000 0.4839250000 0.0015770000
0.4665630000 0.4801270000 0.0070970000
0.4959000000 0.4752380000 0.0220800000
0.5239450000 0.4702850000 0.0461810000
0.5534070000 0.4675690000 0.0700030000
0.5866280000 0.4691440000 0.0814810000
0.6238580000 0.4750270000 0.0791020000
0.6635070000 0.4833060000 0.0662020000
0.7036380000 0.4924200000 0.0496690000
0.7428250000 0.5012610000 0.0339090000
0.7803430000 0.5094580000 0.0212920000
0.8158150000 0.5170510000 0.0126170000
0.8486390000 0.5239450000 0.0070970000
0.8785050000 0.5300530000 0.0039430000
0.9053780000 0.5355300000 0.0015770000
0.9295550000 0.5403390000 0.0015770000
0.9514960000 0.5448580000 0.0039430000
0.9712000000 0.5496220000 0.0149830000
0.9875280000 0.5550850000 0.0425160000
1.0000000000 0.5615640000 0.0842610000
0.0000000000 0.5306650000 0.0000000000
0.0023660000 0.5374000000 0.0000000000
0.0102510000 0.5407570000 0.0000000000
0.0307540000 0.5407570000 0.0000000000
0.0689340000 0.5387820000 0.0000000000
0.1163850000 0.5360130000 0.0000000000
0.1624340000 0.5326790000 0.0000000000
0.2041850000 0.5291340000 0.0000000000
0.2441970000 0.5258060000 0.0000000000
0.2838390000 0.5230120000 0.0000000000
0.3233310000 0.5208260000 0.0000000000
0.3617250000 0.5188160000 0.0000000000
0.3985240000 0.5167980000 0.0000000000
0.4334530000 0.5146420000 0.0000000000
0.4664190000 0.5121540000 0.0031540000
0.4970310000 0.5088780000 0.0134060000
0.5251240000 0.5045340000 0.0354860000
0.5518970000 0.5000760000 0.0645210000
0.5800690000 0.4976290000 0.0900320000
0.6118720000 0.4992840000 0.1037840000
0.6481640000 0.5053160000 0.1037840000
0.6873000000 0.5140690000 0.0925900000
0.7268100000 0.5235100000 0.0756690000
0.7653110000 0.5325570000 0.0580530000
0.8019380000 0.5409360000 0.0425160000
0.8361880000 0.5485090000 0.0291770000
0.8676530000 0.5552010000 0.0197140000
0.8962590000 0.5610510000 0.0126170000
0.9220370000 0.5659810000 0.0078860000
0.9453950000 0.5702990000 0.0063090000
0.9665830000 0.5745200000 0.0110400000
0.9848230000 0.5791940000 0.0291770000
1.0000000000 0.5843620000 0.0645210000
0.0015770000 0.5568720000 0.0000000000
0.0110400000 0.5632110000 0.0000000000
0.0268120000 0.5664310000 0.0000000000
0.0542950000 0.5664310000 0.0000000000
0.0930110000 0.5647400000 0.0000000000
0.1356830000 0.5623030000 0.0000000000
0.1762600000 0.5593390000 0.0000000000
0.2137050000 0.5561810000 0.0000000000
0.2500680000 0.5528270000 0.0000000000
0.2868470000 0.5500890000 0.0000000000
0.3244560000 0.5479810000 0.0000000000
0.3619220000 0.5462750000 0.0000000000
0.3980860000 0.5447390000 0.0000000000
0.4329790000 0.5431390000 0.0000000000
0.4662030000 0.5414130000 0.0015770000
0.4977620000 0.5393810000 0.0086740000
0.5272880000 0.5367970000 0.0276000000
0.5545650000 0.5331650000 0.0555680000
0.5803960000 0.5293180000 0.0860720000
0.6073120000 0.5271030000 0.1118590000
0.6381210000 0.5288880000 0.1268660000
0.6734250000 0.5349250000 0.1296660000
0.7117090000 0.5437320000 0.1217340000
0.7503920000 0.5532330000 0.1067860000
0.7878480000 0.5623600000 0.0891650000
0.8231770000 0.5707450000 0.0721040000
0.8558300000 0.5781530000 0.0561960000
0.8857260000 0.5844700000 0.0432640000
0.9129250000 0.5897390000 0.0323320000
0.9378400000 0.5943670000 0.0252340000
0.9606650000 0.5984770000 0.0228690000
0.9811450000 0.6026040000 0.0307540000
0.9995170000 0.6070030000 0.0510200000
0.0110400000 0.5820840000 0.0000000000
0.0331200000 0.5884010000 0.0000000000
0.0586620000 0.5916600000 0.0000000000
0.0896000000 0.5918730000 0.0000000000
0.1249650000 0.5904870000 0.0000000000
0.1604630000 0.5884010000 0.0000000000
0.1949570000 0.5857660000 0.0000000000
0.2280900000 0.5828990000 0.0000000000
0.2609220000 0.5798500000 0.0000000000
0.2942720000 0.5770550000 0.0000000000
0.3291320000 0.5748510000 0.0000000000
0.3648600000 0.5732460000 0.0000000000
0.4001820000 0.5719700000 0.0000000000
0.4345550000 0.5706890000 0.0000000000
0.4674970000 0.5693490000 0.0015770000
0.4992840000 0.5679490000 0.0078860000
0.5295630000 0.5663750000 0.0236570000
0.5580790000 0.5642870000 0.0503480000
0.5843620000 0.5611650000 0.0800600000
