bundles/resolve-cinematic-luts/Gamut/Cascade/01 North.cube
TITLE "Cascade North by Gamut.io"
# Copyright 2020 Gamut.io
LUT_3D_SIZE 5
0.0094630000 0.0094630000 0.0094630000
0.2190790000 0.0139600000 0.0147350000
0.6173590000 0.1007000000 0.0208120000
0.8772370000 0.1559570000 0.0361340000
0.9828150000 0.3228630000 0.1961510000
0.0370540000 0.2463030000 0.0154390000
0.2290760000 0.2204730000 0.0131060000
0.6125540000 0.2512520000 0.0261550000
0.8607330000 0.3117410000 0.0421740000
0.9879320000 0.4377490000 0.1968770000
0.1648800000 0.5463130000 0.0906660000
0.2688420000 0.5439590000 0.0906710000
0.5459350000 0.5296690000 0.0927390000
0.8112930000 0.5684440000 0.1217440000
0.9922860000 0.6123220000 0.2015000000
0.3081790000 0.7550020000 0.1417230000
0.4153700000 0.7510350000 0.1447250000
0.6051800000 0.7455260000 0.1975760000
0.7967010000 0.7486120000 0.3512980000
0.9666960000 0.7709880000 0.4902730000
0.5853210000 0.9413300000 0.5188350000
0.6155380000 0.9378930000 0.5171490000
0.7123760000 0.9397010000 0.5479120000
0.8445330000 0.9446740000 0.6128240000
0.9951130000 0.9577360000 0.7108310000
0.0155850000 0.0101300000 0.2797710000
0.2806460000 0.0193680000 0.2756260000
0.6656240000 0.1110290000 0.2764170000
0.8774170000 0.1607250000 0.3235710000
0.9849010000 0.3558170000 0.3969230000
0.0636870000 0.2869440000 0.2691860000
0.2769490000 0.2764210000 0.2657230000
0.6151020000 0.2821070000 0.2721040000
0.8521360000 0.3411880000 0.3073680000
0.9930520000 0.4581100000 0.4018440000
0.1742090000 0.5724800000 0.2349740000
0.2891920000 0.5668970000 0.2512520000
0.5551340000 0.5473700000 0.3030650000
0.8139460000 0.5797030000 0.3174120000
0.9913540000 0.6197760000 0.4005190000
0.3124000000 0.7670390000 0.3238740000
0.4227220000 0.7630860000 0.3278230000
0.6034230000 0.7528370000 0.3523350000
0.7945710000 0.7547190000 0.4561390000
0.9666080000 0.7774420000 0.5535630000
0.5835130000 0.9444510000 0.5659450000
0.6147990000 0.9417500000 0.5657290000
0.7117870000 0.9422590000 0.5840780000
0.8452130000 0.9463030000 0.6328080000
0.9946810000 0.9596830000 0.7304110000
0.1250150000 0.0387580000 0.6456890000
0.3645920000 0.0550870000 0.6640920000
0.6660360000 0.1248010000 0.6450040000
0.9137900000 0.1547190000 0.6219000000
0.9897720000 0.3972590000 0.6233150000
0.1243160000 0.3150950000 0.6505330000
0.3245710000 0.3208420000 0.6438160000
0.6322330000 0.3356420000 0.6241630000
0.8747190000 0.3741680000 0.6131720000
0.9956110000 0.5081260000 0.6355430000
0.1573920000 0.6029540000 0.5895630000
0.2253110000 0.6066290000 0.5970850000
0.5749030000 0.5982150000 0.6020190000
0.8222140000 0.6096610000 0.6096610000
0.9926270000 0.6507440000 0.6375370000
0.2201920000 0.7954590000 0.5652760000
0.3718380000 0.7937390000 0.5758710000
0.6002600000 0.7784560000 0.5863650000
0.7973680000 0.7748850000 0.6210440000
0.9780360000 0.7933570000 0.6472580000
0.5853130000 0.9553180000 0.6430750000
0.6184880000 0.9521800000 0.6432950000
0.7139130000 0.9501670000 0.6521070000
0.8420210000 0.9533930000 0.6893730000
0.9948670000 0.9667850000 0.7868000000
0.3816540000 0.2049880000 0.8447830000
0.5012220000 0.2265170000 0.8392240000
0.6963510000 0.3030710000 0.8262500000
0.8761330000 0.3692160000 0.8159670000
0.9880130000 0.4368930000 0.7826960000
0.3507360000 0.3950880000 0.8249880000
0.4756230000 0.4064860000 0.8230910000
0.6769160000 0.4449140000 0.8148460000
0.8581240000 0.4814330000 0.8067380000
0.9958460000 0.5317430000 0.7833430000
0.2370270000 0.6145160000 0.7986770000
0.3886370000 0.6191340000 0.8016990000
0.6440440000 0.6338530000 0.8017730000
0.8346940000 0.6590430000 0.8001100000
0.9962010000 0.6867740000 0.7905310000
0.2831180000 0.8133580000 0.7729880000
0.3934590000 0.8127670000 0.7752820000
0.6103890000 0.8104690000 0.7810320000
0.8140240000 0.8081150000 0.7869300000
0.9778280000 0.8231570000 0.8068580000
0.5400520000 0.9734670000 0.7619780000
0.5776120000 0.9725430000 0.7651320000
0.6912900000 0.9721930000 0.7833520000
0.8322400000 0.9695060000 0.8131140000
0.9929180000 0.9757860000 0.8662950000
0.5682070000 0.5143660000 0.9987930000
0.6153570000 0.5220880000 0.9984790000
0.7235290000 0.5551300000 0.9944860000
0.8428450000 0.6155470000 0.9846150000
0.9878450000 0.6431520000 0.9811800000
0.5715270000 0.5833360000 0.9969320000
0.6199330000 0.5910110000 0.9957230000
0.7234340000 0.6170420000 0.9902060000
0.8435830000 0.6630070000 0.9823580000
0.9873780000 0.6834800000 0.9799200000
0.5810390000 0.6996670000 0.9914180000
0.6325210000 0.7069220000 0.9908860000
0.7314840000 0.7230040000 0.9876340000
0.8473600000 0.7529090000 0.9811470000
0.9862830000 0.7677360000 0.9794350000
0.5448480000 0.8188430000 0.9880880000
0.5906280000 0.8201060000 0.9884570000
0.7028470000 0.8256230000 0.9886000000
0.8429440000 0.8439020000 0.9854220000
0.9879070000 0.8624510000 0.9838500000
0.6000250000 0.9994950000 0.9902290000
0.6290200000 0.9996810000 0.9907620000
0.7115730000 0.9994400000 0.9932530000
0.8326690000 0.9993850000 0.9987160000
0.9994090000 0.9998930000 0.9998930000
