bundles/resolve-cinematic-luts/Gamut/Cascade/01 North.cube
TITLE "Cascade North by Gamut.io"
# Copyright 2020 Gamut.io
LUT_3D_SIZE 33
0.0094630000 0.0094630000 0.0094630000
0.0213220000 0.0125780000 0.0102200000
0.0490670000 0.0180270000 0.0109730000
0.0797080000 0.0156310000 0.0117240000
0.1036470000 0.0155930000 0.0124750000
0.1256920000 0.0124510000 0.0124510000
0.1504800000 0.0101030000 0.0139890000
0.1786800000 0.0085400000 0.0147500000
0.2190790000 0.0139600000 0.0147350000
0.2685720000 0.0247930000 0.0123970000
0.3216890000 0.0363820000 0.0116110000
0.3770860000 0.0487150000 0.0116010000
0.4315880000 0.0609830000 0.0123650000
0.4834590000 0.0731180000 0.0146730000
0.5315380000 0.0824600000 0.0169780000
0.5761780000 0.0905560000 0.0192810000
0.6173590000 0.1007000000 0.0208120000
0.6564970000 0.1116850000 0.0238830000
0.6941790000 0.1195150000 0.0261820000
0.7300920000 0.1253650000 0.0269420000
0.7639600000 0.1318250000 0.0269320000
0.7949640000 0.1388060000 0.0276940000
0.8229270000 0.1451880000 0.0299940000
0.8497410000 0.1512980000 0.0330640000
0.8772370000 0.1559570000 0.0361340000
0.9063000000 0.1583480000 0.0392050000
0.9353920000 0.1592910000 0.0450170000
0.9594530000 0.1651090000 0.0553870000
0.9736010000 0.1836480000 0.0737640000
0.9791580000 0.2159950000 0.1011800000
0.9809400000 0.2551150000 0.1331540000
0.9818560000 0.2917240000 0.1654070000
0.9828150000 0.3228630000 0.1961510000
0.0117670000 0.0323260000 0.0101980000
0.0299740000 0.0323250000 0.0101900000
0.0537210000 0.0323230000 0.0101710000
0.0778070000 0.0307590000 0.0117100000
0.1002170000 0.0276440000 0.0124660000
0.1241250000 0.0237600000 0.0132230000
0.1473100000 0.0191070000 0.0139860000
0.1786880000 0.0152390000 0.0155230000
0.2232290000 0.0191320000 0.0139570000
0.2728130000 0.0276640000 0.0123950000
0.3255540000 0.0385030000 0.0108360000
0.3792740000 0.0499790000 0.0116000000
0.4328200000 0.0621730000 0.0123640000
0.4839890000 0.0737620000 0.0146720000
0.5312340000 0.0831250000 0.0169770000
0.5752610000 0.0912390000 0.0185090000
0.6163230000 0.1010260000 0.0200400000
0.6555860000 0.1120620000 0.0231120000
0.6930800000 0.1199270000 0.0261820000
0.7290630000 0.1261080000 0.0269410000
0.7628430000 0.1322900000 0.0269320000
0.7937630000 0.1390210000 0.0276930000
0.8216110000 0.1456980000 0.0292240000
0.8483180000 0.1518240000 0.0322940000
0.8755620000 0.1564970000 0.0353650000
0.9043100000 0.1596100000 0.0384370000
0.9334550000 0.1626660000 0.0436100000
0.9580210000 0.1719460000 0.0529260000
0.9729530000 0.1939500000 0.0707940000
0.9788630000 0.2277190000 0.0985540000
0.9808600000 0.2656930000 0.1311440000
0.9818560000 0.3004540000 0.1640340000
0.9829490000 0.3303940000 0.1957730000
0.0163970000 0.0550090000 0.0132740000
0.0284180000 0.0537420000 0.0132690000
0.0498120000 0.0511480000 0.0132560000
0.0676320000 0.0470850000 0.0132400000
0.0900790000 0.0420400000 0.0140020000
0.1145820000 0.0351000000 0.0139890000
0.1415990000 0.0289140000 0.0139760000
0.1800180000 0.0219640000 0.0155140000
0.2274660000 0.0251000000 0.0139500000
0.2771100000 0.0321020000 0.0116150000
0.3291430000 0.0414000000 0.0108320000
0.3825190000 0.0518980000 0.0108230000
0.4350340000 0.0633640000 0.0123610000
0.4851090000 0.0749020000 0.0138960000
0.5316920000 0.0842360000 0.0162020000
0.5752430000 0.0919230000 0.0185060000
0.6159140000 0.1017260000 0.0200370000
0.6549820000 0.1127760000 0.0231090000
0.6923500000 0.1206560000 0.0254090000
0.7282230000 0.1265450000 0.0269390000
0.7618660000 0.1327530000 0.0269300000
0.7926960000 0.1397820000 0.0269220000
0.8204570000 0.1462060000 0.0292230000
0.8468900000 0.1523500000 0.0315250000
0.8738200000 0.1575210000 0.0345960000
0.9023120000 0.1620520000 0.0376670000
0.9314830000 0.1680490000 0.0421730000
0.9565860000 0.1819230000 0.0503830000
0.9721160000 0.2073990000 0.0677220000
0.9786230000 0.2416180000 0.0958650000
0.9808070000 0.2778060000 0.1291050000
0.9819640000 0.3105280000 0.1628830000
0.9831890000 0.3393920000 0.1957790000
0.0132270000 0.0660200000 0.0140050000
0.0237590000 0.0643540000 0.0140030000
0.0389700000 0.0620880000 0.0147760000
0.0579600000 0.0579600000 0.0147680000
0.0728960000 0.0529660000 0.0155360000
0.1004100000 0.0490060000 0.0155250000
0.1393970000 0.0418600000 0.0155130000
0.1817760000 0.0326110000 0.0147260000
0.2319430000 0.0357560000 0.0123910000
0.2831450000 0.0404430000 0.0108340000
0.3350160000 0.0471030000 0.0100530000
0.3879380000 0.0563340000 0.0100460000
0.4392730000 0.0662280000 0.0115830000
0.4881390000 0.0770270000 0.0138910000
0.5335590000 0.0853580000 0.0161970000
0.5762880000 0.0930270000 0.0177300000
0.6166250000 0.1028080000 0.0200330000
0.6550500000 0.1134970000 0.0231050000
0.6922450000 0.1213890000 0.0254050000
0.7279690000 0.1272900000 0.0269350000
0.7614420000 0.1337970000 0.0269270000
0.7919770000 0.1405460000 0.0269200000
0.8196040000 0.1475000000 0.0284520000
0.8457810000 0.1541280000 0.0315230000
0.8725390000 0.1609480000 0.0338260000
0.9008470000 0.1686120000 0.0368980000
0.9299370000 0.1795630000 0.0399610000
0.9552600000 0.1985800000 0.0477500000
0.9713860000 0.2268460000 0.0656130000
0.9783560000 0.2602460000 0.0939030000
0.9807820000 0.2933030000 0.1276320000
0.9821790000 0.3233140000 0.1619600000
0.9833760000 0.3505120000 0.1959800000
0.0124240000 0.0769130000 0.0116480000
0.0206680000 0.0759340000 0.0124230000
0.0304730000 0.0729290000 0.0139730000
0.0517010000 0.0687630000 0.0155200000
0.0719450000 0.0655130000 0.0162880000
0.0911540000 0.0585840000 0.0170550000
0.1330760000 0.0586240000 0.0162700000
0.1837300000 0.0562060000 0.0139370000
0.2343920000 0.0568720000 0.0116060000
0.2881360000 0.0587510000 0.0100520000
0.3416850000 0.0623380000 0.0100460000
0.3944660000 0.0679580000 0.0100400000
0.4450150000 0.0757330000 0.0115780000
0.4923810000 0.0837980000 0.0138850000
0.5368180000 0.0903880000 0.0161910000
0.5783350000 0.0969680000 0.0177240000
0.6179630000 0.1061180000 0.0200270000
0.6559720000 0.1165880000 0.0230990000
0.6927680000 0.1240280000 0.0254000000
0.7280260000 0.1298520000 0.0269310000
0.7611630000 0.1365650000 0.0269230000
0.7915030000 0.1443030000 0.0276860000
0.8189160000 0.1523950000 0.0292190000
0.8451240000 0.1612570000 0.0315210000
0.8715990000 0.1712050000 0.0338240000
0.8997980000 0.1837070000 0.0361290000
0.9287600000 0.2003120000 0.0384340000
0.9542640000 0.2236710000 0.0457110000
0.9706580000 0.2525000000 0.0639970000
0.9781180000 0.2830550000 0.0927110000
0.9808110000 0.3120600000 0.1264440000
0.9823670000 0.3387690000 0.1612700000
0.9837760000 0.3640000000 0.1961860000
0.0108520000 0.1050480000 0.0116280000
0.0137100000 0.1057940000 0.0116270000
0.0189010000 0.1028020000 0.0108500000
0.0380530000 0.0997340000 0.0116220000
0.0683330000 0.0953670000 0.0123920000
0.0985990000 0.0899600000 0.0131610000
0.1232850000 0.0795950000 0.0162500000
0.1726090000 0.0838340000 0.0146950000
0.2300100000 0.0870150000 0.0123680000
0.2869880000 0.0892360000 0.0108160000
0.3436160000 0.0918300000 0.0100380000
0.3977850000 0.0947670000 0.0108050000
0.4486710000 0.0984140000 0.0123420000
0.4954000000 0.1026980000 0.0146490000
0.5387620000 0.1064520000 0.0169550000
0.5797290000 0.1107880000 0.0184880000
0.6186090000 0.1186490000 0.0207910000
0.6560280000 0.1272590000 0.0230930000
0.6924850000 0.1341550000 0.0253940000
0.7274080000 0.1404240000 0.0269260000
0.7602100000 0.1482650000 0.0269190000
0.7903880000 0.1574280000 0.0284520000
0.8176500000 0.1679050000 0.0299850000
0.8436520000 0.1798660000 0.0322880000
0.8700320000 0.1935890000 0.0338230000
0.8977880000 0.2101140000 0.0353600000
0.9266330000 0.2303610000 0.0368970000
0.9523530000 0.2545800000 0.0450190000
0.9695490000 0.2812820000 0.0634540000
0.9777730000 0.3078170000 0.0915060000
0.9810560000 0.3328060000 0.1249450000
0.9828500000 0.3566790000 0.1605800000
0.9844170000 0.3800050000 0.1967760000
0.0116100000 0.1461240000 0.0085140000
0.0145110000 0.1480000000 0.0085130000
0.0166450000 0.1464000000 0.0085120000
0.0234330000 0.1425920000 0.0085110000
0.0524370000 0.1381110000 0.0100550000
0.0966810000 0.1325900000 0.0108250000
0.1326100000 0.1258930000 0.0123670000
0.1645310000 0.1147720000 0.0146800000
0.2209390000 0.1218040000 0.0123570000
0.2800200000 0.1272180000 0.0115790000
0.3379070000 0.1312110000 0.0108020000
0.3943120000 0.1347910000 0.0115690000
0.4469320000 0.1377030000 0.0138770000
0.4948340000 0.1399900000 0.0154120000
0.5385410000 0.1414050000 0.0177170000
0.5795260000 0.1441730000 0.0192510000
0.6183740000 0.1495290000 0.0215540000
0.6555850000 0.1556940000 0.0238560000
0.6914410000 0.1616060000 0.0261570000
0.7258780000 0.1684480000 0.0269200000
0.7583950000 0.1774130000 0.0284530000
0.7882400000 0.1877550000 0.0299860000
0.8152590000 0.1996120000 0.0315200000
0.8410010000 0.2128680000 0.0330550000
0.8670490000 0.2280540000 0.0345910000
0.8946270000 0.2456490000 0.0353600000
0.9232860000 0.2657630000 0.0384360000
0.9494890000 0.2877490000 0.0464010000
0.9678430000 0.3105340000 0.0640050000
0.9772680000 0.3328350000 0.0902900000
0.9813820000 0.3547260000 0.1231220000
0.9834680000 0.3763540000 0.1594170000
0.9853500000 0.3982500000 0.1975590000
0.0255060000 0.1966110000 0.0115930000
0.0269000000 0.1981730000 0.0115930000
0.0290710000 0.1966130000 0.0115920000
0.0327970000 0.1926510000 0.0108180000
0.0463720000 0.1877750000 0.0100430000
0.0848460000 0.1825450000 0.0084960000
0.1356090000 0.1773680000 0.0077210000
0.1780390000 0.1715690000 0.0100340000
0.2180160000 0.1650790000 0.0123450000
0.2729850000 0.1695410000 0.0123410000
0.3282220000 0.1736530000 0.0123360000
0.3846350000 0.1791850000 0.0138730000
0.4390510000 0.1843220000 0.0154090000
0.4892300000 0.1882780000 0.0169450000
0.5352180000 0.1909350000 0.0192490000
0.5773550000 0.1939450000 0.0215520000
0.6167210000 0.1980690000 0.0238550000
0.6540090000 0.2024740000 0.0253880000
0.6897620000 0.2076920000 0.0276900000
0.7237080000 0.2145390000 0.0292220000
0.7558250000 0.2230120000 0.0307560000
0.7853710000 0.2327450000 0.0322900000
0.8123480000 0.2434050000 0.0338240000
0.8379470000 0.2555740000 0.0345910000
0.8638660000 0.2694120000 0.0361280000
0.8911510000 0.2852580000 0.0392040000
0.9197790000 0.3028430000 0.0436130000
0.9464760000 0.3212620000 0.0523080000
0.9660520000 0.3400260000 0.0672170000
0.9770080000 0.3589560000 0.0903000000
0.9818970000 0.3780930000 0.1215880000
0.9843520000 0.3975530000 0.1582500000
0.9864420000 0.4176650000 0.1975920000
0.0370540000 0.2463030000 0.0154390000
0.0377120000 0.2481180000 0.0162110000
0.0391450000 0.2475150000 0.0162090000
0.0428660000 0.2443210000 0.0162080000
0.0551810000 0.2401420000 0.0154330000
0.0835570000 0.2357190000 0.0146590000
0.1318300000 0.2316890000 0.0131130000
0.1857580000 0.2269130000 0.0123380000
0.2290760000 0.2204730000 0.0131060000
0.2724510000 0.2162980000 0.0146430000
0.3209810000 0.2171870000 0.0154100000
0.3730930000 0.2217020000 0.0161750000
0.4266450000 0.2284400000 0.0177110000
0.4785060000 0.2352720000 0.0200160000
0.5269320000 0.2412570000 0.0223190000
0.5714140000 0.2464670000 0.0238530000
0.6125540000 0.2512520000 0.0261550000
0.6508820000 0.2559310000 0.0284570000
0.6869750000 0.2609340000 0.0299910000
0.7208150000 0.2669280000 0.0315240000
0.7526790000 0.2738340000 0.0330580000
0.7821330000 0.2814440000 0.0353620000
0.8091160000 0.2899380000 0.0368980000
0.8347150000 0.2999440000 0.0392030000
0.8607330000 0.3117410000 0.0421740000
0.8879330000 0.3249820000 0.0464000000
0.9165780000 0.3394560000 0.0510350000
0.9435930000 0.3546820000 0.0589560000
0.9644230000 0.3704460000 0.0708230000
0.9768030000 0.3865710000 0.0911320000
0.9827610000 0.4030790000 0.1206690000
0.9856900000 0.4200630000 0.1573200000
0.9879320000 0.4377490000 0.1968770000
0.0465440000 0.2915050000 0.0215920000
0.0485920000 0.2960710000 0.0223630000
0.0499540000 0.2970460000 0.0223610000
0.0519720000 0.2947200000 0.0223590000
0.0601480000 0.2908780000 0.0215860000
0.0840810000 0.2863390000 0.0208120000
0.1270080000 0.2819740000 0.0200370000
0.1817790000 0.2776590000 0.0192630000
0.2354220000 0.2727250000 0.0177180000
0.2779240000 0.2663030000 0.0192540000
0.3204200000 0.2628140000 0.0192500000
0.3656870000 0.2635210000 0.0200150000
0.4144340000 0.2683820000 0.0207810000
0.4648220000 0.2760760000 0.0230850000
0.5141210000 0.2844170000 0.0253880000
0.5605570000 0.2920990000 0.0276910000
0.6040540000 0.2990610000 0.0299930000
0.6443760000 0.3048910000 0.0315270000
0.6816050000 0.3102410000 0.0338300000
0.7161790000 0.3154820000 0.0353640000
0.7483800000 0.3210600000 0.0376680000
0.7782300000 0.3270630000 0.0399610000
0.8054560000 0.3338840000 0.0421730000
0.8313380000 0.3420760000 0.0450170000
0.8573640000 0.3517190000 0.0490820000
0.8845190000 0.3627650000 0.0535570000
0.9129830000 0.3747850000 0.0583740000
0.9403330000 0.3875790000 0.0645610000
0.9624100000 0.4008840000 0.0747750000
0.9765740000 0.4147150000 0.0923650000
0.9838400000 0.4286970000 0.1200640000
0.9873990000 0.4433270000 0.1563890000
0.9899500000 0.4588790000 0.1971160000
0.0555140000 0.3339830000 0.0277360000
0.0586230000 0.3406700000 0.0292770000
0.0599280000 0.3431350000 0.0300460000
0.0612330000 0.3415940000 0.0292730000
0.0664760000 0.3378630000 0.0285000000
0.0850430000 0.3335530000 0.0284970000
0.1239140000 0.3293880000 0.0277230000
0.1785740000 0.3252680000 0.0261790000
0.2352710000 0.3208630000 0.0261750000
0.2839060000 0.3158190000 0.0254000000
0.3255890000 0.3107910000 0.0253960000
0.3652970000 0.3075400000 0.0253920000
0.4071190000 0.3081250000 0.0261570000
0.4522970000 0.3129740000 0.0269220000
0.4994920000 0.3209660000 0.0292250000
0.5462980000 0.3299000000 0.0315280000
0.5911330000 0.3385450000 0.0338310000
0.6332240000 0.3461180000 0.0369030000
0.6724350000 0.3526040000 0.0384380000
0.7086560000 0.3581710000 0.0399620000
0.7423240000 0.3633500000 0.0414440000
0.7729930000 0.3685320000 0.0443170000
0.8010460000 0.3743610000 0.0470770000
0.8274120000 0.3812470000 0.0510310000
0.8534360000 0.3892080000 0.0553970000
0.8802580000 0.3985040000 0.0601060000
0.9084850000 0.4086920000 0.0651010000
0.9362640000 0.4194520000 0.0708340000
0.9597600000 0.4306540000 0.0790320000
0.9759430000 0.4422530000 0.0939870000
0.9849460000 0.4541380000 0.1197780000
0.9894520000 0.4669070000 0.1557030000
0.9925200000 0.4806720000 0.1973630000
0.0657090000 0.3762030000 0.0346440000
0.0685630000 0.3828040000 0.0361840000
0.0703420000 0.3854750000 0.0369520000
0.0716000000 0.3842290000 0.0369500000
0.0748750000 0.3808240000 0.0369480000
0.0890580000 0.3769250000 0.0361750000
0.1229960000 0.3728830000 0.0354020000
0.1753020000 0.3693480000 0.0346280000
0.2335150000 0.3657700000 0.0338550000
0.2862030000 0.3619580000 0.0330810000
0.3308690000 0.3574150000 0.0330770000
0.3696150000 0.3529000000 0.0323040000
0.4063610000 0.3497160000 0.0323000000
0.4449380000 0.3499160000 0.0322960000
0.4869630000 0.3545730000 0.0346000000
0.5310770000 0.3625200000 0.0369030000
0.5754950000 0.3719270000 0.0392070000
0.6185110000 0.3807750000 0.0407080000
0.6594810000 0.3884970000 0.0421740000
0.6978280000 0.3950890000 0.0428950000
0.7335930000 0.4008730000 0.0450170000
0.7663110000 0.4063900000 0.0490800000
0.7957300000 0.4119800000 0.0535550000
0.8229270000 0.4181180000 0.0583700000
0.8491970000 0.4250110000 0.0634640000
0.8759410000 0.4328420000 0.0687870000
0.9038390000 0.4414010000 0.0738080000
0.9318590000 0.4504900000 0.0785720000
0.9565770000 0.4597850000 0.0848640000
0.9750440000 0.4693400000 0.0971430000
0.9861600000 0.4793380000 0.1201310000
0.9918980000 0.4902680000 0.1545290000
0.9952400000 0.5024340000 0.1966710000
0.0748000000 0.4158790000 0.0414830000
0.0774680000 0.4220380000 0.0436500000
0.0796330000 0.4247990000 0.0450580000
0.0808580000 0.4239320000 0.0450560000
0.0834560000 0.4209210000 0.0443530000
0.0945580000 0.4172410000 0.0436430000
0.1236660000 0.4134380000 0.0429250000
0.1717330000 0.4100020000 0.0421990000
0.2297830000 0.4069440000 0.0414660000
0.2856920000 0.4039410000 0.0407250000
0.3340480000 0.4004880000 0.0399750000
0.3746060000 0.3966550000 0.0399720000
0.4099050000 0.3925150000 0.0392110000
0.4438150000 0.3892860000 0.0392090000
0.4795290000 0.3892860000 0.0407100000
0.5184140000 0.3936380000 0.0421750000
0.5599570000 0.4015770000 0.0436100000
0.6026260000 0.4107180000 0.0443160000
0.6445250000 0.4194510000 0.0457100000
0.6843440000 0.4272590000 0.0484180000
0.7220980000 0.4342050000 0.0529310000
0.7569690000 0.4405660000 0.0583670000
0.7886280000 0.4468150000 0.0640060000
0.8175640000 0.4529580000 0.0698050000
0.8449000000 0.4593560000 0.0752490000
0.8719740000 0.4662760000 0.0799390000
0.8997040000 0.4735520000 0.0839770000
0.9278890000 0.4810970000 0.0874390000
0.9536600000 0.4887640000 0.0920130000
0.9741200000 0.4966110000 0.1013370000
0.9873490000 0.5047540000 0.1217450000
0.9940480000 0.5137930000 0.1536000000
0.9972940000 0.5239720000 0.1950290000
0.0839430000 0.4503940000 0.0504080000
0.0898330000 0.4578440000 0.0535750000
0.0938790000 0.4615460000 0.0554140000
0.0950550000 0.4612610000 0.0554120000
0.0970270000 0.4588410000 0.0548020000
0.1058260000 0.4553240000 0.0535690000
0.1311050000 0.4515540000 0.0523160000
0.1757790000 0.4481860000 0.0510420000
0.2320720000 0.4453040000 0.0503950000
0.2884740000 0.4426980000 0.0497430000
0.3375020000 0.4400720000 0.0490850000
0.3787920000 0.4371990000 0.0490830000
0.4146300000 0.4339190000 0.0484190000
0.4474390000 0.4302210000 0.0484180000
0.4789850000 0.4271870000 0.0484170000
0.5119940000 0.4270300000 0.0490780000
0.5484280000 0.4307620000 0.0503830000
0.5882660000 0.4379550000 0.0529280000
0.6290550000 0.4466290000 0.0565930000
0.6690930000 0.4552400000 0.0606660000
0.7079430000 0.4633680000 0.0661550000
0.7448700000 0.4709060000 0.0718150000
0.7790220000 0.4780260000 0.0776110000
0.8103360000 0.4848170000 0.0826300000
0.8395260000 0.4912950000 0.0865590000
0.8674810000 0.4978640000 0.0899330000
0.8954860000 0.5042660000 0.0928030000
0.9238110000 0.5106960000 0.0952090000
0.9504810000 0.5170300000 0.0979510000
0.9726560000 0.5234550000 0.1050300000
0.9875300000 0.5301440000 0.1230390000
0.9947720000 0.5376120000 0.1539130000
0.9973980000 0.5461630000 0.1953090000
0.1062600000 0.4831650000 0.0634570000
0.1159080000 0.4915040000 0.0677320000
0.1218360000 0.4958650000 0.0702990000
0.1235600000 0.4962520000 0.0708030000
0.1246550000 0.4941760000 0.0697890000
0.1324160000 0.4910420000 0.0682470000
0.1547190000 0.4874850000 0.0666770000
0.1939770000 0.4840290000 0.0650780000
0.2441910000 0.4812130000 0.0639940000
0.2954140000 0.4788510000 0.0628970000
0.3411210000 0.4766100000 0.0623420000
0.3816710000 0.4746290000 0.0623410000
0.4184110000 0.4722940000 0.0617840000
0.4521210000 0.4694590000 0.0617840000
0.4826210000 0.4660410000 0.0612240000
0.5119340000 0.4629450000 0.0612250000
0.5428070000 0.4621680000 0.0634500000
0.5773510000 0.4653430000 0.0687650000
0.6147470000 0.4718880000 0.0747460000
0.6534130000 0.4802140000 0.0794510000
0.6924740000 0.4889550000 0.0830590000
0.7309300000 0.4973730000 0.0865410000
0.7672250000 0.5053630000 0.0899090000
0.8008580000 0.5128270000 0.0931750000
0.8319490000 0.5198520000 0.0955670000
0.8611170000 0.5264630000 0.0975270000
0.8897190000 0.5327380000 0.0986990000
0.9184530000 0.5384590000 0.0994840000
0.9459970000 0.5439360000 0.1006420000
0.9695030000 0.5492930000 0.1057940000
0.9857400000 0.5548710000 0.1221650000
0.9934900000 0.5611610000 0.1532440000
0.9958410000 0.5684620000 0.1965550000
0.1392530000 0.5159570000 0.0789690000
0.1479820000 0.5236440000 0.0825830000
0.1530800000 0.5277920000 0.0843400000
0.1548630000 0.5282100000 0.0847740000
0.1568860000 0.5263530000 0.0839030000
0.1648820000 0.5236430000 0.0825810000
0.1846580000 0.5204270000 0.0812420000
0.2169990000 0.5170630000 0.0803380000
0.2580860000 0.5142270000 0.0794260000
0.3012100000 0.5119320000 0.0785060000
0.3429650000 0.5100610000 0.0780420000
0.3827460000 0.5083700000 0.0780440000
0.4205680000 0.5067350000 0.0775790000
0.4552370000 0.5049040000 0.0775820000
0.4862940000 0.5023630000 0.0775860000
0.5148540000 0.4990340000 0.0775900000
0.5426410000 0.4960010000 0.0799040000
0.5718230000 0.4949650000 0.0865220000
0.6040880000 0.4975600000 0.0958940000
0.6396120000 0.5037790000 0.1023320000
0.6777470000 0.5119630000 0.1048890000
0.7168260000 0.5208380000 0.1049060000
0.7545360000 0.5295270000 0.1045660000
0.7896600000 0.5376300000 0.1042260000
0.8221840000 0.5452390000 0.1042500000
0.8523700000 0.5522100000 0.1039150000
0.8815900000 0.5586850000 0.1035800000
0.9110430000 0.5643020000 0.1028800000
0.9397520000 0.5693100000 0.1025470000
0.9647460000 0.5740520000 0.1058480000
0.9823660000 0.5789640000 0.1212890000
0.9910380000 0.5843040000 0.1533280000
0.9938020000 0.5905260000 0.1981860000
0.1648800000 0.5463130000 0.0906660000
0.1699550000 0.5529640000 0.0926910000
0.1731730000 0.5565580000 0.0938870000
0.1752720000 0.5568940000 0.0938870000
0.1790760000 0.5553270000 0.0934900000
0.1887990000 0.5529080000 0.0930920000
0.2076430000 0.5500220000 0.0922910000
0.2351430000 0.5467730000 0.0914840000
0.2688420000 0.5439590000 0.0906710000
0.3062920000 0.5415910000 0.0902630000
0.3455100000 0.5399670000 0.0898540000
0.3850650000 0.5386860000 0.0898580000
0.4228730000 0.5375190000 0.0898620000
0.4572590000 0.5361730000 0.0898680000
0.4888840000 0.5345870000 0.0902860000
0.5183100000 0.5324610000 0.0907040000
0.5459350000 0.5296690000 0.0927390000
0.5726460000 0.5268570000 0.0993610000
0.6002000000 0.5258380000 0.1118590000
0.6309230000 0.5282450000 0.1246980000
0.6659720000 0.5342590000 0.1324060000
0.7040370000 0.5425110000 0.1332900000
0.7419750000 0.5515150000 0.1301410000
0.7778400000 0.5602820000 0.1257090000
0.8112930000 0.5684440000 0.1217440000
0.8423820000 0.5759260000 0.1189320000
0.8720690000 0.5827620000 0.1163820000
0.9020790000 0.5886680000 0.1141100000
0.9319830000 0.5936800000 0.1124720000
0.9588200000 0.5982350000 0.1145250000
0.9783810000 0.6026000000 0.1286960000
0.9883630000 0.6072810000 0.1595170000
0.9922860000 0.6123220000 0.2015000000
0.1778520000 0.5730560000 0.0977900000
0.1813580000 0.5796400000 0.0996850000
0.1842070000 0.5831870000 0.1004340000
0.1878400000 0.5836610000 0.1004350000
0.1941810000 0.5822910000 0.1004370000
0.2064960000 0.5801210000 0.0996890000
0.2257490000 0.5774590000 0.0993150000
0.2510600000 0.5746210000 0.0985610000
0.2809320000 0.5717650000 0.0981840000
0.3149230000 0.5694330000 0.0978070000
0.3521200000 0.5678000000 0.0978120000
0.3901760000 0.5667090000 0.0978180000
0.4263440000 0.5657800000 0.0978250000
0.4596320000 0.5647940000 0.0978330000
0.4912010000 0.5638060000 0.0982240000
0.5216830000 0.5627610000 0.0986160000
0.5506890000 0.5612140000 0.1005110000
0.5774450000 0.5589930000 0.1070550000
0.6027540000 0.5565360000 0.1207060000
0.6289770000 0.5556420000 0.1405240000
0.6589480000 0.5579460000 0.1581050000
0.6933400000 0.5637870000 0.1669930000
0.7297090000 0.5720520000 0.1674840000
0.7656170000 0.5810200000 0.1627080000
0.7999490000 0.5897130000 0.1565690000
0.8319240000 0.5977870000 0.1514270000
0.8620490000 0.6051240000 0.1471350000
0.8921940000 0.6114090000 0.1440400000
0.9227790000 0.6167320000 0.1419550000
0.9512990000 0.6213700000 0.1433510000
0.9733110000 0.6256310000 0.1542020000
0.9858370000 0.6298120000 0.1783150000
0.9915090000 0.6340600000 0.2108960000
0.1863310000 0.5990630000 0.1037660000
0.1910790000 0.6055440000 0.1055640000
0.1959310000 0.6090000000 0.1062760000
0.2019990000 0.6095990000 0.1062770000
0.2116780000 0.6084530000 0.1062790000
0.2261420000 0.6066520000 0.1059270000
0.2458250000 0.6042900000 0.1052180000
0.2698430000 0.6017130000 0.1048640000
0.2973250000 0.5990190000 0.1041490000
0.3282750000 0.5967200000 0.1037930000
0.3620480000 0.5950790000 0.1038000000
0.3967550000 0.5939480000 0.1034450000
0.4302520000 0.5931760000 0.1034550000
0.4624910000 0.5924550000 0.1038290000
0.4940320000 0.5917850000 0.1038410000
0.5251570000 0.5911140000 0.1045770000
0.5550060000 0.5903910000 0.1063800000
0.5827300000 0.5891970000 0.1129500000
0.6080620000 0.5873190000 0.1272070000
