bundles/resolve-cinematic-luts/Gamut/Cascade/01 North-.cube
TITLE "Cascade North- by Gamut.io"
# Copyright 2020 Gamut.io
#  
# 
LUT_3D_SIZE 5
0.0000000000 0.0000000000 0.0000000000
0.2494580000 0.0000000000 0.0173490000
0.6341920000 0.0000000000 0.0252340000
0.8861030000 0.0000000000 0.0622270000
1.0000000000 0.2787870000 0.1804740000
0.0000000000 0.2628010000 0.0000000000
0.2473070000 0.2342570000 0.0078860000
0.6143140000 0.2347490000 0.0000000000
0.8666490000 0.2732130000 0.0047310000
1.0000000000 0.3972960000 0.1597170000
0.0000000000 0.5306650000 0.0000000000
0.2441970000 0.5258060000 0.0000000000
0.5251240000 0.5045340000 0.0354860000
0.8019380000 0.5409360000 0.0425160000
1.0000000000 0.5843620000 0.0645210000
0.2801270000 0.7336260000 0.0055200000
0.3785790000 0.7295380000 0.0063090000
0.5722470000 0.7218910000 0.0791020000
0.7714980000 0.7202410000 0.2407240000
0.9493440000 0.7415940000 0.3620200000
0.5516640000 0.9263850000 0.3551520000
0.5881330000 0.9226040000 0.3526240000
0.6896210000 0.9239460000 0.3906420000
0.8284960000 0.9302340000 0.5015240000
0.9799050000 0.9420050000 0.6204140000
0.0000000000 0.0276000000 0.3165950000
0.3138050000 0.0015770000 0.3044060000
0.6750900000 0.0000000000 0.2797260000
0.8813010000 0.1324070000 0.3139220000
1.0000000000 0.3194700000 0.3627080000
0.0000000000 0.2987710000 0.2814590000
0.2893040000 0.2844960000 0.2729370000
0.6125350000 0.2822550000 0.2737620000
0.8547750000 0.3186680000 0.2921180000
1.0000000000 0.4211730000 0.3547490000
0.0023660000 0.5581360000 0.2227740000
0.2764910000 0.5505560000 0.2342570000
0.5368580000 0.5249380000 0.2729370000
0.8076540000 0.5546810000 0.2670790000
0.9995170000 0.5905940000 0.3129860000
0.2851520000 0.7470540000 0.2488450000
0.3857630000 0.7425470000 0.2511320000
0.5725810000 0.7300660000 0.2691880000
0.7717250000 0.7270550000 0.3672870000
0.9502050000 0.7483520000 0.4518880000
0.5389020000 0.9309130000 0.4386190000
0.5778240000 0.9278970000 0.4376070000
0.6814740000 0.9276900000 0.4625860000
0.8243900000 0.9326800000 0.5426040000
0.9821890000 0.9429920000 0.6234100000
0.0468920000 0.0904630000 0.6926270000
0.3728430000 0.0946760000 0.6779120000
0.6658440000 0.0833430000 0.6476910000
0.9178420000 0.0874090000 0.6135520000
1.0000000000 0.3539410000 0.6063330000
0.0181370000 0.3224280000 0.6535800000
0.3335130000 0.3271380000 0.6455530000
0.6283140000 0.3307830000 0.6218140000
0.8817760000 0.3464640000 0.6013020000
1.0000000000 0.4702850000 0.6172980000
0.0000000000 0.5910210000 0.5770000000
0.1888080000 0.5934130000 0.5834410000
0.5604810000 0.5811050000 0.5846320000
0.8072270000 0.5879180000 0.5876500000
0.9819970000 0.6205640000 0.6104430000
0.0496690000 0.7766120000 0.5230740000
0.3030700000 0.7740600000 0.5343190000
0.5646830000 0.7556150000 0.5448580000
0.7725920000 0.7468180000 0.5859280000
0.9586820000 0.7639740000 0.6040060000
0.4963000000 0.9422080000 0.5843620000
0.5421880000 0.9393280000 0.5831160000
0.6594480000 0.9373140000 0.5893650000
0.8140930000 0.9396490000 0.6150240000
0.9837540000 0.9487110000 0.6812970000
0.3930530000 0.2542940000 0.8408940000
0.5000100000 0.2653770000 0.8325760000
0.6941030000 0.3131030000 0.8159560000
0.8820930000 0.3523190000 0.8019740000
1.0000000000 0.3889340000 0.7692280000
0.3659300000 0.3978230000 0.8157800000
0.4766410000 0.4064740000 0.8125780000
0.6745500000 0.4368270000 0.8020450000
0.8622910000 0.4606170000 0.7904880000
1.0000000000 0.4887730000 0.7672540000
0.1991380000 0.6027080000 0.7824600000
0.3809920000 0.6065910000 0.7850130000
0.6339490000 0.6195110000 0.7824600000
0.8316190000 0.6400020000 0.7783680000
0.9990870000 0.6544690000 0.7663020000
0.1100720000 0.7977230000 0.7470940000
0.3168260000 0.7964210000 0.7486270000
0.5735230000 0.7909990000 0.7508620000
0.7959130000 0.7835710000 0.7532040000
0.9669760000 0.7937710000 0.7672160000
0.3728430000 0.9614850000 0.7061010000
0.4453150000 0.9598440000 0.7071600000
0.6086490000 0.9591070000 0.7197040000
0.7955510000 0.9556110000 0.7474090000
0.9830410000 0.9617960000 0.8094300000
0.5862510000 0.5202610000 0.9910390000
0.6295440000 0.5261150000 0.9880460000
0.7341500000 0.5532330000 0.9820520000
0.8555340000 0.6060230000 0.9743170000
0.9905500000 0.6184560000 0.9713670000
0.5860900000 0.5825730000 0.9855890000
0.6298390000 0.5886150000 0.9840010000
0.7320510000 0.6095210000 0.9796020000
0.8519300000 0.6486370000 0.9724810000
0.9860810000 0.6564760000 0.9700830000
0.5740770000 0.6931050000 0.9815570000
0.6224130000 0.6989340000 0.9810900000
0.7241920000 0.7103650000 0.9779730000
0.8457660000 0.7316460000 0.9724810000
0.9807870000 0.7362010000 0.9701670000
0.4746750000 0.8086490000 0.9785260000
0.5329830000 0.8081870000 0.9791330000
0.6643330000 0.8094300000 0.9800980000
0.8280150000 0.8260150000 0.9779730000
0.9815020000 0.8418040000 0.9755380000
0.3732220000 0.9955330000 0.9798500000
0.4362800000 0.9949390000 0.9802360000
0.5788660000 0.9943170000 0.9820520000
0.7608680000 0.9940740000 0.9860260000
0.9969350000 0.9969890000 0.9969890000
