bundles/resolve-cinematic-luts/Gamut/Cascade/02 South.cube
TITLE "Cascade South by Gamut.io"
# Copyright 2020 Gamut.io
LUT_3D_SIZE 5
0.0094630000 0.0094630000 0.0094630000
0.2457580000 0.0205030000 0.0110400000
0.6411550000 0.1086230000 0.0220800000
0.8944260000 0.1597170000 0.0331200000
0.9821070000 0.2438840000 0.0331200000
0.0354860000 0.2345850000 0.0157710000
0.2151560000 0.2269020000 0.0134060000
0.6084950000 0.2007060000 0.0252340000
0.8603300000 0.2454470000 0.0378520000
0.9884550000 0.4518130000 0.0891650000
0.1806930000 0.5756790000 0.0999160000
0.2969060000 0.5683970000 0.0987290000
0.5642310000 0.5645140000 0.1003090000
0.8092880000 0.5723580000 0.1052950000
0.9924230000 0.6632770000 0.1830820000
0.4433270000 0.7830160000 0.2116920000
0.5265470000 0.7784430000 0.2415180000
0.6641950000 0.7769860000 0.2670790000
0.8138470000 0.7897920000 0.2593200000
0.9957220000 0.8338390000 0.3809920000
0.7088070000 0.9995710000 0.5994210000
0.7309580000 0.9962880000 0.6007280000
0.8083300000 0.9963960000 0.6587530000
0.8932440000 0.9993830000 0.7187520000
0.9998120000 0.9997050000 0.7736090000
0.0157710000 0.0094630000 0.2754040000
0.2565260000 0.0189260000 0.2485390000
0.6803640000 0.1156990000 0.2255350000
0.9220370000 0.1597170000 0.2306130000
0.9823270000 0.2098430000 0.2206780000
0.0628060000 0.2799930000 0.2682060000
0.2935140000 0.2775740000 0.2626570000
0.6529240000 0.2550410000 0.2473070000
0.8789500000 0.2987710000 0.2388050000
0.9899800000 0.4539040000 0.2494580000
0.1921140000 0.6028640000 0.2536960000
0.3447990000 0.5911270000 0.2782490000
0.5851730000 0.5785920000 0.2744480000
0.8165170000 0.5872740000 0.3125160000
0.9927480000 0.6648830000 0.3792300000
0.4432500000 0.7971810000 0.3650550000
0.5279660000 0.7924230000 0.3797880000
0.6687620000 0.7844590000 0.4009640000
0.8137060000 0.7944250000 0.3929640000
0.9972040000 0.8333280000 0.4697150000
0.6950990000 0.9998120000 0.6362820000
0.7209840000 0.9992750000 0.6397610000
0.8038010000 0.9977430000 0.6907560000
0.8915910000 0.9994630000 0.7448840000
0.9997050000 0.9997050000 0.7895360000
0.1174050000 0.0331200000 0.6039540000
0.2493050000 0.0432640000 0.6180030000
0.6718900000 0.1456180000 0.6075700000
0.9004020000 0.2429410000 0.6022920000
0.9855890000 0.3504820000 0.6221140000
0.1139690000 0.2638070000 0.6165410000
0.2803940000 0.2885310000 0.6140090000
0.6504320000 0.3867630000 0.6002580000
0.8818710000 0.4289290000 0.6061270000
0.9935870000 0.4553900000 0.6151250000
0.1778250000 0.6230610000 0.5968480000
0.2779790000 0.6238080000 0.5985300000
0.6132980000 0.6225130000 0.5956890000
0.8506350000 0.6234100000 0.5931480000
0.9938310000 0.6479750000 0.5896320000
0.2846280000 0.8355420000 0.5966900000
0.4097880000 0.8331230000 0.5931480000
0.6454110000 0.8147260000 0.5961630000
0.8160260000 0.8115190000 0.5910740000
0.9987110000 0.8317210000 0.6380730000
0.6392310000 1.0000000000 0.7183790000
0.6792510000 0.9999460000 0.7250930000
0.7826460000 0.9993290000 0.7605600000
0.8878640000 0.9998660000 0.8056240000
0.9995710000 0.9997050000 0.8273950000
0.2222520000 0.0662020000 0.8673620000
0.4767110000 0.0856220000 0.8658710000
0.7452000000 0.2882720000 0.8583960000
0.8979310000 0.4642540000 0.8519630000
0.9972580000 0.5195710000 0.8454980000
0.1908820000 0.2971550000 0.8598720000
0.4470640000 0.3300140000 0.8583960000
0.7205710000 0.4453150000 0.8529570000
0.8836750000 0.5439100000 0.8490050000
0.9925040000 0.5874350000 0.8445600000
0.1896400000 0.6276230000 0.8412990000
0.2378390000 0.6219640000 0.8441910000
0.6305760000 0.6211140000 0.8494380000
0.8628450000 0.6942760000 0.8492380000
0.9956140000 0.7284000000 0.8434520000
0.1959610000 0.8538500000 0.8409280000
0.2419940000 0.8535190000 0.8414330000
0.5542760000 0.8480050000 0.8391710000
0.8375460000 0.8505350000 0.8409950000
0.9987920000 0.8502360000 0.8371730000
0.5027700000 0.9999460000 0.8381900000
0.5718030000 1.0000000000 0.8388670000
0.7220550000 1.0000000000 0.8479380000
0.8801900000 1.0000000000 0.8678480000
0.9990870000 0.9998120000 0.8785680000
0.6113110000 0.3796020000 0.9998660000
0.6769280000 0.4251530000 0.9999460000
0.7965660000 0.5250000000 0.9997050000
0.9079740000 0.6531110000 0.9998660000
0.9944530000 0.7341090000 0.9995170000
0.5662060000 0.4789460000 0.9998120000
0.6408670000 0.5059660000 0.9995710000
0.7785550000 0.5768900000 0.9998660000
0.9001550000 0.6904500000 0.9998120000
0.9965850000 0.7666070000 0.9990340000
0.2723860000 0.6345820000 0.9998660000
0.4466090000 0.6338510000 0.9999460000
0.7105750000 0.6771070000 1.0000000000
0.8817130000 0.7748870000 0.9999460000
0.9981730000 0.8328500000 0.9986570000
0.2253640000 0.8439220000 0.9999460000
0.2294390000 0.8375800000 1.0000000000
0.5161650000 0.8261190000 1.0000000000
0.8430150000 0.8608860000 1.0000000000
0.9996240000 0.9144670000 0.9998660000
0.4651220000 0.9998120000 1.0000000000
0.5324960000 0.9997580000 1.0000000000
0.6822280000 0.9997580000 1.0000000000
0.8533540000 1.0000000000 1.0000000000
1.0000000000 1.0000000000 1.0000000000
