bundles/resolve-cinematic-luts/Gamut/Cascade/02 South-.cube
TITLE "Cascade South- by Gamut.io"
# Copyright 2020 Gamut.io
LUT_3D_SIZE 5
0.0000000000 0.0000000000 0.0000000000
0.3100380000 0.0000000000 0.0000000000
0.7278300000 0.0000000000 0.0000000000
0.9682650000 0.0000000000 0.0000000000
0.9999730000 0.1721670000 0.0000000000
0.0000000000 0.2585880000 0.0007890000
0.2378390000 0.2404050000 0.0023660000
0.6349220000 0.1914990000 0.0063090000
0.9103170000 0.2185590000 0.0023660000
1.0000000000 0.4232910000 0.0260230000
0.0023660000 0.5965850000 0.0023660000
0.2876260000 0.5741320000 0.0007890000
0.5715250000 0.5684530000 0.0000000000
0.8116950000 0.5765600000 0.0078860000
1.0000000000 0.6613430000 0.0189260000
0.4324260000 0.8062660000 0.0228690000
0.5311540000 0.7945710000 0.0847170000
0.6770180000 0.7812730000 0.1064150000
0.8153240000 0.7837190000 0.0694700000
0.9713950000 0.8268430000 0.1394560000
0.6782250000 0.9921790000 0.4631670000
0.7185040000 0.9890820000 0.4873450000
0.7955140000 0.9755100000 0.5107440000
0.8908090000 0.9802910000 0.5455080000
0.9957220000 0.9898710000 0.6087000000
0.0007890000 0.0086740000 0.3492520000
0.3140380000 0.0007890000 0.2965310000
0.7429440000 0.0000000000 0.2452910000
0.9780290000 0.0000000000 0.2231210000
1.0000000000 0.1097120000 0.1672560000
0.0000000000 0.3001300000 0.2843650000
0.3116930000 0.2941450000 0.2725240000
0.6930620000 0.2542940000 0.2496100000
0.9377530000 0.2850210000 0.2173120000
1.0000000000 0.4261210000 0.1723970000
0.0197140000 0.6263380000 0.2226000000
0.3338380000 0.6063330000 0.2477700000
0.6033830000 0.5916070000 0.2945240000
0.8414000000 0.5992640000 0.2697470000
1.0000000000 0.6641490000 0.2793240000
0.4293280000 0.8194900000 0.2843650000
0.5285810000 0.8129660000 0.3090880000
0.6828920000 0.7931150000 0.3531310000
0.8206750000 0.7964570000 0.3726530000
0.9863820000 0.8317210000 0.3783930000
0.6636440000 0.9986040000 0.5020490000
0.7007350000 0.9958570000 0.5179980000
0.7869660000 0.9840830000 0.5578490000
0.8881780000 0.9855340000 0.5878640000
0.9970160000 0.9921790000 0.6287080000
0.0007890000 0.0173490000 0.6912790000
0.3004990000 0.0000000000 0.6774650000
0.7200760000 0.1240050000 0.6528770000
0.9539280000 0.2199740000 0.6374440000
1.0000000000 0.3078960000 0.6291510000
0.0007890000 0.2743110000 0.6563360000
0.3004990000 0.3009910000 0.6540480000
0.6889210000 0.3996590000 0.6354570000
0.9322390000 0.4273270000 0.6349220000
1.0000000000 0.4330580000 0.6170460000
0.0007890000 0.6484480000 0.6212150000
0.2319450000 0.6434070000 0.6176000000
0.6369120000 0.6378310000 0.6116180000
0.8821880000 0.6343870000 0.6001010000
1.0000000000 0.6468840000 0.5769450000
0.1689100000 0.8583960000 0.5905940000
0.3832030000 0.8539490000 0.5850650000
0.6523140000 0.8270500000 0.5856040000
0.8234890000 0.8167970000 0.6070550000
1.0000000000 0.8319610000 0.5985300000
0.5574470000 1.0000000000 0.6267830000
0.6206140000 1.0000000000 0.6390380000
0.7439350000 0.9967730000 0.6688080000
0.8760160000 0.9921240000 0.7196210000
0.9963420000 0.9945610000 0.7456740000
0.2557850000 0.0094630000 0.9018490000
0.5141330000 0.0425160000 0.8978080000
0.7795240000 0.3024600000 0.8881470000
0.9335330000 0.4672100000 0.8765270000
1.0000000000 0.5120900000 0.8615070000
0.1902620000 0.3062170000 0.8918720000
0.4765710000 0.3396380000 0.8891820000
0.7508220000 0.4550930000 0.8803810000
0.9182020000 0.5556050000 0.8728760000
1.0000000000 0.5882400000 0.8589540000
0.0015770000 0.6453630000 0.8653190000
0.1520500000 0.6357970000 0.8664870000
0.6501960000 0.6345820000 0.8702380000
0.8870790000 0.7158040000 0.8666490000
1.0000000000 0.7332220000 0.8537510000
0.0007890000 0.8730370000 0.8529570000
0.1082580000 0.8713010000 0.8530890000
0.5560660000 0.8612130000 0.8487050000
0.8443250000 0.8607880000 0.8478050000
0.9998120000 0.8530230000 0.8374440000
0.2155170000 0.9997580000 0.8189310000
0.4019180000 0.9998120000 0.8182670000
0.6457440000 0.9999460000 0.8219270000
0.8598060000 0.9997580000 0.8444930000
0.9961000000 0.9966390000 0.8620950000
0.6187080000 0.3729370000 0.9999460000
0.6871680000 0.4201910000 0.9998120000
0.8098910000 0.5253720000 0.9998120000
0.9213190000 0.6559170000 0.9997580000
1.0000000000 0.7271370000 0.9969350000
0.5708560000 0.4735470000 0.9999460000
0.6510440000 0.5049250000 0.9998660000
0.7894260000 0.5777690000 0.9998120000
0.9128950000 0.6956600000 0.9998120000
0.9999460000 0.7585560000 0.9959650000
0.2663720000 0.6354080000 1.0000000000
0.4509890000 0.6339980000 1.0000000000
0.7165530000 0.6788490000 1.0000000000
0.8916530000 0.7711960000 0.9998660000
0.9998660000 0.8249440000 0.9943720000
0.0000000000 0.8452640000 1.0000000000
0.0023660000 0.8368330000 1.0000000000
0.4413280000 0.8181270000 1.0000000000
0.8358140000 0.8532210000 1.0000000000
1.0000000000 0.9073330000 0.9952360000
0.0015770000 0.9993830000 1.0000000000
0.1045420000 0.9993830000 1.0000000000
0.5496220000 0.9995710000 1.0000000000
0.8184070000 0.9995710000 1.0000000000
1.0000000000 1.0000000000 1.0000000000
