bundles/resolve-cinematic-luts/Gamut/Cascade/02 South.cube
TITLE "Cascade South by Gamut.io"
# Copyright 2020 Gamut.io
LUT_3D_SIZE 33
0.0094630000 0.0094630000 0.0094630000
0.0212920000 0.0126170000 0.0102510000
0.0475960000 0.0181370000 0.0110400000
0.0751680000 0.0157710000 0.0118290000
0.1018670000 0.0157710000 0.0126170000
0.1311960000 0.0118290000 0.0118290000
0.1636540000 0.0086740000 0.0126170000
0.2020670000 0.0126170000 0.0134060000
0.2457580000 0.0205030000 0.0110400000
0.2919910000 0.0307540000 0.0094630000
0.3419660000 0.0417590000 0.0086740000
0.3943850000 0.0536510000 0.0094630000
0.4479740000 0.0656460000 0.0110400000
0.5006690000 0.0771550000 0.0141940000
0.5506150000 0.0878510000 0.0165600000
0.5974800000 0.0979300000 0.0189260000
0.6411550000 0.1086230000 0.0220800000
0.6814300000 0.1180810000 0.0244460000
0.7187520000 0.1256020000 0.0260230000
0.7525800000 0.1321050000 0.0268120000
0.7832010000 0.1385950000 0.0268120000
0.8110240000 0.1450680000 0.0283890000
0.8375800000 0.1509980000 0.0299660000
0.8649610000 0.1561880000 0.0315430000
0.8944260000 0.1597170000 0.0331200000
0.9248690000 0.1609580000 0.0346970000
0.9518110000 0.1609580000 0.0346970000
0.9701110000 0.1604630000 0.0346970000
0.9790230000 0.1607110000 0.0346970000
0.9820520000 0.1643810000 0.0346970000
0.9825740000 0.1767090000 0.0346970000
0.9823820000 0.2038020000 0.0346970000
0.9821070000 0.2438840000 0.0331200000
0.0118290000 0.0315430000 0.0102510000
0.0283890000 0.0315430000 0.0102510000
0.0536510000 0.0307540000 0.0126170000
0.0761670000 0.0307540000 0.0118290000
0.0995220000 0.0268120000 0.0126170000
0.1278060000 0.0220800000 0.0126170000
0.1577100000 0.0149830000 0.0134060000
0.1959610000 0.0165600000 0.0134060000
0.2400860000 0.0220800000 0.0118290000
0.2878850000 0.0315430000 0.0094630000
0.3383590000 0.0417590000 0.0086740000
0.3911790000 0.0530020000 0.0094630000
0.4446280000 0.0650850000 0.0110400000
0.4969650000 0.0761670000 0.0134060000
0.5470400000 0.0869650000 0.0165600000
0.5943140000 0.0975290000 0.0189260000
0.6382660000 0.1078920000 0.0212920000
0.6791620000 0.1174050000 0.0244460000
0.7166360000 0.1249650000 0.0260230000
0.7507050000 0.1318030000 0.0268120000
0.7816070000 0.1380170000 0.0268120000
0.8093940000 0.1445170000 0.0283890000
0.8359500000 0.1507330000 0.0299660000
0.8631060000 0.1559330000 0.0315430000
0.8924330000 0.1594680000 0.0331200000
0.9229030000 0.1609580000 0.0346970000
0.9500330000 0.1609580000 0.0346970000
0.9690770000 0.1607110000 0.0346970000
0.9786360000 0.1619440000 0.0346970000
0.9819150000 0.1686750000 0.0354860000
0.9824370000 0.1862870000 0.0354860000
0.9824090000 0.2199740000 0.0362740000
0.9821620000 0.2659460000 0.0370630000
0.0165600000 0.0536510000 0.0134060000
0.0276000000 0.0530020000 0.0134060000
0.0468920000 0.0510200000 0.0134060000
0.0662020000 0.0454630000 0.0141940000
0.0882910000 0.0394290000 0.0157710000
0.1129190000 0.0339090000 0.0126170000
0.1467100000 0.0252340000 0.0134060000
0.1879720000 0.0212920000 0.0141940000
0.2345850000 0.0260230000 0.0118290000
0.2834440000 0.0339090000 0.0094630000
0.3343800000 0.0425160000 0.0086740000
0.3873970000 0.0530020000 0.0094630000
0.4405560000 0.0645210000 0.0110400000
0.4931590000 0.0756690000 0.0134060000
0.5434950000 0.0860720000 0.0157710000
0.5911270000 0.0967210000 0.0189260000
0.6356030000 0.1071560000 0.0212920000
0.6766600000 0.1170660000 0.0244460000
0.7146370000 0.1246460000 0.0260230000
0.7488630000 0.1311960000 0.0268120000
0.7796730000 0.1377280000 0.0268120000
0.8075480000 0.1442410000 0.0276000000
0.8340440000 0.1502030000 0.0291770000
0.8609520000 0.1554210000 0.0315430000
0.8901530000 0.1592180000 0.0331200000
0.9205410000 0.1609580000 0.0346970000
0.9481640000 0.1612050000 0.0346970000
0.9678170000 0.1616980000 0.0354860000
0.9780290000 0.1648640000 0.0354860000
0.9816670000 0.1758110000 0.0354860000
0.9824090000 0.1995320000 0.0362740000
0.9824090000 0.2389650000 0.0386400000
0.9821350000 0.2891750000 0.0417590000
0.0118290000 0.0656460000 0.0141940000
0.0220800000 0.0645210000 0.0141940000
0.0331200000 0.0610560000 0.0141940000
0.0523470000 0.0580530000 0.0134060000
0.0700030000 0.0542950000 0.0141940000
0.1007000000 0.0482940000 0.0173490000
0.1350930000 0.0417590000 0.0149830000
0.1784910000 0.0315430000 0.0141940000
0.2280900000 0.0346970000 0.0118290000
0.2783830000 0.0402170000 0.0094630000
0.3297940000 0.0468920000 0.0094630000
0.3830190000 0.0549340000 0.0094630000
0.4365930000 0.0650850000 0.0110400000
0.4893830000 0.0756690000 0.0134060000
0.5399800000 0.0860720000 0.0157710000
0.5878110000 0.0963150000 0.0189260000
0.6326800000 0.1067860000 0.0212920000
0.6741460000 0.1163850000 0.0236570000
0.7120860000 0.1243260000 0.0260230000
0.7464630000 0.1308910000 0.0268120000
0.7774350000 0.1371470000 0.0268120000
0.8054450000 0.1436860000 0.0276000000
0.8318240000 0.1496710000 0.0291770000
0.8586590000 0.1551640000 0.0315430000
0.8875500000 0.1592180000 0.0331200000
0.9180220000 0.1612050000 0.0346970000
0.9458860000 0.1621890000 0.0346970000
0.9664150000 0.1643810000 0.0354860000
0.9773930000 0.1719360000 0.0354860000
0.9813370000 0.1888080000 0.0362740000
0.9822720000 0.2192680000 0.0386400000
0.9822990000 0.2626570000 0.0432640000
0.9823270000 0.3136880000 0.0489850000
0.0094630000 0.0810100000 0.0086740000
0.0165600000 0.0791020000 0.0094630000
0.0244460000 0.0751680000 0.0118290000
0.0394290000 0.0731370000 0.0126170000
0.0598680000 0.0705330000 0.0134060000
0.0921680000 0.0678520000 0.0134060000
0.1342040000 0.0622270000 0.0165600000
0.1739990000 0.0561960000 0.0134060000
0.2231210000 0.0536510000 0.0118290000
0.2745840000 0.0561960000 0.0102510000
0.3259120000 0.0580530000 0.0094630000
0.3790450000 0.0628060000 0.0094630000
0.4324260000 0.0700030000 0.0110400000
0.4852280000 0.0786190000 0.0134060000
0.5359530000 0.0874090000 0.0157710000
0.5840370000 0.0967210000 0.0181370000
0.6292000000 0.1067860000 0.0212920000
0.6708050000 0.1163850000 0.0236570000
0.7088490000 0.1240050000 0.0260230000
0.7434590000 0.1305860000 0.0268120000
0.7744740000 0.1368550000 0.0268120000
0.8025480000 0.1431290000 0.0276000000
0.8289430000 0.1494040000 0.0291770000
0.8556000000 0.1549070000 0.0307540000
0.8843060000 0.1594680000 0.0331200000
0.9147390000 0.1626790000 0.0346970000
0.9430500000 0.1658250000 0.0346970000
0.9644750000 0.1723970000 0.0354860000
0.9762860000 0.1862870000 0.0362740000
0.9810350000 0.2111390000 0.0378520000
0.9822170000 0.2474610000 0.0417590000
0.9824370000 0.2918640000 0.0482940000
0.9826840000 0.3397440000 0.0568200000
0.0110400000 0.1067860000 0.0110400000
0.0118290000 0.1049190000 0.0110400000
0.0149830000 0.1018670000 0.0102510000
0.0205030000 0.0999160000 0.0102510000
0.0447380000 0.0991260000 0.0102510000
0.0824160000 0.0975290000 0.0102510000
0.1233600000 0.0942620000 0.0110400000
0.1742260000 0.0882910000 0.0149830000
0.2219030000 0.0851700000 0.0126170000
0.2725240000 0.0833430000 0.0110400000
0.3238940000 0.0814810000 0.0102510000
0.3763350000 0.0814810000 0.0102510000
0.4290880000 0.0842610000 0.0118290000
0.4812360000 0.0887290000 0.0134060000
0.5316430000 0.0946760000 0.0157710000
0.5796860000 0.1018670000 0.0181370000
0.6246530000 0.1100720000 0.0212920000
0.6663920000 0.1184180000 0.0236570000
0.7044880000 0.1256020000 0.0252340000
0.7391230000 0.1318030000 0.0268120000
0.7704400000 0.1380170000 0.0268120000
0.7985540000 0.1442410000 0.0276000000
0.8251510000 0.1507330000 0.0291770000
0.8516640000 0.1569510000 0.0307540000
0.8800630000 0.1626790000 0.0331200000
0.9101960000 0.1686750000 0.0339090000
0.9390370000 0.1764850000 0.0354860000
0.9615700000 0.1896400000 0.0362740000
0.9748440000 0.2118760000 0.0378520000
0.9805110000 0.2437270000 0.0417590000
0.9822990000 0.2830490000 0.0475960000
0.9829040000 0.3251290000 0.0555680000
0.9834250000 0.3673830000 0.0650850000
0.0134060000 0.1400280000 0.0094630000
0.0141940000 0.1394560000 0.0094630000
0.0157710000 0.1371470000 0.0094630000
0.0197140000 0.1356830000 0.0094630000
0.0299660000 0.1345010000 0.0094630000
0.0662020000 0.1336080000 0.0094630000
0.1163850000 0.1318030000 0.0086740000
0.1658250000 0.1293570000 0.0094630000
0.2212040000 0.1259190000 0.0118290000
0.2719710000 0.1230360000 0.0118290000
0.3235570000 0.1187530000 0.0118290000
0.3753950000 0.1150100000 0.0126170000
0.4270060000 0.1132700000 0.0134060000
0.4776210000 0.1132700000 0.0149830000
0.5269180000 0.1146640000 0.0165600000
0.5741880000 0.1180810000 0.0189260000
0.6189590000 0.1230360000 0.0212920000
0.6606040000 0.1290490000 0.0236570000
0.6986760000 0.1347980000 0.0260230000
0.7333840000 0.1397420000 0.0268120000
0.7648910000 0.1453430000 0.0268120000
0.7931880000 0.1515250000 0.0276000000
0.8198380000 0.1584660000 0.0291770000
0.8463020000 0.1660650000 0.0307540000
0.8743840000 0.1746810000 0.0331200000
0.9042750000 0.1850120000 0.0346970000
0.9336800000 0.1995320000 0.0362740000
0.9577160000 0.2205020000 0.0386400000
0.9728150000 0.2494580000 0.0425160000
0.9799050000 0.2847590000 0.0475960000
0.9825470000 0.3227670000 0.0549340000
0.9836720000 0.3600460000 0.0633820000
0.9845210000 0.3957120000 0.0726220000
0.0236570000 0.1850120000 0.0110400000
0.0236570000 0.1847990000 0.0110400000
0.0228690000 0.1826500000 0.0102510000
0.0244460000 0.1802550000 0.0102510000
0.0315430000 0.1789340000 0.0094630000
0.0561960000 0.1782700000 0.0094630000
0.1075240000 0.1776030000 0.0078860000
0.1631670000 0.1773800000 0.0078860000
0.2167750000 0.1749070000 0.0110400000
0.2710010000 0.1712430000 0.0134060000
0.3242320000 0.1665430000 0.0141940000
0.3759590000 0.1616980000 0.0149830000
0.4268450000 0.1574580000 0.0157710000
0.4760810000 0.1543920000 0.0173490000
0.5237590000 0.1523120000 0.0189260000
0.5695730000 0.1517880000 0.0205030000
0.6131460000 0.1530950000 0.0220800000
0.6540010000 0.1559330000 0.0244460000
0.6917140000 0.1589680000 0.0260230000
0.7263200000 0.1626790000 0.0276000000
0.7578990000 0.1674940000 0.0283890000
0.7865610000 0.1733140000 0.0291770000
0.8132130000 0.1806930000 0.0307540000
0.8396790000 0.1898480000 0.0323320000
0.8673950000 0.2016790000 0.0339090000
0.8972200000 0.2173120000 0.0362740000
0.9273640000 0.2376770000 0.0386400000
0.9530710000 0.2640930000 0.0432640000
0.9704460000 0.2954040000 0.0489850000
0.9794090000 0.3293530000 0.0561960000
0.9831230000 0.3628060000 0.0645210000
0.9848770000 0.3942080000 0.0726220000
0.9862180000 0.4238590000 0.0805360000
0.0354860000 0.2345850000 0.0157710000
0.0354860000 0.2342570000 0.0157710000
0.0354860000 0.2331050000 0.0157710000
0.0370630000 0.2311130000 0.0149830000
0.0461810000 0.2296070000 0.0149830000
0.0673050000 0.2289340000 0.0149830000
0.1052950000 0.2282590000 0.0134060000
0.1604630000 0.2279210000 0.0126170000
0.2151560000 0.2269020000 0.0134060000
0.2694680000 0.2238140000 0.0165600000
0.3236690000 0.2201500000 0.0181370000
0.3762410000 0.2158770000 0.0189260000
0.4270860000 0.2115080000 0.0205030000
0.4756600000 0.2074120000 0.0212920000
0.5222010000 0.2039940000 0.0228690000
0.5666000000 0.2016790000 0.0236570000
0.6084950000 0.2007060000 0.0252340000
0.6480220000 0.2009010000 0.0268120000
0.6848360000 0.2022610000 0.0283890000
0.7188760000 0.2045680000 0.0291770000
0.7500790000 0.2081640000 0.0307540000
0.7789650000 0.2137050000 0.0315430000
0.8060160000 0.2212040000 0.0331200000
0.8325760000 0.2314470000 0.0354860000
0.8603300000 0.2454470000 0.0378520000
0.8902470000 0.2638070000 0.0409940000
0.9209310000 0.2868470000 0.0447380000
0.9484810000 0.3138050000 0.0510200000
0.9682930000 0.3431240000 0.0586620000
0.9793540000 0.3726530000 0.0662020000
0.9843570000 0.4007030000 0.0741580000
0.9867090000 0.4268450000 0.0819500000
0.9884550000 0.4518130000 0.0891650000
0.0468920000 0.2842340000 0.0220800000
0.0468920000 0.2847590000 0.0220800000
0.0468920000 0.2843650000 0.0220800000
0.0482940000 0.2827850000 0.0212920000
0.0555680000 0.2810600000 0.0212920000
0.0736490000 0.2799930000 0.0212920000
0.1075240000 0.2793240000 0.0205030000
0.1551640000 0.2791900000 0.0205030000
0.2115080000 0.2789210000 0.0197140000
0.2669380000 0.2773040000 0.0212920000
0.3211800000 0.2748580000 0.0228690000
0.3741690000 0.2719710000 0.0236570000
0.4254760000 0.2686280000 0.0252340000
0.4746750000 0.2652350000 0.0268120000
0.5212010000 0.2619360000 0.0276000000
0.5649660000 0.2593200000 0.0291770000
0.6060230000 0.2577070000 0.0299660000
0.6441230000 0.2569690000 0.0315430000
0.6795630000 0.2572650000 0.0323320000
0.7126310000 0.2587350000 0.0339090000
0.7433010000 0.2617920000 0.0346970000
0.7721780000 0.2666550000 0.0362740000
0.7996000000 0.2737620000 0.0378520000
0.8265670000 0.2838390000 0.0402170000
0.8545110000 0.2977780000 0.0440050000
0.8847480000 0.3157840000 0.0482940000
0.9162770000 0.3376110000 0.0542950000
0.9453950000 0.3618230000 0.0616430000
0.9673410000 0.3872160000 0.0694700000
0.9801260000 0.4119780000 0.0771550000
0.9863000000 0.4355750000 0.0842610000
0.9891910000 0.4579760000 0.0908920000
0.9913380000 0.4797800000 0.0975290000
0.0580530000 0.3341640000 0.0291770000
0.0580530000 0.3354610000 0.0299660000
0.0586620000 0.3356770000 0.0299660000
0.0598680000 0.3343800000 0.0299660000
0.0650850000 0.3323150000 0.0291770000
0.0795820000 0.3307830000 0.0283890000
0.1086230000 0.3299040000 0.0283890000
0.1528350000 0.3296840000 0.0283890000
0.2068470000 0.3295730000 0.0283890000
0.2632330000 0.3291320000 0.0283890000
0.3179790000 0.3280260000 0.0291770000
0.3705560000 0.3264700000 0.0299660000
0.4214180000 0.3243440000 0.0315430000
0.4704990000 0.3217480000 0.0323320000
0.5176190000 0.3191260000 0.0339090000
0.5620190000 0.3167100000 0.0354860000
0.6032270000 0.3148540000 0.0362740000
0.6412510000 0.3136880000 0.0378520000
0.6762110000 0.3134540000 0.0386400000
0.7084690000 0.3142720000 0.0394290000
0.7388040000 0.3165950000 0.0409940000
0.7675200000 0.3206110000 0.0425160000
0.7953330000 0.3268040000 0.0447380000
0.8229000000 0.3358930000 0.0482940000
0.8514650000 0.3483250000 0.0530020000
0.8819660000 0.3643720000 0.0586620000
0.9140140000 0.3833860000 0.0650850000
0.9441800000 0.4044190000 0.0726220000
0.9676770000 0.4261210000 0.0805360000
0.9817770000 0.4473680000 0.0874090000
0.9887000000 0.4679990000 0.0934290000
0.9919080000 0.4880940000 0.0991260000
0.9941550000 0.5079750000 0.1041630000
0.0694700000 0.3832950000 0.0386400000
0.0705330000 0.3851250000 0.0386400000
0.0715840000 0.3855810000 0.0394290000
0.0721040000 0.3842110000 0.0386400000
0.0756690000 0.3820990000 0.0386400000
0.0874090000 0.3801590000 0.0378520000
0.1125670000 0.3789510000 0.0378520000
0.1536150000 0.3784860000 0.0370630000
0.2059010000 0.3784860000 0.0370630000
0.2617920000 0.3783930000 0.0370630000
0.3162470000 0.3781130000 0.0378520000
0.3677700000 0.3775520000 0.0378520000
0.4167310000 0.3763350000 0.0386400000
0.4643270000 0.3746410000 0.0402170000
0.5108090000 0.3724630000 0.0409940000
0.5555470000 0.3702690000 0.0425160000
0.5974800000 0.3680590000 0.0432640000
0.6364760000 0.3664150000 0.0447380000
0.6720260000 0.3652490000 0.0454630000
0.7047010000 0.3651520000 0.0468920000
0.7351160000 0.3663180000 0.0482940000
0.7641650000 0.3691180000 0.0503480000
0.7923870000 0.3741690000 0.0536510000
0.8207100000 0.3820070000 0.0580530000
0.8498370000 0.3927860000 0.0633820000
0.8805080000 0.4067300000 0.0694700000
0.9126230000 0.4234530000 0.0766620000
0.9433980000 0.4418670000 0.0838030000
0.9680410000 0.4610550000 0.0904630000
0.9834520000 0.4801270000 0.0963150000
0.9909310000 0.4988870000 0.1007000000
0.9941550000 0.5173660000 0.1045420000
0.9957760000 0.5358320000 0.1078920000
0.0842610000 0.4299660000 0.0489850000
0.0865200000 0.4319510000 0.0503480000
0.0878510000 0.4325050000 0.0503480000
0.0887290000 0.4314760000 0.0503480000
0.0913190000 0.4293280000 0.0496690000
0.1007000000 0.4270060000 0.0489850000
0.1233600000 0.4253960000 0.0482940000
0.1616980000 0.4245880000 0.0475960000
0.2113230000 0.4242640000 0.0475960000
0.2655200000 0.4242640000 0.0475960000
0.3184380000 0.4242640000 0.0482940000
0.3678660000 0.4241020000 0.0482940000
0.4141550000 0.4235340000 0.0489850000
0.4590790000 0.4225590000 0.0496690000
0.5031630000 0.4211730000 0.0503480000
0.5464510000 0.4192060000 0.0516860000
0.5881860000 0.4169790000 0.0523470000
0.6276730000 0.4147380000 0.0530020000
0.6641490000 0.4127330000 0.0542950000
0.6979030000 0.4113900000 0.0549340000
0.7294570000 0.4113060000 0.0568200000
0.7592890000 0.4128170000 0.0592670000
0.7884360000 0.4166480000 0.0633820000
0.8173230000 0.4229660000 0.0683940000
0.8468700000 0.4323470000 0.0741580000
0.8775800000 0.4447050000 0.0805360000
0.9094660000 0.4596660000 0.0874090000
0.9405230000 0.4764310000 0.0934290000
0.9664710000 0.4939630000 0.0987290000
0.9835350000 0.5115140000 0.1026370000
0.9918800000 0.5288270000 0.1052950000
0.9948040000 0.5460390000 0.1071560000
0.9956680000 0.5633250000 0.1089870000
0.1071560000 0.4724870000 0.0628060000
0.1097120000 0.4746750000 0.0639530000
0.1115040000 0.4756600000 0.0645210000
0.1122140000 0.4748160000 0.0639530000
0.1143170000 0.4729110000 0.0633820000
0.1230360000 0.4704280000 0.0622270000
0.1442410000 0.4684290000 0.0616430000
0.1798160000 0.4670660000 0.0610560000
0.2258780000 0.4664910000 0.0610560000
0.2762200000 0.4662030000 0.0610560000
0.3254650000 0.4662030000 0.0610560000
0.3716060000 0.4660590000 0.0616430000
0.4149880000 0.4658430000 0.0622270000
0.4568700000 0.4653380000 0.0628060000
0.4977620000 0.4645440000 0.0633820000
0.5382420000 0.4631670000 0.0639530000
0.5779340000 0.4612740000 0.0650850000
0.6163900000 0.4589320000 0.0656460000
0.6528770000 0.4565010000 0.0662020000
0.6873000000 0.4543500000 0.0667560000
0.7198690000 0.4532330000 0.0683940000
0.7509400000 0.4536810000 0.0710600000
0.7810500000 0.4562050000 0.0746640000
0.8108110000 0.4613470000 0.0795820000
0.8407250000 0.4692870000 0.0847170000
0.8712040000 0.4802660000 0.0904630000
0.9027410000 0.4938960000 0.0954990000
0.9341500000 0.5092650000 0.0999160000
0.9615700000 0.5254340000 0.1034030000
0.9807040000 0.5417110000 0.1056690000
0.9905770000 0.5579060000 0.1075240000
0.9938040000 0.5740770000 0.1093500000
0.9942630000 0.5903270000 0.1115040000
0.1356830000 0.5107440000 0.0771550000
0.1383060000 0.5132400000 0.0786190000
0.1400280000 0.5143870000 0.0791020000
0.1408800000 0.5138780000 0.0791020000
0.1436860000 0.5120900000 0.0781340000
0.1530950000 0.5096520000 0.0771550000
0.1735430000 0.5073920000 0.0766620000
0.2064690000 0.5056410000 0.0761670000
0.2479240000 0.5045340000 0.0756690000
0.2923730000 0.5040770000 0.0756690000
0.3365380000 0.5038810000 0.0761670000
0.3786720000 0.5036860000 0.0766620000
0.4192060000 0.5035550000 0.0771550000
0.4581970000 0.5032280000 0.0776460000
0.4960340000 0.5026390000 0.0781340000
0.5331650000 0.5017860000 0.0786190000
0.5698520000 0.5004050000 0.0791020000
0.6057650000 0.4985570000 0.0795820000
0.6407230000 0.4962330000 0.0800600000
0.6746850000 0.4940300000 0.0805360000
0.7076670000 0.4924870000 0.0814810000
0.7395620000 0.4922860000 0.0833430000
0.7706670000 0.4939630000 0.0865200000
0.8011470000 0.4980270000 0.0900320000
0.8315160000 0.5048600000 0.0938460000
0.8618670000 0.5145780000 0.0975290000
0.8928700000 0.5268560000 0.1010900000
0.9242440000 0.5408760000 0.1034030000
0.9530710000 0.5557780000 0.1052950000
0.9748720000 0.5709120000 0.1071560000
0.9871460000 0.5859820000 0.1104320000
0.9917990000 0.6010930000 0.1160420000
0.9928020000 0.6163390000 0.1230360000
0.1621890000 0.5451530000 0.0904630000
0.1643810000 0.5475110000 0.0913190000
0.1660650000 0.5486260000 0.0917450000
0.1677310000 0.5481570000 0.0913190000
0.1723970000 0.5465690000 0.0908920000
0.1835130000 0.5442660000 0.0904630000
0.2047590000 0.5418900000 0.0896000000
0.2355670000 0.5398600000 0.0891650000
0.2723860000 0.5384220000 0.0887290000
0.3113390000 0.5375800000 0.0891650000
0.3504820000 0.5371590000 0.0891650000
0.3888430000 0.5369780000 0.0896000000
0.4262020000 0.5367370000 0.0900320000
0.4623670000 0.5364360000 0.0904630000
0.4973630000 0.5360130000 0.0908920000
0.5316430000 0.5354690000 0.0913190000
0.5654170000 0.5345610000 0.0917450000
0.5984250000 0.5332870000 0.0917450000
0.6307720000 0.5315210000 0.0921680000
0.6630010000 0.5298690000 0.0925900000
0.6950990000 0.5284580000 0.0930110000
0.7270550000 0.5283350000 0.0942620000
0.7585950000 0.5297470000 0.0959080000
0.7897190000 0.5332260000 0.0983300000
0.8205360000 0.5392620000 0.1003090000
0.8510340000 0.5479810000 0.1026370000
0.8814910000 0.5589950000 0.1045420000
0.9126530000 0.5716910000 0.1056690000
0.9426440000 0.5852270000 0.1078920000
0.9670880000 0.5990020000 0.1118590000
0.9825190000 0.6127900000 0.1200870000
0.9895440000 0.6266350000 0.1324070000
0.9920700000 0.6406750000 0.1477940000
0.1806930000 0.5756790000 0.0999160000
0.1828660000 0.5776600000 0.1003090000
0.1854380000 0.5786470000 0.1007000000
0.1892250000 0.5782630000 0.1007000000
0.1967610000 0.5767800000 0.1003090000
0.2111390000 0.5747410000 0.0999160000
0.2337640000 0.5723030000 0.0991260000
0.2632330000 0.5700750000 0.0987290000
0.2969060000 0.5683970000 0.0987290000
0.3317690000 0.5672190000 0.0987290000
0.3669000000 0.5666000000 0.0987290000
0.4015710000 0.5663190000 0.0991260000
0.4354180000 0.5660370000 0.0991260000
0.4685000000 0.5657550000 0.0995220000
0.5009980000 0.5653610000 0.0999160000
0.5329220000 0.5650220000 0.1003090000
0.5642310000 0.5645140000 0.1003090000
0.5947380000 0.5638350000 0.1007000000
0.6246030000 0.5627570000 0.1007000000
0.6544690000 0.5617350000 0.1010900000
0.6849240000 0.5611650000 0.1014790000
0.7157210000 0.5613930000 0.1018670000
0.7468180000 0.5630410000 0.1030210000
0.7781070000 0.5666000000 0.1041630000
0.8092880000 0.5723580000 0.1052950000
0.8399150000 0.5803960000 0.1067860000
0.8702700000 0.5904340000 0.1078920000
0.9013570000 0.6018750000 0.1100720000
0.9321800000 0.6139080000 0.1143170000
0.9590790000 0.6261900000 0.1233600000
0.9777800000 0.6385070000 0.1385950000
0.9878010000 0.6508090000 0.1592180000
0.9924230000 0.6632770000 0.1830820000
0.1947550000 0.6028120000 0.1067860000
0.1987440000 0.6045760000 0.1075240000
0.2034180000 0.6054550000 0.1075240000
0.2104000000 0.6051970000 0.1075240000
0.2215540000 0.6038500000 0.1071560000
0.2388050000 0.6019790000 0.1067860000
0.2623690000 0.5997350000 0.1064150000
0.2909710000 0.5973740000 0.1060430000
0.3219750000 0.5954770000 0.1060430000
0.3536380000 0.5941550000 0.1056690000
0.3850340000 0.5934130000 0.1056690000
0.4159020000 0.5928830000 0.1060430000
0.4463050000 0.5925640000 0.1060430000
0.4765010000 0.5923520000 0.1064150000
0.5066800000 0.5921390000 0.1064150000
0.5365560000 0.5918200000 0.1064150000
0.5658680000 0.5916070000 0.1067860000
0.5943140000 0.5913400000 0.1067860000
0.6221140000 0.5908610000 0.1067860000
0.6499600000 0.5905940000 0.1071560000
0.6783140000 0.5906470000 0.1071560000
0.7074130000 0.5915530000 0.1075240000
0.7371630000 0.5937320000 0.1082580000
0.7677480000 0.5976370000 0.1089870000
0.7988070000 0.6034350000 0.1100720000
0.8296300000 0.6112600000 0.1115040000
0.8601660000 0.6206640000 0.1136200000
0.8912470000 0.6310170000 0.1180810000
0.9227240000 0.6417310000 0.1265510000
0.9515250000 0.6524540000 0.1414460000
0.9733720000 0.6631850000 0.1634110000
0.9864910000 0.6740550000 0.1908820000
0.9938850000 0.6850570000 0.2213790000
0.2127920000 0.6279190000 0.1132700000
0.2197970000 0.6295930000 0.1136200000
0.2275820000 0.6305260000 0.1139690000
0.2376770000 0.6302810000 0.1139690000
0.2514350000 0.6291020000 0.1136200000
0.2701660000 0.6273760000 0.1132700000
0.2933870000 0.6252980000 0.1129190000
0.3199270000 0.6230610000 0.1129190000
0.3481190000 0.6210140000 0.1129190000
0.3765220000 0.6194610000 0.1129190000
0.4044190000 0.6183560000 0.1129190000
0.4319510000 0.6179530000 0.1132700000
0.4594460000 0.6176000000 0.1132700000
0.4872090000 0.6174490000 0.1132700000
0.5151500000 0.6173480000 0.1129190000
0.5430200000 0.6172470000 0.1129190000
0.5704100000 0.6171470000 0.1129190000
0.5970590000 0.6170960000 0.1129190000
0.6233100000 0.6170960000 0.1129190000
