bundles/resolve-cinematic-luts/Gamut/Cascade/02 South-.cube
TITLE "Cascade South- by Gamut.io"
# Copyright 2020 Gamut.io
LUT_3D_SIZE 33
0.0000000000 0.0000000000 0.0000000000
0.0173490000 0.0007890000 0.0000000000
0.0362740000 0.0000000000 0.0000000000
0.0656460000 0.0007890000 0.0000000000
0.1075240000 0.0007890000 0.0000000000
0.1554210000 0.0000000000 0.0000000000
0.2057110000 0.0007890000 0.0000000000
0.2566740000 0.0000000000 0.0000000000
0.3100380000 0.0000000000 0.0000000000
0.3659300000 0.0000000000 0.0000000000
0.4233720000 0.0000000000 0.0000000000
0.4817200000 0.0000000000 0.0000000000
0.5383020000 0.0000000000 0.0000000000
0.5919260000 0.0000000000 0.0000000000
0.6417790000 0.0000000000 0.0000000000
0.6870360000 0.0000000000 0.0000000000
0.7278300000 0.0000000000 0.0000000000
0.7645470000 0.0000000000 0.0000000000
0.7980850000 0.0000000000 0.0000000000
0.8293900000 0.0000000000 0.0000000000
0.8590520000 0.0000000000 0.0000000000
0.8881780000 0.0000000000 0.0000000000
0.9166690000 0.0000000000 0.0000000000
0.9441510000 0.0000000000 0.0000000000
0.9682650000 0.0000000000 0.0000000000
0.9856980000 0.0000000000 0.0000000000
0.9952900000 0.0000000000 0.0000000000
0.9988990000 0.0007890000 0.0000000000
0.9998390000 0.0031540000 0.0000000000
1.0000000000 0.0149830000 0.0000000000
1.0000000000 0.0454630000 0.0000000000
1.0000000000 0.1003090000 0.0000000000
0.9999730000 0.1721670000 0.0000000000
0.0000000000 0.0149830000 0.0007890000
0.0110400000 0.0149830000 0.0031540000
0.0268120000 0.0173490000 0.0015770000
0.0561960000 0.0220800000 0.0023660000
0.0975290000 0.0236570000 0.0007890000
0.1434080000 0.0181370000 0.0007890000
0.1927270000 0.0126170000 0.0007890000
0.2441970000 0.0110400000 0.0007890000
0.2977780000 0.0070970000 0.0007890000
0.3534350000 0.0039430000 0.0000000000
0.4113900000 0.0023660000 0.0000000000
0.4699290000 0.0007890000 0.0000000000
0.5272880000 0.0000000000 0.0000000000
0.5820300000 0.0000000000 0.0000000000
0.6326320000 0.0000000000 0.0000000000
0.6789390000 0.0000000000 0.0000000000
0.7204890000 0.0000000000 0.0000000000
0.7580540000 0.0000000000 0.0000000000
0.7922770000 0.0000000000 0.0000000000
0.8240440000 0.0000000000 0.0000000000
0.8541140000 0.0000000000 0.0000000000
0.8832960000 0.0000000000 0.0000000000
0.9121080000 0.0000000000 0.0000000000
0.9399110000 0.0000000000 0.0000000000
0.9645600000 0.0000000000 0.0000000000
0.9830960000 0.0000000000 0.0000000000
0.9939660000 0.0007890000 0.0000000000
0.9984690000 0.0023660000 0.0000000000
0.9997580000 0.0086740000 0.0000000000
0.9999460000 0.0268120000 0.0000000000
1.0000000000 0.0645210000 0.0000000000
0.9999730000 0.1230360000 0.0000000000
1.0000000000 0.1949570000 0.0007890000
0.0007890000 0.0346970000 0.0015770000
0.0149830000 0.0346970000 0.0031540000
0.0291770000 0.0370630000 0.0063090000
0.0542950000 0.0402170000 0.0047310000
0.0921680000 0.0425160000 0.0047310000
0.1330090000 0.0402170000 0.0023660000
0.1802550000 0.0331200000 0.0015770000
0.2319450000 0.0276000000 0.0015770000
0.2847590000 0.0205030000 0.0015770000
0.3406990000 0.0134060000 0.0007890000
0.3983490000 0.0078860000 0.0007890000
0.4572390000 0.0039430000 0.0000000000
0.5153400000 0.0023660000 0.0000000000
0.5706890000 0.0007890000 0.0000000000
0.6225630000 0.0007890000 0.0000000000
0.6698070000 0.0000000000 0.0000000000
0.7124630000 0.0000000000 0.0000000000
0.7507050000 0.0000000000 0.0000000000
0.7855290000 0.0000000000 0.0000000000
0.8176380000 0.0000000000 0.0000000000
0.8481720000 0.0000000000 0.0000000000
0.8776120000 0.0000000000 0.0000000000
0.9065390000 0.0000000000 0.0000000000
0.9348250000 0.0000000000 0.0000000000
0.9602690000 0.0000000000 0.0000000000
0.9801810000 0.0007890000 0.0000000000
0.9923140000 0.0023660000 0.0000000000
0.9978770000 0.0070970000 0.0000000000
0.9995440000 0.0189260000 0.0000000000
0.9999460000 0.0454630000 0.0000000000
1.0000000000 0.0900320000 0.0000000000
1.0000000000 0.1504680000 0.0000000000
0.9999730000 0.2189130000 0.0000000000
0.0015770000 0.0633820000 0.0015770000
0.0181370000 0.0628060000 0.0039430000
0.0339090000 0.0639530000 0.0063090000
0.0561960000 0.0656460000 0.0078860000
0.0869650000 0.0678520000 0.0078860000
0.1271800000 0.0650850000 0.0078860000
0.1707790000 0.0610560000 0.0047310000
0.2205020000 0.0523470000 0.0039430000
0.2730750000 0.0425160000 0.0031540000
0.3273600000 0.0315430000 0.0015770000
0.3848510000 0.0220800000 0.0007890000
0.4433270000 0.0141940000 0.0007890000
0.5019180000 0.0086740000 0.0000000000
0.5581930000 0.0055200000 0.0000000000
0.6108520000 0.0031540000 0.0000000000
0.6591240000 0.0015770000 0.0000000000
0.7027430000 0.0007890000 0.0000000000
0.7418720000 0.0007890000 0.0000000000
0.7775840000 0.0007890000 0.0000000000
0.8102800000 0.0007890000 0.0000000000
0.8409950000 0.0007890000 0.0000000000
0.8709150000 0.0007890000 0.0000000000
0.9000940000 0.0007890000 0.0000000000
0.9287560000 0.0007890000 0.0000000000
0.9552400000 0.0023660000 0.0000000000
0.9765900000 0.0047310000 0.0000000000
0.9903600000 0.0102510000 0.0000000000
0.9971240000 0.0212920000 0.0000000000
0.9994090000 0.0425160000 0.0000000000
0.9999460000 0.0771550000 0.0000000000
0.9999730000 0.1265510000 0.0000000000
1.0000000000 0.1854380000 0.0000000000
1.0000000000 0.2468440000 0.0007890000
0.0000000000 0.0979300000 0.0007890000
0.0102510000 0.0950880000 0.0031540000
0.0307540000 0.0942620000 0.0047310000
0.0574390000 0.0954990000 0.0070970000
0.0874090000 0.0971260000 0.0086740000
0.1220610000 0.0971260000 0.0086740000
0.1653450000 0.0930110000 0.0102510000
0.2113230000 0.0851700000 0.0070970000
0.2619360000 0.0746640000 0.0047310000
0.3146220000 0.0616430000 0.0031540000
0.3703640000 0.0489850000 0.0023660000
0.4284490000 0.0370630000 0.0015770000
0.4868000000 0.0268120000 0.0007890000
0.5433170000 0.0189260000 0.0000000000
0.5972170000 0.0126170000 0.0000000000
0.6464570000 0.0086740000 0.0000000000
0.6912350000 0.0063090000 0.0000000000
0.7313630000 0.0047310000 0.0000000000
0.7678240000 0.0039430000 0.0000000000
0.8012550000 0.0039430000 0.0000000000
0.8325760000 0.0031540000 0.0000000000
0.8627150000 0.0039430000 0.0000000000
0.8924640000 0.0039430000 0.0000000000
0.9216480000 0.0063090000 0.0000000000
0.9492570000 0.0102510000 0.0000000000
0.9722310000 0.0181370000 0.0000000000
0.9878560000 0.0323320000 0.0000000000
0.9960730000 0.0536510000 0.0000000000
0.9991140000 0.0842610000 0.0000000000
0.9998660000 0.1256020000 0.0000000000
1.0000000000 0.1753600000 0.0000000000
1.0000000000 0.2275820000 0.0007890000
1.0000000000 0.2791900000 0.0007890000
0.0000000000 0.1305860000 0.0007890000
0.0039430000 0.1278060000 0.0023660000
0.0212920000 0.1262350000 0.0039430000
0.0516860000 0.1268660000 0.0055200000
0.0869650000 0.1284290000 0.0070970000
0.1227120000 0.1305860000 0.0078860000
0.1602150000 0.1290490000 0.0070970000
0.2047590000 0.1227120000 0.0086740000
0.2515870000 0.1122140000 0.0063090000
0.3028260000 0.1010900000 0.0047310000
0.3569590000 0.0882910000 0.0039430000
0.4136540000 0.0741580000 0.0023660000
0.4710680000 0.0604640000 0.0015770000
0.5275340000 0.0482940000 0.0007890000
0.5814320000 0.0378520000 0.0007890000
0.6317510000 0.0299660000 0.0000000000
0.6775540000 0.0236570000 0.0000000000
0.7188760000 0.0205030000 0.0000000000
0.7561960000 0.0181370000 0.0000000000
0.7902310000 0.0165600000 0.0000000000
0.8222050000 0.0157710000 0.0000000000
0.8527580000 0.0157710000 0.0000000000
0.8830740000 0.0181370000 0.0000000000
0.9130770000 0.0236570000 0.0000000000
0.9418020000 0.0331200000 0.0000000000
0.9666670000 0.0503480000 0.0000000000
0.9845490000 0.0741580000 0.0000000000
0.9946150000 0.1056690000 0.0000000000
0.9987110000 0.1436860000 0.0000000000
1.0000000000 0.1862870000 0.0007890000
1.0000000000 0.2307800000 0.0007890000
1.0000000000 0.2738990000 0.0015770000
1.0000000000 0.3150870000 0.0023660000
0.0000000000 0.1712430000 0.0007890000
0.0023660000 0.1677310000 0.0015770000
0.0134060000 0.1638970000 0.0031540000
0.0425160000 0.1609580000 0.0047310000
0.0795820000 0.1597170000 0.0055200000
0.1163850000 0.1584660000 0.0055200000
0.1520500000 0.1582150000 0.0047310000
0.1923190000 0.1572050000 0.0047310000
0.2423100000 0.1525740000 0.0055200000
0.2931340000 0.1450680000 0.0055200000
0.3459440000 0.1350930000 0.0055200000
0.4004430000 0.1230360000 0.0047310000
0.4565010000 0.1097120000 0.0031540000
0.5119620000 0.0959080000 0.0023660000
0.5656990000 0.0828810000 0.0015770000
0.6160860000 0.0710600000 0.0007890000
0.6624490000 0.0622270000 0.0007890000
0.7045730000 0.0561960000 0.0007890000
0.7427460000 0.0516860000 0.0000000000
0.7775840000 0.0489850000 0.0000000000
0.8101390000 0.0468920000 0.0000000000
0.8411970000 0.0482940000 0.0000000000
0.8719120000 0.0523470000 0.0000000000
0.9026180000 0.0622270000 0.0000000000
0.9325040000 0.0791020000 0.0000000000
0.9593910000 0.1041630000 0.0000000000
0.9797400000 0.1359770000 0.0000000000
0.9921790000 0.1726270000 0.0000000000
0.9981730000 0.2109540000 0.0007890000
1.0000000000 0.2493050000 0.0023660000
1.0000000000 0.2856750000 0.0031540000
1.0000000000 0.3198130000 0.0047310000
1.0000000000 0.3522170000 0.0086740000
0.0000000000 0.2137050000 0.0007890000
0.0039430000 0.2105850000 0.0015770000
0.0141940000 0.2070360000 0.0023660000
0.0370630000 0.2030330000 0.0023660000
0.0726220000 0.1991380000 0.0023660000
0.1125670000 0.1965610000 0.0023660000
0.1517880000 0.1953590000 0.0015770000
0.1917040000 0.1959610000 0.0031540000
0.2375150000 0.1951580000 0.0039430000
0.2869770000 0.1914990000 0.0047310000
0.3377180000 0.1850120000 0.0055200000
0.3906420000 0.1767090000 0.0063090000
0.4450100000 0.1665430000 0.0063090000
0.4990860000 0.1551640000 0.0055200000
0.5516060000 0.1431290000 0.0047310000
0.6015620000 0.1318030000 0.0031540000
0.6476430000 0.1220610000 0.0023660000
0.6899700000 0.1146640000 0.0015770000
0.7285630000 0.1086230000 0.0015770000
0.7639740000 0.1045420000 0.0007890000
0.7969280000 0.1030210000 0.0007890000
0.8284280000 0.1045420000 0.0007890000
0.8595440000 0.1111480000 0.0007890000
0.8907470000 0.1243260000 0.0007890000
0.9217080000 0.1453430000 0.0007890000
0.9503780000 0.1737710000 0.0007890000
0.9737610000 0.2072240000 0.0007890000
0.9893540000 0.2419940000 0.0015770000
0.9981200000 0.2755400000 0.0031540000
1.0000000000 0.3068180000 0.0047310000
1.0000000000 0.3356770000 0.0070970000
1.0000000000 0.3627080000 0.0118290000
1.0000000000 0.3884830000 0.0165600000
0.0000000000 0.2585880000 0.0007890000
0.0023660000 0.2559330000 0.0015770000
0.0118290000 0.2526440000 0.0015770000
0.0315430000 0.2489990000 0.0015770000
0.0645210000 0.2457580000 0.0015770000
0.1060430000 0.2429410000 0.0015770000
0.1507330000 0.2412010000 0.0007890000
0.1943520000 0.2407240000 0.0015770000
0.2378390000 0.2404050000 0.0023660000
0.2842340000 0.2388050000 0.0031540000
0.3327510000 0.2354030000 0.0047310000
0.3836620000 0.2306130000 0.0063090000
0.4362020000 0.2245040000 0.0070970000
0.4889090000 0.2167750000 0.0078860000
0.5404580000 0.2081640000 0.0078860000
0.5892580000 0.1993350000 0.0070970000
0.6349220000 0.1914990000 0.0063090000
0.6771070000 0.1845850000 0.0055200000
0.7154710000 0.1791550000 0.0047310000
0.7508620000 0.1753600000 0.0039430000
0.7841260000 0.1739990000 0.0031540000
0.8157450000 0.1764850000 0.0023660000
0.8470040000 0.1837280000 0.0023660000
0.8786000000 0.1975570000 0.0023660000
0.9103170000 0.2185590000 0.0023660000
0.9408140000 0.2454470000 0.0031540000
0.9669760000 0.2751310000 0.0039430000
0.9866000000 0.3046480000 0.0063090000
0.9989260000 0.3319870000 0.0086740000
1.0000000000 0.3569590000 0.0110400000
1.0000000000 0.3800660000 0.0149830000
1.0000000000 0.4019180000 0.0197140000
1.0000000000 0.4232910000 0.0260230000
0.0000000000 0.3060970000 0.0007890000
0.0015770000 0.3036780000 0.0015770000
0.0078860000 0.3006220000 0.0015770000
0.0244460000 0.2969060000 0.0015770000
0.0549340000 0.2932610000 0.0015770000
0.0975290000 0.2907150000 0.0007890000
0.1453430000 0.2890460000 0.0007890000
0.1927270000 0.2882720000 0.0007890000
0.2384830000 0.2876260000 0.0007890000
0.2835760000 0.2868470000 0.0015770000
0.3301240000 0.2854130000 0.0023660000
0.3785790000 0.2830490000 0.0039430000
0.4290090000 0.2797260000 0.0063090000
0.4801270000 0.2754040000 0.0078860000
0.5304820000 0.2700270000 0.0094630000
0.5789750000 0.2642360000 0.0110400000
0.6242060000 0.2584420000 0.0110400000
0.6660730000 0.2532450000 0.0102510000
0.7044030000 0.2489990000 0.0102510000
0.7396420000 0.2462240000 0.0086740000
0.7727810000 0.2456020000 0.0078860000
0.8045520000 0.2482310000 0.0078860000
0.8358140000 0.2551900000 0.0070970000
0.8675890000 0.2675020000 0.0070970000
0.9001240000 0.2856750000 0.0078860000
0.9320030000 0.3084930000 0.0086740000
0.9610050000 0.3332950000 0.0110400000
0.9843300000 0.3573590000 0.0134060000
1.0000000000 0.3796950000 0.0165600000
1.0000000000 0.4003560000 0.0205030000
1.0000000000 0.4196990000 0.0244460000
1.0000000000 0.4382300000 0.0276000000
1.0000000000 0.4565740000 0.0331200000
0.0000000000 0.3548500000 0.0015770000
0.0000000000 0.3527250000 0.0015770000
0.0047310000 0.3495600000 0.0015770000
0.0181370000 0.3457360000 0.0015770000
0.0461810000 0.3418610000 0.0015770000
0.0882910000 0.3387860000 0.0007890000
0.1388820000 0.3368600000 0.0007890000
0.1900550000 0.3360000000 0.0007890000
0.2383220000 0.3353530000 0.0007890000
0.2841030000 0.3348130000 0.0007890000
0.3293530000 0.3341640000 0.0007890000
0.3753950000 0.3334040000 0.0023660000
0.4228840000 0.3319870000 0.0039430000
0.4715650000 0.3297940000 0.0063090000
0.5203870000 0.3266930000 0.0086740000
0.5679490000 0.3227670000 0.0110400000
0.6132980000 0.3186680000 0.0126170000
0.6554030000 0.3147380000 0.0141940000
0.6941030000 0.3114570000 0.0149830000
0.7298230000 0.3093260000 0.0149830000
0.7631320000 0.3088500000 0.0149830000
0.7949700000 0.3108670000 0.0141940000
0.8264980000 0.3165950000 0.0141940000
0.8585600000 0.3268040000 0.0149830000
0.8915910000 0.3418610000 0.0157710000
0.9246010000 0.3608370000 0.0173490000
0.9555260000 0.3814540000 0.0197140000
0.9819970000 0.4018310000 0.0220800000
1.0000000000 0.4209270000 0.0260230000
1.0000000000 0.4386960000 0.0283890000
1.0000000000 0.4557610000 0.0315430000
1.0000000000 0.4722740000 0.0339090000
1.0000000000 0.4886370000 0.0362740000
0.0000000000 0.4033000000 0.0015770000
0.0000000000 0.4010510000 0.0015770000
0.0023660000 0.3980860000 0.0015770000
0.0126170000 0.3941190000 0.0015770000
0.0378520000 0.3899240000 0.0015770000
0.0795820000 0.3864900000 0.0015770000
0.1327080000 0.3839360000 0.0007890000
0.1875520000 0.3825600000 0.0007890000
0.2383220000 0.3819150000 0.0007890000
0.2854130000 0.3815460000 0.0007890000
0.3302340000 0.3812690000 0.0007890000
0.3744520000 0.3810840000 0.0007890000
0.4191240000 0.3808070000 0.0015770000
0.4645440000 0.3799730000 0.0031540000
0.5106160000 0.3783930000 0.0055200000
0.5563540000 0.3759590000 0.0078860000
0.6008320000 0.3729370000 0.0110400000
0.6429770000 0.3697900000 0.0141940000
0.6823610000 0.3668030000 0.0165600000
0.7188760000 0.3645670000 0.0181370000
0.7529700000 0.3634920000 0.0189260000
0.7854190000 0.3644700000 0.0205030000
0.8174280000 0.3686370000 0.0212920000
0.8498710000 0.3766160000 0.0220800000
0.8832640000 0.3891140000 0.0236570000
0.9169400000 0.4051910000 0.0252340000
0.9491420000 0.4230470000 0.0276000000
0.9778080000 0.4409420000 0.0299660000
1.0000000000 0.4579020000 0.0315430000
1.0000000000 0.4741120000 0.0339090000
1.0000000000 0.4896540000 0.0354860000
1.0000000000 0.5047950000 0.0362740000
1.0000000000 0.5200110000 0.0378520000
0.0000000000 0.4494840000 0.0015770000
0.0000000000 0.4475190000 0.0015770000
0.0007890000 0.4444750000 0.0015770000
0.0094630000 0.4405560000 0.0015770000
0.0323320000 0.4361230000 0.0015770000
0.0741580000 0.4321890000 0.0015770000
0.1293570000 0.4292480000 0.0015770000
0.1869200000 0.4274880000 0.0007890000
0.2399260000 0.4265240000 0.0007890000
0.2877550000 0.4259600000 0.0007890000
0.3327510000 0.4257180000 0.0000000000
0.3759590000 0.4257180000 0.0000000000
0.4183830000 0.4258800000 0.0007890000
0.4606900000 0.4257180000 0.0007890000
0.5032930000 0.4252340000 0.0023660000
0.5459210000 0.4240210000 0.0039430000
0.5880790000 0.4220700000 0.0070970000
0.6291510000 0.4196990000 0.0102510000
0.6683070000 0.4169790000 0.0134060000
0.7052530000 0.4144050000 0.0157710000
0.7401600000 0.4126490000 0.0189260000
0.7733830000 0.4124820000 0.0212920000
0.8060520000 0.4148210000 0.0236570000
0.8390700000 0.4209270000 0.0252340000
0.8728120000 0.4310790000 0.0276000000
0.9070890000 0.4450100000 0.0291770000
0.9402610000 0.4609090000 0.0307540000
0.9704460000 0.4771310000 0.0331200000
0.9957220000 0.4928900000 0.0339090000
1.0000000000 0.5079100000 0.0354860000
1.0000000000 0.5223260000 0.0362740000
1.0000000000 0.5366170000 0.0362740000
1.0000000000 0.5506730000 0.0362740000
0.0000000000 0.4925550000 0.0015770000
0.0000000000 0.4906680000 0.0015770000
0.0007890000 0.4878900000 0.0015770000
0.0086740000 0.4840620000 0.0015770000
0.0315430000 0.4797800000 0.0015770000
0.0736490000 0.4755190000 0.0015770000
0.1311960000 0.4720620000 0.0015770000
0.1906750000 0.4698580000 0.0007890000
0.2446670000 0.4684290000 0.0007890000
0.2928810000 0.4677120000 0.0007890000
0.3373970000 0.4672820000 0.0007890000
0.3797880000 0.4669950000 0.0000000000
0.4207640000 0.4672100000 0.0000000000
0.4607630000 0.4673540000 0.0000000000
0.5000760000 0.4672820000 0.0007890000
0.5391420000 0.4668510000 0.0015770000
0.5779890000 0.4659870000 0.0031540000
0.6162380000 0.4642540000 0.0055200000
0.6537670000 0.4621490000 0.0078860000
0.6899700000 0.4598120000 0.0110400000
0.7247250000 0.4576080000 0.0141940000
0.7584020000 0.4566480000 0.0173490000
0.7916570000 0.4578290000 0.0205030000
0.8251510000 0.4621490000 0.0228690000
0.8593800000 0.4704280000 0.0260230000
0.8940530000 0.4824100000 0.0276000000
0.9279860000 0.4966990000 0.0299660000
0.9595040000 0.5116420000 0.0315430000
0.9869550000 0.5262380000 0.0323320000
1.0000000000 0.5403390000 0.0331200000
1.0000000000 0.5539860000 0.0339090000
1.0000000000 0.5673870000 0.0323320000
1.0000000000 0.5806690000 0.0315430000
0.0000000000 0.5314600000 0.0023660000
0.0000000000 0.5297470000 0.0023660000
0.0015770000 0.5272260000 0.0023660000
0.0110400000 0.5237590000 0.0023660000
0.0362740000 0.5196970000 0.0015770000
0.0814810000 0.5154670000 0.0015770000
0.1405970000 0.5117700000 0.0015770000
0.2007060000 0.5090070000 0.0015770000
0.2542940000 0.5072630000 0.0007890000
0.3014810000 0.5061610000 0.0007890000
0.3449030000 0.5053160000 0.0007890000
0.3862180000 0.5049250000 0.0000000000
0.4257180000 0.5047300000 0.0000000000
0.4638920000 0.5047950000 0.0000000000
0.5008000000 0.5049250000 0.0000000000
0.5367370000 0.5047950000 0.0000000000
0.5720250000 0.5044690000 0.0007890000
0.6069000000 0.5035550000 0.0015770000
0.6414910000 0.5021800000 0.0031540000
0.6754490000 0.5002740000 0.0055200000
0.7090600000 0.4984240000 0.0086740000
0.7422690000 0.4973630000 0.0118290000
0.7755620000 0.4979600000 0.0149830000
0.8091820000 0.5012610000 0.0173490000
0.8435530000 0.5079750000 0.0205030000
0.8784410000 0.5182500000 0.0228690000
0.9129250000 0.5309710000 0.0252340000
0.9454820000 0.5445620000 0.0268120000
0.9747330000 0.5580790000 0.0283890000
0.9988990000 0.5713020000 0.0291770000
1.0000000000 0.5842000000 0.0299660000
1.0000000000 0.5967950000 0.0283890000
1.0000000000 0.6094700000 0.0276000000
0.0000000000 0.5659250000 0.0023660000
0.0007890000 0.5644570000 0.0023660000
0.0063090000 0.5622460000 0.0023660000
0.0197140000 0.5591670000 0.0023660000
0.0503480000 0.5554320000 0.0023660000
0.0991260000 0.5514310000 0.0015770000
0.1587170000 0.5475700000 0.0015770000
0.2174900000 0.5445620000 0.0015770000
0.2687680000 0.5424260000 0.0007890000
0.3139220000 0.5409960000 0.0007890000
0.3553530000 0.5399800000 0.0007890000
0.3948280000 0.5392020000 0.0007890000
0.4328210000 0.5387220000 0.0000000000
0.4691440000 0.5384820000 0.0000000000
0.5041430000 0.5384220000 0.0000000000
0.5377010000 0.5384220000 0.0000000000
0.5702990000 0.5383620000 0.0000000000
0.6019790000 0.5379410000 0.0000000000
0.6333150000 0.5372190000 0.0007890000
0.6645160000 0.5360740000 0.0023660000
0.6958330000 0.5349250000 0.0039430000
0.7275440000 0.5342580000 0.0063090000
0.7598290000 0.5349250000 0.0086740000
0.7929700000 0.5377010000 0.0110400000
0.8270500000 0.5434950000 0.0141940000
0.8618340000 0.5523040000 0.0165600000
0.8963210000 0.5634380000 0.0189260000
0.9293180000 0.5756240000 0.0205030000
0.9599290000 0.5880790000 0.0220800000
0.9863000000 0.6003100000 0.0236570000
1.0000000000 0.6123820000 0.0236570000
1.0000000000 0.6244540000 0.0228690000
1.0000000000 0.6364270000 0.0236570000
0.0023660000 0.5965850000 0.0023660000
0.0086740000 0.5952130000 0.0023660000
0.0189260000 0.5932540000 0.0023660000
0.0394290000 0.5904870000 0.0023660000
0.0761670000 0.5871660000 0.0023660000
0.1271800000 0.5834410000 0.0015770000
0.1847990000 0.5797410000 0.0015770000
0.2397660000 0.5765050000 0.0015770000
0.2876260000 0.5741320000 0.0007890000
0.3297940000 0.5724140000 0.0007890000
0.3687330000 0.5711910000 0.0007890000
0.4059620000 0.5702430000 0.0007890000
0.4417130000 0.5695730000 0.0000000000
0.4762210000 0.5689570000 0.0000000000
0.5093300000 0.5686210000 0.0000000000
0.5410560000 0.5685090000 0.0000000000
0.5715250000 0.5684530000 0.0000000000
0.6009370000 0.5683410000 0.0000000000
0.6295440000 0.5680610000 0.0000000000
0.6579180000 0.5675560000 0.0000000000
0.6866410000 0.5671630000 0.0007890000
0.7160540000 0.5671630000 0.0023660000
0.7466600000 0.5683970000 0.0039430000
0.7784800000 0.5713020000 0.0063090000
0.8116950000 0.5765600000 0.0078860000
0.8456990000 0.5844160000 0.0102510000
0.8797130000 0.5941020000 0.0126170000
0.9126230000 0.6048860000 0.0141940000
0.9437740000 0.6161370000 0.0157710000
0.9719520000 0.6274750000 0.0173490000
0.9952360000 0.6386520000 0.0181370000
1.0000000000 0.6500550000 0.0189260000
1.0000000000 0.6613430000 0.0189260000
0.0173490000 0.6243550000 0.0023660000
0.0291770000 0.6230120000 0.0023660000
0.0468920000 0.6211650000 0.0023660000
0.0746640000 0.6187580000 0.0023660000
0.1146640000 0.6156310000 0.0023660000
0.1646230000 0.6122290000 0.0015770000
0.2171330000 0.6088030000 0.0015770000
0.2663720000 0.6055590000 0.0015770000
0.3099200000 0.6029160000 0.0007890000
0.3488410000 0.6009890000 0.0007890000
0.3848510000 0.5995780000 0.0007890000
0.4193700000 0.5985820000 0.0007890000
0.4527110000 0.5976900000 0.0007890000
0.4850910000 0.5968480000 0.0000000000
0.5163550000 0.5963740000 0.0000000000
0.5463930000 0.5961110000 0.0000000000
0.5752380000 0.5960050000 0.0000000000
0.6029160000 0.5960050000 0.0000000000
0.6297410000 0.5959520000 0.0000000000
0.6558700000 0.5959000000 0.0000000000
0.6821390000 0.5960050000 0.0000000000
0.7090600000 0.5967430000 0.0007890000
0.7373630000 0.5984770000 0.0015770000
0.7673300000 0.6017190000 0.0023660000
0.7988790000 0.6070550000 0.0039430000
0.8316870000 0.6143140000 0.0055200000
0.8647340000 0.6231610000 0.0070970000
0.8970960000 0.6328270000 0.0086740000
0.9281050000 0.6427850000 0.0110400000
0.9570340000 0.6529710000 0.0118290000
0.9824920000 0.6632310000 0.0134060000
1.0000000000 0.6736500000 0.0141940000
1.0000000000 0.6841300000 0.0149830000
0.0536510000 0.6502430000 0.0023660000
0.0715840000 0.6490160000 0.0023660000
0.0946760000 0.6472640000 0.0023660000
0.1252840000 0.6450300000 0.0023660000
0.1641390000 0.6422590000 0.0015770000
0.2083510000 0.6391350000 0.0015770000
0.2532450000 0.6357000000 0.0015770000
0.2957800000 0.6325830000 0.0015770000
0.3347050000 0.6297900000 0.0015770000
0.3701730000 0.6276230000 0.0007890000
0.4033860000 0.6260910000 0.0007890000
0.4350260000 0.6249510000 0.0007890000
0.4659150000 0.6240070000 0.0007890000
0.4961670000 0.6232610000 0.0007890000
0.5254960000 0.6226130000 0.0000000000
0.5539860000 0.6222640000 0.0000000000
0.5813770000 0.6220640000 0.0000000000
0.6076730000 0.6220140000 0.0000000000
0.6329730000 0.6220640000 0.0000000000
