bundles/resolve-cinematic-luts/Gamut/Cascade/03 East.cube
TITLE "Cascade East by Gamut.io"
# IMAGEPROFILE 
# OUTPUTGAMMA 
# 
LUT_3D_SIZE 5
0.0000000000 0.0000000000 0.0000000000
0.2077880000 0.0000000000 0.0007890000
0.6013540000 0.0000000000 0.0000000000
0.9302930000 0.0007890000 0.0000000000
0.9998660000 0.2039940000 0.0015770000
0.0000000000 0.1973580000 0.0000000000
0.1898480000 0.2007060000 0.0000000000
0.5950550000 0.1993350000 0.0000000000
0.9074550000 0.2599040000 0.0000000000
0.9999460000 0.3784860000 0.0007890000
0.0000000000 0.5484500000 0.0000000000
0.2028400000 0.5503230000 0.0000000000
0.6048860000 0.5910210000 0.0031540000
0.8735830000 0.6041610000 0.0205030000
1.0000000000 0.5897390000 0.0023660000
0.2210290000 0.7888390000 0.1439640000
0.4208460000 0.7821640000 0.1737710000
0.6529240000 0.7837930000 0.2594660000
0.8417370000 0.8009680000 0.3830190000
0.9989530000 0.7994560000 0.4099570000
0.6498190000 0.9692450000 0.6196120000
0.6857610000 0.9646720000 0.6251000000
0.7829790000 0.9683770000 0.6657980000
0.8712370000 0.9789950000 0.7009060000
0.9817500000 0.9685730000 0.7042760000
0.0007890000 0.0047310000 0.2419940000
0.2373540000 0.0063090000 0.2257070000
0.6517500000 0.0000000000 0.2460690000
0.9461460000 0.0078860000 0.2662300000
1.0000000000 0.2607770000 0.3200410000
0.0000000000 0.2380000000 0.2508290000
0.2296070000 0.2354030000 0.2251920000
0.6335590000 0.2135230000 0.2151560000
0.9187130000 0.2601960000 0.2162370000
1.0000000000 0.4041610000 0.2974050000
0.0000000000 0.5918200000 0.2477700000
0.1800360000 0.5838750000 0.2430980000
0.6151760000 0.5982150000 0.2759480000
0.8726200000 0.5955300000 0.2068470000
0.9999460000 0.5924050000 0.2087250000
0.1883900000 0.7998160000 0.3615280000
0.4050200000 0.7927510000 0.3766160000
0.6543760000 0.7861930000 0.4253150000
0.8388670000 0.8027990000 0.5112580000
0.9984690000 0.8010760000 0.5124100000
0.6460290000 0.9741780000 0.6500550000
0.6831140000 0.9703900000 0.6560560000
0.7807900000 0.9722870000 0.6914090000
0.8709790000 0.9796850000 0.7180060000
0.9819420000 0.9688250000 0.7195390000
0.0063090000 0.0639530000 0.6193100000
0.3449030000 0.0667560000 0.6388930000
0.7056770000 0.0991260000 0.6339000000
0.9304700000 0.2217290000 0.6224130000
1.0000000000 0.4667070000 0.6307720000
0.0007890000 0.3207250000 0.6255460000
0.2649500000 0.3157840000 0.6279690000
0.6814740000 0.3579580000 0.6233100000
0.9027410000 0.4292480000 0.6209140000
1.0000000000 0.5587660000 0.6466470000
0.0015770000 0.6108000000 0.6257440000
0.2135230000 0.6227620000 0.6269810000
0.6521260000 0.6387970000 0.6235590000
0.8636600000 0.6402900000 0.6120250000
1.0000000000 0.6611120000 0.6310170000
0.3365380000 0.8150430000 0.6587070000
0.4808200000 0.8116950000 0.6500550000
0.6691720000 0.7981570000 0.6303790000
0.8396450000 0.8104570000 0.6810750000
0.9989530000 0.8038370000 0.6568020000
0.6228120000 0.9872550000 0.7305120000
0.6541890000 0.9850420000 0.7278300000
0.7546830000 0.9849870000 0.7460290000
0.8675560000 0.9823540000 0.7726300000
0.9802360000 0.9697760000 0.7810500000
0.3337300000 0.3025820000 0.8443590000
0.5070690000 0.3297940000 0.8423430000
0.7348340000 0.4313170000 0.8345210000
0.8884290000 0.5320700000 0.8262910000
1.0000000000 0.6136540000 0.8103870000
0.2895610000 0.4486540000 0.8313450000
0.4817200000 0.4678560000 0.8307970000
0.7207780000 0.5404580000 0.8265670000
0.8733580000 0.6113110000 0.8217880000
0.9990340000 0.6685350000 0.8186170000
0.2347490000 0.6564290000 0.8111650000
0.4488050000 0.6644240000 0.8138470000
0.7020170000 0.6847920000 0.8200130000
0.8562590000 0.7318080000 0.8263600000
0.9995710000 0.7514090000 0.8330890000
0.4527850000 0.7996720000 0.8290120000
0.5451530000 0.8032280000 0.8297330000
0.7066520000 0.8044810000 0.8230390000
0.8451630000 0.8219620000 0.8268430000
0.9999460000 0.8253590000 0.8277390000
0.5617350000 0.9993290000 0.8871420000
0.6046790000 0.9990870000 0.8819660000
0.7082580000 0.9995710000 0.8687210000
0.8460010000 0.9923140000 0.8487050000
0.9813920000 0.9750940000 0.8663250000
0.7139270000 0.7058040000 1.0000000000
0.7443300000 0.7109110000 1.0000000000
0.8158850000 0.7289690000 0.9992750000
0.9056220000 0.7582860000 0.9914460000
1.0000000000 0.7704400000 0.9880460000
0.7145540000 0.7299040000 0.9999460000
0.7455950000 0.7352360000 1.0000000000
0.8164820000 0.7500000000 0.9997580000
0.9046730000 0.7746240000 0.9926120000
1.0000000000 0.7862660000 0.9891360000
0.7041480000 0.7875170000 0.9998120000
0.7319300000 0.7869660000 0.9999460000
0.8052310000 0.7912550000 0.9999460000
0.9012950000 0.8094300000 0.9959110000
1.0000000000 0.8184420000 0.9898160000
0.6396160000 0.8505350000 0.9998660000
0.6691260000 0.8521620000 0.9999460000
0.7478410000 0.8545440000 0.9999460000
0.8700440000 0.8561930000 0.9981730000
1.0000000000 0.8785360000 0.9884010000
0.6411070000 0.9481350000 0.9991410000
0.6684440000 0.9508080000 0.9987110000
0.7450030000 0.9585680000 0.9973120000
0.8624870000 0.9725930000 0.9930460000
0.9927210000 0.9912020000 0.9919890000
