bundles/resolve-cinematic-luts/Gamut/Cascade/03 East.cube
TITLE "Cascade East by Gamut.io"
# IMAGEPROFILE 
# OUTPUTGAMMA 
# 
LUT_3D_SIZE 33
0.0000000000 0.0000000000 0.0000000000
0.0299660000 0.0000000000 0.0000000000
0.0568200000 0.0000000000 0.0000000000
0.0819500000 0.0000000000 0.0000000000
0.1056690000 0.0000000000 0.0000000000
0.1278060000 0.0000000000 0.0007890000
0.1496710000 0.0000000000 0.0007890000
0.1760360000 0.0000000000 0.0007890000
0.2077880000 0.0000000000 0.0007890000
0.2454470000 0.0000000000 0.0007890000
0.2861960000 0.0000000000 0.0007890000
0.3315500000 0.0000000000 0.0007890000
0.3810840000 0.0000000000 0.0007890000
0.4342400000 0.0000000000 0.0007890000
0.4894510000 0.0000000000 0.0007890000
0.5458030000 0.0000000000 0.0007890000
0.6013540000 0.0000000000 0.0000000000
0.6553570000 0.0000000000 0.0000000000
0.7061440000 0.0000000000 0.0000000000
0.7531260000 0.0000000000 0.0000000000
0.7956960000 0.0000000000 0.0000000000
0.8343850000 0.0000000000 0.0000000000
0.8696250000 0.0000000000 0.0000000000
0.9016340000 0.0000000000 0.0000000000
0.9302930000 0.0007890000 0.0000000000
0.9546700000 0.0023660000 0.0000000000
0.9734830000 0.0078860000 0.0000000000
0.9863540000 0.0197140000 0.0000000000
0.9939660000 0.0402170000 0.0000000000
0.9976620000 0.0715840000 0.0000000000
0.9993830000 0.1111480000 0.0000000000
0.9998930000 0.1564430000 0.0007890000
0.9998660000 0.2039940000 0.0015770000
0.0000000000 0.0283890000 0.0000000000
0.0283890000 0.0276000000 0.0000000000
0.0549340000 0.0260230000 0.0000000000
0.0795820000 0.0244460000 0.0000000000
0.1030210000 0.0212920000 0.0000000000
0.1243260000 0.0181370000 0.0000000000
0.1475230000 0.0149830000 0.0000000000
0.1751340000 0.0118290000 0.0007890000
0.2076000000 0.0102510000 0.0007890000
0.2456020000 0.0086740000 0.0007890000
0.2869770000 0.0063090000 0.0007890000
0.3324240000 0.0047310000 0.0007890000
0.3816380000 0.0039430000 0.0007890000
0.4345550000 0.0023660000 0.0007890000
0.4896540000 0.0015770000 0.0000000000
0.5451530000 0.0015770000 0.0000000000
0.6006760000 0.0007890000 0.0000000000
0.6540950000 0.0007890000 0.0000000000
0.7047860000 0.0007890000 0.0000000000
0.7516830000 0.0007890000 0.0000000000
0.7942800000 0.0015770000 0.0000000000
0.8328500000 0.0015770000 0.0000000000
0.8679120000 0.0023660000 0.0000000000
0.8999390000 0.0039430000 0.0000000000
0.9285490000 0.0070970000 0.0000000000
0.9530130000 0.0126170000 0.0000000000
0.9722030000 0.0220800000 0.0000000000
0.9855340000 0.0378520000 0.0000000000
0.9933710000 0.0622270000 0.0000000000
0.9975280000 0.0942620000 0.0000000000
0.9993020000 0.1333080000 0.0000000000
0.9997580000 0.1764850000 0.0007890000
0.9999200000 0.2208530000 0.0015770000
0.0007890000 0.0496690000 0.0000000000
0.0260230000 0.0489850000 0.0000000000
0.0489850000 0.0461810000 0.0000000000
0.0710600000 0.0425160000 0.0000000000
0.0946760000 0.0386400000 0.0000000000
0.1187530000 0.0331200000 0.0000000000
0.1434080000 0.0283890000 0.0000000000
0.1726270000 0.0244460000 0.0000000000
0.2074120000 0.0212920000 0.0007890000
0.2460690000 0.0189260000 0.0007890000
0.2878850000 0.0157710000 0.0007890000
0.3334040000 0.0126170000 0.0007890000
0.3825600000 0.0094630000 0.0000000000
0.4349480000 0.0078860000 0.0000000000
0.4895190000 0.0063090000 0.0000000000
0.5449170000 0.0047310000 0.0000000000
0.5999440000 0.0039430000 0.0000000000
0.6532050000 0.0039430000 0.0000000000
0.7035950000 0.0039430000 0.0000000000
0.7502350000 0.0039430000 0.0000000000
0.7926420000 0.0055200000 0.0000000000
0.8310710000 0.0063090000 0.0000000000
0.8661300000 0.0086740000 0.0000000000
0.8980550000 0.0118290000 0.0000000000
0.9268300000 0.0173490000 0.0000000000
0.9515250000 0.0260230000 0.0000000000
0.9709490000 0.0402170000 0.0000000000
0.9846310000 0.0598680000 0.0000000000
0.9929370000 0.0865200000 0.0000000000
0.9973660000 0.1197550000 0.0000000000
0.9991680000 0.1574580000 0.0000000000
0.9997850000 0.1973580000 0.0007890000
1.0000000000 0.2380000000 0.0007890000
0.0031540000 0.0616430000 0.0007890000
0.0244460000 0.0598680000 0.0007890000
0.0425160000 0.0568200000 0.0007890000
0.0622270000 0.0536510000 0.0007890000
0.0842610000 0.0496690000 0.0007890000
0.1100720000 0.0461810000 0.0007890000
0.1394560000 0.0417590000 0.0000000000
0.1710110000 0.0370630000 0.0000000000
0.2068470000 0.0354860000 0.0000000000
0.2463790000 0.0339090000 0.0000000000
0.2885310000 0.0299660000 0.0000000000
0.3341640000 0.0252340000 0.0000000000
0.3835700000 0.0212920000 0.0000000000
0.4356540000 0.0181370000 0.0000000000
0.4899250000 0.0149830000 0.0000000000
0.5446800000 0.0134060000 0.0000000000
0.5991590000 0.0118290000 0.0000000000
0.6522670000 0.0110400000 0.0000000000
0.7023590000 0.0118290000 0.0000000000
0.7487840000 0.0126170000 0.0000000000
0.7911090000 0.0141940000 0.0000000000
0.8293900000 0.0165600000 0.0000000000
0.8640830000 0.0212920000 0.0000000000
0.8960730000 0.0268120000 0.0000000000
0.9248100000 0.0354860000 0.0000000000
0.9496600000 0.0482940000 0.0000000000
0.9695240000 0.0656460000 0.0000000000
0.9837270000 0.0882910000 0.0000000000
0.9924770000 0.1167260000 0.0000000000
0.9970160000 0.1491370000 0.0000000000
0.9990340000 0.1843710000 0.0000000000
0.9997320000 0.2206780000 0.0007890000
0.9999200000 0.2569690000 0.0007890000
0.0055200000 0.0726220000 0.0015770000
0.0228690000 0.0710600000 0.0015770000
0.0386400000 0.0689340000 0.0015770000
0.0580530000 0.0673050000 0.0015770000
0.0791020000 0.0656460000 0.0015770000
0.1045420000 0.0639530000 0.0015770000
0.1362700000 0.0622270000 0.0007890000
0.1698470000 0.0586620000 0.0000000000
0.2060900000 0.0561960000 0.0000000000
0.2459130000 0.0549340000 0.0000000000
0.2891750000 0.0510200000 0.0000000000
0.3350290000 0.0461810000 0.0000000000
0.3844850000 0.0409940000 0.0000000000
0.4362020000 0.0362740000 0.0000000000
0.4899930000 0.0323320000 0.0000000000
0.5446210000 0.0291770000 0.0000000000
0.5986350000 0.0276000000 0.0000000000
0.6510910000 0.0268120000 0.0000000000
0.7009060000 0.0276000000 0.0000000000
0.7471330000 0.0291770000 0.0000000000
0.7891330000 0.0323320000 0.0000000000
0.8271880000 0.0370630000 0.0000000000
0.8617690000 0.0432640000 0.0000000000
0.8936800000 0.0523470000 0.0000000000
0.9224550000 0.0645210000 0.0000000000
0.9476750000 0.0805360000 0.0000000000
0.9680130000 0.1003090000 0.0000000000
0.9824370000 0.1246460000 0.0000000000
0.9917180000 0.1523120000 0.0000000000
0.9967200000 0.1826500000 0.0000000000
0.9988720000 0.2144320000 0.0000000000
0.9997050000 0.2460690000 0.0000000000
0.9998930000 0.2777090000 0.0007890000
0.0047310000 0.0934290000 0.0015770000
0.0181370000 0.0921680000 0.0015770000
0.0339090000 0.0896000000 0.0023660000
0.0523470000 0.0891650000 0.0015770000
0.0736490000 0.0882910000 0.0023660000
0.0987290000 0.0878510000 0.0015770000
0.1281180000 0.0878510000 0.0015770000
0.1641390000 0.0874090000 0.0007890000
0.2028400000 0.0860720000 0.0000000000
0.2445100000 0.0847170000 0.0000000000
0.2885310000 0.0805360000 0.0000000000
0.3356770000 0.0756690000 0.0000000000
0.3853980000 0.0700030000 0.0000000000
0.4370610000 0.0650850000 0.0000000000
0.4903310000 0.0598680000 0.0000000000
0.5442660000 0.0568200000 0.0000000000
0.5976900000 0.0542950000 0.0000000000
0.6498190000 0.0536510000 0.0000000000
0.6991920000 0.0549340000 0.0000000000
0.7451210000 0.0574390000 0.0000000000
0.7867450000 0.0622270000 0.0000000000
0.8244590000 0.0694700000 0.0000000000
0.8591510000 0.0781340000 0.0000000000
0.8906840000 0.0900320000 0.0000000000
0.9196430000 0.1045420000 0.0000000000
0.9450770000 0.1223870000 0.0000000000
0.9657970000 0.1431290000 0.0000000000
0.9811170000 0.1667810000 0.0000000000
0.9908220000 0.1925230000 0.0000000000
0.9962070000 0.2194440000 0.0000000000
0.9987380000 0.2466890000 0.0000000000
0.9996240000 0.2737620000 0.0000000000
0.9999730000 0.3006220000 0.0007890000
0.0007890000 0.1210780000 0.0007890000
0.0118290000 0.1200870000 0.0015770000
0.0252340000 0.1184180000 0.0015770000
0.0440050000 0.1170660000 0.0023660000
0.0673050000 0.1167260000 0.0015770000
0.0921680000 0.1167260000 0.0015770000
0.1210780000 0.1167260000 0.0015770000
0.1564430000 0.1190880000 0.0007890000
0.1979530000 0.1207480000 0.0000000000
0.2421520000 0.1200870000 0.0000000000
0.2878850000 0.1177440000 0.0000000000
0.3356770000 0.1136200000 0.0000000000
0.3856720000 0.1089870000 0.0000000000
0.4374510000 0.1037840000 0.0000000000
0.4904660000 0.0991260000 0.0000000000
0.5437920000 0.0954990000 0.0000000000
0.5966900000 0.0934290000 0.0000000000
0.6482120000 0.0930110000 0.0000000000
0.6970840000 0.0946760000 0.0000000000
0.7423490000 0.0987290000 0.0000000000
0.7839040000 0.1049190000 0.0000000000
0.8213010000 0.1136200000 0.0000000000
0.8555670000 0.1243260000 0.0000000000
0.8872360000 0.1374370000 0.0000000000
0.9162170000 0.1530950000 0.0000000000
0.9419470000 0.1712430000 0.0000000000
0.9632070000 0.1910880000 0.0000000000
0.9791610000 0.2124260000 0.0000000000
0.9897080000 0.2349130000 0.0000000000
0.9956950000 0.2577070000 0.0000000000
0.9984690000 0.2803940000 0.0000000000
0.9995170000 0.3029480000 0.0000000000
1.0000000000 0.3253530000 0.0007890000
0.0000000000 0.1561880000 0.0007890000
0.0070970000 0.1561880000 0.0007890000
0.0181370000 0.1541330000 0.0007890000
0.0354860000 0.1512610000 0.0007890000
0.0586620000 0.1502030000 0.0007890000
0.0856220000 0.1504680000 0.0007890000
0.1156990000 0.1523120000 0.0000000000
0.1512610000 0.1554210000 0.0000000000
0.1929310000 0.1592180000 0.0000000000
0.2391260000 0.1607110000 0.0000000000
0.2864570000 0.1599660000 0.0000000000
0.3353530000 0.1582150000 0.0000000000
0.3858540000 0.1551640000 0.0000000000
0.4376850000 0.1515250000 0.0000000000
0.4904660000 0.1477940000 0.0000000000
0.5435540000 0.1445170000 0.0000000000
0.5959000000 0.1428500000 0.0000000000
0.6465520000 0.1431290000 0.0000000000
0.6945790000 0.1453430000 0.0000000000
0.7393230000 0.1502030000 0.0000000000
0.7803810000 0.1572050000 0.0000000000
0.8174980000 0.1665430000 0.0000000000
0.8516640000 0.1778250000 0.0000000000
0.8830110000 0.1912930000 0.0000000000
0.9120770000 0.2062800000 0.0000000000
0.9382780000 0.2229480000 0.0000000000
0.9602120000 0.2405640000 0.0000000000
0.9770330000 0.2587350000 0.0000000000
0.9882370000 0.2773040000 0.0000000000
0.9948310000 0.2959060000 0.0000000000
0.9982000000 0.3145050000 0.0000000000
0.9994630000 0.3329690000 0.0000000000
1.0000000000 0.3515040000 0.0007890000
0.0000000000 0.1973580000 0.0000000000
0.0070970000 0.1969600000 0.0000000000
0.0173490000 0.1961620000 0.0000000000
0.0315430000 0.1943520000 0.0007890000
0.0530020000 0.1929310000 0.0000000000
0.0805360000 0.1929310000 0.0000000000
0.1125670000 0.1947550000 0.0000000000
0.1488690000 0.1973580000 0.0000000000
0.1898480000 0.2007060000 0.0000000000
0.2368680000 0.2039940000 0.0000000000
0.2852830000 0.2055210000 0.0000000000
0.3349210000 0.2060900000 0.0000000000
0.3859450000 0.2053310000 0.0000000000
0.4383080000 0.2038020000 0.0000000000
0.4910730000 0.2018730000 0.0000000000
0.5434950000 0.2001200000 0.0000000000
0.5950550000 0.1993350000 0.0000000000
0.6448390000 0.2001200000 0.0000000000
0.6921060000 0.2028400000 0.0000000000
0.7360400000 0.2077880000 0.0000000000
0.7763870000 0.2146130000 0.0000000000
0.8132130000 0.2236410000 0.0000000000
0.8469370000 0.2342570000 0.0000000000
0.8783130000 0.2463790000 0.0000000000
0.9074550000 0.2599040000 0.0000000000
0.9338270000 0.2740370000 0.0000000000
0.9564650000 0.2886600000 0.0000000000
0.9741780000 0.3035560000 0.0000000000
0.9864360000 0.3183230000 0.0000000000
0.9938580000 0.3332950000 0.0000000000
0.9976350000 0.3481190000 0.0000000000
0.9993020000 0.3632960000 0.0000000000
0.9999460000 0.3784860000 0.0007890000
0.0000000000 0.2389650000 0.0000000000
0.0063090000 0.2392860000 0.0000000000
0.0141940000 0.2392860000 0.0000000000
0.0276000000 0.2386440000 0.0000000000
0.0475960000 0.2381610000 0.0000000000
0.0746640000 0.2381610000 0.0000000000
0.1082580000 0.2392860000 0.0000000000
0.1464370000 0.2416770000 0.0000000000
0.1885990000 0.2445100000 0.0000000000
0.2350770000 0.2483850000 0.0000000000
0.2844960000 0.2520400000 0.0000000000
0.3348130000 0.2547430000 0.0000000000
0.3864900000 0.2565260000 0.0000000000
0.4390850000 0.2577070000 0.0000000000
0.4917470000 0.2581480000 0.0000000000
0.5439690000 0.2582950000 0.0000000000
0.5949490000 0.2587350000 0.0000000000
0.6436940000 0.2600500000 0.0000000000
0.6899270000 0.2626570000 0.0000000000
0.7330210000 0.2669380000 0.0000000000
0.7726300000 0.2729370000 0.0000000000
0.8087910000 0.2805270000 0.0000000000
0.8420730000 0.2895610000 0.0000000000
0.8731330000 0.2997600000 0.0000000000
0.9022800000 0.3108670000 0.0000000000
0.9289630000 0.3224280000 0.0000000000
0.9522690000 0.3341640000 0.0000000000
0.9708370000 0.3458400000 0.0000000000
0.9843020000 0.3575590000 0.0000000000
0.9925310000 0.3693100000 0.0000000000
0.9970970000 0.3812690000 0.0000000000
0.9990870000 0.3934980000 0.0000000000
0.9998390000 0.4059620000 0.0000000000
0.0000000000 0.2821230000 0.0000000000
0.0039430000 0.2831810000 0.0000000000
0.0110400000 0.2837080000 0.0000000000
0.0228690000 0.2837080000 0.0000000000
0.0409940000 0.2831810000 0.0000000000
0.0678520000 0.2831810000 0.0000000000
0.1018670000 0.2841030000 0.0000000000
0.1422900000 0.2863270000 0.0000000000
0.1869200000 0.2894330000 0.0000000000
0.2347490000 0.2937670000 0.0000000000
0.2844960000 0.2983990000 0.0000000000
0.3355690000 0.3029480000 0.0000000000
0.3876690000 0.3070580000 0.0000000000
0.4403240000 0.3105120000 0.0000000000
0.4930920000 0.3133370000 0.0000000000
0.5449760000 0.3155520000 0.0000000000
0.5953190000 0.3174030000 0.0000000000
0.6434070000 0.3193550000 0.0000000000
0.6886590000 0.3218610000 0.0000000000
0.7305930000 0.3250170000 0.0000000000
0.7691530000 0.3294630000 0.0000000000
0.8046600000 0.3352450000 0.0000000000
0.8374100000 0.3420720000 0.0000000000
0.8679120000 0.3499700000 0.0000000000
0.8968170000 0.3585560000 0.0000000000
0.9237670000 0.3675760000 0.0000000000
0.9475880000 0.3766160000 0.0000000000
0.9672280000 0.3856720000 0.0000000000
0.9816120000 0.3947400000 0.0000000000
0.9910390000 0.4039030000 0.0000000000
0.9962610000 0.4135700000 0.0000000000
0.9987110000 0.4233720000 0.0000000000
0.9999730000 0.4334530000 0.0000000000
0.0000000000 0.3263590000 0.0000000000
0.0031540000 0.3282480000 0.0000000000
0.0078860000 0.3294630000 0.0000000000
0.0181370000 0.3295730000 0.0000000000
0.0346970000 0.3292430000 0.0000000000
0.0610560000 0.3289110000 0.0000000000
0.0954990000 0.3293530000 0.0000000000
0.1374370000 0.3312220000 0.0000000000
0.1845850000 0.3344890000 0.0000000000
0.2342570000 0.3387860000 0.0000000000
0.2852830000 0.3440670000 0.0000000000
0.3370750000 0.3498680000 0.0000000000
0.3894740000 0.3555550000 0.0000000000
0.4423290000 0.3610350000 0.0000000000
0.4948330000 0.3661240000 0.0000000000
0.5465100000 0.3702690000 0.0000000000
0.5962160000 0.3736010000 0.0000000000
0.6435980000 0.3762410000 0.0000000000
0.6878700000 0.3785790000 0.0000000000
0.7288070000 0.3809000000 0.0000000000
0.7666070000 0.3838450000 0.0000000000
0.8010760000 0.3873970000 0.0000000000
0.8330200000 0.3918940000 0.0000000000
0.8630740000 0.3972960000 0.0000000000
0.8915590000 0.4033860000 0.0000000000
0.9182320000 0.4098720000 0.0000000000
0.9426150000 0.4165650000 0.0000000000
0.9629820000 0.4232910000 0.0000000000
0.9786640000 0.4302840000 0.0000000000
0.9891630000 0.4372170000 0.0000000000
0.9952090000 0.4447050000 0.0000000000
0.9983620000 0.4524870000 0.0000000000
1.0000000000 0.4606900000 0.0000000000
0.0000000000 0.3715110000 0.0000000000
0.0015770000 0.3740740000 0.0000000000
0.0055200000 0.3759590000 0.0000000000
0.0141940000 0.3762410000 0.0000000000
0.0299660000 0.3758650000 0.0000000000
0.0549340000 0.3750180000 0.0000000000
0.0896000000 0.3751120000 0.0000000000
0.1333080000 0.3765220000 0.0000000000
0.1826500000 0.3793230000 0.0000000000
0.2345850000 0.3837530000 0.0000000000
0.2872370000 0.3891140000 0.0000000000
0.3396380000 0.3953590000 0.0000000000
0.3923410000 0.4021770000 0.0000000000
0.4448570000 0.4089410000 0.0000000000
0.4970980000 0.4154040000 0.0000000000
0.5483330000 0.4213360000 0.0000000000
0.5975320000 0.4260410000 0.0000000000
0.6441710000 0.4297270000 0.0000000000
0.6878700000 0.4322680000 0.0000000000
0.7280740000 0.4340830000 0.0000000000
0.7648530000 0.4355750000 0.0000000000
0.7985180000 0.4374510000 0.0000000000
0.8295620000 0.4397050000 0.0000000000
0.8587900000 0.4427130000 0.0000000000
0.8866380000 0.4463050000 0.0000000000
0.9132280000 0.4503880000 0.0000000000
0.9376940000 0.4547960000 0.0000000000
0.9588800000 0.4593720000 0.0000000000
0.9753710000 0.4641820000 0.0000000000
0.9870640000 0.4693580000 0.0000000000
0.9941010000 0.4749570000 0.0000000000
0.9977970000 0.4810280000 0.0000000000
1.0000000000 0.4874140000 0.0000000000
0.0000000000 0.4170620000 0.0000000000
0.0015770000 0.4202730000 0.0000000000
0.0039430000 0.4224780000 0.0000000000
0.0110400000 0.4230470000 0.0000000000
0.0260230000 0.4224780000 0.0000000000
0.0503480000 0.4214990000 0.0000000000
0.0856220000 0.4209270000 0.0000000000
0.1311960000 0.4217440000 0.0000000000
0.1826500000 0.4241830000 0.0000000000
0.2367060000 0.4279690000 0.0000000000
0.2907150000 0.4332950000 0.0000000000
0.3438580000 0.4393950000 0.0000000000
0.3965050000 0.4465330000 0.0000000000
0.4485030000 0.4539040000 0.0000000000
0.4999440000 0.4612740000 0.0000000000
0.5503810000 0.4682860000 0.0000000000
0.5990020000 0.4741820000 0.0000000000
0.6451720000 0.4788760000 0.0000000000
0.6881770000 0.4819270000 0.0000000000
0.7277480000 0.4837190000 0.0007890000
0.7638970000 0.4847490000 0.0007890000
0.7967470000 0.4852280000 0.0007890000
0.8270160000 0.4857760000 0.0007890000
0.8553360000 0.4866640000 0.0007890000
0.8823780000 0.4878900000 0.0007890000
0.9085220000 0.4896540000 0.0007890000
0.9329450000 0.4917470000 0.0000000000
0.9545840000 0.4942980000 0.0000000000
0.9720640000 0.4972310000 0.0000000000
0.9847400000 0.5004710000 0.0000000000
0.9927750000 0.5044040000 0.0000000000
0.9972850000 0.5087490000 0.0000000000
1.0000000000 0.5136230000 0.0015770000
0.0000000000 0.4622220000 0.0000000000
0.0007890000 0.4659870000 0.0000000000
0.0031540000 0.4684290000 0.0000000000
0.0102510000 0.4692150000 0.0000000000
0.0236570000 0.4685720000 0.0000000000
0.0482940000 0.4672100000 0.0000000000
0.0847170000 0.4662030000 0.0000000000
0.1314990000 0.4663470000 0.0000000000
0.1852250000 0.4679270000 0.0000000000
0.2412010000 0.4712810000 0.0000000000
0.2965310000 0.4760110000 0.0000000000
0.3500730000 0.4819270000 0.0000000000
0.4020910000 0.4887050000 0.0000000000
0.4532330000 0.4960340000 0.0000000000
0.5036200000 0.5036200000 0.0000000000
0.5528850000 0.5109370000 0.0000000000
0.6005710000 0.5175560000 0.0000000000
0.6460770000 0.5230740000 0.0007890000
0.6885270000 0.5269800000 0.0007890000
0.7277890000 0.5293180000 0.0015770000
0.7634380000 0.5302980000 0.0023660000
0.7958050000 0.5302980000 0.0031540000
0.8251860000 0.5296240000 0.0031540000
0.8527250000 0.5289490000 0.0031540000
0.8790460000 0.5283960000 0.0023660000
0.9043980000 0.5280270000 0.0015770000
0.9286080000 0.5280270000 0.0015770000
0.9504350000 0.5284580000 0.0007890000
0.9687130000 0.5293790000 0.0007890000
0.9823270000 0.5309710000 0.0000000000
0.9913650000 0.5331650000 0.0000000000
0.9965850000 0.5360130000 0.0000000000
1.0000000000 0.5392020000 0.0007890000
0.0000000000 0.5062900000 0.0000000000
0.0007890000 0.5101660000 0.0000000000
0.0031540000 0.5127930000 0.0000000000
0.0102510000 0.5136870000 0.0000000000
0.0244460000 0.5129850000 0.0000000000
0.0496690000 0.5113860000 0.0000000000
0.0874090000 0.5098450000 0.0000000000
0.1362700000 0.5093300000 0.0000000000
0.1917040000 0.5102300000 0.0000000000
0.2489990000 0.5127930000 0.0000000000
0.3048900000 0.5167980000 0.0000000000
0.3583570000 0.5220760000 0.0000000000
0.4095340000 0.5282730000 0.0000000000
0.4593720000 0.5351060000 0.0000000000
0.5082330000 0.5423070000 0.0000000000
0.5560660000 0.5495630000 0.0007890000
0.6025000000 0.5564120000 0.0007890000
0.6469320000 0.5624740000 0.0015770000
0.6888340000 0.5669940000 0.0031540000
0.7276670000 0.5701310000 0.0055200000
0.7630170000 0.5717470000 0.0070970000
0.7948970000 0.5717470000 0.0086740000
0.8238360000 0.5708560000 0.0094630000
0.8506680000 0.5692930000 0.0086740000
0.8761440000 0.5673310000 0.0078860000
0.9008640000 0.5653040000 0.0063090000
0.9246910000 0.5635510000 0.0047310000
0.9465790000 0.5620760000 0.0031540000
0.9653190000 0.5612220000 0.0023660000
0.9798780000 0.5610510000 0.0015770000
0.9898160000 0.5615640000 0.0015770000
0.9959650000 0.5628710000 0.0007890000
1.0000000000 0.5645140000 0.0007890000
0.0000000000 0.5484500000 0.0000000000
0.0015770000 0.5521880000 0.0000000000
0.0047310000 0.5547960000 0.0000000000
0.0118290000 0.5556630000 0.0000000000
0.0276000000 0.5548540000 0.0000000000
0.0549340000 0.5530590000 0.0000000000
0.0950880000 0.5512560000 0.0000000000
0.1458910000 0.5501480000 0.0000000000
0.2028400000 0.5503230000 0.0000000000
0.2606320000 0.5520130000 0.0000000000
0.3163630000 0.5552590000 0.0000000000
0.3688290000 0.5596820000 0.0000000000
0.4187120000 0.5650220000 0.0007890000
0.4669230000 0.5712460000 0.0007890000
0.5139420000 0.5777690000 0.0015770000
0.5600250000 0.5844700000 0.0023660000
0.6048860000 0.5910210000 0.0031540000
0.6480700000 0.5971640000 0.0055200000
0.6890960000 0.6022920000 0.0086740000
0.7272590000 0.6061780000 0.0126170000
0.7624040000 0.6085460000 0.0165600000
0.7939160000 0.6091620000 0.0205030000
0.8225180000 0.6085980000 0.0220800000
0.8487390000 0.6067460000 0.0220800000
0.8735830000 0.6041610000 0.0205030000
0.8977150000 0.6011970000 0.0173490000
0.9210500000 0.5981100000 0.0141940000
0.9429920000 0.5952130000 0.0110400000
0.9621070000 0.5927770000 0.0086740000
0.9773650000 0.5910210000 0.0063090000
0.9881010000 0.5899530000 0.0047310000
0.9952090000 0.5896320000 0.0039430000
1.0000000000 0.5897390000 0.0023660000
0.0007890000 0.5878640000 0.0000000000
0.0031540000 0.5913940000 0.0000000000
0.0078860000 0.5937320000 0.0000000000
0.0173490000 0.5945260000 0.0000000000
0.0362740000 0.5937850000 0.0000000000
0.0667560000 0.5920320000 0.0000000000
0.1093500000 0.5899000000 0.0000000000
0.1619440000 0.5882940000 0.0007890000
0.2190910000 0.5878640000 0.0007890000
0.2763560000 0.5886150000 0.0007890000
0.3307830000 0.5909670000 0.0007890000
0.3817310000 0.5946320000 0.0015770000
0.4298060000 0.5992110000 0.0023660000
0.4759400000 0.6044200000 0.0031540000
0.5210130000 0.6101870000 0.0039430000
0.5649660000 0.6161870000 0.0063090000
0.6078780000 0.6221640000 0.0094630000
0.6495830000 0.6281170000 0.0134060000
0.6893150000 0.6333640000 0.0189260000
0.7268100000 0.6376860000 0.0260230000
0.7612140000 0.6407230000 0.0339090000
0.7925330000 0.6423060000 0.0402170000
0.8207790000 0.6423060000 0.0447380000
0.8466030000 0.6409630000 0.0454630000
0.8708820000 0.6384110000 0.0432640000
0.8944890000 0.6350680000 0.0386400000
0.9175110000 0.6313600000 0.0331200000
0.9392990000 0.6275250000 0.0276000000
0.9588240000 0.6239570000 0.0220800000
0.9747330000 0.6209140000 0.0181370000
0.9864360000 0.6185060000 0.0141940000
0.9943440000 0.6166920000 0.0110400000
1.0000000000 0.6152260000 0.0070970000
0.0031540000 0.6246030000 0.0007890000
0.0078860000 0.6275740000 0.0007890000
0.0149830000 0.6294950000 0.0007890000
0.0283890000 0.6303300000 0.0015770000
0.0510200000 0.6294950000 0.0015770000
0.0856220000 0.6276730000 0.0015770000
0.1305860000 0.6254960000 0.0015770000
0.1839420000 0.6235590000 0.0023660000
0.2404050000 0.6225630000 0.0023660000
0.2960310000 0.6226630000 0.0031540000
0.3482220000 0.6241560000 0.0039430000
0.3966810000 0.6268820000 0.0047310000
0.4424830000 0.6306250000 0.0063090000
0.4864590000 0.6350680000 0.0086740000
0.5292560000 0.6399530000 0.0110400000
0.5710790000 0.6451250000 0.0149830000
0.6119740000 0.6505730000 0.0205030000
0.6517970000 0.6559630000 0.0276000000
0.6900580000 0.6610660000 0.0370630000
