bundles/resolve-cinematic-luts/Gamut/Cascade/05 B&W-.cube
TITLE "Cascade B&W- by Gamut.io "
# Cascade North- by Gamut.io Copyright 2020 Gamut.io
LUT_3D_SIZE 5
0.0000000000 0.0000000000 0.0000000000
0.0721820000 0.0721820000 0.0721820000
0.2498740000 0.2498740000 0.2498740000
0.3995960000 0.3995960000 0.3995960000
0.5630870000 0.5630870000 0.5630870000
0.2767780000 0.2767780000 0.2767780000
0.2985780000 0.2985780000 0.2985780000
0.3739790000 0.3739790000 0.3739790000
0.4617120000 0.4617120000 0.4617120000
0.6029480000 0.6029480000 0.6029480000
0.4915290000 0.4915290000 0.4915290000
0.5023820000 0.5023820000 0.5023820000
0.5294880000 0.5294880000 0.5294880000
0.5979080000 0.5979080000 0.5979080000
0.6928320000 0.6928320000 0.6928320000
0.6744430000 0.6744430000 0.6744430000
0.6808610000 0.6808610000 0.6808610000
0.6952620000 0.6952620000 0.6952620000
0.7198770000 0.7198770000 0.7198770000
0.7993330000 0.7993330000 0.7993330000
0.8701450000 0.8701450000 0.8701450000
0.8705550000 0.8705550000 0.8705550000
0.8854770000 0.8854770000 0.8854770000
0.9128920000 0.9128920000 0.9128920000
0.9546540000 0.9546540000 0.9546540000
0.0412960000 0.0412960000 0.0412960000
0.0964260000 0.0964260000 0.0964260000
0.2915130000 0.2915130000 0.2915130000
0.4234300000 0.4234300000 0.4234300000
0.5651580000 0.5651580000 0.5651580000
0.2568670000 0.2568670000 0.2568670000
0.3119780000 0.3119780000 0.3119780000
0.3833890000 0.3833890000 0.3833890000
0.4721200000 0.4721200000 0.4721200000
0.6063280000 0.6063280000 0.6063280000
0.4979120000 0.4979120000 0.4979120000
0.5080310000 0.5080310000 0.5080310000
0.5313950000 0.5313950000 0.5313950000
0.5978630000 0.5978630000 0.5978630000
0.6937270000 0.6937270000 0.6937270000
0.6799090000 0.6799090000 0.6799090000
0.6857020000 0.6857020000 0.6857020000
0.6981460000 0.6981460000 0.6981460000
0.7217470000 0.7217470000 0.7217470000
0.8002100000 0.8002100000 0.8002100000
0.8726400000 0.8726400000 0.8726400000
0.8738830000 0.8738830000 0.8738830000
0.8878170000 0.8878170000 0.8878170000
0.9145800000 0.9145800000 0.9145800000
0.9560800000 0.9560800000 0.9560800000
0.1666570000 0.1666570000 0.1666570000
0.2114160000 0.2114160000 0.2114160000
0.2977870000 0.2977870000 0.2977870000
0.4351290000 0.4351290000 0.4351290000
0.5772510000 0.5772510000 0.5772510000
0.3417150000 0.3417150000 0.3417150000
0.3589520000 0.3589520000 0.3589520000
0.3887190000 0.3887190000 0.3887190000
0.4874510000 0.4874510000 0.4874510000
0.6148030000 0.6148030000 0.6148030000
0.4727830000 0.4727830000 0.4727830000
0.4944660000 0.4944660000 0.4944660000
0.5465340000 0.5465340000 0.5465340000
0.6049560000 0.6049560000 0.6049560000
0.6944650000 0.6944650000 0.6944650000
0.6859620000 0.6859620000 0.6859620000
0.6936660000 0.6936660000 0.6936660000
0.7064920000 0.7064920000 0.7064920000
0.7300360000 0.7300360000 0.7300360000
0.8046620000 0.8046620000 0.8046620000
0.8778090000 0.8778090000 0.8778090000
0.8798250000 0.8798250000 0.8798250000
0.8926190000 0.8926190000 0.8926190000
0.9190040000 0.9190040000 0.9190040000
0.9614380000 0.9614380000 0.9614380000
0.3329010000 0.3329010000 0.3329010000
0.3502800000 0.3502800000 0.3502800000
0.3869570000 0.3869570000 0.3869570000
0.4511410000 0.4511410000 0.4511410000
0.5830060000 0.5830060000 0.5830060000
0.4162850000 0.4162850000 0.4162850000
0.4224470000 0.4224470000 0.4224470000
0.4510600000 0.4510600000 0.4510600000
0.5001890000 0.5001890000 0.5001890000
0.6208540000 0.6208540000 0.6208540000
0.5124970000 0.5124970000 0.5124970000
0.5411130000 0.5411130000 0.5411130000
0.5856180000 0.5856180000 0.5856180000
0.6135470000 0.6135470000 0.6135470000
0.6998000000 0.6998000000 0.6998000000
0.6668120000 0.6668120000 0.6668120000
0.6765090000 0.6765090000 0.6765090000
0.7000100000 0.7000100000 0.7000100000
0.7456860000 0.7456860000 0.7456860000
0.8039200000 0.8039200000 0.8039200000
0.8794030000 0.8794030000 0.8794030000
0.8829630000 0.8829630000 0.8829630000
0.8996770000 0.8996770000 0.8996770000
0.9274720000 0.9274720000 0.9274720000
0.9722630000 0.9722630000 0.9722630000
0.5264560000 0.5264560000 0.5264560000
0.5337230000 0.5337230000 0.5337230000
0.5584810000 0.5584810000 0.5584810000
0.6019010000 0.6019010000 0.6019010000
0.6609440000 0.6609440000 0.6609440000
0.5735140000 0.5735140000 0.5735140000
0.5794930000 0.5794930000 0.5794930000
0.5994030000 0.5994030000 0.5994030000
0.6342960000 0.6342960000 0.6342960000
0.6837030000 0.6837030000 0.6837030000
0.6631980000 0.6631980000 0.6631980000
0.6699520000 0.6699520000 0.6699520000
0.6821740000 0.6821740000 0.6821740000
0.7010870000 0.7010870000 0.7010870000
0.7346210000 0.7346210000 0.7346210000
0.7354620000 0.7354620000 0.7354620000
0.7385710000 0.7385710000 0.7385710000
0.7492690000 0.7492690000 0.7492690000
0.7941940000 0.7941940000 0.7941940000
0.8235490000 0.8235490000 0.8235490000
0.8894330000 0.8894330000 0.8894330000
0.8926800000 0.8926800000 0.8926800000
0.9045450000 0.9045450000 0.9045450000
0.9305450000 0.9305450000 0.9305450000
0.9999690000 0.9999690000 0.9999690000
