bundles/resolve-cinematic-luts/Gamut/Cascade/05 B&W.cube
TITLE "Cascade B&W by Gamut.io"
# Cascade North- by Gamut.io Copyright 2020 Gamut.io
LUT_3D_SIZE 33
0.0000000000 0.0000000000 0.0000000000
0.0000010000 0.0000000000 0.0000000000
0.0043640000 0.0043620000 0.0043620000
0.0114560000 0.0114530000 0.0114530000
0.0123620000 0.0123580000 0.0123580000
0.0138830000 0.0138790000 0.0138790000
0.0157180000 0.0157130000 0.0157130000
0.0177710000 0.0177640000 0.0177640000
0.0203430000 0.0203360000 0.0203360000
0.0244630000 0.0244540000 0.0244540000
0.0300970000 0.0300880000 0.0300880000
0.0425410000 0.0425300000 0.0425300000
0.0592340000 0.0592230000 0.0592230000
0.0779380000 0.0779250000 0.0779250000
0.1047770000 0.1047630000 0.1047630000
0.1398380000 0.1398230000 0.1398230000
0.1762030000 0.1761880000 0.1761880000
0.2090740000 0.2090580000 0.2090580000
0.2360650000 0.2360480000 0.2360480000
0.2585480000 0.2585300000 0.2585300000
0.2769390000 0.2769200000 0.2769200000
0.2932350000 0.2932150000 0.2932150000
0.3079880000 0.3079670000 0.3079670000
0.3224530000 0.3224310000 0.3224310000
0.3376730000 0.3376510000 0.3376510000
0.3535690000 0.3535450000 0.3535450000
0.3708180000 0.3707940000 0.3707940000
0.3899870000 0.3899620000 0.3899620000
0.4110510000 0.4110250000 0.4110250000
0.4343710000 0.4343430000 0.4343430000
0.4597690000 0.4597400000 0.4597400000
0.4878450000 0.4878150000 0.4878150000
0.5148830000 0.5148520000 0.5148520000
0.0029060000 0.0029070000 0.0029060000
0.0081760000 0.0081760000 0.0081750000
0.0123600000 0.0123590000 0.0123580000
0.0138810000 0.0138790000 0.0138790000
0.0148030000 0.0148000000 0.0147990000
0.0168960000 0.0168930000 0.0168920000
0.0194920000 0.0194870000 0.0194860000
0.0233840000 0.0233780000 0.0233780000
0.0286070000 0.0286010000 0.0286000000
0.0359140000 0.0359070000 0.0359060000
0.0462140000 0.0462050000 0.0462040000
0.0596480000 0.0596380000 0.0596370000
0.0754930000 0.0754830000 0.0754820000
0.0972230000 0.0972120000 0.0972110000
0.1297320000 0.1297190000 0.1297180000
0.1657590000 0.1657450000 0.1657440000
0.2014330000 0.2014190000 0.2014180000
0.2306990000 0.2306840000 0.2306830000
0.2544550000 0.2544380000 0.2544380000
0.2735950000 0.2735780000 0.2735770000
0.2893820000 0.2893630000 0.2893620000
0.3037610000 0.3037420000 0.3037410000
0.3168510000 0.3168310000 0.3168300000
0.3300910000 0.3300700000 0.3300690000
0.3442560000 0.3442340000 0.3442330000
0.3596540000 0.3596310000 0.3596300000
0.3766620000 0.3766390000 0.3766380000
0.3958460000 0.3958210000 0.3958200000
0.4167580000 0.4167320000 0.4167310000
0.4397600000 0.4397340000 0.4397330000
0.4649670000 0.4649390000 0.4649380000
0.4930520000 0.4930240000 0.4930230000
0.5213380000 0.5213080000 0.5213070000
0.0168920000 0.0168940000 0.0168920000
0.0180540000 0.0180550000 0.0180530000
0.0203380000 0.0203380000 0.0203360000
0.0225620000 0.0225610000 0.0225600000
0.0255190000 0.0255170000 0.0255150000
0.0281010000 0.0280980000 0.0280960000
0.0317840000 0.0317800000 0.0317790000
0.0363520000 0.0363470000 0.0363450000
0.0429680000 0.0429630000 0.0429610000
0.0509700000 0.0509630000 0.0509610000
0.0612930000 0.0612860000 0.0612840000
0.0737020000 0.0736940000 0.0736920000
0.0906430000 0.0906340000 0.0906320000
0.1192640000 0.1192530000 0.1192510000
0.1513890000 0.1513780000 0.1513760000
0.1875900000 0.1875780000 0.1875760000
0.2203810000 0.2203680000 0.2203660000
0.2468610000 0.2468470000 0.2468450000
0.2677920000 0.2677770000 0.2677750000
0.2841950000 0.2841790000 0.2841770000
0.2983210000 0.2983030000 0.2983010000
0.3111250000 0.3111070000 0.3111050000
0.3232250000 0.3232060000 0.3232040000
0.3355760000 0.3355560000 0.3355540000
0.3489300000 0.3489090000 0.3489070000
0.3641050000 0.3640830000 0.3640810000
0.3810360000 0.3810130000 0.3810110000
0.3997530000 0.3997290000 0.3997270000
0.4203670000 0.4203420000 0.4203400000
0.4428560000 0.4428310000 0.4428290000
0.4672150000 0.4671880000 0.4671860000
0.4936590000 0.4936310000 0.4936290000
0.5219970000 0.5219680000 0.5219670000
0.0244540000 0.0244570000 0.0244540000
0.0270760000 0.0270780000 0.0270760000
0.0303340000 0.0303350000 0.0303320000
0.0336540000 0.0336540000 0.0336520000
0.0370010000 0.0370000000 0.0369970000
0.0436120000 0.0436110000 0.0436080000
0.0477260000 0.0477230000 0.0477210000
0.0526860000 0.0526820000 0.0526800000
0.0586070000 0.0586020000 0.0586000000
0.0657220000 0.0657160000 0.0657130000
0.0748910000 0.0748840000 0.0748820000
0.0881830000 0.0881750000 0.0881720000
0.1116650000 0.1116560000 0.1116530000
0.1401500000 0.1401410000 0.1401380000
0.1738310000 0.1738200000 0.1738180000
0.2077230000 0.2077120000 0.2077090000
0.2375040000 0.2374920000 0.2374890000
0.2606550000 0.2606420000 0.2606390000
0.2789320000 0.2789170000 0.2789140000
0.2940190000 0.2940040000 0.2940010000
0.3070140000 0.3069970000 0.3069940000
0.3188170000 0.3188000000 0.3187970000
0.3303410000 0.3303230000 0.3303200000
0.3424370000 0.3424180000 0.3424150000
0.3559520000 0.3559320000 0.3559290000
0.3714960000 0.3714750000 0.3714720000
0.3885420000 0.3885200000 0.3885170000
0.4075880000 0.4075650000 0.4075620000
0.4285820000 0.4285590000 0.4285560000
0.4514960000 0.4514710000 0.4514680000
0.4765340000 0.4765080000 0.4765050000
0.5035220000 0.5034950000 0.5034930000
0.5313340000 0.5313060000 0.5313030000
0.0354620000 0.0354660000 0.0354620000
0.0397520000 0.0397550000 0.0397510000
0.0433940000 0.0433960000 0.0433920000
0.0464240000 0.0464250000 0.0464210000
0.0496710000 0.0496710000 0.0496670000
0.0575600000 0.0575590000 0.0575550000
0.0629170000 0.0629150000 0.0629120000
0.0667050000 0.0667020000 0.0666980000
0.0717430000 0.0717390000 0.0717350000
0.0783490000 0.0783440000 0.0783400000
0.0881820000 0.0881760000 0.0881720000
0.1060040000 0.1059980000 0.1059940000
0.1297300000 0.1297220000 0.1297180000
0.1590800000 0.1590720000 0.1590680000
0.1918860000 0.1918760000 0.1918730000
0.2234410000 0.2234310000 0.2234270000
0.2506990000 0.2506880000 0.2506840000
0.2715000000 0.2714870000 0.2714840000
0.2880650000 0.2880510000 0.2880480000
0.3017320000 0.3017170000 0.3017130000
0.3138030000 0.3137880000 0.3137840000
0.3248910000 0.3248750000 0.3248710000
0.3358230000 0.3358050000 0.3358020000
0.3475050000 0.3474860000 0.3474830000
0.3606560000 0.3606370000 0.3606330000
0.3760800000 0.3760600000 0.3760560000
0.3931030000 0.3930820000 0.3930780000
0.4119690000 0.4119470000 0.4119430000
0.4328480000 0.4328260000 0.4328220000
0.4554440000 0.4554200000 0.4554160000
0.4803860000 0.4803610000 0.4803570000
0.5072130000 0.5071870000 0.5071830000
0.5348710000 0.5348440000 0.5348400000
0.0539620000 0.0539660000 0.0539620000
0.0583920000 0.0583960000 0.0583910000
0.0616940000 0.0616970000 0.0616920000
0.0645230000 0.0645250000 0.0645200000
0.0670940000 0.0670950000 0.0670900000
0.0707710000 0.0707710000 0.0707660000
0.0777250000 0.0777240000 0.0777190000
0.0869840000 0.0869820000 0.0869770000
0.0924180000 0.0924150000 0.0924100000
0.1020720000 0.1020680000 0.1020630000
0.1160910000 0.1160860000 0.1160820000
0.1341590000 0.1341530000 0.1341490000
0.1584680000 0.1584610000 0.1584570000
0.1873000000 0.1872920000 0.1872870000
0.2172780000 0.2172690000 0.2172640000
0.2447930000 0.2447830000 0.2447790000
0.2677900000 0.2677790000 0.2677750000
0.2853860000 0.2853740000 0.2853700000
0.2996660000 0.2996540000 0.2996490000
0.3119300000 0.3119170000 0.3119120000
0.3227080000 0.3226940000 0.3226890000
0.3329670000 0.3329520000 0.3329470000
0.3432850000 0.3432690000 0.3432640000
0.3545930000 0.3545750000 0.3545710000
0.3674470000 0.3674290000 0.3674240000
0.3828480000 0.3828290000 0.3828240000
0.3997520000 0.3997320000 0.3997270000
0.4185660000 0.4185450000 0.4185400000
0.4392230000 0.4392020000 0.4391970000
0.4618120000 0.4617900000 0.4617850000
0.4864010000 0.4863770000 0.4863720000
0.5133000000 0.5132750000 0.5132700000
0.5409050000 0.5408790000 0.5408740000
0.0752810000 0.0752870000 0.0752810000
0.0796000000 0.0796040000 0.0795990000
0.0821880000 0.0821920000 0.0821860000
0.0844260000 0.0844290000 0.0844230000
0.0872180000 0.0872200000 0.0872140000
0.0913930000 0.0913940000 0.0913880000
0.0977710000 0.0977710000 0.0977650000
0.1107130000 0.1107120000 0.1107060000
0.1294090000 0.1294070000 0.1294020000
0.1392030000 0.1392000000 0.1391940000
0.1523140000 0.1523100000 0.1523040000
0.1708510000 0.1708460000 0.1708400000
0.1944380000 0.1944320000 0.1944260000
0.2198640000 0.2198580000 0.2198520000
0.2447920000 0.2447840000 0.2447790000
0.2671930000 0.2671840000 0.2671780000
0.2855540000 0.2855450000 0.2855390000
0.3004070000 0.3003960000 0.3003910000
0.3125990000 0.3125880000 0.3125820000
0.3232220000 0.3232100000 0.3232040000
0.3329670000 0.3329530000 0.3329470000
0.3424350000 0.3424210000 0.3424150000
0.3520750000 0.3520600000 0.3520540000
0.3631020000 0.3630860000 0.3630800000
0.3758470000 0.3758300000 0.3758240000
0.3911860000 0.3911680000 0.3911620000
0.4080500000 0.4080310000 0.4080250000
0.4268190000 0.4267990000 0.4267930000
0.4473010000 0.4472800000 0.4472750000
0.4698900000 0.4698680000 0.4698620000
0.4942630000 0.4942400000 0.4942350000
0.5210880000 0.5210650000 0.5210590000
0.5492720000 0.5492470000 0.5492410000
0.1041550000 0.1041620000 0.1041550000
0.1119700000 0.1119760000 0.1119690000
0.1151330000 0.1151380000 0.1151310000
0.1186200000 0.1186240000 0.1186170000
0.1217930000 0.1217960000 0.1217890000
0.1271870000 0.1271890000 0.1271830000
0.1344700000 0.1344710000 0.1344650000
0.1429690000 0.1429690000 0.1429620000
0.1553970000 0.1553960000 0.1553890000
0.1841120000 0.1841100000 0.1841030000
0.1958460000 0.1958430000 0.1958370000
0.2122780000 0.2122740000 0.2122670000
0.2311870000 0.2311830000 0.2311760000
0.2511420000 0.2511360000 0.2511300000
0.2709190000 0.2709120000 0.2709060000
0.2882270000 0.2882200000 0.2882130000
0.3031800000 0.3031720000 0.3031650000
0.3153940000 0.3153840000 0.3153780000
0.3259100000 0.3258990000 0.3258920000
0.3352010000 0.3351900000 0.3351830000
0.3440100000 0.3439980000 0.3439910000
0.3527640000 0.3527510000 0.3527440000
0.3621010000 0.3620860000 0.3620800000
0.3728580000 0.3728430000 0.3728360000
0.3857610000 0.3857450000 0.3857380000
0.4006940000 0.4006770000 0.4006700000
0.4176610000 0.4176430000 0.4176370000
0.4364250000 0.4364060000 0.4363990000
0.4567850000 0.4567650000 0.4567590000
0.4790320000 0.4790110000 0.4790040000
0.5030410000 0.5030190000 0.5030120000
0.5295660000 0.5295440000 0.5295370000
0.5579610000 0.5579370000 0.5579310000
0.1556970000 0.1557040000 0.1556970000
0.1587630000 0.1587700000 0.1587620000
0.1621160000 0.1621220000 0.1621140000
0.1657470000 0.1657520000 0.1657440000
0.1693500000 0.1693540000 0.1693460000
0.1750090000 0.1750120000 0.1750040000
0.1814860000 0.1814880000 0.1814800000
0.1898800000 0.1898810000 0.1898740000
0.1986470000 0.1986470000 0.1986400000
0.2104090000 0.2104080000 0.2104000000
0.2405870000 0.2405860000 0.2405780000
0.2526920000 0.2526890000 0.2526820000
0.2665910000 0.2665870000 0.2665790000
0.2808860000 0.2808810000 0.2808730000
0.2957240000 0.2957180000 0.2957100000
0.3093560000 0.3093490000 0.3093420000
0.3215430000 0.3215350000 0.3215270000
0.3315900000 0.3315820000 0.3315740000
0.3408510000 0.3408410000 0.3408340000
0.3492780000 0.3492680000 0.3492600000
0.3574120000 0.3574000000 0.3573920000
0.3657700000 0.3657580000 0.3657500000
0.3752670000 0.3752530000 0.3752460000
0.3860020000 0.3859880000 0.3859800000
0.3991600000 0.3991450000 0.3991370000
0.4144820000 0.4144660000 0.4144590000
0.4314290000 0.4314120000 0.4314040000
0.4500300000 0.4500120000 0.4500050000
0.4704060000 0.4703870000 0.4703790000
0.4921380000 0.4921180000 0.4921100000
0.5156640000 0.5156430000 0.5156350000
0.5406900000 0.5406680000 0.5406600000
0.5678300000 0.5678070000 0.5677990000
0.2030730000 0.2030810000 0.2030730000
0.2162220000 0.2162300000 0.2162210000
0.2185640000 0.2185700000 0.2185620000
0.2203690000 0.2203750000 0.2203660000
0.2229230000 0.2229280000 0.2229190000
0.2269600000 0.2269640000 0.2269550000
0.2314280000 0.2314300000 0.2314220000
0.2370160000 0.2370180000 0.2370090000
0.2440920000 0.2440930000 0.2440850000
0.2520270000 0.2520270000 0.2520180000
0.2627270000 0.2627260000 0.2627170000
0.2873950000 0.2873930000 0.2873840000
0.2964900000 0.2964870000 0.2964790000
0.3071460000 0.3071420000 0.3071340000
0.3180250000 0.3180200000 0.3180120000
0.3289500000 0.3289440000 0.3289350000
0.3392610000 0.3392540000 0.3392450000
0.3482130000 0.3482050000 0.3481970000
0.3565100000 0.3565020000 0.3564930000
0.3643220000 0.3643120000 0.3643030000
0.3721720000 0.3721620000 0.3721530000
0.3806710000 0.3806600000 0.3806510000
0.3902230000 0.3902100000 0.3902020000
0.4009270000 0.4009140000 0.4009050000
0.4137970000 0.4137830000 0.4137740000
0.4290190000 0.4290040000 0.4289950000
0.4455050000 0.4454890000 0.4454800000
0.4639480000 0.4639310000 0.4639220000
0.4840200000 0.4840020000 0.4839930000
0.5053310000 0.5053120000 0.5053030000
0.5285560000 0.5285360000 0.5285280000
0.5529340000 0.5529130000 0.5529040000
0.5803360000 0.5803140000 0.5803050000
0.2546560000 0.2546650000 0.2546560000
0.2659780000 0.2659870000 0.2659770000
0.2673790000 0.2673870000 0.2673770000
0.2685680000 0.2685750000 0.2685650000
0.2697450000 0.2697510000 0.2697410000
0.2718720000 0.2718770000 0.2718670000
0.2750810000 0.2750850000 0.2750750000
0.2791010000 0.2791040000 0.2790940000
0.2836700000 0.2836720000 0.2836620000
0.2890440000 0.2890450000 0.2890350000
0.2955660000 0.2955660000 0.2955560000
0.3046090000 0.3046080000 0.3045990000
0.3248830000 0.3248810000 0.3248710000
0.3320860000 0.3320840000 0.3320740000
0.3408470000 0.3408430000 0.3408340000
0.3499780000 0.3499740000 0.3499640000
0.3588640000 0.3588580000 0.3588480000
0.3669930000 0.3669870000 0.3669770000
0.3749170000 0.3749090000 0.3749000000
0.3824780000 0.3824690000 0.3824590000
0.3902210000 0.3902110000 0.3902020000
0.3985670000 0.3985560000 0.3985470000
0.4078150000 0.4078030000 0.4077940000
0.4184490000 0.4184370000 0.4184270000
0.4311000000 0.4310860000 0.4310770000
0.4459270000 0.4459130000 0.4459030000
0.4623190000 0.4623040000 0.4622950000
0.4803830000 0.4803670000 0.4803570000
0.4997340000 0.4997170000 0.4997080000
0.5209210000 0.5209030000 0.5208930000
0.5433760000 0.5433570000 0.5433470000
0.5674100000 0.5673900000 0.5673800000
0.5946000000 0.5945790000 0.5945700000
0.2975460000 0.2975560000 0.2975460000
0.3060150000 0.3060240000 0.3060140000
0.3072750000 0.3072840000 0.3072730000
0.3082460000 0.3082530000 0.3082430000
0.3092090000 0.3092150000 0.3092050000
0.3107050000 0.3107110000 0.3107010000
0.3129890000 0.3129940000 0.3129830000
0.3157810000 0.3157850000 0.3157740000
0.3189350000 0.3189380000 0.3189280000
0.3224400000 0.3224420000 0.3224310000
0.3266660000 0.3266670000 0.3266560000
0.3322090000 0.3322090000 0.3321990000
0.3396240000 0.3396230000 0.3396120000
0.3581900000 0.3581880000 0.3581770000
0.3658750000 0.3658720000 0.3658620000
0.3741090000 0.3741050000 0.3740950000
0.3824750000 0.3824700000 0.3824590000
0.3903380000 0.3903330000 0.3903220000
0.3977360000 0.3977290000 0.3977180000
0.4051390000 0.4051310000 0.4051210000
0.4124210000 0.4124120000 0.4124020000
0.4204720000 0.4204630000 0.4204520000
0.4295650000 0.4295540000 0.4295440000
0.4398620000 0.4398500000 0.4398400000
0.4522210000 0.4522080000 0.4521980000
0.4668000000 0.4667870000 0.4667760000
0.4827730000 0.4827590000 0.4827480000
0.5002230000 0.5002080000 0.5001980000
0.5193330000 0.5193170000 0.5193070000
0.5396860000 0.5396690000 0.5396580000
0.5613630000 0.5613450000 0.5613350000
0.5846420000 0.5846230000 0.5846130000
0.6116730000 0.6116530000 0.6116420000
0.3356780000 0.3356890000 0.3356780000
0.3396130000 0.3396240000 0.3396120000
0.3403470000 0.3403570000 0.3403460000
0.3410800000 0.3410890000 0.3410770000
0.3415680000 0.3415760000 0.3415640000
0.3425410000 0.3425480000 0.3425370000
0.3441170000 0.3441230000 0.3441120000
0.3460490000 0.3460540000 0.3460420000
0.3485600000 0.3485640000 0.3485520000
0.3513690000 0.3513720000 0.3513610000
0.3551470000 0.3551490000 0.3551380000
0.3600870000 0.3600870000 0.3600760000
0.3659850000 0.3659850000 0.3659730000
0.3734200000 0.3734190000 0.3734070000
0.3950000000 0.3949980000 0.3949870000
0.4035010000 0.4034980000 0.4034860000
0.4116140000 0.4116100000 0.4115990000
0.4192320000 0.4192270000 0.4192160000
0.4262580000 0.4262520000 0.4262410000
0.4332750000 0.4332680000 0.4332570000
0.4406080000 0.4406000000 0.4405890000
0.4485570000 0.4485480000 0.4485370000
0.4573980000 0.4573890000 0.4573770000
0.4676190000 0.4676080000 0.4675970000
0.4799640000 0.4799530000 0.4799410000
0.4944600000 0.4944470000 0.4944360000
0.5100640000 0.5100510000 0.5100390000
0.5272220000 0.5272070000 0.5271960000
0.5453310000 0.5453160000 0.5453040000
0.5647360000 0.5647200000 0.5647080000
0.5850110000 0.5849940000 0.5849820000
0.6062270000 0.6062090000 0.6061970000
0.6311350000 0.6311160000 0.6311050000
0.3643030000 0.3643160000 0.3643030000
0.3724950000 0.3725070000 0.3724950000
0.3735240000 0.3735340000 0.3735220000
0.3738680000 0.3738780000 0.3738650000
0.3744430000 0.3744520000 0.3744390000
0.3751350000 0.3751430000 0.3751300000
0.3762940000 0.3763010000 0.3762890000
0.3780480000 0.3780540000 0.3780420000
0.3804200000 0.3804240000 0.3804120000
0.3833190000 0.3833230000 0.3833110000
0.3867160000 0.3867190000 0.3867060000
0.3912930000 0.3912950000 0.3912820000
0.3970190000 0.3970200000 0.3970070000
0.4036160000 0.4036160000 0.4036030000
0.4103480000 0.4103470000 0.4103340000
0.4343570000 0.4343550000 0.4343430000
0.4426310000 0.4426280000 0.4426160000
0.4494970000 0.4494930000 0.4494810000
0.4560530000 0.4560480000 0.4560360000
0.4627200000 0.4627140000 0.4627020000
0.4699850000 0.4699780000 0.4699660000
0.4774620000 0.4774550000 0.4774420000
0.4861870000 0.4861780000 0.4861660000
0.4960630000 0.4960540000 0.4960410000
0.5077640000 0.5077540000 0.5077420000
0.5214960000 0.5214850000 0.5214720000
0.5366360000 0.5366240000 0.5366110000
0.5525940000 0.5525800000 0.5525680000
0.5697150000 0.5697010000 0.5696880000
0.5881600000 0.5881450000 0.5881330000
0.6075430000 0.6075270000 0.6075140000
0.6280200000 0.6280030000 0.6279910000
0.6519810000 0.6519630000 0.6519510000
0.3977180000 0.3977320000 0.3977180000
0.4065180000 0.4065310000 0.4065170000
0.4074480000 0.4074590000 0.4074460000
0.4080280000 0.4080390000 0.4080250000
0.4087230000 0.4087330000 0.4087190000
0.4095320000 0.4095410000 0.4095280000
0.4108000000 0.4108080000 0.4107950000
0.4121790000 0.4121860000 0.4121730000
0.4143520000 0.4143580000 0.4143450000
0.4169660000 0.4169710000 0.4169580000
0.4201250000 0.4201290000 0.4201150000
0.4245900000 0.4245930000 0.4245800000
0.4298840000 0.4298860000 0.4298730000
0.4360870000 0.4360880000 0.4360750000
0.4427360000 0.4427360000 0.4427220000
0.4493900000 0.4493890000 0.4493760000
0.4668940000 0.4668920000 0.4668790000
0.4814140000 0.4814110000 0.4813980000
0.4871110000 0.4871080000 0.4870940000
0.4934450000 0.4934410000 0.4934270000
0.5003150000 0.5003090000 0.5002960000
0.5077620000 0.5077550000 0.5077420000
0.5160030000 0.5159950000 0.5159820000
0.5254730000 0.5254640000 0.5254510000
0.5367070000 0.5366980000 0.5366850000
0.5495390000 0.5495280000 0.5495150000
0.5638060000 0.5637950000 0.5637810000
0.5790960000 0.5790840000 0.5790700000
0.5953700000 0.5953560000 0.5953430000
0.6130700000 0.6130560000 0.6130420000
0.6316110000 0.6315950000 0.6315820000
0.6510910000 0.6510750000 0.6510620000
0.6738820000 0.6738650000 0.6738510000
0.4359670000 0.4359810000 0.4359670000
0.4367240000 0.4367370000 0.4367230000
0.4372640000 0.4372760000 0.4372620000
0.4378030000 0.4378140000 0.4378000000
0.4384490000 0.4384600000 0.4384450000
0.4394160000 0.4394260000 0.4394110000
0.4405950000 0.4406030000 0.4405890000
0.4420900000 0.4420980000 0.4420830000
0.4441110000 0.4441180000 0.4441040000
0.4466510000 0.4466560000 0.4466420000
0.4500140000 0.4500190000 0.4500050000
0.4544940000 0.4544980000 0.4544840000
0.4599560000 0.4599590000 0.4599450000
0.4660730000 0.4660740000 0.4660600000
0.4727750000 0.4727760000 0.4727620000
0.4796430000 0.4796430000 0.4796290000
0.4865940000 0.4865930000 0.4865790000
0.4970550000 0.4970530000 0.4970390000
0.5177160000 0.5177130000 0.5176990000
0.5253090000 0.5253050000 0.5252910000
0.5319310000 0.5319260000 0.5319120000
0.5393190000 0.5393130000 0.5392990000
0.5471980000 0.5471920000 0.5471770000
0.5563170000 0.5563090000 0.5562950000
0.5671630000 0.5671550000 0.5671410000
0.5796850000 0.5796760000 0.5796620000
0.5931480000 0.5931370000 0.5931230000
0.6077420000 0.6077310000 0.6077170000
0.6234210000 0.6234090000 0.6233950000
0.6400230000 0.6400100000 0.6399950000
0.6571310000 0.6571170000 0.6571030000
0.6741970000 0.6741820000 0.6741670000
0.6932150000 0.6931990000 0.6931850000
0.4594320000 0.4594480000 0.4594320000
0.4682140000 0.4682290000 0.4682130000
0.4690390000 0.4690520000 0.4690370000
0.4695560000 0.4695680000 0.4695530000
0.4699700000 0.4699810000 0.4699660000
0.4706940000 0.4707040000 0.4706890000
0.4718340000 0.4718430000 0.4718280000
0.4731840000 0.4731920000 0.4731770000
0.4747440000 0.4747510000 0.4747360000
0.4771380000 0.4771450000 0.4771300000
0.4802630000 0.4802690000 0.4802530000
0.4842110000 0.4842160000 0.4842000000
0.4891620000 0.4891650000 0.4891500000
0.4946500000 0.4946530000 0.4946370000
0.5009920000 0.5009940000 0.5009790000
0.5077560000 0.5077570000 0.5077420000
0.5145180000 0.5145180000 0.5145030000
0.5204940000 0.5204930000 0.5204780000
0.5265810000 0.5265790000 0.5265640000
0.5437160000 0.5437130000 0.5436980000
0.5582750000 0.5582710000 0.5582550000
0.5658300000 0.5658250000 0.5658100000
0.5734760000 0.5734700000 0.5734550000
0.5820900000 0.5820830000 0.5820680000
0.5923700000 0.5923620000 0.5923470000
0.6042380000 0.6042290000 0.6042140000
0.6172400000 0.6172300000 0.6172150000
0.6312260000 0.6312150000 0.6312000000
0.6461240000 0.6461120000 0.6460970000
0.6617270000 0.6617150000 0.6617000000
0.6777090000 0.6776960000 0.6776810000
0.6939360000 0.6939210000 0.6939060000
0.7117980000 0.7117830000 0.7117670000
0.4880210000 0.4880370000 0.4880210000
0.4963420000 0.4963570000 0.4963410000
0.4971400000 0.4971550000 0.4971380000
0.4977370000 0.4977500000 0.4977340000
0.4983320000 0.4983450000 0.4983280000
0.4992210000 0.4992320000 0.4992160000
0.5003010000 0.5003120000 0.5002960000
0.5014720000 0.5014820000 0.5014650000
0.5030200000 0.5030290000 0.5030120000
0.5050270000 0.5050350000 0.5050190000
0.5079370000 0.5079430000 0.5079270000
0.5116770000 0.5116820000 0.5116660000
0.5165110000 0.5165160000 0.5165000000
0.5219790000 0.5219830000 0.5219670000
0.5279160000 0.5279190000 0.5279030000
0.5340350000 0.5340370000 0.5340210000
0.5401750000 0.5401760000 0.5401600000
0.5457380000 0.5457380000 0.5457220000
0.5510310000 0.5510300000 0.5510140000
0.5556540000 0.5556520000 0.5556360000
0.5678780000 0.5678750000 0.5678590000
0.5857920000 0.5857890000 0.5857720000
0.5959820000 0.5959770000 0.5959610000
0.6042870000 0.6042810000 0.6042650000
0.6140630000 0.6140560000 0.6140400000
0.6255060000 0.6254980000 0.6254820000
0.6379570000 0.6379480000 0.6379320000
0.6513550000 0.6513450000 0.6513290000
0.6653800000 0.6653700000 0.6653530000
0.6801260000 0.6801150000 0.6800990000
0.6953090000 0.6952960000 0.6952800000
0.7105100000 0.7104970000 0.7104810000
0.7277660000 0.7277520000 0.7277360000
0.5145030000 0.5145200000 0.5145030000
0.5223780000 0.5223940000 0.5223770000
0.5231950000 0.5232110000 0.5231930000
0.5238450000 0.5238600000 0.5238430000
0.5243310000 0.5243440000 0.5243270000
0.5252160000 0.5252280000 0.5252110000
0.5260940000 0.5261050000 0.5260880000
0.5273600000 0.5273700000 0.5273530000
0.5287690000 0.5287780000 0.5287610000
0.5306230000 0.5306320000 0.5306150000
0.5333560000 0.5333640000 0.5333460000
0.5369880000 0.5369950000 0.5369770000
0.5415250000 0.5415310000 0.5415140000
0.5465670000 0.5465720000 0.5465550000
0.5521100000 0.5521130000 0.5520960000
0.5578800000 0.5578830000 0.5578660000
0.5636100000 0.5636120000 0.5635950000
0.5688830000 0.5688840000 0.5688670000
