bundles/resolve-cinematic-luts/Gamut/Cascade/05 B&W.cube
TITLE "Cascade B&W by Gamut.io"
# Cascade North- by Gamut.io Copyright 2020 Gamut.io
LUT_3D_SIZE 5
0.0000000000 0.0000000000 0.0000000000
0.0203430000 0.0203360000 0.0203360000
0.1762030000 0.1761880000 0.1761880000
0.3376730000 0.3376510000 0.3376510000
0.5148830000 0.5148520000 0.5148520000
0.1556970000 0.1557040000 0.1556970000
0.1986470000 0.1986470000 0.1986400000
0.3215430000 0.3215350000 0.3215270000
0.3991600000 0.3991450000 0.3991370000
0.5678300000 0.5678070000 0.5677990000
0.4594320000 0.4594480000 0.4594320000
0.4747440000 0.4747510000 0.4747360000
0.5145180000 0.5145180000 0.5145030000
0.5923700000 0.5923620000 0.5923470000
0.7117980000 0.7117830000 0.7117670000
0.6619010000 0.6619240000 0.6619010000
0.6704800000 0.6704950000 0.6704730000
0.6964720000 0.6964790000 0.6964560000
0.7256840000 0.7256840000 0.7256610000
0.8172830000 0.8172750000 0.8172520000
0.8894310000 0.8894620000 0.8894310000
0.8899210000 0.8899440000 0.8899130000
0.9074200000 0.9074350000 0.9074050000
0.9284090000 0.9284170000 0.9283860000
0.9626980000 0.9626980000 0.9626680000
0.0168920000 0.0168920000 0.0168990000
0.0263070000 0.0263000000 0.0263070000
0.2370250000 0.2370090000 0.2370170000
0.3614350000 0.3614120000 0.3614200000
0.5215850000 0.5215550000 0.5215620000
0.1391940000 0.1392020000 0.1392020000
0.2213980000 0.2213980000 0.2213980000
0.3338340000 0.3338260000 0.3338260000
0.4126540000 0.4126380000 0.4126380000
0.5742060000 0.5741830000 0.5741830000
0.4696560000 0.4696710000 0.4696640000
0.4832750000 0.4832830000 0.4832750000
0.5198250000 0.5198250000 0.5198180000
0.5941790000 0.5941720000 0.5941640000
0.7143480000 0.7143330000 0.7143250000
0.6690560000 0.6690790000 0.6690630000
0.6771350000 0.6771500000 0.6771350000
0.7002290000 0.7002370000 0.7002220000
0.7279960000 0.7279960000 0.7279810000
0.8182730000 0.8182650000 0.8182500000
0.8916200000 0.8916510000 0.8916280000
0.8928740000 0.8928970000 0.8928740000
0.9089580000 0.9089730000 0.9089500000
0.9298070000 0.9298150000 0.9297920000
0.9640000000 0.9640000000 0.9639770000
0.0795990000 0.0795990000 0.0796140000
0.1176740000 0.1176660000 0.1176810000
0.2540160000 0.2540000000 0.2540160000
0.3702520000 0.3702290000 0.3702440000
0.5418990000 0.5418680000 0.5418830000
0.2908230000 0.2908310000 0.2908380000
0.3031730000 0.3031730000 0.3031800000
0.3447310000 0.3447240000 0.3447310000
0.4312090000 0.4311940000 0.4312010000
0.5892070000 0.5891850000 0.5891920000
0.4497950000 0.4498110000 0.4498110000
0.4743280000 0.4743350000 0.4743350000
0.5432220000 0.5432220000 0.5432220000
0.6044910000 0.6044840000 0.6044840000
0.7148930000 0.7148780000 0.7148780000
0.6769190000 0.6769420000 0.6769340000
0.6879660000 0.6879810000 0.6879740000
0.7135490000 0.7135570000 0.7135490000
0.7402410000 0.7402410000 0.7402340000
0.8238930000 0.8238850000 0.8238780000
0.8974000000 0.8974300000 0.8974150000
0.8993560000 0.8993790000 0.8993640000
0.9141270000 0.9141420000 0.9141270000
0.9343120000 0.9343190000 0.9343040000
0.9701350000 0.9701350000 0.9701190000
0.2600100000 0.2600100000 0.2600330000
0.2821100000 0.2821020000 0.2821250000
0.3375430000 0.3375280000 0.3375500000
0.3939370000 0.3939140000 0.3939370000
0.5484480000 0.5484180000 0.5484410000
0.3570560000 0.3570630000 0.3570780000
0.3652010000 0.3652010000 0.3652160000
0.4013910000 0.4013830000 0.4013990000
0.4503420000 0.4503260000 0.4503420000
0.5968150000 0.5967920000 0.5968070000
0.4926170000 0.4926330000 0.4926400000
0.5125680000 0.5125750000 0.5125830000
0.5849450000 0.5849450000 0.5849520000
0.6147590000 0.6147520000 0.6147590000
0.7209780000 0.7209630000 0.7209710000
0.6558090000 0.6558320000 0.6558320000
0.6682910000 0.6683070000 0.6683070000
0.7082720000 0.7082790000 0.7082790000
0.7568660000 0.7568660000 0.7568660000
0.8230540000 0.8230460000 0.8230460000
0.8985470000 0.8985780000 0.8985700000
0.9018050000 0.9018280000 0.9018200000
0.9206070000 0.9206230000 0.9206150000
0.9406850000 0.9406930000 0.9406850000
0.9789250000 0.9789250000 0.9789170000
0.4803570000 0.4803570000 0.4803880000
0.4899770000 0.4899690000 0.4900000000
0.5279180000 0.5279030000 0.5279330000
0.5749670000 0.5749440000 0.5749750000
0.6516710000 0.6516400000 0.6516710000
0.5387940000 0.5388020000 0.5388250000
0.5464930000 0.5464930000 0.5465160000
0.5783850000 0.5783770000 0.5784000000
0.6161990000 0.6161830000 0.6162060000
0.6816150000 0.6815920000 0.6816150000
0.6601890000 0.6602040000 0.6602190000
0.6794850000 0.6794920000 0.6795080000
0.7007210000 0.7007210000 0.7007360000
0.7226460000 0.7226390000 0.7226540000
0.7627880000 0.7627730000 0.7627880000
0.7475200000 0.7475430000 0.7475510000
0.7511610000 0.7511760000 0.7511840000
0.7728310000 0.7728380000 0.7728460000
0.8138040000 0.8138040000 0.8138120000
0.8453670000 0.8453600000 0.8453670000
0.9087750000 0.9088060000 0.9088060000
0.9117350000 0.9117570000 0.9117570000
0.9247270000 0.9247420000 0.9247420000
0.9435740000 0.9435820000 0.9435820000
0.9999690000 0.9999690000 0.9999690000
