bundles/resolve-cinematic-luts/Gamut/Cascade/05 B&W-.cube
TITLE "Cascade B&W- by Gamut.io "
# Cascade North- by Gamut.io Copyright 2020 Gamut.io
LUT_3D_SIZE 33
0.0000000000 0.0000000000 0.0000000000
0.0050480000 0.0050480000 0.0050480000
0.0090690000 0.0090690000 0.0090690000
0.0159710000 0.0159710000 0.0159710000
0.0241420000 0.0241420000 0.0241420000
0.0345430000 0.0345430000 0.0345430000
0.0461370000 0.0461370000 0.0461370000
0.0589460000 0.0589460000 0.0589460000
0.0721820000 0.0721820000 0.0721820000
0.0881650000 0.0881650000 0.0881650000
0.1039860000 0.1039860000 0.1039860000
0.1256390000 0.1256390000 0.1256390000
0.1470830000 0.1470830000 0.1470830000
0.1766540000 0.1766540000 0.1766540000
0.2011610000 0.2011610000 0.2011610000
0.2293180000 0.2293180000 0.2293180000
0.2498740000 0.2498740000 0.2498740000
0.2730940000 0.2730940000 0.2730940000
0.2925430000 0.2925430000 0.2925430000
0.3178350000 0.3178350000 0.3178350000
0.3354550000 0.3354550000 0.3354550000
0.3546190000 0.3546190000 0.3546190000
0.3680320000 0.3680320000 0.3680320000
0.3853900000 0.3853900000 0.3853900000
0.3995960000 0.3995960000 0.3995960000
0.4172000000 0.4172000000 0.4172000000
0.4352150000 0.4352150000 0.4352150000
0.4540270000 0.4540270000 0.4540270000
0.4736650000 0.4736650000 0.4736650000
0.4946700000 0.4946700000 0.4946700000
0.5173540000 0.5173540000 0.5173540000
0.5421210000 0.5421210000 0.5421210000
0.5630870000 0.5630870000 0.5630870000
0.0142190000 0.0142190000 0.0142190000
0.0168630000 0.0168630000 0.0168630000
0.0229770000 0.0229770000 0.0229770000
0.0302290000 0.0302290000 0.0302290000
0.0394620000 0.0394620000 0.0394620000
0.0491190000 0.0491190000 0.0491190000
0.0600670000 0.0600670000 0.0600670000
0.0710940000 0.0710940000 0.0710940000
0.0855460000 0.0855460000 0.0855460000
0.0989640000 0.0989640000 0.0989640000
0.1168290000 0.1168290000 0.1168290000
0.1374620000 0.1374620000 0.1374620000
0.1602340000 0.1602340000 0.1602340000
0.1889940000 0.1889940000 0.1889940000
0.2103440000 0.2103440000 0.2103440000
0.2386230000 0.2386230000 0.2386230000
0.2563430000 0.2563430000 0.2563430000
0.2803750000 0.2803750000 0.2803750000
0.2987750000 0.2987750000 0.2987750000
0.3232180000 0.3232180000 0.3232180000
0.3405280000 0.3405280000 0.3405280000
0.3576380000 0.3576380000 0.3576380000
0.3715310000 0.3715310000 0.3715310000
0.3877880000 0.3877880000 0.3877880000
0.4026240000 0.4026240000 0.4026240000
0.4191120000 0.4191120000 0.4191120000
0.4379340000 0.4379340000 0.4379340000
0.4560920000 0.4560920000 0.4560920000
0.4754920000 0.4754920000 0.4754920000
0.4962960000 0.4962960000 0.4962960000
0.5189380000 0.5189380000 0.5189380000
0.5435000000 0.5435000000 0.5435000000
0.5643030000 0.5643030000 0.5643030000
0.0314600000 0.0314600000 0.0314600000
0.0351590000 0.0351590000 0.0351590000
0.0394620000 0.0394620000 0.0394620000
0.0497100000 0.0497100000 0.0497100000
0.0572490000 0.0572490000 0.0572490000
0.0656130000 0.0656130000 0.0656130000
0.0743500000 0.0743500000 0.0743500000
0.0865960000 0.0865960000 0.0865960000
0.0984580000 0.0984580000 0.0984580000
0.1138840000 0.1138840000 0.1138840000
0.1324920000 0.1324920000 0.1324920000
0.1511520000 0.1511520000 0.1511520000
0.1780350000 0.1780350000 0.1780350000
0.2000280000 0.2000280000 0.2000280000
0.2254320000 0.2254320000 0.2254320000
0.2465110000 0.2465110000 0.2465110000
0.2666690000 0.2666690000 0.2666690000
0.2873250000 0.2873250000 0.2873250000
0.3075780000 0.3075780000 0.3075780000
0.3281340000 0.3281340000 0.3281340000
0.3464200000 0.3464200000 0.3464200000
0.3609660000 0.3609660000 0.3609660000
0.3760700000 0.3760700000 0.3760700000
0.3904670000 0.3904670000 0.3904670000
0.4062800000 0.4062800000 0.4062800000
0.4212800000 0.4212800000 0.4212800000
0.4408780000 0.4408780000 0.4408780000
0.4585290000 0.4585290000 0.4585290000
0.4775960000 0.4775960000 0.4775960000
0.4983820000 0.4983820000 0.4983820000
0.5208300000 0.5208300000 0.5208300000
0.5453300000 0.5453300000 0.5453300000
0.5676950000 0.5676950000 0.5676950000
0.0583820000 0.0583820000 0.0583820000
0.0611810000 0.0611810000 0.0611810000
0.0645090000 0.0645090000 0.0645090000
0.0694570000 0.0694570000 0.0694570000
0.0807850000 0.0807850000 0.0807850000
0.0881650000 0.0881650000 0.0881650000
0.0964260000 0.0964260000 0.0964260000
0.1069720000 0.1069720000 0.1069720000
0.1207470000 0.1207470000 0.1207470000
0.1359610000 0.1359610000 0.1359610000
0.1521680000 0.1521680000 0.1521680000
0.1761910000 0.1761910000 0.1761910000
0.1969730000 0.1969730000 0.1969730000
0.2180550000 0.2180550000 0.2180550000
0.2415970000 0.2415970000 0.2415970000
0.2581670000 0.2581670000 0.2581670000
0.2801520000 0.2801520000 0.2801520000
0.2959920000 0.2959920000 0.2959920000
0.3201060000 0.3201060000 0.3201060000
0.3356120000 0.3356120000 0.3356120000
0.3536430000 0.3536430000 0.3536430000
0.3658570000 0.3658570000 0.3658570000
0.3820090000 0.3820090000 0.3820090000
0.3943250000 0.3943250000 0.3943250000
0.4109120000 0.4109120000 0.4109120000
0.4249430000 0.4249430000 0.4249430000
0.4445340000 0.4445340000 0.4445340000
0.4620970000 0.4620970000 0.4620970000
0.4808980000 0.4808980000 0.4808980000
0.5015860000 0.5015860000 0.5015860000
0.5239650000 0.5239650000 0.5239650000
0.5480150000 0.5480150000 0.5480150000
0.5714510000 0.5714510000 0.5714510000
0.0886870000 0.0886870000 0.0886870000
0.0918030000 0.0918030000 0.0918030000
0.0948930000 0.0948930000 0.0948930000
0.1009800000 0.1009800000 0.1009800000
0.1094480000 0.1094480000 0.1094480000
0.1285740000 0.1285740000 0.1285740000
0.1364600000 0.1364600000 0.1364600000
0.1460650000 0.1460650000 0.1460650000
0.1582300000 0.1582300000 0.1582300000
0.1752600000 0.1752600000 0.1752600000
0.1910560000 0.1910560000 0.1910560000
0.2059930000 0.2059930000 0.2059930000
0.2286770000 0.2286770000 0.2286770000
0.2450840000 0.2450840000 0.2450840000
0.2609750000 0.2609750000 0.2609750000
0.2803750000 0.2803750000 0.2803750000
0.2941760000 0.2941760000 0.2941760000
0.3164310000 0.3164310000 0.3164310000
0.3314390000 0.3314390000 0.3314390000
0.3489790000 0.3489790000 0.3489790000
0.3616720000 0.3616720000 0.3616720000
0.3760700000 0.3760700000 0.3760700000
0.3894410000 0.3894410000 0.3894410000
0.4034950000 0.4034950000 0.4034950000
0.4183850000 0.4183850000 0.4183850000
0.4352150000 0.4352150000 0.4352150000
0.4522670000 0.4522670000 0.4522670000
0.4698950000 0.4698950000 0.4698950000
0.4885630000 0.4885630000 0.4885630000
0.5092670000 0.5092670000 0.5092670000
0.5310880000 0.5310880000 0.5310880000
0.5533590000 0.5533590000 0.5533590000
0.5752720000 0.5752720000 0.5752720000
0.1310210000 0.1310210000 0.1310210000
0.1354620000 0.1354620000 0.1354620000
0.1384660000 0.1384660000 0.1384660000
0.1435230000 0.1435230000 0.1435230000
0.1511520000 0.1511520000 0.1511520000
0.1622260000 0.1622260000 0.1622260000
0.1842990000 0.1842990000 0.1842990000
0.1938650000 0.1938650000 0.1938650000
0.2004060000 0.2004060000 0.2004060000
0.2114160000 0.2114160000 0.2114160000
0.2283550000 0.2283550000 0.2283550000
0.2413020000 0.2413020000 0.2413020000
0.2523400000 0.2523400000 0.2523400000
0.2686010000 0.2686010000 0.2686010000
0.2838890000 0.2838890000 0.2838890000
0.2961920000 0.2961920000 0.2961920000
0.3169580000 0.3169580000 0.3169580000
0.3304560000 0.3304560000 0.3304560000
0.3466950000 0.3466950000 0.3466950000
0.3594280000 0.3594280000 0.3594280000
0.3717550000 0.3717550000 0.3717550000
0.3860180000 0.3860180000 0.3860180000
0.3974230000 0.3974230000 0.3974230000
0.4130560000 0.4130560000 0.4130560000
0.4258290000 0.4258290000 0.4258290000
0.4437070000 0.4437070000 0.4437070000
0.4594650000 0.4594650000 0.4594650000
0.4768000000 0.4768000000 0.4768000000
0.4955520000 0.4955520000 0.4955520000
0.5158270000 0.5158270000 0.5158270000
0.5373770000 0.5373770000 0.5373770000
0.5593210000 0.5593210000 0.5593210000
0.5807450000 0.5807450000 0.5807450000
0.1838620000 0.1838620000 0.1838620000
0.1889940000 0.1889940000 0.1889940000
0.1918680000 0.1918680000 0.1918680000
0.1950400000 0.1950400000 0.1950400000
0.1996480000 0.1996480000 0.1996480000
0.2052580000 0.2052580000 0.2052580000
0.2135400000 0.2135400000 0.2135400000
0.2318560000 0.2318560000 0.2318560000
0.2445090000 0.2445090000 0.2445090000
0.2507020000 0.2507020000 0.2507020000
0.2597070000 0.2597070000 0.2597070000
0.2719240000 0.2719240000 0.2719240000
0.2832370000 0.2832370000 0.2832370000
0.2929530000 0.2929530000 0.2929530000
0.3090590000 0.3090590000 0.3090590000
0.3232180000 0.3232180000 0.3232180000
0.3346630000 0.3346630000 0.3346630000
0.3495040000 0.3495040000 0.3495040000
0.3601390000 0.3601390000 0.3601390000
0.3715310000 0.3715310000 0.3715310000
0.3850760000 0.3850760000 0.3850760000
0.3953290000 0.3953290000 0.3953290000
0.4097860000 0.4097860000 0.4097860000
0.4214600000 0.4214600000 0.4214600000
0.4374260000 0.4374260000 0.4374260000
0.4520260000 0.4520260000 0.4520260000
0.4679510000 0.4679510000 0.4679510000
0.4847220000 0.4847220000 0.4847220000
0.5033090000 0.5033090000 0.5033090000
0.5233400000 0.5233400000 0.5233400000
0.5442710000 0.5442710000 0.5442710000
0.5660590000 0.5660590000 0.5660590000
0.5874870000 0.5874870000 0.5874870000
0.2321700000 0.2321700000 0.2321700000
0.2377180000 0.2377180000 0.2377180000
0.2389230000 0.2389230000 0.2389230000
0.2401180000 0.2401180000 0.2401180000
0.2427690000 0.2427690000 0.2427690000
0.2462270000 0.2462270000 0.2462270000
0.2515230000 0.2515230000 0.2515230000
0.2584250000 0.2584250000 0.2584250000
0.2709820000 0.2709820000 0.2709820000
0.2871120000 0.2871120000 0.2871120000
0.2921320000 0.2921320000 0.2921320000
0.3018950000 0.3018950000 0.3018950000
0.3143090000 0.3143090000 0.3143090000
0.3237320000 0.3237320000 0.3237320000
0.3325770000 0.3325770000 0.3325770000
0.3448870000 0.3448870000 0.3448870000
0.3554690000 0.3554690000 0.3554690000
0.3640080000 0.3640080000 0.3640080000
0.3758510000 0.3758510000 0.3758510000
0.3869570000 0.3869570000 0.3869570000
0.3966280000 0.3966280000 0.3966280000
0.4098800000 0.4098800000 0.4098800000
0.4203790000 0.4203790000 0.4203790000
0.4341880000 0.4341880000 0.4341880000
0.4481420000 0.4481420000 0.4481420000
0.4622510000 0.4622510000 0.4622510000
0.4775960000 0.4775960000 0.4775960000
0.4944660000 0.4944660000 0.4944660000
0.5126260000 0.5126260000 0.5126260000
0.5321930000 0.5321930000 0.5321930000
0.5519950000 0.5519950000 0.5519950000
0.5738000000 0.5738000000 0.5738000000
0.5959160000 0.5959160000 0.5959160000
0.2767780000 0.2767780000 0.2767780000
0.2776850000 0.2776850000 0.2776850000
0.2779110000 0.2779110000 0.2779110000
0.2788110000 0.2788110000 0.2788110000
0.2812610000 0.2812610000 0.2812610000
0.2841060000 0.2841060000 0.2841060000
0.2877490000 0.2877490000 0.2877490000
0.2923380000 0.2923380000 0.2923380000
0.2985780000 0.2985780000 0.2985780000
0.3103430000 0.3103430000 0.3103430000
0.3283010000 0.3283010000 0.3283010000
0.3343440000 0.3343440000 0.3343440000
0.3423020000 0.3423020000 0.3423020000
0.3501520000 0.3501520000 0.3501520000
0.3571580000 0.3571580000 0.3571580000
0.3641240000 0.3641240000 0.3641240000
0.3739790000 0.3739790000 0.3739790000
0.3837060000 0.3837060000 0.3837060000
0.3921000000 0.3921000000 0.3921000000
0.4028170000 0.4028170000 0.4028170000
0.4138900000 0.4138900000 0.4138900000
0.4230730000 0.4230730000 0.4230730000
0.4364930000 0.4364930000 0.4364930000
0.4487120000 0.4487120000 0.4487120000
0.4617120000 0.4617120000 0.4617120000
0.4757110000 0.4757110000 0.4757110000
0.4909800000 0.4909800000 0.4909800000
0.5077060000 0.5077060000 0.5077060000
0.5255230000 0.5255230000 0.5255230000
0.5436400000 0.5436400000 0.5436400000
0.5625780000 0.5625780000 0.5625780000
0.5815780000 0.5815780000 0.5815780000
0.6029480000 0.6029480000 0.6029480000
0.3075780000 0.3075780000 0.3075780000
0.3167820000 0.3167820000 0.3167820000
0.3187100000 0.3187100000 0.3187100000
0.3195830000 0.3195830000 0.3195830000
0.3206270000 0.3206270000 0.3206270000
0.3225300000 0.3225300000 0.3225300000
0.3250980000 0.3250980000 0.3250980000
0.3281340000 0.3281340000 0.3281340000
0.3320910000 0.3320910000 0.3320910000
0.3374860000 0.3374860000 0.3374860000
0.3448870000 0.3448870000 0.3448870000
0.3602580000 0.3602580000 0.3602580000
0.3648190000 0.3648190000 0.3648190000
0.3714190000 0.3714190000 0.3714190000
0.3788980000 0.3788980000 0.3788980000
0.3858090000 0.3858090000 0.3858090000
0.3924040000 0.3924040000 0.3924040000
0.4015540000 0.4015540000 0.4015540000
0.4115660000 0.4115660000 0.4115660000
0.4195650000 0.4195650000 0.4195650000
0.4296920000 0.4296920000 0.4296920000
0.4413790000 0.4413790000 0.4413790000
0.4518650000 0.4518650000 0.4518650000
0.4637080000 0.4637080000 0.4637080000
0.4761470000 0.4761470000 0.4761470000
0.4898770000 0.4898770000 0.4898770000
0.5050220000 0.5050220000 0.5050220000
0.5213960000 0.5213960000 0.5213960000
0.5385280000 0.5385280000 0.5385280000
0.5556580000 0.5556580000 0.5556580000
0.5739430000 0.5739430000 0.5739430000
0.5920250000 0.5920250000 0.5920250000
0.6140860000 0.6140860000 0.6140860000
0.3394750000 0.3394750000 0.3394750000
0.3489790000 0.3489790000 0.3489790000
0.3510450000 0.3510450000 0.3510450000
0.3515480000 0.3515480000 0.3515480000
0.3520460000 0.3520460000 0.3520460000
0.3529080000 0.3529080000 0.3529080000
0.3543750000 0.3543750000 0.3543750000
0.3566770000 0.3566770000 0.3566770000
0.3594280000 0.3594280000 0.3594280000
0.3627270000 0.3627270000 0.3627270000
0.3668900000 0.3668900000 0.3668900000
0.3727590000 0.3727590000 0.3727590000
0.3889250000 0.3889250000 0.3889250000
0.3941240000 0.3941240000 0.3941240000
0.4003820000 0.4003820000 0.4003820000
0.4076130000 0.4076130000 0.4076130000
0.4146290000 0.4146290000 0.4146290000
0.4211000000 0.4211000000 0.4211000000
0.4299540000 0.4299540000 0.4299540000
0.4396200000 0.4396200000 0.4396200000
0.4484680000 0.4484680000 0.4484680000
0.4576670000 0.4576670000 0.4576670000
0.4680260000 0.4680260000 0.4680260000
0.4789650000 0.4789650000 0.4789650000
0.4911860000 0.4911860000 0.4911860000
0.5046270000 0.5046270000 0.5046270000
0.5193170000 0.5193170000 0.5193170000
0.5350050000 0.5350050000 0.5350050000
0.5505560000 0.5505560000 0.5505560000
0.5676950000 0.5676950000 0.5676950000
0.5844740000 0.5844740000 0.5844740000
0.6033130000 0.6033130000 0.6033130000
0.6248770000 0.6248770000 0.6248770000
0.3647030000 0.3647030000 0.3647030000
0.3738680000 0.3738680000 0.3738680000
0.3757410000 0.3757410000 0.3757410000
0.3763980000 0.3763980000 0.3763980000
0.3769440000 0.3769440000 0.3769440000
0.3780320000 0.3780320000 0.3780320000
0.3798690000 0.3798690000 0.3798690000
0.3821160000 0.3821160000 0.3821160000
0.3846550000 0.3846550000 0.3846550000
0.3875810000 0.3875810000 0.3875810000
0.3906720000 0.3906720000 0.3906720000
0.3946270000 0.3946270000 0.3946270000
0.3995960000 0.3995960000 0.3995960000
0.4158260000 0.4158260000 0.4158260000
0.4228050000 0.4228050000 0.4228050000
0.4293440000 0.4293440000 0.4293440000
0.4365780000 0.4365780000 0.4365780000
0.4437900000 0.4437900000 0.4437900000
0.4508180000 0.4508180000 0.4508180000
0.4582940000 0.4582940000 0.4582940000
0.4665200000 0.4665200000 0.4665200000
0.4751280000 0.4751280000 0.4751280000
0.4848620000 0.4848620000 0.4848620000
0.4956190000 0.4956190000 0.4956190000
0.5073790000 0.5073790000 0.5073790000
0.5203890000 0.5203890000 0.5203890000
0.5345170000 0.5345170000 0.5345170000
0.5488520000 0.5488520000 0.5488520000
0.5642020000 0.5642020000 0.5642020000
0.5799110000 0.5799110000 0.5799110000
0.5961420000 0.5961420000 0.5961420000
0.6145350000 0.6145350000 0.6145350000
0.6366260000 0.6366260000 0.6366260000
0.3963290000 0.3963290000 0.3963290000
0.3981170000 0.3981170000 0.3981170000
0.3985120000 0.3985120000 0.3985120000
0.3990060000 0.3990060000 0.3990060000
0.3998910000 0.3998910000 0.3998910000
0.4009680000 0.4009680000 0.4009680000
0.4026240000 0.4026240000 0.4026240000
0.4050360000 0.4050360000 0.4050360000
0.4076130000 0.4076130000 0.4076130000
0.4105370000 0.4105370000 0.4105370000
0.4137050000 0.4137050000 0.4137050000
0.4171090000 0.4171090000 0.4171090000
0.4209200000 0.4209200000 0.4209200000
0.4258290000 0.4258290000 0.4258290000
0.4422960000 0.4422960000 0.4422960000
0.4530680000 0.4530680000 0.4530680000
0.4584500000 0.4584500000 0.4584500000
0.4647000000 0.4647000000 0.4647000000
0.4713800000 0.4713800000 0.4713800000
0.4783170000 0.4783170000 0.4783170000
0.4858450000 0.4858450000 0.4858450000
0.4943300000 0.4943300000 0.4943300000
0.5038370000 0.5038370000 0.5038370000
0.5142300000 0.5142300000 0.5142300000
0.5258340000 0.5258340000 0.5258340000
0.5382250000 0.5382250000 0.5382250000
0.5514800000 0.5514800000 0.5514800000
0.5651080000 0.5651080000 0.5651080000
0.5791670000 0.5791670000 0.5791670000
0.5937450000 0.5937450000 0.5937450000
0.6096110000 0.6096110000 0.6096110000
0.6261420000 0.6261420000 0.6261420000
0.6443220000 0.6443220000 0.6443220000
0.4127770000 0.4127770000 0.4127770000
0.4212800000 0.4212800000 0.4212800000
0.4242320000 0.4242320000 0.4242320000
0.4251210000 0.4251210000 0.4251210000
0.4256520000 0.4256520000 0.4256520000
0.4260940000 0.4260940000 0.4260940000
0.4269760000 0.4269760000 0.4269760000
0.4288190000 0.4288190000 0.4288190000
0.4312570000 0.4312570000 0.4312570000
0.4341020000 0.4341020000 0.4341020000
0.4374260000 0.4374260000 0.4374260000
0.4413790000 0.4413790000 0.4413790000
0.4456870000 0.4456870000 0.4456870000
0.4500100000 0.4500100000 0.4500100000
0.4544250000 0.4544250000 0.4544250000
0.4674250000 0.4674250000 0.4674250000
0.4809690000 0.4809690000 0.4809690000
0.4862640000 0.4862640000 0.4862640000
0.4926260000 0.4926260000 0.4926260000
0.4993200000 0.4993200000 0.4993200000
0.5065300000 0.5065300000 0.5065300000
0.5147420000 0.5147420000 0.5147420000
0.5240270000 0.5240270000 0.5240270000
0.5344560000 0.5344560000 0.5344560000
0.5449760000 0.5449760000 0.5449760000
0.5566770000 0.5566770000 0.5566770000
0.5692660000 0.5692660000 0.5692660000
0.5819010000 0.5819010000 0.5819010000
0.5950570000 0.5950570000 0.5950570000
0.6100200000 0.6100200000 0.6100200000
0.6247500000 0.6247500000 0.6247500000
0.6401780000 0.6401780000 0.6401780000
0.6578360000 0.6578360000 0.6578360000
0.4386100000 0.4386100000 0.4386100000
0.4480610000 0.4480610000 0.4480610000
0.4508990000 0.4508990000 0.4508990000
0.4517850000 0.4517850000 0.4517850000
0.4523470000 0.4523470000 0.4523470000
0.4528280000 0.4528280000 0.4528280000
0.4537080000 0.4537080000 0.4537080000
0.4550620000 0.4550620000 0.4550620000
0.4570380000 0.4570380000 0.4570380000
0.4593870000 0.4593870000 0.4593870000
0.4620970000 0.4620970000 0.4620970000
0.4653080000 0.4653080000 0.4653080000
0.4690740000 0.4690740000 0.4690740000
0.4730040000 0.4730040000 0.4730040000
0.4773070000 0.4773070000 0.4773070000
0.4816810000 0.4816810000 0.4816810000
0.4937180000 0.4937180000 0.4937180000
0.5088770000 0.5088770000 0.5088770000
0.5141660000 0.5141660000 0.5141660000
0.5201370000 0.5201370000 0.5201370000
0.5270140000 0.5270140000 0.5270140000
0.5350660000 0.5350660000 0.5350660000
0.5432220000 0.5432220000 0.5432220000
0.5526260000 0.5526260000 0.5526260000
0.5627310000 0.5627310000 0.5627310000
0.5737530000 0.5737530000 0.5737530000
0.5847490000 0.5847490000 0.5847490000
0.5969570000 0.5969570000 0.5969570000
0.6103380000 0.6103380000 0.6103380000
0.6239440000 0.6239440000 0.6239440000
0.6382590000 0.6382590000 0.6382590000
0.6522010000 0.6522010000 0.6522010000
0.6702910000 0.6702910000 0.6702910000
0.4635550000 0.4635550000 0.4635550000
0.4726360000 0.4726360000 0.4726360000
0.4752740000 0.4752740000 0.4752740000
0.4760740000 0.4760740000 0.4760740000
0.4767280000 0.4767280000 0.4767280000
0.4773790000 0.4773790000 0.4773790000
0.4781730000 0.4781730000 0.4781730000
0.4792520000 0.4792520000 0.4792520000
0.4809690000 0.4809690000 0.4809690000
0.4831700000 0.4831700000 0.4831700000
0.4856340000 0.4856340000 0.4856340000
0.4887010000 0.4887010000 0.4887010000
0.4921460000 0.4921460000 0.4921460000
0.4959580000 0.4959580000 0.4959580000
0.4999880000 0.4999880000 0.4999880000
0.5042980000 0.5042980000 0.5042980000
0.5084870000 0.5084870000 0.5084870000
0.5188110000 0.5188110000 0.5188110000
0.5353100000 0.5353100000 0.5353100000
0.5407840000 0.5407840000 0.5407840000
0.5470300000 0.5470300000 0.5470300000
0.5542920000 0.5542920000 0.5542920000
0.5623220000 0.5623220000 0.5623220000
0.5710640000 0.5710640000 0.5710640000
0.5801430000 0.5801430000 0.5801430000
0.5897590000 0.5897590000 0.5897590000
0.6010830000 0.6010830000 0.6010830000
0.6129160000 0.6129160000 0.6129160000
0.6253420000 0.6253420000 0.6253420000
0.6383410000 0.6383410000 0.6383410000
0.6511990000 0.6511990000 0.6511990000
0.6654390000 0.6654390000 0.6654390000
0.6828410000 0.6828410000 0.6828410000
0.4915290000 0.4915290000 0.4915290000
0.4958900000 0.4958900000 0.4958900000
0.4971050000 0.4971050000 0.4971050000
0.4975760000 0.4975760000 0.4975760000
0.4981140000 0.4981140000 0.4981140000
0.4987850000 0.4987850000 0.4987850000
0.4996550000 0.4996550000 0.4996550000
0.5008550000 0.5008550000 0.5008550000
0.5023820000 0.5023820000 0.5023820000
0.5045610000 0.5045610000 0.5045610000
0.5071180000 0.5071180000 0.5071180000
0.5100450000 0.5100450000 0.5100450000
0.5133970000 0.5133970000 0.5133970000
0.5169730000 0.5169730000 0.5169730000
0.5208300000 0.5208300000 0.5208300000
0.5250250000 0.5250250000 0.5250250000
0.5294880000 0.5294880000 0.5294880000
0.5340900000 0.5340900000 0.5340900000
0.5423250000 0.5423250000 0.5423250000
0.5597390000 0.5597390000 0.5597390000
0.5671020000 0.5671020000 0.5671020000
0.5738960000 0.5738960000 0.5738960000
0.5810690000 0.5810690000 0.5810690000
0.5888960000 0.5888960000 0.5888960000
0.5979080000 0.5979080000 0.5979080000
0.6077440000 0.6077440000 0.6077440000
0.6183610000 0.6183610000 0.6183610000
0.6293970000 0.6293970000 0.6293970000
0.6409140000 0.6409140000 0.6409140000
0.6530510000 0.6530510000 0.6530510000
0.6655970000 0.6655970000 0.6655970000
0.6793610000 0.6793610000 0.6793610000
0.6928320000 0.6928320000 0.6928320000
0.5074450000 0.5074450000 0.5074450000
0.5171630000 0.5171630000 0.5171630000
0.5198850000 0.5198850000 0.5198850000
0.5206410000 0.5206410000 0.5206410000
0.5208930000 0.5208930000 0.5208930000
0.5212710000 0.5212710000 0.5212710000
0.5218990000 0.5218990000 0.5218990000
0.5228390000 0.5228390000 0.5228390000
0.5241520000 0.5241520000 0.5241520000
0.5262690000 0.5262690000 0.5262690000
0.5288090000 0.5288090000 0.5288090000
0.5316410000 0.5316410000 0.5316410000
0.5348830000 0.5348830000 0.5348830000
0.5379830000 0.5379830000 0.5379830000
0.5413790000 0.5413790000 0.5413790000
0.5454720000 0.5454720000 0.5454720000
0.5500180000 0.5500180000 0.5500180000
0.5546830000 0.5546830000 0.5546830000
0.5594780000 0.5594780000 0.5594780000
0.5672500000 0.5672500000 0.5672500000
0.5852060000 0.5852060000 0.5852060000
0.5934730000 0.5934730000 0.5934730000
0.6010370000 0.6010370000 0.6010370000
0.6093380000 0.6093380000 0.6093380000
0.6177870000 0.6177870000 0.6177870000
0.6272320000 0.6272320000 0.6272320000
0.6372800000 0.6372800000 0.6372800000
0.6471660000 0.6471660000 0.6471660000
0.6577020000 0.6577020000 0.6577020000
0.6691960000 0.6691960000 0.6691960000
0.6813340000 0.6813340000 0.6813340000
0.6925840000 0.6925840000 0.6925840000
0.7055750000 0.7055750000 0.7055750000
0.5334790000 0.5334790000 0.5334790000
0.5407840000 0.5407840000 0.5407840000
0.5432910000 0.5432910000 0.5432910000
0.5440600000 0.5440600000 0.5440600000
0.5446940000 0.5446940000 0.5446940000
0.5453300000 0.5453300000 0.5453300000
0.5461090000 0.5461090000 0.5461090000
0.5471710000 0.5471710000 0.5471710000
0.5483650000 0.5483650000 0.5483650000
0.5500180000 0.5500180000 0.5500180000
0.5521230000 0.5521230000 0.5521230000
0.5545170000 0.5545170000 0.5545170000
0.5570510000 0.5570510000 0.5570510000
0.5600520000 0.5600520000 0.5600520000
0.5635450000 0.5635450000 0.5635450000
0.5673490000 0.5673490000 0.5673490000
0.5713540000 0.5713540000 0.5713540000
0.5753670000 0.5753670000 0.5753670000
