bundles/resolve-cinematic-luts/Gamut/Cascade/06 Flash.cube
TITLE "Cascade Flash by Gamut.io"
# Copyright 2020 Gamut.io
LUT_3D_SIZE 33
0.0000000000 0.0000000000 0.0000000000
0.0299660000 0.0000000000 0.0000000000
0.0568200000 0.0000000000 0.0000000000
0.0838030000 0.0000000000 0.0000000000
0.1045420000 0.0007890000 0.0007890000
0.1246460000 0.0015770000 0.0007890000
0.1472530000 0.0015770000 0.0015770000
0.1742260000 0.0015770000 0.0023660000
0.2129750000 0.0007890000 0.0023660000
0.2606320000 0.0007890000 0.0031540000
0.3154360000 0.0000000000 0.0031540000
0.3753010000 0.0000000000 0.0023660000
0.4383080000 0.0000000000 0.0015770000
0.4998120000 0.0000000000 0.0015770000
0.5573320000 0.0000000000 0.0007890000
0.6091110000 0.0000000000 0.0007890000
0.6544690000 0.0000000000 0.0000000000
0.6946230000 0.0000000000 0.0000000000
0.7299040000 0.0000000000 0.0000000000
0.7607520000 0.0000000000 0.0000000000
0.7879580000 0.0000000000 0.0000000000
0.8118720000 0.0000000000 0.0007890000
0.8340440000 0.0000000000 0.0015770000
0.8554020000 0.0023660000 0.0039430000
0.8768150000 0.0118290000 0.0094630000
0.8985190000 0.0323320000 0.0205030000
0.9203620000 0.0678520000 0.0386400000
0.9415110000 0.1132700000 0.0628060000
0.9603820000 0.1621890000 0.0917450000
0.9756210000 0.2089120000 0.1236830000
0.9866000000 0.2511320000 0.1577100000
0.9942090000 0.2895610000 0.1923190000
1.0000000000 0.3252410000 0.2263910000
0.0000000000 0.0283890000 0.0000000000
0.0283890000 0.0276000000 0.0000000000
0.0549340000 0.0268120000 0.0000000000
0.0810100000 0.0260230000 0.0000000000
0.1030210000 0.0236570000 0.0000000000
0.1240050000 0.0212920000 0.0007890000
0.1475230000 0.0197140000 0.0007890000
0.1773800000 0.0173490000 0.0015770000
0.2203260000 0.0141940000 0.0015770000
0.2690480000 0.0118290000 0.0015770000
0.3237820000 0.0094630000 0.0015770000
0.3836620000 0.0078860000 0.0015770000
0.4452390000 0.0063090000 0.0007890000
0.5053160000 0.0055200000 0.0007890000
0.5611650000 0.0055200000 0.0000000000
0.6116180000 0.0047310000 0.0000000000
0.6563360000 0.0047310000 0.0000000000
0.6957470000 0.0047310000 0.0000000000
0.7305930000 0.0047310000 0.0000000000
0.7611750000 0.0047310000 0.0000000000
0.7879950000 0.0055200000 0.0000000000
0.8118010000 0.0063090000 0.0000000000
0.8337370000 0.0078860000 0.0007890000
0.8550060000 0.0134060000 0.0023660000
0.8762080000 0.0260230000 0.0078860000
0.8979310000 0.0503480000 0.0181370000
0.9196730000 0.0869650000 0.0346970000
0.9406680000 0.1314990000 0.0580530000
0.9597590000 0.1778250000 0.0869650000
0.9751220000 0.2217290000 0.1197550000
0.9862720000 0.2620810000 0.1546500000
0.9940740000 0.2992660000 0.1898480000
1.0000000000 0.3345970000 0.2251920000
0.0015770000 0.0510200000 0.0007890000
0.0268120000 0.0503480000 0.0007890000
0.0503480000 0.0489850000 0.0007890000
0.0726220000 0.0461810000 0.0007890000
0.0967210000 0.0425160000 0.0000000000
0.1210780000 0.0394290000 0.0000000000
0.1464370000 0.0354860000 0.0007890000
0.1824340000 0.0331200000 0.0007890000
0.2284280000 0.0299660000 0.0015770000
0.2787870000 0.0260230000 0.0015770000
0.3340550000 0.0220800000 0.0007890000
0.3931420000 0.0181370000 0.0007890000
0.4533080000 0.0157710000 0.0007890000
0.5118980000 0.0134060000 0.0000000000
0.5663190000 0.0126170000 0.0000000000
0.6151760000 0.0118290000 0.0000000000
0.6587530000 0.0110400000 0.0000000000
0.6974290000 0.0110400000 0.0000000000
0.7315650000 0.0110400000 0.0000000000
0.7617130000 0.0118290000 0.0000000000
0.7882150000 0.0126170000 0.0000000000
0.8118010000 0.0149830000 0.0000000000
0.8335320000 0.0189260000 0.0007890000
0.8546430000 0.0276000000 0.0015770000
0.8757280000 0.0447380000 0.0063090000
0.8971580000 0.0726220000 0.0149830000
0.9190130000 0.1097120000 0.0307540000
0.9400280000 0.1520500000 0.0536510000
0.9591360000 0.1949570000 0.0824160000
0.9746780000 0.2358930000 0.1156990000
0.9860810000 0.2741740000 0.1509980000
0.9939660000 0.3100380000 0.1877620000
1.0000000000 0.3444850000 0.2238140000
0.0047310000 0.0639530000 0.0015770000
0.0252340000 0.0639530000 0.0015770000
0.0447380000 0.0616430000 0.0015770000
0.0639530000 0.0592670000 0.0015770000
0.0856220000 0.0568200000 0.0015770000
0.1129190000 0.0542950000 0.0015770000
0.1472530000 0.0523470000 0.0007890000
0.1877620000 0.0510200000 0.0007890000
0.2370300000 0.0510200000 0.0007890000
0.2890460000 0.0475960000 0.0007890000
0.3454240000 0.0417590000 0.0007890000
0.4047620000 0.0370630000 0.0007890000
0.4636750000 0.0323320000 0.0000000000
0.5203870000 0.0283890000 0.0000000000
0.5726360000 0.0260230000 0.0000000000
0.6198620000 0.0244460000 0.0000000000
0.6621260000 0.0228690000 0.0000000000
0.6997920000 0.0228690000 0.0000000000
0.7331820000 0.0228690000 0.0000000000
0.7627870000 0.0244460000 0.0000000000
0.7888390000 0.0268120000 0.0000000000
0.8120480000 0.0307540000 0.0000000000
0.8336350000 0.0378520000 0.0000000000
0.8543460000 0.0510200000 0.0015770000
0.8753450000 0.0721040000 0.0047310000
0.8967550000 0.1010900000 0.0118290000
0.9183830000 0.1371470000 0.0268120000
0.9394740000 0.1762600000 0.0482940000
0.9585680000 0.2153360000 0.0771550000
0.9743440000 0.2526440000 0.1111480000
0.9858620000 0.2881430000 0.1475230000
0.9938850000 0.3224280000 0.1850120000
1.0000000000 0.3555550000 0.2224260000
0.0102510000 0.0736490000 0.0039430000
0.0268120000 0.0731370000 0.0039430000
0.0432640000 0.0721040000 0.0039430000
0.0610560000 0.0715840000 0.0031540000
0.0814810000 0.0705330000 0.0031540000
0.1082580000 0.0721040000 0.0031540000
0.1472530000 0.0761670000 0.0015770000
0.1937440000 0.0786190000 0.0007890000
0.2440410000 0.0795820000 0.0007890000
0.2993890000 0.0776460000 0.0000000000
0.3574590000 0.0731370000 0.0000000000
0.4169790000 0.0673050000 0.0000000000
0.4751680000 0.0616430000 0.0000000000
0.5298080000 0.0561960000 0.0000000000
0.5800690000 0.0516860000 0.0000000000
0.6253970000 0.0482940000 0.0000000000
0.6662100000 0.0461810000 0.0000000000
0.7027000000 0.0454630000 0.0000000000
0.7352770000 0.0454630000 0.0000000000
0.7640120000 0.0475960000 0.0000000000
0.7894990000 0.0516860000 0.0000000000
0.8123660000 0.0586620000 0.0000000000
0.8336350000 0.0694700000 0.0000000000
0.8542130000 0.0856220000 0.0007890000
0.8751530000 0.1082580000 0.0031540000
0.8964450000 0.1368550000 0.0094630000
0.9179320000 0.1696130000 0.0220800000
0.9389790000 0.2039940000 0.0425160000
0.9581990000 0.2384830000 0.0715840000
0.9739830000 0.2719710000 0.1056690000
0.9856160000 0.3046480000 0.1428500000
0.9937770000 0.3366460000 0.1815660000
1.0000000000 0.3681550000 0.2201500000
0.0181370000 0.0896000000 0.0055200000
0.0323320000 0.0904630000 0.0063090000
0.0468920000 0.0900320000 0.0055200000
0.0628060000 0.0900320000 0.0055200000
0.0833430000 0.0921680000 0.0047310000
0.1082580000 0.0963150000 0.0039430000
0.1431290000 0.1030210000 0.0023660000
0.1933380000 0.1111480000 0.0007890000
0.2485390000 0.1160420000 0.0007890000
0.3069380000 0.1174050000 0.0000000000
0.3672870000 0.1156990000 0.0000000000
0.4275680000 0.1111480000 0.0000000000
0.4850910000 0.1052950000 0.0000000000
0.5387820000 0.0991260000 0.0000000000
0.5873810000 0.0934290000 0.0000000000
0.6310170000 0.0887290000 0.0000000000
0.6703060000 0.0856220000 0.0000000000
0.7056350000 0.0842610000 0.0000000000
0.7372830000 0.0847170000 0.0000000000
0.7653110000 0.0874090000 0.0000000000
0.7902680000 0.0925900000 0.0000000000
0.8125780000 0.1010900000 0.0000000000
0.8334980000 0.1136200000 0.0000000000
0.8540480000 0.1302800000 0.0007890000
0.8746720000 0.1517880000 0.0023660000
0.8959180000 0.1771560000 0.0070970000
0.9173010000 0.2051400000 0.0173490000
0.9384530000 0.2342570000 0.0362740000
0.9576880000 0.2638070000 0.0639530000
0.9735940000 0.2935140000 0.0983300000
0.9854520000 0.3231060000 0.1368550000
0.9937220000 0.3526240000 0.1771560000
1.0000000000 0.3821920000 0.2174900000
0.0252340000 0.1174050000 0.0078860000
0.0386400000 0.1194220000 0.0078860000
0.0523470000 0.1194220000 0.0070970000
0.0683940000 0.1204180000 0.0070970000
0.0874090000 0.1240050000 0.0055200000
0.1118590000 0.1287390000 0.0047310000
0.1442410000 0.1365630000 0.0023660000
0.1914990000 0.1477940000 0.0007890000
0.2512840000 0.1584660000 0.0000000000
0.3113390000 0.1641390000 0.0000000000
0.3730320000 0.1663040000 0.0000000000
0.4342400000 0.1653450000 0.0000000000
0.4920840000 0.1614520000 0.0000000000
0.5452120000 0.1559330000 0.0000000000
0.5928830000 0.1502030000 0.0000000000
0.6356030000 0.1447930000 0.0000000000
0.6736950000 0.1408800000 0.0000000000
0.7080050000 0.1385950000 0.0000000000
0.7387640000 0.1385950000 0.0000000000
0.7662260000 0.1411640000 0.0000000000
0.7905970000 0.1461650000 0.0000000000
0.8126130000 0.1543920000 0.0000000000
0.8332590000 0.1655860000 0.0000000000
0.8533870000 0.1802550000 0.0000000000
0.8739350000 0.1981510000 0.0015770000
0.8951100000 0.2189130000 0.0047310000
0.9165180000 0.2416770000 0.0134060000
0.9374310000 0.2656620000 0.0299660000
0.9568640000 0.2907150000 0.0555680000
0.9728990000 0.3165950000 0.0896000000
0.9850420000 0.3431240000 0.1293570000
0.9935330000 0.3701730000 0.1710110000
1.0000000000 0.3976480000 0.2135230000
0.0283890000 0.1599660000 0.0078860000
0.0425160000 0.1638970000 0.0078860000
0.0574390000 0.1634110000 0.0070970000
0.0736490000 0.1626790000 0.0063090000
0.0938460000 0.1663040000 0.0055200000
0.1187530000 0.1721670000 0.0039430000
0.1509980000 0.1809120000 0.0007890000
0.1965610000 0.1929310000 0.0007890000
0.2542940000 0.2051400000 0.0000000000
0.3136880000 0.2142500000 0.0000000000
0.3751120000 0.2201500000 0.0000000000
0.4366710000 0.2231210000 0.0000000000
0.4950330000 0.2226000000 0.0000000000
0.5482740000 0.2192680000 0.0000000000
0.5960050000 0.2146130000 0.0000000000
0.6382180000 0.2094710000 0.0000000000
0.6758080000 0.2051400000 0.0000000000
0.7095650000 0.2020670000 0.0000000000
0.7398020000 0.2010960000 0.0000000000
0.7666070000 0.2020670000 0.0000000000
0.7905970000 0.2053310000 0.0000000000
0.8121540000 0.2113230000 0.0000000000
0.8325080000 0.2196210000 0.0000000000
0.8525920000 0.2307800000 0.0000000000
0.8729730000 0.2443540000 0.0007890000
0.8939600000 0.2601960000 0.0031540000
0.9154330000 0.2781140000 0.0094630000
0.9364660000 0.2977780000 0.0228690000
0.9559240000 0.3188970000 0.0461810000
0.9722870000 0.3412270000 0.0795820000
0.9846310000 0.3646650000 0.1194220000
0.9933440000 0.3891140000 0.1634110000
1.0000000000 0.4141550000 0.2083510000
0.0276000000 0.2124260000 0.0078860000
0.0447380000 0.2158770000 0.0078860000
0.0628060000 0.2173120000 0.0070970000
0.0819500000 0.2178470000 0.0063090000
0.1041630000 0.2203260000 0.0047310000
0.1311960000 0.2257070000 0.0023660000
0.1648640000 0.2334350000 0.0007890000
0.2064690000 0.2430980000 0.0007890000
0.2599040000 0.2541450000 0.0000000000
0.3162470000 0.2643790000 0.0000000000
0.3759590000 0.2732130000 0.0000000000
0.4364360000 0.2794580000 0.0000000000
0.4945650000 0.2823880000 0.0000000000
0.5480980000 0.2821230000 0.0000000000
0.5961110000 0.2793240000 0.0000000000
0.6385070000 0.2749940000 0.0000000000
0.6762560000 0.2704450000 0.0000000000
0.7097760000 0.2665130000 0.0000000000
0.7397220000 0.2638070000 0.0000000000
0.7663790000 0.2628010000 0.0000000000
0.7899020000 0.2636630000 0.0000000000
0.8114130000 0.2665130000 0.0000000000
0.8315500000 0.2715560000 0.0000000000
0.8514320000 0.2789210000 0.0000000000
0.8717840000 0.2886600000 0.0000000000
0.8927450000 0.3004990000 0.0015770000
0.9141050000 0.3145050000 0.0063090000
0.9352650000 0.3303440000 0.0165600000
0.9548980000 0.3479130000 0.0370630000
0.9715620000 0.3670930000 0.0683940000
0.9842200000 0.3875790000 0.1082580000
0.9931540000 0.4091950000 0.1536150000
1.0000000000 0.4317930000 0.2014850000
0.0307540000 0.2643790000 0.0094630000
0.0510200000 0.2687680000 0.0094630000
0.0715840000 0.2716940000 0.0086740000
0.0934290000 0.2733500000 0.0078860000
0.1184180000 0.2755400000 0.0063090000
0.1472530000 0.2791900000 0.0039430000
0.1813480000 0.2854130000 0.0023660000
0.2219030000 0.2935140000 0.0015770000
0.2687680000 0.3033130000 0.0007890000
0.3210660000 0.3136880000 0.0007890000
0.3773650000 0.3237820000 0.0000000000
0.4354970000 0.3323150000 0.0000000000
0.4922180000 0.3379320000 0.0000000000
0.5454490000 0.3404870000 0.0000000000
0.5935200000 0.3398500000 0.0000000000
0.6363790000 0.3366460000 0.0000000000
0.6743250000 0.3322060000 0.0000000000
0.7082580000 0.3274720000 0.0000000000
0.7383240000 0.3231060000 0.0000000000
0.7648910000 0.3199270000 0.0000000000
0.7885830000 0.3182090000 0.0000000000
0.8098910000 0.3182090000 0.0000000000
0.8300770000 0.3202690000 0.0000000000
0.8499370000 0.3245690000 0.0000000000
0.8703020000 0.3310020000 0.0000000000
0.8912470000 0.3397440000 0.0007890000
0.9126230000 0.3504820000 0.0039430000
0.9339450000 0.3632960000 0.0118290000
0.9536420000 0.3777390000 0.0283890000
0.9706140000 0.3938530000 0.0561960000
0.9836720000 0.4114740000 0.0954990000
0.9929920000 0.4304430000 0.1422900000
1.0000000000 0.4503880000 0.1927270000
0.0417590000 0.3159000000 0.0157710000
0.0639530000 0.3212940000 0.0157710000
0.0865200000 0.3251290000 0.0149830000
0.1100720000 0.3270270000 0.0141940000
0.1356830000 0.3284690000 0.0118290000
0.1648640000 0.3310020000 0.0094630000
0.1983490000 0.3357850000 0.0070970000
0.2368680000 0.3427030000 0.0055200000
0.2803940000 0.3514020000 0.0039430000
0.3286900000 0.3612320000 0.0031540000
0.3809920000 0.3714150000 0.0023660000
0.4353400000 0.3808070000 0.0015770000
0.4894510000 0.3883920000 0.0007890000
0.5411750000 0.3930530000 0.0007890000
0.5888300000 0.3944740000 0.0007890000
0.6318980000 0.3930530000 0.0007890000
0.6703060000 0.3892040000 0.0007890000
0.7047010000 0.3840280000 0.0007890000
0.7351160000 0.3785790000 0.0000000000
0.7621740000 0.3735060000 0.0000000000
0.7861190000 0.3695020000 0.0000000000
0.8078320000 0.3670930000 0.0000000000
0.8281520000 0.3666090000 0.0000000000
0.8481050000 0.3682520000 0.0000000000
0.8684300000 0.3719870000 0.0000000000
0.8894320000 0.3780190000 0.0007890000
0.9108940000 0.3861270000 0.0023660000
0.9322390000 0.3960650000 0.0070970000
0.9523550000 0.4077530000 0.0205030000
0.9696080000 0.4210910000 0.0447380000
0.9830410000 0.4359670000 0.0814810000
0.9926940000 0.4524120000 0.1287390000
1.0000000000 0.4697860000 0.1813480000
0.0633820000 0.3661240000 0.0276000000
0.0869650000 0.3722720000 0.0291770000
0.1100720000 0.3763350000 0.0291770000
0.1336080000 0.3781130000 0.0276000000
0.1587170000 0.3788580000 0.0252340000
0.1864980000 0.3804370000 0.0220800000
0.2182030000 0.3837530000 0.0181370000
0.2542940000 0.3895640000 0.0149830000
0.2946500000 0.3970330000 0.0126170000
0.3388930000 0.4058760000 0.0102510000
0.3866720000 0.4154040000 0.0078860000
0.4367490000 0.4248300000 0.0070970000
0.4873450000 0.4332160000 0.0055200000
0.5365560000 0.4395500000 0.0047310000
0.5830080000 0.4430200000 0.0039430000
0.6257940000 0.4434040000 0.0039430000
0.6645160000 0.4409420000 0.0039430000
0.6992350000 0.4362800000 0.0031540000
0.7303500000 0.4305230000 0.0023660000
0.7579770000 0.4243450000 0.0015770000
0.7825710000 0.4187120000 0.0007890000
0.8047670000 0.4142380000 0.0007890000
0.8255320000 0.4114740000 0.0000000000
0.8458330000 0.4108010000 0.0000000000
0.8663250000 0.4121460000 0.0000000000
0.8874240000 0.4157360000 0.0000000000
0.9089490000 0.4213360000 0.0007890000
0.9303820000 0.4287690000 0.0047310000
0.9508080000 0.4379190000 0.0134060000
0.9685170000 0.4486540000 0.0331200000
0.9823820000 0.4609090000 0.0667560000
0.9923960000 0.4747460000 0.1132700000
1.0000000000 0.4897900000 0.1670190000
0.0950880000 0.4136540000 0.0475960000
0.1190880000 0.4199450000 0.0503480000
0.1422900000 0.4241830000 0.0516860000
0.1648640000 0.4259600000 0.0510200000
0.1877620000 0.4261210000 0.0482940000
0.2131580000 0.4267650000 0.0440050000
0.2419940000 0.4289290000 0.0394290000
0.2745840000 0.4332950000 0.0346970000
0.3112210000 0.4394720000 0.0307540000
0.3515040000 0.4472160000 0.0268120000
0.3947400000 0.4556860000 0.0228690000
0.4400920000 0.4643990000 0.0205030000
0.4865960000 0.4728410000 0.0181370000
0.5326790000 0.4799880000 0.0165600000
0.5770550000 0.4849540000 0.0149830000
0.6189090000 0.4872770000 0.0149830000
0.6574990000 0.4868680000 0.0141940000
0.6925410000 0.4837190000 0.0126170000
0.7241100000 0.4785970000 0.0102510000
0.7525410000 0.4724160000 0.0078860000
0.7779200000 0.4659870000 0.0047310000
0.8007880000 0.4601780000 0.0031540000
0.8222050000 0.4556860000 0.0015770000
0.8428810000 0.4527850000 0.0007890000
0.8637580000 0.4519630000 0.0007890000
0.8850010000 0.4531590000 0.0000000000
0.9067530000 0.4563530000 0.0007890000
0.9285190000 0.4613470000 0.0023660000
0.9492290000 0.4680710000 0.0086740000
0.9673690000 0.4763610000 0.0236570000
0.9817220000 0.4862540000 0.0530020000
0.9921520000 0.4976290000 0.0959080000
1.0000000000 0.5101020000 0.1486010000
0.1347980000 0.4569440000 0.0751680000
0.1582150000 0.4633120000 0.0800600000
0.1804740000 0.4677120000 0.0833430000
0.2010960000 0.4695010000 0.0828810000
0.2215540000 0.4694300000 0.0800600000
0.2435700000 0.4693580000 0.0756690000
0.2687680000 0.4705700000 0.0705330000
0.2975290000 0.4735470000 0.0650850000
0.3300140000 0.4783880000 0.0598680000
0.3659300000 0.4847490000 0.0549340000
0.4046760000 0.4919490000 0.0503480000
0.4456200000 0.4998780000 0.0468920000
0.4876860000 0.5075860000 0.0432640000
0.5301150000 0.5148320000 0.0409940000
0.5719140000 0.5207630000 0.0386400000
0.6121270000 0.5247520000 0.0378520000
0.6499600000 0.5263000000 0.0362740000
0.6849680000 0.5252480000 0.0339090000
0.7170100000 0.5218260000 0.0299660000
0.7459510000 0.5166710000 0.0244460000
0.7721400000 0.5106160000 0.0181370000
0.7959500000 0.5044690000 0.0126170000
0.8180220000 0.4988870000 0.0078860000
0.8392730000 0.4944990000 0.0055200000
0.8604940000 0.4916800000 0.0031540000
0.8820930000 0.4905330000 0.0015770000
0.9041220000 0.4913430000 0.0015770000
0.9262660000 0.4940300000 0.0015770000
0.9473290000 0.4983580000 0.0055200000
0.9659940000 0.5042730000 0.0165600000
0.9808970000 0.5117700000 0.0394290000
0.9917720000 0.5208880000 0.0771550000
1.0000000000 0.5309100000 0.1256020000
0.1782700000 0.4960340000 0.1089870000
0.2005110000 0.5022460000 0.1156990000
0.2208530000 0.5065500000 0.1197550000
0.2392860000 0.5083620000 0.1204180000
0.2571170000 0.5082980000 0.1180810000
0.2759480000 0.5078450000 0.1136200000
0.2972800000 0.5080390000 0.1086230000
0.3219750000 0.5097800000 0.1030210000
0.3503800000 0.5133680000 0.0983300000
0.3820070000 0.5183760000 0.0934290000
0.4164000000 0.5245040000 0.0891650000
0.4529350000 0.5312760000 0.0851700000
0.4908030000 0.5383020000 0.0819500000
0.5295020000 0.5452120000 0.0791020000
0.5681730000 0.5514310000 0.0766620000
0.6061270000 0.5563540000 0.0751680000
0.6426420000 0.5595680000 0.0741580000
0.6770620000 0.5605950000 0.0715840000
0.7091860000 0.5593960000 0.0656460000
0.7386840000 0.5561240000 0.0568200000
0.7655780000 0.5513730000 0.0468920000
0.7901580000 0.5459210000 0.0362740000
0.8128950000 0.5402790000 0.0268120000
0.8346910000 0.5351670000 0.0189260000
0.8562920000 0.5309100000 0.0134060000
0.8782820000 0.5280270000 0.0086740000
0.9007720000 0.5266710000 0.0063090000
0.9232900000 0.5269800000 0.0039430000
0.9449320000 0.5288880000 0.0047310000
0.9641940000 0.5324350000 0.0110400000
0.9797950000 0.5376400000 0.0283890000
0.9912560000 0.5444430000 0.0580530000
1.0000000000 0.5522460000 0.0979300000
0.2222520000 0.5310320000 0.1461650000
0.2423100000 0.5367370000 0.1536150000
0.2606320000 0.5407570000 0.1584660000
0.2768980000 0.5424850000 0.1594680000
0.2919910000 0.5424260000 0.1577100000
0.3080150000 0.5416520000 0.1538750000
0.3260240000 0.5412940000 0.1494040000
0.3470860000 0.5421280000 0.1445170000
0.3713200000 0.5445020000 0.1403120000
0.3988730000 0.5483920000 0.1365630000
0.4291680000 0.5534070000 0.1333080000
0.4616390000 0.5592240000 0.1305860000
0.4956340000 0.5654170000 0.1281180000
0.5305430000 0.5715800000 0.1256020000
0.5659810000 0.5776050000 0.1240050000
0.6013540000 0.5830620000 0.1230360000
0.6360390000 0.5873810000 0.1227120000
0.6693990000 0.5902200000 0.1207480000
0.7011630000 0.5911810000 0.1156990000
0.7308370000 0.5902200000 0.1064150000
0.7583240000 0.5875420000 0.0938460000
0.7836450000 0.5835500000 0.0791020000
0.8070850000 0.5788660000 0.0639530000
0.8293210000 0.5739110000 0.0503480000
0.8512660000 0.5692370000 0.0386400000
0.8734540000 0.5651910000 0.0291770000
0.8962280000 0.5621900000 0.0212920000
0.9192530000 0.5604240000 0.0149830000
0.9415110000 0.5601390000 0.0118290000
0.9616550000 0.5612790000 0.0126170000
0.9781670000 0.5641740000 0.0212920000
0.9904960000 0.5685650000 0.0409940000
1.0000000000 0.5739660000 0.0689340000
0.2633760000 0.5620760000 0.1837280000
0.2814590000 0.5672190000 0.1912930000
0.2977780000 0.5707450000 0.1961620000
0.3119280000 0.5721920000 0.1977550000
0.3250170000 0.5721360000 0.1961620000
0.3385730000 0.5712460000 0.1931350000
0.3539410000 0.5706330000 0.1890160000
0.3716060000 0.5708000000 0.1852250000
0.3924300000 0.5721920000 0.1817830000
0.4162340000 0.5750720000 0.1791550000
0.4427130000 0.5791390000 0.1771560000
0.4714230000 0.5840370000 0.1758110000
0.5017210000 0.5894180000 0.1746810000
0.5332870000 0.5950550000 0.1737710000
0.5655300000 0.6007280000 0.1730850000
0.5981620000 0.6061270000 0.1730850000
0.6307230000 0.6111070000 0.1737710000
0.6626330000 0.6150740000 0.1735430000
0.6936260000 0.6178520000 0.1712430000
0.7230840000 0.6191600000 0.1651050000
0.7508620000 0.6187080000 0.1541330000
0.7766490000 0.6167930000 0.1394560000
0.8006440000 0.6137560000 0.1217340000
0.8233160000 0.6098800000 0.1034030000
0.8454650000 0.6055590000 0.0856220000
0.8678150000 0.6013540000 0.0694700000
0.8906530000 0.5974800000 0.0549340000
0.9140750000 0.5943140000 0.0425160000
0.9369930000 0.5921390000 0.0331200000
0.9581140000 0.5912340000 0.0268120000
0.9757320000 0.5917130000 0.0268120000
0.9892990000 0.5936260000 0.0339090000
1.0000000000 0.5965320000 0.0482940000
0.3008680000 0.5897930000 0.2201500000
0.3170570000 0.5941020000 0.2272420000
0.3316590000 0.5972170000 0.2321110000
0.3441720000 0.5985820000 0.2337640000
0.3557560000 0.5985300000 0.2326090000
0.3674800000 0.5976900000 0.2301110000
0.3806220000 0.5969010000 0.2267320000
0.3957120000 0.5965850000 0.2232950000
0.4134860000 0.5973740000 0.2205020000
0.4338470000 0.5992640000 0.2185590000
0.4570910000 0.6025520000 0.2176690000
0.4824100000 0.6066420000 0.2174900000
0.5095230000 0.6114130000 0.2176690000
0.5378210000 0.6163900000 0.2180250000
0.5671630000 0.6216140000 0.2185590000
0.5970590000 0.6268330000 0.2196210000
0.6272780000 0.6318980000 0.2212040000
0.6574990000 0.6366210000 0.2227740000
0.6871240000 0.6406270000 0.2234680000
0.7160120000 0.6435500000 0.2215540000
0.7436180000 0.6452680000 0.2158770000
0.7696070000 0.6455060000 0.2053310000
0.7939160000 0.6444100000 0.1900550000
0.8168670000 0.6420670000 0.1717060000
0.8391040000 0.6389420000 0.1512610000
0.8614090000 0.6352630000 0.1305860000
0.8842750000 0.6314580000 0.1107910000
0.9077600000 0.6277710000 0.0921680000
0.9311490000 0.6245540000 0.0761670000
0.9532420000 0.6220640000 0.0628060000
0.9722310000 0.6206140000 0.0530020000
0.9874740000 0.6201630000 0.0489850000
1.0000000000 0.6205640000 0.0489850000
0.3351370000 0.6148210000 0.2547430000
0.3496630000 0.6186070000 0.2613570000
0.3627080000 0.6212650000 0.2659460000
0.3739800000 0.6224630000 0.2676430000
0.3843030000 0.6224630000 0.2667960000
0.3947400000 0.6217640000 0.2646650000
0.4062180000 0.6209140000 0.2617920000
0.4192880000 0.6204140000 0.2588810000
0.4343980000 0.6205640000 0.2563780000
0.4521130000 0.6219140000 0.2548920000
0.4723450000 0.6244050000 0.2542940000
0.4946320000 0.6278210000 0.2547430000
0.5187540000 0.6319470000 0.2557850000
0.5443250000 0.6364760000 0.2572650000
0.5708000000 0.6412510000 0.2587350000
0.5981620000 0.6461240000 0.2604870000
0.6260410000 0.6510910000 0.2626570000
0.6541420000 0.6559630000 0.2652350000
0.6823170000 0.6606040000 0.2679250000
