bundles/resolve-cinematic-luts/Gamut/Cascade/06 Flash.cube
TITLE "Cascade Flash by Gamut.io"
# Copyright 2020 Gamut.io
LUT_3D_SIZE 5
0.0000000000 0.0000000000 0.0000000000
0.2129750000 0.0007890000 0.0023660000
0.6544690000 0.0000000000 0.0000000000
0.8768150000 0.0118290000 0.0094630000
1.0000000000 0.3252410000 0.2263910000
0.0276000000 0.2124260000 0.0078860000
0.2599040000 0.2541450000 0.0000000000
0.6762560000 0.2704450000 0.0000000000
0.8717840000 0.2886600000 0.0000000000
1.0000000000 0.4317930000 0.2014850000
0.2633760000 0.5620760000 0.1837280000
0.3924300000 0.5721920000 0.1817830000
0.6307230000 0.6111070000 0.1737710000
0.8454650000 0.6055590000 0.0856220000
1.0000000000 0.5965320000 0.0482940000
0.4998780000 0.7444100000 0.4307610000
0.5562390000 0.7443700000 0.4282090000
0.6603270000 0.7578990000 0.4355750000
0.8102450000 0.7899390000 0.4590790000
0.9737050000 0.8008960000 0.4553900000
0.6706690000 0.9050410000 0.6318000000
0.7111210000 0.9032630000 0.6269320000
0.7718000000 0.9104090000 0.6361850000
0.8503690000 0.9309720000 0.6546090000
0.9663590000 0.9541560000 0.6672600000
0.0007890000 0.0070970000 0.2494580000
0.3282480000 0.0000000000 0.3012360000
0.7138020000 0.0015770000 0.2813270000
0.8567850000 0.2466890000 0.3516060000
0.9946960000 0.4154040000 0.4407880000
0.1139690000 0.2874960000 0.2545930000
0.3281370000 0.3253530000 0.2985230000
0.6750450000 0.3227670000 0.2810600000
0.8458330000 0.3889340000 0.3281370000
0.9968270000 0.4952330000 0.4323470000
0.3783930000 0.5969010000 0.4112220000
0.4617120000 0.5997870000 0.4105480000
0.6356030000 0.6231610000 0.4091950000
0.8354060000 0.6120760000 0.3334040000
0.9991410000 0.6191100000 0.3719870000
0.5327400000 0.7553040000 0.5282120000
0.5843620000 0.7554590000 0.5261150000
0.6697620000 0.7617510000 0.5241940000
0.8104570000 0.7938800000 0.5470990000
0.9713110000 0.8033720000 0.5388420000
0.6765250000 0.9082180000 0.6869040000
0.7173840000 0.9071200000 0.6834230000
0.7750000000 0.9131680000 0.6896210000
0.8517640000 0.9323860000 0.7056770000
0.9667240000 0.9554400000 0.7173010000
0.1227120000 0.1569510000 0.6021350000
0.3941190000 0.0975290000 0.6406750000
0.7457930000 0.0007890000 0.6605120000
0.9022490000 0.1921140000 0.5942080000
0.9979310000 0.4557610000 0.6123820000
0.3585560000 0.4697860000 0.5908610000
0.4385410000 0.4392400000 0.6136540000
0.7071600000 0.3361080000 0.6379280000
0.8583300000 0.4478980000 0.6006230000
0.9829580000 0.5585950000 0.6316050000
0.4575340000 0.6230610000 0.5831700000
0.5401000000 0.6341440000 0.5964270000
0.6587530000 0.6556370000 0.6234100000
0.8159210000 0.6505730000 0.6148210000
0.9675930000 0.6689440000 0.6324360000
0.5820300000 0.7793750000 0.6571270000
0.6349710000 0.7833860000 0.6630930000
0.6991920000 0.7800830000 0.6569880000
0.8144800000 0.8046950000 0.6751350000
0.9728430000 0.8036940000 0.6502900000
0.6892270000 0.9168190000 0.7649680000
0.7293350000 0.9162470000 0.7627490000
0.7818300000 0.9206910000 0.7640120000
0.8543120000 0.9359100000 0.7725170000
0.9691890000 0.9603260000 0.7825340000
0.4532330000 0.4539040000 0.8007520000
0.5334090000 0.4324260000 0.8059090000
0.6982470000 0.3227670000 0.8218230000
0.9067230000 0.2092850000 0.8328840000
1.0000000000 0.4231280000 0.7861930000
0.4953000000 0.5704100000 0.7820150000
0.5540440000 0.5577920000 0.7896460000
0.6862450000 0.5064200000 0.8086850000
0.8756330000 0.4424830000 0.8225870000
0.9999460000 0.5365560000 0.7888390000
0.5765600000 0.6950120000 0.7465420000
0.6252480000 0.6996210000 0.7591730000
0.6880010000 0.6889650000 0.7908900000
0.8425110000 0.6574530000 0.8153590000
0.9921790000 0.6862890000 0.7962760000
0.6132470000 0.7940980000 0.7730450000
0.6647910000 0.7974700000 0.7784800000
0.7379240000 0.8051240000 0.7909990000
0.8227610000 0.8198380000 0.8121900000
0.9590510000 0.8162360000 0.8073700000
0.7052530000 0.9271860000 0.8440570000
0.7459110000 0.9285190000 0.8445940000
0.7969280000 0.9368760000 0.8499040000
0.8615730000 0.9457420000 0.8527250000
0.9760090000 0.9705860000 0.8627800000
0.6482590000 0.6566160000 0.9518970000
0.6888340000 0.6472160000 0.9535560000
0.7478020000 0.6179530000 0.9618530000
0.8496040000 0.5414730000 0.9812000000
0.9999460000 0.4566480000 0.9948040000
0.6595870000 0.7138440000 0.9464630000
0.7003920000 0.7075820000 0.9490270000
0.7552270000 0.6849680000 0.9583700000
0.8466360000 0.6226130000 0.9770610000
0.9998120000 0.5494460000 0.9918800000
0.6934520000 0.7937340000 0.9371390000
0.7299850000 0.7896090000 0.9414820000
0.7722150000 0.7766860000 0.9518970000
0.8441910000 0.7424280000 0.9702790000
1.0000000000 0.6851890000 0.9876100000
0.7181720000 0.8680420000 0.9293180000
0.7592120000 0.8690120000 0.9308540000
0.8061230000 0.8703020000 0.9354120000
0.8510670000 0.8545440000 0.9617400000
1.0000000000 0.8247360000 0.9877470000
0.7362010000 0.9617960000 0.9547840000
0.7770230000 0.9627840000 0.9560100000
0.8264640000 0.9666670000 0.9607500000
0.8915280000 0.9750380000 0.9708370000
0.9973120000 0.9973120000 0.9972040000
