bundles/resolve-cinematic-luts/Gamut/Cascade/TOOL - Interior HSL.cube
TITLE "Cascade TOOL Interior HSL by Gamut.io "
# Copyright 2020 Gamut.io
LUT_3D_SIZE 5
0.0000000000 0.0000000000 0.0000000000
0.2449790000 0.0086740000 0.0086740000
0.4964330000 0.0228690000 0.0228690000
0.7491770000 0.0639530000 0.0633820000
0.9984150000 0.1240050000 0.1236830000
0.0039430000 0.2485390000 0.0039430000
0.2294390000 0.2304450000 0.0805360000
0.4869370000 0.2613570000 0.1010900000
0.7472900000 0.2783830000 0.1223870000
0.9963960000 0.3014810000 0.1705470000
0.0205030000 0.4975630000 0.0205030000
0.2518890000 0.4983580000 0.0220800000
0.4733350000 0.4755890000 0.2135230000
0.7204890000 0.5171140000 0.2722470000
0.9878560000 0.5491530000 0.2916090000
0.0536510000 0.7473690000 0.0536510000
0.2548920000 0.7486270000 0.0299660000
0.5104230000 0.7442510000 0.1658250000
0.7287660000 0.7302280000 0.3694060000
0.9363490000 0.7724790000 0.5161010000
0.1227120000 0.9976890000 0.1223870000
0.2743110000 0.9982810000 0.1045420000
0.5036200000 0.9994630000 0.0482940000
0.7832380000 0.9879650000 0.4144880000
0.9781950000 0.9783330000 0.6552170000
0.0165600000 0.0165600000 0.2418350000
0.2499160000 0.0007890000 0.2497630000
0.5000100000 0.0000000000 0.2500680000
0.7498040000 0.0126170000 0.2524930000
0.9984150000 0.1007000000 0.2734880000
0.0645210000 0.2451350000 0.2449790000
0.2500680000 0.2500680000 0.2500680000
0.4961670000 0.2581480000 0.2606320000
0.7477630000 0.2723860000 0.2738990000
0.9962070000 0.2975290000 0.2983990000
0.0694700000 0.4951670000 0.2582950000
0.2541450000 0.4981590000 0.2533960000
0.4826170000 0.4839250000 0.3217480000
0.7318890000 0.5266090000 0.3604420000
0.9871190000 0.5530590000 0.3828360000
0.0838030000 0.7463060000 0.2653770000
0.2609220000 0.7476050000 0.2603410000
0.5086850000 0.7466600000 0.2884020000
0.7320510000 0.7339080000 0.4436340000
0.9407260000 0.7793380000 0.5613360000
0.1504680000 0.9970160000 0.2919910000
0.2850210000 0.9976890000 0.2844960000
0.5031630000 0.9995170000 0.2587350000
0.7833120000 0.9890000000 0.4663470000
0.9790780000 0.9791880000 0.6828920000
0.0542950000 0.0549340000 0.4861860000
0.2527940000 0.0496690000 0.4908710000
0.4998120000 0.0015770000 0.4998120000
0.7498440000 0.0007890000 0.4999440000
1.0000000000 0.0007890000 0.5000100000
0.1180810000 0.2666550000 0.4860490000
0.2646650000 0.2639500000 0.4905330000
0.4998120000 0.2503730000 0.4997460000
0.7500000000 0.2500680000 0.5000100000
1.0000000000 0.2500680000 0.4999440000
0.1638970000 0.4904660000 0.4904660000
0.2909710000 0.4931590000 0.4930920000
0.4999440000 0.5000100000 0.5000100000
0.7474870000 0.5127930000 0.5156580000
0.9926120000 0.5320090000 0.5343190000
0.1841570000 0.7411160000 0.5115140000
0.2992660000 0.7431820000 0.5107440000
0.5042730000 0.7482740000 0.5036200000
0.7413550000 0.7425470000 0.5876500000
0.9599010000 0.7915110000 0.6543290000
0.2231210000 0.9946420000 0.5305430000
0.3220880000 0.9955330000 0.5268560000
0.5149590000 0.9979850000 0.5143230000
0.7733080000 0.9935870000 0.5734680000
0.9818050000 0.9819970000 0.7506660000
0.1243260000 0.1246460000 0.7357190000
0.2749940000 0.1210780000 0.7375240000
0.5013920000 0.0917450000 0.7434990000
0.7499610000 0.0007890000 0.7500000000
1.0000000000 0.0007890000 0.7500000000
0.1653450000 0.2932610000 0.7353970000
0.2899460000 0.2895610000 0.7372030000
0.5037510000 0.2754040000 0.7429840000
0.7499220000 0.2502200000 0.7499220000
0.9999460000 0.2502200000 0.7500000000
0.2378390000 0.5176190000 0.7331420000
0.3341640000 0.5190680000 0.7349550000
0.5158480000 0.5152770000 0.7414350000
0.7499610000 0.5004050000 0.7498830000
0.9999460000 0.5000760000 0.7500000000
0.2758120000 0.7392030000 0.7390830000
0.3609360000 0.7402400000 0.7400810000
0.5377010000 0.7436970000 0.7435780000
0.7499610000 0.7500790000 0.7500000000
0.9935330000 0.7663020000 0.7702890000
0.3430190000 0.9883460000 0.7701000000
0.4063040000 0.9894900000 0.7694940000
0.5551430000 0.9930460000 0.7664550000
0.7556150000 0.9986570000 0.7549550000
0.9875560000 0.9876650000 0.8563570000
0.2499160000 0.2500680000 0.9885910000
0.3431240000 0.2451350000 0.9893270000
0.5297470000 0.2243320000 0.9916360000
0.7537490000 0.1569510000 0.9961530000
0.9999460000 0.0015770000 1.0000000000
0.2841030000 0.3689260000 0.9878010000
0.3646650000 0.3643720000 0.9885910000
0.5377610000 0.3479130000 0.9910390000
0.7551880000 0.3057350000 0.9957760000
0.9999460000 0.2502200000 1.0000000000
0.3643720000 0.5776600000 0.9856440000
0.4215810000 0.5742980000 0.9865730000
0.5625300000 0.5620760000 0.9894350000
0.7602520000 0.5345010000 0.9947500000
0.9999460000 0.5001420000 1.0000000000
0.4272470000 0.7852340000 0.9858350000
0.4781790000 0.7852710000 0.9861360000
0.6035390000 0.7840520000 0.9876650000
0.7725170000 0.7719510000 0.9933440000
0.9999460000 0.7501180000 1.0000000000
0.4569440000 0.9933980000 0.9932890000
0.5026390000 0.9936410000 0.9935330000
0.6219640000 0.9945070000 0.9944530000
0.7947880000 0.9963420000 0.9962880000
1.0000000000 1.0000000000 1.0000000000
