bundles/resolve-cinematic-luts/Gamut/Cascade/TOOL - Interior HSL.cube
TITLE "Cascade TOOL Interior HSL by Gamut.io "
# Copyright 2020 Gamut.io
LUT_3D_SIZE 33
0.0000000000 0.0000000000 0.0000000000
0.0307540000 0.0007890000 0.0007890000
0.0604640000 0.0007890000 0.0015770000
0.0904630000 0.0015770000 0.0023660000
0.1217340000 0.0031540000 0.0031540000
0.1517880000 0.0039430000 0.0039430000
0.1826500000 0.0055200000 0.0055200000
0.2138870000 0.0070970000 0.0070970000
0.2449790000 0.0086740000 0.0086740000
0.2762200000 0.0102510000 0.0102510000
0.3070580000 0.0118290000 0.0118290000
0.3386790000 0.0126170000 0.0134060000
0.3702690000 0.0141940000 0.0141940000
0.4016580000 0.0157710000 0.0157710000
0.4332160000 0.0181370000 0.0173490000
0.4647600000 0.0205030000 0.0197140000
0.4964330000 0.0228690000 0.0228690000
0.5278420000 0.0268120000 0.0260230000
0.5595680000 0.0307540000 0.0307540000
0.5911270000 0.0354860000 0.0346970000
0.6228620000 0.0402170000 0.0402170000
0.6544690000 0.0454630000 0.0454630000
0.6861130000 0.0516860000 0.0510200000
0.7177160000 0.0574390000 0.0574390000
0.7491770000 0.0639530000 0.0633820000
0.7805670000 0.0705330000 0.0700030000
0.8120130000 0.0771550000 0.0766620000
0.8433520000 0.0842610000 0.0838030000
0.8746080000 0.0917450000 0.0913190000
0.9057450000 0.0991260000 0.0987290000
0.9367880000 0.1071560000 0.1067860000
0.9675930000 0.1153550000 0.1150100000
0.9984150000 0.1240050000 0.1236830000
0.0000000000 0.0307540000 0.0007890000
0.0268120000 0.0268120000 0.0055200000
0.0516860000 0.0299660000 0.0086740000
0.0851700000 0.0331200000 0.0078860000
0.1170660000 0.0346970000 0.0086740000
0.1483330000 0.0362740000 0.0102510000
0.1793760000 0.0370630000 0.0110400000
0.2111390000 0.0386400000 0.0118290000
0.2424680000 0.0394290000 0.0126170000
0.2738990000 0.0409940000 0.0141940000
0.3057350000 0.0425160000 0.0149830000
0.3376110000 0.0440050000 0.0157710000
0.3693100000 0.0447380000 0.0173490000
0.4007900000 0.0461810000 0.0189260000
0.4327420000 0.0482940000 0.0205030000
0.4641820000 0.0503480000 0.0228690000
0.4959000000 0.0530020000 0.0260230000
0.5275960000 0.0555680000 0.0299660000
0.5591100000 0.0592670000 0.0339090000
0.5908070000 0.0628060000 0.0386400000
0.6226630000 0.0667560000 0.0440050000
0.6543760000 0.0710600000 0.0496690000
0.6859370000 0.0756690000 0.0549340000
0.7175080000 0.0805360000 0.0610560000
0.7490590000 0.0856220000 0.0667560000
0.7805670000 0.0913190000 0.0731370000
0.8119780000 0.0967210000 0.0795820000
0.8433850000 0.1030210000 0.0865200000
0.8746400000 0.1093500000 0.0938460000
0.9056840000 0.1160420000 0.1014790000
0.9366710000 0.1230360000 0.1093500000
0.9675650000 0.1305860000 0.1177440000
0.9982810000 0.1385950000 0.1262350000
0.0007890000 0.0616430000 0.0007890000
0.0315430000 0.0598680000 0.0039430000
0.0549340000 0.0549340000 0.0126170000
0.0761670000 0.0561960000 0.0205030000
0.1104320000 0.0616430000 0.0181370000
0.1439640000 0.0645210000 0.0165600000
0.1762600000 0.0662020000 0.0165600000
0.2079760000 0.0678520000 0.0173490000
0.2404050000 0.0694700000 0.0173490000
0.2725240000 0.0705330000 0.0181370000
0.3044060000 0.0715840000 0.0189260000
0.3362160000 0.0731370000 0.0197140000
0.3682520000 0.0741580000 0.0212920000
0.4000070000 0.0756690000 0.0228690000
0.4317930000 0.0776460000 0.0244460000
0.4638200000 0.0795820000 0.0276000000
0.4953000000 0.0814810000 0.0307540000
0.5272260000 0.0838030000 0.0346970000
0.5589380000 0.0865200000 0.0386400000
0.5905410000 0.0896000000 0.0432640000
0.6223630000 0.0930110000 0.0482940000
0.6540010000 0.0963150000 0.0536510000
0.6858050000 0.0999160000 0.0592670000
0.7173420000 0.1037840000 0.0650850000
0.7489020000 0.1082580000 0.0705330000
0.7804920000 0.1125670000 0.0766620000
0.8119070000 0.1174050000 0.0833430000
0.8432840000 0.1227120000 0.0900320000
0.8745120000 0.1281180000 0.0971260000
0.9056530000 0.1342040000 0.1049190000
0.9366120000 0.1403120000 0.1125670000
0.9674530000 0.1472530000 0.1207480000
0.9982270000 0.1541330000 0.1290490000
0.0015770000 0.0934290000 0.0007890000
0.0315430000 0.0925900000 0.0015770000
0.0616430000 0.0882910000 0.0102510000
0.0828810000 0.0828810000 0.0220800000
0.1018670000 0.0819500000 0.0331200000
0.1359770000 0.0887290000 0.0291770000
0.1707790000 0.0925900000 0.0260230000
0.2041850000 0.0950880000 0.0244460000
0.2373540000 0.0971260000 0.0244460000
0.2698870000 0.0991260000 0.0244460000
0.3024600000 0.1003090000 0.0244460000
0.3350290000 0.1018670000 0.0252340000
0.3669000000 0.1034030000 0.0268120000
0.3989610000 0.1045420000 0.0283890000
0.4309200000 0.1064150000 0.0307540000
0.4628040000 0.1078920000 0.0339090000
0.4948330000 0.1100720000 0.0370630000
0.5266710000 0.1122140000 0.0409940000
0.5585370000 0.1143170000 0.0447380000
0.5903800000 0.1170660000 0.0496690000
0.6221140000 0.1194220000 0.0542950000
0.6537670000 0.1223870000 0.0592670000
0.6854970000 0.1256020000 0.0645210000
0.7172180000 0.1287390000 0.0700030000
0.7489020000 0.1324070000 0.0756690000
0.7803430000 0.1362700000 0.0814810000
0.8118010000 0.1403120000 0.0878510000
0.8431840000 0.1447930000 0.0946760000
0.8743840000 0.1494040000 0.1014790000
0.9055310000 0.1546500000 0.1089870000
0.9365540000 0.1602150000 0.1167260000
0.9673690000 0.1663040000 0.1246460000
0.9980390000 0.1726270000 0.1330090000
0.0015770000 0.1243260000 0.0015770000
0.0315430000 0.1243260000 0.0015770000
0.0628060000 0.1217340000 0.0063090000
0.0900320000 0.1170660000 0.0165600000
0.1107910000 0.1115040000 0.0299660000
0.1278060000 0.1078920000 0.0454630000
0.1626790000 0.1153550000 0.0409940000
0.1977550000 0.1204180000 0.0378520000
0.2326090000 0.1240050000 0.0346970000
0.2663720000 0.1268660000 0.0339090000
0.2997600000 0.1290490000 0.0331200000
0.3329690000 0.1311960000 0.0339090000
0.3653470000 0.1327080000 0.0346970000
0.3975600000 0.1342040000 0.0370630000
0.4297270000 0.1359770000 0.0394290000
0.4620760000 0.1377280000 0.0425160000
0.4940300000 0.1394560000 0.0454630000
0.5259910000 0.1414460000 0.0489850000
0.5577920000 0.1434080000 0.0530020000
0.5897930000 0.1456180000 0.0574390000
0.6217140000 0.1477940000 0.0616430000
0.6534860000 0.1504680000 0.0667560000
0.6853650000 0.1530950000 0.0715840000
0.7170520000 0.1556770000 0.0766620000
0.7487060000 0.1587170000 0.0819500000
0.7802320000 0.1621890000 0.0878510000
0.8116950000 0.1655860000 0.0938460000
0.8430150000 0.1696130000 0.1003090000
0.8742880000 0.1737710000 0.1071560000
0.9053780000 0.1782700000 0.1143170000
0.9363780000 0.1832980000 0.1220610000
0.9671440000 0.1885990000 0.1299730000
0.9978510000 0.1941490000 0.1380170000
0.0023660000 0.1551640000 0.0023660000
0.0323320000 0.1556770000 0.0015770000
0.0628060000 0.1546500000 0.0031540000
0.0930110000 0.1509980000 0.0118290000
0.1190880000 0.1458910000 0.0228690000
0.1397420000 0.1400280000 0.0394290000
0.1572050000 0.1362700000 0.0561960000
0.1896400000 0.1428500000 0.0555680000
0.2251920000 0.1488690000 0.0523470000
0.2603410000 0.1530950000 0.0496690000
0.2951530000 0.1569510000 0.0475960000
0.3295730000 0.1599660000 0.0468920000
0.3629040000 0.1624340000 0.0468920000
0.3957120000 0.1643810000 0.0482940000
0.4284490000 0.1663040000 0.0503480000
0.4606900000 0.1679670000 0.0530020000
0.4929580000 0.1698470000 0.0561960000
0.5250000000 0.1717060000 0.0592670000
0.5571600000 0.1735430000 0.0633820000
0.5890970000 0.1755850000 0.0667560000
0.6211650000 0.1776030000 0.0710600000
0.6530640000 0.1798160000 0.0756690000
0.6849240000 0.1820000000 0.0800600000
0.7167610000 0.1845850000 0.0847170000
0.7484700000 0.1873420000 0.0900320000
0.7800090000 0.1900550000 0.0954990000
0.8114130000 0.1931350000 0.1014790000
0.8428140000 0.1965610000 0.1075240000
0.8740640000 0.2003150000 0.1143170000
0.9051020000 0.2043770000 0.1210780000
0.9361730000 0.2087250000 0.1284290000
0.9669200000 0.2133400000 0.1362700000
0.9976080000 0.2185590000 0.1445170000
0.0023660000 0.1862870000 0.0023660000
0.0323320000 0.1867090000 0.0015770000
0.0628060000 0.1864980000 0.0023660000
0.0938460000 0.1845850000 0.0078860000
0.1227120000 0.1806930000 0.0181370000
0.1483330000 0.1753600000 0.0331200000
0.1693790000 0.1700810000 0.0516860000
0.1877620000 0.1660650000 0.0689340000
0.2176690000 0.1717060000 0.0721040000
0.2530950000 0.1780480000 0.0700030000
0.2885310000 0.1828660000 0.0673050000
0.3240070000 0.1875520000 0.0650850000
0.3589540000 0.1912930000 0.0639530000
0.3930530000 0.1941490000 0.0633820000
0.4262820000 0.1963620000 0.0645210000
0.4592260000 0.1985470000 0.0662020000
0.4917470000 0.2005110000 0.0689340000
0.5238830000 0.2024540000 0.0715840000
0.5562970000 0.2043770000 0.0751680000
0.5885080000 0.2062800000 0.0786190000
0.6205140000 0.2081640000 0.0819500000
0.6525480000 0.2102140000 0.0860720000
0.6844390000 0.2122430000 0.0900320000
0.7163870000 0.2146130000 0.0946760000
0.7480770000 0.2169540000 0.0995220000
0.7797110000 0.2194440000 0.1045420000
0.8112000000 0.2222520000 0.1100720000
0.8425450000 0.2251920000 0.1160420000
0.8738710000 0.2285970000 0.1223870000
0.9048570000 0.2321110000 0.1293570000
0.9358800000 0.2360560000 0.1365630000
0.9666670000 0.2402460000 0.1439640000
0.9972580000 0.2446670000 0.1517880000
0.0031540000 0.2174900000 0.0031540000
0.0331200000 0.2176690000 0.0023660000
0.0633820000 0.2178470000 0.0023660000
0.0942620000 0.2169540000 0.0055200000
0.1246460000 0.2142500000 0.0141940000
0.1528350000 0.2100290000 0.0283890000
0.1780480000 0.2051400000 0.0461810000
0.1991380000 0.2001200000 0.0656460000
0.2182030000 0.1963620000 0.0828810000
0.2463790000 0.2010960000 0.0904630000
0.2809270000 0.2074120000 0.0891650000
0.3165950000 0.2131580000 0.0869650000
0.3525220000 0.2183810000 0.0842610000
0.3880310000 0.2226000000 0.0824160000
0.4227220000 0.2260490000 0.0814810000
0.4566480000 0.2289340000 0.0824160000
0.4899930000 0.2312800000 0.0838030000
0.5226380000 0.2332700000 0.0856220000
0.5552590000 0.2354030000 0.0882910000
0.5874880000 0.2373540000 0.0913190000
0.6197620000 0.2391260000 0.0942620000
0.6520320000 0.2412010000 0.0979300000
0.6840420000 0.2430980000 0.1014790000
0.7158870000 0.2451350000 0.1056690000
0.7478020000 0.2474610000 0.1100720000
0.7793750000 0.2497630000 0.1150100000
0.8109170000 0.2521910000 0.1204180000
0.8422420000 0.2548920000 0.1259190000
0.8735830000 0.2580010000 0.1321050000
0.9046430000 0.2612130000 0.1385950000
0.9355000000 0.2646650000 0.1456180000
0.9662180000 0.2684870000 0.1528350000
0.9968810000 0.2725240000 0.1604630000
0.0039430000 0.2485390000 0.0039430000
0.0339090000 0.2488450000 0.0031540000
0.0639530000 0.2491520000 0.0023660000
0.0946760000 0.2488450000 0.0039430000
0.1252840000 0.2471530000 0.0102510000
0.1551640000 0.2440410000 0.0228690000
0.1830820000 0.2397660000 0.0409940000
0.2079760000 0.2350770000 0.0610560000
0.2294390000 0.2304450000 0.0805360000
0.2489990000 0.2270720000 0.0987290000
0.2754040000 0.2304450000 0.1093500000
0.3090880000 0.2370300000 0.1097120000
0.3443810000 0.2432560000 0.1078920000
0.3807150000 0.2491520000 0.1049190000
0.4168970000 0.2541450000 0.1026370000
0.4523370000 0.2581480000 0.1014790000
0.4869370000 0.2613570000 0.1010900000
0.5206380000 0.2639500000 0.1018670000
0.5537550000 0.2663720000 0.1034030000
0.5865200000 0.2684870000 0.1056690000
0.6189090000 0.2704450000 0.1082580000
0.6512800000 0.2723860000 0.1115040000
0.6834670000 0.2743110000 0.1146640000
0.7153880000 0.2762200000 0.1184180000
0.7472900000 0.2783830000 0.1223870000
0.7789650000 0.2805270000 0.1268660000
0.8105640000 0.2829170000 0.1318030000
0.8419050000 0.2854130000 0.1371470000
0.8731970000 0.2881430000 0.1431290000
0.9041830000 0.2910990000 0.1491370000
0.9351180000 0.2942720000 0.1559330000
0.9658810000 0.2977780000 0.1631670000
0.9963960000 0.3014810000 0.1705470000
0.0055200000 0.2797260000 0.0055200000
0.0346970000 0.2801270000 0.0039430000
0.0645210000 0.2803940000 0.0031540000
0.0950880000 0.2802600000 0.0031540000
0.1256020000 0.2794580000 0.0078860000
0.1561880000 0.2771690000 0.0181370000
0.1858630000 0.2738990000 0.0346970000
0.2135230000 0.2697470000 0.0555680000
0.2383220000 0.2653770000 0.0766620000
0.2597580000 0.2609220000 0.0971260000
0.2795920000 0.2578540000 0.1153550000
0.3041630000 0.2601960000 0.1287390000
0.3371820000 0.2667960000 0.1305860000
0.3723680000 0.2733500000 0.1293570000
0.4087720000 0.2798590000 0.1265510000
0.4454670000 0.2855440000 0.1236830000
0.4815130000 0.2900750000 0.1217340000
0.5169240000 0.2937670000 0.1207480000
0.5513150000 0.2969060000 0.1207480000
0.5848480000 0.2993890000 0.1217340000
0.6179530000 0.3017260000 0.1236830000
0.6504790000 0.3036780000 0.1259190000
0.6826710000 0.3056150000 0.1287390000
0.7148870000 0.3076570000 0.1321050000
0.7468180000 0.3096830000 0.1356830000
0.7784800000 0.3118110000 0.1400280000
0.8101390000 0.3139220000 0.1445170000
0.8415010000 0.3163630000 0.1496710000
0.8727480000 0.3188970000 0.1549070000
0.9037840000 0.3216340000 0.1609580000
0.9346200000 0.3245690000 0.1674940000
0.9652910000 0.3278040000 0.1744540000
0.9957760000 0.3312220000 0.1815660000
0.0070970000 0.3108670000 0.0070970000
0.0362740000 0.3111030000 0.0055200000
0.0656460000 0.3113390000 0.0047310000
0.0954990000 0.3115750000 0.0039430000
0.1259190000 0.3114570000 0.0055200000
0.1569510000 0.3100380000 0.0134060000
0.1875520000 0.3072970000 0.0291770000
0.2169540000 0.3039210000 0.0496690000
0.2440410000 0.2998830000 0.0710600000
0.2686280000 0.2956550000 0.0925900000
0.2899460000 0.2914820000 0.1136200000
0.3099200000 0.2884020000 0.1330090000
0.3334040000 0.2900750000 0.1483330000
0.3656390000 0.2965310000 0.1509980000
0.4004430000 0.3035560000 0.1507330000
0.4368270000 0.3105120000 0.1483330000
0.4738300000 0.3167100000 0.1453430000
0.5105520000 0.3218610000 0.1428500000
0.5465690000 0.3261360000 0.1411640000
0.5816490000 0.3295730000 0.1403120000
0.6159350000 0.3324240000 0.1408800000
0.6493470000 0.3349210000 0.1420090000
0.6818740000 0.3370750000 0.1442410000
0.7142200000 0.3391060000 0.1469810000
0.7462660000 0.3412270000 0.1502030000
0.7780700000 0.3432290000 0.1541330000
0.8096070000 0.3453200000 0.1582150000
0.8409950000 0.3476030000 0.1629230000
0.8722340000 0.3499700000 0.1682030000
0.9032930000 0.3525220000 0.1739990000
0.9340910000 0.3553530000 0.1800360000
0.9647000000 0.3583570000 0.1869200000
0.9950470000 0.3616260000 0.1939470000
0.0086740000 0.3419660000 0.0086740000
0.0378520000 0.3422820000 0.0070970000
0.0667560000 0.3424930000 0.0063090000
0.0959080000 0.3428080000 0.0047310000
0.1262350000 0.3429140000 0.0047310000
0.1572050000 0.3422820000 0.0094630000
0.1883900000 0.3402750000 0.0220800000
0.2189130000 0.3373970000 0.0425160000
0.2477700000 0.3338380000 0.0650850000
0.2745840000 0.3300140000 0.0874090000
0.2988950000 0.3259120000 0.1093500000
0.3202690000 0.3218610000 0.1305860000
0.3404870000 0.3192410000 0.1504680000
0.3636880000 0.3204970000 0.1663040000
0.3949170000 0.3266930000 0.1710110000
0.4286890000 0.3336210000 0.1719360000
0.4647600000 0.3409100000 0.1700810000
0.5019830000 0.3476030000 0.1670190000
0.5391420000 0.3533340000 0.1641390000
0.5758990000 0.3581580000 0.1619440000
0.6118720000 0.3622170000 0.1604630000
0.6466940000 0.3654440000 0.1602150000
0.6804530000 0.3681550000 0.1612050000
0.7133000000 0.3705560000 0.1631670000
0.7455950000 0.3727480000 0.1658250000
0.7774350000 0.3747350000 0.1691450000
0.8090750000 0.3768970000 0.1730850000
0.8404550000 0.3790450000 0.1773800000
0.8717190000 0.3813620000 0.1824340000
0.9026490000 0.3837530000 0.1877620000
0.9334160000 0.3864900000 0.1939470000
0.9639400000 0.3892940000 0.2005110000
0.9942630000 0.3923410000 0.2074120000
0.0110400000 0.3731270000 0.0102510000
0.0394290000 0.3733170000 0.0094630000
0.0678520000 0.3735060000 0.0078860000
0.0971260000 0.3738850000 0.0063090000
0.1265510000 0.3741690000 0.0047310000
0.1572050000 0.3740740000 0.0070970000
0.1885990000 0.3728430000 0.0165600000
0.2199740000 0.3706510000 0.0346970000
0.2503730000 0.3675760000 0.0580530000
0.2786520000 0.3639810000 0.0814810000
0.3052530000 0.3602440000 0.1041630000
0.3292430000 0.3562580000 0.1259190000
0.3506870000 0.3524200000 0.1475230000
0.3712250000 0.3500730000 0.1677310000
0.3943850000 0.3513000000 0.1835130000
0.4241020000 0.3567590000 0.1906750000
0.4571650000 0.3637860000 0.1929310000
0.4930250000 0.3713200000 0.1917040000
0.5301150000 0.3783930000 0.1885990000
0.5677240000 0.3846680000 0.1854380000
0.6049380000 0.3900140000 0.1828660000
0.6415390000 0.3945630000 0.1811300000
0.6769730000 0.3982610000 0.1804740000
0.7112050000 0.4013110000 0.1809120000
0.7443300000 0.4039030000 0.1826500000
0.7766860000 0.4062180000 0.1854380000
0.8084360000 0.4084320000 0.1890160000
0.8398810000 0.4106320000 0.1929310000
0.8710760000 0.4129010000 0.1977550000
0.9019720000 0.4153210000 0.2028400000
0.9325920000 0.4178060000 0.2087250000
0.9630950000 0.4205180000 0.2151560000
0.9932890000 0.4235340000 0.2219030000
0.0126170000 0.4041610000 0.0126170000
0.0409940000 0.4044190000 0.0118290000
0.0694700000 0.4046760000 0.0102510000
0.0979300000 0.4048480000 0.0086740000
0.1271800000 0.4052770000 0.0063090000
0.1574580000 0.4054480000 0.0055200000
0.1885990000 0.4049340000 0.0110400000
0.2203260000 0.4033000000 0.0268120000
0.2517380000 0.4007030000 0.0496690000
0.2815920000 0.3976480000 0.0741580000
0.3096830000 0.3942970000 0.0979300000
0.3358930000 0.3905520000 0.1207480000
0.3597480000 0.3867630000 0.1425710000
0.3811770000 0.3831110000 0.1643810000
0.4018310000 0.3809000000 0.1845850000
0.4251530000 0.3820990000 0.2007060000
0.4532330000 0.3867630000 0.2102140000
0.4856390000 0.3936760000 0.2137050000
0.5212010000 0.4014850000 0.2129750000
0.5585370000 0.4091110000 0.2100290000
0.5963210000 0.4159020000 0.2068470000
0.6339000000 0.4218260000 0.2041850000
0.6708500000 0.4267650000 0.2022610000
0.7068210000 0.4310000000 0.2014850000
0.7414740000 0.4344760000 0.2018730000
0.7749250000 0.4372950000 0.2034180000
0.8074050000 0.4398600000 0.2060900000
0.8391040000 0.4420980000 0.2096570000
0.8702700000 0.4444750000 0.2138870000
0.9012340000 0.4467610000 0.2189130000
0.9317380000 0.4492580000 0.2246770000
0.9620790000 0.4519630000 0.2309470000
0.9922600000 0.4547960000 0.2375150000
0.0149830000 0.4352620000 0.0149830000
0.0432640000 0.4354180000 0.0141940000
0.0710600000 0.4357320000 0.0126170000
0.0991260000 0.4359670000 0.0110400000
0.1281180000 0.4363580000 0.0086740000
0.1579630000 0.4365930000 0.0063090000
0.1885990000 0.4365930000 0.0078860000
0.2203260000 0.4356540000 0.0189260000
0.2521910000 0.4336890000 0.0402170000
0.2833130000 0.4309200000 0.0656460000
0.3128680000 0.4278890000 0.0908920000
0.3405930000 0.4245880000 0.1146640000
0.3665120000 0.4210090000 0.1371470000
0.3901930000 0.4173100000 0.1592180000
0.4117260000 0.4139040000 0.1809120000
0.4325840000 0.4118100000 0.2012910000
0.4555380000 0.4127330000 0.2182030000
0.4824790000 0.4167310000 0.2296070000
0.5141960000 0.4236150000 0.2342570000
0.5496800000 0.4317140000 0.2340930000
0.5871660000 0.4397820000 0.2314470000
0.6251990000 0.4471400000 0.2285970000
0.6628170000 0.4535310000 0.2260490000
0.6999210000 0.4590050000 0.2245040000
0.7361200000 0.4636020000 0.2236410000
0.7710830000 0.4674250000 0.2238140000
0.8048740000 0.4705700000 0.2251920000
0.8375120000 0.4734060000 0.2279210000
0.8692380000 0.4759400000 0.2314470000
0.9002480000 0.4783880000 0.2362180000
0.9307650000 0.4808200000 0.2416770000
0.9609200000 0.4834440000 0.2477700000
0.9909580000 0.4861860000 0.2542940000
0.0181370000 0.4664910000 0.0173490000
0.0454630000 0.4666350000 0.0165600000
0.0731370000 0.4667790000 0.0149830000
0.1007000000 0.4670660000 0.0134060000
0.1290490000 0.4673540000 0.0110400000
0.1587170000 0.4677120000 0.0078860000
0.1888080000 0.4679990000 0.0070970000
0.2201500000 0.4675690000 0.0134060000
0.2521910000 0.4662030000 0.0307540000
0.2841030000 0.4639640000 0.0561960000
0.3148540000 0.4612740000 0.0828810000
0.3440670000 0.4582700000 0.1078920000
0.3716060000 0.4549450000 0.1308910000
0.3972090000 0.4515140000 0.1533560000
0.4207640000 0.4479740000 0.1755850000
0.4423290000 0.4446280000 0.1971590000
0.4632390000 0.4426360000 0.2180250000
0.4856390000 0.4430200000 0.2360560000
0.5118340000 0.4467610000 0.2488450000
0.5431980000 0.4536060000 0.2547430000
0.5788110000 0.4622220000 0.2551900000
0.6163390000 0.4708550000 0.2530950000
0.6541890000 0.4785280000 0.2506770000
0.6916710000 0.4852970000 0.2486920000
0.7286440000 0.4910730000 0.2473070000
0.7648530000 0.4960340000 0.2468440000
0.8000320000 0.5002080000 0.2469980000
0.8341120000 0.5037510000 0.2485390000
0.8669730000 0.5069390000 0.2511320000
0.8986430000 0.5096520000 0.2548920000
0.9294070000 0.5122820000 0.2599040000
0.9596180000 0.5149590000 0.2658040000
0.9895720000 0.5177450000 0.2723860000
0.0205030000 0.4975630000 0.0205030000
0.0482940000 0.4977620000 0.0197140000
0.0746640000 0.4978280000 0.0181370000
0.1018670000 0.4980930000 0.0157710000
0.1302800000 0.4984240000 0.0134060000
0.1592180000 0.4988210000 0.0110400000
0.1892250000 0.4990860000 0.0078860000
0.2199740000 0.4991520000 0.0102510000
0.2518890000 0.4983580000 0.0220800000
0.2841030000 0.4966990000 0.0454630000
0.3159000000 0.4943650000 0.0731370000
0.3463600000 0.4916130000 0.0995220000
0.3753010000 0.4886370000 0.1240050000
0.4026100000 0.4854340000 0.1472530000
0.4281290000 0.4821340000 0.1696130000
0.4515890000 0.4786670000 0.1914990000
0.4733350000 0.4755890000 0.2135230000
0.4940970000 0.4734060000 0.2347490000
0.5160380000 0.4735470000 0.2538460000
0.5419500000 0.4772710000 0.2679250000
0.5731350000 0.4843370000 0.2751310000
0.6085980000 0.4932260000 0.2766270000
0.6457440000 0.5021140000 0.2754040000
0.6832460000 0.5101660000 0.2736250000
0.7204890000 0.5171140000 0.2722470000
0.7571650000 0.5231980000 0.2714170000
0.7931150000 0.5283960000 0.2711400000
0.8283590000 0.5330440000 0.2718330000
0.8625190000 0.5369180000 0.2733500000
0.8954520000 0.5403390000 0.2760840000
0.9271560000 0.5434360000 0.2801270000
0.9577730000 0.5462750000 0.2854130000
0.9878560000 0.5491530000 0.2916090000
0.0236570000 0.5287040000 0.0236570000
0.0510200000 0.5288880000 0.0220800000
0.0771550000 0.5290110000 0.0212920000
0.1034030000 0.5291950000 0.0189260000
0.1314990000 0.5295020000 0.0165600000
0.1602150000 0.5297470000 0.0134060000
0.1898480000 0.5302370000 0.0102510000
0.2201500000 0.5304210000 0.0086740000
0.2514350000 0.5302370000 0.0149830000
0.2837080000 0.5290720000 0.0339090000
0.3161320000 0.5271030000 0.0616430000
0.3477060000 0.5247520000 0.0904630000
0.3778330000 0.5220760000 0.1163850000
0.4065600000 0.5191940000 0.1403120000
0.4337680000 0.5162280000 0.1631670000
0.4592260000 0.5130490000 0.1856500000
0.4828240000 0.5097800000 0.2076000000
0.5046640000 0.5068090000 0.2296070000
0.5254340000 0.5046640000 0.2514350000
0.5473930000 0.5049250000 0.2715560000
0.5731350000 0.5086200000 0.2868470000
0.6038500000 0.5156580000 0.2956550000
0.6385560000 0.5245040000 0.2986470000
0.6751350000 0.5334090000 0.2986470000
0.7122120000 0.5416520000 0.2976540000
0.7490590000 0.5489780000 0.2969060000
0.7852710000 0.5552590000 0.2966560000
0.8209880000 0.5608800000 0.2970310000
0.8559950000 0.5657550000 0.2981510000
0.8899340000 0.5700190000 0.3001300000
0.9228730000 0.5737450000 0.3031910000
0.9545560000 0.5771650000 0.3074170000
0.9854790000 0.5803410000 0.3126340000
0.0268120000 0.5598530000 0.0268120000
0.0536510000 0.5600250000 0.0260230000
0.0791020000 0.5601960000 0.0244460000
0.1049190000 0.5603670000 0.0220800000
0.1327080000 0.5605950000 0.0197140000
0.1612050000 0.5608800000 0.0173490000
0.1904690000 0.5612790000 0.0134060000
0.2205020000 0.5616210000 0.0102510000
0.2512840000 0.5616780000 0.0110400000
0.2831810000 0.5611080000 0.0244460000
0.3159000000 0.5596250000 0.0496690000
0.3482220000 0.5576190000 0.0795820000
0.3795090000 0.5553160000 0.1075240000
0.4094490000 0.5527690000 0.1327080000
0.4380740000 0.5501480000 0.1564430000
0.4651940000 0.5473340000 0.1793760000
0.4906680000 0.5443250000 0.2016790000
0.5144510000 0.5413540000 0.2238140000
0.5364960000 0.5384820000 0.2460690000
