bundles/resolve-cinematic-luts/Phantom Luts/Ursa G2 Phntm Film LUTs - V1/Gen4/White Balance Offset (Magenta Boost)/Ursa VisionTeal Gen4-Legacy WBO.cube
TITLE "Generated by Resolve"
LUT_3D_SIZE 5
0.022385 0.0343328 0.0323491
0.126787 0.03682 0.0329747
0.411322 0.0400702 0.0334325
0.669932 0.0616007 0.0637064
0.687343 0.0792401 0.0748913
0.0239567 0.14818 0.0650339
0.109499 0.146563 0.0536355
0.483452 0.129076 0.066392
0.737163 0.185382 0.105882
0.750347 0.228077 0.116304
0.0773022 0.522103 0.264942
0.146593 0.50219 0.198276
0.455039 0.500465 0.119692
0.789883 0.552529 0.219883
0.789776 0.539651 0.221714
0.246082 0.853925 0.580255
0.226886 0.854337 0.533303
0.458289 0.752728 0.304494
0.756222 0.789532 0.324834
0.80473 0.787579 0.347356
0.246708 0.859129 0.605417
0.237766 0.85565 0.566339
0.339269 0.796368 0.405371
0.661799 0.77055 0.320211
0.80354 0.793576 0.363516
0.0205997 0.0495155 0.153521
0.150408 0.0380102 0.138186
0.456245 0.04065 0.156741
0.68043 0.0709239 0.182254
0.672053 0.0522316 0.110597
0.0196384 0.12723 0.104265
0.121462 0.138018 0.131701
0.48809 0.0988937 0.0901045
0.710002 0.114611 0.0974746
0.740627 0.18088 0.109804
0.0715038 0.504875 0.320836
0.0649729 0.498466 0.257237
0.443992 0.485237 0.116213
0.786847 0.52163 0.220584
0.786358 0.513313 0.219791
0.24921 0.852354 0.614054
0.233204 0.849531 0.574212
0.405158 0.754955 0.313359
0.743862 0.7832 0.318608
0.806195 0.782269 0.33843
0.24802 0.863813 0.638437
0.247623 0.858701 0.6056
0.300923 0.816526 0.442847
0.644327 0.766415 0.320668
0.803525 0.793576 0.36379
0.0701762 0.0921492 0.440314
0.216083 0.0453193 0.416159
0.470588 0.0698863 0.42388
0.688075 0.101625 0.520195
0.684306 0.0997787 0.462287
0.0191958 0.111955 0.365484
0.0941176 0.0855268 0.431861
0.441947 0.0606394 0.395193
0.684977 0.101122 0.470268
0.680842 0.101671 0.409857
0.0540322 0.484932 0.417731
0.0476081 0.477333 0.414816
0.527794 0.503838 0.482994
0.813809 0.498573 0.46598
0.803845 0.485771 0.404654
0.210422 0.847471 0.683757
0.193133 0.840299 0.662364
0.286275 0.806714 0.557763
0.721523 0.774014 0.450828
0.821973 0.778225 0.479118
0.235859 0.880812 0.721447
0.231128 0.879652 0.703166
0.252872 0.858335 0.608316
0.584085 0.775174 0.427237
0.804318 0.796872 0.405554
0.229984 0.109941 0.682857
0.333272 0.0837415 0.67953
0.567056 0.136416 0.70808
0.706676 0.135332 0.74905
0.707988 0.137163 0.754177
0.0251164 0.161669 0.641428
0.228351 0.0987716 0.674998
0.524834 0.121065 0.691844
0.70547 0.132998 0.73434
0.70634 0.134234 0.742138
0.0201419 0.469902 0.647181
0.0203403 0.45182 0.65684
0.519615 0.372457 0.800961
0.801587 0.399832 0.778698
0.791867 0.357549 0.749844
0.208515 0.828717 0.767285
0.190112 0.818326 0.756008
0.32752 0.793896 0.740169
0.808988 0.796872 0.782284
0.884428 0.771634 0.759518
0.316518 0.883635 0.807065
0.295628 0.887358 0.80351
0.268879 0.887175 0.778302
0.6663 0.878859 0.781415
0.864347 0.880049 0.771679
0.292851 0.0865492 0.698405
0.385809 0.0915541 0.704402
0.609979 0.151827 0.738216
0.708141 0.137087 0.755047
0.70811 0.137087 0.754986
0.174044 0.162722 0.695338
0.299077 0.0867475 0.698863
0.56762 0.13698 0.730144
0.708141 0.137087 0.755016
0.708385 0.138003 0.755779
0.0203555 0.466407 0.738018
0.0201114 0.435767 0.732647
0.527108 0.286931 0.801877
0.776577 0.321233 0.810239
0.761151 0.267063 0.798795
0.217762 0.812039 0.820447
0.1841 0.797574 0.817533
0.279347 0.759854 0.816007
0.828336 0.730373 0.893828
0.881361 0.7178 0.887724
0.360281 0.886992 0.837171
0.360159 0.887037 0.837171
0.375738 0.886091 0.83682
0.692714 0.88954 0.85182
0.899153 0.912459 0.889326
