bundles/resolve-cinematic-luts/Phantom Luts/Ursa G2 Phntm Film LUTs - V1/Gen4/White Balance Offset (Magenta Boost)/Ursa Eterna Gen4-Legacy WBO.cube
TITLE "Generated by Resolve"
LUT_3D_SIZE 9
0.0168154 0.0444495 0.044419
0.0608225 0.0498512 0.0513619
0.129763 0.0581369 0.060441
0.236515 0.0743877 0.085359
0.373053 0.0979477 0.123857
0.528847 0.114702 0.160189
0.62385 0.119966 0.181979
0.634272 0.124117 0.191669
0.66363 0.120287 0.20502
0.0308995 0.0718242 0.0631113
0.0487984 0.0724041 0.0580453
0.126711 0.0721599 0.0614023
0.236835 0.0753338 0.0747234
0.371832 0.0861677 0.0995346
0.521828 0.0900587 0.125795
0.601602 0.0910506 0.142168
0.607752 0.0937209 0.149783
0.638224 0.0910811 0.16051
0.0581064 0.152453 0.103838
0.0585946 0.167498 0.0942855
0.138064 0.165759 0.0838941
0.302251 0.149584 0.105592
0.444968 0.15555 0.122469
0.605112 0.15108 0.140764
0.668284 0.147723 0.151263
0.658259 0.139712 0.148745
0.663462 0.128756 0.147829
0.0871901 0.310475 0.181521
0.0749065 0.341726 0.171435
0.12314 0.350973 0.136873
0.306111 0.366751 0.1131
0.587686 0.363272 0.132921
0.783673 0.340932 0.185611
0.846967 0.358694 0.209262
0.845563 0.355535 0.208103
0.842817 0.348791 0.206073
0.092958 0.56466 0.313512
0.0765545 0.593011 0.306065
0.0927138 0.613092 0.271092
0.239826 0.59852 0.150835
0.516823 0.609583 0.160998
0.782452 0.603983 0.185992
0.895415 0.607767 0.240223
0.895964 0.603922 0.240894
0.894499 0.589792 0.238926
0.175113 0.793271 0.480156
0.164752 0.813291 0.475929
0.162783 0.824491 0.452003
0.212482 0.828794 0.365881
0.487282 0.816297 0.221378
0.693507 0.819684 0.268116
0.908232 0.809659 0.315801
0.926207 0.799741 0.322576
0.925826 0.784848 0.315923
0.243793 0.89601 0.590646
0.242893 0.897215 0.579767
0.239902 0.898085 0.557504
0.236988 0.896742 0.499397
0.333593 0.903288 0.386511
0.648188 0.912551 0.335927
0.861723 0.92163 0.406577
0.938766 0.918654 0.445945
0.936843 0.915328 0.434623
0.239048 0.898665 0.608759
0.248661 0.895216 0.595865
0.253651 0.893568 0.575738
0.250904 0.893599 0.532296
0.291752 0.897658 0.443473
0.543832 0.905196 0.321553
0.763607 0.916106 0.372839
0.937438 0.921645 0.452293
0.935653 0.925063 0.456153
0.235569 0.899992 0.620111
0.238209 0.899001 0.607523
0.244175 0.896941 0.589242
0.249897 0.894331 0.550973
0.268772 0.895491 0.465446
0.421592 0.902098 0.338445
0.692531 0.912978 0.352819
0.915389 0.92015 0.429313
0.935546 0.925109 0.456001
0.0230564 0.0458076 0.0670634
0.0650797 0.0518044 0.0674296
0.130495 0.0605173 0.0830701
0.234974 0.0738384 0.111727
0.374701 0.0928511 0.146944
0.542306 0.111559 0.188846
0.659846 0.123125 0.218952
0.665034 0.122652 0.228321
0.684321 0.118868 0.241962
0.0272374 0.0637827 0.0619821
0.0440528 0.0624552 0.0648814
0.135332 0.0654154 0.0746471
0.251179 0.0763104 0.0954299
0.388998 0.0937057 0.130434
0.56553 0.110094 0.172061
0.654963 0.113787 0.192752
0.662257 0.119371 0.203891
0.679057 0.117861 0.216007
0.0546883 0.141802 0.113909
0.0501869 0.151369 0.107897
0.135851 0.158938 0.0838178
0.299733 0.138827 0.103822
0.4318 0.139467 0.118532
0.589151 0.131289 0.135973
0.651576 0.122988 0.144884
0.641337 0.11429 0.142687
0.646036 0.101091 0.141649
0.0810407 0.29305 0.194934
0.0707408 0.319158 0.189578
0.105821 0.345495 0.149828
0.3028 0.360449 0.113512
0.581201 0.351049 0.135027
0.775357 0.330724 0.182849
0.843015 0.349645 0.206729
0.841108 0.345525 0.204929
0.837217 0.336324 0.202029
0.0905928 0.543313 0.330251
0.0736095 0.566125 0.323003
0.0727398 0.587259 0.282078
0.217243 0.590448 0.162417
0.508415 0.600961 0.157275
0.777676 0.596262 0.18172
0.891707 0.600732 0.237293
0.894423 0.595468 0.238895
0.892927 0.579416 0.237339
0.162814 0.77203 0.4925
0.151904 0.790356 0.486778
0.148959 0.802106 0.45687
0.19733 0.812833 0.360021
0.471473 0.809216 0.21529
0.688029 0.813107 0.263005
0.906615 0.801938 0.309606
0.924956 0.792294 0.317082
0.924407 0.7776 0.310658
0.241276 0.893141 0.610254
0.242359 0.894575 0.599573
0.239719 0.896574 0.575006
0.236835 0.89601 0.509316
0.330083 0.90219 0.387594
0.641077 0.911589 0.332784
0.858244 0.92163 0.405295
0.938338 0.916976 0.441444
0.936355 0.913268 0.430076
0.243 0.897459 0.633799
0.254124 0.893431 0.620127
0.255344 0.892897 0.596811
0.251621 0.893599 0.545937
0.290028 0.897444 0.445655
0.532921 0.904692 0.321569
0.756466 0.915587 0.370398
0.936919 0.921691 0.451438
0.935607 0.925093 0.456489
0.23888 0.899001 0.64625
0.241978 0.89781 0.63357
0.246342 0.896101 0.6121
0.252171 0.893965 0.568399
0.266011 0.895033 0.469368
0.42034 0.902831 0.343389
0.685084 0.912535 0.351263
0.912123 0.91986 0.426734
0.935668 0.925048 0.456168
0.0410468 0.0501259 0.119768
0.082063 0.0557107 0.122881
0.144747 0.0635843 0.110903
0.242634 0.0763561 0.131075
0.371725 0.0937819 0.169131
0.533806 0.112627 0.216648
0.666758 0.124849 0.256413
0.676005 0.125383 0.273136
0.69604 0.122179 0.295369
0.0248417 0.0641947 0.0908522
0.0310674 0.0500038 0.124849
0.143847 0.0643168 0.116518
0.25153 0.0768749 0.131762
0.38027 0.0931868 0.167941
0.555978 0.11191 0.216464
0.675654 0.123415 0.255756
0.679759 0.124331 0.27277
0.696803 0.121904 0.293736
0.0530404 0.136248 0.123644
0.0483253 0.14107 0.132296
0.140261 0.147997 0.146822
0.300313 0.146349 0.154757
0.443183 0.147829 0.176486
0.606577 0.143557 0.203861
0.667079 0.133547 0.214817
0.66244 0.12784 0.22031
0.674556 0.121798 0.233356
0.0813916 0.276127 0.211566
0.0726482 0.295796 0.220264
0.0730144 0.312139 0.194537
0.303304 0.349004 0.13904
0.574014 0.325231 0.185504
0.747723 0.324712 0.20557
0.840238 0.32781 0.220218
0.83267 0.314595 0.215976
0.82295 0.296681 0.211231
0.0923323 0.514961 0.356237
0.0745861 0.533578 0.361501
0.0708019 0.55053 0.333669
0.166674 0.577585 0.202472
0.498512 0.584482 0.155322
0.77377 0.570779 0.191974
0.891859 0.572641 0.242573
0.894347 0.566995 0.242161
0.892012 0.548531 0.239445
0.152056 0.73843 0.515846
0.139193 0.74995 0.514931
0.12961 0.754635 0.485725
0.136767 0.76968 0.383154
0.419486 0.791562 0.21088
0.672114 0.791562 0.252399
0.903609 0.778668 0.299062
0.922652 0.773449 0.306737
0.920333 0.758022 0.297627
0.23566 0.882887 0.640269
0.236851 0.885069 0.634989
0.236255 0.886168 0.611322
0.230854 0.887938 0.543984
0.31104 0.897719 0.399145
0.625284 0.907866 0.326726
0.846448 0.917586 0.39736
0.937713 0.912566 0.432578
0.935302 0.907897 0.419211
0.253712 0.895293 0.674418
0.251148 0.895537 0.665385
0.26096 0.891173 0.642588
0.256611 0.892592 0.590311
0.271839 0.894667 0.468956
0.499733 0.903151 0.324208
0.740078 0.914687 0.365835
0.934539 0.921721 0.448844
0.935897 0.924956 0.458213
0.247211 0.898283 0.686778
0.24509 0.898466 0.677958
0.254932 0.893706 0.657176
0.257084 0.892287 0.613703
0.252705 0.893828 0.509438
0.396933 0.90193 0.352239
0.668925 0.911788 0.346181
0.903258 0.921462 0.421805
0.935256 0.925292 0.456733
0.0671244 0.0557565 0.205188
0.103792 0.0597086 0.221088
0.163409 0.0672007 0.192096
0.266316 0.0818494 0.178943
0.390951 0.099733 0.21146
0.546792 0.117098 0.257771
0.677195 0.129335 0.305501
0.688991 0.131624 0.331289
0.710018 0.128634 0.362219
0.0235142 0.0607767 0.165957
0.0401007 0.0534371 0.209064
0.155581 0.0650034 0.225193
0.270604 0.0819257 0.19028
0.388861 0.0985122 0.214679
0.54873 0.117556 0.267613
0.687114 0.130846 0.323964
0.695705 0.132555 0.350896
0.71548 0.130144 0.382223
0.0430915 0.126055 0.156695
0.0372473 0.121965 0.18999
0.0844282 0.103639 0.24509
0.298161 0.116686 0.226551
0.417197 0.121355 0.234028
0.5552 0.122499 0.269215
0.682841 0.131777 0.317113
0.689265 0.133974 0.340887
0.705379 0.13228 0.366705
0.0804608 0.262745 0.229709
0.0719615 0.278767 0.247745
0.0754253 0.287968 0.259785
0.321889 0.318563 0.307195
0.553094 0.31223 0.319112
0.745434 0.32163 0.346105
0.862074 0.326925 0.367712
0.855619 0.308919 0.372717
0.845991 0.286473 0.374609
0.0931716 0.489448 0.3832
0.0747234 0.506325 0.401938
0.0747387 0.515862 0.39971
0.132296 0.534951 0.356252
0.487465 0.554742 0.275135
0.755032 0.533242 0.350576
0.896391 0.542184 0.377264
0.91603 0.536706 0.377615
0.912871 0.517494 0.369711
0.14699 0.706584 0.544182
0.132845 0.713222 0.550958
0.124224 0.710185 0.536614
0.117632 0.712718 0.475334
0.302937 0.758144 0.356374
0.656123 0.755199 0.313085
0.902266 0.730861 0.407279
0.928374 0.731899 0.417151
0.926818 0.715785 0.403021
0.243687 0.861082 0.669902
0.226764 0.867689 0.672541
0.225544 0.863722 0.655131
0.218555 0.859297 0.60209
0.247883 0.87715 0.491493
0.556268 0.90164 0.398947
0.821591 0.906004 0.406104
0.939055 0.900359 0.464973
0.936843 0.894743 0.453681
0.269535 0.894286 0.723415
0.259403 0.897658 0.721859
0.271153 0.892012 0.703853
0.267994 0.889509 0.66302
0.26276 0.894316 0.56286
0.410178 0.909392 0.440391
0.703655 0.912062 0.38291
0.931456 0.919066 0.449393
0.939757 0.922805 0.468635
0.260685 0.897871 0.735607
0.258213 0.898589 0.731502
0.256489 0.898085 0.718044
0.268833 0.890639 0.680232
0.258717 0.893812 0.598733
0.322332 0.905562 0.464485
0.617945 0.912062 0.37789
0.865904 0.922591 0.416464
0.93579 0.925078 0.461021
0.115816 0.0654154 0.32256
0.147127 0.0689555 0.344839
0.215641 0.0741283 0.339651
0.297307 0.0871595 0.291798
0.422675 0.107134 0.287541
0.575051 0.123781 0.330037
0.691402 0.135958 0.36466
0.70042 0.136126 0.388754
0.718791 0.131899 0.428794
0.0323949 0.0553445 0.277134
0.0708934 0.060502 0.311528
0.175647 0.071046 0.342962
0.292119 0.0855726 0.315389
0.415183 0.105669 0.293126
0.571847 0.122988 0.340246
0.700236 0.13608 0.388144
0.70573 0.136187 0.422309
0.722438 0.132937 0.465507
0.042298 0.10454 0.234806
0.0356146 0.0965744 0.270207
0.0458991 0.0631113 0.318563
0.278798 0.0821698 0.349447
0.423316 0.109987 0.31014
0.560067 0.124285 0.337942
0.693324 0.138537 0.390692
0.699306 0.139406 0.424842
0.716121 0.135622 0.464317
0.0708629 0.244343 0.274189
0.0555581 0.251331 0.304952
0.0486915 0.248402 0.342016
0.215549 0.256001 0.439673
0.543328 0.262715 0.438956
0.714763 0.270878 0.449119
0.833295 0.262669 0.475151
0.819852 0.240024 0.483391
0.805692 0.217395 0.491859
0.0932631 0.469184 0.40885
0.0768444 0.482109 0.430121
0.0754864 0.491005 0.443137
0.155856 0.502815 0.460761
0.507683 0.506859 0.490028
0.730571 0.501045 0.497932
0.890333 0.511971 0.52491
0.916045 0.509316 0.536431
0.913436 0.48957 0.534997
0.148821 0.673426 0.563638
0.127047 0.681239 0.57528
0.11989 0.677775 0.572244
0.124727 0.6748 0.551095
0.38555 0.700282 0.544213
0.648493 0.709499 0.478233
0.881437 0.692515 0.543328
0.932067 0.705715 0.555932
0.930648 0.694133 0.54905
0.237263 0.840558 0.690349
0.220035 0.84564 0.696071
0.209888 0.841398 0.687007
0.208392 0.827802 0.649271
0.334691 0.853132 0.61735
0.533364 0.878004 0.567086
0.816464 0.880278 0.553979
0.941848 0.870298 0.627024
0.939345 0.866163 0.623499
0.283726 0.890913 0.761151
0.270909 0.895079 0.764141
0.26186 0.897841 0.758144
0.273228 0.893538 0.728038
0.295872 0.897658 0.671977
0.496635 0.918441 0.634882
0.693324 0.918669 0.595209
0.928267 0.926558 0.610315
0.942351 0.929656 0.649973
0.284413 0.89163 0.772503
0.274372 0.894652 0.774136
0.264134 0.897337 0.767834
0.269963 0.894957 0.742779
0.277592 0.892287 0.687449
0.435096 0.917418 0.643854
0.633722 0.921752 0.611139
0.850019 0.925826 0.574792
0.941955 0.928527 0.617761
0.173968 0.0756542 0.432181
0.197223 0.0783856 0.460212
0.262638 0.0832074 0.47393
0.353277 0.0922255 0.444114
0.457084 0.111666 0.40679
0.616388 0.129015 0.417945
0.704707 0.139055 0.456565
0.704021 0.139437 0.462181
0.72015 0.135424 0.491753
0.0959335 0.0663462 0.391394
0.122499 0.0700084 0.423362
0.210895 0.0789197 0.456565
0.332845 0.0884108 0.459251
0.454109 0.110353 0.42681
0.613947 0.128847 0.42855
0.706889 0.139162 0.470588
0.71014 0.139406 0.486488
0.726726 0.135683 0.521538
0.0370794 0.0770581 0.326604
0.0313268 0.0721447 0.364904
0.0721141 0.0643473 0.405066
0.281163 0.0838483 0.462654
0.447898 0.108537 0.452003
0.597833 0.129824 0.426383
0.70013 0.141375 0.464958
0.704997 0.142092 0.48481
0.720531 0.13872 0.521309
0.0574044 0.221057 0.357839
0.0476234 0.224063 0.390249
0.0481422 0.22089 0.420691
0.129229 0.202686 0.48983
0.486763 0.187076 0.559442
0.695842 0.216968 0.518105
0.804746 0.226246 0.534432
0.782727 0.201923 0.537957
0.757824 0.173526 0.537453
0.0908675 0.453651 0.461753
0.0712139 0.461677 0.486458
0.0628519 0.463752 0.509209
0.0544289 0.448218 0.543282
0.417914 0.461753 0.639338
0.730236 0.45922 0.613596
0.880461 0.468589 0.613825
0.913573 0.457572 0.627909
0.910018 0.435355 0.641459
0.14551 0.656687 0.586282
0.122515 0.660014 0.597375
0.115358 0.6551 0.59855
0.115541 0.647669 0.591791
0.401434 0.665644 0.625452
0.663706 0.661189 0.642618
0.870512 0.658442 0.649561
0.933684 0.664942 0.668315
0.932555 0.657115 0.670146
0.2365 0.817823 0.707866
0.21268 0.822263 0.714092
0.200839 0.81622 0.708385
0.19707 0.803571 0.687648
0.408911 0.823041 0.698955
0.591592 0.837644 0.697475
0.812436 0.849699 0.656107
0.938109 0.84477 0.712428
0.938598 0.844953 0.716915
0.31577 0.885115 0.790906
0.288441 0.894789 0.800763
0.277562 0.897566 0.799451
0.271214 0.895705 0.777798
0.387015 0.90576 0.765377
0.577478 0.916564 0.768109
0.718212 0.922255 0.734722
0.931746 0.92723 0.730526
0.951644 0.928862 0.782544
0.302586 0.892363 0.810376
0.29337 0.895247 0.814939
0.28452 0.897765 0.81326
0.276814 0.897429 0.796201
0.315297 0.901335 0.767926
0.552651 0.918486 0.786099
0.700298 0.925185 0.768292
0.860716 0.926467 0.731716
0.944808 0.933867 0.768597
0.235752 0.0859388 0.541527
0.252995 0.0881514 0.570382
0.307149 0.0922866 0.592676
0.39675 0.0981155 0.592813
0.511208 0.116243 0.567452
0.654276 0.133623 0.543725
0.712184 0.143191 0.537331
0.70985 0.143786 0.532769
0.723568 0.139467 0.555657
0.168215 0.0786908 0.499809
0.186725 0.0814374 0.537408
0.260044 0.0884565 0.571283
0.363867 0.0953384 0.596597
0.505516 0.11545 0.590967
0.656153 0.133822 0.566552
0.713039 0.144488 0.558999
0.715175 0.143999 0.565103
0.727779 0.1402 0.595712
0.0450294 0.0695506 0.434775
0.0516213 0.0678111 0.469154
0.131441 0.0746777 0.516609
0.298009 0.0907301 0.5738
0.476173 0.110964 0.599207
0.646693 0.132311 0.582696
0.707942 0.146883 0.556405
0.708827 0.146792 0.559518
0.720195 0.14342 0.589929
0.0599527 0.209674 0.439734
0.0510262 0.207156 0.472847
0.0515145 0.193133 0.493339
0.0807355 0.156603 0.533578
0.416098 0.127489 0.619318
0.624949 0.143786 0.607675
0.728573 0.167483 0.550042
0.729686 0.165896 0.545052
0.739757 0.160555 0.571344
0.0575113 0.433265 0.545342
0.0367285 0.435569 0.574884
0.0329442 0.430457 0.596292
0.035996 0.41416 0.624369
0.325948 0.424201 0.747143
0.708873 0.401022 0.78996
0.880735 0.422126 0.696971
0.909072 0.428916 0.697978
0.903929 0.403281 0.714611
0.145388 0.642741 0.630533
0.117632 0.644678 0.646311
0.111727 0.634699 0.648508
0.103471 0.619821 0.653941
0.296162 0.621408 0.711818
0.588006 0.622705 0.776776
0.865721 0.62182 0.754665
0.933059 0.627115 0.75758
0.931426 0.611276 0.762158
0.238849 0.802625 0.727352
0.207721 0.805554 0.734356
0.19498 0.796475 0.729198
0.185229 0.781643 0.715953
0.346044 0.795026 0.732052
0.59826 0.806775 0.766278
0.820768 0.808591 0.788479
0.940978 0.809064 0.798856
0.943236 0.810285 0.808469
0.33138 0.884428 0.818128
0.301488 0.892012 0.825879
0.286534 0.891325 0.82269
0.275502 0.88539 0.806958
0.390646 0.897719 0.810498
0.623423 0.90576 0.836301
0.76733 0.915709 0.843
0.932433 0.924193 0.818677
0.951812 0.922637 0.860151
0.347417 0.88893 0.833326
0.322164 0.898466 0.845014
0.312169 0.901427 0.847608
0.303685 0.900191 0.839033
0.359121 0.908995 0.834607
0.611688 0.918105 0.861753
0.752392 0.925704 0.873335
0.86952 0.931014 0.85565
0.946212 0.938079 0.864408
0.301472 0.095201 0.624689
0.314412 0.0961471 0.63949
0.357733 0.0991836 0.654978
0.430518 0.106279 0.674098
0.565133 0.124315 0.695445
0.687785 0.13901 0.691325
0.724437 0.146914 0.681865
0.723934 0.146715 0.674952
0.723339 0.146365 0.666102
0.247471 0.0903182 0.605509
0.262562 0.0921187 0.621668
0.321202 0.0967269 0.643458
0.396582 0.101793 0.664088
0.54667 0.122805 0.700038
0.691157 0.141741 0.707881
0.722866 0.148913 0.697429
0.723064 0.148486 0.694591
0.725017 0.147509 0.694713
0.100481 0.0746166 0.546288
0.125063 0.0778515 0.569131
0.215686 0.0879683 0.607141
0.330465 0.0973068 0.645182
0.496452 0.11603 0.688548
0.679622 0.140627 0.714031
0.722408 0.14995 0.702968
0.72105 0.149645 0.693156
0.724636 0.147982 0.696422
0.0533455 0.192157 0.53341
0.0561074 0.188281 0.556939
0.0699626 0.169741 0.581613
0.102327 0.127337 0.594339
0.386664 0.10515 0.658625
0.608698 0.129793 0.700999
0.725002 0.150515 0.691554
0.72137 0.149264 0.661891
0.72813 0.146639 0.663584
0.0437629 0.430442 0.65069
0.0423285 0.430625 0.672267
0.0455787 0.42089 0.688746
0.05066 0.398459 0.704448
0.251957 0.383993 0.814923
0.67039 0.345022 0.883955
0.86482 0.358984 0.847929
0.889052 0.358923 0.790906
0.889235 0.353582 0.788159
0.118929 0.628046 0.702266
0.10161 0.622339 0.716716
0.0914626 0.604807 0.72076
0.0798047 0.580209 0.725765
0.176028 0.576562 0.79472
0.523384 0.589593 0.867796
0.848615 0.57734 0.89395
0.929412 0.586633 0.830747
0.927916 0.590768 0.827985
0.231403 0.790311 0.766003
0.205478 0.790539 0.775479
0.198169 0.779156 0.773556
0.186526 0.759487 0.76704
0.217548 0.749752 0.784482
0.516747 0.76556 0.836484
0.745235 0.772885 0.883986
0.932219 0.774075 0.874128
0.939544 0.773602 0.870344
0.33962 0.87686 0.830655
0.297047 0.886259 0.842039
0.285069 0.882002 0.837903
0.270466 0.872587 0.824537
0.298756 0.873762 0.820844
0.566827 0.895186 0.86041
0.759197 0.907729 0.889479
0.921019 0.915282 0.906767
0.952178 0.912383 0.905211
0.361791 0.893233 0.85658
0.337819 0.901564 0.866972
0.331365 0.903548 0.869108
0.327916 0.903288 0.865187
0.353613 0.907454 0.862654
0.60177 0.922072 0.895766
0.775311 0.929931 0.914992
0.891844 0.936278 0.923934
0.955123 0.935897 0.912291
0.336141 0.0979324 0.648951
0.34165 0.098146 0.650706
0.363973 0.0995804 0.656458
0.420157 0.104768 0.671244
0.555077 0.123903 0.702449
0.698772 0.145647 0.720302
0.724041 0.15108 0.722042
0.724041 0.15108 0.722042
0.723613 0.151247 0.721004
0.301167 0.0955673 0.639704
0.307378 0.096025 0.641535
0.333593 0.0977798 0.648554
0.389838 0.101213 0.663142
0.523812 0.120165 0.69659
0.692699 0.144152 0.719676
0.724041 0.15108 0.722042
0.724041 0.15108 0.722042
0.72401 0.151095 0.721965
0.193622 0.0857404 0.608194
0.204364 0.0869459 0.611582
0.251423 0.0919051 0.625986
0.326589 0.0972763 0.64686
0.472313 0.112444 0.685039
0.666606 0.138811 0.716762
0.724163 0.151217 0.72221
0.724987 0.151995 0.723171
0.724666 0.151675 0.722774
0.0919814 0.176745 0.622507
0.110323 0.176791 0.639567
0.150042 0.158633 0.6495
0.160113 0.120485 0.624384
0.357626 0.0991531 0.654978
0.581933 0.127199 0.70692
0.726528 0.154101 0.726101
0.730495 0.157397 0.730022
0.730816 0.157687 0.730419
0.058854 0.430091 0.729992
0.0631418 0.429999 0.740719
0.0681773 0.421241 0.750988
0.0834516 0.399207 0.763897
0.192187 0.352377 0.804776
0.616724 0.296086 0.871122
0.827466 0.296407 0.859022
0.849744 0.288624 0.849744
0.844175 0.279026 0.840085
0.105913 0.6094 0.767834
0.106615 0.604456 0.774227
0.103822 0.593317 0.778607
0.098497 0.573785 0.781445
0.104067 0.542321 0.794232
0.47808 0.55697 0.904723
0.817655 0.537835 0.92604
0.918547 0.540337 0.917449
0.918151 0.531975 0.905486
0.213962 0.782986 0.819455
0.210636 0.774212 0.822324
0.204715 0.760739 0.823453
0.194064 0.736919 0.822751
0.183551 0.700633 0.825376
0.438285 0.724392 0.884688
0.693706 0.737896 0.915114
0.920119 0.731167 0.929259
0.929351 0.732677 0.921645
0.298756 0.882338 0.864408
0.293156 0.878233 0.863661
0.285893 0.872221 0.860807
0.274052 0.861021 0.854765
0.265446 0.84683 0.849149
0.477913 0.870481 0.886763
0.695872 0.884306 0.909255
0.883391 0.900038 0.928908
0.935668 0.903365 0.932631
0.347234 0.904601 0.887236
0.34847 0.904662 0.888609
0.34876 0.904677 0.888823
0.346624 0.904585 0.886549
0.355306 0.906355 0.882979
0.539071 0.919356 0.903487
0.74255 0.927749 0.921782
0.896788 0.936538 0.935439
0.941543 0.941115 0.941238
