bundles/resolve-cinematic-luts/Phantom Luts/Ursa G2 Phntm Film LUTs - V1/Gen4/White Balance Offset (Magenta Boost)/Ursa VisionTeal Gen4 WBO.cube
TITLE "Generated by Resolve"
LUT_3D_SIZE 33
0.0222477 0.0297856 0.0280156
0.0222477 0.0297704 0.0280003
0.0222324 0.0296178 0.0282139
0.0269017 0.0303044 0.0296788
0.0447089 0.0293278 0.0293584
0.0668803 0.0285954 0.0283207
0.0920577 0.0285801 0.0266423
0.120104 0.0297093 0.0260319
0.155505 0.0296941 0.024506
0.197192 0.0289464 0.0227359
0.239704 0.0301061 0.0222629
0.277852 0.030518 0.0224155
0.314931 0.0315557 0.0238499
0.350439 0.0325017 0.0251316
0.384588 0.0336614 0.0265965
0.418051 0.0361791 0.028275
0.453117 0.0397345 0.0314641
0.488396 0.0436255 0.0342412
0.524498 0.0481727 0.0388342
0.561502 0.0539406 0.0440681
0.598062 0.0602121 0.0504921
0.628672 0.0601205 0.0541085
0.656962 0.0669413 0.0586557
0.674952 0.071931 0.0612192
0.68275 0.0763104 0.063386
0.685054 0.0797284 0.064744
0.687312 0.084184 0.0673838
0.689601 0.0872969 0.0686656
0.693126 0.0913558 0.0707103
0.695918 0.0946059 0.0724498
0.698924 0.0970474 0.0745861
0.702907 0.101778 0.0779278
0.706935 0.106065 0.0799878
0.0222324 0.0297246 0.0279393
0.0222324 0.0297551 0.0279698
0.0222477 0.0298009 0.0280919
0.0270237 0.0307317 0.0296025
0.0435492 0.0306096 0.0297856
0.0669261 0.0298619 0.0285496
0.092668 0.0294499 0.0271611
0.121218 0.0299077 0.0262455
0.159609 0.0322576 0.0263523
0.202213 0.0320287 0.0242008
0.242878 0.0318151 0.0231785
0.280232 0.031693 0.0233005
0.316869 0.0327459 0.0244755
0.351324 0.0337224 0.0255589
0.386084 0.0361944 0.0268254
0.419333 0.0382086 0.0287175
0.454841 0.0419165 0.0320134
0.490517 0.0459297 0.0350347
0.526116 0.0509957 0.0395361
0.563851 0.0573892 0.0453193
0.599908 0.0634775 0.0512551
0.63328 0.0703746 0.0568399
0.663172 0.0801556 0.064271
0.678355 0.0779583 0.063859
0.686198 0.0821393 0.0661021
0.688502 0.0859083 0.0679789
0.690913 0.0892042 0.0694896
0.694041 0.09308 0.0711528
0.695979 0.0957809 0.0720989
0.699062 0.0988479 0.074342
0.702708 0.102831 0.0774701
0.706844 0.107286 0.0795605
0.710994 0.11194 0.0828412
0.0225528 0.0336156 0.0292363
0.0225223 0.0325475 0.0280766
0.0223545 0.0314336 0.0281224
0.0225528 0.0331731 0.0293889
0.0370947 0.0328679 0.0304112
0.0642252 0.0326848 0.0296178
0.0927901 0.0335241 0.0286717
0.123095 0.0357977 0.0289769
0.160082 0.0359197 0.0264134
0.202564 0.0347906 0.0246891
0.242924 0.0345922 0.0243381
0.282277 0.0363622 0.0258183
0.321233 0.0384527 0.0272374
0.35491 0.03888 0.0273747
0.386191 0.0383001 0.0272984
0.420127 0.0401007 0.0293278
0.45977 0.0480049 0.0341802
0.493477 0.0509346 0.0364843
0.528008 0.0548714 0.040589
0.564736 0.0598764 0.0455329
0.605982 0.0727245 0.0560159
0.637598 0.0775311 0.0617075
0.665217 0.0849165 0.066392
0.686625 0.0907912 0.0699321
0.689754 0.0875563 0.0687419
0.69276 0.09131 0.0703288
0.694789 0.0945907 0.0715648
0.696559 0.0970016 0.072282
0.699916 0.100557 0.0748302
0.703471 0.105074 0.07776
0.708766 0.110979 0.0802472
0.71194 0.114397 0.0832837
0.714595 0.116503 0.0849622
0.0218204 0.0495613 0.0336461
0.0217288 0.0486763 0.032166
0.0219883 0.0460212 0.0298161
0.0252842 0.0465553 0.0317235
0.0401007 0.0468452 0.0335393
0.0643168 0.0450294 0.0341802
0.0931716 0.042298 0.032166
0.124895 0.0417029 0.0311589
0.163668 0.0418708 0.0290227
0.206592 0.0414282 0.0269627
0.249302 0.042359 0.0270085
0.28748 0.0429541 0.0271916
0.322179 0.0426337 0.0263828
0.357168 0.0420081 0.0286717
0.39147 0.0446326 0.0300298
0.428397 0.0488136 0.0326848
0.462791 0.0529641 0.0350347
0.494194 0.0529793 0.0362097
0.533211 0.0606088 0.0431678
0.573343 0.0715038 0.0518044
0.609171 0.0782177 0.0584268
0.639155 0.0824292 0.0633707
0.667597 0.089189 0.0686046
0.691707 0.0992599 0.0728771
0.700694 0.102113 0.0752117
0.696254 0.096437 0.0720836
0.698039 0.0990616 0.0731518
0.701213 0.10277 0.0755779
0.706523 0.110048 0.0788586
0.71075 0.115908 0.0813764
0.714702 0.119463 0.0844587
0.717342 0.121355 0.0865644
0.723537 0.134066 0.0890516
0.0207523 0.0714275 0.0393378
0.0207218 0.0703899 0.0376745
0.0210269 0.0662852 0.0337377
0.0303044 0.0644541 0.0351568
0.0408331 0.0669871 0.0368505
0.0638437 0.0671397 0.0352941
0.0952926 0.0644236 0.0373693
0.131853 0.0572976 0.03682
0.170993 0.0547951 0.0334325
0.21355 0.0519417 0.0311589
0.256153 0.0514992 0.0302739
0.294896 0.051133 0.0299382
0.331548 0.0518807 0.0306859
0.36553 0.0529641 0.0308232
0.40029 0.0554971 0.032639
0.433936 0.0581369 0.0339513
0.470222 0.0609445 0.0377508
0.505302 0.0658427 0.0420844
0.544854 0.0749218 0.0495918
0.580591 0.0812238 0.0556802
0.613016 0.0849317 0.0609903
0.647639 0.0949111 0.0686198
0.677623 0.103517 0.0740673
0.699367 0.109483 0.0778058
0.70692 0.110872 0.0788891
0.70576 0.1093 0.0781567
0.707195 0.111696 0.0791638
0.712169 0.119432 0.0822003
0.716518 0.12462 0.0850538
0.717327 0.129671 0.0832532
0.721477 0.133852 0.0874342
0.727367 0.14313 0.0920577
0.734615 0.155795 0.0968338
0.0202182 0.096025 0.0464637
0.0201877 0.0960098 0.0438239
0.0209964 0.0922866 0.0399634
0.0300755 0.0890211 0.0380865
0.0463569 0.0904707 0.0407111
0.0633402 0.0922713 0.0420233
0.088304 0.09131 0.0381323
0.128588 0.0896468 0.0396124
0.179919 0.0749981 0.040116
0.227588 0.0678264 0.0376287
0.268437 0.0648356 0.0355077
0.304234 0.0635691 0.0342565
0.342168 0.0652018 0.0345617
0.377325 0.067628 0.0357671
0.412573 0.0707256 0.0376745
0.448432 0.0749676 0.0400549
0.485634 0.0803845 0.0449073
0.520943 0.0863203 0.0496376
0.557412 0.0932174 0.0562905
0.593805 0.101259 0.0628519
0.628305 0.107836 0.0683146
0.660075 0.115267 0.0734112
0.688884 0.119722 0.08159
0.708034 0.127138 0.0815442
0.71841 0.133165 0.0853437
0.721004 0.137835 0.086717
0.725643 0.144686 0.0894331
0.72285 0.139895 0.0878614
0.725963 0.144274 0.0900282
0.729961 0.151339 0.0935073
0.734813 0.159609 0.0965286
0.739635 0.170031 0.10013
0.743023 0.182696 0.102358
0.0196994 0.122454 0.0539406
0.0212711 0.12256 0.0498665
0.0243381 0.119661 0.0466773
0.0329595 0.115404 0.0442359
0.0479438 0.113741 0.0431983
0.0692454 0.116381 0.0463111
0.0894179 0.118593 0.0456703
0.121431 0.116121 0.0394446
0.178851 0.113741 0.0392462
0.235019 0.0973983 0.0437324
0.285649 0.0867933 0.0410773
0.326406 0.0851453 0.0404517
0.361257 0.0854047 0.0406653
0.393027 0.0868544 0.0411383
0.430289 0.0915236 0.0446479
0.467597 0.0980697 0.0495613
0.503838 0.103487 0.0542916
0.540383 0.109987 0.0598764
0.575387 0.117067 0.0654765
0.610132 0.123033 0.0713054
0.644541 0.129809 0.0777905
0.674403 0.13753 0.0827344
0.7019 0.146136 0.0882887
0.724605 0.155093 0.0932937
0.733883 0.161212 0.0952926
0.734112 0.164126 0.0955673
0.736141 0.16994 0.0973983
0.738079 0.17583 0.0986954
0.737652 0.174868 0.0982834
0.740001 0.182681 0.0997635
0.743526 0.192447 0.102602
0.745876 0.202472 0.104097
0.749065 0.21326 0.106508
0.0194095 0.154055 0.0597086
0.0229953 0.154604 0.0540169
0.025742 0.152514 0.0520027
0.03505 0.148318 0.0509346
0.0434424 0.142123 0.0454108
0.0702831 0.145098 0.0480507
0.0952621 0.14902 0.0493324
0.114061 0.153063 0.0472877
0.160464 0.147539 0.0405737
0.228504 0.149279 0.040238
0.291096 0.13547 0.0521096
0.342733 0.120256 0.0532845
0.384176 0.11841 0.0547189
0.421439 0.12047 0.0564889
0.454139 0.123842 0.058793
0.48629 0.127275 0.0610056
0.521843 0.13228 0.0644083
0.556481 0.137346 0.0687877
0.59115 0.144106 0.0740978
0.625879 0.151644 0.0802777
0.65977 0.159869 0.0868849
0.688899 0.16788 0.0924544
0.713771 0.177813 0.0963149
0.733852 0.186923 0.0996719
0.742046 0.194049 0.101747
0.743038 0.199252 0.102281
0.743847 0.20499 0.102541
0.745907 0.210758 0.104143
0.747066 0.216892 0.105348
0.748226 0.217884 0.10602
0.75053 0.226169 0.108431
0.75346 0.23534 0.111452
0.756405 0.24535 0.114183
0.0189364 0.193912 0.0673991
0.0214847 0.194034 0.0608225
0.0300145 0.193286 0.0607614
0.0354162 0.189105 0.056672
0.0429236 0.183856 0.0509804
0.0536202 0.179034 0.0459754
0.0923781 0.186419 0.0502632
0.122499 0.192752 0.053666
0.146853 0.198291 0.049836
0.20824 0.191531 0.042359
0.281712 0.196201 0.0446479
0.341665 0.186923 0.0581216
0.392859 0.172992 0.0685893
0.437201 0.161547 0.070222
0.474311 0.161593 0.0718395
0.507866 0.164401 0.0737163
0.537942 0.168521 0.0750439
0.570245 0.172198 0.0774243
0.604105 0.178195 0.081117
0.636896 0.18616 0.0868238
0.66833 0.194522 0.091722
0.696925 0.204685 0.0968185
0.721447 0.213901 0.101976
0.743175 0.224384 0.106676
0.750317 0.230625 0.108736
0.75172 0.235782 0.110643
0.752026 0.241001 0.111116
0.753582 0.247425 0.112505
0.755703 0.254185 0.114763
0.757107 0.260182 0.116899
0.757687 0.262074 0.117708
0.759274 0.269902 0.120195
0.761486 0.278843 0.123751
0.0238651 0.242542 0.084947
0.0271 0.243 0.0794232
0.0407568 0.242618 0.0779278
0.0451209 0.239857 0.0738689
0.0526589 0.234974 0.0682689
0.0630045 0.227131 0.0595407
0.0895399 0.227649 0.0565347
0.124804 0.236439 0.0611734
0.160769 0.240604 0.0624552
0.192432 0.244083 0.0536812
0.256519 0.236316 0.0471656
0.331151 0.240604 0.0487526
0.387793 0.238117 0.0610361
0.436774 0.228458 0.0750591
0.479774 0.217136 0.0834669
0.519509 0.210986 0.0864271
0.554864 0.212055 0.0884871
0.587137 0.21593 0.0910201
0.6159 0.220172 0.0925612
0.647181 0.225025 0.0951553
0.679042 0.2327 0.101732
0.70573 0.24152 0.106096
0.730663 0.252705 0.111528
0.75079 0.262974 0.116838
0.757702 0.269932 0.118868
0.758953 0.273533 0.120119
0.759197 0.27866 0.12195
0.760601 0.284321 0.124422
0.761639 0.289693 0.125719
0.762997 0.296101 0.127947
0.765179 0.304631 0.132235
0.765743 0.30547 0.132876
0.766949 0.313054 0.136584
0.0284733 0.291447 0.103288
0.0318914 0.291279 0.0973068
0.0471504 0.290837 0.0969253
0.0556649 0.290135 0.0929427
0.0624552 0.285283 0.085893
0.0726635 0.279606 0.0782483
0.0855726 0.27158 0.0663462
0.124987 0.27599 0.0660258
0.160876 0.28191 0.0686351
0.202564 0.285252 0.066865
0.236789 0.289906 0.0572519
0.305531 0.281697 0.0533608
0.378653 0.287388 0.0547036
0.432288 0.290852 0.0636149
0.480156 0.285328 0.0809339
0.52163 0.279286 0.0950332
0.561257 0.269841 0.103807
0.599695 0.264744 0.108339
0.632471 0.266651 0.11078
0.66247 0.271504 0.112642
0.689952 0.277638 0.116274
0.71516 0.284169 0.119829
0.738247 0.291539 0.124758
0.756756 0.301244 0.129503
0.76405 0.307637 0.132753
0.765469 0.312474 0.134218
0.766033 0.317311 0.136584
0.766552 0.322026 0.139162
0.767361 0.326879 0.141787
0.768902 0.332036 0.144945
0.769863 0.338476 0.148013
0.771023 0.340307 0.14966
0.772427 0.346975 0.153704
0.0330968 0.339361 0.124056
0.0363165 0.339086 0.117876
0.0525368 0.338704 0.118471
0.0646525 0.337453 0.112428
0.0719005 0.334951 0.106767
0.0826429 0.329549 0.0992142
0.0924239 0.322133 0.0874037
0.110613 0.314366 0.0723278
0.163561 0.320134 0.0741436
0.202838 0.32462 0.0758373
0.243275 0.329442 0.0729839
0.283391 0.334432 0.0615854
0.352056 0.325704 0.0605325
0.422751 0.333974 0.0628824
0.475654 0.340047 0.0691691
0.521218 0.339193 0.0871748
0.563455 0.3364 0.103624
0.60116 0.330495 0.117632
0.637034 0.325124 0.130602
0.671641 0.321767 0.134478
0.701427 0.324041 0.137331
0.725124 0.329168 0.141726
0.744549 0.336355 0.146136
0.761318 0.343145 0.14966
0.768856 0.346624 0.151949
0.770672 0.350439 0.154437
0.771466 0.354376 0.156237
0.772335 0.358343 0.158633
0.772763 0.363226 0.161456
0.773007 0.368505 0.164691
0.773358 0.374594 0.16817
0.7738 0.380911 0.17322
0.774639 0.38172 0.174243
0.0384222 0.386114 0.152697
0.0391241 0.386511 0.144884
0.0532387 0.386023 0.142626
0.0685588 0.384771 0.138079
0.081239 0.383719 0.131426
0.0910811 0.37821 0.122576
0.100267 0.371496 0.111421
0.112367 0.363745 0.0977646
0.140826 0.356786 0.0804913
0.205676 0.361196 0.0823224
0.245457 0.365957 0.0850996
0.285222 0.371725 0.0800641
0.330037 0.376944 0.0682841
0.396826 0.369146 0.0719768
0.464195 0.377905 0.073579
0.516274 0.384894 0.0794842
0.56144 0.389761 0.0945296
0.602396 0.389105 0.114961
0.639399 0.387335 0.132158
0.673808 0.38436 0.14638
0.703136 0.38201 0.160464
0.729686 0.380529 0.168536
0.75024 0.385794 0.174395
0.766064 0.391699 0.180987
0.772427 0.396353 0.182528
0.773526 0.396323 0.182544
0.773602 0.395224 0.181964
0.773648 0.397986 0.18323
0.773724 0.402335 0.186343
0.774197 0.407187 0.189822
0.774289 0.411856 0.192599
0.775006 0.416983 0.196139
0.775204 0.423362 0.199161
0.0446632 0.433921 0.192157
0.0428931 0.433982 0.182666
0.0466926 0.433249 0.172793
0.0679026 0.432059 0.171496
0.0837415 0.429908 0.161624
0.0975814 0.426719 0.151156
0.107881 0.421118 0.140673
0.118181 0.413001 0.125963
0.134798 0.403296 0.107561
0.193011 0.397436 0.0899825
0.245686 0.402197 0.0942397
0.287861 0.407095 0.0964218
0.328725 0.413458 0.0880446
0.374792 0.418235 0.0794385
0.43978 0.41181 0.0863203
0.504768 0.420752 0.0877852
0.55729 0.428946 0.0941329
0.599893 0.437369 0.103716
0.639445 0.439246 0.128222
0.675517 0.440681 0.148272
0.7075 0.440818 0.165469
0.73312 0.440864 0.178958
0.753582 0.442985 0.189914
0.769223 0.446601 0.200458
0.775128 0.451408 0.202472
0.775708 0.451911 0.202396
0.775814 0.451118 0.202518
0.775753 0.449989 0.202518
0.77583 0.449577 0.202533
0.775769 0.452216 0.20235
0.776776 0.456855 0.202899
0.777829 0.461814 0.203174
0.779004 0.467796 0.204013
0.0518502 0.480613 0.231434
0.0497749 0.480964 0.223529
0.0481117 0.480812 0.214389
0.0518959 0.479973 0.205066
0.0727092 0.478355 0.20061
0.096849 0.475013 0.190234
0.110826 0.468986 0.177493
0.12401 0.461646 0.16054
0.139391 0.452354 0.141772
0.166537 0.441291 0.115877
0.241856 0.437552 0.102876
0.287236 0.441627 0.10901
0.331228 0.447044 0.109789
0.371695 0.4533 0.0987411
0.417456 0.459358 0.0934462
0.479667 0.453437 0.101595
0.545113 0.46302 0.104829
0.596353 0.471138 0.111162
0.637568 0.480995 0.119753
0.676448 0.48719 0.143175
0.708812 0.490105 0.164645
0.735912 0.493431 0.182956
0.758267 0.496315 0.196307
0.774731 0.500023 0.206577
0.781628 0.504433 0.210285
0.782528 0.506233 0.210498
0.782498 0.506233 0.210483
0.782452 0.505898 0.210376
0.782193 0.505104 0.209812
0.782391 0.50399 0.209964
0.782361 0.50193 0.209934
0.782528 0.504234 0.209949
0.783398 0.508034 0.210971
0.0630961 0.526726 0.273976
0.0602884 0.52668 0.266804
0.0577859 0.527031 0.259327
0.0562142 0.52726 0.250233
0.0586252 0.526528 0.23946
0.0760662 0.523476 0.22771
0.107668 0.517983 0.218677
0.124987 0.51043 0.205631
0.142931 0.500954 0.185885
0.166873 0.489265 0.15848
0.211048 0.476188 0.124178
0.286717 0.475242 0.117784
0.332418 0.479698 0.12697
0.375387 0.486091 0.125856
0.415167 0.493034 0.1122
0.460166 0.499489 0.109682
0.521584 0.494194 0.119219
0.58439 0.504799 0.124666
0.633066 0.512459 0.131411
0.673243 0.52311 0.141283
0.709743 0.532876 0.158068
0.738033 0.538537 0.18056
0.7608 0.542931 0.197436
0.779171 0.547845 0.209079
0.787762 0.551797 0.216037
0.789319 0.554726 0.217304
0.789288 0.555077 0.217029
0.789273 0.554803 0.217075
0.789181 0.553887 0.217075
0.789105 0.552392 0.21709
0.788296 0.549752 0.21619
0.788174 0.547005 0.215839
0.788678 0.545861 0.216281
0.0801404 0.573968 0.321477
0.077409 0.574395 0.315297
0.0736248 0.574411 0.30808
0.0711986 0.574105 0.298726
0.0688182 0.574334 0.289418
0.0684062 0.57319 0.275227
0.0802777 0.569375 0.25771
0.120058 0.562051 0.250248
0.143679 0.551568 0.233799
0.170336 0.538628 0.210224
0.20087 0.524926 0.175631
0.255528 0.512642 0.134981
0.329671 0.513695 0.138903
0.375631 0.518685 0.147173
0.416052 0.52578 0.144076
0.454658 0.533394 0.130144
0.499962 0.539818 0.128908
0.558511 0.53521 0.140536
0.618204 0.545693 0.144396
0.666392 0.55433 0.15433
0.705745 0.564813 0.166903
0.737652 0.575402 0.180194
0.762142 0.583276 0.196399
0.781018 0.591287 0.208789
0.792401 0.59675 0.217365
0.795407 0.598856 0.221149
0.795331 0.59913 0.221134
0.795453 0.59884 0.221332
0.795468 0.598459 0.221393
0.794903 0.597513 0.220691
0.794812 0.595178 0.220935
0.793881 0.590829 0.220264
0.794003 0.586297 0.220996
0.0985885 0.620783 0.367254
0.0948806 0.621073 0.36199
0.0918288 0.620874 0.355215
0.0884871 0.620844 0.348272
0.0864576 0.620783 0.340047
0.0842756 0.620615 0.328038
0.0821241 0.620325 0.312276
0.0967727 0.614206 0.290257
0.137194 0.604013 0.280888
0.165972 0.591348 0.26038
0.198993 0.575509 0.231708
0.235828 0.560006 0.190005
0.307118 0.549798 0.152956
0.374395 0.551858 0.164157
0.416587 0.5579 0.169665
0.454307 0.564981 0.163561
0.494408 0.572946 0.149279
0.538384 0.580224 0.149477
0.590936 0.576196 0.164874
0.64773 0.58529 0.167529
0.695888 0.595315 0.181643
0.732952 0.60531 0.195972
0.759762 0.614511 0.207904
0.780865 0.623896 0.217365
0.796536 0.631861 0.224308
0.800107 0.634745 0.229526
0.800366 0.635569 0.231296
0.800519 0.635279 0.23122
0.800549 0.634577 0.231067
0.800305 0.633097 0.230488
0.800214 0.631495 0.229633
0.799695 0.629328 0.228046
0.799329 0.624598 0.226154
0.117052 0.665812 0.410483
0.114076 0.666072 0.406256
0.110903 0.666529 0.400839
0.108125 0.666468 0.394827
0.105028 0.666819 0.387991
0.102922 0.666545 0.378119
0.100435 0.666026 0.365087
0.0967575 0.665202 0.346426
0.113405 0.658 0.323033
0.156252 0.645502 0.310948
0.19202 0.628626 0.284489
0.227604 0.610056 0.24892
0.277256 0.592462 0.199329
0.362936 0.586358 0.17911
0.420386 0.590097 0.193011
0.456779 0.595911 0.195666
0.494331 0.603693 0.185443
0.533379 0.611414 0.174563
0.574075 0.617761 0.175387
0.622507 0.615 0.192218
0.678264 0.624765 0.197574
0.722667 0.634913 0.210147
0.754528 0.644144 0.223224
0.777508 0.65211 0.234867
0.795483 0.660258 0.242893
0.803372 0.66421 0.250095
0.804395 0.665339 0.254994
0.804456 0.6654 0.255329
0.804242 0.664286 0.254597
0.804303 0.663066 0.254154
0.803967 0.661891 0.252644
0.804089 0.659449 0.249897
0.803479 0.654612 0.246876
0.136599 0.70959 0.451972
0.133944 0.709758 0.447349
0.131121 0.710369 0.443229
0.12813 0.710979 0.438712
0.125856 0.711055 0.432624
0.123674 0.711131 0.424536
0.120134 0.710887 0.41326
0.117021 0.710781 0.398215
0.115572 0.710185 0.377997
0.132494 0.700252 0.355215
0.179965 0.683635 0.336767
0.220813 0.663462 0.304891
0.264057 0.64213 0.259785
0.328954 0.625452 0.209049
0.414923 0.624033 0.208682
0.463416 0.62797 0.217945
0.496132 0.633646 0.220005
0.532525 0.640726 0.208713
0.568994 0.648341 0.203082
0.609094 0.656291 0.204776
0.653666 0.653849 0.220584
0.705425 0.662852 0.227146
0.743542 0.673106 0.238437
0.771649 0.681483 0.251209
0.791363 0.688045 0.26128
0.8038 0.693568 0.270207
0.807431 0.695003 0.277226
0.80737 0.694972 0.279362
0.806653 0.694133 0.278309
0.806256 0.692775 0.27689
0.806989 0.691325 0.275807
0.807401 0.689006 0.274342
0.806378 0.683925 0.270665
0.158984 0.751461 0.492393
0.156985 0.75198 0.488945
0.15407 0.752636 0.48513
0.151431 0.753246 0.481041
0.148898 0.753719 0.475608
0.146197 0.753964 0.46865
0.143481 0.753674 0.458778
0.140154 0.753994 0.446952
0.136248 0.753933 0.430182
0.137285 0.751019 0.409033
0.1561 0.738994 0.384314
0.210803 0.717922 0.359152
0.254948 0.69456 0.32079
0.308568 0.67158 0.264881
0.389212 0.658259 0.227314
0.462318 0.658457 0.237293
0.501488 0.662715 0.243641
0.533104 0.668757 0.241962
0.567727 0.676509 0.234974
0.603265 0.684184 0.231434
0.642054 0.692073 0.233768
0.681788 0.690883 0.251102
0.72752 0.698863 0.257816
0.759533 0.707881 0.267628
0.784695 0.716991 0.279393
0.801755 0.722667 0.28867
0.807965 0.724575 0.295995
0.807874 0.724208 0.300023
0.807889 0.723217 0.299443
0.807599 0.721889 0.29836
0.807919 0.720363 0.297276
0.808301 0.717845 0.295445
0.807843 0.712795 0.291615
0.189181 0.785534 0.52813
0.186618 0.786282 0.525338
0.183261 0.786694 0.521721
0.180224 0.78703 0.517525
0.176745 0.787732 0.513207
0.174212 0.788174 0.507393
0.171328 0.788632 0.499657
0.167315 0.78851 0.488029
0.1635 0.788312 0.473228
0.15964 0.78735 0.453681
0.164248 0.780148 0.432654
0.190509 0.765454 0.40412
0.248341 0.742092 0.374304
0.296788 0.715206 0.323003
0.365362 0.692195 0.264881
0.451789 0.686229 0.253346
0.507301 0.687755 0.264698
0.538308 0.693278 0.266957
0.569162 0.699153 0.262791
0.60351 0.707698 0.260212
0.637659 0.714931 0.259251
0.674571 0.723552 0.263569
0.71075 0.723171 0.280507
0.74876 0.730068 0.288289
0.776349 0.738384 0.29807
0.796078 0.745296 0.307179
0.805646 0.748882 0.315007
0.807965 0.749462 0.319982
0.807645 0.748898 0.320272
0.807263 0.747906 0.319036
0.807492 0.74638 0.317617
0.807477 0.743862 0.315312
0.808316 0.740261 0.312215
0.2159 0.81532 0.563668
0.214618 0.815625 0.560281
0.211978 0.816388 0.557733
0.208988 0.816968 0.55436
0.206485 0.816907 0.549508
0.202731 0.816861 0.543297
0.198978 0.816678 0.535836
0.195666 0.816144 0.525689
0.19115 0.816663 0.513039
0.186267 0.815808 0.494621
0.184405 0.812482 0.474876
0.195468 0.802441 0.450996
0.238605 0.783291 0.422019
0.287037 0.757961 0.37882
0.344717 0.729839 0.315862
0.426139 0.713176 0.276326
0.498756 0.71107 0.281361
0.540475 0.714061 0.289036
0.570245 0.719387 0.29041
0.601282 0.727123 0.288075
0.635065 0.734493 0.287083
0.668742 0.742428 0.289021
0.704265 0.751369 0.295872
0.734829 0.751369 0.31249
0.765805 0.756725 0.319478
0.788632 0.763195 0.32697
0.802747 0.766827 0.334707
0.808194 0.768215 0.340719
0.807813 0.767483 0.342153
0.807538 0.766613 0.340826
0.807568 0.765179 0.339239
0.807431 0.763256 0.336538
0.807813 0.760342 0.333761
0.239918 0.839399 0.594568
0.238804 0.839567 0.591562
0.235737 0.840009 0.58909
0.233463 0.840543 0.58558
0.230732 0.840803 0.581674
0.228077 0.840604 0.575601
0.224338 0.839887 0.56759
0.220615 0.838773 0.557885
0.216846 0.838956 0.54641
0.212131 0.838926 0.529885
0.208438 0.835416 0.509453
0.21088 0.830152 0.490593
0.225956 0.816983 0.460319
0.274891 0.795712 0.42771
0.33048 0.766339 0.373098
0.402014 0.74078 0.314168
0.483925 0.732311 0.299596
0.539055 0.733547 0.309911
0.571679 0.736828 0.312047
0.599908 0.74287 0.312413
0.631235 0.750362 0.312398
0.663844 0.757778 0.314595
0.697627 0.765377 0.317571
0.729656 0.773617 0.326299
0.755825 0.773526 0.34107
0.780789 0.778622 0.34844
0.799008 0.782208 0.356115
0.807157 0.783032 0.361685
0.807858 0.782391 0.363882
0.807752 0.781826 0.362814
0.807568 0.781064 0.360739
0.807797 0.779721 0.35906
0.807416 0.776547 0.354894
0.254734 0.853849 0.615228
0.253025 0.853925 0.613199
0.250874 0.854383 0.610101
0.248722 0.855146 0.607477
0.24712 0.855543 0.603891
0.244617 0.85568 0.598352
0.241794 0.85536 0.591196
0.238987 0.854948 0.582269
0.235248 0.854444 0.571572
0.231067 0.854475 0.557336
0.227451 0.852201 0.537728
0.228656 0.848936 0.520943
0.235279 0.841688 0.498238
0.260136 0.825071 0.46482
0.319066 0.799237 0.42298
0.381643 0.768017 0.356985
0.462028 0.751431 0.321767
0.527733 0.748714 0.324239
0.571054 0.751629 0.332921
0.599527 0.755962 0.334234
0.6271 0.760845 0.332372
0.657496 0.767605 0.333928
0.690257 0.774853 0.337011
0.722545 0.782361 0.340993
0.750561 0.789914 0.350484
0.773083 0.790143 0.364599
0.794339 0.79295 0.373816
0.806241 0.794339 0.381109
0.809125 0.794095 0.383963
0.80911 0.793545 0.383505
0.809018 0.792767 0.382269
0.808835 0.791577 0.380118
0.808789 0.789929 0.377066
0.254124 0.856092 0.621164
0.254292 0.855894 0.618341
0.252323 0.85594 0.615045
0.25008 0.856306 0.612726
0.247913 0.856733 0.608454
0.246342 0.856901 0.603891
0.244633 0.857221 0.597894
0.24213 0.857145 0.589578
0.238804 0.85658 0.577981
0.23267 0.855024 0.562966
0.228519 0.853254 0.544106
0.229511 0.85034 0.528664
0.233967 0.848112 0.513695
0.24976 0.838697 0.488716
0.297276 0.819333 0.456306
0.356847 0.788754 0.400381
0.43357 0.761273 0.34464
0.50457 0.753109 0.331197
0.557488 0.754116 0.338369
0.592172 0.75787 0.342
0.619211 0.762325 0.340108
0.646906 0.768231 0.340078
0.678141 0.775265 0.34258
0.711177 0.782238 0.344182
0.741161 0.789853 0.350759
0.766964 0.794705 0.361379
0.787152 0.795316 0.376654
0.804501 0.79826 0.388708
0.810224 0.799084 0.394308
0.810147 0.798993 0.395575
0.809979 0.798779 0.39501
0.809918 0.798535 0.394049
0.809918 0.798184 0.393011
0.251667 0.85742 0.624598
0.252308 0.857069 0.622049
0.252506 0.856825 0.619638
0.250629 0.857008 0.615656
0.248188 0.857053 0.612238
0.246769 0.857145 0.606668
0.245029 0.857237 0.600534
0.243046 0.857603 0.592844
0.239673 0.856855 0.58204
0.234028 0.855497 0.567651
0.228641 0.853819 0.549004
0.228855 0.85098 0.531929
0.233051 0.848753 0.517418
0.246693 0.841978 0.495369
0.287465 0.825727 0.467552
0.343893 0.797253 0.416495
0.413748 0.766873 0.357839
