bundles/resolve-cinematic-luts/Phantom Luts/Ursa G2 Phntm Film LUTs - V1/Gen4/White Balance Offset (Magenta Boost)/Ursa EastmanRM Gen4-Legacy WBO.cube
TITLE "Generated by Resolve"
LUT_3D_SIZE 33
0.0444038 0.0406806 0.0425269
0.0449989 0.0401617 0.0416724
0.0493782 0.0391699 0.0406043
0.0579995 0.038819 0.0401007
0.0728313 0.0381018 0.0394141
0.0944686 0.0378882 0.0395361
0.120485 0.0370642 0.0389258
0.143877 0.0369573 0.0390631
0.167758 0.0368658 0.0394598
0.191348 0.0369726 0.0401465
0.218097 0.0374151 0.0413367
0.249989 0.0371557 0.0420386
0.28632 0.0364385 0.0424811
0.321584 0.035996 0.0431678
0.353521 0.035874 0.0440986
0.384482 0.0354467 0.0457923
0.414313 0.0349279 0.0475624
0.443153 0.0342412 0.0491035
0.470344 0.0340429 0.0512398
0.495506 0.0337835 0.053727
0.518166 0.0338293 0.0562905
0.539162 0.0343938 0.0597238
0.555886 0.0354314 0.0640879
0.566964 0.0369421 0.0677653
0.574762 0.0385901 0.0716716
0.578714 0.0390478 0.0730755
0.580163 0.0394446 0.0736248
0.581613 0.0400702 0.0747387
0.581231 0.0407721 0.0768902
0.577127 0.0420081 0.0813611
0.571374 0.0432746 0.0882277
0.558938 0.0457008 0.0996872
0.545785 0.0483101 0.112856
0.0453651 0.0398718 0.0412604
0.0453651 0.0398566 0.0412451
0.0472114 0.0392615 0.0403449
0.0549783 0.0395514 0.0397803
0.0673381 0.0399176 0.0395209
0.084184 0.0406958 0.0403143
0.108583 0.0401312 0.0401007
0.135027 0.0387732 0.0395514
0.161807 0.0380713 0.0394903
0.188266 0.0378271 0.0397955
0.214374 0.038117 0.0409857
0.244221 0.0377203 0.0417945
0.281331 0.036347 0.0421302
0.318318 0.0350958 0.0419471
0.352697 0.0345464 0.0424048
0.383642 0.0342107 0.0437629
0.413596 0.0329442 0.0447242
0.441947 0.0323033 0.0460822
0.468589 0.0318151 0.0480201
0.493507 0.0316472 0.0501869
0.51632 0.0318761 0.0531014
0.535836 0.0324865 0.0564279
0.551171 0.0336309 0.0597238
0.562036 0.0353094 0.064271
0.568521 0.0363165 0.0666972
0.572854 0.0369268 0.0684672
0.574289 0.0374762 0.0694591
0.575418 0.0380713 0.0705577
0.575143 0.0387579 0.0728313
0.57084 0.0397192 0.0770581
0.56437 0.041001 0.0822309
0.551873 0.0430915 0.0939956
0.538293 0.0454871 0.106111
0.0454108 0.0430152 0.0425879
0.0450294 0.042237 0.0426032
0.0453346 0.0411688 0.0419318
0.0509194 0.042649 0.0411994
0.060441 0.0437629 0.0406958
0.0762188 0.0443275 0.0407416
0.0987869 0.0443885 0.0415198
0.124025 0.0424964 0.0407874
0.152621 0.0406653 0.0399634
0.18175 0.0393072 0.0398108
0.210651 0.038819 0.0405432
0.239368 0.0381628 0.0415961
0.274479 0.0368353 0.0423285
0.311955 0.0354314 0.0425116
0.347677 0.0347295 0.0424353
0.381888 0.0340124 0.0433204
0.413108 0.0325933 0.0436713
0.441276 0.0317082 0.0446479
0.467552 0.0311589 0.0462196
0.492241 0.0309758 0.0483253
0.51371 0.0308232 0.0501869
0.533074 0.0313726 0.0534371
0.547997 0.032578 0.0570687
0.557702 0.0340276 0.0604257
0.565225 0.0352483 0.0636912
0.569146 0.0357519 0.065095
0.570214 0.0360113 0.0657664
0.571283 0.0363775 0.066453
0.570443 0.0369268 0.068452
0.565698 0.0379034 0.0726787
0.559091 0.0390631 0.0783856
0.545464 0.0410773 0.0884871
0.53228 0.043061 0.100389
0.0475471 0.0556954 0.0475471
0.0465095 0.0560006 0.047837
0.0468299 0.0554513 0.0467536
0.0498665 0.0556497 0.0457465
0.0588846 0.055848 0.046067
0.0739147 0.0541848 0.0443427
0.096376 0.0530404 0.0436255
0.119707 0.0507362 0.0430915
0.144961 0.0476234 0.0424048
0.175525 0.0443275 0.0413672
0.20502 0.0416266 0.0407111
0.236606 0.0404669 0.0414893
0.271412 0.0384985 0.0422217
0.306905 0.0365911 0.0425879
0.342214 0.0357214 0.0430152
0.376303 0.0349737 0.0437171
0.41004 0.0332189 0.0439612
0.440528 0.0321202 0.0443427
0.467353 0.0314183 0.0456397
0.491859 0.0311131 0.0474098
0.513252 0.0308843 0.0493477
0.532601 0.0313573 0.051957
0.546822 0.0323491 0.055314
0.556237 0.0339208 0.0586557
0.563668 0.0351873 0.061738
0.567437 0.0355383 0.0630808
0.567971 0.0355993 0.0633249
0.568307 0.0357977 0.0636606
0.567391 0.0361486 0.0649882
0.562112 0.0368505 0.0688029
0.554986 0.0377356 0.0737621
0.541238 0.0393835 0.0829023
0.527031 0.0413367 0.0941482
0.0493477 0.070634 0.0513313
0.0478828 0.0711376 0.0516823
0.0480659 0.0706035 0.0510262
0.0505226 0.0701152 0.0497749
0.0556039 0.0713054 0.0487831
0.0740978 0.0696269 0.0491646
0.0988632 0.0664683 0.0482185
0.122225 0.0641489 0.0468299
0.145541 0.0609751 0.0460822
0.170565 0.0579995 0.0454871
0.201724 0.0534829 0.0436255
0.236591 0.0481575 0.0423438
0.275151 0.044007 0.0419776
0.31107 0.0406195 0.0425574
0.343374 0.0385443 0.0428779
0.375021 0.0368963 0.0439307
0.406394 0.0346685 0.0443275
0.43743 0.0332189 0.0449836
0.466133 0.0322118 0.045594
0.492348 0.031632 0.0471656
0.514138 0.0314031 0.0492103
0.533364 0.0318914 0.0516365
0.547768 0.0330816 0.0550546
0.557519 0.0345159 0.0582437
0.564385 0.035584 0.0606699
0.567437 0.0358587 0.0613413
0.567758 0.0357671 0.0612039
0.56788 0.0358129 0.0612802
0.566171 0.0360571 0.0623026
0.560525 0.0367895 0.0654612
0.553323 0.0376593 0.0703136
0.539574 0.0393072 0.0793774
0.525261 0.0411536 0.089128
0.0513161 0.0886549 0.0556802
0.0496986 0.0898299 0.0563821
0.0492714 0.08925 0.0552529
0.0514992 0.0886091 0.0536202
0.0564584 0.0904707 0.0537118
0.0641337 0.0921492 0.0530098
0.0905318 0.0897536 0.0532845
0.119997 0.0856489 0.0526589
0.147127 0.0805676 0.05066
0.175219 0.0751354 0.0500496
0.202106 0.0709544 0.0495308
0.235187 0.0660105 0.0477607
0.276326 0.0594644 0.0455634
0.318929 0.0509499 0.0435645
0.353674 0.0467689 0.0434577
0.383429 0.0431067 0.0439765
0.412787 0.0396735 0.0445869
0.440879 0.0369879 0.0453651
0.466987 0.0349889 0.0463111
0.491844 0.0335699 0.0476997
0.514153 0.0330816 0.0493019
0.533043 0.0331426 0.051667
0.547539 0.0340734 0.0552071
0.558129 0.0356298 0.0589609
0.564752 0.0367285 0.0611734
0.567895 0.0370947 0.0620584
0.568368 0.0370336 0.0619516
0.567758 0.0370947 0.0623331
0.566476 0.037232 0.0630503
0.561318 0.0377966 0.0653544
0.554604 0.0384222 0.0694133
0.540383 0.0400397 0.0771649
0.52607 0.0419471 0.0867933
0.0533303 0.10573 0.059968
0.0513619 0.1075 0.0606851
0.0514076 0.107195 0.059266
0.0557259 0.105867 0.0559701
0.0651102 0.105287 0.0532998
0.0767224 0.106706 0.0531319
0.0935836 0.107591 0.0518807
0.126955 0.103593 0.0512703
0.158495 0.0996109 0.0512245
0.188586 0.0942092 0.0515908
0.218952 0.0872511 0.0507973
0.252522 0.0799115 0.0506142
0.289235 0.0740978 0.0495918
0.324788 0.069688 0.0483406
0.360845 0.0642252 0.0472877
0.395132 0.0578927 0.0465553
0.426017 0.0511025 0.0457465
0.453452 0.0472267 0.0466011
0.479149 0.0437781 0.0485389
0.502571 0.0413062 0.0497444
0.52224 0.0389105 0.0510872
0.538857 0.0378271 0.0539559
0.551888 0.0381628 0.0576486
0.55938 0.038468 0.0607309
0.564965 0.0391089 0.0633249
0.568185 0.039292 0.0646372
0.568963 0.0391546 0.0647135
0.568551 0.0391699 0.0648356
0.567987 0.039292 0.0650492
0.565423 0.0395972 0.0664073
0.560586 0.040116 0.0687419
0.551812 0.0411994 0.073518
0.542794 0.042359 0.0793622
0.0631723 0.120821 0.0608072
0.0583658 0.12372 0.06215
0.0563058 0.124681 0.0627146
0.0575265 0.123629 0.0603952
0.0665599 0.122515 0.0569924
0.0818494 0.123781 0.0553292
0.0962387 0.126574 0.0560006
0.112505 0.127565 0.0555428
0.149889 0.122728 0.055024
0.186969 0.118868 0.0555428
0.224247 0.110719 0.0560311
0.261906 0.101366 0.0541848
0.299916 0.0924849 0.0531777
0.337728 0.0871748 0.053254
0.372595 0.0818799 0.0521706
0.40589 0.0792706 0.0511482
0.438697 0.0753643 0.0512398
0.468482 0.0714275 0.0513771
0.496345 0.0636606 0.0511177
0.5205 0.0563211 0.0513924
0.54165 0.0531472 0.054078
0.558968 0.0507973 0.0579995
0.571084 0.0499428 0.0619059
0.577249 0.0495613 0.0653849
0.581125 0.0491646 0.0679026
0.58262 0.0485237 0.068986
0.581415 0.0471962 0.0687572
0.579797 0.0461891 0.0683909
0.578775 0.0456245 0.0682994
0.575097 0.045243 0.0692454
0.569741 0.0448005 0.0707713
0.559426 0.0451972 0.0752575
0.549187 0.0456855 0.0806439
0.0674907 0.139986 0.0689403
0.0623636 0.143313 0.0695201
0.0594034 0.145327 0.0701915
0.0601205 0.144915 0.0684977
0.0640421 0.14316 0.0647288
0.0792248 0.142489 0.0594492
0.10013 0.146197 0.059968
0.116091 0.14931 0.0610208
0.132219 0.1505 0.0599222
0.178119 0.14519 0.0594949
0.226642 0.139544 0.0596017
0.273152 0.129854 0.0593118
0.313298 0.120317 0.0574655
0.351171 0.110323 0.0574807
0.387976 0.105623 0.0578775
0.422477 0.101793 0.0575875
0.457282 0.09897 0.0573281
0.490394 0.0973983 0.0575723
0.518715 0.095201 0.0580758
0.544671 0.0937819 0.0601968
0.568002 0.0902876 0.0629892
0.588022 0.0826429 0.0642557
0.602838 0.0785077 0.067277
0.612207 0.0792248 0.0729992
0.618494 0.0794232 0.0782177
0.621485 0.0792554 0.0796826
0.619242 0.0767071 0.0792248
0.61532 0.0735332 0.0778668
0.613016 0.0714427 0.0774243
0.608255 0.069398 0.0779889
0.601892 0.0677348 0.0793927
0.591928 0.0678721 0.0841688
0.58114 0.0684672 0.0903639
0.0727703 0.161501 0.0766308
0.0663615 0.164645 0.0777295
0.063386 0.167025 0.0777447
0.063798 0.167742 0.0761578
0.0655375 0.166522 0.0737926
0.07393 0.16527 0.0675059
0.0955673 0.168063 0.0642405
0.116121 0.172702 0.0647135
0.135592 0.177096 0.0661479
0.157 0.179934 0.0657359
0.21648 0.17406 0.0653239
0.281254 0.167254 0.064332
0.333425 0.159518 0.064744
0.376135 0.149783 0.0660563
0.412009 0.141085 0.065919
0.446754 0.133761 0.0668193
0.482826 0.131899 0.0688182
0.517128 0.129656 0.0693523
0.548638 0.128603 0.0695506
0.579126 0.128511 0.0707713
0.606546 0.129152 0.0740215
0.63154 0.13106 0.0803845
0.652293 0.133577 0.0886854
0.665354 0.133227 0.0945449
0.673899 0.131121 0.0977646
0.679606 0.131518 0.099733
0.676631 0.127596 0.0977646
0.672923 0.123308 0.0960555
0.669169 0.119387 0.0934005
0.664714 0.117403 0.0942092
0.658747 0.116213 0.0964675
0.648127 0.116167 0.102068
0.637232 0.117006 0.108583
0.0753948 0.18555 0.0829786
0.0688182 0.188983 0.0851453
0.0655528 0.19263 0.0857557
0.0663462 0.194018 0.0830854
0.0686198 0.193622 0.0805676
0.073167 0.191959 0.0764172
0.0898299 0.193408 0.0699016
0.112749 0.199664 0.067628
0.133028 0.206744 0.0683452
0.156161 0.214817 0.0714733
0.186709 0.222766 0.0730144
0.267536 0.216892 0.0727855
0.345724 0.213001 0.0731823
0.401877 0.205997 0.0733043
0.446815 0.194903 0.0786908
0.482078 0.184649 0.0796521
0.513939 0.174243 0.0813611
0.547845 0.171954 0.083238
0.580972 0.168963 0.08542
0.614649 0.168322 0.0874342
0.647166 0.168734 0.0898146
0.676295 0.171206 0.0947127
0.700206 0.176379 0.102525
0.718578 0.18114 0.112047
0.730449 0.185077 0.119677
0.739239 0.188663 0.124514
0.738308 0.187366 0.124651
0.735409 0.184695 0.123613
0.733639 0.182879 0.123308
0.729519 0.181704 0.124559
0.723995 0.181415 0.12784
0.713512 0.182437 0.135134
0.702892 0.184131 0.14374
0.0749218 0.217472 0.0888228
0.0677348 0.22031 0.090135
0.0644541 0.224201 0.0908064
0.0658427 0.22739 0.0896468
0.0691997 0.228733 0.0855421
0.0736553 0.227573 0.0814832
0.0803235 0.226505 0.0762493
0.103273 0.233219 0.0720684
0.12665 0.244907 0.0720684
0.153658 0.257221 0.0754559
0.187152 0.27013 0.0808576
0.231754 0.279713 0.0810559
0.325994 0.273594 0.0801099
0.409674 0.268788 0.0809491
0.468803 0.262181 0.0795911
0.514031 0.250584 0.0827192
0.551461 0.238682 0.0894942
0.582361 0.229664 0.0923781
0.613977 0.218936 0.0968795
0.648463 0.216419 0.100954
0.682155 0.215015 0.106416
0.713512 0.216312 0.112581
0.737865 0.220554 0.119738
0.755291 0.227085 0.126223
0.768719 0.234043 0.132982
0.777661 0.239216 0.138399
0.778012 0.239124 0.138857
0.776547 0.237171 0.138735
0.775387 0.235782 0.138674
0.772717 0.235019 0.139544
0.769009 0.234974 0.142306
0.760525 0.236133 0.149233
0.750988 0.237934 0.157549
0.0747692 0.258564 0.095491
0.0681926 0.262531 0.0978103
0.0645762 0.266087 0.0995346
0.0664378 0.2701 0.0980392
0.0712596 0.272786 0.0942092
0.0783551 0.273106 0.0892805
0.0869306 0.271626 0.0834363
0.0997787 0.272679 0.0761578
0.127794 0.284199 0.0735943
0.153933 0.299321 0.0752728
0.18558 0.313252 0.0804761
0.230976 0.328176 0.0859388
0.285786 0.339437 0.0852522
0.383948 0.332509 0.0852827
0.471031 0.327321 0.0870832
0.530861 0.322316 0.0836957
0.575402 0.311818 0.0842298
0.614008 0.296803 0.0938888
0.646922 0.285512 0.0995041
0.678065 0.276051 0.105226
0.709865 0.268376 0.113436
0.740001 0.266407 0.122454
0.763897 0.269749 0.132189
0.78024 0.274891 0.140871
0.791318 0.281621 0.147814
0.798398 0.287831 0.151308
0.799863 0.290166 0.151858
0.79913 0.288823 0.151705
0.798581 0.287694 0.151568
0.797513 0.287068 0.15201
0.796002 0.286946 0.153201
0.790326 0.287999 0.158175
0.782254 0.289815 0.165789
0.0744488 0.303746 0.102632
0.0682841 0.307103 0.104768
0.0655833 0.31043 0.106661
0.0665599 0.313802 0.105135
0.0712444 0.317815 0.10248
0.0785229 0.319539 0.0961929
0.0868544 0.318959 0.0907759
0.0991684 0.318257 0.0837262
0.1178 0.321996 0.0740978
0.147601 0.336599 0.0733043
0.17882 0.352255 0.0757458
0.219776 0.368322 0.0805219
0.277378 0.385779 0.0865034
0.342184 0.398444 0.0879225
0.44242 0.390433 0.0894484
0.527337 0.38529 0.0939345
0.585351 0.38204 0.0919356
0.630381 0.371786 0.0907607
0.66772 0.355444 0.0977798
0.70312 0.341512 0.108965
0.734203 0.33283 0.116533
0.76199 0.323812 0.127779
0.783978 0.321965 0.139559
0.799969 0.325078 0.150759
0.810407 0.330434 0.159197
0.815869 0.335424 0.162844
0.816968 0.337911 0.162997
0.816526 0.337102 0.162829
0.816175 0.336355 0.162844
0.815854 0.336095 0.162936
0.815503 0.33608 0.163119
0.811612 0.337133 0.16733
0.804654 0.339147 0.174517
0.0704662 0.347845 0.110002
0.0642557 0.350591 0.112398
0.061265 0.353521 0.113771
0.0621805 0.356542 0.112459
0.0646983 0.360052 0.10898
0.072221 0.3635 0.103044
0.0807355 0.36376 0.0968338
0.0943313 0.363439 0.089662
0.111376 0.364736 0.0807507
0.1355 0.371817 0.0703136
0.16939 0.386618 0.0696727
0.208789 0.404166 0.0732891
0.26276 0.424094 0.0810101
0.327993 0.444312 0.0885634
0.398535 0.456886 0.090898
0.496803 0.448005 0.0955673
0.578531 0.442954 0.103944
0.634165 0.439506 0.105592
0.678035 0.430442 0.106142
0.714122 0.417029 0.110124
0.748592 0.399893 0.122591
0.780209 0.390295 0.135317
0.801511 0.386007 0.146517
0.816342 0.383978 0.157748
0.826322 0.384833 0.168322
0.830396 0.388693 0.172961
0.832135 0.392462 0.174228
0.831754 0.391806 0.173922
0.831525 0.391424 0.173663
0.831525 0.391638 0.173556
0.831601 0.392035 0.17351
0.828351 0.393423 0.177493
0.821653 0.396231 0.18471
0.0662242 0.391302 0.119295
0.0606546 0.393866 0.12192
0.0572976 0.396307 0.123445
0.0576486 0.398642 0.121553
0.0591135 0.401556 0.117678
0.0646067 0.404532 0.109911
0.0738689 0.406867 0.102388
0.0862745 0.406821 0.0953384
0.100725 0.4065 0.0870527
0.122072 0.409125 0.0748455
0.157092 0.419577 0.0656596
0.200717 0.4374 0.0673686
0.24741 0.456825 0.0741588
0.311315 0.480644 0.0853132
0.381521 0.501457 0.0937362
0.454017 0.512947 0.0993973
0.545739 0.504341 0.107454
0.625254 0.498543 0.119081
0.677195 0.494728 0.124376
0.717525 0.487663 0.127626
0.751629 0.477226 0.130999
0.784573 0.459022 0.143282
0.810407 0.449897 0.16022
0.827741 0.447227 0.172183
0.83769 0.448188 0.181979
0.842649 0.451347 0.187488
0.843824 0.454139 0.189364
0.843641 0.454536 0.189197
0.843702 0.454429 0.189242
0.843687 0.454459 0.189227
0.843656 0.454627 0.189212
0.840574 0.455924 0.193164
0.834562 0.458061 0.201358
0.0624247 0.433921 0.135225
0.057847 0.436545 0.139178
0.0548562 0.438804 0.140978
0.0542458 0.440635 0.138323
0.0556497 0.442817 0.132708
0.06009 0.445365 0.124269
0.0682231 0.447822 0.113527
0.0800946 0.448264 0.10454
0.092195 0.447684 0.0953841
0.109621 0.447211 0.0837415
0.138064 0.451194 0.0693675
0.191913 0.467887 0.0651255
0.240772 0.487877 0.071519
0.295399 0.510582 0.0840772
0.365347 0.536004 0.100099
0.434806 0.55523 0.108049
0.50634 0.565118 0.114488
0.591119 0.556161 0.124147
0.667369 0.549905 0.138872
0.716381 0.545312 0.148775
0.753719 0.540505 0.156863
0.784161 0.533013 0.162951
0.810727 0.518318 0.174929
0.830701 0.509743 0.186069
0.843061 0.508354 0.195987
0.84889 0.509957 0.202747
0.85098 0.511986 0.205356
0.851255 0.513344 0.205707
0.851286 0.513512 0.205737
0.851347 0.51397 0.205829
0.851392 0.514488 0.205905
0.848356 0.516121 0.2103
0.84303 0.51841 0.219074
0.0616159 0.475959 0.161044
0.0576028 0.478584 0.166674
0.0548562 0.481239 0.170489
0.0538643 0.482872 0.168032
0.0538186 0.484215 0.161791
0.0567941 0.48542 0.15108
0.06392 0.487465 0.137758
0.0744335 0.488273 0.122789
0.0860761 0.487739 0.112673
0.102632 0.486366 0.0998703
0.127474 0.487251 0.0847181
0.169039 0.494118 0.0690776
0.23508 0.516518 0.0724804
0.288487 0.538994 0.0847486
0.347951 0.563043 0.103868
0.416754 0.587625 0.122026
0.483558 0.60473 0.128038
0.552377 0.614176 0.135225
0.632425 0.605432 0.146593
0.705653 0.598764 0.164523
0.753475 0.594583 0.182605
0.787152 0.590021 0.197559
0.812955 0.585458 0.210559
0.831708 0.57908 0.220096
0.844526 0.574655 0.226719
0.851987 0.575021 0.231815
0.854994 0.577691 0.234546
0.855497 0.579629 0.235584
0.855451 0.580041 0.235874
0.855329 0.580652 0.236072
0.855207 0.581308 0.236316
0.853986 0.582605 0.240497
0.850233 0.58439 0.247074
0.0649424 0.518776 0.199435
0.0620127 0.521447 0.2047
0.0590524 0.523827 0.208774
0.0573587 0.525353 0.206195
0.0567636 0.526421 0.200671
0.0576791 0.52697 0.190341
0.0623026 0.527581 0.176013
0.0729381 0.528466 0.156756
0.0840009 0.527443 0.141482
0.0996872 0.526009 0.125628
0.121721 0.524407 0.108522
0.159991 0.527153 0.0886397
0.217121 0.540459 0.0759747
0.286442 0.56582 0.0889906
0.342458 0.589685 0.107012
0.401755 0.613672 0.130556
0.464652 0.63595 0.14815
0.527321 0.652583 0.155138
0.594446 0.661738 0.162844
0.670604 0.654002 0.176699
0.741817 0.646922 0.201144
0.78851 0.643183 0.226474
0.81857 0.639902 0.247379
0.838148 0.638086 0.263233
0.85095 0.638651 0.27393
0.858976 0.640146 0.280934
0.861738 0.642496 0.283925
0.862486 0.644099 0.285527
0.862776 0.644724 0.286305
0.86302 0.645167 0.286946
0.863401 0.646097 0.287861
0.862959 0.646952 0.289906
0.862379 0.647898 0.293416
0.0728923 0.56141 0.244739
0.070634 0.563745 0.247898
0.0677806 0.566217 0.251194
0.0659953 0.567636 0.250538
0.0644541 0.568643 0.246235
0.0643778 0.568689 0.237385
0.0668803 0.568582 0.223362
0.0750286 0.568353 0.202747
0.0869306 0.567102 0.182788
0.101625 0.564599 0.164172
0.121294 0.561563 0.144488
0.152514 0.560449 0.119951
0.203998 0.566567 0.0970626
0.280583 0.590051 0.0972763
0.345556 0.616236 0.117372
0.40029 0.639948 0.140246
0.454627 0.662104 0.164935
0.510918 0.682338 0.183062
0.568978 0.698222 0.193042
0.634546 0.708431 0.203815
0.706783 0.702327 0.217853
0.776059 0.695323 0.246509
0.821347 0.692638 0.27689
0.846204 0.690761 0.299138
0.861616 0.690349 0.314595
0.870497 0.692271 0.324819
0.874449 0.693782 0.329641
0.875502 0.695033 0.331899
0.876005 0.69601 0.332967
0.87602 0.696788 0.333211
0.876326 0.69781 0.333944
0.876493 0.698848 0.335195
0.876631 0.699962 0.336751
0.0879988 0.601083 0.28867
0.0858473 0.602945 0.290806
0.0830854 0.605554 0.295186
0.0811322 0.607462 0.296407
0.07953 0.608865 0.29395
0.0789197 0.609125 0.286458
0.0802167 0.608545 0.275135
0.0868391 0.607843 0.256596
0.0982528 0.60592 0.232685
0.112932 0.602441 0.211093
0.129686 0.599176 0.190951
0.154513 0.595193 0.166064
0.196612 0.596216 0.136767
0.262684 0.609873 0.118456
0.346654 0.640558 0.134508
0.40415 0.665034 0.15848
0.454856 0.687114 0.183871
0.502892 0.707515 0.208057
0.554894 0.726986 0.226688
0.611002 0.743389 0.241062
0.673915 0.755261 0.255787
0.742397 0.752132 0.270344
0.807492 0.74583 0.299763
0.848554 0.743969 0.329076
0.870756 0.744274 0.34963
0.883299 0.744961 0.363714
0.88954 0.747082 0.371908
0.89044 0.747723 0.374456
0.890852 0.748577 0.375479
0.891676 0.749355 0.374823
0.892927 0.749905 0.372686
0.894499 0.750652 0.369512
0.895888 0.751431 0.367376
0.11957 0.635462 0.31812
0.117571 0.6374 0.321386
0.114321 0.640452 0.328283
0.111772 0.642496 0.330785
0.110048 0.644251 0.330877
0.110109 0.644617 0.3252
0.110811 0.64448 0.316732
0.115648 0.643442 0.301503
0.127764 0.640986 0.278691
0.140002 0.637354 0.254612
0.154223 0.633249 0.23238
0.173434 0.629313 0.208698
0.206302 0.627771 0.181155
0.261952 0.63444 0.15433
0.340764 0.658564 0.152819
0.420249 0.691005 0.180011
0.471733 0.714336 0.204395
0.514855 0.733654 0.228214
0.559579 0.752407 0.251377
0.609262 0.771206 0.270253
0.661143 0.786816 0.286198
0.720027 0.798398 0.301442
0.78352 0.796918 0.316991
0.839063 0.791775 0.341619
0.874235 0.790722 0.366064
0.893126 0.79176 0.382834
0.902449 0.79382 0.393744
0.903639 0.794034 0.398688
0.902968 0.795361 0.402914
0.901884 0.796536 0.40618
0.902007 0.797665 0.407095
0.902983 0.798108 0.404868
0.903929 0.798535 0.402655
0.156268 0.668742 0.358587
0.155062 0.670726 0.362615
0.152193 0.673396 0.369604
0.149737 0.675395 0.373114
0.147646 0.676707 0.37351
0.147585 0.676844 0.368765
0.148226 0.676173 0.361273
0.150729 0.674449 0.349035
0.158801 0.672602 0.330129
0.170352 0.669032 0.306203
0.180331 0.664897 0.284321
0.194659 0.660807 0.261067
0.216938 0.657252 0.233585
0.259968 0.658488 0.204318
0.327413 0.672068 0.187671
0.407813 0.701869 0.202945
0.471519 0.729519 0.229709
0.516579 0.750393 0.252338
0.557427 0.76875 0.275807
0.602533 0.787961 0.297749
0.651118 0.806485 0.317586
0.700572 0.821637 0.336782
0.758694 0.833555 0.355978
0.816526 0.833677 0.373724
0.859983 0.829709 0.392538
0.887373 0.828702 0.408591
0.901671 0.828977 0.418692
0.90602 0.828885 0.425849
0.905104 0.829602 0.430014
0.903685 0.830488 0.434424
0.903227 0.831373 0.436637
0.90367 0.832242 0.435981
0.90518 0.832715 0.43267
0.194186 0.69546 0.39649
0.192798 0.696666 0.398108
0.189746 0.699245 0.40557
0.18674 0.701137 0.408881
0.184436 0.702205 0.409995
0.183612 0.701762 0.405737
0.183398 0.700618 0.398398
0.183932 0.698833 0.388464
0.187518 0.697047 0.373083
0.195666 0.694072 0.351415
0.20412 0.689952 0.329976
0.213718 0.68603 0.308644
0.23006 0.681651 0.282597
0.260792 0.679789 0.252552
0.314122 0.684886 0.224598
0.390051 0.70631 0.224781
0.460273 0.735271 0.248417
0.512459 0.758999 0.273167
0.554299 0.778592 0.29572
0.597086 0.797848 0.318151
0.643595 0.817487 0.33962
0.68983 0.834592 0.360281
0.740642 0.849332 0.38143
0.796231 0.860746 0.403708
0.843061 0.859495 0.421241
0.874647 0.856565 0.436698
0.893446 0.855421 0.447028
0.901488 0.854704 0.454093
0.901473 0.854765 0.458183
0.900191 0.855833 0.462715
0.899321 0.856626 0.465629
0.89926 0.857176 0.466407
0.899916 0.85771 0.465278
0.219348 0.718822 0.436225
0.219242 0.719005 0.434806
0.217624 0.719936 0.43682
0.215473 0.721019 0.438895
0.213367 0.721721 0.439445
0.212253 0.721248 0.435721
0.211551 0.720073 0.429633
0.211002 0.71809 0.419928
0.210529 0.715297 0.406683
0.214145 0.711971 0.388357
0.221942 0.708431 0.366934
0.229053 0.704463 0.346639
0.239719 0.700252 0.324117
0.261112 0.696712 0.294972
0.301869 0.696864 0.262898
0.368277 0.708431 0.245457
0.442329 0.734752 0.260288
0.499855 0.760113 0.286107
0.546944 0.781811 0.31017
0.588037 0.800839 0.33254
0.632868 0.820859 0.353597
0.680034 0.839811 0.373861
0.727367 0.855726 0.395132
0.78146 0.869841 0.418997
0.829129 0.877607 0.441382
0.864134 0.874968 0.457938
0.884688 0.872801 0.470634
0.89485 0.871794 0.479667
0.896666 0.871336 0.484779
0.895705 0.871977 0.488823
0.894865 0.872709 0.491615
0.894408 0.873289 0.493339
0.894636 0.873655 0.492897
0.237278 0.73724 0.472175
0.238621 0.736477 0.468284
0.238239 0.736248 0.466331
0.236713 0.736141 0.464591
0.234394 0.736202 0.463691
0.232959 0.735409 0.459861
0.231617 0.734264 0.453742
0.229953 0.731868 0.444389
0.227863 0.72842 0.432151
0.227039 0.724453 0.41503
0.231235 0.720409 0.395514
0.237797 0.717052 0.376196
0.247074 0.712856 0.355108
0.260304 0.708843 0.33022
0.291203 0.706523 0.297597
0.344732 0.709468 0.264607
0.417731 0.729641 0.266178
0.479179 0.754391 0.287114
0.531853 0.777874 0.313222
0.576944 0.798611 0.338048
0.61941 0.817487 0.358831
0.665339 0.837049 0.377142
0.712657 0.854032 0.396536
0.765835 0.869581 0.419165
0.815274 0.879194 0.441535
0.855268 0.880278 0.461158
0.878508 0.878004 0.476677
0.891249 0.876951 0.489113
0.894759 0.876677 0.496895
0.89395 0.877134 0.501442
0.893553 0.877272 0.503227
0.893278 0.877394 0.504417
0.893248 0.877455 0.504616
0.242512 0.744244 0.489143
0.242466 0.743282 0.48542
0.242176 0.742245 0.481209
0.241413 0.740963 0.476555
0.239445 0.740124 0.47306
0.237613 0.7393 0.468452
0.235447 0.737408 0.461616
