bundles/resolve-cinematic-luts/Phantom Luts/Ursa G2 Phntm Film LUTs - V1/Gen4/White Balance Offset (Magenta Boost)/Ursa Eterna Gen4 WBO.cube
TITLE "Generated by Resolve"
LUT_3D_SIZE 9
0.00927749 0.0375525 0.0374304
0.0670787 0.0416266 0.043946
0.152453 0.0517433 0.0580148
0.272267 0.0697642 0.0894331
0.404257 0.0882429 0.129473
0.542412 0.109514 0.168032
0.632227 0.120012 0.192462
0.639826 0.121248 0.202594
0.669505 0.115175 0.218936
0.0224002 0.0706188 0.0563516
0.0492866 0.071046 0.0493477
0.153124 0.0657664 0.0550393
0.276326 0.0666819 0.070985
0.408728 0.0796521 0.0977188
0.540215 0.0863661 0.122927
0.605615 0.0895705 0.138216
0.615412 0.0941176 0.150317
0.649378 0.0932937 0.164736
0.0621347 0.186175 0.119127
0.0717174 0.205234 0.100084
0.176516 0.206485 0.0873121
0.374212 0.181949 0.114656
0.516472 0.183307 0.127947
0.656397 0.179507 0.144259
0.710567 0.177218 0.154879
0.698405 0.166476 0.151766
0.694789 0.156069 0.149523
0.0783551 0.376013 0.210224
0.0659648 0.409384 0.190311
0.136767 0.418585 0.138399
0.364935 0.43154 0.0958267
0.642451 0.428672 0.122042
0.801175 0.414084 0.186633
0.86685 0.42266 0.21677
0.865995 0.415808 0.216266
0.863523 0.404501 0.214969
0.084596 0.615549 0.367742
0.0694591 0.640787 0.358801
0.0689708 0.657176 0.316579
0.254871 0.646662 0.161257
0.566751 0.654902 0.172122
0.800443 0.646922 0.205661
0.89778 0.658412 0.247974
0.898466 0.655131 0.248508
0.897169 0.643 0.245777
0.177768 0.799573 0.530221
0.166796 0.815564 0.525643
0.162036 0.824659 0.501427
0.173007 0.82446 0.414664
0.512062 0.818875 0.236194
0.723766 0.824826 0.285725
0.90071 0.820035 0.329076
0.924865 0.813489 0.340642
0.924727 0.801526 0.334371
0.247913 0.891081 0.630777
0.245243 0.893187 0.620325
0.241703 0.895232 0.599222
0.235737 0.895216 0.542168
0.304402 0.900465 0.42594
0.67393 0.913741 0.36141
0.865385 0.926131 0.438361
0.94432 0.921599 0.48687
0.941146 0.916686 0.471321
0.240711 0.895018 0.648341
0.251225 0.891264 0.635737
0.256291 0.889738 0.616236
0.252125 0.891951 0.574746
0.262287 0.893477 0.487739
0.558083 0.905486 0.346563
0.787442 0.91902 0.403967
0.940948 0.928328 0.498589
0.943236 0.93164 0.508186
0.238895 0.89575 0.658915
0.241276 0.894759 0.647272
0.246616 0.892912 0.629541
0.248249 0.892989 0.593011
0.25243 0.891478 0.509499
0.407202 0.901686 0.366613
0.719661 0.914885 0.3794
0.913466 0.92781 0.466285
0.941924 0.932418 0.506508
0.0141604 0.0388342 0.0684825
0.0720531 0.0440681 0.0672618
0.155474 0.0546883 0.0890211
0.275242 0.0700236 0.123827
0.412726 0.086305 0.163012
0.559503 0.103609 0.206256
0.66566 0.11809 0.238117
0.671962 0.117678 0.251408
0.692851 0.113649 0.269596
0.0184176 0.0593423 0.0568856
0.0420691 0.0555581 0.0597848
0.162524 0.0582895 0.0741436
0.289326 0.0690013 0.0984665
0.42443 0.085359 0.137499
0.577493 0.102129 0.179416
0.664576 0.114916 0.205219
0.668589 0.115343 0.217502
0.685328 0.112581 0.233173
0.0567941 0.171786 0.13286
0.0522164 0.184619 0.122255
0.174548 0.198138 0.086305
0.368765 0.164553 0.112444
0.501137 0.163409 0.12488
0.637324 0.154788 0.140169
0.687327 0.145678 0.146944
0.669596 0.1299 0.141909
0.663401 0.114092 0.13904
0.0731212 0.357961 0.231159
0.0594644 0.385962 0.219684
0.111635 0.413092 0.157977
0.36199 0.425147 0.0963455
0.637369 0.415717 0.124437
0.794995 0.401373 0.184283
0.863294 0.405921 0.215427
0.862287 0.402304 0.213519
0.858946 0.39147 0.210803
0.079469 0.59736 0.38674
0.0653849 0.617273 0.377966
0.0629129 0.635676 0.331746
0.226413 0.640192 0.177386
0.559228 0.647044 0.167773
0.796185 0.639963 0.200275
0.892989 0.652445 0.243244
0.897002 0.648096 0.245945
0.895674 0.634623 0.243076
0.170321 0.783749 0.543664
0.158007 0.798856 0.538399
0.151797 0.807721 0.508614
0.161257 0.812222 0.410025
0.495766 0.813626 0.229603
0.719219 0.819776 0.280644
0.899504 0.814115 0.323552
0.923812 0.807752 0.33547
0.923705 0.795789 0.32929
0.24509 0.887465 0.648905
0.245426 0.889662 0.639399
0.241901 0.892409 0.616083
0.23621 0.893828 0.551949
0.299504 0.898604 0.427253
0.66656 0.912352 0.357534
0.862699 0.925689 0.436515
0.943313 0.91931 0.480079
0.940108 0.914092 0.464942
0.24445 0.89398 0.671611
0.257908 0.889006 0.657969
0.258885 0.888441 0.63595
0.253086 0.89134 0.588037
0.263142 0.893248 0.489433
0.544686 0.904616 0.346334
0.780758 0.918425 0.401602
0.939956 0.928298 0.497261
0.94316 0.931746 0.508644
0.244678 0.894316 0.682643
0.248539 0.892515 0.670878
0.250507 0.891554 0.650919
0.252033 0.891356 0.609506
0.252049 0.891432 0.512718
0.406409 0.902556 0.372946
0.712108 0.914183 0.377234
0.910475 0.927352 0.462638
0.941985 0.932387 0.506584
0.0381933 0.0440375 0.140551
0.0937819 0.0495766 0.141817
0.172732 0.058732 0.125902
0.283574 0.0737774 0.150958
0.411185 0.0891737 0.193378
0.557046 0.105821 0.244892
0.673884 0.120439 0.288212
0.686625 0.121843 0.309209
0.707347 0.118715 0.335027
0.0170291 0.0601816 0.0996719
0.0264591 0.0440528 0.147601
0.173129 0.0584421 0.13196
0.292012 0.0736553 0.149462
0.419852 0.0876326 0.191119
0.576013 0.104921 0.243915
0.685344 0.11902 0.288289
0.690944 0.12076 0.309529
0.70753 0.118898 0.332967
0.0552224 0.163882 0.147112
0.0502174 0.169619 0.157031
0.181415 0.181598 0.180667
0.371267 0.174105 0.189212
0.512825 0.168719 0.208881
0.647578 0.157244 0.231846
0.689006 0.136797 0.237934
0.676051 0.125978 0.243915
0.683757 0.117906 0.258854
0.0742046 0.340734 0.257099
0.0616159 0.362097 0.265324
0.0615549 0.379004 0.228061
0.362783 0.412985 0.137118
0.636057 0.385916 0.198215
0.778698 0.384543 0.222461
0.866239 0.38233 0.235386
0.860655 0.367971 0.23061
0.852857 0.34902 0.224765
0.0799115 0.57232 0.415259
0.0661936 0.588617 0.420279
0.0615549 0.603754 0.389563
0.155718 0.628946 0.229938
0.551553 0.631876 0.165759
0.793866 0.618555 0.210956
0.893538 0.628336 0.249805
0.897261 0.624048 0.248981
0.89514 0.607858 0.244816
0.163012 0.758862 0.56701
0.149615 0.769223 0.567163
0.138598 0.77319 0.539803
0.134707 0.78294 0.437095
0.439048 0.800504 0.225422
0.704555 0.803922 0.270939
0.89807 0.79588 0.316609
0.923461 0.791485 0.328115
0.922194 0.779049 0.319448
0.241154 0.876326 0.676966
0.242237 0.878737 0.671809
0.239826 0.880156 0.650278
0.230228 0.882551 0.586191
0.27895 0.892851 0.439582
0.648753 0.906844 0.350195
0.8533 0.919005 0.426108
0.941466 0.912856 0.466835
0.938293 0.907179 0.450172
0.253483 0.893111 0.708705
0.255467 0.891691 0.699947
0.267216 0.886244 0.678141
0.259068 0.888441 0.629679
0.258366 0.891249 0.51223
0.506981 0.902724 0.348394
0.765133 0.91725 0.396048
0.936339 0.928222 0.493309
0.943175 0.931868 0.510307
0.255589 0.893141 0.718044
0.253071 0.893446 0.710582
0.261326 0.889158 0.691966
0.261372 0.887663 0.651652
0.252613 0.892668 0.551827
0.3776 0.901305 0.383444
0.696178 0.912932 0.373632
0.900481 0.928344 0.456657
0.942245 0.932357 0.508583
0.0746777 0.0526436 0.243488
0.123995 0.0578164 0.262058
0.198734 0.0648051 0.228779
0.308293 0.0798657 0.210666
0.431113 0.0948806 0.247196
0.571206 0.11165 0.295995
0.686351 0.126223 0.344533
0.699718 0.128771 0.373205
0.719341 0.125078 0.408042
0.0169375 0.0521553 0.197757
0.0357977 0.0490883 0.247425
0.190005 0.0640879 0.266285
0.313466 0.0794385 0.224353
0.430304 0.093431 0.252232
0.573877 0.112154 0.307164
0.697566 0.12842 0.365026
0.705013 0.12932 0.394766
0.723293 0.125475 0.429297
0.0433967 0.149065 0.192584
0.0368658 0.14313 0.233295
0.100359 0.117311 0.296345
0.359625 0.129595 0.280217
0.473121 0.128359 0.284291
0.583093 0.120363 0.310597
0.694148 0.130129 0.357504
0.700114 0.131716 0.383597
0.71519 0.128817 0.413092
0.0754406 0.325368 0.283635
0.0636759 0.342458 0.304784
0.0631418 0.350698 0.317128
0.385626 0.378927 0.366171
0.620508 0.365576 0.37528
0.778607 0.37293 0.401648
0.889113 0.37557 0.423484
0.886122 0.355032 0.430289
0.879789 0.328786 0.432486
0.083299 0.546044 0.441871
0.0651865 0.562356 0.46099
0.0662547 0.571115 0.458778
0.14435 0.591272 0.413931
0.539971 0.605859 0.318013
0.779431 0.586816 0.401877
0.893141 0.600381 0.422934
0.918456 0.596994 0.422644
0.916381 0.578897 0.414176
0.158953 0.732784 0.592569
0.1449 0.739116 0.599176
0.13576 0.737972 0.587564
0.12697 0.740948 0.530724
0.328862 0.779507 0.406073
0.691997 0.776349 0.355169
0.896193 0.759335 0.457954
0.927382 0.760815 0.470222
0.926009 0.747784 0.45594
0.246448 0.854688 0.701823
0.233585 0.859907 0.704448
0.232258 0.857176 0.690242
0.222599 0.852796 0.642359
0.254002 0.872175 0.534447
0.579355 0.89659 0.442008
0.831601 0.903853 0.438621
0.940002 0.899916 0.502159
0.937423 0.893767 0.490257
0.27744 0.886671 0.746044
0.267399 0.889967 0.745357
0.277562 0.885939 0.730571
0.275303 0.884657 0.695933
0.267185 0.892012 0.603738
0.426337 0.90959 0.483696
0.729244 0.915068 0.418433
0.931258 0.926345 0.491234
0.947234 0.929793 0.521691
0.269017 0.890166 0.756771
0.266361 0.890791 0.753414
0.264408 0.890898 0.742809
0.276829 0.885573 0.711162
0.263096 0.889937 0.637964
0.322652 0.905547 0.507149
0.64268 0.912673 0.420188
0.869993 0.927062 0.453208
0.943496 0.93193 0.51429
0.138643 0.0639353 0.363684
0.178134 0.0679942 0.387228
0.26125 0.0743725 0.384115
0.343374 0.0851148 0.335546
0.461769 0.101137 0.328954
0.593683 0.116899 0.372076
0.698344 0.131807 0.407446
0.706935 0.131609 0.431479
0.725856 0.127565 0.473091
0.0241398 0.0505837 0.313359
0.0772412 0.0573587 0.349935
0.214328 0.070573 0.387396
0.339208 0.0840925 0.360113
0.455116 0.0995956 0.33518
0.592218 0.116167 0.382864
0.706844 0.131487 0.431083
0.712383 0.132082 0.463996
0.728344 0.128756 0.506752
0.0419013 0.117586 0.279408
0.0333715 0.105013 0.314931
0.037583 0.0535744 0.352071
0.326848 0.0825513 0.395148
0.465324 0.104326 0.354376
0.58407 0.117983 0.381308
0.699016 0.134188 0.433036
0.706294 0.135973 0.465232
0.722087 0.132326 0.504189
0.066453 0.30222 0.338476
0.0479438 0.310292 0.372168
0.0393378 0.305806 0.412238
0.263615 0.309834 0.519051
0.61474 0.307851 0.509789
0.760204 0.314351 0.512703
0.862425 0.29987 0.534096
0.858854 0.272679 0.54316
0.845228 0.244968 0.552499
0.0822309 0.527062 0.468223
0.0655985 0.539803 0.489082
0.065568 0.547646 0.501442
0.176623 0.559594 0.51902
0.562448 0.560845 0.545251
0.763104 0.553491 0.551064
0.889967 0.561715 0.574319
0.920439 0.55964 0.585626
0.918349 0.540764 0.584192
0.161837 0.704082 0.609445
0.138994 0.711971 0.620783
0.131563 0.709529 0.61854
0.137011 0.707942 0.599603
0.440452 0.733181 0.594812
0.689281 0.740414 0.531945
0.876616 0.727398 0.592996
0.931334 0.738308 0.604944
0.930205 0.728237 0.598642
0.245869 0.833494 0.716915
0.228901 0.838743 0.722911
0.218952 0.835492 0.715602
0.218097 0.825345 0.684306
0.377798 0.850217 0.659403
0.579705 0.872328 0.613626
0.829999 0.877699 0.599252
0.943923 0.870436 0.671122
0.941238 0.86685 0.668284
0.292866 0.885161 0.776745
0.2813 0.88893 0.77969
0.272007 0.891386 0.775616
0.280171 0.886564 0.75024
0.312764 0.894484 0.704921
0.549783 0.918166 0.67837
0.735668 0.921187 0.646403
0.930724 0.935073 0.666957
0.952834 0.939391 0.714076
0.295003 0.885954 0.78529
0.285115 0.888899 0.787228
0.274693 0.891157 0.783047
0.277882 0.887907 0.762295
0.28751 0.887114 0.716915
0.485176 0.915877 0.684565
0.679942 0.923369 0.66009
0.864683 0.931868 0.629313
0.951141 0.938109 0.682002
0.210742 0.0749676 0.469642
0.238926 0.0776532 0.495949
0.311406 0.0829175 0.512047
0.401694 0.0909285 0.486748
0.497704 0.104524 0.451316
0.628656 0.12401 0.458412
0.71014 0.135393 0.494194
0.710018 0.136049 0.49958
0.725978 0.132143 0.529763
0.110246 0.0640574 0.425879
0.147189 0.0687572 0.457984
0.255695 0.0786297 0.494484
0.381796 0.0890059 0.499977
0.495369 0.103166 0.470832
0.627543 0.123827 0.469596
0.7122 0.135973 0.506981
0.715129 0.136522 0.521462
0.731426 0.132967 0.556069
0.0324102 0.0741588 0.358907
0.024918 0.0654765 0.397406
0.0776684 0.0610208 0.436515
0.329946 0.083772 0.502083
0.490349 0.101472 0.494331
0.615244 0.124819 0.467582
0.703944 0.138277 0.500496
0.710475 0.139757 0.518532
0.725856 0.136431 0.554299
0.0522621 0.274128 0.428489
0.0414435 0.277546 0.46215
0.041886 0.271992 0.49099
0.1561 0.248661 0.564706
0.558129 0.21384 0.627268
0.739483 0.244526 0.580926
0.835172 0.253285 0.590356
0.818067 0.222599 0.590295
0.784176 0.18497 0.584741
0.0791791 0.511986 0.519921
0.0586709 0.51928 0.543236
0.0513619 0.520729 0.564126
0.0481117 0.505592 0.596445
0.47599 0.518105 0.683314
0.761913 0.514 0.659678
0.881956 0.520134 0.65742
0.920119 0.509483 0.669017
0.916945 0.487724 0.682277
0.158434 0.689921 0.629679
0.133989 0.693721 0.640055
0.126635 0.690074 0.641672
0.126574 0.684047 0.636164
0.456336 0.702968 0.668177
0.7037 0.700008 0.684077
0.869474 0.696941 0.688716
0.932784 0.703258 0.705425
0.931502 0.6963 0.706889
0.249363 0.814099 0.729992
0.223774 0.819867 0.737865
0.212161 0.815412 0.733516
0.210208 0.8065 0.71667
0.46006 0.825483 0.729686
0.640467 0.839902 0.731853
0.828977 0.851118 0.696117
0.938552 0.84979 0.747051
0.940154 0.850431 0.751705
0.327779 0.881148 0.797818
0.301442 0.890745 0.807889
0.290135 0.893202 0.807218
0.282567 0.889708 0.790875
0.427726 0.900114 0.783627
0.628367 0.914122 0.791638
0.761318 0.925719 0.770809
0.936385 0.93518 0.775769
0.960632 0.935393 0.822614
0.316854 0.889265 0.814572
0.307942 0.892439 0.818601
0.298558 0.89453 0.817594
0.288884 0.893019 0.804776
0.336782 0.896544 0.783825
0.604685 0.916396 0.804211
0.747066 0.92842 0.798077
0.879713 0.934325 0.775769
0.957046 0.945571 0.822568
0.281834 0.0849317 0.563119
0.300008 0.086717 0.586786
0.356542 0.0907759 0.607614
0.443061 0.0968032 0.609659
0.547555 0.109331 0.594568
0.661524 0.128389 0.575784
0.717235 0.141238 0.565515
0.715099 0.141787 0.561151
0.728786 0.137407 0.584894
0.203967 0.0782025 0.524132
0.226413 0.0804456 0.556115
0.307439 0.0870985 0.588083
0.41236 0.094377 0.612116
0.542321 0.108782 0.612406
0.663325 0.12871 0.595315
0.718151 0.14255 0.58349
0.720058 0.142107 0.588586
0.731243 0.138552 0.616083
0.0345464 0.059556 0.451652
0.0457008 0.060029 0.48452
0.158923 0.0733349 0.534493
0.347387 0.0894636 0.59321
0.515389 0.104433 0.615824
0.656291 0.127337 0.609476
0.713344 0.14493 0.579446
0.713451 0.145037 0.58117
0.724743 0.141649 0.609537
0.0534218 0.257298 0.508461
0.0448615 0.253422 0.53814
0.0470893 0.235126 0.553063
0.0902113 0.186908 0.581384
0.471778 0.132479 0.647181
0.655024 0.147478 0.641855
0.746563 0.17377 0.588449
0.749752 0.173205 0.581506
0.759548 0.167834 0.608103
0.0530709 0.490089 0.596765
0.0361791 0.491951 0.622782
0.0359045 0.486366 0.640116
0.0400854 0.470512 0.663813
0.381689 0.481865 0.773999
0.744137 0.456764 0.806256
0.883085 0.474083 0.729488
0.917067 0.480537 0.728374
0.913329 0.455879 0.744579
0.158114 0.677684 0.666926
0.130114 0.680308 0.681529
0.123842 0.671916 0.683757
0.115923 0.658991 0.687755
0.350607 0.664637 0.739849
0.637156 0.666682 0.791241
0.863539 0.665171 0.775738
0.932418 0.66949 0.775189
0.930663 0.655619 0.779599
0.249302 0.802197 0.745556
0.218463 0.806867 0.753613
0.206546 0.800198 0.750332
0.198016 0.789212 0.739696
0.394995 0.804623 0.757153
0.645212 0.816526 0.786526
0.833295 0.820462 0.806104
0.939239 0.821759 0.813428
0.943893 0.823117 0.820615
0.34847 0.882109 0.819348
0.31841 0.889204 0.827253
0.30193 0.88751 0.824887
0.28896 0.87985 0.812207
0.43447 0.891005 0.817746
0.667903 0.903029 0.842084
0.79852 0.915267 0.851438
0.933654 0.926406 0.840253
0.958572 0.924483 0.872648
0.369482 0.88806 0.832624
0.34609 0.897505 0.843748
0.335775 0.900236 0.846174
0.324712 0.898558 0.838926
0.399115 0.906584 0.836576
0.660792 0.920348 0.864759
0.791531 0.931151 0.87924
0.887572 0.940246 0.872312
0.962188 0.949218 0.893629
0.349889 0.0934768 0.63563
0.363882 0.0945449 0.652125
0.406226 0.0975814 0.667124
0.47393 0.102708 0.679591
0.593057 0.119631 0.695354
0.687175 0.134569 0.689357
0.728359 0.144945 0.678874
0.727886 0.144671 0.672389
0.728237 0.144259 0.667536
0.293629 0.0886091 0.614542
0.309255 0.0904555 0.631464
0.370489 0.09514 0.65597
0.443641 0.100145 0.673701
0.576974 0.117571 0.699641
0.69012 0.13785 0.705287
0.727428 0.14696 0.692439
0.727672 0.146517 0.689647
0.730068 0.145296 0.691798
0.115999 0.0701152 0.548058
0.149233 0.0742351 0.573358
0.259632 0.086717 0.616861
0.379644 0.0955062 0.65658
0.532387 0.109743 0.688197
0.679805 0.136385 0.711849
0.727214 0.148409 0.697261
0.725048 0.14786 0.687114
0.729335 0.145892 0.692348
0.050782 0.232822 0.585077
0.0525063 0.227787 0.603174
0.0709087 0.2038 0.617807
0.123217 0.143511 0.61677
0.436545 0.104082 0.669444
0.627558 0.125887 0.699489
0.730831 0.149996 0.688457
0.726375 0.148257 0.661204
0.733455 0.145861 0.665751
0.0525063 0.484199 0.68043
0.0500496 0.485054 0.69839
0.0531624 0.476051 0.710857
0.0567178 0.455085 0.72285
0.298985 0.442298 0.836469
0.715404 0.399115 0.894209
0.871885 0.408545 0.851896
0.905135 0.408652 0.798215
0.905119 0.403662 0.800977
0.139223 0.664302 0.723827
0.122179 0.660136 0.736126
0.113573 0.645579 0.739086
0.102022 0.623728 0.741802
0.219547 0.622904 0.801984
0.576959 0.636484 0.861616
0.848768 0.624552 0.886442
0.929717 0.632181 0.829099
0.927474 0.636454 0.82826
0.242329 0.793118 0.774746
0.215686 0.795727 0.784619
0.208438 0.787015 0.782895
0.198245 0.772381 0.77763
0.244358 0.768841 0.794202
0.572595 0.784909 0.836027
0.772808 0.793042 0.878676
0.930602 0.79527 0.869429
0.940291 0.795407 0.866667
0.359335 0.872984 0.827588
0.314122 0.882704 0.840345
0.299138 0.878157 0.836698
0.281239 0.867475 0.825071
0.326162 0.868086 0.823529
0.617166 0.890028 0.859342
0.790112 0.905531 0.888334
0.921843 0.913466 0.905074
0.960754 0.911971 0.904234
0.392782 0.893767 0.853483
0.369207 0.90193 0.863676
0.362921 0.90396 0.865553
0.358312 0.903426 0.862089
0.392111 0.906569 0.859541
0.65539 0.924559 0.894224
0.812665 0.936477 0.917876
0.904677 0.945754 0.929229
0.967315 0.95024 0.927031
0.384955 0.0962539 0.661418
0.3906 0.0965896 0.663539
0.412787 0.0979477 0.668681
0.464988 0.10193 0.678508
0.583795 0.11873 0.701991
0.697444 0.142473 0.720287
0.730343 0.149783 0.721904
0.730343 0.149783 0.721904
0.729763 0.150011 0.720424
0.349584 0.0939956 0.652811
0.356054 0.0942855 0.654459
0.382452 0.0960098 0.661433
0.43743 0.0997482 0.673594
0.556619 0.114153 0.696315
0.691081 0.140642 0.718914
0.730343 0.149783 0.721904
0.730343 0.149783 0.721904
0.730266 0.149828 0.721706
0.235401 0.0854047 0.62034
0.248295 0.0866865 0.624048
0.297597 0.0903334 0.638285
0.375799 0.0957351 0.659785
0.510582 0.106355 0.686152
0.669032 0.134829 0.715129
0.730663 0.149996 0.722225
0.732372 0.151431 0.724102
0.73167 0.150835 0.723339
0.103944 0.212406 0.658152
0.132265 0.213657 0.679194
0.193179 0.189761 0.693996
0.204791 0.134524 0.653407
0.406119 0.0976272 0.667033
0.606592 0.122866 0.706722
0.73344 0.154635 0.728649
0.741756 0.159792 0.734356
0.742336 0.160311 0.734997
0.0658579 0.484703 0.740505
0.0698405 0.484733 0.749905
0.0740215 0.476493 0.760449
0.0835126 0.454566 0.774426
0.225666 0.409888 0.842115
0.671611 0.344625 0.902739
0.842161 0.338079 0.883238
0.877806 0.327688 0.873533
0.873594 0.316136 0.860792
0.132372 0.651713 0.779065
0.131487 0.646418 0.783673
0.127871 0.635996 0.78706
0.114763 0.615915 0.785016
0.117556 0.587335 0.798688
0.532952 0.605829 0.905943
0.824796 0.587686 0.925704
0.918853 0.589563 0.91635
0.918944 0.581476 0.900801
0.224308 0.790341 0.818799
0.221759 0.784375 0.822187
0.218082 0.774502 0.823911
0.212329 0.757412 0.825238
0.210712 0.73022 0.832288
0.498116 0.750729 0.879698
0.730556 0.76495 0.911833
0.915084 0.762341 0.927779
0.928267 0.763531 0.915969
0.319707 0.87744 0.858167
0.3075 0.875242 0.860121
0.298009 0.868681 0.85713
0.283268 0.857282 0.851194
0.275151 0.84358 0.845975
0.529427 0.86569 0.881056
0.735073 0.881529 0.907012
0.88423 0.897841 0.931884
0.945327 0.901473 0.932662
0.384054 0.905608 0.883757
0.384436 0.905882 0.885603
0.384634 0.905898 0.885847
0.382208 0.905898 0.883513
0.393973 0.90721 0.879408
0.594217 0.921843 0.901289
0.785061 0.934936 0.925277
0.907973 0.946761 0.943053
0.955062 0.954925 0.953338
