bundles/resolve-cinematic-luts/Phantom Luts/Ursa G2 Phntm Film LUTs - V1/Gen4/White Balance Offset (Magenta Boost)/Ursa Bleach Gen4 WBO.cube
TITLE "Generated by Resolve"
LUT_3D_SIZE 9
0.0213321 0.0332799 0.0231785
0.0284886 0.0346532 0.0243992
0.085359 0.0377203 0.0296178
0.181796 0.0451362 0.0381781
0.304829 0.0546273 0.0491646
0.448997 0.0598154 0.0610971
0.574411 0.066453 0.0755169
0.665095 0.0741131 0.0918135
0.716655 0.0779126 0.101259
0.0244907 0.0437171 0.0280308
0.0347143 0.0502785 0.0294194
0.114107 0.0534524 0.0346532
0.238712 0.0540932 0.0414282
0.362753 0.0563821 0.0453498
0.502739 0.0569924 0.0486458
0.605676 0.0614176 0.0569619
0.676265 0.0647746 0.0619974
0.706157 0.0649424 0.0595407
0.0445869 0.147036 0.0671397
0.0601053 0.158343 0.054612
0.138506 0.178439 0.0546731
0.344961 0.171923 0.0638132
0.519005 0.153567 0.080766
0.626505 0.168643 0.0963149
0.718166 0.187655 0.116228
0.79556 0.216632 0.138094
0.841611 0.247471 0.156542
0.0416419 0.2822 0.105653
0.0623636 0.298604 0.0870527
0.152926 0.312047 0.0456397
0.289616 0.360418 0.0630808
0.583474 0.399908 0.0677653
0.730098 0.439612 0.147738
0.83183 0.462699 0.205493
0.891157 0.492561 0.2318
0.90428 0.526497 0.232273
0.012253 0.412589 0.139528
0.012665 0.424765 0.114351
0.08542 0.440513 0.0682536
0.280537 0.511131 0.0654765
0.51899 0.582254 0.115282
0.715633 0.622934 0.137087
0.82771 0.65095 0.18584
0.889662 0.672374 0.221622
0.904997 0.689128 0.234791
0.0246128 0.560525 0.238651
0.0275273 0.570962 0.218967
0.0633707 0.575525 0.150973
0.275792 0.626902 0.106584
0.522667 0.677409 0.167971
0.669917 0.718288 0.202457
0.808911 0.749523 0.228275
0.8878 0.770504 0.262089
0.914153 0.785428 0.285878
0.0823529 0.695964 0.375296
0.0824292 0.699016 0.348394
0.0862593 0.697536 0.278386
0.220996 0.700481 0.196078
0.536278 0.741024 0.202792
0.658244 0.776913 0.249928
0.771649 0.817258 0.288869
0.867964 0.842939 0.317906
0.908797 0.857023 0.340505
0.115114 0.754772 0.462455
0.113466 0.755184 0.420874
0.116533 0.753796 0.34519
0.19942 0.748684 0.268956
0.524651 0.775402 0.231693
0.661555 0.807294 0.281712
0.758511 0.84387 0.322713
0.849012 0.871702 0.352667
0.903395 0.88307 0.388144
0.118074 0.757931 0.481926
0.116396 0.758968 0.432044
0.120134 0.756481 0.34786
0.20737 0.753948 0.27425
0.524758 0.77612 0.238788
0.665385 0.808957 0.287098
0.757168 0.843473 0.323796
0.844373 0.871519 0.350713
0.900847 0.883223 0.389563
0.0216678 0.0336309 0.026276
0.0280613 0.0348669 0.0286259
0.0869154 0.0414893 0.0430152
0.196872 0.0487068 0.0591897
0.325231 0.0572366 0.0762493
0.472679 0.0600748 0.0895247
0.592645 0.0683757 0.109285
0.684977 0.0814984 0.137087
0.731762 0.0902571 0.157198
0.0232242 0.0403906 0.0283818
0.0337377 0.0461891 0.0348211
0.124025 0.0507668 0.043122
0.252064 0.0554208 0.0491646
0.379797 0.0614023 0.0593271
0.523552 0.0653239 0.0704967
0.624949 0.0722972 0.0863203
0.694774 0.0788739 0.099733
0.720104 0.0823072 0.106172
0.0423743 0.141756 0.086305
0.045182 0.155047 0.0734569
0.141695 0.176761 0.0612345
0.357153 0.156542 0.0752117
0.5187 0.145785 0.0821088
0.627192 0.153674 0.0965896
0.715434 0.165255 0.111299
0.785321 0.184283 0.126635
0.81706 0.201984 0.137896
0.0397192 0.279728 0.132479
0.0396887 0.2925 0.112123
0.123629 0.306966 0.0484016
0.293904 0.360525 0.064332
0.598062 0.3935 0.0782788
0.74052 0.427405 0.156878
0.840146 0.446372 0.210956
0.896986 0.470985 0.236179
0.906264 0.504997 0.235248
0.0118868 0.412039 0.170794
0.0102693 0.422736 0.146517
0.0643931 0.4374 0.0784772
0.267308 0.50692 0.0617533
0.52195 0.582345 0.116747
0.723781 0.621668 0.138582
0.833585 0.648219 0.189517
0.893385 0.666896 0.224186
0.904753 0.681468 0.234302
0.0243534 0.558389 0.265324
0.0269474 0.56817 0.248569
0.0364843 0.571984 0.170825
0.234501 0.616907 0.10602
0.514717 0.675242 0.166476
0.669841 0.716686 0.202533
0.813031 0.747524 0.227939
0.891173 0.766583 0.261387
0.914244 0.779599 0.28307
0.0813458 0.690913 0.40206
0.0812543 0.694148 0.376532
0.0807202 0.69485 0.305806
0.184695 0.695979 0.210468
0.522194 0.738094 0.197864
0.652567 0.773312 0.248142
0.769406 0.813901 0.288167
0.868589 0.839612 0.315419
0.909499 0.85301 0.337026
0.115602 0.751415 0.496071
0.113237 0.751217 0.459632
0.111589 0.751324 0.378836
0.169909 0.747143 0.285115
0.49221 0.771511 0.225315
0.652338 0.802945 0.277852
0.750637 0.840131 0.320943
0.844205 0.870283 0.352255
0.902571 0.882399 0.385824
0.120989 0.757534 0.523903
0.118196 0.757931 0.483223
0.117098 0.759075 0.394598
0.170687 0.754055 0.29723
0.476799 0.772183 0.235492
0.652659 0.804135 0.283452
0.743008 0.838331 0.321798
0.83299 0.868437 0.351125
0.896529 0.882445 0.385748
0.0276951 0.0380865 0.0736248
0.0479896 0.0387884 0.0670481
0.0954147 0.0421454 0.0766461
0.212665 0.0502632 0.109316
0.347555 0.0588846 0.133349
0.500618 0.0614633 0.156252
0.617578 0.0720989 0.190173
0.708766 0.0862745 0.231708
0.752621 0.0946517 0.266926
0.0200046 0.0408484 0.0672007
0.0365606 0.0397955 0.0943465
0.132021 0.0449378 0.101991
0.269398 0.0541543 0.123812
0.414481 0.060029 0.136446
0.553903 0.0645457 0.15523
0.655573 0.0778515 0.183795
0.726818 0.0897688 0.21149
0.747158 0.0937057 0.230243
0.0392615 0.134035 0.113008
0.0400549 0.14316 0.121965
0.160998 0.165637 0.154604
0.344839 0.167193 0.154894
0.518578 0.162463 0.147997
0.633066 0.171344 0.159655
0.726879 0.185275 0.180102
0.79237 0.197375 0.196475
0.803754 0.205417 0.205936
0.0374609 0.273213 0.181781
0.0361486 0.283803 0.178332
0.0811627 0.308583 0.154482
0.326406 0.368261 0.162097
0.615335 0.37882 0.208453
0.735531 0.415061 0.24831
0.839384 0.443229 0.287617
0.902876 0.466987 0.307195
0.914092 0.486961 0.315129
0.0133669 0.405859 0.228077
0.01178 0.415839 0.218555
0.012604 0.417899 0.1505
0.198047 0.490867 0.115419
0.529824 0.578744 0.164813
0.745998 0.612116 0.233875
0.848356 0.633234 0.293477
0.904326 0.650004 0.319432
0.911833 0.663951 0.317403
0.0246433 0.549645 0.31104
0.0265507 0.55874 0.303395
0.024445 0.558251 0.244266
0.104738 0.580987 0.143923
0.475776 0.664744 0.182849
0.665751 0.708476 0.204913
0.825116 0.738582 0.256535
0.902693 0.754925 0.317235
0.918608 0.76614 0.329763
0.0809033 0.680659 0.45098
0.079942 0.683146 0.431815
0.0763104 0.68249 0.3682
0.100496 0.686793 0.263035
0.426337 0.726528 0.210452
0.633097 0.76257 0.246555
0.762158 0.805158 0.284077
0.871702 0.830869 0.314855
0.911589 0.844099 0.342962
0.117723 0.746044 0.539422
0.114015 0.744808 0.51548
0.109071 0.743542 0.452018
0.121645 0.745739 0.338247
0.356786 0.760464 0.255314
0.625864 0.791974 0.278843
0.732967 0.830976 0.318929
0.833906 0.865522 0.353674
0.900587 0.880568 0.383108
0.12874 0.757977 0.570092
0.124056 0.757748 0.545617
0.118883 0.757977 0.48484
0.128801 0.757565 0.360845
0.322805 0.762127 0.273075
0.611811 0.791577 0.291112
0.717113 0.828122 0.321538
0.812696 0.862531 0.353704
0.887266 0.880537 0.380575
0.0395819 0.0426795 0.147143
0.0716716 0.0433051 0.14255
0.127016 0.0457618 0.147051
0.230884 0.0529488 0.173526
0.369558 0.0612345 0.216159
0.521645 0.0652018 0.261769
0.636912 0.0781567 0.304906
0.727733 0.0939345 0.360693
0.768658 0.102403 0.414908
0.0171511 0.0425879 0.152529
0.0585489 0.0460212 0.195972
0.160098 0.049424 0.206882
0.292851 0.0580453 0.222858
0.443641 0.0630961 0.250874
0.576638 0.0700694 0.292775
0.67805 0.0852064 0.329809
0.750042 0.0986954 0.372625
0.768688 0.102602 0.404852
0.0266117 0.11429 0.189303
0.0258793 0.114656 0.210803
0.162615 0.119203 0.281666
0.359182 0.135164 0.285954
0.526833 0.126589 0.297078
0.639124 0.129015 0.312383
0.727993 0.134127 0.326452
0.787518 0.13843 0.344213
0.794797 0.141421 0.364218
0.0365759 0.262913 0.235019
0.0351568 0.273106 0.245212
0.0905623 0.298955 0.274403
0.383795 0.358022 0.347097
0.607034 0.373129 0.358144
0.740276 0.411551 0.394156
0.840299 0.45098 0.425483
0.899382 0.479454 0.450278
0.906264 0.495201 0.467445
0.0153048 0.400015 0.28275
0.0140688 0.4094 0.283207
0.0181125 0.411536 0.264942
0.251575 0.5308 0.340291
0.570245 0.591638 0.368185
0.743099 0.607889 0.439567
0.835767 0.630365 0.474617
0.899565 0.64828 0.504967
0.91986 0.660655 0.522591
0.0273289 0.543542 0.366155
0.0298314 0.551812 0.367163
0.026978 0.549004 0.335729
0.110384 0.587381 0.309789
0.468544 0.673274 0.370703
0.677333 0.709697 0.402564
0.841703 0.730587 0.497169
0.906706 0.746593 0.546212
0.928618 0.76054 0.561502
0.084123 0.672557 0.50396
0.0831311 0.674006 0.495445
0.0777295 0.67013 0.45716
0.0897993 0.674006 0.370596
0.358007 0.722194 0.368261
0.621805 0.756268 0.404944
0.758846 0.797986 0.450141
0.885924 0.82562 0.51899
0.927504 0.837308 0.566751
0.123339 0.738918 0.578943
0.119493 0.73756 0.565942
0.112535 0.733989 0.533288
0.118257 0.735531 0.448325
0.318791 0.754818 0.392874
0.589242 0.785321 0.426657
0.726757 0.824567 0.475883
0.825833 0.858747 0.503777
0.908003 0.878538 0.548104
0.141314 0.758541 0.612146
0.136675 0.75874 0.59852
0.128985 0.757946 0.567895
0.133944 0.758572 0.491753
0.306508 0.769711 0.424552
0.576959 0.795682 0.46009
0.710002 0.828794 0.49601
0.804547 0.862745 0.512886
0.886198 0.884932 0.529198
0.0629587 0.0482032 0.240085
0.099794 0.0490272 0.244343
0.171435 0.0514076 0.255512
0.271336 0.0575875 0.271122
0.399558 0.0645762 0.299123
0.544213 0.0692912 0.344045
0.65005 0.0830854 0.424033
0.737804 0.0987411 0.492531
0.777066 0.107744 0.533745
0.0248875 0.0472877 0.254139
0.0889296 0.0518044 0.30135
0.207294 0.0556497 0.323674
0.328771 0.0625315 0.330236
0.476738 0.0663462 0.348165
0.594507 0.0756542 0.397513
0.688823 0.0903029 0.469856
0.760647 0.103838 0.516258
0.778012 0.108598 0.538994
0.0218967 0.0908675 0.269917
0.0208896 0.0859236 0.288594
0.150118 0.0635233 0.360723
0.349035 0.0830396 0.381979
0.514458 0.0867781 0.386969
0.618204 0.0913558 0.420066
0.702434 0.0988174 0.467796
0.764645 0.105699 0.493751
0.783307 0.115648 0.521019
0.0192416 0.231617 0.326162
0.0180362 0.23714 0.343847
0.0509651 0.244129 0.389899
0.409308 0.288869 0.537453
0.624414 0.330938 0.548867
0.754406 0.362432 0.589563
0.860945 0.394461 0.610071
0.919448 0.418158 0.625284
0.926863 0.435691 0.638483
0.0167697 0.390982 0.344244
0.0156558 0.400336 0.35137
0.0173648 0.399756 0.352438
0.274891 0.52607 0.494423
0.606378 0.57641 0.562646
0.735241 0.591424 0.576318
0.833738 0.610636 0.592065
0.898344 0.628092 0.608652
0.916594 0.640558 0.619089
0.0290227 0.537896 0.425925
0.0314031 0.545342 0.432135
0.0301671 0.541115 0.416022
0.20061 0.610666 0.492531
0.550896 0.683268 0.580194
0.713085 0.713008 0.583444
0.836927 0.722286 0.623346
0.900511 0.739376 0.639612
0.933593 0.753658 0.654505
0.0863813 0.663615 0.545403
0.0861067 0.664363 0.541955
0.0819867 0.659266 0.521935
0.132876 0.667002 0.501396
0.456672 0.732418 0.567956
0.658442 0.769726 0.591791
0.784756 0.803342 0.608652
0.902007 0.82031 0.653147
0.937163 0.832822 0.677852
0.128893 0.731106 0.608682
0.125994 0.729046 0.600488
0.119814 0.724926 0.582589
0.126528 0.724254 0.550561
0.399115 0.76495 0.57174
0.620523 0.799298 0.59469
0.756573 0.836988 0.623392
0.84448 0.864942 0.63444
0.924666 0.881514 0.668299
0.155093 0.76022 0.645869
0.151095 0.75906 0.636484
0.144213 0.757153 0.619318
0.146563 0.757 0.586465
0.373785 0.784115 0.586297
0.605173 0.817319 0.606516
0.738125 0.854124 0.636316
0.828061 0.881239 0.649927
0.899672 0.901396 0.658503
0.094667 0.0529946 0.329595
0.13933 0.0545052 0.344335
0.221317 0.0574655 0.365103
0.319066 0.0634165 0.379324
0.443702 0.0661936 0.398032
0.567468 0.0728161 0.446418
0.669795 0.0898909 0.509865
0.752743 0.106325 0.564218
0.787381 0.115694 0.603067
0.0625315 0.0530861 0.359686
0.131441 0.0568856 0.414191
0.256626 0.0608072 0.449607
0.377325 0.0660105 0.454368
0.508751 0.0683452 0.464836
0.614694 0.0805829 0.501762
0.707012 0.0979782 0.547585
0.773754 0.112001 0.586648
0.78854 0.116793 0.606836
0.0162966 0.059617 0.334325
0.0155795 0.0519265 0.348257
0.184588 0.0595102 0.468437
0.358511 0.0658732 0.479805
0.511086 0.0686503 0.480125
0.622263 0.0827955 0.509606
0.714076 0.102251 0.549401
0.77438 0.112184 0.582086
0.787869 0.116442 0.601038
0.0163882 0.209598 0.42211
0.0161135 0.21268 0.443336
0.0356298 0.205493 0.488182
0.423178 0.22092 0.624201
0.639918 0.272725 0.638193
0.762371 0.322408 0.671809
0.866026 0.356634 0.702007
0.922835 0.370977 0.72842
0.93254 0.389258 0.742977
0.007187 0.368063 0.451392
0.0065156 0.374121 0.465888
0.00593576 0.36405 0.482902
0.228779 0.462089 0.584726
0.63566 0.545815 0.681163
0.75288 0.574166 0.682628
0.848966 0.588769 0.691829
0.908324 0.6047 0.695537
0.924956 0.615717 0.703243
0.030045 0.53228 0.485527
0.0323796 0.539696 0.493645
0.0323033 0.536431 0.491127
0.17174 0.592584 0.555856
0.566796 0.678752 0.655238
0.731121 0.70013 0.685481
0.831449 0.709667 0.695796
0.89897 0.723583 0.707317
0.931228 0.735698 0.718608
0.087892 0.660883 0.578271
0.0877699 0.661021 0.576684
0.0848554 0.65507 0.566445
0.159792 0.665461 0.571649
0.536889 0.739315 0.660807
0.709651 0.782803 0.704433
0.822889 0.805783 0.703502
0.900679 0.813306 0.729274
0.935393 0.826047 0.740307
0.136614 0.726726 0.636973
0.133104 0.724056 0.630579
0.128038 0.718822 0.618875
0.169085 0.718456 0.604471
0.50045 0.774029 0.664393
0.680186 0.820294 0.704005
0.786404 0.850019 0.720409
0.873152 0.871794 0.721447
0.934798 0.878965 0.753674
0.179171 0.762921 0.673182
0.16994 0.760082 0.665339
0.160754 0.755306 0.652461
0.186664 0.753109 0.63328
0.469764 0.794232 0.671748
0.658885 0.839033 0.707454
0.76846 0.872251 0.729915
0.85536 0.893629 0.740154
0.911147 0.907546 0.741238
0.136187 0.0573129 0.431479
0.188891 0.0592355 0.458595
0.272114 0.06215 0.483421
0.374197 0.0667124 0.496696
0.494911 0.0681773 0.507012
0.592599 0.0777447 0.533043
0.690349 0.0965133 0.579705
0.771679 0.11519 0.624384
0.798764 0.123537 0.652567
0.112642 0.0580606 0.479667
0.185122 0.061799 0.522133
0.306569 0.065919 0.547662
0.435096 0.0684215 0.548806
0.54699 0.0727092 0.554513
0.636591 0.0864576 0.576669
0.725338 0.104814 0.612161
0.789807 0.120607 0.643702
0.800717 0.124697 0.65977
0.0158389 0.0521401 0.410941
0.0410468 0.0544594 0.460258
0.240955 0.065095 0.559884
0.412329 0.068864 0.568444
0.546853 0.0728923 0.567193
0.641443 0.087892 0.585428
0.729137 0.106203 0.614847
0.789273 0.120775 0.640986
0.79968 0.124559 0.653635
0.0158999 0.187915 0.500359
0.016083 0.18941 0.517525
0.0451667 0.170871 0.561257
0.432547 0.16286 0.669108
0.639078 0.206577 0.686748
0.754543 0.259281 0.712932
0.857572 0.302495 0.745998
0.918334 0.334646 0.769711
0.929641 0.355642 0.787213
0.00851453 0.3561 0.538979
0.00863661 0.361639 0.550332
0.0099794 0.352026 0.564706
0.199939 0.427741 0.647822
0.664714 0.521309 0.772305
0.787717 0.56347 0.767575
0.867552 0.583108 0.772671
0.919158 0.59646 0.777234
0.934066 0.606226 0.788434
0.0209354 0.522911 0.547051
0.022034 0.528176 0.555489
0.016968 0.517647 0.557488
0.157595 0.563653 0.625681
0.546304 0.653452 0.711864
0.753582 0.682475 0.762051
0.841031 0.698878 0.764294
0.904891 0.710445 0.770138
0.934752 0.721492 0.778408
0.0896162 0.656886 0.614145
0.0897536 0.657115 0.614633
0.0873426 0.651392 0.609522
0.144579 0.65745 0.61767
0.515496 0.730724 0.69926
0.721492 0.779858 0.756237
0.830747 0.794247 0.775982
0.898466 0.802365 0.786343
0.935363 0.812009 0.795453
0.136782 0.724422 0.658473
0.133654 0.721874 0.653941
0.131136 0.717037 0.646128
0.176364 0.716609 0.640803
0.524163 0.774548 0.705989
0.717128 0.829984 0.768078
0.823133 0.857923 0.797314
0.896056 0.869612 0.793545
0.933806 0.874311 0.807584
0.197604 0.761624 0.689418
0.187045 0.758404 0.68394
0.17879 0.753277 0.674342
0.225376 0.751965 0.667018
0.523354 0.798566 0.715114
0.702327 0.853452 0.771893
0.809995 0.885924 0.80322
0.876158 0.900069 0.809796
0.92575 0.91075 0.805432
0.182727 0.0616617 0.521782
0.240497 0.0642405 0.545724
0.321462 0.0670481 0.564355
0.431434 0.0688487 0.570855
0.539803 0.0729229 0.579843
0.624659 0.0852216 0.602228
0.711849 0.10312 0.63415
0.790387 0.123186 0.67509
0.810941 0.130495 0.697841
0.170153 0.0641489 0.564584
0.241947 0.0674907 0.592691
0.355306 0.0705882 0.610391
0.483513 0.0715648 0.610529
0.581994 0.0784619 0.617151
0.663325 0.0939498 0.637491
0.742687 0.111604 0.661524
0.805463 0.128344 0.690593
0.812406 0.131395 0.703609
0.0330816 0.0555581 0.50544
0.098909 0.0609751 0.559228
0.292149 0.0705119 0.62034
0.461677 0.0717479 0.625849
0.579522 0.0784161 0.627085
0.665339 0.0945296 0.6439
0.745861 0.112749 0.66627
0.803174 0.128023 0.688716
0.811795 0.131212 0.69929
0.0171664 0.166857 0.552209
0.0171664 0.165957 0.565698
0.0757 0.141192 0.616846
0.442451 0.122133 0.691112
0.631617 0.154131 0.710628
0.745113 0.205905 0.73727
0.840665 0.248417 0.764126
0.906752 0.286503 0.79263
0.92047 0.312352 0.810391
0.0109255 0.356176 0.592813
0.0115053 0.361196 0.602502
0.0124819 0.350072 0.615915
0.227863 0.42002 0.711955
0.691829 0.505013 0.831876
0.820096 0.552438 0.831724
0.887495 0.577523 0.826673
0.929427 0.593072 0.830991
0.939773 0.60351 0.833143
0.0104829 0.512566 0.59559
0.0102235 0.515633 0.60209
0.00834669 0.504402 0.605737
0.153613 0.554177 0.672679
0.52372 0.640757 0.757595
0.77583 0.67451 0.824659
0.864942 0.696849 0.823285
0.915053 0.708812 0.828061
0.941329 0.717815 0.831739
0.0875563 0.654322 0.649058
0.0865492 0.652811 0.650309
0.0806744 0.644419 0.64892
0.152056 0.648386 0.667521
0.519402 0.716091 0.743175
0.715251 0.76437 0.791272
0.8448 0.782116 0.823697
0.900084 0.793927 0.821195
0.934768 0.802792 0.825513
0.137972 0.722377 0.679454
0.134829 0.71931 0.676738
0.13257 0.714794 0.672282
0.170703 0.714122 0.672587
0.503883 0.767437 0.730755
0.706905 0.824262 0.791211
0.831601 0.854994 0.826764
0.897307 0.862989 0.834379
0.932784 0.867842 0.840421
0.200778 0.760815 0.7028
0.188327 0.757076 0.697887
0.182696 0.752316 0.69102
0.226825 0.750942 0.686671
0.527108 0.797253 0.736126
0.714412 0.855634 0.797757
0.835554 0.889555 0.837797
0.892866 0.901305 0.848737
0.933257 0.907088 0.846693
0.237293 0.0671244 0.58909
0.291554 0.0695811 0.608377
0.373205 0.0713359 0.621317
0.483406 0.0723583 0.626505
0.578378 0.0789197 0.636118
0.658442 0.0935225 0.657267
0.73817 0.112047 0.683207
0.803449 0.129717 0.712032
0.818921 0.136248 0.731258
0.233753 0.0700999 0.624659
0.295766 0.072755 0.642603
0.407721 0.0735027 0.653315
0.522499 0.0753796 0.655634
0.61384 0.0846571 0.664302
0.691402 0.102007 0.682521
0.762783 0.119371 0.702953
0.816907 0.134539 0.724071
0.820249 0.13727 0.735576
0.0890364 0.062089 0.585
0.170672 0.0683299 0.62388
0.34287 0.0746166 0.66096
0.503105 0.0749981 0.665461
0.608942 0.0839399 0.671366
0.691417 0.102144 0.686961
0.763394 0.119982 0.705867
0.81471 0.135698 0.724453
0.822126 0.140124 0.734585
0.0253452 0.148623 0.595697
0.0325322 0.14667 0.610727
0.126558 0.116594 0.654963
0.466468 0.102785 0.706279
0.62768 0.121935 0.72076
0.737789 0.164233 0.745907
0.827756 0.212985 0.774701
0.897063 0.254231 0.805768
0.910292 0.280476 0.822934
0.0128634 0.358816 0.630549
0.0132601 0.362005 0.639124
0.0149691 0.349935 0.65391
0.296727 0.429648 0.773877
0.720729 0.495598 0.867521
0.845228 0.543404 0.868742
0.904341 0.571603 0.860182
0.938094 0.589822 0.861585
0.945403 0.600198 0.863783
0.0106661 0.514992 0.628229
0.012665 0.518059 0.635081
0.0112612 0.507301 0.638941
0.160632 0.557122 0.706615
0.543389 0.636225 0.798154
0.798657 0.670802 0.862287
0.890562 0.694972 0.860822
0.92665 0.70956 0.863294
0.947311 0.718715 0.866361
0.090135 0.651194 0.67892
0.0895094 0.648341 0.68098
0.0840162 0.638804 0.681315
0.183352 0.647379 0.707027
0.515297 0.707622 0.770489
0.70602 0.756069 0.818738
0.865766 0.776516 0.857206
0.911513 0.789807 0.859785
0.940154 0.798245 0.860121
0.144671 0.721904 0.700359
0.14078 0.71783 0.69836
0.135439 0.711711 0.696254
0.192279 0.710887 0.703624
0.516136 0.761151 0.76083
0.712978 0.816037 0.817197
0.827466 0.845441 0.844862
0.902693 0.855009 0.857191
0.93135 0.863142 0.856397
0.204746 0.759533 0.715755
0.19205 0.755489 0.712413
0.187366 0.751171 0.708202
0.227146 0.749416 0.706981
0.515282 0.792523 0.752468
0.70341 0.85008 0.811185
0.83061 0.887312 0.850385
0.897169 0.898863 0.864454
0.933318 0.9037 0.868727
