bundles/resolve-cinematic-luts/Phantom Luts/Ursa G2 Phntm Film LUTs - V1/Gen4/White Balance Offset (Magenta Boost)/Ursa Vision Gen4-Legacy WBO.cube
TITLE "Generated by Resolve"
LUT_3D_SIZE 9
0.0235904 0.0331731 0.0244907
0.0430304 0.0370336 0.0246586
0.116823 0.0408179 0.0295872
0.25835 0.0438392 0.0303807
0.405203 0.05066 0.0364996
0.576272 0.0682536 0.0532387
0.673136 0.0787366 0.0639963
0.678325 0.0841688 0.0657969
0.688502 0.0919814 0.0680858
0.0293736 0.0645457 0.0401007
0.0396429 0.063508 0.0357519
0.122347 0.0561532 0.0361334
0.261891 0.0524453 0.0328679
0.406485 0.0577554 0.0365606
0.580987 0.0801862 0.0558633
0.687678 0.0973526 0.0709544
0.693004 0.104494 0.0737621
0.706981 0.115496 0.0794385
0.0369573 0.145052 0.0721752
0.0443275 0.140749 0.0609445
0.0915694 0.152361 0.0514839
0.305852 0.115801 0.0584878
0.465675 0.125689 0.0716716
0.633417 0.147707 0.0885939
0.72697 0.172381 0.103136
0.728542 0.184894 0.106569
0.733349 0.198627 0.110033
0.0589609 0.319097 0.151492
0.0787518 0.32314 0.134646
0.112154 0.313359 0.100145
0.239216 0.345296 0.0883345
0.510002 0.309483 0.100664
0.672496 0.291279 0.142992
0.743679 0.307301 0.155245
0.744167 0.310918 0.156344
0.748592 0.321294 0.16289
0.109987 0.514305 0.30779
0.11986 0.515114 0.28658
0.163592 0.508293 0.247272
0.255192 0.508186 0.188632
0.429603 0.534203 0.152041
0.6907 0.502647 0.156786
0.769223 0.511086 0.216907
0.771725 0.513497 0.219181
0.767865 0.498711 0.21532
0.196963 0.706477 0.477394
0.201923 0.707088 0.460273
0.22359 0.706645 0.425254
0.286778 0.684962 0.358892
0.426001 0.700999 0.322621
0.585428 0.722942 0.280537
0.804334 0.707195 0.228244
0.81883 0.706172 0.251621
0.816434 0.689219 0.249134
0.27538 0.81651 0.598932
0.278904 0.81622 0.585595
0.286473 0.814176 0.55848
0.320333 0.801572 0.502556
0.443885 0.791669 0.412009
0.559838 0.807385 0.418296
0.751797 0.820706 0.362051
0.818799 0.811185 0.358709
0.819455 0.806638 0.350027
0.272145 0.817914 0.61033
0.275853 0.817044 0.598276
0.283803 0.815854 0.572976
0.308278 0.806195 0.5196
0.402808 0.794583 0.443793
0.544686 0.805661 0.431434
0.677058 0.821195 0.387381
0.81738 0.815045 0.367529
0.818143 0.815641 0.371405
0.270253 0.81854 0.615991
0.272816 0.817899 0.605615
0.27953 0.816632 0.584924
0.29424 0.811368 0.536446
0.353674 0.797391 0.477012
0.506371 0.799146 0.427268
0.612467 0.818402 0.404929
0.801816 0.816678 0.358236
0.818219 0.815732 0.370199
0.027985 0.0344244 0.0497597
0.0546731 0.0372778 0.0481727
0.151278 0.0366979 0.057145
0.303716 0.0336004 0.0470436
0.452277 0.0449531 0.0505074
0.611383 0.0546273 0.0610208
0.668193 0.0630045 0.0639811
0.672847 0.0722667 0.063035
0.685191 0.0842756 0.0651865
0.0259861 0.0550851 0.0419776
0.042359 0.0549783 0.0457771
0.13785 0.0488441 0.0383917
0.275898 0.0453956 0.0327916
0.414298 0.049424 0.0371862
0.582895 0.063859 0.0531014
0.676265 0.0780346 0.0634165
0.684627 0.0875105 0.0667735
0.700893 0.107286 0.0747082
0.030457 0.132433 0.0834821
0.0354162 0.131899 0.0704967
0.0892042 0.140932 0.0497139
0.305638 0.0983444 0.0526894
0.456626 0.109056 0.0630961
0.634958 0.132631 0.0820478
0.723796 0.153185 0.0958114
0.727062 0.165942 0.10071
0.733867 0.189929 0.107271
0.0491646 0.304387 0.168627
0.0554818 0.306233 0.145541
0.0944839 0.306996 0.108659
0.23418 0.336172 0.085893
0.509453 0.294118 0.101884
0.675898 0.275822 0.136431
0.742519 0.292149 0.146853
0.743633 0.301183 0.150988
0.74876 0.314656 0.158221
0.100633 0.505379 0.324895
0.105303 0.50544 0.302525
0.141955 0.50515 0.256428
0.242557 0.501991 0.183474
0.42768 0.528069 0.14786
0.690913 0.493019 0.161135
0.766598 0.500435 0.214023
0.768048 0.500893 0.215473
0.76556 0.485908 0.212421
0.184878 0.698482 0.487388
0.189807 0.698772 0.471366
0.203632 0.700618 0.440116
0.273533 0.681453 0.365774
0.418875 0.695125 0.319249
0.581109 0.715892 0.274327
0.803265 0.697154 0.226032
0.817197 0.695232 0.250065
0.813748 0.67718 0.246632
0.271077 0.816098 0.609369
0.273426 0.815366 0.596811
0.279881 0.813184 0.569329
0.310964 0.802502 0.508263
0.432547 0.789197 0.412146
0.555291 0.805508 0.418814
0.745693 0.819486 0.36228
0.81915 0.808545 0.353094
0.819913 0.803449 0.344396
0.269444 0.818814 0.622415
0.272206 0.817823 0.610758
0.279362 0.81651 0.587106
0.297887 0.808896 0.528405
0.388846 0.795102 0.452903
0.538384 0.804105 0.431144
0.666087 0.821408 0.390417
0.816587 0.814969 0.365866
0.818128 0.815656 0.371344
0.267643 0.819562 0.628779
0.270207 0.818524 0.61677
0.275654 0.817166 0.598108
0.288624 0.813947 0.553017
0.342382 0.798856 0.485588
0.49836 0.798703 0.425391
0.604883 0.817121 0.407431
0.798321 0.817075 0.357443
0.818204 0.815732 0.370352
0.0419471 0.0400854 0.139803
0.0792859 0.0400854 0.112734
0.153414 0.0408331 0.110521
0.298955 0.0435798 0.135332
0.460349 0.0497749 0.139254
0.65594 0.0735485 0.17026
0.692195 0.0768902 0.163928
0.692348 0.0739757 0.142473
0.68629 0.0611734 0.0950942
0.0266575 0.0480354 0.106676
0.0471351 0.040116 0.128298
0.134325 0.0407416 0.0994125
0.29276 0.039704 0.101259
0.455863 0.0426947 0.0911421
0.64892 0.0648814 0.117159
0.689021 0.0681163 0.109941
0.681651 0.0606241 0.0901808
0.676219 0.0653544 0.0684977
0.0272221 0.123293 0.107759
0.0277104 0.120867 0.105653
0.125048 0.137469 0.122621
0.32282 0.116182 0.0997635
0.491112 0.107073 0.090135
0.652628 0.0979934 0.0867933
0.70515 0.112718 0.0874342
0.712398 0.126055 0.0879835
0.725978 0.152148 0.0950027
0.0363012 0.291127 0.198459
0.0387427 0.286412 0.183948
0.0551156 0.288045 0.140993
0.247333 0.327764 0.111696
0.509026 0.275044 0.137606
0.669551 0.26067 0.139147
0.741176 0.270619 0.140322
0.742336 0.28069 0.142
0.745708 0.294667 0.147127
0.0814984 0.491539 0.350545
0.0894026 0.489525 0.332937
0.0992905 0.488548 0.291371
0.202838 0.490684 0.195056
0.425544 0.517143 0.142199
0.691691 0.476249 0.173297
0.762951 0.480613 0.212329
0.763149 0.478264 0.210742
0.762554 0.470619 0.209308
0.166445 0.685512 0.505913
0.169238 0.684779 0.491905
0.178714 0.684733 0.462654
0.239429 0.676966 0.379217
0.402609 0.685725 0.312169
0.576699 0.704326 0.266712
0.800916 0.679774 0.223514
0.814084 0.678264 0.247303
0.810712 0.659129 0.243687
0.262196 0.81387 0.628016
0.262867 0.812238 0.613764
0.267582 0.809644 0.589776
0.287053 0.804547 0.527352
0.406699 0.785336 0.417197
0.545388 0.801343 0.416114
0.734218 0.816266 0.362249
0.819654 0.804166 0.345846
0.820752 0.798199 0.335424
0.258015 0.821607 0.646662
0.266392 0.820157 0.633982
0.27219 0.817807 0.611276
0.288411 0.814786 0.559884
0.364324 0.796292 0.470146
0.528801 0.802365 0.431937
0.649836 0.821057 0.393866
0.814313 0.815244 0.364935
0.818128 0.815717 0.372015
0.255787 0.822187 0.64889
0.263478 0.820752 0.637583
0.270283 0.818387 0.617502
0.282032 0.816144 0.577661
0.331685 0.801266 0.500069
0.48484 0.796979 0.42327
0.593545 0.816022 0.412192
0.793103 0.817349 0.356786
0.818189 0.815763 0.370764
0.0751507 0.047303 0.284245
0.11487 0.0435798 0.256519
0.186862 0.0452735 0.225711
0.304982 0.0440528 0.226398
0.4607 0.0658427 0.271061
0.654383 0.109682 0.343923
0.695933 0.113558 0.341558
0.696193 0.10695 0.317327
0.698268 0.0970169 0.279347
0.0337072 0.0469215 0.266117
0.0754559 0.0442359 0.276677
0.16257 0.0442359 0.228428
0.294469 0.0433356 0.216556
0.449302 0.0633402 0.25771
0.647944 0.100755 0.311025
0.696132 0.101579 0.295567
0.69633 0.0986648 0.281117
0.697414 0.0884108 0.237766
0.0305486 0.100526 0.245777
0.0328679 0.0924849 0.257847
0.122728 0.0768292 0.281743
0.302464 0.0785077 0.229313
0.457145 0.0792706 0.242145
0.655375 0.0856794 0.234516
0.694041 0.0880751 0.225422
0.693523 0.082948 0.197803
0.693248 0.0721752 0.135424
0.0261997 0.272541 0.259693
0.0255131 0.26804 0.255238
0.0310216 0.266346 0.254368
0.322789 0.320989 0.296437
0.546349 0.288624 0.271687
0.717723 0.293767 0.264424
0.765652 0.281224 0.243122
0.759854 0.265965 0.216236
0.755825 0.266896 0.188479
0.0545205 0.479805 0.399054
0.0540169 0.477165 0.388098
0.0573434 0.47129 0.364355
0.167895 0.489052 0.332921
0.439872 0.513329 0.267948
0.681086 0.48275 0.310796
0.76643 0.481086 0.3149
0.765698 0.470405 0.296666
0.762097 0.450935 0.258915
0.122118 0.671199 0.540825
0.124758 0.669322 0.530861
0.135195 0.664912 0.509728
0.166079 0.660121 0.446464
0.374533 0.675181 0.374243
0.573877 0.686458 0.288762
0.797711 0.657023 0.311574
0.806332 0.651545 0.301274
0.801984 0.628763 0.281926
0.225589 0.811902 0.6607
0.229435 0.80798 0.646784
0.239872 0.802716 0.624216
0.255375 0.795209 0.572869
0.339818 0.784115 0.467964
0.530526 0.794308 0.427146
0.718608 0.80943 0.360983
0.820356 0.795499 0.337179
0.821332 0.786969 0.32369
0.232029 0.828077 0.687999
0.237247 0.826764 0.67718
0.250431 0.823423 0.656046
0.272038 0.817777 0.612482
0.322652 0.805371 0.516899
0.505379 0.801328 0.447944
0.620371 0.819928 0.411612
0.80975 0.815885 0.363424
0.818021 0.815946 0.375021
0.233478 0.827619 0.684428
0.239338 0.82623 0.673426
0.250095 0.823545 0.655909
0.270191 0.818311 0.619303
0.298589 0.810529 0.533928
0.460807 0.796643 0.435019
0.574929 0.81236 0.424979
0.778058 0.822263 0.360678
0.818051 0.81593 0.37438
0.125032 0.0526131 0.412818
0.178454 0.0515908 0.391806
0.251942 0.0514229 0.365881
0.339498 0.0616007 0.351431
0.479072 0.076173 0.382681
0.659876 0.108873 0.438743
0.699657 0.118212 0.477394
0.699046 0.118471 0.471046
0.699901 0.121279 0.431373
0.0660258 0.0602121 0.412665
0.124666 0.0525216 0.407736
0.223911 0.0511025 0.373632
0.325994 0.0618753 0.349538
0.4701 0.0736095 0.373846
0.652094 0.107561 0.427924
0.699367 0.118578 0.469291
0.69865 0.1196 0.455009
0.700206 0.122957 0.411322
0.0421759 0.076051 0.382849
0.0415961 0.0641947 0.39205
0.14374 0.0517128 0.396704
0.294972 0.057557 0.342153
0.449363 0.0691081 0.354498
0.633127 0.104616 0.407446
0.696391 0.121523 0.442008
0.6963 0.123735 0.417975
0.697719 0.122194 0.381384
0.0227359 0.228016 0.415732
0.0269932 0.219547 0.42182
0.0381628 0.198703 0.433341
0.329793 0.206882 0.482002
0.528603 0.235035 0.443687
0.70106 0.231052 0.461067
0.751522 0.219532 0.451743
0.740734 0.190265 0.411154
0.744366 0.176394 0.363378
0.042298 0.46389 0.465064
0.0414282 0.460853 0.462593
0.0413672 0.455238 0.457023
0.138445 0.474998 0.472389
0.515602 0.507668 0.48748
0.725963 0.482139 0.471122
0.821241 0.49131 0.470512
0.814496 0.483085 0.451713
0.799863 0.462303 0.406531
0.0999161 0.655314 0.590677
0.0979477 0.652399 0.583947
0.0970932 0.646891 0.571893
0.0965896 0.637919 0.539681
0.410788 0.662684 0.530266
0.611124 0.682872 0.476204
0.791424 0.664637 0.502495
0.809293 0.667308 0.493004
0.802152 0.644862 0.459083
0.180331 0.806409 0.705623
0.176303 0.803708 0.694682
0.178424 0.797284 0.677668
0.192645 0.784878 0.641154
0.317067 0.781155 0.581003
0.567544 0.799405 0.574289
0.712123 0.812009 0.513176
0.831327 0.80206 0.514351
0.831647 0.789014 0.492576
0.212299 0.834272 0.747982
0.206561 0.835233 0.739254
0.210117 0.834699 0.725704
0.228519 0.829343 0.694011
0.285893 0.819654 0.619562
0.520485 0.823377 0.592798
0.644022 0.830503 0.567056
0.807065 0.831083 0.474296
0.820874 0.828992 0.474449
0.207309 0.834989 0.739132
0.208484 0.834913 0.731014
0.21529 0.833204 0.717632
0.231006 0.828626 0.687755
0.273823 0.818921 0.621149
0.409644 0.809918 0.542473
0.584817 0.818601 0.5308
0.729702 0.828748 0.439109
0.819501 0.821866 0.425193
0.213993 0.0666209 0.53164
0.258167 0.0681773 0.519112
0.322621 0.0713664 0.507759
0.41326 0.0902571 0.499901
0.519417 0.104051 0.511406
0.681407 0.132128 0.562982
0.71574 0.145632 0.593011
0.715373 0.142016 0.604974
0.717678 0.145342 0.592203
0.157702 0.0826886 0.539132
0.212573 0.0658579 0.527199
0.296071 0.0695506 0.510124
0.396872 0.085008 0.496422
0.510735 0.103258 0.506798
0.674647 0.131106 0.554543
0.714305 0.150729 0.581888
0.71603 0.144961 0.595331
0.716686 0.153735 0.572931
0.0616465 0.0792248 0.518624
0.09308 0.0787366 0.528374
0.226795 0.0657969 0.51841
0.359197 0.0737926 0.489586
0.489525 0.100877 0.496483
0.658137 0.127703 0.53611
0.712154 0.155993 0.560189
0.713237 0.155596 0.569421
0.711131 0.143221 0.534188
0.0588388 0.199741 0.545129
0.0600137 0.185397 0.546029
0.0638132 0.155673 0.550179
0.324193 0.124926 0.570001
0.506325 0.160571 0.544915
0.672129 0.168643 0.551904
0.722072 0.169879 0.547387
0.719966 0.161761 0.54284
0.709834 0.129809 0.493034
0.0200046 0.420935 0.595956
0.0201419 0.414939 0.598657
0.0199283 0.403449 0.604639
0.103838 0.414496 0.648798
0.539971 0.419837 0.678721
0.71928 0.452094 0.635645
0.816678 0.453437 0.644846
0.817777 0.439551 0.624094
0.812848 0.395895 0.572915
0.0869459 0.639521 0.651057
0.0835279 0.636179 0.647181
0.0817884 0.630625 0.642557
0.0796826 0.619303 0.631952
0.387625 0.647807 0.644877
0.673579 0.670222 0.653361
0.828702 0.65333 0.645258
0.857023 0.650141 0.63769
0.843626 0.631083 0.603265
0.164096 0.794598 0.752117
0.159045 0.791714 0.744015
0.154543 0.784039 0.731075
0.153643 0.773342 0.709072
0.33579 0.776761 0.684794
0.619211 0.795254 0.697719
0.759854 0.811002 0.655818
0.851072 0.803174 0.663233
0.846983 0.789303 0.64506
0.225681 0.839643 0.806271
0.21976 0.839796 0.799771
0.215732 0.838209 0.789471
0.213458 0.836393 0.771145
0.236942 0.836561 0.734615
0.554604 0.845472 0.722774
0.715801 0.85362 0.721233
0.816434 0.863951 0.656306
0.837064 0.863767 0.671977
0.219852 0.838834 0.796735
0.216052 0.83801 0.789288
0.213855 0.837217 0.779324
0.212268 0.83621 0.761761
0.216785 0.833997 0.722957
0.449073 0.834882 0.685344
0.65388 0.846845 0.692699
0.753216 0.856031 0.645899
0.832471 0.859831 0.63856
0.312398 0.0896315 0.630213
0.343847 0.0926375 0.628519
0.398688 0.0973678 0.626581
0.4813 0.110384 0.627878
0.592447 0.148013 0.642786
0.701747 0.143511 0.659678
0.722103 0.151263 0.677501
0.723095 0.151354 0.682399
0.723033 0.151385 0.682216
0.26775 0.0849165 0.63035
0.309529 0.0888075 0.628153
0.375662 0.0959335 0.626291
0.463355 0.105013 0.623606
0.579919 0.14403 0.637888
0.695613 0.141039 0.655192
0.721599 0.151324 0.672847
0.72256 0.151217 0.679469
0.722942 0.151339 0.681025
0.148257 0.100649 0.628916
0.211826 0.0856641 0.627985
0.315358 0.0888228 0.623453
0.428031 0.0995041 0.619303
0.555093 0.136858 0.62884
0.682506 0.139574 0.646067
0.720455 0.1514 0.6636
0.721462 0.151461 0.670863
0.721462 0.151369 0.670878
0.0933242 0.170886 0.648737
0.0985122 0.156466 0.650202
0.110155 0.129168 0.64506
0.34696 0.0987259 0.629679
0.508614 0.124315 0.620935
0.656062 0.141787 0.635035
0.721263 0.1467 0.64654
0.722347 0.149218 0.650706
0.722484 0.147784 0.648127
0.0577249 0.416098 0.724971
0.0634623 0.40853 0.727672
0.0746166 0.394339 0.735439
0.169711 0.390112 0.778012
0.561791 0.367559 0.787869
0.729885 0.4065 0.752728
0.813962 0.419409 0.75079
0.812222 0.406592 0.742733
0.804242 0.381781 0.714275
0.0348821 0.605524 0.752667
0.0307927 0.599161 0.752728
0.0243534 0.58909 0.753628
0.0207523 0.569772 0.7579
0.359518 0.598016 0.793896
0.700999 0.607004 0.808469
0.82977 0.637659 0.782956
0.856458 0.635187 0.778668
0.853971 0.605386 0.742718
0.159579 0.781384 0.795895
0.153948 0.777096 0.791074
0.147402 0.769985 0.783673
0.142809 0.75938 0.773785
0.313298 0.758862 0.765789
0.588907 0.787808 0.781521
0.792248 0.801205 0.789883
0.871122 0.790967 0.784665
0.86772 0.776532 0.764508
0.284153 0.84094 0.837263
0.269688 0.840421 0.834257
0.257282 0.838865 0.828931
0.23949 0.836072 0.819989
0.286625 0.833005 0.800855
0.558907 0.852995 0.803891
0.738338 0.868269 0.806714
0.835966 0.884092 0.791714
0.859861 0.880018 0.795483
0.280095 0.841505 0.835019
0.271412 0.84184 0.831708
0.262379 0.841932 0.82797
0.244144 0.841062 0.820005
0.239704 0.840558 0.79939
0.465705 0.853086 0.791836
0.660319 0.872572 0.796551
0.807065 0.882002 0.802869
0.849317 0.895857 0.794324
0.36083 0.0981003 0.647898
0.38732 0.0999313 0.647639
0.435462 0.104906 0.649042
0.515297 0.122225 0.654841
0.625284 0.159319 0.669215
0.717052 0.151522 0.68159
0.723232 0.151293 0.682551
0.723232 0.151293 0.682551
0.723156 0.151339 0.682445
0.326253 0.0939956 0.646845
0.360494 0.0980697 0.647898
0.415061 0.102083 0.648234
0.498817 0.11635 0.653071
0.614954 0.156725 0.668299
0.713588 0.151446 0.680751
0.723247 0.151324 0.682582
0.723232 0.151293 0.682551
0.723201 0.151308 0.682506
0.224262 0.0830549 0.644678
0.287343 0.0897841 0.645991
0.367269 0.098558 0.647852
0.466117 0.108888 0.649546
0.5906 0.149004 0.663813
0.703655 0.150881 0.678676
0.724422 0.1523 0.684565
0.724269 0.152132 0.684276
0.723903 0.151781 0.683619
0.173938 0.158495 0.698894
0.175311 0.142214 0.684352
0.18323 0.112551 0.653895
0.387442 0.100374 0.648447
0.539498 0.131655 0.658228
0.681224 0.152407 0.677836
0.728328 0.158602 0.689296
0.729137 0.159518 0.690471
0.72903 0.159411 0.690333
0.108324 0.414099 0.799023
0.113909 0.40621 0.801892
0.126757 0.390387 0.803738
0.255024 0.36437 0.809766
0.588556 0.332113 0.793225
0.746807 0.369009 0.775921
0.807294 0.379355 0.783856
0.803677 0.364401 0.779141
0.794949 0.33228 0.768414
0.0374151 0.600351 0.817197
0.039353 0.595621 0.818509
0.0420233 0.586175 0.819989
0.0542306 0.56907 0.824125
0.404471 0.582345 0.854261
0.736263 0.575753 0.856931
0.837964 0.605219 0.840482
0.859129 0.606302 0.839261
0.854826 0.583703 0.830808
0.168429 0.767025 0.841947
0.160311 0.759823 0.839384
0.148608 0.749889 0.837613
0.13373 0.731289 0.836851
0.304082 0.72668 0.841627
0.57528 0.745403 0.854658
0.814389 0.759869 0.874067
0.874342 0.769863 0.856825
0.875059 0.755871 0.848707
0.297246 0.838071 0.857237
0.282795 0.835813 0.854246
0.267643 0.833112 0.851804
0.25098 0.829007 0.84741
0.286244 0.82417 0.840574
0.557961 0.843381 0.846113
0.733593 0.865064 0.854505
0.859052 0.88426 0.86807
0.875822 0.879484 0.862181
0.321599 0.843427 0.857267
0.318151 0.84329 0.855238
0.312901 0.843656 0.852796
0.305165 0.843091 0.8486
0.316045 0.843305 0.841093
0.505913 0.857298 0.843778
0.681636 0.879988 0.851896
0.818204 0.904845 0.866545
0.879118 0.911849 0.877546
0.374365 0.0986343 0.647013
0.399481 0.101091 0.648341
0.443961 0.106371 0.649485
0.522423 0.124712 0.655528
0.631922 0.16022 0.669978
0.719341 0.151553 0.682078
0.723232 0.151293 0.682551
0.723232 0.151293 0.682551
0.723232 0.151293 0.682551
0.34313 0.095613 0.646494
0.373816 0.0986343 0.647059
0.424445 0.103822 0.649302
0.506081 0.118715 0.65391
0.6206 0.158145 0.668971
0.716228 0.151537 0.681453
0.723232 0.151293 0.682551
0.723232 0.151293 0.682551
0.723232 0.151293 0.682551
0.257893 0.0862745 0.645441
0.310842 0.0922866 0.646372
0.378637 0.0991684 0.647272
0.474022 0.11046 0.650706
0.596658 0.151049 0.665232
0.706538 0.15108 0.679347
0.723232 0.151293 0.682551
0.724453 0.152407 0.684672
0.724056 0.151888 0.683833
0.175799 0.143023 0.68545
0.175784 0.127413 0.66952
0.217258 0.107851 0.649195
0.398703 0.101061 0.648386
0.544656 0.13344 0.658793
0.68043 0.150805 0.675517
0.726009 0.154711 0.68661
0.728756 0.159121 0.689906
0.728405 0.158709 0.689372
0.131029 0.396262 0.806302
0.132906 0.383978 0.803723
0.137804 0.36286 0.798459
0.254978 0.325917 0.796643
0.573922 0.29044 0.774472
0.730724 0.327184 0.760616
0.794629 0.334646 0.768643
0.790021 0.317556 0.762921
0.778424 0.28098 0.749249
0.0556344 0.596521 0.831662
0.0563668 0.590188 0.831128
0.0584878 0.577111 0.829908
0.0675669 0.552804 0.828687
0.40914 0.558434 0.85417
0.733989 0.549187 0.84947
0.834958 0.577707 0.836942
0.853193 0.578027 0.836805
0.848951 0.553735 0.831632
0.208362 0.756649 0.850492
0.199588 0.748974 0.849561
0.183734 0.737163 0.84947
0.155428 0.715908 0.847623
0.287007 0.704982 0.849897
0.572885 0.722194 0.869673
0.826062 0.735027 0.882536
0.875456 0.74403 0.873426
0.875975 0.729107 0.871122
0.304768 0.833936 0.8636
0.298268 0.830259 0.862181
0.291981 0.826734 0.861906
0.283879 0.819669 0.86009
0.318013 0.810071 0.858106
0.55346 0.828672 0.867262
0.720867 0.846448 0.875975
0.863447 0.861906 0.895018
0.877104 0.859495 0.89044
0.336477 0.843427 0.864973
0.336477 0.843427 0.864973
0.336477 0.843427 0.864973
0.336477 0.843427 0.864973
0.354299 0.84416 0.865171
0.507149 0.857603 0.868406
0.678782 0.878111 0.876936
0.823713 0.905959 0.887877
0.880476 0.916747 0.897246
