bundles/resolve-cinematic-luts/Phantom Luts/Ursa G2 Phntm Film LUTs - V1/Gen4/White Balance Offset (Magenta Boost)/Ursa Bleach Gen4 WBO.cube
TITLE "Generated by Resolve"
LUT_3D_SIZE 5
0.0213321 0.0332799 0.0231785
0.085359 0.0377203 0.0296178
0.304829 0.0546273 0.0491646
0.574411 0.066453 0.0755169
0.716655 0.0779126 0.101259
0.0445869 0.147036 0.0671397
0.138506 0.178439 0.0546731
0.519005 0.153567 0.080766
0.718166 0.187655 0.116228
0.841611 0.247471 0.156542
0.012253 0.412589 0.139528
0.08542 0.440513 0.0682536
0.51899 0.582254 0.115282
0.82771 0.65095 0.18584
0.904997 0.689128 0.234791
0.0823529 0.695964 0.375296
0.0862593 0.697536 0.278386
0.536278 0.741024 0.202792
0.771649 0.817258 0.288869
0.908797 0.857023 0.340505
0.118074 0.757931 0.481926
0.120134 0.756481 0.34786
0.524758 0.77612 0.238788
0.757168 0.843473 0.323796
0.900847 0.883223 0.389563
0.0276951 0.0380865 0.0736248
0.0954147 0.0421454 0.0766461
0.347555 0.0588846 0.133349
0.617578 0.0720989 0.190173
0.752621 0.0946517 0.266926
0.0392615 0.134035 0.113008
0.160998 0.165637 0.154604
0.518578 0.162463 0.147997
0.726879 0.185275 0.180102
0.803754 0.205417 0.205936
0.0133669 0.405859 0.228077
0.012604 0.417899 0.1505
0.529824 0.578744 0.164813
0.848356 0.633234 0.293477
0.911833 0.663951 0.317403
0.0809033 0.680659 0.45098
0.0763104 0.68249 0.3682
0.426337 0.726528 0.210452
0.762158 0.805158 0.284077
0.911589 0.844099 0.342962
0.12874 0.757977 0.570092
0.118883 0.757977 0.48484
0.322805 0.762127 0.273075
0.717113 0.828122 0.321538
0.887266 0.880537 0.380575
0.0629587 0.0482032 0.240085
0.171435 0.0514076 0.255512
0.399558 0.0645762 0.299123
0.65005 0.0830854 0.424033
0.777066 0.107744 0.533745
0.0218967 0.0908675 0.269917
0.150118 0.0635233 0.360723
0.514458 0.0867781 0.386969
0.702434 0.0988174 0.467796
0.783307 0.115648 0.521019
0.0167697 0.390982 0.344244
0.0173648 0.399756 0.352438
0.606378 0.57641 0.562646
0.833738 0.610636 0.592065
0.916594 0.640558 0.619089
0.0863813 0.663615 0.545403
0.0819867 0.659266 0.521935
0.456672 0.732418 0.567956
0.784756 0.803342 0.608652
0.937163 0.832822 0.677852
0.155093 0.76022 0.645869
0.144213 0.757153 0.619318
0.373785 0.784115 0.586297
0.738125 0.854124 0.636316
0.899672 0.901396 0.658503
0.136187 0.0573129 0.431479
0.272114 0.06215 0.483421
0.494911 0.0681773 0.507012
0.690349 0.0965133 0.579705
0.798764 0.123537 0.652567
0.0158389 0.0521401 0.410941
0.240955 0.065095 0.559884
0.546853 0.0728923 0.567193
0.729137 0.106203 0.614847
0.79968 0.124559 0.653635
0.00851453 0.3561 0.538979
0.0099794 0.352026 0.564706
0.664714 0.521309 0.772305
0.867552 0.583108 0.772671
0.934066 0.606226 0.788434
0.0896162 0.656886 0.614145
0.0873426 0.651392 0.609522
0.515496 0.730724 0.69926
0.830747 0.794247 0.775982
0.935363 0.812009 0.795453
0.197604 0.761624 0.689418
0.17879 0.753277 0.674342
0.523354 0.798566 0.715114
0.809995 0.885924 0.80322
0.92575 0.91075 0.805432
0.237293 0.0671244 0.58909
0.373205 0.0713359 0.621317
0.578378 0.0789197 0.636118
0.73817 0.112047 0.683207
0.818921 0.136248 0.731258
0.0890364 0.062089 0.585
0.34287 0.0746166 0.66096
0.608942 0.0839399 0.671366
0.763394 0.119982 0.705867
0.822126 0.140124 0.734585
0.0128634 0.358816 0.630549
0.0149691 0.349935 0.65391
0.720729 0.495598 0.867521
0.904341 0.571603 0.860182
0.945403 0.600198 0.863783
0.090135 0.651194 0.67892
0.0840162 0.638804 0.681315
0.515297 0.707622 0.770489
0.865766 0.776516 0.857206
0.940154 0.798245 0.860121
0.204746 0.759533 0.715755
0.187366 0.751171 0.708202
0.515282 0.792523 0.752468
0.83061 0.887312 0.850385
0.933318 0.9037 0.868727
