bundles/resolve-cinematic-luts/Phantom Luts/Ursa G2 Phntm Film LUTs - V1/Gen4/White Balance Offset (Magenta Boost)/Ursa EastmanRM Gen4-Legacy WBO.cube
TITLE "Generated by Resolve"
LUT_3D_SIZE 5
0.0444038 0.0406806 0.0425269
0.167758 0.0368658 0.0394598
0.414313 0.0349279 0.0475624
0.574762 0.0385901 0.0716716
0.545785 0.0483101 0.112856
0.0674907 0.139986 0.0689403
0.132219 0.1505 0.0599222
0.457282 0.09897 0.0573281
0.618494 0.0794232 0.0782177
0.58114 0.0684672 0.0903639
0.0624247 0.433921 0.135225
0.092195 0.447684 0.0953841
0.50634 0.565118 0.114488
0.843061 0.508354 0.195987
0.84303 0.51841 0.219074
0.219348 0.718822 0.436225
0.210529 0.715297 0.406683
0.442329 0.734752 0.260288
0.829129 0.877607 0.441382
0.894636 0.873655 0.492897
0.242771 0.750927 0.514611
0.239002 0.731975 0.440467
0.411429 0.727245 0.253758
0.806745 0.877363 0.424857
0.890959 0.878553 0.513512
0.0453193 0.0497444 0.0906691
0.145098 0.0492256 0.0837873
0.392889 0.0457923 0.0911727
0.58854 0.0560006 0.146304
0.56762 0.0660563 0.186084
0.0585031 0.128222 0.0953841
0.137194 0.140658 0.119219
0.456641 0.0886702 0.086183
0.594369 0.0560769 0.102724
0.560983 0.0531777 0.117678
0.0717479 0.433494 0.220813
0.0535897 0.436377 0.174029
0.50631 0.55201 0.121904
0.847395 0.473228 0.201877
0.839155 0.478767 0.213474
0.21886 0.723384 0.478157
0.207965 0.722622 0.457435
0.370977 0.709056 0.246632
0.822339 0.874083 0.432456
0.896284 0.868009 0.48333
0.253605 0.760327 0.557107
0.254017 0.747143 0.499031
0.328573 0.707759 0.267033
0.774243 0.871 0.412924
0.890532 0.878935 0.516701
0.0595407 0.0764935 0.255726
0.162478 0.0630045 0.285573
0.406302 0.0657054 0.25417
0.635676 0.108476 0.311955
0.621836 0.123949 0.363302
0.0413672 0.103441 0.213352
0.0784314 0.0731518 0.298833
0.413397 0.0720226 0.269917
0.653819 0.101045 0.27599
0.627024 0.113802 0.326299
0.0736706 0.422766 0.33341
0.0581216 0.426551 0.3617
0.530388 0.517815 0.493812
0.885451 0.448051 0.462318
0.882689 0.441596 0.478416
0.216251 0.722316 0.5467
0.20148 0.727016 0.557168
0.292638 0.728923 0.477302
0.80618 0.861997 0.552666
0.901259 0.856504 0.628656
0.282811 0.773434 0.629953
0.273381 0.77261 0.621027
0.289952 0.758999 0.513741
0.709636 0.84828 0.562783
0.886717 0.899733 0.660548
0.114992 0.0938582 0.452964
0.223743 0.078645 0.484443
0.425391 0.0995804 0.505989
0.652583 0.165484 0.543297
0.647181 0.17734 0.579522
0.0423285 0.104814 0.394064
0.131426 0.0818036 0.484611
0.423468 0.102495 0.521218
0.664149 0.168322 0.548852
0.648096 0.176944 0.578073
0.0439155 0.359243 0.475166
0.0440986 0.348241 0.490883
0.467948 0.358923 0.736034
0.89427 0.452537 0.785962
0.886183 0.449577 0.78352
0.211536 0.702144 0.615534
0.193729 0.707683 0.63682
0.363012 0.741695 0.678737
0.824781 0.834562 0.804334
0.894972 0.826947 0.798825
0.343145 0.787823 0.698436
0.321233 0.786923 0.704021
0.410163 0.809583 0.716823
0.77966 0.895216 0.827207
0.87924 0.918318 0.851484
0.214115 0.0893873 0.525399
0.300969 0.0982681 0.539422
0.484077 0.134463 0.581247
0.644938 0.189975 0.620401
0.645319 0.189319 0.619394
0.119997 0.113893 0.486748
0.228138 0.0903792 0.527459
0.472969 0.131044 0.578515
0.646326 0.189593 0.619684
0.645762 0.192233 0.624277
0.0460212 0.33814 0.546105
0.0456855 0.319905 0.542412
0.535592 0.31397 0.770153
0.848157 0.407477 0.834714
0.845777 0.404685 0.831754
0.204349 0.687739 0.692515
0.197787 0.687938 0.69543
0.333501 0.700725 0.729763
0.840269 0.790875 0.879164
0.887007 0.806989 0.876768
0.368124 0.793835 0.726314
0.348775 0.79353 0.733303
0.436973 0.815152 0.757015
0.799176 0.902785 0.865507
0.896132 0.920073 0.878294
