bundles/resolve-cinematic-luts/Phantom Luts/Ursa G2 Phntm Film LUTs - V1/Gen4/White Balance Offset (Magenta Boost)/Ursa EastmanRM Gen4 WBO.cube
TITLE "Generated by Resolve"
LUT_3D_SIZE 9
0.0427558 0.0358892 0.0391394
0.0749371 0.0330053 0.0372473
0.193256 0.0309758 0.0379339
0.330632 0.0295872 0.0416266
0.448341 0.0301213 0.0477302
0.534295 0.0329137 0.0592813
0.579416 0.0396277 0.0746319
0.590188 0.0434119 0.082414
0.556634 0.0521248 0.121782
0.0467994 0.0733349 0.0489662
0.0558785 0.0750896 0.0459297
0.172442 0.0591745 0.0448005
0.33106 0.0384527 0.0404822
0.445106 0.0303655 0.0432441
0.527932 0.0309453 0.0500496
0.561929 0.0354467 0.0586099
0.564309 0.0358282 0.0598001
0.525368 0.0408942 0.0848402
0.0699321 0.170153 0.0758068
0.0750439 0.172503 0.065095
0.16556 0.190814 0.0625162
0.398047 0.152682 0.0636759
0.519387 0.130571 0.0666361
0.618326 0.12694 0.0732433
0.661799 0.123735 0.090898
0.649241 0.10367 0.0836194
0.612696 0.0972915 0.0959793
0.0674144 0.321492 0.102953
0.0730907 0.335027 0.0963607
0.144396 0.347967 0.0628214
0.359838 0.412543 0.0751507
0.639658 0.385016 0.0865492
0.750408 0.34107 0.117906
0.809934 0.341375 0.150469
0.818647 0.347417 0.157275
0.805325 0.347539 0.170077
0.0542763 0.48397 0.175875
0.0484321 0.488823 0.167285
0.0824292 0.488502 0.103761
0.287205 0.539925 0.0761425
0.562554 0.612818 0.128435
0.775586 0.590387 0.190082
0.842374 0.576547 0.225345
0.85359 0.578607 0.233356
0.847684 0.582193 0.243275
0.103502 0.631724 0.353399
0.09308 0.637751 0.356741
0.0923476 0.631022 0.297566
0.191012 0.611948 0.164981
0.494469 0.710307 0.212528
0.704387 0.771023 0.285664
0.869429 0.760769 0.364019
0.894728 0.763684 0.393194
0.899611 0.765484 0.38471
0.220264 0.727718 0.482155
0.216892 0.728511 0.478218
0.211124 0.722759 0.446265
0.215595 0.705425 0.368093
0.443717 0.733623 0.267628
0.657328 0.829358 0.375036
0.82504 0.880293 0.46041
0.900694 0.875273 0.514458
0.899107 0.877501 0.523293
0.257374 0.751492 0.522087
0.255711 0.747311 0.504005
0.2495 0.73785 0.465812
0.242847 0.720455 0.395071
0.396445 0.722225 0.261799
0.651225 0.829892 0.370382
0.810803 0.881666 0.446052
0.902586 0.884199 0.515236
0.899397 0.886275 0.541619
0.248585 0.756802 0.547677
0.248753 0.752819 0.528099
0.245975 0.741802 0.480735
0.242191 0.720638 0.396262
0.401663 0.7243 0.265553
0.655711 0.831632 0.372351
0.810483 0.881727 0.446784
0.901289 0.884443 0.521202
0.897322 0.887007 0.547982
0.0428016 0.0385901 0.0525216
0.0649119 0.0384985 0.0528725
0.168627 0.0400702 0.05832
0.304829 0.0380865 0.0666056
0.425467 0.0348821 0.0771649
0.517357 0.0366064 0.0947585
0.573816 0.0469215 0.119814
0.580407 0.0509499 0.1308
0.556588 0.0562753 0.159503
0.0448005 0.061326 0.0530098
0.0552834 0.0616465 0.0568704
0.160998 0.0523995 0.0580606
0.304341 0.0390784 0.0560922
0.419654 0.0348974 0.0637369
0.513634 0.0371557 0.0784466
0.557824 0.0437934 0.0959335
0.566705 0.0482032 0.105669
0.549416 0.0552682 0.132753
0.0639353 0.162036 0.0975814
0.0568093 0.167117 0.0882124
0.160113 0.1832 0.0704967
0.380301 0.132433 0.0668803
0.497459 0.111635 0.0653544
0.587472 0.101656 0.0726024
0.614282 0.0853742 0.0806592
0.600153 0.0693523 0.078233
0.566018 0.0647593 0.0898604
0.0656291 0.317266 0.139284
0.0551461 0.323003 0.124544
0.120226 0.335882 0.0668803
0.359289 0.405188 0.075761
0.642145 0.365057 0.085069
0.747982 0.321019 0.117739
0.805463 0.327062 0.148608
0.812146 0.329595 0.154513
0.797971 0.330205 0.166735
0.0569924 0.487419 0.218372
0.0497139 0.4925 0.215122
0.0618143 0.48658 0.12224
0.264607 0.530007 0.0707713
0.563592 0.609735 0.126528
0.778286 0.583398 0.187625
0.843687 0.566186 0.219654
0.852949 0.567651 0.225834
0.847105 0.570886 0.236774
0.105211 0.633341 0.376806
0.0951553 0.639155 0.382513
0.0899977 0.634241 0.332464
0.163989 0.612818 0.186297
0.484886 0.706096 0.206851
0.705272 0.768978 0.282597
0.870756 0.757031 0.362356
0.893324 0.758785 0.388708
0.894636 0.760906 0.388937
0.220401 0.729747 0.498436
0.217563 0.730526 0.493507
0.211749 0.726085 0.465873
0.207767 0.707454 0.384161
0.423697 0.725689 0.259876
0.65304 0.827314 0.370748
0.823178 0.878981 0.457725
0.900984 0.87335 0.510979
0.89926 0.875288 0.518975
0.254475 0.756786 0.547265
0.26041 0.750912 0.519539
0.254383 0.742962 0.486183
0.241199 0.72311 0.408957
0.363577 0.71371 0.263798
0.643153 0.826459 0.366491
0.805646 0.880262 0.442527
0.902541 0.884215 0.513848
0.899031 0.886549 0.543206
0.252811 0.759808 0.562142
0.257664 0.754498 0.537652
0.251759 0.746471 0.501259
0.241108 0.723369 0.4103
0.367163 0.715129 0.265919
0.646387 0.827787 0.367956
0.803052 0.879927 0.443046
0.898085 0.88513 0.518212
0.897322 0.887129 0.548516
0.0432288 0.0493629 0.106477
0.0780499 0.0440681 0.111681
0.16968 0.0456397 0.0994278
0.314229 0.0451057 0.0989395
0.4318 0.0431678 0.110567
0.527901 0.044892 0.131716
0.590204 0.0585641 0.163958
0.596124 0.063859 0.176226
0.572854 0.0706798 0.207538
0.0414435 0.0585184 0.0878004
0.0469978 0.0483558 0.114427
0.151659 0.0494698 0.108659
0.304692 0.0446174 0.0933089
0.429145 0.0402686 0.0990311
0.529854 0.0418097 0.117556
0.586023 0.0543374 0.147951
0.589349 0.0581826 0.158251
0.566262 0.0643626 0.188251
0.0602426 0.15462 0.117571
0.0528878 0.15581 0.129152
0.176822 0.17612 0.15465
0.383017 0.143572 0.13312
0.519707 0.111299 0.115084
0.609125 0.0910353 0.121416
0.61796 0.0701915 0.119097
0.605081 0.0607309 0.112795
0.578149 0.061326 0.131579
0.0664988 0.313664 0.183078
0.0571908 0.317388 0.186038
0.0763104 0.333379 0.154986
0.374212 0.399405 0.148486
0.632944 0.336858 0.151888
0.74696 0.311208 0.14757
0.809125 0.298421 0.166705
0.806119 0.289052 0.166506
0.788647 0.287663 0.178424
0.0612192 0.488762 0.273014
0.0532387 0.494942 0.287388
0.0496681 0.488807 0.221088
0.185275 0.50132 0.0869764
0.563241 0.601724 0.134997
0.7823 0.559655 0.201389
0.852445 0.535866 0.218906
0.854566 0.538628 0.2168
0.84686 0.540993 0.22887
0.107851 0.632639 0.410452
0.096788 0.639063 0.421698
0.092195 0.637385 0.387076
0.109102 0.617136 0.243671
0.45182 0.690349 0.194003
0.707256 0.762554 0.269322
0.872557 0.745327 0.360739
0.890135 0.746517 0.380484
0.890455 0.747951 0.381003
0.219867 0.730343 0.520226
0.213626 0.73254 0.520806
0.211994 0.728954 0.495171
0.201907 0.713146 0.419974
0.354528 0.704051 0.254368
0.638254 0.819501 0.362158
0.819715 0.874861 0.451377
0.901289 0.868528 0.504128
0.899596 0.869947 0.512184
0.261051 0.761181 0.570565
0.257053 0.759716 0.562249
0.261799 0.751202 0.521294
0.246708 0.734081 0.449546
0.305409 0.708644 0.295476
0.620508 0.816373 0.358587
0.792721 0.877974 0.437018
0.901442 0.884352 0.50927
0.899474 0.88661 0.543221
0.259068 0.763684 0.584115
0.25594 0.762203 0.575174
0.261341 0.753948 0.535134
0.248905 0.735912 0.456855
0.305913 0.708263 0.293904
0.619837 0.815946 0.358724
0.785412 0.876493 0.438178
0.891814 0.886091 0.512505
0.897108 0.887449 0.551431
0.0499733 0.0645609 0.193271
0.0943465 0.0529488 0.209552
0.172702 0.0556649 0.21001
0.319249 0.0517433 0.18114
0.438621 0.0555123 0.197009
0.540307 0.0620737 0.224872
0.616556 0.0862135 0.251759
0.624414 0.0937667 0.26775
0.600427 0.101747 0.30428
0.0401465 0.0649577 0.165621
0.0556649 0.0652934 0.205936
0.156466 0.0552224 0.222416
0.311116 0.0536965 0.193591
0.444144 0.0548257 0.194171
0.546426 0.0607309 0.213931
0.616617 0.0836042 0.240253
0.621485 0.0896773 0.2542
0.597696 0.0978714 0.290318
0.0439155 0.137743 0.174655
0.0423896 0.129946 0.194903
0.126711 0.118547 0.276143
0.342763 0.124727 0.256565
0.500664 0.0969253 0.210941
0.582773 0.0737621 0.193515
0.625238 0.075639 0.194736
0.621042 0.073518 0.196185
0.599527 0.0809491 0.228641
0.0643473 0.30164 0.234195
0.0551614 0.304738 0.25034
0.0807355 0.32398 0.276646
0.405997 0.383841 0.356802
0.634989 0.341756 0.332799
0.784497 0.297368 0.314885
0.868666 0.27245 0.311223
0.862638 0.256764 0.30544
0.831785 0.255436 0.33077
0.0643168 0.486397 0.328466
0.0545968 0.491661 0.35404
0.0547951 0.492332 0.337346
0.192065 0.528008 0.340566
0.557427 0.589853 0.336294
0.768887 0.535912 0.341985
0.853956 0.526894 0.331319
0.868055 0.520211 0.325017
0.859861 0.520806 0.336095
0.114778 0.629892 0.445441
0.0995651 0.636912 0.467597
0.0973678 0.637903 0.455024
0.0946822 0.634333 0.38912
0.363912 0.646067 0.298802
0.695613 0.752682 0.36286
0.867048 0.72459 0.452308
0.884108 0.720531 0.449058
0.88304 0.721035 0.452064
0.224659 0.728634 0.542809
0.211978 0.732784 0.555978
0.211124 0.731563 0.541466
0.204929 0.724178 0.491325
0.252201 0.70547 0.355917
0.578225 0.785458 0.391546
0.816037 0.869383 0.458106
0.906371 0.863294 0.518822
0.903868 0.864286 0.527077
0.271626 0.766964 0.601373
0.265431 0.766445 0.599207
0.263355 0.763241 0.581994
0.264042 0.75172 0.523323
0.261189 0.728008 0.406043
0.540993 0.776623 0.378592
0.768658 0.872709 0.443412
0.896239 0.88629 0.5122
0.899535 0.889509 0.55964
0.272923 0.76849 0.611444
0.268849 0.768124 0.60798
0.263645 0.76524 0.591669
0.266285 0.75378 0.532616
0.258808 0.728771 0.412131
0.531701 0.772839 0.374716
0.749172 0.86775 0.454109
0.880339 0.888808 0.510033
0.89836 0.89044 0.567147
0.0660868 0.0778515 0.298207
0.115892 0.0584726 0.325902
0.213153 0.0612497 0.330632
0.30959 0.0636912 0.324239
0.442374 0.0630961 0.299733
0.553094 0.083238 0.31487
0.637339 0.119112 0.359823
0.648203 0.127001 0.374289
0.62591 0.136278 0.409796
0.0415198 0.0789654 0.265126
0.070985 0.0784466 0.314199
0.186633 0.0615549 0.342504
0.306111 0.0648203 0.337697
0.447196 0.0643473 0.307332
0.560189 0.0858167 0.318868
0.641123 0.120409 0.360098
0.646342 0.127001 0.374731
0.622263 0.136187 0.410834
0.0414893 0.112398 0.253971
0.0416266 0.0976883 0.270634
0.0958877 0.0607309 0.348959
0.294453 0.0701152 0.352758
0.44892 0.070573 0.317937
0.579217 0.0843519 0.299428
0.658183 0.112642 0.325902
0.660136 0.117082 0.337285
0.633783 0.126635 0.375448
0.0423285 0.256733 0.302876
0.0425727 0.250401 0.319661
0.0432593 0.246784 0.34107
0.353292 0.282414 0.503578
0.60351 0.320195 0.511147
0.776852 0.286015 0.471717
0.848814 0.252079 0.456504
0.836027 0.234638 0.448005
0.804501 0.235615 0.468101
0.0613718 0.476112 0.381415
0.053254 0.479606 0.407843
0.0529946 0.480537 0.411719
0.218723 0.525063 0.476234
0.582391 0.575235 0.551019
0.775662 0.536233 0.518624
0.881682 0.509712 0.511742
0.89749 0.501686 0.512215
0.885374 0.502052 0.528222
0.116472 0.623514 0.480964
0.0994736 0.62948 0.506004
0.0982986 0.630747 0.503624
0.114382 0.636255 0.493263
0.452445 0.683406 0.535729
0.70193 0.738094 0.546731
0.852384 0.702144 0.549325
0.881743 0.69926 0.540337
0.877363 0.700389 0.549172
0.223713 0.724849 0.571893
0.210788 0.728634 0.58645
0.209049 0.729412 0.582895
0.207095 0.727367 0.561669
0.341268 0.741268 0.523705
0.587732 0.781048 0.536446
0.809491 0.861433 0.593606
0.905089 0.857313 0.659693
0.902419 0.857801 0.667643
0.293309 0.770169 0.626398
0.278218 0.770901 0.634775
0.273869 0.770459 0.629923
0.272953 0.768414 0.607813
0.31165 0.767697 0.543236
0.564645 0.800732 0.54699
0.761761 0.870771 0.61178
0.88986 0.9075 0.659922
0.897932 0.911223 0.703258
0.28571 0.771984 0.641535
0.281056 0.771801 0.641169
0.276234 0.770993 0.635294
0.27393 0.769253 0.614115
0.309102 0.768292 0.548852
0.555261 0.80061 0.551812
0.74229 0.862715 0.616327
0.872908 0.907927 0.657771
0.896269 0.912505 0.711833
0.101259 0.0770886 0.399512
0.158785 0.0662852 0.42211
0.255451 0.0693523 0.428687
0.344961 0.0719615 0.428489
0.431189 0.0793164 0.424231
0.562432 0.0997482 0.415122
0.65568 0.139513 0.441581
0.670924 0.145556 0.453727
0.644999 0.154574 0.487999
0.0543832 0.0932784 0.372671
0.10454 0.0734112 0.415518
0.228885 0.068925 0.437156
0.343084 0.0726177 0.437781
0.433967 0.0813458 0.436225
0.566659 0.105394 0.428641
0.660578 0.142809 0.448569
0.664317 0.148074 0.464195
0.638666 0.156497 0.496361
0.0417487 0.0940871 0.31223
0.0419928 0.0929885 0.348241
0.137713 0.0670787 0.436851
0.323064 0.071931 0.445762
0.427649 0.0822614 0.444526
0.572946 0.106081 0.428046
0.676982 0.138628 0.430106
0.68011 0.14287 0.442206
0.652811 0.152224 0.476707
0.0430762 0.219348 0.363287
0.0428016 0.20911 0.377981
0.0425116 0.189624 0.39646
0.310948 0.168673 0.5458
0.557366 0.227344 0.603449
0.719753 0.236011 0.591836
0.792844 0.216648 0.543893
0.767285 0.196094 0.518151
0.731548 0.196277 0.529107
0.0448768 0.438621 0.448539
0.0445258 0.438285 0.470573
0.0443427 0.431144 0.476158
0.108476 0.462974 0.546517
0.5561 0.500282 0.684138
0.767285 0.533349 0.676188
0.892164 0.508415 0.643076
0.907454 0.500633 0.643
0.887556 0.506523 0.662593
0.113741 0.612421 0.521157
0.0966049 0.618357 0.545586
0.0959487 0.619608 0.548943
0.104067 0.622278 0.552972
0.478676 0.686046 0.642069
0.720989 0.723751 0.695003
0.85832 0.697383 0.672496
0.894957 0.6907 0.675914
0.890761 0.691768 0.682475
0.228382 0.717372 0.593637
0.207996 0.721309 0.613931
0.206561 0.722042 0.613748
0.207568 0.721782 0.607187
0.443214 0.766445 0.649165
0.658198 0.810254 0.697398
0.821408 0.851606 0.709331
0.896178 0.84567 0.74052
0.896162 0.847272 0.745617
0.315297 0.775921 0.657176
0.296162 0.776745 0.667903
0.290669 0.775402 0.664424
0.286656 0.773922 0.655146
0.404273 0.800855 0.664576
0.634928 0.846677 0.707881
0.784024 0.879438 0.733272
0.890639 0.917617 0.759014
0.899916 0.920806 0.795575
0.3066 0.778683 0.674357
0.301625 0.778515 0.674998
0.296239 0.777218 0.67126
0.29015 0.775601 0.660029
0.394171 0.800046 0.665461
0.629938 0.848707 0.711742
0.773358 0.879408 0.740597
0.863355 0.914305 0.765682
0.892042 0.92578 0.810666
0.159564 0.073991 0.481102
0.214115 0.0768749 0.490761
0.291829 0.0815747 0.499596
0.377249 0.085481 0.505226
0.453574 0.0990311 0.512139
0.550835 0.128862 0.528023
0.647288 0.164096 0.548302
0.662211 0.170016 0.558541
0.647196 0.175769 0.577356
0.116899 0.0948501 0.462303
0.167865 0.076112 0.490639
0.271092 0.0815137 0.502556
0.37261 0.0872206 0.51046
0.457282 0.102266 0.519142
0.558145 0.133898 0.537163
0.653254 0.167651 0.554726
0.656123 0.172656 0.567391
0.643168 0.177661 0.583429
0.0428779 0.103029 0.400305
0.0750896 0.105364 0.445899
0.199847 0.0782025 0.498787
0.348577 0.0880903 0.513634
0.45185 0.101488 0.522118
0.556237 0.13611 0.543175
0.660517 0.167376 0.551827
0.666987 0.169329 0.556802
0.649042 0.17557 0.57615
0.0424659 0.169085 0.407889
0.0425727 0.15877 0.416297
0.0428016 0.137621 0.436591
0.266514 0.0908827 0.519875
0.459831 0.12343 0.55639
0.585107 0.163424 0.584772
0.6804 0.178317 0.56553
0.68162 0.167727 0.542229
0.661891 0.17583 0.564828
0.0437476 0.416083 0.508354
0.043946 0.414771 0.518914
0.0441291 0.405524 0.521752
0.0838026 0.427893 0.607935
0.547875 0.426886 0.76701
0.777569 0.50016 0.812741
0.898024 0.501137 0.792554
0.915343 0.4925 0.782498
0.894224 0.498634 0.791882
0.0813001 0.583902 0.573465
0.072694 0.58613 0.588693
0.0707408 0.582391 0.590494
0.0750744 0.581186 0.604623
0.406363 0.635294 0.698573
0.707759 0.674586 0.795758
0.850767 0.698238 0.786877
0.892042 0.693431 0.779538
0.886519 0.695354 0.785122
0.222126 0.707713 0.62385
0.202899 0.711772 0.642252
0.202564 0.712245 0.643778
0.202991 0.71165 0.643763
0.419486 0.755337 0.69662
0.673655 0.813611 0.773587
0.823865 0.840574 0.809735
0.897276 0.83209 0.793896
0.895888 0.834363 0.801999
0.332311 0.779461 0.683284
0.314321 0.779538 0.692454
0.311528 0.778881 0.691463
0.313115 0.778424 0.687999
0.454215 0.809903 0.721019
0.680995 0.864134 0.790433
0.808164 0.892531 0.822843
0.882231 0.913161 0.831037
0.899336 0.914809 0.845273
0.364569 0.791836 0.699428
0.343755 0.790982 0.706523
0.338109 0.789883 0.704723
0.339132 0.789944 0.700847
0.457862 0.817594 0.72697
0.6766 0.872572 0.795529
0.801511 0.903807 0.834073
0.865125 0.919966 0.846601
0.89279 0.932723 0.86511
0.246204 0.0871901 0.521782
0.281193 0.090898 0.528908
0.33814 0.0970779 0.537194
0.408682 0.104433 0.546548
0.489815 0.12697 0.565957
0.573816 0.158618 0.591333
0.643427 0.186206 0.613886
0.649271 0.188128 0.616556
0.647761 0.188968 0.618235
0.209125 0.084535 0.517983
0.254292 0.0886549 0.526253
0.324773 0.0966506 0.537087
0.405539 0.105348 0.548486
0.494057 0.129229 0.569619
0.579828 0.162417 0.597025
0.647059 0.188266 0.617517
0.648768 0.188724 0.617731
0.646967 0.189151 0.618784
0.126665 0.102846 0.490806
0.171359 0.0838026 0.516136
0.275639 0.0916915 0.531197
0.385031 0.104082 0.546746
0.485679 0.126619 0.567559
0.57702 0.161364 0.595544
0.652262 0.190295 0.618982
0.656153 0.191836 0.621439
0.65098 0.192844 0.624186
0.0473793 0.139879 0.459449
0.0515297 0.127413 0.460456
0.0886091 0.115221 0.474449
0.31075 0.0964218 0.537148
0.455863 0.118044 0.5617
0.567391 0.159564 0.597238
0.66421 0.200519 0.634714
0.672816 0.202197 0.635569
0.669352 0.204517 0.639963
0.0446174 0.398093 0.540246
0.0446937 0.39707 0.545174
0.0449073 0.388952 0.55285
0.180774 0.399664 0.676844
0.601923 0.402136 0.820844
0.796567 0.462318 0.864988
0.875257 0.482551 0.862211
0.888838 0.475731 0.860151
0.877409 0.478294 0.859937
0.07187 0.569085 0.606302
0.070634 0.571221 0.61265
0.0698253 0.568689 0.614237
0.0785534 0.571115 0.634302
0.380758 0.60911 0.734707
0.725567 0.642329 0.848875
0.857282 0.685283 0.867155
0.901457 0.68748 0.858839
0.888212 0.690562 0.862745
0.210224 0.697047 0.665095
0.202899 0.699886 0.67454
0.203876 0.699611 0.677546
0.206455 0.696498 0.682551
0.413458 0.733166 0.738811
0.654978 0.79057 0.805692
0.826963 0.819623 0.86424
0.891783 0.827802 0.849912
0.890517 0.829862 0.853712
0.323949 0.773175 0.700771
0.310872 0.77406 0.708904
0.309545 0.773846 0.708797
0.312856 0.773465 0.708583
0.441642 0.802747 0.742641
0.671229 0.860014 0.813214
0.812528 0.892714 0.856992
0.878843 0.907561 0.874235
0.897642 0.910994 0.87512
0.38587 0.798566 0.725292
0.369284 0.797757 0.730434
0.36672 0.79736 0.728893
0.372686 0.798795 0.727565
0.483711 0.825986 0.756374
0.695293 0.880858 0.82475
0.820722 0.912398 0.866133
0.876738 0.928679 0.88307
0.904631 0.935973 0.884077
0.287633 0.0934157 0.533379
0.316838 0.0969863 0.53846
0.362768 0.102205 0.545083
0.42594 0.109361 0.554513
0.504204 0.133898 0.574884
0.583581 0.163699 0.598581
0.648173 0.189258 0.61883
0.649485 0.18854 0.617319
0.648936 0.188678 0.617639
0.253498 0.0893111 0.526589
0.289311 0.0938277 0.534356
0.34725 0.101061 0.543359
0.420172 0.108476 0.553506
0.504326 0.133913 0.574899
0.587777 0.165454 0.599817
0.648005 0.188998 0.618326
0.648341 0.189181 0.618418
0.646647 0.189227 0.619013
0.156054 0.0831311 0.51075
0.211963 0.0864424 0.522454
0.300603 0.0953078 0.535988
0.398077 0.105989 0.550149
0.495644 0.130861 0.572702
0.583352 0.16434 0.599435
0.650416 0.189334 0.618296
0.657557 0.193408 0.623972
0.651423 0.193271 0.624872
0.0727398 0.135622 0.482704
0.0700694 0.122286 0.472389
0.120272 0.107576 0.491112
0.327565 0.0981765 0.540185
0.461524 0.119554 0.562936
0.569436 0.159777 0.597009
0.660075 0.197742 0.631418
0.672663 0.203098 0.637568
0.669139 0.204929 0.641443
0.0472419 0.395315 0.575341
0.0471656 0.392401 0.576608
0.0475624 0.37789 0.57438
0.19144 0.369711 0.671778
0.610178 0.375784 0.816968
0.791226 0.432517 0.857389
0.867475 0.454902 0.85713
0.87509 0.449866 0.854368
0.869749 0.452155 0.854688
0.078294 0.571344 0.628901
0.0759899 0.572381 0.631617
0.0735027 0.567834 0.629984
0.0799725 0.565805 0.642725
0.38706 0.59678 0.741268
0.742336 0.633936 0.860197
0.86096 0.673487 0.877379
0.897658 0.678035 0.872755
0.886091 0.681163 0.875761
0.236088 0.700771 0.69894
0.230259 0.702724 0.702907
0.227436 0.700984 0.702388
0.217411 0.694224 0.699733
0.403891 0.723735 0.744305
0.644251 0.77911 0.814069
0.832242 0.806119 0.877104
0.888197 0.820478 0.875029
0.88835 0.821897 0.875639
0.356207 0.776623 0.71986
0.336858 0.776577 0.727642
0.335927 0.775616 0.727687
0.332769 0.772457 0.726894
0.463813 0.800626 0.763668
0.676432 0.853941 0.828687
0.805219 0.885771 0.867491
0.883299 0.903441 0.892226
0.896422 0.906966 0.892882
0.399008 0.80087 0.732326
0.379431 0.799527 0.738628
0.379019 0.799496 0.738827
0.38912 0.802014 0.741573
0.48864 0.827161 0.770123
0.685542 0.879698 0.833387
0.81622 0.913863 0.875853
0.878416 0.931075 0.894575
0.909224 0.936919 0.894286
