bundles/resolve-cinematic-luts/Phantom Luts/Ursa G2 Phntm Film LUTs - V1/Gen4/White Balance Offset (Magenta Boost)/Ursa Eterna Gen4-Legacy WBO.cube
TITLE "Generated by Resolve"
LUT_3D_SIZE 5
0.0168154 0.0444495 0.044419
0.129763 0.0581369 0.060441
0.373053 0.0979477 0.123857
0.62385 0.119966 0.181979
0.66363 0.120287 0.20502
0.0581064 0.152453 0.103838
0.138064 0.165759 0.0838941
0.444968 0.15555 0.122469
0.668284 0.147723 0.151263
0.663462 0.128756 0.147829
0.092958 0.56466 0.313512
0.0927138 0.613092 0.271092
0.516823 0.609583 0.160998
0.895415 0.607767 0.240223
0.894499 0.589792 0.238926
0.243793 0.89601 0.590646
0.239902 0.898085 0.557504
0.333593 0.903288 0.386511
0.861723 0.92163 0.406577
0.936843 0.915328 0.434623
0.235569 0.899992 0.620111
0.244175 0.896941 0.589242
0.268772 0.895491 0.465446
0.692531 0.912978 0.352819
0.935546 0.925109 0.456001
0.0410468 0.0501259 0.119768
0.144747 0.0635843 0.110903
0.371725 0.0937819 0.169131
0.666758 0.124849 0.256413
0.69604 0.122179 0.295369
0.0530404 0.136248 0.123644
0.140261 0.147997 0.146822
0.443183 0.147829 0.176486
0.667079 0.133547 0.214817
0.674556 0.121798 0.233356
0.0923323 0.514961 0.356237
0.0708019 0.55053 0.333669
0.498512 0.584482 0.155322
0.891859 0.572641 0.242573
0.892012 0.548531 0.239445
0.23566 0.882887 0.640269
0.236255 0.886168 0.611322
0.31104 0.897719 0.399145
0.846448 0.917586 0.39736
0.935302 0.907897 0.419211
0.247211 0.898283 0.686778
0.254932 0.893706 0.657176
0.252705 0.893828 0.509438
0.668925 0.911788 0.346181
0.935256 0.925292 0.456733
0.115816 0.0654154 0.32256
0.215641 0.0741283 0.339651
0.422675 0.107134 0.287541
0.691402 0.135958 0.36466
0.718791 0.131899 0.428794
0.042298 0.10454 0.234806
0.0458991 0.0631113 0.318563
0.423316 0.109987 0.31014
0.693324 0.138537 0.390692
0.716121 0.135622 0.464317
0.0932631 0.469184 0.40885
0.0754864 0.491005 0.443137
0.507683 0.506859 0.490028
0.890333 0.511971 0.52491
0.913436 0.48957 0.534997
0.237263 0.840558 0.690349
0.209888 0.841398 0.687007
0.334691 0.853132 0.61735
0.816464 0.880278 0.553979
0.939345 0.866163 0.623499
0.284413 0.89163 0.772503
0.264134 0.897337 0.767834
0.277592 0.892287 0.687449
0.633722 0.921752 0.611139
0.941955 0.928527 0.617761
0.235752 0.0859388 0.541527
0.307149 0.0922866 0.592676
0.511208 0.116243 0.567452
0.712184 0.143191 0.537331
0.723568 0.139467 0.555657
0.0450294 0.0695506 0.434775
0.131441 0.0746777 0.516609
0.476173 0.110964 0.599207
0.707942 0.146883 0.556405
0.720195 0.14342 0.589929
0.0575113 0.433265 0.545342
0.0329442 0.430457 0.596292
0.325948 0.424201 0.747143
0.880735 0.422126 0.696971
0.903929 0.403281 0.714611
0.238849 0.802625 0.727352
0.19498 0.796475 0.729198
0.346044 0.795026 0.732052
0.820768 0.808591 0.788479
0.943236 0.810285 0.808469
0.347417 0.88893 0.833326
0.312169 0.901427 0.847608
0.359121 0.908995 0.834607
0.752392 0.925704 0.873335
0.946212 0.938079 0.864408
0.336141 0.0979324 0.648951
0.363973 0.0995804 0.656458
0.555077 0.123903 0.702449
0.724041 0.15108 0.722042
0.723613 0.151247 0.721004
0.193622 0.0857404 0.608194
0.251423 0.0919051 0.625986
0.472313 0.112444 0.685039
0.724163 0.151217 0.72221
0.724666 0.151675 0.722774
0.058854 0.430091 0.729992
0.0681773 0.421241 0.750988
0.192187 0.352377 0.804776
0.827466 0.296407 0.859022
0.844175 0.279026 0.840085
0.213962 0.782986 0.819455
0.204715 0.760739 0.823453
0.183551 0.700633 0.825376
0.693706 0.737896 0.915114
0.929351 0.732677 0.921645
0.347234 0.904601 0.887236
0.34876 0.904677 0.888823
0.355306 0.906355 0.882979
0.74255 0.927749 0.921782
0.941543 0.941115 0.941238
