bundles/resolve-cinematic-luts/Phantom Luts/Ursa G2 Phntm Film LUTs - V1/Gen4/White Balance Offset (Magenta Boost)/Ursa VisionTeal Gen4 WBO.cube
TITLE "Generated by Resolve"
LUT_3D_SIZE 9
0.0222477 0.0297856 0.0280156
0.0447089 0.0293278 0.0293584
0.155505 0.0296941 0.024506
0.314931 0.0315557 0.0238499
0.453117 0.0397345 0.0314641
0.598062 0.0602121 0.0504921
0.68275 0.0763104 0.063386
0.693126 0.0913558 0.0707103
0.706935 0.106065 0.0799878
0.0207523 0.0714275 0.0393378
0.0408331 0.0669871 0.0368505
0.170993 0.0547951 0.0334325
0.331548 0.0518807 0.0306859
0.470222 0.0609445 0.0377508
0.613016 0.0849317 0.0609903
0.70692 0.110872 0.0788891
0.716518 0.12462 0.0850538
0.734615 0.155795 0.0968338
0.0189364 0.193912 0.0673991
0.0429236 0.183856 0.0509804
0.146853 0.198291 0.049836
0.392859 0.172992 0.0685893
0.537942 0.168521 0.0750439
0.66833 0.194522 0.091722
0.750317 0.230625 0.108736
0.755703 0.254185 0.114763
0.761486 0.278843 0.123751
0.0384222 0.386114 0.152697
0.081239 0.383719 0.131426
0.140826 0.356786 0.0804913
0.330037 0.376944 0.0682841
0.56144 0.389761 0.0945296
0.703136 0.38201 0.160464
0.772427 0.396353 0.182528
0.773724 0.402335 0.186343
0.775204 0.423362 0.199161
0.0801404 0.573968 0.321477
0.0688182 0.574334 0.289418
0.143679 0.551568 0.233799
0.329671 0.513695 0.138903
0.499962 0.539818 0.128908
0.705745 0.564813 0.166903
0.792401 0.59675 0.217365
0.795468 0.598459 0.221393
0.794003 0.586297 0.220996
0.158984 0.751461 0.492393
0.148898 0.753719 0.475608
0.136248 0.753933 0.430182
0.254948 0.69456 0.32079
0.501488 0.662715 0.243641
0.642054 0.692073 0.233768
0.784695 0.716991 0.279393
0.807889 0.723217 0.299443
0.807843 0.712795 0.291615
0.254734 0.853849 0.615228
0.24712 0.855543 0.603891
0.235248 0.854444 0.571572
0.235279 0.841688 0.498238
0.462028 0.751431 0.321767
0.6271 0.760845 0.332372
0.750561 0.789914 0.350484
0.809125 0.794095 0.383963
0.808789 0.789929 0.377066
0.250523 0.858167 0.629694
0.25333 0.85565 0.615259
0.245594 0.854765 0.586465
0.234974 0.847608 0.520378
0.387411 0.774182 0.374075
0.604898 0.759014 0.342916
0.721096 0.784497 0.345525
0.807355 0.799344 0.392691
0.810513 0.800427 0.399405
0.246372 0.861219 0.638498
0.248844 0.859052 0.626657
0.247166 0.856336 0.60293
0.231662 0.851347 0.542733
0.309911 0.813993 0.448447
0.5579 0.75407 0.340078
0.676387 0.77467 0.343236
0.785519 0.795224 0.376761
0.810224 0.800351 0.399619
0.0219272 0.0355688 0.0692454
0.0595254 0.0297704 0.0706035
0.189929 0.0273747 0.0796979
0.345205 0.0241855 0.0638743
0.479301 0.0269017 0.0568246
0.605509 0.0285191 0.0525063
0.669337 0.0482185 0.0592508
0.677302 0.0629892 0.0606851
0.697322 0.0903792 0.0742657
0.0213931 0.0572671 0.0497597
0.0366522 0.0562295 0.0550088
0.183032 0.0373541 0.037644
0.326635 0.032517 0.0296025
0.456397 0.0390631 0.0339818
0.596582 0.051957 0.0504158
0.682902 0.0712444 0.0636301
0.701595 0.0998398 0.0771344
0.730037 0.144457 0.0940871
0.019028 0.176837 0.0902266
0.0189517 0.175189 0.068101
0.136782 0.183932 0.0498207
0.394827 0.13785 0.0636606
0.531258 0.146044 0.0707713
0.667002 0.172763 0.090425
0.745846 0.207584 0.104082
0.752087 0.231479 0.110704
0.761242 0.269764 0.121782
0.0365301 0.376806 0.193591
0.033753 0.375738 0.154681
0.114168 0.356893 0.0928664
0.324361 0.369223 0.0670481
0.564767 0.37496 0.099733
0.705898 0.359823 0.154711
0.77229 0.377752 0.171817
0.773785 0.3888 0.179873
0.775814 0.412131 0.194064
0.0817578 0.5691 0.349065
0.0717937 0.567956 0.321447
0.106783 0.557504 0.251148
0.310643 0.509392 0.133349
0.496025 0.535225 0.126955
0.707347 0.559304 0.16463
0.791806 0.587777 0.217914
0.79382 0.588281 0.22063
0.792493 0.575021 0.220295
0.160021 0.747539 0.507042
0.14995 0.748577 0.491508
0.13933 0.748012 0.451621
0.229297 0.702022 0.338598
0.492958 0.657969 0.239506
0.638453 0.687587 0.230076
0.784619 0.710445 0.274891
0.807614 0.717159 0.295094
0.807767 0.706279 0.28719
0.248051 0.854749 0.627146
0.248386 0.853986 0.615381
0.237827 0.851957 0.585122
0.224063 0.843336 0.507927
0.440391 0.7514 0.323674
0.622324 0.758587 0.330266
0.747066 0.787762 0.346609
0.808972 0.791547 0.379324
0.808057 0.787213 0.371756
0.247089 0.861051 0.64329
0.249958 0.858442 0.629969
0.250233 0.8551 0.603113
0.231907 0.849104 0.532448
0.36553 0.78468 0.394232
0.597971 0.757885 0.343526
0.714244 0.782361 0.344274
0.806058 0.799084 0.39118
0.810498 0.800412 0.399405
0.243336 0.863218 0.650278
0.246921 0.860822 0.638178
0.25185 0.856535 0.616281
0.237049 0.8533 0.56231
0.28893 0.824704 0.466957
0.545785 0.752865 0.336461
0.668925 0.772595 0.342153
0.78172 0.794461 0.374807
0.810208 0.800351 0.39968
0.0203555 0.050248 0.200656
0.0760052 0.0345922 0.181216
0.191257 0.0308232 0.169558
0.343511 0.0279088 0.195529
0.485054 0.0395209 0.205859
0.643351 0.0636759 0.233387
0.684688 0.070634 0.226825
0.684199 0.0669261 0.196674
0.688533 0.0633097 0.130938
0.0204623 0.0603037 0.138399
0.0261387 0.0480354 0.189014
0.164691 0.0317388 0.151843
0.331945 0.0298772 0.151232
0.485374 0.0336919 0.14667
0.638086 0.0555886 0.169268
0.684153 0.0634012 0.152483
0.686 0.0604105 0.120653
0.676539 0.050309 0.0644388
0.0193332 0.164233 0.126375
0.0193484 0.159808 0.125917
0.174975 0.189227 0.179004
0.407904 0.151217 0.139696
0.549416 0.133486 0.118685
0.67277 0.117739 0.10576
0.735149 0.142229 0.108309
0.743099 0.174975 0.10782
0.754238 0.227436 0.112673
0.0234226 0.367468 0.231006
0.0246891 0.362158 0.215549
0.0333104 0.359457 0.154772
0.33196 0.369024 0.115465
0.573251 0.350973 0.154406
0.702586 0.337377 0.159533
0.772076 0.354971 0.163928
0.773373 0.369955 0.167819
0.775769 0.393698 0.182727
0.0673228 0.56083 0.377188
0.0673991 0.558968 0.364492
0.0666819 0.553033 0.313054
0.228885 0.509667 0.148409
0.489769 0.526009 0.124804
0.712535 0.5505 0.167575
0.790173 0.570596 0.219684
0.790936 0.568643 0.219165
0.791226 0.564553 0.219638
0.143969 0.740307 0.525704
0.142733 0.740887 0.516594
0.142885 0.736645 0.485267
0.151156 0.720058 0.366613
0.476524 0.651011 0.23621
0.6318 0.678904 0.225193
0.785504 0.70106 0.268528
0.807614 0.706798 0.287404
0.807416 0.694972 0.279347
0.237278 0.854643 0.645731
0.235431 0.853498 0.635248
0.240467 0.847761 0.608743
0.218967 0.841794 0.532998
0.395941 0.755215 0.335302
0.611627 0.753491 0.325811
0.74049 0.782025 0.341329
0.808576 0.787793 0.372351
0.807645 0.782406 0.364172
0.241184 0.864866 0.665156
0.241382 0.864363 0.655177
0.249607 0.858717 0.631006
0.241428 0.853223 0.569711
0.329015 0.804944 0.432532
0.585595 0.756481 0.343267
0.703441 0.780285 0.343557
0.803174 0.798428 0.389181
0.810544 0.800534 0.400458
0.238666 0.866239 0.668833
0.239826 0.865263 0.658686
0.247166 0.860685 0.638758
0.24744 0.855299 0.592844
0.252415 0.837263 0.48748
0.525917 0.752483 0.33518
0.659968 0.771084 0.341955
0.77586 0.793423 0.370657
0.810224 0.800427 0.400168
0.0393072 0.0735637 0.352575
0.100862 0.0419013 0.343679
0.21796 0.0391852 0.319066
0.345464 0.0348516 0.3122
0.492622 0.0466773 0.351476
0.642756 0.0821851 0.407263
0.684749 0.0958419 0.409445
0.683268 0.0964675 0.390173
0.683314 0.0957961 0.361501
0.019379 0.0757153 0.310353
0.0453193 0.071397 0.347494
0.184497 0.0381476 0.319402
0.334615 0.0341955 0.300832
0.480613 0.0415045 0.334661
0.638437 0.0819562 0.382635
0.683253 0.0977951 0.380636
0.683131 0.0970169 0.365316
0.685023 0.0870832 0.322606
0.0192569 0.14873 0.276448
0.0195163 0.139651 0.291829
0.130816 0.101717 0.370672
0.373602 0.092195 0.336553
0.500969 0.0697337 0.322026
0.641108 0.083299 0.322835
0.685557 0.0861677 0.308751
0.68574 0.0791028 0.271458
0.688365 0.0705882 0.201511
0.0196536 0.352865 0.291005
0.019379 0.349691 0.291035
0.0201419 0.345922 0.289906
0.400305 0.386358 0.363058
0.600793 0.349615 0.332296
0.728008 0.349676 0.312032
0.775311 0.347417 0.28307
0.773556 0.347433 0.254414
0.776074 0.363668 0.236744
0.052781 0.553582 0.419394
0.0479591 0.551217 0.414511
0.0473487 0.546059 0.394095
0.170642 0.554818 0.369619
0.505837 0.540856 0.294804
0.727275 0.547799 0.356893
0.800626 0.557626 0.356207
0.800488 0.550347 0.335561
0.795468 0.543069 0.291188
0.123796 0.732433 0.556802
0.118563 0.73312 0.552895
0.119951 0.726101 0.533639
0.135973 0.714961 0.4701
0.397452 0.662455 0.328939
0.622324 0.667201 0.266743
0.794553 0.692012 0.343984
0.81062 0.692195 0.334035
0.807919 0.676402 0.308171
0.221149 0.852644 0.674235
0.214328 0.851225 0.666285
0.213962 0.844892 0.645731
0.226123 0.831815 0.592737
0.286717 0.799207 0.44123
0.584665 0.744656 0.338918
0.731365 0.772793 0.332692
0.808072 0.780453 0.365515
0.807904 0.773617 0.356435
0.238499 0.871061 0.700511
0.234516 0.871733 0.693736
0.235569 0.868101 0.676616
0.249165 0.859022 0.632578
0.248356 0.844617 0.513802
0.542031 0.758618 0.365408
0.682383 0.775937 0.351965
0.796262 0.797009 0.385122
0.810666 0.8009 0.403113
0.236072 0.8719 0.698207
0.23473 0.871199 0.690883
0.235035 0.868544 0.676951
0.247364 0.860594 0.639979
0.237552 0.849821 0.538979
0.478157 0.757641 0.349737
0.639414 0.766964 0.346639
0.765759 0.795773 0.363302
0.810529 0.800855 0.40267
0.101778 0.0936599 0.482383
0.164141 0.0500954 0.474617
0.271534 0.0451209 0.454307
0.374258 0.0549172 0.450004
0.503502 0.0634165 0.471611
0.657389 0.0988632 0.529274
0.702327 0.112444 0.570062
0.700862 0.109392 0.562387
0.693263 0.0945144 0.512551
0.0191653 0.103044 0.452766
0.101167 0.0925765 0.478218
0.234226 0.0444953 0.458595
0.361105 0.0555886 0.446967
0.495537 0.0613718 0.463249
0.650477 0.0946822 0.517327
0.700175 0.10721 0.55819
0.697078 0.101228 0.54313
0.691508 0.0939803 0.492409
0.0193332 0.123033 0.408591
0.0193484 0.105837 0.418601
0.123461 0.0743725 0.473854
0.326894 0.0519265 0.439002
0.477867 0.0568551 0.444495
0.633173 0.0872663 0.492317
0.69279 0.0968185 0.522103
0.691478 0.0963149 0.498253
0.688975 0.0951095 0.461326
0.0192721 0.324987 0.419501
0.0192721 0.314763 0.426871
0.0193942 0.294774 0.437812
0.377417 0.264408 0.565225
0.585336 0.278355 0.534173
0.7093 0.261891 0.527214
0.75404 0.231083 0.514397
0.742138 0.194919 0.483787
0.739528 0.19585 0.439216
0.0569467 0.542596 0.476509
0.0518807 0.541146 0.477089
0.050309 0.535668 0.472877
0.175235 0.548943 0.498268
0.583368 0.558953 0.540261
0.751598 0.541451 0.525795
0.826459 0.548974 0.52047
0.823423 0.544869 0.50103
0.815213 0.539879 0.459434
0.11751 0.719722 0.595239
0.111192 0.719966 0.594018
0.107698 0.713756 0.583108
0.107988 0.703609 0.556634
0.444236 0.704295 0.552712
0.658625 0.695735 0.490059
0.816007 0.707103 0.542855
0.838163 0.710292 0.53669
0.832334 0.693111 0.505806
0.21767 0.840925 0.702235
0.205005 0.840864 0.698497
0.197177 0.837736 0.687144
0.186694 0.830091 0.660304
0.314611 0.806928 0.59382
0.574136 0.781277 0.530343
0.73315 0.782727 0.497566
0.834211 0.797223 0.547005
0.832135 0.78761 0.529305
0.2551 0.870848 0.738506
0.245151 0.874632 0.737118
0.239261 0.87512 0.728298
0.232837 0.874372 0.707408
0.270069 0.858106 0.638041
0.520455 0.817975 0.555535
0.676295 0.803662 0.517983
0.797223 0.812222 0.492393
0.820325 0.815366 0.497765
0.246738 0.873579 0.735714
0.241978 0.874464 0.731579
0.237446 0.875074 0.723033
0.232639 0.874205 0.702998
0.252644 0.860655 0.64152
0.381735 0.823987 0.517296
0.606119 0.786923 0.471138
0.743175 0.796094 0.424018
0.814481 0.807431 0.45127
0.186343 0.0787213 0.597009
0.244541 0.0617075 0.590417
0.328573 0.060029 0.582666
0.432364 0.0805524 0.587076
0.535012 0.0906386 0.600397
0.66804 0.11136 0.641978
0.709712 0.1337 0.669108
0.710353 0.129076 0.680964
0.711818 0.132876 0.671061
0.106294 0.129 0.594415
0.184817 0.0793622 0.594354
0.296437 0.0601968 0.584482
0.415885 0.075761 0.582727
0.527047 0.090425 0.596689
0.661967 0.109789 0.63386
0.709834 0.137285 0.660075
0.71017 0.133135 0.671046
0.712291 0.139208 0.656855
0.019379 0.130312 0.526589
0.0191958 0.129076 0.556268
0.199176 0.0624094 0.58735
0.3776 0.0656901 0.574166
0.507713 0.0884413 0.585763
0.647654 0.106584 0.616815
0.715251 0.135302 0.646159
0.709392 0.142504 0.648676
0.718257 0.139925 0.633539
0.0195468 0.306874 0.534722
0.0194705 0.293736 0.539452
0.0195163 0.260822 0.545876
0.343145 0.144701 0.653376
0.542596 0.182315 0.641474
0.678248 0.168948 0.640497
0.733623 0.174624 0.636271
0.730022 0.163333 0.633463
0.709163 0.120623 0.59118
0.0205844 0.528145 0.574121
0.0204776 0.523613 0.576944
0.0206149 0.51342 0.581674
0.0690318 0.51725 0.630991
0.580346 0.478843 0.724743
0.74818 0.495079 0.693675
0.819272 0.493065 0.683253
0.819608 0.477714 0.666117
0.809949 0.436072 0.626749
0.126452 0.71075 0.644572
0.121004 0.709453 0.643763
0.11812 0.70396 0.638666
0.115969 0.693858 0.630182
0.446967 0.700282 0.657588
0.72195 0.703258 0.685069
0.833814 0.697887 0.682795
0.864607 0.691173 0.674571
0.859098 0.6795 0.645045
0.220264 0.831128 0.733684
0.206668 0.831937 0.73312
0.195285 0.827268 0.723659
0.183993 0.818982 0.706737
0.394919 0.802655 0.69131
0.642985 0.806851 0.701152
0.780789 0.805829 0.658564
0.869047 0.809689 0.690929
0.866209 0.799588 0.67454
0.287984 0.875486 0.779263
0.275303 0.878965 0.779049
0.264607 0.879301 0.773129
0.253971 0.87744 0.760739
0.276265 0.872328 0.733562
0.585199 0.858656 0.7243
0.723171 0.852949 0.693858
0.826276 0.853773 0.667796
0.858717 0.85539 0.689891
0.278141 0.875746 0.773266
0.265812 0.878416 0.772396
0.257771 0.878569 0.766445
0.250202 0.876707 0.754345
0.245777 0.874098 0.726299
0.477012 0.855085 0.690929
0.65481 0.848753 0.664302
0.775311 0.843656 0.632715
0.85037 0.854139 0.663005
0.286336 0.0776379 0.678264
0.328359 0.0788281 0.67924
0.394171 0.080293 0.680034
0.485237 0.0966964 0.688075
0.595789 0.133867 0.712276
0.685252 0.122576 0.730846
0.716716 0.133257 0.751827
0.717601 0.135348 0.759106
0.717723 0.135302 0.758846
0.229496 0.0902876 0.678523
0.283024 0.0774853 0.676707
0.367956 0.0797742 0.678813
0.46746 0.0914168 0.684077
0.585809 0.133379 0.70901
0.679942 0.120928 0.727062
0.716045 0.132097 0.747158
0.716991 0.134096 0.755337
0.717693 0.13492 0.757809
0.0571603 0.159976 0.653681
0.184833 0.149081 0.67744
0.29247 0.0764477 0.67245
0.429541 0.0824903 0.675624
0.563317 0.126772 0.698665
0.666133 0.118929 0.717296
0.715587 0.130694 0.737011
0.716014 0.131853 0.743999
0.716442 0.131609 0.744518
0.0195926 0.273182 0.628305
0.0195315 0.251926 0.634379
0.01944 0.206332 0.641917
0.337621 0.0888228 0.683635
0.519478 0.11632 0.689265
0.648585 0.127565 0.709316
0.716854 0.130571 0.719112
0.718242 0.133043 0.723125
0.718959 0.132372 0.72166
0.0204471 0.524193 0.666758
0.0205234 0.516579 0.668772
0.0206912 0.504036 0.674769
0.0722667 0.5075 0.733379
0.581979 0.425834 0.809064
0.737408 0.446326 0.791577
0.815518 0.449607 0.786618
0.81413 0.437613 0.780346
0.80824 0.407614 0.762982
0.049546 0.699992 0.711452
0.0429389 0.6963 0.71191
0.0339513 0.688792 0.710475
0.0209964 0.674403 0.710964
0.401846 0.670481 0.765728
0.729122 0.652415 0.817746
0.836057 0.665873 0.800855
0.86598 0.66247 0.792462
0.861219 0.633906 0.768948
0.222492 0.824918 0.767163
0.211994 0.822828 0.765026
0.205234 0.817945 0.759213
0.197147 0.809369 0.7505
0.375647 0.798367 0.749722
0.644739 0.803861 0.772641
0.814221 0.806943 0.790463
0.884764 0.801022 0.788479
0.884657 0.787457 0.772686
0.357855 0.873594 0.801709
0.336339 0.876783 0.802472
0.322118 0.875364 0.798032
0.302586 0.872862 0.79118
0.350561 0.862989 0.777249
0.619669 0.862745 0.790051
0.766323 0.869352 0.800229
0.85304 0.876356 0.785153
0.88806 0.868132 0.792187
0.350362 0.87541 0.800809
0.337636 0.878264 0.800931
0.326894 0.878828 0.797864
0.306157 0.878737 0.791821
0.2963 0.878233 0.778943
0.529488 0.870695 0.776791
0.704219 0.881498 0.789197
0.812467 0.886641 0.786618
0.883894 0.897002 0.792142
0.344152 0.0845655 0.703014
0.377676 0.0853742 0.705028
0.430747 0.0858015 0.705165
0.516793 0.108614 0.718441
0.621851 0.14374 0.740444
0.704616 0.136172 0.75819
0.717861 0.135241 0.75967
0.71783 0.135241 0.75964
0.717723 0.135302 0.759274
0.298253 0.0828717 0.699855
0.343832 0.0845502 0.703075
0.40798 0.0853895 0.704936
0.49929 0.101869 0.71458
0.613657 0.144686 0.739391
0.699763 0.136721 0.756832
0.717906 0.135256 0.759731
0.717861 0.135241 0.75967
0.717845 0.135256 0.759548
0.206622 0.15285 0.698817
0.242695 0.0803082 0.694621
0.351888 0.084535 0.703136
0.46482 0.0917067 0.708202
0.593744 0.140185 0.735195
0.688228 0.137865 0.753735
0.720211 0.138643 0.762219
0.719905 0.138125 0.761898
0.719081 0.13669 0.760845
0.0701305 0.249363 0.717815
0.0797131 0.222522 0.70869
0.1019 0.17586 0.688685
0.376913 0.085359 0.705058
0.54165 0.118547 0.724483
0.665522 0.142519 0.749584
0.726497 0.147295 0.768185
0.727703 0.149126 0.769467
0.727398 0.148623 0.769162
0.0206912 0.529183 0.734051
0.0205692 0.522744 0.73875
0.020676 0.510506 0.747311
0.167285 0.491279 0.793805
0.599985 0.385214 0.832197
0.741466 0.408865 0.826307
0.804059 0.412711 0.828916
0.800549 0.397864 0.825315
0.793256 0.364935 0.820768
0.0296025 0.708553 0.765972
0.0254673 0.704234 0.76585
0.0213626 0.695674 0.765377
0.0211337 0.679057 0.768322
0.412695 0.663081 0.824781
0.746273 0.620417 0.876387
0.836896 0.634134 0.865797
0.861662 0.632227 0.859907
0.857374 0.609689 0.852735
0.226383 0.817243 0.804425
0.216892 0.813275 0.802579
0.200519 0.807248 0.800885
0.176532 0.797147 0.798489
0.368429 0.78172 0.807538
0.620676 0.782971 0.830869
0.820539 0.775158 0.869978
0.8851 0.779583 0.856458
0.885893 0.76704 0.847929
0.364584 0.8748 0.823804
0.345953 0.874342 0.822156
0.329458 0.87158 0.819425
0.311498 0.868315 0.815549
0.34815 0.859983 0.809888
0.611399 0.860548 0.822538
0.770687 0.867231 0.838392
0.876005 0.878614 0.857771
0.904601 0.871611 0.854871
0.389944 0.879942 0.823575
0.383139 0.881209 0.82266
0.378088 0.88098 0.819837
0.370626 0.880522 0.815839
0.381689 0.878096 0.808972
0.566842 0.879606 0.815564
0.731502 0.892912 0.834241
0.839551 0.913146 0.860792
0.908614 0.923751 0.865309
0.361379 0.0848707 0.703853
0.391272 0.0857099 0.705409
0.439139 0.0861982 0.705104
0.523476 0.111025 0.719326
0.62565 0.143313 0.740917
0.70808 0.135729 0.758846
0.717861 0.135241 0.75967
0.717861 0.135225 0.759686
0.717845 0.135241 0.759655
0.32192 0.083772 0.701396
0.36083 0.0848554 0.703807
0.417395 0.0856336 0.705104
0.506905 0.104631 0.716808
0.617777 0.144167 0.740017
0.702968 0.136507 0.757824
0.717861 0.135225 0.759686
0.717876 0.135225 0.759701
0.717876 0.135225 0.759701
0.23183 0.124025 0.700755
0.276738 0.0812695 0.69749
0.36762 0.0849165 0.704204
0.473899 0.093904 0.709484
0.599023 0.142519 0.736965
0.691279 0.137591 0.754574
0.71783 0.135241 0.75964
0.720378 0.138827 0.762463
0.719387 0.137179 0.761273
0.0800183 0.224353 0.709453
0.086305 0.198322 0.697963
0.157671 0.161349 0.693904
0.390082 0.0858473 0.705608
0.546746 0.120348 0.725505
0.664393 0.139223 0.747158
0.723217 0.142702 0.765515
0.727031 0.148165 0.768734
0.726589 0.147326 0.768261
0.0205081 0.516121 0.751781
0.0206149 0.505867 0.751537
0.0207675 0.486839 0.749691
0.170459 0.451621 0.79028
0.585061 0.336233 0.821561
0.725216 0.363256 0.816297
0.790692 0.365652 0.820203
0.789364 0.347936 0.817487
0.780331 0.306371 0.812039
0.032517 0.706569 0.782467
0.0281834 0.700938 0.78146
0.0223697 0.687007 0.776944
0.0212863 0.662943 0.771267
0.407843 0.642527 0.826276
0.744625 0.593698 0.873869
0.831876 0.606714 0.867048
0.854917 0.605234 0.86598
0.849012 0.581064 0.86096
0.263798 0.81033 0.816663
0.254871 0.805859 0.816205
0.237934 0.798627 0.813794
0.206531 0.787457 0.81088
0.348867 0.771984 0.816602
0.61178 0.766415 0.847608
0.826169 0.753231 0.891554
0.882292 0.756481 0.884428
0.88246 0.743816 0.884398
0.369116 0.870375 0.831617
0.361883 0.867582 0.831235
0.353872 0.862974 0.83006
0.345449 0.856718 0.829007
0.377707 0.84448 0.827741
0.604669 0.84799 0.845319
0.754314 0.852049 0.860243
0.880018 0.855406 0.89366
0.902419 0.85275 0.89308
0.40296 0.881636 0.833417
0.402792 0.881712 0.833387
0.402792 0.881712 0.833387
0.402792 0.881712 0.833387
0.419211 0.881621 0.8336
0.567651 0.885084 0.841291
0.726421 0.898161 0.858732
0.84567 0.918151 0.89044
0.918608 0.93196 0.910994
