bundles/resolve-cinematic-luts/Phantom Luts/Ursa G2 Phntm Film LUTs - V1/Gen4/White Balance Offset (Magenta Boost)/Ursa Vision Gen4-Legacy WBO.cube
TITLE "Generated by Resolve"
LUT_3D_SIZE 33
0.0235904 0.0331731 0.0244907
0.0235904 0.0331731 0.0244907
0.0254978 0.033814 0.024506
0.0308995 0.0359503 0.024445
0.0430304 0.0370336 0.0246586
0.0559854 0.0381018 0.0265965
0.0727703 0.0392004 0.0285039
0.0926528 0.0396277 0.0286107
0.116823 0.0408179 0.0295872
0.146715 0.042237 0.0302281
0.184894 0.042237 0.0294652
0.222538 0.0429694 0.0300298
0.25835 0.0438392 0.0303807
0.294759 0.0449226 0.0317388
0.331273 0.0464027 0.0329747
0.366781 0.0477913 0.0347601
0.405203 0.05066 0.0364996
0.443793 0.0541238 0.0392157
0.483909 0.0575875 0.0418097
0.528084 0.0624857 0.0470893
0.576272 0.0682536 0.0532387
0.621378 0.0736553 0.0592203
0.654521 0.0777447 0.0635843
0.671977 0.080415 0.0646067
0.673136 0.0787366 0.0639963
0.673976 0.079469 0.06392
0.675303 0.0810407 0.0644999
0.676738 0.0825666 0.0649424
0.678325 0.0841688 0.0657969
0.680873 0.0860914 0.0665904
0.683391 0.0877394 0.066865
0.685802 0.0894331 0.0670024
0.688502 0.0919814 0.0680858
0.0235599 0.0331731 0.0244602
0.0235752 0.0331731 0.0244755
0.0244602 0.0335851 0.024506
0.0310369 0.0370184 0.0250401
0.042771 0.0388495 0.0243076
0.0559091 0.0394446 0.0273442
0.0737011 0.040238 0.0293431
0.094316 0.0404364 0.0293584
0.118807 0.0410163 0.0296635
0.149538 0.0429084 0.0302129
0.18706 0.0424811 0.0289769
0.222797 0.0431067 0.0297856
0.259098 0.0442054 0.0302739
0.294957 0.0453803 0.0317235
0.330419 0.0468299 0.0326696
0.366644 0.0481727 0.0345617
0.404761 0.0511635 0.0361334
0.444144 0.0552834 0.0392309
0.484489 0.0593729 0.0420233
0.529046 0.064683 0.0478981
0.577676 0.0700084 0.0539406
0.62324 0.076051 0.0601663
0.656199 0.0799725 0.0643626
0.673518 0.0828412 0.0653849
0.675029 0.080766 0.0643626
0.676341 0.0821241 0.064744
0.677577 0.08365 0.0654765
0.678859 0.0855421 0.0664073
0.680995 0.0874037 0.0672618
0.682612 0.0886854 0.0670939
0.685206 0.0904402 0.0673533
0.687999 0.0927443 0.068452
0.691936 0.095964 0.0699626
0.0244755 0.0379644 0.0269169
0.0239719 0.0363165 0.0252079
0.0242924 0.0352026 0.0248875
0.0293889 0.0391394 0.0268101
0.0358892 0.0420386 0.0263981
0.0543069 0.0415198 0.0279698
0.0731975 0.0428626 0.0299229
0.093843 0.0432593 0.0307469
0.118288 0.0437934 0.0310063
0.147036 0.0442664 0.0302129
0.183871 0.0430762 0.0287022
0.221439 0.0440528 0.0300908
0.259297 0.0461585 0.0310979
0.294423 0.0463264 0.0312047
0.328801 0.0472877 0.0324407
0.364553 0.0487221 0.0334173
0.403403 0.051667 0.0357671
0.443976 0.0560769 0.0388495
0.484337 0.0607919 0.0423743
0.529351 0.0669566 0.0483101
0.57818 0.0723735 0.0546273
0.622827 0.0775311 0.0604562
0.656962 0.0824292 0.0647746
0.676371 0.0859236 0.0668345
0.680873 0.0879683 0.0673075
0.678569 0.0851606 0.0662089
0.68014 0.0869764 0.0671855
0.681025 0.0885023 0.0673686
0.682521 0.0899367 0.0675669
0.685008 0.0915847 0.0680858
0.6878 0.0939651 0.0691539
0.691463 0.0971237 0.0703746
0.694469 0.0998703 0.0711833
0.0273289 0.0496681 0.0344854
0.027451 0.0490272 0.0338598
0.0285344 0.048127 0.0306554
0.0323796 0.0489662 0.0309911
0.0383459 0.0509499 0.0325322
0.0570077 0.0502785 0.0281071
0.0737469 0.0482185 0.0307317
0.093492 0.0475776 0.0323033
0.117815 0.0478218 0.0323644
0.147631 0.0480201 0.032166
0.185321 0.0473945 0.031342
0.222187 0.047776 0.031281
0.25835 0.0474556 0.0307012
0.29221 0.0470436 0.0307012
0.330282 0.0490883 0.0332036
0.366705 0.0521859 0.0345769
0.404288 0.0544289 0.0358587
0.442847 0.0567483 0.0386664
0.484352 0.061799 0.0424964
0.532616 0.0712291 0.0496986
0.580285 0.0765698 0.0554208
0.623774 0.0801556 0.0614481
0.657176 0.084123 0.064622
0.677165 0.0885023 0.0676432
0.683299 0.0916457 0.0687419
0.68101 0.0884565 0.0673686
0.681819 0.0897536 0.0675212
0.683223 0.0914778 0.0682231
0.685496 0.0934615 0.068925
0.688975 0.0968795 0.0705425
0.69221 0.100191 0.071458
0.695262 0.102937 0.0728008
0.698161 0.104494 0.0734722
0.0293736 0.0645457 0.0401007
0.0295415 0.0639811 0.0394293
0.0298772 0.0622263 0.0369726
0.0345464 0.0613718 0.0356756
0.0396429 0.063508 0.0357519
0.0530861 0.064683 0.03299
0.0808576 0.0608225 0.0343786
0.100084 0.0580301 0.0361944
0.122347 0.0561532 0.0361334
0.151736 0.0543526 0.0345769
0.188144 0.0531624 0.0329595
0.224704 0.0529793 0.0327153
0.261891 0.0524453 0.0328679
0.29723 0.0525978 0.0333867
0.333028 0.0542916 0.034226
0.368688 0.055787 0.0354162
0.406485 0.0577554 0.0365606
0.446632 0.062562 0.0400549
0.491402 0.0682231 0.045243
0.535698 0.0753796 0.0511177
0.580987 0.0801862 0.0558633
0.62324 0.0831922 0.0612497
0.662867 0.0928664 0.0691997
0.683635 0.0975967 0.0715648
0.687678 0.0973526 0.0709544
0.687663 0.0974594 0.0707103
0.685496 0.0940108 0.0691997
0.688411 0.0989242 0.0709239
0.693004 0.104494 0.0737621
0.69546 0.106981 0.0750286
0.698283 0.108003 0.0755932
0.699596 0.108248 0.0756085
0.706981 0.115496 0.0794385
0.0309911 0.0817731 0.0464179
0.0312352 0.081651 0.045304
0.032166 0.0803845 0.0432746
0.0370794 0.0790875 0.04094
0.042298 0.0795911 0.0405737
0.049897 0.0829023 0.0407721
0.0731975 0.0820935 0.0341955
0.103929 0.0762951 0.036286
0.129137 0.0697948 0.039826
0.162951 0.0651865 0.0398413
0.197253 0.0620737 0.0377508
0.230579 0.0599222 0.0362707
0.267369 0.0597696 0.0361639
0.302586 0.0603494 0.0368048
0.338857 0.061738 0.0375219
0.376791 0.0644083 0.0391546
0.414847 0.066865 0.0402533
0.454826 0.0706493 0.0432746
0.497856 0.0771344 0.0482338
0.542351 0.0843671 0.0540627
0.593423 0.0914778 0.0626078
0.637705 0.0986343 0.0688945
0.670314 0.103105 0.0725567
0.689006 0.106279 0.0748913
0.695186 0.108644 0.0762493
0.697398 0.110857 0.0775769
0.69604 0.109392 0.0766308
0.69926 0.112306 0.0783093
0.701137 0.114199 0.0792859
0.703548 0.11635 0.080293
0.707973 0.120256 0.0818647
0.709834 0.126162 0.082002
0.715602 0.131945 0.0855421
0.0327916 0.0991989 0.0535134
0.0333104 0.0997482 0.0518044
0.0331884 0.0982681 0.049134
0.0360876 0.0966354 0.0477302
0.0456397 0.0961776 0.0446479
0.0529335 0.0987259 0.0460517
0.0627146 0.101015 0.0439765
0.0938277 0.0971542 0.0358129
0.131411 0.0915084 0.0371557
0.167437 0.0827497 0.0414893
0.207507 0.0748455 0.042649
0.244953 0.0725414 0.0416266
0.279561 0.0715496 0.0414282
0.311498 0.0716411 0.0409247
0.348531 0.0732433 0.0423133
0.385992 0.0760357 0.0442054
0.426902 0.0799725 0.0465553
0.469627 0.0854963 0.0507057
0.51368 0.0929732 0.056611
0.558373 0.0995804 0.0624552
0.606806 0.106355 0.0683757
0.648615 0.112627 0.0731823
0.680476 0.119646 0.0785534
0.700572 0.124392 0.0811933
0.705852 0.125902 0.0824598
0.707897 0.127138 0.084062
0.709194 0.129503 0.0849622
0.708614 0.128374 0.084535
0.710292 0.13196 0.0860304
0.713024 0.135515 0.0878309
0.716426 0.139712 0.0891737
0.719158 0.144152 0.0914321
0.723186 0.150332 0.0939803
0.0353246 0.119783 0.0628061
0.0361181 0.120836 0.0595865
0.0371099 0.119966 0.0580758
0.0389258 0.117662 0.0555734
0.0421912 0.115236 0.0508888
0.0559854 0.116976 0.0495766
0.0651255 0.11989 0.049958
0.0758984 0.122896 0.0475471
0.119142 0.116564 0.0364843
0.169802 0.108827 0.0396124
0.210712 0.0988327 0.0451514
0.253254 0.0902724 0.0482795
0.294408 0.0879225 0.0478523
0.330877 0.0879225 0.0484779
0.364477 0.0896925 0.049836
0.400259 0.0929427 0.0526589
0.442435 0.0982376 0.0563363
0.485985 0.104784 0.0617075
0.52929 0.111345 0.0669871
0.575113 0.118349 0.0724193
0.622232 0.125185 0.0785229
0.662913 0.131548 0.0834058
0.69337 0.136782 0.0878157
0.711635 0.14287 0.0910811
0.718029 0.146197 0.0928969
0.719066 0.149233 0.0941329
0.720043 0.151522 0.095201
0.721721 0.155245 0.0966659
0.72163 0.154086 0.0961929
0.723507 0.157702 0.0974441
0.726116 0.161913 0.0997177
0.727642 0.166934 0.10135
0.729961 0.172808 0.10277
0.0369573 0.145052 0.0721752
0.0380255 0.146197 0.0687266
0.0397498 0.146365 0.066331
0.0415961 0.144289 0.0641642
0.0443275 0.140749 0.0609445
0.0529946 0.138506 0.0538949
0.0674144 0.142947 0.0548562
0.0786908 0.148165 0.0547646
0.0915694 0.152361 0.0514839
0.154086 0.143236 0.0379034
0.216373 0.134234 0.0435187
0.260609 0.125231 0.0516823
0.305852 0.115801 0.0584878
0.349172 0.113832 0.0606394
0.389838 0.116808 0.0643168
0.428473 0.12047 0.0675364
0.465675 0.125689 0.0716716
0.503365 0.129107 0.0739147
0.545068 0.133867 0.0782177
0.587701 0.140154 0.0829023
0.633417 0.147707 0.0885939
0.674403 0.154498 0.0941024
0.703319 0.161517 0.0981003
0.722377 0.168566 0.101961
0.72697 0.172381 0.103136
0.727031 0.174395 0.103441
0.727428 0.176989 0.104341
0.728069 0.181338 0.105715
0.728542 0.184894 0.106569
0.729259 0.184421 0.106569
0.729961 0.18819 0.107134
0.732341 0.193957 0.109316
0.733349 0.198627 0.110033
0.0364843 0.177615 0.0810712
0.0376593 0.178592 0.077348
0.0409552 0.179736 0.074052
0.0432288 0.177874 0.0717784
0.0458381 0.175311 0.0686046
0.0487221 0.171466 0.0641794
0.0666972 0.172045 0.0569924
0.0792859 0.178973 0.058732
0.0935378 0.187335 0.0598917
0.112627 0.195102 0.0564279
0.202518 0.185077 0.040528
0.270039 0.176944 0.0508888
0.318334 0.170459 0.0627756
0.362936 0.160754 0.0753796
0.408331 0.154803 0.0803998
0.448188 0.154314 0.0827497
0.48716 0.156252 0.0853285
0.524071 0.159045 0.0872206
0.559869 0.163531 0.090547
0.599222 0.167651 0.0939193
0.64184 0.174151 0.0977188
0.679728 0.181857 0.102388
0.708507 0.189807 0.106554
0.726085 0.197223 0.110079
0.730617 0.201282 0.111131
0.731487 0.20415 0.111894
0.731472 0.206668 0.112154
0.731823 0.20972 0.113558
0.732662 0.214435 0.115282
0.733272 0.217853 0.116686
0.733684 0.217655 0.11664
0.735149 0.222492 0.117723
0.737285 0.227131 0.119203
0.0426032 0.220523 0.0995499
0.0442206 0.221271 0.0959487
0.0483101 0.222095 0.0925154
0.0519722 0.223041 0.0897841
0.0547341 0.219852 0.0861219
0.0584726 0.216388 0.0811475
0.0620279 0.212055 0.0736553
0.0869917 0.218372 0.0692149
0.101991 0.228641 0.0739452
0.12108 0.238834 0.0766461
0.149279 0.246357 0.0691997
0.252934 0.231464 0.0457771
0.323522 0.222141 0.0563973
0.370077 0.216388 0.0703899
0.411475 0.209247 0.0814221
0.453071 0.201236 0.0931563
0.496681 0.195819 0.0953078
0.536309 0.196658 0.0977493
0.575311 0.198886 0.100999
0.613794 0.202731 0.103868
0.650843 0.208331 0.107897
0.686122 0.214374 0.111925
0.712459 0.220661 0.116442
0.729763 0.228183 0.119783
0.734646 0.232349 0.121584
0.73579 0.235431 0.123323
0.735744 0.239094 0.123888
0.7364 0.241642 0.125017
0.73695 0.244923 0.126024
0.737682 0.248814 0.127214
0.738582 0.252277 0.128588
0.739574 0.25275 0.12845
0.74136 0.257267 0.130236
0.0509194 0.269703 0.123354
0.0530251 0.270176 0.119356
0.0570077 0.271031 0.115633
0.0632334 0.271946 0.111223
0.0666056 0.27068 0.108156
0.0707866 0.267735 0.103395
0.076173 0.264424 0.0974289
0.0842298 0.261204 0.0865339
0.110262 0.27071 0.0853132
0.128496 0.281285 0.0908064
0.152422 0.290074 0.0916915
0.194293 0.296239 0.0795758
0.305074 0.27985 0.0509041
0.373892 0.270924 0.0605478
0.422492 0.264973 0.0790723
0.460548 0.259632 0.0901045
0.501289 0.252354 0.102785
0.544305 0.24445 0.11397
0.586084 0.242008 0.116915
0.626596 0.24332 0.119478
0.666362 0.246647 0.122667
0.696437 0.251987 0.12694
0.719326 0.25803 0.130678
0.734325 0.263371 0.133211
0.738872 0.265415 0.133913
0.740093 0.268482 0.13521
0.739879 0.270909 0.135821
0.740826 0.27396 0.137804
0.741253 0.277501 0.139361
0.74197 0.28101 0.141024
0.742763 0.284749 0.142733
0.74313 0.285664 0.142855
0.745068 0.28864 0.144442
0.0589609 0.319097 0.151492
0.0622568 0.32015 0.14728
0.0661021 0.32076 0.14287
0.0718242 0.321675 0.13785
0.0787518 0.32314 0.134646
0.0838636 0.320089 0.12903
0.0882582 0.317143 0.121889
0.094667 0.313161 0.113207
0.112154 0.313359 0.100145
0.137987 0.323735 0.103548
0.158785 0.332525 0.107485
0.192218 0.340063 0.104158
0.239216 0.345296 0.0883345
0.35288 0.328222 0.0588846
0.42237 0.319829 0.0636149
0.470436 0.312703 0.0862745
0.510002 0.309483 0.100664
0.548852 0.304768 0.114031
0.588556 0.29807 0.130266
0.63183 0.290806 0.139467
0.672496 0.291279 0.142992
0.70515 0.293156 0.146456
0.727199 0.298314 0.150713
0.7402 0.303716 0.153674
0.743679 0.307301 0.155245
0.744259 0.307164 0.154833
0.744259 0.306294 0.154314
0.744656 0.307942 0.155489
0.744167 0.310918 0.156344
0.745129 0.314153 0.158572
0.746136 0.317906 0.160678
0.747433 0.321141 0.162936
0.748592 0.321294 0.16289
0.0687572 0.368414 0.187991
0.0710002 0.368933 0.183307
0.0751202 0.369238 0.17734
0.0809033 0.369802 0.17145
0.0873426 0.370123 0.164462
0.0945144 0.370367 0.158785
0.100694 0.367407 0.151598
0.108614 0.364767 0.143496
0.118914 0.361379 0.130663
0.140597 0.364904 0.117525
0.170367 0.373175 0.12079
0.196597 0.380743 0.122744
0.232425 0.389395 0.116777
0.286946 0.393515 0.100786
0.399908 0.376059 0.0680247
0.469795 0.367483 0.0667582
0.51841 0.360372 0.0946517
0.558648 0.357626 0.113115
0.594842 0.354589 0.127672
0.632578 0.349706 0.143297
0.672572 0.344152 0.165118
0.707301 0.341665 0.170932
0.730739 0.344411 0.175647
0.744228 0.348058 0.181674
0.747951 0.35198 0.182132
0.748516 0.352148 0.182101
0.748608 0.35108 0.181872
0.748577 0.350027 0.181598
0.74905 0.349462 0.181765
0.748913 0.350912 0.182208
0.748989 0.353872 0.183505
0.750362 0.356741 0.186603
0.751186 0.359548 0.18851
0.0823224 0.416968 0.225406
0.0832685 0.417685 0.220905
0.0871138 0.417533 0.214817
0.0915236 0.417502 0.209293
0.097734 0.418555 0.204303
0.106508 0.419013 0.196231
0.114061 0.417411 0.188663
0.123751 0.415106 0.180392
0.133623 0.411902 0.168292
0.147112 0.409201 0.148013
0.178714 0.413565 0.136385
0.207019 0.421317 0.140948
0.235569 0.429603 0.14136
0.274846 0.437751 0.130877
0.333898 0.440589 0.113893
0.44654 0.422843 0.0808728
0.516991 0.414862 0.0742962
0.564599 0.407462 0.103502
0.604746 0.405158 0.126452
0.639719 0.404059 0.145266
0.676081 0.401266 0.162356
0.708812 0.398001 0.180163
0.732113 0.397528 0.194278
0.745266 0.399908 0.203174
0.749981 0.404379 0.205768
0.750622 0.406409 0.205173
0.750561 0.406287 0.205035
0.75053 0.405814 0.205081
0.750408 0.404868 0.205127
0.75021 0.403693 0.205264
0.749996 0.40087 0.205188
0.750637 0.403098 0.205234
0.751431 0.405447 0.204807
0.0956893 0.465522 0.265049
0.09691 0.465873 0.260227
0.101137 0.466331 0.255314
0.104128 0.466606 0.250126
0.109895 0.466285 0.243183
0.118105 0.466163 0.234974
0.128069 0.466438 0.22591
0.139223 0.463142 0.217426
0.148852 0.459968 0.207843
0.159609 0.456291 0.192584
0.179675 0.454124 0.164874
0.218143 0.46128 0.15845
0.244739 0.468711 0.165835
0.276356 0.476921 0.164431
0.318166 0.485054 0.147463
0.382467 0.487114 0.131258
0.492744 0.469139 0.0976577
0.561044 0.461418 0.0870985
0.608469 0.455039 0.11548
0.648066 0.453132 0.141756
0.684459 0.452476 0.165713
0.713436 0.452491 0.182788
0.736675 0.453468 0.196216
0.752102 0.455116 0.203693
0.758083 0.458671 0.207889
0.75906 0.461707 0.208713
0.759213 0.462181 0.208545
0.759182 0.461631 0.208331
0.759075 0.460502 0.208087
0.758862 0.458747 0.207858
0.758892 0.456306 0.207752
0.758267 0.452628 0.20705
0.75819 0.449943 0.206455
0.109987 0.514305 0.30779
0.11107 0.515084 0.303334
0.112154 0.515373 0.298024
0.115099 0.515572 0.292836
0.11986 0.515114 0.28658
0.127367 0.514382 0.277699
0.139651 0.514153 0.268467
0.150896 0.512444 0.25774
0.163592 0.508293 0.247272
0.176989 0.503731 0.234333
0.191531 0.500267 0.216144
0.214466 0.499931 0.186481
0.255192 0.508186 0.188632
0.284123 0.516152 0.196094
0.31812 0.524483 0.195193
0.360449 0.533043 0.173831
0.429603 0.534203 0.152041
0.534569 0.517494 0.118578
0.602655 0.510201 0.100755
0.650629 0.504204 0.129046
0.6907 0.502647 0.156786
0.724056 0.501656 0.189288
0.746838 0.504326 0.203601
0.761898 0.507759 0.212116
0.769223 0.511086 0.216907
0.771725 0.514244 0.219348
0.772 0.514702 0.219577
0.771847 0.514214 0.219348
0.771725 0.513497 0.219181
0.771282 0.511894 0.218845
0.77026 0.509087 0.218036
0.769726 0.505318 0.21735
0.767865 0.498711 0.21532
0.125322 0.562799 0.35201
0.126497 0.562997 0.346609
0.127794 0.563012 0.341695
0.129107 0.563149 0.336095
0.131823 0.563409 0.329854
0.139696 0.562417 0.321996
0.14818 0.562173 0.31281
0.164431 0.561135 0.300923
0.176379 0.556786 0.28893
0.191638 0.552087 0.27686
0.206989 0.547356 0.261219
0.225895 0.545098 0.239078
0.256641 0.548867 0.215244
0.295598 0.556283 0.220218
0.325139 0.564538 0.224826
0.360388 0.573037 0.224186
0.403357 0.580072 0.201114
0.473579 0.580987 0.180316
0.572824 0.566659 0.145754
0.643259 0.558953 0.114351
0.690608 0.553155 0.145266
0.729229 0.552331 0.175906
0.756405 0.55285 0.203449
0.772351 0.554772 0.220188
0.782605 0.55874 0.225834
0.785626 0.561685 0.229953
0.786526 0.563302 0.231373
0.786404 0.5626 0.231159
0.785794 0.561639 0.230671
0.785168 0.55996 0.230289
0.78439 0.557458 0.229679
0.783764 0.55346 0.22916
0.781918 0.547005 0.227817
0.144076 0.610727 0.394903
0.144717 0.610864 0.390204
0.145937 0.611002 0.385229
0.147372 0.611093 0.380118
0.149157 0.611414 0.374105
0.151232 0.611704 0.367453
0.160586 0.610727 0.357839
0.173983 0.609323 0.34612
0.191485 0.606226 0.332799
0.203922 0.601083 0.319265
0.22005 0.596353 0.305364
0.238025 0.591959 0.28661
0.263096 0.591134 0.25864
0.303029 0.597848 0.245167
0.338415 0.605356 0.253574
0.368566 0.613581 0.256184
0.403555 0.62182 0.251591
0.445686 0.627207 0.229679
0.512215 0.628092 0.211948
0.607752 0.616388 0.178759
0.681117 0.608209 0.142962
0.728298 0.603082 0.164981
0.760494 0.602289 0.194156
0.780652 0.604715 0.211994
0.793729 0.607752 0.222232
0.798642 0.610529 0.229236
0.79884 0.61146 0.232639
0.798886 0.611505 0.233036
0.798871 0.610269 0.233555
0.798962 0.60882 0.233845
0.797696 0.605768 0.232837
0.796902 0.60061 0.232059
0.796139 0.594583 0.231403
0.166766 0.658305 0.436316
0.167941 0.658381 0.432273
0.170016 0.658656 0.427588
0.171511 0.658976 0.423468
0.173571 0.659129 0.417914
0.17525 0.659358 0.411566
0.17879 0.659846 0.403647
0.19089 0.658305 0.391897
0.206287 0.656718 0.377966
0.2206 0.651881 0.364874
0.233356 0.646052 0.349538
0.251514 0.640482 0.333196
0.273762 0.637476 0.309514
0.305119 0.639399 0.280262
0.351034 0.647715 0.2804
0.383093 0.654093 0.288975
0.411963 0.661799 0.289464
0.445274 0.668284 0.279683
0.486809 0.674922 0.261433
0.549676 0.675334 0.244907
0.642573 0.667918 0.213581
0.715389 0.656947 0.183871
0.760494 0.654261 0.189563
0.78526 0.654398 0.210666
0.80087 0.655512 0.225986
0.808652 0.658061 0.234623
0.810529 0.659144 0.24126
0.810407 0.659098 0.243793
0.810117 0.657481 0.243809
0.809094 0.654994 0.242603
0.808225 0.65185 0.241672
0.808454 0.647822 0.241245
0.806287 0.640009 0.239368
0.196963 0.706477 0.477394
0.197848 0.706844 0.473716
0.198871 0.707057 0.469764
0.199954 0.707164 0.465644
0.201923 0.707088 0.460273
0.20412 0.70721 0.454109
0.207218 0.707576 0.447257
0.210849 0.708553 0.438575
0.22359 0.706645 0.425254
0.238605 0.702586 0.410712
0.248966 0.697505 0.396109
0.266743 0.690471 0.379294
0.286778 0.684962 0.358892
0.317052 0.685374 0.33164
0.353155 0.689342 0.310262
0.396643 0.695949 0.316808
0.426001 0.700999 0.322621
0.453758 0.708568 0.323629
0.486442 0.715465 0.311315
0.526238 0.720913 0.294621
0.585428 0.722942 0.280537
0.678492 0.720455 0.25008
0.743603 0.708034 0.229252
0.783276 0.706355 0.217914
0.804334 0.707195 0.228244
0.815412 0.708461 0.239063
0.819318 0.708751 0.247395
0.818952 0.708095 0.251804
0.81883 0.706172 0.251621
0.818296 0.703639 0.251026
0.818128 0.701625 0.251041
0.817182 0.696284 0.250584
0.816434 0.689219 0.249134
0.224918 0.749813 0.517006
0.226459 0.750271 0.51339
0.227375 0.750256 0.510002
0.228351 0.750362 0.505852
0.230106 0.750225 0.501381
0.231571 0.750515 0.495796
0.23418 0.750912 0.48957
0.237476 0.751247 0.481544
0.243793 0.750118 0.469291
0.257771 0.747127 0.454398
0.269505 0.740887 0.440284
0.280537 0.734585 0.422721
0.301228 0.728237 0.404501
0.326192 0.724498 0.379507
0.363745 0.726192 0.35021
0.403922 0.731304 0.342779
0.440772 0.735805 0.351232
0.46717 0.741527 0.355749
0.492973 0.747753 0.355047
0.526818 0.755093 0.342748
0.567529 0.760586 0.327398
0.625635 0.762524 0.31487
0.715892 0.760983 0.287419
0.766339 0.752041 0.27425
0.797543 0.750393 0.26656
0.814801 0.750896 0.2636
0.822385 0.750683 0.265583
0.823682 0.750256 0.269291
0.823774 0.749477 0.268971
0.823957 0.747982 0.265751
0.82385 0.745266 0.262074
0.82385 0.741802 0.261006
0.822675 0.734386 0.25835
0.248615 0.78262 0.551705
0.249928 0.782574 0.548547
0.250645 0.782544 0.544991
0.251408 0.782361 0.541375
0.253025 0.782101 0.53669
0.254871 0.78201 0.531518
0.256336 0.782284 0.525551
0.259358 0.78201 0.517586
0.262257 0.781994 0.507332
0.271565 0.778302 0.491356
0.283635 0.773541 0.477043
0.296422 0.768032 0.46273
0.308705 0.761898 0.442802
0.332448 0.756634 0.420829
0.365103 0.755795 0.391379
0.405707 0.757702 0.369512
0.447761 0.76257 0.373129
0.478737 0.766003 0.38265
0.502663 0.77203 0.383902
0.529381 0.778378 0.380087
0.565332 0.785199 0.367559
0.6056 0.790234 0.356069
0.669902 0.791852 0.342275
0.747951 0.790036 0.317968
0.784573 0.783551 0.310414
0.806775 0.781613 0.30428
0.818936 0.780713 0.304234
0.822248 0.779843 0.307118
0.822339 0.778759 0.3075
0.822065 0.777615 0.304906
0.822446 0.775433 0.30219
0.823255 0.772396 0.298146
0.823362 0.767163 0.291356
0.266423 0.804868 0.580957
0.266926 0.804746 0.577615
0.267323 0.80441 0.57406
0.267948 0.804044 0.570199
0.26894 0.803677 0.565484
0.270619 0.803433 0.560159
0.271931 0.802838 0.553292
0.274052 0.802304 0.545724
0.277195 0.801816 0.536217
0.281285 0.800824 0.522957
0.293065 0.796735 0.50779
0.304173 0.790951 0.493034
0.317861 0.784955 0.476509
0.334707 0.780423 0.455482
0.364675 0.776593 0.429709
0.406546 0.776761 0.401785
0.448371 0.780865 0.393591
0.484733 0.784268 0.400641
0.510842 0.788281 0.406531
0.533928 0.79353 0.405921
0.562905 0.800137 0.397955
0.599237 0.806424 0.385397
0.644404 0.809277 0.373526
0.712306 0.81062 0.357641
0.772549 0.808347 0.338796
0.798474 0.802869 0.336233
0.813993 0.801099 0.334936
0.819715 0.799741 0.335866
0.820294 0.798642 0.336583
0.820645 0.79765 0.335302
0.820523 0.796414 0.332586
0.820584 0.7944 0.329137
0.821302 0.791012 0.324559
0.27538 0.81651 0.598932
0.276143 0.816434 0.596551
0.276829 0.81648 0.593133
0.277577 0.816358 0.590311
0.278904 0.81622 0.585595
0.280003 0.816068 0.581109
0.281544 0.815686 0.574807
0.283726 0.815015 0.567178
0.286473 0.814176 0.55848
0.289342 0.813321 0.545983
0.293782 0.810025 0.529976
0.305974 0.80592 0.517235
0.320333 0.801572 0.502556
0.333577 0.797253 0.483421
0.361212 0.792599 0.461158
0.398978 0.790234 0.430655
0.443885 0.791669 0.412009
0.482765 0.794766 0.414664
0.514763 0.797803 0.422873
0.537377 0.802625 0.423133
0.559838 0.807385 0.418296
0.59057 0.81326 0.405524
0.630198 0.81883 0.393179
0.684276 0.819272 0.380896
0.751797 0.820706 0.362051
0.789471 0.815305 0.353094
0.808835 0.813107 0.35407
0.817411 0.811795 0.356588
0.818799 0.811185 0.358709
0.818952 0.810636 0.357916
0.819287 0.809918 0.356344
0.819318 0.808667 0.353292
0.819455 0.806638 0.350027
0.274739 0.817197 0.603052
0.275456 0.817136 0.59997
0.276036 0.817029 0.597574
0.276722 0.817014 0.593744
0.277913 0.816892 0.590356
0.279393 0.816739 0.584924
0.280781 0.816541 0.579248
0.283452 0.816175 0.572106
0.286427 0.815717 0.563302
0.288212 0.814145 0.551476
0.291325 0.811688 0.53518
0.301564 0.808087 0.5234
0.315175 0.804898 0.511986
0.330617 0.801358 0.498726
0.348211 0.79762 0.47863
0.383337 0.794751 0.452705
0.431418 0.793973 0.427436
0.471183 0.796521 0.420722
0.505684 0.799222 0.425269
0.533883 0.803281 0.429419
0.555154 0.807919 0.426154
0.580423 0.813367 0.415335
0.614481 0.819089 0.403098
0.662043 0.8215 0.389624
0.726192 0.821851 0.373388
0.780941 0.821286 0.356893
0.803006 0.816403 0.35816
0.815183 0.814923 0.363149
0.81828 0.814984 0.367773
0.818357 0.815045 0.368887
0.818341 0.814939 0.368368
0.818357 0.814771 0.367529
0.818265 0.814481 0.366461
0.273594 0.817548 0.60589
0.274296 0.817411 0.602945
0.275227 0.817304 0.599588
0.275822 0.817197 0.596872
0.276814 0.817121 0.592599
0.278569 0.816846 0.588144
0.280079 0.816663 0.582238
0.282322 0.816373 0.57496
0.28542 0.8159 0.566552
0.287877 0.814618 0.555047
0.288426 0.812894 0.538888
0.29926 0.808621 0.525429
0.312535 0.805631 0.51487
0.32784 0.80238 0.50219
0.342321 0.799146 0.484474
