bundles/resolve-cinematic-luts/Phantom Luts/Ursa G2 Phntm Film LUTs - V1/Gen4/White Balance Offset (Magenta Boost)/Ursa EastmanRM Gen4 WBO.cube
TITLE "Generated by Resolve"
LUT_3D_SIZE 5
0.0427558 0.0358892 0.0391394
0.193256 0.0309758 0.0379339
0.448341 0.0301213 0.0477302
0.579416 0.0396277 0.0746319
0.556634 0.0521248 0.121782
0.0699321 0.170153 0.0758068
0.16556 0.190814 0.0625162
0.519387 0.130571 0.0666361
0.661799 0.123735 0.090898
0.612696 0.0972915 0.0959793
0.0542763 0.48397 0.175875
0.0824292 0.488502 0.103761
0.562554 0.612818 0.128435
0.842374 0.576547 0.225345
0.847684 0.582193 0.243275
0.220264 0.727718 0.482155
0.211124 0.722759 0.446265
0.443717 0.733623 0.267628
0.82504 0.880293 0.46041
0.899107 0.877501 0.523293
0.248585 0.756802 0.547677
0.245975 0.741802 0.480735
0.401663 0.7243 0.265553
0.810483 0.881727 0.446784
0.897322 0.887007 0.547982
0.0432288 0.0493629 0.106477
0.16968 0.0456397 0.0994278
0.4318 0.0431678 0.110567
0.590204 0.0585641 0.163958
0.572854 0.0706798 0.207538
0.0602426 0.15462 0.117571
0.176822 0.17612 0.15465
0.519707 0.111299 0.115084
0.61796 0.0701915 0.119097
0.578149 0.061326 0.131579
0.0612192 0.488762 0.273014
0.0496681 0.488807 0.221088
0.563241 0.601724 0.134997
0.852445 0.535866 0.218906
0.84686 0.540993 0.22887
0.219867 0.730343 0.520226
0.211994 0.728954 0.495171
0.354528 0.704051 0.254368
0.819715 0.874861 0.451377
0.899596 0.869947 0.512184
0.259068 0.763684 0.584115
0.261341 0.753948 0.535134
0.305913 0.708263 0.293904
0.785412 0.876493 0.438178
0.897108 0.887449 0.551431
0.0660868 0.0778515 0.298207
0.213153 0.0612497 0.330632
0.442374 0.0630961 0.299733
0.637339 0.119112 0.359823
0.62591 0.136278 0.409796
0.0414893 0.112398 0.253971
0.0958877 0.0607309 0.348959
0.44892 0.070573 0.317937
0.658183 0.112642 0.325902
0.633783 0.126635 0.375448
0.0613718 0.476112 0.381415
0.0529946 0.480537 0.411719
0.582391 0.575235 0.551019
0.881682 0.509712 0.511742
0.885374 0.502052 0.528222
0.223713 0.724849 0.571893
0.209049 0.729412 0.582895
0.341268 0.741268 0.523705
0.809491 0.861433 0.593606
0.902419 0.857801 0.667643
0.28571 0.771984 0.641535
0.276234 0.770993 0.635294
0.309102 0.768292 0.548852
0.74229 0.862715 0.616327
0.896269 0.912505 0.711833
0.159564 0.073991 0.481102
0.291829 0.0815747 0.499596
0.453574 0.0990311 0.512139
0.647288 0.164096 0.548302
0.647196 0.175769 0.577356
0.0428779 0.103029 0.400305
0.199847 0.0782025 0.498787
0.45185 0.101488 0.522118
0.660517 0.167376 0.551827
0.649042 0.17557 0.57615
0.0437476 0.416083 0.508354
0.0441291 0.405524 0.521752
0.547875 0.426886 0.76701
0.898024 0.501137 0.792554
0.894224 0.498634 0.791882
0.222126 0.707713 0.62385
0.202564 0.712245 0.643778
0.419486 0.755337 0.69662
0.823865 0.840574 0.809735
0.895888 0.834363 0.801999
0.364569 0.791836 0.699428
0.338109 0.789883 0.704723
0.457862 0.817594 0.72697
0.801511 0.903807 0.834073
0.89279 0.932723 0.86511
0.287633 0.0934157 0.533379
0.362768 0.102205 0.545083
0.504204 0.133898 0.574884
0.648173 0.189258 0.61883
0.648936 0.188678 0.617639
0.156054 0.0831311 0.51075
0.300603 0.0953078 0.535988
0.495644 0.130861 0.572702
0.650416 0.189334 0.618296
0.651423 0.193271 0.624872
0.0472419 0.395315 0.575341
0.0475624 0.37789 0.57438
0.610178 0.375784 0.816968
0.867475 0.454902 0.85713
0.869749 0.452155 0.854688
0.236088 0.700771 0.69894
0.227436 0.700984 0.702388
0.403891 0.723735 0.744305
0.832242 0.806119 0.877104
0.88835 0.821897 0.875639
0.399008 0.80087 0.732326
0.379019 0.799496 0.738827
0.48864 0.827161 0.770123
0.81622 0.913863 0.875853
0.909224 0.936919 0.894286
