bundles/resolve-cinematic-luts/Phantom Luts/Ursa G2 Phntm Film LUTs - V1/Gen4/White Balance Offset (Magenta Boost)/Ursa VisionTeal Gen4 WBO.cube
TITLE "Generated by Resolve"
LUT_3D_SIZE 5
0.0222477 0.0297856 0.0280156
0.155505 0.0296941 0.024506
0.453117 0.0397345 0.0314641
0.68275 0.0763104 0.063386
0.706935 0.106065 0.0799878
0.0189364 0.193912 0.0673991
0.146853 0.198291 0.049836
0.537942 0.168521 0.0750439
0.750317 0.230625 0.108736
0.761486 0.278843 0.123751
0.0801404 0.573968 0.321477
0.143679 0.551568 0.233799
0.499962 0.539818 0.128908
0.792401 0.59675 0.217365
0.794003 0.586297 0.220996
0.254734 0.853849 0.615228
0.235248 0.854444 0.571572
0.462028 0.751431 0.321767
0.750561 0.789914 0.350484
0.808789 0.789929 0.377066
0.246372 0.861219 0.638498
0.247166 0.856336 0.60293
0.309911 0.813993 0.448447
0.676387 0.77467 0.343236
0.810224 0.800351 0.399619
0.0203555 0.050248 0.200656
0.191257 0.0308232 0.169558
0.485054 0.0395209 0.205859
0.684688 0.070634 0.226825
0.688533 0.0633097 0.130938
0.0193332 0.164233 0.126375
0.174975 0.189227 0.179004
0.549416 0.133486 0.118685
0.735149 0.142229 0.108309
0.754238 0.227436 0.112673
0.0673228 0.56083 0.377188
0.0666819 0.553033 0.313054
0.489769 0.526009 0.124804
0.790173 0.570596 0.219684
0.791226 0.564553 0.219638
0.237278 0.854643 0.645731
0.240467 0.847761 0.608743
0.395941 0.755215 0.335302
0.74049 0.782025 0.341329
0.807645 0.782406 0.364172
0.238666 0.866239 0.668833
0.247166 0.860685 0.638758
0.252415 0.837263 0.48748
0.659968 0.771084 0.341955
0.810224 0.800427 0.400168
0.101778 0.0936599 0.482383
0.271534 0.0451209 0.454307
0.503502 0.0634165 0.471611
0.702327 0.112444 0.570062
0.693263 0.0945144 0.512551
0.0193332 0.123033 0.408591
0.123461 0.0743725 0.473854
0.477867 0.0568551 0.444495
0.69279 0.0968185 0.522103
0.688975 0.0951095 0.461326
0.0569467 0.542596 0.476509
0.050309 0.535668 0.472877
0.583368 0.558953 0.540261
0.826459 0.548974 0.52047
0.815213 0.539879 0.459434
0.21767 0.840925 0.702235
0.197177 0.837736 0.687144
0.314611 0.806928 0.59382
0.73315 0.782727 0.497566
0.832135 0.78761 0.529305
0.246738 0.873579 0.735714
0.237446 0.875074 0.723033
0.252644 0.860655 0.64152
0.606119 0.786923 0.471138
0.814481 0.807431 0.45127
0.286336 0.0776379 0.678264
0.394171 0.080293 0.680034
0.595789 0.133867 0.712276
0.716716 0.133257 0.751827
0.717723 0.135302 0.758846
0.0571603 0.159976 0.653681
0.29247 0.0764477 0.67245
0.563317 0.126772 0.698665
0.715587 0.130694 0.737011
0.716442 0.131609 0.744518
0.0204471 0.524193 0.666758
0.0206912 0.504036 0.674769
0.581979 0.425834 0.809064
0.815518 0.449607 0.786618
0.80824 0.407614 0.762982
0.222492 0.824918 0.767163
0.205234 0.817945 0.759213
0.375647 0.798367 0.749722
0.814221 0.806943 0.790463
0.884657 0.787457 0.772686
0.350362 0.87541 0.800809
0.326894 0.878828 0.797864
0.2963 0.878233 0.778943
0.704219 0.881498 0.789197
0.883894 0.897002 0.792142
0.361379 0.0848707 0.703853
0.439139 0.0861982 0.705104
0.62565 0.143313 0.740917
0.717861 0.135241 0.75967
0.717845 0.135241 0.759655
0.23183 0.124025 0.700755
0.36762 0.0849165 0.704204
0.599023 0.142519 0.736965
0.71783 0.135241 0.75964
0.719387 0.137179 0.761273
0.0205081 0.516121 0.751781
0.0207675 0.486839 0.749691
0.585061 0.336233 0.821561
0.790692 0.365652 0.820203
0.780331 0.306371 0.812039
0.263798 0.81033 0.816663
0.237934 0.798627 0.813794
0.348867 0.771984 0.816602
0.826169 0.753231 0.891554
0.88246 0.743816 0.884398
0.40296 0.881636 0.833417
0.402792 0.881712 0.833387
0.419211 0.881621 0.8336
0.726421 0.898161 0.858732
0.918608 0.93196 0.910994
