bundles/resolve-cinematic-luts/Phantom Luts/Ursa G2 Phntm Film LUTs - V1/Gen4/White Balance Offset (Magenta Boost)/Ursa Vision Gen4 WBO.cube
TITLE "Generated by Resolve"
LUT_3D_SIZE 5
0.0221866 0.0273747 0.0221866
0.145022 0.0339666 0.0196994
0.447211 0.05037 0.0343938
0.682246 0.0881666 0.0614176
0.70277 0.107683 0.0698711
0.0343481 0.190753 0.0817121
0.121691 0.208042 0.0522316
0.519203 0.158602 0.0820478
0.732189 0.206607 0.107744
0.738827 0.237858 0.118135
0.106737 0.561166 0.360204
0.163912 0.552941 0.282063
0.486168 0.574441 0.159899
0.780743 0.555337 0.226383
0.77998 0.544533 0.22501
0.266361 0.816297 0.630137
0.2748 0.815152 0.589227
0.454292 0.791318 0.429038
0.743725 0.824857 0.396979
0.823987 0.809857 0.385199
0.253056 0.819669 0.6477
0.269429 0.817014 0.615488
0.343816 0.800626 0.507393
0.6336 0.823484 0.422263
0.825635 0.824445 0.414038
0.0431983 0.0376898 0.184878
0.195209 0.0346532 0.133059
0.492348 0.0515602 0.188708
0.696742 0.0794995 0.212345
0.699672 0.0673228 0.113954
0.0212406 0.157809 0.138308
0.176928 0.189471 0.166476
0.554864 0.138476 0.118517
0.726055 0.131228 0.0953536
0.7346 0.182956 0.100526
0.0712139 0.542641 0.411002
0.095613 0.538842 0.345083
0.482216 0.558999 0.149676
0.773419 0.52929 0.221042
0.772915 0.520455 0.21648
0.233631 0.814404 0.66006
0.256306 0.808179 0.6206
0.403693 0.783505 0.434836
0.731945 0.818143 0.390661
0.822995 0.799908 0.368399
0.232364 0.823468 0.680476
0.252781 0.819547 0.649302
0.312734 0.807294 0.532265
0.6159 0.820798 0.42797
0.82565 0.824537 0.414603
0.16025 0.0518502 0.443778
0.303059 0.0558633 0.40032
0.515389 0.072221 0.423667
0.711208 0.129229 0.517571
0.704799 0.113207 0.466087
0.0439002 0.0825818 0.429862
0.187182 0.0509194 0.427665
0.488685 0.0648051 0.397971
0.702922 0.113848 0.476326
0.703655 0.118303 0.423758
0.0422217 0.51548 0.524788
0.0403906 0.507118 0.517342
0.569696 0.563363 0.543816
0.83006 0.543404 0.525399
0.807309 0.517205 0.462837
0.191669 0.799344 0.72726
0.175143 0.793988 0.705623
0.329976 0.782284 0.613321
0.727062 0.816297 0.556481
0.836789 0.798215 0.542626
0.222782 0.828382 0.755947
0.214374 0.829526 0.740063
0.257481 0.820005 0.652354
0.61767 0.825589 0.567041
0.828458 0.83328 0.475547
0.366369 0.0912642 0.628092
0.447166 0.0977493 0.622995
0.617227 0.142153 0.644648
0.730175 0.149798 0.678767
0.731624 0.150256 0.685832
0.181964 0.0973068 0.626154
0.368734 0.0905013 0.621912
0.58735 0.137957 0.632059
0.728756 0.150332 0.664958
0.729671 0.150088 0.672053
0.0421607 0.467536 0.741009
0.0561837 0.447852 0.749722
0.614923 0.423804 0.797208
0.824521 0.470298 0.762585
0.818555 0.433249 0.733394
0.177081 0.77966 0.796307
0.162432 0.77052 0.787442
0.365499 0.767025 0.773846
0.798718 0.81091 0.798718
0.86595 0.792432 0.779293
0.320195 0.83801 0.827893
0.298741 0.837781 0.82179
0.269688 0.835538 0.800504
0.700908 0.877607 0.80499
0.865675 0.912718 0.813413
0.424735 0.0996719 0.647501
0.487419 0.104967 0.645411
0.648173 0.151019 0.672419
0.731884 0.150195 0.686015
0.731884 0.150195 0.686015
0.310475 0.087892 0.644358
0.429633 0.0999924 0.6477
0.622965 0.1523 0.668864
0.731884 0.150195 0.686015
0.734295 0.1523 0.688655
0.13228 0.449012 0.820172
0.145113 0.417762 0.816037
0.625864 0.339223 0.797635
0.809461 0.38088 0.785885
0.797742 0.320256 0.768261
0.254353 0.762112 0.846586
0.233082 0.746563 0.845258
0.351263 0.725582 0.846799
0.820813 0.756817 0.884352
0.874006 0.753704 0.871809
0.384756 0.843336 0.860594
0.384756 0.843336 0.860594
0.402304 0.84445 0.860533
0.711482 0.890318 0.88278
0.899046 0.936187 0.919097
