bundles/resolve-cinematic-luts/Phantom Luts/Ursa G2 Phntm Film LUTs - V1/Gen4/White Balance Offset (Magenta Boost)/Ursa Eterna Gen4-Legacy WBO.cube
TITLE "Generated by Resolve"
LUT_3D_SIZE 33
0.0168154 0.0444495 0.044419
0.0170443 0.0443427 0.0440528
0.0303502 0.0460822 0.0471351
0.0431525 0.0477607 0.0504311
0.0608225 0.0498512 0.0513619
0.0789197 0.0515908 0.0518807
0.0954757 0.0536202 0.0531167
0.111498 0.0556497 0.0558938
0.129763 0.0581369 0.060441
0.151644 0.0616159 0.0654459
0.176181 0.0652628 0.070985
0.204578 0.069337 0.0776684
0.236515 0.0743877 0.085359
0.26865 0.07953 0.0948196
0.30248 0.0858015 0.104692
0.337392 0.0919661 0.114137
0.373053 0.0979477 0.123857
0.410498 0.104494 0.134386
0.449485 0.110216 0.144305
0.488243 0.113756 0.152941
0.528847 0.114702 0.160189
0.56643 0.114992 0.167163
0.598566 0.11783 0.175402
0.615702 0.119188 0.179309
0.62385 0.119966 0.181979
0.626642 0.121813 0.185016
0.628626 0.123445 0.187015
0.630365 0.12398 0.188968
0.634272 0.124117 0.191669
0.639918 0.12372 0.194553
0.647578 0.122805 0.197894
0.655833 0.121736 0.201602
0.66363 0.120287 0.20502
0.0178378 0.043946 0.0427558
0.0173037 0.0442054 0.0436408
0.0237125 0.045182 0.0442817
0.0383001 0.0476081 0.0457008
0.0557565 0.0497444 0.0466011
0.0751202 0.0521401 0.0483711
0.0930495 0.0540169 0.0509346
0.10988 0.0560006 0.0535897
0.128832 0.0585641 0.0570993
0.150851 0.0618753 0.0615702
0.176318 0.06598 0.0671702
0.205493 0.0707256 0.074052
0.237095 0.0758221 0.0813153
0.269642 0.0801862 0.0893111
0.303944 0.085069 0.0980087
0.337819 0.0892958 0.106004
0.372152 0.0936904 0.114534
0.406806 0.0977798 0.123156
0.443259 0.101335 0.131853
0.482063 0.104692 0.140795
0.522499 0.10576 0.148684
0.560418 0.106905 0.156619
0.587915 0.107622 0.162325
0.604349 0.108476 0.165927
0.610925 0.109941 0.16875
0.613581 0.111818 0.171283
0.616266 0.113848 0.173907
0.619898 0.115496 0.176684
0.624186 0.116274 0.179202
0.631342 0.117113 0.182712
0.640284 0.117571 0.186786
0.649256 0.116808 0.190295
0.661189 0.118868 0.196872
0.0185702 0.0455177 0.0438849
0.0180209 0.0459144 0.0447395
0.0190433 0.0451667 0.0443275
0.0323339 0.049424 0.0465248
0.0485389 0.0526284 0.047837
0.0689708 0.0552987 0.0498207
0.08925 0.0572519 0.0516365
0.108125 0.0583658 0.0534676
0.128054 0.0603647 0.0563821
0.151369 0.0631266 0.0602884
0.177157 0.0663462 0.0646677
0.205844 0.0699168 0.0704814
0.237049 0.0740673 0.076585
0.269337 0.0778515 0.0834669
0.302632 0.0812238 0.0906691
0.338048 0.0848859 0.0984512
0.37322 0.0883497 0.106493
0.407385 0.0914015 0.114611
0.442893 0.0946059 0.122881
0.48043 0.0970779 0.131044
0.51986 0.0983291 0.13904
0.557366 0.0996567 0.147158
0.584024 0.100465 0.152972
0.598749 0.101183 0.156512
0.603525 0.102876 0.15906
0.605737 0.104509 0.161334
0.608469 0.106294 0.16408
0.612024 0.107774 0.166583
0.616861 0.108644 0.169436
0.624323 0.109163 0.173037
0.633112 0.109331 0.176959
0.642634 0.1093 0.180896
0.652094 0.108705 0.184802
0.0231632 0.054902 0.0506752
0.0225376 0.0552987 0.0510414
0.0229953 0.0532082 0.0485084
0.0308385 0.0551919 0.0495766
0.0435035 0.0588693 0.0511788
0.0623331 0.0607614 0.052369
0.0834058 0.0618753 0.0536202
0.104692 0.0626993 0.0554971
0.125978 0.0632029 0.0578012
0.149538 0.0643778 0.0606699
0.175814 0.0671397 0.0648966
0.205142 0.0703593 0.0697642
0.236362 0.07393 0.0750591
0.268681 0.0773632 0.0811017
0.301793 0.0801099 0.0874952
0.337194 0.0829175 0.0942855
0.37261 0.0853132 0.101244
0.407767 0.0875257 0.108431
0.4439 0.089128 0.11548
0.482155 0.090837 0.123369
0.523003 0.0919661 0.131838
0.559777 0.0926528 0.139544
0.586343 0.09308 0.145251
0.600641 0.0935836 0.148516
0.603037 0.0945754 0.150362
0.60473 0.0961929 0.152651
0.606531 0.0978103 0.154818
0.609033 0.0993973 0.157412
0.612711 0.100587 0.160052
0.618158 0.100999 0.162844
0.626352 0.101045 0.166186
0.635691 0.100694 0.169955
0.645685 0.100023 0.173571
0.0308995 0.0718242 0.0631113
0.0301671 0.0732738 0.0627451
0.0304723 0.0733654 0.0611582
0.0375982 0.0717174 0.0569924
0.0487984 0.0724041 0.0580453
0.0672618 0.0732433 0.0593423
0.0866407 0.0732128 0.0596628
0.106233 0.0728618 0.0601358
0.126711 0.0721599 0.0614023
0.150561 0.0717174 0.0636454
0.177142 0.0721599 0.0669566
0.205921 0.073228 0.0702373
0.236835 0.0753338 0.0747234
0.268894 0.0783093 0.0806592
0.301625 0.0811017 0.0867475
0.336721 0.0838788 0.0932326
0.371832 0.0861677 0.0995346
0.407065 0.088014 0.105898
0.44332 0.0891737 0.112322
0.481147 0.0897383 0.1187
0.521828 0.0900587 0.125795
0.558724 0.0902571 0.132998
0.585122 0.0903334 0.137926
0.599756 0.090486 0.140764
0.601602 0.0910506 0.142168
0.603525 0.0921187 0.144686
0.60473 0.0928664 0.146548
0.605768 0.0932174 0.147936
0.607752 0.0937209 0.149783
0.611978 0.0938735 0.151751
0.618647 0.0934005 0.154314
0.627939 0.0924086 0.157321
0.638224 0.0910811 0.16051
0.0371099 0.0904097 0.0720684
0.0361028 0.0928664 0.0717937
0.0359655 0.0942245 0.0706951
0.0394903 0.0925917 0.0665599
0.0514687 0.0910658 0.0638895
0.0684062 0.0922255 0.0654154
0.0925917 0.0915389 0.0677653
0.115129 0.0900587 0.0695201
0.135958 0.0877699 0.0696117
0.159472 0.0868391 0.0708171
0.184482 0.0856031 0.0722972
0.213855 0.0849012 0.0750286
0.245045 0.0843519 0.0780957
0.275578 0.0843977 0.0823377
0.306523 0.0855573 0.0873121
0.339132 0.0867933 0.0923476
0.372732 0.0881971 0.0983444
0.40705 0.0895705 0.104997
0.443763 0.0907759 0.111254
0.483024 0.0918135 0.118135
0.524224 0.0921798 0.124834
0.560464 0.0922713 0.130587
0.586282 0.0918288 0.134371
0.599207 0.0913405 0.135088
0.600305 0.0907912 0.134569
0.60029 0.0907759 0.134569
0.60029 0.0907759 0.134569
0.601862 0.0914473 0.135973
0.604364 0.0920272 0.138109
0.608011 0.0917067 0.139849
0.614298 0.0906081 0.141497
0.62359 0.0889143 0.144076
0.634409 0.0870375 0.147143
0.0431525 0.110567 0.0821546
0.0415961 0.113817 0.0805676
0.0406348 0.116442 0.0798505
0.0422065 0.116396 0.0762188
0.0548562 0.114183 0.0705882
0.0702678 0.113649 0.0690929
0.0917372 0.113771 0.0693523
0.119783 0.11252 0.0710307
0.147509 0.108888 0.0747845
0.173236 0.105257 0.0772564
0.198444 0.103212 0.078706
0.227192 0.102403 0.0812238
0.256962 0.102205 0.084184
0.287373 0.101625 0.0878614
0.318578 0.100618 0.0915389
0.349676 0.0995346 0.0953536
0.381521 0.098909 0.0997787
0.413733 0.0984054 0.104952
0.44831 0.0977035 0.109773
0.483833 0.0967269 0.115679
0.523186 0.0961624 0.122927
0.560311 0.0964065 0.129061
0.58706 0.0966049 0.133394
0.599603 0.0961624 0.134524
0.602991 0.0956283 0.134249
0.603433 0.0956436 0.134295
0.603647 0.0956436 0.134325
0.603937 0.0955978 0.134371
0.604776 0.0954299 0.134463
0.606912 0.0949416 0.134752
0.611032 0.0939956 0.135332
0.616876 0.0928206 0.136553
0.624201 0.0914168 0.138079
0.0513771 0.129442 0.090425
0.0497749 0.133913 0.0888075
0.0479438 0.137881 0.0876631
0.0479744 0.139971 0.08542
0.0516976 0.139101 0.0819715
0.0701915 0.13669 0.074403
0.0911421 0.137316 0.0751965
0.113878 0.137194 0.0759442
0.147524 0.136294 0.0780652
0.182803 0.132601 0.0834974
0.215167 0.126131 0.0882277
0.246891 0.123568 0.0914778
0.277485 0.123598 0.0944533
0.308339 0.123507 0.0978561
0.340169 0.123873 0.101732
0.374258 0.12372 0.105913
0.408835 0.122591 0.109804
0.443153 0.121263 0.113634
0.477775 0.119875 0.118059
0.513436 0.11754 0.122393
0.550988 0.113573 0.126955
0.582361 0.110094 0.130953
0.602991 0.107698 0.13402
0.614099 0.107301 0.136034
0.616449 0.106905 0.136858
0.615885 0.10631 0.136782
0.615595 0.105898 0.136522
0.615015 0.105074 0.135988
0.614481 0.103578 0.1355
0.615671 0.102129 0.135698
0.618585 0.100221 0.135882
0.624063 0.0988174 0.136645
0.631022 0.0972152 0.137423
0.0581064 0.152453 0.103838
0.0563821 0.157198 0.102419
0.0547646 0.162448 0.0999313
0.0547951 0.165927 0.0976577
0.0585946 0.167498 0.0942855
0.0645609 0.164904 0.0880903
0.0894789 0.163531 0.0792554
0.115541 0.165331 0.0822461
0.138064 0.165759 0.0838941
0.180667 0.165133 0.0865949
0.224704 0.161379 0.0936294
0.265309 0.153216 0.100923
0.302251 0.149584 0.105592
0.337255 0.14995 0.109789
0.371069 0.151736 0.113771
0.407202 0.154116 0.118303
0.444968 0.15555 0.122469
0.484138 0.155642 0.126711
0.524041 0.154772 0.131075
0.564431 0.153445 0.135637
0.605112 0.15108 0.140764
0.636408 0.148745 0.145113
0.657465 0.148486 0.149325
0.667308 0.14876 0.15108
0.668284 0.147723 0.151263
0.666072 0.146059 0.15082
0.663584 0.14406 0.150088
0.66041 0.14168 0.149126
0.658259 0.139712 0.148745
0.656352 0.136706 0.147997
0.656016 0.133562 0.147158
0.658503 0.130846 0.147265
0.663462 0.128756 0.147829
0.0669261 0.180209 0.119036
0.0643168 0.185306 0.117739
0.0622263 0.191302 0.115846
0.0619974 0.196399 0.112474
0.0671397 0.20058 0.108583
0.0718547 0.200107 0.104128
0.0808118 0.196506 0.0956741
0.115602 0.197238 0.0854505
0.143236 0.20058 0.0903334
0.16907 0.202396 0.0940871
0.222339 0.202136 0.0971389
0.278111 0.20058 0.10428
0.326406 0.192096 0.114672
0.368902 0.187381 0.122026
0.409644 0.187076 0.127626
0.44976 0.188937 0.131975
0.48893 0.19118 0.135286
0.529397 0.193744 0.138857
0.571481 0.195712 0.142031
0.615457 0.196201 0.14609
0.660426 0.196063 0.151598
0.697047 0.196811 0.157717
0.719356 0.198474 0.163226
0.731945 0.201205 0.166918
0.733425 0.200793 0.167391
0.731868 0.199481 0.167071
0.730114 0.197971 0.166583
0.72842 0.196597 0.16614
0.727077 0.195071 0.165652
0.725322 0.193301 0.165164
0.724346 0.191394 0.16492
0.724407 0.189105 0.16463
0.725872 0.187137 0.164599
0.0761425 0.214038 0.136965
0.0724041 0.219928 0.136034
0.069337 0.226413 0.134234
0.0679179 0.231968 0.130663
0.0731975 0.237568 0.126574
0.0795148 0.240452 0.121828
0.0874647 0.239521 0.114885
0.0984207 0.234501 0.103899
0.144762 0.238407 0.0922866
0.174517 0.244144 0.0993057
0.208103 0.248569 0.105196
0.273365 0.249241 0.107347
0.341161 0.250523 0.110765
0.396216 0.243336 0.123751
0.443976 0.23447 0.134585
0.489036 0.230442 0.141375
0.533593 0.231144 0.14548
0.578317 0.233356 0.149096
0.62327 0.235004 0.152071
0.667826 0.237812 0.155581
0.709575 0.241459 0.160555
0.743969 0.245441 0.167544
0.766629 0.250187 0.174426
0.780911 0.255238 0.179385
0.784421 0.256199 0.180514
0.783658 0.255039 0.18027
0.78291 0.2542 0.179965
0.781735 0.252689 0.179644
0.780301 0.251194 0.179202
0.778912 0.249424 0.178897
0.778088 0.247913 0.178866
0.777386 0.245914 0.178515
0.777874 0.24448 0.178347
0.0836957 0.256703 0.157061
0.0789654 0.264393 0.156939
0.0748302 0.271611 0.155077
0.0734417 0.278355 0.151736
0.0766461 0.285161 0.148531
0.085008 0.291356 0.142763
0.0939956 0.294835 0.136568
0.104509 0.292515 0.127306
0.12166 0.28716 0.110567
0.175418 0.293889 0.0993515
0.211139 0.300786 0.107622
0.254582 0.30605 0.112612
0.330556 0.305318 0.11165
0.404501 0.308232 0.109377
0.466178 0.304311 0.120912
0.52047 0.296925 0.135409
0.570489 0.289754 0.146853
0.618952 0.284474 0.155901
0.667063 0.283299 0.1617
0.714229 0.28542 0.166766
0.754604 0.287861 0.172717
0.783673 0.293248 0.180346
0.803845 0.299626 0.187747
0.816693 0.306508 0.192493
0.820584 0.309422 0.193469
0.820905 0.309422 0.193484
0.820706 0.308873 0.193393
0.820233 0.307958 0.193301
0.819318 0.306538 0.192828
0.818082 0.304891 0.192187
0.817044 0.303044 0.19173
0.816556 0.301335 0.191394
0.816754 0.300191 0.191516
0.0871901 0.310475 0.181521
0.0809949 0.319005 0.180362
0.0757305 0.327306 0.178134
0.0737621 0.334508 0.17496
0.0749065 0.341726 0.171435
0.0824903 0.348257 0.166293
0.0937057 0.353841 0.159121
0.107622 0.355322 0.149645
0.12314 0.350973 0.136873
0.153994 0.346151 0.112505
0.209903 0.355383 0.102663
0.252384 0.361898 0.109392
0.306111 0.366751 0.1131
0.386862 0.364309 0.113207
0.465446 0.368658 0.105943
0.530358 0.368963 0.11249
0.587686 0.363272 0.132921
0.641367 0.357046 0.149279
0.693233 0.350408 0.163287
0.742367 0.34226 0.17583
0.783673 0.340932 0.185611
0.812757 0.343328 0.194522
0.831678 0.348791 0.202518
0.843458 0.354543 0.208301
0.846967 0.358694 0.209262
0.847349 0.358938 0.209308
0.846769 0.35819 0.20882
0.846281 0.357092 0.208515
0.845563 0.355535 0.208103
0.8448 0.353811 0.207584
0.844297 0.35227 0.207355
0.843397 0.350408 0.206653
0.842817 0.348791 0.206073
0.0888685 0.369863 0.208148
0.082887 0.378149 0.206134
0.0773175 0.386175 0.203632
0.0727855 0.39408 0.200534
0.0718395 0.401892 0.196841
0.0761273 0.40882 0.191028
0.0842298 0.415625 0.183932
0.10045 0.421286 0.172442
0.119463 0.420356 0.161196
0.143694 0.414343 0.143999
0.187991 0.412741 0.110613
0.2448 0.420706 0.10135
0.296651 0.426703 0.109529
0.359258 0.430961 0.115175
0.440909 0.427054 0.117784
0.52079 0.430793 0.110109
0.586694 0.4336 0.114427
0.644144 0.431846 0.134905
0.698894 0.425483 0.157015
0.750637 0.419348 0.175219
0.796475 0.412497 0.19202
0.829969 0.408499 0.205097
0.851881 0.407095 0.215641
0.865064 0.40943 0.223407
0.868711 0.414527 0.22446
0.869108 0.414618 0.224475
0.86836 0.412985 0.223987
0.868162 0.41117 0.224033
0.867384 0.408453 0.22356
0.866407 0.405982 0.222934
0.865507 0.403738 0.222431
0.865064 0.401282 0.222187
0.864393 0.398459 0.221439
0.089128 0.435538 0.23772
0.082887 0.444053 0.236698
0.077348 0.45214 0.234592
0.0724041 0.459602 0.231083
0.0690623 0.466773 0.226947
0.0704967 0.47364 0.221637
0.0779583 0.479881 0.214878
0.0927443 0.485786 0.203555
0.115999 0.489265 0.18822
0.140505 0.486305 0.172641
0.168261 0.478828 0.148379
0.226886 0.479454 0.108751
0.28658 0.486397 0.104036
0.347066 0.491264 0.116442
0.412833 0.494072 0.124041
0.492454 0.489204 0.131075
0.569497 0.491279 0.126268
0.635721 0.493614 0.129122
0.693156 0.494759 0.143893
0.748196 0.490227 0.167575
0.797086 0.485451 0.189273
0.835111 0.482185 0.206409
0.861723 0.481666 0.219089
0.878111 0.482353 0.228183
0.882185 0.48661 0.230365
0.882856 0.487617 0.230442
0.882612 0.486519 0.230228
0.882322 0.484443 0.230152
0.881895 0.481804 0.229984
0.881453 0.478584 0.229755
0.880796 0.474891 0.229252
0.8804 0.471397 0.229053
0.879362 0.468086 0.228168
0.0910048 0.500648 0.273503
0.0853285 0.508858 0.272038
0.0793011 0.516945 0.270085
0.0736706 0.524346 0.267247
0.069398 0.531319 0.263188
0.0670329 0.537697 0.258686
0.0699779 0.543328 0.252018
0.0820935 0.548379 0.240848
0.104112 0.553185 0.22652
0.133608 0.553628 0.20737
0.15967 0.547494 0.187716
0.197818 0.539467 0.151476
0.274357 0.542184 0.111315
0.338247 0.548043 0.117937
0.402975 0.551583 0.133593
0.467369 0.553094 0.141192
0.542367 0.547356 0.149935
0.616205 0.547341 0.147906
0.681819 0.549065 0.150774
0.739559 0.551537 0.161318
0.791638 0.550088 0.182773
0.834104 0.547326 0.205539
0.863905 0.546395 0.220752
0.882582 0.547524 0.229892
0.889662 0.549752 0.234958
0.890761 0.550805 0.235706
0.890623 0.550072 0.235538
0.890471 0.54818 0.235386
0.890196 0.54548 0.235157
0.88957 0.542062 0.234607
0.889509 0.538582 0.234577
0.889021 0.534707 0.234012
0.888472 0.531319 0.233417
0.092958 0.56466 0.313512
0.0899367 0.571969 0.312566
0.0851453 0.579171 0.311147
0.080415 0.586328 0.309041
0.0765545 0.593011 0.306065
0.0745861 0.599069 0.301518
0.0738384 0.604166 0.293965
0.0797742 0.608515 0.283711
0.0927138 0.613092 0.271092
0.123125 0.616663 0.250111
0.152819 0.61294 0.229465
0.186831 0.603983 0.201633
0.239826 0.59852 0.150835
0.326909 0.602838 0.125078
0.391653 0.60766 0.139513
0.454383 0.609323 0.15465
0.516823 0.609583 0.160998
0.587686 0.602914 0.17116
0.659083 0.601083 0.171542
0.724605 0.60177 0.174762
0.782452 0.603983 0.185992
0.828794 0.60557 0.203662
0.862242 0.605585 0.220844
0.884916 0.605814 0.233951
0.895415 0.607767 0.240223
0.896895 0.609552 0.242267
0.896788 0.609003 0.242176
0.896284 0.606714 0.241413
0.895964 0.603922 0.240894
0.895674 0.600488 0.240421
0.895109 0.596765 0.23975
0.895048 0.593072 0.239582
0.894499 0.589792 0.238926
0.102449 0.625376 0.356069
0.100465 0.632486 0.355795
0.0967575 0.639185 0.354543
0.0924086 0.64622 0.352682
0.088838 0.65243 0.349859
0.0870527 0.658183 0.345434
0.0865034 0.663081 0.338643
0.086656 0.666911 0.329427
0.0928969 0.670848 0.317037
0.11252 0.675135 0.298024
0.144717 0.675761 0.273762
0.177371 0.668269 0.247807
0.219532 0.657725 0.210895
0.294789 0.657038 0.154635
0.382406 0.661265 0.145769
0.444038 0.663981 0.16405
0.501976 0.664805 0.175662
0.562173 0.663905 0.183062
0.630472 0.656489 0.193622
0.700725 0.65333 0.197162
0.767025 0.653529 0.201663
0.821546 0.65478 0.214008
0.860945 0.656947 0.229236
0.886213 0.65948 0.241047
0.899916 0.662242 0.247776
0.903044 0.663249 0.251698
0.903014 0.662928 0.251896
0.902556 0.660548 0.251148
0.902327 0.65774 0.250614
0.901656 0.654444 0.249622
0.901259 0.650675 0.248905
0.900801 0.647456 0.248203
0.900557 0.644297 0.247654
0.120241 0.683223 0.397971
0.119005 0.690211 0.397971
0.115679 0.697124 0.397009
0.111727 0.703975 0.395483
0.108064 0.710063 0.392737
0.107027 0.71548 0.389288
0.106157 0.719997 0.382986
0.106798 0.723339 0.374716
0.10753 0.726467 0.363272
0.116701 0.730159 0.347646
0.143511 0.733135 0.322652
0.174273 0.728923 0.295888
0.210117 0.718563 0.264424
0.265873 0.710307 0.214252
0.362905 0.712505 0.166018
0.438087 0.715557 0.17319
0.494575 0.717662 0.190005
0.548028 0.717891 0.198779
0.606088 0.716915 0.207477
0.672282 0.709804 0.218738
0.742718 0.704952 0.225147
0.807813 0.704921 0.23267
0.856794 0.705455 0.245808
0.888685 0.707027 0.25832
0.906233 0.709941 0.266819
0.911803 0.710231 0.270756
0.91223 0.709346 0.272358
0.911894 0.707317 0.271092
0.911101 0.704402 0.269352
0.910201 0.701366 0.267659
0.909834 0.698451 0.266636
0.909041 0.695293 0.265034
0.9084 0.692256 0.2636
0.145663 0.739635 0.439185
0.145144 0.7458 0.439033
0.142275 0.75227 0.438224
0.138903 0.758709 0.4374
0.135531 0.764553 0.435416
0.133867 0.769711 0.432044
0.133028 0.773587 0.426627
0.133394 0.776928 0.419257
0.134127 0.779522 0.409262
0.136431 0.782055 0.396002
0.152102 0.785641 0.37406
0.178546 0.785748 0.345327
0.20798 0.778347 0.315297
0.249683 0.767834 0.27628
0.324025 0.764248 0.213275
0.427787 0.767819 0.19089
0.492027 0.76939 0.203845
0.543435 0.770596 0.218769
0.594247 0.771542 0.226062
0.649989 0.770336 0.235447
0.714626 0.763912 0.248188
0.783749 0.75877 0.258381
0.845212 0.757992 0.268467
0.886397 0.758724 0.280674
0.909987 0.758892 0.290059
0.919738 0.75903 0.295872
0.920974 0.756863 0.297948
0.920424 0.754208 0.296727
0.919524 0.750957 0.29427
0.919249 0.748074 0.292531
0.918517 0.744488 0.290288
0.917815 0.740902 0.288365
0.917342 0.737789 0.286534
0.175113 0.793271 0.480156
0.174365 0.797955 0.479591
0.172061 0.803204 0.47895
0.168048 0.80824 0.477684
0.164752 0.813291 0.475929
0.163027 0.817319 0.472526
0.162158 0.820386 0.467704
0.162112 0.822614 0.460655
0.162783 0.824491 0.452003
0.164065 0.826169 0.440543
0.169238 0.828199 0.423117
0.189914 0.831586 0.395499
0.212482 0.828794 0.365881
0.24329 0.821424 0.33193
0.298299 0.813809 0.281743
0.392905 0.81442 0.224552
0.487282 0.816297 0.221378
0.54107 0.817197 0.235599
0.589609 0.818433 0.250141
0.638895 0.819806 0.257115
0.693507 0.819684 0.268116
0.756649 0.814939 0.282032
0.824659 0.810407 0.295384
0.876585 0.81001 0.30631
0.908232 0.809659 0.315801
0.923796 0.809415 0.322637
0.927016 0.80647 0.32578
0.926757 0.803006 0.325017
0.926207 0.799741 0.322576
0.926085 0.796139 0.320714
0.92578 0.792157 0.318822
0.925948 0.788418 0.317449
0.925826 0.784848 0.315923
0.210605 0.833112 0.516716
0.21117 0.836149 0.515908
0.209354 0.839567 0.514549
0.206806 0.843214 0.513313
0.204044 0.846769 0.511131
0.201984 0.849546 0.508125
0.200763 0.851621 0.503182
0.200763 0.853132 0.4972
0.201404 0.854429 0.489174
0.201968 0.855299 0.478477
0.202823 0.855833 0.464103
0.213199 0.858366 0.442008
0.233875 0.859464 0.413352
0.254978 0.856016 0.383001
0.29369 0.850202 0.342779
0.365209 0.846876 0.284062
0.469123 0.849195 0.247913
0.544915 0.85066 0.257267
0.592676 0.852262 0.273457
0.640742 0.854368 0.286076
0.688838 0.856428 0.294347
0.742748 0.857725 0.30808
0.80618 0.85507 0.324147
0.864225 0.85153 0.337682
0.904128 0.852125 0.347173
0.924544 0.852979 0.353262
0.93138 0.851011 0.356863
0.931395 0.848676 0.356588
0.930434 0.845991 0.353155
0.929488 0.84329 0.349706
0.928832 0.840589 0.346532
0.928603 0.837446 0.344228
0.928588 0.833814 0.342611
0.225238 0.866316 0.549752
0.227573 0.868193 0.548775
0.227955 0.870054 0.547326
0.227161 0.872236 0.545571
0.225376 0.874205 0.542992
0.223346 0.875914 0.539437
0.222156 0.87747 0.534752
0.22179 0.878538 0.528801
0.22211 0.879393 0.521462
0.222293 0.879896 0.51162
0.222446 0.880034 0.498375
0.22414 0.880186 0.479652
0.239643 0.882246 0.452888
0.258274 0.881834 0.425956
0.28127 0.878569 0.393057
0.332799 0.875135 0.34432
0.422034 0.875273 0.287068
0.522728 0.878645 0.273915
0.585611 0.880156 0.287877
0.632303 0.881819 0.304341
0.680751 0.884733 0.315724
0.729152 0.887419 0.327764
0.785718 0.889235 0.343969
0.846494 0.887663 0.361685
0.894194 0.884962 0.375387
0.921752 0.885985 0.384115
0.933288 0.885328 0.388937
0.934966 0.882979 0.389578
0.933883 0.881086 0.386221
0.932982 0.878843 0.381674
0.932204 0.876051 0.377768
0.931716 0.87332 0.374487
0.931746 0.870695 0.372534
0.238331 0.889097 0.577661
0.240909 0.88986 0.576242
0.242359 0.891051 0.574792
0.242206 0.892332 0.572976
0.240574 0.893294 0.56968
0.238758 0.894194 0.565774
0.237461 0.89485 0.560647
0.236896 0.895232 0.554742
0.236698 0.89546 0.547387
0.2365 0.895628 0.537987
0.236057 0.895613 0.525994
0.23595 0.895659 0.510063
0.240665 0.896269 0.486793
0.256123 0.896895 0.460792
0.276738 0.89662 0.432197
0.307424 0.894743 0.394842
0.375418 0.894835 0.339376
0.47631 0.896742 0.296635
0.563195 0.89984 0.299382
0.62034 0.901396 0.315465
0.66688 0.902922 0.330709
0.715541 0.905486 0.34255
0.767422 0.908202 0.358053
0.825925 0.91046 0.377844
0.880476 0.909621 0.397421
0.916381 0.908248 0.411643
0.933318 0.908858 0.420447
0.93785 0.907286 0.422263
0.936889 0.905303 0.418906
0.93576 0.903655 0.414115
0.935012 0.901762 0.410269
0.934768 0.900114 0.407294
0.934722 0.898146 0.405188
0.243793 0.89601 0.590646
0.245029 0.895903 0.588296
0.245457 0.89601 0.585657
0.244572 0.896498 0.58291
0.242893 0.897215 0.579767
0.240955 0.897963 0.575708
0.239704 0.898405 0.570901
0.238987 0.898619 0.56492
0.239902 0.898085 0.557504
0.239353 0.898116 0.548287
0.238666 0.898085 0.536522
0.237812 0.897902 0.521523
0.236988 0.896742 0.499397
0.24799 0.897963 0.47567
0.266468 0.900496 0.455009
0.290211 0.902037 0.428016
0.333593 0.903288 0.386511
0.416938 0.904021 0.327916
0.517678 0.907683 0.308583
0.593774 0.910887 0.318898
0.648188 0.912551 0.335927
0.694591 0.914061 0.349172
0.744595 0.916869 0.362707
0.801633 0.919341 0.382803
0.861723 0.92163 0.406577
0.907088 0.92134 0.425727
0.930098 0.919844 0.438727
0.938628 0.919738 0.44651
0.938766 0.918654 0.445945
0.937865 0.917967 0.442664
0.937148 0.917144 0.439155
0.936934 0.916411 0.43682
0.936843 0.915328 0.434623
0.244205 0.896803 0.596475
0.245045 0.896498 0.593683
0.245457 0.896406 0.590906
0.244663 0.896742 0.588006
0.242847 0.897459 0.584634
0.240635 0.898253 0.580774
0.239155 0.898817 0.575891
0.238636 0.898878 0.570062
0.238697 0.898695 0.562753
0.23888 0.898436 0.553826
0.238697 0.898283 0.542657
0.238239 0.898253 0.528557
0.237079 0.897429 0.508888
0.242527 0.897429 0.484001
0.25893 0.900099 0.462898
0.279683 0.902556 0.440864
0.309453 0.904662 0.411414
0.371252 0.905211 0.360189
0.46775 0.907012 0.321309
0.550286 0.910063 0.31458
0.619379 0.912703 0.329656
0.669429 0.914061 0.344915
0.715251 0.916365 0.355215
0.768017 0.918959 0.371054
0.828534 0.920958 0.39321
0.88542 0.921706 0.415976
0.921477 0.920378 0.434028
0.936431 0.921859 0.450263
0.939529 0.922271 0.457191
0.938827 0.922591 0.45687
0.938277 0.922774 0.455268
0.937972 0.922774 0.454292
0.937896 0.922652 0.453483
0.243534 0.897093 0.600839
0.243854 0.896941 0.598276
0.244053 0.89691 0.5953
0.243412 0.897108 0.592233
0.241779 0.897734 0.589136
0.239704 0.898528 0.585153
0.237919 0.899168 0.580621
0.237125 0.899504 0.574868
0.237018 0.899382 0.567681
0.237369 0.899077 0.559136
0.237766 0.898741 0.54847
0.237812 0.898482 0.535073
0.237293 0.898054 0.517449
0.239017 0.897353 0.493294
0.252308 0.899321 0.469596
0.271504 0.902174 0.448936
0.295949 0.904204 0.422965
0.342916 0.905592 0.381643
0.42681 0.906279 0.333242
0.518318 0.909178 0.316411
0.592401 0.91191 0.323003
0.649927 0.91371 0.339727
0.69485 0.916014 0.350179
