bundles/resolve-cinematic-luts/Phantom Luts/Ursa G2 Phntm Film LUTs - V1/Gen4/White Balance Offset (Magenta Boost)/Ursa Vision Gen4 WBO.cube
TITLE "Generated by Resolve"
LUT_3D_SIZE 9
0.0221866 0.0273747 0.0221866
0.0447547 0.0294804 0.0222019
0.145022 0.0339666 0.0196994
0.301869 0.0390478 0.0246128
0.447211 0.05037 0.0343938
0.601663 0.0753185 0.0538491
0.682246 0.0881666 0.0614176
0.689647 0.0982834 0.0649424
0.70277 0.107683 0.0698711
0.0257572 0.0683604 0.0373846
0.0397498 0.0680247 0.0320745
0.162127 0.0544747 0.0305486
0.315175 0.054078 0.0312352
0.457893 0.0655528 0.0379492
0.610895 0.0909895 0.0597848
0.701579 0.112291 0.0723125
0.704112 0.119402 0.0730907
0.718761 0.133516 0.0802777
0.0343481 0.190753 0.0817121
0.0498817 0.184527 0.0622873
0.121691 0.208042 0.0522316
0.377539 0.163928 0.0724346
0.519203 0.158602 0.0820478
0.652918 0.179141 0.0955825
0.732189 0.206607 0.107744
0.733776 0.222019 0.112367
0.738827 0.237858 0.118135
0.0661021 0.382315 0.194766
0.0959182 0.384741 0.165835
0.133135 0.373205 0.110018
0.299275 0.40119 0.0894942
0.561593 0.363653 0.104387
0.679622 0.351659 0.160266
0.747127 0.359701 0.177188
0.748806 0.364187 0.180865
0.750332 0.375875 0.186542
0.106737 0.561166 0.360204
0.112886 0.561593 0.330663
0.163912 0.552941 0.282063
0.288014 0.551568 0.207355
0.486168 0.574441 0.159899
0.711177 0.545052 0.160311
0.780743 0.555337 0.226383
0.782467 0.557473 0.229129
0.77998 0.544533 0.22501
0.188296 0.722072 0.518761
0.191791 0.721798 0.500862
0.206287 0.722484 0.463798
0.274754 0.699397 0.385626
0.448783 0.712383 0.332341
0.62388 0.732097 0.285176
0.801038 0.718761 0.248951
0.819303 0.719051 0.278477
0.816663 0.705943 0.273335
0.266361 0.816297 0.630137
0.268177 0.816327 0.616205
0.2748 0.815152 0.589227
0.299306 0.806409 0.534554
0.454292 0.791318 0.429038
0.582376 0.811276 0.427756
0.743725 0.824857 0.396979
0.824537 0.815885 0.39675
0.823987 0.809857 0.385199
0.25864 0.818524 0.641688
0.266896 0.817029 0.629572
0.272679 0.816617 0.603998
0.293996 0.810742 0.551888
0.398474 0.794675 0.466255
0.566033 0.8094 0.445716
0.688823 0.825742 0.41181
0.821195 0.824033 0.410986
0.825559 0.824399 0.415259
0.253056 0.819669 0.6477
0.261433 0.818189 0.637018
0.269429 0.817014 0.615488
0.281865 0.812726 0.567071
0.343816 0.800626 0.507393
0.527916 0.801343 0.448051
0.6336 0.823484 0.422263
0.799191 0.827085 0.398505
0.825635 0.824445 0.414038
0.0248264 0.0302892 0.0571908
0.0621042 0.031342 0.0508431
0.191409 0.0306096 0.0612497
0.344976 0.0292668 0.0525978
0.484184 0.0328985 0.0495155
0.621866 0.0526131 0.0621347
0.677348 0.067277 0.0625772
0.680598 0.0791943 0.0589151
0.696422 0.09897 0.064744
0.0215915 0.0549935 0.0413672
0.0428626 0.0548714 0.0460822
0.179751 0.0438544 0.0328374
0.320577 0.0417029 0.0288243
0.455146 0.0474708 0.034699
0.605783 0.0692454 0.0529946
0.685985 0.0882734 0.0611124
0.697643 0.102586 0.0674144
0.714229 0.123613 0.0755474
0.0255436 0.172274 0.0978408
0.0324865 0.171115 0.0785229
0.115969 0.190845 0.0477913
0.379278 0.131441 0.066392
0.513817 0.138354 0.0736248
0.656077 0.159701 0.0906691
0.732525 0.183749 0.101259
0.733593 0.199435 0.105119
0.739406 0.226642 0.114061
0.0527657 0.369009 0.219623
0.0622568 0.370108 0.19028
0.118318 0.36878 0.125322
0.295445 0.392584 0.0873121
0.560174 0.34931 0.10695
0.682765 0.330175 0.154803
0.747326 0.341787 0.166369
0.74934 0.350134 0.173281
0.751232 0.365347 0.181765
0.0979477 0.553796 0.381018
0.101991 0.553048 0.354284
0.135149 0.551446 0.295567
0.273533 0.545937 0.202106
0.484154 0.568978 0.155642
0.711925 0.53785 0.163363
0.778637 0.546334 0.223484
0.780514 0.546609 0.225696
0.776318 0.533364 0.22092
0.179736 0.717662 0.531121
0.18262 0.717479 0.514046
0.193484 0.717021 0.479347
0.254505 0.6981 0.394934
0.440528 0.707195 0.327947
0.62153 0.725994 0.279332
0.799908 0.711391 0.246082
0.817594 0.710704 0.274525
0.815366 0.696574 0.269688
0.25565 0.816327 0.640558
0.263569 0.814633 0.627512
0.267628 0.812619 0.599802
0.291524 0.805631 0.540398
0.439277 0.787762 0.428382
0.576425 0.809201 0.426062
0.738598 0.822812 0.394842
0.824125 0.812146 0.390021
0.82388 0.806485 0.379583
0.249363 0.820142 0.654459
0.258579 0.818418 0.64213
0.269596 0.8168 0.617563
0.286625 0.811688 0.559777
0.379217 0.796017 0.476493
0.560113 0.80795 0.44741
0.679423 0.825895 0.413718
0.819974 0.82388 0.40911
0.825574 0.824399 0.415106
0.244617 0.820996 0.660807
0.252903 0.819623 0.648478
0.266529 0.817197 0.629297
0.278096 0.815091 0.58352
0.331289 0.803296 0.517586
0.518502 0.800031 0.445701
0.626551 0.822187 0.424338
0.796155 0.828061 0.396139
0.825635 0.824445 0.41416
0.0431983 0.0376898 0.184878
0.0945296 0.0368353 0.139376
0.195209 0.0346532 0.133059
0.340368 0.0403449 0.173709
0.492348 0.0515602 0.188708
0.655421 0.074464 0.216876
0.696742 0.0794995 0.212345
0.696162 0.0744793 0.18265
0.699672 0.0673228 0.113954
0.0264897 0.0462196 0.135943
0.0492103 0.0361486 0.167498
0.170611 0.0345006 0.118944
0.333516 0.0378119 0.127642
0.487678 0.0410468 0.119524
0.650156 0.0628061 0.145129
0.694087 0.0673381 0.131167
0.696925 0.0649119 0.104677
0.688212 0.0699931 0.0690776
0.0212406 0.157809 0.138308
0.0218204 0.153094 0.136141
0.176928 0.189471 0.166476
0.408484 0.158709 0.139071
0.554864 0.138476 0.118517
0.675227 0.116152 0.0981155
0.726055 0.131228 0.0953536
0.727535 0.148699 0.0932937
0.7346 0.182956 0.100526
0.0324865 0.356634 0.258946
0.0379644 0.352453 0.240467
0.057435 0.352697 0.185016
0.312932 0.387579 0.125505
0.558358 0.335393 0.156664
0.680705 0.312551 0.1617
0.748058 0.318364 0.158602
0.748425 0.328298 0.159701
0.750561 0.343999 0.166674
0.0712139 0.542641 0.411002
0.0802472 0.540841 0.392554
0.095613 0.538842 0.345083
0.227054 0.535958 0.217945
0.482216 0.558999 0.149676
0.712367 0.522942 0.1738
0.773419 0.52929 0.221042
0.774289 0.527443 0.219623
0.772915 0.520455 0.21648
0.149401 0.710414 0.553277
0.157595 0.709133 0.538735
0.174411 0.706584 0.50811
0.220691 0.697505 0.416617
0.426169 0.699123 0.325154
0.615473 0.717708 0.272267
0.798444 0.698619 0.241581
0.815427 0.697459 0.270054
0.81207 0.681254 0.263249
0.233631 0.814404 0.66006
0.240055 0.812375 0.645701
0.256306 0.808179 0.6206
0.272084 0.803281 0.556344
0.403693 0.783505 0.434836
0.566278 0.803525 0.422934
0.731945 0.818143 0.390661
0.823911 0.807034 0.380926
0.822995 0.799908 0.368399
0.234119 0.822828 0.678431
0.24123 0.821607 0.66601
0.258 0.81854 0.642939
0.278172 0.815915 0.590646
0.351003 0.798871 0.496864
0.550713 0.805402 0.449348
0.666194 0.825391 0.416281
0.816526 0.824216 0.408011
0.825605 0.824552 0.416052
0.232364 0.823468 0.680476
0.239124 0.822049 0.669413
0.252781 0.819547 0.649302
0.271778 0.816663 0.60853
0.312734 0.807294 0.532265
0.50338 0.798199 0.443946
0.6159 0.820798 0.42797
0.789258 0.828519 0.394797
0.82565 0.824537 0.414603
0.0857099 0.0446021 0.331441
0.146792 0.04271 0.300008
0.234592 0.0442206 0.26656
0.35024 0.0395209 0.270924
0.496086 0.0644999 0.318074
0.654108 0.104555 0.386053
0.699138 0.118959 0.393713
0.699748 0.115282 0.372107
0.70193 0.104967 0.33576
0.0325933 0.0436866 0.312413
0.087892 0.0411688 0.323476
0.208103 0.043122 0.267887
0.339208 0.0389868 0.260349
0.484443 0.059968 0.302739
0.648753 0.10515 0.36289
0.700694 0.110613 0.352209
0.700511 0.106737 0.337713
0.70248 0.095613 0.294759
0.0311742 0.122286 0.311894
0.0338598 0.110048 0.322087
0.172152 0.0885328 0.342214
0.378225 0.100114 0.303029
0.509041 0.0881361 0.303059
0.65713 0.0921187 0.29012
0.700221 0.0954147 0.281163
0.699138 0.0881056 0.249348
0.700328 0.0748302 0.17406
0.0229343 0.338094 0.330846
0.0226444 0.334234 0.327367
0.0247044 0.331945 0.326543
0.393149 0.389044 0.364797
0.604669 0.350851 0.335882
0.738674 0.345571 0.319051
0.78143 0.336248 0.293675
0.772595 0.322896 0.263386
0.763272 0.321798 0.227985
0.0522621 0.530434 0.462882
0.0511635 0.528191 0.451667
0.0505379 0.523735 0.428946
0.197543 0.541787 0.390066
0.490684 0.565103 0.319966
0.704707 0.542306 0.358755
0.774197 0.537804 0.35108
0.774945 0.526513 0.329213
0.770825 0.506996 0.279911
0.111406 0.699535 0.590387
0.113436 0.698268 0.581079
0.122377 0.693843 0.55938
0.164736 0.686961 0.493202
0.403555 0.696681 0.410773
0.608331 0.707637 0.314595
0.799237 0.687648 0.344137
0.810864 0.681086 0.334691
0.805722 0.65977 0.308598
0.201221 0.811887 0.692958
0.202884 0.808438 0.680079
0.210986 0.803632 0.65832
0.242969 0.793256 0.604807
0.327428 0.783825 0.496376
0.550042 0.794934 0.44033
0.722927 0.80914 0.384237
0.822889 0.797024 0.371664
0.823713 0.788144 0.35668
0.215457 0.828275 0.717937
0.218524 0.827466 0.707378
0.227878 0.824628 0.687999
0.257221 0.818677 0.644083
0.310369 0.810712 0.549767
0.527825 0.804379 0.474434
0.642237 0.824796 0.431815
0.809583 0.825177 0.406653
0.82565 0.824903 0.419348
0.216403 0.828153 0.713939
0.219684 0.826963 0.704311
0.227619 0.824796 0.687816
0.251972 0.819593 0.651041
0.289586 0.812726 0.565225
0.476081 0.797909 0.457298
0.598733 0.81738 0.43978
0.769558 0.829114 0.401801
0.825711 0.824887 0.418357
0.16025 0.0518502 0.443778
0.226307 0.0519112 0.422889
0.303059 0.0558633 0.40032
0.388647 0.0624552 0.393866
0.515389 0.072221 0.423667
0.667048 0.116243 0.479881
0.711208 0.129229 0.517571
0.709865 0.125429 0.509514
0.704799 0.113207 0.466087
0.0737469 0.0620127 0.449989
0.15964 0.051545 0.439185
0.27451 0.0522927 0.405631
0.376761 0.0644694 0.391424
0.506813 0.0695811 0.415351
0.65977 0.111589 0.467964
0.709682 0.123873 0.507149
0.706676 0.115709 0.489769
0.704448 0.115038 0.448768
0.0439002 0.0825818 0.429862
0.0407263 0.0607004 0.427893
0.187182 0.0509194 0.427665
0.345968 0.0614176 0.382971
0.488685 0.0648051 0.397971
0.64329 0.104097 0.446342
0.702922 0.113848 0.476326
0.702205 0.116182 0.454749
0.703655 0.118303 0.423758
0.0193484 0.291005 0.483238
0.0216983 0.280446 0.488258
0.0326543 0.258701 0.50161
0.403525 0.262379 0.547997
0.590234 0.291218 0.509865
0.722301 0.274266 0.514488
0.774227 0.254566 0.50277
0.762737 0.221546 0.468772
0.763226 0.210407 0.425345
0.0422217 0.51548 0.524788
0.0411536 0.512856 0.522072
0.0403906 0.507118 0.517342
0.177661 0.528847 0.531029
0.569696 0.563363 0.543816
0.751324 0.53727 0.527962
0.83006 0.543404 0.525399
0.82417 0.535973 0.507393
0.807309 0.517205 0.462837
0.098146 0.684504 0.635569
0.0959793 0.681926 0.630045
0.0963149 0.677516 0.618418
0.102037 0.669215 0.588647
0.461707 0.697551 0.577234
0.648798 0.716274 0.528313
0.799283 0.702617 0.551049
0.818143 0.703395 0.541772
0.811185 0.684581 0.509422
0.191669 0.799344 0.72726
0.184039 0.797971 0.719493
0.175143 0.793988 0.705623
0.167605 0.788525 0.677516
0.329976 0.782284 0.613321
0.605615 0.804013 0.61326
0.727062 0.816297 0.556481
0.837079 0.810056 0.563699
0.836789 0.798215 0.542626
0.227176 0.827878 0.762661
0.222278 0.828534 0.756069
0.216648 0.829297 0.745724
0.212589 0.829389 0.722042
0.277043 0.820691 0.650675
0.562417 0.829725 0.630014
0.677592 0.840101 0.603586
0.807706 0.845243 0.529152
0.831067 0.842039 0.526864
0.222782 0.828382 0.755947
0.218952 0.829007 0.749844
0.214374 0.829526 0.740063
0.214145 0.828885 0.717876
0.257481 0.820005 0.652354
0.43328 0.815167 0.576837
0.61767 0.825589 0.567041
0.733074 0.836713 0.484657
0.828458 0.83328 0.475547
0.265705 0.0681773 0.545129
0.312047 0.0711681 0.537942
0.377539 0.0773022 0.529885
0.460868 0.0962539 0.527108
0.553704 0.102403 0.538979
0.683894 0.121004 0.582406
0.724804 0.13994 0.610269
0.724727 0.136873 0.618952
0.72604 0.139513 0.61001
0.186297 0.0633249 0.551736
0.263844 0.0675059 0.541878
0.351049 0.0738842 0.531334
0.447074 0.0940261 0.525017
0.545235 0.100862 0.534615
0.677607 0.119356 0.57554
0.724224 0.142336 0.603082
0.724758 0.13962 0.611811
0.725673 0.143603 0.596872
0.0585336 0.0761425 0.536828
0.104402 0.0792248 0.548043
0.279133 0.0678264 0.534981
0.414435 0.0852064 0.518791
0.526696 0.0971847 0.524239
0.663203 0.115373 0.55993
0.722438 0.149828 0.587594
0.723613 0.146014 0.594644
0.722942 0.152804 0.569162
0.0601663 0.253666 0.604074
0.0622568 0.236469 0.604303
0.0666209 0.20029 0.604578
0.399588 0.151736 0.615381
0.560876 0.190585 0.589136
0.69131 0.182055 0.589853
0.738354 0.190448 0.583932
0.735195 0.179843 0.579416
0.723903 0.144076 0.534539
0.0204776 0.474159 0.638941
0.0200961 0.468162 0.641245
0.0202335 0.457267 0.646586
0.115846 0.471336 0.689387
0.593973 0.47924 0.716533
0.748577 0.508583 0.678599
0.826062 0.507622 0.680797
0.827878 0.493324 0.662776
0.824521 0.452445 0.618448
0.095552 0.670726 0.687099
0.0922255 0.667826 0.683742
0.08925 0.663172 0.679088
0.0876326 0.65388 0.670481
0.442527 0.686976 0.681529
0.702678 0.708171 0.691646
0.826368 0.694072 0.68513
0.858488 0.689998 0.67657
0.847593 0.673381 0.646616
0.178698 0.790051 0.765072
0.169467 0.78793 0.758907
0.161105 0.782177 0.749538
0.15613 0.774441 0.73312
0.382895 0.782132 0.711971
0.654536 0.803616 0.725216
0.7729 0.817441 0.694926
0.857328 0.812406 0.701457
0.853361 0.801343 0.684733
0.253727 0.83389 0.804868
0.24448 0.834562 0.80119
0.235523 0.833265 0.794049
0.227268 0.831357 0.781323
0.255512 0.830945 0.751293
0.592401 0.850568 0.746349
0.745739 0.86244 0.7514
0.818235 0.878309 0.706554
0.852583 0.875364 0.712077
0.242939 0.833738 0.798947
0.235599 0.832959 0.793805
0.229572 0.832151 0.787076
0.225788 0.83064 0.773907
0.222919 0.829236 0.743404
0.481849 0.839719 0.711818
0.692454 0.855116 0.725765
0.769497 0.868605 0.69366
0.848447 0.877989 0.686778
0.366369 0.0912642 0.628092
0.396292 0.0935988 0.626047
0.447166 0.0977493 0.622995
0.522179 0.116365 0.626474
0.617227 0.142153 0.644648
0.701457 0.137591 0.659098
0.730175 0.149798 0.678767
0.73167 0.150271 0.685924
0.731624 0.150256 0.685832
0.319661 0.0859388 0.627024
0.3626 0.0908217 0.62562
0.425467 0.0961318 0.623285
0.506539 0.110689 0.622629
0.608194 0.142702 0.640742
0.697398 0.136431 0.65626
0.729747 0.149966 0.674128
0.730709 0.149645 0.681636
0.731167 0.149981 0.684138
0.181964 0.0973068 0.626154
0.25713 0.0781109 0.622095
0.368734 0.0905013 0.621912
0.474403 0.101671 0.616892
0.58735 0.137957 0.632059
0.683421 0.133455 0.646448
0.728756 0.150332 0.664958
0.729534 0.150271 0.671565
0.729671 0.150088 0.672053
0.0956893 0.206821 0.681804
0.105135 0.186175 0.678691
0.127367 0.141268 0.663005
0.403693 0.101915 0.631464
0.550347 0.132509 0.626688
0.666987 0.14049 0.641276
0.730968 0.144793 0.651453
0.732937 0.147372 0.655695
0.733104 0.146349 0.653605
0.0421607 0.467536 0.741009
0.0465858 0.460487 0.743206
0.0561837 0.447852 0.749722
0.191669 0.444144 0.789685
0.614923 0.423804 0.797208
0.752941 0.457084 0.765835
0.824521 0.470298 0.762585
0.824537 0.458122 0.756481
0.818555 0.433249 0.733394
0.050782 0.641489 0.764584
0.0466621 0.635996 0.764385
0.0404974 0.627283 0.765072
0.0314183 0.610117 0.767422
0.418463 0.638575 0.79559
0.728588 0.653559 0.811078
0.829267 0.677409 0.79205
0.859663 0.674647 0.787854
0.858793 0.647974 0.761776
0.177081 0.77966 0.796307
0.169574 0.775906 0.792523
0.162432 0.77052 0.787442
0.157137 0.76257 0.77995
0.365499 0.767025 0.773846
0.632654 0.799084 0.789975
0.798718 0.81091 0.798718
0.866896 0.803601 0.794781
0.86595 0.792432 0.779293
0.323522 0.838209 0.830823
0.308705 0.836835 0.827512
0.293462 0.834165 0.822217
0.27155 0.829801 0.814511
0.327916 0.827451 0.799542
0.605051 0.853529 0.806516
0.763027 0.86949 0.813855
0.840452 0.887388 0.808804
0.874327 0.882307 0.804669
0.320195 0.83801 0.827893
0.310719 0.83859 0.825833
0.298741 0.837781 0.82179
0.277668 0.836683 0.815991
0.269688 0.835538 0.800504
0.514565 0.854871 0.796902
0.700908 0.877607 0.80499
0.81767 0.894881 0.818128
0.865675 0.912718 0.813413
0.411582 0.098497 0.647562
0.438178 0.100847 0.648173
0.479408 0.103151 0.645045
0.55201 0.12697 0.654475
0.644587 0.152026 0.672114
0.720607 0.149096 0.685817
0.731884 0.150195 0.686015
0.731884 0.150195 0.686015
0.731762 0.15024 0.685954
0.378622 0.0957656 0.647349
0.411307 0.0984817 0.647593
0.462608 0.10248 0.646464
0.537804 0.120974 0.651881
0.636713 0.153811 0.670893
0.716014 0.148791 0.684977
0.731945 0.15024 0.686046
0.731884 0.150195 0.686015
0.731838 0.150225 0.685985
0.277119 0.0835584 0.643107
0.341268 0.0915084 0.645548
0.417395 0.0990616 0.647654
0.508919 0.111406 0.647776
0.618616 0.150591 0.667597
0.705257 0.147997 0.681682
0.734981 0.153384 0.689693
0.734768 0.152987 0.689357
0.733852 0.151904 0.687999
0.222644 0.180789 0.723156
0.22652 0.154864 0.70399
0.225132 0.109117 0.657435
0.437522 0.100816 0.64828
0.574487 0.136339 0.659159
0.685802 0.149889 0.680186
0.741451 0.161837 0.697444
0.742489 0.163531 0.698665
0.742153 0.163058 0.698299
0.0855573 0.465217 0.805814
0.0999466 0.457664 0.81059
0.127657 0.443687 0.816678
0.30106 0.41915 0.82884
0.638056 0.384649 0.813565
0.762051 0.417563 0.794675
0.820844 0.428946 0.798688
0.81883 0.413901 0.794888
0.811917 0.380133 0.786007
0.0437171 0.636301 0.8168
0.041062 0.630777 0.816449
0.0368048 0.621286 0.817151
0.0422675 0.605829 0.822339
0.451575 0.625025 0.85597
0.757946 0.623316 0.863203
0.838575 0.646647 0.845685
0.863188 0.648386 0.843229
0.859907 0.627649 0.834791
0.201541 0.768246 0.834653
0.193057 0.762753 0.831556
0.182971 0.754955 0.830518
0.167605 0.742535 0.831281
0.370047 0.742245 0.835828
0.622614 0.766079 0.849332
0.812116 0.777966 0.869017
0.871977 0.787625 0.852598
0.873304 0.775967 0.843961
0.337102 0.834546 0.849287
0.320531 0.831876 0.846891
0.301625 0.82771 0.843381
0.279973 0.822675 0.838529
0.324086 0.819104 0.832486
0.601526 0.845014 0.843397
0.756069 0.865721 0.852323
0.858305 0.883177 0.866819
0.884978 0.878141 0.861021
0.367254 0.841856 0.850187
0.362158 0.842023 0.848112
0.357137 0.841993 0.845487
0.348775 0.840894 0.840772
0.359487 0.842451 0.834958
0.553384 0.861769 0.839918
0.716609 0.888197 0.850385
0.826047 0.915114 0.871611
0.892805 0.928664 0.886519
0.424735 0.0996719 0.647501
0.447929 0.100969 0.646693
0.487419 0.104967 0.645411
0.55877 0.12961 0.655634
0.648173 0.151019 0.672419
0.723629 0.149248 0.686473
0.731884 0.150195 0.686015
0.731884 0.150195 0.686015
0.731884 0.150195 0.686015
0.3953 0.0972152 0.647608
0.424475 0.0996414 0.64741
0.470161 0.103197 0.64622
0.544198 0.123735 0.653208
0.640864 0.152911 0.671595
0.719081 0.149111 0.685725
0.731884 0.150195 0.686015
0.731884 0.150195 0.686015
0.731884 0.150195 0.686015
0.310475 0.087892 0.644358
0.364096 0.0941634 0.646769
0.429633 0.0999924 0.6477
0.515877 0.11368 0.648676
0.622965 0.1523 0.668864
0.708049 0.148379 0.682628
0.731884 0.150195 0.686015
0.735195 0.153613 0.689982
0.734295 0.1523 0.688655
0.227222 0.157046 0.706096
0.224765 0.132494 0.682033
0.245151 0.0802167 0.642695
0.446693 0.100832 0.646708
0.578317 0.137194 0.659403
0.684718 0.146395 0.677668
0.737591 0.157244 0.693401
0.741955 0.162646 0.698039
0.741512 0.161898 0.697551
0.13228 0.449012 0.820172
0.138033 0.438376 0.818799
0.145113 0.417762 0.816037
0.305211 0.380697 0.820569
0.625864 0.339223 0.797635
0.747372 0.371191 0.780285
0.809461 0.38088 0.785885
0.806943 0.362463 0.780896
0.797742 0.320256 0.768261
0.0565347 0.631998 0.832471
0.0521401 0.625269 0.830854
0.0498817 0.61355 0.829633
0.0531167 0.591959 0.828809
0.455207 0.60351 0.857679
0.756329 0.597345 0.856413
0.835584 0.620981 0.845121
0.858778 0.621988 0.844816
0.854582 0.59852 0.839078
0.254353 0.762112 0.846586
0.246387 0.756039 0.845899
0.233082 0.746563 0.845258
0.20853 0.730144 0.844266
0.351263 0.725582 0.846799
0.619516 0.746853 0.867231
0.820813 0.756817 0.884352
0.873564 0.765667 0.874342
0.874006 0.753704 0.871809
0.347662 0.829572 0.85745
0.341054 0.825956 0.85626
0.33312 0.820874 0.854917
0.325872 0.81384 0.853513
0.365988 0.805982 0.853284
0.600046 0.829038 0.868482
0.745769 0.845747 0.879698
0.86128 0.859693 0.903151
0.883833 0.859297 0.897017
0.384756 0.843336 0.860594
0.384756 0.843336 0.860594
0.384756 0.843336 0.860594
0.384756 0.843336 0.860594
0.402304 0.84445 0.860533
0.555138 0.863157 0.868666
0.711482 0.890318 0.88278
0.826734 0.91928 0.902678
0.899046 0.936187 0.919097
