bundles/resolve-cinematic-luts/Phantom Luts/Ursa G2 Phntm Film LUTs - V1/Gen4/White Balance Offset (Magenta Boost)/Ursa EastmanRM Gen4 WBO.cube
TITLE "Generated by Resolve"
LUT_3D_SIZE 33
0.0427558 0.0358892 0.0391394
0.043061 0.0355535 0.0385748
0.0460212 0.0347906 0.0378119
0.0558022 0.0337987 0.0374914
0.0749371 0.0330053 0.0372473
0.102525 0.0324559 0.0373236
0.132967 0.0315862 0.0370642
0.163684 0.0310826 0.037171
0.193256 0.0309758 0.0379339
0.222385 0.0310674 0.0393988
0.256321 0.0306706 0.0404212
0.294194 0.0299535 0.0412451
0.330632 0.0295872 0.0416266
0.364553 0.0295109 0.0421302
0.393805 0.0302586 0.0437629
0.42182 0.0300603 0.0455024
0.448341 0.0301213 0.0477302
0.473243 0.0305638 0.0501259
0.496025 0.0311131 0.0530098
0.516609 0.0318303 0.0562142
0.534295 0.0329137 0.0592813
0.549249 0.0342107 0.0631113
0.562188 0.0360876 0.0673686
0.572106 0.0381476 0.0716411
0.579416 0.0396277 0.0746319
0.584787 0.0406958 0.0768902
0.587655 0.0416876 0.0785077
0.589868 0.0426032 0.0800488
0.590188 0.0434119 0.082414
0.586557 0.0448005 0.0883345
0.580423 0.0464332 0.0951705
0.568765 0.0491493 0.108339
0.556634 0.0521248 0.121782
0.0432136 0.0353857 0.0382849
0.0432136 0.0353857 0.0382696
0.0441749 0.0349737 0.037705
0.0519417 0.0344701 0.037171
0.0674601 0.0335851 0.0370947
0.0900435 0.0332036 0.037644
0.120012 0.032517 0.0377661
0.151507 0.0313115 0.0372473
0.185214 0.0307317 0.037583
0.216938 0.0300755 0.0381476
0.250721 0.0294804 0.0393683
0.287739 0.028687 0.0401312
0.323796 0.0278172 0.0406958
0.358557 0.0273747 0.0408789
0.390082 0.0273899 0.0408789
0.420081 0.0277256 0.0416876
0.446067 0.0279088 0.0433356
0.470451 0.0281376 0.0450446
0.49279 0.0285954 0.0475166
0.513191 0.029572 0.0510109
0.530617 0.0307469 0.0544594
0.5449 0.0319982 0.0581369
0.5552 0.0337377 0.0615854
0.564584 0.0354772 0.0655222
0.571099 0.0367437 0.0682689
0.576089 0.0377203 0.0704509
0.578775 0.038468 0.0720531
0.580468 0.0389563 0.073228
0.580301 0.0399176 0.0754864
0.576928 0.0413672 0.0807813
0.572015 0.0429694 0.0879225
0.559548 0.0455482 0.099733
0.547189 0.0482185 0.1131
0.0434119 0.0373846 0.0393988
0.0431678 0.0368505 0.0393072
0.0432136 0.0361791 0.0387427
0.0475776 0.0370489 0.038468
0.0587015 0.0365759 0.0377966
0.0800336 0.0355688 0.0376287
0.108293 0.0349737 0.0384222
0.138521 0.0334783 0.0383764
0.173922 0.0321355 0.0380865
0.210101 0.0311131 0.0383001
0.246296 0.0301061 0.0387427
0.28426 0.0289464 0.0395972
0.3205 0.0279545 0.0403143
0.354406 0.0275273 0.0408637
0.386389 0.0274357 0.0409094
0.416861 0.027863 0.0416114
0.445228 0.0277256 0.0421912
0.471031 0.0276799 0.0434424
0.492927 0.0280613 0.045304
0.51165 0.0288396 0.0479591
0.527855 0.0294957 0.0506905
0.540581 0.030808 0.0537881
0.550729 0.0323949 0.0573892
0.558541 0.033814 0.0601816
0.565728 0.0350958 0.0633402
0.570672 0.035584 0.0647746
0.572229 0.0360723 0.0658579
0.573968 0.0367285 0.0671397
0.573419 0.037583 0.0697337
0.569787 0.0387579 0.0748302
0.563622 0.0401617 0.0806134
0.550713 0.0422217 0.0912032
0.537514 0.0443427 0.103563
0.0450446 0.0517128 0.0437171
0.044358 0.0517433 0.0437171
0.0449683 0.050782 0.0429084
0.0483711 0.0513161 0.0421912
0.0601358 0.0505226 0.0417182
0.0819257 0.0486458 0.0409247
0.111131 0.0457923 0.0404059
0.137545 0.0437171 0.0408331
0.167712 0.0400549 0.0399176
0.203479 0.0369421 0.0395514
0.24358 0.0341802 0.0395819
0.285161 0.0317998 0.0397498
0.322606 0.0302586 0.0401617
0.355627 0.0293431 0.0408637
0.385855 0.0288243 0.0412451
0.414878 0.0287785 0.0421912
0.443885 0.0286107 0.0432746
0.469291 0.0284733 0.0436866
0.492424 0.0284886 0.0449226
0.51313 0.0291295 0.0473335
0.528344 0.0297551 0.049485
0.540597 0.0309148 0.0518959
0.549493 0.0322118 0.054963
0.556634 0.0336767 0.0574197
0.562905 0.0347295 0.0598459
0.5673 0.0351263 0.0605631
0.568597 0.0354925 0.0614328
0.569512 0.0357061 0.0621805
0.568032 0.0359503 0.0639658
0.563317 0.0366827 0.0675059
0.556588 0.037705 0.0729534
0.543374 0.0395666 0.0823377
0.529747 0.0416419 0.0940871
0.0467994 0.0733349 0.0489662
0.045716 0.0735332 0.048661
0.046128 0.0723125 0.0468452
0.0493477 0.0720073 0.0459449
0.0558785 0.0750896 0.0459297
0.0816663 0.0736095 0.0462501
0.113466 0.0675975 0.0459602
0.143816 0.0631723 0.04477
0.172442 0.0591745 0.0448005
0.202762 0.0562295 0.0446937
0.243061 0.0504158 0.0433356
0.290974 0.043061 0.0412909
0.33106 0.0384527 0.0404822
0.364706 0.0354162 0.0407416
0.393469 0.0331884 0.0418097
0.420447 0.0317388 0.0424659
0.445106 0.0303655 0.0432441
0.469673 0.0300603 0.04448
0.491829 0.0298009 0.0457313
0.511223 0.0301213 0.0478065
0.527932 0.0309453 0.0500496
0.541192 0.0320745 0.0526436
0.549767 0.0335546 0.0551308
0.556527 0.0346075 0.057145
0.561929 0.0354467 0.0586099
0.56556 0.0355535 0.0586557
0.566323 0.0356146 0.0585794
0.565621 0.0356909 0.0589914
0.564309 0.0358282 0.0598001
0.559289 0.0364385 0.062623
0.552956 0.0373083 0.066865
0.539696 0.0390326 0.075761
0.525368 0.0408942 0.0848402
0.0496681 0.0978103 0.054902
0.0482185 0.0988479 0.0546883
0.0483864 0.0975662 0.052079
0.0518044 0.096849 0.0501106
0.0592355 0.100633 0.0505074
0.0711223 0.103334 0.0505837
0.108568 0.101778 0.0514229
0.145113 0.0958877 0.0516823
0.180423 0.0871748 0.0505074
0.217243 0.0776532 0.0502174
0.252995 0.07187 0.0495155
0.291615 0.0666972 0.0482338
0.334234 0.0603494 0.0469215
0.374289 0.0530861 0.0446326
0.408606 0.0459907 0.043183
0.436408 0.0416266 0.0430304
0.459968 0.038529 0.044358
0.480949 0.0361944 0.0452735
0.499352 0.0341344 0.0465858
0.515435 0.0336156 0.0487373
0.530755 0.0340276 0.0508431
0.541253 0.0341802 0.053315
0.549035 0.0349126 0.0561532
0.555978 0.0365148 0.0583658
0.561303 0.037232 0.0596323
0.564904 0.0373236 0.0598764
0.566033 0.0373541 0.0599069
0.565835 0.0374304 0.0600595
0.56527 0.0375219 0.060441
0.561074 0.037995 0.0623636
0.554879 0.0386816 0.0654459
0.540902 0.0402533 0.0725567
0.526711 0.0422065 0.0810712
0.0534524 0.121508 0.0620584
0.0517891 0.123293 0.0615549
0.0530556 0.122316 0.058793
0.0575723 0.120317 0.0543832
0.0687572 0.12047 0.0517586
0.0880598 0.124651 0.0525521
0.11104 0.126314 0.0514229
0.155322 0.122225 0.0513619
0.197055 0.117784 0.0522011
0.239139 0.106859 0.0525673
0.280659 0.095079 0.0509499
0.318593 0.086305 0.0505226
0.353552 0.0812543 0.0502174
0.384543 0.0782635 0.0492256
0.418891 0.0738231 0.0489662
0.449317 0.0692912 0.0488594
0.476814 0.0626535 0.0486915
0.500053 0.0545815 0.0483406
0.519127 0.0488136 0.0487984
0.534844 0.0468299 0.0505837
0.547616 0.0446784 0.0541848
0.556588 0.0433661 0.0565957
0.561303 0.0427405 0.0590066
0.565942 0.04271 0.0610361
0.569497 0.0426184 0.0626383
0.571664 0.0419013 0.0630045
0.572457 0.0416724 0.0630198
0.572152 0.0416114 0.0630808
0.572015 0.0417029 0.0632334
0.569848 0.0420844 0.0643626
0.565927 0.0426795 0.0663157
0.557565 0.0438239 0.0713512
0.548257 0.0451514 0.0763714
0.0644388 0.143679 0.0663462
0.061799 0.146227 0.0658732
0.0606394 0.147097 0.0652476
0.0639811 0.14548 0.060914
0.075349 0.144747 0.0570382
0.0974441 0.148684 0.0565347
0.116777 0.153292 0.0579385
0.138262 0.155962 0.0574655
0.190997 0.150301 0.0567483
0.246571 0.143832 0.0563516
0.296773 0.131701 0.0568093
0.336095 0.119478 0.0551003
0.370672 0.108476 0.0551003
0.403525 0.103273 0.055314
0.434424 0.100099 0.0555123
0.463798 0.0975967 0.0548714
0.493721 0.0948959 0.0546883
0.519844 0.0916457 0.0552987
0.542046 0.088304 0.0568399
0.560525 0.085069 0.0592203
0.576104 0.0778058 0.0595712
0.587747 0.0706798 0.0607462
0.5944 0.0691234 0.0646372
0.598779 0.0683757 0.0666819
0.602136 0.0667735 0.0710765
0.603143 0.0643931 0.0718242
0.599344 0.0598764 0.0706493
0.596185 0.0575265 0.0701457
0.594156 0.0558938 0.0695354
0.590417 0.0547341 0.0700389
0.584329 0.0538796 0.0715496
0.573358 0.0536812 0.0758984
0.561944 0.0533455 0.0808728
0.0699321 0.170153 0.0758068
0.0662852 0.173114 0.0753338
0.0648051 0.175204 0.0741894
0.0677806 0.174517 0.0711833
0.0750439 0.172503 0.065095
0.0961776 0.173861 0.0606546
0.120607 0.181155 0.0615854
0.14197 0.187015 0.0628824
0.16556 0.190814 0.0625162
0.235996 0.182483 0.0609445
0.30782 0.177447 0.0610971
0.359533 0.166522 0.0622873
0.398047 0.152682 0.0636759
0.428855 0.141848 0.0631571
0.459663 0.133608 0.0641794
0.489906 0.131197 0.0654765
0.519387 0.130571 0.0666361
0.547005 0.12958 0.0667124
0.573663 0.128695 0.0674754
0.598138 0.127733 0.0698863
0.618326 0.12694 0.0732433
0.635737 0.127764 0.0792096
0.647654 0.128267 0.0849012
0.65597 0.127153 0.0892958
0.661799 0.123735 0.090898
0.664714 0.120775 0.0911727
0.660716 0.11426 0.0887465
0.654719 0.107607 0.085008
0.649241 0.10367 0.0836194
0.642893 0.0998703 0.0833906
0.635569 0.097612 0.0846571
0.624292 0.0973526 0.0899672
0.612696 0.0972915 0.0959793
0.0716716 0.199847 0.0826734
0.0668498 0.202899 0.0818647
0.0661936 0.206348 0.0809644
0.0686961 0.207446 0.0780499
0.0740673 0.205859 0.0733806
0.0868086 0.204868 0.0657359
0.109606 0.210437 0.0627909
0.13933 0.22266 0.0645151
0.166613 0.232059 0.0666972
0.19942 0.238712 0.0669566
0.291249 0.230213 0.0662394
0.370459 0.225925 0.0669261
0.425788 0.2168 0.0696117
0.46685 0.202182 0.0752728
0.498421 0.189837 0.0769513
0.525002 0.177813 0.0788281
0.553704 0.174853 0.0810101
0.582223 0.172656 0.083238
0.609903 0.172625 0.0843366
0.636942 0.173342 0.0861524
0.662043 0.174517 0.0890669
0.683955 0.176501 0.0936751
0.701961 0.178393 0.100557
0.714778 0.180652 0.108171
0.725582 0.18323 0.114824
0.732754 0.185199 0.118914
0.731228 0.182864 0.11928
0.727459 0.1794 0.118013
0.724041 0.176349 0.117021
0.719112 0.174243 0.118105
0.71223 0.172671 0.120775
0.700999 0.172686 0.127428
0.689204 0.173571 0.135164
0.0704509 0.23653 0.0888533
0.0658122 0.239872 0.088777
0.0652171 0.244327 0.0881666
0.0687419 0.246952 0.0845045
0.0740368 0.246769 0.0802777
0.0823987 0.245075 0.0740215
0.0988785 0.247898 0.0668498
0.128664 0.260761 0.0663157
0.161593 0.275257 0.0679637
0.201678 0.288106 0.0720226
0.247211 0.296407 0.0716411
0.350469 0.287175 0.0714427
0.433814 0.282429 0.0731975
0.490349 0.274907 0.0734112
0.531319 0.262272 0.0774548
0.56492 0.247837 0.0849317
0.591867 0.237781 0.0889143
0.618357 0.226505 0.0927138
0.645716 0.223468 0.0965591
0.672221 0.221622 0.100404
0.697765 0.223148 0.104829
0.719982 0.226108 0.108858
0.739071 0.230579 0.113909
0.754589 0.234623 0.120394
0.766873 0.238407 0.127413
0.776181 0.242145 0.133379
0.77612 0.240482 0.134279
0.774182 0.237751 0.134005
0.77258 0.23566 0.13373
0.769451 0.234089 0.134813
0.765057 0.233082 0.137636
0.756664 0.233906 0.144427
0.746075 0.235187 0.152514
0.0702373 0.278889 0.0956588
0.0654459 0.282658 0.0968338
0.0649882 0.28719 0.0974136
0.0685435 0.289937 0.0941634
0.076051 0.292546 0.0893568
0.0841382 0.291707 0.0830854
0.0963607 0.291295 0.0746777
0.119677 0.299794 0.0686961
0.149722 0.314641 0.0674144
0.190433 0.329946 0.0693828
0.245121 0.345388 0.0734722
0.302113 0.355413 0.0732891
0.408881 0.345403 0.0746929
0.492454 0.340246 0.0784466
0.548821 0.335897 0.0777142
0.590036 0.325429 0.0789807
0.623621 0.309133 0.0869612
0.653117 0.297322 0.0945907
0.678355 0.287938 0.0993362
0.701671 0.280217 0.105318
0.72607 0.276417 0.112306
0.747066 0.276204 0.119051
0.764538 0.279179 0.124971
0.778881 0.285801 0.131502
0.790875 0.292226 0.13843
0.799405 0.296803 0.144549
0.801083 0.29688 0.146075
0.800198 0.294911 0.145892
0.799496 0.293568 0.14583
0.798367 0.292454 0.146563
0.796323 0.292226 0.147875
0.790326 0.292927 0.153307
0.781888 0.294438 0.161028
0.0674144 0.321492 0.102953
0.0631266 0.324926 0.104692
0.061738 0.328832 0.105715
0.065156 0.332296 0.102312
0.0730907 0.335027 0.0963607
0.082887 0.33521 0.0889906
0.0962387 0.334035 0.0806134
0.113268 0.334905 0.0680552
0.144396 0.347967 0.0628214
0.182345 0.365713 0.0629435
0.230808 0.383993 0.0670481
0.293065 0.401831 0.0734264
0.359838 0.412543 0.0751507
0.463737 0.401755 0.0789044
0.544167 0.396811 0.0856031
0.597711 0.393515 0.0855726
0.639658 0.385016 0.0865492
0.672038 0.370581 0.0910506
0.70248 0.35761 0.102022
0.727611 0.347295 0.11043
0.750408 0.34107 0.117906
0.769268 0.336477 0.1252
0.785626 0.334112 0.133959
0.798932 0.335668 0.142931
0.809934 0.341375 0.150469
0.817273 0.347539 0.155642
0.819516 0.349844 0.157458
0.819104 0.348608 0.157336
0.818647 0.347417 0.157275
0.817868 0.346685 0.157382
0.817044 0.345953 0.157855
0.812451 0.346273 0.16228
0.805325 0.347539 0.170077
0.0625772 0.362814 0.109346
0.0585336 0.365332 0.110582
0.0574197 0.367941 0.110689
0.059617 0.37084 0.106569
0.0657206 0.374121 0.102007
0.0768444 0.376379 0.0935531
0.0877852 0.375601 0.0854353
0.10219 0.374945 0.0757458
0.124086 0.378241 0.0603799
0.163684 0.395483 0.0573587
0.214084 0.416388 0.0613413
0.273838 0.437873 0.0686503
0.34284 0.457191 0.0753948
0.416022 0.467811 0.0795758
0.515038 0.456535 0.0865339
0.590936 0.451865 0.0962387
0.641108 0.449332 0.100237
0.680201 0.442618 0.102724
0.712139 0.432334 0.105364
0.739925 0.417472 0.113787
0.765469 0.407233 0.125612
0.786801 0.400427 0.135424
0.802945 0.398077 0.144915
0.815549 0.398718 0.154131
0.825086 0.400229 0.162402
0.83093 0.403479 0.16968
0.832471 0.406073 0.170397
0.832074 0.404974 0.170199
0.831937 0.404181 0.170169
0.831769 0.403738 0.170123
0.831617 0.403525 0.170108
0.82826 0.404242 0.1738
0.821744 0.406134 0.181506
0.0568551 0.403342 0.121248
0.053193 0.405142 0.122057
0.051194 0.407202 0.121828
0.0525368 0.409339 0.117769
0.0561685 0.412207 0.111345
0.0648508 0.415 0.101534
0.0758373 0.415457 0.0925917
0.088777 0.414282 0.0823072
0.107149 0.414725 0.0703593
0.143084 0.423407 0.0569314
0.196323 0.443946 0.0574807
0.252827 0.466361 0.06421
0.322057 0.4907 0.0749523
0.395056 0.509941 0.0827039
0.470146 0.51986 0.0893568
0.559838 0.50837 0.0987716
0.632975 0.503868 0.111406
0.679072 0.500999 0.119341
0.714885 0.497032 0.124926
0.743999 0.490745 0.127581
0.769696 0.476799 0.135302
0.792676 0.466361 0.14464
0.811276 0.460365 0.15758
0.825681 0.457862 0.170016
0.835996 0.457984 0.179675
0.841642 0.460914 0.186389
0.842664 0.464042 0.187976
0.842664 0.463432 0.187839
0.842527 0.462837 0.187533
0.842466 0.462684 0.187411
0.842481 0.462715 0.187427
0.839582 0.463584 0.191302
0.833509 0.465599 0.199451
0.0534066 0.443488 0.142611
0.0507668 0.445594 0.14522
0.0491035 0.447257 0.145174
0.0483253 0.448325 0.139361
0.0500191 0.44976 0.131075
0.0550851 0.451896 0.11841
0.0648661 0.453147 0.106065
0.0761578 0.452476 0.0947433
0.0926833 0.451667 0.0817731
0.12221 0.454582 0.0676432
0.179217 0.469215 0.0581064
0.239689 0.492439 0.063508
0.300145 0.516304 0.0753796
0.375296 0.542412 0.0915999
0.446387 0.559823 0.0988632
0.519539 0.56846 0.106294
0.602457 0.55671 0.117144
0.67158 0.55172 0.132387
0.714672 0.548592 0.143908
0.745525 0.544732 0.153292
0.771847 0.540627 0.161318
0.794034 0.532647 0.168566
0.812345 0.52401 0.17525
0.828519 0.518288 0.183658
0.840558 0.515267 0.19353
0.847639 0.516304 0.200534
0.849973 0.518639 0.203128
0.850019 0.519234 0.203021
0.850019 0.519127 0.203052
0.850004 0.519249 0.203052
0.849912 0.519478 0.202991
0.847166 0.52047 0.206912
0.841169 0.522591 0.21503
0.0542763 0.48397 0.175875
0.0519265 0.486305 0.180255
0.0502022 0.48809 0.181277
0.049073 0.488731 0.17586
0.0484321 0.488823 0.167285
0.0505531 0.489372 0.152453
0.0573739 0.489784 0.13341
0.0673838 0.489464 0.118105
0.0824292 0.488502 0.103761
0.107027 0.488273 0.0869459
0.150896 0.493111 0.0680095
0.225498 0.515038 0.0650645
0.287205 0.539925 0.0761425
0.352621 0.565011 0.0953078
0.425071 0.589212 0.114183
0.491753 0.604929 0.119631
0.562554 0.612818 0.128435
0.640391 0.601877 0.139696
0.705303 0.596811 0.157565
0.747112 0.593545 0.174746
0.775586 0.590387 0.190082
0.798108 0.58732 0.20293
0.816312 0.585306 0.211917
0.830549 0.579751 0.21912
0.842374 0.576547 0.225345
0.849668 0.575921 0.230198
0.85301 0.57702 0.233021
0.853574 0.578424 0.233249
0.85359 0.578607 0.233356
0.853559 0.578882 0.233494
0.853651 0.579416 0.233692
0.851652 0.580591 0.236835
0.847684 0.582193 0.243275
0.0592508 0.524788 0.219684
0.0568246 0.526787 0.222827
0.0545968 0.528466 0.224643
0.0531777 0.529259 0.220478
0.0523079 0.529381 0.213352
0.0515602 0.528328 0.199329
0.054612 0.527687 0.178454
0.0625772 0.526421 0.155856
0.076051 0.52517 0.137285
0.0966049 0.5234 0.116365
0.132601 0.523552 0.0924849
0.191241 0.531746 0.071458
0.273671 0.559182 0.0787823
0.340276 0.585718 0.0983444
0.406027 0.611429 0.122789
0.471229 0.633005 0.139391
0.533455 0.647852 0.147143
0.602426 0.655802 0.156191
0.674998 0.644984 0.1691
0.73669 0.639277 0.191089
0.776745 0.636378 0.213382
0.803128 0.633295 0.232242
0.822599 0.631815 0.247623
0.836866 0.630655 0.25864
0.848768 0.632319 0.267704
0.856077 0.632486 0.273945
0.859083 0.634043 0.276967
0.859876 0.635279 0.277989
0.859983 0.635447 0.278187
0.860105 0.635721 0.278508
0.860243 0.636103 0.278904
0.859648 0.636866 0.280842
0.858366 0.638056 0.284474
0.0676585 0.563745 0.266087
0.0651408 0.565332 0.26775
0.0627909 0.567086 0.270481
0.0610361 0.568109 0.268238
0.059617 0.56849 0.262303
0.0594339 0.567926 0.251072
0.0586557 0.565805 0.233249
0.0643168 0.563607 0.207324
0.0735637 0.560815 0.183764
0.0896925 0.558358 0.160601
0.117861 0.555474 0.132494
0.16939 0.556619 0.0997482
0.246555 0.573419 0.0838178
0.329229 0.603861 0.104616
0.395148 0.630472 0.129335
0.457115 0.654749 0.153994
0.514046 0.673838 0.170077
0.571481 0.687892 0.181155
0.638117 0.695628 0.192218
0.705806 0.686458 0.20679
0.765072 0.680446 0.231113
0.80412 0.677852 0.255589
0.828305 0.67631 0.27657
0.84477 0.675273 0.292134
0.857313 0.675471 0.304219
0.866819 0.676951 0.313603
0.869932 0.678294 0.317678
0.870787 0.679469 0.319142
0.870954 0.680278 0.319921
0.870863 0.680735 0.320333
0.870909 0.681361 0.320867
0.870909 0.6822 0.322133
0.870787 0.683192 0.323964
0.0818036 0.599176 0.310658
0.0800183 0.600656 0.312139
0.0769665 0.60264 0.315785
0.0746929 0.603922 0.315343
0.0731365 0.60444 0.311116
0.0723125 0.604089 0.301701
0.0714122 0.602731 0.287816
0.0719921 0.600168 0.266377
0.0785687 0.59646 0.239429
0.0901198 0.59234 0.213901
0.110185 0.588083 0.185473
0.148486 0.58436 0.14992
0.21619 0.589364 0.112657
0.312154 0.6177 0.113298
0.388586 0.64799 0.140566
0.448707 0.673075 0.169085
0.50193 0.69398 0.192447
0.555138 0.712367 0.208972
0.608927 0.725704 0.222599
0.67187 0.734386 0.236652
0.734752 0.727275 0.252094
0.790341 0.721263 0.275654
0.827741 0.719722 0.300694
0.850889 0.719249 0.320348
0.86598 0.718624 0.33608
0.876829 0.719402 0.347738
0.881361 0.720485 0.35462
0.882567 0.721599 0.356878
0.882719 0.722271 0.357763
0.882902 0.723018 0.358434
0.883009 0.723583 0.35903
0.883345 0.724254 0.359899
0.883772 0.725246 0.361028
0.103502 0.631724 0.353399
0.10103 0.633234 0.354635
0.0979782 0.635309 0.358465
0.0953689 0.636851 0.359182
0.09308 0.637751 0.356741
0.0922408 0.637369 0.349355
0.0913863 0.636118 0.337743
0.0907607 0.633814 0.320928
0.0923476 0.631022 0.297566
0.101228 0.626184 0.271229
0.115038 0.620539 0.242359
0.140261 0.614755 0.20824
0.191012 0.611948 0.164981
0.274113 0.624247 0.133852
0.374746 0.660197 0.154376
0.442649 0.688167 0.185031
0.494469 0.710307 0.212528
0.543862 0.730327 0.235096
0.594156 0.747951 0.251545
0.646235 0.761578 0.269215
0.704387 0.771023 0.285664
0.762249 0.766751 0.302007
0.813169 0.761913 0.324742
0.847425 0.760952 0.346975
0.869429 0.760769 0.364019
0.884306 0.761379 0.378012
0.893172 0.762142 0.387549
0.894209 0.762921 0.391928
0.894728 0.763684 0.393194
0.895384 0.764263 0.392554
0.896361 0.764782 0.390234
0.89839 0.765042 0.386999
0.899611 0.765484 0.38471
0.136721 0.65861 0.378286
0.134218 0.660395 0.381003
0.130587 0.662852 0.386847
0.127672 0.664347 0.389273
0.125643 0.665171 0.389059
0.124514 0.664866 0.382712
0.123445 0.663874 0.37348
0.122988 0.661967 0.359335
0.12282 0.658518 0.340078
0.125917 0.654566 0.316594
0.135454 0.648875 0.289769
0.151934 0.642329 0.257206
0.184939 0.63769 0.217456
0.251102 0.639399 0.172564
0.350988 0.665705 0.165362
0.442817 0.702708 0.198688
0.499443 0.727398 0.226627
0.546349 0.747631 0.251087
0.59469 0.766812 0.270771
0.641489 0.782727 0.288853
0.690425 0.795483 0.307332
0.74255 0.804547 0.32491
0.79411 0.801343 0.342016
0.837308 0.797436 0.362036
0.868254 0.796796 0.380636
0.888655 0.797009 0.394339
0.901717 0.798016 0.404471
0.904112 0.798428 0.410849
0.903441 0.799374 0.415198
0.90248 0.800381 0.418555
0.902586 0.801297 0.419196
0.903822 0.801602 0.417319
0.904891 0.801923 0.415259
0.169146 0.683726 0.411795
0.167437 0.68513 0.41474
0.163073 0.687343 0.420417
0.160159 0.688716 0.423117
0.157336 0.689647 0.422919
0.156146 0.689357 0.418006
0.155352 0.688396 0.410163
0.154681 0.686549 0.398306
0.154192 0.683452 0.381857
0.15346 0.679088 0.361807
0.157366 0.675074 0.340093
0.16762 0.668894 0.31075
0.186618 0.662684 0.275914
0.230961 0.658976 0.229358
0.314717 0.668925 0.194858
0.415244 0.703395 0.211185
0.487831 0.734508 0.244419
0.537713 0.756893 0.270588
0.586007 0.778027 0.293446
0.632685 0.796811 0.313054
0.678386 0.812467 0.332921
0.725856 0.825208 0.353292
0.773358 0.834073 0.373114
0.818402 0.833097 0.391424
0.853452 0.830274 0.4094
0.879393 0.829389 0.425315
0.897017 0.829419 0.43679
0.904402 0.829297 0.445624
0.903868 0.829831 0.449989
0.902541 0.830625 0.454398
0.902235 0.831495 0.456367
0.902571 0.832242 0.455802
0.903944 0.832639 0.452903
0.19733 0.706722 0.448142
0.196567 0.707286 0.44773
0.193637 0.708827 0.451087
0.190784 0.710033 0.452552
0.188617 0.710658 0.452079
0.18732 0.710369 0.448051
0.186328 0.709255 0.441108
0.185382 0.707362 0.430991
0.184131 0.704799 0.416876
0.182544 0.700694 0.39884
0.182864 0.696361 0.380682
0.187945 0.691966 0.357137
0.199237 0.685496 0.326268
0.22678 0.679973 0.285771
0.287266 0.679561 0.237034
0.382223 0.70164 0.227192
0.466606 0.735195 0.257099
0.528115 0.762615 0.288792
0.575982 0.784482 0.314168
0.623545 0.805661 0.335348
0.668971 0.823545 0.355398
0.713024 0.838819 0.376104
0.759197 0.851041 0.397543
0.800809 0.859693 0.418387
0.839246 0.860014 0.437278
0.867887 0.858198 0.453941
0.888624 0.857145 0.468116
0.900587 0.855894 0.479179
0.901167 0.855772 0.48513
0.900481 0.856748 0.488762
0.89984 0.857664 0.491722
0.89984 0.858412 0.492592
0.900572 0.859007 0.491417
0.220264 0.727718 0.482155
0.221195 0.727489 0.479454
0.220447 0.727825 0.479088
0.218891 0.728237 0.478904
0.216892 0.728511 0.478218
0.215335 0.728145 0.474479
0.213687 0.727077 0.467826
0.212802 0.725521 0.458869
0.211124 0.722759 0.446265
0.209155 0.719326 0.429664
0.20798 0.71487 0.4121
0.208103 0.710628 0.394491
0.215595 0.705425 0.368093
0.230213 0.699275 0.334462
0.270542 0.695018 0.28687
0.352499 0.703563 0.251331
0.443717 0.733623 0.267628
0.512398 0.763378 0.300755
0.566552 0.788235 0.330816
0.611475 0.809125 0.354421
0.657328 0.829358 0.375036
0.701961 0.84651 0.395407
0.74699 0.861677 0.417426
0.790311 0.872816 0.438804
0.82504 0.880293 0.46041
0.857725 0.881498 0.478676
0.881361 0.879637 0.495125
0.896376 0.87657 0.507698
0.900694 0.875273 0.514458
0.899718 0.875883 0.518791
0.899138 0.876463 0.521538
0.898802 0.877028 0.523262
0.899107 0.877501 0.523293
0.242023 0.745113 0.511879
0.243626 0.744305 0.507454
0.243809 0.743908 0.50428
0.242618 0.743816 0.502525
0.240162 0.743999 0.501244
0.23888 0.743511 0.497444
0.237491 0.742641 0.491753
0.23592 0.740414 0.48278
0.233158 0.737438 0.470573
0.229908 0.733684 0.454124
0.227665 0.728985 0.436957
0.227176 0.724514 0.420478
0.228855 0.720104 0.400748
0.238804 0.714336 0.370962
0.263172 0.708904 0.331548
0.323445 0.707713 0.281361
0.414847 0.728542 0.27631
0.488334 0.757015 0.301656
0.55079 0.784894 0.334874
0.600763 0.808011 0.362722
0.64387 0.827802 0.383673
0.687953 0.846082 0.4038
0.731929 0.861753 0.423301
0.77792 0.875013 0.443793
0.815259 0.883879 0.463142
0.849515 0.888167 0.483207
0.874495 0.887404 0.502434
0.893172 0.885176 0.519722
0.900511 0.88394 0.530251
0.899596 0.884565 0.53518
0.899092 0.88484 0.537499
0.898848 0.885069 0.538613
0.898863 0.885252 0.53904
0.248768 0.751888 0.525505
0.248615 0.751278 0.521904
0.248325 0.750393 0.518273
0.247837 0.74931 0.513436
0.246281 0.74844 0.509941
0.24448 0.747524 0.505104
0.242649 0.746212 0.499168
0.240803 0.744244 0.490608
0.237446 0.741131 0.478523
0.233082 0.736095 0.461585
