bundles/resolve-cinematic-luts/Phantom Luts/Ursa G2 Phntm Film LUTs - V1/Gen4/White Balance Offset (Magenta Boost)/Ursa Eterna Gen4 WBO.cube
TITLE "Generated by Resolve"
LUT_3D_SIZE 5
0.00927749 0.0375525 0.0374304
0.152453 0.0517433 0.0580148
0.404257 0.0882429 0.129473
0.632227 0.120012 0.192462
0.669505 0.115175 0.218936
0.0621347 0.186175 0.119127
0.176516 0.206485 0.0873121
0.516472 0.183307 0.127947
0.710567 0.177218 0.154879
0.694789 0.156069 0.149523
0.084596 0.615549 0.367742
0.0689708 0.657176 0.316579
0.566751 0.654902 0.172122
0.89778 0.658412 0.247974
0.897169 0.643 0.245777
0.247913 0.891081 0.630777
0.241703 0.895232 0.599222
0.304402 0.900465 0.42594
0.865385 0.926131 0.438361
0.941146 0.916686 0.471321
0.238895 0.89575 0.658915
0.246616 0.892912 0.629541
0.25243 0.891478 0.509499
0.719661 0.914885 0.3794
0.941924 0.932418 0.506508
0.0381933 0.0440375 0.140551
0.172732 0.058732 0.125902
0.411185 0.0891737 0.193378
0.673884 0.120439 0.288212
0.707347 0.118715 0.335027
0.0552224 0.163882 0.147112
0.181415 0.181598 0.180667
0.512825 0.168719 0.208881
0.689006 0.136797 0.237934
0.683757 0.117906 0.258854
0.0799115 0.57232 0.415259
0.0615549 0.603754 0.389563
0.551553 0.631876 0.165759
0.893538 0.628336 0.249805
0.89514 0.607858 0.244816
0.241154 0.876326 0.676966
0.239826 0.880156 0.650278
0.27895 0.892851 0.439582
0.8533 0.919005 0.426108
0.938293 0.907179 0.450172
0.255589 0.893141 0.718044
0.261326 0.889158 0.691966
0.252613 0.892668 0.551827
0.696178 0.912932 0.373632
0.942245 0.932357 0.508583
0.138643 0.0639353 0.363684
0.26125 0.0743725 0.384115
0.461769 0.101137 0.328954
0.698344 0.131807 0.407446
0.725856 0.127565 0.473091
0.0419013 0.117586 0.279408
0.037583 0.0535744 0.352071
0.465324 0.104326 0.354376
0.699016 0.134188 0.433036
0.722087 0.132326 0.504189
0.0822309 0.527062 0.468223
0.065568 0.547646 0.501442
0.562448 0.560845 0.545251
0.889967 0.561715 0.574319
0.918349 0.540764 0.584192
0.245869 0.833494 0.716915
0.218952 0.835492 0.715602
0.377798 0.850217 0.659403
0.829999 0.877699 0.599252
0.941238 0.86685 0.668284
0.295003 0.885954 0.78529
0.274693 0.891157 0.783047
0.28751 0.887114 0.716915
0.679942 0.923369 0.66009
0.951141 0.938109 0.682002
0.281834 0.0849317 0.563119
0.356542 0.0907759 0.607614
0.547555 0.109331 0.594568
0.717235 0.141238 0.565515
0.728786 0.137407 0.584894
0.0345464 0.059556 0.451652
0.158923 0.0733349 0.534493
0.515389 0.104433 0.615824
0.713344 0.14493 0.579446
0.724743 0.141649 0.609537
0.0530709 0.490089 0.596765
0.0359045 0.486366 0.640116
0.381689 0.481865 0.773999
0.883085 0.474083 0.729488
0.913329 0.455879 0.744579
0.249302 0.802197 0.745556
0.206546 0.800198 0.750332
0.394995 0.804623 0.757153
0.833295 0.820462 0.806104
0.943893 0.823117 0.820615
0.369482 0.88806 0.832624
0.335775 0.900236 0.846174
0.399115 0.906584 0.836576
0.791531 0.931151 0.87924
0.962188 0.949218 0.893629
0.384955 0.0962539 0.661418
0.412787 0.0979477 0.668681
0.583795 0.11873 0.701991
0.730343 0.149783 0.721904
0.729763 0.150011 0.720424
0.235401 0.0854047 0.62034
0.297597 0.0903334 0.638285
0.510582 0.106355 0.686152
0.730663 0.149996 0.722225
0.73167 0.150835 0.723339
0.0658579 0.484703 0.740505
0.0740215 0.476493 0.760449
0.225666 0.409888 0.842115
0.842161 0.338079 0.883238
0.873594 0.316136 0.860792
0.224308 0.790341 0.818799
0.218082 0.774502 0.823911
0.210712 0.73022 0.832288
0.730556 0.76495 0.911833
0.928267 0.763531 0.915969
0.384054 0.905608 0.883757
0.384634 0.905898 0.885847
0.393973 0.90721 0.879408
0.785061 0.934936 0.925277
0.955062 0.954925 0.953338
