bundles/resolve-cinematic-luts/Phantom Luts/Ursa G2 Phntm Film LUTs - V1/Gen4/White Balance Offset (Magenta Boost)/Ursa Bleach Gen4 WBO.cube
TITLE "Generated by Resolve"
LUT_3D_SIZE 33
0.0213321 0.0332799 0.0231785
0.0213321 0.0332799 0.0231785
0.0213321 0.0332799 0.0231785
0.0233921 0.0336614 0.0236515
0.0284886 0.0346532 0.0243992
0.0380713 0.0358434 0.0246891
0.0527352 0.0365454 0.0262913
0.0682383 0.0367132 0.0275578
0.085359 0.0377203 0.0296178
0.105409 0.0389715 0.0320745
0.127611 0.0409857 0.0339208
0.153429 0.0429236 0.0362402
0.181796 0.0451362 0.0381781
0.212665 0.047425 0.0408331
0.244297 0.049836 0.0433051
0.274205 0.0524453 0.0459907
0.304829 0.0546273 0.0491646
0.336767 0.0563821 0.0525978
0.370428 0.0579538 0.0557412
0.408682 0.0590372 0.0585641
0.448997 0.0598154 0.0610971
0.485313 0.060914 0.0643931
0.51783 0.062623 0.0679026
0.547311 0.0645457 0.0715801
0.574411 0.066453 0.0755169
0.600031 0.0683757 0.0795148
0.624369 0.0704814 0.0838483
0.645823 0.0722667 0.0882429
0.665095 0.0741131 0.0918135
0.682094 0.0754864 0.0949874
0.697505 0.0765545 0.097612
0.709834 0.0768902 0.0993515
0.716655 0.0779126 0.101259
0.0213321 0.0332799 0.0231785
0.0213321 0.0332799 0.0231785
0.0213321 0.0332799 0.0231785
0.0232395 0.0336461 0.023621
0.0296788 0.0347295 0.0246281
0.0416724 0.0358434 0.0248112
0.058381 0.0369879 0.026978
0.0760357 0.0375219 0.0287327
0.0969863 0.0388647 0.0316014
0.120729 0.0406348 0.0335699
0.147265 0.0425269 0.0358282
0.176516 0.0447089 0.0377508
0.208896 0.0469673 0.0402991
0.24123 0.0496681 0.0432136
0.27187 0.0520027 0.0453956
0.303075 0.0542306 0.0485084
0.335271 0.0559243 0.0517586
0.369528 0.0572366 0.0544747
0.408515 0.0583352 0.0573434
0.448386 0.0589456 0.0596475
0.484749 0.0600137 0.0624399
0.517128 0.0615396 0.0655833
0.546181 0.0633707 0.0691081
0.573129 0.0650797 0.0727855
0.598474 0.0670634 0.0768444
0.621897 0.0686046 0.0802625
0.642496 0.0699016 0.0833906
0.661753 0.0716411 0.0872053
0.678004 0.0722972 0.0894942
0.693141 0.073228 0.0915541
0.704555 0.0730602 0.092134
0.712932 0.073167 0.0930495
0.713909 0.0740063 0.0944686
0.0213321 0.0332799 0.0231785
0.0213321 0.0332799 0.0231785
0.0213321 0.0332799 0.0231785
0.0220035 0.0333867 0.0233463
0.0292821 0.0348669 0.0245823
0.0430457 0.036347 0.0251164
0.0614786 0.0373999 0.0273289
0.0816358 0.0385595 0.0300298
0.103975 0.0396887 0.0324712
0.129915 0.0412604 0.0339818
0.158465 0.042771 0.0357519
0.190661 0.0447089 0.037583
0.223911 0.046479 0.0394293
0.255039 0.0485542 0.0415656
0.286168 0.0504158 0.0436103
0.31783 0.052491 0.0457618
0.350713 0.0540475 0.0482948
0.387213 0.0551919 0.0504616
0.426535 0.0552682 0.0515755
0.463676 0.055787 0.0536049
0.497871 0.056672 0.0559548
0.528634 0.0581521 0.0591897
0.556619 0.0598306 0.0627298
0.582818 0.0614633 0.0667277
0.606424 0.0629282 0.0698711
0.628275 0.0642252 0.0728313
0.647074 0.0651408 0.0753033
0.663722 0.0654612 0.0770581
0.678584 0.066041 0.0786297
0.691127 0.0662699 0.0794995
0.702113 0.0660105 0.0797284
0.70663 0.0662089 0.0796674
0.707973 0.0667277 0.0799115
0.0218967 0.0347753 0.0236362
0.0218662 0.0346838 0.0236515
0.0217136 0.0343023 0.0235142
0.0217441 0.0337224 0.0234073
0.0267185 0.035996 0.0244297
0.0377813 0.0380713 0.0252537
0.057023 0.0388495 0.0266575
0.0791638 0.0403601 0.0290532
0.103822 0.0411383 0.0314488
0.13193 0.0419318 0.0333257
0.1626 0.0433051 0.0352483
0.193942 0.0448615 0.0365301
0.225971 0.0462196 0.0377813
0.258213 0.0479591 0.0395819
0.289082 0.0497597 0.0411383
0.322301 0.0514992 0.0429694
0.355688 0.0529183 0.0448157
0.391318 0.0536202 0.0460059
0.429786 0.0538186 0.0471656
0.466712 0.0542458 0.0483864
0.50013 0.0550088 0.0504158
0.529274 0.0558785 0.0525216
0.556786 0.0577554 0.0557107
0.581109 0.0588235 0.0580758
0.604212 0.0599527 0.060441
0.625177 0.0608988 0.0619211
0.64332 0.0617838 0.0634623
0.659907 0.0623941 0.0645762
0.674647 0.0626383 0.0650492
0.686687 0.0627146 0.0652476
0.698009 0.0626688 0.0652323
0.701671 0.0629587 0.0653849
0.704067 0.0632944 0.0656596
0.0244907 0.0437171 0.0280308
0.0255283 0.0470893 0.0294957
0.0259098 0.0484932 0.0296635
0.027451 0.0484321 0.0281071
0.0347143 0.0502785 0.0294194
0.0467536 0.0535897 0.0323033
0.0662242 0.0544289 0.03122
0.0889448 0.0538338 0.0332799
0.114107 0.0534524 0.0346532
0.142718 0.0533913 0.0365606
0.173877 0.0530861 0.0386511
0.206531 0.0537118 0.040589
0.238712 0.0540932 0.0414282
0.269322 0.0541848 0.0413825
0.299855 0.0555123 0.0429541
0.330632 0.0560311 0.0437476
0.362753 0.0563821 0.0453498
0.400534 0.057435 0.046479
0.436728 0.0565957 0.0460365
0.471916 0.0565805 0.047364
0.502739 0.0569924 0.0486458
0.531212 0.0576028 0.0503853
0.55758 0.0586862 0.052491
0.5823 0.0603189 0.054902
0.605676 0.0614176 0.0569619
0.62623 0.0623178 0.058793
0.645045 0.0634928 0.0604105
0.661158 0.0640269 0.0610361
0.676265 0.0647746 0.0619974
0.68806 0.0645609 0.0612192
0.698329 0.0645151 0.0602579
0.70251 0.0646677 0.0597848
0.706157 0.0649424 0.0595407
0.0307469 0.0644541 0.0377813
0.0315404 0.0687724 0.0394598
0.0326696 0.0711681 0.039704
0.0350347 0.0710155 0.0364691
0.0446937 0.0713359 0.0351873
0.0558938 0.0755016 0.0376898
0.0754101 0.0798047 0.0370184
0.104173 0.0775311 0.0377813
0.133242 0.0767834 0.04094
0.164584 0.0733043 0.043534
0.196582 0.0734722 0.0456397
0.229526 0.0731823 0.0480354
0.262348 0.0730449 0.0499123
0.295171 0.0730144 0.0518196
0.326741 0.0730144 0.052842
0.359289 0.0726329 0.0528267
0.393011 0.0715496 0.0523537
0.429969 0.0699474 0.0512551
0.464927 0.0687419 0.0506905
0.495949 0.0681621 0.0506752
0.524437 0.068513 0.0525063
0.54931 0.0688792 0.0533913
0.572 0.0684367 0.0539254
0.593637 0.0682841 0.0551919
0.615274 0.069688 0.0576333
0.635843 0.0710613 0.0595712
0.656153 0.0738537 0.062623
0.671519 0.0740063 0.0633555
0.687999 0.0763104 0.0647898
0.69868 0.0753796 0.0645762
0.707713 0.0747692 0.0640726
0.714137 0.0756542 0.0641642
0.71931 0.0775158 0.0647746
0.0365148 0.0903029 0.047715
0.0373846 0.0952621 0.0492714
0.0380255 0.0981613 0.0481422
0.0409552 0.0980697 0.044358
0.0499123 0.0976883 0.0405585
0.0672923 0.102113 0.0422827
0.081651 0.106477 0.0449989
0.107439 0.110948 0.0412299
0.145647 0.109224 0.0422065
0.185016 0.104463 0.046952
0.223255 0.0969558 0.0524147
0.259342 0.0964675 0.0548562
0.293584 0.0963149 0.0577859
0.326223 0.0963607 0.0599222
0.358114 0.0970016 0.0614633
0.396735 0.0956436 0.0628672
0.436271 0.0942092 0.0633707
0.473762 0.0931563 0.0635843
0.506615 0.0928359 0.0644999
0.53489 0.0929122 0.0654459
0.56025 0.0935073 0.0665141
0.583871 0.094789 0.0677653
0.605447 0.0954452 0.0688182
0.626459 0.0964675 0.0700999
0.647776 0.0984207 0.0717327
0.667216 0.100389 0.0739147
0.685618 0.102861 0.0758373
0.702296 0.105623 0.077821
0.717784 0.1084 0.0798505
0.733028 0.111955 0.0822766
0.743542 0.114244 0.0834363
0.75259 0.117174 0.0850385
0.757198 0.119677 0.0867781
0.0413214 0.117357 0.0564736
0.0420386 0.122484 0.0575265
0.0429084 0.126543 0.0570077
0.0470436 0.127062 0.052491
0.0542763 0.126238 0.0471809
0.0709392 0.129259 0.0452125
0.0921492 0.135378 0.0479133
0.108858 0.140002 0.0508125
0.141421 0.144121 0.0437171
0.1906 0.143587 0.0446021
0.238819 0.139132 0.0511025
0.283726 0.130892 0.0594492
0.323064 0.125551 0.06392
0.36144 0.122713 0.0671244
0.401846 0.121736 0.0688945
0.442634 0.12108 0.0703593
0.479667 0.121431 0.0719158
0.512169 0.122759 0.0739147
0.542504 0.123842 0.0767224
0.570047 0.126024 0.0798047
0.595804 0.128084 0.0829633
0.619333 0.129793 0.0859236
0.642054 0.132448 0.0890211
0.663752 0.135012 0.0919509
0.686061 0.138918 0.0960098
0.705486 0.142351 0.0989242
0.724147 0.146639 0.102388
0.741573 0.150515 0.10544
0.758312 0.156451 0.109377
0.773999 0.162325 0.112871
0.786084 0.167636 0.116274
0.798352 0.173983 0.119677
0.801007 0.177401 0.121736
0.0445869 0.147036 0.0671397
0.0456245 0.153643 0.0686809
0.0478523 0.157824 0.0662089
0.0524147 0.159548 0.0612955
0.0601053 0.158343 0.054612
0.075761 0.159808 0.0492409
0.100542 0.166445 0.0496986
0.119921 0.172808 0.0531777
0.138506 0.178439 0.0546731
0.181903 0.183093 0.0470283
0.23801 0.183963 0.0467842
0.295079 0.180743 0.0528725
0.344961 0.171923 0.0638132
0.392081 0.162249 0.0706951
0.440116 0.156008 0.0737621
0.483803 0.152422 0.0775769
0.519005 0.153567 0.080766
0.549538 0.156451 0.0843519
0.577783 0.160235 0.0886702
0.603098 0.164096 0.0927291
0.626505 0.168643 0.0963149
0.650401 0.172839 0.100862
0.673091 0.177554 0.105608
0.696483 0.182361 0.111208
0.718166 0.187655 0.116228
0.739147 0.193469 0.121401
0.758434 0.200259 0.126802
0.778607 0.208423 0.133074
0.79556 0.216632 0.138094
0.811658 0.224445 0.143557
0.826352 0.23331 0.148836
0.838178 0.241703 0.153613
0.841611 0.247471 0.156542
0.0467994 0.180285 0.0783551
0.0472725 0.187137 0.0800031
0.0498817 0.191989 0.0776074
0.0556497 0.194415 0.0697642
0.0646525 0.193851 0.0627146
0.0769818 0.192721 0.0538491
0.101198 0.198764 0.0498512
0.126726 0.207019 0.0528878
0.149172 0.214359 0.0569162
0.172778 0.22063 0.0581216
0.224735 0.225956 0.0493324
0.286351 0.228351 0.0480659
0.353948 0.22623 0.0524147
0.412314 0.219059 0.063859
0.466743 0.210498 0.0719005
0.512566 0.203906 0.0806592
0.549905 0.198535 0.0886854
0.58056 0.202274 0.0940414
0.608759 0.203449 0.100771
0.635035 0.209201 0.106462
0.659037 0.215808 0.111864
0.682521 0.222507 0.117662
0.704921 0.228885 0.123293
0.727382 0.23682 0.129213
0.749584 0.244831 0.136233
0.77203 0.255299 0.144076
0.792309 0.264576 0.15201
0.81207 0.274434 0.160357
0.830488 0.285389 0.16846
0.849119 0.297078 0.177813
0.865995 0.310033 0.186282
0.876905 0.320287 0.193133
0.880125 0.326757 0.196155
0.0472572 0.214557 0.0890974
0.047303 0.221683 0.0904402
0.0492409 0.22652 0.0872206
0.0561532 0.228901 0.0801862
0.0678874 0.229984 0.071046
0.078706 0.228733 0.0626841
0.0963607 0.230304 0.0513466
0.126497 0.239765 0.0511635
0.154498 0.24892 0.0549477
0.181186 0.25687 0.0594492
0.209415 0.264973 0.0601358
0.269169 0.27129 0.0511482
0.33724 0.2748 0.0487678
0.417746 0.272877 0.051606
0.481056 0.270542 0.0616465
0.529839 0.268345 0.0739605
0.570108 0.266865 0.0871595
0.604349 0.26537 0.0987411
0.634501 0.265766 0.109194
0.663294 0.267597 0.120516
0.689097 0.275166 0.128313
0.714412 0.278202 0.138628
0.738506 0.286687 0.146242
0.762783 0.295705 0.154864
0.786419 0.307103 0.164584
0.809094 0.319677 0.175051
0.829511 0.332784 0.18529
0.8486 0.345785 0.195315
0.867353 0.358175 0.204791
0.882109 0.370718 0.213138
0.895537 0.382818 0.220783
0.901534 0.391348 0.22504
0.905364 0.398489 0.227878
0.0455177 0.249302 0.0980545
0.0454719 0.25594 0.0992294
0.0466926 0.260426 0.0957351
0.054139 0.263249 0.0889448
0.0661479 0.264759 0.079469
0.0800488 0.264836 0.0700694
0.0956893 0.26569 0.0597391
0.121996 0.270634 0.0492714
0.154192 0.281559 0.0506752
0.184558 0.291798 0.0558175
0.215259 0.300999 0.0608377
0.248127 0.310948 0.0613565
0.315373 0.318944 0.0534218
0.393286 0.323613 0.0509041
0.478599 0.324758 0.05243
0.536294 0.329732 0.0617227
0.581933 0.33431 0.0779431
0.621088 0.339513 0.0963455
0.655436 0.345144 0.11252
0.68719 0.350698 0.12932
0.717983 0.355642 0.145953
0.745357 0.360128 0.160342
0.773327 0.366186 0.17557
0.798398 0.374548 0.186786
0.821378 0.378042 0.198978
0.841733 0.388678 0.208164
0.861402 0.398978 0.217502
0.87628 0.411093 0.224491
0.889097 0.424292 0.229969
0.899443 0.434943 0.234928
0.906935 0.44686 0.237903
0.908324 0.455009 0.237598
0.910048 0.461036 0.238529
0.0416419 0.2822 0.105653
0.0407874 0.288914 0.10634
0.042298 0.29305 0.103548
0.0482795 0.295308 0.0962844
0.0623636 0.298604 0.0870527
0.0779126 0.299733 0.0767681
0.0923781 0.300023 0.0666667
0.114336 0.302495 0.0536049
0.152926 0.312047 0.0456397
0.182208 0.323217 0.0489052
0.21442 0.334813 0.0558175
0.248814 0.347433 0.0618906
0.289616 0.360418 0.0630808
0.363745 0.36968 0.0567483
0.451347 0.375586 0.0542153
0.528222 0.385946 0.0571145
0.583474 0.399908 0.0677653
0.629053 0.411246 0.0866407
0.666499 0.422034 0.108476
0.699138 0.430945 0.128023
0.730098 0.439612 0.147738
0.758587 0.446113 0.165026
0.785229 0.452293 0.180652
0.809323 0.457404 0.193896
0.83183 0.462699 0.205493
0.850706 0.469291 0.213764
0.867216 0.476402 0.220371
0.880201 0.483894 0.227024
0.891157 0.492561 0.2318
0.89929 0.501289 0.23473
0.903944 0.510033 0.23537
0.904418 0.518776 0.233448
0.90428 0.526497 0.232273
0.0357519 0.314382 0.113771
0.0346685 0.320241 0.114519
0.0348058 0.324208 0.110918
0.0403296 0.326711 0.102785
0.0539406 0.329854 0.0928206
0.0720836 0.333196 0.0826886
0.0858015 0.333257 0.0737469
0.103822 0.334478 0.0606394
0.134691 0.340352 0.0462806
0.180041 0.355108 0.0438239
0.209491 0.367773 0.0490883
0.244556 0.382498 0.0573587
0.283436 0.39855 0.0631113
0.332113 0.415824 0.0651713
0.419104 0.42771 0.0604715
0.505501 0.44155 0.0622873
0.572595 0.458457 0.0683452
0.62298 0.472663 0.0803082
0.664225 0.485496 0.0961471
0.698009 0.49604 0.114549
0.728145 0.504936 0.133227
0.756268 0.51223 0.153933
0.783291 0.518257 0.170184
0.806302 0.524254 0.184955
0.828122 0.529 0.196368
0.846754 0.534585 0.205921
0.862821 0.540413 0.213016
0.87686 0.547036 0.219135
0.887373 0.554009 0.224353
0.896895 0.560662 0.229236
0.900252 0.568566 0.230503
0.901473 0.57557 0.229755
0.901549 0.580713 0.229267
0.0283513 0.345693 0.122087
0.0272679 0.352026 0.123186
0.0265507 0.356039 0.119234
0.0297093 0.357931 0.11017
0.0415198 0.3608 0.0991836
0.0599527 0.364858 0.0874037
0.0765545 0.366812 0.0782177
0.0918135 0.367742 0.0686809
0.115755 0.371206 0.0511177
0.15697 0.383047 0.0404517
0.202457 0.400916 0.0433356
0.235874 0.417258 0.0508278
0.276448 0.436332 0.0602579
0.326177 0.457755 0.0692454
0.390524 0.478477 0.0758221
0.482063 0.490913 0.0749676
0.555138 0.50634 0.079057
0.612284 0.521309 0.0839857
0.657191 0.532845 0.0957961
0.694881 0.543542 0.108431
0.726558 0.55375 0.122957
0.755108 0.561349 0.140856
0.782177 0.567422 0.162432
0.805951 0.572976 0.177554
0.827344 0.57908 0.191333
0.846235 0.584329 0.202182
0.862547 0.589563 0.210605
0.876722 0.594705 0.217166
0.887709 0.600534 0.223346
0.89749 0.606256 0.22916
0.899428 0.612833 0.229511
0.901686 0.618952 0.230594
0.901503 0.623163 0.230289
0.0203708 0.378119 0.13138
0.0185397 0.385031 0.131594
0.0180819 0.388525 0.127153
0.0190127 0.389746 0.117678
0.0263371 0.392065 0.105837
0.0429084 0.396551 0.092958
0.0623484 0.400977 0.0813458
0.0780957 0.402502 0.072755
0.0981765 0.405951 0.060441
0.136019 0.414679 0.0426795
0.185504 0.432761 0.0394903
0.230884 0.452354 0.0476081
0.275212 0.474037 0.0611734
0.327276 0.497185 0.075761
0.385748 0.5178 0.0865644
0.459998 0.535332 0.0945449
0.536629 0.546731 0.0957351
0.597284 0.558862 0.0996109
0.646326 0.571618 0.104448
0.687266 0.58175 0.115129
0.723552 0.590341 0.127474
0.753429 0.59942 0.139742
0.780972 0.606546 0.154818
0.806958 0.613108 0.173724
0.827771 0.618753 0.186664
0.846677 0.623514 0.198932
0.862821 0.629007 0.209003
0.876936 0.633875 0.216159
0.888182 0.63946 0.221408
0.896529 0.644434 0.226947
0.900389 0.649866 0.230915
0.902632 0.654566 0.232578
0.903044 0.657938 0.232959
0.012253 0.412589 0.139528
0.0107424 0.419501 0.140154
0.0104677 0.422568 0.136522
0.0107729 0.423377 0.126772
0.012665 0.424765 0.114351
0.0251926 0.428656 0.100771
0.0458381 0.433616 0.0878309
0.0640879 0.435904 0.078584
0.08542 0.440513 0.0682536
0.117037 0.448234 0.0548562
0.171572 0.465064 0.04271
0.229191 0.487175 0.0489967
0.280537 0.511131 0.0654765
0.335195 0.533898 0.0873579
0.390784 0.553552 0.100435
0.453696 0.56817 0.107439
0.51899 0.582254 0.115282
0.582406 0.593118 0.118166
0.633997 0.603235 0.123293
0.676768 0.613962 0.127245
0.715633 0.622934 0.137087
0.750652 0.630488 0.148348
0.779446 0.637842 0.161028
0.805768 0.644968 0.173342
0.82771 0.65095 0.18584
0.847425 0.657038 0.196323
0.864149 0.661585 0.208087
0.877882 0.666865 0.215869
0.889662 0.672374 0.221622
0.897658 0.677134 0.227024
0.903014 0.681346 0.231464
0.905013 0.685679 0.234043
0.904997 0.689128 0.234791
0.0087129 0.448188 0.15288
0.00865187 0.455009 0.155322
0.00822461 0.458457 0.151537
0.00816358 0.459144 0.141405
0.00866712 0.459464 0.128573
0.0129244 0.460914 0.113664
0.0301366 0.465156 0.0992294
0.0526436 0.469169 0.0894636
0.075288 0.473106 0.0807965
0.106477 0.480964 0.0686046
0.153002 0.494545 0.0565652
0.230274 0.522026 0.0555428
0.286122 0.545296 0.0718547
0.341558 0.566583 0.0940414
0.400122 0.584543 0.115633
0.455314 0.597604 0.121813
0.51165 0.60972 0.129381
0.567208 0.622705 0.137575
0.618723 0.631754 0.141009
0.664759 0.640894 0.146456
0.70489 0.65069 0.150576
0.741543 0.658701 0.158892
0.775311 0.665675 0.170855
0.803037 0.672038 0.182483
0.826993 0.67808 0.193912
0.847028 0.683925 0.203784
0.865385 0.689906 0.213046
0.878752 0.695109 0.219852
0.890929 0.699992 0.226658
0.899657 0.704799 0.2318
0.906096 0.709117 0.237583
0.907988 0.712367 0.242603
0.908354 0.715557 0.245136
0.00967422 0.484092 0.17409
0.0100557 0.490715 0.177386
0.0103304 0.494209 0.174319
0.0102846 0.49453 0.16405
0.0103456 0.494362 0.150561
0.0121157 0.495323 0.135058
0.0234684 0.498131 0.119051
0.0453956 0.502235 0.10631
0.0682841 0.505974 0.0979934
0.0991073 0.513771 0.088426
0.142977 0.526177 0.0744793
0.209384 0.547555 0.067628
0.2934 0.577462 0.0817426
0.349325 0.596597 0.102785
0.405997 0.611841 0.122072
0.463798 0.623407 0.136599
0.511772 0.634455 0.143328
0.560418 0.646006 0.151751
0.6065 0.657404 0.159335
0.652338 0.666407 0.164462
0.69427 0.674556 0.16997
0.731395 0.683665 0.174151
0.766247 0.691157 0.182177
0.797208 0.697078 0.192401
0.82417 0.70338 0.203845
0.845823 0.708659 0.214527
0.864897 0.713573 0.22414
0.879606 0.718791 0.232181
0.892042 0.72398 0.238636
0.901289 0.728603 0.243519
0.909056 0.733196 0.247929
0.911025 0.73666 0.254063
0.91133 0.739437 0.258503
0.0145418 0.520516 0.202609
0.0158541 0.527672 0.20708
0.0162509 0.530678 0.204211
0.0163119 0.531151 0.194125
0.0164797 0.531136 0.181003
0.0166629 0.53135 0.164828
0.0218967 0.532952 0.145892
0.0415351 0.536583 0.131243
0.0642405 0.539956 0.121019
0.093019 0.545846 0.112032
0.136751 0.558129 0.101228
0.200702 0.576303 0.0856031
0.280461 0.60177 0.0918898
0.35613 0.623438 0.112184
0.414069 0.636149 0.131014
0.470268 0.646647 0.145495
0.518227 0.656901 0.156603
0.557198 0.667079 0.164691
0.598962 0.678065 0.173587
0.640284 0.689082 0.181506
0.681544 0.6972 0.186542
0.719982 0.704601 0.193271
0.756237 0.713771 0.197589
0.788724 0.720851 0.205142
0.817411 0.727092 0.214832
0.841566 0.732677 0.225132
0.861143 0.737697 0.234546
0.878309 0.742306 0.243488
0.890684 0.747265 0.250217
0.901488 0.752178 0.256718
0.90782 0.756069 0.261723
0.911467 0.759167 0.268101
0.91342 0.76202 0.27277
0.0246128 0.560525 0.238651
0.0268406 0.568078 0.243656
0.0276799 0.570871 0.241306
0.0274815 0.570809 0.231327
0.0275273 0.570962 0.218967
0.0276951 0.571664 0.203952
0.0315251 0.573144 0.184787
0.0417182 0.574411 0.165118
0.0633707 0.575525 0.150973
0.0903029 0.579034 0.139803
0.129458 0.587549 0.12723
0.192111 0.604028 0.113405
0.275792 0.626902 0.106584
0.353735 0.646769 0.121492
0.422293 0.65919 0.140093
0.476509 0.667552 0.156588
0.522667 0.677409 0.167971
0.560922 0.68719 0.176684
0.594873 0.696956 0.186175
0.631968 0.707317 0.194842
0.669917 0.718288 0.202457
0.707683 0.726192 0.209079
0.74464 0.733639 0.216388
0.778668 0.74229 0.221393
0.808911 0.749523 0.228275
0.833814 0.755398 0.236973
0.855436 0.761151 0.245457
0.873487 0.765835 0.254276
0.8878 0.770504 0.262089
0.899153 0.775296 0.268589
0.907042 0.779461 0.274388
0.91284 0.782788 0.280461
0.914153 0.785428 0.285878
0.0386206 0.601129 0.277287
0.041001 0.607599 0.281422
0.0419165 0.609873 0.278752
0.0417639 0.610208 0.269505
0.0415961 0.610483 0.258122
0.0416114 0.611032 0.244083
0.0422827 0.6121 0.226139
0.0496529 0.612772 0.204471
0.0675364 0.612177 0.186725
0.0905623 0.61239 0.171511
0.12578 0.617319 0.15787
0.181918 0.629206 0.140795
0.260777 0.647654 0.127092
0.352575 0.66865 0.131563
0.42388 0.679927 0.148241
0.48365 0.687633 0.164172
0.526741 0.695521 0.180133
0.564508 0.705303 0.189563
0.597162 0.714961 0.197971
0.627024 0.724422 0.207462
0.661616 0.734615 0.216556
0.69688 0.745739 0.224628
0.733349 0.753765 0.231632
0.768566 0.761349 0.239719
0.798535 0.769543 0.245304
0.827207 0.776684 0.252293
0.847684 0.782544 0.259251
0.867521 0.788739 0.266819
0.88249 0.792889 0.27393
0.895796 0.796918 0.280934
0.904509 0.801328 0.286915
0.911452 0.804761 0.292592
0.913634 0.807019 0.299016
0.0544442 0.638941 0.313863
0.057145 0.644724 0.317952
0.0574502 0.646555 0.313939
0.0571145 0.646784 0.304631
0.0567483 0.646571 0.293217
0.0566415 0.647105 0.279652
0.0568399 0.647715 0.262562
0.0586709 0.648508 0.242374
0.0743267 0.647364 0.223621
0.0944228 0.645396 0.205722
0.125017 0.646433 0.187427
0.172839 0.65275 0.169162
0.24361 0.666514 0.14612
0.330526 0.684901 0.14641
0.421744 0.698955 0.157259
0.489097 0.705608 0.172045
0.531518 0.712459 0.187716
0.566827 0.72076 0.201053
0.599054 0.730632 0.208988
0.628305 0.740383 0.218692
0.65716 0.750256 0.228702
0.690242 0.760891 0.237964
0.722759 0.77142 0.245899
0.757076 0.779187 0.253513
0.789929 0.786542 0.262425
0.817975 0.794491 0.268299
0.8421 0.8009 0.27454
0.861097 0.806775 0.281041
0.877592 0.811917 0.287602
0.890486 0.816754 0.293553
0.90045 0.821118 0.299458
0.908232 0.824781 0.30515
0.910765 0.826459 0.311391
0.0691844 0.670359 0.346166
0.0711528 0.674723 0.348501
0.0714733 0.675975 0.343648
0.0710002 0.675837 0.334859
0.0704509 0.675334 0.322759
0.0699016 0.675273 0.308827
0.0700084 0.675822 0.292149
0.0712444 0.676005 0.272419
0.0790265 0.674464 0.252613
0.098909 0.672389 0.236133
0.123507 0.671229 0.217548
0.166659 0.674678 0.195834
0.230503 0.684077 0.172671
0.316945 0.701534 0.155138
0.405798 0.714153 0.166766
0.487907 0.720821 0.179599
0.534936 0.727672 0.195026
0.57052 0.735805 0.208835
0.601129 0.744854 0.219913
0.629923 0.754711 0.229236
0.657618 0.764523 0.239261
0.685389 0.773999 0.249531
0.716869 0.784939 0.259159
0.74757 0.795087 0.267338
0.780072 0.802976 0.275257
0.809918 0.809857 0.284153
0.83444 0.816938 0.289906
0.855344 0.822812 0.29659
0.873152 0.828336 0.302724
0.885985 0.833036 0.3075
0.897398 0.837415 0.313115
0.904662 0.841001 0.319142
0.910338 0.842802 0.325689
0.0823529 0.695964 0.375296
0.0835889 0.698833 0.376028
0.0835126 0.699397 0.369772
0.0830396 0.699229 0.359976
0.0824292 0.699016 0.348394
0.0816968 0.698817 0.334539
0.0814832 0.69897 0.318029
0.0822919 0.699077 0.297887
0.0862593 0.697536 0.278386
0.103044 0.694865 0.261158
0.125139 0.693034 0.242939
0.159335 0.693751 0.222156
0.220996 0.700481 0.196078
0.298466 0.713726 0.174777
0.397101 0.728573 0.175311
0.483482 0.734585 0.187686
0.536278 0.741024 0.202792
0.573739 0.748714 0.218326
0.603265 0.757488 0.22916
0.631617 0.766903 0.239628
0.658244 0.776913 0.249928
0.685039 0.786648 0.260243
0.712383 0.796567 0.270481
0.742611 0.807385 0.280369
0.771649 0.817258 0.288869
0.799832 0.824475 0.296803
0.827543 0.830945 0.305364
0.848219 0.837064 0.311192
0.867964 0.842939 0.317906
0.881773 0.847761 0.323674
0.893767 0.85182 0.328115
0.902983 0.854719 0.334173
0.908797 0.857023 0.340505
0.0932021 0.716716 0.400687
0.0942092 0.71841 0.399649
0.0939651 0.718669 0.392981
0.0933547 0.718502 0.382605
0.0925307 0.718288 0.370367
0.0921035 0.718364 0.356847
0.0915847 0.718318 0.340108
0.0921645 0.718151 0.319265
0.0959487 0.716594 0.299458
0.106477 0.714137 0.28275
0.127626 0.711955 0.265278
0.159533 0.711711 0.243595
0.212421 0.715755 0.218463
0.286458 0.725902 0.19321
0.382589 0.739986 0.187671
0.474357 0.746471 0.196017
0.539361 0.753155 0.211124
0.575845 0.760021 0.226261
0.606149 0.768383 0.239078
0.633234 0.777859 0.249226
0.659358 0.787427 0.259678
0.684657 0.796979 0.270222
0.71107 0.806912 0.280629
0.739315 0.817594 0.291096
0.767407 0.827192 0.30045
0.79266 0.835706 0.308583
0.818906 0.842664 0.316808
0.842496 0.849104 0.324895
0.862135 0.854765 0.33135
0.87715 0.859586 0.338384
0.890028 0.863828 0.344488
0.899123 0.866438 0.350515
0.908385 0.868833 0.356374
0.10251 0.733608 0.425071
0.103334 0.735073 0.423209
0.102876 0.73489 0.414572
0.102281 0.734813 0.403235
0.101625 0.734676 0.390707
0.100832 0.734478 0.375967
0.10042 0.734447 0.35877
0.100786 0.734417 0.338674
