bundles/resolve-cinematic-luts/Phantom Luts/Ursa G2 Phntm Film LUTs - V1/Gen4/White Balance Offset (Magenta Boost)/Ursa Vision Gen4 WBO.cube
TITLE "Generated by Resolve"
LUT_3D_SIZE 33
0.0221866 0.0273747 0.0221866
0.0221866 0.0273747 0.0221866
0.0221714 0.0285649 0.0221714
0.0306401 0.030045 0.0223545
0.0447547 0.0294804 0.0222019
0.063386 0.0299077 0.0215763
0.0861677 0.03093 0.0205081
0.112413 0.0327459 0.0198367
0.145022 0.0339666 0.0196994
0.186679 0.0345922 0.0196078
0.228199 0.0356451 0.0205386
0.265888 0.0375525 0.0224002
0.301869 0.0390478 0.0246128
0.337316 0.0406806 0.0264439
0.374685 0.0430762 0.0295567
0.410452 0.046067 0.031754
0.447211 0.05037 0.0343938
0.485008 0.0552682 0.0377661
0.524315 0.0615854 0.0424811
0.564797 0.0691386 0.0484932
0.601663 0.0753185 0.0538491
0.634424 0.0809644 0.0571298
0.663478 0.0871901 0.0615854
0.681865 0.0916915 0.0629282
0.682246 0.0881666 0.0614176
0.68333 0.0897231 0.0617075
0.685664 0.0926528 0.0628519
0.687602 0.0960555 0.064271
0.689647 0.0982834 0.0649424
0.692851 0.0997024 0.0657511
0.696239 0.102586 0.0675212
0.699611 0.105028 0.0688182
0.70277 0.107683 0.0698711
0.0221714 0.0273747 0.0221714
0.0221714 0.0273747 0.0221714
0.0221866 0.0279698 0.0221866
0.0302129 0.0306096 0.0223545
0.0443885 0.0302739 0.0220645
0.0641794 0.0309758 0.0215152
0.0878767 0.0313115 0.0203861
0.113878 0.0329137 0.0197604
0.148425 0.0344396 0.0197452
0.19118 0.035584 0.019791
0.231479 0.0365606 0.0204623
0.267796 0.038117 0.0224918
0.303304 0.0392157 0.0243381
0.338979 0.0413214 0.0267948
0.37528 0.0442359 0.0293889
0.411414 0.0472114 0.0317082
0.44831 0.0519265 0.0344701
0.486473 0.0572366 0.0380713
0.526864 0.0652781 0.0439307
0.565652 0.071519 0.0486
0.60383 0.0784924 0.0545663
0.636423 0.0840314 0.0578164
0.664775 0.090547 0.0621653
0.683497 0.0958877 0.0641947
0.685359 0.0920424 0.062623
0.687083 0.0952773 0.0639658
0.688884 0.0979171 0.0648814
0.690272 0.0991836 0.0654307
0.693187 0.101167 0.0666819
0.696132 0.103838 0.0682689
0.699031 0.105943 0.069337
0.702144 0.108217 0.0701152
0.706722 0.11191 0.0717174
0.0223087 0.0315251 0.0223087
0.0221866 0.030518 0.0221866
0.0221866 0.029572 0.0221866
0.024979 0.0328527 0.0226291
0.03888 0.0323644 0.0223087
0.0612192 0.0327459 0.0218051
0.0876631 0.0339818 0.0213474
0.115923 0.0368353 0.022385
0.150851 0.0377661 0.0214847
0.191608 0.0368048 0.019791
0.23093 0.0377966 0.0200198
0.268345 0.0396582 0.023331
0.305959 0.0426032 0.0262608
0.340932 0.0443732 0.0275731
0.373938 0.0452888 0.028336
0.41117 0.048127 0.0314641
0.448646 0.0528115 0.0344701
0.488121 0.0595102 0.0383764
0.526894 0.0665599 0.0437934
0.566918 0.0744945 0.0493324
0.604898 0.0817731 0.055024
0.639078 0.0891127 0.0611887
0.666484 0.0944991 0.0635996
0.686717 0.0992142 0.0656748
0.693095 0.101625 0.0669718
0.689891 0.0989395 0.0653086
0.691859 0.100511 0.0663157
0.694026 0.102998 0.0679026
0.696406 0.10518 0.0691997
0.699092 0.107225 0.0701152
0.701778 0.109148 0.0706493
0.70663 0.112978 0.0723583
0.710048 0.116289 0.0740673
0.0230106 0.047303 0.0289769
0.0229191 0.0465248 0.0278019
0.0245823 0.0448157 0.0253605
0.0288701 0.0462196 0.0252689
0.0385595 0.0480964 0.0241245
0.0661326 0.0435492 0.0251011
0.0896315 0.0414435 0.0253452
0.118013 0.0418402 0.0251621
0.152575 0.0429541 0.0246586
0.194385 0.04271 0.0238346
0.235569 0.043946 0.0251316
0.273213 0.0455024 0.026627
0.307759 0.0461891 0.026978
0.340581 0.0457008 0.0270695
0.377691 0.0489662 0.0301823
0.415641 0.0542611 0.0331731
0.452918 0.0593423 0.0358892
0.489219 0.0615854 0.0389868
0.527306 0.068101 0.0436103
0.571847 0.0797284 0.0525826
0.608759 0.0870985 0.0582132
0.640208 0.0919356 0.0619974
0.668635 0.0975357 0.0651255
0.688182 0.10193 0.0673686
0.696895 0.106416 0.069749
0.693935 0.102876 0.0678416
0.695583 0.104997 0.0691844
0.697307 0.106767 0.0698863
0.699321 0.108644 0.0706035
0.702968 0.112306 0.0721447
0.707668 0.115984 0.0741588
0.70988 0.117876 0.0749981
0.710658 0.120775 0.0737316
0.0257572 0.0683604 0.0373846
0.0256962 0.0676585 0.0360723
0.0269322 0.0644541 0.0321355
0.0328527 0.0639353 0.0309453
0.0397498 0.0680247 0.0320745
0.0669413 0.0674296 0.0247654
0.0983597 0.0613565 0.0301671
0.128069 0.0560769 0.0325017
0.162127 0.0544747 0.0305486
0.201343 0.0523995 0.0288243
0.241184 0.052903 0.0296178
0.279484 0.0532692 0.0301366
0.315175 0.054078 0.0312352
0.350271 0.0557565 0.0320439
0.385611 0.0583658 0.0332952
0.421805 0.0618601 0.0357366
0.457893 0.0655528 0.0379492
0.495827 0.0710002 0.0421454
0.536339 0.0800031 0.0486763
0.576959 0.0872663 0.0561227
0.610895 0.0909895 0.0597848
0.642252 0.0955978 0.0633555
0.674418 0.105821 0.0695048
0.695186 0.111238 0.0717632
0.701579 0.112291 0.0723125
0.702022 0.112734 0.072694
0.699229 0.109163 0.0707561
0.70312 0.114473 0.0734722
0.704112 0.119402 0.0730907
0.708858 0.12256 0.0755169
0.710918 0.124956 0.0769665
0.712917 0.125536 0.0770428
0.718761 0.133516 0.0802777
0.0294499 0.0929427 0.0475166
0.0296025 0.0929122 0.0454719
0.0313115 0.0895399 0.0412146
0.0349889 0.0879225 0.0376135
0.0457465 0.090898 0.0382696
0.0562142 0.0947738 0.0378882
0.0930037 0.0916304 0.0278782
0.133684 0.0842298 0.0341497
0.174975 0.0727703 0.0383459
0.217182 0.0667277 0.0360723
0.254749 0.0645762 0.0352483
0.288899 0.0641947 0.0351568
0.325078 0.066041 0.0357671
0.361028 0.0690013 0.0378576
0.396155 0.0720226 0.0392462
0.432456 0.0758831 0.0414282
0.471931 0.0814527 0.0459602
0.510155 0.0875105 0.0501106
0.547601 0.0938582 0.0560769
0.585519 0.100923 0.0614328
0.621027 0.107012 0.0654459
0.654185 0.113497 0.0707408
0.682246 0.119341 0.0745251
0.701076 0.122194 0.0756237
0.708843 0.125078 0.0771801
0.710109 0.128862 0.0788434
0.709468 0.126726 0.0780652
0.711208 0.130617 0.079408
0.714015 0.133059 0.0805676
0.716472 0.13463 0.0813611
0.719768 0.140047 0.0839246
0.7243 0.146242 0.086717
0.728603 0.15433 0.0905013
0.0327001 0.119036 0.0579232
0.0343328 0.119493 0.0548562
0.0364233 0.116686 0.0527199
0.0396582 0.113939 0.0476692
0.048661 0.113924 0.0449378
0.0612039 0.1187 0.0457771
0.0750591 0.122835 0.0424353
0.12491 0.116716 0.0306554
0.18146 0.106706 0.0361486
0.225132 0.0938277 0.0411841
0.270497 0.0857862 0.0427863
0.30898 0.0845197 0.0430152
0.342138 0.0847028 0.0436866
0.373846 0.0861067 0.0449073
0.41004 0.0903792 0.0478065
0.447898 0.0956436 0.0515297
0.487022 0.101549 0.0565042
0.526375 0.108095 0.0617685
0.562081 0.114199 0.065919
0.599603 0.119997 0.0713054
0.634592 0.125383 0.0752422
0.665187 0.131228 0.0792248
0.692485 0.137804 0.0830396
0.713466 0.1449 0.0870222
0.720424 0.148608 0.0880293
0.722255 0.151629 0.0898604
0.723339 0.153277 0.0911574
0.722087 0.151202 0.0895399
0.724315 0.154894 0.0916915
0.72639 0.159609 0.0938277
0.727581 0.165393 0.0949416
0.731121 0.172519 0.0978103
0.733364 0.180209 0.100221
0.0340429 0.15082 0.0692454
0.0379187 0.151736 0.0646983
0.0398871 0.150164 0.0628519
0.043473 0.146609 0.0579538
0.0477913 0.14197 0.0515145
0.0640421 0.146975 0.0509194
0.078294 0.153643 0.0507057
0.0940108 0.159167 0.0454566
0.167575 0.148287 0.0322423
0.233265 0.13933 0.0396887
0.280308 0.127794 0.0491951
0.324041 0.115526 0.0556191
0.364752 0.113863 0.0575113
0.400885 0.115908 0.0601968
0.433204 0.119173 0.0630045
0.466102 0.122454 0.0652781
0.502815 0.126787 0.0695506
0.53814 0.131029 0.0717021
0.575006 0.136873 0.0771038
0.611429 0.14345 0.0813458
0.645884 0.149889 0.0865339
0.676646 0.157168 0.0911269
0.701686 0.163546 0.0942092
0.72221 0.170642 0.0975357
0.728145 0.174975 0.0986191
0.728588 0.177813 0.0998856
0.729473 0.182177 0.101137
0.729427 0.185977 0.101793
0.73022 0.18468 0.101869
0.731075 0.189654 0.102403
0.732662 0.195438 0.104067
0.733806 0.201083 0.10576
0.734798 0.207446 0.107195
0.0343481 0.190753 0.0817121
0.0378882 0.191333 0.0763714
0.0424506 0.192203 0.0734569
0.0459144 0.188251 0.0687266
0.0498817 0.184527 0.0622873
0.0560769 0.180926 0.0557259
0.0795148 0.190829 0.0571603
0.0986038 0.20058 0.0574502
0.121691 0.208042 0.0522316
0.218265 0.193515 0.0341955
0.287343 0.184329 0.0457008
0.334615 0.175204 0.0585489
0.377539 0.163928 0.0724346
0.418906 0.154253 0.076051
0.455589 0.153887 0.0784009
0.489021 0.155627 0.0806134
0.519203 0.158602 0.0820478
0.551751 0.161334 0.0844739
0.585824 0.165423 0.0872816
0.619821 0.171984 0.0915694
0.652918 0.179141 0.0955825
0.681102 0.186435 0.100038
0.705516 0.193759 0.1028
0.726314 0.202396 0.105867
0.732189 0.206607 0.107744
0.73228 0.208469 0.10869
0.733028 0.213123 0.11017
0.733791 0.217197 0.111757
0.733776 0.222019 0.112367
0.734188 0.221744 0.112276
0.735836 0.226612 0.114611
0.736706 0.231403 0.116045
0.738827 0.237858 0.118135
0.0430762 0.239948 0.104875
0.0472572 0.240681 0.100084
0.0552071 0.241993 0.0951247
0.0579995 0.239857 0.0915389
0.0628519 0.236423 0.0852674
0.0687419 0.230747 0.0753033
0.0845197 0.233494 0.0695201
0.106081 0.2448 0.0725414
0.127626 0.25243 0.0705425
0.158755 0.257435 0.0601968
0.269841 0.239277 0.0360876
0.338476 0.229709 0.0495766
0.384817 0.22298 0.0654307
0.423392 0.21442 0.0776379
0.460883 0.205188 0.0889143
0.500435 0.198245 0.0922255
0.53492 0.198138 0.0943008
0.567132 0.200519 0.0970016
0.595514 0.203525 0.0982071
0.625696 0.2065 0.100221
0.657633 0.21236 0.104784
0.685954 0.219623 0.10985
0.709392 0.227008 0.112917
0.729656 0.234943 0.117632
0.735546 0.240208 0.118959
0.736873 0.243046 0.120241
0.736889 0.246387 0.121416
0.737606 0.250095 0.123232
0.737362 0.254536 0.124208
0.739055 0.259632 0.125978
0.739773 0.259724 0.125902
0.741268 0.264652 0.127581
0.742382 0.26981 0.129274
0.0506905 0.288563 0.129427
0.0556649 0.28925 0.12401
0.0632792 0.289937 0.118166
0.0697185 0.290547 0.114076
0.0751354 0.2878 0.108782
0.0806897 0.284199 0.100175
0.0875105 0.277562 0.0859998
0.111086 0.285389 0.0827039
0.132616 0.295354 0.0858778
0.160494 0.302739 0.0815442
0.203601 0.307286 0.068101
0.320348 0.287678 0.0402075
0.388327 0.278599 0.0540322
0.435569 0.272496 0.072343
0.470192 0.266773 0.0849317
0.505837 0.260258 0.0966049
0.54229 0.252155 0.109987
0.578561 0.246326 0.112642
0.610559 0.245869 0.114504
0.640162 0.24799 0.116777
0.666758 0.253056 0.119142
0.691966 0.257267 0.122377
0.714382 0.262776 0.125826
0.732967 0.270436 0.129946
0.740001 0.275029 0.132601
0.740902 0.278187 0.133242
0.741222 0.281941 0.134691
0.741802 0.285771 0.1364
0.742763 0.289357 0.138918
0.742672 0.293446 0.140337
0.744823 0.298436 0.143145
0.745571 0.298619 0.143023
0.746502 0.302647 0.143877
0.0577707 0.335409 0.158465
0.0633097 0.335836 0.152071
0.0710613 0.33724 0.145708
0.0801251 0.337957 0.13933
0.0860914 0.336583 0.134066
0.0923171 0.334157 0.126314
0.0994888 0.329976 0.115389
0.109056 0.325124 0.0961013
0.139284 0.33576 0.0964675
0.163272 0.343587 0.0970169
0.200717 0.350744 0.0914473
0.24976 0.354604 0.0777142
0.369406 0.334478 0.0437324
0.434485 0.326726 0.0562142
0.481636 0.320195 0.0799268
0.51751 0.316716 0.0945296
0.549645 0.312627 0.10634
0.583078 0.306264 0.11902
0.615564 0.30106 0.133837
0.648753 0.296086 0.137041
0.678126 0.296666 0.140002
0.701183 0.300099 0.142794
0.720348 0.304967 0.146105
0.736477 0.309804 0.148516
0.743328 0.31162 0.149218
0.745663 0.314916 0.151354
0.746059 0.318135 0.152895
0.746807 0.321141 0.154833
0.747417 0.324468 0.156603
0.74815 0.329519 0.158801
0.747967 0.333822 0.1608
0.748852 0.334218 0.161288
0.750088 0.338277 0.163989
0.0661021 0.382315 0.194766
0.0703593 0.3832 0.188891
0.0768902 0.38291 0.180377
0.0857557 0.383047 0.172274
0.0959182 0.384741 0.165835
0.102449 0.382193 0.156863
0.109758 0.378744 0.146914
0.11812 0.375296 0.132448
0.133135 0.373205 0.110018
0.172244 0.383093 0.111162
0.200015 0.390402 0.110536
0.239765 0.39852 0.103258
0.299275 0.40119 0.0894942
0.415213 0.381155 0.0540932
0.479194 0.37435 0.0590982
0.524392 0.36733 0.085481
0.561593 0.363653 0.104387
0.591974 0.361868 0.118807
0.62269 0.359365 0.132784
0.653208 0.353964 0.144991
0.679622 0.351659 0.160266
0.704921 0.348547 0.166873
0.725002 0.351736 0.171756
0.741161 0.356176 0.176089
0.747127 0.359701 0.177188
0.748608 0.359518 0.177081
0.748699 0.358358 0.176379
0.748898 0.360754 0.178225
0.748806 0.364187 0.180865
0.748577 0.368017 0.182101
0.749615 0.372213 0.184909
0.749905 0.375784 0.186908
0.750332 0.375875 0.186542
0.0730449 0.42742 0.231464
0.0758984 0.427955 0.224369
0.081239 0.428321 0.217929
0.0893873 0.428565 0.210361
0.101183 0.429297 0.202899
0.111131 0.428855 0.195087
0.119539 0.426001 0.185428
0.128389 0.422629 0.171618
0.140291 0.418311 0.149233
0.171862 0.420294 0.126589
0.207431 0.428519 0.130648
0.238804 0.436851 0.129534
0.281926 0.444083 0.116793
0.348531 0.44567 0.101839
0.458488 0.426307 0.0674601
0.522438 0.419928 0.0629587
0.566659 0.412802 0.0943008
0.603708 0.410193 0.117021
0.632944 0.409277 0.135012
0.660365 0.408774 0.148592
0.686824 0.407126 0.161456
0.710521 0.405539 0.17322
0.729412 0.405325 0.182391
0.744808 0.408362 0.193225
0.750057 0.411856 0.194064
0.750896 0.412284 0.194034
0.750622 0.41146 0.193927
0.750469 0.410437 0.193973
0.7505 0.41001 0.194064
0.750942 0.412116 0.194049
0.751812 0.415625 0.194354
0.752194 0.418997 0.193225
0.753872 0.422675 0.193606
0.0809644 0.472541 0.271611
0.0831006 0.47303 0.264591
0.085832 0.473213 0.257237
0.0925765 0.47335 0.250431
0.101213 0.473396 0.242008
0.116091 0.473869 0.232486
0.126207 0.471595 0.223163
0.137697 0.468238 0.212406
0.149142 0.464027 0.197269
0.168963 0.461234 0.168109
0.212573 0.465583 0.148257
0.243488 0.472938 0.15404
0.27953 0.4813 0.151278
0.32491 0.48893 0.133761
0.397742 0.489219 0.116945
0.499718 0.470222 0.0841535
0.564385 0.464317 0.0743267
0.607324 0.457374 0.103746
0.642512 0.455848 0.127825
0.67219 0.45481 0.15317
0.696498 0.456001 0.169009
0.718517 0.457328 0.181537
0.736919 0.457801 0.18996
0.751614 0.459861 0.198352
0.757992 0.463722 0.201541
0.759258 0.465339 0.201831
0.759258 0.465354 0.201831
0.759213 0.465019 0.201846
0.758938 0.464363 0.201526
0.758267 0.462699 0.200778
0.757946 0.46009 0.200214
0.758328 0.462119 0.200427
0.759777 0.464942 0.201617
0.0914473 0.516442 0.313924
0.0932784 0.516518 0.306874
0.0950484 0.516777 0.299657
0.0974289 0.517266 0.292866
0.103899 0.517281 0.285252
0.113771 0.517235 0.27454
0.129961 0.516289 0.263218
0.142336 0.512657 0.251743
0.158465 0.508705 0.238926
0.178515 0.504219 0.220066
0.205737 0.502052 0.185336
0.250614 0.509102 0.176745
0.28159 0.515938 0.182284
0.32079 0.523842 0.177386
0.366766 0.531853 0.154543
0.443687 0.532204 0.135882
0.541894 0.513115 0.1037
0.604013 0.5075 0.09131
0.645258 0.501518 0.117632
0.677958 0.500343 0.142321
0.706615 0.499626 0.172763
0.728603 0.50193 0.19028
0.746548 0.504265 0.201175
0.760662 0.507347 0.20882
0.767376 0.510491 0.213764
0.769482 0.513039 0.214969
0.76968 0.51339 0.214862
0.769619 0.513039 0.214664
0.769223 0.512016 0.214221
0.768826 0.510613 0.213855
0.768246 0.508446 0.213443
0.768124 0.505974 0.212711
0.767834 0.503624 0.211597
0.106737 0.561166 0.360204
0.108293 0.56144 0.353323
0.109636 0.561379 0.346105
0.110903 0.561303 0.338674
0.112886 0.561593 0.330663
0.118883 0.561578 0.32137
0.128405 0.56054 0.308766
0.145449 0.557702 0.295323
0.163912 0.552941 0.282063
0.187427 0.548028 0.265339
0.210361 0.544381 0.242878
0.239704 0.543587 0.205325
0.288014 0.551568 0.207355
0.321309 0.559304 0.210513
0.361379 0.567285 0.205432
0.405554 0.574472 0.182849
0.486168 0.574441 0.159899
0.578119 0.55726 0.129259
0.639597 0.551659 0.106661
0.679149 0.546532 0.133684
0.711177 0.545052 0.160311
0.736584 0.546487 0.185138
0.756054 0.547829 0.208087
0.771237 0.551156 0.219059
0.780743 0.555337 0.226383
0.782376 0.557839 0.229252
0.782422 0.558068 0.229175
0.782544 0.557794 0.229191
0.782467 0.557473 0.229129
0.782254 0.556329 0.228717
0.781643 0.55375 0.228092
0.780575 0.549737 0.227024
0.77998 0.544533 0.22501
0.123415 0.604685 0.403586
0.124376 0.604776 0.397803
0.125353 0.6047 0.391363
0.126665 0.604639 0.384665
0.128222 0.604608 0.377478
0.130785 0.604532 0.367926
0.135317 0.605173 0.356725
0.150118 0.602899 0.341176
0.168338 0.597803 0.327337
0.18999 0.592294 0.310918
0.214588 0.586664 0.292012
0.242771 0.584207 0.263371
0.281559 0.586587 0.231327
0.327077 0.593408 0.238727
0.361532 0.601862 0.240162
0.400305 0.609644 0.230625
0.445075 0.615824 0.21178
0.525383 0.615885 0.190921
0.610727 0.601862 0.159686
0.671077 0.59559 0.130327
0.711223 0.591501 0.152178
0.740139 0.590249 0.180957
0.761227 0.591684 0.203372
0.778286 0.594629 0.218357
0.790433 0.598245 0.228244
0.794095 0.600168 0.234928
0.794491 0.60145 0.237201
0.794522 0.600961 0.237354
0.794141 0.59997 0.23711
0.793957 0.598932 0.236591
0.793439 0.596704 0.23621
0.792508 0.592752 0.235721
0.791699 0.587442 0.234394
0.142596 0.645991 0.444434
0.14345 0.646006 0.439597
0.144274 0.645975 0.434028
0.14548 0.645899 0.428244
0.147341 0.646036 0.42208
0.149493 0.646082 0.414054
0.152102 0.646296 0.403693
0.156954 0.646555 0.391318
0.174701 0.642145 0.373312
0.192615 0.635447 0.356756
0.21471 0.629496 0.338155
0.242283 0.624002 0.316167
0.279164 0.622889 0.280293
0.32784 0.627985 0.26154
0.368963 0.634256 0.271138
0.401968 0.643107 0.271748
0.439658 0.650889 0.255482
0.485405 0.656321 0.239826
0.560052 0.656092 0.221118
0.640406 0.644831 0.1944
0.700557 0.637461 0.167315
0.739773 0.635081 0.176852
0.763989 0.634318 0.202579
0.782406 0.635966 0.222248
0.796017 0.637781 0.234241
0.802945 0.640391 0.244282
0.803525 0.641794 0.24976
0.803525 0.64184 0.250355
0.803204 0.640436 0.249409
0.803143 0.639246 0.248707
0.802533 0.637018 0.2477
0.801938 0.632547 0.246693
0.80087 0.627527 0.245274
0.163409 0.685161 0.482902
0.164034 0.685023 0.477913
0.165057 0.6851 0.473259
0.166003 0.685252 0.468269
0.1673 0.68513 0.462425
0.169909 0.684947 0.454932
0.173281 0.684825 0.445853
0.17641 0.685344 0.434577
0.183749 0.68545 0.419898
0.201022 0.679591 0.404532
0.219135 0.672572 0.386419
0.242664 0.665507 0.363928
0.277058 0.66154 0.33608
0.319463 0.661921 0.296605
0.373465 0.668803 0.29514
0.410071 0.675105 0.301122
0.441215 0.682948 0.302174
0.478019 0.689265 0.282094
0.521767 0.694789 0.270039
0.592935 0.694957 0.251804
0.669291 0.686625 0.228397
0.72639 0.678813 0.21181
0.763607 0.678004 0.205295
0.784604 0.678264 0.22536
0.799756 0.67866 0.24004
0.809934 0.680522 0.253574
0.811933 0.681254 0.261769
0.811887 0.681331 0.2636
0.811994 0.680415 0.263645
0.811933 0.678828 0.263386
0.811002 0.676219 0.262226
0.810208 0.671885 0.260471
0.80943 0.66656 0.258793
0.188296 0.722072 0.518761
0.189197 0.722301 0.514824
0.189944 0.722408 0.510353
0.19089 0.722087 0.505928
0.191791 0.721798 0.500862
0.193988 0.721538 0.493935
0.196811 0.721416 0.48571
0.20058 0.722255 0.476417
0.206287 0.722484 0.463798
0.212711 0.720485 0.448997
0.227588 0.714 0.432227
0.247486 0.706416 0.412253
0.274754 0.699397 0.385626
0.317815 0.697292 0.351644
0.366659 0.699687 0.320729
0.416831 0.705348 0.328923
0.448783 0.712383 0.332341
0.478248 0.718791 0.326848
0.515114 0.726131 0.311391
0.557473 0.730541 0.299626
0.62388 0.732097 0.285176
0.697017 0.726162 0.265248
0.747158 0.719951 0.254612
0.7785 0.718578 0.249027
0.801038 0.718761 0.248951
0.814511 0.720562 0.262913
0.819486 0.720546 0.272999
0.819364 0.720241 0.278828
0.819303 0.719051 0.278477
0.819135 0.718135 0.277684
0.818189 0.715557 0.276295
0.817487 0.711192 0.275364
0.816663 0.705943 0.273335
0.212802 0.753857 0.552071
0.213947 0.754009 0.548867
0.214328 0.753841 0.544472
0.214679 0.753567 0.54052
0.215457 0.753445 0.535378
0.216403 0.753491 0.529656
0.218753 0.753475 0.522698
0.222034 0.753429 0.513176
0.225406 0.753475 0.502022
0.231708 0.752758 0.487404
0.238285 0.748837 0.472938
0.255146 0.741588 0.454887
0.277989 0.733028 0.431922
0.31194 0.726833 0.400092
0.363851 0.726879 0.363195
0.416037 0.731929 0.351629
0.456672 0.736278 0.361105
0.485588 0.743847 0.361212
0.514611 0.750011 0.351736
0.551644 0.757565 0.340093
0.595178 0.760693 0.329809
0.658549 0.762783 0.318456
0.727703 0.761334 0.299779
0.76495 0.754635 0.295567
0.791745 0.752758 0.292165
0.811322 0.75317 0.291112
0.820829 0.753262 0.294957
0.822553 0.753216 0.300328
0.822828 0.752575 0.300679
0.822934 0.751186 0.2981
0.82324 0.749477 0.29453
0.823087 0.746731 0.291447
0.822339 0.741039 0.288655
0.234546 0.781155 0.582452
0.235004 0.781048 0.579538
0.235172 0.780941 0.575814
0.235431 0.780621 0.571725
0.23621 0.780301 0.566842
0.237263 0.780194 0.5617
0.238941 0.779965 0.554803
0.240833 0.779736 0.546654
0.244282 0.779232 0.535485
0.248981 0.778347 0.521324
0.256413 0.775891 0.508278
0.263874 0.771084 0.492195
0.282521 0.762676 0.470619
0.306981 0.755749 0.442573
0.354925 0.752361 0.407538
0.410574 0.753979 0.379019
0.461021 0.75874 0.383719
0.493568 0.763455 0.388571
0.519005 0.770565 0.387518
0.550088 0.778027 0.377462
0.587411 0.783993 0.366857
0.630045 0.78761 0.360037
0.690562 0.789303 0.350347
0.749294 0.788602 0.335775
0.781247 0.782727 0.333227
0.803464 0.781521 0.330022
0.818067 0.780575 0.331533
0.823163 0.779797 0.335515
0.82298 0.779126 0.336568
0.82327 0.778302 0.335302
0.823255 0.776196 0.331975
0.823316 0.773068 0.327672
0.823545 0.769162 0.321965
0.254337 0.803174 0.611109
0.254536 0.802899 0.607782
0.254627 0.802441 0.604212
0.25478 0.802228 0.600153
0.255222 0.80177 0.596063
0.255985 0.801678 0.590631
0.257603 0.801312 0.58381
0.259373 0.800855 0.575692
0.261799 0.800336 0.566033
0.266087 0.799908 0.552316
0.272206 0.797147 0.537438
0.278264 0.793515 0.523613
0.290593 0.787686 0.505119
0.312016 0.779522 0.481987
0.346075 0.773541 0.44892
0.405783 0.773342 0.416388
0.459953 0.777005 0.406088
0.500389 0.780545 0.413718
0.527749 0.787045 0.413977
0.552422 0.794079 0.410056
0.583169 0.800824 0.401099
0.620279 0.805997 0.392004
0.663172 0.808682 0.385718
0.718547 0.809903 0.376913
0.768872 0.809186 0.365362
0.794873 0.80531 0.364996
0.813336 0.802716 0.364828
0.82179 0.80119 0.368017
0.822797 0.799863 0.369146
0.822904 0.799023 0.36762
0.823194 0.797559 0.364813
0.82327 0.795865 0.361227
0.823606 0.791897 0.355825
0.266361 0.816297 0.630137
0.266911 0.81619 0.627359
0.267338 0.816175 0.623987
0.267552 0.81622 0.621134
0.268177 0.816327 0.616205
0.269642 0.81622 0.611627
0.270909 0.816129 0.605905
0.272358 0.815702 0.598428
0.2748 0.815152 0.589227
0.277836 0.81416 0.575936
0.282841 0.812406 0.561074
0.29099 0.809949 0.549493
0.299306 0.806409 0.534554
0.316884 0.799664 0.514107
0.3411 0.79266 0.485069
0.392218 0.789441 0.450172
0.454292 0.791318 0.429038
0.500862 0.795209 0.432242
0.534737 0.799985 0.4383
0.558312 0.805066 0.435691
0.582376 0.811276 0.427756
0.613046 0.817395 0.418647
0.650385 0.821683 0.410956
0.694911 0.82295 0.403861
0.743725 0.824857 0.396979
0.785626 0.82472 0.388983
0.807828 0.820294 0.391974
0.821485 0.817212 0.394491
0.824537 0.815885 0.39675
0.824384 0.815244 0.395819
0.824598 0.814328 0.394018
0.824277 0.81236 0.39028
0.823987 0.809857 0.385199
0.264393 0.817502 0.633982
0.266453 0.817166 0.631189
0.267018 0.81706 0.628321
0.26743 0.817136 0.624582
0.267903 0.817136 0.621302
0.269154 0.817151 0.615503
0.270741 0.817029 0.609949
0.272374 0.816922 0.603082
0.275166 0.81677 0.594049
0.27686 0.815366 0.582116
0.280476 0.813077 0.566232
0.288701 0.81181 0.555322
0.298528 0.81059 0.545174
0.311879 0.807065 0.530724
0.336736 0.800885 0.509453
0.37203 0.795422 0.476265
0.438422 0.794537 0.447929
0.487694 0.796994 0.439261
0.527153 0.80116 0.445945
0.554589 0.80679 0.444602
0.57705 0.812497 0.438468
0.604059 0.818158 0.429145
0.636332 0.823804 0.420478
0.67686 0.825757 0.412314
0.725216 0.826963 0.40441
0.772335 0.828702 0.39646
0.799969 0.825757 0.398825
0.81886 0.823346 0.405051
0.825589 0.822446 0.409583
0.825696 0.8224 0.410697
0.82565 0.822126 0.409949
0.825559 0.821591 0.40856
0.825376 0.821103 0.406928
0.262135 0.817868 0.637354
0.263828 0.817731 0.633997
0.265949 0.817365 0.63093
0.266743 0.817258 0.627787
0.267384 0.817258 0.623362
0.268177 0.817243 0.61886
0.269871 0.81706 0.613382
0.271687 0.816938 0.606058
0.274266 0.816815 0.597742
0.276478 0.816114 0.585657
0.27921 0.813474 0.568856
0.287053 0.811948 0.557519
0.297261 0.810987 0.547784
0.308919 0.808576 0.534432
0.331456 0.803479 0.516213
0.36231 0.797711 0.486122
0.422934 0.795834 0.457191
0.479469 0.796796 0.443946
