bundles/resolve-cinematic-luts/Phantom Luts/Ursa G2 Phntm Film LUTs - V1/Gen4/White Balance Offset (Magenta Boost)/Ursa EastmanRM Gen4-Legacy WBO.cube
TITLE "Generated by Resolve"
LUT_3D_SIZE 9
0.0444038 0.0406806 0.0425269
0.0728313 0.0381018 0.0394141
0.167758 0.0368658 0.0394598
0.28632 0.0364385 0.0424811
0.414313 0.0349279 0.0475624
0.518166 0.0338293 0.0562905
0.574762 0.0385901 0.0716716
0.581231 0.0407721 0.0768902
0.545785 0.0483101 0.112856
0.0493477 0.070634 0.0513313
0.0556039 0.0713054 0.0487831
0.145541 0.0609751 0.0460822
0.275151 0.044007 0.0419776
0.406394 0.0346685 0.0443275
0.514138 0.0314031 0.0492103
0.564385 0.035584 0.0606699
0.566171 0.0360571 0.0623026
0.525261 0.0411536 0.089128
0.0674907 0.139986 0.0689403
0.0640421 0.14316 0.0647288
0.132219 0.1505 0.0599222
0.313298 0.120317 0.0574655
0.457282 0.09897 0.0573281
0.568002 0.0902876 0.0629892
0.618494 0.0794232 0.0782177
0.613016 0.0714427 0.0774243
0.58114 0.0684672 0.0903639
0.0747692 0.258564 0.095491
0.0712596 0.272786 0.0942092
0.127794 0.284199 0.0735943
0.285786 0.339437 0.0852522
0.575402 0.311818 0.0842298
0.709865 0.268376 0.113436
0.791318 0.281621 0.147814
0.798581 0.287694 0.151568
0.782254 0.289815 0.165789
0.0624247 0.433921 0.135225
0.0556497 0.442817 0.132708
0.092195 0.447684 0.0953841
0.240772 0.487877 0.071519
0.50634 0.565118 0.114488
0.753719 0.540505 0.156863
0.843061 0.508354 0.195987
0.851286 0.513512 0.205737
0.84303 0.51841 0.219074
0.0879988 0.601083 0.28867
0.07953 0.608865 0.29395
0.0982528 0.60592 0.232685
0.196612 0.596216 0.136767
0.454856 0.687114 0.183871
0.673915 0.755261 0.255787
0.870756 0.744274 0.34963
0.890852 0.748577 0.375479
0.895888 0.751431 0.367376
0.219348 0.718822 0.436225
0.213367 0.721721 0.439445
0.210529 0.715297 0.406683
0.239719 0.700252 0.324117
0.442329 0.734752 0.260288
0.632868 0.820859 0.353597
0.829129 0.877607 0.441382
0.896666 0.871336 0.484779
0.894636 0.873655 0.492897
0.250843 0.743801 0.486397
0.248463 0.738689 0.46685
0.24242 0.727779 0.425299
0.256031 0.712016 0.349203
0.406821 0.725429 0.251118
0.626963 0.82034 0.345602
0.808362 0.877409 0.421973
0.899992 0.875395 0.476677
0.89369 0.877699 0.503716
0.242771 0.750927 0.514611
0.241932 0.745159 0.491676
0.239002 0.731975 0.440467
0.255756 0.712123 0.349508
0.411429 0.727245 0.253758
0.631098 0.821866 0.348837
0.806745 0.877363 0.424857
0.897368 0.876219 0.487938
0.890959 0.878553 0.513512
0.0446479 0.0423896 0.0535286
0.0633097 0.0437476 0.052842
0.144442 0.0448005 0.055436
0.258839 0.0432593 0.0624857
0.388678 0.039292 0.0713817
0.502342 0.0394751 0.0866407
0.576272 0.0496681 0.112795
0.579568 0.0519875 0.12018
0.555047 0.0566415 0.146212
0.0473487 0.0623178 0.0540627
0.0554513 0.0629892 0.0568704
0.136355 0.0562142 0.0560159
0.258518 0.0464027 0.0558633
0.386267 0.0397803 0.0611582
0.500343 0.037171 0.0715648
0.553124 0.0421302 0.0891585
0.558831 0.0446326 0.0968032
0.537591 0.0505074 0.122286
0.0616465 0.133837 0.0824445
0.055314 0.138231 0.0785382
0.125597 0.145953 0.06598
0.304677 0.108827 0.0615244
0.441337 0.087892 0.0585489
0.547768 0.0640574 0.0597696
0.586633 0.0601053 0.0774701
0.57821 0.0518654 0.0755474
0.54905 0.0515145 0.0887007
0.0703593 0.250797 0.117784
0.0594339 0.259586 0.11252
0.10724 0.273304 0.0749218
0.284382 0.331884 0.0850996
0.576867 0.290852 0.087892
0.708843 0.252903 0.114427
0.786023 0.26923 0.145708
0.790906 0.271717 0.148455
0.773205 0.273533 0.163226
0.0656901 0.43331 0.169802
0.0535286 0.440452 0.16849
0.0747845 0.444846 0.107164
0.222751 0.479759 0.0679942
0.50663 0.561593 0.113863
0.757336 0.530968 0.153903
0.844068 0.498131 0.196246
0.849195 0.502632 0.203372
0.84094 0.506661 0.215961
0.0894789 0.602136 0.314183
0.0807202 0.609689 0.320775
0.0805524 0.606867 0.269261
0.175082 0.595163 0.150179
0.446067 0.682887 0.178592
0.674632 0.75198 0.251209
0.87126 0.73846 0.347692
0.889021 0.741894 0.370611
0.890501 0.745144 0.371221
0.219287 0.72137 0.453468
0.213367 0.723934 0.454963
0.209751 0.718776 0.42649
0.23006 0.701595 0.337057
0.423941 0.727474 0.253407
0.628305 0.818555 0.349889
0.827512 0.877119 0.439445
0.897353 0.869871 0.48159
0.895201 0.872038 0.489448
0.248157 0.750805 0.514366
0.253239 0.743282 0.484001
0.246677 0.733913 0.447379
0.248722 0.714336 0.364706
0.381643 0.717754 0.25069
0.618845 0.81706 0.341833
0.801297 0.876173 0.417823
0.899718 0.87541 0.475944
0.893294 0.877852 0.506157
0.246677 0.75462 0.530938
0.250538 0.747936 0.502495
0.24477 0.737713 0.462913
0.247745 0.714641 0.3664
0.384527 0.718868 0.252399
0.621637 0.818158 0.343435
0.79736 0.875563 0.420508
0.895628 0.876371 0.485954
0.890944 0.878614 0.513939
0.0453193 0.0497444 0.0906691
0.0700389 0.0480507 0.0955215
0.145098 0.0492256 0.0837873
0.26537 0.0496834 0.0823224
0.392889 0.0457923 0.0911727
0.510658 0.0453956 0.114137
0.58854 0.0560006 0.146304
0.591501 0.0600595 0.156374
0.56762 0.0660563 0.186084
0.0431983 0.0598001 0.077409
0.048249 0.049958 0.0978714
0.128511 0.0537728 0.0916915
0.257481 0.0500191 0.0806897
0.394903 0.0436103 0.0874037
0.516396 0.0425422 0.104128
0.584512 0.0527352 0.130877
0.586725 0.0552682 0.139879
0.562051 0.0607919 0.1682
0.0585031 0.128222 0.0953841
0.0519417 0.12961 0.105699
0.137194 0.140658 0.119219
0.300755 0.115434 0.100496
0.456641 0.0886702 0.086183
0.567727 0.0694285 0.0968948
0.594369 0.0560769 0.102724
0.58555 0.0505379 0.0980545
0.560983 0.0531777 0.117678
0.0718242 0.244144 0.143435
0.060441 0.24831 0.147799
0.0785382 0.266331 0.132357
0.30132 0.324788 0.133059
0.564767 0.271962 0.13109
0.705379 0.246723 0.134264
0.781231 0.238117 0.15639
0.775128 0.230549 0.15433
0.752041 0.230518 0.169604
0.0717479 0.433494 0.220813
0.0580301 0.440208 0.23328
0.0535897 0.436377 0.174029
0.166049 0.458381 0.0836042
0.50631 0.55201 0.121904
0.762875 0.50309 0.159747
0.847395 0.473228 0.201877
0.848508 0.475944 0.201694
0.839155 0.478767 0.213474
0.0928511 0.601038 0.350637
0.0818647 0.608042 0.363012
0.0779431 0.606928 0.324605
0.121645 0.593988 0.189456
0.414252 0.667033 0.16495
0.674922 0.743847 0.239689
0.870832 0.723278 0.341848
0.884916 0.725994 0.35938
0.885313 0.728267 0.360769
0.21886 0.723384 0.478157
0.209064 0.727291 0.485374
0.207965 0.722622 0.457435
0.209384 0.706706 0.377462
0.370977 0.709056 0.246632
0.612436 0.810575 0.341238
0.822339 0.874083 0.432456
0.898985 0.866529 0.47483
0.896284 0.868009 0.48333
0.254643 0.756725 0.541024
0.250492 0.754391 0.531121
0.25478 0.74374 0.485863
0.24097 0.723918 0.409644
0.329915 0.708125 0.267613
0.597375 0.807126 0.332998
0.784054 0.872938 0.409445
0.899016 0.875456 0.474601
0.893294 0.878004 0.507256
0.253605 0.760327 0.557107
0.250584 0.757748 0.545541
0.254017 0.747143 0.499031
0.242115 0.725978 0.416693
0.328573 0.707759 0.267033
0.597238 0.807065 0.332769
0.774243 0.871 0.412924
0.891844 0.87689 0.482078
0.890532 0.878935 0.516701
0.0496986 0.0632334 0.156832
0.0802777 0.0544289 0.166583
0.142031 0.0574655 0.166842
0.26952 0.0555276 0.140826
0.400854 0.0569924 0.151156
0.521187 0.059617 0.175799
0.609216 0.0757153 0.204532
0.61471 0.0819409 0.219516
0.591562 0.0897078 0.254261
0.0404364 0.0650034 0.139239
0.0536965 0.0640116 0.16611
0.12842 0.0569009 0.176944
0.263584 0.0577554 0.152895
0.407141 0.0565042 0.148547
0.528923 0.0578622 0.166552
0.608499 0.0739757 0.196338
0.611307 0.0783551 0.208133
0.588144 0.0858625 0.242161
0.046067 0.117693 0.137316
0.043122 0.112978 0.154696
0.0993362 0.105394 0.211185
0.271138 0.106966 0.188708
0.443519 0.0799115 0.146304
0.557229 0.0602579 0.142275
0.615656 0.0652018 0.162722
0.613367 0.0649271 0.164797
0.590005 0.0708324 0.193179
0.0672313 0.23331 0.176349
0.0573892 0.237018 0.191455
0.0802625 0.253635 0.212726
0.326009 0.308064 0.282261
0.563684 0.274327 0.263523
0.73875 0.233097 0.249042
0.829862 0.224643 0.260395
0.818906 0.212055 0.254154
0.785595 0.210605 0.275669
0.0760204 0.43299 0.277668
0.0605478 0.438529 0.301076
0.0608835 0.438209 0.284108
0.159411 0.473716 0.28365
0.506752 0.535912 0.278248
0.747631 0.479026 0.28658
0.858427 0.461891 0.287053
0.866728 0.461051 0.283116
0.857603 0.463264 0.294286
0.101427 0.598489 0.391394
0.085771 0.60589 0.417334
0.0834821 0.606439 0.402045
0.0793469 0.601968 0.326894
0.323217 0.619333 0.243961
0.666743 0.728099 0.312032
0.866468 0.68687 0.393286
0.88191 0.686 0.390661
0.879988 0.687144 0.395361
0.217502 0.72401 0.509941
0.205814 0.728985 0.524468
0.205112 0.727077 0.507607
0.199451 0.717067 0.451804
0.263752 0.700725 0.3178
0.557397 0.780835 0.354879
0.819013 0.869749 0.429557
0.902937 0.86276 0.487663
0.90071 0.863462 0.49601
0.265965 0.764477 0.577325
0.259907 0.763577 0.574258
0.25835 0.75967 0.554238
0.256855 0.744518 0.487205
0.26099 0.718044 0.365255
0.518791 0.769757 0.338048
0.752117 0.866148 0.408728
0.895842 0.877028 0.478202
0.892958 0.880049 0.519844
0.26894 0.766705 0.58851
0.263127 0.765911 0.584329
0.258198 0.761898 0.565667
0.258549 0.746624 0.496483
0.257603 0.718807 0.371695
0.510353 0.766155 0.335195
0.728267 0.859922 0.417533
0.884062 0.878798 0.477791
0.891539 0.880812 0.526375
0.0595407 0.0764935 0.255726
0.0889601 0.0594797 0.278141
0.162478 0.0630045 0.285573
0.261433 0.0654154 0.2795
0.406302 0.0657054 0.25417
0.533242 0.0810254 0.270039
0.635676 0.108476 0.311955
0.644404 0.115023 0.326757
0.621836 0.123949 0.363302
0.0419165 0.0774548 0.233448
0.0614023 0.0780041 0.271443
0.141878 0.0630503 0.297566
0.257496 0.0664073 0.294301
0.413153 0.0671244 0.262196
0.542733 0.0823377 0.274113
0.637964 0.109102 0.312337
0.641184 0.11519 0.327977
0.617578 0.124483 0.365591
0.0413672 0.103441 0.213352
0.0414588 0.0942702 0.235569
0.0784314 0.0731518 0.298833
0.242237 0.0706035 0.308202
0.413397 0.0720226 0.269917
0.562448 0.078294 0.250507
0.653819 0.101045 0.27599
0.654215 0.10515 0.288472
0.627024 0.113802 0.326299
0.0438239 0.201434 0.248829
0.04271 0.197559 0.267674
0.0443427 0.194537 0.288167
0.270191 0.221103 0.420752
0.526116 0.255604 0.426947
0.725887 0.227314 0.388907
0.806165 0.204318 0.378363
0.789548 0.191302 0.368338
0.757504 0.192432 0.388968
0.0736706 0.422766 0.33341
0.0588235 0.426154 0.358221
0.0581216 0.426551 0.3617
0.178775 0.469093 0.420127
0.530388 0.517815 0.493812
0.753292 0.477134 0.462501
0.885451 0.448051 0.462318
0.895918 0.441184 0.461769
0.882689 0.441596 0.478416
0.103899 0.593042 0.439063
0.0864576 0.599405 0.466178
0.0852522 0.600702 0.463127
0.0984054 0.605142 0.449409
0.390219 0.646448 0.482811
0.671427 0.706371 0.492363
0.853727 0.65774 0.491234
0.880095 0.660349 0.486259
0.874846 0.661982 0.496178
0.216251 0.722316 0.5467
0.203815 0.726848 0.562158
0.20148 0.727016 0.557168
0.198138 0.72221 0.529854
0.292638 0.728923 0.477302
0.535683 0.763256 0.475227
0.80618 0.861997 0.552666
0.90341 0.856443 0.619989
0.901259 0.856504 0.628656
0.291691 0.770871 0.61033
0.275639 0.772534 0.620737
0.271397 0.771481 0.613642
0.268086 0.766171 0.584222
0.291035 0.757794 0.506828
0.509819 0.779751 0.48719
0.73431 0.85861 0.559365
0.889937 0.894743 0.608988
0.888747 0.898405 0.651255
0.282811 0.773434 0.629953
0.27834 0.773404 0.628916
0.273381 0.77261 0.621027
0.269841 0.767926 0.592523
0.289952 0.758999 0.513741
0.498802 0.77969 0.493492
0.709636 0.84828 0.562783
0.875914 0.89688 0.608576
0.886717 0.899733 0.660548
0.08159 0.0901198 0.357977
0.112398 0.0658122 0.385306
0.195377 0.068986 0.395804
0.298085 0.0714733 0.397009
0.39762 0.0811627 0.393378
0.549432 0.0972 0.380957
0.656275 0.137896 0.410361
0.66894 0.142321 0.424949
0.643381 0.151675 0.462089
0.0491493 0.0922255 0.344396
0.0842451 0.0916457 0.373907
0.167452 0.0690623 0.404868
0.295109 0.0714122 0.407355
0.401663 0.0835584 0.406973
0.556329 0.102403 0.394949
0.659724 0.140337 0.418418
0.662043 0.145083 0.436286
0.637186 0.153979 0.471397
0.0418097 0.0974594 0.299763
0.0418708 0.0924239 0.331243
0.0995193 0.0792554 0.397543
0.269093 0.0727398 0.41735
0.394034 0.0842145 0.417304
0.565103 0.102663 0.392996
0.677272 0.136309 0.398077
0.677592 0.139361 0.413108
0.650874 0.148867 0.449638
0.0422827 0.177996 0.324269
0.042237 0.171511 0.342519
0.0421454 0.158373 0.362036
0.209415 0.132418 0.476127
0.47657 0.183383 0.531685
0.671489 0.199756 0.523186
0.759136 0.191775 0.482399
0.738674 0.176928 0.464469
0.707286 0.178851 0.480674
0.0441138 0.382147 0.402274
0.0437018 0.381109 0.424842
0.0435035 0.372976 0.431113
0.0841077 0.403143 0.500664
0.497017 0.436759 0.641917
0.744686 0.476234 0.639033
0.896178 0.449012 0.602853
0.906233 0.442786 0.605142
0.884825 0.449271 0.625834
0.0997635 0.581643 0.487694
0.083238 0.58703 0.513237
0.0825666 0.589029 0.516838
0.0884108 0.590127 0.519768
0.418448 0.6477 0.602716
0.691432 0.686839 0.661341
0.862348 0.653117 0.63534
0.898116 0.647074 0.639796
0.8934 0.648493 0.647608
0.218677 0.714366 0.575235
0.198657 0.71902 0.59588
0.197436 0.719631 0.595712
0.196567 0.718929 0.586923
0.386236 0.752697 0.613077
0.60824 0.794888 0.655833
0.817777 0.849424 0.6757
0.89601 0.842405 0.716487
0.894697 0.844312 0.721004
0.310155 0.776333 0.651179
0.291737 0.77734 0.663035
0.287373 0.776287 0.658289
0.282399 0.775174 0.645685
0.365499 0.795926 0.642756
0.581659 0.831571 0.669886
0.757687 0.865248 0.694118
0.889845 0.906615 0.718166
0.889082 0.910628 0.76202
0.30103 0.778668 0.671427
0.296254 0.778683 0.67158
0.291463 0.777905 0.666453
0.28658 0.776425 0.652491
0.358648 0.795956 0.645914
0.576379 0.833539 0.676127
0.740734 0.863264 0.702708
0.862028 0.905272 0.728283
0.880903 0.912367 0.775464
0.114992 0.0938582 0.452964
0.144564 0.0759136 0.474113
0.223743 0.078645 0.484443
0.326131 0.0847334 0.493263
0.425391 0.0995804 0.505989
0.541558 0.127474 0.521096
0.652583 0.165484 0.543297
0.661631 0.170871 0.558236
0.647181 0.17734 0.579522
0.0843366 0.106081 0.439719
0.116304 0.0935073 0.466606
0.198947 0.0793164 0.489845
0.318181 0.0864729 0.500938
0.430304 0.10309 0.516167
0.551659 0.13341 0.533394
0.656184 0.168826 0.55227
0.655741 0.173861 0.568948
0.642283 0.179538 0.586831
0.0423285 0.104814 0.394064
0.0548867 0.106859 0.431113
0.131426 0.0818036 0.484611
0.287785 0.0858167 0.504799
0.423468 0.102495 0.521218
0.549798 0.135897 0.541146
0.664149 0.168322 0.548852
0.666026 0.170413 0.55726
0.648096 0.176944 0.578073
0.0424048 0.148928 0.388724
0.0423438 0.142718 0.401297
0.0424964 0.129442 0.420218
0.186297 0.0894484 0.509773
0.41268 0.115053 0.544121
0.562509 0.153948 0.571206
0.67834 0.173632 0.553857
0.680858 0.165362 0.533974
0.658122 0.173663 0.558785
0.0439155 0.359243 0.475166
0.0441901 0.357565 0.487144
0.0440986 0.348241 0.490883
0.0646372 0.367926 0.575479
0.467948 0.358923 0.736034
0.752819 0.445609 0.804669
0.89427 0.452537 0.785962
0.907561 0.443473 0.774823
0.886183 0.449577 0.78352
0.0617227 0.548287 0.551583
0.057145 0.550134 0.567056
0.0562905 0.545937 0.569757
0.0585489 0.541955 0.584329
0.318318 0.587488 0.675456
0.667445 0.625299 0.785977
0.857298 0.661341 0.785946
0.897826 0.657725 0.781506
0.892226 0.66006 0.787167
0.211536 0.702144 0.615534
0.193362 0.707012 0.634333
0.193729 0.707683 0.63682
0.192233 0.706493 0.63537
0.363012 0.741695 0.678737
0.629252 0.800397 0.757717
0.824781 0.834562 0.804334
0.897612 0.824674 0.790478
0.894972 0.826947 0.798825
0.32163 0.778332 0.682475
0.304631 0.778622 0.691783
0.302068 0.778256 0.690837
0.302205 0.778225 0.686824
0.40679 0.803586 0.709697
0.635325 0.856184 0.777279
0.792401 0.889845 0.818494
0.879835 0.910536 0.82414
0.889281 0.910903 0.839445
0.343145 0.787823 0.698436
0.325124 0.787549 0.70573
0.321233 0.786923 0.704021
0.321294 0.787305 0.69955
0.410163 0.809583 0.716823
0.627237 0.861128 0.782254
0.77966 0.895216 0.827207
0.859602 0.910155 0.838605
0.87924 0.918318 0.851484
0.167117 0.0856641 0.513771
0.204868 0.08748 0.520607
0.269505 0.0928969 0.53048
0.360021 0.106172 0.548089
0.467201 0.127764 0.573175
0.572244 0.161517 0.59733
0.643137 0.188205 0.617212
0.645121 0.189059 0.618769
0.643915 0.18967 0.620096
0.141375 0.0936599 0.50515
0.178225 0.0871138 0.518471
0.254536 0.0921798 0.530007
0.356466 0.106859 0.549706
0.471855 0.13022 0.576761
0.580346 0.16553 0.602243
0.643992 0.189395 0.619638
0.644831 0.189441 0.619684
0.643275 0.189837 0.620447
0.0913405 0.11458 0.472068
0.1243 0.108064 0.494865
0.199893 0.0881819 0.522576
0.329091 0.102708 0.544533
0.461799 0.127245 0.574456
0.577554 0.164416 0.601221
0.647517 0.190265 0.620172
0.649622 0.191089 0.621592
0.645457 0.191974 0.623911
0.0435035 0.131716 0.44004
0.0446784 0.124453 0.443503
0.0609903 0.115984 0.458824
0.239322 0.0921035 0.529992
0.423163 0.120577 0.567468
0.562234 0.160784 0.600687
0.655268 0.196674 0.630228
0.659632 0.197299 0.630259
0.656672 0.199176 0.633936
0.0446784 0.342672 0.515251
0.0447395 0.342245 0.521798
0.0448768 0.334005 0.529229
0.130205 0.346761 0.638392
0.530739 0.338186 0.779553
0.774609 0.409293 0.844434
0.860883 0.434577 0.846983
0.867872 0.428626 0.843992
0.85922 0.430655 0.844327
0.0569619 0.532586 0.595376
0.0565957 0.534752 0.601053
0.0559854 0.532128 0.603128
0.0607156 0.532174 0.620371
0.297414 0.563592 0.717205
0.698054 0.593942 0.846723
0.867308 0.649439 0.875425
0.903517 0.652323 0.870146
0.891768 0.655177 0.872206
0.19292 0.686183 0.662821
0.186877 0.688899 0.671824
0.187106 0.68809 0.674449
0.178515 0.683177 0.678279
0.343084 0.711162 0.725612
0.59852 0.768429 0.794064
0.828626 0.804929 0.867994
0.8925 0.816388 0.854978
0.890089 0.818631 0.858503
0.308934 0.772915 0.705196
0.302831 0.7738 0.709606
0.301488 0.773297 0.709255
0.302724 0.773098 0.709072
0.396094 0.79675 0.735012
0.622827 0.850874 0.801404
0.8009 0.891463 0.854826
0.877379 0.907393 0.87454
0.886687 0.908919 0.874525
0.3579 0.792248 0.721645
0.342306 0.792081 0.727184
0.34081 0.791821 0.725963
0.344106 0.793301 0.724468
0.432105 0.814725 0.745693
0.646632 0.867445 0.811521
0.806165 0.903761 0.861311
0.872084 0.918013 0.878492
0.891936 0.919905 0.874418
0.214115 0.0893873 0.525399
0.246601 0.092134 0.530114
0.300969 0.0982681 0.539422
0.383886 0.11313 0.558129
0.484077 0.134463 0.581247
0.585168 0.167163 0.6038
0.644938 0.189975 0.620401
0.645365 0.189319 0.619364
0.645319 0.189319 0.619394
0.177646 0.0874495 0.51838
0.216327 0.0896468 0.526329
0.281575 0.0959182 0.535592
0.375662 0.111391 0.555962
0.484443 0.1346 0.581415
0.590097 0.169146 0.605203
0.644572 0.189731 0.620096
0.644358 0.189761 0.620157
0.643153 0.189868 0.620523
0.119997 0.113893 0.486748
0.142809 0.0920424 0.510765
0.228138 0.0903792 0.527459
0.346868 0.106111 0.549523
0.472969 0.131044 0.578515
0.585321 0.16788 0.604837
0.646326 0.189593 0.619684
0.650401 0.191928 0.623255
0.645762 0.192233 0.624277
0.0509194 0.12929 0.458503
0.0508125 0.121935 0.455177
0.0846265 0.115908 0.473457
0.258915 0.093492 0.532387
0.431739 0.121614 0.569467
0.566522 0.161837 0.601495
0.652873 0.195148 0.628122
0.65948 0.197787 0.631464
0.656474 0.199359 0.634684
0.0460212 0.33814 0.546105
0.0458381 0.334707 0.54667
0.0456855 0.319905 0.542412
0.136553 0.31632 0.626551
0.535592 0.31397 0.770153
0.764187 0.380209 0.829084
0.848157 0.407477 0.834714
0.850782 0.403418 0.831708
0.845777 0.404685 0.831754
0.060853 0.534661 0.615686
0.0598917 0.535454 0.618051
0.0580301 0.530327 0.616098
0.0608682 0.524376 0.624811
0.307012 0.550134 0.722637
0.72221 0.588098 0.859525
0.871534 0.636133 0.881437
0.902007 0.641001 0.879805
0.890822 0.644068 0.881148
0.204349 0.687739 0.692515
0.200748 0.689906 0.695857
0.197787 0.687938 0.69543
0.185443 0.678538 0.691814
0.333501 0.700725 0.729763
0.588632 0.755001 0.799847
0.840269 0.790875 0.879164
0.887694 0.805142 0.875975
0.887007 0.806989 0.876768
0.335607 0.774838 0.716991
0.317723 0.775387 0.724666
0.316548 0.774563 0.724437
0.313726 0.771542 0.723857
0.414542 0.793759 0.751934
0.628458 0.846174 0.814771
0.793927 0.885222 0.862409
0.881163 0.903395 0.88603
0.886427 0.905409 0.885359
0.368124 0.793835 0.726314
0.349142 0.793515 0.733166
0.348775 0.79353 0.733303
0.355459 0.795224 0.735119
0.436973 0.815152 0.757015
0.63537 0.864622 0.81677
0.799176 0.902785 0.865507
0.874464 0.918929 0.884367
0.896132 0.920073 0.878294
