bundles/resolve-cinematic-luts/Phantom Luts/Ursa G2 Phntm Film LUTs - V1/Gen4/White Balance Offset (Magenta Boost)/Ursa Vision Gen4-Legacy WBO.cube
TITLE "Generated by Resolve"
LUT_3D_SIZE 5
0.0235904 0.0331731 0.0244907
0.116823 0.0408179 0.0295872
0.405203 0.05066 0.0364996
0.673136 0.0787366 0.0639963
0.688502 0.0919814 0.0680858
0.0369573 0.145052 0.0721752
0.0915694 0.152361 0.0514839
0.465675 0.125689 0.0716716
0.72697 0.172381 0.103136
0.733349 0.198627 0.110033
0.109987 0.514305 0.30779
0.163592 0.508293 0.247272
0.429603 0.534203 0.152041
0.769223 0.511086 0.216907
0.767865 0.498711 0.21532
0.27538 0.81651 0.598932
0.286473 0.814176 0.55848
0.443885 0.791669 0.412009
0.751797 0.820706 0.362051
0.819455 0.806638 0.350027
0.270253 0.81854 0.615991
0.27953 0.816632 0.584924
0.353674 0.797391 0.477012
0.612467 0.818402 0.404929
0.818219 0.815732 0.370199
0.0419471 0.0400854 0.139803
0.153414 0.0408331 0.110521
0.460349 0.0497749 0.139254
0.692195 0.0768902 0.163928
0.68629 0.0611734 0.0950942
0.0272221 0.123293 0.107759
0.125048 0.137469 0.122621
0.491112 0.107073 0.090135
0.70515 0.112718 0.0874342
0.725978 0.152148 0.0950027
0.0814984 0.491539 0.350545
0.0992905 0.488548 0.291371
0.425544 0.517143 0.142199
0.762951 0.480613 0.212329
0.762554 0.470619 0.209308
0.262196 0.81387 0.628016
0.267582 0.809644 0.589776
0.406699 0.785336 0.417197
0.734218 0.816266 0.362249
0.820752 0.798199 0.335424
0.255787 0.822187 0.64889
0.270283 0.818387 0.617502
0.331685 0.801266 0.500069
0.593545 0.816022 0.412192
0.818189 0.815763 0.370764
0.125032 0.0526131 0.412818
0.251942 0.0514229 0.365881
0.479072 0.076173 0.382681
0.699657 0.118212 0.477394
0.699901 0.121279 0.431373
0.0421759 0.076051 0.382849
0.14374 0.0517128 0.396704
0.449363 0.0691081 0.354498
0.696391 0.121523 0.442008
0.697719 0.122194 0.381384
0.042298 0.46389 0.465064
0.0413672 0.455238 0.457023
0.515602 0.507668 0.48748
0.821241 0.49131 0.470512
0.799863 0.462303 0.406531
0.180331 0.806409 0.705623
0.178424 0.797284 0.677668
0.317067 0.781155 0.581003
0.712123 0.812009 0.513176
0.831647 0.789014 0.492576
0.207309 0.834989 0.739132
0.21529 0.833204 0.717632
0.273823 0.818921 0.621149
0.584817 0.818601 0.5308
0.819501 0.821866 0.425193
0.312398 0.0896315 0.630213
0.398688 0.0973678 0.626581
0.592447 0.148013 0.642786
0.722103 0.151263 0.677501
0.723033 0.151385 0.682216
0.148257 0.100649 0.628916
0.315358 0.0888228 0.623453
0.555093 0.136858 0.62884
0.720455 0.1514 0.6636
0.721462 0.151369 0.670878
0.0577249 0.416098 0.724971
0.0746166 0.394339 0.735439
0.561791 0.367559 0.787869
0.813962 0.419409 0.75079
0.804242 0.381781 0.714275
0.159579 0.781384 0.795895
0.147402 0.769985 0.783673
0.313298 0.758862 0.765789
0.792248 0.801205 0.789883
0.86772 0.776532 0.764508
0.280095 0.841505 0.835019
0.262379 0.841932 0.82797
0.239704 0.840558 0.79939
0.660319 0.872572 0.796551
0.849317 0.895857 0.794324
0.374365 0.0986343 0.647013
0.443961 0.106371 0.649485
0.631922 0.16022 0.669978
0.723232 0.151293 0.682551
0.723232 0.151293 0.682551
0.257893 0.0862745 0.645441
0.378637 0.0991684 0.647272
0.596658 0.151049 0.665232
0.723232 0.151293 0.682551
0.724056 0.151888 0.683833
0.131029 0.396262 0.806302
0.137804 0.36286 0.798459
0.573922 0.29044 0.774472
0.794629 0.334646 0.768643
0.778424 0.28098 0.749249
0.208362 0.756649 0.850492
0.183734 0.737163 0.84947
0.287007 0.704982 0.849897
0.826062 0.735027 0.882536
0.875975 0.729107 0.871122
0.336477 0.843427 0.864973
0.336477 0.843427 0.864973
0.354299 0.84416 0.865171
0.678782 0.878111 0.876936
0.880476 0.916747 0.897246
