bundles/resolve-cinematic-luts/Phantom Luts/Ursa G2 Phntm Film LUTs - V1/Gen4/White Balance Offset (Magenta Boost)/Ursa Eterna Gen4 WBO.cube
TITLE "Generated by Resolve"
LUT_3D_SIZE 33
0.00927749 0.0375525 0.0374304
0.00962844 0.0373846 0.0368505
0.0231632 0.0386816 0.0389563
0.0434882 0.0399634 0.0420233
0.0670787 0.0416266 0.043946
0.0886854 0.0432441 0.0459449
0.108461 0.0451209 0.0482185
0.129046 0.0479133 0.0523995
0.152453 0.0517433 0.0580148
0.179507 0.0556802 0.0647135
0.209277 0.0603037 0.0720378
0.240223 0.0650797 0.0800031
0.272267 0.0697642 0.0894331
0.305867 0.0746471 0.0998398
0.338704 0.0787976 0.109606
0.371893 0.0833906 0.120058
0.404257 0.0882429 0.129473
0.438132 0.0939498 0.140139
0.473014 0.0996262 0.150256
0.508324 0.105211 0.159762
0.542412 0.109514 0.168032
0.575006 0.114656 0.176852
0.602014 0.115892 0.183566
0.62208 0.119387 0.189014
0.632227 0.120012 0.192462
0.634943 0.121691 0.195377
0.635538 0.121752 0.197528
0.636622 0.121721 0.199695
0.639826 0.121248 0.202594
0.645167 0.120195 0.206134
0.652476 0.118761 0.209964
0.660838 0.11696 0.214603
0.669505 0.115175 0.218936
0.0102846 0.0370642 0.0357824
0.0099031 0.0372473 0.0363775
0.0162051 0.037995 0.0367285
0.035996 0.0393378 0.0372168
0.0604257 0.0402228 0.0384985
0.0835584 0.041886 0.0403296
0.106096 0.0442817 0.0435492
0.128099 0.0470893 0.047425
0.151385 0.0505074 0.0520638
0.177798 0.0538796 0.0572671
0.207828 0.0584573 0.0641489
0.239155 0.0632181 0.0720378
0.270344 0.0678721 0.0796368
0.304509 0.0728618 0.0899214
0.339559 0.077821 0.100496
0.374792 0.0830549 0.11136
0.40882 0.0877852 0.121202
0.442771 0.0923323 0.130953
0.476066 0.0967422 0.1402
0.509743 0.100175 0.148928
0.543389 0.104356 0.157214
0.574014 0.10779 0.165164
0.599771 0.110826 0.171801
0.619501 0.113268 0.176852
0.627985 0.11545 0.180026
0.630472 0.11751 0.183307
0.632227 0.118898 0.186114
0.634852 0.119799 0.188571
0.638437 0.120027 0.191409
0.643168 0.11931 0.194232
0.650004 0.11809 0.197818
0.658183 0.116533 0.20116
0.667582 0.114748 0.207492
0.0107424 0.0382086 0.0366217
0.0102693 0.0385595 0.0373541
0.0112612 0.0379187 0.0368963
0.0267643 0.0404974 0.037705
0.0497292 0.0413214 0.0382391
0.0753948 0.0423438 0.0398108
0.0998398 0.0440986 0.0430457
0.123674 0.0460059 0.0465248
0.14873 0.0482643 0.0505074
0.176364 0.0510414 0.0545815
0.206714 0.0544442 0.0600748
0.236942 0.0581064 0.0654002
0.268788 0.0623178 0.0717021
0.301808 0.0669566 0.0792859
0.336309 0.0711528 0.0878462
0.372534 0.0761578 0.0979477
0.407889 0.0808728 0.107927
0.443412 0.0858015 0.118776
0.477806 0.0897993 0.128283
0.512444 0.0931106 0.137667
0.545937 0.0962234 0.146304
0.575555 0.09897 0.154101
0.600061 0.100801 0.160342
0.617044 0.101747 0.164126
0.623896 0.104509 0.168139
0.627008 0.107149 0.171588
0.630671 0.110033 0.175372
0.634302 0.112657 0.179126
0.63856 0.114794 0.182452
0.644892 0.116503 0.186587
0.652491 0.117281 0.190692
0.66125 0.11751 0.194797
0.670375 0.116915 0.199268
0.0146334 0.0475013 0.0430304
0.0139925 0.0483711 0.0426184
0.0152285 0.0463874 0.0404822
0.0234073 0.0472725 0.0408637
0.0416266 0.049012 0.0409247
0.06804 0.0491493 0.0417945
0.0939651 0.0491798 0.0432898
0.120714 0.0501106 0.0464942
0.147753 0.051133 0.0503853
0.176394 0.0532387 0.0551461
0.20734 0.0557412 0.0603037
0.238651 0.0588693 0.0648356
0.270039 0.062623 0.0698405
0.302876 0.0666209 0.076051
0.336965 0.0701305 0.0831769
0.371954 0.0738842 0.0909438
0.406882 0.0775311 0.099382
0.440726 0.0806744 0.1075
0.474968 0.0835584 0.116045
0.509331 0.0861982 0.124407
0.541711 0.0886702 0.132753
0.569863 0.090486 0.139925
0.593088 0.091783 0.145724
0.60885 0.0922713 0.149172
0.613535 0.0943618 0.153002
0.616556 0.0968948 0.156588
0.619638 0.0991684 0.160189
0.623331 0.101671 0.163958
0.627543 0.104021 0.167712
0.632837 0.105364 0.171206
0.641062 0.106294 0.17554
0.651164 0.106615 0.179919
0.661692 0.106279 0.184482
0.0224002 0.0706188 0.0563516
0.0218051 0.0729381 0.0552529
0.0231327 0.0727398 0.0520943
0.0333715 0.0700847 0.048661
0.0492866 0.071046 0.0493477
0.0759747 0.0708324 0.0507515
0.100786 0.068452 0.0518807
0.126635 0.0671702 0.0534066
0.153124 0.0657664 0.0550393
0.182223 0.0650797 0.0587015
0.213611 0.0644999 0.0625162
0.245487 0.0652018 0.0670329
0.276326 0.0666819 0.070985
0.3075 0.0693065 0.0763104
0.340093 0.0726329 0.0831464
0.37438 0.0763409 0.0905623
0.408728 0.0796521 0.0977188
0.442206 0.0819257 0.104341
0.475853 0.0839399 0.111162
0.509102 0.0853285 0.11722
0.540215 0.0863661 0.122927
0.567178 0.0874952 0.128969
0.588876 0.0883497 0.13344
0.602396 0.0883955 0.135073
0.605615 0.0895705 0.138216
0.608469 0.0913252 0.142046
0.61004 0.092134 0.144656
0.612207 0.0931411 0.14757
0.615412 0.0941176 0.150317
0.620493 0.0949111 0.153536
0.628 0.0950484 0.156939
0.638209 0.0942702 0.160769
0.649378 0.0932937 0.164736
0.0311894 0.0976883 0.0700389
0.030457 0.101076 0.0688182
0.0308232 0.102831 0.066804
0.0363622 0.0998398 0.0593423
0.0550088 0.0985428 0.0575875
0.0778363 0.101076 0.0598764
0.110445 0.0999313 0.0627909
0.140719 0.0946212 0.0662852
0.168856 0.0901961 0.0674601
0.19791 0.0888533 0.0688487
0.228977 0.0874189 0.0711986
0.261601 0.0855116 0.0744488
0.292866 0.0830854 0.0774548
0.323125 0.0818799 0.0816968
0.353033 0.0817578 0.0864576
0.383993 0.0826581 0.0914778
0.414527 0.0832837 0.0969558
0.44596 0.0849928 0.103655
0.479454 0.0874342 0.110033
0.513481 0.0890669 0.11606
0.544411 0.0899519 0.120912
0.570108 0.0901961 0.124407
0.589334 0.0897078 0.125673
0.599649 0.0892195 0.125307
0.601938 0.0892042 0.12488
0.601968 0.0892348 0.124941
0.60206 0.0892958 0.125017
0.602777 0.0891127 0.126436
0.605478 0.0895705 0.12874
0.610193 0.0897383 0.131624
0.617334 0.0890669 0.134432
0.627634 0.0877241 0.137743
0.638865 0.085832 0.141024
0.0404669 0.125612 0.08542
0.0394293 0.129885 0.0818799
0.0394598 0.133379 0.0798505
0.0444343 0.13254 0.0741741
0.0576181 0.129168 0.0655528
0.0837262 0.130602 0.0658732
0.110521 0.13164 0.0673228
0.148928 0.131197 0.0701305
0.185336 0.123583 0.0758679
0.217929 0.116579 0.0796979
0.249683 0.113817 0.0822156
0.281697 0.112978 0.0850843
0.31165 0.112276 0.0880751
0.342657 0.110704 0.0914168
0.374243 0.108339 0.0952316
0.404837 0.105303 0.0984207
0.434028 0.102571 0.101976
0.463188 0.101595 0.10721
0.492531 0.100404 0.111574
0.519661 0.0975967 0.114809
0.545907 0.0953231 0.118776
0.571206 0.0955978 0.12192
0.591104 0.0960098 0.124178
0.602274 0.0961013 0.124926
0.606546 0.0964065 0.125231
0.607095 0.0966354 0.125429
0.607416 0.0967422 0.125505
0.607706 0.0966812 0.125551
0.608667 0.0966201 0.125734
0.611093 0.0962387 0.126101
0.615335 0.0953689 0.12668
0.621393 0.0942245 0.127642
0.628794 0.0927138 0.128954
0.0529488 0.153277 0.0995346
0.0514534 0.158892 0.0959487
0.052369 0.164279 0.0927443
0.0558633 0.16669 0.0888991
0.0628519 0.165209 0.0819409
0.0831769 0.162234 0.0727398
0.114122 0.165225 0.0757
0.141756 0.16585 0.0775311
0.188586 0.165927 0.0801862
0.234775 0.159304 0.0876478
0.274983 0.148821 0.0945449
0.309529 0.143755 0.0986191
0.341054 0.143725 0.101625
0.372915 0.143786 0.105013
0.405203 0.143282 0.108156
0.439231 0.141909 0.11194
0.473243 0.139803 0.115785
0.506111 0.137621 0.119738
0.537331 0.135134 0.123812
0.566796 0.131914 0.127398
0.592233 0.127947 0.130709
0.611841 0.124178 0.132769
0.627298 0.121859 0.134737
0.635157 0.120043 0.134951
0.635752 0.11783 0.134432
0.634653 0.117037 0.134356
0.634348 0.117021 0.134325
0.633326 0.116243 0.134051
0.631556 0.114336 0.133257
0.6309 0.112001 0.132464
0.632532 0.109819 0.132311
0.637476 0.108492 0.132799
0.643915 0.107042 0.133562
0.0621347 0.186175 0.119127
0.0603037 0.192538 0.115709
0.0607309 0.198947 0.11078
0.0640116 0.203449 0.106172
0.0717174 0.205234 0.100084
0.0821088 0.201846 0.090074
0.110246 0.200946 0.0811627
0.146532 0.205112 0.0848554
0.176516 0.206485 0.0873121
0.234043 0.2065 0.0885023
0.291569 0.201785 0.0968643
0.336385 0.188373 0.108629
0.374212 0.181949 0.114656
0.410056 0.179919 0.119234
0.444221 0.18114 0.12192
0.480156 0.182635 0.1252
0.516472 0.183307 0.127947
0.55285 0.182513 0.131319
0.589334 0.181308 0.135012
0.625147 0.180591 0.140032
0.656397 0.179507 0.144259
0.68069 0.178882 0.148333
0.699641 0.179385 0.152667
0.710155 0.179324 0.154894
0.710567 0.177218 0.154879
0.707622 0.174426 0.154299
0.703853 0.171221 0.153246
0.701076 0.168856 0.15256
0.698405 0.166476 0.151766
0.695109 0.163302 0.150607
0.693492 0.160861 0.15021
0.69308 0.157931 0.149767
0.694789 0.156069 0.149523
0.0724956 0.223758 0.13933
0.0689403 0.230365 0.136492
0.0672313 0.237827 0.132097
0.070222 0.24416 0.126162
0.0798047 0.249165 0.119173
0.0889754 0.248493 0.111269
0.103929 0.244038 0.0981003
0.140124 0.245808 0.0882124
0.181186 0.251484 0.0919203
0.216602 0.253666 0.0946517
0.285634 0.252872 0.0937057
0.351827 0.250233 0.100618
0.403143 0.238987 0.116274
0.446448 0.229007 0.127245
0.48719 0.224308 0.133761
0.526558 0.223926 0.137514
0.564813 0.226261 0.140139
0.60174 0.228504 0.141939
0.638514 0.230457 0.143923
0.674846 0.232013 0.147997
0.708217 0.23328 0.153399
0.734966 0.235737 0.159304
0.754421 0.238544 0.16524
0.768902 0.241779 0.170214
0.771389 0.241245 0.170916
0.770047 0.239628 0.170657
0.768383 0.237766 0.170169
0.766949 0.235782 0.169604
0.765179 0.233783 0.169131
0.763638 0.231937 0.168902
0.761639 0.229465 0.168215
0.760678 0.227024 0.167773
0.761303 0.225208 0.167605
0.0797284 0.268132 0.161059
0.0746777 0.276066 0.158312
0.0707561 0.284199 0.154086
0.0726482 0.291447 0.14847
0.082414 0.298283 0.14136
0.0935225 0.301915 0.133349
0.107439 0.30074 0.121965
0.128283 0.294057 0.102815
0.17557 0.299779 0.0903029
0.218799 0.306081 0.094377
0.260517 0.309163 0.0963607
0.341405 0.306798 0.0939803
0.414984 0.307851 0.0963912
0.472953 0.300877 0.112505
0.523156 0.291325 0.12871
0.568154 0.282292 0.140047
0.609857 0.278187 0.147158
0.649195 0.277562 0.151751
0.687007 0.27953 0.155413
0.72108 0.283055 0.158587
0.750744 0.288197 0.163592
0.775219 0.2925 0.170184
0.794903 0.297597 0.177279
0.810559 0.302556 0.183688
0.815137 0.303548 0.185336
0.814694 0.302495 0.185138
0.814267 0.301732 0.184985
0.813733 0.300496 0.184939
0.81268 0.29868 0.184466
0.811231 0.296834 0.18378
0.810071 0.294759 0.183276
0.80943 0.292805 0.183032
0.809766 0.291585 0.183093
0.0817884 0.319631 0.184421
0.0754253 0.328267 0.181399
0.069749 0.33669 0.176852
0.0708171 0.344244 0.17113
0.0774548 0.351324 0.164416
0.0902571 0.358007 0.155398
0.104723 0.361334 0.145113
0.120851 0.358801 0.130739
0.147997 0.352819 0.102129
0.208606 0.360082 0.0852369
0.256428 0.365789 0.0901656
0.310048 0.369619 0.0940871
0.39823 0.365301 0.0931563
0.475395 0.369009 0.0898451
0.53666 0.366827 0.102235
0.589624 0.360174 0.122866
0.636591 0.354131 0.138598
0.679866 0.347951 0.151369
0.719722 0.342473 0.162417
0.754955 0.339879 0.170947
0.784161 0.340978 0.178088
0.806592 0.344656 0.185779
0.824582 0.350805 0.19292
0.838666 0.357488 0.198978
0.845319 0.360723 0.201892
0.846082 0.360784 0.202136
0.845716 0.360067 0.201831
0.845106 0.358938 0.201404
0.843885 0.357382 0.200565
0.843015 0.355489 0.200198
0.842405 0.353719 0.199908
0.841688 0.351904 0.199268
0.841443 0.350622 0.198795
0.0783551 0.376013 0.210224
0.0709392 0.384985 0.206989
0.064332 0.393973 0.202365
0.0624857 0.401801 0.196887
0.0659648 0.409384 0.190311
0.0767834 0.415976 0.181964
0.0944686 0.421897 0.170779
0.115328 0.423255 0.15697
0.136767 0.418585 0.138399
0.17499 0.412818 0.0979782
0.245563 0.422477 0.0806592
0.300313 0.428214 0.0887312
0.364935 0.43154 0.0958267
0.452201 0.425391 0.0991989
0.529946 0.429847 0.0935836
0.591501 0.43064 0.102815
0.642451 0.428672 0.122042
0.688151 0.424628 0.144167
0.730816 0.421942 0.161059
0.769406 0.417426 0.17525
0.801175 0.414084 0.186633
0.826261 0.413123 0.196826
0.846571 0.415274 0.206699
0.861982 0.417639 0.215213
0.86685 0.42266 0.21677
0.867567 0.422217 0.216983
0.867094 0.420417 0.216754
0.866667 0.418479 0.216556
0.865995 0.415808 0.216266
0.86537 0.413214 0.216068
0.864836 0.4103 0.215869
0.864256 0.407019 0.215549
0.863523 0.404501 0.214969
0.0733654 0.436957 0.239979
0.0670024 0.445487 0.237339
0.0612039 0.45359 0.233326
0.0563516 0.461509 0.228428
0.0547799 0.469001 0.222354
0.0578164 0.475624 0.214633
0.0716716 0.482048 0.203845
0.0978408 0.487205 0.187869
0.122332 0.486015 0.171191
0.149187 0.479942 0.147265
0.208759 0.478279 0.0970626
0.283726 0.485817 0.0838026
0.348013 0.490227 0.0963149
0.418112 0.492424 0.105699
0.502525 0.485985 0.113542
0.578256 0.489342 0.108125
0.639109 0.491691 0.115755
0.688014 0.494545 0.127993
0.732738 0.490959 0.154574
0.772152 0.489326 0.17348
0.80676 0.487556 0.188952
0.834607 0.486824 0.20116
0.857298 0.48687 0.211841
0.874922 0.489632 0.222263
0.879942 0.494591 0.223911
0.880751 0.494896 0.22414
0.880308 0.493385 0.223774
0.880018 0.491234 0.223575
0.879774 0.488655 0.223453
0.879469 0.486061 0.223285
0.878889 0.483238 0.222919
0.878279 0.480034 0.222568
0.87747 0.477363 0.22182
0.0674296 0.499275 0.27776
0.0613565 0.507485 0.275807
0.0555734 0.514763 0.272312
0.0508583 0.522042 0.267994
0.0468147 0.528527 0.262333
0.0458381 0.53518 0.25539
0.0464942 0.540978 0.244923
0.0659037 0.546227 0.231159
0.100343 0.549477 0.210468
0.130495 0.546059 0.189776
0.17174 0.539391 0.156161
0.254734 0.540002 0.100572
0.330251 0.545434 0.0971695
0.400595 0.548821 0.114305
0.470405 0.550515 0.123888
0.550057 0.543755 0.134173
0.621744 0.545632 0.132006
0.680568 0.547204 0.138308
0.728557 0.550546 0.150042
0.770565 0.550469 0.169741
0.80618 0.550317 0.187869
0.835401 0.550393 0.203143
0.860197 0.551476 0.215549
0.880247 0.552346 0.226291
0.886137 0.555673 0.229664
0.887251 0.556649 0.229953
0.887083 0.555673 0.22974
0.886961 0.553857 0.229587
0.886915 0.551827 0.229526
0.886534 0.549203 0.229114
0.886198 0.545907 0.228763
0.885832 0.542702 0.228351
0.885557 0.540047 0.228
0.0712444 0.559258 0.321859
0.0679484 0.566262 0.320165
0.0631113 0.573175 0.317739
0.0582437 0.57998 0.314275
0.0541695 0.586419 0.309758
0.051667 0.592233 0.303288
0.0509651 0.59707 0.293919
0.0516365 0.601404 0.280858
0.0702373 0.605539 0.261341
0.109224 0.606363 0.237217
0.152071 0.601236 0.210941
0.208362 0.593988 0.16257
0.3066 0.596353 0.108797
0.384436 0.600931 0.119585
0.454505 0.603372 0.137926
0.521813 0.604257 0.147616
0.595651 0.597452 0.159289
0.662852 0.596857 0.159777
0.719646 0.597971 0.165637
0.766827 0.599924 0.177935
0.805295 0.602655 0.191852
0.835859 0.604761 0.206134
0.861494 0.605692 0.220584
0.881819 0.607614 0.230823
0.891691 0.609201 0.238025
0.8934 0.610468 0.239216
0.893217 0.609873 0.238941
0.892912 0.608118 0.238422
0.892378 0.605936 0.237797
0.892302 0.603143 0.237613
0.891951 0.599817 0.237049
0.891508 0.596643 0.236408
0.891478 0.594003 0.236118
0.084596 0.615549 0.367742
0.0822766 0.62182 0.36669
0.0780804 0.62829 0.365026
0.0733501 0.634745 0.362524
0.0694591 0.640787 0.358801
0.0675059 0.646235 0.353491
0.0666209 0.650233 0.344961
0.0669261 0.653895 0.333104
0.0689708 0.657176 0.316579
0.0896315 0.660334 0.29073
0.130373 0.658396 0.263798
0.179232 0.651179 0.228717
0.254871 0.646662 0.161257
0.36321 0.650172 0.128923
0.438239 0.653574 0.148058
0.502068 0.65536 0.1617
0.566751 0.654902 0.172122
0.636042 0.647684 0.184131
0.69987 0.645197 0.187213
0.75462 0.645426 0.193225
0.800443 0.646922 0.205661
0.835431 0.649088 0.218418
0.862837 0.651972 0.230259
0.884031 0.655711 0.239658
0.89778 0.658412 0.247974
0.899657 0.659525 0.250401
0.899565 0.659205 0.250355
0.899184 0.657542 0.249622
0.898466 0.655131 0.248508
0.89807 0.652049 0.24773
0.897871 0.648844 0.247196
0.897581 0.64593 0.246555
0.897169 0.643 0.245777
0.102785 0.667033 0.412741
0.100908 0.67332 0.412467
0.0969863 0.679271 0.410773
0.0925612 0.685481 0.408942
0.0889906 0.69099 0.406043
0.0869459 0.69572 0.401541
0.0863813 0.699763 0.394476
0.086305 0.703014 0.383963
0.0863966 0.705898 0.369818
0.0893721 0.70898 0.348562
0.111406 0.709957 0.318135
0.152972 0.705486 0.286595
0.212512 0.697063 0.238788
0.315694 0.695872 0.165393
0.42237 0.69865 0.157183
0.48893 0.701259 0.176898
0.546548 0.702953 0.186069
0.607279 0.701946 0.197009
0.67277 0.69485 0.208881
0.73431 0.690761 0.214817
0.788098 0.690883 0.22237
0.830716 0.691676 0.234577
0.862776 0.692836 0.246891
0.887343 0.695354 0.257465
0.905013 0.698665 0.2654
0.908415 0.699535 0.270024
0.908415 0.699413 0.270314
0.907988 0.697902 0.26923
0.907179 0.695735 0.26772
0.906523 0.693217 0.266407
0.90602 0.690349 0.265064
0.905653 0.687999 0.263996
0.905135 0.68545 0.262592
0.125414 0.714748 0.454932
0.12398 0.720577 0.454871
0.120302 0.726635 0.453956
0.116106 0.732586 0.452644
0.112367 0.737484 0.449912
0.11078 0.742016 0.446052
0.109712 0.74548 0.440009
0.11017 0.74818 0.431205
0.110613 0.750454 0.419104
0.111421 0.752468 0.401984
0.11725 0.753841 0.37435
0.140414 0.75201 0.342824
0.185077 0.745693 0.303532
0.262425 0.739498 0.239353
0.387274 0.740764 0.178714
0.478706 0.74316 0.189776
0.536522 0.745083 0.206775
0.589548 0.746441 0.212482
0.647211 0.746059 0.223713
0.708522 0.739788 0.23563
0.767452 0.735241 0.244144
0.818723 0.735424 0.253452
0.857267 0.735637 0.265721
0.887495 0.735805 0.277394
0.9084 0.737957 0.286366
0.916457 0.738613 0.292531
0.917067 0.737911 0.294835
0.916396 0.736141 0.293202
0.915557 0.733806 0.291096
0.9149 0.731182 0.289418
0.914443 0.728695 0.287922
0.91397 0.726177 0.286259
0.91342 0.723583 0.284596
0.153323 0.759472 0.49424
0.152316 0.76434 0.494148
0.148898 0.769436 0.49337
0.144762 0.774716 0.491981
0.141009 0.779583 0.490089
0.138491 0.783368 0.486351
0.137194 0.786236 0.480781
0.136568 0.788617 0.473167
0.136522 0.790509 0.462745
0.136965 0.792126 0.448676
0.137377 0.792996 0.426978
0.145098 0.792584 0.396475
0.170611 0.789487 0.361898
0.222019 0.783917 0.31313
0.323888 0.781018 0.231342
0.45536 0.783322 0.204623
0.527047 0.784192 0.221775
0.580362 0.786023 0.234028
0.630869 0.78764 0.241398
0.685878 0.787671 0.253376
0.743755 0.782712 0.265934
0.799496 0.778973 0.276448
0.845624 0.779156 0.286397
0.880842 0.779339 0.297246
0.90663 0.779644 0.307057
0.920867 0.779828 0.314855
0.922789 0.778027 0.31928
0.92224 0.775876 0.318105
0.921675 0.773053 0.315892
0.921218 0.770489 0.314031
0.920806 0.767834 0.312306
0.920348 0.764813 0.31043
0.91989 0.761929 0.308476
0.177768 0.799573 0.530221
0.177172 0.803082 0.529656
0.174334 0.807279 0.528771
0.170901 0.81149 0.527535
0.166796 0.815564 0.525643
0.164446 0.81883 0.522301
0.162905 0.821302 0.517372
0.162188 0.823224 0.510277
0.162036 0.824659 0.501427
0.162356 0.825818 0.489296
0.162005 0.826261 0.471504
0.162799 0.826154 0.444739
0.173007 0.82446 0.414664
0.202014 0.821225 0.375189
0.269749 0.817334 0.312413
0.39826 0.817487 0.237201
0.512062 0.818875 0.236194
0.569802 0.819867 0.25359
0.621302 0.822232 0.262318
0.670359 0.824399 0.272725
0.723766 0.824826 0.285725
0.778912 0.821607 0.299489
0.830793 0.818769 0.311513
0.870665 0.819348 0.320607
0.90071 0.820035 0.329076
0.920241 0.820844 0.336904
0.925597 0.818906 0.342672
0.925277 0.816297 0.34284
0.924865 0.813489 0.340642
0.92459 0.810544 0.338537
0.924529 0.807813 0.336767
0.924575 0.804547 0.335332
0.924727 0.801526 0.334371
0.20148 0.832715 0.562936
0.203876 0.834302 0.561502
0.204578 0.83653 0.560082
0.204089 0.83917 0.558541
0.202472 0.841932 0.556481
0.200351 0.844343 0.553002
0.198825 0.846418 0.548409
0.198062 0.847959 0.542245
0.197803 0.849088 0.534218
0.197635 0.849867 0.523568
0.197177 0.850156 0.508659
0.197208 0.850233 0.486305
0.199145 0.848417 0.458625
0.213809 0.846357 0.427771
0.250919 0.843885 0.380774
0.341375 0.843 0.305959
0.47744 0.84535 0.258885
0.565164 0.846311 0.273075
0.61857 0.848157 0.288975
0.667262 0.851041 0.297597
0.715328 0.853452 0.309957
0.767193 0.855131 0.325093
0.819333 0.853315 0.340688
0.86424 0.851011 0.35314
0.898543 0.851987 0.362814
0.921202 0.853315 0.369512
0.930907 0.85243 0.375677
0.931228 0.850538 0.377111
0.930114 0.848508 0.373754
0.929137 0.846281 0.370108
0.928405 0.843839 0.366781
0.928054 0.841276 0.364477
0.928252 0.838666 0.362951
0.221042 0.860761 0.591989
0.223789 0.862181 0.590829
0.225055 0.863691 0.589273
0.225284 0.865675 0.587686
0.223987 0.867704 0.585214
0.222187 0.86952 0.581903
0.220737 0.871122 0.577386
0.220005 0.872267 0.571633
0.219684 0.873259 0.56434
0.219013 0.873777 0.554482
0.218143 0.874037 0.541268
0.217334 0.87396 0.522133
0.218357 0.873381 0.496101
0.221317 0.870588 0.470542
0.242679 0.86923 0.434806
0.293523 0.868666 0.377523
0.410758 0.870359 0.302358
0.534218 0.873259 0.287816
0.606317 0.87425 0.305409
0.656092 0.876692 0.318898
0.704173 0.880125 0.3299
0.752636 0.882841 0.345251
0.803326 0.884627 0.36231
0.850675 0.883909 0.37937
0.890517 0.882475 0.393256
0.918135 0.883513 0.403174
0.933028 0.883009 0.410025
0.935958 0.880888 0.412726
0.934783 0.878798 0.409537
0.933822 0.876829 0.405325
0.933043 0.874311 0.401175
0.932601 0.871778 0.397864
0.932616 0.869215 0.395804
0.241337 0.883314 0.61828
0.243381 0.884123 0.616648
0.244282 0.885649 0.615351
0.243671 0.887312 0.61355
0.241642 0.888518 0.610513
0.239841 0.88957 0.606912
0.238407 0.890379 0.602167
0.237629 0.890944 0.596551
0.23711 0.891402 0.58967
0.236576 0.891875 0.580453
0.235615 0.89247 0.568521
0.234394 0.893019 0.552483
0.234699 0.893828 0.530266
0.236561 0.891691 0.504952
0.243061 0.888914 0.477195
0.272404 0.888533 0.435279
0.346609 0.890974 0.367712
0.478202 0.894591 0.313298
0.580072 0.897231 0.318837
0.642527 0.89865 0.335988
0.69044 0.901595 0.348501
0.737575 0.904555 0.362417
0.787182 0.906813 0.380682
0.835904 0.90901 0.401068
0.878996 0.909239 0.420127
0.912825 0.908934 0.435843
0.932921 0.908766 0.447196
0.939879 0.906554 0.451499
0.939254 0.904509 0.448585
0.938201 0.902541 0.443488
0.93727 0.900587 0.438941
0.936797 0.898589 0.435615
0.936797 0.896696 0.433005
0.247913 0.891081 0.630777
0.249317 0.890959 0.628382
0.249363 0.891264 0.625803
0.247791 0.892088 0.623331
0.245243 0.893187 0.620325
0.243015 0.894194 0.616526
0.241428 0.894957 0.612055
0.240482 0.895506 0.6065
0.241703 0.895232 0.599222
0.240894 0.895781 0.590845
0.23978 0.896269 0.579568
0.238224 0.896498 0.564553
0.235737 0.895216 0.542168
0.237507 0.895048 0.519341
0.243793 0.895415 0.499641
0.261311 0.897322 0.47219
0.304402 0.900465 0.42594
0.403433 0.903334 0.353704
0.5299 0.907423 0.331167
0.617288 0.911238 0.344411
0.67393 0.913741 0.36141
0.719615 0.916976 0.373449
0.767483 0.920195 0.39115
0.818036 0.92314 0.413718
0.865385 0.926131 0.438361
0.904265 0.927398 0.460685
0.930526 0.925917 0.477729
0.942748 0.923568 0.487129
0.94432 0.921599 0.48687
0.943053 0.920531 0.482521
0.942153 0.919463 0.478111
0.941421 0.918196 0.474418
0.941146 0.916686 0.471321
0.248569 0.89221 0.636194
0.249729 0.891798 0.633509
0.249851 0.891752 0.630854
0.248356 0.892287 0.628061
0.245579 0.893294 0.625025
0.242817 0.894331 0.621332
0.240681 0.895186 0.61677
0.23978 0.895598 0.611337
0.23978 0.895857 0.604456
0.239933 0.895964 0.595987
0.23975 0.89633 0.585443
0.238956 0.896742 0.57171
0.236774 0.896284 0.551675
0.236057 0.895247 0.52723
0.241032 0.895994 0.507439
0.253056 0.898054 0.486107
0.283223 0.90193 0.453574
0.346288 0.90454 0.395315
0.473838 0.906905 0.345586
0.568353 0.909682 0.340108
0.645197 0.91284 0.357656
0.69601 0.916014 0.370611
0.739986 0.91931 0.382971
0.788144 0.922499 0.401343
0.839536 0.925582 0.423789
0.883833 0.927764 0.44712
0.919295 0.928374 0.470802
0.939025 0.928893 0.49424
0.945434 0.928801 0.504326
0.944686 0.928786 0.50396
0.944183 0.92871 0.502113
0.943923 0.928496 0.500511
0.943847 0.9281 0.499245
0.244755 0.893507 0.640711
0.245228 0.893385 0.63827
0.245655 0.893248 0.635386
0.245228 0.893339 0.632395
0.244053 0.893767 0.629358
0.242054 0.89456 0.625605
0.240024 0.895293 0.621378
0.238651 0.895888 0.615869
0.23801 0.8963 0.609277
0.238041 0.89659 0.601083
0.238163 0.896773 0.591119
0.238087 0.896986 0.578271
0.23711 0.896956 0.560449
0.235447 0.895689 0.536248
0.23827 0.895811 0.513558
0.246921 0.897337 0.494194
0.269306 0.900969 0.466819
0.316136 0.904234 0.420493
0.418173 0.906065 0.360372
0.531136 0.908736 0.341558
0.616266 0.911711 0.350423
0.677241 0.914473 0.366491
0.721569 0.918181 0.377646
