bundles/resolve-cinematic-luts/Phantom Luts/Ursa G2 Phntm Film LUTs - V1/Gen4/White Balance Offset (Magenta Boost)/Ursa VisionTeal Gen4-Legacy WBO.cube
TITLE "Generated by Resolve"
LUT_3D_SIZE 9
0.022385 0.0343328 0.0323491
0.0407721 0.0369421 0.0352789
0.126787 0.03682 0.0329747
0.27216 0.0372168 0.0303502
0.411322 0.0400702 0.0334325
0.571038 0.0509194 0.0485695
0.669932 0.0616007 0.0637064
0.676722 0.0695354 0.0673075
0.687343 0.0792401 0.0748913
0.0211948 0.0669718 0.0439155
0.0385748 0.0632639 0.0412604
0.127672 0.0556344 0.0403906
0.276661 0.0492256 0.0331884
0.419379 0.0523079 0.0360418
0.578744 0.066865 0.0536965
0.687434 0.0870985 0.0742046
0.696925 0.100694 0.0810559
0.716121 0.12401 0.0942245
0.0239567 0.14818 0.0650339
0.0346685 0.142962 0.0547951
0.109499 0.146563 0.0536355
0.32224 0.118044 0.0561685
0.483452 0.129076 0.066392
0.645487 0.153841 0.0885634
0.737163 0.185382 0.105882
0.741497 0.20531 0.108843
0.750347 0.228077 0.116304
0.0353094 0.32314 0.120897
0.0628824 0.323278 0.109819
0.114183 0.303517 0.0780194
0.27303 0.325719 0.0742657
0.517388 0.32961 0.0949569
0.694972 0.316533 0.140581
0.76733 0.339605 0.156573
0.769009 0.345251 0.159274
0.772381 0.362966 0.172671
0.0773022 0.522103 0.264942
0.0754559 0.522438 0.23975
0.146593 0.50219 0.198276
0.289799 0.475685 0.129809
0.455039 0.500465 0.119692
0.688624 0.528481 0.149813
0.789883 0.552529 0.219883
0.791806 0.554833 0.222248
0.789776 0.539651 0.221714
0.150408 0.732601 0.443351
0.140627 0.735271 0.426337
0.152941 0.730449 0.377096
0.272511 0.669551 0.28423
0.478492 0.65304 0.234302
0.619608 0.680873 0.219501
0.790845 0.709621 0.261982
0.809567 0.71487 0.277317
0.810391 0.702174 0.269917
0.246082 0.853925 0.580255
0.237034 0.855085 0.566842
0.226886 0.854337 0.533303
0.282933 0.82295 0.452766
0.458289 0.752728 0.304494
0.609903 0.75758 0.318425
0.756222 0.789532 0.324834
0.805097 0.790661 0.353292
0.80473 0.787579 0.347356
0.247044 0.857252 0.596353
0.24419 0.856031 0.581079
0.235523 0.854093 0.549584
0.248127 0.836851 0.471855
0.39678 0.768627 0.343557
0.588678 0.756207 0.325139
0.714885 0.781048 0.319326
0.803677 0.793286 0.358297
0.804059 0.793667 0.363165
0.246708 0.859129 0.605417
0.242893 0.858686 0.592187
0.237766 0.85565 0.566339
0.230808 0.84831 0.500954
0.339269 0.796368 0.405371
0.542596 0.753079 0.31902
0.661799 0.77055 0.320211
0.788632 0.790051 0.346563
0.80354 0.793576 0.363516
0.0220798 0.0384375 0.0621042
0.0518196 0.0360266 0.0664836
0.147646 0.035523 0.0755627
0.30428 0.029633 0.0581064
0.44802 0.0314946 0.0493629
0.593759 0.0301976 0.0523537
0.658442 0.0404669 0.0598459
0.666209 0.051606 0.062211
0.679423 0.0648508 0.0692149
0.0215 0.0565957 0.0506294
0.0360723 0.0563516 0.0546731
0.137102 0.046891 0.0455482
0.280079 0.0374304 0.0349737
0.413611 0.0386053 0.035584
0.570062 0.0440833 0.0483406
0.669612 0.0561685 0.0639658
0.683375 0.0742809 0.0717632
0.710201 0.113695 0.0915389
0.0198825 0.135821 0.0808576
0.0221866 0.135653 0.0668803
0.103471 0.13608 0.0540932
0.318624 0.099733 0.0510567
0.472007 0.111116 0.0607462
0.640833 0.13608 0.0855421
0.732998 0.163989 0.103273
0.73901 0.185367 0.107317
0.749798 0.219776 0.115648
0.0333867 0.310613 0.145159
0.0314488 0.311376 0.121386
0.088304 0.300465 0.0840314
0.267094 0.317952 0.0729381
0.520974 0.313832 0.0993515
0.696925 0.300862 0.134081
0.766217 0.324331 0.148989
0.76759 0.336309 0.154803
0.772396 0.355459 0.167529
0.0785687 0.515679 0.290379
0.069688 0.515023 0.265553
0.122179 0.504784 0.213184
0.271916 0.471183 0.125826
0.450507 0.495323 0.117952
0.69099 0.52285 0.14992
0.78854 0.541863 0.21973
0.790188 0.542473 0.221912
0.787884 0.526329 0.220874
0.150301 0.723888 0.456245
0.14168 0.726497 0.442115
0.132708 0.727932 0.401373
0.255329 0.671626 0.296788
0.47039 0.647791 0.231083
0.614328 0.6748 0.215503
0.791516 0.702419 0.25713
0.810162 0.707561 0.273304
0.809018 0.693233 0.263447
0.246754 0.854124 0.59353
0.239368 0.854109 0.580179
0.229923 0.853254 0.54934
0.265293 0.828336 0.463249
0.441032 0.752865 0.306065
0.60557 0.756313 0.317891
0.75111 0.787655 0.32192
0.804761 0.788861 0.349554
0.804913 0.785489 0.343801
0.250324 0.85861 0.610636
0.246342 0.857786 0.597406
0.240116 0.854475 0.566567
0.235645 0.842802 0.486488
0.380255 0.775128 0.358846
0.581369 0.754971 0.324041
0.707073 0.779644 0.319356
0.802899 0.793164 0.356741
0.803998 0.793652 0.363226
0.25066 0.859968 0.618006
0.247333 0.858793 0.605127
0.242908 0.856962 0.581979
0.227176 0.85214 0.52253
0.326116 0.805066 0.421851
0.532082 0.752544 0.315923
0.654292 0.768475 0.32015
0.785458 0.789548 0.344945
0.80354 0.793561 0.363561
0.0205997 0.0495155 0.153521
0.0632639 0.0387121 0.141649
0.150408 0.0380102 0.138186
0.301793 0.0338903 0.154009
0.456245 0.04065 0.156741
0.644236 0.0659037 0.188952
0.68043 0.0709239 0.182254
0.68014 0.0688945 0.158465
0.672053 0.0522316 0.110597
0.0210422 0.0592355 0.110796
0.0266575 0.0483253 0.144686
0.130114 0.0385748 0.126329
0.290074 0.0348363 0.120455
0.456184 0.0373541 0.111543
0.637598 0.0601358 0.136309
0.679194 0.0657206 0.130434
0.670161 0.0499123 0.102708
0.664225 0.0407568 0.0650797
0.0196384 0.12723 0.104265
0.0198672 0.125078 0.104021
0.121462 0.138018 0.131701
0.3252 0.109545 0.101289
0.48809 0.0988937 0.0901045
0.648951 0.0943465 0.0925307
0.710002 0.114611 0.0974746
0.722927 0.13611 0.1019
0.740627 0.18088 0.109804
0.025742 0.297963 0.176318
0.0260777 0.293996 0.164538
0.0318761 0.292256 0.119615
0.271366 0.31281 0.106584
0.525231 0.286793 0.133852
0.688243 0.281651 0.13547
0.763241 0.302113 0.142153
0.765637 0.317113 0.145632
0.76997 0.337514 0.156924
0.0715038 0.504875 0.320836
0.0711681 0.503105 0.307256
0.0649729 0.498466 0.257237
0.203754 0.468589 0.135088
0.443992 0.485237 0.116213
0.696422 0.508659 0.161837
0.786847 0.52163 0.220584
0.786862 0.518944 0.219974
0.786358 0.513313 0.219791
0.150225 0.710521 0.478218
0.142397 0.712032 0.468025
0.134096 0.710826 0.434043
0.214542 0.680201 0.324361
0.449653 0.63888 0.223713
0.606348 0.663172 0.209308
0.79173 0.690166 0.250187
0.808865 0.69366 0.264149
0.809201 0.680186 0.256138
0.24921 0.852354 0.614054
0.240375 0.852308 0.602686
0.233204 0.849531 0.574212
0.221469 0.841978 0.492744
0.405158 0.754955 0.313359
0.594781 0.751568 0.313909
0.743862 0.7832 0.318608
0.80502 0.785931 0.34403
0.806195 0.782269 0.33843
0.251148 0.862028 0.635325
0.251667 0.861295 0.624292
0.246662 0.857725 0.59794
0.231571 0.852735 0.531044
0.352819 0.789273 0.391043
0.570626 0.754696 0.324376
0.694331 0.776425 0.319066
0.801358 0.792874 0.35552
0.803922 0.793637 0.363821
0.24802 0.863813 0.638437
0.250263 0.862318 0.628397
0.247623 0.858701 0.6056
0.237507 0.853971 0.555169
0.300923 0.816526 0.442847
0.513558 0.752422 0.313695
0.644327 0.766415 0.320668
0.780621 0.7888 0.34313
0.803525 0.793576 0.36379
0.033875 0.0683299 0.302296
0.0786145 0.0473335 0.294362
0.168627 0.0415808 0.276005
0.304677 0.0370031 0.266178
0.456992 0.047776 0.29305
0.64036 0.0923629 0.357839
0.679057 0.102098 0.360082
0.679698 0.0973526 0.336797
0.680842 0.0893568 0.303624
0.019791 0.0735027 0.264057
0.0383459 0.066453 0.296712
0.137438 0.0417182 0.276066
0.292973 0.0370489 0.255772
0.44654 0.0459144 0.278843
0.6365 0.0904097 0.332952
0.680339 0.0945296 0.324163
0.680537 0.0903334 0.305806
0.681285 0.0820325 0.265232
0.0194553 0.119951 0.224186
0.0195315 0.115206 0.239322
0.0916152 0.0918288 0.303838
0.301793 0.0711223 0.265156
0.449805 0.0606241 0.252903
0.642023 0.0781415 0.264256
0.681727 0.0811933 0.250828
0.681239 0.0763256 0.219593
0.680888 0.0686046 0.160632
0.019028 0.282658 0.227543
0.0190738 0.279515 0.227741
0.0227207 0.277043 0.229358
0.326711 0.319463 0.297993
0.543694 0.286046 0.268559
0.708476 0.294133 0.255741
0.758801 0.289067 0.235889
0.760082 0.287953 0.214603
0.765835 0.305226 0.199863
0.0529488 0.496651 0.359792
0.0484169 0.495018 0.354894
0.0500954 0.487114 0.335103
0.1364 0.499718 0.309483
0.456443 0.490852 0.247349
0.702876 0.493263 0.310399
0.791836 0.503197 0.318761
0.790967 0.497139 0.301579
0.7879 0.488228 0.268681
0.126162 0.698543 0.50927
0.120851 0.697841 0.504173
0.124559 0.691981 0.485283
0.126406 0.68246 0.417212
0.371328 0.640742 0.293355
0.594751 0.645457 0.23801
0.798093 0.670253 0.310582
0.810666 0.671199 0.300465
0.808637 0.655161 0.278874
0.229786 0.851194 0.64506
0.225772 0.849378 0.636118
0.227863 0.842802 0.613657
0.219684 0.833722 0.556741
0.322393 0.784848 0.399908
0.571054 0.745037 0.322438
0.73196 0.774746 0.311315
0.805783 0.779843 0.338399
0.80679 0.773709 0.33167
0.243168 0.86949 0.673686
0.239734 0.869749 0.665568
0.244327 0.86598 0.646693
0.247257 0.857588 0.598718
0.279515 0.828702 0.467674
0.527855 0.755718 0.336614
0.668681 0.771145 0.326604
0.797192 0.792264 0.352667
0.803647 0.793561 0.36611
0.240497 0.870268 0.670985
0.240009 0.869093 0.662562
0.243427 0.866423 0.646784
0.249042 0.858244 0.606531
0.236286 0.845731 0.495613
0.469856 0.756024 0.325322
0.62324 0.762463 0.326863
0.766415 0.787747 0.340917
0.803601 0.793591 0.365682
0.0701762 0.0921492 0.440314
0.117739 0.0644541 0.436835
0.216083 0.0453193 0.416159
0.325887 0.0551003 0.406119
0.470588 0.0698863 0.42388
0.649454 0.0917525 0.476432
0.688075 0.101625 0.520195
0.687633 0.101061 0.511284
0.684306 0.0997787 0.462287
0.0191806 0.0975967 0.414038
0.0694743 0.0911879 0.436225
0.177569 0.048127 0.422995
0.311437 0.0546578 0.403494
0.461402 0.0671244 0.414557
0.641825 0.0894789 0.462776
0.687724 0.101076 0.507118
0.687251 0.100877 0.491737
0.683391 0.0998856 0.443534
0.0191958 0.111955 0.365484
0.0193179 0.103975 0.381292
0.0941176 0.0855268 0.431861
0.274922 0.0488441 0.396201
0.441947 0.0606394 0.395193
0.623377 0.0856489 0.436179
0.684977 0.101122 0.470268
0.683421 0.101076 0.447303
0.680842 0.101671 0.409857
0.0191653 0.255604 0.361349
0.0189975 0.24802 0.367758
0.019089 0.232609 0.380377
0.297871 0.209125 0.499199
0.526757 0.223163 0.470268
0.686336 0.218448 0.469596
0.731167 0.196445 0.457618
0.720027 0.168704 0.427344
0.722637 0.166827 0.3785
0.0540322 0.484932 0.417731
0.0487831 0.482719 0.419364
0.0476081 0.477333 0.414816
0.134432 0.49247 0.440696
0.527794 0.503838 0.482994
0.723232 0.485969 0.467384
0.813809 0.498573 0.46598
0.811139 0.493538 0.446525
0.803845 0.485771 0.404654
0.110597 0.686305 0.550164
0.103136 0.685069 0.548363
0.101183 0.678294 0.537392
0.101411 0.66627 0.508125
0.387167 0.670314 0.503319
0.621027 0.659632 0.438331
0.813169 0.672023 0.49839
0.831754 0.67602 0.490242
0.827008 0.656321 0.460258
0.210422 0.847471 0.683757
0.198611 0.84683 0.678325
0.193133 0.840299 0.662364
0.195499 0.825376 0.626856
0.286275 0.806714 0.557763
0.540032 0.770382 0.48484
0.721523 0.774014 0.450828
0.822644 0.787472 0.496162
0.821973 0.778225 0.479118
0.243137 0.878157 0.725582
0.233677 0.881804 0.722683
0.230198 0.881743 0.711284
0.236194 0.87396 0.681926
0.263294 0.856931 0.605783
0.485496 0.807492 0.511284
0.642908 0.789242 0.474189
0.794171 0.799695 0.441657
0.807446 0.801938 0.446448
0.235859 0.880812 0.721447
0.232212 0.881575 0.715938
0.231128 0.879652 0.703166
0.23682 0.872984 0.677256
0.252872 0.858335 0.608316
0.369436 0.81326 0.474144
0.584085 0.775174 0.427237
0.740581 0.789303 0.382528
0.804318 0.796872 0.405554
0.145708 0.11989 0.579156
0.179156 0.0707866 0.569741
0.268284 0.0607156 0.55906
0.381201 0.072755 0.55436
0.50251 0.0939193 0.569146
0.667338 0.127138 0.616114
0.700526 0.140536 0.646113
0.701335 0.134539 0.663478
0.702556 0.139818 0.648417
0.0617227 0.129046 0.565911
0.144274 0.118654 0.575067
0.23212 0.0617838 0.561379
0.361181 0.067277 0.549584
0.493416 0.0941634 0.565026
0.660639 0.125963 0.606012
0.707897 0.136507 0.639735
0.701091 0.1393 0.648951
0.709804 0.137621 0.633936
0.0192111 0.129595 0.508644
0.0191653 0.127123 0.532113
0.160967 0.10753 0.567941
0.316915 0.0580301 0.541604
0.471672 0.0924849 0.553765
0.645167 0.1205 0.586648
0.705547 0.140429 0.61474
0.706645 0.140932 0.625284
0.704356 0.129503 0.596216
0.0190738 0.251209 0.48571
0.0191958 0.240131 0.491295
0.0190738 0.213642 0.50135
0.253559 0.121263 0.605753
0.487037 0.151659 0.596521
0.664729 0.15317 0.600992
0.714351 0.152804 0.596384
0.710597 0.14406 0.592126
0.693431 0.109361 0.545373
0.0202182 0.470512 0.530098
0.0202945 0.464805 0.533745
0.020264 0.452094 0.537423
0.0504311 0.455039 0.587945
0.520012 0.420722 0.687556
0.717189 0.438834 0.650492
0.807248 0.440543 0.646769
0.804288 0.424201 0.626184
0.792645 0.382956 0.581247
0.116152 0.675059 0.606958
0.110979 0.673655 0.606317
0.108248 0.667079 0.600763
0.105119 0.655039 0.590753
0.390005 0.663005 0.620111
0.690089 0.665415 0.648356
0.832242 0.658625 0.644495
0.858579 0.651606 0.635569
0.851102 0.637797 0.601007
0.202213 0.837522 0.723415
0.189548 0.837415 0.719921
0.180545 0.830243 0.707591
0.172076 0.816907 0.684276
0.348043 0.799344 0.663844
0.598123 0.799985 0.668086
0.765194 0.795407 0.61593
0.859907 0.800092 0.653498
0.857481 0.788098 0.635309
0.263676 0.88484 0.780835
0.252689 0.887739 0.777844
0.245411 0.88719 0.769085
0.23798 0.885618 0.753033
0.257908 0.879728 0.718837
0.541726 0.85594 0.697917
0.686732 0.842069 0.653849
0.818051 0.838285 0.619547
0.838972 0.841505 0.644511
0.254948 0.884916 0.772869
0.246494 0.886259 0.7682
0.240085 0.886229 0.760037
0.235569 0.884413 0.743511
0.236332 0.880247 0.709178
0.436667 0.853468 0.663081
0.613443 0.836576 0.623362
0.759503 0.826505 0.582788
0.830518 0.835874 0.611826
0.229984 0.109941 0.682857
0.255634 0.0818494 0.677211
0.333272 0.0837415 0.67953
0.435508 0.0923934 0.684718
0.567056 0.136416 0.70808
0.684825 0.12726 0.729488
0.706676 0.135332 0.74905
0.707774 0.137224 0.754421
0.707988 0.137163 0.754177
0.194675 0.151965 0.683177
0.228733 0.112581 0.681208
0.301579 0.0828107 0.677241
0.414328 0.0873579 0.679316
0.552926 0.131319 0.702052
0.67863 0.125902 0.725704
0.706111 0.134585 0.743786
0.707271 0.135927 0.751354
0.708034 0.136736 0.753094
0.0251164 0.161669 0.641428
0.111254 0.162814 0.669261
0.228351 0.0987716 0.674998
0.373022 0.0837873 0.674083
0.524834 0.121065 0.691844
0.664469 0.124239 0.714626
0.70547 0.132998 0.73434
0.705989 0.134401 0.741909
0.70634 0.134234 0.742138
0.0191653 0.236057 0.60412
0.0193637 0.222232 0.611582
0.0194858 0.193439 0.624063
0.260197 0.0880751 0.676188
0.471336 0.107027 0.678569
0.637385 0.129641 0.701259
0.70573 0.131426 0.712505
0.706584 0.133257 0.71751
0.707164 0.13228 0.714855
0.0201419 0.469902 0.647181
0.0205081 0.463386 0.650309
0.0203403 0.45182 0.65684
0.0359197 0.45536 0.71635
0.519615 0.372457 0.800961
0.710445 0.396704 0.783413
0.801587 0.399832 0.778698
0.799481 0.387259 0.772183
0.791867 0.357549 0.749844
0.0252384 0.666117 0.69485
0.0209354 0.661097 0.694118
0.0207828 0.653117 0.693706
0.0210727 0.637766 0.698222
0.333761 0.634546 0.758679
0.694499 0.606851 0.815549
0.833783 0.623743 0.795483
0.858534 0.621347 0.78587
0.852277 0.588617 0.751675
0.208515 0.828717 0.767285
0.197971 0.824994 0.76379
0.190112 0.818326 0.756008
0.182391 0.806851 0.743297
0.32752 0.793896 0.740169
0.599023 0.796368 0.762493
0.808988 0.796872 0.782284
0.885237 0.789227 0.779721
0.884428 0.771634 0.759518
0.320073 0.882795 0.809857
0.304234 0.885313 0.80914
0.292058 0.88452 0.803998
0.275746 0.882979 0.796246
0.311711 0.873518 0.77847
0.573449 0.865293 0.785412
0.741512 0.869245 0.792584
0.849393 0.870634 0.766705
0.878141 0.868559 0.782574
0.316518 0.883635 0.807065
0.304799 0.886763 0.806806
0.295628 0.887358 0.80351
0.278645 0.887587 0.795941
0.268879 0.887175 0.778302
0.481102 0.873564 0.770306
0.6663 0.878859 0.781415
0.802121 0.874098 0.767605
0.864347 0.880049 0.771679
0.272496 0.0862745 0.697383
0.31133 0.0877699 0.699992
0.375616 0.0910201 0.703929
0.472267 0.103761 0.713329
0.602075 0.149874 0.735759
0.70103 0.138354 0.75317
0.708141 0.137087 0.755047
0.708141 0.137072 0.755032
0.707958 0.137163 0.754543
0.239826 0.111772 0.69984
0.272007 0.0862287 0.697383
0.348501 0.0889448 0.701808
0.451713 0.0985733 0.709575
0.589731 0.145388 0.734066
0.697292 0.138735 0.7523
0.708156 0.137102 0.755077
0.708141 0.137072 0.755032
0.70811 0.137102 0.754864
0.127306 0.168215 0.688884
0.217075 0.153201 0.698604
0.281834 0.0867781 0.698192
0.413397 0.0930648 0.706157
0.561685 0.13463 0.728954
0.686183 0.139788 0.74963
0.708415 0.138293 0.756069
0.708385 0.138186 0.755962
0.708324 0.137896 0.755657
0.0253452 0.224674 0.683772
0.0300145 0.208209 0.678431
0.0470588 0.177844 0.669841
0.311147 0.0881666 0.70016
0.501427 0.113481 0.718746
0.660792 0.144991 0.744503
0.712398 0.144518 0.760189
0.713268 0.145815 0.760784
0.713237 0.145617 0.760754
0.0204013 0.481041 0.726543
0.0204471 0.474311 0.729839
0.0202182 0.460472 0.734234
0.101213 0.440574 0.772045
0.543175 0.331716 0.814755
0.725231 0.3608 0.813107
0.789136 0.36437 0.818692
0.784756 0.350118 0.814923
0.776196 0.317998 0.809659
0.0211032 0.6748 0.762539
0.0208743 0.668788 0.76202
0.0209659 0.658213 0.761761
0.0211795 0.638148 0.763699
0.345647 0.628229 0.818708
0.718883 0.573587 0.871962
0.833555 0.590707 0.863508
0.852888 0.588449 0.858518
0.848356 0.565148 0.851179
0.193927 0.820462 0.810987
0.17847 0.81619 0.809888
0.160922 0.807599 0.806394
0.138308 0.792782 0.802792
0.30367 0.774701 0.809766
0.568231 0.769451 0.833982
0.820493 0.75668 0.878813
0.886183 0.760632 0.864637
0.88719 0.745251 0.857572
0.329885 0.882872 0.829587
0.314534 0.883268 0.829145
0.302022 0.881407 0.827207
0.287617 0.878218 0.823758
0.316823 0.869612 0.817502
0.566003 0.864149 0.824094
0.747646 0.868666 0.837583
0.876631 0.87985 0.858839
0.897551 0.873167 0.856245
0.350576 0.886107 0.830365
0.344335 0.887251 0.828794
0.340002 0.88719 0.826062
0.334325 0.887373 0.82269
0.342626 0.885435 0.815503
0.519127 0.880156 0.817121
0.696056 0.888258 0.832898
0.834241 0.902342 0.858305
0.89102 0.908003 0.858839
0.292851 0.0865492 0.698405
0.327367 0.0885634 0.701137
0.385809 0.0915541 0.704402
0.481117 0.106294 0.714992
0.609979 0.151827 0.738216
0.70338 0.137987 0.753933
0.708141 0.137087 0.755047
0.708141 0.137072 0.755032
0.70811 0.137087 0.754986
0.246128 0.0852827 0.695186
0.292088 0.086656 0.698497
0.360189 0.0899672 0.703075
0.461097 0.100862 0.711009
0.59588 0.147814 0.734813
0.700343 0.138415 0.752926
0.708141 0.137072 0.755032
0.708141 0.137072 0.755032
0.708141 0.137072 0.755032
0.174044 0.162722 0.695338
0.233692 0.131624 0.700801
0.299077 0.0867475 0.698863
0.42208 0.0936904 0.706966
0.56762 0.13698 0.730144
0.689036 0.139513 0.750225
0.708141 0.137087 0.755016
0.708431 0.138354 0.756115
0.708385 0.138003 0.755779
0.0300145 0.20885 0.678935
0.0348974 0.193988 0.674296
0.0925154 0.171618 0.680583
0.326131 0.0882734 0.700664
0.506645 0.115145 0.719142
0.660197 0.142947 0.742931
0.709712 0.140627 0.757549
0.712902 0.145113 0.760571
0.712535 0.14461 0.760296
0.0203555 0.466407 0.738018
0.0205081 0.45507 0.736721
0.0201114 0.435767 0.732647
0.101091 0.400732 0.76495
0.527108 0.286931 0.801877
0.708141 0.319265 0.802457
0.776577 0.321233 0.810239
0.772198 0.303975 0.805905
0.761151 0.267063 0.798795
0.0209201 0.668498 0.775418
0.0210727 0.661341 0.773434
0.0211185 0.646357 0.770596
0.0209659 0.619242 0.76492
0.342016 0.605997 0.819257
0.71545 0.546029 0.866072
0.827024 0.562005 0.860426
0.845731 0.55993 0.860792
0.838666 0.534997 0.855344
0.217762 0.812039 0.820447
0.205737 0.8056 0.818982
0.1841 0.797574 0.817533
0.147326 0.780575 0.812253
0.279347 0.759854 0.816007
0.55938 0.746914 0.845945
0.828336 0.730373 0.893828
0.88246 0.733486 0.887602
0.881361 0.7178 0.887724
0.331899 0.879271 0.836728
0.325338 0.876844 0.836576
0.318639 0.872908 0.835508
0.31107 0.866728 0.834821
0.336889 0.853635 0.832654
0.559411 0.851072 0.842588
0.729168 0.854948 0.856519
0.883146 0.856962 0.886549
0.895888 0.853605 0.886
0.360281 0.886992 0.837171
0.360159 0.887037 0.837171
0.360159 0.887037 0.837171
0.360159 0.887037 0.837171
0.375738 0.886091 0.83682
0.520272 0.88394 0.839506
0.692714 0.88954 0.85182
0.842359 0.903822 0.876707
0.899153 0.912459 0.889326
