bundles/resolve-cinematic-luts/Phantom Luts/Ursa G2 Phntm Film LUTs - V1/Gen4/White Balance Offset (Magenta Boost)/Ursa VisionTeal Gen4-Legacy WBO.cube
TITLE "Generated by Resolve"
LUT_3D_SIZE 33
0.022385 0.0343328 0.0323491
0.022385 0.0343175 0.0323339
0.022385 0.0343175 0.0325628
0.0294347 0.0357214 0.0341192
0.0407721 0.0369421 0.0352789
0.0564889 0.0379034 0.035523
0.0773938 0.0380255 0.0347143
0.0997482 0.0368963 0.0333257
0.126787 0.03682 0.0329747
0.159442 0.037171 0.0323186
0.198474 0.0370794 0.0310674
0.234897 0.03682 0.0304417
0.27216 0.0372168 0.0303502
0.307347 0.0372625 0.0314183
0.341497 0.0374914 0.0319677
0.375494 0.0383764 0.0324102
0.411322 0.0400702 0.0334325
0.447913 0.0423133 0.0357977
0.485206 0.0446632 0.038529
0.525475 0.0474708 0.0424659
0.571038 0.0509194 0.0485695
0.613397 0.0515908 0.0548562
0.64651 0.0561685 0.0604562
0.664073 0.0590372 0.0624094
0.669932 0.0616007 0.0637064
0.671946 0.0636149 0.0644541
0.673991 0.065919 0.0657359
0.674769 0.0676127 0.0659037
0.676722 0.0695354 0.0673075
0.678614 0.0713664 0.0687419
0.681727 0.0737469 0.0702678
0.683879 0.0753185 0.0713817
0.687343 0.0792401 0.0748913
0.022385 0.0342718 0.0322881
0.022385 0.0343175 0.0323339
0.022385 0.0343023 0.0323491
0.0292058 0.0367437 0.0345464
0.0399023 0.0386053 0.0359197
0.054902 0.0395514 0.0362554
0.0765087 0.0396277 0.0359045
0.0998245 0.0382391 0.0344854
0.127611 0.0384985 0.0336156
0.161532 0.0387732 0.0329747
0.199634 0.0376287 0.0311437
0.235569 0.0375067 0.0307164
0.272908 0.0377966 0.0307317
0.307485 0.037995 0.0315709
0.341726 0.038819 0.0319829
0.375586 0.039353 0.0322881
0.411978 0.0415503 0.0337987
0.448661 0.0437324 0.0359655
0.486198 0.0460822 0.0390173
0.526375 0.0492714 0.0428168
0.57261 0.0536355 0.0494698
0.616144 0.0588693 0.0566567
0.650095 0.0632334 0.062501
0.667277 0.0623026 0.0641947
0.673396 0.0650034 0.0654002
0.67422 0.0667124 0.0656443
0.675547 0.0687266 0.0664683
0.677378 0.0714885 0.0677806
0.6795 0.0742046 0.0691691
0.681575 0.0758373 0.0699168
0.684077 0.0773938 0.071458
0.687785 0.0815595 0.075349
0.690776 0.0845197 0.0770123
0.0222477 0.0395209 0.0339818
0.0222629 0.0376135 0.0326848
0.0221408 0.0362707 0.0325017
0.0255894 0.0396429 0.0346838
0.0361639 0.0412146 0.0364385
0.0525216 0.0417639 0.0371405
0.0747845 0.0423743 0.0371405
0.0994125 0.0420691 0.0365911
0.12697 0.0411841 0.0349584
0.159976 0.0402838 0.0330053
0.196582 0.0386053 0.0312657
0.234745 0.039826 0.0319066
0.273701 0.0410925 0.0321508
0.307683 0.0402991 0.0316472
0.340703 0.0399023 0.0319829
0.375036 0.0404364 0.0325628
0.41355 0.044419 0.0342565
0.449256 0.0458076 0.0362249
0.486336 0.0482948 0.0393835
0.52668 0.0511482 0.0432746
0.574685 0.0573434 0.050309
0.616892 0.060914 0.0575723
0.651438 0.0661784 0.0632639
0.672435 0.0702068 0.0672313
0.674815 0.0677348 0.0659342
0.676707 0.0700084 0.0672923
0.678508 0.0732128 0.068574
0.680079 0.0760052 0.0693065
0.681743 0.0773632 0.069749
0.685359 0.0808118 0.0722515
0.688975 0.0857099 0.0760662
0.69192 0.0878614 0.0777447
0.694102 0.0898756 0.0796521
0.0215763 0.0518502 0.0398108
0.0216068 0.0512245 0.0390173
0.0221103 0.0496223 0.0361944
0.0289921 0.0493629 0.0372778
0.0391699 0.0504158 0.0404517
0.0543984 0.0496834 0.040177
0.0734417 0.0484932 0.0397192
0.0968338 0.0467689 0.0380713
0.125475 0.0460975 0.0366369
0.159792 0.045304 0.0347295
0.19823 0.0443885 0.0329137
0.235782 0.0444495 0.0321965
0.272374 0.0435187 0.0307164
0.308049 0.0423285 0.0321508
0.344015 0.0439002 0.0333257
0.380118 0.0456397 0.034287
0.414557 0.0468605 0.0346075
0.449393 0.047837 0.0366674
0.490471 0.0524605 0.0409094
0.531899 0.0579538 0.0462959
0.576638 0.0616617 0.0520027
0.617823 0.0639048 0.0583047
0.652171 0.0684977 0.0640269
0.676631 0.0781415 0.0708324
0.682826 0.0793774 0.0709239
0.67985 0.0756542 0.0692607
0.680766 0.0770428 0.0693828
0.682811 0.0794385 0.0704356
0.687373 0.0866407 0.0743572
0.692317 0.0920272 0.0779889
0.694865 0.0949416 0.0803388
0.696147 0.0957656 0.0813153
0.704173 0.107042 0.0869612
0.0211948 0.0669718 0.0439155
0.0211948 0.0664683 0.0426337
0.0211795 0.0645457 0.0402838
0.0297093 0.0624857 0.0401923
0.0385748 0.0632639 0.0412604
0.0550851 0.0632334 0.0429236
0.0782788 0.061738 0.043122
0.100999 0.0584878 0.043473
0.127672 0.0556344 0.0403906
0.161273 0.0523232 0.0372473
0.200717 0.0505531 0.0349584
0.239338 0.0502632 0.0336461
0.276661 0.0492256 0.0331884
0.311559 0.0488441 0.0331426
0.347356 0.0496681 0.0336309
0.38201 0.049836 0.0348363
0.419379 0.0523079 0.0360418
0.456458 0.0551308 0.0393835
0.496345 0.0601511 0.0434882
0.536812 0.0649271 0.0487068
0.578744 0.066865 0.0536965
0.62562 0.0761883 0.0640421
0.661234 0.0827802 0.0706035
0.682979 0.0873274 0.0749828
0.687434 0.0870985 0.0742046
0.686839 0.0859693 0.0733043
0.687999 0.0885634 0.074815
0.693523 0.0962692 0.0786908
0.696925 0.100694 0.0810559
0.699397 0.102785 0.0833906
0.702083 0.106615 0.0849012
0.709148 0.115145 0.0895399
0.716121 0.12401 0.0942245
0.0205539 0.0846723 0.0479896
0.0205386 0.0846113 0.0467994
0.0215915 0.0831006 0.0445563
0.0309758 0.0803235 0.0425269
0.0402228 0.0800031 0.0443732
0.0531014 0.0810407 0.0459907
0.0728161 0.0805524 0.044419
0.0995499 0.0784466 0.0435187
0.130114 0.0713054 0.0464179
0.170306 0.0655528 0.0422827
0.207477 0.0610208 0.0388647
0.243915 0.0581674 0.0366674
0.282368 0.0570687 0.0362249
0.318318 0.0573129 0.0360571
0.354147 0.0585794 0.0365454
0.390372 0.0602274 0.0373388
0.427268 0.0623484 0.0388037
0.465599 0.0648203 0.0424811
0.507286 0.0714275 0.0483406
0.549279 0.0780652 0.0545357
0.596658 0.0849928 0.0630808
0.637675 0.0905318 0.0699321
0.670176 0.095552 0.0758373
0.692058 0.102342 0.0807202
0.699779 0.106264 0.0831159
0.702205 0.10927 0.0847181
0.706004 0.114153 0.0867323
0.703883 0.111009 0.0857862
0.70721 0.11516 0.0874037
0.711223 0.121401 0.0903639
0.71693 0.12723 0.0939498
0.719615 0.136675 0.0943313
0.726314 0.144549 0.0998703
0.0209812 0.102159 0.0529641
0.0207218 0.102831 0.0500649
0.021622 0.101305 0.0480201
0.0263371 0.0990005 0.0463569
0.0430152 0.096437 0.0459297
0.0546426 0.0976883 0.0483864
0.0717174 0.0977035 0.0484474
0.0933547 0.0960403 0.0442664
0.129503 0.0947585 0.0429694
0.174502 0.0840009 0.0459754
0.219409 0.0743267 0.04271
0.259495 0.0712291 0.0403754
0.296223 0.0694896 0.0395666
0.329213 0.0690929 0.0391699
0.366384 0.0703593 0.0398108
0.402411 0.0733654 0.0414435
0.441749 0.077409 0.0449378
0.481727 0.0827497 0.0487831
0.523201 0.0901503 0.0558022
0.566018 0.0969253 0.0620737
0.613199 0.102693 0.0707866
0.653941 0.110201 0.078172
0.686213 0.117449 0.0855421
0.707149 0.123842 0.0898756
0.714168 0.126192 0.0916457
0.716487 0.129229 0.0927596
0.717128 0.134951 0.0919203
0.719753 0.140658 0.0940414
0.719585 0.140246 0.0940566
0.723568 0.145861 0.0962081
0.727581 0.152407 0.099733
0.731762 0.159945 0.102602
0.735759 0.169162 0.10576
0.0244907 0.122469 0.0599527
0.0236362 0.123934 0.055024
0.0248112 0.122927 0.0535592
0.0272984 0.120317 0.0508125
0.0359045 0.11635 0.0480049
0.0557259 0.116457 0.0489204
0.0728923 0.117388 0.0519722
0.0893416 0.118654 0.0508583
0.115969 0.115496 0.0456245
0.165698 0.114092 0.0435187
0.218067 0.101793 0.0484169
0.267308 0.0902419 0.0462959
0.310369 0.087602 0.0449989
0.348516 0.0872969 0.0454414
0.382956 0.08925 0.0465705
0.418647 0.0927138 0.0488594
0.460441 0.0988632 0.0542458
0.501183 0.105165 0.0588998
0.542458 0.112108 0.0650797
0.584268 0.11902 0.0715343
0.629786 0.126864 0.0791028
0.669337 0.133532 0.0862898
0.698863 0.14078 0.0920424
0.719554 0.149187 0.0964828
0.727169 0.15407 0.0991989
0.728618 0.15845 0.100862
0.730892 0.162554 0.101884
0.732799 0.167361 0.102693
0.734188 0.172732 0.103822
0.734615 0.172946 0.10399
0.737499 0.180697 0.106508
0.740124 0.188296 0.107866
0.742687 0.197452 0.110048
0.0239567 0.14818 0.0650339
0.0230259 0.149828 0.0602731
0.0257877 0.149767 0.0576944
0.0279393 0.146715 0.055314
0.0346685 0.142962 0.0547951
0.0501869 0.138643 0.0492103
0.0736248 0.141146 0.052369
0.0931411 0.143679 0.0543679
0.109499 0.146563 0.0536355
0.148409 0.142351 0.0475166
0.211536 0.141238 0.0458381
0.269505 0.13164 0.054139
0.32224 0.118044 0.0561685
0.367041 0.11635 0.0567941
0.40827 0.119463 0.0595407
0.447761 0.123384 0.0634928
0.483452 0.129076 0.066392
0.521675 0.133272 0.0704814
0.560723 0.137881 0.0741588
0.601801 0.145724 0.0809644
0.645487 0.153841 0.0885634
0.68423 0.162127 0.0955215
0.712627 0.170932 0.101198
0.731929 0.179828 0.104723
0.737163 0.185382 0.105882
0.738628 0.189654 0.106874
0.739666 0.194064 0.107454
0.741192 0.199573 0.108812
0.741497 0.20531 0.108843
0.744259 0.211521 0.111131
0.744839 0.213077 0.111269
0.747677 0.219699 0.113344
0.750347 0.228077 0.116304
0.0217136 0.180743 0.0686503
0.0210575 0.182132 0.0641794
0.0251621 0.182513 0.0603494
0.0279698 0.180438 0.0582742
0.0344701 0.17673 0.0579843
0.0404974 0.171847 0.0543832
0.0699168 0.169772 0.0511025
0.0904402 0.175326 0.0538796
0.113436 0.180407 0.0577401
0.135149 0.186358 0.0560311
0.19382 0.181506 0.0501869
0.264759 0.186267 0.0516365
0.325551 0.179828 0.0624704
0.378347 0.167651 0.071809
0.426337 0.160403 0.0746777
0.467201 0.160632 0.076524
0.505852 0.163684 0.0786145
0.54229 0.167514 0.0808576
0.577661 0.173495 0.0844587
0.615122 0.178454 0.0876936
0.656535 0.185763 0.0941939
0.694301 0.195026 0.101091
0.721401 0.205112 0.105943
0.739879 0.214862 0.110399
0.745937 0.220554 0.112078
0.74725 0.224323 0.112734
0.748196 0.228199 0.113619
0.750195 0.234211 0.116014
0.750652 0.239673 0.116808
0.752132 0.24596 0.118395
0.754421 0.252583 0.120363
0.75552 0.253986 0.121355
0.757702 0.260578 0.124285
0.0254826 0.223133 0.0830854
0.0249943 0.224308 0.0784161
0.0291905 0.224506 0.0743267
0.0377508 0.224674 0.0753796
0.0416266 0.220874 0.0715953
0.0469062 0.215198 0.0657054
0.0543984 0.208713 0.0591135
0.0941176 0.212818 0.0583047
0.118532 0.22182 0.0649882
0.147707 0.228061 0.0696269
0.180865 0.233982 0.0644541
0.241856 0.227481 0.0567941
0.318181 0.231601 0.0567788
0.373678 0.229145 0.0664836
0.424781 0.22092 0.0798352
0.471611 0.211322 0.0866712
0.515709 0.206317 0.088838
0.555871 0.20882 0.0923934
0.594797 0.213184 0.0952163
0.632563 0.21854 0.0990005
0.670359 0.226307 0.103319
0.70489 0.2336 0.10988
0.731838 0.241215 0.114519
0.748867 0.251011 0.118761
0.754238 0.257496 0.12105
0.755734 0.261265 0.122316
0.757015 0.265919 0.123781
0.757702 0.27013 0.125246
0.758755 0.27483 0.126665
0.759411 0.279988 0.128756
0.760082 0.285466 0.131029
0.761761 0.287861 0.132647
0.76379 0.294362 0.134768
0.0310521 0.272282 0.100099
0.0311894 0.273014 0.0962997
0.0352331 0.274022 0.0932326
0.0481727 0.273793 0.0932784
0.0528878 0.271885 0.0900587
0.0584573 0.267384 0.084535
0.0659648 0.261097 0.077348
0.0807202 0.255375 0.0685283
0.122988 0.262913 0.0711528
0.150408 0.270558 0.0768139
0.189563 0.274876 0.0798352
0.226078 0.280644 0.0702068
0.291875 0.272953 0.0635691
0.364858 0.277974 0.0626078
0.421271 0.280705 0.0707866
0.471473 0.275959 0.0869764
0.517784 0.269657 0.100771
0.5635 0.259602 0.107897
0.606226 0.259251 0.111192
0.647837 0.263798 0.115816
0.687877 0.268467 0.119585
0.718212 0.276341 0.12398
0.741588 0.284627 0.129183
0.757122 0.291508 0.132967
0.760525 0.29453 0.133333
0.762463 0.298116 0.134829
0.763317 0.30219 0.136675
0.763775 0.305303 0.138521
0.764446 0.310399 0.140459
0.765942 0.315221 0.143481
0.765988 0.319814 0.145968
0.767452 0.325689 0.149767
0.768261 0.327199 0.15108
0.0353094 0.32314 0.120897
0.0355383 0.323705 0.116289
0.0404974 0.323583 0.113359
0.0543984 0.323232 0.113237
0.0628824 0.323278 0.109819
0.0694896 0.318761 0.104158
0.0781415 0.313527 0.0975052
0.0879835 0.30692 0.08748
0.114183 0.303517 0.0780194
0.156588 0.310643 0.0825971
0.193439 0.315602 0.0865949
0.23238 0.320439 0.0869306
0.27303 0.325719 0.0742657
0.337789 0.318502 0.0709239
0.410391 0.325078 0.0708782
0.466606 0.331518 0.076463
0.517388 0.32961 0.0949569
0.564401 0.325765 0.111849
0.607614 0.320394 0.127291
0.654154 0.313527 0.134829
0.694972 0.316533 0.140581
0.728359 0.321324 0.145846
0.750973 0.328923 0.151385
0.764248 0.336263 0.155413
0.76733 0.339605 0.156573
0.767956 0.339513 0.156344
0.767575 0.338811 0.155627
0.76817 0.340719 0.156985
0.769009 0.345251 0.159274
0.769787 0.348974 0.162463
0.770687 0.353719 0.165148
0.771756 0.358434 0.168826
0.772381 0.362966 0.172671
0.0419318 0.372671 0.147875
0.0411688 0.373205 0.142016
0.0459297 0.37258 0.136843
0.0611276 0.371603 0.137499
0.0709544 0.371481 0.13283
0.0805982 0.369482 0.127047
0.0885786 0.364248 0.119921
0.09897 0.358801 0.11104
0.113481 0.351034 0.098436
0.149432 0.349187 0.0892348
0.199023 0.354559 0.0934462
0.236042 0.358801 0.0967575
0.276356 0.364752 0.0941482
0.320241 0.36994 0.0812848
0.384558 0.363424 0.0818952
0.455283 0.370245 0.0813306
0.511879 0.377951 0.0867475
0.56173 0.381735 0.104219
0.608896 0.380163 0.125536
0.652705 0.376867 0.143145
0.695659 0.371893 0.16463
0.732097 0.37171 0.171923
0.755154 0.376379 0.17847
0.768429 0.381796 0.184024
0.772229 0.386633 0.186496
0.77258 0.386847 0.186465
0.772885 0.385718 0.18613
0.772976 0.384649 0.185657
0.773159 0.383902 0.185534
0.773251 0.385992 0.187015
0.773526 0.390036 0.189807
0.774929 0.393362 0.193225
0.775509 0.397345 0.196445
0.0524605 0.422232 0.184787
0.0501259 0.423087 0.17911
0.0525978 0.422171 0.170779
0.0628519 0.421408 0.167651
0.0766766 0.420157 0.164355
0.0903944 0.418585 0.155016
0.0995956 0.414389 0.146563
0.111727 0.409476 0.138262
0.124239 0.401572 0.125109
0.143053 0.393668 0.108415
0.198413 0.391516 0.0999619
0.240177 0.39733 0.104723
0.281941 0.401465 0.109239
0.320699 0.408148 0.101701
0.365682 0.413825 0.090486
0.429129 0.407416 0.0943008
0.500526 0.415259 0.0950637
0.556374 0.424048 0.101137
0.604898 0.432517 0.116152
0.652049 0.433249 0.141405
0.696101 0.433448 0.165957
0.73257 0.432181 0.185412
0.756603 0.432914 0.19968
0.770382 0.43624 0.208759
0.775235 0.44094 0.211704
0.775418 0.443336 0.211185
0.775326 0.443214 0.211093
0.775296 0.442618 0.211078
0.775525 0.441611 0.211246
0.775631 0.440055 0.211261
0.775357 0.437583 0.21088
0.775876 0.440406 0.211414
0.776638 0.445426 0.211963
0.0644846 0.47187 0.223041
0.0621958 0.472267 0.216922
0.0615396 0.472297 0.21062
0.0643168 0.471641 0.204715
0.0810254 0.470192 0.201938
0.0973373 0.467658 0.194827
0.111315 0.464897 0.183108
0.124422 0.458732 0.171115
0.136263 0.451682 0.156924
0.150057 0.442618 0.139239
0.182086 0.433066 0.116091
0.246311 0.433661 0.112383
0.285252 0.438697 0.119036
0.326863 0.444083 0.122423
0.366979 0.450874 0.111467
0.411063 0.456764 0.103532
0.475319 0.45127 0.109834
0.54374 0.46038 0.112322
0.599374 0.469688 0.118502
0.646601 0.481041 0.130068
0.694392 0.485451 0.159442
0.733013 0.487755 0.185611
0.759152 0.490761 0.202213
0.776013 0.494728 0.211475
0.782467 0.498848 0.21648
0.783871 0.502022 0.217578
0.783932 0.502464 0.217502
0.783886 0.501991 0.217502
0.784039 0.501137 0.217792
0.783566 0.499214 0.217227
0.782925 0.496071 0.216403
0.782925 0.492729 0.216571
0.78294 0.491005 0.216526
0.0773022 0.522103 0.264942
0.0744793 0.522972 0.260014
0.0720226 0.523537 0.254917
0.0709392 0.523537 0.247944
0.0754559 0.522438 0.23975
0.0940108 0.519585 0.23328
0.115679 0.516167 0.224781
0.132433 0.510292 0.212284
0.146593 0.50219 0.198276
0.162112 0.49247 0.179065
0.183352 0.482414 0.15378
0.225254 0.473411 0.125933
0.289799 0.475685 0.129809
0.331456 0.481132 0.139422
0.371771 0.487922 0.14107
0.410239 0.49424 0.127275
0.455039 0.500465 0.119692
0.51664 0.495872 0.128786
0.583078 0.505959 0.131914
0.638972 0.515633 0.139437
0.688624 0.528481 0.149813
0.730999 0.536614 0.177737
0.761303 0.542733 0.199725
0.780652 0.54786 0.212833
0.789883 0.552529 0.219883
0.791638 0.555474 0.221942
0.791455 0.555856 0.221775
0.79173 0.555459 0.22211
0.791806 0.554833 0.222248
0.791653 0.55346 0.222263
0.791119 0.550408 0.222126
0.790265 0.545937 0.221637
0.789776 0.539651 0.221714
0.0930648 0.57348 0.310994
0.0900587 0.573846 0.305943
0.0872206 0.57406 0.299916
0.0851759 0.574212 0.293828
0.0837415 0.574319 0.285527
0.0895399 0.572061 0.273884
0.108537 0.569619 0.265629
0.137163 0.56376 0.255131
0.154131 0.555032 0.240696
0.173327 0.544457 0.223331
0.193271 0.532601 0.200534
0.220096 0.522347 0.169451
0.277684 0.515923 0.144335
0.33579 0.51899 0.151858
0.377218 0.524453 0.160418
0.414923 0.531548 0.161563
0.453742 0.538247 0.144121
0.497887 0.544793 0.138979
0.554223 0.54165 0.14995
0.621256 0.551431 0.151995
0.678523 0.562524 0.16408
0.726558 0.575738 0.176867
0.760708 0.58703 0.193332
0.781689 0.594491 0.208804
0.794827 0.600397 0.216831
0.797665 0.603616 0.221439
0.798077 0.60502 0.222629
0.798032 0.60441 0.222644
0.797803 0.603449 0.222599
0.79765 0.601373 0.222736
0.797543 0.599008 0.222904
0.79733 0.595315 0.223209
0.796292 0.588556 0.222995
0.109728 0.624933 0.355352
0.106752 0.625452 0.350958
0.103624 0.626169 0.34609
0.101686 0.626368 0.339895
0.0992599 0.626673 0.332952
0.0970321 0.626719 0.323491
0.104784 0.62385 0.31078
0.132769 0.619394 0.299611
0.159976 0.610788 0.284932
0.181659 0.598886 0.267002
0.203128 0.586099 0.246067
0.225864 0.572686 0.218158
0.263523 0.561593 0.182437
0.332494 0.558938 0.166659
0.383612 0.562951 0.178393
0.422385 0.569055 0.185183
0.45861 0.576089 0.182849
0.496956 0.582712 0.166339
0.538674 0.589792 0.160143
0.59118 0.586709 0.176028
0.657496 0.597803 0.1785
0.714763 0.608515 0.19176
0.756115 0.62153 0.205158
0.78204 0.631769 0.216098
0.797498 0.639765 0.222324
0.803494 0.64361 0.228046
0.804105 0.644556 0.230838
0.804227 0.644587 0.231052
0.804425 0.643488 0.23093
0.804105 0.641947 0.230137
0.80444 0.640284 0.229648
0.80325 0.63653 0.227695
0.803159 0.631449 0.225101
0.128542 0.67808 0.399481
0.126528 0.678538 0.395438
0.124132 0.679225 0.390906
0.121004 0.680018 0.386191
0.1187 0.679957 0.379828
0.115969 0.679774 0.370855
0.114443 0.679805 0.359777
0.125719 0.676677 0.34403
0.162799 0.668833 0.331044
0.189151 0.657023 0.313207
0.212436 0.642954 0.291997
0.234989 0.627817 0.265812
0.263874 0.613306 0.231098
0.314794 0.603342 0.195819
0.386542 0.60441 0.195682
0.432563 0.608438 0.207492
0.466148 0.613794 0.209201
0.500526 0.620279 0.204898
0.537728 0.627283 0.191943
0.57879 0.634714 0.18854
0.627512 0.63241 0.204913
0.693141 0.643549 0.207797
0.745632 0.655741 0.222004
0.777142 0.66627 0.233219
0.796948 0.674434 0.242313
0.807355 0.679423 0.249363
0.809033 0.680232 0.254673
0.809064 0.68011 0.255955
0.809262 0.679316 0.255665
0.80853 0.677592 0.254337
0.808011 0.674723 0.251942
0.808362 0.671519 0.250065
0.80763 0.666133 0.246448
0.150408 0.732601 0.443351
0.148074 0.733669 0.440085
0.145647 0.734508 0.436561
0.143084 0.73521 0.432212
0.140627 0.735271 0.426337
0.138079 0.73547 0.418997
0.135637 0.73579 0.409369
0.138186 0.735668 0.396887
0.152941 0.730449 0.377096
0.198734 0.717784 0.361013
0.222507 0.702892 0.340459
0.246708 0.686534 0.315312
0.272511 0.669551 0.28423
0.311162 0.654856 0.242481
0.375051 0.648539 0.217441
0.438224 0.649622 0.224613
0.478492 0.65304 0.234302
0.509194 0.659251 0.236362
0.541878 0.664576 0.22977
0.578531 0.672984 0.222019
0.619608 0.680873 0.219501
0.663127 0.680812 0.236896
0.724926 0.689723 0.240589
0.766018 0.702205 0.252644
0.790845 0.709621 0.261982
0.804578 0.715465 0.269352
0.809674 0.717159 0.274907
0.809506 0.716411 0.278004
0.809567 0.71487 0.277317
0.809873 0.713466 0.276493
0.810254 0.711681 0.275502
0.810407 0.708171 0.273167
0.810391 0.702174 0.269917
0.1794 0.779873 0.48574
0.177508 0.780774 0.482429
0.17467 0.781506 0.479149
0.172519 0.782025 0.475273
0.169604 0.782849 0.470573
0.167132 0.783505 0.46453
0.165179 0.784146 0.456092
0.1635 0.784466 0.444694
0.171832 0.780453 0.426368
0.206714 0.769085 0.406027
0.234852 0.755489 0.386999
0.259113 0.739528 0.362631
0.284459 0.720317 0.331563
0.316365 0.702312 0.292088
0.370535 0.689769 0.251545
0.438331 0.686519 0.242969
0.489281 0.687572 0.252995
0.520607 0.691936 0.259434
0.549905 0.6972 0.262043
0.58294 0.70425 0.255421
0.620554 0.712871 0.250874
0.659922 0.72137 0.250019
0.702327 0.722515 0.268544
0.751263 0.730388 0.27393
0.782254 0.739712 0.282902
0.799939 0.745907 0.290227
0.807202 0.748226 0.295186
0.808362 0.748272 0.299138
0.808225 0.747494 0.299336
0.808408 0.746151 0.298314
0.808728 0.744533 0.296147
0.809323 0.742214 0.294789
0.80911 0.735943 0.290272
0.209186 0.816068 0.525475
0.207355 0.81648 0.522545
0.20531 0.8168 0.518807
0.201785 0.817426 0.515679
0.19884 0.818006 0.510948
0.19649 0.818036 0.504723
0.193408 0.818692 0.49688
0.190188 0.819364 0.486732
0.190082 0.818463 0.472526
0.204593 0.809598 0.447639
0.240375 0.797055 0.430137
0.264546 0.782742 0.407385
0.289525 0.764935 0.378012
0.319554 0.7449 0.340948
0.360952 0.727794 0.294759
0.425513 0.718059 0.265522
0.487495 0.716472 0.269673
0.527947 0.718196 0.280354
0.555108 0.722393 0.283558
0.584482 0.728023 0.284215
0.618204 0.735317 0.279957
0.6551 0.744305 0.279423
0.697169 0.754177 0.281224
0.734173 0.754025 0.297917
0.771374 0.760037 0.30425
0.793957 0.766308 0.311147
0.804654 0.768673 0.31548
0.807843 0.768917 0.319448
0.807553 0.768063 0.319875
0.807401 0.767346 0.319265
0.807828 0.765896 0.318181
0.807736 0.763729 0.315435
0.808423 0.760479 0.312139
0.2318 0.842069 0.55964
0.230762 0.84213 0.556863
0.228443 0.842237 0.55314
0.225818 0.842359 0.549645
0.223041 0.842283 0.544228
0.220432 0.842023 0.538155
0.217594 0.841749 0.53051
0.214893 0.841962 0.520516
0.21091 0.841505 0.507881
0.213931 0.837598 0.487358
0.228199 0.827497 0.461936
0.263081 0.813825 0.444755
0.289693 0.798199 0.419242
0.318441 0.780163 0.386236
0.354299 0.758846 0.339803
0.409628 0.743786 0.298741
0.476875 0.737881 0.287068
0.52668 0.738094 0.294972
0.558541 0.739971 0.302388
0.584497 0.744045 0.304387
0.615305 0.750362 0.303181
0.649943 0.757748 0.300664
0.687739 0.766415 0.301396
0.72929 0.775845 0.306447
0.759762 0.775021 0.322316
0.78613 0.779614 0.327855
0.800916 0.782574 0.333684
0.806073 0.783276 0.33724
0.806485 0.782528 0.338262
0.806119 0.781964 0.337301
0.805722 0.780835 0.33576
0.805676 0.779217 0.333837
0.806119 0.776898 0.330755
0.246082 0.853925 0.580255
0.244327 0.8542 0.577234
0.241947 0.854566 0.574258
0.239643 0.854856 0.570886
0.237034 0.855085 0.566842
0.234806 0.855161 0.561166
0.232425 0.855238 0.554177
0.230213 0.8551 0.544823
0.226886 0.854337 0.533303
0.221592 0.853178 0.516564
0.229099 0.847257 0.49424
0.244465 0.837873 0.472282
0.282933 0.82295 0.452766
0.312749 0.806088 0.423392
0.347021 0.784802 0.38233
0.39292 0.764675 0.330922
0.458289 0.752728 0.304494
0.51606 0.750546 0.30695
0.556405 0.750698 0.315892
0.583261 0.753826 0.318853
0.609903 0.75758 0.318425
0.64181 0.76434 0.315877
0.677745 0.771878 0.31545
0.717418 0.78027 0.316579
0.756222 0.789532 0.324834
0.778027 0.786389 0.337407
0.795911 0.78938 0.34548
0.803876 0.790875 0.351217
0.805097 0.790661 0.353292
0.805005 0.790143 0.352972
0.80473 0.789563 0.351843
0.804547 0.788861 0.350347
0.80473 0.787579 0.347356
0.24712 0.856062 0.58613
0.245701 0.856016 0.583062
0.243366 0.85626 0.580545
0.24155 0.856367 0.576608
0.239368 0.856565 0.573098
0.237201 0.856291 0.567071
0.23444 0.85597 0.559594
0.231769 0.856016 0.550912
0.229206 0.855848 0.539651
0.223499 0.854292 0.524315
0.225238 0.850706 0.502846
0.238437 0.841611 0.482048
0.270588 0.831479 0.467643
0.297948 0.818418 0.444007
0.331685 0.800656 0.412161
0.372305 0.778088 0.362722
0.432486 0.759838 0.321859
0.493736 0.753429 0.311345
0.542138 0.753292 0.318318
0.575692 0.755444 0.324056
0.602304 0.758526 0.324742
0.630625 0.763653 0.320424
0.663401 0.771237 0.319738
0.702388 0.779095 0.3196
0.741299 0.787518 0.323583
0.768643 0.787457 0.338552
0.790112 0.790234 0.346609
0.801556 0.792782 0.355489
0.80412 0.793164 0.35996
0.804044 0.793164 0.360571
0.803998 0.793118 0.360388
0.803952 0.793027 0.360082
0.804013 0.792905 0.359319
0.246784 0.857008 0.590799
0.245823 0.857099 0.587823
0.243656 0.857374 0.584466
0.242008 0.857176 0.581338
0.239887 0.857114 0.576242
0.23798 0.856947 0.570977
0.235325 0.856352 0.563638
0.232563 0.856153 0.554818
0.229984 0.856138 0.54403
0.225177 0.855085 0.529183
0.222187 0.852384 0.507622
0.235218 0.843519 0.485679
0.259037 0.834607 0.468833
