bundles/resolve-cinematic-luts/Phantom Luts/Ursa G2 Phntm Arri LUTs - V1/Gen5/White Balance Offset (Magenta Boost)/Ursa Jamaica Gen 5 WBO.cube
TITLE "Generated by Resolve"
LUT_3D_SIZE 5
0.0102388 0.030396 0.0102388
0.143282 0.0303807 0.0214694
0.59353 0.0410925 0.10016
0.649332 0.0746166 0.175708
0.649042 0.0746319 0.174777
0.0211948 0.149935 0.0561227
0.0988785 0.146288 0.0304417
0.582559 0.0439918 0.0663462
0.635508 0.0668345 0.15433
0.647944 0.0752728 0.170489
0.192172 0.805707 0.446357
0.205097 0.810956 0.417441
0.667201 0.792447 0.232166
0.906844 0.710536 0.309422
0.897917 0.669245 0.290822
0.386481 0.970947 0.669841
0.403723 0.9738 0.574273
0.550958 0.998932 0.468757
0.976638 0.950866 0.472618
0.990677 0.955779 0.483711
0.385702 0.969833 0.69752
0.401877 0.974655 0.584878
0.458518 0.982284 0.49929
0.952789 0.949142 0.458717
0.989792 0.956176 0.48307
0.0180667 0.0320897 0.118685
0.165972 0.034699 0.129427
0.637781 0.0524453 0.194598
0.649165 0.0755016 0.173159
0.649058 0.075349 0.172915
0.025864 0.11812 0.109407
0.102296 0.114839 0.0982528
0.586145 0.0393378 0.0952316
0.648142 0.0751659 0.171267
0.649104 0.0749065 0.174334
0.131426 0.746624 0.512444
0.158434 0.771389 0.416907
0.654307 0.76759 0.212848
0.897368 0.65864 0.287175
0.890562 0.618372 0.273854
0.37998 0.957977 0.746212
0.380468 0.965499 0.67422
0.485847 0.994293 0.499428
0.974121 0.950057 0.470741
0.990677 0.955764 0.483818
0.38706 0.962219 0.765103
0.378088 0.962539 0.694026
0.426917 0.977844 0.533852
0.946044 0.954177 0.458137
0.989532 0.956283 0.482979
0.1308 0.0423285 0.564477
0.302358 0.0456245 0.58436
0.654765 0.0858015 0.578134
0.679484 0.111757 0.602914
0.682063 0.110491 0.595544
0.0379797 0.0375525 0.513588
0.177478 0.0429084 0.557214
0.646036 0.0744945 0.559625
0.694133 0.105577 0.558892
0.697429 0.104234 0.547433
0.123842 0.671839 0.653498
0.112947 0.664515 0.636927
0.661265 0.650004 0.602823
0.969741 0.589242 0.490318
0.960571 0.541268 0.446616
0.446174 0.975402 0.906111
0.417914 0.959747 0.872892
0.39678 0.974685 0.749233
0.984924 0.956466 0.481956
0.991287 0.955505 0.484215
0.50486 0.992187 0.926726
0.459571 0.986648 0.899748
0.377218 0.958404 0.726482
0.943679 0.956176 0.458335
0.989792 0.956176 0.483055
0.456031 0.104662 0.720851
0.497673 0.106844 0.715908
0.675105 0.162448 0.721798
0.672068 0.15079 0.709346
0.677775 0.15848 0.714778
0.419135 0.0937057 0.711513
0.439048 0.0915389 0.707469
0.649683 0.149172 0.715145
0.667353 0.145739 0.70515
0.66685 0.145785 0.704128
0.171862 0.557198 0.784619
0.188388 0.546502 0.807462
0.745586 0.524041 0.956008
0.933989 0.434546 0.964385
0.890867 0.370474 0.92282
0.552148 0.977249 0.976043
0.535393 0.97734 0.971771
0.56762 0.975479 0.966857
0.960174 0.958083 0.951156
0.98027 0.955154 0.951492
0.719646 0.977996 0.977172
0.710262 0.978958 0.975708
0.674174 0.980346 0.972198
0.935973 0.976516 0.957382
0.982437 0.976989 0.942565
0.59823 0.207355 0.819364
0.656168 0.227237 0.829908
0.80531 0.285634 0.839277
0.73431 0.217182 0.769146
0.73431 0.217136 0.768994
0.558343 0.191516 0.807263
0.605249 0.209766 0.820874
0.79321 0.27895 0.836866
0.734325 0.217227 0.769345
0.73431 0.217121 0.768978
0.549279 0.57258 0.9178
0.568231 0.533257 0.921996
0.827619 0.502647 0.970077
0.939178 0.447608 0.96907
0.912581 0.399054 0.943786
0.709804 0.963455 0.980819
0.702266 0.962478 0.97879
0.709209 0.954635 0.97612
0.961944 0.947906 0.974594
0.977096 0.945068 0.978454
0.79913 0.974365 0.981567
0.796613 0.975418 0.980087
0.796155 0.975418 0.980102
0.95407 0.976318 0.978149
0.98233 0.977249 0.982162
