bundles/resolve-cinematic-luts/Phantom Luts/Ursa G2 Phntm Arri LUTs - V1/Gen5/White Balance Offset (Magenta Boost)/Ursa Jamaica Gen 5 WBO.cube
TITLE "Generated by Resolve"
LUT_3D_SIZE 9
0.0102388 0.030396 0.0102388
0.0317082 0.0306401 0.0106508
0.143282 0.0303807 0.0214694
0.382193 0.0283513 0.0432593
0.59353 0.0410925 0.10016
0.632242 0.0661631 0.147082
0.649332 0.0746166 0.175708
0.649317 0.0746166 0.175647
0.649042 0.0746319 0.174777
0.0120699 0.0457771 0.0193942
0.023331 0.0432441 0.013489
0.113909 0.0391089 0.0178836
0.34876 0.0290837 0.0409094
0.586526 0.0387732 0.0937057
0.631769 0.0661326 0.145937
0.649287 0.0746166 0.17557
0.649287 0.0746166 0.17557
0.649042 0.0746319 0.174777
0.0211948 0.149935 0.0561227
0.0202182 0.142718 0.045304
0.0988785 0.146288 0.0304417
0.392218 0.103441 0.0511788
0.582559 0.0439918 0.0663462
0.627604 0.0665293 0.134401
0.635508 0.0668345 0.15433
0.638895 0.0683146 0.160433
0.647944 0.0752728 0.170489
0.0567788 0.447593 0.170016
0.0572213 0.447333 0.157534
0.0598001 0.435859 0.123522
0.328206 0.450019 0.0728618
0.7346 0.427466 0.129366
0.798932 0.335424 0.212238
0.626551 0.0759289 0.10454
0.625162 0.0711223 0.117266
0.624582 0.069688 0.119356
0.192172 0.805707 0.446357
0.210193 0.816281 0.42269
0.205097 0.810956 0.417441
0.263676 0.821103 0.318639
0.667201 0.792447 0.232166
0.914733 0.782208 0.343267
0.906844 0.710536 0.309422
0.90161 0.684398 0.297459
0.897917 0.669245 0.290822
0.379797 0.965423 0.662242
0.381689 0.965499 0.631296
0.385702 0.967605 0.619074
0.39736 0.97261 0.591836
0.677165 0.996109 0.431434
0.916884 0.958953 0.44686
0.993423 0.955276 0.484688
0.992905 0.954849 0.484154
0.993347 0.954086 0.484489
0.386481 0.970947 0.669841
0.387701 0.96997 0.627405
0.403723 0.9738 0.574273
0.402029 0.973388 0.57763
0.550958 0.998932 0.468757
0.827573 0.964584 0.418387
0.976638 0.950866 0.472618
0.991424 0.955505 0.48365
0.990677 0.955779 0.483711
0.386511 0.971008 0.689204
0.386267 0.970306 0.64892
0.400671 0.973175 0.580789
0.403433 0.973556 0.573312
0.481102 0.986877 0.486183
0.805005 0.966201 0.413962
0.96286 0.951232 0.465141
0.992615 0.955016 0.484077
0.990036 0.956069 0.483238
0.385702 0.969833 0.69752
0.387991 0.972015 0.659327
0.401877 0.974655 0.584878
0.403433 0.973556 0.573312
0.458518 0.982284 0.49929
0.798886 0.966781 0.41294
0.952789 0.949142 0.458717
0.992538 0.955047 0.484077
0.989792 0.956176 0.48307
0.00979629 0.0304875 0.0256504
0.0358587 0.0309911 0.0315862
0.150561 0.032517 0.0431373
0.388235 0.0364538 0.0687266
0.602899 0.044007 0.117937
0.631983 0.0661631 0.146487
0.649226 0.0746471 0.175143
0.649195 0.0746166 0.175143
0.649088 0.0745861 0.174624
0.0124819 0.0398566 0.0251926
0.0189822 0.0379339 0.0201114
0.121828 0.0323644 0.0204929
0.360159 0.0298619 0.0439765
0.589395 0.039353 0.0984207
0.631601 0.0661326 0.145525
0.64921 0.0746014 0.175128
0.64918 0.0746014 0.175113
0.649058 0.0746014 0.174624
0.0214542 0.13051 0.0762188
0.01944 0.129915 0.0522469
0.0881056 0.13254 0.0287022
0.388586 0.0773022 0.0445258
0.580819 0.0404974 0.0726635
0.628443 0.066392 0.136782
0.636332 0.0669261 0.156374
0.648249 0.0752117 0.17145
0.648966 0.0753796 0.17293
0.047364 0.420783 0.194781
0.0512245 0.423636 0.159976
0.056733 0.421637 0.131991
0.316106 0.435065 0.0704814
0.745068 0.388556 0.140047
0.776379 0.297032 0.199542
0.62591 0.0724498 0.11545
0.624369 0.0695506 0.119402
0.62417 0.0686961 0.120867
0.164981 0.783475 0.470054
0.178073 0.792447 0.435111
0.196094 0.801495 0.408026
0.246372 0.814618 0.330999
0.661418 0.783032 0.224506
0.912902 0.768429 0.335592
0.902251 0.687434 0.298756
0.898039 0.661692 0.288579
0.894316 0.645808 0.282353
0.368597 0.955001 0.687099
0.37734 0.963012 0.660212
0.385702 0.967605 0.619089
0.392325 0.970748 0.603204
0.656947 0.998932 0.438209
0.915648 0.958801 0.44622
0.993164 0.955047 0.484413
0.992889 0.954803 0.484123
0.992798 0.954238 0.484215
0.377371 0.961334 0.702358
0.382467 0.967315 0.671
0.393423 0.971527 0.602762
0.400778 0.973053 0.580118
0.521416 0.998932 0.479667
0.824353 0.964858 0.417731
0.975647 0.950545 0.471885
0.991424 0.955505 0.48365
0.990784 0.955734 0.483787
0.379675 0.962463 0.717815
0.379995 0.964797 0.685603
0.388281 0.970153 0.622827
0.403433 0.973556 0.573312
0.461692 0.983063 0.497505
0.801892 0.966537 0.413504
0.960143 0.951156 0.46363
0.992721 0.954971 0.484123
0.990265 0.955978 0.483314
0.380957 0.962905 0.725353
0.378485 0.962921 0.693126
0.387442 0.970367 0.634302
0.403433 0.973556 0.573312
0.443275 0.978866 0.510277
0.794965 0.967178 0.412406
0.9505 0.95111 0.45864
0.992538 0.955047 0.484077
0.989792 0.956176 0.48307
0.0180667 0.0320897 0.118685
0.0591592 0.0327153 0.118074
0.165972 0.034699 0.129427
0.422736 0.0383459 0.154864
0.637781 0.0524453 0.194598
0.649744 0.0721904 0.182177
0.649165 0.0755016 0.173159
0.649149 0.0754101 0.173342
0.649058 0.075349 0.172915
0.0101625 0.0339818 0.0794537
0.0250248 0.0319677 0.10518
0.137514 0.0338293 0.106905
0.395911 0.0368811 0.116274
0.621576 0.0494698 0.157473
0.639368 0.0693523 0.159518
0.64921 0.0752728 0.173754
0.64921 0.0751965 0.173922
0.649073 0.0751507 0.173449
0.025864 0.11812 0.109407
0.024445 0.11252 0.101854
0.102296 0.114839 0.0982528
0.383459 0.0817884 0.0900282
0.586145 0.0393378 0.0952316
0.629252 0.0662699 0.139116
0.648142 0.0751659 0.171267
0.64918 0.0750134 0.174411
0.649104 0.0749065 0.174334
0.0390478 0.38793 0.247807
0.0360266 0.383764 0.21648
0.0438697 0.386099 0.158907
0.313527 0.407324 0.0699016
0.742672 0.337697 0.146899
0.751888 0.257893 0.185183
0.624262 0.0695048 0.119265
0.623804 0.0680552 0.121523
0.624292 0.0677195 0.123445
0.131426 0.746624 0.512444
0.133165 0.752773 0.479759
0.158434 0.771389 0.416907
0.221302 0.800916 0.341497
0.654307 0.76759 0.212848
0.909926 0.747372 0.324559
0.897368 0.65864 0.287175
0.893996 0.632792 0.278843
0.890562 0.618372 0.273854
0.352789 0.93814 0.717662
0.354696 0.943297 0.69604
0.376181 0.96202 0.65977
0.387289 0.968566 0.616053
0.61677 0.998932 0.450996
0.913634 0.958602 0.445212
0.992935 0.954894 0.484199
0.992569 0.95436 0.483696
0.991287 0.951965 0.482139
0.37998 0.957977 0.746212
0.374197 0.956436 0.72047
0.380468 0.965499 0.67422
0.398703 0.972351 0.584344
0.485847 0.994293 0.499428
0.820249 0.965087 0.416815
0.974121 0.950057 0.470741
0.991424 0.955505 0.48365
0.990677 0.955764 0.483818
0.385168 0.961593 0.75816
0.377859 0.958282 0.731014
0.379278 0.964126 0.686091
0.403433 0.973556 0.573312
0.439612 0.979232 0.516716
0.796445 0.967178 0.412879
0.954604 0.950347 0.460212
0.992966 0.954879 0.484199
0.9906 0.95584 0.483436
0.38706 0.962219 0.765103
0.379568 0.95877 0.738262
0.378088 0.962539 0.694026
0.403433 0.973556 0.573312
0.426917 0.977844 0.533852
0.787152 0.967544 0.41088
0.946044 0.954177 0.458137
0.992538 0.955047 0.484077
0.989532 0.956283 0.482979
0.0458839 0.0362249 0.334112
0.102068 0.0374762 0.330831
0.2094 0.0385138 0.340017
0.444465 0.0419623 0.372747
0.679911 0.0679484 0.391226
0.704723 0.0882887 0.378012
0.698466 0.0841688 0.349691
0.695171 0.0823224 0.336416
0.693019 0.081178 0.326833
0.0312505 0.0356603 0.312718
0.0525826 0.0363317 0.321324
0.168704 0.0382849 0.326146
0.423072 0.0416876 0.34699
0.67245 0.0633402 0.353063
0.694957 0.0824903 0.333608
0.684031 0.0773938 0.294331
0.680797 0.0763104 0.282902
0.678462 0.0754864 0.274647
0.0167086 0.0766461 0.25481
0.0136263 0.0614481 0.269413
0.0858473 0.0446479 0.305638
0.387106 0.041413 0.312261
0.654414 0.0553902 0.304326
0.683864 0.077348 0.294514
0.672755 0.0741436 0.255772
0.669398 0.0734569 0.244633
0.666926 0.0729381 0.236652
0.0420691 0.362264 0.336385
0.0407874 0.35491 0.324636
0.0410468 0.342718 0.307515
0.355077 0.362264 0.314855
0.740444 0.325612 0.298466
0.760769 0.226154 0.224994
0.624048 0.0687114 0.120577
0.62475 0.0676432 0.124666
0.626062 0.0673686 0.128634
0.118791 0.708278 0.581613
0.113664 0.708186 0.564202
0.106538 0.708232 0.532067
0.121874 0.733715 0.43267
0.669627 0.726818 0.222416
0.917937 0.684443 0.309758
0.894133 0.635508 0.279377
0.890059 0.605173 0.270863
0.886229 0.58822 0.265949
0.338933 0.913573 0.764538
0.336721 0.916091 0.75111
0.336446 0.922347 0.725582
0.361379 0.950576 0.660182
0.540536 0.998932 0.480262
0.924559 0.958572 0.450294
0.992157 0.953613 0.48304
0.988571 0.946197 0.476967
0.986664 0.94255 0.474586
0.394934 0.956344 0.813397
0.388663 0.954803 0.795499
0.380972 0.954971 0.764828
0.376608 0.962081 0.676646
0.44062 0.98291 0.526604
0.812222 0.965789 0.415259
0.971832 0.950134 0.469459
0.991424 0.955505 0.483665
0.990662 0.955764 0.483894
0.402762 0.962997 0.823377
0.393637 0.958099 0.802563
0.386007 0.958419 0.771908
0.379187 0.964111 0.684916
0.41268 0.97557 0.556191
0.781079 0.968383 0.410422
0.945907 0.953475 0.457496
0.99321 0.954772 0.484291
0.99086 0.955734 0.483513
0.4056 0.964218 0.82945
0.39617 0.958862 0.809293
0.387533 0.958465 0.778058
0.377539 0.962173 0.692561
0.406455 0.974304 0.567575
0.761959 0.971023 0.409354
0.931991 0.958206 0.453605
0.992325 0.955001 0.48394
0.989792 0.956176 0.48307
0.1308 0.0423285 0.564477
0.193698 0.0439155 0.569589
0.302358 0.0456245 0.58436
0.470726 0.0495918 0.601724
0.654765 0.0858015 0.578134
0.684382 0.109651 0.589212
0.679484 0.111757 0.602914
0.680583 0.111254 0.599847
0.682063 0.110491 0.595544
0.0961471 0.0408026 0.554818
0.134386 0.0421149 0.558724
0.259007 0.04477 0.575372
0.449134 0.0481422 0.596841
0.652369 0.0816815 0.571176
0.688197 0.108003 0.577859
0.685328 0.109148 0.586358
0.687144 0.1084 0.581094
0.688975 0.10753 0.575662
0.0379797 0.0375525 0.513588
0.0692149 0.0392157 0.533913
0.177478 0.0429084 0.557214
0.405692 0.0462501 0.585245
0.646036 0.0744945 0.559625
0.694514 0.105501 0.557702
0.694133 0.105577 0.558892
0.695933 0.10486 0.552712
0.697429 0.104234 0.547433
0.0049897 0.273518 0.531975
0.00401312 0.255406 0.533959
0.00366217 0.224399 0.539147
0.335271 0.188327 0.61622
0.724437 0.180987 0.624659
0.723323 0.115236 0.513451
0.706752 0.0995346 0.49929
0.707347 0.098558 0.491569
0.707912 0.0979629 0.485756
0.123842 0.671839 0.653498
0.119173 0.669779 0.645579
0.112947 0.664515 0.636927
0.112886 0.660548 0.626581
0.661265 0.650004 0.602823
0.969299 0.639796 0.60238
0.969741 0.589242 0.490318
0.96527 0.558846 0.463249
0.960571 0.541268 0.446616
0.331182 0.884886 0.811002
0.328725 0.885756 0.803632
0.32491 0.886275 0.793011
0.317662 0.888838 0.767651
0.47982 0.979568 0.71516
0.911559 0.945342 0.579858
0.997604 0.932464 0.544594
0.985794 0.931395 0.467796
0.984009 0.928542 0.464836
0.446174 0.975402 0.906111
0.435019 0.971145 0.893828
0.417914 0.959747 0.872892
0.394858 0.949966 0.829099
0.39678 0.974685 0.749233
0.797909 0.998932 0.609354
0.984924 0.956466 0.481956
0.992065 0.95523 0.48394
0.991287 0.955505 0.484215
0.498955 0.991653 0.924315
0.481331 0.990112 0.914031
0.453712 0.985321 0.895003
0.409842 0.96492 0.83888
0.381384 0.961364 0.733593
0.725002 0.998932 0.578607
0.956603 0.951965 0.462654
0.993622 0.954589 0.484443
0.990936 0.955703 0.483558
0.50486 0.992187 0.926726
0.488975 0.991119 0.918196
0.459571 0.986648 0.899748
0.411688 0.965698 0.842741
0.377218 0.958404 0.726482
0.680659 0.998932 0.553674
0.943679 0.956176 0.458335
0.99173 0.954833 0.483467
0.989792 0.956176 0.483055
0.267552 0.0625925 0.665629
0.302953 0.0643778 0.673274
0.372976 0.069337 0.684352
0.488396 0.0824598 0.686885
0.621454 0.115602 0.676844
0.657328 0.130434 0.685008
0.651011 0.127245 0.684215
0.651148 0.127382 0.684596
0.650507 0.127459 0.683009
0.228656 0.0603037 0.654871
0.266804 0.06215 0.664942
0.344076 0.0669108 0.680323
0.469841 0.0791791 0.687205
0.613321 0.111666 0.674708
0.657664 0.129519 0.682445
0.651942 0.12636 0.682094
0.65127 0.126558 0.681056
0.650706 0.12665 0.678996
0.213428 0.0589151 0.649516
0.215793 0.0590677 0.650233
0.279133 0.0623636 0.667277
0.43064 0.0738079 0.686961
0.598352 0.106096 0.673625
0.658625 0.127794 0.677409
0.654139 0.125277 0.677668
0.654307 0.125154 0.67602
0.654398 0.124834 0.673686
0.0319524 0.158984 0.618875
0.030457 0.126848 0.606622
0.0335088 0.0826123 0.590036
0.33283 0.0643931 0.675914
0.566979 0.0956283 0.674708
0.669154 0.131884 0.670512
0.657496 0.123171 0.667231
0.657969 0.122713 0.665187
0.658427 0.122286 0.662791
0.146883 0.5897 0.744732
0.14168 0.580835 0.740719
0.135943 0.56379 0.738598
0.128954 0.535805 0.737011
0.664912 0.550637 0.877623
0.96701 0.546853 0.894438
0.95285 0.449668 0.89131
0.940337 0.411765 0.876356
0.929534 0.388846 0.863813
0.330175 0.85861 0.850004
0.327306 0.858122 0.845212
0.323552 0.855589 0.84097
0.317464 0.851606 0.833768
0.544076 0.898207 0.868437
0.885298 0.875257 0.846143
0.975143 0.869459 0.84567
0.974807 0.857572 0.828305
0.973251 0.851209 0.820539
0.521935 0.983383 0.957214
0.512612 0.984421 0.95285
0.499382 0.983505 0.947509
0.474617 0.980423 0.935286
0.523507 0.993484 0.929137
0.809308 0.990188 0.892485
0.973983 0.97351 0.829984
0.992523 0.974273 0.830747
0.992676 0.97435 0.824567
0.635035 0.982605 0.966583
0.625132 0.984497 0.962875
0.612421 0.986175 0.960296
0.582086 0.988617 0.953872
0.528771 0.992737 0.933639
0.767865 0.991852 0.897154
0.944228 0.976364 0.824903
0.997101 0.974746 0.754299
1 0.975891 0.671946
0.638025 0.983337 0.965988
0.630472 0.98407 0.96379
0.617212 0.985672 0.961257
0.585184 0.988403 0.95465
0.508827 0.991119 0.929076
0.74023 0.994797 0.894011
0.929015 0.978469 0.816892
0.995117 0.974258 0.746014
1 0.975586 0.63447
0.456031 0.104662 0.720851
0.460899 0.0997787 0.714488
0.497673 0.106844 0.715908
0.576913 0.128222 0.718242
0.675105 0.162448 0.721798
0.681865 0.161807 0.718776
0.672068 0.15079 0.709346
0.677913 0.158038 0.715282
0.677775 0.15848 0.714778
0.440223 0.101808 0.719173
0.444739 0.0970626 0.713375
0.478126 0.101625 0.713726
0.558679 0.121416 0.715999
0.667231 0.158206 0.7196
0.680232 0.15996 0.717174
0.669566 0.148089 0.70692
0.669932 0.149554 0.707347
0.670375 0.150759 0.707362
0.419135 0.0937057 0.711513
0.416052 0.0917067 0.709422
0.439048 0.0915389 0.707469
0.523613 0.108934 0.711223
0.649683 0.149172 0.715145
0.677195 0.156435 0.714488
0.667353 0.145739 0.70515
0.667369 0.145907 0.70515
0.66685 0.145785 0.704128
0.349081 0.126741 0.737011
0.366842 0.108812 0.724361
0.372198 0.0876173 0.704768
0.452018 0.0863203 0.699092
0.604257 0.12604 0.703243
0.670085 0.148638 0.707668
0.664042 0.142061 0.702007
0.663355 0.14136 0.701427
0.662821 0.140841 0.700374
0.171862 0.557198 0.784619
0.175647 0.552972 0.790143
0.188388 0.546502 0.807462
0.293248 0.542062 0.883192
0.745586 0.524041 0.956008
0.955657 0.516548 0.982864
0.933989 0.434546 0.964385
0.909514 0.393866 0.941131
0.890867 0.370474 0.92282
0.357931 0.85156 0.906142
0.355978 0.849714 0.904631
0.353918 0.845563 0.90518
0.352728 0.838956 0.910201
0.556527 0.847929 0.94435
0.889311 0.838575 0.952285
0.971954 0.832074 0.963699
0.971588 0.8121 0.965988
0.969573 0.803937 0.963897
0.552148 0.977249 0.976043
0.544396 0.978134 0.973236
0.535393 0.97734 0.971771
0.520256 0.975418 0.968887
0.56762 0.975479 0.966857
0.846525 0.960449 0.953216
0.960174 0.958083 0.951156
0.982254 0.956146 0.955032
0.98027 0.955154 0.951492
0.718013 0.976974 0.9785
0.711803 0.978775 0.975937
0.707042 0.97911 0.975326
0.697612 0.979461 0.974807
0.682811 0.97995 0.97261
0.847532 0.975464 0.965499
0.945083 0.976059 0.959045
0.981765 0.975616 0.949874
0.984192 0.976226 0.950744
0.719646 0.977996 0.977172
0.71574 0.978302 0.976211
0.710262 0.978958 0.975708
0.698772 0.979507 0.974807
0.674174 0.980346 0.972198
0.827848 0.975967 0.964843
0.935973 0.976516 0.957382
0.975845 0.975921 0.945754
0.982437 0.976989 0.942565
0.593683 0.205585 0.818067
0.613352 0.212802 0.822873
0.652369 0.226123 0.829602
0.72575 0.251011 0.834882
0.804776 0.285206 0.838895
0.796475 0.277089 0.829786
0.73431 0.217182 0.769146
0.734264 0.217212 0.769192
0.73431 0.217136 0.769024
0.576043 0.198795 0.813062
0.595987 0.206409 0.818616
0.634592 0.220066 0.826825
0.712428 0.246235 0.834394
0.80293 0.283833 0.837812
0.799725 0.280079 0.832929
0.73431 0.217182 0.769146
0.73431 0.217182 0.769146
0.733944 0.217212 0.769039
0.558358 0.191516 0.807233
0.564691 0.194095 0.809293
0.601083 0.208194 0.819776
0.685878 0.23714 0.832883
0.791638 0.278157 0.836698
0.804425 0.284459 0.837522
0.734325 0.217227 0.769345
0.73431 0.217227 0.769314
0.734203 0.217151 0.768978
0.583093 0.232502 0.846662
0.568078 0.206455 0.822095
0.558907 0.192126 0.807782
0.63624 0.220554 0.827008
0.764569 0.266194 0.835889
0.809903 0.289479 0.842863
0.73431 0.217273 0.769467
0.734325 0.217258 0.769451
0.73431 0.217151 0.76907
0.519677 0.600595 0.913909
0.536904 0.592401 0.913909
0.549187 0.569696 0.91603
0.601251 0.545983 0.926619
0.829313 0.54136 0.970336
0.958236 0.538964 0.984283
0.952316 0.492195 0.980591
0.945373 0.463966 0.97467
0.939208 0.449973 0.969039
0.497704 0.878737 0.966247
0.498772 0.876341 0.96376
0.505577 0.870054 0.961334
0.525216 0.856214 0.956222
0.658793 0.839033 0.939147
0.917159 0.833646 0.966918
0.969055 0.828473 0.977035
0.970352 0.811032 0.979049
0.966796 0.803021 0.97641
0.64419 0.969406 0.983993
0.6392 0.96997 0.982284
0.636255 0.969085 0.982055
0.634775 0.966827 0.982361
0.664805 0.961105 0.979736
0.855299 0.953063 0.972198
0.960296 0.950774 0.973251
0.981048 0.948821 0.978912
0.979385 0.947387 0.977432
0.76939 0.974182 0.982666
0.762539 0.976104 0.980026
0.758099 0.976303 0.979812
0.751034 0.976532 0.980453
0.73814 0.97644 0.980682
0.863859 0.974395 0.976303
0.956817 0.973602 0.975875
0.980148 0.97377 0.9776
0.985183 0.972732 0.979782
0.779095 0.97438 0.982391
0.773159 0.975998 0.980163
0.769223 0.976089 0.979858
0.762219 0.976059 0.979767
0.750271 0.976257 0.980102
0.861982 0.974456 0.976272
0.954345 0.975525 0.976165
0.976745 0.976913 0.977447
0.98381 0.976486 0.977646
0.59823 0.207355 0.819364
0.617426 0.214176 0.823636
0.656168 0.227237 0.829908
0.728985 0.252308 0.835142
0.80531 0.285634 0.839277
0.794598 0.275319 0.827863
0.73431 0.217182 0.769146
0.734325 0.217197 0.769207
0.73431 0.217136 0.768994
0.580591 0.200534 0.814404
0.600031 0.207904 0.819638
0.63827 0.221393 0.827527
0.715297 0.247257 0.834516
0.803769 0.284382 0.838132
0.798169 0.27866 0.831449
0.73431 0.217182 0.769146
0.73431 0.217166 0.769116
0.73431 0.21709 0.768856
0.558343 0.191516 0.807263
0.568811 0.195773 0.810636
0.605249 0.209766 0.820874
0.688991 0.238071 0.832929
0.79321 0.27895 0.836866
0.803693 0.283772 0.836805
0.734325 0.217227 0.769345
0.73431 0.217227 0.769314
0.73431 0.217121 0.768978
0.572259 0.212818 0.828428
0.559045 0.192309 0.80798
0.558465 0.191501 0.807172
0.635325 0.220233 0.826841
0.76379 0.265873 0.835859
0.809995 0.28957 0.842954
0.734325 0.217273 0.769451
0.734325 0.217258 0.769421
0.73431 0.217151 0.76907
0.549279 0.57258 0.9178
0.555062 0.559609 0.917815
0.568231 0.533257 0.921996
0.612039 0.505943 0.930098
0.827619 0.502647 0.970077
0.952865 0.499458 0.98088
0.939178 0.447608 0.96907
0.923613 0.415473 0.954589
0.912581 0.399054 0.943786
0.550683 0.869413 0.960922
0.543542 0.865461 0.957961
0.535454 0.856367 0.95555
0.520806 0.836835 0.950637
0.655192 0.818021 0.932052
0.920378 0.815946 0.968399
0.967559 0.812375 0.976532
0.967758 0.796002 0.977554
0.965911 0.787854 0.976532
0.709804 0.963455 0.980819
0.705745 0.963668 0.979187
0.702266 0.962478 0.97879
0.69575 0.959762 0.978302
0.709209 0.954635 0.97612
0.859663 0.950286 0.971328
0.961944 0.947906 0.974594
0.977752 0.947005 0.978927
0.977096 0.945068 0.978454
0.790051 0.97438 0.982651
0.786114 0.975677 0.980728
0.783795 0.97583 0.980667
0.7794 0.97583 0.980758
0.772107 0.975906 0.980972
0.872068 0.974456 0.978241
0.954787 0.973404 0.978225
0.978592 0.972946 0.980301
0.982895 0.97229 0.982345
0.79913 0.974365 0.981567
0.796841 0.975311 0.980209
0.796613 0.975418 0.980087
0.796613 0.975418 0.980087
0.796155 0.975418 0.980102
0.877424 0.974792 0.97818
0.95407 0.976318 0.978149
0.976669 0.977768 0.979812
0.98233 0.977249 0.982162
