bundles/resolve-cinematic-luts/Phantom Luts/Ursa G2 Phntm Arri LUTs - V1/Gen5/White Balance Offset (Magenta Boost)/Ursa Tungsten Gen 5-Legacy WBO.cube
TITLE "Generated by Resolve"
LUT_3D_SIZE 5
0.0172122 0.0162356 0.0214694
0.105837 0.0254673 0.0391699
0.610224 0.0320745 0.137667
0.71342 0.0705119 0.204959
0.714672 0.0711528 0.207095
0.0383307 0.117189 0.0706798
0.0862287 0.117617 0.0476539
0.587304 0.0297398 0.10309
0.696925 0.0542916 0.185138
0.708782 0.0652476 0.199954
0.0225681 0.595972 0.225498
0.034699 0.604547 0.204349
0.533913 0.635355 0.0750896
0.888319 0.62034 0.194507
0.890852 0.628031 0.198749
0.0936446 0.764965 0.370733
0.113146 0.751751 0.264866
0.277623 0.749142 0.139971
0.950912 0.832074 0.314137
0.952285 0.832761 0.315389
0.0948043 0.773098 0.420264
0.111025 0.752255 0.271626
0.248859 0.747784 0.145006
0.945937 0.830106 0.310277
0.952285 0.832715 0.315343
0.0217899 0.0252689 0.114473
0.11899 0.0327459 0.114702
0.660838 0.0578775 0.225132
0.710338 0.0669566 0.201556
0.711971 0.0679637 0.204273
0.0366827 0.101213 0.104753
0.0865949 0.0992905 0.107301
0.602472 0.0431373 0.148623
0.710414 0.0672313 0.201495
0.712978 0.0692454 0.205188
0 0.573922 0.323735
0.00781262 0.572824 0.236423
0.527626 0.616251 0.069688
0.883894 0.583627 0.189853
0.884138 0.590005 0.189242
0.0978408 0.784573 0.493217
0.0937667 0.769665 0.400397
0.210376 0.74725 0.157885
0.95053 0.831937 0.313848
0.952285 0.832761 0.315389
0.117708 0.797498 0.548791
0.093904 0.774075 0.428321
0.177234 0.746197 0.171633
0.938796 0.827817 0.305318
0.952285 0.832944 0.315526
0.0968795 0.071458 0.578729
0.248875 0.0667124 0.593149
0.698741 0.0948043 0.574166
0.739788 0.105791 0.619638
0.740047 0.1066 0.623026
0.0304723 0.063508 0.511299
0.136339 0.0703441 0.573907
0.665248 0.0867323 0.546777
0.742061 0.103807 0.569924
0.742336 0.104463 0.57557
0.043061 0.59704 0.572534
0.0431983 0.598383 0.574746
0.612589 0.59176 0.588815
0.9514 0.546548 0.537621
0.951247 0.545312 0.547845
0.29192 0.879499 0.801633
0.270542 0.871763 0.78114
0.183536 0.805066 0.546868
0.954009 0.839612 0.340215
0.952346 0.832654 0.315496
0.401679 0.90219 0.858228
0.353948 0.891234 0.829541
0.174502 0.810681 0.571038
0.934783 0.836362 0.341695
0.952285 0.832898 0.315496
0.526299 0.175723 0.848569
0.582864 0.177905 0.847974
0.795758 0.211521 0.822904
0.744091 0.15349 0.771237
0.765057 0.176394 0.792844
0.487312 0.168185 0.840894
0.520806 0.170306 0.843534
0.786572 0.205554 0.819944
0.746609 0.15584 0.773007
0.756863 0.167452 0.784543
0.193759 0.620127 0.875654
0.285084 0.632868 0.930159
0.787991 0.525811 0.972442
0.909178 0.432486 0.928756
0.908461 0.435447 0.929625
0.468589 0.933852 0.926986
0.479713 0.934768 0.928878
0.53901 0.934371 0.928267
0.947387 0.94551 0.945159
0.950454 0.945235 0.944915
0.659663 0.938384 0.935454
0.652216 0.938369 0.935424
0.644221 0.937163 0.933104
0.941054 0.949828 0.948028
0.951507 0.950545 0.944183
0.565133 0.195453 0.865049
0.630365 0.204334 0.867109
0.82182 0.243641 0.84828
0.774472 0.186511 0.801328
0.774426 0.186892 0.802258
0.518959 0.186938 0.857969
0.569757 0.196246 0.865522
0.819501 0.240497 0.845884
0.774517 0.186221 0.800626
0.774441 0.18677 0.801953
0.542763 0.621958 0.998901
0.553323 0.597818 1
0.831022 0.489586 0.954101
0.907622 0.427497 0.927962
0.908339 0.434653 0.929595
0.619944 0.936919 0.933623
0.620737 0.937545 0.93434
0.65568 0.937972 0.936492
0.949065 0.942428 0.949371
0.949676 0.941939 0.949157
0.716426 0.940276 0.937774
0.716243 0.940627 0.938399
0.729473 0.941115 0.938888
0.944854 0.950668 0.950774
0.950896 0.950668 0.950439
