bundles/resolve-cinematic-luts/Phantom Luts/Ursa G2 Phntm Arri LUTs - V1/Gen5/White Balance Offset (Magenta Boost)/Ursa Tungsten Gen 5-Legacy WBO.cube
TITLE "Generated by Resolve"
LUT_3D_SIZE 33
0.0172122 0.0162356 0.0214694
0.0172122 0.0162356 0.0214694
0.0172122 0.0162356 0.0214694
0.018967 0.0164797 0.0217441
0.0300298 0.0178378 0.0238346
0.0401465 0.0194247 0.0260929
0.0558328 0.0215 0.0291295
0.0783551 0.023682 0.0334325
0.105837 0.0254673 0.0391699
0.14229 0.0279088 0.0469978
0.188861 0.0307012 0.0566873
0.247517 0.0339361 0.0675517
0.31397 0.0363928 0.0789044
0.382788 0.037232 0.0928664
0.457298 0.0366979 0.107591
0.536263 0.0340734 0.12256
0.610224 0.0320745 0.137667
0.664042 0.0394141 0.154345
0.686778 0.0487373 0.165652
0.689464 0.0493019 0.171618
0.695003 0.0530556 0.181765
0.707317 0.0644694 0.197742
0.71342 0.0705119 0.204959
0.71342 0.0705119 0.204959
0.71342 0.0705119 0.204959
0.71342 0.0705119 0.204959
0.71342 0.0705119 0.204959
0.713451 0.0705272 0.205035
0.713542 0.070573 0.205173
0.713771 0.0706798 0.205585
0.714092 0.0708324 0.206134
0.714458 0.0710307 0.20676
0.714672 0.0711528 0.207095
0.0172122 0.0162356 0.0214847
0.0172122 0.0162356 0.0214694
0.0172122 0.0162356 0.0214694
0.0172122 0.0162356 0.0214694
0.0254826 0.0171664 0.0225071
0.0356451 0.0189212 0.0244144
0.0505379 0.0205234 0.0268254
0.0738842 0.0230564 0.0312352
0.101854 0.0256199 0.0377966
0.138582 0.0275883 0.0456397
0.185092 0.0304417 0.0557565
0.24329 0.0337072 0.0670024
0.310384 0.036286 0.078294
0.380118 0.0372473 0.0924239
0.454612 0.0367285 0.107073
0.533623 0.034226 0.122087
0.60824 0.0320745 0.137148
0.663066 0.0390478 0.153887
0.686458 0.0486 0.165408
0.689433 0.0493019 0.171542
0.694896 0.0529793 0.181567
0.707073 0.0642405 0.197452
0.71342 0.0705119 0.204959
0.71342 0.0705119 0.204959
0.71342 0.0705119 0.204959
0.71342 0.0705119 0.204959
0.71342 0.0705119 0.204959
0.713451 0.0705272 0.205035
0.713542 0.070573 0.205173
0.713771 0.0706798 0.205585
0.714092 0.0708324 0.206134
0.714641 0.0711376 0.207034
0.715221 0.0714275 0.208057
0.0182345 0.0202335 0.025452
0.018204 0.0204166 0.0258183
0.0180667 0.019791 0.0250095
0.0183566 0.0190433 0.024094
0.021088 0.0196231 0.0240024
0.0326696 0.021622 0.0253758
0.0448005 0.0234073 0.0271611
0.0665141 0.024567 0.0301213
0.0941176 0.0247196 0.0347295
0.13019 0.0259251 0.041886
0.177035 0.0291447 0.0525368
0.236179 0.0331731 0.0652323
0.305943 0.035874 0.0775006
0.376211 0.0372473 0.0917372
0.450782 0.0369268 0.106554
0.530617 0.0344244 0.121538
0.605615 0.0320592 0.136507
0.661784 0.0385595 0.153368
0.686061 0.0484169 0.165042
0.689387 0.0493019 0.171344
0.694728 0.052842 0.181262
0.706813 0.0639811 0.197147
0.71342 0.0705119 0.204959
0.71342 0.0705119 0.204959
0.71342 0.0705119 0.204959
0.71342 0.0705119 0.204959
0.71342 0.0705119 0.204959
0.713451 0.0705272 0.205035
0.713542 0.070573 0.205173
0.713771 0.0706798 0.205585
0.714092 0.0708324 0.206134
0.714641 0.0711376 0.20705
0.715221 0.0714427 0.208072
0.0218204 0.0302434 0.0323491
0.0217746 0.0304723 0.0327001
0.0213016 0.0295262 0.0305791
0.0209964 0.0272526 0.0281071
0.0264286 0.0275731 0.0277256
0.0354314 0.0307164 0.0291447
0.0460517 0.0322728 0.0306554
0.0641337 0.0328527 0.0325475
0.0903334 0.0307622 0.0346838
0.124697 0.0282902 0.038819
0.17026 0.0280003 0.0474403
0.227848 0.0300603 0.0599527
0.297398 0.0341497 0.074052
0.369192 0.0367437 0.0894942
0.445365 0.0369268 0.105394
0.526864 0.0345617 0.120974
0.603586 0.0321202 0.136278
0.660533 0.0381323 0.153079
0.685664 0.0482643 0.164752
0.689357 0.0493172 0.171191
0.69453 0.0526894 0.180941
0.706538 0.0637369 0.19678
0.71342 0.0705119 0.204959
0.71342 0.0705119 0.204959
0.71342 0.0705119 0.204959
0.71342 0.0705119 0.204959
0.71342 0.0705119 0.204959
0.713451 0.0705272 0.205035
0.713542 0.070573 0.205173
0.713771 0.0706798 0.205585
0.714092 0.0708324 0.206134
0.714641 0.0711376 0.20705
0.715236 0.0714427 0.208087
0.0258793 0.0397498 0.0400397
0.0258488 0.0399939 0.0404517
0.025452 0.0399176 0.0382849
0.0251621 0.0391241 0.0361639
0.029099 0.038117 0.0325322
0.0391546 0.0394751 0.0328527
0.0490272 0.0403754 0.0336461
0.0666056 0.0404974 0.0355993
0.0921035 0.0399023 0.037583
0.124773 0.0366217 0.0392004
0.169787 0.0318151 0.0446784
0.224414 0.0279088 0.0529488
0.290257 0.0296635 0.0660105
0.360159 0.033341 0.0824598
0.435737 0.0348211 0.100008
0.518883 0.0333104 0.11751
0.598383 0.031632 0.134524
0.659052 0.0376135 0.152789
0.685313 0.048127 0.164645
0.689555 0.049424 0.17142
0.694499 0.0525673 0.180911
0.706462 0.0635691 0.196765
0.713619 0.0706188 0.205325
0.713619 0.0706035 0.20531
0.713619 0.0706035 0.20531
0.713619 0.0706035 0.20531
0.713634 0.0706188 0.205325
0.713649 0.0706188 0.205371
0.713695 0.0706493 0.205432
0.713848 0.0707256 0.205722
0.714122 0.0708476 0.20618
0.714641 0.0711376 0.20705
0.715236 0.0714427 0.208087
0.029633 0.0514534 0.0464179
0.029572 0.0517281 0.0468757
0.0292058 0.0516976 0.0454719
0.0289616 0.0509041 0.0446632
0.0290684 0.049485 0.0396429
0.0392615 0.0501259 0.0367742
0.0517891 0.0510262 0.0374762
0.0686809 0.0513771 0.037705
0.0958724 0.0499123 0.0412146
0.126238 0.0476539 0.0425574
0.169467 0.0418402 0.0449226
0.223896 0.0350042 0.050309
0.286687 0.0307927 0.0592355
0.354711 0.0287938 0.0703593
0.429007 0.028275 0.0872511
0.509316 0.0285039 0.107713
0.587854 0.0287327 0.126894
0.652522 0.0356146 0.148608
0.683619 0.0474403 0.163272
0.689525 0.049485 0.171084
0.694255 0.0523232 0.180545
0.706127 0.0632181 0.196399
0.713771 0.0706798 0.205585
0.713771 0.0706798 0.205585
0.713771 0.0706798 0.205585
0.713771 0.0706798 0.205585
0.713771 0.0706798 0.205585
0.713771 0.0706798 0.205585
0.713771 0.0706798 0.205585
0.713893 0.0707408 0.205798
0.714137 0.0708476 0.20621
0.714641 0.0711376 0.20705
0.715236 0.0714427 0.208103
0.0327459 0.0698863 0.0545205
0.0326848 0.0703136 0.0550546
0.0325628 0.0694743 0.0520943
0.0324559 0.0686503 0.0511788
0.032517 0.0669718 0.0486915
0.0355993 0.0661021 0.0433356
0.0509194 0.067689 0.0403601
0.0713054 0.0684215 0.0408331
0.0978256 0.0673075 0.0422522
0.131609 0.0633555 0.0463569
0.175113 0.0573281 0.0488136
0.227054 0.0493172 0.0505074
0.288182 0.0408789 0.0562448
0.351705 0.0348211 0.0657206
0.41912 0.0289464 0.0785687
0.495583 0.0225376 0.0923781
0.573617 0.021149 0.109178
0.645472 0.0343175 0.136385
0.682338 0.0471504 0.161181
0.689158 0.0494545 0.169802
0.691951 0.0504463 0.177172
0.702861 0.0600443 0.192309
0.712337 0.0692912 0.203693
0.713191 0.0701457 0.204761
0.713542 0.0704662 0.20528
0.713756 0.0706645 0.205554
0.713771 0.0706798 0.205585
0.713771 0.0706798 0.205585
0.713771 0.0706798 0.205585
0.713848 0.0707256 0.205722
0.714015 0.0708019 0.205997
0.714351 0.0709697 0.206607
0.714717 0.0711833 0.207172
0.0351415 0.0916304 0.0620584
0.0350805 0.0919661 0.0624094
0.0348974 0.0915999 0.0607614
0.0348669 0.0909285 0.0597696
0.03505 0.0897078 0.0582437
0.0357519 0.0880446 0.0532692
0.0447852 0.0885176 0.0459449
0.0665446 0.0908522 0.0447089
0.098909 0.0908217 0.0448157
0.133532 0.0886702 0.0463722
0.179278 0.0824903 0.0518502
0.236957 0.0728161 0.0561685
0.300847 0.062089 0.060502
0.366094 0.0497139 0.0676127
0.429267 0.0385748 0.075349
0.495537 0.0287785 0.0880903
0.563775 0.0213474 0.104479
0.634287 0.0314336 0.127199
0.678553 0.0463111 0.153765
0.688487 0.0495003 0.167208
0.690211 0.0495155 0.173281
0.695155 0.0527962 0.182467
0.703807 0.0609293 0.193332
0.708324 0.0653086 0.198901
0.710002 0.0670024 0.200809
0.710842 0.0678264 0.201831
0.711345 0.0683146 0.202457
0.711742 0.0687114 0.202945
0.712093 0.0690471 0.203372
0.712489 0.0693828 0.203891
0.712886 0.0697032 0.204456
0.71342 0.0700542 0.20531
0.713893 0.0703441 0.206149
0.0383307 0.117189 0.0706798
0.0381476 0.117754 0.071458
0.0381476 0.117632 0.0698711
0.0381018 0.117067 0.0691081
0.0380407 0.11632 0.0684215
0.0380255 0.11426 0.0643015
0.0401007 0.113146 0.0562295
0.0568704 0.114595 0.0497902
0.0862287 0.117617 0.0476539
0.13283 0.117021 0.0469825
0.175921 0.117876 0.0482032
0.246693 0.105241 0.0600443
0.312917 0.0953231 0.0662242
0.380819 0.0832685 0.0723278
0.451972 0.0664683 0.0780194
0.522545 0.0412451 0.0844587
0.587304 0.0297398 0.10309
0.643214 0.0343175 0.127275
0.674678 0.0455634 0.145342
0.68629 0.0497597 0.158282
0.689189 0.049546 0.169314
0.690959 0.0495308 0.175784
0.693401 0.0509499 0.18085
0.695583 0.0529183 0.183734
0.696925 0.0542916 0.185138
0.697902 0.0552071 0.186297
0.69984 0.057023 0.188708
0.702144 0.0592966 0.191485
0.704372 0.0614633 0.194034
0.705837 0.0628977 0.195972
0.707271 0.0641184 0.197864
0.708247 0.0649271 0.1991
0.708782 0.0652476 0.199954
0.0420844 0.148836 0.0808728
0.041886 0.149477 0.0818036
0.0420996 0.149569 0.0791028
0.0414282 0.149569 0.0768749
0.0412451 0.148898 0.0768749
0.0413519 0.147021 0.0747082
0.0421454 0.144869 0.0691844
0.0485695 0.145037 0.0600595
0.0737011 0.147799 0.0551461
0.114519 0.152453 0.0506905
0.178653 0.151385 0.0503395
0.232578 0.155093 0.0529641
0.328786 0.138003 0.0695048
0.40737 0.126329 0.0783703
0.479286 0.117098 0.0860456
0.554116 0.0939345 0.0932784
0.619715 0.0635843 0.104463
0.659815 0.0468147 0.122805
0.681239 0.0496071 0.143832
0.685237 0.0505837 0.150423
0.686915 0.0499428 0.159274
0.689479 0.0496376 0.169818
0.690761 0.0496071 0.174578
0.691432 0.0497597 0.176715
0.691783 0.049958 0.177523
0.692103 0.0500801 0.178424
0.692409 0.0502022 0.179217
0.692714 0.05037 0.17995
0.693507 0.0509957 0.181125
0.694286 0.051667 0.182147
0.694774 0.0520333 0.182834
0.694896 0.0519722 0.183154
0.694606 0.0514992 0.182971
0.0442512 0.190326 0.0945449
0.0439612 0.191333 0.0954299
0.0442512 0.191852 0.0911727
0.0445869 0.191684 0.0882582
0.0445106 0.190692 0.0879683
0.0445411 0.189166 0.0871138
0.0451972 0.186175 0.0821088
0.0462196 0.185412 0.0732128
0.0564126 0.186648 0.0619211
0.0947738 0.193057 0.0586099
0.152041 0.200168 0.0514382
0.240497 0.200381 0.0528115
0.313771 0.208316 0.0532387
0.414282 0.197147 0.0793164
0.520012 0.179828 0.0975357
0.603571 0.164508 0.107942
0.675792 0.143053 0.120867
0.714672 0.112474 0.140169
0.70721 0.0793774 0.14406
0.691752 0.0574044 0.144442
0.687114 0.0519722 0.149508
0.687724 0.0503243 0.160143
0.689204 0.0499733 0.167269
0.68983 0.049897 0.169787
0.690089 0.0498817 0.170809
0.690333 0.0498817 0.171771
0.690547 0.0498512 0.172625
0.690684 0.0498512 0.173205
0.690867 0.049836 0.173877
0.69102 0.0498512 0.17438
0.691173 0.0499123 0.174746
0.691417 0.0500343 0.175128
0.691646 0.0501411 0.175372
0.0442969 0.242741 0.10985
0.0439307 0.243519 0.110887
0.0443122 0.244129 0.106493
0.0447242 0.244739 0.10312
0.0448615 0.244221 0.10222
0.0449378 0.243153 0.101961
0.0454108 0.240864 0.0991379
0.046891 0.237415 0.0909285
0.0474098 0.237766 0.0742809
0.0656138 0.240574 0.0630961
0.122759 0.252644 0.0606851
0.203693 0.26273 0.0489815
0.321431 0.265126 0.0595407
0.40795 0.275883 0.0536355
0.498054 0.27509 0.0817426
0.63035 0.249928 0.11632
0.728038 0.22594 0.136294
0.778881 0.206134 0.161501
0.781781 0.182589 0.169619
0.757366 0.145724 0.159854
0.718364 0.0898451 0.150668
0.691081 0.0568551 0.14699
0.687373 0.0508736 0.156207
0.687694 0.05037 0.159915
0.68806 0.0503243 0.161471
0.688319 0.0502632 0.162707
0.688518 0.0502022 0.163622
0.688655 0.0501869 0.164248
0.688746 0.0501717 0.164767
0.688853 0.0501411 0.165209
0.688914 0.0501259 0.165484
0.689006 0.0501869 0.165576
0.689158 0.050309 0.16556
0.0375677 0.306172 0.126223
0.0370489 0.307134 0.127489
0.0376287 0.308064 0.122621
0.0383154 0.309148 0.118959
0.0387121 0.309468 0.117174
0.0387427 0.308522 0.116899
0.0390021 0.306874 0.115755
0.0407874 0.303471 0.109621
0.0426947 0.301976 0.0982528
0.0429389 0.301961 0.0690471
0.078584 0.308919 0.0618143
0.159319 0.323354 0.0560922
0.265171 0.333639 0.0480049
0.405219 0.335653 0.0636759
0.503838 0.348394 0.052018
0.588495 0.355001 0.0756847
0.721965 0.338643 0.126665
0.82269 0.315618 0.1738
0.841306 0.294804 0.190646
0.828412 0.266224 0.186328
0.809415 0.229175 0.179721
0.770275 0.164019 0.165637
0.712749 0.0823224 0.15111
0.6907 0.0555734 0.145769
0.689296 0.0536355 0.14815
0.68864 0.0527657 0.150347
0.687907 0.0520943 0.151446
0.687449 0.0517128 0.15198
0.687221 0.051545 0.152193
0.686992 0.0514229 0.152163
0.686824 0.0513619 0.151919
0.686763 0.0513924 0.151598
0.68864 0.0535134 0.151797
0.0251164 0.372076 0.141802
0.0244907 0.373037 0.143542
0.0254673 0.374166 0.137835
0.0261845 0.375998 0.133028
0.0265507 0.376791 0.130373
0.0267643 0.376165 0.130129
0.0269322 0.375204 0.129854
0.0278782 0.373007 0.12697
0.0301976 0.369085 0.117861
0.0328985 0.370733 0.102251
0.0465705 0.372045 0.0666514
0.10045 0.380285 0.0572976
0.205219 0.395239 0.0560159
0.330404 0.405478 0.0476539
0.484703 0.407843 0.0689708
0.599161 0.423392 0.0521553
0.681407 0.436439 0.0746471
0.792508 0.432441 0.13875
0.865782 0.417411 0.191516
0.874311 0.389258 0.202029
0.864378 0.355306 0.198566
0.852995 0.322789 0.194995
0.82829 0.266209 0.186313
0.802563 0.216678 0.177829
0.79147 0.197253 0.174472
0.783688 0.184375 0.172183
0.77702 0.1738 0.169894
0.770672 0.164111 0.167666
0.764874 0.155489 0.165423
0.760174 0.148898 0.163012
0.757626 0.146212 0.160357
0.758785 0.14696 0.161212
0.766552 0.158114 0.164691
0.0149691 0.440452 0.161578
0.014374 0.441489 0.163729
0.0160067 0.443336 0.157305
0.0172885 0.444877 0.151202
0.0187686 0.446235 0.147051
0.0190738 0.446326 0.1458
0.0187686 0.445411 0.145312
0.0188754 0.444511 0.144839
0.0205997 0.441871 0.138598
0.023743 0.43949 0.125307
0.0285191 0.442191 0.102663
0.0564279 0.443961 0.0654917
0.129717 0.453117 0.0612345
0.26247 0.467185 0.0511025
0.394476 0.477073 0.0445563
0.562036 0.480812 0.0787671
0.687602 0.500267 0.0713664
0.767483 0.518318 0.103227
0.841749 0.525185 0.157565
0.879561 0.515557 0.189319
0.884688 0.482673 0.197101
0.88397 0.445487 0.202243
0.879454 0.412589 0.203067
0.873014 0.384649 0.20148
0.869123 0.370901 0.200122
0.86659 0.36228 0.199374
0.864164 0.354498 0.198642
0.862074 0.348501 0.197833
0.861158 0.345281 0.197681
0.861173 0.344732 0.197818
0.862104 0.347906 0.197848
0.863798 0.353353 0.198306
0.8663 0.362127 0.198886
0.0110781 0.513726 0.187259
0.0103609 0.515267 0.18996
0.0129244 0.516793 0.183215
0.0158694 0.518593 0.176913
0.0178836 0.520592 0.17142
0.0189975 0.521706 0.168276
0.018967 0.52134 0.168139
0.0189364 0.520516 0.167865
0.0196994 0.518807 0.165225
0.0228122 0.514687 0.153323
0.0281834 0.514916 0.135103
0.0374304 0.519356 0.103456
0.082826 0.521172 0.0685893
0.174243 0.527977 0.0602884
0.330312 0.539666 0.0460517
0.460166 0.550576 0.0494392
0.637705 0.557656 0.0991836
0.768521 0.582055 0.115984
0.839628 0.602152 0.155474
0.875151 0.609659 0.182528
0.885252 0.601053 0.190723
0.883009 0.575662 0.188617
0.883268 0.541634 0.190356
0.884367 0.513252 0.193774
0.884581 0.500603 0.195178
0.884916 0.494163 0.196262
0.885115 0.489006 0.197101
0.885298 0.485145 0.197864
0.885328 0.483314 0.198077
0.885283 0.483772 0.197742
0.88539 0.486122 0.197345
0.885039 0.491371 0.196155
0.8851 0.499916 0.195087
0.0225681 0.595972 0.225498
0.0217594 0.597208 0.22916
0.0254063 0.59881 0.222232
0.0287022 0.601007 0.215885
0.0320592 0.603433 0.210391
0.0347143 0.606287 0.206561
0.0352941 0.606455 0.20528
0.0350042 0.605661 0.204837
0.034699 0.604547 0.204349
0.035874 0.601663 0.197971
0.040238 0.597879 0.181292
0.0497749 0.601389 0.158434
0.0681773 0.605829 0.112673
0.129366 0.604593 0.0881514
0.240162 0.608652 0.0732433
0.406455 0.621744 0.0609445
0.533913 0.635355 0.0750896
0.718624 0.653361 0.129625
0.838178 0.670405 0.177356
0.894453 0.684565 0.212085
0.910918 0.68687 0.223011
0.908354 0.678325 0.218891
0.901427 0.662348 0.210025
0.892195 0.63534 0.198978
0.888319 0.62034 0.194507
0.887526 0.615442 0.193668
0.886793 0.612085 0.193011
0.886885 0.61059 0.19321
0.887022 0.610574 0.19353
0.88716 0.611444 0.19382
0.887785 0.614237 0.19469
0.88896 0.619745 0.196246
0.890852 0.628031 0.198749
0.0500801 0.677424 0.269474
0.0493629 0.678508 0.27332
0.0530098 0.680262 0.266835
0.0567178 0.682475 0.261143
0.0605783 0.685115 0.255802
0.0645762 0.687297 0.249241
0.066453 0.688319 0.246113
0.0662394 0.687846 0.245869
0.0659342 0.687083 0.24538
0.0656596 0.685969 0.243549
0.0679484 0.683375 0.232883
0.0742351 0.681559 0.212787
0.0888075 0.685405 0.184161
0.124575 0.685756 0.137942
0.201266 0.684764 0.112764
0.327245 0.692134 0.0974746
0.491478 0.706767 0.0954604
0.610437 0.720653 0.117708
0.784726 0.743938 0.184833
0.88629 0.755383 0.240864
0.928359 0.767376 0.266316
0.939849 0.764843 0.271443
0.938491 0.757427 0.267491
0.935424 0.745602 0.260548
0.931548 0.733074 0.252918
0.92961 0.727626 0.249577
0.928832 0.725521 0.248386
0.9281 0.723674 0.247379
0.927733 0.722881 0.247013
0.928069 0.723583 0.2477
0.929015 0.725872 0.249363
0.930632 0.730312 0.252277
0.933089 0.737438 0.256825
0.0778363 0.734127 0.31165
0.0769818 0.735073 0.316289
0.0798657 0.735241 0.308812
0.0830091 0.736126 0.30222
0.0863508 0.737118 0.295689
0.0894789 0.738064 0.288838
0.0923018 0.738903 0.283207
0.092607 0.738766 0.282094
0.0924544 0.738567 0.282002
0.0921187 0.738033 0.281636
0.092668 0.737026 0.27776
0.0968643 0.734279 0.260227
0.105638 0.733104 0.234592
0.12491 0.733593 0.196124
0.181277 0.731807 0.151781
0.292027 0.735409 0.127199
0.429877 0.745876 0.117998
0.573617 0.761578 0.131533
0.688869 0.778149 0.165896
0.844953 0.803296 0.239338
0.914015 0.807294 0.281041
0.946853 0.815305 0.301717
0.949767 0.813153 0.301915
0.949493 0.810193 0.30016
0.948608 0.806424 0.297505
0.948226 0.804425 0.296223
0.947951 0.803433 0.295521
0.94789 0.802792 0.295109
0.947799 0.802457 0.294881
0.947829 0.802625 0.294972
0.947921 0.803449 0.295476
0.948363 0.805554 0.296849
0.948882 0.808377 0.298695
0.0912337 0.759793 0.342214
0.0900893 0.76054 0.347662
0.0921035 0.759655 0.339345
0.0937362 0.758831 0.331624
0.0955673 0.757992 0.324071
0.0974289 0.757092 0.316136
0.0997482 0.756054 0.306828
0.100786 0.755596 0.302907
0.100786 0.755596 0.302861
0.100816 0.755581 0.302739
0.100908 0.755535 0.302327
0.103487 0.754391 0.291951
0.109895 0.751888 0.268452
0.122866 0.748623 0.232319
0.156649 0.745647 0.180545
0.262806 0.748531 0.141909
0.396353 0.756085 0.128023
0.542062 0.770352 0.134417
0.645243 0.78555 0.158816
0.779202 0.807126 0.213794
0.886152 0.822049 0.271519
0.935225 0.826612 0.30277
0.952316 0.83212 0.314961
0.952163 0.831281 0.314153
0.95201 0.830243 0.313191
0.951949 0.829648 0.312779
0.951919 0.829328 0.312566
0.951888 0.829099 0.312428
0.951873 0.828931 0.312337
0.951888 0.828946 0.312383
0.951919 0.829068 0.312505
0.951965 0.829374 0.312764
0.952026 0.829862 0.313161
0.0881056 0.762234 0.361151
0.0870527 0.762982 0.367071
0.0887922 0.762036 0.358343
0.090425 0.761074 0.349691
0.0923781 0.759991 0.340444
0.0943313 0.758892 0.330922
0.096788 0.75761 0.320211
0.0987411 0.756649 0.311955
0.0989548 0.756542 0.310948
0.0989548 0.756558 0.310964
0.09897 0.756542 0.310918
0.0996414 0.756237 0.308156
0.105119 0.753841 0.286732
0.115023 0.750729 0.254978
0.138689 0.746792 0.203632
0.216907 0.747433 0.154833
0.375326 0.754452 0.129137
0.510109 0.766918 0.130983
0.6159 0.781094 0.1505
0.719081 0.797528 0.18703
0.847639 0.819379 0.2495
0.914107 0.821164 0.289174
0.948348 0.830869 0.312016
0.952407 0.832441 0.315404
0.952453 0.832578 0.315709
0.952468 0.832609 0.315785
0.952483 0.832624 0.315847
0.952499 0.832609 0.315877
0.952514 0.832563 0.315892
0.952529 0.832486 0.315877
0.952514 0.832441 0.315847
0.952544 0.832425 0.315908
0.952544 0.832456 0.315999
0.0865339 0.763607 0.372702
0.0878614 0.764828 0.379294
0.0865797 0.763394 0.370199
0.0882582 0.762341 0.361059
0.0900435 0.761212 0.351354
0.0924086 0.759869 0.339986
0.095079 0.758343 0.327321
0.098024 0.756863 0.314473
0.0989395 0.756405 0.310567
0.0989395 0.756405 0.310567
0.0989548 0.756405 0.310567
0.0989853 0.75639 0.310414
0.102342 0.754849 0.29691
0.111162 0.751888 0.267826
0.131243 0.748257 0.222065
0.183597 0.746532 0.167971
0.344793 0.752255 0.131426
0.495033 0.765103 0.129305
0.596078 0.77789 0.14522
0.682902 0.791638 0.172335
0.792264 0.809384 0.220417
0.891493 0.821866 0.274998
0.938399 0.827665 0.305013
0.952163 0.83209 0.314748
0.952361 0.832135 0.314992
0.952483 0.832273 0.31548
0.952514 0.832364 0.315709
0.952529 0.832364 0.315709
0.952529 0.832364 0.315709
0.952514 0.832364 0.315694
0.952514 0.832349 0.315679
0.952514 0.832334 0.315633
0.952499 0.832303 0.315557
0.0864729 0.764523 0.378408
0.0878004 0.76582 0.385214
0.0864424 0.764202 0.375463
0.0881666 0.763012 0.365286
0.090013 0.76173 0.354589
0.0923171 0.760174 0.342184
0.0951095 0.758389 0.327489
0.0991989 0.756283 0.309377
0.10164 0.755169 0.299825
0.101686 0.755154 0.299687
0.101671 0.755169 0.299748
0.101625 0.755184 0.299916
0.102663 0.754696 0.295567
0.111467 0.752178 0.269566
0.128389 0.749111 0.23061
0.170428 0.746288 0.174838
0.30544 0.75024 0.136721
0.482872 0.763851 0.128389
0.58558 0.776333 0.14284
0.656779 0.787533 0.162951
0.743984 0.801358 0.197742
0.856641 0.817044 0.25481
0.925017 0.824384 0.296345
0.949996 0.831601 0.313313
0.9523 0.832456 0.315145
0.952316 0.832425 0.315145
0.952331 0.83241 0.31519
0.952346 0.832425 0.315221
0.952331 0.832471 0.315236
0.952331 0.832532 0.315297
0.952331 0.832578 0.315312
0.952316 0.832578 0.315282
0.9523 0.832517 0.31519
0.0899367 0.764904 0.374853
0.089601 0.765896 0.38143
0.090837 0.764309 0.369818
0.0924239 0.762783 0.358663
0.0941787 0.761196 0.346044
0.0964523 0.75935 0.331991
0.0995346 0.757168 0.314778
0.10486 0.754391 0.291112
0.109148 0.752728 0.275364
0.10959 0.752544 0.273823
0.109514 0.75256 0.274052
0.109331 0.752621 0.274617
0.109102 0.752697 0.275242
0.116808 0.75108 0.256336
0.131624 0.748714 0.224628
0.169909 0.746303 0.175204
0.284932 0.749462 0.139376
0.467689 0.762356 0.127733
0.578683 0.775387 0.14136
0.636774 0.78436 0.156374
0.706737 0.7953 0.181796
0.826459 0.815641 0.237766
0.909834 0.823209 0.286549
0.943984 0.829679 0.309071
0.952163 0.832486 0.315084
0.9523 0.832547 0.315221
0.9523 0.832547 0.315221
0.9523 0.832563 0.315236
0.9523 0.832624 0.315282
0.9523 0.832685 0.315328
0.952285 0.832731 0.315373
0.952285 0.832761 0.315389
0.952285 0.832731 0.315373
0.0936446 0.764965 0.370733
0.0927749 0.765972 0.377783
0.0940719 0.764294 0.366415
0.095491 0.762661 0.35462
0.0971389 0.761013 0.342123
0.099321 0.759121 0.327688
0.102296 0.756725 0.309102
0.107256 0.753964 0.285832
0.113146 0.751751 0.264866
0.114076 0.751431 0.261662
0.114015 0.751446 0.261875
0.113939 0.751476 0.262089
0.113893 0.751476 0.262196
0.119982 0.750362 0.248112
0.137041 0.747753 0.212879
0.173968 0.746258 0.171725
0.277623 0.749142 0.139971
0.454887 0.761334 0.127596
0.568002 0.77377 0.139132
0.610742 0.780331 0.148989
0.673152 0.790127 0.168872
0.796399 0.8103 0.222248
0.893675 0.82121 0.276646
0.936263 0.827253 0.303792
0.950912 0.832074 0.314137
0.9523 0.832547 0.315206
0.9523 0.832547 0.315221
0.9523 0.832578 0.315236
0.9523 0.832624 0.315282
0.9523 0.832685 0.315328
0.952285 0.832746 0.315373
0.952285 0.832761 0.315389
0.952285 0.832761 0.315389
0.0944686 0.766171 0.377813
0.0962997 0.767315 0.383856
0.0934005 0.76524 0.372839
0.0946365 0.763622 0.361227
0.0962539 0.761944 0.349248
0.0981918 0.760067 0.334829
0.101137 0.757626 0.316152
0.105806 0.754665 0.292042
0.112444 0.751995 0.267353
0.114168 0.751415 0.261402
0.114168 0.751415 0.261402
0.114168 0.751415 0.261402
0.114168 0.751415 0.261402
0.117617 0.750744 0.253361
0.133257 0.748287 0.220295
0.160739 0.74548 0.17612
0.25388 0.748394 0.144228
0.42649 0.758602 0.127245
0.55816 0.772366 0.137301
0.602014 0.779019 0.146853
0.657633 0.787717 0.163516
0.775174 0.806668 0.211902
0.87985 0.817761 0.268437
0.9299 0.825437 0.299611
0.949844 0.831586 0.313252
0.9523 0.832532 0.31519
0.9523 0.832547 0.315221
0.9523 0.832578 0.315236
0.9523 0.832624 0.315282
0.9523 0.832685 0.315328
0.952285 0.832746 0.315373
0.952285 0.832761 0.315389
0.952285 0.832761 0.315389
0.0947738 0.767239 0.384314
0.0973831 0.768368 0.3897
0.0927596 0.766155 0.378775
0.0940566 0.764446 0.367056
0.0954604 0.762798 0.355261
0.0972915 0.760906 0.341085
0.100145 0.758434 0.322194
0.104509 0.755306 0.297642
0.111406 0.752346 0.270802
0.114168 0.751415 0.261402
0.114168 0.751415 0.261402
