bundles/resolve-cinematic-luts/Phantom Luts/Ursa G2 Phntm Arri LUTs - V1/Gen5/White Balance Offset (Magenta Boost)/Ursa Utopia Gen 5 WBO.cube
TITLE "Generated by Resolve"
LUT_3D_SIZE 9
0.000762951 0.0280766 0.0361639
0.0202792 0.0268711 0.0364843
0.112932 0.0206607 0.0379644
0.338247 0.00807202 0.0359655
0.591318 0.0102846 0.0685283
0.712703 0.0242924 0.107485
0.723812 0.0352789 0.14757
0.7243 0.0351415 0.147524
0.731304 0.0331273 0.146685
0.00210575 0.0413214 0.0420386
0.0132753 0.0390173 0.0381476
0.0898146 0.03093 0.0365759
0.310292 0.00982681 0.0368811
0.580331 0.00903334 0.0641337
0.714199 0.0238041 0.106371
0.725078 0.0349126 0.147433
0.725093 0.0349126 0.147433
0.73138 0.0330968 0.146654
0 0.139025 0.0493324
0 0.132723 0.0399023
0.0793469 0.141176 0.0327916
0.367193 0.0907149 0.0554818
0.597833 0.0146639 0.03682
0.713069 0.023682 0.0897231
0.717296 0.0241703 0.117433
0.718685 0.0256504 0.124514
0.728695 0.03299 0.138079
0.0102541 0.436484 0.105562
0.0140536 0.436942 0.0958419
0.0239261 0.42945 0.0556039
0.342077 0.440848 0.068986
0.71223 0.414832 0.0964981
0.872358 0.305028 0.149676
0.751461 0.0399786 0.0587625
0.737636 0.0341955 0.07187
0.734997 0.0326238 0.0742199
0.0407721 0.798535 0.314992
0.0677348 0.809369 0.285939
0.0683909 0.805142 0.280491
0.1738 0.812024 0.13637
0.672038 0.757443 0.176303
0.939254 0.740047 0.160632
0.938964 0.679255 0.142245
0.930709 0.655116 0.141115
0.927443 0.644648 0.141756
0.0974441 0.992111 0.470573
0.109636 0.995666 0.428641
0.122408 0.996536 0.412467
0.163439 0.997452 0.359686
0.642908 0.957702 0.237003
0.919799 0.928069 0.282094
0.999969 0.913817 0.303395
0.999969 0.913466 0.300145
0.999969 0.91342 0.301671
0.103883 0.995132 0.485496
0.126757 0.996918 0.426352
0.173968 0.997711 0.356985
0.173831 0.997726 0.357412
0.527642 0.974227 0.220432
0.821897 0.937881 0.270756
0.998703 0.911147 0.297368
0.999969 0.913588 0.297108
0.999969 0.913649 0.295705
0.0896925 0.994232 0.506188
0.115679 0.996002 0.453544
0.183047 0.997314 0.35285
0.183108 0.997314 0.352758
0.420722 0.98526 0.218601
0.7935 0.939925 0.266499
0.982071 0.90811 0.299077
0.999969 0.913481 0.299489
0.999969 0.913695 0.294682
0.0761883 0.99379 0.518181
0.115633 0.996323 0.470649
0.17911 0.997559 0.355093
0.183017 0.997314 0.352712
0.350271 0.990967 0.22388
0.785763 0.940368 0.264942
0.97023 0.908888 0.297978
0.999969 0.913497 0.299367
0.999969 0.913725 0.293858
0 0.0296178 0.047837
0.0182803 0.0282292 0.0533761
0.118257 0.0241703 0.0580758
0.348623 0.0205081 0.0649882
0.601785 0.0171817 0.0938888
0.7178 0.0228275 0.10634
0.728267 0.0340887 0.146838
0.728649 0.033875 0.147005
0.733455 0.032517 0.14638
0.000701915 0.0364691 0.0459297
0.00967422 0.0341344 0.0429847
0.0965744 0.0239261 0.0407416
0.322118 0.0118257 0.0403906
0.585153 0.009308 0.0704509
0.719203 0.0223545 0.10547
0.729152 0.0337377 0.14699
0.729213 0.0337224 0.14699
0.733455 0.032517 0.14638
0 0.121355 0.0771191
0 0.121447 0.0527199
0.0726482 0.127489 0.0335851
0.36051 0.0661479 0.0462196
0.586297 0.0105287 0.0424811
0.714641 0.0231327 0.0941176
0.719203 0.0236973 0.119677
0.726314 0.0339666 0.139681
0.730251 0.0328527 0.141344
0 0.408637 0.139284
0.0065919 0.413626 0.103243
0.0191043 0.41706 0.0687877
0.331472 0.426429 0.0670481
0.731548 0.372839 0.110842
0.861982 0.268315 0.141314
0.739956 0.0337377 0.0692607
0.730694 0.0310979 0.0742657
0.728557 0.0281376 0.0738842
0.00646983 0.774685 0.357046
0.0311894 0.785657 0.311818
0.0641642 0.795712 0.27686
0.154894 0.808164 0.162539
0.668055 0.748608 0.172839
0.93785 0.727291 0.154726
0.931655 0.65803 0.141222
0.924315 0.634806 0.142779
0.921157 0.623499 0.143648
0.0580911 0.985595 0.508614
0.0895399 0.992859 0.471855
0.122728 0.996445 0.41181
0.149172 0.997177 0.378134
0.621027 0.961059 0.233112
0.918624 0.928115 0.282368
0.999969 0.913573 0.301305
0.999969 0.913466 0.30016
0.999969 0.913451 0.300694
0.0605173 0.990723 0.536004
0.0947433 0.994583 0.492943
0.153826 0.997559 0.382986
0.165652 0.997635 0.366308
0.472221 0.980606 0.217472
0.819806 0.938018 0.270405
0.998306 0.910948 0.297353
0.999969 0.913588 0.297108
0.999969 0.913649 0.295857
0.057847 0.990295 0.554345
0.0890974 0.993317 0.511879
0.146761 0.997101 0.404349
0.183108 0.997314 0.352758
0.375769 0.989364 0.223575
0.790097 0.940154 0.265843
0.978408 0.907591 0.299123
0.999969 0.913481 0.299611
0.999969 0.91371 0.294408
0.0557717 0.990417 0.567071
0.076524 0.992569 0.523751
0.134035 0.996948 0.420935
0.183108 0.997314 0.352758
0.31078 0.992966 0.227695
0.781582 0.940551 0.264088
0.968292 0.912306 0.295109
0.999969 0.913497 0.299367
0.999969 0.913725 0.293858
0 0.0345006 0.137407
0.0198367 0.0319371 0.137789
0.127657 0.0287327 0.132296
0.368154 0.0280919 0.150774
0.633631 0.0278172 0.186816
0.726452 0.0309148 0.167941
0.728923 0.0350958 0.143847
0.729259 0.0349126 0.144106
0.734096 0.033463 0.143557
0 0.0341802 0.100969
0 0.0333715 0.130053
0.104128 0.0282597 0.116884
0.350545 0.0241093 0.116503
0.619837 0.0246586 0.147433
0.726833 0.0313268 0.144396
0.729519 0.034699 0.144472
0.729549 0.0345159 0.144579
0.733974 0.0332799 0.144106
0 0.110811 0.118471
0 0.107256 0.115557
0.0824598 0.11104 0.121157
0.360754 0.0812848 0.105364
0.588129 0.0141451 0.0831769
0.715129 0.0231937 0.0986648
0.726268 0.0338293 0.139544
0.726284 0.033814 0.143374
0.730907 0.0336461 0.144579
0 0.375433 0.218387
0 0.372183 0.1879
0 0.378714 0.118303
0.336156 0.39707 0.0739452
0.730694 0.32372 0.12546
0.849149 0.231525 0.131487
0.729 0.0296178 0.0739452
0.721019 0.0246738 0.0738231
0.721736 0.0228428 0.0760662
0 0.736812 0.432807
0 0.743862 0.39147
0.0198062 0.762997 0.305562
0.127718 0.794324 0.182574
0.663539 0.731701 0.166613
0.934356 0.707012 0.147585
0.92311 0.630732 0.142611
0.916823 0.608499 0.145586
0.914565 0.597757 0.146212
0.0226291 0.965896 0.572
0.0225834 0.974548 0.535866
0.0836652 0.99234 0.474495
0.128695 0.996475 0.406394
0.569146 0.968261 0.224979
0.916564 0.928161 0.282856
0.999969 0.913497 0.30042
0.999969 0.912215 0.298711
0.999969 0.909575 0.295766
0.0552834 0.986282 0.617426
0.0505837 0.987823 0.58085
0.0808728 0.993393 0.503212
0.156405 0.997452 0.375647
0.378637 0.9897 0.223468
0.815656 0.93817 0.269551
0.997528 0.910643 0.297292
0.999969 0.913588 0.297108
0.999969 0.913649 0.295613
0.0667277 0.987259 0.633051
0.0610056 0.988632 0.596201
0.0844892 0.992645 0.517937
0.183108 0.997314 0.352758
0.301778 0.993347 0.228779
0.783047 0.940551 0.264424
0.97171 0.907149 0.29929
0.999969 0.913466 0.299886
0.999969 0.91368 0.294774
0.0662699 0.98735 0.644526
0.0608988 0.988647 0.608164
0.0738384 0.99173 0.529519
0.183108 0.997314 0.352758
0.267155 0.996017 0.266407
0.774685 0.941115 0.262867
0.964675 0.919509 0.290089
0.999969 0.913497 0.299367
0.999969 0.913741 0.293446
0 0.0518654 0.35877
0.0179751 0.0480659 0.358755
0.151797 0.0400549 0.35256
0.388418 0.0395514 0.346273
0.64123 0.0622873 0.388113
0.732815 0.0687572 0.395972
0.73373 0.0653391 0.379416
0.734203 0.0633402 0.369879
0.737484 0.0611276 0.365408
0 0.0509194 0.345159
0 0.0509957 0.35285
0.107073 0.0421149 0.349966
0.370748 0.0389868 0.328771
0.634272 0.0576333 0.360006
0.734661 0.0617227 0.360189
0.734401 0.0536812 0.328618
0.734218 0.0511177 0.319234
0.737072 0.0490425 0.316258
0 0.0860151 0.275639
0 0.0705272 0.298528
0.0147402 0.0507057 0.346807
0.339117 0.0383764 0.304891
0.61622 0.0498207 0.31426
0.732448 0.0532082 0.325475
0.731701 0.0450752 0.290211
0.731212 0.0434424 0.283192
0.734051 0.0415351 0.280018
0 0.354147 0.341726
0 0.349096 0.337362
0 0.338979 0.328939
0.357855 0.358785 0.365576
0.706706 0.32549 0.33286
0.845655 0.226062 0.254871
0.727565 0.0289769 0.0742657
0.719966 0.0234379 0.0731365
0.721355 0.0227665 0.0790875
0 0.70396 0.543099
0 0.703044 0.528664
0 0.700328 0.492042
0 0.722393 0.374319
0.679133 0.688975 0.238102
0.932418 0.638804 0.243702
0.918532 0.614771 0.144991
0.912505 0.58851 0.148501
0.910704 0.575463 0.149737
0.0224613 0.935699 0.679103
0.0148318 0.939513 0.659678
0.00976577 0.945907 0.615702
0.0373999 0.970443 0.503899
0.418418 0.988556 0.249241
0.936492 0.928176 0.299001
0.999969 0.911864 0.298512
0.999969 0.90428 0.290272
0.999969 0.900847 0.286793
0.0735485 0.981903 0.734539
0.0658732 0.982864 0.712001
0.0554055 0.983871 0.662623
0.0582589 0.9906 0.521477
0.281025 0.996231 0.265095
0.813031 0.938445 0.26978
0.996429 0.910597 0.297307
0.999969 0.913588 0.297108
0.999969 0.913649 0.295613
0.118746 0.984955 0.750362
0.0936751 0.984939 0.724681
0.0750134 0.985382 0.671901
0.0757 0.991455 0.52871
0.247669 0.996735 0.283238
0.774685 0.941009 0.262882
0.966384 0.915373 0.293706
0.999969 0.913466 0.300069
0.999969 0.91368 0.295064
0.13283 0.985687 0.761578
0.100175 0.985183 0.735042
0.0754864 0.985443 0.681544
0.0690013 0.990417 0.540246
0.209201 0.997406 0.322454
0.759976 0.942229 0.260609
0.94699 0.924727 0.286152
0.999969 0.913497 0.299367
0.999969 0.913725 0.293858
0.010544 0.068101 0.597681
0.0952316 0.0643015 0.597971
0.236713 0.0577401 0.595895
0.429419 0.0541085 0.589487
0.664073 0.0746471 0.580957
0.736904 0.0897383 0.603815
0.737652 0.0908675 0.633158
0.73817 0.0906386 0.632563
0.743008 0.0885786 0.636637
0 0.069398 0.589456
0.0188144 0.0675212 0.594507
0.186709 0.0597848 0.596735
0.407645 0.0537881 0.588891
0.65687 0.0732738 0.572702
0.736202 0.089189 0.589975
0.737285 0.0902571 0.617517
0.737636 0.0899367 0.614847
0.742031 0.087953 0.617258
0 0.067216 0.550057
0 0.068864 0.575479
0.0910506 0.0639963 0.593805
0.362051 0.0531472 0.584604
0.639506 0.0697948 0.556848
0.733608 0.088838 0.566247
0.734707 0.0895247 0.585657
0.734508 0.0893416 0.581811
0.737575 0.0879683 0.582834
0 0.307973 0.52433
0 0.292393 0.531929
0 0.262745 0.541436
0.307042 0.197864 0.659922
0.680598 0.183169 0.607355
0.754513 0.113878 0.540261
0.73341 0.0882124 0.526513
0.732403 0.0876326 0.523629
0.734005 0.0864576 0.522789
0 0.68162 0.654169
0 0.679942 0.65333
0 0.675349 0.648875
0 0.670375 0.647196
0.650721 0.636301 0.63621
0.924498 0.6159 0.608591
0.923873 0.567681 0.543145
0.921599 0.543969 0.520302
0.919249 0.53106 0.510964
0.0358129 0.908751 0.777035
0.0284428 0.909834 0.770581
0.0238956 0.909972 0.755215
0.0174105 0.910643 0.719493
0.429221 0.934707 0.644388
0.89546 0.902235 0.59498
0.975586 0.880934 0.591089
0.98529 0.878141 0.486259
0.984756 0.874006 0.473793
0.23151 0.979706 0.853849
0.207233 0.980392 0.847105
0.160586 0.980743 0.829648
0.0796368 0.979599 0.77467
0.247776 0.994141 0.669856
0.786175 0.974609 0.603189
0.993576 0.927031 0.49247
0.999969 0.913451 0.300114
0.999969 0.913527 0.298772
0.375433 0.977646 0.876265
0.354635 0.978439 0.86804
0.309834 0.980575 0.849012
0.182025 0.984298 0.789166
0.1552 0.991028 0.663111
0.720363 0.982223 0.590021
0.965118 0.925841 0.436393
0.999969 0.913451 0.301991
0.999969 0.913634 0.296101
0.384924 0.976959 0.880735
0.364721 0.978042 0.872435
0.319448 0.980163 0.85333
0.189029 0.984253 0.79321
0.0975814 0.98735 0.65745
0.673594 0.986007 0.560723
0.956283 0.934264 0.399771
0.999969 0.913619 0.300664
0.999969 0.913725 0.293858
0.185168 0.0800488 0.750469
0.237415 0.0786145 0.753262
0.335912 0.0769665 0.758587
0.492302 0.0779889 0.763287
0.681071 0.0921035 0.750957
0.737575 0.104936 0.757336
0.730785 0.0999313 0.758312
0.730892 0.100343 0.759152
0.736965 0.0977493 0.767285
0.131044 0.081651 0.7467
0.188724 0.0798657 0.750439
0.299504 0.0774548 0.757198
0.468605 0.0775006 0.763287
0.671458 0.0896162 0.750225
0.737301 0.104646 0.75375
0.730312 0.0997482 0.755489
0.730953 0.0995193 0.756832
0.73727 0.096788 0.764843
0.11342 0.0820172 0.741802
0.112657 0.0819562 0.744442
0.216892 0.078996 0.751995
0.417441 0.0767071 0.760952
0.650278 0.0867475 0.749752
0.734249 0.10518 0.742809
0.727337 0.100603 0.744991
0.728084 0.100221 0.745113
0.734874 0.0972763 0.752789
0 0.191211 0.6907
0 0.156954 0.699626
0 0.112795 0.701244
0.301625 0.0791943 0.751858
0.606622 0.085771 0.752407
0.743175 0.109392 0.731929
0.730343 0.0992294 0.729381
0.729839 0.0986648 0.728191
0.735027 0.0961776 0.734401
0 0.641901 0.799374
0 0.636851 0.801999
0 0.624903 0.801251
0 0.611505 0.806134
0.646967 0.584909 0.909255
0.917952 0.560159 0.852216
0.913008 0.482979 0.849989
0.906188 0.447807 0.841749
0.901595 0.42887 0.837751
0.0475013 0.891325 0.859159
0.0395514 0.892287 0.860761
0.0375677 0.890578 0.858747
0.0349584 0.88629 0.854124
0.489296 0.873808 0.855329
0.869764 0.854383 0.851072
0.960861 0.844587 0.83801
0.959381 0.832746 0.825528
0.95845 0.827237 0.822507
0.349676 0.974075 0.913817
0.340887 0.974105 0.912566
0.325963 0.974563 0.908278
0.290257 0.975036 0.896605
0.471061 0.969268 0.88217
0.786923 0.970748 0.865904
0.9664 0.959823 0.842313
0.98024 0.955428 0.854612
0.979934 0.954513 0.851728
0.544381 0.970062 0.931579
0.535592 0.970367 0.930755
0.521477 0.970764 0.92697
0.486961 0.972137 0.916228
0.485924 0.972869 0.896681
0.75079 0.974945 0.878386
0.936767 0.966857 0.845609
0.986481 0.958511 0.810712
0.986053 0.957809 0.801328
0.549279 0.970169 0.934707
0.541405 0.970169 0.932509
0.526162 0.970642 0.92845
0.488594 0.97203 0.916854
0.434974 0.975128 0.892287
0.713497 0.974762 0.870649
0.917357 0.968338 0.835996
0.982864 0.95729 0.798718
0.987686 0.955306 0.776135
0.434546 0.105638 0.801358
0.449592 0.102571 0.800977
0.506386 0.10692 0.807218
0.620264 0.12137 0.812589
0.756374 0.147829 0.805478
0.768658 0.145205 0.800137
0.752544 0.124468 0.784863
0.763531 0.14081 0.794797
0.773312 0.145144 0.806073
0.418326 0.108141 0.801022
0.431952 0.103944 0.801205
0.484092 0.106249 0.805936
0.600992 0.118746 0.814023
0.749722 0.145632 0.806149
0.767651 0.14374 0.799283
0.751675 0.123201 0.784115
0.753582 0.124514 0.786084
0.761425 0.12575 0.795468
0.39826 0.105547 0.797772
0.397757 0.104128 0.798993
0.436683 0.100771 0.799374
0.558297 0.111528 0.811795
0.730541 0.138674 0.805951
0.760922 0.139727 0.791714
0.746822 0.122911 0.778302
0.747875 0.123293 0.779477
0.753567 0.120958 0.786892
0.304082 0.142885 0.816297
0.334661 0.124987 0.810101
0.347204 0.10396 0.795911
0.465034 0.094377 0.79588
0.677791 0.118486 0.803265
0.750423 0.128054 0.781506
0.742031 0.119783 0.773037
0.741863 0.119112 0.772992
0.747311 0.116365 0.78027
0 0.643244 0.855741
0 0.643793 0.862715
0.0415503 0.641413 0.869444
0.2439 0.631937 0.902861
0.730068 0.570138 0.962921
0.92224 0.547295 0.938506
0.913207 0.483864 0.928695
0.90425 0.44625 0.921218
0.898131 0.42707 0.918593
0.13608 0.890532 0.95169
0.135592 0.890364 0.955917
0.145357 0.886519 0.957763
0.168582 0.877485 0.960693
0.526116 0.863218 0.945129
0.876692 0.831083 0.963897
0.957794 0.821363 0.945266
0.956237 0.806363 0.943923
0.954696 0.800229 0.943999
0.401282 0.969497 0.948058
0.395834 0.969451 0.948959
0.388312 0.969192 0.948623
0.372763 0.96846 0.947143
0.510704 0.960327 0.942565
0.816602 0.950301 0.943694
0.952834 0.945022 0.942779
0.971786 0.943618 0.940597
0.970535 0.941985 0.939834
0.634897 0.970214 0.954833
0.63061 0.970397 0.955581
0.625696 0.970367 0.954635
0.616236 0.970123 0.951934
0.61976 0.969696 0.947616
0.826032 0.970443 0.950759
0.934981 0.972274 0.94638
0.97499 0.970932 0.943008
0.976684 0.971191 0.94583
0.641657 0.969955 0.955673
0.636362 0.970321 0.956542
0.630182 0.970382 0.955444
0.617319 0.970153 0.952178
0.604425 0.970016 0.946502
0.805707 0.969909 0.949142
0.923903 0.972366 0.947112
0.967559 0.970596 0.940749
0.975662 0.971298 0.941207
0.587213 0.224002 0.880323
0.610071 0.230091 0.884489
0.657969 0.241077 0.887846
0.748211 0.259052 0.884855
0.846845 0.282795 0.876143
0.846479 0.276326 0.872709
0.806241 0.20061 0.835615
0.8047 0.201389 0.833188
0.807843 0.199817 0.838148
0.5673 0.217838 0.876631
0.589761 0.224643 0.881788
0.637217 0.236591 0.887144
0.732372 0.255665 0.886351
0.845258 0.28127 0.875929
0.847456 0.27863 0.873594
0.806271 0.20061 0.83563
0.806485 0.200504 0.835981
0.808927 0.199283 0.839826
0.54406 0.210056 0.870832
0.553643 0.213306 0.875853
0.598352 0.226856 0.883009
0.700694 0.249546 0.887861
0.832029 0.277714 0.876936
0.848585 0.283665 0.873182
0.804135 0.201663 0.832288
0.804486 0.201495 0.832853
0.808057 0.19971 0.838468
0.557519 0.252644 0.891615
0.547936 0.222141 0.879866
0.545174 0.211505 0.874754
0.642176 0.238193 0.88751
0.798795 0.269261 0.881148
0.850767 0.288777 0.875212
0.803952 0.203647 0.831678
0.803326 0.202045 0.831281
0.807111 0.200198 0.836896
0.4589 0.659663 0.929366
0.476402 0.649729 0.93518
0.491737 0.627558 0.94287
0.564095 0.602045 0.958068
0.801404 0.574701 0.958709
0.925536 0.563317 0.939956
0.921752 0.528176 0.93521
0.917174 0.502953 0.931716
0.913664 0.491798 0.931548
0.416312 0.889708 0.967407
0.424186 0.887739 0.967132
0.438987 0.883131 0.965011
0.454444 0.8719 0.959335
0.619837 0.857313 0.935927
0.905547 0.825895 0.967651
0.957519 0.820356 0.958801
0.957244 0.808652 0.956847
0.954528 0.802945 0.957885
0.554192 0.961563 0.966537
0.553536 0.961334 0.967834
0.555978 0.960388 0.968109
0.563302 0.9579 0.968383
0.631937 0.952728 0.967666
0.830427 0.947951 0.967269
0.952987 0.939162 0.967773
0.970092 0.937835 0.964233
0.969055 0.936172 0.964813
0.687068 0.970428 0.964324
0.681407 0.970764 0.965942
0.676417 0.970779 0.965682
0.667964 0.97081 0.964584
0.66598 0.970687 0.963256
0.834318 0.970718 0.965179
0.941894 0.968048 0.965698
0.973465 0.966964 0.965316
0.976074 0.966842 0.965347
0.708568 0.970794 0.965957
0.703883 0.971084 0.967163
0.699596 0.970977 0.966796
0.691844 0.970672 0.964981
0.683955 0.970352 0.9626
0.833814 0.97081 0.964797
0.938964 0.971618 0.966567
0.968154 0.972229 0.966506
0.975067 0.972168 0.965957
0.59266 0.225299 0.881148
0.614862 0.231159 0.884901
0.662577 0.241962 0.887907
0.752453 0.259831 0.884398
0.847761 0.283452 0.876295
0.845396 0.274144 0.871717
0.806226 0.200626 0.835554
0.805539 0.200961 0.834501
0.808103 0.199695 0.838544
0.572259 0.219562 0.877775
0.594415 0.225757 0.882383
0.64184 0.237552 0.887358
0.736431 0.256428 0.886152
0.846647 0.281895 0.875898
0.846983 0.277287 0.873198
0.806271 0.20061 0.83563
0.806592 0.200458 0.836133
0.809277 0.199115 0.840375
0.544045 0.21004 0.87097
0.558618 0.214908 0.876616
0.603098 0.228229 0.883726
0.704616 0.250233 0.887617
0.834363 0.278416 0.8766
0.848157 0.282887 0.872786
0.804135 0.201663 0.832288
0.804486 0.201495 0.832853
0.808057 0.19971 0.838468
0.551171 0.230747 0.881498
0.543954 0.210285 0.874159
0.544762 0.210208 0.874144
0.641443 0.237415 0.887175
0.798276 0.269169 0.881041
0.850782 0.288869 0.875166
0.803983 0.203662 0.831708
0.803357 0.202014 0.831357
0.807111 0.200198 0.836896
0.492058 0.629679 0.941253
0.498695 0.617731 0.946136
0.514076 0.592264 0.953292
0.576699 0.565332 0.96051
0.79913 0.541711 0.956359
0.920882 0.530358 0.936507
0.914458 0.489937 0.930037
0.907668 0.459861 0.924239
0.903319 0.447166 0.923033
0.469322 0.881102 0.960815
0.465003 0.878447 0.960983
0.459266 0.871962 0.958938
0.449119 0.858396 0.954192
0.615778 0.84184 0.928084
0.907515 0.809552 0.966323
0.955291 0.804685 0.957656
0.954589 0.792966 0.955962
0.952682 0.78793 0.956786
0.616312 0.957107 0.966583
0.612802 0.956878 0.96788
0.609354 0.955886 0.968185
0.601862 0.95314 0.968078
0.650507 0.948882 0.967956
0.828916 0.945235 0.96672
0.954086 0.935073 0.968124
0.969116 0.934218 0.965957
0.968368 0.932433 0.966201
0.705623 0.97081 0.966384
0.701076 0.97113 0.968078
0.697887 0.97113 0.968154
0.69218 0.971069 0.968017
0.693492 0.971054 0.968048
0.839124 0.970138 0.970306
0.940078 0.967468 0.97116
0.971588 0.965866 0.969955
0.975128 0.965621 0.969284
0.724971 0.970687 0.96698
0.722606 0.971008 0.968246
0.722377 0.971038 0.968338
0.722377 0.971038 0.968338
0.726741 0.971069 0.968383
0.845594 0.971572 0.97052
0.93753 0.972061 0.971801
0.967102 0.972351 0.972122
0.975052 0.972229 0.971496
