bundles/resolve-cinematic-luts/Phantom Luts/Ursa G2 Phntm Arri LUTs - V1/Gen5/White Balance Offset (Magenta Boost)/Ursa Neutral Gen 5-Legacy WBO.cube
TITLE "Generated by Resolve"
LUT_3D_SIZE 5
0.0182803 0.0181888 0.018265
0.131319 0.0256657 0.0364843
0.65861 0.00802625 0.120134
0.822583 0.0257725 0.188067
0.822583 0.0257725 0.188067
0.0292973 0.12488 0.0555123
0.0943465 0.123919 0.0327153
0.625864 0.0107271 0.0739452
0.821927 0.00221256 0.16289
0.822416 0.0175631 0.179477
0.115312 0.732754 0.298436
0.127825 0.733455 0.278172
0.570764 0.744961 0.150179
0.935836 0.641016 0.0755169
0.927749 0.596979 0.0925917
0.157122 0.941604 0.436713
0.2 0.935134 0.340749
0.401572 0.931182 0.245533
0.954971 0.928862 0.198276
0.958419 0.929427 0.198734
0.153872 0.943221 0.470451
0.200351 0.935103 0.340291
0.27187 0.931868 0.255146
0.918212 0.923583 0.207401
0.958419 0.929427 0.198734
0.0361181 0.0208133 0.119417
0.152834 0.0289311 0.124636
0.711162 0.0294194 0.219593
0.822492 0.0202182 0.182254
0.822507 0.0208438 0.18291
0.0295262 0.10338 0.099733
0.103593 0.0984207 0.100649
0.631266 0.0219577 0.128145
0.822461 0.0193179 0.181323
0.822538 0.0230716 0.185275
0.0360418 0.676966 0.377783
0.0977188 0.684031 0.287221
0.554833 0.712688 0.140124
0.924498 0.57705 0.0994278
0.919295 0.536706 0.111299
0.09897 0.948623 0.556817
0.14551 0.942809 0.456031
0.300282 0.931594 0.255634
0.952911 0.928557 0.198688
0.958419 0.929427 0.198734
0.109377 0.949218 0.583719
0.14583 0.944167 0.481132
0.23122 0.932937 0.289921
0.901335 0.925887 0.20737
0.958419 0.929427 0.198734
0.160769 0.0306401 0.616342
0.316335 0.0348669 0.605859
0.790051 0.0570382 0.64271
0.870176 0.053666 0.732509
0.869535 0.0538186 0.728817
0.0880446 0.0270695 0.557595
0.209155 0.0327459 0.595041
0.73698 0.0535134 0.600504
0.856077 0.0579232 0.657954
0.853864 0.0585031 0.646738
0.0353704 0.61825 0.599741
0.0351263 0.607599 0.591684
0.60708 0.576867 0.592065
0.909957 0.500465 0.507439
0.906538 0.458946 0.480507
0.258732 0.946868 0.849439
0.201282 0.947448 0.814511
0.246494 0.95172 0.6327
0.954345 0.935561 0.401465
0.958419 0.929427 0.198734
0.384131 0.946349 0.880018
0.328084 0.948013 0.847608
0.113115 0.949493 0.604364
0.899916 0.935256 0.299947
0.958419 0.929427 0.198734
0.566339 0.10396 0.878798
0.630869 0.0988479 0.885222
0.90724 0.126452 0.90724
0.892103 0.0734417 0.892103
0.902937 0.110277 0.902937
0.517555 0.0898146 0.868284
0.546151 0.0801404 0.868864
0.886946 0.106096 0.901473
0.891402 0.0712291 0.891417
0.891554 0.0716869 0.891554
0.0750744 0.539696 0.904799
0.194049 0.520226 0.913252
0.767895 0.474922 0.938598
0.941665 0.383719 0.941665
0.938308 0.319493 0.938308
0.406271 0.947982 0.944732
0.393912 0.948074 0.944274
0.48983 0.945846 0.940444
0.945266 0.941329 0.944457
0.951186 0.938384 0.941848
0.632029 0.944915 0.944915
0.622797 0.944869 0.944747
0.586557 0.944686 0.940627
0.924773 0.951141 0.944762
0.951598 0.951598 0.936141
0.633646 0.152193 0.899947
0.713252 0.164889 0.91136
0.922988 0.197559 0.922988
0.907851 0.128832 0.907851
0.907851 0.128832 0.907851
0.584268 0.140429 0.891234
0.644938 0.154482 0.901778
0.922225 0.193454 0.922225
0.907851 0.128832 0.907851
0.907851 0.128832 0.907851
0.516594 0.52015 0.915648
0.540597 0.478126 0.921508
0.841184 0.440513 0.939879
0.941604 0.38175 0.941604
0.939132 0.332326 0.939132
0.602152 0.942702 0.944854
0.59675 0.941466 0.944869
0.630686 0.937011 0.944884
0.950408 0.93225 0.952209
0.95227 0.929625 0.95227
0.712596 0.94609 0.94609
0.712596 0.94609 0.94609
0.712596 0.94609 0.94609
0.936217 0.951324 0.951324
0.951553 0.951553 0.951553
