bundles/resolve-cinematic-luts/Phantom Luts/Ursa G2 Phntm Arri LUTs - V1/Gen5/White Balance Offset (Magenta Boost)/Ursa Neutral Gen 5-Legacy WBO.cube
TITLE "Generated by Resolve"
LUT_3D_SIZE 9
0.0182803 0.0181888 0.018265
0.0419776 0.0203861 0.0203555
0.131319 0.0256657 0.0364843
0.337026 0.0306859 0.0703288
0.65861 0.00802625 0.120134
0.821134 0 0.156359
0.822583 0.0257725 0.188067
0.822583 0.0257725 0.188067
0.822583 0.0257725 0.188067
0.0233616 0.0412909 0.0304723
0.0360571 0.0398413 0.0235599
0.108003 0.0394446 0.0290074
0.30837 0.0221714 0.0542153
0.636225 0.0099794 0.116075
0.821027 0 0.155154
0.822583 0.0257725 0.188067
0.822583 0.0257725 0.188067
0.822583 0.0257725 0.188067
0.0292973 0.12488 0.0555123
0.0289464 0.120485 0.0488136
0.0943465 0.123919 0.0327153
0.321233 0.093019 0.049485
0.625864 0.0107271 0.0739452
0.820447 0 0.14229
0.821927 0.00221256 0.16289
0.82211 0.0080415 0.169299
0.822416 0.0175631 0.179477
0.0575113 0.350683 0.13225
0.0590372 0.349813 0.125505
0.0631113 0.34197 0.09897
0.275227 0.374014 0.0722667
0.69189 0.347906 0.0941482
0.894514 0.230381 0.108736
0.846265 0 0.100252
0.830304 0 0.114397
0.826062 0 0.116793
0.115312 0.732754 0.298436
0.129519 0.741176 0.281804
0.127825 0.733455 0.278172
0.167544 0.739895 0.178332
0.570764 0.744961 0.150179
0.941772 0.731029 0.0674296
0.935836 0.641016 0.0755169
0.930404 0.612009 0.0870222
0.927749 0.596979 0.0925917
0.146487 0.940871 0.426337
0.166857 0.938659 0.396796
0.174441 0.937774 0.384253
0.192493 0.935592 0.349157
0.505165 0.931289 0.239185
0.846708 0.941512 0.202182
0.958404 0.92958 0.203082
0.958419 0.929427 0.198734
0.958419 0.929427 0.198734
0.157122 0.941604 0.436713
0.178164 0.938247 0.391653
0.2 0.935134 0.340749
0.197681 0.935332 0.344686
0.401572 0.931182 0.245533
0.713924 0.940032 0.216144
0.954971 0.928862 0.198276
0.958419 0.929427 0.198734
0.958419 0.929427 0.198734
0.148959 0.942962 0.456382
0.168688 0.939849 0.414008
0.200549 0.935088 0.339818
0.200549 0.935088 0.339818
0.320058 0.931365 0.251759
0.677287 0.937438 0.219699
0.935042 0.925948 0.20296
0.958419 0.929427 0.198734
0.958419 0.929427 0.198734
0.153872 0.943221 0.470451
0.162387 0.940826 0.426673
0.200351 0.935103 0.340291
0.200549 0.935088 0.339818
0.27187 0.931868 0.255146
0.668193 0.936645 0.220905
0.918212 0.923583 0.207401
0.958419 0.929427 0.198734
0.958419 0.929427 0.198734
0.0187991 0.0182193 0.0366217
0.0453651 0.0207675 0.0412146
0.137438 0.0268864 0.0568093
0.344839 0.0331731 0.0891737
0.66627 0.0217594 0.140978
0.821134 0 0.156024
0.822583 0.0253758 0.187655
0.822583 0.025742 0.188037
0.822583 0.0257725 0.188067
0.0223392 0.0350347 0.0346532
0.0342412 0.0336004 0.033875
0.116487 0.0297398 0.0383459
0.31725 0.0320287 0.0703593
0.640787 0.0115663 0.119829
0.821027 0 0.155047
0.822583 0.0257725 0.188067
0.822583 0.0257725 0.188067
0.822583 0.0257725 0.188067
0.0293431 0.111955 0.071397
0.0273899 0.111925 0.0536965
0.0915847 0.113878 0.0318151
0.320974 0.0735332 0.0473182
0.61622 0.00407416 0.0808423
0.820539 0 0.144656
0.821988 0.00415045 0.165026
0.822446 0.0191043 0.181109
0.822492 0.021149 0.183261
0.0517891 0.327108 0.150637
0.0543984 0.32903 0.126833
0.0599374 0.33022 0.105653
0.266468 0.358831 0.0692302
0.720272 0.304387 0.100694
0.888395 0.191974 0.104906
0.833265 0 0.112612
0.825391 0 0.117128
0.823026 0 0.118364
0.0841688 0.710277 0.322728
0.108705 0.714443 0.29398
0.124514 0.721187 0.273503
0.159838 0.73225 0.199908
0.564294 0.733013 0.146517
0.94313 0.712062 0.0664683
0.930388 0.611948 0.0870222
0.925734 0.584802 0.0969863
0.923354 0.569284 0.102235
0.136507 0.942626 0.462516
0.144457 0.941085 0.429007
0.174716 0.937743 0.38378
0.186557 0.936309 0.36173
0.485069 0.931212 0.24065
0.844236 0.941482 0.20267
0.958419 0.929473 0.200122
0.958419 0.929427 0.198734
0.958419 0.929427 0.198734
0.140856 0.944488 0.484733
0.151202 0.942168 0.443778
0.189242 0.936339 0.362463
0.194858 0.935576 0.349157
0.360586 0.931258 0.248646
0.711208 0.939879 0.216358
0.954208 0.928756 0.198428
0.958419 0.929427 0.198734
0.958419 0.929427 0.198734
0.130037 0.945846 0.500664
0.15845 0.942657 0.464317
0.182788 0.937469 0.380255
0.200549 0.935088 0.339818
0.291371 0.931685 0.254292
0.673625 0.937118 0.220188
0.930892 0.925353 0.204013
0.958419 0.929427 0.198734
0.958419 0.929427 0.198734
0.121614 0.94667 0.510765
0.150408 0.943633 0.475074
0.177081 0.938415 0.394232
0.200549 0.935088 0.339818
0.245777 0.932036 0.257511
0.663966 0.936278 0.2215
0.911818 0.922713 0.209094
0.958419 0.929427 0.198734
0.958419 0.929427 0.198734
0.0361181 0.0208133 0.119417
0.0710155 0.0231022 0.117601
0.152834 0.0289311 0.124636
0.368368 0.0373999 0.161608
0.711162 0.0294194 0.219593
0.823499 0.0293889 0.208942
0.822492 0.0202182 0.182254
0.822507 0.0206149 0.182666
0.822507 0.0208438 0.18291
0.0193027 0.0211185 0.0865034
0.0441291 0.0212406 0.110658
0.131228 0.0276188 0.108568
0.345251 0.0345769 0.131106
0.68127 0.0292821 0.185763
0.822217 0.0242008 0.186877
0.822522 0.0213779 0.183474
0.822522 0.0216678 0.18378
0.822522 0.0218204 0.183948
0.0295262 0.10338 0.099733
0.0290532 0.0995956 0.09691
0.103593 0.0984207 0.100649
0.323201 0.0825055 0.105486
0.631266 0.0219577 0.128145
0.820645 0 0.147463
0.822461 0.0193179 0.181323
0.822538 0.0229801 0.185168
0.822538 0.0230716 0.185275
0.047013 0.300298 0.194278
0.0453651 0.294911 0.173465
0.0491951 0.295293 0.133837
0.266255 0.333394 0.0756237
0.71133 0.260487 0.101839
0.881834 0.154238 0.101396
0.824811 0 0.11751
0.821942 0 0.126284
0.821836 0 0.131212
0.0360418 0.676966 0.377783
0.0541543 0.678172 0.347662
0.0977188 0.684031 0.287221
0.147189 0.71426 0.214206
0.554833 0.712688 0.140124
0.942458 0.683436 0.0657206
0.924498 0.57705 0.0994278
0.920958 0.5514 0.107591
0.919295 0.536706 0.111299
0.0731212 0.946517 0.516167
0.107195 0.944778 0.488945
0.141619 0.94136 0.43267
0.175784 0.937621 0.381918
0.44007 0.931136 0.243397
0.840101 0.941451 0.203525
0.958419 0.929427 0.198734
0.958419 0.929412 0.198215
0.958419 0.929366 0.197162
0.09897 0.948623 0.556817
0.104265 0.947402 0.521324
0.14551 0.942809 0.456031
0.191058 0.935927 0.355138
0.300282 0.931594 0.255634
0.706279 0.93959 0.21677
0.952911 0.928557 0.198688
0.958419 0.929427 0.198734
0.958419 0.929427 0.198734
0.107698 0.94905 0.572335
0.104631 0.948287 0.53492
0.153399 0.943267 0.471092
0.200549 0.935088 0.339818
0.245151 0.932052 0.257786
0.66656 0.936507 0.221134
0.922866 0.924224 0.20618
0.958419 0.929427 0.198734
0.958419 0.929427 0.198734
0.109377 0.949218 0.583719
0.104494 0.948592 0.546532
0.14583 0.944167 0.481132
0.200549 0.935088 0.339818
0.23122 0.932937 0.289921
0.656107 0.935561 0.222736
0.901335 0.925887 0.20737
0.958419 0.929427 0.198734
0.958419 0.929427 0.198734
0.0711986 0.0261082 0.320775
0.116686 0.0270542 0.317449
0.207187 0.0290684 0.31664
0.403296 0.0400092 0.333516
0.73933 0.0506905 0.40061
0.835416 0.0487068 0.415793
0.835752 0.0477607 0.402029
0.835416 0.0457618 0.39237
0.835233 0.0446326 0.386542
0.0546273 0.0252689 0.307759
0.0767071 0.0261387 0.309972
0.173846 0.0280613 0.308232
0.38143 0.0391699 0.31426
0.718044 0.0482185 0.368063
0.834043 0.040589 0.377142
0.833753 0.0377813 0.350118
0.833341 0.036286 0.340734
0.833127 0.0356298 0.336461
0.0245365 0.0650645 0.238392
0.0233921 0.0486458 0.257954
0.107561 0.0263828 0.29691
0.344808 0.041001 0.285649
0.675883 0.0461585 0.319875
0.832502 0.0341955 0.344808
0.831952 0.0340276 0.314717
0.831434 0.0336156 0.3066
0.831113 0.0333257 0.302159
0.0473487 0.283497 0.273518
0.0471199 0.278111 0.268406
0.0466621 0.268696 0.261387
0.309911 0.289967 0.299763
0.673793 0.262196 0.291722
0.865614 0.154726 0.242191
0.82388 0 0.117861
0.821988 0 0.126864
0.821668 0 0.132906
0.034699 0.643946 0.479667
0.0349889 0.639612 0.463493
0.035584 0.632868 0.429374
0.0638895 0.639292 0.333577
0.585885 0.655634 0.205768
0.929198 0.591974 0.200336
0.921431 0.555215 0.106584
0.918227 0.52517 0.113848
0.917006 0.507683 0.117113
0.0652018 0.933806 0.628946
0.062211 0.935317 0.60827
0.0574655 0.939208 0.564462
0.132845 0.942824 0.464851
0.33077 0.93164 0.278462
0.871351 0.942153 0.211429
0.958419 0.929397 0.19794
0.958404 0.929 0.194781
0.95819 0.926925 0.192004
0.115206 0.949355 0.688243
0.109346 0.94931 0.661875
0.099382 0.949111 0.608347
0.134035 0.94403 0.47924
0.24213 0.932708 0.28455
0.699916 0.939193 0.217411
0.951278 0.928313 0.199023
0.958419 0.929427 0.198734
0.958419 0.929427 0.198734
0.156191 0.950439 0.706416
0.133333 0.949996 0.675319
0.115267 0.949599 0.617227
0.142702 0.944503 0.484977
0.22446 0.93344 0.302129
0.654963 0.935454 0.222919
0.906447 0.921996 0.210605
0.958419 0.929427 0.198734
0.958419 0.929427 0.198734
0.166857 0.950637 0.717968
0.137316 0.950057 0.685634
0.116808 0.949676 0.626566
0.135409 0.945296 0.494133
0.205081 0.934752 0.332921
0.638178 0.933974 0.224659
0.880095 0.942061 0.193591
0.958419 0.929427 0.198734
0.958419 0.929427 0.198734
0.160769 0.0306401 0.616342
0.215747 0.0331121 0.608499
0.316335 0.0348669 0.605859
0.488945 0.0364385 0.616526
0.790051 0.0570382 0.64271
0.862013 0.0570687 0.687053
0.870176 0.053666 0.732509
0.869825 0.053727 0.730571
0.869535 0.0538186 0.728817
0.120104 0.0285954 0.609415
0.163302 0.0307774 0.605127
0.274784 0.034226 0.601144
0.46276 0.0360418 0.608148
0.772107 0.0558633 0.62681
0.856992 0.0585031 0.66154
0.865965 0.0548867 0.709117
0.864988 0.0551614 0.703853
0.864286 0.055375 0.70013
0.0880446 0.0270695 0.557595
0.112184 0.0281682 0.587549
0.209155 0.0327459 0.595041
0.414435 0.0355993 0.592126
0.73698 0.0535134 0.600504
0.849531 0.0603189 0.623407
0.856077 0.0579232 0.657954
0.854704 0.0583047 0.65095
0.853864 0.0585031 0.646738
0.0108339 0.215396 0.512749
0.0126955 0.200031 0.522087
0.0152132 0.175509 0.534798
0.317464 0.130404 0.595315
0.696452 0.125216 0.591119
0.845716 0.0782635 0.569345
0.842542 0.0664378 0.572793
0.840909 0.0628977 0.568276
0.84033 0.0624704 0.564004
0.0353704 0.61825 0.599741
0.0352636 0.614588 0.596872
0.0351263 0.607599 0.591684
0.053666 0.593469 0.583734
0.60708 0.576867 0.592065
0.916152 0.557366 0.578576
0.909957 0.500465 0.507439
0.907652 0.474266 0.490181
0.906538 0.458946 0.480507
0.0797589 0.908309 0.747768
0.0781872 0.907988 0.738735
0.074876 0.907408 0.719936
0.0675059 0.906752 0.677012
0.407187 0.909194 0.615656
0.868391 0.91548 0.535637
0.950088 0.894377 0.530602
0.951507 0.89546 0.421866
0.951156 0.891051 0.40412
0.258732 0.946868 0.849439
0.240223 0.947051 0.838834
0.201282 0.947448 0.814511
0.122377 0.948791 0.743847
0.246494 0.95172 0.6327
0.711223 0.940642 0.568948
0.954345 0.935561 0.401465
0.958419 0.929427 0.198734
0.958419 0.929427 0.198734
0.377279 0.946563 0.876707
0.359197 0.947127 0.866697
0.322103 0.948165 0.843992
0.218708 0.950454 0.766262
0.158572 0.950561 0.613901
0.640375 0.938384 0.562127
0.920562 0.931151 0.340291
0.958419 0.929427 0.198734
0.958419 0.929427 0.198734
0.384131 0.946349 0.880018
0.365499 0.946929 0.87042
0.328084 0.948013 0.847608
0.222965 0.950362 0.769909
0.113115 0.949493 0.604364
0.587045 0.93695 0.530648
0.899916 0.935256 0.299947
0.958419 0.929427 0.198734
0.958419 0.929427 0.198734
0.318837 0.0395361 0.82414
0.356756 0.0401617 0.827741
0.440375 0.041001 0.838361
0.596857 0.041886 0.857877
0.851087 0.0584878 0.882383
0.88838 0.0617227 0.88838
0.887312 0.0584573 0.887312
0.887388 0.0586557 0.887388
0.887404 0.0587167 0.887404
0.278279 0.0386053 0.820356
0.318013 0.0395056 0.823255
0.405737 0.0406806 0.833417
0.567086 0.0417334 0.853223
0.836484 0.0572366 0.87982
0.888304 0.0614786 0.888304
0.887068 0.0577096 0.887068
0.887129 0.0578622 0.887129
0.887129 0.0578622 0.887129
0.260731 0.037644 0.817685
0.259663 0.0375677 0.817288
0.334798 0.0397803 0.823713
0.511376 0.0414282 0.844938
0.801343 0.0520485 0.873579
0.888197 0.0610361 0.885603
0.886107 0.0547646 0.886107
0.886046 0.0545663 0.886046
0.885985 0.0544137 0.886
0.012726 0.110521 0.784009
0.027863 0.0812238 0.793423
0.0591897 0.0487373 0.797925
0.397742 0.0403906 0.824079
0.71928 0.0556954 0.859831
0.888823 0.063035 0.871763
0.885557 0.0528878 0.873823
0.88481 0.0506294 0.872862
0.884703 0.050309 0.87332
0 0.547051 0.839246
0 0.537667 0.841871
0 0.522423 0.849363
0 0.502953 0.869245
0.657359 0.48484 0.914733
0.938949 0.470603 0.903578
0.940108 0.377096 0.908766
0.938445 0.339239 0.903319
0.936858 0.315648 0.899351
0.0867475 0.887617 0.865919
0.0859388 0.886 0.86453
0.0845197 0.883146 0.862058
0.0821088 0.877714 0.857939
0.466697 0.863569 0.855268
0.871153 0.846464 0.859297
0.945815 0.831144 0.847608
0.944488 0.813718 0.831769
0.943923 0.805066 0.826825
0.359075 0.946929 0.918349
0.351614 0.946822 0.916304
0.338399 0.946563 0.911971
0.306004 0.945754 0.900221
0.454414 0.944793 0.885557
0.779126 0.949355 0.878569
0.946624 0.950134 0.82707
0.952316 0.949798 0.845365
0.952422 0.949004 0.839979
0.536889 0.944656 0.931991
0.530282 0.944656 0.930358
0.517449 0.944701 0.927443
0.486 0.944808 0.918898
0.467887 0.944183 0.900496
0.734401 0.94725 0.885878
0.92108 0.95111 0.834867
0.953643 0.947982 0.776547
0.953841 0.947478 0.763668
0.541741 0.944656 0.933104
0.534325 0.944656 0.931395
0.52015 0.944686 0.928069
0.486061 0.944808 0.918898
0.416327 0.945296 0.894972
0.691173 0.946166 0.874693
0.899077 0.950317 0.825483
0.953964 0.947158 0.755199
0.954253 0.945861 0.724788
0.566339 0.10396 0.878798
0.573587 0.0936904 0.8766
0.630869 0.0988479 0.885222
0.767422 0.11133 0.899382
0.90724 0.126452 0.90724
0.902647 0.109224 0.902647
0.892103 0.0734417 0.892103
0.899901 0.0995193 0.899901
0.902937 0.110277 0.902937
0.545342 0.100877 0.875257
0.551507 0.0911116 0.873014
0.599252 0.0919051 0.879255
0.733227 0.104067 0.895872
0.904982 0.117861 0.904982
0.900633 0.102022 0.900633
0.891844 0.0726024 0.891844
0.892103 0.0734264 0.892103
0.893797 0.0789502 0.893797
0.517555 0.0898146 0.868284
0.515816 0.0871443 0.867216
0.546151 0.0801404 0.868864
0.673533 0.0917678 0.888289
0.886946 0.106096 0.901473
0.897627 0.0916609 0.897627
0.891402 0.0712291 0.891417
0.891524 0.0715953 0.891524
0.891554 0.0716869 0.891554
0.417212 0.101869 0.859251
0.446983 0.0921492 0.859937
0.464271 0.0790875 0.857893
0.562676 0.062974 0.865415
0.8224 0.0778821 0.891417
0.891737 0.0722515 0.891737
0.890669 0.068864 0.890669
0.890593 0.0686351 0.890593
0.890547 0.0684825 0.890547
0.0750744 0.539696 0.904799
0.116121 0.532845 0.907942
0.194049 0.520226 0.913252
0.353124 0.501686 0.917922
0.767895 0.474922 0.938598
0.941924 0.458686 0.941924
0.941665 0.383719 0.941665
0.939788 0.342947 0.939788
0.938308 0.319493 0.938308
0.198749 0.873976 0.949172
0.202289 0.870832 0.949477
0.209827 0.865095 0.950042
0.230854 0.851606 0.949935
0.514397 0.831876 0.935027
0.90486 0.802228 0.953506
0.952407 0.790799 0.952407
0.951659 0.770001 0.951659
0.951247 0.760067 0.951247
0.406271 0.947982 0.944732
0.401709 0.948028 0.944564
0.393912 0.948074 0.944274
0.379156 0.948135 0.943893
0.48983 0.945846 0.940444
0.811337 0.942672 0.941344
0.945266 0.941329 0.944457
0.951232 0.939803 0.942657
0.951186 0.938384 0.941848
0.627283 0.944884 0.944884
0.624857 0.944884 0.944884
0.620417 0.944839 0.944488
0.610483 0.944778 0.943404
0.599939 0.944656 0.941161
0.821988 0.948837 0.944778
0.933547 0.951354 0.945541
0.951598 0.951598 0.939773
0.951583 0.951583 0.941238
0.632029 0.944915 0.944915
0.628641 0.9449 0.9449
0.622797 0.944869 0.944747
0.609781 0.944778 0.943328
0.586557 0.944686 0.940627
0.795224 0.948089 0.943343
0.924773 0.951141 0.944762
0.951263 0.951614 0.937301
0.951598 0.951598 0.936141
0.628748 0.151049 0.899107
0.653239 0.155962 0.903075
0.708095 0.164218 0.910826
0.831571 0.177722 0.917861
0.922911 0.197131 0.922911
0.920897 0.186572 0.920897
0.907851 0.128832 0.907851
0.907851 0.128832 0.907851
0.907851 0.128832 0.907851
0.607401 0.146014 0.895384
0.631327 0.151583 0.899535
0.683482 0.160739 0.90753
0.807858 0.175082 0.916762
0.922667 0.195804 0.922667
0.921599 0.190234 0.921599
0.907851 0.128832 0.907851
0.907851 0.128832 0.907851
0.907851 0.128832 0.907851
0.584268 0.140429 0.891234
0.594385 0.142748 0.893034
0.640543 0.153552 0.901061
0.761822 0.170489 0.914443
0.922026 0.193072 0.922148
0.922545 0.195193 0.922545
0.907851 0.128832 0.907851
0.907851 0.128832 0.907851
0.907851 0.128832 0.907851
0.590036 0.169741 0.899275
0.585595 0.14609 0.892882
0.584268 0.140429 0.891234
0.685954 0.161181 0.907897
0.890288 0.186038 0.920516
0.923537 0.200534 0.923537
0.907851 0.128832 0.907851
0.907851 0.128832 0.907851
0.907851 0.128832 0.907851
0.497414 0.549859 0.912108
0.505562 0.53727 0.913512
0.521141 0.513024 0.91664
0.582589 0.489006 0.923613
0.84062 0.475624 0.940047
0.941787 0.468208 0.941787
0.942275 0.422797 0.942275
0.941939 0.39379 0.941939
0.941527 0.379644 0.941527
0.437583 0.873671 0.949538
0.447044 0.870222 0.948775
0.461173 0.862409 0.946075
0.452003 0.842115 0.941909
0.612711 0.820813 0.926024
0.928786 0.794751 0.952987
0.952361 0.789563 0.952361
0.951782 0.773129 0.951782
0.951461 0.765118 0.951461
0.55967 0.944747 0.945144
0.560311 0.944381 0.945144
0.562615 0.943664 0.945113
0.569436 0.942123 0.945052
0.625681 0.939391 0.944869
0.832013 0.940307 0.949432
0.949416 0.935821 0.952102
0.952117 0.934554 0.952117
0.952163 0.932906 0.952163
0.680385 0.945449 0.945449
0.677302 0.945403 0.945403
0.672129 0.945327 0.945327
0.661845 0.945174 0.945174
0.650614 0.945052 0.945052
0.83035 0.949218 0.949218
0.937743 0.951339 0.951339
0.951553 0.951553 0.951553
0.951553 0.951553 0.951553
0.701198 0.94583 0.94583
0.698848 0.945785 0.945785
0.69482 0.945708 0.945708
0.686183 0.945541 0.945541
0.671321 0.945312 0.945312
0.827863 0.949157 0.949157
0.936065 0.951324 0.951324
0.951553 0.951553 0.951553
0.951553 0.951553 0.951553
0.633646 0.152193 0.899947
0.658289 0.156909 0.903853
0.713252 0.164889 0.91136
0.836515 0.178271 0.91809
0.922988 0.197559 0.922988
0.92047 0.184451 0.92047
0.907851 0.128832 0.907851
0.907851 0.128832 0.907851
0.907851 0.128832 0.907851
0.612406 0.147189 0.896269
0.63624 0.152728 0.900374
0.68809 0.161456 0.908202
0.81297 0.175677 0.917021
0.922728 0.196185 0.922728
0.921324 0.1888 0.921324
0.907851 0.128832 0.907851
0.907851 0.128832 0.907851
0.907851 0.128832 0.907851
0.584268 0.140429 0.891234
0.598932 0.143893 0.893858
0.644938 0.154482 0.901778
0.766613 0.170993 0.914717
0.922225 0.193454 0.922225
0.922438 0.194583 0.922438
0.907851 0.128832 0.907851
0.907851 0.128832 0.907851
0.907851 0.128832 0.907851
0.587427 0.155535 0.895506
0.584268 0.140429 0.891234
0.584268 0.140429 0.891234
0.685008 0.161013 0.907759
0.889448 0.185855 0.92047
0.923537 0.20058 0.923537
0.907851 0.128832 0.907851
0.907851 0.128832 0.907851
0.907851 0.128832 0.907851
0.516594 0.52015 0.915648
0.525261 0.505837 0.917647
0.540597 0.478126 0.921508
0.593698 0.452476 0.925185
0.841184 0.440513 0.939879
0.942245 0.431662 0.942245
0.941604 0.38175 0.941604
0.940078 0.348043 0.940078
0.939132 0.332326 0.939132
0.46067 0.861341 0.945846
0.457969 0.855756 0.944717
0.45272 0.844144 0.942336
0.44332 0.819654 0.937301
0.60827 0.795254 0.91931
0.9299 0.771237 0.952148
0.951476 0.765621 0.951476
0.950698 0.747951 0.950713
0.950347 0.740032 0.950347
0.602152 0.942702 0.944854
0.600366 0.942245 0.944854
0.59675 0.941466 0.944869
0.588876 0.939742 0.9449
0.630686 0.937011 0.944884
0.828931 0.937896 0.949386
0.950408 0.93225 0.952209
0.952209 0.93138 0.952209
0.95227 0.929625 0.95227
0.692988 0.945678 0.945678
0.691249 0.945647 0.945647
0.687999 0.945586 0.945586
0.681712 0.945464 0.945464
0.675151 0.945357 0.945357
0.836866 0.949386 0.949386
0.938079 0.951354 0.951354
0.951553 0.951553 0.951553
0.951553 0.951553 0.951553
0.712596 0.94609 0.94609
0.712596 0.94609 0.94609
0.712596 0.94609 0.94609
0.712596 0.94609 0.94609
0.712596 0.94609 0.94609
0.843473 0.949538 0.949538
0.936217 0.951324 0.951324
0.951553 0.951553 0.951553
0.951553 0.951553 0.951553
