bundles/resolve-cinematic-luts/Phantom Luts/Ursa G2 Phntm Arri LUTs - V1/Gen5/White Balance Offset (Magenta Boost)/Ursa Neutral Gen 5-Legacy WBO.cube
TITLE "Generated by Resolve"
LUT_3D_SIZE 33
0.0182803 0.0181888 0.018265
0.0182803 0.0181888 0.018265
0.0182803 0.0181888 0.018265
0.0326085 0.0191501 0.0190738
0.0419776 0.0203861 0.0203555
0.0561837 0.0216983 0.0226291
0.0771801 0.0233768 0.0257877
0.101915 0.0246128 0.0304265
0.131319 0.0256657 0.0364843
0.170138 0.027039 0.0437934
0.216815 0.0286717 0.0523842
0.274205 0.0301823 0.0612955
0.337026 0.0306859 0.0703288
0.405127 0.0289006 0.0823072
0.480934 0.0251011 0.0948043
0.565118 0.0180209 0.107256
0.65861 0.00802625 0.120134
0.756802 0 0.133059
0.816266 0 0.141329
0.820386 0 0.148409
0.821134 0 0.156359
0.822065 0.0121767 0.174014
0.822583 0.0257725 0.188067
0.822583 0.0257725 0.188067
0.822583 0.0257725 0.188067
0.822583 0.0257725 0.188067
0.822583 0.0257725 0.188067
0.822583 0.0257725 0.188067
0.822583 0.0257725 0.188067
0.822583 0.0257725 0.188067
0.822583 0.0257725 0.188067
0.822583 0.0257725 0.188067
0.822583 0.0257725 0.188067
0.0182803 0.0181888 0.018265
0.0182803 0.0181888 0.018265
0.0182803 0.0181888 0.018265
0.0265202 0.0186465 0.0185855
0.0373388 0.0197452 0.0197147
0.0496223 0.0209049 0.0210575
0.0711986 0.0223087 0.0234531
0.0970016 0.024506 0.029099
0.127214 0.0253758 0.0356146
0.165606 0.0268864 0.0429236
0.212131 0.0284276 0.0515908
0.26923 0.0301518 0.0605783
0.332662 0.0307317 0.0695964
0.401266 0.0290532 0.0816358
0.476799 0.0254063 0.0941634
0.561028 0.0184176 0.106676
0.654398 0.00851453 0.119585
0.75378 0 0.132662
0.815137 0 0.140948
0.820371 0 0.14818
0.821118 0 0.156069
0.822034 0.0114137 0.17322
0.822583 0.0257725 0.188067
0.822583 0.0257725 0.188067
0.822583 0.0257725 0.188067
0.822583 0.0257725 0.188067
0.822583 0.0257725 0.188067
0.822583 0.0257725 0.188067
0.822583 0.0257725 0.188067
0.822583 0.0257725 0.188067
0.822583 0.0257725 0.188067
0.822583 0.0257725 0.188067
0.822583 0.0257725 0.188067
0.0182803 0.0181888 0.018265
0.0182803 0.0181888 0.018265
0.0182803 0.0181888 0.018265
0.0182803 0.0181888 0.018265
0.0309758 0.0193179 0.0192569
0.04065 0.0208591 0.0205234
0.057908 0.0224308 0.0223697
0.0853437 0.0230716 0.0246738
0.114809 0.0234226 0.0291447
0.154269 0.0248112 0.0372015
0.203128 0.0275731 0.0478523
0.261158 0.0298009 0.0589456
0.328267 0.0304112 0.0683909
0.397223 0.0291295 0.0806592
0.47277 0.0256657 0.0935073
0.557397 0.0188754 0.106142
0.650156 0.00906386 0.11899
0.750439 0 0.132265
0.813886 0 0.14052
0.82034 0 0.147906
0.821088 0 0.155779
0.822003 0.0107881 0.172549
0.822583 0.0257725 0.188067
0.822583 0.0257725 0.188067
0.822583 0.0257725 0.188067
0.822583 0.0257725 0.188067
0.822583 0.0257725 0.188067
0.822583 0.0257725 0.188067
0.822583 0.0257725 0.188067
0.822583 0.0257725 0.188067
0.822583 0.0257725 0.188067
0.822583 0.0257725 0.188067
0.822583 0.0257725 0.188067
0.0207828 0.0318761 0.0231479
0.0205234 0.0308537 0.0225528
0.0199741 0.0272374 0.0199435
0.0249943 0.0281987 0.0202792
0.0341039 0.032105 0.0211643
0.0425422 0.0329442 0.0229191
0.0557565 0.0341039 0.0243381
0.0801099 0.0336614 0.0261234
0.109712 0.0307164 0.0276341
0.144594 0.0248112 0.0318456
0.191821 0.0233616 0.0399786
0.247593 0.0267643 0.052903
0.314534 0.0294041 0.0648661
0.386923 0.0285649 0.0774243
0.465873 0.0256046 0.0916152
0.553307 0.0192569 0.105562
0.645747 0.00962844 0.11841
0.746914 0 0.131807
0.812589 0 0.140093
0.82031 0 0.147662
0.821057 0 0.155474
0.821973 0.0100404 0.171771
0.822583 0.0257725 0.188067
0.822583 0.0257725 0.188067
0.822583 0.0257725 0.188067
0.822583 0.0257725 0.188067
0.822583 0.0257725 0.188067
0.822583 0.0257725 0.188067
0.822583 0.0257725 0.188067
0.822583 0.0257725 0.188067
0.822583 0.0257725 0.188067
0.822583 0.0257725 0.188067
0.822583 0.0257725 0.188067
0.0233616 0.0412909 0.0304723
0.0233158 0.0407263 0.0300603
0.0229953 0.0395666 0.025452
0.0281529 0.0382239 0.0233768
0.0360571 0.0398413 0.0235599
0.04477 0.0408637 0.0240787
0.0593576 0.040589 0.0260166
0.0820172 0.0403906 0.0276951
0.108003 0.0394446 0.0290074
0.144549 0.0339361 0.0307774
0.191745 0.0274662 0.0350347
0.245121 0.0243534 0.0442664
0.30837 0.0221714 0.0542153
0.37763 0.0265202 0.0716106
0.452903 0.0246586 0.0865034
0.540002 0.0187533 0.101183
0.636225 0.0099794 0.116075
0.74342 0 0.131365
0.810849 0 0.139513
0.820279 0 0.147387
0.821027 0 0.155154
0.821927 0.00923171 0.170916
0.822583 0.0257725 0.188067
0.822583 0.0257725 0.188067
0.822583 0.0257725 0.188067
0.822583 0.0257725 0.188067
0.822583 0.0257725 0.188067
0.822583 0.0257725 0.188067
0.822583 0.0257725 0.188067
0.822583 0.0257725 0.188067
0.822583 0.0257725 0.188067
0.822583 0.0257725 0.188067
0.822583 0.0257725 0.188067
0.0254063 0.0529793 0.035935
0.0253147 0.0523232 0.0357061
0.0249943 0.0512856 0.0341497
0.0253605 0.0495308 0.0278172
0.0359655 0.0497444 0.0262455
0.045182 0.0511635 0.0262455
0.0597696 0.0513619 0.0264286
0.0856336 0.0495766 0.0302586
0.11136 0.0482032 0.0315099
0.144778 0.0447852 0.0322728
0.186954 0.0389563 0.0335851
0.242374 0.029633 0.0364233
0.304601 0.0251316 0.0464179
0.371954 0.0211032 0.0565957
0.448646 0.0158083 0.0684977
0.532433 0.0137789 0.0906233
0.624109 0.00689708 0.107744
0.727916 0 0.125811
0.805188 0 0.137362
0.820218 0 0.146487
0.820996 0 0.15462
0.821881 0.00820935 0.169833
0.822583 0.0257725 0.188067
0.822583 0.0257725 0.188067
0.822583 0.0257725 0.188067
0.822583 0.0257725 0.188067
0.822583 0.0257725 0.188067
0.822583 0.0257725 0.188067
0.822583 0.0257725 0.188067
0.822583 0.0257725 0.188067
0.822583 0.0257725 0.188067
0.822583 0.0257725 0.188067
0.822583 0.0257725 0.188067
0.0265812 0.0730755 0.0416876
0.0266575 0.0724193 0.0411536
0.026688 0.0714275 0.0405585
0.0266423 0.0691691 0.0376135
0.0282292 0.0677043 0.0310979
0.0441291 0.0689097 0.0294194
0.0558175 0.0706188 0.0289769
0.0827955 0.0699474 0.0283513
0.116197 0.0650492 0.0350347
0.147768 0.062211 0.0362707
0.193118 0.0550546 0.0377508
0.24593 0.0451362 0.0381628
0.302571 0.036759 0.0408942
0.365759 0.0276341 0.0488136
0.435737 0.019852 0.0610513
0.516365 0.00906386 0.0734569
0.607706 0 0.0871443
0.71339 0 0.104021
0.801389 0 0.133806
0.820096 0 0.14432
0.820813 0 0.15201
0.821607 0.00151064 0.162539
0.822507 0.0222934 0.184482
0.822538 0.0236362 0.185855
0.822568 0.0246586 0.186923
0.822583 0.0256352 0.18793
0.822583 0.0257725 0.188067
0.822583 0.0257725 0.188067
0.822583 0.0257725 0.188067
0.822583 0.0257725 0.188067
0.822583 0.0257725 0.188067
0.822583 0.0257725 0.188067
0.822583 0.0257725 0.188067
0.026627 0.0971237 0.048661
0.0267185 0.0964675 0.047715
0.0267948 0.0957046 0.0475013
0.0269627 0.0940719 0.0449531
0.0272221 0.0919966 0.0409247
0.0333257 0.0918746 0.0318608
0.0541848 0.0930953 0.031693
0.073518 0.0951095 0.0313726
0.10956 0.0941024 0.028687
0.148699 0.0899672 0.0358892
0.19971 0.0791943 0.041825
0.249866 0.0704051 0.0422217
0.313207 0.0576944 0.04477
0.379156 0.0432288 0.0481117
0.446662 0.0281987 0.0539101
0.517662 0.0164492 0.0669261
0.596277 0.00271611 0.0819409
0.692378 0 0.0978103
0.79115 0 0.115434
0.819959 0 0.140642
0.820661 0 0.148013
0.821378 0 0.156588
0.821988 0.00521859 0.166262
0.822339 0.0146181 0.176349
0.822446 0.0190585 0.181048
0.822477 0.0203555 0.182422
0.822492 0.0210727 0.183169
0.822507 0.0216983 0.183841
0.822507 0.0222477 0.184421
0.822522 0.0226444 0.184833
0.822522 0.0231327 0.185351
0.822538 0.0235904 0.185824
0.822538 0.0238956 0.18613
0.0292973 0.12488 0.0555123
0.0294041 0.124239 0.0544137
0.0292973 0.123445 0.0542306
0.0292821 0.122438 0.0533761
0.0289464 0.120485 0.0488136
0.0296941 0.118822 0.0438087
0.042298 0.119203 0.0345159
0.064271 0.121447 0.0349584
0.0943465 0.123919 0.0327153
0.140139 0.122591 0.0287175
0.187854 0.120806 0.035935
0.26305 0.101823 0.0475929
0.321233 0.093019 0.049485
0.386404 0.079469 0.0527504
0.460716 0.0594492 0.0557565
0.54139 0.0314794 0.0574807
0.625864 0.0107271 0.0739452
0.719722 0 0.0968338
0.789441 0 0.112459
0.820569 0 0.119692
0.820447 0 0.14229
0.821103 0 0.149752
0.821759 0 0.158877
0.821897 0.00128176 0.161837
0.821927 0.00221256 0.16289
0.821958 0.0030518 0.163821
0.821988 0.0037995 0.16466
0.822019 0.00480659 0.165759
0.82211 0.0080415 0.169299
0.822232 0.0112459 0.172763
0.822324 0.0140383 0.175738
0.822385 0.0162661 0.178088
0.822416 0.0175631 0.179477
0.03299 0.160937 0.0641947
0.0333562 0.160403 0.0615702
0.0332341 0.159518 0.0613565
0.0331121 0.158724 0.0612039
0.0327153 0.156756 0.0590219
0.0336004 0.153597 0.0542306
0.0344244 0.154116 0.0469062
0.0504005 0.154345 0.0402991
0.0839094 0.158312 0.0400244
0.120867 0.161868 0.0371862
0.180926 0.160662 0.0319524
0.241276 0.159792 0.0403143
0.333242 0.137881 0.0549172
0.409369 0.123476 0.0588388
0.477516 0.112947 0.0619364
0.558175 0.0901198 0.065507
0.648798 0.0532235 0.0690929
0.74873 0.0136873 0.078645
0.816953 0 0.103883
0.824857 0 0.117464
0.822141 0 0.11873
0.820859 0 0.141451
0.821424 0 0.149187
0.821683 0 0.15407
0.821729 0 0.155444
0.821759 0 0.156725
0.821805 0 0.157794
0.82182 0 0.158663
0.821836 0 0.159487
0.821851 0 0.160159
0.821866 0.000289921 0.160723
0.821881 0.000732433 0.161212
0.821897 0.000991836 0.161501
0.0394141 0.208972 0.0797131
0.0401465 0.209125 0.0758373
0.0399786 0.207904 0.0754406
0.0397955 0.206683 0.0750591
0.0396277 0.205585 0.0747539
0.0400092 0.201953 0.0693523
0.0405585 0.198077 0.0632486
0.0416724 0.201053 0.0486763
0.0615854 0.201999 0.0473182
0.108293 0.210101 0.0476844
0.15845 0.216236 0.0442206
0.235966 0.215839 0.0391394
0.31696 0.218067 0.0434119
0.406943 0.2038 0.0652018
0.50898 0.177493 0.0748608
0.594324 0.159365 0.0782635
0.684276 0.136736 0.0821088
0.784527 0.0990921 0.0880751
0.847837 0.0493477 0.0908675
0.851774 0.0083772 0.0912795
0.83772 0 0.109102
0.824414 0 0.117601
0.821103 0 0.136492
0.821363 0 0.142245
0.821393 0 0.143938
0.821439 0 0.14551
0.821469 0 0.146838
0.8215 0 0.147997
0.821515 0 0.148699
0.821546 0 0.149554
0.821576 0 0.150469
0.821591 0 0.151171
0.821607 0 0.151598
0.0479438 0.270771 0.101869
0.0489357 0.271809 0.0981765
0.0490578 0.271138 0.0969558
0.0488746 0.269978 0.0966201
0.048661 0.268498 0.0961471
0.0486305 0.265949 0.0938125
0.0492714 0.261097 0.0864118
0.0504768 0.2598 0.0774701
0.0514687 0.262516 0.0554665
0.0807965 0.267109 0.060502
0.143969 0.27953 0.0602884
0.211521 0.289143 0.0546731
0.30724 0.288502 0.0548562
0.40296 0.290547 0.0487984
0.486854 0.285466 0.0724956
0.607309 0.251362 0.0906844
0.721935 0.220432 0.0937667
0.827115 0.190143 0.0992752
0.882856 0.161685 0.101961
0.879149 0.139361 0.100069
0.870466 0.0922103 0.0961471
0.854185 0.0146639 0.0889601
0.830076 0 0.11458
0.821927 0 0.123415
0.821958 0 0.127718
0.821897 0 0.130648
0.821729 0 0.132143
0.821561 0 0.133425
0.821454 0 0.134463
0.821363 0 0.135454
0.821286 0 0.136385
0.821225 0 0.137179
0.821256 0 0.137819
0.0575113 0.350683 0.13225
0.0587167 0.352026 0.128588
0.0593881 0.352575 0.126421
0.0592203 0.351156 0.125948
0.0590372 0.349813 0.125505
0.058854 0.348241 0.124926
0.0595407 0.344594 0.119219
0.0606851 0.339437 0.110582
0.0631113 0.34197 0.09897
0.063798 0.343709 0.0696269
0.11397 0.352667 0.0773175
0.192493 0.365194 0.075288
0.275227 0.374014 0.0722667
0.386053 0.370626 0.0675822
0.491096 0.373587 0.0490425
0.575891 0.372 0.067628
0.69189 0.347906 0.0941482
0.831281 0.308904 0.110002
0.899794 0.283589 0.114137
0.898405 0.257694 0.111604
0.894514 0.230381 0.108736
0.889082 0.196033 0.105287
0.876234 0.12343 0.0986496
0.850828 0.00694286 0.0932784
0.846265 0 0.100252
0.841642 0 0.10576
0.837613 0 0.109194
0.833509 0 0.112444
0.830304 0 0.114397
0.827939 0 0.115846
0.827268 0 0.116213
0.826612 0 0.11664
0.826062 0 0.116793
0.0664988 0.439277 0.166888
0.0682383 0.440879 0.162737
0.0697795 0.442832 0.159396
0.0696574 0.441627 0.158923
0.0695354 0.440284 0.158358
0.0693523 0.438605 0.157717
0.0691844 0.436698 0.156847
0.0707256 0.43212 0.148623
0.0727855 0.427649 0.138735
0.0771649 0.434684 0.123507
0.10013 0.437324 0.0917983
0.155718 0.446036 0.0966506
0.253285 0.456535 0.100084
0.348455 0.464118 0.0913863
0.465248 0.455375 0.0819409
0.576959 0.459342 0.043473
0.668971 0.458122 0.053315
0.773816 0.446769 0.0914015
0.875853 0.422156 0.120134
0.911421 0.39472 0.127367
0.908644 0.357397 0.122332
0.906279 0.327657 0.119188
0.903136 0.296239 0.115755
0.895644 0.238025 0.10956
0.891356 0.209979 0.106645
0.888518 0.192615 0.104967
0.885771 0.176471 0.103441
0.883284 0.162295 0.102159
0.881041 0.149813 0.101045
0.878843 0.137713 0.0999771
0.876692 0.125948 0.0989242
0.874723 0.115282 0.0980545
0.873289 0.107561 0.0973831
0.0805219 0.533654 0.208042
0.08336 0.535409 0.202655
0.0857862 0.53753 0.198383
0.0869459 0.537972 0.196307
0.0866255 0.536645 0.195834
0.0862898 0.535088 0.195254
0.0861219 0.533455 0.194705
0.0862135 0.530571 0.190875
0.0881361 0.525795 0.180041
0.0918593 0.525994 0.168368
0.101762 0.533455 0.146868
0.136217 0.536004 0.118593
0.208392 0.544244 0.126558
0.328939 0.551202 0.120897
0.422339 0.555627 0.107225
0.541711 0.540185 0.098497
0.657679 0.546288 0.0467689
0.761486 0.543587 0.0486763
0.851011 0.540703 0.0844587
0.907927 0.53315 0.108278
0.917021 0.507897 0.117082
0.914839 0.464378 0.123781
0.913298 0.427497 0.128099
0.911284 0.393088 0.127092
0.909636 0.371801 0.123995
0.90901 0.362615 0.122957
0.90837 0.35346 0.121935
0.907744 0.345235 0.12108
0.907118 0.337316 0.120195
0.906508 0.330205 0.119493
0.905928 0.323796 0.118776
0.90544 0.318608 0.118212
0.905058 0.314717 0.1178
0.0964065 0.631861 0.252094
0.100191 0.633677 0.246433
0.103578 0.635828 0.241428
0.106493 0.638163 0.237522
0.106264 0.636957 0.237034
0.105974 0.635477 0.236347
0.10573 0.633997 0.235782
0.105333 0.631922 0.234943
0.107439 0.627909 0.227115
0.111482 0.623041 0.21323
0.119005 0.628 0.197024
0.129931 0.634699 0.16495
0.183627 0.636866 0.147021
0.276753 0.643488 0.150072
0.412039 0.645792 0.137881
0.494942 0.647105 0.124498
0.616098 0.627039 0.11989
0.734417 0.637781 0.0632334
0.846113 0.634119 0.0543984
0.909026 0.63299 0.0661631
0.933043 0.626322 0.0812848
0.929839 0.608927 0.0881819
0.924315 0.57586 0.0998398
0.919249 0.536233 0.111391
0.917037 0.508309 0.116991
0.916579 0.499794 0.118547
0.916167 0.49189 0.11986
0.915785 0.484459 0.120928
0.91548 0.478019 0.121904
0.91519 0.472023 0.122728
0.914961 0.467079 0.123415
0.914763 0.462562 0.123995
0.914626 0.459495 0.124361
0.115312 0.732754 0.298436
0.119768 0.734783 0.293111
0.123903 0.737118 0.288182
0.127779 0.740185 0.284062
0.129519 0.741176 0.281804
0.129137 0.739666 0.281163
0.128649 0.737819 0.28043
0.128237 0.736065 0.279805
0.127825 0.733455 0.278172
0.132555 0.729 0.264912
0.137713 0.724651 0.249439
0.149691 0.734142 0.227558
0.167544 0.739895 0.178332
0.244373 0.737408 0.180804
0.361181 0.742779 0.177386
0.495583 0.744289 0.161181
0.570764 0.744961 0.150179
0.698604 0.737011 0.130846
0.80885 0.735668 0.0922408
0.897673 0.734798 0.0691081
0.941772 0.731029 0.0674296
0.946456 0.722225 0.0679942
0.945113 0.7075 0.0670329
0.942184 0.681147 0.0660716
0.935836 0.641016 0.0755169
0.933852 0.630518 0.0797284
0.932525 0.623545 0.082536
0.931411 0.617533 0.0849775
0.930404 0.612009 0.0870222
0.929564 0.607401 0.0887617
0.928817 0.603098 0.0904097
0.928176 0.59942 0.091722
0.927749 0.596979 0.0925917
0.139376 0.834699 0.344793
0.143984 0.836912 0.339666
0.148409 0.839475 0.334813
0.152911 0.842069 0.32961
0.157382 0.844877 0.32401
0.157107 0.843732 0.323537
0.156878 0.842756 0.323171
0.156435 0.841123 0.322454
0.155947 0.839231 0.321614
0.157855 0.836255 0.315206
0.16289 0.831983 0.300862
0.172015 0.833738 0.281422
0.189456 0.842634 0.252598
0.236774 0.840543 0.211261
0.329763 0.839429 0.212726
0.455283 0.843244 0.206378
0.576028 0.844816 0.189822
0.648295 0.846342 0.1794
0.771801 0.843687 0.1617
0.867308 0.832822 0.151812
0.922621 0.843656 0.1243
0.949645 0.835782 0.109468
0.949844 0.82649 0.104845
0.950011 0.815045 0.0985122
0.949981 0.793698 0.0874495
0.949554 0.775448 0.0784314
0.94931 0.769024 0.0756085
0.949035 0.762768 0.0733959
0.94876 0.757061 0.0717632
0.948516 0.752392 0.0708782
0.948272 0.747906 0.0703441
0.948043 0.743954 0.0699016
0.94789 0.741588 0.0696117
0.154559 0.906279 0.383444
0.159396 0.907286 0.377249
0.16408 0.908721 0.371374
0.168597 0.910491 0.365698
0.173114 0.912398 0.359823
0.175158 0.913069 0.356878
0.17499 0.912398 0.356466
0.174777 0.911498 0.355978
0.174502 0.910475 0.355444
0.174197 0.909224 0.354757
0.179416 0.906752 0.342504
0.186694 0.903868 0.324117
0.198764 0.907423 0.297612
0.22121 0.911604 0.254398
0.310384 0.904021 0.236957
0.427359 0.906783 0.232975
0.547539 0.908736 0.223133
0.642969 0.912047 0.210346
0.71606 0.914916 0.201343
0.837949 0.914717 0.183322
0.901991 0.89929 0.189212
0.947723 0.902876 0.169619
0.955215 0.899153 0.163378
0.954711 0.894652 0.159258
0.954177 0.890181 0.154864
0.953384 0.883513 0.148516
0.953063 0.880781 0.145907
0.952743 0.878187 0.14345
0.952483 0.876005 0.141405
0.952224 0.873991 0.139437
0.95198 0.872007 0.137575
0.951766 0.870283 0.135927
0.951614 0.869123 0.134798
0.157061 0.939651 0.410147
0.161654 0.939147 0.403418
0.165972 0.938659 0.39675
0.169863 0.938231 0.390753
0.173999 0.937758 0.383932
0.178485 0.93724 0.376272
0.178561 0.937224 0.376059
0.178653 0.937209 0.37586
0.178759 0.937194 0.375601
0.178882 0.937179 0.375311
0.181125 0.936904 0.371084
0.189517 0.935882 0.354238
0.199756 0.93463 0.330358
0.219638 0.932982 0.290791
0.27422 0.931746 0.246921
0.410224 0.931151 0.244221
0.521324 0.931395 0.237232
0.631037 0.933333 0.224613
0.696345 0.938949 0.217029
0.787488 0.941344 0.210529
0.88455 0.942168 0.191501
0.928908 0.925032 0.203357
0.958419 0.929458 0.199496
0.958373 0.928664 0.194324
0.958175 0.926696 0.191684
0.958007 0.925002 0.189487
0.957916 0.924102 0.188266
0.957839 0.923369 0.187411
0.957778 0.922667 0.186572
0.957702 0.922042 0.185794
0.957641 0.921324 0.184985
0.957565 0.920684 0.184283
0.957519 0.920287 0.183795
0.146487 0.940871 0.426337
0.151812 0.940322 0.419165
0.157168 0.939757 0.411566
0.162173 0.939193 0.40415
0.166857 0.938659 0.396796
0.172244 0.938033 0.388052
0.174365 0.937789 0.384405
0.174411 0.937774 0.384329
0.174441 0.937774 0.384253
0.174517 0.937758 0.384131
0.174578 0.937758 0.384009
0.181979 0.936873 0.370672
0.192493 0.935592 0.349157
0.210086 0.933944 0.314534
0.237461 0.932097 0.259953
0.372473 0.931228 0.246403
0.505165 0.931289 0.239185
0.606271 0.932616 0.228763
0.675624 0.937301 0.219928
0.741512 0.94139 0.214969
0.846708 0.941512 0.202182
0.903487 0.923186 0.209796
0.947967 0.927825 0.199802
0.958419 0.929503 0.200977
0.958404 0.92958 0.203082
0.958419 0.929427 0.198734
0.958419 0.929427 0.198734
0.958419 0.929427 0.198734
0.958419 0.929427 0.198734
0.958419 0.929427 0.198734
0.958419 0.929427 0.198734
0.958419 0.929427 0.198734
0.958419 0.929427 0.198734
0.138247 0.941695 0.437003
0.14403 0.941131 0.429572
0.149905 0.94052 0.421729
0.155749 0.93991 0.413626
0.161852 0.939239 0.404623
0.168048 0.938521 0.394949
0.173144 0.937926 0.386496
0.173114 0.937926 0.386542
0.173114 0.937926 0.386542
0.173114 0.937926 0.386542
0.173098 0.937942 0.386587
0.175647 0.937636 0.382162
0.186938 0.936263 0.360967
0.202182 0.934707 0.332219
0.232456 0.932616 0.281987
0.314458 0.931365 0.251225
0.488746 0.931228 0.240406
0.590509 0.932296 0.230777
0.661051 0.936004 0.221958
0.72047 0.940398 0.215717
0.80235 0.941314 0.209705
0.886976 0.942229 0.191546
0.932906 0.925643 0.203494
0.957992 0.92932 0.197726
0.958419 0.929442 0.199039
0.958404 0.929564 0.202457
0.958404 0.929671 0.205188
0.958404 0.929671 0.205478
0.958404 0.929686 0.2056
0.958404 0.929686 0.205722
0.958404 0.929686 0.205829
0.958404 0.929686 0.205921
0.958404 0.929686 0.205997
0.133425 0.942153 0.442908
0.139742 0.941558 0.435065
0.146181 0.940902 0.426749
0.152514 0.940261 0.418204
0.159289 0.939513 0.408423
0.166827 0.938659 0.396841
0.174655 0.937743 0.383902
0.17554 0.937636 0.382345
0.175433 0.937652 0.382513
0.175311 0.937667 0.382712
0.175189 0.937682 0.382925
0.175051 0.937697 0.383185
0.184146 0.936599 0.366461
0.199741 0.935103 0.340291
0.226917 0.933227 0.296971
0.284581 0.931746 0.254673
0.456962 0.931151 0.242847
0.585412 0.932189 0.231373
0.65211 0.935195 0.223316
0.703838 0.939437 0.216999
0.763668 0.941558 0.213565
0.847623 0.941527 0.201968
0.916045 0.923293 0.20798
0.95079 0.928237 0.199145
0.958419 0.929427 0.198734
0.958419 0.929427 0.198734
0.958419 0.929473 0.199954
0.958419 0.929503 0.200977
0.958419 0.929519 0.201038
0.958419 0.929519 0.201144
0.958419 0.929519 0.201205
0.958419 0.929519 0.201266
0.958419 0.929519 0.201312
0.14023 0.942184 0.443412
0.145541 0.941512 0.434852
0.15082 0.940826 0.425864
0.156451 0.940078 0.416022
0.162325 0.939284 0.405386
0.169512 0.938354 0.392554
0.179477 0.937179 0.375341
0.183597 0.936675 0.367529
0.183413 0.93669 0.367864
0.183154 0.936721 0.368399
0.182864 0.936767 0.368963
0.182513 0.936812 0.36965
0.186145 0.93637 0.362585
0.20264 0.935027 0.338659
0.224872 0.933516 0.303914
0.274632 0.931853 0.256474
0.418967 0.931167 0.246433
0.574136 0.932006 0.232609
0.647837 0.934813 0.223804
0.692729 0.938689 0.218189
0.736202 0.941161 0.21503
0.810346 0.941299 0.208652
0.899367 0.928344 0.205173
0.941405 0.926863 0.201373
0.958419 0.929397 0.197833
0.958419 0.929427 0.198734
0.958419 0.929427 0.198734
0.958419 0.929427 0.198734
0.958419 0.929427 0.198734
0.958419 0.929427 0.198734
0.958419 0.929427 0.198734
0.958419 0.929427 0.198734
0.958419 0.929427 0.198734
0.157122 0.941604 0.436713
0.162249 0.940841 0.427008
0.167727 0.940017 0.41622
0.172885 0.939162 0.404685
0.178164 0.938247 0.391653
0.185199 0.937072 0.374197
0.193515 0.935943 0.35581
0.200488 0.935088 0.339925
0.2 0.935134 0.340749
0.199451 0.93518 0.34168
0.198779 0.935241 0.342794
0.198093 0.935302 0.343908
0.197681 0.935332 0.344686
0.211582 0.934386 0.324804
0.229541 0.933165 0.295567
0.276204 0.931838 0.256275
0.401572 0.931182 0.245533
0.561746 0.931823 0.233997
0.644709 0.934539 0.224155
0.681941 0.937835 0.219196
0.713924 0.940032 0.216144
0.78056 0.941405 0.212161
0.887541 0.942245 0.191379
0.929686 0.925185 0.204349
0.954971 0.928862 0.198276
0.958419 0.929427 0.198734
0.958419 0.929427 0.198734
0.958419 0.929427 0.198734
0.958419 0.929427 0.198734
0.958419 0.929427 0.198734
0.958419 0.929427 0.198734
0.958419 0.929427 0.198734
0.958419 0.929427 0.198734
0.154177 0.942031 0.442145
0.15938 0.941283 0.432624
0.164599 0.940505 0.422583
0.170062 0.939635 0.411078
0.175509 0.938704 0.39823
0.182208 0.93756 0.381613
0.190707 0.936294 0.361578
0.200549 0.935088 0.339818
0.200549 0.935088 0.339818
0.200549 0.935088 0.339818
0.200549 0.935088 0.339818
0.200549 0.935088 0.339818
0.200549 0.935088 0.339818
0.212818 0.934234 0.321263
0.233326 0.932784 0.286229
0.278798 0.931807 0.254856
0.393088 0.931182 0.245609
0.54995 0.93167 0.235142
0.637964 0.933959 0.224659
0.665339 0.9364 0.221317
0.691051 0.938567 0.218372
0.755917 0.941649 0.214099
0.866438 0.941802 0.197467
0.917586 0.923491 0.207568
0.949432 0.928038 0.199481
0.958419 0.929412 0.198383
0.958419 0.929427 0.198734
0.958419 0.929427 0.198734
0.958419 0.929427 0.198734
0.958419 0.929427 0.198734
0.958419 0.929427 0.198734
0.958419 0.929427 0.198734
0.958419 0.929427 0.198734
0.151263 0.942428 0.447181
0.156619 0.94168 0.437675
0.161791 0.940917 0.427893
0.167315 0.940078 0.41706
0.173175 0.939116 0.404013
0.179568 0.937987 0.387945
0.187945 0.936614 0.366949
0.198322 0.935363 0.345205
0.200549 0.935088 0.339818
0.200549 0.935088 0.339818
0.200549 0.935088 0.339818
0.200549 0.935088 0.339818
0.200549 0.935088 0.339818
0.207919 0.934554 0.328695
0.22829 0.933165 0.295293
0.258473 0.93196 0.256077
0.360861 0.931258 0.24686
0.522408 0.931411 0.237781
0.630396 0.933288 0.225483
0.661265 0.936019 0.221927
0.684031 0.938003 0.218997
0.740902 0.94136 0.214969
0.848142 0.941527 0.201846
0.908476 0.922255 0.21001
0.944488 0.927321 0.200671
0.958419 0.929397 0.19791
0.958419 0.929427 0.198734
0.958419 0.929427 0.198734
0.958419 0.929427 0.198734
0.958419 0.929427 0.198734
0.958419 0.929427 0.198734
0.958419 0.929427 0.198734
0.958419 0.929427 0.198734
0.148638 0.942794 0.451759
0.154116 0.942046 0.442283
