bundles/resolve-cinematic-luts/Phantom Luts/Ursa G2 Phntm Arri LUTs - V1/Gen5/White Balance Offset (Magenta Boost)/Ursa Utopia Gen 5 WBO.cube
TITLE "Generated by Resolve"
LUT_3D_SIZE 33
0.000762951 0.0280766 0.0361639
0.000747692 0.0280613 0.0361334
0.000717174 0.0280308 0.0361028
0.0106508 0.0274052 0.0351263
0.0202792 0.0268711 0.0364843
0.0335851 0.0259709 0.0379644
0.0531167 0.024918 0.037583
0.0786755 0.0230259 0.0374762
0.112932 0.0206607 0.0379644
0.157778 0.0180514 0.038529
0.212619 0.0146639 0.0381628
0.274815 0.0115511 0.037705
0.338247 0.00807202 0.0359655
0.404364 0.00544747 0.0390936
0.470573 0.00335698 0.0461738
0.531441 0.00563058 0.0566873
0.591318 0.0102846 0.0685283
0.646418 0.0157931 0.0791791
0.691722 0.0214084 0.0887922
0.709041 0.023743 0.0983597
0.712703 0.0242924 0.107485
0.717632 0.0281071 0.125307
0.722789 0.0338903 0.143069
0.723812 0.0352789 0.14757
0.723812 0.0352789 0.14757
0.723812 0.0352789 0.14757
0.723812 0.0352789 0.14757
0.72398 0.0352331 0.147555
0.7243 0.0351415 0.147524
0.725277 0.0348516 0.147417
0.726574 0.0344854 0.147265
0.728832 0.0338293 0.147036
0.731304 0.0331273 0.146685
0.000717174 0.0280308 0.0361028
0.000732433 0.0280461 0.0361181
0.000717174 0.0280308 0.0361028
0.00535592 0.0278325 0.0356146
0.01561 0.0272374 0.0356298
0.0278935 0.0263981 0.0377813
0.0474098 0.0252384 0.037583
0.0733501 0.0233616 0.0375219
0.108034 0.0209354 0.0378424
0.152743 0.0183108 0.0384375
0.207828 0.0149996 0.0382239
0.270481 0.0117647 0.0377966
0.334356 0.00833143 0.0360723
0.401099 0.00556954 0.0388342
0.467826 0.00329595 0.0458076
0.529259 0.00550851 0.0563363
0.589609 0.0101015 0.0681468
0.64535 0.01561 0.0789807
0.690837 0.0212863 0.0883192
0.708721 0.0236973 0.0980697
0.712673 0.0242924 0.107286
0.717311 0.0277256 0.124804
0.722698 0.0337682 0.142962
0.723812 0.0352789 0.14757
0.723812 0.0352789 0.14757
0.723812 0.0352789 0.14757
0.723812 0.0352789 0.14757
0.72398 0.0352331 0.147555
0.7243 0.0351415 0.147524
0.725277 0.0348516 0.147417
0.726574 0.0344854 0.147265
0.728847 0.033814 0.147036
0.731319 0.0331121 0.14667
0.000717174 0.0280308 0.0361028
0.000747692 0.0280613 0.0361486
0.000747692 0.0280613 0.0361334
0.000717174 0.0280308 0.0361028
0.00852979 0.0275883 0.0352331
0.0189212 0.0270848 0.0362249
0.0351415 0.025864 0.0379187
0.0602884 0.0244755 0.0376745
0.0935836 0.0221408 0.0379492
0.138964 0.0189975 0.0383154
0.196338 0.0158236 0.0385138
0.26244 0.0120851 0.0379187
0.329946 0.00857557 0.0360876
0.397696 0.00567636 0.0386664
0.465263 0.00318914 0.0453498
0.527306 0.00535592 0.0559243
0.587884 0.00988785 0.0677653
0.644144 0.0153964 0.0788128
0.690059 0.0210727 0.0877394
0.708446 0.0236515 0.0978103
0.712627 0.0242924 0.107057
0.716976 0.0272526 0.124269
0.722576 0.0336004 0.142809
0.723812 0.0352789 0.14757
0.723812 0.0352789 0.14757
0.723812 0.0352789 0.14757
0.723812 0.0352789 0.14757
0.72398 0.0352331 0.147555
0.7243 0.0351415 0.147524
0.725277 0.0348516 0.147417
0.726574 0.0344701 0.147265
0.728862 0.033814 0.147036
0.73135 0.0331121 0.14667
0.00190738 0.0328832 0.0388342
0.00184634 0.0323644 0.0385901
0.00192264 0.0310216 0.0374456
0.00482185 0.0310826 0.0371862
0.0122377 0.0318151 0.0369116
0.0200351 0.0319371 0.0367132
0.033051 0.0311742 0.0384222
0.0569467 0.0272068 0.0365301
0.0860304 0.0235447 0.0372168
0.127306 0.0200656 0.0382696
0.18175 0.0165713 0.0385138
0.248081 0.0129854 0.0381628
0.317296 0.00950637 0.0367742
0.387579 0.0049897 0.0363317
0.459632 0.00280766 0.043061
0.52462 0.00517281 0.0551003
0.586236 0.0096437 0.0674296
0.643198 0.0150912 0.0785077
0.689891 0.0206607 0.0869917
0.709041 0.0233616 0.0973983
0.713298 0.0240787 0.106752
0.717128 0.026627 0.123613
0.722866 0.033341 0.142641
0.724147 0.035172 0.147555
0.724102 0.0351873 0.147555
0.724071 0.0352026 0.147555
0.724041 0.0352026 0.147555
0.724163 0.035172 0.147555
0.724437 0.0350958 0.147509
0.725338 0.0348363 0.147402
0.726604 0.0344701 0.14725
0.728862 0.033814 0.147036
0.731365 0.0331121 0.146654
0.00210575 0.0413214 0.0420386
0.002121 0.0408484 0.0418097
0.00260929 0.0398413 0.0399329
0.0061799 0.038407 0.0390021
0.0132753 0.0390173 0.0381476
0.0222629 0.0394903 0.0377966
0.036759 0.0382696 0.0393072
0.06009 0.035584 0.0385901
0.0898146 0.03093 0.0365759
0.130343 0.0238804 0.0361028
0.180423 0.0180362 0.0380713
0.243168 0.0135653 0.0382849
0.310292 0.00982681 0.0368811
0.379019 0.00561532 0.0359197
0.450278 0.00285344 0.0387121
0.515816 0.00457771 0.0498512
0.580331 0.00903334 0.0641337
0.640681 0.0147707 0.0774853
0.689021 0.0203708 0.0862287
0.709499 0.0230869 0.0969711
0.714199 0.0238041 0.106371
0.717693 0.0258488 0.122744
0.723705 0.032929 0.142367
0.725093 0.0349126 0.147433
0.725078 0.0349126 0.147433
0.725048 0.0349126 0.147448
0.725032 0.0349279 0.147448
0.725048 0.0349126 0.147448
0.725093 0.0349126 0.147433
0.725673 0.0347448 0.147356
0.726711 0.0344396 0.14725
0.728878 0.033814 0.147021
0.73138 0.0330968 0.146654
0.000915541 0.0528115 0.0447395
0.000854505 0.0522164 0.0445258
0.00105287 0.0510567 0.0424964
0.00234989 0.0495155 0.0388952
0.0108492 0.0489815 0.0383154
0.0200351 0.0511788 0.0375067
0.0365148 0.0509346 0.0361639
0.0646677 0.0468299 0.0416876
0.0956283 0.041413 0.0399329
0.137362 0.0341955 0.036759
0.186343 0.0256046 0.0336461
0.246372 0.0193332 0.0353704
0.308385 0.0123903 0.0364538
0.373205 0.00669871 0.0361181
0.445518 0.00283818 0.0378119
0.510948 0.00460822 0.0435645
0.572915 0.00842298 0.0545968
0.632364 0.0138399 0.0701305
0.683955 0.0196841 0.0827497
0.708492 0.0229343 0.0958114
0.714168 0.0237583 0.105653
0.717464 0.02533 0.121508
0.723751 0.0327459 0.142107
0.725292 0.0348669 0.147356
0.725292 0.0348516 0.147417
0.725277 0.0348516 0.147417
0.725277 0.0348516 0.147417
0.725277 0.0348516 0.147417
0.725277 0.0348516 0.147417
0.725765 0.0347143 0.147356
0.726741 0.0344244 0.14725
0.728878 0.033814 0.147021
0.731395 0.0330968 0.146654
0 0.0741588 0.0477455
0 0.0734112 0.047364
0 0.0723583 0.0466011
0.000457771 0.0698253 0.0422217
0.00155642 0.0686656 0.0360418
0.0152285 0.0705425 0.0365759
0.0294499 0.0731365 0.0345159
0.0643778 0.0705272 0.0383612
0.10367 0.0609903 0.0448463
0.146014 0.0533608 0.043473
0.200839 0.0430304 0.0391546
0.262287 0.031281 0.0336004
0.320439 0.0225681 0.0310674
0.380743 0.0151827 0.0323644
0.442298 0.00572213 0.0348516
0.50222 0.00440986 0.0413519
0.564508 0.00794995 0.050309
0.625879 0.0133211 0.0607004
0.680278 0.0192416 0.0767529
0.707607 0.0228275 0.0928511
0.713787 0.0237278 0.103273
0.715923 0.0239414 0.114244
0.723018 0.0320134 0.137057
0.72549 0.0352178 0.145617
0.725414 0.0350805 0.146441
0.725353 0.0349584 0.146944
0.725307 0.0348974 0.147189
0.725307 0.0348974 0.14725
0.725307 0.0348974 0.14728
0.725628 0.0347906 0.14725
0.726268 0.0345922 0.147204
0.727718 0.034165 0.147051
0.729198 0.0337377 0.146929
0 0.102205 0.049424
0 0.101427 0.0483253
0 0.100511 0.0483864
0 0.098497 0.0447395
0 0.0957504 0.0386511
0.00146487 0.0967727 0.0314946
0.0207523 0.100328 0.0335699
0.0497139 0.102663 0.032578
0.0993668 0.098497 0.0407263
0.150759 0.0902571 0.0485084
0.216571 0.0721141 0.0496376
0.278996 0.0613565 0.0453346
0.344579 0.0464027 0.0393988
0.407874 0.0295262 0.0320897
0.466346 0.0171054 0.0307164
0.516335 0.00784314 0.0340276
0.565927 0.00823987 0.0448463
0.622293 0.0130159 0.0560922
0.676036 0.0189822 0.0691234
0.706188 0.0226749 0.0864729
0.713237 0.0236973 0.0984665
0.715251 0.0238956 0.107927
0.717281 0.0243839 0.119142
0.72192 0.0301213 0.13228
0.724758 0.034287 0.139895
0.725261 0.0349889 0.142336
0.725109 0.0347448 0.142855
0.725124 0.0347448 0.143435
0.725261 0.0348974 0.144167
0.725689 0.0349432 0.144686
0.726421 0.0348669 0.14519
0.727962 0.0345617 0.14551
0.729427 0.0341039 0.145556
0 0.139025 0.0493324
0 0.138369 0.0480049
0 0.13753 0.048188
0 0.135958 0.0469978
0 0.132723 0.0399023
0.000640879 0.130251 0.0303807
0.00224308 0.13286 0.026688
0.0308232 0.139223 0.0308995
0.0793469 0.141176 0.0327916
0.145983 0.135561 0.0442664
0.206424 0.132006 0.0514229
0.302556 0.101808 0.0579232
0.367193 0.0907149 0.0554818
0.431479 0.076051 0.0495766
0.497261 0.054078 0.0424201
0.551141 0.0294652 0.033875
0.597833 0.0146639 0.03682
0.646082 0.0153506 0.0518196
0.683314 0.0193637 0.0649577
0.708553 0.0229038 0.0746929
0.713069 0.023682 0.0897231
0.714534 0.0238499 0.101061
0.716365 0.0240635 0.110506
0.717083 0.024155 0.115694
0.717296 0.0241703 0.117433
0.717357 0.0241703 0.118456
0.717433 0.0241703 0.119387
0.717784 0.0244297 0.121218
0.718685 0.0256504 0.124514
0.721096 0.0282597 0.129259
0.723568 0.0306096 0.133349
0.726482 0.0322728 0.136248
0.728695 0.03299 0.138079
0 0.190494 0.0516976
0 0.189929 0.0485084
0 0.188785 0.0484627
0 0.187564 0.0483406
0 0.18471 0.0439765
0.000671397 0.180529 0.035584
0.00257877 0.180789 0.0233158
0.00733959 0.183719 0.0237278
0.0549172 0.193469 0.0279393
0.120775 0.195102 0.0349279
0.20708 0.187854 0.0489357
0.282353 0.187198 0.0544289
0.388434 0.154025 0.0692912
0.465583 0.136217 0.0693523
0.530282 0.124392 0.0667277
0.589899 0.104784 0.0622721
0.642573 0.0760967 0.0578927
0.683009 0.0420996 0.0487221
0.712139 0.0271305 0.0548714
0.721767 0.0243839 0.0688487
0.718883 0.0238346 0.0740978
0.71606 0.0234684 0.0883955
0.716533 0.0236057 0.100114
0.717266 0.0237888 0.106081
0.717372 0.0238651 0.10837
0.717403 0.0239109 0.109804
0.717418 0.0239719 0.110994
0.717433 0.0239872 0.112093
0.717433 0.0240024 0.113054
0.717784 0.0239109 0.113848
0.718486 0.0237278 0.114458
0.720134 0.02327 0.114778
0.722011 0.0227359 0.114809
0.000442512 0.25684 0.0608377
0.00196841 0.257267 0.0556344
0.00167849 0.256275 0.055436
0.00148013 0.254948 0.0552071
0.00149538 0.253315 0.0543984
0.00299077 0.248783 0.0467842
0.00460822 0.243671 0.0347295
0.00770581 0.247272 0.0206607
0.0186923 0.252613 0.0231327
0.088304 0.265232 0.0293584
0.177966 0.265782 0.0426947
0.285512 0.256199 0.0548409
0.372107 0.259953 0.0528573
0.465873 0.241733 0.0725414
0.564874 0.206958 0.0845655
0.634073 0.189807 0.0890364
0.692531 0.175448 0.0931106
0.743465 0.153689 0.0933089
0.77351 0.11928 0.0854963
0.765164 0.0626841 0.0675822
0.743481 0.0343786 0.0648203
0.726406 0.0249943 0.0704356
0.718593 0.023209 0.0830701
0.717906 0.0230716 0.0916609
0.718318 0.0231479 0.0949416
0.718441 0.0231785 0.0967117
0.718547 0.023209 0.0982376
0.718639 0.0232242 0.0996414
0.7187 0.0232548 0.100725
0.718822 0.0232548 0.10164
0.719036 0.023209 0.102525
0.719936 0.0229801 0.10309
0.72134 0.0225986 0.103304
0.00460822 0.342138 0.0783856
0.0065919 0.343709 0.0729381
0.00698863 0.343221 0.0713359
0.00688182 0.341878 0.0710765
0.00677501 0.340398 0.0707713
0.00730907 0.337484 0.0670481
0.00929274 0.332403 0.0568704
0.0121462 0.330587 0.0408484
0.0163882 0.333593 0.0220493
0.0435492 0.343023 0.0274052
0.136767 0.355581 0.0358129
0.25304 0.352682 0.0541848
0.376944 0.33933 0.0627604
0.467582 0.345403 0.051133
0.545449 0.342794 0.0644236
0.649851 0.305974 0.0961624
0.731838 0.278279 0.115953
0.79237 0.257862 0.125643
0.833524 0.235477 0.129305
0.839277 0.210346 0.124437
0.821866 0.167254 0.109148
0.779492 0.0820783 0.0768749
0.740963 0.0370947 0.0709697
0.721462 0.0237278 0.0724804
0.718929 0.0232395 0.0749065
0.718715 0.023209 0.076936
0.718547 0.0231479 0.0792096
0.718364 0.0231022 0.0810864
0.718288 0.0230869 0.0827344
0.718257 0.0230716 0.0840314
0.718196 0.0230411 0.0850843
0.718807 0.022858 0.085771
0.720134 0.0225071 0.0860761
0.0102541 0.436484 0.105562
0.0127565 0.438437 0.100053
0.0142977 0.439384 0.0966049
0.0142061 0.438361 0.0962387
0.0140536 0.436942 0.0958419
0.0140383 0.435111 0.0949264
0.0158083 0.431144 0.0878309
0.0192569 0.426261 0.0753185
0.0239261 0.42945 0.0556039
0.0310826 0.431312 0.0271458
0.0865492 0.444221 0.0385595
0.21088 0.449638 0.0492256
0.342077 0.440848 0.068986
0.467231 0.423011 0.0757305
0.55964 0.42797 0.0538033
0.628595 0.43154 0.0617685
0.71223 0.414832 0.0964981
0.801831 0.379477 0.135012
0.859815 0.355901 0.151583
0.876646 0.33109 0.154223
0.872358 0.305028 0.149676
0.863188 0.271962 0.142306
0.838026 0.204211 0.122698
0.776745 0.0778973 0.0749676
0.751461 0.0399786 0.0587625
0.746242 0.035523 0.0613565
0.743572 0.0352636 0.0664988
0.740551 0.0347295 0.0699474
0.737636 0.0341955 0.07187
0.735409 0.0337224 0.0733806
0.734096 0.0334325 0.0742504
0.734096 0.033051 0.074342
0.734997 0.0326238 0.0742199
0.0154116 0.535622 0.144244
0.0187533 0.537667 0.137545
0.0222171 0.540291 0.131411
0.0222477 0.539467 0.130983
0.0220798 0.538308 0.13077
0.0221561 0.537148 0.130602
0.0226139 0.535073 0.128801
0.0269474 0.53077 0.116945
0.0324712 0.52726 0.102159
0.0399939 0.535378 0.0765393
0.062501 0.538674 0.0382391
0.149706 0.546471 0.0536049
0.310414 0.538338 0.0704509
0.43241 0.525429 0.0853132
0.551904 0.50309 0.0933852
0.642908 0.507149 0.0703593
0.707012 0.511528 0.0737469
0.773861 0.508568 0.100389
0.839048 0.495109 0.133364
0.891966 0.467231 0.161105
0.89543 0.429496 0.166857
0.89131 0.400595 0.164416
0.886366 0.370794 0.16051
0.87599 0.319249 0.152499
0.867201 0.286763 0.145663
0.861997 0.268513 0.141451
0.856748 0.253117 0.13753
0.851743 0.23888 0.133684
0.846616 0.225376 0.129473
0.841718 0.21323 0.125597
0.837064 0.202426 0.122011
0.83357 0.192905 0.118303
0.831891 0.186069 0.115572
0.0192569 0.630182 0.194675
0.0243839 0.632639 0.187457
0.0296941 0.635294 0.180056
0.031693 0.636164 0.177142
0.0315709 0.635401 0.176699
0.0314031 0.634318 0.17615
0.031342 0.632837 0.175128
0.0338598 0.630503 0.168521
0.0415503 0.627497 0.152819
0.0522621 0.628733 0.133364
0.0665751 0.635554 0.101381
0.124071 0.637934 0.0629587
0.232761 0.639902 0.0730144
0.423941 0.618173 0.0962387
0.516716 0.606256 0.107622
0.628763 0.579248 0.121401
0.717235 0.583597 0.0970626
0.782254 0.586755 0.0954147
0.83624 0.589899 0.1075
0.878904 0.58764 0.129763
0.905226 0.568063 0.149416
0.904418 0.534188 0.156512
0.90161 0.502174 0.161013
0.898985 0.468971 0.164462
0.897047 0.445151 0.16643
0.89575 0.433188 0.166842
0.894591 0.424094 0.166751
0.893614 0.416739 0.16611
0.892638 0.410315 0.165255
0.891646 0.403998 0.164172
0.891066 0.398749 0.163638
0.890211 0.393927 0.16228
0.890196 0.390463 0.161166
0.0264439 0.717144 0.253773
0.033341 0.71989 0.245777
0.0397345 0.72285 0.238254
0.0453498 0.725338 0.231525
0.0455482 0.725063 0.230823
0.0452735 0.724132 0.230289
0.0450446 0.722942 0.229511
0.0451972 0.72137 0.227756
0.0521553 0.718975 0.215061
0.0638895 0.71632 0.194568
0.0827802 0.721431 0.168215
0.113069 0.726757 0.124331
0.197162 0.727001 0.0982681
0.342733 0.720241 0.1075
0.520867 0.6925 0.1299
0.595026 0.68188 0.139437
0.700603 0.65333 0.156024
0.786694 0.660685 0.128893
0.849729 0.662257 0.12224
0.892027 0.66479 0.128252
0.923186 0.662379 0.135286
0.928512 0.650645 0.140261
0.921859 0.626566 0.143252
0.914153 0.596094 0.147265
0.909606 0.571633 0.151141
0.907988 0.562173 0.152712
0.906905 0.555673 0.153704
0.90631 0.550134 0.154849
0.905547 0.544778 0.15555
0.905241 0.540459 0.156222
0.904631 0.536263 0.156466
0.904585 0.532906 0.156649
0.904601 0.530663 0.156085
0.0407721 0.798535 0.314992
0.0483864 0.801785 0.306706
0.0563973 0.805081 0.298421
0.0644236 0.808179 0.28986
0.0677348 0.809369 0.285939
0.0676432 0.808896 0.285313
0.0670939 0.807889 0.284657
0.066743 0.806607 0.283864
0.0683909 0.805142 0.280491
0.0804303 0.802777 0.26099
0.0964523 0.801373 0.235523
0.125292 0.809232 0.19884
0.1738 0.812024 0.13637
0.287617 0.806531 0.13341
0.464851 0.788968 0.145937
0.600763 0.767544 0.16611
0.672038 0.757443 0.176303
0.772839 0.732418 0.191135
0.851667 0.735195 0.170642
0.90425 0.740078 0.163714
0.939254 0.740047 0.160632
0.956237 0.7355 0.160632
0.954513 0.725216 0.156939
0.948135 0.707164 0.150713
0.938964 0.679255 0.142245
0.935164 0.668223 0.140276
0.933394 0.663203 0.140505
0.931792 0.658717 0.140764
0.930709 0.655116 0.141115
0.929549 0.651591 0.141283
0.92845 0.648661 0.141497
0.927962 0.646372 0.141878
0.927443 0.644648 0.141756
0.0572213 0.871717 0.367224
0.0653849 0.874647 0.358419
0.0733501 0.877958 0.35021
0.081651 0.881407 0.341985
0.0892805 0.884565 0.333745
0.0895857 0.884367 0.332815
0.0893416 0.883772 0.332433
0.0890211 0.882811 0.331868
0.0889754 0.881621 0.330663
0.0954452 0.880247 0.320302
0.111894 0.878889 0.296849
0.136294 0.881392 0.264698
0.178698 0.887724 0.217105
0.262592 0.883635 0.163897
0.409125 0.870893 0.165484
0.578393 0.849882 0.187121
0.675456 0.83714 0.203922
0.746487 0.827985 0.214878
0.845853 0.813016 0.221942
0.90341 0.80618 0.224552
0.945159 0.813519 0.214908
0.977218 0.811963 0.207172
0.982223 0.806439 0.202609
0.980545 0.799313 0.197879
0.976196 0.786358 0.189166
0.972061 0.774304 0.181353
0.970321 0.769131 0.177996
0.968811 0.76527 0.175586
0.967834 0.76199 0.173724
0.966598 0.75877 0.171878
0.965515 0.756085 0.170382
0.964782 0.753811 0.169406
0.96434 0.752422 0.168811
0.0727855 0.93048 0.409384
0.0804608 0.932921 0.4009
0.0876478 0.936095 0.392813
0.095552 0.939422 0.38436
0.104234 0.942748 0.375128
0.108034 0.944121 0.371099
0.107973 0.94374 0.370459
0.107652 0.943099 0.369955
0.107393 0.942351 0.369375
0.108598 0.941482 0.366995
0.121904 0.940551 0.348882
0.142458 0.939529 0.319646
0.176379 0.943938 0.275914
0.234775 0.94728 0.214954
0.375128 0.932128 0.187442
0.544182 0.916365 0.201007
0.677974 0.898283 0.224674
0.742992 0.893202 0.237034
0.816938 0.88452 0.248219
0.905989 0.878096 0.250553
0.941848 0.864408 0.264744
0.980316 0.866346 0.258488
0.997635 0.865904 0.252857
0.997894 0.861967 0.248447
0.997223 0.85803 0.244419
0.995941 0.852338 0.238697
0.995361 0.849699 0.236103
0.99501 0.847959 0.234363
0.994446 0.846204 0.232654
0.994003 0.844587 0.231067
0.993591 0.843122 0.229633
0.99321 0.841871 0.228412
0.993011 0.841093 0.227649
0.0953689 0.973983 0.445945
0.0917525 0.975875 0.435294
0.0987259 0.978668 0.4262
0.10576 0.981216 0.417823
0.11397 0.984421 0.408713
0.122515 0.987289 0.399847
0.122911 0.987259 0.399039
0.122759 0.986831 0.398795
0.122576 0.986313 0.398428
0.122469 0.985702 0.39794
0.127733 0.985214 0.390097
0.146731 0.984573 0.364126
0.174563 0.985214 0.326909
0.227863 0.98854 0.268589
0.325277 0.982971 0.210742
0.527062 0.961151 0.215015
0.658015 0.945922 0.236622
0.743618 0.936355 0.25304
0.801862 0.93254 0.263493
0.880644 0.924392 0.276616
0.94406 0.922072 0.280552
0.973754 0.904692 0.294362
0.999405 0.904967 0.296178
0.999969 0.902861 0.289372
0.999969 0.899626 0.285359
0.999969 0.896773 0.282658
0.999969 0.895293 0.28127
0.999969 0.894026 0.280018
0.999969 0.893004 0.27892
0.999969 0.892073 0.277958
0.999969 0.891188 0.277256
0.999969 0.890501 0.276585
0.999969 0.890043 0.276127
0.0974441 0.992111 0.470573
0.103929 0.99321 0.461387
0.0959945 0.993683 0.449073
0.102205 0.994766 0.439078
0.109636 0.995666 0.428641
0.118975 0.996338 0.417075
0.122301 0.996536 0.412634
0.122332 0.996521 0.412543
0.122408 0.996536 0.412467
0.122515 0.996536 0.41236
0.124086 0.996582 0.410285
0.138201 0.997024 0.392172
0.163439 0.997452 0.359686
0.207797 0.997314 0.305364
0.276692 0.994797 0.231296
0.479225 0.979095 0.215641
0.642908 0.957702 0.237003
0.733669 0.944579 0.253742
0.78735 0.940612 0.263432
0.846281 0.935195 0.274846
0.919799 0.928069 0.282094
0.961883 0.918441 0.288655
0.992996 0.91046 0.29723
0.999969 0.913314 0.301167
0.999969 0.913817 0.303395
0.999969 0.913527 0.300389
0.999969 0.913466 0.300084
0.999969 0.913466 0.300114
0.999969 0.913466 0.300145
0.999969 0.913466 0.30016
0.999969 0.913466 0.300389
0.999969 0.913451 0.300893
0.999969 0.91342 0.301671
0.0876783 0.991714 0.485359
0.0959945 0.99295 0.476127
0.101656 0.993988 0.465766
0.095964 0.994446 0.453285
0.103136 0.995346 0.440864
0.113832 0.996094 0.42742
0.12166 0.996506 0.417609
0.122148 0.996506 0.417044
0.122148 0.996506 0.41706
0.122118 0.996506 0.41709
0.122316 0.996521 0.416846
0.128756 0.996826 0.408545
0.152117 0.997421 0.378622
0.190127 0.997635 0.333165
0.258717 0.996201 0.259297
0.396872 0.987243 0.21706
0.626032 0.960586 0.234638
0.726543 0.945037 0.252674
0.775738 0.9411 0.262119
0.825605 0.937606 0.272084
0.892805 0.930251 0.281834
0.947112 0.926543 0.283421
0.978302 0.908904 0.296925
0.99971 0.911711 0.298253
0.999969 0.913375 0.299626
0.999969 0.913756 0.303197
0.999969 0.913863 0.306127
0.999969 0.913893 0.306661
0.999969 0.913924 0.306523
0.999969 0.913954 0.306127
0.999969 0.913939 0.306081
0.999969 0.913954 0.306294
0.999969 0.913893 0.306996
0.0789654 0.990723 0.493263
0.0880446 0.992126 0.483696
0.0962997 0.993469 0.473304
0.103822 0.994461 0.461677
0.0995956 0.995056 0.446586
0.111192 0.995956 0.430564
0.123827 0.996597 0.415045
0.125902 0.996704 0.412268
0.12578 0.996689 0.412436
0.125612 0.996674 0.41265
0.12546 0.996658 0.412863
0.127275 0.996765 0.410452
0.145876 0.997284 0.387366
0.181765 0.997742 0.346761
0.243534 0.997116 0.280018
0.35108 0.991455 0.222965
0.591211 0.965515 0.228779
0.723522 0.945296 0.251881
0.768399 0.941955 0.261021
0.81268 0.938384 0.268925
0.867704 0.93257 0.278935
0.921935 0.927901 0.283299
0.966384 0.910872 0.294926
0.995438 0.910491 0.297322
0.999969 0.913314 0.297856
0.999969 0.913558 0.297978
0.999969 0.913634 0.299351
0.999969 0.913756 0.300175
0.999969 0.913771 0.300008
0.999969 0.913802 0.299474
0.999969 0.913817 0.299351
0.999969 0.913802 0.299718
0.999969 0.913787 0.300389
0.0840162 0.992691 0.493431
0.092958 0.993439 0.483177
0.101488 0.994278 0.472297
0.104143 0.994888 0.459342
0.103304 0.995407 0.443671
0.115587 0.996201 0.425544
0.132998 0.996963 0.403296
0.140093 0.997147 0.39411
0.139727 0.997162 0.394644
0.139269 0.997147 0.395224
0.138827 0.997147 0.39585
0.138994 0.997162 0.395666
0.149767 0.997375 0.382605
0.185748 0.997879 0.346029
0.23743 0.997452 0.289662
0.334005 0.992798 0.22562
0.547753 0.971664 0.224033
0.714626 0.946639 0.25008
0.764324 0.94229 0.259983
0.803922 0.939071 0.266957
0.841672 0.935866 0.275029
0.898833 0.929534 0.282109
0.960555 0.922271 0.286213
0.986923 0.909361 0.296818
0.999969 0.91223 0.29749
0.999969 0.913481 0.297841
0.999969 0.913558 0.297856
0.999969 0.913573 0.297612
0.999969 0.913588 0.297108
0.999969 0.913619 0.296345
0.999969 0.913649 0.295857
0.999969 0.913649 0.295857
0.999969 0.913619 0.296345
0.103883 0.995132 0.485496
0.113497 0.995651 0.474159
0.110918 0.995941 0.459632
0.117403 0.996414 0.444602
0.126757 0.996918 0.426352
0.140902 0.997375 0.403571
0.160067 0.997681 0.376303
0.17406 0.997726 0.357092
0.173968 0.997711 0.356985
0.172915 0.997711 0.35819
0.171786 0.997726 0.359335
0.170321 0.997696 0.360983
0.173831 0.997726 0.357412
0.204196 0.997864 0.325231
0.247028 0.997177 0.279042
0.335973 0.992599 0.225132
0.527642 0.974227 0.220432
0.703243 0.94873 0.248264
0.761196 0.94255 0.259144
0.794644 0.940063 0.264988
0.821897 0.937881 0.270756
0.879393 0.931319 0.280171
0.948211 0.926482 0.28333
0.975967 0.90811 0.297017
0.998703 0.911147 0.297368
0.999969 0.913436 0.297826
0.999969 0.913558 0.297856
0.999969 0.913558 0.297612
0.999969 0.913588 0.297108
0.999969 0.913619 0.296345
0.999969 0.913649 0.295857
0.999969 0.913649 0.295613
0.999969 0.913649 0.295705
0.101381 0.995193 0.489982
0.110719 0.995727 0.478782
0.118669 0.996246 0.466484
0.115114 0.996429 0.449744
0.125002 0.996933 0.431815
0.139239 0.997436 0.408865
0.1579 0.997726 0.380667
0.177752 0.997742 0.353368
0.179232 0.997742 0.351186
0.179126 0.997742 0.351308
0.179034 0.997742 0.351431
0.178927 0.997726 0.351553
0.182071 0.997772 0.347982
0.21033 0.997772 0.316777
0.256962 0.996674 0.265827
0.341054 0.992081 0.223102
0.517464 0.975326 0.218753
0.692256 0.950362 0.246326
0.755077 0.943008 0.258106
0.780041 0.941146 0.262135
0.80322 0.939223 0.2663
0.862669 0.933257 0.277592
0.934615 0.927138 0.282872
0.967758 0.909621 0.295552
0.994858 0.910231 0.297322
0.999969 0.912963 0.297627
0.999969 0.913542 0.297856
0.999969 0.913558 0.297612
0.999969 0.913588 0.297108
0.999969 0.913619 0.296345
0.999969 0.913649 0.295857
0.999969 0.913649 0.295613
0.999969 0.913649 0.295613
0.0964065 0.994995 0.495842
0.105318 0.995514 0.484718
0.114733 0.996048 0.473182
0.11104 0.996292 0.457069
0.120119 0.996765 0.439384
0.133913 0.997314 0.41709
0.152178 0.99765 0.388388
0.174014 0.997787 0.358602
0.179324 0.997742 0.351049
0.179324 0.997742 0.351049
