bundles/resolve-cinematic-luts/Phantom Luts/Ursa G2 Phntm Arri LUTs - V1/Gen5/White Balance Offset (Magenta Boost)/Ursa Utopia Gen 5 WBO.cube
TITLE "Generated by Resolve"
LUT_3D_SIZE 5
0.000762951 0.0280766 0.0361639
0.112932 0.0206607 0.0379644
0.591318 0.0102846 0.0685283
0.723812 0.0352789 0.14757
0.731304 0.0331273 0.146685
0 0.139025 0.0493324
0.0793469 0.141176 0.0327916
0.597833 0.0146639 0.03682
0.717296 0.0241703 0.117433
0.728695 0.03299 0.138079
0.0407721 0.798535 0.314992
0.0683909 0.805142 0.280491
0.672038 0.757443 0.176303
0.938964 0.679255 0.142245
0.927443 0.644648 0.141756
0.103883 0.995132 0.485496
0.173968 0.997711 0.356985
0.527642 0.974227 0.220432
0.998703 0.911147 0.297368
0.999969 0.913649 0.295705
0.0761883 0.99379 0.518181
0.17911 0.997559 0.355093
0.350271 0.990967 0.22388
0.97023 0.908888 0.297978
0.999969 0.913725 0.293858
0 0.0345006 0.137407
0.127657 0.0287327 0.132296
0.633631 0.0278172 0.186816
0.728923 0.0350958 0.143847
0.734096 0.033463 0.143557
0 0.110811 0.118471
0.0824598 0.11104 0.121157
0.588129 0.0141451 0.0831769
0.726268 0.0338293 0.139544
0.730907 0.0336461 0.144579
0 0.736812 0.432807
0.0198062 0.762997 0.305562
0.663539 0.731701 0.166613
0.92311 0.630732 0.142611
0.914565 0.597757 0.146212
0.0552834 0.986282 0.617426
0.0808728 0.993393 0.503212
0.378637 0.9897 0.223468
0.997528 0.910643 0.297292
0.999969 0.913649 0.295613
0.0662699 0.98735 0.644526
0.0738384 0.99173 0.529519
0.267155 0.996017 0.266407
0.964675 0.919509 0.290089
0.999969 0.913741 0.293446
0.010544 0.068101 0.597681
0.236713 0.0577401 0.595895
0.664073 0.0746471 0.580957
0.737652 0.0908675 0.633158
0.743008 0.0885786 0.636637
0 0.067216 0.550057
0.0910506 0.0639963 0.593805
0.639506 0.0697948 0.556848
0.734707 0.0895247 0.585657
0.737575 0.0879683 0.582834
0 0.68162 0.654169
0 0.675349 0.648875
0.650721 0.636301 0.63621
0.923873 0.567681 0.543145
0.919249 0.53106 0.510964
0.23151 0.979706 0.853849
0.160586 0.980743 0.829648
0.247776 0.994141 0.669856
0.993576 0.927031 0.49247
0.999969 0.913527 0.298772
0.384924 0.976959 0.880735
0.319448 0.980163 0.85333
0.0975814 0.98735 0.65745
0.956283 0.934264 0.399771
0.999969 0.913725 0.293858
0.434546 0.105638 0.801358
0.506386 0.10692 0.807218
0.756374 0.147829 0.805478
0.752544 0.124468 0.784863
0.773312 0.145144 0.806073
0.39826 0.105547 0.797772
0.436683 0.100771 0.799374
0.730541 0.138674 0.805951
0.746822 0.122911 0.778302
0.753567 0.120958 0.786892
0 0.643244 0.855741
0.0415503 0.641413 0.869444
0.730068 0.570138 0.962921
0.913207 0.483864 0.928695
0.898131 0.42707 0.918593
0.401282 0.969497 0.948058
0.388312 0.969192 0.948623
0.510704 0.960327 0.942565
0.952834 0.945022 0.942779
0.970535 0.941985 0.939834
0.641657 0.969955 0.955673
0.630182 0.970382 0.955444
0.604425 0.970016 0.946502
0.923903 0.972366 0.947112
0.975662 0.971298 0.941207
0.59266 0.225299 0.881148
0.662577 0.241962 0.887907
0.847761 0.283452 0.876295
0.806226 0.200626 0.835554
0.808103 0.199695 0.838544
0.544045 0.21004 0.87097
0.603098 0.228229 0.883726
0.834363 0.278416 0.8766
0.804135 0.201663 0.832288
0.808057 0.19971 0.838468
0.492058 0.629679 0.941253
0.514076 0.592264 0.953292
0.79913 0.541711 0.956359
0.914458 0.489937 0.930037
0.903319 0.447166 0.923033
0.616312 0.957107 0.966583
0.609354 0.955886 0.968185
0.650507 0.948882 0.967956
0.954086 0.935073 0.968124
0.968368 0.932433 0.966201
0.724971 0.970687 0.96698
0.722377 0.971038 0.968338
0.726741 0.971069 0.968383
0.93753 0.972061 0.971801
0.975052 0.972229 0.971496
