bundles/resolve-cinematic-luts/Phantom Luts/Ursa G2 Phntm Arri LUTs - V1/Gen5/White Balance Offset (Magenta Boost)/Ursa Neutral Gen 5 WBO.cube
TITLE "Generated by Resolve"
LUT_3D_SIZE 5
0.0106355 0.0106355 0.0106355
0.152163 0.0101167 0.0278935
0.67808 0 0.115145
0.827924 0.0134279 0.193835
0.827924 0.0134279 0.193835
0.0251011 0.143771 0.0510414
0.107103 0.146273 0.028809
0.675914 0.00109865 0.0711528
0.828534 0 0.166659
0.828336 0.0142061 0.187091
0.0780804 0.762722 0.334401
0.101472 0.762493 0.30634
0.61146 0.769757 0.138766
0.956542 0.682887 0.0456245
0.950393 0.644862 0.0573892
0.136873 0.961334 0.485374
0.183871 0.954025 0.372549
0.453727 0.946502 0.240208
0.959274 0.942824 0.207111
0.974578 0.945144 0.204486
0.112032 0.963867 0.516426
0.184436 0.95404 0.37203
0.284169 0.950744 0.259434
0.917922 0.938674 0.213855
0.974578 0.945144 0.204486
0.0265049 0.0131838 0.139681
0.176989 0.0198978 0.138384
0.722179 0.016495 0.241642
0.828305 0.0146792 0.189715
0.828229 0.0145571 0.190219
0.0246128 0.114519 0.110094
0.118654 0.111543 0.115206
0.657191 0.00427253 0.129397
0.828275 0.0148013 0.189014
0.828107 0.0139773 0.192142
0.0104677 0.716335 0.43473
0.059617 0.723095 0.324575
0.604639 0.742977 0.128237
0.947402 0.627115 0.0641489
0.942092 0.591348 0.0778973
0.0957351 0.9664 0.6103
0.112871 0.9626 0.504189
0.323171 0.949416 0.258839
0.955764 0.94226 0.207858
0.974578 0.945144 0.204486
0.110765 0.966934 0.635676
0.102022 0.964569 0.527733
0.230091 0.952239 0.304799
0.907958 0.950881 0.201633
0.974578 0.945144 0.204486
0.184024 0.0255131 0.645945
0.367849 0.0292668 0.64268
0.798215 0.0397192 0.684153
0.880217 0.0424964 0.75375
0.87985 0.0426337 0.751141
0.0886854 0.0206149 0.598703
0.244175 0.0274357 0.628901
0.758129 0.0386969 0.647135
0.869581 0.0458228 0.69514
0.867765 0.0463874 0.685847
0.0142061 0.664759 0.648234
0.0128939 0.655604 0.641016
0.65333 0.625757 0.639735
0.932219 0.553704 0.560388
0.929168 0.513588 0.534585
0.305745 0.962829 0.85153
0.231159 0.963928 0.826627
0.28986 0.967254 0.678721
0.960678 0.950149 0.46482
0.974578 0.945144 0.204486
0.449714 0.959762 0.876356
0.387335 0.962097 0.850095
0.115816 0.967071 0.654826
0.905241 0.959777 0.334554
0.974578 0.945144 0.204486
0.63389 0.11371 0.908858
0.691508 0.107347 0.914778
0.933745 0.141024 0.933761
0.911162 0.0684367 0.911162
0.928145 0.119341 0.928145
0.586954 0.0953384 0.894591
0.611658 0.0809491 0.892226
0.897353 0.114336 0.926268
0.908873 0.0645609 0.908873
0.909346 0.0653239 0.909346
0.0920729 0.589685 0.925368
0.237552 0.571298 0.933761
0.787717 0.529046 0.958495
0.962386 0.439979 0.962386
0.96199 0.374487 0.96199
0.471717 0.952972 0.941848
0.458289 0.952224 0.941115
0.554543 0.945907 0.937133
0.951308 0.945724 0.948623
0.968841 0.942428 0.946487
0.68484 0.959915 0.951553
0.676555 0.959701 0.949813
0.64358 0.958648 0.942
0.93077 0.971481 0.953811
0.974029 0.974044 0.944289
0.696773 0.178485 0.934386
0.76408 0.194797 0.942687
0.95201 0.232502 0.95201
0.934539 0.144228 0.934539
0.934539 0.144228 0.934539
0.651926 0.1635 0.926055
0.706523 0.181277 0.936034
0.938521 0.227344 0.951232
0.934539 0.144228 0.934539
0.934539 0.144228 0.934539
0.569497 0.572457 0.933501
0.592309 0.533593 0.941405
0.841199 0.496345 0.959564
0.962432 0.437736 0.962432
0.962142 0.387045 0.962142
0.657206 0.945434 0.959426
0.651987 0.943099 0.959289
0.681712 0.936278 0.959625
0.958206 0.934142 0.970153
0.970275 0.931258 0.970275
0.755901 0.962783 0.962829
0.755901 0.962783 0.962829
0.755901 0.962783 0.962829
0.943725 0.972213 0.972076
0.974487 0.974487 0.974548
