bundles/resolve-cinematic-luts/Phantom Luts/Ursa G2 Phntm Arri LUTs - V1/Gen5/White Balance Offset (Magenta Boost)/Ursa Jamaica Gen 5-Legacy WBO.cube
TITLE "Generated by Resolve"
LUT_3D_SIZE 33
0.017792 0.0344701 0.0177462
0.017792 0.0344701 0.0177462
0.017792 0.0344701 0.0177462
0.0267796 0.0348516 0.0180667
0.0377508 0.0355688 0.0189975
0.0511482 0.0363928 0.0207675
0.070573 0.0372931 0.0230106
0.0947127 0.0383154 0.0269017
0.124086 0.0390631 0.0317082
0.162097 0.0400397 0.0375219
0.209323 0.0411536 0.0447242
0.267552 0.0421912 0.0518349
0.333425 0.042771 0.0589303
0.404532 0.0421607 0.0682078
0.478813 0.0410468 0.0785992
0.545296 0.0402686 0.0896925
0.592798 0.043061 0.104051
0.614038 0.0534371 0.12192
0.626093 0.0644236 0.134813
0.629053 0.0654154 0.140383
0.631067 0.0652934 0.145876
0.64303 0.0732586 0.161212
0.65478 0.082414 0.174121
0.65478 0.082414 0.174121
0.65478 0.082414 0.174121
0.65478 0.082414 0.174121
0.65478 0.082414 0.174121
0.65478 0.0824292 0.174105
0.654765 0.082414 0.17406
0.654734 0.0824292 0.173938
0.654688 0.0824292 0.173785
0.654643 0.0824292 0.173587
0.654612 0.0824292 0.17348
0.017792 0.0344701 0.0177462
0.017792 0.0344701 0.0177462
0.017792 0.0344701 0.0177462
0.0231327 0.034699 0.0179141
0.0327459 0.0352331 0.0185397
0.0444343 0.0360266 0.0198978
0.062974 0.0368811 0.0215152
0.0885786 0.0380102 0.0251774
0.118151 0.0386206 0.0296788
0.156008 0.0395361 0.0357366
0.203647 0.0408637 0.0434577
0.262104 0.0420691 0.051133
0.329732 0.042771 0.0583963
0.401724 0.0422065 0.0678416
0.47567 0.0411231 0.0781567
0.543145 0.0402991 0.0892958
0.591699 0.0428779 0.103532
0.613519 0.0530404 0.121492
0.626032 0.0644236 0.134661
0.629038 0.0654307 0.140322
0.631083 0.0653391 0.1458
0.642542 0.0728923 0.160662
0.65478 0.082414 0.174121
0.65478 0.082414 0.174121
0.65478 0.082414 0.174121
0.65478 0.082414 0.174121
0.65478 0.082414 0.174121
0.65478 0.0824292 0.174105
0.654765 0.082414 0.17406
0.654734 0.0824292 0.173938
0.654688 0.0824292 0.173785
0.654612 0.0824292 0.173495
0.654521 0.0824445 0.173175
0.0184176 0.0361028 0.0193027
0.0182193 0.0358282 0.0186618
0.0180819 0.0354772 0.0181277
0.0189212 0.035584 0.0182193
0.0272984 0.0359197 0.0186618
0.037705 0.0366217 0.0200351
0.0523995 0.0375067 0.0211032
0.0773327 0.0384833 0.0228275
0.107225 0.0389105 0.0259709
0.144854 0.0389258 0.0312047
0.193454 0.0396887 0.0385748
0.252262 0.0412909 0.0482643
0.322103 0.042359 0.0565652
0.397147 0.0422217 0.0670481
0.471702 0.0411841 0.0774701
0.540566 0.0404517 0.0888533
0.590173 0.0426795 0.102754
0.61294 0.0525063 0.120912
0.62565 0.0641489 0.134188
0.628962 0.0654307 0.140124
0.631006 0.0653391 0.145571
0.641978 0.0724498 0.160021
0.65478 0.082414 0.174121
0.65478 0.082414 0.174121
0.65478 0.082414 0.174121
0.65478 0.082414 0.174121
0.65478 0.082414 0.174121
0.65478 0.0824292 0.174105
0.654765 0.082414 0.17406
0.654734 0.0824292 0.173938
0.654688 0.0824292 0.173785
0.654612 0.0824292 0.173495
0.654521 0.0824445 0.173175
0.0203403 0.0438697 0.0246128
0.0200809 0.0434119 0.0234379
0.0198978 0.0417334 0.0205386
0.0243076 0.0411688 0.0202945
0.0316472 0.0428626 0.0211643
0.0403449 0.0440986 0.0228428
0.0523079 0.0445869 0.0243992
0.0743267 0.0445563 0.0260471
0.101839 0.0433051 0.0264897
0.135912 0.0401923 0.0280919
0.182696 0.038407 0.032929
0.239216 0.0401312 0.043122
0.307958 0.041062 0.0522011
0.38407 0.0417029 0.063447
0.46363 0.0410163 0.0754406
0.537377 0.0404822 0.0881514
0.588586 0.0425116 0.102022
0.612161 0.0518349 0.120012
0.625193 0.063859 0.133623
0.628885 0.0654154 0.13991
0.630869 0.0653086 0.145296
0.641367 0.0719921 0.15935
0.65478 0.082414 0.174121
0.65478 0.082414 0.174121
0.65478 0.082414 0.174121
0.65478 0.082414 0.174121
0.65478 0.082414 0.174121
0.65478 0.0824292 0.174105
0.654765 0.082414 0.17406
0.654734 0.0824292 0.173938
0.654688 0.0824292 0.173785
0.654612 0.0824292 0.173495
0.654521 0.0824445 0.173175
0.0226444 0.0504463 0.0314031
0.0225376 0.0501869 0.0307622
0.0222324 0.0495308 0.0277104
0.0255589 0.0485389 0.0235447
0.0339666 0.0485847 0.0235904
0.0427558 0.0493477 0.0247044
0.0556344 0.0495003 0.026276
0.0767987 0.049073 0.0281987
0.101823 0.0486915 0.029099
0.136706 0.0457618 0.0288548
0.182071 0.0418555 0.0302892
0.236149 0.039292 0.0351568
0.301579 0.0379492 0.0429236
0.374304 0.0397955 0.0568856
0.449836 0.0399786 0.0697948
0.525338 0.0392767 0.0831159
0.583108 0.0414282 0.0986343
0.611337 0.051133 0.119051
0.624598 0.0634623 0.132845
0.628733 0.0654154 0.139574
0.630762 0.0653239 0.144976
0.640787 0.0715953 0.158618
0.654749 0.082414 0.174029
0.654765 0.0824292 0.174044
0.654765 0.0824292 0.174044
0.654765 0.082414 0.17406
0.654765 0.0824292 0.174075
0.654765 0.082414 0.17406
0.654765 0.0824292 0.174044
0.654734 0.0824292 0.173938
0.654688 0.0824292 0.173785
0.654612 0.0824292 0.173495
0.654521 0.0824445 0.173159
0.0245212 0.0596933 0.0374151
0.0243381 0.0592813 0.0367437
0.0241245 0.0585489 0.0357977
0.0239567 0.0573281 0.0304723
0.0311894 0.0567025 0.0258335
0.0432288 0.057145 0.0266575
0.0563668 0.0574502 0.0277714
0.0794842 0.0564126 0.0301671
0.106096 0.0553445 0.0322881
0.138064 0.053254 0.032578
0.178988 0.0497139 0.0314641
0.234852 0.0437171 0.0316167
0.298466 0.0404212 0.0369726
0.368933 0.0377508 0.0439612
0.444343 0.0356146 0.0531167
0.517266 0.0359655 0.071809
0.574548 0.038529 0.090013
0.606851 0.0485084 0.112657
0.622889 0.0623636 0.130526
0.628489 0.0654307 0.138903
0.630625 0.0653391 0.144594
0.639933 0.0709697 0.15761
0.654734 0.0824292 0.173938
0.654734 0.082414 0.173938
0.654734 0.0824292 0.173938
0.654734 0.0824292 0.173938
0.654734 0.0824292 0.173938
0.654734 0.0824292 0.173938
0.654734 0.0824292 0.173938
0.654719 0.0824292 0.173877
0.654688 0.0824292 0.17377
0.654612 0.0824292 0.173495
0.654521 0.0824445 0.173159
0.0247654 0.0766155 0.0437629
0.0247044 0.0761578 0.0427253
0.0249638 0.0749065 0.0423743
0.0251164 0.0731975 0.0395972
0.0258183 0.0716411 0.0339666
0.0381781 0.0716869 0.0292973
0.0534981 0.0725261 0.0293584
0.0773632 0.0720989 0.0307774
0.109178 0.068986 0.0352331
0.1411 0.0668803 0.0370489
0.186511 0.0614176 0.0379797
0.238499 0.054551 0.0354162
0.298238 0.0484016 0.0353399
0.363836 0.0425879 0.03888
0.43415 0.0378576 0.0470283
0.501839 0.0337835 0.0574655
0.559411 0.0339055 0.0716716
0.597253 0.0464942 0.09337
0.621195 0.0616922 0.127474
0.627909 0.0654612 0.137377
0.629664 0.0651713 0.142428
0.633799 0.0664378 0.150668
0.651499 0.0798505 0.170382
0.652674 0.0807813 0.171649
0.653834 0.0816815 0.172946
0.654658 0.0823377 0.173831
0.654749 0.082414 0.173938
0.654749 0.082414 0.173938
0.654749 0.082414 0.173938
0.654734 0.0824292 0.173907
0.654704 0.0824292 0.173831
0.654658 0.0824292 0.173648
0.654597 0.0824292 0.173449
0.0245212 0.0993515 0.0515602
0.0245365 0.0987564 0.0501717
0.0245365 0.0977646 0.0498665
0.0246281 0.0962081 0.0478218
0.0247501 0.094255 0.0436255
0.0286717 0.0936294 0.0358434
0.0479438 0.0937972 0.0319219
0.0694896 0.0944839 0.0321202
0.103273 0.0936904 0.0327916
0.141878 0.0904555 0.0373693
0.191226 0.0821546 0.0424506
0.245396 0.0740673 0.0430457
0.309697 0.0643626 0.0416114
0.377569 0.0540017 0.0415351
0.443854 0.0446326 0.0433051
0.505714 0.0383001 0.0526894
0.555459 0.0351415 0.0669871
0.592264 0.0437018 0.0882887
0.613428 0.0601205 0.111238
0.626963 0.0654917 0.134905
0.629007 0.0654917 0.140093
0.630625 0.0649271 0.145449
0.636927 0.0688182 0.15407
0.645136 0.0749676 0.163302
0.648997 0.0779431 0.167605
0.649912 0.0786603 0.168582
0.650553 0.0791791 0.169223
0.651133 0.0796063 0.16994
0.651514 0.0798962 0.170413
0.651865 0.0801709 0.170779
0.652277 0.0805066 0.171176
0.652583 0.0807965 0.171389
0.65272 0.0809491 0.171405
0.0260014 0.12842 0.059205
0.0260014 0.127962 0.0569467
0.0261845 0.127016 0.0572671
0.026154 0.126253 0.0566262
0.0256657 0.124193 0.0526741
0.025803 0.122042 0.0470741
0.0343786 0.121721 0.0376745
0.055787 0.122789 0.0348211
0.0892958 0.123186 0.0343328
0.133318 0.122011 0.0340429
0.181765 0.120409 0.0390631
0.254978 0.104875 0.0479591
0.319936 0.0947585 0.0508583
0.388296 0.0827955 0.0505837
0.460258 0.0680095 0.0491798
0.526238 0.0515755 0.0501564
0.570794 0.0431525 0.0639506
0.59762 0.0483864 0.0906386
0.613916 0.0603037 0.112093
0.621607 0.0661631 0.120378
0.627588 0.0655833 0.136278
0.629572 0.0654917 0.141558
0.631708 0.0652781 0.14757
0.633524 0.0663615 0.150134
0.634638 0.067155 0.1514
0.635538 0.0678264 0.152453
0.63563 0.0678721 0.15256
0.636683 0.0686503 0.153765
0.639567 0.0707866 0.157046
0.642206 0.0727398 0.160021
0.644663 0.0746471 0.162707
0.646738 0.0762646 0.164904
0.647517 0.0769207 0.165637
0.0290227 0.166949 0.0699016
0.029099 0.166903 0.0662547
0.0286717 0.165743 0.0659037
0.0283055 0.164828 0.065568
0.0277714 0.163073 0.063798
0.0281529 0.159503 0.0586557
0.0289769 0.158648 0.0517433
0.0402075 0.158587 0.0417334
0.0720989 0.160876 0.0398108
0.115648 0.161898 0.0391699
0.173983 0.160403 0.0386816
0.236683 0.15903 0.0449989
0.329778 0.140826 0.0562448
0.411917 0.126574 0.0611582
0.484398 0.115251 0.0638132
0.551492 0.0978103 0.0657511
0.597971 0.0764324 0.0726329
0.606775 0.0639963 0.0863203
0.616724 0.0657054 0.109743
0.622522 0.0669718 0.120607
0.622293 0.0664836 0.12137
0.627512 0.0656901 0.135882
0.629496 0.065568 0.141222
0.630579 0.0654459 0.144244
0.63093 0.0654154 0.145235
0.631251 0.0654002 0.146105
0.63154 0.0654002 0.146868
0.63183 0.0654307 0.147555
0.632151 0.065507 0.148272
0.632547 0.0656901 0.148898
0.633143 0.0661173 0.14963
0.633585 0.0664683 0.150042
0.633921 0.0667582 0.150332
0.0343938 0.218494 0.0876173
0.034699 0.219699 0.0833143
0.034226 0.218372 0.0818647
0.0337682 0.216541 0.0815137
0.0334325 0.214954 0.0809186
0.0335699 0.211765 0.0761883
0.0339971 0.207263 0.0692302
0.0344549 0.208667 0.0562905
0.0493477 0.209522 0.0481575
0.0935988 0.214817 0.0476539
0.152697 0.21677 0.0463722
0.230106 0.215244 0.0466163
0.315206 0.217029 0.0513161
0.412741 0.205051 0.0684977
0.51693 0.181201 0.0809949
0.59379 0.16585 0.0895552
0.647883 0.153094 0.101274
0.664836 0.140581 0.118914
0.651484 0.113283 0.123568
0.628382 0.0794842 0.110582
0.623453 0.0694285 0.11722
0.622538 0.0668803 0.120882
0.626307 0.0658732 0.13254
0.627787 0.0657664 0.136446
0.628183 0.0657359 0.137514
0.628595 0.0656901 0.138659
0.628962 0.0656748 0.139635
0.629236 0.0656291 0.140429
0.629419 0.0655985 0.140948
0.629648 0.0655528 0.141604
0.629816 0.0655375 0.142092
0.629923 0.0655528 0.142351
0.629969 0.065568 0.142458
0.0421454 0.286458 0.114107
0.0425574 0.287892 0.109453
0.0422827 0.287633 0.10695
0.0415503 0.285588 0.106416
0.0413977 0.283833 0.105898
0.0412451 0.281209 0.103853
0.0413672 0.276799 0.0964218
0.0423438 0.274037 0.0871901
0.0428779 0.276081 0.0670024
0.0656291 0.279042 0.0631571
0.127687 0.287907 0.0606088
0.206546 0.291356 0.057435
0.304875 0.289357 0.0630808
0.40824 0.290639 0.0613107
0.502815 0.286076 0.0809186
0.616831 0.256641 0.105547
0.696101 0.235264 0.128908
0.724743 0.226154 0.157458
0.723079 0.213474 0.167895
0.709621 0.19382 0.159991
0.679591 0.150515 0.141848
0.63093 0.0826734 0.112276
0.622843 0.0679332 0.119371
0.623209 0.0663462 0.123949
0.624369 0.0662547 0.126986
0.625086 0.0661479 0.128923
0.625452 0.0660868 0.129992
0.625742 0.0660105 0.130846
0.625971 0.0659648 0.131487
0.626184 0.0659342 0.132067
0.626398 0.0658885 0.132708
0.626596 0.0658579 0.133288
0.626719 0.0658427 0.133608
0.0525673 0.374929 0.150652
0.0534218 0.376837 0.145861
0.0535134 0.378042 0.142672
0.0525826 0.375967 0.14168
0.0526894 0.37409 0.141268
0.0523995 0.371756 0.140322
0.0526894 0.368399 0.135897
0.0534676 0.362676 0.126131
0.0551766 0.363027 0.114229
0.0558938 0.36611 0.0874952
0.0979019 0.373541 0.0831617
0.177707 0.382055 0.0783551
0.273579 0.380499 0.0760967
0.389715 0.373617 0.0783856
0.50547 0.375387 0.0697948
0.59707 0.374929 0.0899672
0.702068 0.355993 0.129381
0.778225 0.334142 0.181765
0.792599 0.322652 0.207675
0.779385 0.298787 0.201633
0.763729 0.273762 0.192752
0.743008 0.242237 0.180484
0.693553 0.171771 0.149401
0.626627 0.0766461 0.111437
0.623484 0.0711528 0.113252
0.623529 0.0702525 0.115785
0.623453 0.0694743 0.117525
0.623407 0.0687114 0.119234
0.623133 0.0679789 0.12015
0.623056 0.0675669 0.12076
0.623041 0.0674296 0.121004
0.62298 0.0672923 0.121126
0.622934 0.067216 0.121187
0.0658885 0.475349 0.194553
0.0673991 0.477424 0.189075
0.0683146 0.479728 0.184802
0.0682383 0.479713 0.183536
0.067277 0.476982 0.183093
0.0669871 0.474754 0.182116
0.0666667 0.472114 0.180911
0.067216 0.467536 0.173144
0.0687877 0.462715 0.162325
0.0727855 0.46836 0.148226
0.0921798 0.473411 0.116945
0.143435 0.480552 0.109377
0.241917 0.485435 0.105745
0.353216 0.477424 0.0984512
0.47808 0.463645 0.0974899
0.597681 0.46659 0.0831617
0.687724 0.467567 0.108476
0.77557 0.461463 0.16408
0.836484 0.449119 0.219928
0.847166 0.427527 0.2383
0.830014 0.39115 0.228824
0.815229 0.361746 0.221134
0.798321 0.330938 0.21207
0.764996 0.275517 0.193606
0.74844 0.250187 0.183825
0.737835 0.234165 0.177615
0.728603 0.220554 0.172061
0.720012 0.208148 0.166781
0.712352 0.197238 0.16202
0.704997 0.186755 0.157519
0.697581 0.17641 0.152819
0.691356 0.167681 0.148913
0.687617 0.16257 0.146456
0.0917983 0.583215 0.250614
0.0945907 0.585702 0.244465
0.0968032 0.589059 0.23978
0.0979934 0.59028 0.236408
0.0963912 0.587793 0.235706
0.0954452 0.585611 0.234546
0.0946822 0.583352 0.23331
0.0944228 0.580865 0.230121
0.0956741 0.575921 0.219364
0.0986191 0.574868 0.206867
0.108232 0.581827 0.187259
0.137957 0.587213 0.156863
0.204791 0.596078 0.152331
0.329183 0.593973 0.136568
0.440711 0.578439 0.122698
0.565545 0.555764 0.124086
0.680873 0.558389 0.118441
0.767437 0.55993 0.158694
0.835889 0.563485 0.214084
0.874525 0.562341 0.251041
0.877409 0.537987 0.254185
0.867796 0.493446 0.247883
0.857725 0.455634 0.243549
0.844114 0.420615 0.236652
0.834104 0.399863 0.230945
0.829755 0.390768 0.228641
0.824979 0.380819 0.226215
0.820325 0.371786 0.223713
0.815625 0.362753 0.221256
0.811429 0.354788 0.219028
0.807355 0.347601 0.216922
0.804578 0.342687 0.215473
0.801556 0.337804 0.213581
0.132982 0.69099 0.317632
0.136416 0.693874 0.311971
0.139467 0.696391 0.306416
0.142626 0.698985 0.302449
0.142229 0.698222 0.300603
0.140429 0.695796 0.299443
0.139803 0.69456 0.298619
0.138949 0.692592 0.297459
0.139147 0.688975 0.290517
0.141131 0.683803 0.275563
0.148898 0.686915 0.260517
0.16231 0.69366 0.234577
0.205936 0.701686 0.209232
0.291814 0.711223 0.198444
0.430961 0.695338 0.170871
0.52958 0.675166 0.157351
0.649058 0.646815 0.165133
0.757153 0.653803 0.181857
0.837385 0.656107 0.234195
0.878798 0.660563 0.270268
0.895247 0.656413 0.283864
0.892744 0.63827 0.277714
0.887922 0.602884 0.267521
0.881834 0.562737 0.258595
0.87689 0.535286 0.253773
0.874861 0.525734 0.25214
0.872953 0.516854 0.250813
0.871138 0.50869 0.249638
0.869413 0.501198 0.248646
0.867872 0.495491 0.24773
0.866346 0.489738 0.246921
0.864713 0.484565 0.245945
0.863401 0.481285 0.245029
0.194949 0.790524 0.395651
0.199176 0.793317 0.391135
0.202976 0.795682 0.386389
0.20737 0.79855 0.38265
0.209918 0.800183 0.380194
0.208225 0.798657 0.379568
0.206729 0.796857 0.378012
0.205234 0.79498 0.376516
0.203647 0.792752 0.374289
0.204227 0.788968 0.361837
0.206867 0.785458 0.345602
0.221744 0.792798 0.330663
0.246128 0.79881 0.297673
0.299825 0.807538 0.279133
0.404883 0.816709 0.260212
0.539544 0.79205 0.227039
0.622461 0.773999 0.21915
0.740414 0.755444 0.232914
0.831785 0.753094 0.269398
0.889448 0.756359 0.31104
0.913771 0.756832 0.330877
0.914702 0.74876 0.328527
0.91107 0.734066 0.320119
0.904479 0.706828 0.305653
0.896773 0.668177 0.288151
0.895155 0.65713 0.284031
0.894194 0.649424 0.281407
0.893324 0.64239 0.279072
0.892546 0.636866 0.277302
0.891783 0.631449 0.275669
0.890761 0.626169 0.274006
0.890028 0.622095 0.272831
0.888991 0.618997 0.271443
0.279286 0.879088 0.483818
0.283574 0.881422 0.479667
0.288304 0.884184 0.476417
0.293126 0.886885 0.473213
0.298573 0.889906 0.470039
0.298436 0.889509 0.46862
0.296834 0.888197 0.467597
0.295521 0.887007 0.466239
0.294209 0.885771 0.464866
0.293187 0.883711 0.459068
0.294087 0.880858 0.445136
0.301991 0.881819 0.430106
0.323613 0.889708 0.414221
0.360357 0.895613 0.381659
0.426902 0.907958 0.362203
0.538369 0.910933 0.339162
0.649027 0.884413 0.309911
0.719493 0.869154 0.307988
0.823758 0.856352 0.332738
0.896498 0.847929 0.365698
0.932708 0.859113 0.395575
0.944366 0.85449 0.401648
0.941634 0.845518 0.395361
0.937942 0.833692 0.386816
0.931807 0.812604 0.371466
0.926894 0.795941 0.359258
0.925093 0.789685 0.354818
0.923156 0.782925 0.350088
0.921538 0.777096 0.346151
0.91989 0.771695 0.34255
0.918486 0.766903 0.339452
0.917205 0.762737 0.336767
0.916793 0.760845 0.335668
0.344686 0.935103 0.556054
0.347662 0.936324 0.550729
0.351537 0.938094 0.546319
0.355718 0.940108 0.54284
0.360021 0.942 0.538766
0.36289 0.943191 0.535943
0.362448 0.942962 0.53611
0.361608 0.94229 0.535103
0.361135 0.941939 0.5346
0.360433 0.941405 0.533806
0.361975 0.940536 0.524407
0.365682 0.939452 0.509285
0.378119 0.942016 0.492607
0.404608 0.948089 0.469703
0.458778 0.958923 0.441444
0.551217 0.971298 0.42031
0.652171 0.959991 0.391226
0.733532 0.938811 0.37496
0.797543 0.928283 0.379873
0.89247 0.920851 0.409964
0.937224 0.910704 0.427237
0.964096 0.915343 0.445609
0.967254 0.912993 0.446357
0.965209 0.908263 0.442634
0.963348 0.90338 0.438926
0.960647 0.896803 0.433829
0.959518 0.893996 0.431678
0.958206 0.890669 0.42916
0.956985 0.887877 0.427008
0.955993 0.88539 0.425269
0.954818 0.882719 0.423377
0.95375 0.88098 0.422187
0.952911 0.879271 0.421149
0.375448 0.95993 0.599939
0.375875 0.959304 0.592035
0.377203 0.959274 0.585016
0.379278 0.959869 0.579446
0.381323 0.960357 0.573968
0.383658 0.960784 0.567529
0.383978 0.960845 0.566674
0.384009 0.960845 0.566506
0.384298 0.961013 0.566506
0.384955 0.961486 0.566796
0.386603 0.96228 0.565316
0.391272 0.96286 0.553277
0.398856 0.963409 0.535714
0.415076 0.965103 0.509499
0.455283 0.973266 0.478813
0.547631 0.991363 0.452781
0.643076 0.989029 0.427314
0.729564 0.965591 0.401099
0.788266 0.955367 0.400961
0.860456 0.947936 0.416281
0.933104 0.945571 0.44593
0.960708 0.935119 0.454658
0.978408 0.940536 0.467872
0.978164 0.939742 0.467277
0.977356 0.937957 0.465812
0.976791 0.936507 0.464683
0.976349 0.935347 0.463798
0.975921 0.934325 0.463004
0.97554 0.933425 0.462287
0.975143 0.932662 0.461662
0.974655 0.931945 0.461051
0.974166 0.931228 0.460578
0.973846 0.930739 0.460456
0.37258 0.959258 0.614786
0.372396 0.958297 0.605722
0.373388 0.95816 0.597818
0.375784 0.95903 0.591043
0.378088 0.959731 0.584466
0.380453 0.960311 0.577478
0.381994 0.960616 0.572961
0.381933 0.960601 0.573098
0.381949 0.960601 0.573022
0.382147 0.960739 0.573129
0.382681 0.961166 0.573602
0.38645 0.962295 0.565972
0.392889 0.963241 0.550347
0.405783 0.965042 0.526833
0.431693 0.968078 0.4934
0.51284 0.987594 0.463905
0.623682 0.99237 0.434226
0.70901 0.972488 0.406973
0.768353 0.958511 0.399832
0.822919 0.951965 0.406989
0.901656 0.945769 0.431174
0.942657 0.933532 0.443824
0.970993 0.938079 0.462165
0.978592 0.940703 0.468055
0.978988 0.940978 0.468437
0.978607 0.940581 0.467994
0.978607 0.940566 0.467979
0.978714 0.94052 0.468025
0.978927 0.940398 0.468086
0.979248 0.940246 0.468177
0.9794 0.940108 0.468208
0.979599 0.939956 0.468315
0.979492 0.939895 0.468452
0.370077 0.958053 0.623468
0.369512 0.956924 0.614191
0.370535 0.956939 0.605722
0.373022 0.957992 0.598611
0.375631 0.958953 0.590936
0.378439 0.959747 0.582513
0.381201 0.960357 0.574212
0.381292 0.960372 0.573968
0.381277 0.960372 0.574029
0.381262 0.960372 0.574075
0.381476 0.960555 0.574365
0.382757 0.961151 0.5729
0.388571 0.962509 0.559625
0.398367 0.963775 0.538186
0.420233 0.966613 0.505806
0.471885 0.978439 0.475196
0.594141 0.99202 0.439384
0.693706 0.976486 0.410819
0.754284 0.960891 0.400015
0.804471 0.953582 0.403464
0.865812 0.947387 0.417762
0.929473 0.945907 0.444266
0.960678 0.936507 0.45536
0.977249 0.939879 0.466804
0.979202 0.940307 0.468208
0.979751 0.94052 0.468635
0.980117 0.940749 0.468986
0.980179 0.940764 0.469017
0.980194 0.940795 0.469047
0.980179 0.94081 0.469047
0.980362 0.940764 0.469123
0.980331 0.940764 0.469154
0.980285 0.94078 0.469306
0.368887 0.957336 0.627283
0.368338 0.956283 0.617578
0.369436 0.956451 0.609155
0.372076 0.95758 0.601236
0.374777 0.958602 0.593149
0.377935 0.959564 0.583673
0.381949 0.960464 0.571878
0.382834 0.960632 0.569406
0.383001 0.960647 0.568872
0.382925 0.960647 0.569085
0.382849 0.960632 0.569375
0.382971 0.960815 0.570001
0.386526 0.9617 0.562112
0.395483 0.963363 0.543648
0.41352 0.966262 0.516045
0.452628 0.974151 0.484123
0.555657 0.990692 0.448661
0.676371 0.980362 0.414954
0.743801 0.96318 0.400778
0.789166 0.955566 0.401648
0.834546 0.950576 0.409552
0.896208 0.946227 0.429099
0.944274 0.935256 0.445609
0.969696 0.938277 0.461509
0.977066 0.940719 0.46717
0.977783 0.940932 0.467704
0.978149 0.940917 0.467903
0.978378 0.940948 0.468055
0.978393 0.940978 0.468071
0.97821 0.94107 0.468025
0.978088 0.941115 0.468009
0.978119 0.9411 0.468116
0.978515 0.940902 0.468452
0.372045 0.959609 0.625391
0.371603 0.958556 0.615
0.372564 0.958389 0.605173
0.374792 0.95906 0.596521
0.377279 0.95964 0.587427
0.380591 0.96022 0.575936
0.384771 0.960998 0.564309
0.388388 0.961334 0.554147
0.388708 0.961395 0.553475
0.388479 0.961364 0.55404
0.38819 0.961334 0.554803
0.387945 0.961318 0.555489
0.388968 0.961624 0.553841
0.39617 0.962921 0.53991
0.411368 0.965484 0.51725
0.444678 0.97229 0.488426
0.524712 0.987747 0.457435
0.651438 0.985611 0.422278
0.734112 0.965362 0.401648
0.778668 0.957076 0.400824
0.813321 0.952819 0.405371
0.865675 0.947601 0.418082
0.928038 0.939651 0.439902
0.961715 0.936904 0.456214
0.975479 0.940291 0.46598
0.9776 0.941009 0.467643
0.977584 0.941024 0.467643
0.977478 0.94107 0.467613
0.977295 0.941161 0.467552
0.976959 0.941314 0.46746
0.976699 0.941421 0.467399
0.976471 0.941497 0.467445
0.97644 0.941482 0.467643
0.376547 0.962615 0.620844
0.376303 0.961578 0.610376
0.377203 0.961227 0.600351
0.379751 0.96173 0.589975
0.382284 0.96199 0.579751
0.385657 0.962097 0.567224
0.390372 0.962203 0.552346
0.396094 0.962188 0.53698
0.396796 0.962173 0.535195
0.396521 0.962158 0.53579
0.396201 0.962127 0.536461
0.395834 0.962112 0.537255
0.395529 0.962081 0.537942
0.400687 0.962737 0.528542
0.414221 0.964614 0.509117
0.443778 0.971389 0.486992
0.512016 0.985672 0.460578
0.631342 0.988663 0.427771
0.723964 0.967819 0.402914
0.768002 0.95848 0.399924
0.796445 0.954849 0.402686
0.84097 0.949859 0.411185
0.912749 0.945891 0.436393
0.953521 0.938399 0.452552
0.971466 0.938827 0.462898
0.977188 0.940764 0.467277
0.977722 0.940978 0.467704
0.977615 0.941024 0.467674
0.977386 0.941131 0.467582
0.977035 0.941283 0.46746
0.976791 0.941405 0.467369
0.976608 0.941466 0.467353
0.976486 0.941497 0.467445
0.379431 0.965316 0.628717
0.37818 0.963577 0.617792
0.377539 0.962142 0.606867
0.378836 0.961898 0.596277
0.381003 0.961898 0.585046
0.383963 0.962036 0.573205
0.388464 0.962081 0.557641
0.394507 0.962249 0.541146
0.396887 0.962173 0.534997
0.396887 0.962173 0.534997
0.396887 0.962173 0.534997
0.396887 0.962173 0.534997
0.396887 0.962173 0.534997
0.400549 0.962448 0.527657
0.413489 0.96379 0.507607
0.440604 0.968902 0.483955
0.501244 0.983474 0.462898
0.614694 0.990295 0.432364
0.713939 0.970504 0.404868
0.757671 0.959991 0.399481
0.779583 0.956939 0.400656
0.819333 0.952117 0.406348
0.893019 0.946471 0.428031
0.942931 0.937453 0.446342
0.966278 0.937072 0.458976
0.976196 0.940444 0.466529
0.977737 0.940963 0.46772
0.97763 0.941024 0.467689
0.977417 0.941115 0.467628
0.977066 0.941283 0.467491
0.976822 0.94139 0.467384
0.976654 0.941466 0.467338
0.976577 0.941482 0.467399
0.379797 0.965911 0.633967
0.378515 0.964248 0.623301
0.377523 0.9626 0.612085
0.378103 0.961975 0.601648
0.379828 0.961791 0.590173
0.38265 0.96199 0.578363
0.386954 0.962112 0.562768
0.39266 0.962234 0.546029
0.395727 0.962234 0.538048
0.396887 0.962173 0.534997
0.396887 0.962173 0.534997
0.396887 0.962173 0.534997
0.396887 0.962173 0.534997
0.399176 0.962341 0.530343
0.408942 0.963424 0.514443
