bundles/resolve-cinematic-luts/Phantom Luts/Ursa G2 Phntm Arri LUTs - V1/Gen5/White Balance Offset (Magenta Boost)/Ursa Jamaica Gen 5-Legacy WBO.cube
TITLE "Generated by Resolve"
LUT_3D_SIZE 5
0.017792 0.0344701 0.0177462
0.124086 0.0390631 0.0317082
0.592798 0.043061 0.104051
0.65478 0.082414 0.174121
0.654612 0.0824292 0.17348
0.0260014 0.12842 0.059205
0.0892958 0.123186 0.0343328
0.570794 0.0431525 0.0639506
0.634638 0.067155 0.1514
0.647517 0.0769207 0.165637
0.194949 0.790524 0.395651
0.203647 0.792752 0.374289
0.622461 0.773999 0.21915
0.896773 0.668177 0.288151
0.888991 0.618997 0.271443
0.376547 0.962615 0.620844
0.396796 0.962173 0.535195
0.512016 0.985672 0.460578
0.971466 0.938827 0.462898
0.976486 0.941497 0.467445
0.382345 0.968627 0.652003
0.395666 0.963516 0.543648
0.438895 0.966278 0.478721
0.948302 0.936797 0.44889
0.976959 0.941329 0.467445
0.0299229 0.0365301 0.103151
0.143008 0.0406348 0.11754
0.638407 0.0594186 0.181567
0.650324 0.0789807 0.168734
0.650919 0.0795148 0.168841
0.030518 0.105623 0.0995193
0.0916304 0.100633 0.0883192
0.578256 0.0416724 0.0938277
0.648356 0.0774701 0.166751
0.653147 0.0813001 0.171679
0.115343 0.723186 0.448798
0.157977 0.746029 0.363653
0.600626 0.743267 0.197986
0.888395 0.606744 0.268467
0.880369 0.560555 0.257343
0.362127 0.949035 0.701854
0.370565 0.958297 0.625055
0.458503 0.97499 0.479942
0.96939 0.93817 0.461326
0.976394 0.941512 0.467506
0.368383 0.952926 0.722515
0.370581 0.959274 0.645914
0.413214 0.962722 0.50428
0.934188 0.935409 0.440726
0.975723 0.941878 0.467033
0.117281 0.04448 0.540078
0.259342 0.0475166 0.547875
0.675578 0.0905318 0.556863
0.691127 0.114565 0.592248
0.69453 0.113039 0.582681
0.0464179 0.0408179 0.480049
0.154726 0.0451667 0.524514
0.657542 0.0762493 0.531868
0.708339 0.107729 0.533532
0.711009 0.10602 0.518593
0.0998703 0.638178 0.611276
0.0905318 0.628611 0.592508
0.61239 0.600259 0.548409
0.946487 0.529488 0.435935
0.931044 0.480934 0.395682
0.419287 0.953719 0.888701
0.395605 0.943755 0.849943
0.376593 0.962417 0.703899
0.97789 0.942626 0.469306
0.977172 0.941131 0.467903
0.459312 0.970138 0.914717
0.426764 0.964981 0.879866
0.362905 0.951751 0.679973
0.930678 0.937407 0.440345
0.975952 0.941787 0.467109
0.414191 0.102037 0.720531
0.465217 0.105959 0.721508
0.674815 0.161196 0.717098
0.669261 0.151736 0.707103
0.673503 0.157168 0.711147
0.374548 0.0912032 0.708522
0.39794 0.0897688 0.707774
0.654292 0.150973 0.713085
0.666789 0.149081 0.704967
0.666484 0.149111 0.704189
0.148165 0.508934 0.763836
0.163424 0.495109 0.783688
0.716152 0.467857 0.936553
0.894972 0.383337 0.928969
0.84593 0.325078 0.880964
0.500877 0.963653 0.972107
0.487984 0.963134 0.967117
0.51519 0.967193 0.966964
0.955215 0.953429 0.947433
0.96434 0.951125 0.945281
0.663462 0.965469 0.972549
0.653849 0.966018 0.971801
0.614466 0.967391 0.971145
0.930098 0.959396 0.950652
0.96379 0.959548 0.932891
0.54229 0.177096 0.792187
0.60827 0.195377 0.802106
0.769543 0.252079 0.805325
0.713939 0.198535 0.750805
0.713985 0.198428 0.750515
0.500038 0.164065 0.781415
0.550423 0.179446 0.793851
0.765148 0.2486 0.802274
0.713954 0.198596 0.750942
0.713954 0.198474 0.750622
0.492363 0.518624 0.897215
0.51313 0.476417 0.898833
0.822782 0.447318 0.951949
0.902815 0.395819 0.936339
0.869947 0.351308 0.904479
0.660288 0.962921 0.973877
0.653132 0.963439 0.972473
0.662593 0.958816 0.970565
0.958282 0.945571 0.962814
0.963653 0.942565 0.964157
0.756558 0.96112 0.96936
0.754253 0.962142 0.96759
0.753719 0.962173 0.96762
0.946715 0.959716 0.961807
0.965179 0.958709 0.964599
