bundles/resolve-cinematic-luts/Phantom Luts/Ursa G2 Phntm Arri LUTs - V1/Gen5/White Balance Offset (Magenta Boost)/Ursa Neutral Gen 5 WBO.cube
TITLE "Generated by Resolve"
LUT_3D_SIZE 33
0.0106355 0.0106355 0.0106355
0.0106355 0.0106355 0.0106355
0.0106355 0.0106355 0.0106355
0.023621 0.0112306 0.0112612
0.0373999 0.0113222 0.0118715
0.0564431 0.0112612 0.0142214
0.0828107 0.0112459 0.017319
0.113405 0.0109712 0.0215152
0.152163 0.0101167 0.0278935
0.20032 0.00924697 0.035584
0.258381 0.00827039 0.0438849
0.321279 0.00691234 0.0513008
0.385245 0.00514229 0.0569314
0.453773 0.00289921 0.0691997
0.52636 0 0.0846723
0.600168 0 0.100587
0.67808 0 0.115145
0.751751 0 0.126421
0.813581 0 0.135836
0.824262 0 0.147356
0.826093 0 0.157351
0.827634 0.00726329 0.18027
0.827924 0.0134279 0.193835
0.827924 0.0134279 0.193835
0.827924 0.0134279 0.193835
0.827924 0.0134279 0.193835
0.827924 0.0134279 0.193835
0.827924 0.0134279 0.193835
0.827924 0.0134279 0.193835
0.827924 0.0134279 0.193835
0.827924 0.0134279 0.193835
0.827924 0.0134279 0.193835
0.827924 0.0134279 0.193835
0.0106355 0.0106355 0.0106355
0.0106355 0.0106355 0.0106355
0.0106355 0.0106355 0.0106355
0.016495 0.0109255 0.0109255
0.0310216 0.0113375 0.0115816
0.0480964 0.0112917 0.0131228
0.0754406 0.0112459 0.0164492
0.107057 0.0110628 0.0205692
0.146639 0.0102235 0.026978
0.194614 0.00933852 0.0347143
0.25275 0.0083772 0.0431373
0.316426 0.00703441 0.0507973
0.380865 0.00531014 0.0564736
0.449592 0.00306706 0.0683604
0.522545 0 0.0838788
0.596735 0 0.0999313
0.674922 0 0.114565
0.749401 0 0.126146
0.811704 0 0.135103
0.824216 0 0.147005
0.826047 0 0.157
0.827573 0.00650034 0.179477
0.827924 0.0134279 0.193835
0.827924 0.0134279 0.193835
0.827924 0.0134279 0.193835
0.827924 0.0134279 0.193835
0.827924 0.0134279 0.193835
0.827924 0.0134279 0.193835
0.827924 0.0134279 0.193835
0.827924 0.0134279 0.193835
0.827924 0.0134279 0.193835
0.827924 0.0134279 0.193835
0.827924 0.0134279 0.193835
0.0106355 0.0106355 0.0106355
0.0106355 0.0106355 0.0106355
0.0106355 0.0106355 0.0106355
0.0106355 0.0106355 0.0106355
0.0205081 0.0111086 0.0111086
0.0352636 0.011429 0.01178
0.0581826 0.0112612 0.0144503
0.0912337 0.0112154 0.0183871
0.129824 0.010605 0.0242008
0.179995 0.00958267 0.0324102
0.240269 0.00859083 0.0414435
0.308339 0.00723278 0.0499123
0.376089 0.00549325 0.0559854
0.445472 0.00317388 0.0674907
0.518822 0 0.0829938
0.593423 0 0.0992294
0.671504 0 0.113985
0.746822 0 0.125917
0.809613 0 0.13434
0.824186 0 0.146685
0.825971 0 0.156588
0.827527 0.00561532 0.178561
0.827924 0.0134279 0.193835
0.827924 0.0134279 0.193835
0.827924 0.0134279 0.193835
0.827924 0.0134279 0.193835
0.827924 0.0134279 0.193835
0.827924 0.0134279 0.193835
0.827924 0.0134279 0.193835
0.827924 0.0134279 0.193835
0.827924 0.0134279 0.193835
0.827924 0.0134279 0.193835
0.827924 0.0134279 0.193835
0.0115816 0.0199588 0.0133364
0.0114748 0.0189822 0.0130007
0.0113985 0.0165866 0.0114443
0.014847 0.0171817 0.01149
0.0234684 0.0195468 0.0120394
0.0360571 0.0203098 0.0130617
0.0544137 0.0200961 0.0141451
0.0862593 0.0153506 0.0155795
0.120394 0.0117952 0.0219272
0.165942 0.00984207 0.0301366
0.224323 0.00886549 0.0391699
0.292485 0.00758373 0.048127
0.362219 0.00588998 0.054902
0.435019 0.00205997 0.063508
0.512551 0 0.0802625
0.589853 0 0.098497
0.668177 0 0.11339
0.74403 0 0.125536
0.807446 0 0.133577
0.824155 0 0.146365
0.82591 0 0.156237
0.827482 0.00474556 0.177661
0.827924 0.0134279 0.193835
0.827924 0.0134279 0.193835
0.827924 0.0134279 0.193835
0.827924 0.0134279 0.193835
0.827924 0.0134279 0.193835
0.827924 0.0134279 0.193835
0.827924 0.0134279 0.193835
0.827924 0.0134279 0.193835
0.827924 0.0134279 0.193835
0.827924 0.0134279 0.193835
0.827924 0.0134279 0.193835
0.013077 0.0339055 0.0180667
0.0130007 0.0330663 0.0177157
0.0131838 0.0315404 0.014847
0.016907 0.0296941 0.0137179
0.0256352 0.0315862 0.0135958
0.0387579 0.0324559 0.0132753
0.0585489 0.0310216 0.0155947
0.0880293 0.0281529 0.0173953
0.122179 0.0228428 0.0191501
0.167971 0.0149691 0.0263828
0.221347 0.0102083 0.0379339
0.286183 0.00772107 0.0473793
0.354116 0.00613413 0.054139
0.424964 0.00296025 0.0617533
0.499992 0 0.0726329
0.578302 0 0.0921187
0.660334 0 0.110109
0.741054 0 0.125063
0.805234 0 0.132723
0.824033 0 0.145983
0.825818 0 0.155901
0.827482 0.00383001 0.176654
0.827924 0.0134279 0.193835
0.827924 0.0134279 0.193835
0.827924 0.0134279 0.193835
0.827924 0.0134279 0.193835
0.827924 0.0134279 0.193835
0.827924 0.0134279 0.193835
0.827924 0.0134279 0.193835
0.827924 0.0134279 0.193835
0.827924 0.0134279 0.193835
0.827924 0.0134279 0.193835
0.827924 0.0134279 0.193835
0.0146639 0.0495766 0.0239567
0.0145724 0.048661 0.0235904
0.0144961 0.0471046 0.021088
0.0151064 0.044831 0.0164034
0.0247654 0.0448463 0.016556
0.0382391 0.0471351 0.0159762
0.0590066 0.0471656 0.0148775
0.0919814 0.0430304 0.0193179
0.127047 0.0372625 0.0215
0.17229 0.0293584 0.0239414
0.224353 0.0204776 0.0285801
0.286717 0.0152895 0.0416876
0.350057 0.00843824 0.0525521
0.417105 0.0037995 0.0611582
0.493874 0 0.0710613
0.571099 0 0.0823529
0.649638 0 0.0977035
0.728878 0 0.117479
0.798672 0 0.129778
0.823896 0 0.144884
0.825711 0 0.1552
0.82742 0.00268559 0.175494
0.827924 0.0134279 0.193835
0.827924 0.0134279 0.193835
0.827924 0.0134279 0.193835
0.827924 0.0134279 0.193835
0.827924 0.0134279 0.193835
0.827924 0.0134279 0.193835
0.827924 0.0134279 0.193835
0.827924 0.0134279 0.193835
0.827924 0.0134279 0.193835
0.827924 0.0134279 0.193835
0.827924 0.0134279 0.193835
0.0174716 0.0751049 0.0323339
0.0174411 0.0740826 0.0315862
0.0173953 0.072755 0.0306706
0.0173953 0.0696727 0.0255741
0.017731 0.0682231 0.0187839
0.0353552 0.0701762 0.0205692
0.0538643 0.0729534 0.0195926
0.0892958 0.0725261 0.0168765
0.133608 0.0620127 0.0247044
0.178103 0.0542153 0.0277256
0.234989 0.0430457 0.0306859
0.298558 0.0307012 0.034287
0.357626 0.0218967 0.0408637
0.420279 0.0146029 0.052842
0.486717 0.00260929 0.06598
0.557885 0 0.0792859
0.637629 0 0.0915694
0.720211 0 0.104219
0.793927 0 0.124086
0.823651 0 0.141817
0.825422 0 0.152422
0.827161 0 0.165866
0.828061 0.0140383 0.191409
0.828016 0.0137942 0.192401
0.82797 0.0135805 0.193118
0.827955 0.0134127 0.193744
0.827924 0.0134279 0.193835
0.827924 0.0134279 0.193835
0.827924 0.0134279 0.193835
0.827924 0.0134279 0.193835
0.827924 0.0134279 0.193835
0.827924 0.0134279 0.193835
0.827924 0.0134279 0.193835
0.021149 0.10576 0.0417029
0.0212558 0.104753 0.0402991
0.0211185 0.103639 0.0399786
0.020676 0.101457 0.0359655
0.0208438 0.098024 0.0294041
0.021088 0.0991226 0.0227512
0.0465248 0.102159 0.025742
0.0773938 0.105592 0.0238499
0.124681 0.104768 0.0191501
0.179858 0.0962387 0.0301976
0.246998 0.0767834 0.0365148
0.30869 0.0666209 0.0401312
0.375845 0.0505379 0.0432441
0.442756 0.0310979 0.0458686
0.508232 0.0154879 0.0551461
0.572457 0.00222782 0.068986
0.635187 0 0.0852979
0.712291 0 0.0981918
0.786648 0 0.113008
0.823362 0 0.13547
0.825238 0 0.146914
0.826978 0 0.157824
0.828305 0 0.171038
0.828397 0.0104677 0.183093
0.82826 0.0148318 0.188724
0.828168 0.0145418 0.189776
0.828107 0.0143282 0.190372
0.828077 0.0142061 0.190921
0.828077 0.0140841 0.191394
0.828046 0.013901 0.191806
0.828 0.0138247 0.192142
0.828016 0.0137942 0.192386
0.828016 0.0137484 0.192584
0.0251011 0.143771 0.0510414
0.0252384 0.142687 0.0493324
0.0251011 0.141558 0.0489815
0.0250553 0.13994 0.0476539
0.0250858 0.136522 0.0408331
0.0250706 0.133974 0.03093
0.0260929 0.136385 0.0280766
0.061799 0.141665 0.0318761
0.107103 0.146273 0.028809
0.168948 0.144594 0.0228275
0.233341 0.140993 0.0353552
0.327962 0.11046 0.0466773
0.389838 0.10045 0.0497597
0.456519 0.0844129 0.0523537
0.530343 0.0581064 0.0537423
0.605051 0.0243076 0.0547951
0.675914 0.00109865 0.0711528
0.741772 0 0.093843
0.79144 0 0.108217
0.826993 0 0.117357
0.824948 0 0.138674
0.826703 0 0.149889
0.828183 0 0.161166
0.828504 0 0.165408
0.828534 0 0.166659
0.828473 0 0.167926
0.828489 0 0.168994
0.828473 0 0.170504
0.828473 0.00308232 0.175143
0.828473 0.00682078 0.179171
0.828428 0.00985733 0.182452
0.828382 0.0125582 0.185275
0.828336 0.0142061 0.187091
0.0319219 0.193484 0.0638437
0.0322728 0.192721 0.0608377
0.0320745 0.191394 0.060502
0.0318761 0.190066 0.0601053
0.0316777 0.187213 0.0558633
0.0313878 0.182818 0.0474403
0.0315099 0.183139 0.0352941
0.0375677 0.185657 0.0364538
0.0887007 0.194858 0.0392462
0.144976 0.200763 0.0348821
0.224552 0.199008 0.028397
0.30457 0.196994 0.0395209
0.405768 0.165469 0.0573129
0.482216 0.147601 0.0601205
0.549599 0.135149 0.061738
0.625803 0.109163 0.0622873
0.702846 0.0699931 0.0653391
0.775662 0.0224918 0.0690623
0.828595 0 0.0891127
0.83798 0 0.112337
0.83154 0 0.115419
0.82623 0 0.137545
0.827878 0 0.149279
0.828367 0 0.154955
0.828412 0 0.15671
0.828443 0 0.158419
0.828458 0 0.159915
0.828519 0 0.160998
0.828458 0 0.162097
0.828473 0 0.163012
0.828473 0 0.163806
0.828504 0 0.164446
0.828504 0 0.16492
0.0408942 0.255131 0.0842451
0.0418708 0.255268 0.0794842
0.0416724 0.254032 0.0791791
0.0414435 0.252552 0.0786908
0.0412299 0.251011 0.0780499
0.0410315 0.246525 0.0700999
0.0406195 0.241352 0.0586557
0.0412757 0.2448 0.0451362
0.054551 0.249027 0.0475929
0.12079 0.262287 0.0509804
0.194049 0.269657 0.045182
0.293614 0.267247 0.0340124
0.386114 0.269123 0.0351263
0.476463 0.252171 0.0594492
0.57763 0.216266 0.0703746
0.657328 0.196551 0.0713817
0.73341 0.17673 0.0757
0.807568 0.146166 0.0802472
0.864286 0.101167 0.0832685
0.880064 0.02916 0.0808576
0.860029 0 0.0971389
0.836912 0 0.112902
0.827024 0 0.130053
0.827893 0 0.139452
0.828016 0 0.142031
0.828107 0 0.144183
0.828183 0 0.145907
0.828244 0 0.147448
0.82826 0 0.148806
0.82829 0 0.149996
0.828321 0 0.151034
0.828351 0 0.151904
0.828367 0 0.152438
0.0510414 0.331701 0.111696
0.0524453 0.332738 0.106874
0.0526894 0.331945 0.105211
0.0525063 0.330449 0.104692
0.0523079 0.328878 0.104112
0.0524453 0.326101 0.101091
0.0523537 0.32105 0.09131
0.0524758 0.319036 0.0766918
0.0528725 0.321508 0.0583963
0.080827 0.329854 0.0635691
0.162371 0.344656 0.0658274
0.255863 0.35285 0.0559854
0.372183 0.348989 0.0400092
0.471138 0.353704 0.0267948
0.553017 0.348745 0.0480049
0.664546 0.310552 0.0749065
0.760708 0.278584 0.085481
0.838926 0.253254 0.0901961
0.899046 0.223911 0.0940566
0.911055 0.195026 0.0932784
0.90251 0.145724 0.0894484
0.883162 0.0430915 0.0822003
0.847852 0 0.106111
0.829969 0 0.116106
0.829343 0 0.116976
0.828916 0 0.120089
0.828565 0 0.122881
0.828214 0 0.125185
0.828122 0 0.127275
0.827863 0 0.128939
0.827649 0 0.130144
0.827451 0 0.131228
0.827558 0 0.132204
0.0599985 0.414862 0.145098
0.061738 0.416083 0.140185
0.0627604 0.416556 0.137102
0.0626383 0.41532 0.136553
0.0624704 0.413794 0.135927
0.0622721 0.411963 0.13521
0.0632029 0.408148 0.129
0.0642405 0.402853 0.11783
0.0651713 0.405509 0.100969
0.0653086 0.40705 0.0729992
0.118349 0.419287 0.0831006
0.221302 0.431693 0.0803845
0.327535 0.43888 0.0648508
0.450065 0.431388 0.0508125
0.553719 0.436255 0.0175479
0.634989 0.435767 0.0261234
0.730159 0.415213 0.0654002
0.834943 0.375647 0.0977798
0.905303 0.348913 0.105241
0.925536 0.320836 0.104723
0.922972 0.293034 0.101579
0.919478 0.257053 0.0982376
0.908248 0.178378 0.0918288
0.878752 0.0233921 0.0805829
0.871855 0 0.0787671
0.866072 0 0.090013
0.8598 0 0.0973678
0.853941 0 0.102495
0.848234 0 0.105837
0.843793 0 0.108873
0.842634 0 0.109743
0.841321 0 0.110552
0.840253 0 0.111116
0.0663615 0.502861 0.185367
0.068864 0.504387 0.179782
0.0712749 0.506279 0.174594
0.0712291 0.505104 0.173953
0.0711223 0.503777 0.173373
0.070985 0.502312 0.172824
0.0708934 0.500221 0.17174
0.0734417 0.495796 0.161532
0.076463 0.491463 0.14902
0.0784619 0.498665 0.127764
0.092546 0.501961 0.0906081
0.168048 0.511757 0.10135
0.297261 0.518776 0.0935378
0.401312 0.524147 0.0745861
0.525109 0.512261 0.065507
0.630442 0.517327 0.017731
0.712718 0.516945 0.0179599
0.794751 0.509071 0.0515602
0.869505 0.492851 0.0851453
0.932448 0.461555 0.109834
0.931517 0.419303 0.115419
0.929808 0.390646 0.112505
0.928191 0.359167 0.109102
0.923827 0.301091 0.102541
0.920928 0.270985 0.0994888
0.919066 0.253666 0.0979477
0.917037 0.236912 0.0964828
0.915114 0.220981 0.0953536
0.912886 0.20621 0.0940566
0.910689 0.192844 0.0931106
0.908629 0.180652 0.0918746
0.906828 0.170092 0.0910811
0.905547 0.162829 0.0907301
0.0670939 0.592187 0.231266
0.070985 0.593591 0.224979
0.074815 0.595254 0.218753
0.0763409 0.595605 0.215946
0.0762341 0.594522 0.215473
0.0761578 0.593194 0.214817
0.076112 0.59147 0.213855
0.0777447 0.588754 0.208881
0.0825513 0.584527 0.195605
0.0892653 0.584497 0.17966
0.0936294 0.591485 0.151583
0.138628 0.595132 0.113176
0.231464 0.601709 0.118883
0.386831 0.604746 0.10396
0.472435 0.608179 0.0898451
0.595529 0.590616 0.0858473
0.698787 0.597559 0.0310521
0.786496 0.595743 0.0228428
0.854948 0.59501 0.0347295
0.90724 0.589532 0.0625315
0.938827 0.565499 0.086656
0.935225 0.527428 0.0972305
0.933852 0.494377 0.104555
0.932586 0.459617 0.11017
0.932036 0.435752 0.113573
0.931777 0.425254 0.114885
0.931365 0.414878 0.115923
0.930922 0.407187 0.114824
0.930495 0.400015 0.113863
0.929976 0.39324 0.112825
0.929824 0.387304 0.112306
0.929351 0.38175 0.111589
0.929168 0.37792 0.111147
0.068925 0.678889 0.28188
0.0746777 0.680323 0.275151
0.0801862 0.682078 0.268772
0.0850233 0.683665 0.262959
0.0849928 0.682841 0.262394
0.0848096 0.681559 0.261692
0.0846265 0.680095 0.260868
0.0842451 0.678248 0.260014
0.0894942 0.674784 0.249668
0.0971847 0.670314 0.232853
0.109255 0.674159 0.21117
0.125322 0.6804 0.170397
0.1953 0.683085 0.145678
0.316915 0.686488 0.143877
0.467094 0.687373 0.12192
0.540993 0.688716 0.112184
0.662867 0.668345 0.112093
0.7617 0.680339 0.0518196
0.847715 0.67744 0.0339513
0.904005 0.676402 0.0382696
0.945937 0.670573 0.0435187
0.952163 0.655375 0.053315
0.947219 0.626047 0.0645762
0.942046 0.590997 0.0780499
0.938888 0.565988 0.0865339
0.937896 0.55848 0.0886702
0.93724 0.551507 0.0908064
0.936812 0.54522 0.0928511
0.936172 0.539391 0.0943008
0.935821 0.53434 0.0956588
0.9355 0.529702 0.0968338
0.935088 0.525719 0.0976425
0.93492 0.523064 0.0982681
0.0780804 0.762722 0.334401
0.0852979 0.764294 0.327367
0.0927291 0.766033 0.320607
0.0994125 0.767941 0.31368
0.10222 0.768368 0.310262
0.102129 0.767514 0.30988
0.101778 0.766155 0.3093
0.101396 0.764584 0.308446
0.101472 0.762493 0.30634
0.110369 0.758389 0.289982
0.120623 0.754498 0.269474
0.13846 0.76202 0.239261
0.166232 0.767529 0.177798
0.266514 0.765469 0.175753
0.414649 0.766308 0.165805
0.536843 0.768856 0.146853
0.61146 0.769757 0.138766
0.730755 0.753323 0.134783
0.821286 0.759121 0.0878614
0.887831 0.763241 0.0670787
0.937285 0.759701 0.0556954
0.962661 0.751873 0.0543069
0.961852 0.739437 0.0521401
0.960037 0.717189 0.0490578
0.956542 0.682887 0.0456245
0.955322 0.673793 0.0464637
0.954208 0.667842 0.0485695
0.953353 0.662699 0.0504616
0.952514 0.657862 0.0522621
0.951858 0.653758 0.0538949
0.951232 0.650034 0.0553597
0.950561 0.646922 0.0562753
0.950393 0.644862 0.0573892
0.0903792 0.83798 0.379873
0.0980392 0.839429 0.373205
0.105333 0.841047 0.366461
0.112505 0.842924 0.359808
0.119432 0.845029 0.352911
0.119234 0.84416 0.352422
0.11902 0.843153 0.351843
0.118715 0.841901 0.351186
0.118318 0.840452 0.350423
0.122469 0.838071 0.342702
0.133928 0.834562 0.323247
0.149187 0.834867 0.296849
0.176135 0.841764 0.256168
0.239826 0.841611 0.204059
0.365362 0.837827 0.198352
0.511208 0.839796 0.18555
0.605127 0.844175 0.173678
0.681971 0.845579 0.166033
0.798306 0.839475 0.150332
0.866194 0.833143 0.144732
0.914778 0.842603 0.1178
0.957916 0.838865 0.0978714
0.964279 0.831678 0.0923323
0.964462 0.823331 0.0871443
0.964492 0.807507 0.0776226
0.964218 0.793744 0.0696727
0.964279 0.78883 0.0670024
0.964004 0.784131 0.0643473
0.96408 0.779858 0.0621347
0.963806 0.776059 0.0605478
0.963684 0.772534 0.0592508
0.963561 0.769543 0.0581521
0.963516 0.767788 0.057435
0.101167 0.898253 0.417899
0.108721 0.89926 0.410941
0.115846 0.900633 0.404562
0.12282 0.902296 0.398016
0.130266 0.904234 0.390814
0.1337 0.904921 0.387076
0.133562 0.904204 0.386618
0.133303 0.903319 0.386114
0.133013 0.90219 0.385428
0.132692 0.900877 0.384665
0.142458 0.898283 0.369558
0.15584 0.894636 0.345449
0.176608 0.897871 0.308888
0.212024 0.904051 0.251316
0.33283 0.894911 0.222919
0.478355 0.896101 0.214801
0.602182 0.89984 0.201129
0.668956 0.905531 0.195056
0.751385 0.906828 0.188403
0.853574 0.907927 0.167895
0.897475 0.893248 0.182574
0.944121 0.897475 0.162676
0.968032 0.896345 0.149096
0.967483 0.891798 0.143893
0.966735 0.887327 0.138781
0.965927 0.881041 0.131579
0.965606 0.87863 0.128939
0.965301 0.87631 0.126375
0.965164 0.874372 0.124239
0.964843 0.872572 0.122179
0.964599 0.870832 0.120287
0.964401 0.869352 0.118715
0.964263 0.868406 0.11754
0.121675 0.941985 0.45182
0.115923 0.943191 0.441932
0.123537 0.943984 0.434516
0.130297 0.945129 0.428
0.137392 0.946578 0.42092
0.145006 0.948211 0.413046
0.14493 0.947784 0.412741
0.144778 0.947173 0.412406
0.144579 0.946456 0.411948
0.144381 0.945739 0.411627
0.147356 0.944488 0.406577
0.160662 0.941588 0.385214
0.178073 0.939712 0.354513
0.212436 0.943465 0.30338
0.284657 0.942657 0.246662
0.461982 0.935622 0.234211
0.579232 0.938903 0.225238
0.664271 0.944121 0.216312
0.726833 0.949294 0.211231
0.816464 0.950668 0.206622
0.888304 0.95346 0.194965
0.926894 0.934615 0.210285
0.964721 0.936782 0.203708
0.973236 0.934524 0.19144
0.972625 0.931105 0.187533
0.97232 0.928252 0.184237
0.972045 0.926497 0.182315
0.971862 0.925216 0.180941
0.971695 0.924086 0.179675
0.971572 0.923003 0.178454
0.97142 0.922011 0.177569
0.971252 0.921248 0.176669
0.971099 0.920668 0.176013
0.122057 0.959548 0.47332
0.130022 0.958938 0.465782
0.118547 0.959014 0.453925
0.125658 0.958526 0.445823
0.132647 0.957916 0.437415
0.140398 0.957198 0.427619
0.143359 0.956954 0.423758
0.143389 0.956863 0.423651
0.143465 0.956909 0.423575
0.143587 0.956939 0.423453
0.143709 0.956878 0.423285
0.154299 0.955856 0.408606
0.171191 0.95436 0.382467
0.201022 0.952575 0.337179
0.23978 0.951415 0.265156
0.41857 0.946975 0.24181
0.56408 0.946349 0.2309
0.652384 0.948775 0.220142
0.709331 0.953521 0.215412
0.775494 0.956176 0.213382
0.859937 0.956359 0.204059
0.909789 0.948699 0.203937
0.94873 0.941115 0.209155
0.974655 0.94522 0.207721
0.974731 0.945342 0.210376
0.974578 0.945144 0.204486
0.974578 0.945144 0.204486
0.974578 0.945144 0.204486
0.974578 0.945144 0.204486
0.974578 0.945144 0.204486
0.974578 0.945144 0.204486
0.974578 0.945144 0.204486
0.974578 0.945144 0.204486
0.10927 0.960296 0.48452
0.11841 0.959854 0.476677
0.127199 0.959213 0.468528
0.118013 0.959121 0.456474
0.125109 0.958526 0.446464
0.134234 0.957717 0.435416
0.141649 0.957031 0.42594
0.141649 0.957031 0.42594
0.141649 0.957031 0.42594
0.141619 0.957031 0.425971
0.141619 0.957031 0.425971
0.145312 0.956725 0.421164
0.162142 0.955123 0.396872
0.187991 0.953429 0.361059
0.232181 0.951766 0.293141
0.341344 0.948653 0.249729
0.546822 0.946059 0.232517
0.643839 0.947967 0.220783
0.695369 0.952331 0.216388
0.750179 0.955749 0.214145
0.827649 0.956085 0.208972
0.890166 0.956954 0.197574
0.931563 0.938582 0.212955
0.964279 0.943633 0.206226
0.974578 0.945129 0.204929
0.97467 0.945251 0.209644
0.974746 0.945327 0.213016
0.974746 0.945357 0.213413
0.974762 0.945403 0.213581
0.974746 0.945327 0.213626
0.974746 0.945327 0.213748
0.974762 0.945403 0.213901
0.974762 0.945373 0.213931
0.101717 0.960693 0.490822
0.111711 0.960098 0.482399
0.121447 0.959579 0.473884
0.131121 0.958907 0.464775
0.121523 0.958816 0.450538
0.132601 0.957916 0.437461
0.143801 0.956863 0.423148
0.145144 0.956741 0.421378
0.145022 0.956756 0.421561
0.144823 0.956725 0.421759
0.144671 0.956741 0.421988
0.144472 0.956756 0.422248
0.157671 0.955505 0.403632
0.183551 0.953948 0.371908
0.22414 0.952377 0.313573
0.301183 0.950088 0.258656
0.514046 0.945983 0.235966
0.640955 0.947677 0.221057
0.686931 0.951705 0.217197
0.7355 0.954925 0.213886
0.798032 0.956039 0.212009
0.86067 0.956359 0.203922
0.916686 0.940108 0.212436
0.95227 0.94168 0.208469
0.974578 0.945144 0.204486
0.974578 0.945144 0.204486
0.97464 0.94519 0.206332
0.974655 0.94522 0.207691
0.974655 0.94522 0.207813
0.974655 0.94522 0.207904
0.974655 0.94522 0.207996
0.974655 0.94522 0.208087
0.974655 0.94522 0.208148
0.113634 0.96144 0.492058
0.121981 0.960632 0.482689
0.129976 0.959808 0.473121
0.129259 0.959304 0.461418
0.126345 0.95874 0.447562
0.136584 0.95761 0.432624
0.150576 0.956237 0.413901
0.156741 0.95555 0.404959
0.15642 0.955642 0.405493
0.155993 0.955673 0.406088
0.155657 0.955718 0.406653
0.155169 0.95581 0.407401
0.160739 0.955215 0.398947
0.187732 0.954055 0.370321
0.220981 0.952728 0.323186
0.28748 0.950652 0.261128
0.473228 0.946212 0.240955
0.632242 0.947372 0.222263
0.682795 0.951308 0.217609
0.725582 0.954467 0.214282
0.767422 0.956176 0.213703
0.83389 0.956161 0.208179
0.906371 0.952758 0.199557
0.940841 0.939879 0.210742
0.967117 0.944015 0.205615
0.974578 0.945144 0.204486
0.974578 0.945144 0.204486
0.974578 0.945144 0.204486
0.974578 0.945144 0.204486
0.974578 0.945144 0.204486
0.974578 0.945144 0.204486
0.974578 0.945144 0.204486
0.974578 0.945144 0.204486
0.136873 0.961334 0.485374
0.144625 0.960433 0.475288
0.13521 0.960388 0.460319
0.142473 0.95935 0.447562
0.150637 0.958038 0.432563
0.160464 0.95668 0.41355
0.173663 0.955093 0.390967
0.18468 0.954009 0.371511
0.183871 0.954025 0.372549
0.183001 0.954101 0.373739
0.181994 0.954192 0.375097
0.180789 0.954192 0.376654
0.180255 0.954253 0.377432
0.201694 0.953307 0.350927
0.22771 0.952453 0.312154
0.28957 0.950637 0.260884
0.453727 0.946502 0.240208
0.619974 0.947158 0.224094
0.67982 0.951003 0.217899
0.715343 0.953765 0.214801
0.744427 0.955489 0.214023
0.811154 0.955901 0.210773
0.890593 0.957015 0.197482
0.928176 0.938109 0.213748
0.959274 0.942824 0.207111
0.974578 0.945144 0.204486
0.974578 0.945144 0.204486
0.974578 0.945144 0.204486
0.974578 0.945144 0.204486
0.974578 0.945144 0.204486
0.974578 0.945144 0.204486
0.974578 0.945144 0.204486
0.974578 0.945144 0.204486
0.132433 0.961776 0.491249
0.139971 0.960952 0.48127
0.148089 0.960143 0.470771
0.138354 0.95993 0.454749
0.146471 0.958694 0.440101
0.156466 0.957351 0.421561
0.169024 0.955596 0.398398
0.184726 0.953948 0.371374
0.184726 0.953948 0.371374
0.184726 0.953948 0.371374
0.184726 0.953948 0.371374
0.184726 0.953948 0.371374
0.184726 0.953948 0.371374
0.203769 0.953201 0.346212
0.233143 0.952117 0.29958
0.293065 0.950484 0.259022
0.443198 0.946624 0.24036
0.60827 0.946807 0.225666
0.673396 0.950545 0.21883
0.699458 0.952712 0.216098
0.723918 0.954376 0.214359
0.791775 0.95613 0.212467
0.874372 0.956695 0.201343
0.917556 0.93901 0.213474
0.950484 0.941375 0.20882
0.971878 0.944732 0.204822
0.974578 0.945144 0.204486
0.974578 0.945144 0.204486
0.974578 0.945144 0.204486
0.974578 0.945144 0.204486
0.974578 0.945144 0.204486
0.974578 0.945144 0.204486
0.974578 0.945144 0.204486
0.128313 0.962341 0.496544
0.135927 0.96144 0.486625
0.143801 0.960525 0.47628
0.136614 0.960372 0.461463
0.142901 0.959243 0.446769
0.152804 0.957824 0.42858
0.164691 0.956008 0.404883
0.18114 0.954376 0.37821
0.184726 0.953948 0.371374
0.184726 0.953948 0.371374
0.184726 0.953948 0.371374
0.184726 0.953948 0.371374
0.184726 0.953948 0.371374
0.196658 0.953506 0.356176
0.22591 0.952346 0.311696
0.266102 0.951278 0.260639
0.403861 0.947265 0.242588
0.581476 0.94641 0.228916
0.665904 0.949859 0.219379
0.695583 0.952392 0.216388
0.717342 0.953933 0.214725
0.774609 0.95613 0.213397
0.86096 0.956374 0.203876
0.91281 0.945144 0.207645
0.944472 0.940429 0.209995
0.967834 0.944091 0.205463
0.974578 0.945144 0.204486
0.974578 0.945144 0.204486
0.974578 0.945144 0.204486
0.974578 0.945144 0.204486
0.974578 0.945144 0.204486
0.974578 0.945144 0.204486
0.974578 0.945144 0.204486
0.124758 0.962707 0.501137
0.132372 0.961822 0.491341
0.140108 0.960937 0.481102
0.148302 0.960159 0.470481
0.139544 0.959731 0.452659
0.149508 0.95819 0.434607
0.161395 0.956527 0.411475
0.177691 0.954726 0.384314
0.184726 0.953948 0.371374
