bundles/resolve-cinematic-luts/Phantom Luts/Ursa G2 Phntm Arri LUTs - V1/Gen5/White Balance Offset (Magenta Boost)/Ursa IceBlue Gen 5 WBO.cube
TITLE "Generated by Resolve"
LUT_3D_SIZE 5
0.0290837 0.0417945 0.0403601
0.104494 0.0417029 0.0437781
0.550484 0.0493324 0.0892042
0.65948 0.080827 0.162325
0.66453 0.0776226 0.184039
0.0410315 0.124681 0.079881
0.0850538 0.129274 0.0634012
0.558053 0.0522469 0.0765545
0.65211 0.074464 0.150637
0.659892 0.0769207 0.169635
0.119112 0.691737 0.362036
0.144167 0.708766 0.347906
0.600916 0.741588 0.206363
0.895949 0.704143 0.278141
0.902281 0.724361 0.288502
0.256886 0.862882 0.542321
0.276036 0.853712 0.439506
0.425818 0.860868 0.319554
0.946715 0.898436 0.408591
0.959457 0.902968 0.419623
0.251499 0.863859 0.572457
0.274372 0.854017 0.438972
0.544305 0.868482 0.305333
0.955505 0.899779 0.413413
0.957565 0.903243 0.42211
0.0306859 0.0453498 0.129137
0.124788 0.0457771 0.124269
0.598856 0.0607004 0.184787
0.662409 0.0797589 0.172686
0.665888 0.0775006 0.188205
0.0360723 0.106859 0.115846
0.0882734 0.105303 0.124895
0.568185 0.0533761 0.11899
0.661433 0.0804761 0.168093
0.663966 0.0784924 0.179995
0.0850538 0.664942 0.446372
0.107668 0.682765 0.380011
0.588846 0.727138 0.195789
0.885451 0.666804 0.263859
0.890013 0.685252 0.269444
0.263264 0.873518 0.643778
0.250721 0.863981 0.570428
0.350851 0.855955 0.346731
0.943801 0.897734 0.407645
0.959319 0.902937 0.420264
0.283497 0.883574 0.69456
0.252583 0.867887 0.608927
0.400824 0.858839 0.326543
0.946059 0.897398 0.408591
0.957366 0.903395 0.420966
0.115114 0.0677653 0.575662
0.285771 0.0659495 0.598642
0.642573 0.0902876 0.567254
0.714229 0.11696 0.596994
0.70695 0.118502 0.620081
0.0602121 0.0658274 0.541619
0.172442 0.0690166 0.598199
0.635996 0.0902113 0.578302
0.717281 0.116197 0.58262
0.711376 0.117266 0.604898
0.110048 0.650202 0.631403
0.116945 0.659953 0.641794
0.618509 0.647334 0.679515
0.956985 0.594064 0.614786
0.949676 0.609644 0.642893
0.463828 0.932738 0.859678
0.470085 0.926268 0.851926
0.393149 0.912978 0.755688
0.959503 0.926604 0.593606
0.969879 0.914046 0.492424
0.591211 0.946761 0.908278
0.601358 0.93492 0.895232
0.553353 0.92401 0.827802
0.950683 0.940047 0.69308
0.959091 0.905486 0.436255
0.559136 0.193545 0.801297
0.605966 0.205478 0.808621
0.782956 0.251972 0.807141
0.739452 0.184314 0.746273
0.765484 0.219043 0.777798
0.553307 0.204837 0.811093
0.599802 0.228061 0.829709
0.801984 0.284993 0.836774
0.766018 0.213077 0.768261
0.769268 0.222858 0.780438
0.291432 0.642618 0.877928
0.395148 0.656275 0.926543
0.784665 0.599069 0.974304
0.96611 0.541833 0.957107
0.958312 0.567407 0.960037
0.607217 0.955001 0.941283
0.63653 0.951736 0.941054
0.660578 0.949828 0.940826
0.954818 0.95201 0.955428
0.972534 0.954314 0.957534
0.766857 0.958328 0.953201
0.774029 0.955123 0.952453
0.785657 0.954726 0.949691
0.959426 0.967727 0.967254
0.976287 0.969497 0.962432
0.605478 0.228519 0.828641
0.655406 0.24538 0.839017
0.82179 0.293782 0.836835
0.771206 0.222538 0.77818
0.770001 0.222751 0.779507
0.565515 0.212711 0.816922
0.607843 0.230808 0.831388
0.8121 0.290394 0.838102
0.773342 0.222156 0.775784
0.769802 0.222766 0.779873
0.545861 0.638987 0.959396
0.546593 0.630243 0.963577
0.815106 0.581552 0.971664
0.967453 0.541314 0.954849
0.956039 0.562875 0.958251
0.722255 0.952331 0.951019
0.737392 0.949371 0.949737
0.750484 0.947524 0.950896
0.954772 0.949813 0.964706
0.971817 0.952163 0.963241
0.790646 0.957382 0.952148
0.80473 0.953567 0.953201
0.82945 0.954864 0.955444
0.95787 0.968734 0.972915
0.984634 0.967391 0.963333
