bundles/resolve-cinematic-luts/Phantom Luts/Ursa G2 Phntm Arri LUTs - V1/Gen5/White Balance Offset (Magenta Boost)/Ursa Jamaica Gen 5 WBO.cube
TITLE "Generated by Resolve"
LUT_3D_SIZE 33
0.0102388 0.030396 0.0102388
0.0102235 0.0303807 0.0102235
0.0101778 0.0303349 0.0101778
0.0183108 0.030518 0.0103761
0.0317082 0.0306401 0.0106508
0.0495308 0.0307469 0.0120394
0.0744335 0.0307622 0.0139315
0.104707 0.0307012 0.0169375
0.143282 0.0303807 0.0214694
0.191409 0.0299687 0.0274662
0.250034 0.0294347 0.0336004
0.315801 0.0289616 0.0392462
0.382193 0.0283513 0.0432593
0.449042 0.0280613 0.0526131
0.511223 0.0286717 0.0665751
0.559899 0.0328069 0.0826886
0.59353 0.0410925 0.10016
0.611292 0.0527352 0.116564
0.62417 0.0640421 0.130709
0.629389 0.0660563 0.13991
0.632242 0.0661631 0.147082
0.642466 0.0707866 0.164965
0.649332 0.0746166 0.175708
0.649332 0.0746166 0.175708
0.649332 0.0746166 0.175708
0.649332 0.0746166 0.175708
0.649332 0.0746166 0.175708
0.649317 0.0746166 0.175677
0.649317 0.0746166 0.175647
0.649271 0.0746166 0.17554
0.649226 0.0746319 0.175387
0.649134 0.0746319 0.175097
0.649042 0.0746319 0.174777
0.0101778 0.0303349 0.0101778
0.0102083 0.0303655 0.010193
0.0101778 0.0303349 0.0101778
0.0138705 0.0304265 0.0103151
0.0247654 0.0305333 0.0104067
0.04094 0.0307317 0.0113375
0.0648814 0.0307469 0.0130465
0.0963302 0.0307317 0.016022
0.135073 0.0304265 0.0204013
0.183444 0.0299992 0.0265049
0.242878 0.0295262 0.032929
0.310277 0.0290074 0.0387732
0.378622 0.0283818 0.0429541
0.446235 0.0280766 0.0520638
0.508873 0.0285191 0.0658885
0.55845 0.032578 0.0820935
0.592813 0.0407721 0.0996567
0.610986 0.0524453 0.116258
0.623896 0.06392 0.130266
0.629389 0.0660868 0.139834
0.632227 0.0661784 0.147005
0.642023 0.0704509 0.164477
0.649332 0.0746166 0.175708
0.649332 0.0746166 0.175708
0.649332 0.0746166 0.175708
0.649332 0.0746166 0.175708
0.649332 0.0746166 0.175708
0.649317 0.0746166 0.175677
0.649317 0.0746166 0.175647
0.649271 0.0746166 0.17554
0.649226 0.0746319 0.175387
0.649134 0.0746319 0.175097
0.649042 0.0746319 0.174777
0.0103456 0.031342 0.0110323
0.0103151 0.0311131 0.0106813
0.0102998 0.0308843 0.0103609
0.0108339 0.0309453 0.0103456
0.017319 0.0310216 0.0104524
0.0306554 0.0313115 0.0109255
0.0509804 0.0314183 0.0123445
0.0821698 0.0314031 0.0144808
0.119814 0.0308385 0.0187686
0.168231 0.0301671 0.0246433
0.229252 0.0296635 0.0315251
0.29958 0.0290684 0.0378729
0.370977 0.0284428 0.0423438
0.441932 0.0280613 0.0513771
0.505623 0.0284276 0.0650034
0.556359 0.0323186 0.081239
0.591638 0.0402838 0.0988632
0.610544 0.0520333 0.115816
0.623301 0.0634928 0.129549
0.629297 0.0660868 0.13959
0.63209 0.0661631 0.14667
0.641245 0.0698863 0.163516
0.649332 0.0746166 0.175708
0.649332 0.0746166 0.175708
0.649332 0.0746166 0.175708
0.649332 0.0746166 0.175708
0.649332 0.0746166 0.175708
0.649317 0.0746166 0.175677
0.649317 0.0746166 0.175647
0.649271 0.0746166 0.17554
0.649226 0.0746319 0.175387
0.649134 0.0746319 0.175097
0.649042 0.0746319 0.174777
0.0112001 0.03682 0.0142977
0.0111086 0.0363165 0.0134737
0.0109255 0.0350652 0.0115969
0.014023 0.0346075 0.0113375
0.0209964 0.0356603 0.0121614
0.0326848 0.036347 0.0127413
0.0497139 0.0363928 0.0140383
0.0778973 0.0342565 0.0138552
0.111269 0.0326238 0.0176852
0.155947 0.03093 0.0224155
0.214237 0.0299687 0.029572
0.283543 0.0292668 0.0366217
0.356588 0.0286564 0.0417639
0.429526 0.0272679 0.0472725
0.499214 0.0282139 0.0617227
0.554192 0.0321202 0.0803845
0.590539 0.0398871 0.0980392
0.609903 0.0514839 0.115099
0.622599 0.063035 0.128649
0.629175 0.0660868 0.139284
0.631922 0.0661326 0.146304
0.640497 0.0693217 0.162676
0.649332 0.0746166 0.175708
0.649332 0.0746166 0.175708
0.649332 0.0746166 0.175708
0.649332 0.0746166 0.175708
0.649332 0.0746166 0.175708
0.649317 0.0746166 0.175677
0.649317 0.0746166 0.175647
0.649271 0.0746166 0.17554
0.649226 0.0746319 0.175387
0.649134 0.0746319 0.175097
0.649042 0.0746319 0.174777
0.0120699 0.0457771 0.0193942
0.0119631 0.0453193 0.0184176
0.0121614 0.0444038 0.0159609
0.0145724 0.0431678 0.0136568
0.023331 0.0432441 0.013489
0.0356146 0.0439307 0.0141909
0.0534981 0.0435798 0.015671
0.0813153 0.0417334 0.0175631
0.113909 0.0391089 0.0178836
0.158495 0.0346532 0.0207675
0.211933 0.0314641 0.0276951
0.277653 0.0300755 0.0354772
0.34876 0.0290837 0.0409094
0.419867 0.0278172 0.0464179
0.487465 0.0278325 0.0542611
0.545174 0.0313268 0.0732433
0.586526 0.0387732 0.0937057
0.609171 0.0508583 0.114275
0.621881 0.0625772 0.127657
0.629007 0.0660868 0.138888
0.631769 0.0661326 0.145937
0.639643 0.0687419 0.161608
0.649287 0.0746319 0.175555
0.649287 0.0746319 0.175555
0.649287 0.0746166 0.17557
0.649287 0.0746166 0.17557
0.649287 0.0746166 0.175586
0.649287 0.0746166 0.17557
0.649287 0.0746166 0.17557
0.649271 0.0746319 0.175494
0.649226 0.0746166 0.175372
0.649134 0.0746319 0.175097
0.649042 0.0746319 0.174777
0.0133974 0.057908 0.026154
0.0132143 0.0572976 0.024918
0.0130617 0.0562295 0.0232242
0.0132906 0.0542763 0.0182803
0.0198825 0.0536812 0.0158389
0.0353704 0.0544442 0.0166629
0.0543069 0.0545815 0.0169985
0.0846418 0.052491 0.0197604
0.119738 0.0489967 0.0218662
0.163394 0.0440375 0.0220493
0.215518 0.0385901 0.023331
0.279377 0.0349584 0.0312657
0.34583 0.0308537 0.0388037
0.414069 0.0287785 0.0454261
0.483742 0.0281071 0.0535439
0.539361 0.0309911 0.0657816
0.579767 0.0379492 0.0825666
0.604776 0.0490425 0.106538
0.619791 0.0613413 0.124605
0.628748 0.0661173 0.13814
0.631586 0.0661173 0.145464
0.638666 0.0679789 0.160555
0.649271 0.0746166 0.17554
0.649271 0.0746166 0.17554
0.649271 0.0746166 0.175525
0.649271 0.0746166 0.17554
0.649271 0.0746166 0.17554
0.649271 0.0746166 0.175525
0.649271 0.0746166 0.17554
0.649256 0.0746166 0.175479
0.649226 0.0746166 0.175357
0.649134 0.0746319 0.175097
0.649042 0.0746319 0.174762
0.0153964 0.0793927 0.0350958
0.0153964 0.078584 0.0336004
0.0152132 0.0773175 0.032929
0.0150301 0.074876 0.0281834
0.0151217 0.0728313 0.0212406
0.0273289 0.0734264 0.0202029
0.0497444 0.0749218 0.0204013
0.0822156 0.0746014 0.0205234
0.124865 0.0680858 0.0252232
0.168994 0.0625467 0.0281682
0.227359 0.0534218 0.0287633
0.290852 0.0457008 0.0276799
0.354818 0.0397345 0.0315251
0.418158 0.0356909 0.0399329
0.478965 0.0297856 0.0493019
0.530632 0.0303349 0.062211
0.573693 0.0365301 0.0772564
0.599603 0.0478065 0.0963607
0.617655 0.0607767 0.120256
0.628016 0.0661784 0.136172
0.630655 0.0661173 0.143038
0.634897 0.0664836 0.153475
0.649165 0.0751507 0.174075
0.649195 0.0749676 0.174533
0.64921 0.0747387 0.175082
0.649256 0.0746166 0.175463
0.649287 0.0746166 0.175525
0.649287 0.0746166 0.175525
0.649287 0.0746166 0.175525
0.649271 0.0746319 0.175494
0.649241 0.0746166 0.175418
0.64918 0.0746166 0.17525
0.649119 0.0746319 0.175051
0.0184939 0.109606 0.0451209
0.0182956 0.108705 0.0432136
0.0180209 0.107591 0.0427253
0.0176852 0.10547 0.0395972
0.0174411 0.101854 0.0326543
0.0173495 0.101503 0.0252537
0.0357061 0.103761 0.0251774
0.0708782 0.105364 0.0249943
0.116518 0.10454 0.0244297
0.170748 0.0977798 0.0313573
0.236881 0.0829175 0.0368353
0.305028 0.0717937 0.0391089
0.374121 0.0601663 0.0377356
0.440131 0.0476844 0.0376898
0.496712 0.0392767 0.0432898
0.540368 0.0337072 0.0546731
0.572671 0.0369116 0.0722972
0.596643 0.0468605 0.0912184
0.613138 0.0594797 0.111482
0.626337 0.0662547 0.131792
0.629465 0.0662394 0.139712
0.631662 0.0656443 0.146548
0.635813 0.0662089 0.156542
0.645426 0.0733349 0.167712
0.649104 0.0758221 0.172534
0.649119 0.0755474 0.173129
0.649104 0.0753796 0.17348
0.649165 0.0752728 0.173816
0.649165 0.0751507 0.174105
0.649134 0.0750439 0.174258
0.649134 0.0749981 0.174334
0.649119 0.0749676 0.174319
0.649058 0.0749371 0.174228
0.0211948 0.149935 0.0561227
0.02121 0.149126 0.0531319
0.0206149 0.147677 0.0527047
0.0203861 0.146136 0.0518044
0.0202182 0.142718 0.045304
0.0200046 0.13962 0.0357977
0.0204929 0.140337 0.0298772
0.0488594 0.144289 0.0313115
0.0988785 0.146288 0.0304417
0.160342 0.144823 0.029633
0.225956 0.141604 0.0382849
0.320729 0.116548 0.0474556
0.392218 0.103441 0.0511788
0.459831 0.0889296 0.0510109
0.521462 0.0703899 0.0492409
0.564126 0.0523995 0.0519875
0.582559 0.0439918 0.0663462
0.600488 0.0522621 0.0916152
0.613336 0.0609445 0.109789
0.623056 0.0674296 0.120912
0.627604 0.0665293 0.134401
0.630549 0.0664073 0.142123
0.633494 0.0664073 0.149798
0.634928 0.0666819 0.153094
0.635508 0.0668345 0.15433
0.635843 0.066865 0.155169
0.635355 0.0663157 0.155032
0.635843 0.0662852 0.156435
0.638895 0.0683146 0.160433
0.641993 0.0706188 0.164034
0.64445 0.0724804 0.166796
0.646983 0.0745251 0.169421
0.647944 0.0752728 0.170489
0.026566 0.202808 0.0710155
0.0267338 0.20264 0.0666056
0.0262303 0.201083 0.0662699
0.0258335 0.199603 0.0657664
0.0252689 0.196948 0.0623331
0.024979 0.192294 0.0535897
0.024567 0.190631 0.0414435
0.0288548 0.192264 0.0386358
0.0714427 0.199237 0.0389105
0.136248 0.201907 0.0370489
0.215976 0.199298 0.036286
0.300343 0.196735 0.0448463
0.406439 0.170443 0.0588846
0.488518 0.151965 0.0651408
0.553353 0.140017 0.069688
0.603738 0.12195 0.0737774
0.624659 0.101122 0.0812543
0.616358 0.0780957 0.0897993
0.616114 0.0683604 0.102449
0.624109 0.069398 0.118822
0.623606 0.0682536 0.120424
0.627604 0.0667735 0.133898
0.630625 0.0666514 0.141817
0.632029 0.0666056 0.145541
0.632486 0.0665599 0.146822
0.632914 0.0665293 0.148058
0.633249 0.0664836 0.14902
0.633524 0.0664836 0.149767
0.633997 0.0665904 0.150805
0.634485 0.0667735 0.151736
0.634928 0.0669566 0.152544
0.635187 0.0670787 0.153017
0.635462 0.0672465 0.153399
0.0344701 0.269688 0.0947127
0.0352331 0.270985 0.0895705
0.0344549 0.269627 0.087602
0.0339971 0.267521 0.0873121
0.0337835 0.265568 0.0864576
0.0332799 0.261311 0.0794842
0.0327916 0.256031 0.0678264
0.0328069 0.257282 0.0534829
0.0424659 0.260441 0.0508736
0.100862 0.270634 0.0512093
0.184924 0.272267 0.0478523
0.287617 0.268055 0.0439765
0.388571 0.268894 0.0457313
0.488701 0.25481 0.0660716
0.58526 0.222934 0.0830701
0.647471 0.207401 0.0961624
0.683391 0.19733 0.114916
0.692409 0.185397 0.132326
0.68217 0.16173 0.136965
0.648493 0.104921 0.118517
0.626886 0.0735943 0.113313
0.624002 0.0691081 0.119326
0.626093 0.0671397 0.129229
0.628229 0.0669261 0.135149
0.62887 0.0668345 0.136934
0.629389 0.0668193 0.138293
0.629847 0.0667887 0.139498
0.630243 0.0667582 0.140612
0.63061 0.0667277 0.141604
0.630915 0.0666819 0.142489
0.631128 0.0666819 0.143069
0.631296 0.0666819 0.143526
0.631388 0.0666667 0.143786
0.0453651 0.354238 0.128374
0.0461585 0.35581 0.122393
0.0459297 0.35552 0.119356
0.0451514 0.35314 0.118669
0.04477 0.351186 0.117708
0.0446326 0.348287 0.115068
0.0444343 0.343542 0.105623
0.0442359 0.340658 0.0912184
0.0443427 0.342214 0.0723583
0.0657816 0.348501 0.0701457
0.142443 0.360189 0.0684825
0.249683 0.358755 0.0603952
0.372824 0.352087 0.0534676
0.483391 0.355016 0.0475471
0.571969 0.351293 0.0685893
0.670878 0.319112 0.10515
0.730892 0.29604 0.139925
0.753994 0.285206 0.168215
0.757519 0.271153 0.185107
0.745403 0.248142 0.181064
0.717296 0.205814 0.163256
0.65214 0.110002 0.121309
0.625208 0.0710307 0.11725
0.623362 0.0680095 0.120455
0.623575 0.0678569 0.121294
0.624262 0.0677195 0.123308
0.624872 0.0675669 0.125124
0.625406 0.0674601 0.126696
0.625864 0.0673991 0.127947
0.626169 0.0672923 0.128985
0.626368 0.067216 0.129732
0.626581 0.067155 0.130495
0.626734 0.0671397 0.131014
0.0567788 0.447593 0.170016
0.0580606 0.449607 0.16379
0.0587015 0.450843 0.159335
0.0576638 0.448829 0.158312
0.0572213 0.447333 0.157534
0.0571603 0.444907 0.156695
0.0573739 0.440879 0.151324
0.0587015 0.435111 0.139727
0.0598001 0.435859 0.123522
0.0603037 0.438926 0.0966964
0.104723 0.449821 0.0948348
0.204883 0.458488 0.0865034
0.328206 0.450019 0.0728618
0.459663 0.438132 0.0684062
0.571679 0.441001 0.057084
0.652689 0.442649 0.0789807
0.7346 0.427466 0.129366
0.797406 0.400397 0.185138
0.81883 0.384482 0.216678
0.813703 0.361654 0.220493
0.798932 0.335424 0.212238
0.778958 0.301396 0.200977
0.731563 0.226963 0.172686
0.639506 0.09308 0.112032
0.626551 0.0759289 0.10454
0.626902 0.0748302 0.110185
0.626673 0.0736706 0.11368
0.625956 0.0724193 0.115679
0.625162 0.0711223 0.117266
0.624872 0.0704204 0.118318
0.624781 0.0701305 0.118746
0.624659 0.0698558 0.119142
0.624582 0.069688 0.119356
0.0720073 0.54725 0.223621
0.074403 0.549508 0.216922
0.0765087 0.551736 0.210773
0.0763867 0.551797 0.209171
0.0749676 0.549493 0.208347
0.0743877 0.547265 0.207095
0.07393 0.544366 0.205402
0.0756847 0.540063 0.195865
0.0781109 0.535271 0.182498
0.0819257 0.541558 0.164187
0.094316 0.547051 0.129427
0.159609 0.557839 0.124086
0.289631 0.556848 0.107439
0.41416 0.541924 0.0905928
0.543893 0.524742 0.0927901
0.650538 0.527199 0.0889448
0.722469 0.530053 0.119432
0.787732 0.527199 0.167773
0.838422 0.518853 0.214176
0.869001 0.496376 0.24947
0.858015 0.454337 0.24506
0.845747 0.425895 0.238132
0.830823 0.394491 0.229984
0.799435 0.336217 0.212543
0.782956 0.308095 0.203174
0.77322 0.291829 0.197696
0.764569 0.277638 0.192813
0.755123 0.26273 0.187243
0.746349 0.249073 0.18201
0.738262 0.236774 0.17705
0.731106 0.226123 0.172473
0.725444 0.217578 0.168719
0.722042 0.212604 0.166491
0.0945449 0.644617 0.29012
0.0981613 0.646708 0.282872
0.101762 0.649638 0.276616
0.103716 0.65066 0.272007
0.102007 0.648783 0.271382
0.101305 0.64712 0.270054
0.100771 0.645304 0.268589
0.101152 0.643015 0.264546
0.104082 0.638895 0.250797
0.109972 0.638178 0.234546
0.11809 0.644221 0.211307
0.154696 0.651499 0.172778
0.237354 0.661982 0.160769
0.394888 0.647166 0.131563
0.50164 0.631388 0.120516
0.62327 0.608194 0.130861
0.719539 0.610895 0.142107
0.78558 0.613428 0.181521
0.832792 0.617807 0.220661
0.870069 0.618311 0.253697
0.889021 0.598138 0.268864
0.882551 0.558923 0.260014
0.876112 0.524895 0.254276
0.867582 0.489158 0.249088
0.860914 0.465599 0.245899
0.857771 0.454414 0.244785
0.853727 0.443351 0.242802
0.849928 0.434714 0.240528
0.845808 0.426078 0.238193
0.842069 0.418326 0.236103
0.838605 0.411276 0.234195
0.835859 0.406165 0.232593
0.833112 0.401205 0.230869
0.132464 0.730053 0.365026
0.137484 0.73315 0.358373
0.141909 0.735637 0.351522
0.14609 0.737926 0.345525
0.145892 0.737362 0.343236
0.14435 0.735622 0.34255
0.143618 0.734493 0.341665
0.142809 0.732952 0.34049
0.143679 0.730053 0.331121
0.147768 0.726421 0.312993
0.158953 0.729595 0.293492
0.178668 0.736568 0.262165
0.233356 0.747707 0.230106
0.342412 0.756786 0.208835
0.4963 0.728695 0.172061
0.583978 0.713298 0.167544
0.697475 0.687694 0.184253
0.783139 0.69572 0.211566
0.841306 0.697261 0.251667
0.876799 0.700862 0.281285
0.899611 0.69984 0.300084
0.90222 0.685786 0.298222
0.897337 0.655406 0.286397
0.892256 0.62034 0.274968
0.888518 0.595468 0.268162
0.887251 0.586984 0.266133
0.886168 0.579126 0.264424
0.884871 0.57174 0.26273
0.883726 0.565026 0.261372
0.882643 0.560082 0.260334
0.881392 0.554696 0.259159
0.879896 0.550103 0.257786
0.879026 0.547051 0.257008
0.192172 0.805707 0.446357
0.196948 0.808759 0.439918
0.201999 0.811826 0.433478
0.20705 0.814679 0.427085
0.210193 0.816281 0.42269
0.208789 0.815229 0.422522
0.207599 0.813962 0.421225
0.206332 0.812573 0.419821
0.205097 0.810956 0.417441
0.207065 0.808682 0.402411
0.2121 0.806821 0.381796
0.23032 0.813611 0.359213
0.263676 0.821103 0.318639
0.333211 0.834211 0.292424
0.463935 0.834272 0.258869
0.58854 0.805585 0.230228
0.667201 0.792447 0.232166
0.771923 0.771634 0.253605
0.844862 0.775113 0.28864
0.888395 0.781628 0.322225
0.914733 0.782208 0.343267
0.925444 0.777569 0.349691
0.921996 0.765484 0.341634
0.915755 0.742718 0.327596
0.906844 0.710536 0.309422
0.904692 0.701198 0.304799
0.903532 0.694957 0.301976
0.902266 0.688884 0.299199
0.90161 0.684398 0.297459
0.900496 0.6795 0.295308
0.899519 0.675486 0.293584
0.898604 0.671885 0.292012
0.897917 0.669245 0.290822
0.259236 0.869093 0.521569
0.262898 0.871534 0.515679
0.267659 0.874739 0.510323
0.272496 0.877791 0.504707
0.278172 0.881315 0.49958
0.278218 0.881102 0.497704
0.276539 0.879713 0.496635
0.275288 0.878614 0.495323
0.274113 0.877562 0.494057
0.274037 0.8766 0.488106
0.277745 0.876081 0.470161
0.287755 0.877989 0.447898
0.313558 0.886351 0.420661
0.362966 0.895979 0.379416
0.45452 0.907027 0.347021
0.584939 0.893736 0.312062
0.677928 0.873442 0.300191
0.748928 0.862959 0.308736
0.844114 0.851743 0.338521
0.895781 0.847593 0.364874
0.927001 0.857053 0.390723
0.947555 0.857237 0.405661
0.948257 0.850935 0.403326
0.945327 0.842344 0.397101
0.940276 0.826749 0.385595
0.936278 0.814054 0.376135
0.934554 0.809171 0.372366
0.933013 0.804425 0.368795
0.931563 0.799771 0.365347
0.930098 0.795575 0.362142
0.928695 0.791669 0.35906
0.927855 0.788708 0.356588
0.927428 0.787137 0.355245
0.316258 0.916732 0.585077
0.318685 0.918242 0.579446
0.324315 0.922286 0.57409
0.328817 0.925277 0.569589
0.333944 0.928359 0.564599
0.337331 0.930312 0.560922
0.336141 0.929458 0.560342
0.334981 0.928542 0.55906
0.334157 0.927916 0.55819
0.332998 0.927047 0.557046
0.335149 0.927214 0.54551
0.339956 0.92726 0.524788
0.35639 0.93193 0.499336
0.393332 0.942046 0.466972
0.468788 0.954879 0.425498
0.587045 0.958556 0.39237
0.691997 0.935668 0.36434
0.755032 0.925429 0.365286
0.823362 0.91722 0.378515
0.902251 0.914427 0.410285
0.932799 0.905104 0.421347
0.960616 0.910338 0.440833
0.972198 0.910872 0.448615
0.969955 0.906126 0.444862
0.967727 0.901396 0.441108
0.964736 0.895338 0.436149
0.96376 0.892836 0.434241
0.96257 0.889937 0.432074
0.961364 0.887556 0.430243
0.960174 0.88513 0.428504
0.959304 0.883101 0.427207
0.958587 0.881483 0.426352
0.9579 0.880079 0.425467
0.363912 0.953475 0.636378
0.364172 0.953277 0.629114
0.363699 0.9523 0.622812
0.368994 0.955962 0.617151
0.373205 0.958587 0.612238
0.377798 0.961303 0.606638
0.378561 0.961776 0.606149
0.378103 0.96144 0.605692
0.377554 0.961013 0.605035
0.37705 0.960678 0.604532
0.377508 0.960769 0.60145
0.381643 0.961883 0.585657
0.390539 0.963806 0.562036
0.418006 0.972168 0.530068
0.470695 0.984329 0.490501
0.590112 0.996933 0.445594
0.692836 0.982956 0.416236
0.763058 0.966461 0.405295
0.816831 0.960189 0.411383
0.885435 0.954604 0.430442
0.939849 0.955474 0.455543
0.962295 0.943755 0.460517
0.98439 0.947509 0.475181
0.988342 0.945525 0.476463
0.986679 0.94226 0.473732
0.985611 0.939941 0.47187
0.984619 0.938048 0.470283
0.984131 0.936721 0.469291
0.983474 0.935332 0.468193
0.982956 0.934142 0.467353
0.982437 0.93315 0.466636
0.98172 0.932082 0.46598
0.981201 0.931319 0.465705
0.379797 0.965423 0.662242
0.380819 0.966049 0.653819
0.37998 0.965011 0.645716
0.377432 0.962539 0.638315
0.381689 0.965499 0.631296
0.384237 0.966888 0.623621
0.385748 0.967636 0.618936
0.385687 0.96759 0.619165
0.385702 0.967605 0.619074
0.385794 0.967666 0.619028
0.38613 0.967941 0.619211
0.389441 0.969528 0.61033
0.39736 0.97261 0.591836
0.414816 0.977783 0.560784
0.448737 0.983551 0.516365
0.552712 0.998932 0.4701
0.677165 0.996109 0.431434
0.754116 0.975067 0.412528
0.803235 0.96701 0.413916
0.8542 0.96231 0.42472
0.916884 0.958953 0.44686
0.952453 0.954147 0.461234
0.975265 0.950439 0.47155
0.992477 0.955016 0.484001
0.993423 0.955276 0.484688
0.992935 0.954894 0.484199
0.99292 0.954879 0.484199
0.992935 0.95491 0.484215
0.992905 0.954849 0.484154
0.992905 0.954833 0.484154
0.992966 0.954665 0.484123
0.993118 0.954406 0.484215
0.993347 0.954086 0.484489
0.376272 0.962432 0.671077
0.377356 0.963302 0.66244
0.379217 0.964706 0.654276
0.380102 0.965179 0.646769
0.376944 0.962173 0.638346
0.382071 0.965728 0.629404
0.384894 0.967208 0.620569
0.385031 0.967269 0.620142
0.385061 0.9673 0.620233
0.385 0.967269 0.620264
0.385077 0.96733 0.620371
0.386145 0.967987 0.618509
0.391913 0.970489 0.60296
0.405524 0.97554 0.577188
0.435203 0.982406 0.534295
0.502052 0.997375 0.491508
0.646403 0.998932 0.440772
0.743679 0.97731 0.413581
0.792035 0.968231 0.412833
0.834607 0.963821 0.419791
0.890379 0.959228 0.435767
0.937942 0.958862 0.456718
0.963409 0.948302 0.463706
0.983597 0.952773 0.477592
0.992554 0.954818 0.483955
0.993835 0.95494 0.484764
0.994522 0.955016 0.485191
0.994598 0.955032 0.485252
0.994415 0.955154 0.485206
0.994034 0.955261 0.485054
0.993912 0.955337 0.485023
0.994064 0.955337 0.485206
0.994369 0.955169 0.485512
0.375311 0.961471 0.675029
0.375967 0.962097 0.665797
0.377859 0.963607 0.657526
0.379248 0.964553 0.649607
0.379431 0.964324 0.640879
0.381567 0.965393 0.630442
0.385733 0.967605 0.61796
0.386679 0.968048 0.615183
0.386892 0.968139 0.614649
0.38677 0.968093 0.614878
0.386664 0.968032 0.615152
0.386709 0.968124 0.615625
0.389929 0.969467 0.606165
0.40145 0.974212 0.58439
0.425864 0.981155 0.548074
0.476158 0.992645 0.505699
0.603906 0.998932 0.454215
0.728893 0.980682 0.415381
0.78349 0.969406 0.412161
0.821302 0.964904 0.416968
0.866026 0.960861 0.427893
0.91397 0.958755 0.445472
0.951095 0.94995 0.458045
0.97435 0.950561 0.471092
0.989487 0.954726 0.482124
0.991836 0.955337 0.483833
0.99202 0.955413 0.483986
0.992081 0.955505 0.484062
0.991943 0.955596 0.484016
0.991669 0.955718 0.48394
0.991516 0.955779 0.483909
0.991608 0.955734 0.484092
0.991913 0.955581 0.484459
0.380865 0.966155 0.673686
0.381018 0.966308 0.663935
0.378973 0.964324 0.653956
0.382315 0.966857 0.6448
0.383551 0.9673 0.634821
0.384543 0.967132 0.622934
0.389044 0.969055 0.608454
0.392752 0.970291 0.597345
0.392981 0.970382 0.596841
0.392691 0.970291 0.597604
0.392432 0.97023 0.598428
0.39205 0.970092 0.599374
0.393149 0.970535 0.597086
0.402548 0.974105 0.579858
0.422553 0.979782 0.550057
0.464668 0.989502 0.511147
0.566644 0.998932 0.464057
0.704433 0.986954 0.420478
0.775464 0.970367 0.411337
0.811841 0.965866 0.415274
0.8439 0.963165 0.422293
0.890211 0.959411 0.436042
0.941192 0.957031 0.457282
0.966735 0.950561 0.466865
0.982712 0.952956 0.477195
0.990951 0.955154 0.483192
0.991806 0.955352 0.483818
0.991684 0.955398 0.483772
0.99144 0.955505 0.483696
0.991058 0.955657 0.483574
0.990799 0.955749 0.483543
0.990753 0.955749 0.483696
0.990936 0.955642 0.484047
0.386481 0.970947 0.669841
0.386664 0.970993 0.659937
0.387717 0.971572 0.649989
0.38262 0.966644 0.6392
0.387701 0.96997 0.627405
0.391073 0.971145 0.613397
0.395956 0.972366 0.595956
0.402777 0.973617 0.57641
0.403723 0.9738 0.574273
0.403342 0.973693 0.575021
0.402945 0.973632 0.575906
0.402502 0.97351 0.576776
0.402029 0.973388 0.57763
0.409216 0.975433 0.565362
0.426841 0.979141 0.538827
0.463798 0.988296 0.508949
0.550958 0.998932 0.468757
0.684672 0.99237 0.426352
0.766567 0.972107 0.411414
0.801907 0.96701 0.413733
0.827573 0.964584 0.418387
0.870054 0.960662 0.429267
0.925872 0.958587 0.450889
0.957107 0.950103 0.461448
0.976638 0.950866 0.472618
0.989197 0.95465 0.481895
0.991806 0.955352 0.483787
0.991684 0.955398 0.483742
0.991424 0.955505 0.48365
0.991058 0.955657 0.483513
0.990799 0.955764 0.483436
0.990677 0.955795 0.483497
0.990677 0.955779 0.483711
0.387594 0.971984 0.676753
0.387457 0.971786 0.666697
0.387747 0.971801 0.656275
0.38555 0.969451 0.645533
0.386252 0.969299 0.633509
0.389456 0.970626 0.62005
0.393805 0.97174 0.602411
0.400687 0.973358 0.582177
0.403784 0.973785 0.573999
0.403784 0.973785 0.573999
0.403784 0.973785 0.573999
0.403784 0.973785 0.573999
0.403784 0.973785 0.573999
0.409064 0.975067 0.564111
0.426001 0.978119 0.536873
0.460182 0.985382 0.505699
0.538125 0.998932 0.471778
0.667872 0.99588 0.431128
0.757214 0.974182 0.412009
0.79266 0.968551 0.413092
0.812528 0.966064 0.415457
0.851911 0.962066 0.423926
0.911147 0.958953 0.444465
0.949126 0.95111 0.457847
0.970672 0.949386 0.468467
0.98555 0.953658 0.479255
0.991363 0.955261 0.483497
0.991669 0.955398 0.483742
0.991424 0.955505 0.48365
0.991043 0.955657 0.483513
0.990799 0.955764 0.483421
0.990677 0.95581 0.483436
0.990677 0.955795 0.483589
0.387579 0.971939 0.681682
0.38764 0.971984 0.672053
0.387533 0.971725 0.661402
0.388754 0.972427 0.651148
0.38294 0.966857 0.638895
0.388113 0.970123 0.625528
0.392157 0.971374 0.608637
0.398611 0.972976 0.588022
0.402411 0.973648 0.577859
0.403784 0.973785 0.573999
0.403784 0.973785 0.573999
0.403784 0.973785 0.573999
0.403784 0.973785 0.573999
0.40705 0.974624 0.567926
