bundles/resolve-cinematic-luts/Phantom Luts/Ursa G2 Phntm Arri LUTs - V1/Gen5/White Balance Offset (Magenta Boost)/Ursa IceBlue Gen 5 WBO.cube
TITLE "Generated by Resolve"
LUT_3D_SIZE 33
0.0290837 0.0417945 0.0403601
0.029099 0.0417792 0.0403296
0.0291142 0.0417792 0.0402838
0.032639 0.0417639 0.0411231
0.0394598 0.0415198 0.0420691
0.0482338 0.0415656 0.0418402
0.0603494 0.0414893 0.0417792
0.0785077 0.0416419 0.0423896
0.104494 0.0417029 0.0437781
0.143374 0.0413062 0.046067
0.195102 0.0406653 0.0484932
0.257908 0.0403143 0.0518807
0.324697 0.0399176 0.053666
0.39118 0.0399329 0.0557717
0.45478 0.0406195 0.0636301
0.506065 0.0433204 0.0753796
0.550484 0.0493324 0.0892042
0.588907 0.0572366 0.102724
0.620371 0.0657359 0.115312
0.639277 0.0713207 0.125261
0.643977 0.0721904 0.13254
0.649439 0.0746319 0.143648
0.656764 0.078996 0.157275
0.65948 0.080827 0.162325
0.65948 0.080827 0.162325
0.65948 0.080827 0.162325
0.65948 0.080827 0.162325
0.659586 0.080766 0.162783
0.659815 0.0806287 0.163714
0.660487 0.0802014 0.166522
0.661357 0.0796674 0.170077
0.662882 0.0786755 0.176837
0.66453 0.0776226 0.184039
0.0292515 0.0416876 0.0399786
0.0291752 0.0417487 0.0401465
0.0291447 0.0417792 0.0402228
0.0307317 0.0418097 0.04065
0.0369421 0.0415351 0.0418097
0.0455482 0.0415503 0.0417945
0.0580758 0.0414435 0.0419013
0.0772869 0.0416724 0.0427253
0.104326 0.0416724 0.044007
0.144961 0.0413062 0.0462501
0.198642 0.0406195 0.0489204
0.262898 0.0402686 0.0527352
0.33109 0.0398108 0.0549325
0.397665 0.039765 0.0575113
0.461067 0.0407111 0.0653086
0.511376 0.0439155 0.0772869
0.555505 0.0501717 0.0908675
0.593591 0.0583963 0.104555
0.623957 0.066804 0.116625
0.640146 0.0714885 0.126314
0.644312 0.0722515 0.133333
0.650401 0.0749981 0.145815
0.657832 0.0797284 0.159182
0.65948 0.080827 0.162325
0.65948 0.080827 0.162325
0.65948 0.080827 0.162325
0.65948 0.080827 0.162325
0.659586 0.080766 0.162783
0.659815 0.0806287 0.163714
0.660487 0.0802014 0.166522
0.661357 0.0796674 0.170092
0.662898 0.0786755 0.176883
0.66453 0.0776226 0.184115
0.0292515 0.0416876 0.0399939
0.0291752 0.0417487 0.0401617
0.0291295 0.0417792 0.040238
0.0291447 0.0417792 0.040238
0.0327611 0.0417334 0.0410163
0.0402686 0.0415045 0.0419471
0.0511635 0.0416266 0.0419928
0.0691081 0.0416419 0.0426032
0.0950179 0.0416266 0.0436866
0.135302 0.0412909 0.0458228
0.190738 0.04065 0.0484474
0.258473 0.0402228 0.0525978
0.329259 0.0397498 0.0552529
0.397818 0.0396124 0.0587778
0.461982 0.0404517 0.0670634
0.512917 0.0438392 0.0791485
0.556817 0.0502632 0.0922103
0.594797 0.0586557 0.105333
0.624857 0.0670787 0.116899
0.640253 0.0714885 0.126543
0.644404 0.0722515 0.133547
0.650584 0.0749676 0.146487
0.658152 0.0799115 0.159915
0.65948 0.080827 0.162325
0.65948 0.080827 0.162325
0.65948 0.080827 0.162325
0.65948 0.080827 0.162325
0.659586 0.080766 0.162783
0.659815 0.0806287 0.163714
0.660487 0.0802014 0.166522
0.661357 0.0796674 0.170092
0.662898 0.0786603 0.176928
0.664546 0.0776074 0.184161
0.0297093 0.04448 0.0412299
0.029572 0.0442969 0.0412146
0.0294652 0.0435645 0.0407111
0.0304265 0.0436713 0.0408942
0.0330205 0.0443122 0.0416266
0.0390784 0.0446326 0.0432288
0.0484169 0.0442969 0.0429541
0.0641031 0.0434119 0.0432441
0.0876173 0.0422065 0.0439918
0.12285 0.0413977 0.045716
0.177752 0.0408637 0.0486458
0.24477 0.040238 0.0519112
0.318944 0.0396887 0.0547951
0.391409 0.039353 0.057908
0.458869 0.0400397 0.0666361
0.512886 0.0435645 0.0805066
0.557351 0.0499275 0.0943313
0.595407 0.0582589 0.107774
0.625483 0.0667582 0.118975
0.64062 0.0712291 0.128115
0.644694 0.0721141 0.134569
0.650614 0.0746777 0.147189
0.658381 0.0799115 0.160616
0.659556 0.0807813 0.162646
0.659556 0.0807813 0.162615
0.659571 0.0807813 0.162676
0.659602 0.0807507 0.162844
0.659754 0.0806744 0.163424
0.659953 0.0805219 0.16434
0.660578 0.0801556 0.166888
0.661387 0.0796368 0.170245
0.662913 0.0786603 0.176959
0.664561 0.0776074 0.184222
0.0312047 0.0508125 0.0446784
0.0310826 0.0508125 0.0446479
0.0310674 0.0502632 0.043946
0.0319066 0.0491951 0.0430915
0.0352178 0.0497444 0.0435798
0.0415656 0.0504463 0.0444495
0.0510262 0.0498817 0.0447547
0.0654002 0.0493019 0.0451667
0.088716 0.0466316 0.0446479
0.122972 0.0438239 0.0462959
0.173083 0.0415656 0.0491798
0.236439 0.0402533 0.0524605
0.309255 0.039765 0.055024
0.381872 0.0394446 0.0573281
0.451347 0.0395972 0.0633402
0.507469 0.0429847 0.0768292
0.555047 0.049546 0.0932937
0.594919 0.0579385 0.108324
0.625391 0.0664073 0.120058
0.641138 0.0708629 0.130358
0.645487 0.0716716 0.137438
0.651041 0.0738079 0.150042
0.659281 0.0794232 0.164279
0.66041 0.0802319 0.166293
0.66041 0.0802319 0.166293
0.660426 0.0802319 0.166323
0.660441 0.0802319 0.166384
0.660456 0.0802167 0.166461
0.660456 0.0802167 0.166491
0.660777 0.0800183 0.167758
0.661463 0.0795911 0.170565
0.662913 0.0786603 0.176974
0.664576 0.0775921 0.184283
0.0331121 0.0595865 0.0507515
0.0330053 0.059678 0.0507057
0.0329137 0.0592203 0.0498665
0.0332036 0.0580148 0.047776
0.036408 0.057435 0.0473487
0.0431983 0.0581826 0.0475166
0.0530404 0.0584573 0.047303
0.0691997 0.0572519 0.0478523
0.0933547 0.0547341 0.0480964
0.128359 0.0509194 0.0476234
0.178592 0.0462043 0.048127
0.239002 0.0429847 0.052079
0.306447 0.0407263 0.0555428
0.376852 0.0396582 0.0582895
0.445899 0.0394903 0.062211
0.501747 0.0425727 0.0709392
0.548486 0.0486458 0.0861372
0.589944 0.0568704 0.104067
0.62359 0.065919 0.118578
0.64094 0.0708171 0.130053
0.645426 0.0716564 0.137316
0.650568 0.0733043 0.14963
0.659403 0.0794232 0.164614
0.660456 0.0802014 0.166522
0.660456 0.0802014 0.166522
0.660456 0.0802014 0.166522
0.660456 0.0802014 0.166522
0.660456 0.0802014 0.166522
0.660456 0.0802014 0.166522
0.660777 0.0800183 0.167758
0.661463 0.0795911 0.170565
0.662913 0.0786603 0.176989
0.664561 0.0775921 0.184314
0.0352636 0.0734417 0.0591287
0.0352483 0.0738384 0.0589609
0.0350958 0.0736095 0.0586252
0.0351568 0.0721294 0.0565194
0.035523 0.0706951 0.0532692
0.0424964 0.0710307 0.0533303
0.052781 0.0724956 0.0531777
0.0704814 0.0726329 0.0513619
0.0986191 0.0689708 0.0520638
0.136248 0.0640574 0.051133
0.189014 0.057908 0.0501106
0.250889 0.051194 0.0491188
0.316381 0.0468147 0.0515755
0.380575 0.043534 0.0560311
0.44239 0.0406043 0.0614176
0.496025 0.0420691 0.0692302
0.542626 0.0478981 0.0807202
0.584405 0.0561379 0.0952773
0.620188 0.0652628 0.114443
0.639857 0.0706188 0.128267
0.645014 0.0715953 0.136263
0.648585 0.0721752 0.145556
0.659403 0.0796826 0.163897
0.660441 0.0803693 0.165988
0.660441 0.0802625 0.166278
0.660456 0.0802014 0.166476
0.660456 0.0802014 0.166522
0.660456 0.0802014 0.166522
0.660456 0.0802014 0.166522
0.66067 0.0800793 0.167361
0.661082 0.0798047 0.169162
0.662028 0.0792096 0.17322
0.663035 0.0785534 0.177874
0.0381476 0.0943465 0.0688487
0.038117 0.095079 0.0683604
0.0379339 0.095201 0.0681773
0.0377203 0.0943008 0.0666667
0.0378576 0.0920729 0.0631113
0.0382696 0.0918135 0.0593271
0.0486915 0.0932631 0.0594797
0.0658885 0.095552 0.058793
0.0970626 0.095613 0.0556039
0.141573 0.0899214 0.0561227
0.199863 0.081178 0.0556191
0.266468 0.0715496 0.0535897
0.336797 0.0623331 0.0543374
0.401617 0.0533455 0.0543221
0.459648 0.0475319 0.058732
0.502281 0.0440986 0.066453
0.540322 0.0474861 0.0780346
0.579934 0.0552682 0.091371
0.615488 0.0644236 0.106798
0.638422 0.0704814 0.124712
0.644099 0.0715801 0.133349
0.646922 0.0718395 0.140826
0.652094 0.0740368 0.152163
0.658717 0.0794995 0.161517
0.660426 0.0809033 0.164355
0.660441 0.0807355 0.164889
0.660426 0.0806439 0.165148
0.660426 0.0805829 0.165347
0.660441 0.0805371 0.165515
0.660639 0.0803235 0.166567
0.661036 0.0800336 0.168322
0.662013 0.079408 0.172534
0.66302 0.0788739 0.176791
0.0410315 0.124681 0.079881
0.0408637 0.125933 0.079057
0.0406195 0.126421 0.0785382
0.0404669 0.126207 0.0780804
0.0402991 0.124178 0.0742046
0.0403449 0.121355 0.0682383
0.0407416 0.122148 0.0642557
0.0556649 0.125185 0.0654612
0.0850538 0.129274 0.0634012
0.135241 0.129061 0.0580606
0.197009 0.125231 0.0592508
0.279332 0.108751 0.0604257
0.355947 0.0958724 0.0599374
0.422919 0.0852216 0.0595712
0.487022 0.0706188 0.062974
0.527871 0.0576486 0.0659037
0.558053 0.0522469 0.0765545
0.589334 0.0572213 0.0931411
0.615793 0.0643626 0.105653
0.636088 0.0705119 0.115938
0.642695 0.0715038 0.128969
0.645487 0.071809 0.136172
0.648234 0.0720531 0.143511
0.650721 0.0735027 0.148333
0.65211 0.074464 0.150637
0.652232 0.0743725 0.151369
0.65243 0.0743725 0.152087
0.653025 0.0746624 0.153399
0.654459 0.0758984 0.155474
0.656641 0.0774243 0.158999
0.658259 0.078294 0.162142
0.659754 0.0782177 0.166751
0.659892 0.0769207 0.169635
0.0437476 0.168795 0.0918135
0.0437476 0.170962 0.0898604
0.0434882 0.171984 0.0889448
0.0432593 0.172015 0.0886091
0.0431983 0.170871 0.0871748
0.0433509 0.167681 0.0818494
0.0433967 0.166003 0.0736553
0.044831 0.167803 0.0707713
0.0679789 0.173632 0.0717632
0.114015 0.179644 0.0670634
0.188083 0.179431 0.0598611
0.266453 0.177844 0.0607156
0.366888 0.157137 0.0665751
0.449241 0.139635 0.0693523
0.514382 0.127977 0.0707103
0.56379 0.112642 0.0756237
0.595682 0.0923171 0.0846265
0.611612 0.0726635 0.0915694
0.629786 0.0689403 0.105959
0.640894 0.0711376 0.119158
0.642176 0.0715801 0.121004
0.644083 0.0712902 0.132143
0.646616 0.0717174 0.138491
0.647715 0.0719005 0.141482
0.647944 0.0719615 0.142153
0.648188 0.0719921 0.142977
0.648417 0.0720073 0.143664
0.648646 0.0719921 0.144472
0.649271 0.0722667 0.145861
0.649653 0.0721447 0.147265
0.649775 0.0716869 0.14844
0.650324 0.0710307 0.151186
0.651072 0.0704509 0.154162
0.0475319 0.225238 0.107897
0.0479286 0.229068 0.105119
0.0476234 0.230686 0.103563
0.047364 0.230808 0.103197
0.0472419 0.230396 0.102861
0.0473487 0.228244 0.099733
0.0473945 0.22446 0.0922866
0.0475166 0.22446 0.0815595
0.0518196 0.227588 0.0788739
0.0859998 0.236454 0.0795605
0.155352 0.244923 0.0721599
0.254063 0.245624 0.0614176
0.350973 0.246342 0.0582437
0.450355 0.234745 0.0697948
0.5402 0.211978 0.0814221
0.60354 0.195712 0.0921492
0.645029 0.184939 0.105516
0.672694 0.168032 0.118227
0.682292 0.13698 0.124804
0.663737 0.0905165 0.115389
0.650172 0.0743725 0.117983
0.644724 0.0717021 0.123583
0.644755 0.0706951 0.13344
0.646632 0.0708629 0.138766
0.647074 0.0708934 0.140093
0.647456 0.0709239 0.141314
0.64773 0.0709392 0.142199
0.648005 0.0709392 0.143069
0.648188 0.0709239 0.14374
0.648295 0.0709087 0.144121
0.648234 0.0708934 0.143969
0.64828 0.0706798 0.144244
0.648493 0.0702525 0.145205
0.0517128 0.295842 0.129335
0.0521248 0.300053 0.126452
0.0522469 0.303014 0.124361
0.0521248 0.30367 0.123659
0.0519875 0.303624 0.123384
0.0520485 0.303166 0.122698
0.0523384 0.300069 0.117388
0.0526589 0.297047 0.107897
0.0528115 0.297963 0.0939803
0.062211 0.302434 0.08925
0.112245 0.314183 0.089128
0.209369 0.325444 0.0778363
0.331182 0.326314 0.0635386
0.440726 0.328054 0.056199
0.530434 0.327337 0.067689
0.622156 0.305608 0.0981613
0.687297 0.285298 0.126864
0.726406 0.27187 0.147539
0.747646 0.255116 0.160052
0.745525 0.23035 0.158572
0.721263 0.182101 0.144213
0.671305 0.0974289 0.119615
0.647379 0.0729381 0.121386
0.643336 0.071046 0.125093
0.643442 0.0709697 0.126162
0.643763 0.0708934 0.12781
0.644053 0.0708324 0.129213
0.64419 0.0708019 0.130053
0.644343 0.0707713 0.130755
0.644419 0.0707866 0.130968
0.644709 0.0709087 0.1308
0.645319 0.0708934 0.131212
0.646387 0.0707713 0.132464
0.0555123 0.373526 0.156466
0.0563363 0.3785 0.153933
0.0569467 0.382483 0.151446
0.0570535 0.383978 0.150149
0.0566567 0.384802 0.149752
0.0567788 0.384451 0.149767
0.0572519 0.383047 0.147875
0.0581216 0.378988 0.140658
0.0588693 0.37792 0.129
0.0590372 0.379843 0.109468
0.0783246 0.386435 0.101732
0.155352 0.399558 0.0994278
0.27631 0.410101 0.082414
0.410544 0.409766 0.0704356
0.52578 0.410407 0.0626535
0.606897 0.416373 0.0775158
0.685771 0.407858 0.118578
0.755199 0.386679 0.164324
0.793667 0.370077 0.18967
0.800977 0.349035 0.19408
0.791821 0.324147 0.187594
0.776623 0.289647 0.177737
0.738567 0.214099 0.154726
0.661616 0.0858167 0.113619
0.65243 0.0759289 0.110353
0.651728 0.0751659 0.114931
0.650599 0.0745403 0.117754
0.651041 0.0757763 0.120378
0.652934 0.078584 0.122713
0.657206 0.083711 0.125444
0.664576 0.0923934 0.128618
0.674983 0.104921 0.133593
0.690761 0.125673 0.141741
0.059205 0.455497 0.191592
0.0608377 0.460685 0.189227
0.0620432 0.465248 0.185946
0.0631418 0.468132 0.184176
0.0630503 0.468666 0.183886
0.0630198 0.468742 0.183749
0.0630503 0.468345 0.183581
0.0637369 0.46656 0.179934
0.065568 0.463188 0.170016
0.0673686 0.464408 0.156329
0.0708782 0.468406 0.130816
0.107271 0.475013 0.115831
0.215503 0.485496 0.108736
0.353948 0.494835 0.0903182
0.48806 0.493599 0.0862898
0.602396 0.492882 0.0913863
0.676905 0.500511 0.113191
0.742 0.502449 0.150332
0.799313 0.497917 0.191165
0.83856 0.480476 0.220706
0.837201 0.446128 0.220874
0.828214 0.418204 0.213947
0.817914 0.3888 0.206043
0.796719 0.335241 0.190967
0.78587 0.310109 0.183673
0.779568 0.29633 0.179599
0.77377 0.283406 0.176165
0.768429 0.272587 0.172702
0.76492 0.265675 0.17055
0.763684 0.263325 0.16994
0.766842 0.27039 0.17203
0.774685 0.286671 0.17763
0.786725 0.311055 0.18677
0.064271 0.538811 0.23711
0.0666667 0.54374 0.234745
0.0692912 0.548623 0.231891
0.0713664 0.551415 0.228397
0.0721904 0.553017 0.22739
0.0721904 0.553353 0.22742
0.0721447 0.553185 0.227237
0.0723583 0.553124 0.226627
0.0739147 0.550622 0.218677
0.0776837 0.548959 0.206165
0.0825513 0.551293 0.189181
0.0987564 0.555917 0.159503
0.15967 0.562768 0.135714
0.29279 0.571054 0.121828
0.441291 0.579919 0.109453
0.55993 0.575952 0.119326
0.67042 0.574151 0.138323
0.742046 0.582834 0.162158
0.797009 0.590204 0.192248
0.838727 0.593194 0.221225
0.863111 0.579919 0.238972
0.859693 0.548562 0.235782
0.853513 0.517891 0.231113
0.84686 0.486992 0.226764
0.842695 0.468116 0.224109
0.840574 0.459617 0.222797
0.838636 0.452689 0.221408
0.837125 0.448264 0.220005
0.835904 0.445624 0.218753
0.835966 0.447227 0.218402
0.837263 0.452598 0.219013
0.840375 0.464561 0.221271
0.844465 0.481758 0.224369
0.0832685 0.618021 0.297307
0.0874189 0.622919 0.295171
0.0913558 0.627192 0.292714
0.0952773 0.630259 0.288319
0.0982986 0.632822 0.28574
0.0986801 0.633463 0.286091
0.0990463 0.634012 0.286549
0.0988785 0.633631 0.286213
0.0992905 0.632639 0.283345
0.102281 0.630106 0.271321
0.108476 0.629175 0.254887
0.120912 0.633738 0.232456
0.152499 0.639078 0.197635
0.235096 0.64596 0.171618
0.386465 0.65362 0.151156
0.522698 0.661204 0.150378
0.628641 0.657649 0.168612
0.734752 0.657969 0.194659
0.803738 0.666835 0.21912
0.847883 0.673701 0.242039
0.877226 0.675029 0.258167
0.884749 0.665049 0.261524
0.879316 0.641642 0.255222
0.872953 0.612345 0.24802
0.868223 0.590799 0.24303
0.867216 0.585214 0.242161
0.866117 0.580209 0.24123
0.865736 0.577203 0.24097
0.865492 0.576272 0.240711
0.865812 0.577554 0.240909
0.866743 0.582269 0.241566
0.86862 0.592477 0.243183
0.871656 0.607645 0.246143
0.119112 0.691737 0.362036
0.125002 0.696803 0.360754
0.130541 0.700862 0.357778
0.13608 0.704112 0.353536
0.141054 0.706706 0.349081
0.144183 0.708812 0.347921
0.14461 0.709209 0.348287
0.144488 0.709087 0.348272
0.144167 0.708766 0.347906
0.144793 0.707713 0.343252
0.149859 0.705821 0.327108
0.159442 0.706294 0.30695
0.180163 0.712016 0.276204
0.225849 0.716381 0.234485
0.33286 0.723033 0.208881
0.488518 0.732967 0.196719
0.600916 0.741588 0.206363
0.701152 0.740826 0.228473
0.799207 0.742535 0.257816
0.855955 0.748943 0.280537
0.891585 0.755001 0.2963
0.911162 0.753307 0.30396
0.909468 0.744427 0.299489
0.904051 0.72842 0.290715
0.895949 0.704143 0.278141
0.893477 0.69688 0.274769
0.892485 0.693767 0.273793
0.891722 0.691829 0.273274
0.891585 0.691188 0.273396
0.892073 0.692943 0.274296
0.893858 0.698665 0.27689
0.897292 0.708827 0.281483
0.902281 0.724361 0.288502
0.16582 0.757305 0.421317
0.170748 0.761273 0.419471
0.176272 0.764874 0.416724
0.181811 0.768078 0.413199
0.187442 0.770916 0.408881
0.19266 0.77351 0.405081
0.19321 0.77377 0.40502
0.193286 0.773877 0.405127
0.193103 0.773892 0.405035
0.193072 0.774014 0.404257
0.195438 0.773037 0.394766
0.201419 0.771435 0.375311
0.214984 0.773434 0.34966
0.245396 0.77879 0.311559
0.319265 0.782727 0.267842
0.451133 0.791669 0.246143
0.58854 0.803555 0.249165
0.676692 0.812512 0.264897
0.772885 0.816739 0.290791
0.854932 0.819501 0.320562
0.895628 0.822019 0.338155
0.927886 0.825376 0.350515
0.935988 0.822599 0.351598
0.933974 0.816632 0.347265
0.9308 0.806821 0.340429
0.927916 0.798795 0.334966
0.92697 0.796979 0.333791
0.926345 0.795438 0.33312
0.926116 0.795178 0.333165
0.926268 0.796719 0.334112
0.927779 0.801419 0.337255
0.930541 0.811002 0.343328
0.934386 0.823743 0.351537
0.206195 0.808743 0.470771
0.210727 0.811597 0.468071
0.214939 0.814572 0.465492
0.219715 0.816876 0.461646
0.224704 0.819196 0.457511
0.230045 0.821653 0.452567
0.233356 0.822858 0.450614
0.233265 0.823148 0.45066
0.233204 0.823667 0.450904
0.232578 0.823651 0.450477
0.232197 0.823377 0.448615
0.236515 0.821912 0.432242
0.244282 0.820371 0.40853
0.265126 0.823636 0.374166
0.310719 0.827832 0.327581
0.433616 0.834333 0.288746
0.56759 0.846036 0.283803
0.670787 0.858198 0.297597
0.745724 0.867247 0.316823
0.836866 0.874861 0.346838
0.894133 0.875883 0.369833
0.928649 0.872709 0.383993
0.951705 0.875547 0.39411
0.952712 0.872358 0.391516
0.951385 0.869017 0.3888
0.950149 0.865797 0.386282
0.949584 0.864408 0.385534
0.949248 0.8636 0.385397
0.949218 0.863661 0.38587
0.949599 0.864897 0.387167
0.950484 0.867582 0.389502
0.9523 0.872526 0.393576
0.954665 0.87895 0.398779
0.239643 0.845655 0.509316
0.240345 0.846586 0.505699
0.241566 0.847593 0.501717
0.243061 0.84828 0.496696
0.246494 0.849317 0.491127
0.250141 0.85005 0.484581
0.254185 0.850889 0.477653
0.254292 0.850813 0.47776
0.25417 0.85069 0.477699
0.253849 0.850553 0.477501
0.253407 0.850477 0.477256
0.255192 0.850065 0.470329
0.261707 0.848844 0.449607
0.274464 0.847578 0.417594
0.303273 0.848219 0.369421
0.402655 0.855924 0.320119
0.551827 0.865705 0.302327
0.657694 0.877134 0.311788
0.728069 0.886732 0.327642
0.801511 0.894743 0.35053
0.878462 0.901457 0.37908
0.918334 0.895735 0.394247
0.949157 0.896117 0.40885
0.962386 0.898268 0.415274
0.961776 0.897139 0.414359
0.960876 0.896208 0.413153
0.960632 0.895811 0.413245
0.96051 0.895766 0.413809
0.96051 0.896056 0.414557
0.960861 0.896941 0.415625
0.961593 0.898421 0.417166
0.962554 0.901045 0.419318
0.963043 0.902098 0.419959
0.247868 0.857939 0.531746
0.249638 0.858183 0.526543
0.250385 0.85803 0.52108
0.248707 0.857053 0.514916
0.249012 0.856321 0.507866
0.252003 0.856016 0.499596
0.255482 0.855589 0.490303
0.257038 0.855314 0.486168
0.257084 0.855253 0.486198
0.257008 0.855299 0.486183
0.256809 0.85539 0.486076
0.256626 0.855497 0.485344
0.261631 0.85481 0.468849
0.271397 0.853666 0.441779
0.295293 0.852552 0.394202
0.352651 0.855253 0.342153
0.526146 0.867384 0.306096
0.646357 0.878019 0.311849
0.712398 0.886854 0.325246
0.771786 0.894682 0.34255
0.847196 0.900877 0.368185
0.901534 0.903456 0.388937
0.934844 0.894957 0.402304
0.958602 0.900908 0.415579
0.963699 0.902251 0.419211
0.963775 0.902358 0.420279
0.963531 0.902571 0.421576
0.963363 0.902556 0.422797
0.96318 0.902556 0.42388
0.963058 0.902586 0.424826
0.963073 0.902647 0.425208
0.963165 0.902663 0.424903
0.963272 0.902632 0.423743
0.244266 0.857527 0.542641
0.246204 0.857893 0.536599
0.248356 0.858228 0.530617
0.250919 0.858305 0.523201
0.249973 0.857298 0.515541
0.249805 0.85594 0.50602
0.253971 0.855482 0.494469
0.257313 0.855039 0.48481
0.257435 0.854978 0.484565
0.257374 0.854994 0.48455
0.257115 0.85507 0.484565
0.256748 0.855238 0.484565
0.259068 0.854978 0.476265
0.267903 0.854093 0.451957
0.287907 0.853498 0.411154
0.332189 0.854307 0.357061
0.478187 0.864347 0.310887
0.639414 0.876554 0.310536
0.703975 0.884916 0.322896
0.7561 0.891997 0.337209
0.819013 0.898131 0.358038
0.877729 0.903059 0.379858
0.921477 0.894453 0.396002
0.949142 0.898528 0.409873
0.963287 0.902098 0.417914
0.963989 0.901976 0.418891
0.964584 0.901961 0.420111
0.96466 0.901976 0.420966
0.964309 0.902007 0.421469
0.963424 0.902205 0.421729
0.962982 0.902281 0.421744
0.962737 0.902327 0.421485
0.962615 0.902342 0.420859
0.244953 0.858701 0.547234
0.246952 0.858854 0.540154
0.249149 0.85893 0.53315
0.251225 0.858701 0.525002
0.252354 0.85803 0.516213
0.250187 0.856092 0.505943
0.254688 0.855436 0.492103
0.260182 0.854597 0.475837
0.26128 0.854414 0.472953
0.261295 0.854444 0.472984
0.261082 0.85449 0.473106
0.260777 0.854597 0.473198
0.261204 0.854643 0.470695
0.269123 0.854276 0.451469
0.286778 0.854124 0.41677
0.324102 0.854002 0.364218
0.441398 0.862379 0.317998
0.618982 0.874891 0.308583
0.699519 0.884199 0.321736
0.745998 0.890791 0.334203
0.789593 0.895903 0.348241
0.85214 0.900771 0.36994
0.912474 0.901839 0.39321
0.939361 0.896529 0.404639
0.95761 0.901366 0.414542
0.961654 0.902617 0.417136
0.961639 0.902586 0.417533
0.961395 0.902617 0.417975
0.960937 0.902693 0.418418
0.960357 0.902785 0.418936
0.95993 0.902876 0.419196
0.959701 0.902937 0.419196
0.959701 0.902968 0.418921
0.252949 0.861494 0.543114
0.25478 0.861341 0.535058
0.255619 0.8607 0.526497
0.255451 0.859586 0.517021
0.255818 0.858259 0.506218
0.257984 0.857084 0.493278
0.262425 0.855665 0.476127
0.269398 0.854398 0.455619
0.273136 0.853727 0.445457
0.273182 0.853758 0.445411
0.272892 0.853819 0.445747
0.272374 0.853925 0.446067
0.271672 0.854078 0.446586
0.277531 0.854124 0.434501
0.293111 0.853986 0.4056
0.326436 0.854124 0.362112
0.430198 0.861311 0.319234
0.601083 0.87364 0.307362
0.694377 0.883726 0.320684
0.736645 0.889677 0.331579
0.767452 0.893553 0.340917
0.830335 0.899077 0.362066
0.899336 0.903868 0.388113
0.928969 0.893935 0.39913
0.952499 0.899886 0.411627
0.961624 0.902617 0.417121
0.961563 0.902602 0.417472
0.961288 0.902647 0.417899
0.960784 0.902739 0.418326
0.960189 0.902831 0.418891
0.959731 0.902937 0.419211
0.959518 0.902983 0.419272
0.959548 0.902998 0.419089
0.256886 0.862882 0.542321
0.257969 0.862562 0.53521
0.259571 0.862226 0.527535
0.259236 0.861112 0.518318
0.256535 0.858915 0.507637
0.259373 0.85771 0.494209
0.263752 0.856489 0.477226
0.269917 0.854917 0.456291
0.276036 0.853712 0.439506
0.276173 0.853712 0.438605
0.275898 0.853788 0.438483
0.275624 0.85391 0.4383
0.27538 0.854002 0.438056
0.280247 0.854002 0.428138
0.296803 0.853574 0.397131
0.330266 0.853971 0.356985
0.425818 0.860868 0.319554
0.590402 0.872511 0.306508
0.686687 0.882979 0.319203
0.721309 0.887678 0.327306
0.746593 0.891096 0.334417
0.812375 0.897887 0.355932
0.886931 0.903059 0.383291
0.921462 0.894286 0.395911
0.946715 0.898436 0.408591
0.960021 0.902174 0.416175
0.961563 0.902602 0.417472
0.961288 0.902647 0.417899
0.960784 0.902739 0.418326
0.960189 0.902831 0.418891
0.959701 0.902922 0.419379
0.959457 0.902968 0.419623
0.959457 0.902968 0.419623
0.25597 0.863081 0.548211
0.25716 0.862776 0.541085
0.25835 0.86244 0.533562
0.259617 0.861906 0.524498
0.255573 0.859678 0.514122
0.257527 0.858488 0.500679
0.261387 0.857298 0.483772
0.26685 0.855619 0.462348
0.273899 0.854322 0.441993
0.275334 0.854017 0.438025
0.275334 0.854017 0.438025
0.275273 0.854032 0.437995
0.275181 0.854063 0.437949
0.277531 0.854093 0.433204
0.291798 0.853773 0.406012
0.317388 0.852811 0.36437
0.398337 0.858686 0.325582
0.560601 0.8701 0.305608
0.677012 0.88191 0.317327
0.716854 0.887266 0.326192
0.740459 0.890547 0.332662
0.797192 0.89691 0.350805
0.876112 0.902632 0.379095
0.9178 0.897459 0.394736
0.942367 0.897398 0.406317
0.958038 0.901473 0.414969
0.961563 0.902602 0.417472
0.961288 0.902647 0.417899
0.960784 0.902739 0.418326
0.960189 0.902831 0.418891
0.959701 0.902922 0.419379
0.959457 0.902968 0.419623
0.959457 0.902968 0.419623
0.254917 0.863386 0.553445
0.256016 0.863096 0.54641
0.257221 0.862776 0.538857
0.258869 0.862364 0.529976
0.261036 0.862013 0.520027
0.256718 0.859052 0.506462
0.259922 0.857649 0.489464
0.265354 0.855985 0.467781
0.273121 0.854444 0.444282
0.27538 0.854002 0.438056
0.275395 0.853986 0.438071
0.27538 0.854002 0.438056
0.275303 0.854032 0.43801
0.275654 0.854063 0.437034
