bundles/resolve-cinematic-luts/Phantom Luts/Ursa G2 Phntm Arri LUTs - V1/Gen5/White Balance Offset (Magenta Boost)/Ursa Neutral Gen 5 WBO.cube
TITLE "Generated by Resolve"
LUT_3D_SIZE 9
0.0106355 0.0106355 0.0106355
0.0373999 0.0113222 0.0118715
0.152163 0.0101167 0.0278935
0.385245 0.00514229 0.0569314
0.67808 0 0.115145
0.826093 0 0.157351
0.827924 0.0134279 0.193835
0.827924 0.0134279 0.193835
0.827924 0.0134279 0.193835
0.013077 0.0339055 0.0180667
0.0256352 0.0315862 0.0135958
0.122179 0.0228428 0.0191501
0.354116 0.00613413 0.054139
0.660334 0 0.110109
0.825818 0 0.155901
0.827924 0.0134279 0.193835
0.827924 0.0134279 0.193835
0.827924 0.0134279 0.193835
0.0251011 0.143771 0.0510414
0.0250858 0.136522 0.0408331
0.107103 0.146273 0.028809
0.389838 0.10045 0.0497597
0.675914 0.00109865 0.0711528
0.824948 0 0.138674
0.828534 0 0.166659
0.828473 0.00308232 0.175143
0.828336 0.0142061 0.187091
0.0599985 0.414862 0.145098
0.0624704 0.413794 0.135927
0.0651713 0.405509 0.100969
0.327535 0.43888 0.0648508
0.730159 0.415213 0.0654002
0.922972 0.293034 0.101579
0.871855 0 0.0787671
0.848234 0 0.105837
0.840253 0 0.111116
0.0780804 0.762722 0.334401
0.10222 0.768368 0.310262
0.101472 0.762493 0.30634
0.166232 0.767529 0.177798
0.61146 0.769757 0.138766
0.937285 0.759701 0.0556954
0.956542 0.682887 0.0456245
0.952514 0.657862 0.0522621
0.950393 0.644862 0.0573892
0.122057 0.959548 0.47332
0.132647 0.957916 0.437415
0.143465 0.956909 0.423575
0.171191 0.95436 0.382467
0.56408 0.946349 0.2309
0.859937 0.956359 0.204059
0.974731 0.945342 0.210376
0.974578 0.945144 0.204486
0.974578 0.945144 0.204486
0.136873 0.961334 0.485374
0.150637 0.958038 0.432563
0.183871 0.954025 0.372549
0.180255 0.954253 0.377432
0.453727 0.946502 0.240208
0.744427 0.955489 0.214023
0.959274 0.942824 0.207111
0.974578 0.945144 0.204486
0.974578 0.945144 0.204486
0.121538 0.963073 0.505226
0.13666 0.960159 0.45774
0.184726 0.953948 0.371374
0.184726 0.953948 0.371374
0.349264 0.948592 0.250233
0.711025 0.953628 0.215259
0.933837 0.938888 0.212375
0.974578 0.945144 0.204486
0.974578 0.945144 0.204486
0.112032 0.963867 0.516426
0.144961 0.960449 0.474861
0.184436 0.95404 0.37203
0.184726 0.953948 0.371374
0.284169 0.950744 0.259434
0.702205 0.952926 0.215854
0.917922 0.938674 0.213855
0.974578 0.945144 0.204486
0.974578 0.945144 0.204486
0.0107729 0.0106203 0.0307469
0.0410163 0.0119936 0.0349584
0.159182 0.0148928 0.052781
0.392172 0.0204013 0.0877546
0.685161 0.00756847 0.141451
0.826078 0 0.156939
0.827985 0.0135042 0.193591
0.82797 0.0134127 0.19382
0.827924 0.0134279 0.193835
0.0126192 0.0252689 0.0246738
0.0232853 0.0221103 0.0226749
0.131533 0.0131991 0.0276951
0.365179 0.00946059 0.0589151
0.664225 0 0.116197
0.825833 0 0.155764
0.827924 0.0134279 0.193835
0.827924 0.0134279 0.193835
0.827924 0.0134279 0.193835
0.023682 0.125566 0.071458
0.0231632 0.124666 0.0491493
0.0995651 0.131426 0.026978
0.386969 0.0718853 0.0465248
0.659785 0 0.0820478
0.825071 0 0.142489
0.828489 0 0.169574
0.828244 0.014725 0.188769
0.828122 0.0143282 0.190433
0.048188 0.390936 0.169314
0.0567025 0.392462 0.139635
0.0629892 0.393393 0.111406
0.318547 0.424048 0.0625772
0.753429 0.371328 0.080293
0.918944 0.253071 0.0977951
0.853544 0 0.102785
0.839292 0 0.111772
0.833799 0 0.114397
0.0475776 0.744762 0.368658
0.0712444 0.747982 0.330434
0.0986648 0.752483 0.301534
0.155413 0.76109 0.204395
0.607782 0.760067 0.135042
0.941222 0.743908 0.0503853
0.952499 0.65774 0.0523232
0.948669 0.634211 0.0616159
0.946334 0.620157 0.0669718
0.0816968 0.961669 0.506905
0.119081 0.959792 0.476081
0.143908 0.956817 0.422965
0.161486 0.955139 0.397818
0.542947 0.946105 0.232883
0.858198 0.956344 0.204349
0.97464 0.94519 0.206561
0.974578 0.945144 0.204486
0.974578 0.945144 0.204486
0.0950332 0.964721 0.531304
0.127932 0.961944 0.493004
0.166873 0.955581 0.399298
0.175753 0.954559 0.382757
0.403586 0.947326 0.245029
0.741924 0.955367 0.213993
0.957961 0.94258 0.20737
0.974578 0.945144 0.204486
0.974578 0.945144 0.204486
0.090959 0.965667 0.549355
0.117479 0.963455 0.510216
0.157214 0.957244 0.420096
0.184726 0.953948 0.371374
0.310857 0.949783 0.258259
0.707378 0.953353 0.215549
0.929473 0.938293 0.213443
0.974578 0.945144 0.204486
0.974578 0.945144 0.204486
0.0934462 0.965988 0.561837
0.107805 0.964111 0.521202
0.149035 0.958297 0.435431
0.184726 0.953948 0.371374
0.249683 0.951354 0.261601
0.698146 0.95256 0.216175
0.914443 0.942901 0.209705
0.974578 0.945144 0.204486
0.974578 0.945144 0.204486
0.0265049 0.0131838 0.139681
0.0725719 0.0137636 0.135515
0.176989 0.0198978 0.138384
0.41677 0.0282292 0.182025
0.722179 0.016495 0.241642
0.827451 0.00944533 0.218647
0.828305 0.0146792 0.189715
0.82826 0.0146029 0.190021
0.828229 0.0145571 0.190219
0.0111849 0.0115358 0.0981003
0.0378729 0.0130159 0.127474
0.148775 0.0180209 0.117479
0.393317 0.023621 0.142107
0.699382 0.0151675 0.197131
0.826688 0.011368 0.192294
0.828199 0.0144808 0.190661
0.828153 0.0142977 0.19089
0.828168 0.014313 0.191028
0.0246128 0.114519 0.110094
0.0240177 0.109941 0.106508
0.118654 0.111543 0.115206
0.387121 0.0859693 0.119707
0.657191 0.00427253 0.129397
0.825208 0 0.146181
0.828275 0.0148013 0.189014
0.828077 0.0139162 0.192065
0.828107 0.0139773 0.192142
0.0408637 0.364828 0.229603
0.0396735 0.359152 0.203769
0.0476844 0.359472 0.148623
0.325002 0.397223 0.0644999
0.750347 0.322011 0.0971542
0.913771 0.211765 0.0946365
0.837858 0 0.112398
0.829526 0 0.11635
0.828763 0 0.121096
0.0104677 0.716335 0.43473
0.0115511 0.718898 0.397894
0.059617 0.723095 0.324575
0.138216 0.745678 0.224704
0.604639 0.742977 0.128237
0.944671 0.71931 0.0473182
0.947402 0.627115 0.0641489
0.943862 0.604273 0.0730602
0.942092 0.591348 0.0778973
0.0442206 0.951522 0.567056
0.0463569 0.955276 0.534081
0.114534 0.960006 0.480034
0.145525 0.956756 0.42092
0.495415 0.945983 0.23682
0.855207 0.956268 0.204868
0.974578 0.945144 0.204486
0.974319 0.94403 0.202945
0.974136 0.941344 0.199481
0.0957351 0.9664 0.6103
0.0872358 0.965911 0.574472
0.112871 0.9626 0.504189
0.169406 0.954803 0.38967
0.323171 0.949416 0.258839
0.737575 0.955062 0.213916
0.955764 0.94226 0.207858
0.974578 0.945144 0.204486
0.974578 0.945144 0.204486
0.108095 0.966873 0.625299
0.0997635 0.966476 0.589502
0.111513 0.963912 0.517037
0.184726 0.953948 0.371374
0.24889 0.95137 0.261921
0.700572 0.952804 0.216022
0.921324 0.937102 0.215259
0.974578 0.945144 0.204486
0.974578 0.945144 0.204486
0.110765 0.966934 0.635676
0.102358 0.966613 0.600626
0.102022 0.964569 0.527733
0.184726 0.953948 0.371374
0.230091 0.952239 0.304799
0.690852 0.952132 0.216876
0.907958 0.950881 0.201633
0.974578 0.945144 0.204486
0.974578 0.945144 0.204486
0.069688 0.0198825 0.376181
0.128786 0.0216068 0.370123
0.243687 0.024033 0.368154
0.457542 0.0325017 0.387289
0.745495 0.0445563 0.453635
0.842374 0.0428016 0.468971
0.84242 0.0412451 0.454185
0.84213 0.040177 0.443687
0.841962 0.0395056 0.437003
0.0484474 0.0188602 0.364263
0.0766155 0.0200809 0.364599
0.201984 0.0229648 0.359457
0.435172 0.032105 0.366308
0.730022 0.0419471 0.421744
0.841031 0.0384527 0.425971
0.840345 0.0316472 0.397345
0.839826 0.0289769 0.386862
0.839567 0.0278172 0.382162
0.0187076 0.0632792 0.291768
0.0166934 0.0409552 0.312779
0.115816 0.0209049 0.348837
0.396765 0.0305943 0.335988
0.698543 0.038056 0.370153
0.839536 0.0302739 0.391699
0.838376 0.022385 0.359457
0.837903 0.0204013 0.350179
0.837568 0.0193027 0.344762
0.0407568 0.345953 0.333547
0.0409094 0.340124 0.328984
0.0410925 0.32958 0.321263
0.374502 0.351339 0.363394
0.720974 0.316976 0.349248
0.897246 0.203632 0.278004
0.835706 0 0.113512
0.829511 0 0.116365
0.828428 0 0.124331
0.0099794 0.687633 0.535592
0.00949111 0.684611 0.520394
0.00883497 0.679255 0.487511
0.0322423 0.688228 0.385855
0.638041 0.696376 0.219516
0.952682 0.637537 0.207034
0.944366 0.607828 0.0716716
0.940719 0.581018 0.0814984
0.938811 0.565377 0.0867018
0.0538491 0.924971 0.673991
0.0498817 0.926574 0.655192
0.0406195 0.930755 0.614252
0.0633097 0.944106 0.50602
0.363714 0.94873 0.283818
0.878264 0.957153 0.219532
0.974258 0.943404 0.202106
0.973312 0.935241 0.192233
0.972656 0.931472 0.187976
0.119112 0.966537 0.728206
0.112291 0.966628 0.70576
0.0979324 0.966339 0.658228
0.0826581 0.963821 0.525216
0.244022 0.952239 0.297032
0.732036 0.954864 0.214099
0.953048 0.941787 0.208316
0.974578 0.945144 0.204486
0.974578 0.945144 0.204486
0.172915 0.967407 0.743603
0.143267 0.967178 0.717189
0.118822 0.967117 0.666499
0.0986038 0.964858 0.531563
0.22034 0.952529 0.320684
0.689738 0.951949 0.216938
0.911757 0.946471 0.206332
0.974578 0.945144 0.204486
0.974578 0.945144 0.204486
0.187854 0.967529 0.753185
0.148836 0.967254 0.725978
0.120867 0.967056 0.674891
0.0920577 0.965454 0.541741
0.192004 0.953674 0.362356
0.673564 0.950515 0.218799
0.88481 0.956786 0.19884
0.974578 0.945144 0.204486
0.974578 0.945144 0.204486
0.184024 0.0255131 0.645945
0.252659 0.0278172 0.640238
0.367849 0.0292668 0.64268
0.54023 0.0306859 0.655726
0.798215 0.0397192 0.684153
0.874449 0.0443885 0.719539
0.880217 0.0424964 0.75375
0.880034 0.0425727 0.752346
0.87985 0.0426337 0.751141
0.131426 0.0226749 0.640711
0.187091 0.0256504 0.636683
0.324178 0.028748 0.637247
0.515419 0.0302586 0.648005
0.784237 0.0394141 0.670283
0.870329 0.045655 0.698207
0.877363 0.0434119 0.736584
0.876677 0.0436408 0.732616
0.876158 0.0437781 0.729854
0.0886854 0.0206149 0.598703
0.120134 0.0220645 0.622766
0.244175 0.0274357 0.628901
0.46865 0.0296178 0.634516
0.758129 0.0386969 0.647135
0.863691 0.0476387 0.665156
0.869581 0.0458228 0.69514
0.868406 0.0461891 0.689158
0.867765 0.0463874 0.685847
0 0.264729 0.583017
0 0.245792 0.591806
0 0.213443 0.602716
0.393118 0.153368 0.664759
0.751232 0.139025 0.657877
0.864118 0.0659342 0.621012
0.855604 0.050309 0.619226
0.8542 0.0504311 0.615564
0.853376 0.0506294 0.611383
0.0142061 0.664759 0.648234
0.013611 0.661295 0.645426
0.0128939 0.655604 0.641016
0.0401007 0.645365 0.6365
0.65333 0.625757 0.639735
0.935119 0.606882 0.626947
0.932219 0.553704 0.560388
0.930114 0.528344 0.54377
0.929168 0.513588 0.534585
0.0711528 0.897688 0.773617
0.0690471 0.896849 0.76611
0.0649271 0.896178 0.750607
0.056672 0.895552 0.71487
0.466865 0.897948 0.663294
0.86836 0.911101 0.587976
0.963317 0.892882 0.586328
0.963455 0.894347 0.480278
0.963043 0.890105 0.461784
0.305745 0.962829 0.85153
0.281178 0.963272 0.843824
0.231159 0.963928 0.826627
0.127733 0.965087 0.774105
0.28986 0.967254 0.678721
0.751446 0.956344 0.621393
0.960678 0.950149 0.46482
0.974578 0.945144 0.204486
0.974578 0.945144 0.204486
0.442481 0.960082 0.87335
0.422705 0.960739 0.86508
0.381155 0.962386 0.847333
0.253574 0.966049 0.790906
0.175555 0.967895 0.663096
0.687541 0.953674 0.613291
0.921279 0.949325 0.391592
0.974578 0.945144 0.204486
0.974578 0.945144 0.204486
0.449714 0.959762 0.876356
0.429679 0.960525 0.868193
0.387335 0.962097 0.850095
0.258778 0.965927 0.793622
0.115816 0.967071 0.654826
0.636912 0.95172 0.582238
0.905241 0.959777 0.334554
0.974578 0.945144 0.204486
0.974578 0.945144 0.204486
0.369848 0.0336614 0.826963
0.409781 0.0340429 0.831464
0.494255 0.0346685 0.842557
0.643107 0.0352789 0.861708
0.846098 0.0404822 0.880964
0.899123 0.0471962 0.898131
0.894759 0.0395666 0.894759
0.895018 0.0400854 0.895018
0.895094 0.0401923 0.895094
0.327016 0.0330205 0.820981
0.368841 0.0336004 0.825376
0.459556 0.0344244 0.837018
0.615854 0.0351568 0.856733
0.831601 0.0379187 0.876356
0.899016 0.0467689 0.894484
0.894286 0.0393225 0.894286
0.894331 0.0393225 0.894331
0.894331 0.0393225 0.894331
0.307439 0.0325933 0.817166
0.306325 0.0325628 0.816648
0.386938 0.0337377 0.825711
0.563302 0.0349126 0.847745
0.803601 0.0373541 0.869718
0.898451 0.0458381 0.886671
0.893751 0.0392462 0.890074
0.893706 0.0392309 0.889235
0.893675 0.0392157 0.88838
0.00538643 0.12369 0.793423
0.0150759 0.0854353 0.797452
0.0566873 0.0363317 0.794217
0.451698 0.0340429 0.824308
0.744884 0.0367895 0.855207
0.900389 0.0503395 0.869413
0.892943 0.0390936 0.868971
0.892348 0.0390784 0.868513
0.892317 0.0390784 0.869123
0 0.603464 0.842206
0 0.594553 0.844373
0 0.578408 0.848737
0 0.557229 0.864073
0.698528 0.539742 0.910094
0.95285 0.526986 0.889494
0.956039 0.435218 0.895338
0.956634 0.39588 0.892149
0.956786 0.372488 0.890181
0.0778515 0.88014 0.861997
0.0767987 0.878599 0.861021
0.0751507 0.876295 0.858946
0.0720989 0.871305 0.855406
0.525643 0.858793 0.852277
0.870085 0.851164 0.860777
0.959365 0.84152 0.853361
0.958312 0.828428 0.841321
0.957855 0.821866 0.837354
0.420859 0.957778 0.909468
0.412451 0.95758 0.907347
0.39707 0.957702 0.903227
0.361883 0.957961 0.892851
0.5205 0.952926 0.881727
0.807874 0.958892 0.882414
0.955291 0.965774 0.848829
0.972137 0.960235 0.861936
0.971817 0.958968 0.857603
0.597803 0.957397 0.928206
0.591699 0.957214 0.92607
0.580087 0.957107 0.922286
0.551019 0.957168 0.91284
0.534035 0.957626 0.895689
0.774441 0.964721 0.890181
0.92491 0.969375 0.855406
0.974441 0.967376 0.81416
0.974472 0.966827 0.80383
0.602304 0.957427 0.929717
0.59559 0.957259 0.927337
0.582605 0.957137 0.923217
0.55108 0.957168 0.91284
0.48394 0.958694 0.889616
0.736507 0.963165 0.880034
0.904402 0.967865 0.847913
0.969314 0.966033 0.79678
0.974838 0.965103 0.770642
0.63389 0.11371 0.908858
0.639994 0.100649 0.904875
0.691508 0.107347 0.914778
0.801205 0.121843 0.925795
0.933745 0.141024 0.933761
0.927855 0.118257 0.927855
0.911162 0.0684367 0.911162
0.924453 0.105943 0.924453
0.928145 0.119341 0.928145
0.614343 0.110384 0.904784
0.619028 0.0970016 0.900114
0.662623 0.0977798 0.906828
0.775235 0.112734 0.922271
0.922499 0.130388 0.930953
0.92549 0.109651 0.92549
0.910338 0.0669566 0.910338
0.911162 0.0684367 0.911162
0.915526 0.0767834 0.915526
0.586954 0.0953384 0.894591
0.584756 0.0914931 0.892805
0.611658 0.0809491 0.892226
0.726238 0.0968338 0.914031
0.897353 0.114336 0.926268
0.921202 0.0946822 0.921202
0.908873 0.0645609 0.908873
0.909239 0.0651408 0.909239
0.909346 0.0653239 0.909346
0.491356 0.11223 0.886839
0.519875 0.0990768 0.886
0.533776 0.0796979 0.879683
0.619318 0.0527962 0.879454
0.833356 0.0759899 0.911269
0.909957 0.0663005 0.909957
0.906584 0.0603189 0.906584
0.906249 0.059678 0.906249
0.90605 0.0593423 0.90605
0.0920729 0.589685 0.925368
0.142596 0.583551 0.928695
0.237552 0.571298 0.933761
0.412833 0.554314 0.933959
0.787717 0.529046 0.958495
0.960143 0.51371 0.960143
0.962386 0.439979 0.962386
0.962371 0.39765 0.962386
0.96199 0.374487 0.96199
0.22472 0.870512 0.958663
0.229572 0.868009 0.960006
0.239506 0.862058 0.961105
0.264042 0.848615 0.962478
0.569528 0.831708 0.940856
0.897337 0.818173 0.965499
0.966537 0.811292 0.959213
0.96582 0.79472 0.957092
0.96553 0.786908 0.956451
0.471717 0.952972 0.941848
0.466758 0.952712 0.941558
0.458289 0.952224 0.941115
0.442008 0.951232 0.940368
0.554543 0.945907 0.937133
0.832502 0.94583 0.943771
0.951308 0.945724 0.948623
0.969085 0.944305 0.947677
0.968841 0.942428 0.946487
0.680537 0.959716 0.950652
0.678538 0.959747 0.95021
0.674342 0.959609 0.94931
0.665385 0.959304 0.947265
0.655985 0.95877 0.943282
0.84332 0.96611 0.951354
0.93991 0.972152 0.954986
0.971038 0.973907 0.948394
0.974121 0.973922 0.95024
0.68484 0.959915 0.951553
0.681727 0.959701 0.950881
0.676555 0.959701 0.949813
0.664759 0.959289 0.947143
0.64358 0.958648 0.942
0.823331 0.964935 0.949096
0.93077 0.971481 0.953811
0.964874 0.97322 0.945571
0.974029 0.974044 0.944289
0.692607 0.177371 0.9337
0.714168 0.183352 0.93727
0.760098 0.19408 0.942412
0.850568 0.210864 0.947768
0.951934 0.232029 0.951934
0.949966 0.219669 0.949966
0.934539 0.144228 0.934539
0.934539 0.144228 0.934539
0.934539 0.144228 0.934539
0.673548 0.171374 0.930297
0.69485 0.177966 0.934066
0.739803 0.189502 0.940764
0.833432 0.207828 0.946929
0.951537 0.230335 0.951675
0.950652 0.223804 0.950652
0.934539 0.144228 0.934539
0.934539 0.144228 0.934539
0.934539 0.144228 0.934539
0.651926 0.1635 0.926055
0.661418 0.16701 0.927947
0.70251 0.180209 0.935378
0.800977 0.201846 0.945098
0.936599 0.226902 0.951156
0.951553 0.229496 0.951553
0.934539 0.144228 0.934539
0.934539 0.144228 0.934539
0.934539 0.144228 0.934539
0.656672 0.202792 0.935363
0.653147 0.171359 0.928069
0.651926 0.1635 0.926055
0.741985 0.190021 0.940963
0.899458 0.219547 0.949813
0.952605 0.236408 0.952605
0.934539 0.144228 0.934539
0.934539 0.144228 0.934539
0.934539 0.144228 0.934539
0.552026 0.599817 0.929503
0.559594 0.588251 0.931151
0.573617 0.565866 0.934829
0.630671 0.543435 0.944366
0.841276 0.529946 0.959838
0.960052 0.522835 0.960052
0.961181 0.479332 0.961181
0.962127 0.449866 0.962127
0.962325 0.435691 0.962325
0.498039 0.863111 0.955703
0.506523 0.859876 0.954376
0.519677 0.853834 0.951934
0.510369 0.838087 0.948943
0.658534 0.824292 0.935164
0.921782 0.813565 0.967346
0.966644 0.810315 0.966644
0.96614 0.797482 0.96614
0.96585 0.790768 0.96585
0.618677 0.947509 0.958999
0.619318 0.947005 0.958999
0.621241 0.945922 0.959121
0.627298 0.943313 0.959121
0.677577 0.940337 0.959625
0.848112 0.942489 0.965621
0.957107 0.938613 0.970489
0.970413 0.937606 0.970413
0.970367 0.9355 0.970367
0.727626 0.961685 0.960922
0.724926 0.961563 0.960678
0.720394 0.961364 0.960296
0.711498 0.960983 0.959564
0.701747 0.960754 0.958633
0.849973 0.966949 0.964233
0.944808 0.968856 0.968399
0.969787 0.969253 0.970291
0.973098 0.968719 0.970489
0.745968 0.962371 0.96202
0.743923 0.962356 0.961913
0.740291 0.962219 0.961547
0.732677 0.961868 0.960494
0.7196 0.961181 0.958465
0.848173 0.966827 0.963561
0.943358 0.972061 0.968826
0.968322 0.974151 0.970855
0.974243 0.974487 0.969757
0.696773 0.178485 0.934386
0.718364 0.184375 0.937926
0.76408 0.194797 0.942687
0.854368 0.211658 0.947967
0.95201 0.232502 0.95201
0.949584 0.217365 0.949584
0.934539 0.144228 0.934539
0.934539 0.144228 0.934539
0.934539 0.144228 0.934539
0.677638 0.172625 0.931029
0.698772 0.179141 0.934752
0.743572 0.190417 0.9411
0.836774 0.208331 0.947082
0.951751 0.230823 0.951751
0.950378 0.222141 0.950378
0.934539 0.144228 0.934539
0.934539 0.144228 0.934539
0.934539 0.144228 0.934539
0.651926 0.1635 0.926055
0.665568 0.168566 0.928786
0.706523 0.181277 0.936034
0.804456 0.202564 0.945327
0.938521 0.227344 0.951232
0.951431 0.228717 0.951431
0.934539 0.144228 0.934539
0.934539 0.144228 0.934539
0.934539 0.144228 0.934539
0.65481 0.18294 0.930907
0.651926 0.1635 0.926055
0.651926 0.1635 0.926055
0.741131 0.189837 0.940887
0.898665 0.219409 0.949798
0.952605 0.236469 0.952605
0.934539 0.144228 0.934539
0.934539 0.144228 0.934539
0.934539 0.144228 0.934539
0.569497 0.572457 0.933501
0.577523 0.559289 0.935943
0.592309 0.533593 0.941405
0.641367 0.50837 0.947005
0.841199 0.496345 0.959564
0.96083 0.487907 0.96083
0.962432 0.437736 0.962432
0.962417 0.402853 0.962417
0.962142 0.387045 0.962142
0.519234 0.853086 0.951797
0.516487 0.848585 0.950942
0.51133 0.839887 0.949325
0.502098 0.821576 0.945602
0.654688 0.805829 0.930449
0.922652 0.795056 0.966796
0.965911 0.791226 0.965911
0.96524 0.776928 0.96524
0.965042 0.770184 0.965042
0.657206 0.945434 0.959426
0.65539 0.944549 0.959365
0.651987 0.943099 0.959289
0.644724 0.939941 0.959136
0.681712 0.936278 0.959625
0.845167 0.938445 0.964523
0.958206 0.934142 0.970153
0.970382 0.93341 0.970382
0.970275 0.931258 0.970275
0.73875 0.962158 0.962158
0.737118 0.962127 0.962127
0.734279 0.962005 0.962005
0.728847 0.961791 0.961791
0.723186 0.961517 0.961517
0.85478 0.966018 0.967239
0.94519 0.96759 0.971756
0.971069 0.967483 0.973266
0.973342 0.967315 0.973342
0.755901 0.962783 0.962829
0.755901 0.962783 0.962829
0.755901 0.962783 0.962829
0.755901 0.962783 0.962829
0.755901 0.962783 0.962829
0.860014 0.967575 0.96762
0.943725 0.972213 0.972076
0.969192 0.97406 0.973968
0.974487 0.974487 0.974548
