bundles/resolve-cinematic-luts/Phantom Luts/Ursa G2 Phntm Arri LUTs - V1/Gen5/White Balance Offset (Magenta Boost)/Ursa IceBlue Gen 5 WBO.cube
TITLE "Generated by Resolve"
LUT_3D_SIZE 9
0.0290837 0.0417945 0.0403601
0.0394598 0.0415198 0.0420691
0.104494 0.0417029 0.0437781
0.324697 0.0399176 0.053666
0.550484 0.0493324 0.0892042
0.643977 0.0721904 0.13254
0.65948 0.080827 0.162325
0.659815 0.0806287 0.163714
0.66453 0.0776226 0.184039
0.0312047 0.0508125 0.0446784
0.0352178 0.0497444 0.0435798
0.088716 0.0466316 0.0446479
0.309255 0.039765 0.055024
0.555047 0.049546 0.0932937
0.645487 0.0716716 0.137438
0.66041 0.0802319 0.166293
0.660456 0.0802167 0.166491
0.664576 0.0775921 0.184283
0.0410315 0.124681 0.079881
0.0402991 0.124178 0.0742046
0.0850538 0.129274 0.0634012
0.355947 0.0958724 0.0599374
0.558053 0.0522469 0.0765545
0.642695 0.0715038 0.128969
0.65211 0.074464 0.150637
0.654459 0.0758984 0.155474
0.659892 0.0769207 0.169635
0.0555123 0.373526 0.156466
0.0566567 0.384802 0.149752
0.0588693 0.37792 0.129
0.27631 0.410101 0.082414
0.685771 0.407858 0.118578
0.791821 0.324147 0.187594
0.65243 0.0759289 0.110353
0.652934 0.078584 0.122713
0.690761 0.125673 0.141741
0.119112 0.691737 0.362036
0.141054 0.706706 0.349081
0.144167 0.708766 0.347906
0.180163 0.712016 0.276204
0.600916 0.741588 0.206363
0.891585 0.755001 0.2963
0.895949 0.704143 0.278141
0.891585 0.691188 0.273396
0.902281 0.724361 0.288502
0.247868 0.857939 0.531746
0.249012 0.856321 0.507866
0.257084 0.855253 0.486198
0.261631 0.85481 0.468849
0.526146 0.867384 0.306096
0.847196 0.900877 0.368185
0.963699 0.902251 0.419211
0.96318 0.902556 0.42388
0.963272 0.902632 0.423743
0.256886 0.862882 0.542321
0.256535 0.858915 0.507637
0.276036 0.853712 0.439506
0.27538 0.854002 0.438056
0.425818 0.860868 0.319554
0.746593 0.891096 0.334417
0.946715 0.898436 0.408591
0.960784 0.902739 0.418326
0.959457 0.902968 0.419623
0.253285 0.86363 0.561715
0.259098 0.86215 0.528023
0.271504 0.854307 0.448142
0.275227 0.853559 0.437812
0.364553 0.856306 0.339315
0.741405 0.889418 0.332662
0.93666 0.895018 0.403311
0.962661 0.90222 0.418357
0.958206 0.903334 0.419272
0.251499 0.863859 0.572457
0.258976 0.86247 0.532418
0.274372 0.854017 0.438972
0.275517 0.853758 0.436179
0.544305 0.868482 0.305333
0.798459 0.895644 0.350713
0.955505 0.899779 0.413413
0.962631 0.902235 0.418341
0.957565 0.903243 0.42211
0.0286259 0.0421149 0.0478065
0.041001 0.0420386 0.0513771
0.110384 0.0433967 0.0610666
0.337331 0.0458991 0.0782635
0.565576 0.053254 0.117784
0.647135 0.0704509 0.144411
0.662333 0.079057 0.174548
0.662638 0.0787976 0.176028
0.665766 0.0767681 0.190127
0.0301671 0.0468299 0.0453803
0.0331426 0.0458839 0.045594
0.0971542 0.0427253 0.0488441
0.327352 0.040116 0.0636606
0.561883 0.0486458 0.107713
0.6486 0.0699626 0.149401
0.663111 0.0784772 0.178408
0.663188 0.0784314 0.17879
0.665675 0.0767987 0.190158
0.0393683 0.112932 0.0908217
0.0392615 0.115587 0.0788891
0.0785382 0.119326 0.0624399
0.356741 0.0780499 0.0582437
0.555245 0.0493782 0.0840772
0.644388 0.0709697 0.134829
0.652964 0.0733959 0.155612
0.661357 0.0803998 0.168017
0.661234 0.0764477 0.175387
0.0497292 0.358953 0.177676
0.0537423 0.369924 0.157855
0.0579385 0.372427 0.138186
0.26421 0.401923 0.0822003
0.699443 0.382589 0.129091
0.779538 0.296269 0.179431
0.65333 0.0778058 0.120729
0.654246 0.0807813 0.124865
0.676341 0.104768 0.133196
0.104143 0.683009 0.391867
0.119875 0.695094 0.371801
0.141344 0.705592 0.345052
0.172625 0.711192 0.289464
0.598321 0.739055 0.204471
0.892775 0.749508 0.294194
0.89189 0.691875 0.273182
0.888411 0.678965 0.268971
0.898466 0.711009 0.281468
0.236393 0.85713 0.562997
0.24535 0.858396 0.539849
0.254505 0.855726 0.49218
0.257908 0.855406 0.479164
0.49839 0.865446 0.307805
0.847547 0.900755 0.368322
0.963714 0.902205 0.419165
0.963287 0.902556 0.422965
0.963272 0.902464 0.422278
0.247654 0.864164 0.580713
0.254002 0.863554 0.551049
0.26331 0.856641 0.480827
0.275517 0.853941 0.438148
0.39881 0.858701 0.325429
0.744961 0.890776 0.333913
0.946365 0.898329 0.408392
0.960784 0.902739 0.418326
0.959564 0.902998 0.419013
0.251072 0.865888 0.599405
0.249958 0.864057 0.569986
0.257847 0.857862 0.499092
0.275135 0.853605 0.437751
0.345052 0.854536 0.345663
0.738094 0.889113 0.331853
0.934691 0.894377 0.402197
0.962417 0.902159 0.419821
0.958144 0.903273 0.420096
0.255955 0.869078 0.616312
0.248386 0.864393 0.582879
0.260624 0.857298 0.486336
0.2748 0.853712 0.437568
0.504036 0.865721 0.307561
0.784833 0.894499 0.346319
0.952972 0.899016 0.411978
0.962631 0.902235 0.418341
0.957794 0.903288 0.420935
0.0306859 0.0453498 0.129137
0.0544137 0.0442664 0.126619
0.124788 0.0457771 0.124269
0.365454 0.0503395 0.148318
0.598856 0.0607004 0.184787
0.66247 0.0764019 0.183978
0.662409 0.0797589 0.172686
0.662715 0.0795148 0.174151
0.665888 0.0775006 0.188205
0.0258183 0.0443732 0.0998093
0.0354314 0.0450752 0.127489
0.111406 0.0452735 0.119799
0.360983 0.0483864 0.130648
0.597345 0.059968 0.168139
0.660273 0.076463 0.174456
0.663081 0.0792706 0.175967
0.663188 0.0790417 0.176837
0.665904 0.0774701 0.188388
0.0360723 0.106859 0.115846
0.0350958 0.107012 0.117082
0.0882734 0.105303 0.124895
0.361028 0.0871748 0.11873
0.568185 0.0533761 0.11899
0.645701 0.0711528 0.138705
0.661433 0.0804761 0.168093
0.661433 0.0799878 0.169497
0.663966 0.0784924 0.179995
0.0458534 0.34052 0.228733
0.0445869 0.346029 0.215702
0.0495308 0.345296 0.174502
0.264591 0.37998 0.0851148
0.702693 0.336324 0.142016
0.763699 0.262425 0.169711
0.649012 0.0756847 0.123384
0.644297 0.0717784 0.12134
0.64976 0.0730755 0.122499
0.0850538 0.664942 0.446372
0.0893263 0.674861 0.432135
0.107668 0.682765 0.380011
0.156024 0.701045 0.301442
0.588846 0.727138 0.195789
0.891478 0.732982 0.286549
0.885451 0.666804 0.263859
0.882261 0.654444 0.259937
0.890013 0.685252 0.269444
0.229892 0.854551 0.613718
0.228916 0.855207 0.597757
0.240177 0.856931 0.555169
0.256947 0.855314 0.485557
0.423957 0.860594 0.319188
0.842329 0.900114 0.366445
0.96379 0.902342 0.419928
0.962844 0.901991 0.421149
0.963211 0.90222 0.420081
0.263264 0.873518 0.643778
0.256321 0.870253 0.622553
0.250721 0.863981 0.570428
0.27541 0.853986 0.438087
0.350851 0.855955 0.346731
0.741711 0.890227 0.332921
0.943801 0.897734 0.407645
0.960647 0.902678 0.419318
0.959319 0.902937 0.420264
0.270939 0.87715 0.662196
0.26302 0.873976 0.642115
0.249287 0.864759 0.589899
0.274434 0.853727 0.440375
0.313939 0.853193 0.372839
0.728862 0.887678 0.329061
0.928969 0.894774 0.399786
0.962509 0.902068 0.420401
0.958343 0.903166 0.42063
0.283497 0.883574 0.69456
0.274052 0.879652 0.673274
0.252583 0.867887 0.608927
0.27538 0.853513 0.437888
0.400824 0.858839 0.326543
0.760586 0.892012 0.338689
0.946059 0.897398 0.408591
0.962371 0.90219 0.419577
0.957366 0.903395 0.420966
0.0414435 0.0547646 0.34963
0.0813458 0.0530861 0.34966
0.183581 0.0513619 0.340383
0.400595 0.0544137 0.335515
0.640452 0.0783703 0.356466
0.711406 0.0978561 0.357153
0.706172 0.0937667 0.335927
0.704601 0.092546 0.330007
0.709453 0.0953536 0.367208
0.031632 0.0552071 0.34963
0.0462196 0.0548714 0.359426
0.154894 0.0522469 0.358007
0.400854 0.0545205 0.3467
0.646265 0.0791028 0.352895
0.709529 0.0966812 0.34844
0.702876 0.0918135 0.321675
0.700786 0.090013 0.315984
0.705501 0.091722 0.35288
0.0199893 0.0750744 0.283146
0.0174411 0.0669413 0.313085
0.0639506 0.0538643 0.354147
0.363912 0.0532235 0.337438
0.631128 0.0748302 0.318334
0.703899 0.0932174 0.31899
0.695979 0.0878004 0.293706
0.695033 0.0872663 0.289906
0.702449 0.090486 0.32604
0.0403143 0.337606 0.323278
0.0389105 0.345037 0.331838
0.0383307 0.338399 0.330953
0.318914 0.347585 0.370825
0.721263 0.321569 0.347951
0.79762 0.245411 0.294972
0.653696 0.0764935 0.138643
0.650614 0.0739452 0.137102
0.655268 0.0747539 0.139345
0.0905928 0.653574 0.532952
0.0940414 0.661357 0.533425
0.0909285 0.660731 0.515267
0.0875868 0.660761 0.454017
0.58172 0.695537 0.259052
0.920699 0.668986 0.338155
0.882017 0.652674 0.258961
0.877897 0.636622 0.254383
0.883207 0.669291 0.266026
0.252506 0.85095 0.694621
0.256092 0.854429 0.690974
0.247379 0.85565 0.670237
0.23122 0.853727 0.592554
0.3252 0.859648 0.399008
0.855177 0.90222 0.377981
0.963714 0.902113 0.419654
0.962661 0.901411 0.419715
0.960967 0.901762 0.432197
0.316457 0.893339 0.743633
0.316487 0.88986 0.733883
0.293584 0.882918 0.7028
0.25713 0.868132 0.614313
0.297871 0.856367 0.415549
0.75201 0.89189 0.337545
0.940078 0.896757 0.406027
0.960388 0.902586 0.421057
0.957397 0.902434 0.430884
0.341405 0.903624 0.765332
0.337392 0.897337 0.754559
0.303731 0.886961 0.720211
0.263157 0.869963 0.631846
0.28542 0.854109 0.424155
0.71957 0.886381 0.326558
0.921675 0.8972 0.397955
0.962386 0.901946 0.422141
0.957595 0.9028 0.426566
0.411109 0.923232 0.818555
0.406409 0.916579 0.808423
0.35172 0.903334 0.769146
0.273884 0.875685 0.662715
0.332219 0.870375 0.460472
0.788739 0.897154 0.355871
0.936522 0.895338 0.404486
0.96173 0.902007 0.423362
0.957031 0.903044 0.425605
0.115114 0.0677653 0.575662
0.176577 0.0670939 0.588251
0.285771 0.0659495 0.598642
0.447639 0.0683604 0.596384
0.642573 0.0902876 0.567254
0.717876 0.115221 0.570764
0.714229 0.11696 0.596994
0.713893 0.116945 0.597696
0.70695 0.118502 0.620081
0.0781415 0.0680858 0.563882
0.127733 0.0689097 0.585519
0.257603 0.0679026 0.608392
0.43975 0.070222 0.611185
0.648417 0.0934005 0.5785
0.717067 0.115785 0.578012
0.713512 0.117357 0.602335
0.713268 0.11725 0.602136
0.706783 0.118593 0.621256
0.0602121 0.0658274 0.541619
0.0761883 0.0682994 0.563821
0.172442 0.0690166 0.598199
0.397116 0.0692607 0.614191
0.635996 0.0902113 0.578302
0.719707 0.114672 0.560967
0.717281 0.116197 0.58262
0.717464 0.116136 0.581598
0.711376 0.117266 0.604898
0.018143 0.268574 0.540948
0.0177005 0.26302 0.5514
0.0173037 0.233494 0.556848
0.275425 0.155077 0.677607
0.658152 0.143633 0.634424
0.738857 0.129076 0.547082
0.722591 0.114702 0.548012
0.722148 0.114443 0.548898
0.717784 0.115862 0.574136
0.110048 0.650202 0.631403
0.115633 0.658885 0.638941
0.116945 0.659953 0.641794
0.121004 0.656886 0.645792
0.618509 0.647334 0.679515
0.948882 0.638956 0.665202
0.956985 0.594064 0.614786
0.954971 0.578622 0.607172
0.949676 0.609644 0.642893
0.27425 0.847501 0.767865
0.282109 0.850797 0.770474
0.282445 0.851148 0.76611
0.271855 0.848997 0.747555
0.438132 0.875624 0.718135
0.841764 0.90692 0.651835
0.971374 0.90222 0.669886
0.971725 0.900938 0.623911
0.966049 0.907897 0.684596
0.463828 0.932738 0.859678
0.48426 0.929061 0.860349
0.470085 0.926268 0.851926
0.412268 0.916854 0.821881
0.393149 0.912978 0.755688
0.739635 0.922728 0.700099
0.959503 0.926604 0.593606
0.96791 0.906157 0.439033
0.969879 0.914046 0.492424
0.529335 0.941039 0.882506
0.553231 0.933165 0.879545
0.53286 0.930617 0.870344
0.464652 0.925078 0.839658
0.36939 0.906813 0.760632
0.708705 0.917693 0.704692
0.938704 0.929686 0.594568
0.967666 0.906386 0.441855
0.960281 0.904692 0.4374
0.591211 0.946761 0.908278
0.6159 0.938415 0.903532
0.601358 0.93492 0.895232
0.531075 0.931716 0.870741
0.553353 0.92401 0.827802
0.800015 0.935119 0.793011
0.950683 0.940047 0.69308
0.974136 0.91783 0.500435
0.959091 0.905486 0.436255
0.286366 0.0872511 0.688487
0.316884 0.0883345 0.694621
0.379126 0.0908522 0.703502
0.488518 0.0979477 0.710506
0.638407 0.117922 0.701396
0.700603 0.137972 0.704585
0.692882 0.130648 0.699489
0.694453 0.131258 0.699184
0.693172 0.133974 0.705486
0.267781 0.0865644 0.684337
0.301106 0.0878309 0.692027
0.367864 0.0903029 0.702495
0.485267 0.0980697 0.711818
0.643305 0.120424 0.704738
0.702327 0.139315 0.70576
0.695262 0.132616 0.700816
0.695079 0.133059 0.701839
0.693202 0.135531 0.708247
0.253117 0.0856641 0.679881
0.256718 0.0865492 0.68278
0.314504 0.0882277 0.694453
0.449363 0.0953689 0.710491
0.626276 0.116609 0.706859
0.704234 0.139178 0.703426
0.696605 0.131334 0.697047
0.696284 0.131441 0.697581
0.693721 0.133532 0.70425
0.0521706 0.126619 0.629099
0.0716411 0.10927 0.636164
0.0991073 0.0835279 0.632044
0.354208 0.0915389 0.702419
0.588235 0.113298 0.714397
0.706172 0.141375 0.704906
0.695857 0.129885 0.694728
0.695689 0.12987 0.694972
0.693858 0.132006 0.70132
0.116945 0.608698 0.736843
0.120623 0.615686 0.742535
0.119432 0.610727 0.744945
0.117739 0.59794 0.75024
0.645945 0.597498 0.957641
0.959716 0.578607 0.934646
0.964843 0.510079 0.919661
0.95845 0.489586 0.913756
0.958877 0.538186 0.93109
0.29398 0.8486 0.828138
0.303197 0.852964 0.832105
0.305852 0.853666 0.833432
0.304524 0.852552 0.833371
0.52607 0.891157 0.88542
0.862455 0.876081 0.892073
0.96408 0.87277 0.887282
0.964569 0.867109 0.882353
0.956878 0.879469 0.895705
0.554314 0.947356 0.913237
0.582895 0.943511 0.914061
0.583124 0.942489 0.912444
0.568536 0.940642 0.907256
0.608911 0.938903 0.901869
0.842039 0.948821 0.920241
0.954269 0.962264 0.902739
0.976104 0.960891 0.913466
0.973922 0.961837 0.926329
0.667384 0.952087 0.931029
0.688899 0.94641 0.929534
0.688396 0.944762 0.927352
0.66772 0.944152 0.922393
0.645853 0.941009 0.91104
0.834775 0.950164 0.924727
0.937728 0.961105 0.916472
0.977752 0.962554 0.894957
0.976608 0.963714 0.90695
0.699107 0.955489 0.942168
0.721736 0.949035 0.938262
0.720851 0.946822 0.935653
0.697795 0.947326 0.932372
0.733318 0.945998 0.928069
0.886503 0.955901 0.942184
0.947799 0.963851 0.935027
0.973968 0.964935 0.913329
0.97409 0.965072 0.910964
0.559136 0.193545 0.801297
0.573343 0.197665 0.804334
0.605966 0.205478 0.808621
0.681498 0.225025 0.813779
0.782956 0.251972 0.807141
0.791531 0.248157 0.798383
0.739452 0.184314 0.746273
0.75555 0.201831 0.760082
0.765484 0.219043 0.777798
0.564462 0.205661 0.81146
0.585702 0.2177 0.821454
0.624857 0.231525 0.830472
0.704021 0.25449 0.837781
0.811505 0.285298 0.83241
0.820096 0.284382 0.826871
0.764767 0.214878 0.771923
0.766567 0.217456 0.774441
0.768109 0.223072 0.781796
0.553307 0.204837 0.811093
0.565393 0.215641 0.820737
0.599802 0.228061 0.829709
0.683574 0.253086 0.841031
0.801984 0.284993 0.836774
0.821271 0.282521 0.82327
0.766018 0.213077 0.768261
0.773068 0.222217 0.776089
0.769268 0.222858 0.780438
0.508278 0.201007 0.807736
0.530694 0.208072 0.815106
0.542992 0.203052 0.811063
0.615061 0.222507 0.823667
0.757046 0.258976 0.826596
0.808392 0.266117 0.810468
0.736889 0.177035 0.736904
0.740764 0.181827 0.741085
0.759091 0.208972 0.767834
0.291432 0.642618 0.877928
0.331579 0.656245 0.899351
0.395148 0.656275 0.926543
0.484627 0.641062 0.95314
0.784665 0.599069 0.974304
0.962417 0.590051 0.964385
0.96611 0.541833 0.957107
0.961013 0.521569 0.952361
0.958312 0.567407 0.960037
0.431495 0.890883 0.929397
0.450828 0.897597 0.934279
0.464439 0.899489 0.937469
0.484749 0.899519 0.94229
0.625437 0.893065 0.944076
0.874983 0.861143 0.953567
0.96585 0.857313 0.956207
0.969253 0.850446 0.951019
0.959838 0.86569 0.952087
0.607217 0.955001 0.941283
0.632319 0.95227 0.941146
0.63653 0.951736 0.941054
0.633341 0.951156 0.940414
0.660578 0.949828 0.940826
0.857877 0.949691 0.950576
0.954818 0.95201 0.955428
0.975631 0.95172 0.953002
0.972534 0.954314 0.957534
0.737835 0.957977 0.949767
0.753124 0.954299 0.949203
0.753933 0.953597 0.948577
0.745541 0.953735 0.947158
0.736889 0.95317 0.944228
0.88188 0.958602 0.954864
0.955139 0.966369 0.963912
0.975662 0.968627 0.960082
0.976623 0.969177 0.96318
0.766857 0.958328 0.953201
0.778881 0.955154 0.952758
0.774029 0.955123 0.952453
0.763088 0.95494 0.950988
0.785657 0.954726 0.949691
0.909468 0.960891 0.959686
0.959426 0.967727 0.967254
0.971908 0.969573 0.964492
0.976287 0.969497 0.962432
0.602762 0.227741 0.828214
0.617594 0.234104 0.83328
0.651789 0.24445 0.838743
0.722911 0.263798 0.841856
0.818921 0.292668 0.837018
0.826673 0.292821 0.83331
0.771191 0.222538 0.77818
0.772702 0.222278 0.77644
0.770001 0.222751 0.779492
0.587488 0.222019 0.823987
0.602075 0.228962 0.830137
0.638209 0.240635 0.837201
0.715526 0.262013 0.842405
0.820111 0.292927 0.836927
0.825833 0.2916 0.832486
0.771237 0.222522 0.77818
0.770871 0.222583 0.778592
0.768826 0.222934 0.780957
0.565103 0.212589 0.816861
0.57142 0.217685 0.822141
0.60528 0.229816 0.830747
0.688914 0.254734 0.84155
0.807614 0.288838 0.838407
0.83064 0.294682 0.832334
0.773327 0.222171 0.775769
0.772992 0.222232 0.77615
0.769436 0.222843 0.780148
0.576349 0.236439 0.836439
0.562997 0.217395 0.822309
0.5608 0.21387 0.819577
0.633448 0.238956 0.83624
0.774075 0.278874 0.84152
0.834501 0.300191 0.836759
0.774548 0.221958 0.774319
0.774365 0.221988 0.774594
0.770428 0.22266 0.779187
0.545251 0.639429 0.960769
0.539483 0.643626 0.96173
0.546654 0.630304 0.965255
0.577707 0.606149 0.972198
0.811215 0.579934 0.974044
0.961166 0.57705 0.963363
0.9664 0.540413 0.955825
0.96257 0.525002 0.95201
0.957488 0.559976 0.959564
0.584283 0.901396 0.947494
0.590265 0.904662 0.948272
0.590051 0.903716 0.947845
0.580438 0.896376 0.945586
0.669062 0.883131 0.938827
0.895811 0.855619 0.956344
0.966155 0.853468 0.955474
0.970642 0.847883 0.95108
0.959274 0.862409 0.952621
0.708141 0.953674 0.951873
0.721782 0.952026 0.951492
0.725216 0.951476 0.951217
0.726787 0.950439 0.950881
0.74197 0.949264 0.951827
0.875013 0.950118 0.958938
0.954131 0.949447 0.963394
0.978439 0.948226 0.958022
0.97261 0.951827 0.96286
0.786007 0.95845 0.953887
0.791272 0.957076 0.955825
0.790722 0.957214 0.956085
0.787701 0.957641 0.95584
0.787808 0.957198 0.95465
0.890578 0.960723 0.961334
0.95494 0.966155 0.96791
0.979629 0.965927 0.964065
0.98024 0.96672 0.965682
0.789837 0.95761 0.953033
0.796475 0.95584 0.954864
0.79675 0.955764 0.954955
0.794751 0.956298 0.955047
0.818952 0.956847 0.955581
0.914031 0.962386 0.964019
0.959808 0.96817 0.970428
0.973831 0.969253 0.970901
0.979736 0.968414 0.967514
0.605478 0.228519 0.828641
0.620264 0.234882 0.833768
0.655406 0.24538 0.839017
0.727932 0.265248 0.841962
0.82179 0.293782 0.836835
0.824796 0.290455 0.831571
0.771206 0.222538 0.77818
0.77229 0.222354 0.776913
0.770001 0.222751 0.779507
0.590036 0.222705 0.824323
0.604166 0.229557 0.830457
0.641505 0.24152 0.837537
0.720363 0.263462 0.842603
0.82356 0.294163 0.836637
0.824063 0.289433 0.830808
0.771237 0.222522 0.77818
0.770871 0.222583 0.778592
0.769757 0.222782 0.779919
0.565515 0.212711 0.816922
0.572564 0.218173 0.822538
0.607843 0.230808 0.831388
0.693034 0.255756 0.841672
0.8121 0.290394 0.838102
0.829374 0.292897 0.831052
0.773342 0.222156 0.775784
0.773037 0.222202 0.776211
0.769802 0.222766 0.779873
0.574685 0.231525 0.832563
0.563012 0.217517 0.822477
0.561517 0.215198 0.820737
0.636103 0.239719 0.836683
0.778408 0.280125 0.841321
0.834119 0.299397 0.836133
0.774563 0.221958 0.774319
0.77438 0.221973 0.774624
0.770459 0.222644 0.779232
0.545861 0.638987 0.959396
0.539681 0.643793 0.960342
0.546593 0.630243 0.963577
0.579019 0.606363 0.969772
0.815106 0.581552 0.971664
0.958404 0.579293 0.960006
0.967453 0.541314 0.954849
0.962249 0.527993 0.951827
0.956039 0.562875 0.958251
0.590616 0.902022 0.946273
0.596582 0.905745 0.947616
0.595956 0.90428 0.946181
0.586145 0.89662 0.943832
0.677348 0.883024 0.936736
0.898878 0.857664 0.95404
0.965042 0.854994 0.953902
0.9691 0.849317 0.948486
0.956634 0.865507 0.950195
0.722255 0.952331 0.951019
0.734783 0.950286 0.950332
0.737392 0.949371 0.949737
0.735241 0.948363 0.949416
0.750484 0.947524 0.950896
0.879988 0.949722 0.959045
0.954772 0.949813 0.964706
0.979095 0.947982 0.957183
0.971817 0.952163 0.963241
0.796536 0.955749 0.951797
0.79852 0.955261 0.954421
0.798871 0.954971 0.954299
0.797894 0.95494 0.954223
0.80029 0.955077 0.954437
0.89546 0.960433 0.963088
0.954238 0.966583 0.970733
0.983001 0.964736 0.961318
0.98114 0.9664 0.965408
0.790646 0.957382 0.952148
0.800214 0.954803 0.954055
0.80473 0.953567 0.953201
0.804761 0.953567 0.953201
0.82945 0.954864 0.955444
0.916381 0.962112 0.965438
0.95787 0.968734 0.972915
0.972915 0.969573 0.972091
0.984634 0.967391 0.963333
