bundles/resolve-cinematic-luts/Phantom Luts/Ursa G2 Phntm Arri LUTs - V1/Gen5/White Balance Offset (Magenta Boost)/Ursa Tungsten Gen 5-Legacy WBO.cube
TITLE "Generated by Resolve"
LUT_3D_SIZE 9
0.0172122 0.0162356 0.0214694
0.0300298 0.0178378 0.0238346
0.105837 0.0254673 0.0391699
0.31397 0.0363928 0.0789044
0.610224 0.0320745 0.137667
0.695003 0.0530556 0.181765
0.71342 0.0705119 0.204959
0.713542 0.070573 0.205173
0.714672 0.0711528 0.207095
0.0258793 0.0397498 0.0400397
0.029099 0.038117 0.0325322
0.0921035 0.0399023 0.037583
0.290257 0.0296635 0.0660105
0.598383 0.031632 0.134524
0.694499 0.0525673 0.180911
0.713619 0.0706035 0.20531
0.713695 0.0706493 0.205432
0.715236 0.0714427 0.208087
0.0383307 0.117189 0.0706798
0.0380407 0.11632 0.0684215
0.0862287 0.117617 0.0476539
0.312917 0.0953231 0.0662242
0.587304 0.0297398 0.10309
0.689189 0.049546 0.169314
0.696925 0.0542916 0.185138
0.704372 0.0614633 0.194034
0.708782 0.0652476 0.199954
0.0375677 0.306172 0.126223
0.0387121 0.309468 0.117174
0.0426947 0.301976 0.0982528
0.265171 0.333639 0.0480049
0.721965 0.338643 0.126665
0.809415 0.229175 0.179721
0.689296 0.0536355 0.14815
0.687221 0.051545 0.152193
0.68864 0.0535134 0.151797
0.0225681 0.595972 0.225498
0.0320592 0.603433 0.210391
0.034699 0.604547 0.204349
0.0681773 0.605829 0.112673
0.533913 0.635355 0.0750896
0.910918 0.68687 0.223011
0.888319 0.62034 0.194507
0.887022 0.610574 0.19353
0.890852 0.628031 0.198749
0.0881056 0.762234 0.361151
0.0923781 0.759991 0.340444
0.0989548 0.756542 0.310948
0.105119 0.753841 0.286732
0.375326 0.754452 0.129137
0.847639 0.819379 0.2495
0.952453 0.832578 0.315709
0.952514 0.832563 0.315892
0.952544 0.832456 0.315999
0.0936446 0.764965 0.370733
0.0971389 0.761013 0.342123
0.113146 0.751751 0.264866
0.113893 0.751476 0.262196
0.277623 0.749142 0.139971
0.673152 0.790127 0.168872
0.950912 0.832074 0.314137
0.9523 0.832624 0.315282
0.952285 0.832761 0.315389
0.0960098 0.768826 0.394705
0.0942397 0.763836 0.363882
0.110033 0.752453 0.274571
0.114199 0.751003 0.260349
0.217136 0.747051 0.154833
0.639933 0.78439 0.156847
0.944884 0.829755 0.309514
0.952316 0.832288 0.315007
0.952285 0.832822 0.315435
0.0948043 0.773098 0.420264
0.0935073 0.765255 0.372351
0.111025 0.752255 0.271626
0.114199 0.751003 0.260349
0.248859 0.747784 0.145006
0.652705 0.786435 0.161151
0.945937 0.830106 0.310277
0.952316 0.83238 0.315084
0.952285 0.832715 0.315343
0.0157321 0.0186618 0.0413672
0.0344244 0.0206455 0.0427558
0.108843 0.0294041 0.0590066
0.322774 0.0402533 0.0984207
0.625605 0.0458381 0.159777
0.695674 0.0531777 0.182925
0.714214 0.0707866 0.20647
0.714549 0.0710613 0.206912
0.715587 0.0715648 0.208743
0.0240482 0.0357671 0.042237
0.0240482 0.0340124 0.0410773
0.0958724 0.034287 0.0472419
0.29897 0.0383459 0.0821088
0.604623 0.0353094 0.142428
0.695354 0.0528573 0.182391
0.714565 0.0710765 0.206958
0.714687 0.0711528 0.207111
0.715663 0.0716564 0.20885
0.0390021 0.10695 0.0844739
0.0365911 0.106844 0.0738994
0.0815137 0.109987 0.048249
0.311192 0.0790417 0.0654917
0.578241 0.0248264 0.105806
0.689967 0.0497139 0.171405
0.701122 0.0580606 0.190524
0.710323 0.0671244 0.201373
0.711711 0.0679789 0.203616
0.0386969 0.291051 0.149813
0.0378882 0.292821 0.132326
0.0419776 0.294545 0.106538
0.259297 0.322988 0.0484627
0.743709 0.306035 0.139284
0.788159 0.192248 0.172213
0.687587 0.0518654 0.151644
0.686534 0.0510109 0.152758
0.68809 0.0532082 0.15169
0.0059968 0.585611 0.257221
0.0150759 0.588876 0.23566
0.0328527 0.597086 0.200855
0.0607767 0.602594 0.131075
0.531167 0.628763 0.0730755
0.907362 0.677623 0.218158
0.885969 0.605554 0.192142
0.88481 0.594842 0.190967
0.887449 0.6121 0.194141
0.0884871 0.76759 0.396674
0.0861372 0.764477 0.376715
0.0967575 0.757641 0.320439
0.101946 0.755169 0.298863
0.355413 0.753124 0.130663
0.846342 0.819074 0.248737
0.952453 0.832547 0.315679
0.952453 0.832593 0.315755
0.952483 0.832609 0.315831
0.0945602 0.772534 0.417716
0.095491 0.768338 0.391028
0.101732 0.756954 0.311223
0.113771 0.751507 0.262577
0.251591 0.748287 0.144717
0.665583 0.788952 0.166171
0.95079 0.832029 0.314046
0.9523 0.832624 0.315282
0.952285 0.832761 0.315389
0.0933242 0.776257 0.4421
0.0953841 0.771618 0.411536
0.0989548 0.75906 0.328893
0.114199 0.751003 0.260349
0.196017 0.746258 0.160616
0.631235 0.783154 0.154284
0.94345 0.829236 0.308476
0.952316 0.832258 0.314992
0.952285 0.832792 0.315419
0.093019 0.780118 0.468284
0.0944381 0.773342 0.422522
0.0993668 0.758831 0.326467
0.114199 0.751003 0.260349
0.22089 0.74699 0.152392
0.639475 0.784314 0.156802
0.943816 0.829374 0.308766
0.952316 0.83238 0.315084
0.952285 0.832898 0.315496
0.0217899 0.0252689 0.114473
0.0477455 0.0262455 0.116426
0.11899 0.0327459 0.114702
0.33286 0.0488136 0.159014
0.660838 0.0578775 0.225132
0.716609 0.0717021 0.214145
0.710338 0.0669566 0.201556
0.710826 0.0673686 0.202228
0.711971 0.0679637 0.204273
0.0117647 0.0268711 0.0829786
0.018616 0.0242313 0.102678
0.101823 0.0311131 0.105074
0.316838 0.0444495 0.135454
0.643183 0.0549477 0.199756
0.704341 0.0610971 0.194507
0.711269 0.0678264 0.202747
0.71165 0.0681468 0.203281
0.712657 0.0686198 0.205127
0.0366827 0.101213 0.104753
0.0355077 0.09897 0.103883
0.0865949 0.0992905 0.107301
0.312306 0.0893111 0.120058
0.602472 0.0431373 0.148623
0.690623 0.0497444 0.173816
0.710414 0.0672313 0.201495
0.7122 0.0689708 0.203662
0.712978 0.0692454 0.205188
0.0436866 0.275669 0.194919
0.0417487 0.272862 0.182589
0.0409857 0.269474 0.144732
0.268772 0.306233 0.067277
0.730388 0.270497 0.141451
0.763912 0.154238 0.163745
0.68632 0.0508583 0.152972
0.687526 0.0504158 0.159136
0.688319 0.0509651 0.159106
0 0.573922 0.323735
0 0.575189 0.302464
0.00781262 0.572824 0.236423
0.050309 0.591318 0.145144
0.527626 0.616251 0.069688
0.900649 0.660838 0.209171
0.883894 0.583627 0.189853
0.883131 0.572229 0.188968
0.884138 0.590005 0.189242
0.0814832 0.774472 0.459876
0.0828412 0.7729 0.44155
0.085359 0.765408 0.383871
0.0991531 0.75642 0.309941
0.305379 0.750271 0.13576
0.843534 0.818448 0.247089
0.952483 0.832624 0.315847
0.952346 0.832349 0.315145
0.952331 0.832303 0.315053
0.0978408 0.784573 0.493217
0.0927291 0.780285 0.470741
0.0937667 0.769665 0.400397
0.113603 0.751537 0.262974
0.210376 0.74725 0.157885
0.655421 0.787198 0.162417
0.95053 0.831937 0.313848
0.9523 0.832624 0.315282
0.952285 0.832761 0.315389
0.106279 0.790097 0.516945
0.0985885 0.784848 0.492897
0.0944991 0.772671 0.419501
0.114122 0.751034 0.260624
0.163348 0.745876 0.180194
0.615213 0.780591 0.14963
0.939284 0.827924 0.305608
0.952316 0.832212 0.314946
0.952285 0.832761 0.315389
0.117708 0.797498 0.548791
0.104723 0.78912 0.512184
0.093904 0.774075 0.428321
0.113771 0.751156 0.261982
0.177234 0.746197 0.171633
0.626307 0.782376 0.152834
0.938796 0.827817 0.305318
0.952316 0.83238 0.315084
0.952285 0.832944 0.315526
0.0322728 0.0426642 0.295766
0.0720226 0.0421302 0.299962
0.162264 0.039704 0.299443
0.354757 0.054551 0.299474
0.673579 0.0814374 0.370123
0.738125 0.0881666 0.374334
0.737301 0.0852369 0.351675
0.73669 0.0836805 0.341054
0.737774 0.0846265 0.345205
0.0205234 0.0409705 0.277317
0.0276799 0.0415351 0.282994
0.129976 0.0398108 0.295933
0.33637 0.0532998 0.284062
0.660029 0.0767987 0.343542
0.735332 0.0823682 0.343481
0.733791 0.0792554 0.312551
0.732937 0.0782788 0.304723
0.734157 0.0791028 0.311238
0.00573739 0.079881 0.215259
0.00205997 0.06981 0.229694
0.0526894 0.0466316 0.273564
0.305531 0.0567788 0.261341
0.630777 0.0717174 0.304982
0.732097 0.0777752 0.317037
0.731044 0.0768139 0.28751
0.730175 0.0762951 0.280629
0.731823 0.0772412 0.287984
0.048127 0.274647 0.267124
0.0475319 0.273167 0.26598
0.047715 0.265782 0.259525
0.301976 0.291447 0.296254
0.71313 0.27483 0.310597
0.778927 0.144335 0.234882
0.686152 0.05066 0.153353
0.687877 0.05037 0.160525
0.688441 0.0508888 0.159823
0.00596628 0.575814 0.435843
0.00331121 0.575784 0.428168
0 0.567071 0.394446
0 0.551766 0.279561
0.574151 0.588159 0.136492
0.900526 0.605676 0.21767
0.883055 0.568795 0.189151
0.883116 0.554391 0.188861
0.883253 0.571893 0.188144
0.106889 0.790631 0.566323
0.104524 0.789853 0.558633
0.0921035 0.783047 0.520958
0.0880598 0.76733 0.393683
0.213794 0.748425 0.168627
0.873884 0.818708 0.266377
0.952392 0.832441 0.315389
0.952224 0.831998 0.314611
0.95227 0.83209 0.314839
0.146502 0.814603 0.616464
0.139696 0.810758 0.601755
0.117769 0.797665 0.550484
0.0961929 0.770275 0.402335
0.165118 0.746029 0.17789
0.640513 0.784848 0.157427
0.95021 0.831769 0.313542
0.9523 0.832624 0.315282
0.952285 0.832761 0.315389
0.165469 0.824109 0.643488
0.152438 0.8177 0.625254
0.125658 0.802304 0.568994
0.0945296 0.772732 0.419821
0.13608 0.747707 0.21503
0.599588 0.778088 0.145586
0.93019 0.825315 0.299351
0.952316 0.832166 0.314916
0.952285 0.832731 0.315373
0.199222 0.839719 0.687846
0.175799 0.829221 0.657877
0.136706 0.808804 0.593118
0.0937362 0.774166 0.429267
0.142229 0.746548 0.201495
0.60679 0.779202 0.147372
0.927184 0.824384 0.297612
0.952316 0.83238 0.315084
0.952285 0.832898 0.315496
0.0968795 0.071458 0.578729
0.142901 0.0718853 0.584985
0.248875 0.0667124 0.593149
0.427802 0.0594492 0.583322
0.698741 0.0948043 0.574166
0.741222 0.105074 0.601297
0.739788 0.105791 0.619638
0.740108 0.105577 0.615045
0.740047 0.1066 0.623026
0.0622416 0.0694438 0.562814
0.089662 0.0703746 0.570611
0.208026 0.0690013 0.589563
0.405493 0.059205 0.581613
0.688655 0.0920882 0.564782
0.74197 0.104753 0.586786
0.740887 0.104829 0.602487
0.741222 0.104601 0.596017
0.741253 0.105623 0.605783
0.0304723 0.063508 0.511299
0.0487373 0.0668956 0.539178
0.136339 0.0703441 0.573907
0.361364 0.0589914 0.573907
0.665248 0.0867323 0.546777
0.742214 0.103899 0.561486
0.742061 0.103807 0.569924
0.742107 0.103548 0.56408
0.742336 0.104463 0.57557
0 0.256809 0.490867
0 0.249226 0.501259
0 0.226032 0.514885
0.28249 0.168185 0.620935
0.660792 0.147692 0.561913
0.752865 0.116014 0.519127
0.743938 0.105333 0.515175
0.742473 0.103548 0.512139
0.743603 0.105394 0.524956
0.043061 0.59704 0.572534
0.0438087 0.600061 0.576455
0.0431983 0.598383 0.574746
0.0536507 0.590234 0.568963
0.612589 0.59176 0.588815
0.953872 0.59498 0.607034
0.9514 0.546548 0.537621
0.949767 0.531167 0.529809
0.951247 0.545312 0.547845
0.15758 0.811566 0.690806
0.159091 0.813428 0.691936
0.153994 0.811536 0.680583
0.133959 0.801343 0.638987
0.259281 0.773846 0.499474
0.856596 0.83827 0.470512
0.949187 0.843534 0.467689
0.954406 0.836927 0.396429
0.952804 0.84062 0.409842
0.29192 0.879499 0.801633
0.292302 0.879454 0.800824
0.270542 0.871763 0.78114
0.19585 0.841566 0.704524
0.183536 0.805066 0.546868
0.643793 0.813382 0.438758
0.954009 0.839612 0.340215
0.952346 0.832471 0.315297
0.952346 0.832654 0.315496
0.360616 0.892882 0.834089
0.35314 0.891356 0.82977
0.321599 0.88249 0.80618
0.228199 0.851469 0.720775
0.140612 0.802502 0.546807
0.560327 0.796613 0.417716
0.938521 0.832959 0.322957
0.952316 0.832105 0.31487
0.952285 0.832715 0.315343
0.401679 0.90219 0.858228
0.388479 0.899672 0.851591
0.353948 0.891234 0.829541
0.255314 0.861463 0.749126
0.174502 0.810681 0.571038
0.580865 0.805646 0.450294
0.934783 0.836362 0.341695
0.952316 0.83238 0.315084
0.952285 0.832898 0.315496
0.251682 0.0995651 0.73933
0.277378 0.0992752 0.746685
0.350805 0.0963302 0.760784
0.492638 0.0937667 0.76733
0.697856 0.123812 0.751598
0.722179 0.130663 0.749462
0.719768 0.128176 0.74696
0.719722 0.128176 0.74699
0.72018 0.129122 0.748638
0.216876 0.0999924 0.728206
0.24535 0.0998703 0.737591
0.320531 0.0975052 0.755825
0.469612 0.0935225 0.767742
0.689662 0.121675 0.7523
0.722072 0.130526 0.749264
0.719432 0.127855 0.746639
0.719432 0.127916 0.746807
0.719768 0.12871 0.748226
0.200809 0.0992752 0.721569
0.201083 0.0995346 0.722057
0.255528 0.0993515 0.740124
0.422827 0.0936751 0.766522
0.666621 0.114916 0.752789
0.722255 0.129717 0.747082
0.717372 0.125399 0.743694
0.717235 0.125307 0.743694
0.717708 0.12639 0.745632
0.00225834 0.153109 0.646952
0.0118715 0.136645 0.646906
0.0391089 0.105715 0.648493
0.323415 0.0962997 0.753994
0.614496 0.10956 0.762539
0.725597 0.129686 0.742245
0.717449 0.122515 0.736828
0.716869 0.122042 0.736538
0.717617 0.1243 0.74081
0.0871748 0.590051 0.769955
0.0885176 0.589807 0.772854
0.0884718 0.583017 0.776776
0.0915847 0.571252 0.787076
0.683223 0.56286 0.995895
0.918288 0.497917 0.908644
0.905531 0.413352 0.90396
0.90042 0.392996 0.898848
0.904265 0.412604 0.908354
0.222034 0.838605 0.816068
0.225345 0.84155 0.81976
0.227161 0.843137 0.821653
0.225727 0.841962 0.82002
0.460472 0.869032 0.851774
0.886076 0.873732 0.872068
0.947127 0.865599 0.865538
0.947356 0.858274 0.859022
0.946975 0.866407 0.867506
0.41326 0.919417 0.896681
0.419348 0.920394 0.898634
0.415396 0.919417 0.896391
0.393515 0.914549 0.885985
0.466361 0.905196 0.867842
0.795987 0.92369 0.877531
0.951125 0.935607 0.844434
0.955184 0.938293 0.857755
0.955032 0.939818 0.865293
0.543862 0.927901 0.915541
0.542214 0.9281 0.915846
0.532509 0.92668 0.913146
0.501854 0.921553 0.902373
0.478859 0.910704 0.880034
0.758144 0.919005 0.877562
0.93373 0.935302 0.843412
0.954681 0.926497 0.799146
0.954498 0.927199 0.801617
0.569879 0.931853 0.923339
0.565332 0.931411 0.922423
0.553384 0.929793 0.919463
0.520302 0.924712 0.909072
0.51191 0.914931 0.889586
0.774212 0.92369 0.889647
0.931212 0.937377 0.85568
0.954818 0.927565 0.804349
0.95407 0.923919 0.78706
0.526299 0.175723 0.848569
0.537957 0.174487 0.847349
0.582864 0.177905 0.847974
0.695811 0.19028 0.838163
0.795758 0.211521 0.822904
0.775586 0.18793 0.802472
0.744091 0.15349 0.771237
0.757717 0.167834 0.784329
0.765057 0.176394 0.792844
0.508354 0.173663 0.846555
0.520348 0.173205 0.846311
0.561624 0.176059 0.847684
0.675624 0.18764 0.841093
0.795407 0.210864 0.822232
0.77673 0.189288 0.803601
0.74551 0.155016 0.772671
0.745617 0.155169 0.772885
0.753338 0.163928 0.781613
0.487312 0.168185 0.840894
0.488624 0.168887 0.841749
0.520806 0.170306 0.843534
0.635233 0.182269 0.844602
0.786572 0.205554 0.819944
0.773083 0.184787 0.799207
0.746609 0.15584 0.773007
0.748928 0.158465 0.775616
0.756863 0.167452 0.784543
0.411597 0.170886 0.834775
0.43566 0.168902 0.836957
0.4589 0.162966 0.834638
0.547845 0.160067 0.833417
0.743404 0.182635 0.811734
0.762097 0.172412 0.788037
0.72987 0.13817 0.75613
0.729854 0.13817 0.756191
0.730465 0.13933 0.758007
0.193759 0.620127 0.875654
0.218204 0.627649 0.892775
0.285084 0.632868 0.930159
0.423926 0.628321 0.980011
0.787991 0.525811 0.972442
0.91899 0.499367 0.93727
0.909178 0.432486 0.928756
0.90428 0.413596 0.924849
0.908461 0.435447 0.929625
0.317037 0.881804 0.918181
0.326207 0.887022 0.922469
0.337057 0.890929 0.927214
0.356039 0.893614 0.935546
0.571054 0.908049 0.958724
0.907027 0.84477 0.951568
0.941039 0.834195 0.944564
0.940475 0.824521 0.944411
0.941131 0.834897 0.944945
0.468589 0.933852 0.926986
0.477089 0.934554 0.928405
0.479713 0.934768 0.928878
0.47332 0.934508 0.928328
0.53901 0.934371 0.928267
0.846632 0.943145 0.940322
0.947387 0.94551 0.945159
0.950622 0.944656 0.943633
0.950454 0.945235 0.944915
0.642618 0.937682 0.934295
0.642512 0.938018 0.934936
0.639628 0.937911 0.934813
0.630121 0.937301 0.933761
0.630182 0.936431 0.931975
0.859968 0.945953 0.943908
0.941863 0.949752 0.947295
0.951766 0.949813 0.943526
0.951522 0.95021 0.945144
0.659663 0.938384 0.935454
0.657816 0.93846 0.935561
0.652216 0.938369 0.935424
0.638956 0.937758 0.934508
0.644221 0.937163 0.933104
0.865568 0.946365 0.944533
0.941054 0.949828 0.948028
0.951568 0.950301 0.944396
0.951507 0.950545 0.944183
0.561654 0.194827 0.864637
0.579431 0.197711 0.866178
0.626368 0.20383 0.867155
0.736904 0.21857 0.855055
0.821469 0.243214 0.847974
0.810727 0.229267 0.83714
0.774472 0.186511 0.801343
0.774487 0.186435 0.801144
0.774426 0.186892 0.802258
0.541909 0.19115 0.861738
0.559426 0.194507 0.864485
0.604715 0.201144 0.867308
0.71812 0.215412 0.857801
0.820691 0.242222 0.847272
0.812558 0.231556 0.838941
0.774472 0.186526 0.801373
0.774472 0.186572 0.80148
0.774411 0.186999 0.802502
0.518944 0.186938 0.857969
0.524834 0.188235 0.859586
0.566262 0.195636 0.865202
0.679896 0.210376 0.863142
0.81915 0.24007 0.845594
0.816098 0.23563 0.841581
0.774517 0.186221 0.800626
0.774502 0.186267 0.800763
0.774441 0.18677 0.801953
0.530358 0.208713 0.875929
0.522942 0.194385 0.864591
0.518837 0.187243 0.858549
0.612497 0.202152 0.86743
0.79469 0.232105 0.847974
0.821393 0.242588 0.846876
0.774533 0.186053 0.800229
0.774517 0.186114 0.800381
0.774456 0.186633 0.801633
0.531121 0.642969 0.993057
0.533288 0.639811 0.994751
0.543648 0.620157 1
0.593057 0.588922 1
0.829511 0.506676 0.956207
0.918914 0.49662 0.93727
0.91223 0.448417 0.93164
0.909316 0.435294 0.929244
0.911818 0.451301 0.932387
0.488396 0.912993 0.956603
0.497627 0.91487 0.95697
0.505837 0.914336 0.95671
0.501427 0.908644 0.958083
0.642206 0.90042 0.954849
0.922194 0.835996 0.948013
0.940749 0.831159 0.944396
0.940429 0.822934 0.944442
0.940841 0.831952 0.944808
0.593317 0.93637 0.932387
0.599954 0.936965 0.933501
0.606256 0.937163 0.933791
0.613779 0.937285 0.933852
0.654521 0.938216 0.935699
0.865522 0.944427 0.946288
0.948837 0.943252 0.949248
0.94995 0.942702 0.94873
0.949859 0.943175 0.949233
0.708949 0.93991 0.937301
0.710445 0.940337 0.938079
0.70956 0.940322 0.938079
0.704219 0.939818 0.937285
0.697368 0.939391 0.93666
0.867338 0.946899 0.945968
0.94432 0.950118 0.949706
0.951019 0.950393 0.94992
0.950881 0.950713 0.9505
0.716304 0.940505 0.938231
0.716258 0.940597 0.938354
0.714946 0.940581 0.938354
0.711315 0.94023 0.937835
0.713542 0.940139 0.937606
0.878645 0.947234 0.946456
0.945098 0.950317 0.950134
0.950881 0.950698 0.950469
0.950759 0.951003 0.951034
0.565133 0.195453 0.865049
0.5832 0.19826 0.866438
0.630365 0.204334 0.867109
0.741604 0.219379 0.854322
0.82182 0.243641 0.84828
0.808682 0.226719 0.835126
0.774472 0.186511 0.801328
0.774487 0.186435 0.801129
0.774426 0.186892 0.802258
0.545388 0.191852 0.862333
0.563043 0.195071 0.864866
0.608667 0.201633 0.867353
0.722881 0.216266 0.857267
0.821042 0.242649 0.847578
0.811093 0.229709 0.837491
0.774472 0.186526 0.801373
0.774472 0.186557 0.80145
0.774426 0.186923 0.802319
0.518959 0.186938 0.857969
0.528176 0.1888 0.860044
0.569757 0.196246 0.865522
0.684474 0.210986 0.862608
0.819501 0.240497 0.845884
0.815076 0.234333 0.840589
0.774517 0.186221 0.800626
0.774502 0.186267 0.800763
0.774441 0.18677 0.801953
0.526207 0.200366 0.869154
0.518837 0.187243 0.858549
0.518837 0.187243 0.858549
0.613123 0.202274 0.867491
0.795438 0.232334 0.847883
0.821088 0.242161 0.84651
0.774533 0.186053 0.800229
0.774517 0.186099 0.800366
0.774456 0.186633 0.801633
0.542763 0.621958 0.998901
0.544503 0.618631 1
0.553323 0.597818 1
0.598001 0.565972 1
0.831022 0.489586 0.954101
0.916671 0.478599 0.93579
0.907622 0.427497 0.927962
0.904692 0.41593 0.925612
0.908339 0.434653 0.929595
0.503365 0.910506 0.95758
0.504631 0.911665 0.957244
0.50367 0.910933 0.957275
0.498558 0.904936 0.959213
0.641367 0.894087 0.953765
0.923476 0.826917 0.947723
0.940383 0.82179 0.944457
0.940139 0.813336 0.94435
0.94078 0.823819 0.944457
0.619944 0.936919 0.933623
0.621073 0.937469 0.934432
0.620737 0.937545 0.93434
0.617472 0.937438 0.934096
0.65568 0.937972 0.936492
0.865599 0.943999 0.946517
0.949065 0.942428 0.949371
0.949706 0.941527 0.948821
0.949676 0.941939 0.949157
0.716884 0.939452 0.936187
0.716564 0.939895 0.937057
0.714015 0.939864 0.937041
0.709331 0.93962 0.936736
0.709209 0.93962 0.936736
0.871458 0.946502 0.945327
0.944564 0.949783 0.949065
0.950912 0.950652 0.950393
0.950912 0.950652 0.950393
0.716426 0.940276 0.937774
0.716258 0.940597 0.938354
0.716243 0.940627 0.938399
0.716243 0.940627 0.938399
0.729473 0.941115 0.938888
0.882979 0.947875 0.947234
0.944854 0.950668 0.950774
0.950744 0.951019 0.95108
0.950896 0.950668 0.950439
