bundles/resolve-cinematic-luts/Phantom Luts/Ursa G2 Phntm Arri LUTs - V1/Gen5/White Balance Offset (Magenta Boost)/Ursa Jamaica Gen 5-Legacy WBO.cube
TITLE "Generated by Resolve"
LUT_3D_SIZE 9
0.017792 0.0344701 0.0177462
0.0377508 0.0355688 0.0189975
0.124086 0.0390631 0.0317082
0.333425 0.042771 0.0589303
0.592798 0.043061 0.104051
0.631067 0.0652934 0.145876
0.65478 0.082414 0.174121
0.654765 0.082414 0.17406
0.654612 0.0824292 0.17348
0.0226444 0.0504463 0.0314031
0.0339666 0.0485847 0.0235904
0.101823 0.0486915 0.029099
0.301579 0.0379492 0.0429236
0.583108 0.0414282 0.0986343
0.630762 0.0653239 0.144976
0.654765 0.0824292 0.174044
0.654765 0.0824292 0.174044
0.654521 0.0824445 0.173159
0.0260014 0.12842 0.059205
0.0256657 0.124193 0.0526741
0.0892958 0.123186 0.0343328
0.319936 0.0947585 0.0508583
0.570794 0.0431525 0.0639506
0.627588 0.0655833 0.136278
0.634638 0.067155 0.1514
0.639567 0.0707866 0.157046
0.647517 0.0769207 0.165637
0.0525673 0.374929 0.150652
0.0526894 0.37409 0.141268
0.0551766 0.363027 0.114229
0.273579 0.380499 0.0760967
0.702068 0.355993 0.129381
0.763729 0.273762 0.192752
0.623484 0.0711528 0.113252
0.623133 0.0679789 0.12015
0.622934 0.067216 0.121187
0.194949 0.790524 0.395651
0.209918 0.800183 0.380194
0.203647 0.792752 0.374289
0.246128 0.79881 0.297673
0.622461 0.773999 0.21915
0.913771 0.756832 0.330877
0.896773 0.668177 0.288151
0.892546 0.636866 0.277302
0.888991 0.618997 0.271443
0.37258 0.959258 0.614786
0.378088 0.959731 0.584466
0.381949 0.960601 0.573022
0.392889 0.963241 0.550347
0.623682 0.99237 0.434226
0.901656 0.945769 0.431174
0.978988 0.940978 0.468437
0.978927 0.940398 0.468086
0.979492 0.939895 0.468452
0.376547 0.962615 0.620844
0.382284 0.96199 0.579751
0.396796 0.962173 0.535195
0.395529 0.962081 0.537942
0.512016 0.985672 0.460578
0.796445 0.954849 0.402686
0.971466 0.938827 0.462898
0.977386 0.941131 0.467582
0.976486 0.941497 0.467445
0.379934 0.966522 0.642374
0.37847 0.962066 0.599481
0.394186 0.961913 0.540169
0.396567 0.961852 0.534081
0.453758 0.968933 0.469261
0.770703 0.957519 0.399725
0.957244 0.936721 0.45362
0.978515 0.940612 0.467948
0.976471 0.941527 0.467292
0.382345 0.968627 0.652003
0.377813 0.962615 0.610239
0.395666 0.963516 0.543648
0.396567 0.961852 0.534081
0.438895 0.966278 0.478721
0.763821 0.958053 0.39884
0.948302 0.936797 0.44889
0.978393 0.940673 0.467948
0.976959 0.941329 0.467445
0.0175479 0.0347753 0.0328527
0.0413214 0.0359197 0.038941
0.130663 0.0396887 0.0492561
0.33994 0.0442206 0.0732738
0.603174 0.0495308 0.118822
0.6309 0.0653239 0.145342
0.654521 0.0822614 0.173327
0.654673 0.082414 0.17348
0.654612 0.082414 0.172869
0.0222629 0.0458839 0.0350805
0.029633 0.0448463 0.0313573
0.108659 0.0428321 0.0321355
0.311498 0.0428473 0.0569009
0.586816 0.0427863 0.101946
0.63064 0.0653697 0.144625
0.654719 0.082414 0.173526
0.654688 0.082414 0.173495
0.654566 0.082414 0.172869
0.0280003 0.114748 0.0750439
0.0245823 0.115282 0.0563973
0.0840467 0.114 0.0334173
0.319799 0.0767987 0.0462043
0.566171 0.0378729 0.0679637
0.628107 0.0655528 0.137682
0.636622 0.0686503 0.153582
0.648554 0.0776226 0.166979
0.650492 0.0792248 0.168795
0.0480201 0.348852 0.168536
0.0475776 0.351507 0.141344
0.0521859 0.349523 0.119951
0.262608 0.365408 0.0730602
0.714641 0.317357 0.138338
0.73994 0.237507 0.178744
0.623316 0.0687877 0.118883
0.622705 0.0671397 0.121065
0.622644 0.0666667 0.121935
0.161761 0.765011 0.411673
0.178958 0.773404 0.382712
0.193652 0.780606 0.364187
0.231373 0.791165 0.306493
0.613489 0.762005 0.21059
0.911208 0.740047 0.322271
0.892851 0.640589 0.278279
0.889052 0.610315 0.269642
0.885496 0.591913 0.264439
0.36614 0.955673 0.641642
0.369223 0.956313 0.612329
0.381933 0.960601 0.573098
0.388586 0.962432 0.559457
0.604059 0.993423 0.439155
0.900008 0.945815 0.430503
0.978775 0.940749 0.468193
0.978607 0.94052 0.467964
0.978592 0.940215 0.468071
0.371481 0.960067 0.655848
0.372183 0.959335 0.621241
0.388205 0.96199 0.558022
0.394629 0.962005 0.539834
0.488075 0.981353 0.467948
0.792767 0.955215 0.402136
0.970657 0.938567 0.462287
0.977386 0.941131 0.467582
0.976532 0.941466 0.467491
0.372976 0.961166 0.673442
0.373358 0.961273 0.636622
0.382818 0.961746 0.575463
0.396567 0.961852 0.534081
0.440513 0.966552 0.477516
0.767315 0.957946 0.399496
0.954742 0.937407 0.452613
0.978744 0.940505 0.46804
0.976715 0.941421 0.467384
0.372229 0.960235 0.681605
0.371969 0.960342 0.645426
0.381872 0.962676 0.586023
0.396567 0.961852 0.534081
0.426368 0.963455 0.486824
0.759457 0.958358 0.398291
0.943099 0.935927 0.44564
0.978378 0.940673 0.467964
0.975952 0.941787 0.467109
0.0299229 0.0365301 0.103151
0.0599527 0.038056 0.104036
0.143008 0.0406348 0.11754
0.371954 0.044831 0.139834
0.638407 0.0594186 0.181567
0.656977 0.0823224 0.179858
0.650324 0.0789807 0.168734
0.650721 0.0793164 0.169162
0.650919 0.0795148 0.168841
0.0191196 0.0398566 0.0724804
0.0324559 0.0366674 0.0926528
0.121355 0.0399634 0.0998245
0.345159 0.043946 0.110094
0.619745 0.0558633 0.152117
0.641352 0.0725109 0.158099
0.651392 0.0797894 0.169879
0.651682 0.0800488 0.170199
0.651789 0.0802167 0.169833
0.030518 0.105623 0.0995193
0.029572 0.101106 0.0934768
0.0916304 0.100633 0.0883192
0.31632 0.0803693 0.0836652
0.578256 0.0416724 0.0938277
0.628824 0.065507 0.139605
0.648356 0.0774701 0.166751
0.652522 0.080705 0.171374
0.653147 0.0813001 0.171679
0.044419 0.317098 0.206638
0.040238 0.312551 0.182177
0.043183 0.314611 0.139864
0.25774 0.339742 0.0771801
0.708156 0.273182 0.136584
0.716014 0.202792 0.164065
0.622614 0.0671244 0.120928
0.623346 0.0663462 0.124331
0.624949 0.0661479 0.128618
0.115343 0.723186 0.448798
0.128557 0.731533 0.418616
0.157977 0.746029 0.363653
0.209613 0.775113 0.311421
0.600626 0.743267 0.197986
0.906065 0.714275 0.309209
0.888395 0.606744 0.268467
0.884169 0.57705 0.261585
0.880369 0.560555 0.257343
0.353521 0.943465 0.68072
0.359915 0.950027 0.656352
0.369345 0.956359 0.612146
0.383566 0.961242 0.570397
0.566552 0.992737 0.44799
0.897475 0.945815 0.429419
0.978622 0.940566 0.468009
0.978561 0.940444 0.467903
0.978225 0.939971 0.46772
0.362127 0.949035 0.701854
0.363302 0.952239 0.674861
0.370565 0.958297 0.625055
0.392966 0.961837 0.54345
0.458503 0.97499 0.479942
0.788251 0.955749 0.401602
0.96939 0.93817 0.461326
0.977356 0.941146 0.467567
0.976394 0.941512 0.467506
0.366995 0.952544 0.714992
0.362493 0.95079 0.684733
0.371786 0.960052 0.636973
0.396567 0.961852 0.534081
0.423728 0.963775 0.491402
0.761257 0.958633 0.399039
0.950423 0.938415 0.450813
0.979049 0.940368 0.468132
0.976852 0.94136 0.467414
0.368383 0.952926 0.722515
0.362127 0.949706 0.692851
0.370581 0.959274 0.645914
0.396567 0.961852 0.534081
0.413214 0.962722 0.50428
0.749798 0.959792 0.397986
0.934188 0.935409 0.440726
0.978393 0.940673 0.467948
0.975723 0.941878 0.467033
0.0521859 0.0399786 0.2813
0.0955673 0.0407263 0.280201
0.179309 0.0417182 0.288624
0.394034 0.0466011 0.31873
0.680385 0.0707256 0.338918
0.703517 0.0905776 0.334295
0.69897 0.089662 0.310292
0.695888 0.088716 0.298482
0.693874 0.0881514 0.290059
0.040238 0.0393988 0.259937
0.0570535 0.0400092 0.26923
0.147311 0.0413825 0.276081
0.372198 0.046128 0.295598
0.667994 0.0651713 0.304601
0.69308 0.0863508 0.295689
0.686152 0.0862135 0.264454
0.68333 0.0855879 0.255543
0.681468 0.0852522 0.249073
0.0229801 0.0749523 0.208057
0.0209659 0.063859 0.220996
0.0835889 0.0488899 0.255589
0.337255 0.0512856 0.263874
0.644739 0.0597238 0.262257
0.684489 0.0846265 0.264042
0.676844 0.0847028 0.235004
0.674464 0.0847334 0.226886
0.672435 0.0844892 0.220645
0.0481727 0.296132 0.27451
0.0468757 0.289296 0.264164
0.0462196 0.277974 0.25008
0.293034 0.298116 0.260594
0.686763 0.267369 0.248646
0.719463 0.176043 0.194308
0.622477 0.0666972 0.121538
0.625299 0.0661173 0.129564
0.626139 0.0659648 0.131945
0.0993515 0.679301 0.524865
0.0945754 0.677806 0.505562
0.0902113 0.67631 0.469551
0.119661 0.698589 0.372686
0.612131 0.688945 0.202884
0.905669 0.637339 0.288701
0.884627 0.580224 0.262181
0.878889 0.546517 0.255558
0.87396 0.527153 0.251301
0.345251 0.926375 0.741466
0.343221 0.927916 0.725795
0.343633 0.933104 0.696666
0.368154 0.956024 0.619959
0.503258 0.987274 0.470878
0.911727 0.945663 0.435828
0.978561 0.94052 0.467933
0.978225 0.939925 0.467414
0.976974 0.937942 0.465965
0.373541 0.945617 0.777951
0.368109 0.944854 0.757275
0.361578 0.945403 0.722393
0.370657 0.958602 0.628611
0.426184 0.968032 0.50103
0.779049 0.956832 0.400626
0.96698 0.937331 0.459449
0.977325 0.941146 0.467552
0.976349 0.941527 0.467582
0.380529 0.950835 0.788434
0.372091 0.947265 0.764675
0.36553 0.948119 0.729564
0.371099 0.959442 0.635996
0.403296 0.96228 0.520974
0.741192 0.961837 0.398856
0.936065 0.936446 0.442084
0.979187 0.940307 0.468193
0.976852 0.94136 0.467414
0.383185 0.951492 0.795956
0.374456 0.947692 0.772854
0.366873 0.948104 0.73669
0.369223 0.958144 0.644022
0.398733 0.962051 0.529854
0.718135 0.966171 0.400427
0.919753 0.944823 0.439078
0.978378 0.940673 0.467948
0.975952 0.941787 0.467109
0.117281 0.04448 0.540078
0.167666 0.0461128 0.539788
0.259342 0.0475166 0.547875
0.431968 0.0496529 0.572854
0.675578 0.0905318 0.556863
0.697765 0.112261 0.57351
0.691127 0.114565 0.592248
0.692592 0.113909 0.587976
0.69453 0.113039 0.582681
0.0909285 0.0433356 0.531319
0.120226 0.0442969 0.531426
0.220432 0.0468147 0.539605
0.40763 0.0489509 0.565164
0.671031 0.0854963 0.547585
0.70248 0.110597 0.558602
0.698711 0.11165 0.570275
0.700771 0.110796 0.563378
0.702953 0.109895 0.556237
0.0464179 0.0408179 0.480049
0.0699931 0.0421149 0.505272
0.154726 0.0451667 0.524514
0.360494 0.0478218 0.547341
0.657542 0.0762493 0.531868
0.709239 0.108003 0.532052
0.708339 0.107729 0.533532
0.709819 0.106813 0.525338
0.711009 0.10602 0.518593
0.0118105 0.223117 0.465782
0.0115206 0.20885 0.469749
0.0122988 0.184131 0.477424
0.270588 0.155932 0.544045
0.682597 0.153414 0.558618
0.73225 0.115602 0.468299
0.722316 0.106188 0.460487
0.720012 0.103319 0.450675
0.719738 0.102525 0.443824
0.0998703 0.638178 0.611276
0.0955367 0.635386 0.602686
0.0905318 0.628611 0.592508
0.0933852 0.616999 0.575021
0.61239 0.600259 0.548409
0.954253 0.589212 0.547311
0.946487 0.529488 0.435935
0.937972 0.498177 0.410315
0.931044 0.480934 0.395682
0.338796 0.899489 0.800381
0.336614 0.900725 0.79176
0.33283 0.901686 0.778958
0.325856 0.904845 0.748287
0.45008 0.98555 0.679133
0.911208 0.948775 0.534752
0.986618 0.93196 0.508202
0.977127 0.930083 0.461906
0.975448 0.927504 0.459037
0.419287 0.953719 0.888701
0.410544 0.951019 0.874449
0.395605 0.943755 0.849943
0.374243 0.939376 0.797986
0.376593 0.962417 0.703899
0.759991 0.998932 0.562264
0.97789 0.942626 0.469306
0.977951 0.940856 0.467781
0.977172 0.941131 0.467903
0.455039 0.969253 0.911192
0.44184 0.967895 0.898482
0.42266 0.96405 0.873899
0.386328 0.950866 0.806592
0.365515 0.953643 0.687617
0.67834 0.998932 0.538735
0.951354 0.939178 0.452049
0.979263 0.940276 0.468208
0.976837 0.94136 0.46743
0.459312 0.970138 0.914717
0.446906 0.968582 0.903853
0.426764 0.964981 0.879866
0.388342 0.951476 0.811292
0.362905 0.951751 0.679973
0.635584 0.998932 0.515953
0.930678 0.937407 0.440345
0.978332 0.940673 0.467918
0.975952 0.941787 0.467109
0.229023 0.0653239 0.659785
0.262257 0.066743 0.668742
0.331106 0.0710155 0.683848
0.456199 0.0822766 0.694286
0.634318 0.129702 0.690135
0.662333 0.141619 0.695293
0.65594 0.137316 0.692912
0.655879 0.137423 0.693111
0.655299 0.137316 0.691752
0.193393 0.0626688 0.647456
0.228397 0.0649577 0.659236
0.301991 0.068986 0.678004
0.434669 0.079408 0.693767
0.625208 0.12578 0.689052
0.662837 0.141054 0.693614
0.655848 0.135637 0.690623
0.655192 0.135668 0.689845
0.654627 0.135515 0.688136
0.180499 0.0611276 0.642023
0.182834 0.0613565 0.642939
0.23978 0.0651408 0.662089
0.390982 0.0748455 0.690898
0.602655 0.115541 0.685725
0.664164 0.139818 0.689586
0.656916 0.133639 0.686198
0.656901 0.133303 0.684749
0.656901 0.132815 0.682734
0.0304265 0.137057 0.610254
0.0324865 0.113588 0.603037
0.0366064 0.0830396 0.592218
0.290425 0.0670939 0.673411
0.55964 0.104311 0.693049
0.67187 0.139605 0.678935
0.660456 0.131594 0.676921
0.660227 0.130068 0.673899
0.660822 0.129473 0.671275
0.121111 0.536171 0.727947
0.116487 0.526314 0.724529
0.112337 0.508324 0.723323
0.108217 0.479194 0.723003
0.614649 0.491661 0.876875
0.945296 0.488273 0.897749
0.918288 0.394751 0.882597
0.900557 0.359991 0.859556
0.887739 0.339513 0.842603
0.33843 0.867948 0.853742
0.335653 0.867658 0.848753
0.331792 0.865446 0.843885
0.325231 0.861906 0.835157
0.494347 0.908019 0.866804
0.884291 0.873716 0.831113
0.964599 0.862379 0.824109
0.964004 0.846723 0.802243
0.962066 0.838361 0.793103
0.474113 0.962173 0.95111
0.46688 0.962097 0.945846
0.457298 0.960067 0.939315
0.439994 0.955627 0.92462
0.472175 0.972702 0.9178
0.771069 0.979355 0.876722
0.968978 0.958404 0.790646
0.978851 0.95906 0.788952
0.979171 0.959289 0.782025
0.57052 0.969879 0.964782
0.562676 0.970428 0.962417
0.549554 0.971069 0.959472
0.520226 0.971374 0.950805
0.475425 0.971908 0.923247
0.723186 0.981262 0.882673
0.941878 0.961608 0.78497
0.984924 0.96054 0.702083
0.989197 0.96202 0.620813
0.575662 0.969802 0.966094
0.568139 0.970214 0.963577
0.554452 0.971008 0.960601
0.523156 0.971359 0.951904
0.461265 0.969604 0.917494
0.691157 0.984985 0.877317
0.924254 0.962966 0.774929
0.985504 0.960601 0.693401
0.9906 0.961105 0.587198
0.414191 0.102037 0.720531
0.421546 0.098085 0.71632
0.465217 0.105959 0.721508
0.561669 0.126864 0.723262
0.674815 0.161196 0.717098
0.676341 0.159396 0.71397
0.669261 0.151736 0.707103
0.673259 0.156588 0.711315
0.673503 0.157168 0.711147
0.396307 0.0987869 0.717037
0.403006 0.0949569 0.713283
0.44184 0.100084 0.717342
0.540093 0.120836 0.722835
0.66952 0.158145 0.715465
0.674968 0.1579 0.712612
0.667964 0.150317 0.705806
0.667948 0.151064 0.705806
0.66804 0.15172 0.705577
0.374548 0.0912032 0.708522
0.371649 0.0895399 0.706676
0.39794 0.0897688 0.707774
0.498772 0.109728 0.719982
0.654292 0.150973 0.713085
0.672557 0.155367 0.710567
0.666789 0.149081 0.704967
0.666804 0.149203 0.704952
0.666484 0.149111 0.704189
0.2907 0.11545 0.715389
0.312917 0.102983 0.710719
0.327749 0.0913405 0.703639
0.418799 0.0907454 0.708339
0.606744 0.130999 0.70811
0.668162 0.150561 0.706233
0.664775 0.146914 0.703105
0.664485 0.146609 0.702831
0.66421 0.146288 0.702144
0.148165 0.508934 0.763836
0.150408 0.503624 0.767391
0.163424 0.495109 0.783688
0.250782 0.486793 0.849577
0.716152 0.467857 0.936553
0.930983 0.461295 0.961929
0.894972 0.383337 0.928969
0.865751 0.34638 0.900771
0.84593 0.325078 0.880964
0.358816 0.854322 0.904814
0.356374 0.851942 0.903029
0.353323 0.846845 0.90277
0.348821 0.837781 0.904204
0.501991 0.849332 0.946807
0.892241 0.825071 0.951736
0.957809 0.812451 0.96257
0.956374 0.787243 0.964187
0.955352 0.776074 0.963607
0.500877 0.963653 0.972107
0.494636 0.964172 0.968826
0.487984 0.963134 0.967117
0.477806 0.961028 0.964263
0.51519 0.967193 0.966964
0.822202 0.957107 0.953353
0.955215 0.953429 0.947433
0.964675 0.952117 0.947219
0.96434 0.951125 0.945281
0.661555 0.964385 0.974304
0.655665 0.96585 0.971984
0.650309 0.966186 0.971664
0.640162 0.966583 0.972137
0.623621 0.967102 0.971298
0.815518 0.960189 0.959991
0.939437 0.958892 0.952285
0.967453 0.957839 0.941695
0.966522 0.958236 0.941924
0.663462 0.965469 0.972549
0.66006 0.965652 0.972
0.653849 0.966018 0.971801
0.641382 0.966659 0.971939
0.614466 0.967391 0.971145
0.790951 0.961059 0.960311
0.930098 0.959396 0.950652
0.964019 0.958892 0.937423
0.96379 0.959548 0.932891
0.537392 0.175616 0.791119
0.559167 0.181964 0.79559
0.603632 0.194095 0.801663
0.697124 0.22034 0.801785
0.769177 0.251804 0.805051
0.761425 0.244511 0.79736
0.713939 0.198535 0.750805
0.713939 0.198566 0.750881
0.713954 0.198489 0.750698
0.518044 0.16965 0.786297
0.539757 0.176303 0.791577
0.583169 0.188571 0.799344
0.679774 0.214801 0.802518
0.767926 0.250767 0.804135
0.764309 0.247227 0.800183
0.713939 0.198535 0.750805
0.713939 0.198535 0.750805
0.713939 0.198505 0.750729
0.500069 0.164065 0.781445
0.50605 0.165942 0.783001
0.546105 0.17821 0.792966
0.645136 0.205035 0.803403
0.764477 0.248142 0.801968
0.768261 0.251057 0.804273
0.713954 0.198596 0.750942
0.71397 0.198581 0.750912
0.713939 0.198505 0.750713
0.51902 0.195804 0.810437
0.507301 0.175784 0.792355
0.500175 0.164584 0.781781
0.585138 0.189075 0.799588
0.740871 0.236851 0.800427
0.772381 0.254902 0.808331
0.713939 0.198627 0.751049
0.713954 0.198611 0.751019
0.713939 0.198505 0.750729
0.460212 0.54931 0.894179
0.478737 0.540093 0.894148
0.492653 0.515419 0.895506
0.548638 0.489845 0.904326
0.826703 0.486641 0.955901
0.935927 0.483268 0.965805
0.923735 0.437247 0.955962
0.911269 0.410697 0.944335
0.903471 0.397803 0.936934
0.456474 0.889235 0.960006
0.456672 0.887098 0.957855
0.461326 0.880629 0.956771
0.475502 0.86389 0.952224
0.611399 0.839887 0.935317
0.924971 0.817243 0.959838
0.956741 0.807523 0.966049
0.956298 0.786236 0.966888
0.954376 0.775219 0.965728
0.588907 0.966964 0.978058
0.584588 0.967926 0.976486
0.58201 0.967926 0.976394
0.580911 0.96672 0.976501
0.613642 0.963745 0.97467
0.835172 0.952209 0.963149
0.956527 0.947936 0.962097
0.967681 0.944854 0.967285
0.964446 0.944823 0.964706
0.721584 0.961425 0.972702
0.714244 0.963439 0.969879
0.709117 0.963714 0.970001
0.700755 0.963531 0.971313
0.685496 0.963973 0.9729
0.837476 0.959243 0.965484
0.950378 0.958663 0.963729
0.967987 0.957382 0.96672
0.963867 0.959167 0.963546
0.733501 0.961151 0.97203
0.726833 0.963073 0.969284
0.72221 0.963287 0.969314
0.714153 0.963195 0.970336
0.699245 0.963211 0.971969
0.834531 0.959335 0.96556
0.947402 0.958907 0.963195
0.96524 0.95845 0.964889
0.968109 0.957351 0.966339
0.54229 0.177096 0.792187
0.564111 0.183429 0.796551
0.60827 0.195377 0.802106
0.701015 0.221698 0.801678
0.769543 0.252079 0.805325
0.759747 0.242954 0.795712
0.713939 0.198535 0.750805
0.713954 0.19855 0.750835
0.713985 0.198428 0.750515
0.523018 0.171191 0.787549
0.544732 0.177829 0.792706
0.587411 0.189731 0.799908
0.683833 0.216114 0.802441
0.768353 0.251133 0.804456
0.762982 0.245975 0.798886
0.713939 0.198535 0.750805
0.713939 0.19852 0.75079
0.713985 0.198428 0.7505
0.500038 0.164065 0.781415
0.510826 0.167422 0.784298
0.550423 0.179446 0.793851
0.649256 0.206043 0.80325
0.765148 0.2486 0.802274
0.767666 0.250507 0.803677
0.713954 0.198596 0.750942
0.71397 0.198581 0.750912
0.713954 0.198474 0.750622
0.510536 0.180941 0.797269
0.500267 0.164691 0.781903
0.49987 0.16408 0.781308
0.584176 0.1888 0.799435
0.7402 0.236622 0.800534
0.772427 0.254948 0.808377
0.713939 0.198627 0.751049
0.713954 0.198611 0.751019
0.713939 0.198505 0.750729
0.492363 0.518624 0.897215
0.498802 0.504555 0.896819
0.51313 0.476417 0.898833
0.560021 0.448386 0.904952
0.822782 0.447318 0.951949
0.92546 0.443839 0.957168
0.902815 0.395819 0.936339
0.881941 0.365957 0.916396
0.869947 0.351308 0.904479
0.501945 0.880735 0.958587
0.494728 0.875715 0.955383
0.485481 0.864256 0.952041
0.468208 0.838727 0.945266
0.605966 0.810422 0.925322
0.928374 0.793896 0.961135
0.955489 0.786755 0.966018
0.9552 0.766384 0.966964
0.954879 0.755505 0.967376
0.660288 0.962921 0.973877
0.656168 0.963745 0.972534
0.653132 0.963439 0.972473
0.646525 0.962188 0.972335
0.662593 0.958816 0.970565
0.841688 0.950301 0.961898
0.958282 0.945571 0.962814
0.964355 0.943969 0.964691
0.963653 0.942565 0.964157
0.74876 0.959701 0.972488
0.746197 0.960388 0.971557
0.743557 0.960571 0.971527
0.738308 0.960723 0.971771
0.730266 0.961181 0.972305
0.853895 0.9579 0.966796
0.952575 0.95761 0.965469
0.964172 0.959152 0.963699
0.964172 0.959152 0.963699
0.756558 0.96112 0.96936
0.754437 0.962066 0.967758
0.754253 0.962142 0.96759
0.754253 0.962142 0.96759
0.753719 0.962173 0.96762
0.855985 0.959731 0.963424
0.946715 0.959716 0.961807
0.962371 0.95993 0.962249
0.965179 0.958709 0.964599
