bundles/resolve-cinematic-luts/Phantom Luts/P4k & P6k Phntm Arri LUTs - V6/P6k/Gen 4 Colour/P6k Neutral Gen4-Legacy.cube
TITLE "Generated by Resolve"
LUT_3D_SIZE 5
0.027863 0.0278019 0.0278172
0.193011 0.0331121 0.0493477
0.54873 0.0440986 0.114427
0.930159 0.109773 0.219013
0.939696 0.126848 0.237644
0.00846876 0.185245 0.0667887
0.151293 0.175555 0.0248417
0.492119 0.131167 0.0671397
0.907485 0.149355 0.1552
0.907881 0.130312 0.154849
0.00247196 0.55346 0.242756
0 0.559258 0.0697948
0.507652 0.561746 0.0818799
0.893706 0.566537 0.224537
0.946517 0.566171 0.245258
0.0894331 0.954955 0.530922
0.091371 0.957931 0.458625
0.388327 0.949279 0.317235
0.874296 0.943175 0.406302
0.963378 0.939208 0.504097
0.106981 0.960769 0.583688
0.10396 0.967697 0.520088
0.375265 0.978439 0.38735
0.835935 0.962142 0.444678
0.962432 0.962051 0.55726
0.0594797 0.0281834 0.171237
0.223117 0.0300298 0.182437
0.581277 0.0319677 0.244816
0.952285 0.0922408 0.331228
0.957183 0.104051 0.349142
0.0241855 0.155398 0.148272
0.153552 0.153552 0.153552
0.558953 0.096437 0.146059
0.934905 0.117372 0.223316
0.940612 0.13051 0.238972
0.022034 0.518196 0.335821
0.00202945 0.528893 0.227573
0.494743 0.546197 0.103487
0.905974 0.540276 0.251255
0.944961 0.536843 0.261311
0.0979934 0.932891 0.58114
0.0848859 0.939406 0.51928
0.328984 0.94612 0.313939
0.86482 0.935027 0.389914
0.963668 0.928573 0.495781
0.119387 0.954253 0.633066
0.10869 0.961364 0.581796
0.312825 0.97998 0.3991
0.809415 0.961944 0.445167
0.962417 0.962051 0.560037
0.176135 0.0231632 0.508324
0.32192 0.0241855 0.496406
0.603403 0.034638 0.519631
0.960555 0.0663767 0.585458
0.960555 0.0745098 0.604242
0.0292363 0.0734722 0.437736
0.187152 0.0239567 0.493111
0.569574 0.0397955 0.490929
0.960555 0.0866865 0.533043
0.960555 0.0982834 0.546349
0.039704 0.490318 0.473487
0.057435 0.484718 0.468376
0.501503 0.501503 0.501503
0.961212 0.460197 0.490211
0.965667 0.434318 0.475547
0.130327 0.883803 0.690364
0.125902 0.879927 0.668208
0.103639 0.90396 0.511498
0.84358 0.911955 0.415
0.964767 0.890669 0.507927
0.166125 0.947906 0.754864
0.150881 0.947036 0.729427
0.120714 0.963577 0.580468
0.696483 0.964523 0.459007
0.962356 0.962036 0.572763
0.377478 0.0208133 0.845243
0.471504 0.0223239 0.837232
0.687175 0.0306859 0.845075
0.960555 0.0683299 0.909911
0.960555 0.0880293 0.941039
0.178012 0.0244907 0.825238
0.376745 0.0208286 0.830427
0.64564 0.0296178 0.830076
0.960555 0.0652171 0.884749
0.960555 0.0826734 0.910231
0.0701762 0.433783 0.752148
0.0750439 0.410437 0.770153
0.569696 0.354726 0.893538
0.960555 0.328161 0.881193
0.960555 0.299062 0.865324
0.220706 0.85156 0.82771
0.230289 0.84625 0.822492
0.301106 0.839399 0.817075
0.829343 0.829343 0.829343
0.963867 0.813504 0.82768
0.399344 0.963012 0.905806
0.394354 0.961883 0.898711
0.361059 0.958709 0.863462
0.698375 0.965576 0.843
0.961395 0.961227 0.799512
0.459449 0.0206607 0.923171
0.533715 0.022858 0.92221
0.737728 0.0321965 0.926268
0.960555 0.0826581 0.960555
0.960555 0.104555 0.960555
0.344717 0.0207828 0.920546
0.460807 0.0206912 0.923171
0.696605 0.0302739 0.924575
0.960555 0.087892 0.960555
0.960555 0.110109 0.960555
0.152392 0.386206 0.923583
0.151369 0.351141 0.923735
0.599603 0.257786 0.960555
0.960555 0.259159 0.960555
0.960555 0.241382 0.960555
0.334478 0.826047 0.95314
0.329915 0.81651 0.952255
0.408957 0.792004 0.951812
0.87013 0.771542 0.960555
0.963668 0.766217 0.963668
0.466117 0.964492 0.96289
0.469123 0.964492 0.963149
0.480095 0.964477 0.964218
0.758282 0.962768 0.962768
0.960555 0.960555 0.960555
