bundles/resolve-cinematic-luts/Phantom Luts/P4k & P6k Phntm Arri LUTs - V6/P6k/Gen 4 Colour/P6k Neutral Gen4-Legacy.cube
TITLE "Generated by Resolve"
LUT_3D_SIZE 33
0.027863 0.0278019 0.0278172
0.027863 0.0278019 0.0278172
0.0369879 0.027985 0.0280308
0.0552377 0.0288853 0.030518
0.0790112 0.0299382 0.0331426
0.10454 0.03093 0.0360876
0.130526 0.0317082 0.0399634
0.159442 0.0323796 0.0441291
0.193011 0.0331121 0.0493477
0.229252 0.0339818 0.054612
0.267674 0.0350805 0.0600443
0.310201 0.0364538 0.0659953
0.353597 0.0371252 0.0736706
0.398962 0.0387732 0.0836042
0.446448 0.0401007 0.0933394
0.496468 0.0419013 0.103777
0.54873 0.0440986 0.114427
0.603235 0.046952 0.125536
0.638331 0.056733 0.139574
0.693095 0.0630655 0.152682
0.75285 0.0704509 0.167208
0.817777 0.0798657 0.18349
0.879683 0.0925002 0.200336
0.927993 0.105333 0.215274
0.930159 0.109773 0.219013
0.931533 0.113939 0.222522
0.933532 0.117845 0.226047
0.935088 0.12134 0.229175
0.936568 0.123491 0.231678
0.937957 0.124453 0.233433
0.938918 0.125246 0.235035
0.939239 0.12604 0.236378
0.939696 0.126848 0.237644
0.027863 0.0278019 0.0278172
0.027863 0.0278019 0.0278172
0.0291142 0.0277714 0.0276951
0.0455329 0.030808 0.0294194
0.0636912 0.0329137 0.0313115
0.0899062 0.0338598 0.033341
0.116335 0.0344701 0.0352026
0.145159 0.0341344 0.0375525
0.177401 0.0343481 0.0416571
0.212741 0.033875 0.0460517
0.251041 0.0335241 0.0508431
0.293172 0.0331121 0.0559548
0.338308 0.033402 0.0622721
0.385321 0.0336614 0.0702831
0.434195 0.0345006 0.0797894
0.485618 0.0362097 0.0906233
0.539101 0.0381933 0.10164
0.594614 0.0411536 0.113619
0.630213 0.0512093 0.128267
0.6851 0.0571756 0.141756
0.744595 0.064622 0.156542
0.809873 0.0733196 0.17261
0.872129 0.0855268 0.189273
0.922988 0.0983291 0.204303
0.925612 0.1028 0.207904
0.928176 0.106554 0.211063
0.930678 0.110185 0.21442
0.932464 0.113008 0.216968
0.933959 0.115694 0.219409
0.9355 0.118135 0.221714
0.936843 0.120241 0.223728
0.938033 0.121828 0.225254
0.938445 0.123781 0.226886
0.0277256 0.0323644 0.0290227
0.0278477 0.0309606 0.0277562
0.0290532 0.0292363 0.0278172
0.0373999 0.0327153 0.0284276
0.0514534 0.0354314 0.0297856
0.0756847 0.0368353 0.0323644
0.104234 0.0381476 0.0344549
0.133608 0.0380102 0.0364996
0.166827 0.0360571 0.0386969
0.203204 0.0349432 0.0429694
0.241627 0.0341802 0.0475471
0.282628 0.0336614 0.0521401
0.32665 0.0330663 0.0559548
0.372229 0.0325628 0.0618296
0.419455 0.0318608 0.0676432
0.471962 0.0326238 0.0774853
0.526848 0.0347753 0.0897536
0.584192 0.037232 0.10164
0.620493 0.0467689 0.117052
0.676478 0.0528267 0.131121
0.735973 0.0596017 0.1458
0.800961 0.0676738 0.1617
0.863935 0.0784314 0.17818
0.917906 0.0917983 0.193408
0.92079 0.096025 0.19678
0.923079 0.0997787 0.199878
0.925338 0.103487 0.202914
0.927367 0.106722 0.205615
0.929198 0.109285 0.207874
0.930755 0.111711 0.210071
0.932097 0.113787 0.211948
0.933227 0.115572 0.213581
0.934142 0.116854 0.214755
0.0277714 0.052079 0.0372625
0.027863 0.0512856 0.029984
0.0345159 0.0488441 0.0292973
0.0448463 0.048249 0.0297551
0.0554513 0.0503853 0.0308537
0.0766918 0.0507362 0.032166
0.10161 0.0496681 0.03299
0.127779 0.0482948 0.0339513
0.157931 0.0447242 0.0355688
0.193011 0.0398566 0.0377508
0.231342 0.0347448 0.0406653
0.271611 0.0337377 0.0472572
0.316258 0.0336767 0.0517891
0.362905 0.0333257 0.0575113
0.411063 0.0327611 0.0637675
0.46157 0.0323339 0.0707103
0.514641 0.0328527 0.0788281
0.57116 0.0338445 0.0888075
0.61088 0.043595 0.105943
0.666377 0.0496071 0.120455
0.725322 0.0565499 0.13547
0.790204 0.0645914 0.151369
0.853361 0.0743114 0.1673
0.910491 0.0871901 0.182895
0.916716 0.0914473 0.186618
0.919036 0.0950637 0.189624
0.921263 0.0981765 0.192279
0.923125 0.101045 0.194736
0.924422 0.103319 0.19675
0.925856 0.105287 0.198459
0.926802 0.107301 0.200137
0.927855 0.108995 0.201617
0.928832 0.110536 0.20296
0.0259556 0.0746014 0.0430762
0.0259556 0.0739605 0.0326085
0.033402 0.0707866 0.0295567
0.0436408 0.0679484 0.0298466
0.0605936 0.0683909 0.0303349
0.0783398 0.0704814 0.0308537
0.103792 0.0698558 0.0312657
0.13048 0.0666361 0.0339818
0.15903 0.0617227 0.0355688
0.191348 0.0569162 0.0365301
0.227253 0.0518654 0.0381018
0.266194 0.0462806 0.0404212
0.308904 0.0408484 0.0440375
0.354131 0.0351873 0.0484321
0.401511 0.0338445 0.0576791
0.451926 0.0332799 0.0656596
0.506111 0.0334936 0.0739757
0.562249 0.0347448 0.0837873
0.602686 0.0412909 0.0963302
0.655085 0.0464179 0.108309
0.714565 0.0532692 0.123278
0.778027 0.0616465 0.139895
0.841779 0.0709544 0.15581
0.899153 0.0831769 0.17116
0.913024 0.088838 0.176623
0.915358 0.0921645 0.179324
0.91751 0.0949569 0.181598
0.919173 0.0977646 0.183856
0.92079 0.100298 0.185977
0.922271 0.102251 0.187655
0.923247 0.103914 0.189151
0.924224 0.105455 0.190494
0.925139 0.106813 0.191669
0.0224308 0.100999 0.0460212
0.0220798 0.101366 0.0349126
0.0281224 0.09897 0.0270237
0.0385595 0.0956436 0.0271
0.0524453 0.0949111 0.0276646
0.0820325 0.0936904 0.0288396
0.101839 0.0947585 0.0289158
0.127199 0.0944381 0.0278019
0.160861 0.0873121 0.0325475
0.195239 0.0760204 0.0367132
0.229633 0.0691234 0.038407
0.26598 0.0633707 0.0400092
0.306706 0.0575723 0.0429389
0.34966 0.0524147 0.046479
0.39556 0.0471199 0.0511482
0.44387 0.0415198 0.0559854
0.496498 0.0362402 0.0626535
0.551919 0.036286 0.0758068
0.597421 0.0412604 0.0901808
0.647486 0.0477607 0.103426
0.70486 0.0532082 0.115557
0.765423 0.0601968 0.128298
0.826993 0.0674449 0.140993
0.885466 0.0782788 0.155947
0.908507 0.0860609 0.163821
0.910658 0.0894636 0.166522
0.912947 0.0925917 0.169207
0.914916 0.0950942 0.171298
0.916579 0.0974441 0.173281
0.918013 0.0994736 0.17499
0.919264 0.101076 0.176318
0.92018 0.102388 0.177478
0.92079 0.103609 0.178546
0.0183719 0.126543 0.0505531
0.0177005 0.127718 0.0370184
0.0201267 0.126055 0.0247654
0.030045 0.123598 0.022797
0.043122 0.121035 0.0231479
0.0657206 0.120714 0.0248417
0.103288 0.118456 0.0273747
0.124849 0.118441 0.0256504
0.153887 0.11751 0.0237736
0.1897 0.111101 0.0285649
0.23328 0.0940719 0.0372778
0.270481 0.0837415 0.0411231
0.309468 0.0783246 0.0438544
0.350378 0.0737163 0.0469062
0.393729 0.0691234 0.051194
0.439475 0.0644999 0.055848
0.489448 0.0595407 0.061387
0.542687 0.0554208 0.0682231
0.5944 0.0537728 0.0785229
0.641474 0.0542306 0.0922103
0.696925 0.0563363 0.107378
0.755276 0.0622873 0.122194
0.816754 0.0699626 0.135256
0.873869 0.079057 0.147234
0.906386 0.0865492 0.153994
0.906737 0.0879988 0.152941
0.906966 0.0911879 0.153201
0.908339 0.0937972 0.154742
0.910292 0.0959945 0.156863
0.912062 0.0977035 0.158587
0.913222 0.0994888 0.160159
0.914122 0.100664 0.161334
0.914961 0.101686 0.162371
0.0137484 0.15407 0.0583047
0.012665 0.155322 0.0415045
0.0134279 0.154513 0.0268559
0.0195773 0.15285 0.0186465
0.0316472 0.150011 0.0176394
0.0510567 0.149004 0.018967
0.0828717 0.148013 0.0223697
0.125795 0.145037 0.0258488
0.150301 0.144411 0.0238956
0.184192 0.142657 0.0195163
0.221302 0.138064 0.0247959
0.271992 0.118379 0.0383307
0.315358 0.10425 0.0452277
0.356191 0.100587 0.0490425
0.397086 0.0979171 0.0531624
0.440452 0.0946822 0.0576486
0.487343 0.0923323 0.0634165
0.536873 0.0907912 0.0702678
0.591165 0.0907759 0.0795911
0.639338 0.0934768 0.0919356
0.693507 0.0946517 0.103761
0.749828 0.095079 0.116442
0.809262 0.0953841 0.129824
0.865171 0.0972457 0.14313
0.907393 0.100435 0.153765
0.907362 0.100221 0.153735
0.907591 0.103243 0.153964
0.90782 0.105913 0.154162
0.907912 0.108263 0.154284
0.907988 0.110292 0.154391
0.908049 0.112062 0.154482
0.908171 0.113466 0.154589
0.907973 0.114458 0.154498
0.00846876 0.185245 0.0667887
0.00714122 0.186694 0.0491798
0.00674449 0.18677 0.0318761
0.00939956 0.184756 0.0186923
0.0189059 0.182895 0.0131991
0.0355688 0.180255 0.0123293
0.0636606 0.180285 0.0158083
0.100954 0.179324 0.020798
0.151293 0.175555 0.0248417
0.180179 0.174716 0.0237125
0.218051 0.172473 0.0158999
0.258091 0.169345 0.0227512
0.313161 0.151369 0.0392157
0.363043 0.133913 0.0513008
0.404807 0.131975 0.0566873
0.447837 0.130816 0.061738
0.492119 0.131167 0.0671397
0.539712 0.133043 0.0750134
0.588861 0.135729 0.0844587
0.639368 0.137957 0.0946059
0.692027 0.139757 0.105715
0.745632 0.141878 0.116915
0.802625 0.143389 0.128893
0.858793 0.145541 0.142077
0.907485 0.149355 0.1552
0.907561 0.145937 0.155108
0.907622 0.142779 0.155032
0.907805 0.14023 0.155047
0.907912 0.137697 0.155032
0.908003 0.135409 0.155001
0.908049 0.133425 0.155001
0.907881 0.131762 0.154879
0.907881 0.130312 0.154849
0.00306706 0.219745 0.0768292
0.0015259 0.221302 0.0589456
0.000701915 0.221973 0.0393378
0.00172427 0.220111 0.0250553
0.00653086 0.218311 0.0126497
0.0192569 0.21593 0.00698863
0.0428168 0.215595 0.00798047
0.079057 0.215793 0.0136416
0.120607 0.215259 0.0198672
0.181857 0.211337 0.0248112
0.215228 0.210834 0.0250095
0.256443 0.207843 0.0130465
0.302037 0.206622 0.020264
0.356878 0.194842 0.0396124
0.411353 0.180041 0.0561685
0.457008 0.173724 0.066804
0.501472 0.175067 0.0734875
0.545296 0.178134 0.0814527
0.591974 0.181186 0.0898756
0.640497 0.184558 0.0996567
0.690761 0.18761 0.109483
0.743282 0.190433 0.120363
0.799496 0.192599 0.131899
0.853635 0.195453 0.143648
0.902937 0.199939 0.155871
0.906706 0.197543 0.15671
0.906935 0.194965 0.156649
0.906996 0.192462 0.156527
0.907012 0.190173 0.15639
0.906798 0.188281 0.156176
0.906813 0.186557 0.156069
0.906798 0.185107 0.155993
0.906813 0.183856 0.155947
0 0.257572 0.08748
0 0.259083 0.0714275
0 0.260197 0.0513161
0 0.259953 0.0335241
0 0.256886 0.0189517
0.00482185 0.255192 0.00729381
0.0218967 0.252872 0.00141909
0.0538186 0.255421 0.00541695
0.0963607 0.256138 0.0125429
0.144671 0.256229 0.0200656
0.218479 0.253056 0.0261234
0.256352 0.253422 0.0281376
0.302876 0.251286 0.0152895
0.351553 0.250751 0.0217441
0.402869 0.246342 0.0402838
0.461311 0.233631 0.0606699
0.508553 0.227695 0.0751202
0.552743 0.225086 0.0890669
0.597925 0.229145 0.0978256
0.643687 0.234241 0.106645
0.692638 0.238056 0.116396
0.74313 0.241611 0.126406
0.796536 0.2448 0.13695
0.850217 0.247715 0.148516
0.899413 0.251942 0.160678
0.909194 0.250828 0.162875
0.909361 0.248783 0.162692
0.90901 0.246708 0.162249
0.908873 0.244785 0.161975
0.908766 0.243122 0.161715
0.90866 0.241672 0.161501
0.908583 0.240421 0.161334
0.908492 0.239338 0.161181
0 0.300618 0.100191
0 0.302235 0.0854963
0 0.30338 0.0672923
0 0.303807 0.0471351
0 0.302068 0.0303349
0 0.299107 0.0139315
0.00508125 0.297337 0.00238041
0.0286107 0.29723 0
0.0695811 0.30103 0.00451667
0.118135 0.302998 0.013489
0.177401 0.304341 0.0225071
0.26183 0.301701 0.0295567
0.303899 0.302464 0.0332647
0.352972 0.300801 0.0204318
0.401587 0.300969 0.0239872
0.450233 0.300954 0.0396277
0.510124 0.291173 0.0650797
0.559243 0.287465 0.0836805
0.603449 0.288167 0.099382
0.649775 0.287907 0.114046
0.695842 0.289769 0.125277
0.744686 0.293324 0.134966
0.796994 0.2963 0.145418
0.848112 0.299474 0.15581
0.895613 0.303517 0.167346
0.912963 0.303609 0.171649
0.912673 0.301686 0.171221
0.91284 0.300145 0.171069
0.912764 0.298589 0.170794
0.912657 0.297169 0.17055
0.912551 0.295949 0.170367
0.912398 0.294896 0.170169
0.912184 0.294011 0.16994
0 0.349126 0.117067
0 0.350607 0.102846
0 0.351843 0.0860456
0 0.35256 0.0675669
0 0.352834 0.0460822
0 0.350027 0.0281071
0 0.34696 0.00987259
0.00839246 0.345357 0
0.0402075 0.348623 0
0.0905776 0.352667 0.00672923
0.147066 0.354391 0.0174258
0.217319 0.354818 0.0272831
0.308003 0.352117 0.0331426
0.353109 0.353674 0.0390631
0.402258 0.353338 0.0274968
0.451835 0.353948 0.0284581
0.500053 0.355795 0.0413214
0.558709 0.349981 0.0711681
0.609094 0.347387 0.0942855
0.6551 0.348211 0.111101
0.701228 0.348714 0.126925
0.748241 0.348943 0.141421
0.797925 0.348501 0.154864
0.8477 0.351415 0.165927
0.893812 0.355169 0.176928
0.917891 0.356863 0.183062
0.917723 0.355169 0.182635
0.917586 0.353613 0.182254
0.917449 0.352209 0.181903
0.917327 0.350973 0.181582
0.917266 0.350027 0.181338
0.91722 0.34931 0.181155
0.917205 0.348531 0.181003
0 0.399435 0.140185
0 0.40087 0.125933
0 0.402197 0.109651
0 0.403403 0.092256
0 0.404257 0.0727245
0 0.403693 0.0502937
0 0.40029 0.0283818
0 0.398138 0.00833143
0.0164492 0.396155 0.000106813
0.0604715 0.401175 0.00350958
0.117006 0.403967 0.0119326
0.18352 0.405219 0.0233158
0.263951 0.405341 0.0330968
0.356985 0.403342 0.0396124
0.402548 0.405142 0.0489815
0.452155 0.406119 0.0352178
0.502541 0.407584 0.0363928
0.549859 0.409751 0.051194
0.607187 0.406806 0.0815595
0.659495 0.404746 0.107668
0.70663 0.405509 0.12549
0.753216 0.407172 0.142046
0.801465 0.407691 0.158663
0.847852 0.408225 0.173053
0.892454 0.408408 0.188327
0.924285 0.410986 0.197223
0.924422 0.409781 0.197024
0.924285 0.408438 0.196674
0.924117 0.407233 0.196338
0.923995 0.406165 0.196063
0.923858 0.405249 0.195789
0.923598 0.404501 0.195499
0.923491 0.403815 0.1953
0 0.449836 0.16936
0 0.451347 0.154833
0 0.452964 0.138857
0 0.454276 0.121721
0 0.45539 0.102068
0 0.456336 0.0794537
0 0.45478 0.0559091
0 0.451713 0.0296483
0.00180056 0.450263 0.00962844
0.0307774 0.449622 0.00360113
0.0867628 0.453803 0.00965896
0.152102 0.455543 0.0202182
0.226398 0.457008 0.0305486
0.317952 0.45687 0.0397345
0.406729 0.455528 0.0499123
0.452689 0.457862 0.0635843
0.502327 0.459571 0.0477455
0.55259 0.461921 0.0518044
0.600412 0.463951 0.0704204
0.655756 0.462654 0.0952468
0.710201 0.45951 0.126558
0.75874 0.459831 0.147295
0.806241 0.461295 0.163333
0.85185 0.462333 0.18088
0.892317 0.464225 0.195193
0.93048 0.465858 0.209995
0.931304 0.464714 0.210117
0.931167 0.463569 0.209857
0.931014 0.462547 0.209628
0.930892 0.461646 0.209415
0.930678 0.460899 0.209171
0.930449 0.460258 0.208911
0.930358 0.459693 0.208774
0 0.501442 0.203525
0 0.502907 0.189822
0 0.504372 0.174792
0 0.505821 0.157702
0 0.507362 0.138415
0 0.508675 0.115023
0 0.509697 0.0885328
0 0.507103 0.0628061
0 0.504402 0.0320592
0.0121004 0.502846 0.0111391
0.0562295 0.504173 0.00941482
0.121111 0.506935 0.0174258
0.19617 0.508171 0.0292058
0.275944 0.509896 0.0393683
0.375143 0.509529 0.0499275
0.456977 0.508247 0.0649577
0.502953 0.510735 0.0814527
0.552361 0.513497 0.0656901
0.602121 0.515587 0.0761273
0.649882 0.517174 0.0959487
0.703548 0.516075 0.120974
0.760296 0.512779 0.15169
0.809583 0.512474 0.174975
0.853773 0.514229 0.191897
0.894636 0.515465 0.207782
0.930816 0.517891 0.221881
0.940032 0.51809 0.225422
0.939956 0.517266 0.225177
0.939834 0.516442 0.224887
0.939696 0.515709 0.224643
0.939467 0.515145 0.224308
0.939269 0.514611 0.224018
0.939178 0.514153 0.223865
0.00247196 0.55346 0.242756
0.000228885 0.55494 0.22974
0 0.556313 0.215503
0 0.557794 0.199893
0 0.559274 0.181491
0 0.560815 0.157977
0 0.562234 0.129503
0 0.562264 0.0999161
0 0.559258 0.0697948
0.00404364 0.55668 0.0353094
0.0288853 0.555154 0.0138247
0.0893873 0.55848 0.0173648
0.166369 0.560052 0.028687
0.247868 0.561593 0.041825
0.334096 0.563317 0.0529335
0.432135 0.562829 0.0633555
0.507652 0.561746 0.0818799
0.553292 0.56405 0.101717
0.601923 0.566903 0.0864271
0.650904 0.568933 0.105486
0.698604 0.570047 0.12726
0.750683 0.568841 0.154543
0.808881 0.565164 0.184649
0.855009 0.564523 0.207446
0.893706 0.566537 0.224537
0.929061 0.568643 0.239384
0.946914 0.569482 0.246876
0.946792 0.568811 0.246479
0.946731 0.568154 0.246174
0.94667 0.567559 0.245884
0.946609 0.567025 0.24564
0.946563 0.566552 0.245441
0.946517 0.566171 0.245258
0.0102998 0.605417 0.284276
0.00805676 0.606912 0.272068
0.00587472 0.608454 0.25893
0.00373846 0.610025 0.244205
0.00181582 0.611475 0.227588
0 0.613108 0.205997
0 0.614786 0.178393
0 0.616358 0.144961
0 0.614511 0.111803
0.00335698 0.611307 0.075761
0.0137331 0.609339 0.0374151
0.0604868 0.608789 0.0231937
0.132036 0.612772 0.0314641
0.219852 0.613825 0.045304
0.305104 0.61561 0.0582895
0.393835 0.616968 0.0712444
0.488594 0.616892 0.0792401
0.557671 0.615091 0.101259
0.602365 0.617044 0.124346
0.650767 0.619776 0.114687
0.697917 0.62121 0.141772
0.746029 0.621714 0.166171
0.796902 0.620218 0.194293
0.852277 0.61619 0.224155
0.892989 0.615045 0.246235
0.927031 0.616464 0.261082
0.952071 0.618585 0.272633
0.95201 0.618051 0.272312
0.951949 0.617533 0.272023
0.951904 0.617075 0.271748
0.951873 0.616632 0.271519
0.951827 0.616266 0.271305
0.951797 0.615946 0.271138
0.0187228 0.657786 0.326909
0.0165866 0.659083 0.316136
0.0143587 0.660456 0.304143
0.0120851 0.661906 0.29073
0.00975052 0.663462 0.275212
0.00726329 0.665263 0.254948
0.00488289 0.66714 0.229191
0.0030518 0.669261 0.197238
0.00276188 0.669856 0.160601
0.0065919 0.666926 0.122316
0.0128786 0.663417 0.079881
0.0390784 0.661952 0.0445869
0.102708 0.663996 0.0403449
0.186679 0.666819 0.0517586
0.27863 0.668162 0.0664225
0.36289 0.670619 0.0779889
0.452369 0.67155 0.0906386
0.542947 0.671107 0.0969863
0.607294 0.668635 0.122545
0.650858 0.669932 0.148898
0.697795 0.672038 0.155108
0.74406 0.672923 0.185016
0.791989 0.672679 0.210025
0.838712 0.671229 0.237476
0.887526 0.66659 0.269474
0.924208 0.666102 0.28864
0.95288 0.667216 0.304051
0.957244 0.667063 0.304479
0.957229 0.666682 0.302953
0.95729 0.666392 0.301823
0.957305 0.666117 0.301656
0.957351 0.665858 0.301518
0.957321 0.665599 0.301366
0.0289769 0.710979 0.366934
0.0270542 0.712154 0.357382
0.0249638 0.713405 0.346944
0.0228122 0.714763 0.335424
0.0204929 0.716258 0.321904
0.017792 0.718044 0.304204
0.0149386 0.720073 0.280735
0.012192 0.72221 0.250278
0.0101472 0.724392 0.21326
0.0123903 0.723095 0.17438
0.0175937 0.719493 0.129992
0.0312352 0.716854 0.0827649
0.0740826 0.714565 0.0529335
0.157519 0.719356 0.0617685
0.249104 0.721721 0.0756542
0.340108 0.723278 0.0891432
0.418524 0.725917 0.0988174
0.50869 0.72578 0.110719
0.59527 0.724987 0.115953
0.655589 0.721431 0.144366
0.698024 0.722118 0.171038
0.743389 0.722255 0.201526
0.789075 0.722591 0.232074
0.833478 0.722347 0.256825
0.874937 0.721233 0.283696
0.917876 0.716518 0.317678
0.948943 0.716884 0.33611
0.962097 0.717662 0.341299
0.961944 0.717327 0.33962
0.961791 0.717021 0.338216
0.961746 0.716701 0.337057
0.961685 0.716426 0.33611
0.961624 0.716167 0.335439
0.0400092 0.765667 0.404349
0.0381933 0.766751 0.395712
0.0362707 0.76791 0.386374
0.0343023 0.769131 0.376349
0.0321508 0.770489 0.364492
0.029633 0.772137 0.349355
0.0267033 0.774151 0.329152
0.0236973 0.776379 0.302647
0.0209812 0.778943 0.267933
0.0200656 0.780179 0.226535
0.0255589 0.776989 0.18407
0.0332647 0.772854 0.132418
0.068452 0.771191 0.0932784
0.140597 0.771481 0.0883345
0.226734 0.775402 0.0959945
0.317556 0.777554 0.106279
0.398077 0.780453 0.112612
0.476219 0.782361 0.121477
0.561486 0.781903 0.131136
0.645594 0.780179 0.13576
0.702739 0.774853 0.164691
0.743297 0.773571 0.211307
0.788113 0.77348 0.251987
0.830625 0.774014 0.283528
0.869978 0.774563 0.308171
0.906828 0.773693 0.332311
0.943893 0.768688 0.364492
0.965393 0.768429 0.380499
0.965301 0.768185 0.378775
0.965194 0.767956 0.37734
0.965072 0.767712 0.376196
0.964965 0.767498 0.375387
0.96492 0.7673 0.374578
0.0519875 0.821408 0.438911
0.0503395 0.8224 0.431006
0.0486305 0.823453 0.422538
0.0468147 0.824582 0.41355
0.0448768 0.825818 0.403296
0.0425116 0.827436 0.389685
0.0398718 0.829572 0.372305
0.0368811 0.831876 0.349325
0.0339055 0.834272 0.31899
0.0316625 0.836423 0.28011
0.0368963 0.8336 0.240757
0.0450599 0.829267 0.194553
0.0754406 0.827665 0.153353
0.141741 0.823941 0.136614
0.222675 0.827527 0.141314
0.306462 0.83032 0.151461
0.386496 0.831724 0.161059
0.458747 0.833616 0.167452
0.533944 0.833844 0.173358
0.613214 0.832441 0.178332
0.693645 0.830594 0.181735
0.749172 0.825742 0.209476
0.789136 0.823514 0.267567
0.830991 0.823255 0.307744
0.868833 0.823392 0.336675
0.902617 0.824247 0.35906
0.934874 0.82356 0.379858
0.966232 0.81883 0.409476
0.96643 0.818662 0.410315
0.966445 0.818555 0.408865
0.966461 0.818418 0.407889
0.966476 0.81828 0.406928
0.966491 0.818158 0.406088
0.0640116 0.872724 0.471595
0.0625162 0.873594 0.464347
0.0609903 0.874525 0.456596
0.0593118 0.875532 0.448356
0.0575113 0.876661 0.438865
0.0553597 0.878065 0.426673
0.0527962 0.879805 0.410956
0.049897 0.881865 0.3906
0.0470741 0.884352 0.364126
0.0489815 0.884474 0.336492
0.0526894 0.883207 0.301885
0.0598001 0.879667 0.258061
0.0923476 0.87921 0.220188
0.158495 0.876158 0.202167
0.227939 0.874098 0.193301
0.305852 0.876661 0.201678
0.37821 0.877989 0.211597
0.449714 0.878248 0.220676
0.514794 0.878691 0.22678
0.58854 0.877745 0.233768
0.663127 0.876616 0.239719
0.739452 0.875196 0.24625
0.794522 0.870726 0.276081
0.832883 0.86865 0.327718
0.869825 0.868147 0.363073
0.9028 0.867765 0.389181
0.932036 0.868055 0.409674
0.958526 0.868086 0.428321
0.965881 0.866621 0.437385
0.965881 0.866636 0.435935
0.965881 0.866621 0.434745
0.965881 0.86659 0.433753
0.965881 0.866529 0.432959
0.0755322 0.917647 0.501488
0.0741741 0.918425 0.494789
0.0727398 0.919264 0.487633
0.0712749 0.92015 0.480156
0.0696269 0.921157 0.471519
0.0676432 0.922454 0.46041
0.0661936 0.923629 0.447044
0.0665751 0.924346 0.431678
0.0674601 0.925002 0.41268
0.0691081 0.925368 0.388342
0.0717174 0.925231 0.358572
0.0814374 0.923598 0.322332
0.12163 0.923644 0.292668
0.183124 0.920256 0.272038
0.240589 0.914824 0.251911
0.31371 0.916136 0.255711
0.37966 0.917235 0.264286
0.443153 0.917113 0.273945
0.507454 0.916915 0.282841
0.568536 0.917296 0.289876
0.640833 0.916228 0.298024
0.711971 0.915694 0.305257
0.781582 0.914519 0.314534
0.837079 0.910246 0.343069
0.871305 0.907805 0.385748
0.903532 0.906935 0.417548
0.931685 0.906722 0.441169
0.955612 0.907256 0.459739
0.964034 0.907546 0.469993
0.964034 0.907622 0.468803
0.964034 0.907637 0.467796
0.964034 0.907637 0.466987
0.964034 0.907607 0.466423
0.0894331 0.954955 0.530922
0.0895705 0.955169 0.525429
0.0896925 0.955398 0.519738
0.0897993 0.955673 0.513664
0.0898146 0.956008 0.507088
0.0899519 0.956359 0.498741
0.0901656 0.956786 0.488289
0.0905623 0.957351 0.475273
0.091371 0.957931 0.458625
0.092546 0.958556 0.437476
0.0949264 0.958877 0.411307
0.111315 0.960678 0.383078
0.161898 0.95967 0.361074
0.215198 0.95639 0.340536
0.26743 0.951446 0.319738
0.325902 0.948898 0.31136
0.388327 0.949279 0.317235
0.446082 0.949584 0.326177
0.503563 0.949401 0.336019
0.563333 0.949187 0.345327
0.622446 0.949691 0.353246
0.692454 0.948592 0.361288
0.760449 0.947951 0.368032
0.822919 0.947478 0.378775
0.874296 0.943175 0.406302
0.904936 0.94078 0.442969
0.932235 0.939803 0.47126
0.955154 0.939284 0.492744
0.963378 0.939071 0.507301
0.963378 0.939147 0.506279
0.963378 0.939193 0.505425
0.963378 0.939208 0.504707
0.963378 0.939208 0.504097
0.098085 0.963989 0.547372
0.0983902 0.96437 0.542306
0.0987259 0.964797 0.537057
0.0990005 0.965286 0.53138
0.0993973 0.965728 0.525353
0.0999313 0.966262 0.517769
0.100389 0.96701 0.508309
0.101152 0.967849 0.496208
0.102083 0.968826 0.481285
0.103685 0.969848 0.462333
0.110033 0.971542 0.439948
0.130373 0.975494 0.417304
0.190173 0.978927 0.4065
0.246937 0.980423 0.395926
0.297932 0.979644 0.383444
0.342916 0.975021 0.366171
0.401328 0.975891 0.369451
0.456397 0.974868 0.376638
0.508721 0.972122 0.386267
0.562081 0.969253 0.396918
0.617563 0.966842 0.406317
0.678294 0.964584 0.414466
0.744442 0.962692 0.421164
0.811994 0.961898 0.427573
0.86099 0.962753 0.440024
0.90631 0.962982 0.46743
0.933135 0.962646 0.499275
0.955917 0.96228 0.524346
0.962478 0.962081 0.544732
0.962478 0.962081 0.544839
0.962478 0.962081 0.544259
0.962478 0.962081 0.543709
0.962478 0.962081 0.543191
0.0984817 0.963806 0.554543
0.0987869 0.964202 0.549355
0.0991379 0.964599 0.544167
0.0993973 0.965103 0.538582
0.0998093 0.96556 0.53257
0.100298 0.966079 0.525124
0.100877 0.966766 0.515755
0.101518 0.967651 0.50396
0.102403 0.968658 0.489296
0.10399 0.969741 0.470634
0.108141 0.971237 0.447974
0.121889 0.974563 0.422934
0.180896 0.978622 0.410407
0.239246 0.980545 0.399527
0.294682 0.980285 0.390417
0.344442 0.979248 0.383154
0.40087 0.977539 0.384558
0.455863 0.975296 0.390768
0.507103 0.972702 0.399313
0.55906 0.969863 0.409735
0.611673 0.967346 0.419257
0.670802 0.965103 0.42739
0.734844 0.962997 0.433982
0.802579 0.961975 0.439399
0.854597 0.9626 0.449226
0.899458 0.963012 0.472847
