bundles/resolve-cinematic-luts/Phantom Luts/P4k & P6k Phntm Arri LUTs - V6/P6k/Gen 4 Colour/P6k Utopia Gen4.cube
TITLE "Generated by Resolve"
LUT_3D_SIZE 33
0 0.0227512 0.0306706
0 0.0227512 0.0306706
0.00776684 0.0213474 0.0300755
0.0379034 0.019379 0.033341
0.0711833 0.016968 0.0339361
0.105516 0.0146944 0.035172
0.140414 0.0134127 0.0369726
0.176104 0.0128634 0.0390631
0.212879 0.0125734 0.0413977
0.25124 0.0127108 0.0435187
0.292058 0.0141756 0.0465553
0.335439 0.0155337 0.0514382
0.38233 0.018265 0.0596628
0.431418 0.0218814 0.0695659
0.482582 0.0273442 0.0803845
0.532372 0.0361944 0.0928664
0.574746 0.0496529 0.108553
0.615549 0.0659495 0.126345
0.6589 0.0823072 0.143603
0.702754 0.0998703 0.161532
0.745464 0.118425 0.179873
0.786313 0.137926 0.198779
0.824506 0.15874 0.217975
0.856382 0.177966 0.235111
0.868101 0.186023 0.24329
0.870253 0.187991 0.246708
0.872175 0.189761 0.249973
0.873533 0.190784 0.25211
0.875334 0.192126 0.254398
0.87747 0.193042 0.256504
0.879789 0.193729 0.258289
0.882628 0.194141 0.259541
0.885496 0.194369 0.260639
0 0.0227512 0.0306706
0 0.0227512 0.0306706
0 0.0222019 0.0300145
0.0231937 0.0205081 0.0324712
0.0521859 0.0198825 0.0331121
0.087068 0.0178073 0.0329442
0.122896 0.0163424 0.0339055
0.159701 0.0153658 0.0351568
0.197024 0.0145266 0.0358587
0.235782 0.0138857 0.0361486
0.276265 0.0137942 0.036408
0.31989 0.0142672 0.0364843
0.367742 0.0168917 0.0415503
0.418235 0.0210269 0.0502022
0.470878 0.0271611 0.0623178
0.521813 0.0360571 0.0758679
0.566979 0.0485695 0.0920577
0.607599 0.0640879 0.110506
0.651637 0.0812543 0.129046
0.696498 0.0996567 0.148043
0.740215 0.119112 0.167727
0.781338 0.138491 0.187274
0.819471 0.158404 0.206485
0.852384 0.177661 0.22443
0.865019 0.187045 0.233631
0.867948 0.191196 0.238148
0.869978 0.19443 0.241718
0.87245 0.197345 0.245274
0.87451 0.198947 0.247852
0.87686 0.199695 0.249577
0.87892 0.199908 0.250889
0.881926 0.199802 0.251789
0.884794 0.199908 0.25275
0 0.0273747 0.0327916
0 0.0259098 0.0313573
0 0.0238346 0.0306554
0.0102388 0.024506 0.0295262
0.0354162 0.0222477 0.0302434
0.0718853 0.0197452 0.0301518
0.109743 0.0182498 0.0314336
0.148028 0.0169833 0.0324407
0.187091 0.0160525 0.0333104
0.226917 0.0152895 0.0336004
0.267933 0.0149996 0.0332647
0.310979 0.0146334 0.0319677
0.35729 0.0152895 0.0320287
0.405814 0.0170748 0.0352026
0.45716 0.0203861 0.0409705
0.508492 0.0282292 0.0545357
0.554818 0.0411994 0.0731365
0.596735 0.0561837 0.092134
0.642023 0.0725567 0.111299
0.687984 0.0912032 0.131044
0.732143 0.110567 0.150988
0.773846 0.130282 0.170901
0.812329 0.150469 0.19089
0.846494 0.170657 0.210193
0.859373 0.180392 0.219654
0.862089 0.184421 0.224002
0.864546 0.18793 0.227832
0.867216 0.191287 0.231525
0.86894 0.193683 0.234089
0.87187 0.195895 0.237003
0.874754 0.197711 0.239185
0.878157 0.198917 0.240772
0.881422 0.199619 0.242023
0 0.054902 0.0376745
0 0.0535744 0.0260929
0 0.048661 0.0261082
0.0184634 0.0464485 0.0250248
0.0391546 0.0496071 0.0263523
0.0744945 0.0431525 0.0325322
0.111986 0.0343633 0.0292821
0.148226 0.0288396 0.0261692
0.184802 0.0234226 0.0236973
0.222248 0.0180972 0.0218662
0.26067 0.0159915 0.0238346
0.302388 0.0157015 0.0262303
0.348486 0.0157778 0.026215
0.397742 0.0177005 0.0295109
0.449271 0.0203861 0.0349737
0.499352 0.026154 0.0439155
0.544045 0.0363622 0.0575875
0.585138 0.0491798 0.0733959
0.632029 0.0653849 0.0935225
0.678386 0.0836042 0.114137
0.723537 0.10341 0.135073
0.765805 0.123705 0.155581
0.804685 0.144183 0.176257
0.84004 0.165042 0.196262
0.854505 0.175494 0.206638
0.857466 0.179202 0.210742
0.859815 0.182696 0.214649
0.861784 0.185397 0.217731
0.863996 0.187823 0.220523
0.866804 0.189837 0.222965
0.86949 0.191485 0.22504
0.872999 0.192279 0.2262
0.876249 0.192828 0.227237
0 0.0931563 0.0392615
0 0.0926375 0.0170596
0 0.08748 0.0138857
0.0109865 0.081651 0.014847
0.0454261 0.0818799 0.0193179
0.077821 0.0829938 0.0274968
0.112001 0.0802319 0.0301823
0.154009 0.0648051 0.0348821
0.19147 0.0526589 0.0330205
0.227741 0.0473182 0.0300755
0.265003 0.0417182 0.0271153
0.304997 0.0360418 0.0262303
0.346654 0.0303349 0.0251316
0.391852 0.026215 0.0256199
0.44097 0.0235599 0.0285039
0.490837 0.0267185 0.0366827
0.537652 0.0359655 0.0496986
0.5794 0.0488136 0.066041
0.62385 0.0619211 0.0813001
0.66865 0.0773022 0.0973831
0.713726 0.0959793 0.117037
0.756741 0.116747 0.138628
0.796201 0.137972 0.160098
0.831937 0.159091 0.18088
0.848798 0.17055 0.192569
0.853681 0.175586 0.197925
0.855695 0.178454 0.201221
0.858015 0.18146 0.204623
0.86009 0.184115 0.207462
0.862547 0.185809 0.209613
0.865309 0.187167 0.211337
0.869108 0.188052 0.212802
0.872862 0.188632 0.213794
0 0.133822 0.0388342
0 0.134554 0.0103609
0 0.130434 0.00236515
0 0.124819 0.00337224
0.0271305 0.123903 0.00671397
0.0831006 0.119265 0.019501
0.116762 0.118715 0.0273289
0.151125 0.12015 0.0282292
0.193149 0.10634 0.0325322
0.235508 0.0883192 0.0377661
0.274083 0.0710765 0.0374914
0.31165 0.0648051 0.035523
0.351492 0.0598611 0.0342718
0.393301 0.0558328 0.0336461
0.438483 0.0526284 0.0340429
0.48687 0.0504463 0.0401923
0.534585 0.0521706 0.0486915
0.575219 0.0585336 0.0634775
0.619593 0.0690471 0.0793011
0.664668 0.0838483 0.0956741
0.708705 0.100923 0.113024
0.750469 0.120256 0.131472
0.789349 0.140658 0.15053
0.825193 0.161013 0.170596
0.845579 0.174075 0.183795
0.851774 0.179141 0.189654
0.853635 0.181613 0.192294
0.855695 0.184054 0.195148
0.857771 0.186099 0.197772
0.859831 0.187457 0.199466
0.862257 0.188449 0.200809
0.865888 0.18909 0.201633
0.869612 0.189395 0.202258
0 0.173465 0.0437018
0 0.175357 0.00726329
0 0.172519 0
0 0.168551 0
0.00892653 0.164111 0
0.0528115 0.163684 0.00184634
0.121065 0.155886 0.0208286
0.155322 0.154101 0.0276493
0.19202 0.154162 0.0288396
0.228946 0.148699 0.0262913
0.278141 0.127611 0.0366217
0.32076 0.109102 0.0430762
0.36112 0.096025 0.0450446
0.401953 0.0918441 0.0460059
0.444877 0.0892195 0.0476234
0.490211 0.0879988 0.0507057
0.534691 0.0898604 0.0578164
0.579507 0.0948959 0.0687724
0.623819 0.101274 0.0844739
0.666423 0.108171 0.0987869
0.707561 0.11635 0.114168
0.747768 0.129549 0.131365
0.785855 0.147402 0.14931
0.82121 0.166461 0.167758
0.845457 0.181476 0.181521
0.852171 0.187121 0.186007
0.853208 0.189731 0.18706
0.853941 0.191592 0.188113
0.855756 0.193606 0.190387
0.857725 0.195331 0.192477
0.8598 0.196689 0.194095
0.862379 0.19765 0.195254
0.864668 0.197971 0.195789
0 0.213046 0.0554055
0 0.215641 0.0142214
0 0.213504 0
0 0.210864 0
0 0.206729 0
0.0262913 0.205524 0
0.0869154 0.201968 0.000366217
0.159152 0.19266 0.0218509
0.194842 0.190051 0.0281224
0.233204 0.188602 0.0295109
0.269276 0.188113 0.0268101
0.320562 0.167697 0.035584
0.367956 0.149798 0.0466316
0.411749 0.134218 0.0548867
0.453666 0.129168 0.058854
0.497963 0.128328 0.0633707
0.542336 0.129625 0.0701152
0.58677 0.134325 0.0809186
0.63061 0.14049 0.093492
0.672633 0.147433 0.106325
0.713054 0.155612 0.120241
0.752453 0.165225 0.135851
0.789914 0.175265 0.154681
0.82298 0.186282 0.171237
0.849149 0.196139 0.185245
0.856199 0.199268 0.18941
0.856641 0.200381 0.189822
0.857084 0.20209 0.190219
0.857694 0.20383 0.190738
0.858595 0.205234 0.191089
0.859693 0.206363 0.191257
0.861662 0.20708 0.191302
0.8636 0.207691 0.191211
0 0.25304 0.0681621
0 0.256275 0.0289921
0 0.256153 0
0 0.253223 0
0 0.250431 0
0 0.246372 0
0.0534829 0.24622 0
0.123354 0.240497 0.000885023
0.198245 0.229862 0.0230259
0.235691 0.226825 0.0288396
0.275685 0.224247 0.0306249
0.313298 0.224186 0.0277256
0.364202 0.209888 0.034287
0.416037 0.192493 0.0496071
0.461967 0.180392 0.0623484
0.507607 0.172122 0.0734569
0.551659 0.17229 0.0811627
0.595453 0.176852 0.0929885
0.638804 0.182635 0.105623
0.680812 0.189441 0.118837
0.721523 0.19733 0.133135
0.759976 0.206241 0.147539
0.795865 0.215595 0.162524
0.829252 0.225452 0.178027
0.858396 0.235615 0.193484
0.865614 0.236622 0.197375
0.864958 0.234134 0.196628
0.86482 0.232303 0.196429
0.86421 0.230488 0.195789
0.864012 0.228702 0.195148
0.864195 0.227085 0.194507
0.865171 0.225528 0.193637
0.86627 0.224292 0.192828
0 0.294621 0.0821698
0 0.298314 0.0466468
0 0.299687 0.00376898
0 0.296651 0
0 0.294408 0
0 0.291279 0
0.0177768 0.290105 0
0.0821241 0.288273 0
0.161166 0.280156 0.00251774
0.239246 0.269078 0.0247501
0.278889 0.265736 0.0302586
0.320089 0.261936 0.031632
0.359991 0.262043 0.0289921
0.408667 0.254688 0.0324559
0.464775 0.239033 0.0527047
0.513939 0.22974 0.0710307
0.561105 0.223301 0.088014
0.604227 0.223819 0.103548
0.646784 0.22884 0.117037
0.68893 0.234775 0.130755
0.72932 0.241901 0.144854
0.767819 0.249638 0.160113
0.803677 0.257893 0.175113
0.836744 0.26688 0.189929
0.867079 0.276951 0.205325
0.875517 0.278294 0.209628
0.875502 0.276448 0.209232
0.875212 0.274815 0.20882
0.874968 0.273259 0.208469
0.874815 0.271702 0.207919
0.874815 0.27039 0.207248
0.875456 0.269184 0.206439
0.876188 0.268177 0.205722
0 0.337697 0.097673
0 0.341588 0.0658885
0 0.344091 0.0265049
0 0.343664 0
0 0.339849 0
0 0.33753 0
0 0.333883 0
0.0418097 0.335363 0
0.114687 0.332021 0
0.201572 0.32192 0.00531014
0.282734 0.310094 0.026688
0.324742 0.307118 0.0329595
0.368765 0.303563 0.0336461
0.41001 0.30338 0.0308995
0.456626 0.301381 0.0324254
0.515129 0.289921 0.0589151
0.566522 0.282521 0.0828107
0.6121 0.279789 0.105669
0.655253 0.27837 0.125414
0.696864 0.282445 0.141802
0.736782 0.288609 0.156695
0.775235 0.295949 0.171878
0.810666 0.3037 0.186862
0.8439 0.311727 0.201999
0.874189 0.320607 0.217334
0.885573 0.323156 0.222889
0.886656 0.321935 0.22327
0.886229 0.320195 0.22269
0.885817 0.318654 0.222126
0.885801 0.317525 0.22182
0.88574 0.316564 0.221317
0.886213 0.315785 0.220752
0.886687 0.315038 0.220066
0 0.383291 0.115557
0 0.387243 0.0870527
0 0.390463 0.0521401
0 0.391897 0.0141756
0 0.390082 0
0 0.386069 0
0 0.383673 0
0 0.381277 0
0.0717479 0.382696 0
0.151553 0.377844 0
0.245533 0.365972 0.00914015
0.329854 0.354574 0.0322423
0.373709 0.351781 0.0406348
0.419745 0.348379 0.0360876
0.462882 0.349142 0.0338903
0.508522 0.35111 0.0376287
0.565454 0.343984 0.0696727
0.61677 0.339086 0.0996872
0.660929 0.338415 0.123445
0.703639 0.339513 0.145342
0.743221 0.341695 0.16463
0.781231 0.346258 0.181933
0.816861 0.352575 0.198001
0.84976 0.360342 0.213352
0.879927 0.368002 0.22797
0.894347 0.371344 0.235386
0.896742 0.370626 0.236454
0.896712 0.369329 0.236316
0.896574 0.368078 0.236088
0.896483 0.366995 0.235798
0.896269 0.366064 0.235279
0.896361 0.365347 0.234745
0.896559 0.364813 0.234165
0 0.431739 0.137057
0 0.435706 0.111574
0 0.439292 0.0809796
0 0.441825 0.0459297
0 0.442863 0.0078584
0 0.439536 0
0 0.435645 0
0 0.433188 0
0.0248264 0.433875 0
0.108431 0.432471 0
0.19501 0.426123 0
0.294911 0.412573 0.0143435
0.380072 0.401556 0.0415808
0.425895 0.4 0.0535897
0.473991 0.397147 0.0402686
0.518563 0.398733 0.0384985
0.56109 0.40267 0.0525063
0.614481 0.400427 0.0869612
0.66482 0.397772 0.118776
0.708431 0.398917 0.143664
0.748714 0.400839 0.165988
0.785977 0.404608 0.185946
0.82092 0.408225 0.204334
0.854261 0.41178 0.223133
0.884504 0.417716 0.239017
0.902968 0.421683 0.248875
0.90634 0.42153 0.250401
0.906172 0.420401 0.250141
0.905974 0.419516 0.249836
0.905745 0.418631 0.249454
0.905531 0.417914 0.249027
0.905455 0.417426 0.248554
0.905394 0.417121 0.24799
0 0.483009 0.163821
0 0.48687 0.141192
0 0.490776 0.113985
0 0.494057 0.0826581
0 0.496193 0.0466316
0 0.495583 0.00781262
0 0.491417 0
0 0.487587 0
0 0.484215 0
0.0608377 0.488365 0
0.153323 0.484504 0
0.24509 0.476555 0
0.349523 0.461875 0.0248569
0.433722 0.451453 0.0557107
0.480171 0.450629 0.0713817
0.529442 0.449027 0.0568093
0.573571 0.451316 0.0594186
0.614252 0.456413 0.0763409
0.663386 0.456687 0.109361
0.711879 0.455741 0.143313
0.753719 0.456733 0.168505
0.791562 0.459739 0.190784
0.826139 0.46276 0.210712
0.858213 0.466667 0.229175
0.887984 0.470497 0.246845
0.910735 0.473304 0.260975
0.915328 0.472847 0.263859
0.91519 0.471702 0.263691
0.915038 0.470665 0.263508
0.914916 0.46978 0.26334
0.914794 0.469047 0.263157
0.914641 0.468574 0.262821
0.914473 0.46833 0.262348
0 0.535698 0.196109
0 0.539284 0.176349
0 0.543053 0.153017
0 0.546502 0.126162
0 0.549462 0.0937514
0 0.551339 0.0546426
0 0.549615 0.0144503
0 0.544503 0
0 0.540993 0
0.0233158 0.539925 0
0.110567 0.542702 0
0.206256 0.537301 0
0.300649 0.52845 0.00120546
0.407813 0.513024 0.0414435
0.489433 0.503456 0.0738384
0.536034 0.503273 0.0942702
0.584909 0.502846 0.0822156
0.628489 0.505837 0.0890974
0.666728 0.510842 0.109606
0.711589 0.512993 0.138933
0.756298 0.512306 0.172137
0.796292 0.513756 0.198398
0.830884 0.516548 0.218036
0.862776 0.520104 0.237827
0.891585 0.5243 0.255222
0.91722 0.528206 0.271244
0.922728 0.528222 0.274586
0.922744 0.527306 0.274495
0.922759 0.526604 0.274434
0.922774 0.526024 0.274403
0.922744 0.525475 0.274327
0.922652 0.525154 0.274128
0.922438 0.525032 0.273747
0 0.588739 0.234775
0 0.592081 0.217334
0 0.595636 0.197406
0 0.599344 0.173938
0 0.602899 0.145541
0 0.606027 0.109285
0 0.60763 0.0675975
0 0.604395 0.0245365
0.000823987 0.599359 0
0.00927749 0.595239 0
0.0701152 0.598169 0
0.169696 0.596384 0
0.266926 0.590341 0
0.363745 0.580407 0.0260319
0.468986 0.564706 0.0646525
0.546181 0.556268 0.0993515
0.591348 0.556512 0.122927
0.639445 0.556909 0.11249
0.681025 0.560265 0.12668
0.717556 0.565148 0.149233
0.757214 0.567163 0.176501
0.79884 0.567452 0.206104
0.834821 0.568627 0.230701
0.866224 0.572015 0.25005
0.895262 0.575357 0.267674
0.920867 0.579248 0.283635
0.930465 0.580392 0.289586
0.931624 0.580087 0.290272
0.931517 0.579507 0.290059
0.931411 0.579019 0.289876
0.931334 0.578592 0.289708
0.931136 0.578317 0.289448
0.930846 0.57818 0.289067
0 0.641703 0.277668
0 0.644709 0.261952
0 0.64799 0.244465
0 0.651576 0.224292
0 0.655314 0.199634
0 0.659159 0.167376
0 0.662394 0.127108
0 0.662654 0.0834211
0.00161746 0.65861 0.0361639
0.0124819 0.653437 0
0.0424811 0.650095 0
0.130022 0.653925 0
0.234028 0.650355 0
0.331716 0.643336 0.0202487
0.431174 0.63122 0.0572213
0.531991 0.616602 0.0930648
0.602548 0.609308 0.129
0.646159 0.609583 0.155001
0.692073 0.610483 0.146319
0.730983 0.613748 0.168902
0.764889 0.617578 0.191974
0.800122 0.619928 0.218219
0.837446 0.619989 0.245808
0.86949 0.621332 0.267247
0.89749 0.624094 0.285237
0.922805 0.627115 0.301366
0.937636 0.628717 0.310903
0.9402 0.628641 0.312383
0.940139 0.628199 0.312169
0.940078 0.627802 0.311971
0.940017 0.627497 0.311818
0.939849 0.627268 0.311604
0.93959 0.627131 0.31133
0 0.692866 0.321645
0 0.695689 0.307683
0 0.69868 0.292729
0 0.701976 0.275395
0 0.705684 0.254032
0 0.709865 0.225772
0 0.713924 0.189609
0 0.717006 0.145724
0.00103761 0.71574 0.0994278
0.0117189 0.711574 0.0465705
0.0273136 0.706691 0
0.0939956 0.707546 0
0.195789 0.708507 0
0.301686 0.7028 0.0229801
0.39884 0.694286 0.0529335
0.499031 0.680735 0.0921187
0.593988 0.66717 0.123827
0.65716 0.660838 0.160616
0.698589 0.661189 0.188785
0.741283 0.661982 0.185855
0.777066 0.664988 0.21416
0.80827 0.668086 0.237583
0.839017 0.670207 0.261906
0.87219 0.669642 0.290074
0.900252 0.671351 0.308873
0.923995 0.674083 0.322683
0.943618 0.676768 0.335088
0.946853 0.676921 0.336934
0.946883 0.676661 0.336843
0.946883 0.676417 0.336721
0.946853 0.676188 0.336599
0.946715 0.67602 0.336446
0.946441 0.675883 0.336263
0 0.742229 0.365743
0 0.744564 0.353826
0 0.747265 0.340307
0 0.750317 0.324987
0 0.753826 0.306493
0 0.7579 0.282368
0 0.762524 0.250187
0 0.766949 0.209262
0 0.769177 0.162661
0.00952163 0.766674 0.112108
0.0239109 0.762188 0.0537881
0.0696269 0.760723 0.00984207
0.160922 0.762051 0.0108949
0.266316 0.759441 0.0313878
0.371603 0.752102 0.0577554
0.46598 0.74258 0.0889296
0.564721 0.727901 0.127703
0.653819 0.716075 0.156008
0.709224 0.710338 0.193072
0.747707 0.71017 0.221927
0.786282 0.710933 0.23299
0.818631 0.712978 0.261738
0.847196 0.715389 0.284474
0.873808 0.717067 0.306538
0.902129 0.715984 0.333883
0.926345 0.717388 0.353338
0.94696 0.720623 0.36669
0.953094 0.721736 0.369558
0.953689 0.721645 0.36875
0.953628 0.721447 0.367773
0.953597 0.721294 0.367269
0.953475 0.721187 0.366979
0.953323 0.721111 0.366751
0 0.790448 0.408606
0 0.792493 0.397864
0 0.794842 0.385809
0 0.797391 0.372442
0 0.80032 0.356466
0 0.803815 0.33547
0 0.808179 0.307652
0 0.812909 0.271519
0 0.817121 0.226215
0.00836194 0.817563 0.177035
0.0276951 0.815381 0.121141
0.0601663 0.812528 0.0620279
0.126055 0.810956 0.0286259
0.234134 0.811521 0.0446632
0.34023 0.806653 0.0684062
0.441413 0.797894 0.0958267
0.533486 0.787228 0.128191
0.627955 0.772335 0.163607
0.710338 0.761868 0.187594
0.757839 0.756497 0.224155
0.793667 0.755886 0.251377
0.826535 0.756024 0.280858
0.855528 0.757412 0.309895
0.881193 0.759747 0.332433
0.904906 0.761349 0.352636
0.929305 0.760311 0.379049
0.949935 0.761532 0.398627
0.960464 0.763119 0.406943
0.961883 0.763134 0.406912
0.961898 0.763058 0.405875
0.961913 0.762982 0.405051
0.961868 0.762905 0.404349
0.961791 0.762844 0.403784
0.00161746 0.836316 0.450507
0.000946059 0.838148 0.440528
0.00015259 0.840192 0.429541
0 0.842329 0.4177
0 0.844938 0.403647
0.000335698 0.848157 0.385168
0.00201419 0.852033 0.360464
0.00460822 0.856519 0.328847
0.00956741 0.861357 0.287572
0.0189059 0.864469 0.239063
0.0365454 0.863813 0.186313
0.0593118 0.861616 0.125917
0.114397 0.861021 0.0806592
0.211154 0.859556 0.0769513
0.313344 0.856779 0.0909895
0.415259 0.849393 0.11136
0.509865 0.839582 0.135348
0.602075 0.826703 0.1682
0.687343 0.813107 0.197131
0.758312 0.804456 0.217762
0.802502 0.798779 0.252857
0.833677 0.797635 0.293263
0.862776 0.797864 0.33106
0.889097 0.79881 0.359564
0.912306 0.800748 0.381765
0.93344 0.80238 0.400565
0.954162 0.801556 0.424933
0.968872 0.802258 0.440955
0.971054 0.80238 0.442069
0.971084 0.802319 0.441123
0.971206 0.802274 0.440208
0.971405 0.802258 0.43949
0.971527 0.802258 0.438895
0.0204776 0.878386 0.490166
0.0195315 0.880003 0.481392
0.0183719 0.881849 0.471611
0.0172274 0.883848 0.461265
0.0165103 0.886198 0.448493
0.0166934 0.888975 0.432258
0.0177005 0.892409 0.411078
0.0200198 0.89662 0.382971
0.0241703 0.901427 0.346303
0.0318914 0.905791 0.301244
0.0466316 0.90724 0.2551
0.0682841 0.906264 0.200702
0.119753 0.906203 0.153017
0.208225 0.902907 0.134646
0.303059 0.901671 0.141268
0.396811 0.897368 0.157
0.490089 0.889082 0.177157
0.575799 0.878981 0.200656
0.664805 0.863966 0.22945
0.741176 0.85098 0.250294
0.80087 0.843671 0.267216
0.842649 0.838026 0.299489
0.870726 0.836698 0.347814
0.896666 0.836622 0.383703
0.920272 0.837034 0.410742
0.940932 0.838468 0.431678
0.959579 0.840024 0.44947
0.977676 0.839948 0.472099
0.981262 0.839673 0.475776
0.981384 0.839704 0.47512
0.981353 0.839719 0.474296
0.981506 0.83975 0.473487
0.981628 0.83978 0.472877
0.0393072 0.915648 0.52604
0.0382696 0.917189 0.517922
0.0366064 0.919005 0.509178
0.0354009 0.920928 0.499886
0.0344244 0.923186 0.488502
0.0339666 0.925826 0.474311
0.034165 0.929061 0.455451
0.0353094 0.932982 0.431205
0.0383764 0.937591 0.399588
0.0468605 0.941344 0.364843
0.0602426 0.943877 0.322972
0.08159 0.944625 0.272633
0.134112 0.946868 0.228534
0.219043 0.944656 0.205295
0.302708 0.940673 0.196643
0.3897 0.938094 0.20734
0.474266 0.932631 0.22388
0.558679 0.923934 0.244404
0.6374 0.912886 0.267262
0.719936 0.897475 0.293782
0.788403 0.885863 0.31252
0.838026 0.880186 0.329809
0.877745 0.874266 0.361303
0.903716 0.872786 0.40473
0.927001 0.872511 0.437873
0.947799 0.872602 0.462974
0.966064 0.873976 0.482521
0.982101 0.875761 0.499886
0.9897 0.875883 0.508766
0.990433 0.875944 0.508919
0.990341 0.87599 0.508125
0.990417 0.876051 0.507347
0.990631 0.876097 0.506691
0.057847 0.949096 0.559121
0.0569619 0.950423 0.55198
0.0552682 0.952041 0.543908
0.0535744 0.953811 0.535271
0.0521248 0.955856 0.524956
0.0515145 0.958175 0.512062
0.0522774 0.960922 0.495995
0.0556039 0.963729 0.477516
0.0604868 0.967163 0.453742
0.0678569 0.970901 0.42414
0.0790112 0.974411 0.387152
0.102235 0.977569 0.343404
0.159731 0.981537 0.304646
0.237583 0.98024 0.278325
0.309712 0.974792 0.257572
0.392294 0.972427 0.261555
0.469825 0.968643 0.273594
0.545403 0.962341 0.290898
0.621805 0.953521 0.311299
0.697795 0.941665 0.335409
0.770367 0.927764 0.358297
0.831281 0.917494 0.375448
0.872557 0.913268 0.393469
0.909834 0.907179 0.423423
0.933318 0.905425 0.46183
0.953765 0.905089 0.492454
0.971771 0.905425 0.515602
0.987457 0.906294 0.53431
0.996002 0.906813 0.545251
0.996582 0.906828 0.545602
0.996536 0.906905 0.544793
0.996536 0.906966 0.544106
0.996612 0.906996 0.543496
0.0756085 0.977615 0.590051
0.0765087 0.978561 0.583978
0.0766308 0.979721 0.577585
0.0766308 0.980987 0.570718
0.0767681 0.982437 0.562692
0.0779278 0.98407 0.552819
0.079881 0.986068 0.540291
0.082948 0.988449 0.524712
0.0871443 0.991394 0.504692
0.0929427 0.9944 0.479438
0.103471 0.997162 0.447593
0.132616 0.999496 0.412406
0.195285 0.999969 0.380484
0.263157 0.999969 0.35198
0.328115 0.999435 0.327352
0.399359 0.998093 0.318532
0.473259 0.996643 0.326085
0.543023 0.993667 0.340322
0.611627 0.987976 0.358602
0.680552 0.979553 0.378729
0.7523 0.967346 0.402502
0.816007 0.954986 0.4224
0.870253 0.945693 0.438422
0.905318 0.942168 0.45623
0.938796 0.936278 0.484733
0.959304 0.934417 0.519356
0.976761 0.933989 0.548394
0.991897 0.933837 0.570809
0.999161 0.934127 0.586435
0.999435 0.934142 0.587304
0.999405 0.934234 0.586664
0.999405 0.93431 0.58613
0.999405 0.934356 0.585687
0.0855268 0.987808 0.608988
0.0869001 0.988617 0.603632
0.0881666 0.989548 0.59791
0.0890822 0.9906 0.591821
0.0898604 0.991791 0.584787
0.0911727 0.993133 0.57583
0.0932631 0.994644 0.564584
0.0962539 0.996216 0.550576
0.100114 0.997848 0.532692
0.10605 0.999252 0.509896
0.118639 0.999969 0.482475
0.152224 0.999969 0.454765
0.222171 0.999969 0.434836
0.289219 0.999969 0.416205
0.351064 0.999969 0.396628
0.411032 0.999969 0.378042
0.481651 0.999969 0.38146
0.54847 0.999969 0.392081
0.611368 0.999969 0.408225
0.673106 0.999969 0.426459
0.73669 0.997848 0.446372
0.803418 0.987366 0.468666
0.861341 0.975753 0.486091
0.907286 0.969177 0.500099
0.936904 0.966567 0.517586
0.964218 0.961318 0.546212
0.981247 0.959289 0.579202
0.995346 0.958907 0.605554
0.999969 0.958541 0.626413
0.999969 0.958694 0.628717
0.999969 0.958816 0.628412
0.999969 0.958877 0.628031
0.999969 0.958862 0.627573
0.0854047 0.988205 0.61767
0.0864271 0.989029 0.612345
0.0874495 0.98996 0.606531
0.0885786 0.99086 0.600595
0.0898756 0.991882 0.593713
0.0915999 0.993057 0.585138
0.0937667 0.994446 0.574197
0.0964828 0.996033 0.560571
0.100237 0.99765 0.54313
0.105547 0.999115 0.520684
0.116655 0.999969 0.493675
0.145296 0.999969 0.464775
0.214282 0.999969 0.444053
0.283406 0.999969 0.425818
0.349004 0.999969 0.410758
0.411505 0.999969 0.399634
0.479835 0.999969 0.400519
0.546319 0.999969 0.409064
0.60798 0.999969 0.423377
0.667643 0.999969 0.440391
0.72639 0.999542 0.458564
0.794308 0.991836 0.48098
0.852369 0.979934 0.498909
0.902632 0.97145 0.511757
0.93315 0.970077 0.527077
0.962661 0.969818 0.553155
0.981384 0.966171 0.585977
0.995148 0.964965 0.612497
0.999969 0.96437 0.634134
0.999969 0.964416 0.64004
0.999969 0.96437 0.64007
0.999969 0.964157 0.639139
0.999969 0.963928 0.638193
0.0871748 0.986954 0.624399
0.0893263 0.987472 0.619364
0.0907454 0.988205 0.614023
0.0916152 0.989197 0.608026
0.0926375 0.990326 0.601282
0.0945602 0.991562 0.592935
0.0970321 0.992996 0.58233
0.10013 0.994675 0.56907
0.103853 0.996567 0.552026
