bundles/resolve-cinematic-luts/Phantom Luts/P4k & P6k Phntm Arri LUTs - V6/P6k/Gen 4 Colour/P6k Utopia Gen4.cube
TITLE "Generated by Resolve"
LUT_3D_SIZE 5
0 0.0227512 0.0306706
0.212879 0.0125734 0.0413977
0.574746 0.0496529 0.108553
0.868101 0.186023 0.24329
0.885496 0.194369 0.260639
0 0.25304 0.0681621
0.198245 0.229862 0.0230259
0.551659 0.17229 0.0811627
0.858396 0.235615 0.193484
0.86627 0.224292 0.192828
0 0.641703 0.277668
0.00161746 0.65861 0.0361639
0.602548 0.609308 0.129
0.89749 0.624094 0.285237
0.93959 0.627131 0.31133
0.0756085 0.977615 0.590051
0.0871443 0.991394 0.504692
0.473259 0.996643 0.326085
0.938796 0.936278 0.484733
0.999405 0.934356 0.585687
0.0889143 0.984863 0.648585
0.0995346 0.994827 0.577859
0.454475 0.999969 0.404364
0.923461 0.970108 0.522118
0.999969 0.965087 0.642863
0 0.0291295 0.231601
0.224674 0.0127871 0.220706
0.573892 0.0265507 0.257191
0.878782 0.152514 0.346136
0.891646 0.166186 0.365927
0 0.213458 0.213001
0.179721 0.21265 0.219501
0.613596 0.134646 0.168566
0.874525 0.194736 0.246754
0.886351 0.199039 0.260121
0 0.598978 0.387152
0 0.62031 0.259312
0.586938 0.596857 0.152163
0.907973 0.59826 0.312367
0.939483 0.597879 0.327733
0.0762798 0.957427 0.644434
0.0666514 0.968124 0.576928
0.403052 0.997345 0.322225
0.931685 0.92929 0.469627
0.998734 0.925338 0.57644
0.0986038 0.977523 0.70013
0.0955367 0.98497 0.645563
0.377203 0.999969 0.420386
0.909224 0.971222 0.519753
0.999969 0.965866 0.645838
0.0869001 0.0381628 0.548424
0.273167 0.0260624 0.528328
0.572076 0.0387121 0.514061
0.841398 0.127016 0.561624
0.85304 0.137972 0.586343
0 0.136507 0.473594
0.112596 0.0373388 0.542275
0.555062 0.045304 0.497841
0.853452 0.148333 0.525658
0.867216 0.164446 0.545617
0 0.568536 0.544381
0 0.567422 0.543694
0.54757 0.566781 0.55935
0.948623 0.520974 0.522484
0.950057 0.498711 0.507515
0.104311 0.919066 0.753491
0.0953841 0.918288 0.733013
0.0980087 0.950179 0.560113
0.912795 0.913146 0.4878
0.995026 0.898329 0.583612
0.146792 0.970626 0.811231
0.129091 0.970413 0.78941
0.112108 0.989242 0.635309
0.821271 0.989151 0.51957
0.999969 0.968963 0.659129
0.259709 0.0538338 0.785885
0.374716 0.0505226 0.779416
0.59617 0.0567941 0.761624
0.803677 0.132982 0.777722
0.824689 0.160098 0.820905
0.00856031 0.0648051 0.767651
0.265721 0.0528267 0.781888
0.564965 0.0527504 0.761715
0.800549 0.134264 0.759243
0.823377 0.15407 0.798276
0 0.548501 0.748806
0 0.533227 0.755947
0.559945 0.459831 0.914382
0.914061 0.42327 0.849683
0.910201 0.398047 0.836576
0.202594 0.896803 0.866316
0.209796 0.894148 0.864317
0.291371 0.890547 0.86009
0.862974 0.866407 0.856062
0.978469 0.85481 0.849867
0.384451 0.983658 0.92726
0.376303 0.983063 0.922652
0.339269 0.98056 0.891585
0.739559 0.998154 0.860487
0.999863 0.98706 0.851118
0.35436 0.0593271 0.84004
0.438651 0.0587167 0.838651
0.630365 0.0698863 0.818418
0.816144 0.167041 0.842115
0.835142 0.195148 0.861738
0.221241 0.0626841 0.835859
0.356771 0.0590219 0.842542
0.599435 0.0642863 0.823819
0.817075 0.176394 0.842176
0.838911 0.202686 0.865339
0.0393225 0.523003 0.865187
0.0307012 0.490486 0.869215
0.581018 0.370291 0.954116
0.889616 0.366644 0.912383
0.887877 0.352056 0.91133
0.310369 0.886122 0.963638
0.306737 0.880644 0.964767
0.39736 0.86923 0.966796
0.874327 0.832532 0.973953
0.965011 0.82565 0.967376
0.46453 0.990051 0.977142
0.46537 0.990433 0.97911
0.475486 0.991226 0.979217
0.792706 0.994263 0.989746
0.997101 0.994751 0.992203
