bundles/resolve-cinematic-luts/Phantom Luts/P4k & P6k Phntm Arri LUTs - V6/P6k/Gen 4 Colour/P6k Utopia Gen4-Legacy.cube
TITLE "Generated by Resolve"
LUT_3D_SIZE 9
0.0121004 0.0376135 0.046952
0.0512551 0.0373693 0.0517891
0.156527 0.0362402 0.0547494
0.316838 0.0350347 0.0603952
0.506691 0.0404822 0.0838026
0.675792 0.0752117 0.132876
0.830198 0.13167 0.194461
0.841138 0.145388 0.208209
0.851514 0.147799 0.213962
0.00706493 0.073579 0.0582742
0.0347601 0.0692912 0.0469673
0.128023 0.0607309 0.0517739
0.274556 0.0395056 0.0419776
0.467231 0.0300755 0.0492866
0.642206 0.0574197 0.0919356
0.80557 0.11017 0.15404
0.818692 0.122332 0.16524
0.834669 0.126253 0.16965
0 0.182422 0.0575418
0 0.179538 0.00196841
0.130022 0.167544 0.037171
0.29131 0.141482 0.0540627
0.473671 0.119661 0.0704204
0.650111 0.137148 0.100572
0.816175 0.164965 0.150561
0.822324 0.157977 0.151202
0.825406 0.150881 0.147982
0 0.361013 0.0808423
0 0.365698 0.00161746
0.015198 0.361624 0
0.313115 0.345739 0.0504311
0.495872 0.349874 0.0598459
0.690044 0.34493 0.143969
0.856062 0.358816 0.208026
0.882704 0.359808 0.217411
0.882689 0.357229 0.215305
0 0.583658 0.210742
0 0.593927 0.135775
0 0.592493 0.0116274
0.166613 0.594644 0
0.544121 0.554452 0.106691
0.707515 0.56318 0.156085
0.874723 0.565759 0.250217
0.928771 0.568414 0.279759
0.928542 0.567742 0.279088
0 0.791791 0.398062
0 0.800656 0.350835
0.0131075 0.815854 0.232074
0.0913558 0.809644 0.0498054
0.457877 0.799252 0.103029
0.752102 0.756481 0.210849
0.88452 0.758007 0.338979
0.962081 0.758083 0.402625
0.962081 0.757946 0.399664
0.0580758 0.975402 0.53257
0.057557 0.980468 0.505592
0.0667582 0.988296 0.450019
0.160754 0.998459 0.333455
0.427161 0.989746 0.280919
0.685557 0.967147 0.346609
0.916915 0.923629 0.438621
0.990295 0.918044 0.530205
0.99086 0.918547 0.529656
0.0677348 0.986114 0.572534
0.0688182 0.990433 0.549111
0.0791638 0.996201 0.502708
0.164492 0.999969 0.404929
0.422705 0.999969 0.353552
0.656977 0.997208 0.400061
0.895415 0.95021 0.472801
0.99176 0.942336 0.567529
0.990921 0.942901 0.579019
0.0652781 0.984619 0.58938
0.064332 0.989319 0.565286
0.0749828 0.995361 0.520424
0.140322 0.999969 0.417533
0.409354 0.999969 0.356573
0.646357 0.998138 0.397696
0.887709 0.951431 0.470512
0.991974 0.942229 0.562783
0.990097 0.943038 0.579629
0.00996414 0.0401923 0.0763104
0.0521248 0.0381476 0.0855726
0.167819 0.0340887 0.097612
0.334325 0.0297856 0.106691
0.519051 0.0347753 0.12462
0.685054 0.0703593 0.170214
0.843641 0.124727 0.22887
0.851759 0.131563 0.240955
0.861662 0.134539 0.248463
0.0104524 0.0612802 0.0717479
0.0272374 0.0580911 0.0679179
0.153262 0.0467689 0.061677
0.304616 0.036408 0.0603494
0.496803 0.0403601 0.0826581
0.669459 0.0737469 0.130724
0.834745 0.129351 0.192172
0.846754 0.143832 0.206729
0.857206 0.146532 0.212634
0 0.161944 0.111864
0 0.167346 0.0566567
0.122759 0.159747 0.0447547
0.305379 0.112688 0.0641184
0.478111 0.0961318 0.0653697
0.655436 0.109194 0.0982681
0.814038 0.134691 0.146029
0.81593 0.126162 0.144701
0.824384 0.125933 0.14612
0 0.337743 0.143832
0 0.348028 0.078584
0 0.353292 0
0.307073 0.339681 0.0561074
0.504555 0.333288 0.0753185
0.694865 0.325414 0.149432
0.861021 0.343328 0.207813
0.879774 0.34229 0.213733
0.879515 0.339437 0.211215
0 0.565698 0.26302
0 0.576028 0.205356
0 0.589212 0.0581979
0.132219 0.594156 0
0.538735 0.549966 0.112428
0.707683 0.55668 0.162051
0.878859 0.557549 0.257984
0.92784 0.559136 0.281102
0.927184 0.557931 0.279103
0 0.7785 0.430426
0 0.78587 0.393301
0.00294499 0.802014 0.294789
0.0635233 0.803952 0.0707713
0.438392 0.79968 0.109133
0.747341 0.752285 0.216037
0.883467 0.752468 0.338994
0.961486 0.75227 0.403845
0.961257 0.751797 0.401175
0.0561837 0.966003 0.553582
0.0515908 0.971923 0.526696
0.057435 0.979873 0.475288
0.10985 0.994324 0.347066
0.405661 0.989761 0.279088
0.674968 0.966781 0.341283
0.913725 0.920668 0.433356
0.989868 0.914595 0.527276
0.990494 0.914809 0.52697
0.065095 0.982925 0.59295
0.067216 0.986633 0.571344
0.0745556 0.993347 0.528511
0.12047 0.999969 0.423682
0.40087 0.999969 0.357229
0.645426 0.99826 0.398749
0.889952 0.950973 0.47158
0.991867 0.94226 0.566232
0.989914 0.943084 0.580316
0.0678874 0.98088 0.609461
0.0683604 0.984466 0.58883
0.0709239 0.992294 0.545281
0.110018 0.999969 0.441886
0.385687 0.999969 0.360967
0.633738 0.998932 0.396155
0.880903 0.952331 0.469215
0.989853 0.942611 0.560601
0.989303 0.943206 0.580941
0.000244144 0.0457771 0.172534
0.0636149 0.0412604 0.169207
0.173358 0.0361486 0.173907
0.338949 0.0325933 0.184924
0.526375 0.0339055 0.204395
0.694575 0.0653086 0.238987
0.850568 0.117922 0.290318
0.856214 0.125032 0.302724
0.865415 0.127733 0.311009
0 0.0605325 0.132082
0.00564584 0.0459907 0.162203
0.150134 0.0391241 0.157092
0.329046 0.0346227 0.147799
0.519203 0.0355688 0.163714
0.686702 0.0691081 0.201968
0.848478 0.123476 0.256748
0.856062 0.131212 0.269612
0.865003 0.133303 0.276646
0 0.151385 0.155718
0 0.148638 0.153155
0.117388 0.151537 0.159991
0.335927 0.122988 0.135836
0.532555 0.0914626 0.12163
0.691966 0.1075 0.154299
0.837476 0.139361 0.198077
0.846204 0.147936 0.208179
0.854871 0.150088 0.213352
0 0.317388 0.21178
0 0.317815 0.188663
0 0.33579 0.0809339
0.303441 0.336507 0.0925612
0.527184 0.304677 0.127703
0.710918 0.295918 0.172854
0.884398 0.314061 0.226719
0.889876 0.308064 0.227054
0.890929 0.303853 0.224842
0 0.540383 0.329213
0 0.544778 0.294286
0 0.561746 0.191791
0.0757305 0.590173 0.0168154
0.529183 0.541878 0.123491
0.712459 0.542428 0.179644
0.887648 0.540917 0.276478
0.928008 0.541466 0.294972
0.927535 0.539742 0.293889
0 0.757885 0.47451
0 0.762387 0.448371
0 0.77409 0.383795
0.03093 0.796704 0.144594
0.397162 0.800885 0.120348
0.739406 0.745388 0.225299
0.882246 0.743145 0.341024
0.960098 0.741344 0.405402
0.959854 0.740475 0.403571
0.0564279 0.950652 0.586099
0.0508583 0.955139 0.564981
0.0486152 0.963363 0.519219
0.0687419 0.980468 0.394308
0.360479 0.989914 0.277958
0.657298 0.965682 0.332784
0.908705 0.915785 0.424399
0.98909 0.908553 0.522316
0.989685 0.908278 0.522026
0.0690623 0.977127 0.625727
0.0671855 0.980545 0.60737
0.069276 0.987167 0.569116
0.0880446 0.998871 0.47274
0.356039 0.999969 0.366064
0.623926 0.99942 0.396048
0.879606 0.95256 0.469917
0.991867 0.942229 0.563531
0.989807 0.94316 0.581643
0.0727398 0.975433 0.641032
0.0700847 0.978698 0.623331
0.0711833 0.984878 0.586831
0.0848859 0.998077 0.492607
0.336477 0.999969 0.371618
0.610162 0.999802 0.393683
0.863905 0.955474 0.467018
0.984848 0.942901 0.556054
0.989136 0.943313 0.582483
0.00416571 0.0513771 0.326024
0.0767834 0.0457771 0.317266
0.178042 0.0386206 0.313634
0.342931 0.0372015 0.308812
0.513787 0.0398108 0.333165
0.696605 0.0697795 0.345083
0.845655 0.1131 0.388418
0.848722 0.120546 0.400336
0.855283 0.122988 0.408392
0 0.066865 0.284947
0.00807202 0.050721 0.316915
0.142931 0.0412146 0.30808
0.329061 0.0386358 0.296208
0.509285 0.0417792 0.309667
0.68983 0.0683452 0.328222
0.8495 0.117449 0.367727
0.854307 0.125338 0.379294
0.861387 0.127916 0.387015
0 0.142519 0.249332
0 0.132525 0.2636
0.0845502 0.109163 0.342611
0.329915 0.0840314 0.306493
0.516655 0.0664836 0.275456
0.68455 0.0737469 0.281758
0.851255 0.126909 0.323095
0.859922 0.135744 0.334508
0.866712 0.13817 0.341436
0 0.302113 0.291386
0 0.301015 0.290394
0 0.304601 0.293721
0.297734 0.327169 0.328603
0.546883 0.295018 0.301289
0.770886 0.260487 0.280659
0.90103 0.274662 0.303029
0.900343 0.267292 0.301808
0.900999 0.261585 0.30016
0 0.523751 0.407858
0 0.523217 0.396612
0 0.523033 0.366995
0.0228122 0.565118 0.254978
0.515068 0.535912 0.256291
0.734768 0.514488 0.270039
0.918441 0.501976 0.331594
0.93611 0.495857 0.341161
0.935882 0.493523 0.341115
0.00331121 0.732403 0.534188
0.000274662 0.73283 0.52166
0 0.735912 0.489189
0 0.755199 0.366537
0.300938 0.807019 0.157321
0.725978 0.73434 0.248783
0.886137 0.724269 0.35845
0.958511 0.720409 0.411872
0.958099 0.718059 0.411765
0.059617 0.924407 0.636103
0.053727 0.927047 0.621485
0.050721 0.930846 0.591318
0.0450141 0.945724 0.504051
0.232502 0.988495 0.294377
0.614939 0.964874 0.316701
0.898451 0.905562 0.40708
0.986893 0.895872 0.514382
0.987045 0.894591 0.514839
0.0786297 0.968704 0.679011
0.0743877 0.97145 0.665095
0.0745098 0.975433 0.637003
0.071931 0.988891 0.563867
0.228779 0.999969 0.399237
0.577676 0.999969 0.392432
0.849577 0.958938 0.467018
0.985641 0.94284 0.558068
0.989609 0.943297 0.584527
0.0817426 0.96759 0.692302
0.0789197 0.969833 0.678828
0.076524 0.974075 0.651331
0.0750134 0.986282 0.581842
0.197208 0.999969 0.410727
0.560281 0.999969 0.390204
0.82623 0.964172 0.462486
0.975143 0.943389 0.54551
0.989181 0.94342 0.586038
0.0371099 0.0565957 0.493538
0.110933 0.0507668 0.485588
0.217807 0.0446784 0.475853
0.350835 0.039765 0.469886
0.51899 0.050248 0.463844
0.685618 0.0642252 0.480842
0.826062 0.110918 0.498619
0.827619 0.115938 0.511086
0.834012 0.1178 0.521004
0 0.0671397 0.475593
0.0358282 0.0563973 0.48835
0.17435 0.046891 0.477821
0.331182 0.0404212 0.467933
0.511849 0.0510872 0.457435
0.681163 0.0650034 0.469413
0.830014 0.114733 0.486641
0.832837 0.121416 0.498558
0.839826 0.123552 0.508049
0 0.108629 0.418738
0 0.0912337 0.438193
0.0600595 0.0575875 0.48835
0.288838 0.0469368 0.466087
0.497536 0.0525063 0.444083
0.672587 0.0682383 0.446403
0.833555 0.123735 0.462821
0.838987 0.131991 0.473838
0.845273 0.134218 0.481453
0 0.283894 0.408087
0 0.276387 0.410803
0 0.269261 0.43212
0.269429 0.253681 0.534478
0.537728 0.232944 0.501076
0.750896 0.202319 0.475853
0.879072 0.210101 0.469337
0.877501 0.204822 0.465171
0.877958 0.200122 0.46424
0 0.51043 0.489128
0 0.509422 0.488716
0 0.507637 0.486397
0.0864271 0.521187 0.502907
0.491981 0.513359 0.508507
0.73579 0.495079 0.492836
0.938689 0.472816 0.474144
0.942687 0.458381 0.464591
0.942123 0.450385 0.459571
0.0308843 0.717403 0.605447
0.0335546 0.716701 0.600763
0.0397345 0.715068 0.588479
0.0471199 0.712383 0.55378
0.27921 0.758679 0.48188
0.691844 0.714763 0.468589
0.893568 0.699138 0.476326
0.96202 0.692653 0.470085
0.960815 0.68751 0.466423
0.0747387 0.899992 0.697932
0.0700999 0.90013 0.691173
0.0667887 0.898894 0.676402
0.059266 0.898421 0.63476
0.0702983 0.93785 0.504143
0.547845 0.971222 0.386664
0.886122 0.896498 0.441001
0.981262 0.879423 0.531594
0.980591 0.87483 0.529381
0.104768 0.963073 0.750881
0.0952926 0.963973 0.742489
0.0908675 0.965377 0.725628
0.0886244 0.969787 0.68336
0.082826 0.992416 0.560082
0.48217 0.999969 0.408896
0.795911 0.973114 0.468391
0.979217 0.943358 0.556848
0.989258 0.943664 0.593622
0.111986 0.965148 0.762783
0.104738 0.964813 0.754162
0.096437 0.965393 0.73669
0.0922866 0.968933 0.694499
0.0838178 0.989563 0.576654
0.445441 0.999969 0.4047
0.756451 0.982727 0.45623
0.959976 0.944549 0.528511
0.9888 0.943786 0.594903
0.114244 0.0619516 0.631983
0.176471 0.0576638 0.626444
0.268528 0.0539254 0.620157
0.386023 0.0522927 0.611276
0.517555 0.0570382 0.60441
0.698833 0.0805066 0.602106
0.805829 0.108537 0.620508
0.80763 0.115587 0.634134
0.816022 0.117098 0.647517
0.0246128 0.0679026 0.626184
0.112139 0.061799 0.628977
0.230182 0.0551461 0.622263
0.366354 0.0522011 0.611185
0.507149 0.0568093 0.603296
0.693401 0.0812543 0.598154
0.807446 0.109178 0.614481
0.811551 0.116381 0.62826
0.820005 0.117784 0.641215
0 0.100969 0.579904
0 0.0785382 0.603265
0.1308 0.0603952 0.625757
0.321859 0.0525673 0.611429
0.487144 0.0581521 0.601328
0.680674 0.0821698 0.588251
0.803723 0.109804 0.602441
0.809155 0.118349 0.614298
0.818219 0.120119 0.625589
0 0.253849 0.540749
0 0.240604 0.549233
0 0.214313 0.574762
0.24445 0.14905 0.676143
0.496788 0.142428 0.653574
0.701503 0.137621 0.610452
0.822232 0.136355 0.590814
0.823911 0.136599 0.587533
0.829328 0.136461 0.592981
0 0.494285 0.604639
0 0.490059 0.606287
0 0.48249 0.608911
0.0698711 0.49836 0.645426
0.481331 0.467063 0.710292
0.734081 0.450858 0.676265
0.923049 0.422629 0.657572
0.922438 0.405661 0.650965
0.918959 0.396612 0.647791
0.0418555 0.703548 0.674037
0.0453346 0.702724 0.674037
0.054612 0.700648 0.671839
0.0745556 0.695369 0.6663
0.346517 0.70071 0.679377
0.666041 0.680186 0.668849
0.890105 0.665919 0.658747
0.953536 0.653651 0.649897
0.95256 0.648371 0.646204
0.14226 0.884337 0.768185
0.142473 0.883467 0.76556
0.148226 0.881285 0.758404
0.15816 0.875792 0.73933
0.209323 0.883223 0.707347
0.525307 0.909483 0.653056
0.851621 0.867384 0.646494
0.965911 0.857435 0.650156
0.965103 0.852705 0.646967
0.227207 0.970916 0.831769
0.217884 0.971191 0.828031
0.204898 0.970718 0.818189
0.176654 0.96997 0.796124
0.155932 0.971527 0.743755
0.414603 0.999969 0.664332
0.746685 0.992859 0.605127
0.972961 0.946426 0.62974
0.985595 0.946792 0.659617
0.244297 0.972168 0.844251
0.236835 0.971939 0.839002
0.223484 0.971878 0.828641
0.193835 0.971145 0.805158
0.167147 0.972045 0.750439
0.366293 0.999969 0.658091
0.707454 0.997818 0.586419
0.937102 0.950393 0.606363
0.984131 0.946868 0.657176
0.201175 0.0692607 0.75259
0.244022 0.066804 0.748119
0.316152 0.0658122 0.745327
0.418479 0.0665904 0.741009
0.542397 0.0725414 0.73727
0.699596 0.0987564 0.738796
0.791012 0.125383 0.752514
0.793057 0.138186 0.775204
0.803113 0.142306 0.796826
0.139452 0.0724651 0.751049
0.198978 0.0688792 0.75021
0.284779 0.066041 0.745724
0.398901 0.066041 0.740307
0.531456 0.0715801 0.736126
0.693111 0.098558 0.737926
0.791897 0.124743 0.746456
0.795956 0.135775 0.769894
0.805524 0.1402 0.789792
0 0.0856947 0.727932
0.0696269 0.0756542 0.744778
0.207782 0.0680705 0.746059
0.357687 0.0654002 0.739101
0.508217 0.0699474 0.732921
0.679316 0.0986801 0.734783
0.789502 0.126177 0.730739
0.79324 0.135424 0.749447
0.803647 0.13753 0.769299
0 0.193362 0.668437
0 0.175463 0.680705
0 0.138384 0.703166
0.239445 0.079469 0.753155
0.457191 0.07776 0.735882
0.65005 0.101457 0.733242
0.791272 0.124926 0.706462
0.798352 0.135821 0.716594
0.808392 0.136706 0.731136
0 0.491691 0.691783
0 0.486748 0.69543
0 0.475624 0.701503
0.0440223 0.472511 0.765942
0.490257 0.411719 0.885863
0.732296 0.399969 0.858564
0.896101 0.379202 0.817884
0.892363 0.35906 0.805997
0.890364 0.352148 0.800839
0.0254826 0.687846 0.772656
0.0231327 0.68574 0.775601
0.0249943 0.680751 0.777905
0.0890822 0.677729 0.792187
0.338491 0.697337 0.826566
0.66305 0.652613 0.857801
0.884413 0.637079 0.825162
0.939773 0.623636 0.818448
0.938369 0.618509 0.815961
0.160586 0.870298 0.833356
0.160708 0.869413 0.833356
0.167071 0.866743 0.830686
0.180514 0.860822 0.824033
0.247211 0.862135 0.824598
0.567315 0.850141 0.82768
0.827893 0.833585 0.819821
0.963928 0.823041 0.814313
0.964126 0.817441 0.8121
0.320638 0.97612 0.899138
0.317189 0.97612 0.898054
0.310262 0.974487 0.893202
0.290944 0.970184 0.880949
0.28365 0.963302 0.856046
0.494636 0.971725 0.853971
0.720043 0.980011 0.818662
0.951888 0.952697 0.804456
0.972915 0.947173 0.812192
0.337972 0.97879 0.909316
0.333791 0.978561 0.907698
0.329809 0.977966 0.903136
0.319478 0.976944 0.891691
0.294881 0.975677 0.864118
0.449714 0.981582 0.850172
0.67248 0.98378 0.823392
0.904982 0.961883 0.787625
0.973861 0.952987 0.798489
0.273136 0.075349 0.826337
0.305974 0.0747845 0.828016
0.362585 0.074876 0.826734
0.451621 0.0774853 0.82443
0.572244 0.0846571 0.818494
0.713939 0.108614 0.808942
0.797925 0.156283 0.828443
0.800931 0.163149 0.830976
0.805264 0.165454 0.835966
0.232013 0.0766918 0.825513
0.272374 0.0751354 0.828656
0.336706 0.0747082 0.827573
0.433249 0.0766613 0.824887
0.559915 0.0834211 0.819577
0.70808 0.109255 0.812161
0.798856 0.157794 0.829313
0.803311 0.164416 0.833692
0.809354 0.166567 0.840726
0.12314 0.0814832 0.819196
0.190036 0.0780194 0.828428
0.275364 0.0747387 0.826352
0.395727 0.0752728 0.823865
0.535531 0.0815442 0.820356
0.696025 0.110521 0.817868
0.797009 0.161929 0.826368
0.80177 0.16965 0.831037
0.810025 0.170962 0.840955
0 0.147112 0.778042
0 0.12668 0.79144
0.0043183 0.0912795 0.803372
0.291676 0.0762341 0.824155
0.475273 0.0802167 0.819471
0.665949 0.112825 0.825864
0.798276 0.164431 0.823087
0.803326 0.175479 0.830533
0.812314 0.178882 0.842481
0 0.482414 0.775921
0 0.475013 0.783825
0 0.458137 0.796567
0.103624 0.421942 0.880919
0.513405 0.360845 0.943282
0.740658 0.350408 0.925063
0.874983 0.347311 0.898436
0.872114 0.337102 0.893645
0.871351 0.331991 0.895903
0.0882124 0.692988 0.85098
0.0874495 0.690867 0.853284
0.0893721 0.68632 0.855558
0.124788 0.68072 0.865248
0.329778 0.694301 0.925643
0.696345 0.631022 0.968704
0.893034 0.617441 0.944381
0.93312 0.609522 0.935012
0.931136 0.604242 0.934966
0.1626 0.859037 0.907515
0.163867 0.857755 0.909789
0.177859 0.854505 0.911833
0.2103 0.847211 0.915846
0.313283 0.844968 0.935515
0.574426 0.84654 0.933288
0.831739 0.809415 0.945434
0.95465 0.801373 0.930983
0.953872 0.795438 0.927916
0.315938 0.969512 0.938598
0.307729 0.968856 0.938903
0.303777 0.966232 0.936141
0.304326 0.961135 0.93022
0.315099 0.953445 0.921035
0.52578 0.95761 0.931456
0.759197 0.945724 0.931029
0.934966 0.933639 0.9243
0.965225 0.92961 0.922225
0.378683 0.981201 0.957153
0.375113 0.981262 0.956436
0.374746 0.981231 0.952361
0.373892 0.981186 0.944381
0.372442 0.98117 0.930556
0.507729 0.978561 0.934417
0.723735 0.970367 0.93904
0.880476 0.964584 0.925704
0.964935 0.95729 0.917479
0.290394 0.0750286 0.826596
0.320851 0.0745251 0.827436
0.373404 0.0751202 0.82652
0.46038 0.0776989 0.823987
0.58053 0.085359 0.81796
0.717586 0.105974 0.804227
0.793576 0.149203 0.824353
0.803159 0.165698 0.83331
0.807828 0.167742 0.838773
0.252781 0.0761425 0.825666
0.289448 0.0748455 0.828458
0.348104 0.0745251 0.826902
0.442298 0.0769818 0.824537
0.567559 0.0840925 0.819303
0.710369 0.106905 0.806241
0.794797 0.15111 0.825483
0.80499 0.167163 0.83534
0.81062 0.168933 0.841962
0.158434 0.0798505 0.82121
0.215793 0.0771344 0.828992
0.292882 0.0747997 0.828519
0.40618 0.0758526 0.825666
0.543206 0.0822766 0.82121
0.698314 0.10721 0.813458
0.79321 0.155795 0.822843
0.803418 0.171771 0.832532
0.810651 0.172686 0.841489
0 0.134615 0.811017
0 0.116075 0.811994
0.0680858 0.0854505 0.818662
0.311192 0.0754406 0.828595
0.484413 0.0805524 0.82475
0.669184 0.110765 0.827878
0.797513 0.164187 0.826612
0.80473 0.177829 0.83328
0.813001 0.180179 0.843122
0 0.467247 0.837217
0 0.456565 0.840192
0 0.433555 0.840681
0.107073 0.381445 0.88835
0.502907 0.318776 0.93283
0.72549 0.314992 0.917052
0.865797 0.320592 0.890333
0.862852 0.308583 0.885924
0.863432 0.305562 0.889052
0.132937 0.699092 0.89099
0.129183 0.696162 0.892378
0.125154 0.689921 0.892561
0.132677 0.675776 0.889158
0.32369 0.676204 0.928664
0.699672 0.612192 0.970718
0.892638 0.599451 0.948989
0.930465 0.592966 0.94136
0.928939 0.587457 0.941497
0.269123 0.856565 0.953796
0.266911 0.854566 0.955001
0.265629 0.850034 0.954665
0.285496 0.841749 0.954482
0.351781 0.836423 0.955261
0.564889 0.841123 0.953414
0.846403 0.791012 0.965805
0.951934 0.786404 0.954437
0.950545 0.781842 0.955413
0.375082 0.963195 0.968246
0.373419 0.961776 0.969451
0.374182 0.959274 0.970031
0.377111 0.953079 0.970474
0.38999 0.943435 0.972213
0.546212 0.947051 0.974105
0.765164 0.936202 0.965743
0.942168 0.917922 0.958206
0.960723 0.916487 0.957061
0.411383 0.981353 0.971817
0.410681 0.981414 0.9729
0.412482 0.981323 0.973068
0.416312 0.981216 0.973312
0.421164 0.981216 0.973144
0.521965 0.979095 0.973587
0.732341 0.970642 0.968078
0.897627 0.962249 0.961837
0.961776 0.958602 0.957565
