bundles/resolve-cinematic-luts/Phantom Luts/P4k & P6k Phntm Arri LUTs - V6/P6k/Gen 4 Colour/P6k Jamaica Gen4.cube
TITLE "Generated by Resolve"
LUT_3D_SIZE 9
0 0.0250553 0
0.0883803 0.025391 0.00984207
0.24593 0.0279393 0.0348211
0.419684 0.0357214 0.0634623
0.596719 0.0668345 0.12256
0.713237 0.152255 0.206424
0.781949 0.224903 0.273701
0.790143 0.231434 0.283604
0.794278 0.235172 0.287755
0 0.100343 0.0349889
0.060441 0.0863661 0.00161746
0.217411 0.0649119 0.0161288
0.379858 0.0468147 0.0224765
0.559319 0.0548257 0.0649729
0.673396 0.12781 0.148821
0.755383 0.211246 0.232486
0.767071 0.222263 0.244663
0.772915 0.228351 0.249851
0 0.261601 0.104555
0 0.265507 0.00466926
0.204105 0.24033 0.00427253
0.390143 0.220676 0.0204013
0.577203 0.18584 0.082826
0.717784 0.217258 0.158206
0.791348 0.270893 0.242527
0.785992 0.262821 0.240055
0.782605 0.258427 0.237781
0.00015259 0.438361 0.201068
0 0.452628 0.0932479
0.0307317 0.446616 0.0200046
0.37261 0.413138 0.0224308
0.586496 0.411597 0.0569924
0.779965 0.412406 0.193256
0.885191 0.441077 0.285588
0.892027 0.440894 0.293996
0.88893 0.436622 0.291371
0.0543679 0.649424 0.363882
0.0572366 0.658091 0.308995
0.0738079 0.658396 0.197147
0.243809 0.670451 0.0899977
0.596033 0.636271 0.134707
0.791745 0.645411 0.226444
0.933806 0.652399 0.338918
0.961822 0.658 0.364187
0.960113 0.655039 0.361654
0.220157 0.833478 0.571267
0.221515 0.836103 0.542641
0.228504 0.838956 0.482429
0.278401 0.842145 0.352605
0.52668 0.881025 0.287755
0.804471 0.839292 0.320989
0.93257 0.846265 0.436942
0.991592 0.847105 0.500481
0.992172 0.845258 0.497536
0.379309 0.959258 0.739895
0.379965 0.961975 0.722805
0.38294 0.966964 0.693187
0.413657 0.988251 0.624277
0.550958 0.998932 0.54226
0.772656 0.998932 0.52903
0.94548 0.978271 0.548577
1 0.97615 0.649897
1 0.976181 0.649866
0.389181 0.964248 0.765576
0.389303 0.966781 0.75079
0.391455 0.972091 0.725536
0.415167 0.993378 0.666041
0.546044 0.998932 0.597574
0.757076 0.998932 0.598276
0.937911 0.998199 0.586374
1 0.9944 0.684047
1 0.994949 0.698863
0.391531 0.965072 0.775067
0.390585 0.966476 0.760113
0.392538 0.972 0.736614
0.410285 0.989899 0.675593
0.53753 0.998932 0.600397
0.744808 0.998932 0.594522
0.932723 0.998627 0.584894
1 0.995224 0.678553
1 0.995758 0.697185
0.0106355 0.0258946 0.0653544
0.102251 0.0249027 0.0869764
0.27451 0.0239567 0.123018
0.452201 0.0256046 0.147921
0.610361 0.0508888 0.181415
0.714549 0.133043 0.241443
0.781018 0.207004 0.298497
0.790311 0.214862 0.309651
0.795911 0.219974 0.31519
0.000457771 0.0723125 0.0649424
0.0359045 0.0639811 0.0436561
0.23798 0.041413 0.0379339
0.401984 0.0366827 0.0586252
0.58938 0.0642863 0.116091
0.708339 0.148302 0.200198
0.781018 0.224933 0.271229
0.790784 0.233143 0.282292
0.79498 0.236698 0.28658
0 0.235096 0.163973
0 0.243992 0.0914168
0.189502 0.231556 0.0154421
0.402625 0.188373 0.0403906
0.580255 0.161395 0.0848707
0.710781 0.19469 0.159045
0.777249 0.24654 0.239094
0.771313 0.237995 0.236133
0.772946 0.239445 0.237781
0.00169375 0.415381 0.251911
0 0.427268 0.190631
0 0.439872 0.0228885
0.364904 0.40676 0.0376898
0.597635 0.3953 0.0783246
0.780575 0.394324 0.19585
0.881254 0.427253 0.284901
0.884001 0.424094 0.289601
0.88069 0.419318 0.287022
0.0489967 0.633173 0.394278
0.0488746 0.641596 0.353368
0.0596933 0.653727 0.243305
0.207446 0.669581 0.11017
0.589929 0.630869 0.141024
0.795026 0.636942 0.23154
0.9364 0.643473 0.341711
0.960266 0.647852 0.361349
0.958221 0.644648 0.357992
0.214145 0.82565 0.587442
0.21416 0.828397 0.562722
0.217975 0.832654 0.510353
0.250584 0.832471 0.372778
0.5075 0.883467 0.295109
0.800626 0.83621 0.319738
0.932525 0.841871 0.435843
0.991379 0.841917 0.500328
0.990799 0.840177 0.49723
0.37583 0.954192 0.750454
0.375952 0.956756 0.734157
0.378058 0.961913 0.707118
0.395041 0.975647 0.63653
0.53283 0.998932 0.543328
0.763592 0.998932 0.528115
0.942229 0.976043 0.542748
1 0.973785 0.646006
1 0.973541 0.646372
0.389334 0.962005 0.776516
0.388449 0.963546 0.763378
0.389899 0.968811 0.740642
0.401846 0.98294 0.681117
0.529213 0.998932 0.603387
0.747005 0.998932 0.600717
0.93312 0.998444 0.585626
1 0.994629 0.682338
1 0.995178 0.699565
0.391623 0.962615 0.785992
0.389838 0.963073 0.77258
0.39089 0.968322 0.750713
0.400107 0.981521 0.692424
0.521294 0.998932 0.607919
0.733883 0.998932 0.596475
0.927321 0.998932 0.584436
1 0.995575 0.67602
1 0.995865 0.698192
0.0378729 0.0259861 0.211505
0.144686 0.0256962 0.216327
0.277562 0.0245518 0.244678
0.464134 0.0235294 0.266194
0.624552 0.042237 0.270604
0.720516 0.118212 0.299779
0.788067 0.194827 0.345571
0.797223 0.202976 0.35639
0.801968 0.207324 0.361105
0.000564584 0.0569924 0.163851
0.0424964 0.031693 0.192676
0.247532 0.027924 0.213413
0.447593 0.0279698 0.207324
0.616266 0.0483558 0.221592
0.717784 0.12668 0.264668
0.786465 0.204852 0.317861
0.795285 0.212482 0.328145
0.800183 0.217014 0.332647
3.0518e-05 0.220676 0.208972
0.00453193 0.21561 0.200015
0.191608 0.21828 0.191959
0.427863 0.180453 0.168948
0.631449 0.139239 0.160662
0.729641 0.175387 0.214084
0.782574 0.22916 0.269474
0.787137 0.231922 0.276005
0.792767 0.237125 0.281514
0.00325017 0.39469 0.299702
0.000885023 0.395132 0.276051
0 0.413657 0.172229
0.354437 0.400641 0.0887465
0.621805 0.366125 0.146105
0.791943 0.364996 0.222477
0.886137 0.400595 0.305104
0.882628 0.393133 0.30396
0.878737 0.388357 0.30074
0.0436866 0.609186 0.431907
0.0411231 0.614343 0.403555
0.0420081 0.628077 0.334813
0.145556 0.661372 0.147326
0.58056 0.622049 0.151995
0.804822 0.62089 0.246571
0.943282 0.627131 0.35285
0.961975 0.628977 0.367498
0.960403 0.625879 0.364935
0.205768 0.812375 0.608942
0.204486 0.815274 0.588586
0.20415 0.819913 0.549004
0.221927 0.824201 0.415579
0.473228 0.885847 0.30956
0.795285 0.831174 0.319768
0.933455 0.834562 0.435416
0.990784 0.833448 0.500618
0.989822 0.831327 0.49778
0.371359 0.94728 0.764111
0.370535 0.949187 0.750225
0.370138 0.952926 0.725689
0.377371 0.963211 0.659281
0.50251 0.998932 0.54728
0.749004 0.998932 0.527016
0.937636 0.972824 0.534569
1 0.969985 0.640528
1 0.969573 0.641413
0.38996 0.958831 0.792218
0.388891 0.960266 0.780209
0.388708 0.964172 0.761181
0.394781 0.976425 0.70811
0.502892 0.998932 0.615427
0.730678 0.998932 0.603326
0.925704 0.998932 0.585321
1 0.995026 0.679774
1 0.9953 0.700877
0.392477 0.959457 0.801053
0.390631 0.959945 0.788922
0.390265 0.963958 0.770962
0.394522 0.975464 0.719417
0.494301 0.998932 0.621851
0.715572 0.998932 0.59881
0.918914 0.998932 0.584253
1 0.996109 0.672129
1 0.996124 0.699504
0.106584 0.0264897 0.369528
0.194781 0.0262303 0.370016
0.294057 0.02533 0.383093
0.459495 0.0256352 0.404334
0.61886 0.0357671 0.410437
0.720378 0.103487 0.398718
0.792493 0.178882 0.432456
0.800946 0.186709 0.444236
0.805768 0.19115 0.449287
0 0.045594 0.326223
0.101503 0.0264134 0.356008
0.257267 0.0256657 0.369909
0.444266 0.0276036 0.387228
0.621744 0.0385595 0.382345
0.722408 0.106264 0.376196
0.798032 0.188663 0.410712
0.806912 0.196811 0.421317
0.811597 0.201053 0.425513
0 0.18497 0.316197
0 0.166934 0.322667
0.192889 0.142199 0.370092
0.443671 0.11368 0.383963
0.648051 0.0842908 0.343252
0.731395 0.12285 0.329381
0.801755 0.204746 0.368338
0.810468 0.212634 0.377935
0.815183 0.217044 0.382315
0.00360113 0.376349 0.358419
0.00274662 0.374563 0.352239
0.0378882 0.37258 0.345434
0.363684 0.384985 0.347814
0.640574 0.349615 0.329168
0.837827 0.320546 0.32369
0.894438 0.34934 0.362768
0.888014 0.340703 0.358465
0.883543 0.335683 0.354665
0.0480812 0.586694 0.483772
0.0476539 0.587839 0.469062
0.0471809 0.588083 0.44242
0.0948043 0.634226 0.331334
0.566964 0.610056 0.257313
0.836042 0.587793 0.310018
0.961913 0.590539 0.388724
0.970397 0.583368 0.396094
0.968734 0.578241 0.394186
0.19736 0.790707 0.643671
0.194263 0.792294 0.629099
0.190127 0.795254 0.603037
0.187701 0.806088 0.518914
0.396826 0.882856 0.345235
0.783963 0.821622 0.324788
0.938994 0.817746 0.441154
0.990021 0.815579 0.503273
0.989548 0.812818 0.501732
0.362356 0.933242 0.784024
0.360754 0.934783 0.772656
0.358297 0.936996 0.754955
0.356603 0.944106 0.704921
0.433906 0.991089 0.569268
0.714107 0.998932 0.52604
0.928603 0.965896 0.518639
1 0.962127 0.631098
1 0.961151 0.632868
0.392447 0.953582 0.817868
0.391424 0.954925 0.809094
0.390341 0.958053 0.795087
0.389883 0.966491 0.755337
0.445274 0.998932 0.649119
0.693721 0.998932 0.607843
0.91014 0.998932 0.586236
1 0.995911 0.67422
1 0.995575 0.703212
0.394827 0.953918 0.825528
0.393439 0.954635 0.816846
0.392294 0.9579 0.803037
0.39089 0.965713 0.765499
0.43534 0.998932 0.659129
0.675196 0.998932 0.60354
0.897841 0.998932 0.586557
0.997436 0.997223 0.663111
1 0.996185 0.702678
0.184985 0.0283665 0.532631
0.249973 0.0283055 0.534096
0.337072 0.0284123 0.539757
0.452811 0.0296483 0.54757
0.599115 0.0478523 0.539696
0.677562 0.0844129 0.522911
0.76997 0.160388 0.548943
0.775876 0.167498 0.561425
0.779782 0.171756 0.565469
0.04271 0.0321965 0.501656
0.180697 0.0281071 0.52433
0.299962 0.0282139 0.533822
0.433631 0.0290379 0.542473
0.59855 0.0478981 0.535775
0.683009 0.0863203 0.514046
0.781033 0.168353 0.536675
0.788617 0.176486 0.548196
0.793301 0.18088 0.551965
0 0.110109 0.461097
0 0.0773327 0.470512
0.191745 0.0315404 0.523033
0.394812 0.0299077 0.53431
0.595361 0.0485542 0.525719
0.695491 0.0907454 0.495125
0.792721 0.176944 0.515251
0.801434 0.185565 0.525353
0.806149 0.189975 0.529
0.00340276 0.330358 0.479515
0.00198367 0.320592 0.481178
0.0285954 0.303319 0.496406
0.363378 0.300175 0.557855
0.654749 0.277058 0.575372
0.850446 0.249195 0.539284
0.894423 0.277531 0.520806
0.887343 0.270588 0.512871
0.883146 0.266606 0.507683
0.0602731 0.565133 0.545876
0.0660716 0.565438 0.5402
0.0816052 0.564141 0.534752
0.185763 0.576242 0.539193
0.559182 0.572656 0.528283
0.833753 0.555734 0.527993
0.987091 0.538857 0.523384
0.984512 0.521187 0.509972
0.981979 0.512016 0.502022
0.208469 0.776745 0.692607
0.207538 0.778683 0.683497
0.207401 0.779858 0.671534
0.20264 0.780804 0.639612
0.364553 0.8533 0.56022
0.760967 0.800717 0.48333
0.955352 0.788724 0.520302
0.99353 0.78819 0.538994
0.992203 0.782666 0.532311
0.354788 0.915068 0.81265
0.352239 0.915526 0.804654
0.348638 0.915969 0.793774
0.342046 0.918822 0.765927
0.348333 0.940612 0.676448
0.642283 0.998932 0.548058
0.919203 0.95819 0.504372
1 0.949737 0.627588
1 0.946395 0.630747
0.401205 0.948791 0.854963
0.399756 0.949432 0.848753
0.398154 0.951415 0.839826
0.395315 0.956466 0.818372
0.394598 0.972915 0.744549
0.609628 0.998932 0.623545
0.873259 0.998932 0.597848
0.998322 0.997757 0.66688
1 0.996185 0.709087
0.404227 0.950088 0.860502
0.402167 0.949584 0.854795
0.400214 0.951293 0.845838
0.397131 0.956222 0.824903
0.394827 0.971664 0.754833
0.587396 0.998932 0.625116
0.85185 0.998932 0.602884
0.988815 0.998932 0.646632
1 0.996414 0.709606
0.256428 0.0378882 0.631342
0.301366 0.0383307 0.635859
0.36846 0.040116 0.639597
0.459815 0.0450141 0.63415
0.551537 0.059266 0.617243
0.663264 0.103487 0.615869
0.720012 0.141894 0.643229
0.727352 0.152758 0.655146
0.732403 0.16025 0.658854
0.183886 0.0361181 0.614496
0.253971 0.0372931 0.628962
0.338018 0.0389258 0.63772
0.444282 0.0433814 0.634913
0.545571 0.0573281 0.617716
0.663874 0.104784 0.614435
0.723888 0.143755 0.64036
0.728832 0.153185 0.649943
0.732341 0.158907 0.653605
0.0360571 0.0716716 0.580972
0.0804608 0.0399939 0.583093
0.259892 0.0368048 0.62771
0.408698 0.0406195 0.635584
0.537942 0.0571756 0.623835
0.665339 0.106615 0.61268
0.732189 0.149096 0.635081
0.738994 0.159045 0.645258
0.742458 0.163806 0.648554
0.0192416 0.273213 0.605386
0.0191196 0.25919 0.606394
0.034287 0.23064 0.617517
0.363622 0.172351 0.718318
0.600946 0.171145 0.729
0.746395 0.177646 0.6757
0.782376 0.191516 0.641917
0.77995 0.188037 0.636255
0.778576 0.185962 0.632258
0.0622721 0.516381 0.64268
0.0595712 0.511116 0.640421
0.059144 0.499428 0.643061
0.189075 0.498131 0.694545
0.565347 0.496574 0.737377
0.843488 0.484443 0.762493
0.997024 0.459907 0.756481
0.993683 0.440299 0.747753
0.989517 0.430854 0.739132
0.220111 0.758282 0.74136
0.220157 0.759533 0.736187
0.223484 0.75906 0.733013
0.23447 0.758175 0.726436
0.433951 0.775738 0.738308
0.740627 0.75259 0.708827
0.942443 0.745998 0.718746
0.987137 0.736965 0.718288
0.986282 0.730892 0.71191
0.374289 0.91397 0.856306
0.372259 0.914748 0.850156
0.370123 0.914534 0.843732
0.367269 0.914702 0.830625
0.372946 0.923156 0.805737
0.624186 0.972137 0.759045
0.890654 0.930861 0.694545
1 0.927459 0.714702
1 0.922545 0.712413
0.450385 0.972396 0.913451
0.444434 0.971923 0.906493
0.437766 0.969512 0.899275
0.424994 0.963729 0.884001
0.410666 0.961715 0.851896
0.549599 0.998932 0.803525
0.833524 0.998932 0.721447
0.995987 0.997787 0.695033
1 0.997421 0.762097
0.459007 0.97641 0.919112
0.453834 0.975494 0.914321
0.446754 0.97351 0.907118
0.432609 0.968185 0.891508
0.416815 0.965667 0.859144
0.510826 0.998932 0.799054
0.803723 0.998932 0.712642
0.976349 0.998032 0.668223
1 0.998932 0.754971
0.312963 0.0543832 0.660533
0.342458 0.0556191 0.663981
0.392126 0.0589151 0.667384
0.465476 0.0662394 0.666606
0.549081 0.0809644 0.664164
0.655848 0.128496 0.690028
0.71165 0.159747 0.713787
0.720165 0.176226 0.729076
0.72369 0.184649 0.734737
0.270741 0.0516518 0.652049
0.310369 0.0535134 0.659434
0.368521 0.0568856 0.665827
0.450828 0.0641642 0.666728
0.540963 0.0784466 0.662684
0.652064 0.127855 0.688792
0.711299 0.157641 0.709697
0.719051 0.17377 0.723644
0.722301 0.182132 0.72871
0.144427 0.0480201 0.615564
0.222248 0.0483406 0.638926
0.311101 0.0527504 0.658763
0.420401 0.0602579 0.666377
0.525826 0.0745861 0.661326
0.645762 0.127214 0.687358
0.71487 0.159609 0.706371
0.720333 0.170092 0.717098
0.72285 0.176699 0.720958
0.0821546 0.201862 0.666697
0.0885786 0.179873 0.663325
0.102434 0.131456 0.651164
0.334752 0.0636759 0.674662
0.499413 0.0784009 0.675868
0.636576 0.129961 0.690303
0.721584 0.162493 0.696498
0.732586 0.177737 0.708507
0.735958 0.182712 0.711513
0.116487 0.476417 0.731365
0.11516 0.46949 0.730465
0.117433 0.454505 0.733944
0.21593 0.440513 0.796384
0.587716 0.407935 0.882445
0.820081 0.412802 0.907744
0.942153 0.397589 0.897276
0.932784 0.379553 0.882918
0.929076 0.372686 0.873381
0.216083 0.712673 0.789548
0.212345 0.710033 0.785275
0.210132 0.70396 0.785931
0.237415 0.705791 0.813107
0.425269 0.713726 0.856535
0.746258 0.701122 0.861234
0.94464 0.695354 0.88658
0.990616 0.683436 0.885969
0.989914 0.676371 0.881071
0.383062 0.900816 0.888151
0.381033 0.901686 0.882673
0.380682 0.900755 0.879927
0.382528 0.899443 0.875257
0.403952 0.902663 0.872282
0.670665 0.903471 0.873899
0.868193 0.892439 0.850584
0.987182 0.888685 0.863447
0.988785 0.884611 0.858183
0.517281 0.986374 0.961318
0.512108 0.987411 0.956725
0.508202 0.987259 0.95375
0.500389 0.986572 0.947402
0.478386 0.981369 0.929183
0.621134 0.998932 0.937285
0.819913 0.998932 0.895384
0.977523 0.986862 0.857969
1 0.985565 0.864912
0.527886 0.988144 0.967163
0.522469 0.989105 0.96257
0.518105 0.988785 0.959121
0.508766 0.987854 0.952117
0.488441 0.985931 0.935256
0.588006 0.998932 0.93373
0.79411 0.998932 0.899611
0.95314 0.994736 0.849088
1 0.995514 0.855924
0.363348 0.0667124 0.679667
0.386435 0.0687114 0.682368
0.425299 0.0724498 0.685695
0.487495 0.0800031 0.688792
0.567697 0.0953841 0.693736
0.663447 0.139071 0.719875
0.733455 0.204883 0.763989
0.738247 0.211551 0.768734
0.741726 0.215808 0.772152
0.334066 0.064271 0.675105
0.362341 0.0665904 0.679423
0.406149 0.0705119 0.684199
0.474037 0.0781872 0.688289
0.559106 0.0931563 0.692897
0.660029 0.140261 0.720714
0.73492 0.206882 0.765423
0.740475 0.21416 0.770886
0.742611 0.218769 0.772412
0.258732 0.0583352 0.658167
0.305241 0.0619059 0.669367
0.361013 0.0661784 0.678706
0.447288 0.0747845 0.686687
0.542321 0.0887617 0.690715
0.653834 0.142397 0.722438
0.737316 0.21001 0.768215
0.743755 0.218387 0.774578
0.747219 0.223255 0.777264
0.165331 0.139818 0.685634
0.170886 0.109789 0.670329
0.184695 0.0567941 0.637552
0.369268 0.0664225 0.678981
0.50161 0.0817273 0.687617
0.641428 0.147784 0.726955
0.739696 0.211185 0.766461
0.749508 0.224628 0.778592
0.75462 0.231296 0.784146
0.174289 0.449561 0.79205
0.175006 0.440223 0.791989
0.179797 0.421668 0.794308
0.282963 0.390555 0.85359
0.622889 0.356664 0.92987
0.813519 0.363088 0.938811
0.893523 0.370047 0.924025
0.88452 0.360113 0.915145
0.880262 0.353948 0.907286
0.264637 0.702205 0.862364
0.262898 0.698192 0.861036
0.262867 0.689784 0.862699
0.281117 0.676158 0.877394
0.446082 0.677302 0.932021
0.775433 0.6542 0.952422
0.936339 0.658549 0.974945
0.973281 0.646922 0.982208
0.970703 0.639689 0.978042
0.376379 0.876539 0.914794
0.375753 0.876616 0.912993
0.377295 0.875517 0.914427
0.383932 0.873121 0.918547
0.418463 0.869688 0.932067
0.664012 0.867842 0.938308
0.872404 0.863386 0.936538
0.98143 0.860548 0.957122
0.983185 0.855146 0.953994
0.533593 0.983719 0.982254
0.525612 0.984787 0.976867
0.519539 0.983001 0.973922
0.512505 0.979889 0.969024
0.505058 0.973709 0.959487
0.657816 0.984039 0.970016
0.850721 0.970474 0.958312
0.958846 0.967239 0.947707
1 0.963592 0.954208
0.564004 0.992264 0.99144
0.560983 0.993698 0.988144
0.560494 0.994079 0.986404
0.559777 0.994507 0.983291
0.55697 0.994476 0.977142
0.645365 0.998627 0.979446
0.833997 0.994598 0.973312
0.935912 0.995544 0.957137
1 0.99205 0.954025
0.375113 0.0676127 0.680995
0.396597 0.0695506 0.683284
0.432898 0.0733043 0.686259
0.4934 0.0808423 0.689036
0.572503 0.096788 0.694423
0.660822 0.129671 0.713878
0.727489 0.196612 0.758129
0.741558 0.215534 0.771939
0.744259 0.219059 0.774456
0.348226 0.0653544 0.677348
0.37435 0.0675364 0.680842
0.414588 0.0714427 0.685008
0.480095 0.0789807 0.688487
0.563729 0.0943923 0.69337
0.657359 0.131594 0.715068
0.728695 0.198413 0.759304
0.743038 0.217502 0.773373
0.745769 0.221576 0.775525
0.282322 0.0601358 0.664256
0.322683 0.0632334 0.672816
0.374044 0.0675059 0.680797
0.454582 0.075761 0.687419
0.546929 0.0898909 0.691402
0.651102 0.134905 0.716899
0.731716 0.202441 0.762554
0.746029 0.221225 0.776684
0.749294 0.225299 0.779385
0.198398 0.123308 0.689525
0.191302 0.090837 0.666041
0.222232 0.0555581 0.647211
0.385382 0.0686198 0.682261
0.508354 0.0831922 0.689784
0.640238 0.143572 0.724941
0.738552 0.211612 0.769162
0.751583 0.228031 0.782315
0.755871 0.233082 0.786038
0.222019 0.429694 0.830777
0.219928 0.418387 0.82681
0.217517 0.396597 0.820218
0.29099 0.355428 0.849592
0.610788 0.318898 0.914061
0.789014 0.329992 0.915694
0.871794 0.347478 0.902815
0.86041 0.336645 0.891798
0.856352 0.332509 0.887266
0.309148 0.693797 0.906508
0.306264 0.68835 0.904585
0.305135 0.678767 0.905425
0.304372 0.659098 0.904631
0.443976 0.654261 0.933684
0.780865 0.629816 0.960098
0.937819 0.634424 0.983185
0.968414 0.625849 0.98912
0.967025 0.617319 0.988418
0.431342 0.876326 0.9579
0.427451 0.874067 0.955779
0.425193 0.869429 0.955261
0.431571 0.861494 0.956619
0.463203 0.849042 0.958846
0.666499 0.849027 0.957076
0.883223 0.843091 0.962692
0.975479 0.844907 0.98352
0.975235 0.839704 0.982651
0.565026 0.978805 0.994095
0.55993 0.978561 0.991226
0.556863 0.976013 0.989761
0.552605 0.970855 0.987823
0.549081 0.961456 0.984497
0.662028 0.96585 0.989303
0.847333 0.957 0.982788
0.960754 0.954376 0.983963
0.992844 0.952728 0.992325
0.59556 0.992279 1
0.593271 0.99382 0.999008
0.594736 0.994079 0.999023
0.598032 0.994461 0.999359
0.59762 0.995163 0.998642
0.664805 0.998444 1
0.845396 0.995209 0.994965
0.951003 0.992981 0.991699
0.998672 0.993896 0.992691
