bundles/resolve-cinematic-luts/Phantom Luts/P4k & P6k Phntm Arri LUTs - V6/P6k/Gen 4 Colour/P6k Utopia Gen4-Legacy.cube
TITLE "Generated by Resolve"
LUT_3D_SIZE 5
0.0121004 0.0376135 0.046952
0.156527 0.0362402 0.0547494
0.506691 0.0404822 0.0838026
0.830198 0.13167 0.194461
0.851514 0.147799 0.213962
0 0.182422 0.0575418
0.130022 0.167544 0.037171
0.473671 0.119661 0.0704204
0.816175 0.164965 0.150561
0.825406 0.150881 0.147982
0 0.583658 0.210742
0 0.592493 0.0116274
0.544121 0.554452 0.106691
0.874723 0.565759 0.250217
0.928542 0.567742 0.279088
0.0580758 0.975402 0.53257
0.0667582 0.988296 0.450019
0.427161 0.989746 0.280919
0.916915 0.923629 0.438621
0.99086 0.918547 0.529656
0.0652781 0.984619 0.58938
0.0749828 0.995361 0.520424
0.409354 0.999969 0.356573
0.887709 0.951431 0.470512
0.990097 0.943038 0.579629
0.000244144 0.0457771 0.172534
0.173358 0.0361486 0.173907
0.526375 0.0339055 0.204395
0.850568 0.117922 0.290318
0.865415 0.127733 0.311009
0 0.151385 0.155718
0.117388 0.151537 0.159991
0.532555 0.0914626 0.12163
0.837476 0.139361 0.198077
0.854871 0.150088 0.213352
0 0.540383 0.329213
0 0.561746 0.191791
0.529183 0.541878 0.123491
0.887648 0.540917 0.276478
0.927535 0.539742 0.293889
0.0564279 0.950652 0.586099
0.0486152 0.963363 0.519219
0.360479 0.989914 0.277958
0.908705 0.915785 0.424399
0.989685 0.908278 0.522026
0.0727398 0.975433 0.641032
0.0711833 0.984878 0.586831
0.336477 0.999969 0.371618
0.863905 0.955474 0.467018
0.989136 0.943313 0.582483
0.0371099 0.0565957 0.493538
0.217807 0.0446784 0.475853
0.51899 0.050248 0.463844
0.826062 0.110918 0.498619
0.834012 0.1178 0.521004
0 0.108629 0.418738
0.0600595 0.0575875 0.48835
0.497536 0.0525063 0.444083
0.833555 0.123735 0.462821
0.845273 0.134218 0.481453
0 0.51043 0.489128
0 0.507637 0.486397
0.491981 0.513359 0.508507
0.938689 0.472816 0.474144
0.942123 0.450385 0.459571
0.0747387 0.899992 0.697932
0.0667887 0.898894 0.676402
0.0702983 0.93785 0.504143
0.886122 0.896498 0.441001
0.980591 0.87483 0.529381
0.111986 0.965148 0.762783
0.096437 0.965393 0.73669
0.0838178 0.989563 0.576654
0.756451 0.982727 0.45623
0.9888 0.943786 0.594903
0.201175 0.0692607 0.75259
0.316152 0.0658122 0.745327
0.542397 0.0725414 0.73727
0.791012 0.125383 0.752514
0.803113 0.142306 0.796826
0 0.0856947 0.727932
0.207782 0.0680705 0.746059
0.508217 0.0699474 0.732921
0.789502 0.126177 0.730739
0.803647 0.13753 0.769299
0 0.491691 0.691783
0 0.475624 0.701503
0.490257 0.411719 0.885863
0.896101 0.379202 0.817884
0.890364 0.352148 0.800839
0.160586 0.870298 0.833356
0.167071 0.866743 0.830686
0.247211 0.862135 0.824598
0.827893 0.833585 0.819821
0.964126 0.817441 0.8121
0.337972 0.97879 0.909316
0.329809 0.977966 0.903136
0.294881 0.975677 0.864118
0.67248 0.98378 0.823392
0.973861 0.952987 0.798489
0.290394 0.0750286 0.826596
0.373404 0.0751202 0.82652
0.58053 0.085359 0.81796
0.793576 0.149203 0.824353
0.807828 0.167742 0.838773
0.158434 0.0798505 0.82121
0.292882 0.0747997 0.828519
0.543206 0.0822766 0.82121
0.79321 0.155795 0.822843
0.810651 0.172686 0.841489
0 0.467247 0.837217
0 0.433555 0.840681
0.502907 0.318776 0.93283
0.865797 0.320592 0.890333
0.863432 0.305562 0.889052
0.269123 0.856565 0.953796
0.265629 0.850034 0.954665
0.351781 0.836423 0.955261
0.846403 0.791012 0.965805
0.950545 0.781842 0.955413
0.411383 0.981353 0.971817
0.412482 0.981323 0.973068
0.421164 0.981216 0.973144
0.732341 0.970642 0.968078
0.961776 0.958602 0.957565
