bundles/resolve-cinematic-luts/Phantom Luts/P4k & P6k Phntm Arri LUTs - V6/P6k/Gen 4 Colour/P6k Jamaica Gen4.cube
TITLE "Generated by Resolve"
LUT_3D_SIZE 33
0 0.0250553 0
0 0.0250553 0
0.0112459 0.0249485 0.000320439
0.0460517 0.0251164 0.00442512
0.0883803 0.025391 0.00984207
0.129229 0.0257572 0.0157931
0.168185 0.0263371 0.0221408
0.206882 0.0270237 0.0283513
0.24593 0.0279393 0.0348211
0.285801 0.029099 0.0402686
0.32755 0.0307927 0.045655
0.372213 0.0327916 0.0525673
0.419684 0.0357214 0.0634623
0.468132 0.0397192 0.0758984
0.516411 0.0454261 0.0900282
0.561349 0.053727 0.105013
0.596719 0.0668345 0.12256
0.629664 0.083772 0.142031
0.661128 0.104189 0.162203
0.688594 0.127657 0.183764
0.713237 0.152255 0.206424
0.736355 0.177005 0.229068
0.759243 0.201694 0.251392
0.778897 0.222431 0.270039
0.781949 0.224903 0.273701
0.784695 0.227237 0.276829
0.786892 0.228977 0.2795
0.788586 0.230228 0.281666
0.790143 0.231434 0.283604
0.791455 0.232486 0.285176
0.792615 0.233478 0.286458
0.793652 0.23447 0.287358
0.794278 0.235172 0.287755
0 0.0262303 0.000274662
0 0.0256962 0
0.00231937 0.0251621 0
0.0267643 0.0259251 0.00205997
0.0658274 0.0263676 0.00515755
0.108782 0.0269932 0.0108339
0.149966 0.0276493 0.0171054
0.190372 0.0282444 0.0225834
0.230304 0.0289158 0.0276188
0.271077 0.0296941 0.0319371
0.312993 0.0306096 0.0354009
0.358083 0.0320897 0.0386206
0.405585 0.034638 0.045304
0.453971 0.0390021 0.0547494
0.503746 0.0456245 0.0712444
0.550484 0.0538033 0.0877241
0.588464 0.0656291 0.106462
0.62153 0.0822156 0.127489
0.654795 0.103502 0.149386
0.683345 0.12752 0.172091
0.708644 0.152102 0.195972
0.732036 0.176669 0.219471
0.754879 0.200931 0.242374
0.775448 0.222477 0.262242
0.77995 0.226764 0.266728
0.784192 0.230686 0.271061
0.787671 0.233967 0.274495
0.790066 0.236011 0.277195
0.791501 0.237156 0.27892
0.792752 0.238087 0.280522
0.793729 0.23888 0.281666
0.794385 0.239521 0.282231
0.794949 0.240146 0.282551
0 0.0328527 0.00561532
0 0.0314946 0
0.00357061 0.0289158 0
0.016907 0.0294347 0.000671397
0.0467842 0.0297093 0.00158694
0.0904097 0.0301061 0.00631724
0.134874 0.0299687 0.0130465
0.176532 0.030869 0.0187076
0.218555 0.0310063 0.0223239
0.260777 0.0306554 0.0250706
0.303838 0.0312352 0.0286564
0.348135 0.0321508 0.0320745
0.395392 0.0338598 0.0353704
0.4421 0.0354772 0.0392767
0.488807 0.0385138 0.0463569
0.536126 0.0462348 0.0653697
0.574533 0.0582589 0.0875563
0.609018 0.0733501 0.109163
0.64152 0.0923934 0.131533
0.670237 0.116686 0.15552
0.695476 0.141924 0.179599
0.719371 0.167056 0.204028
0.742977 0.191882 0.227802
0.764446 0.213993 0.248753
0.768505 0.217823 0.252918
0.772473 0.221546 0.256977
0.77586 0.22472 0.260441
0.779416 0.228122 0.263966
0.782467 0.231052 0.266957
0.784833 0.233341 0.269169
0.78703 0.235538 0.271168
0.788785 0.237369 0.272633
0.7897 0.238483 0.273136
0 0.0614328 0.0204166
0 0.0606394 0.00157168
0.00502022 0.0561227 0.00030518
0.02916 0.0525368 0.000534066
0.0554208 0.0543069 0.00222782
0.0927749 0.0519417 0.00677501
0.134188 0.0466621 0.00807202
0.174884 0.042649 0.00991836
0.215061 0.0374914 0.0106355
0.255283 0.0341955 0.0129702
0.29572 0.0334478 0.0190127
0.338308 0.0340276 0.025391
0.385733 0.0355077 0.0296941
0.434195 0.0365301 0.0348669
0.482353 0.0401617 0.0442817
0.52755 0.0452735 0.0552987
0.563363 0.0542916 0.070985
0.596048 0.0670024 0.0894789
0.630076 0.0857862 0.114519
0.659266 0.109377 0.140124
0.685267 0.135363 0.165255
0.709865 0.161151 0.190494
0.733959 0.186191 0.215137
0.75668 0.209277 0.237583
0.761685 0.214145 0.242618
0.764874 0.217121 0.24593
0.768032 0.220005 0.249302
0.770825 0.222599 0.252201
0.773053 0.224659 0.254536
0.775021 0.22652 0.256474
0.776791 0.228275 0.258137
0.778271 0.229923 0.259312
0.779293 0.231083 0.260029
0 0.100343 0.0349889
0 0.101228 0.00885023
0 0.0963302 0.000701915
0.0197299 0.0900435 0
0.060441 0.0863661 0.00161746
0.0965591 0.088014 0.00393683
0.133837 0.0870222 0.00723278
0.176608 0.0757 0.0132906
0.217411 0.0649119 0.0161288
0.256016 0.0599374 0.0171054
0.295705 0.0542916 0.0182803
0.336248 0.0504768 0.0192721
0.379858 0.0468147 0.0224765
0.425437 0.0442054 0.027985
0.473106 0.0417945 0.0347448
0.5196 0.045655 0.0481422
0.559319 0.0548257 0.0649729
0.592737 0.0681163 0.0852216
0.622248 0.0826123 0.102617
0.647486 0.102464 0.122774
0.673396 0.12781 0.148821
0.699275 0.15465 0.175677
0.724163 0.180133 0.201343
0.747753 0.203845 0.224781
0.755383 0.211246 0.232486
0.758862 0.214588 0.236072
0.762081 0.217563 0.23946
0.764614 0.219959 0.242115
0.767071 0.222263 0.244663
0.769162 0.224262 0.246754
0.770764 0.225879 0.248249
0.772045 0.227298 0.249287
0.772915 0.228351 0.249851
0 0.14284 0.047776
0 0.145571 0.0161746
0 0.142733 0.00172427
0.00427253 0.13727 0.000289921
0.0403143 0.132418 0
0.0955215 0.127169 0.00244144
0.135668 0.126833 0.00477607
0.172137 0.128237 0.00547799
0.21677 0.117525 0.0124056
0.2589 0.101991 0.0178531
0.300938 0.083238 0.0238804
0.340383 0.0769665 0.0258793
0.382025 0.071519 0.0290532
0.425269 0.0687724 0.032578
0.470451 0.0666667 0.0384985
0.514107 0.0662699 0.0465858
0.557595 0.0684672 0.061677
0.590738 0.0763867 0.0820172
0.623194 0.0893263 0.102495
0.652247 0.111009 0.125017
0.676463 0.134356 0.147402
0.699611 0.159121 0.170413
0.722972 0.184009 0.194018
0.746654 0.207523 0.218418
0.757153 0.217731 0.229053
0.759686 0.219959 0.231846
0.762112 0.222095 0.234485
0.764233 0.224048 0.236744
0.766125 0.225711 0.238819
0.767651 0.227161 0.24036
0.76875 0.228244 0.241413
0.769757 0.229389 0.242206
0.770428 0.230243 0.242618
0 0.183185 0.0636606
0 0.187121 0.0275425
0 0.186221 0.00115969
0 0.181857 0.00172427
0.0164187 0.176532 0
0.0666972 0.171969 0
0.132174 0.165408 0.00317388
0.173541 0.163958 0.00537118
0.211444 0.163912 0.00631724
0.253483 0.159167 0.00648508
0.301747 0.14136 0.0187076
0.346319 0.123262 0.0280766
0.389532 0.108751 0.0355077
0.431067 0.104158 0.0400397
0.474815 0.100984 0.046128
0.5178 0.101289 0.0544289
0.559564 0.10399 0.0664988
0.59913 0.110689 0.0827344
0.632532 0.120287 0.102068
0.660471 0.130968 0.124956
0.681285 0.143969 0.147097
0.702205 0.163684 0.169955
0.725231 0.187915 0.193683
0.747753 0.211307 0.216358
0.760555 0.224872 0.228367
0.762051 0.227314 0.228824
0.763622 0.22948 0.229755
0.76553 0.231312 0.231662
0.767636 0.233112 0.233967
0.769436 0.234699 0.235889
0.770901 0.236042 0.2374
0.772061 0.237156 0.238514
0.772595 0.237751 0.238956
0 0.222171 0.0841077
0 0.226566 0.0483101
0 0.227771 0.00737011
0 0.224735 0.000732433
0 0.220462 0.00205997
0.0365759 0.216358 0
0.0991836 0.210559 0
0.167636 0.202655 0.00340276
0.210559 0.200412 0.00595102
0.250324 0.199298 0.00743114
0.292805 0.197803 0.0081178
0.345693 0.180453 0.0200351
0.393622 0.163653 0.0326696
0.439017 0.147295 0.0452277
0.481971 0.142031 0.0532235
0.525277 0.141375 0.0624857
0.568215 0.143984 0.0745556
0.608652 0.149203 0.090074
0.645655 0.157153 0.109133
0.675166 0.167193 0.128496
0.698894 0.179477 0.149706
0.719051 0.193942 0.172412
0.737774 0.209903 0.195163
0.756344 0.224918 0.218875
0.768658 0.235767 0.233265
0.768795 0.235966 0.233341
0.770367 0.238071 0.234272
0.771527 0.23978 0.234836
0.772808 0.241489 0.235584
0.773861 0.242969 0.236164
0.774578 0.244205 0.236301
0.773877 0.245945 0.233265
0.77438 0.246647 0.233478
0 0.261601 0.104555
0 0.266072 0.0726177
0 0.269444 0.028336
0 0.268177 0.00192264
0 0.265507 0.00466926
0.00384527 0.260929 0.00328069
0.062974 0.256168 0
0.132082 0.248676 0
0.204105 0.24033 0.00427253
0.248997 0.237949 0.00657664
0.290517 0.23563 0.0080415
0.335454 0.23357 0.00917067
0.390143 0.220676 0.0204013
0.442496 0.205142 0.0375525
0.489464 0.192752 0.05449
0.535073 0.184237 0.0699931
0.577203 0.18584 0.082826
0.619242 0.190417 0.0989853
0.657618 0.197467 0.117052
0.690593 0.206287 0.136645
0.717784 0.217258 0.158206
0.740032 0.230716 0.180514
0.758892 0.244587 0.202594
0.77673 0.258885 0.224674
0.791348 0.270893 0.242527
0.789609 0.268299 0.241688
0.788388 0.266346 0.241245
0.787182 0.26453 0.240711
0.785992 0.262821 0.240055
0.784939 0.261295 0.239536
0.784054 0.26006 0.239002
0.783078 0.258869 0.238254
0.782605 0.258427 0.237781
0 0.302159 0.125597
0 0.306584 0.097673
0 0.310735 0.0576028
0 0.311788 0.016144
0 0.309773 0.00260929
0 0.306889 0.00709545
0.0205386 0.302876 0.0039826
0.0897993 0.297948 0
0.165667 0.28867 0
0.241917 0.279744 0.00538643
0.289052 0.277104 0.00695811
0.333104 0.273823 0.00852979
0.381247 0.271763 0.0116121
0.435447 0.263859 0.0204776
0.493462 0.249561 0.0445258
0.542489 0.240574 0.0677195
0.58735 0.235157 0.0890822
0.629541 0.235416 0.108248
0.669352 0.241443 0.126177
0.705196 0.249195 0.14583
0.735119 0.258747 0.166949
0.760159 0.269917 0.189654
0.781018 0.282383 0.212329
0.799176 0.295521 0.233738
0.815305 0.308049 0.253239
0.81503 0.306859 0.253864
0.813748 0.304799 0.253285
0.812329 0.302632 0.252613
0.811063 0.300664 0.252003
0.809781 0.298924 0.251179
0.808698 0.297429 0.250523
0.807904 0.296483 0.249866
0.807233 0.295689 0.249302
0 0.344717 0.148241
0 0.349355 0.123415
0 0.353552 0.0894789
0 0.356268 0.0495003
0 0.355261 0.0153048
0 0.353368 0.00842298
0 0.350362 0.0105287
0.0453193 0.347723 0.00537118
0.119249 0.342092 0
0.200793 0.330419 0.000854505
0.281727 0.320882 0.00654612
0.332097 0.318288 0.00936904
0.379034 0.315511 0.0114137
0.430121 0.313619 0.0152743
0.484215 0.310124 0.0232395
0.544961 0.297536 0.0585489
0.595636 0.291447 0.0866712
0.639979 0.289433 0.112154
0.681575 0.288838 0.135485
0.718395 0.294301 0.155871
0.751369 0.30277 0.177172
0.778836 0.31284 0.199176
0.802136 0.323995 0.221775
0.822644 0.336309 0.24445
0.839963 0.348547 0.264469
0.842206 0.349233 0.267826
0.840818 0.34699 0.267109
0.839536 0.34493 0.266423
0.838605 0.343343 0.266026
0.83743 0.34168 0.265263
0.836606 0.340597 0.264683
0.835599 0.339422 0.263813
0.834714 0.338476 0.263005
0 0.390295 0.173083
0 0.3944 0.151324
0 0.398657 0.122057
0 0.401846 0.0874647
0 0.403174 0.0499123
0 0.401328 0.0196841
0 0.400031 0.0165408
0.00572213 0.397818 0.014847
0.0738231 0.3953 0.00756847
0.152483 0.388296 0.00198367
0.239597 0.37467 0.0028687
0.325521 0.365087 0.0121614
0.378073 0.363378 0.0205539
0.428321 0.361151 0.0170443
0.481178 0.35935 0.0194705
0.534432 0.358846 0.034226
0.596811 0.35021 0.0777142
0.649317 0.346197 0.11107
0.692393 0.347219 0.137514
0.732036 0.349416 0.163165
0.765957 0.353216 0.186572
0.796429 0.360632 0.209781
0.822644 0.370962 0.232502
0.844984 0.382193 0.254566
0.863935 0.393484 0.275227
0.86923 0.395819 0.281697
0.868009 0.393698 0.28101
0.867216 0.391989 0.280735
0.866331 0.390372 0.280293
0.865446 0.388922 0.279744
0.864485 0.38761 0.279011
0.863569 0.386526 0.278233
0.862669 0.385657 0.277363
0.00015259 0.438361 0.201068
0 0.442222 0.181674
0 0.446357 0.156771
0 0.449775 0.127398
0 0.452628 0.0932479
0 0.451911 0.0564584
0 0.449317 0.0272068
0 0.447181 0.0244144
0.0307317 0.446616 0.0200046
0.109529 0.445014 0.0112306
0.19173 0.437247 0.00534066
0.284016 0.422568 0.00642405
0.37261 0.413138 0.0224308
0.427146 0.411734 0.0373236
0.480323 0.410452 0.0254826
0.534112 0.410254 0.0297856
0.586496 0.411597 0.0569924
0.648554 0.407034 0.102449
0.701122 0.405051 0.139055
0.742885 0.407645 0.166735
0.779965 0.412406 0.193256
0.811872 0.418524 0.217411
0.840116 0.42504 0.241413
0.864897 0.431281 0.265232
0.885191 0.441077 0.285588
0.894118 0.445319 0.295232
0.893523 0.443763 0.294972
0.89279 0.442283 0.294499
0.892027 0.440894 0.293996
0.891295 0.43949 0.293492
0.890578 0.4383 0.292958
0.889754 0.437385 0.292195
0.88893 0.436622 0.291371
0.00610361 0.489494 0.2336
0.00523384 0.492851 0.216663
0.00445563 0.496574 0.195407
0.00433356 0.500267 0.171115
0.00466926 0.503014 0.141711
0.0055848 0.504173 0.107439
0.00709545 0.502022 0.0693065
0.00886549 0.499138 0.0393378
0.00888075 0.496971 0.0366979
0.0679484 0.500343 0.0278782
0.15259 0.499107 0.0172885
0.236057 0.489586 0.011017
0.332296 0.473823 0.0157473
0.423239 0.465187 0.0404974
0.479683 0.464637 0.0601816
0.534569 0.465034 0.051133
0.587808 0.46595 0.0601663
0.639414 0.468376 0.0887007
0.69894 0.466697 0.132616
0.750866 0.46508 0.172168
0.791516 0.468894 0.200763
0.825071 0.474098 0.226322
0.854841 0.480186 0.250767
0.879683 0.486961 0.272572
0.902174 0.493477 0.29456
0.915892 0.497475 0.308949
0.915404 0.496056 0.308644
0.9149 0.494484 0.308339
0.914305 0.492851 0.307927
0.913787 0.491417 0.307561
0.913329 0.490135 0.307256
0.912779 0.48925 0.306798
0.912123 0.488701 0.306142
0.0159152 0.542748 0.271626
0.0155184 0.545815 0.256794
0.0153811 0.549416 0.239307
0.0154574 0.552468 0.218662
0.0161746 0.555337 0.194369
0.0176699 0.557595 0.164141
0.0199283 0.557305 0.129442
0.0229496 0.553597 0.0897841
0.0262913 0.549966 0.0596933
0.0433661 0.550317 0.0525063
0.117281 0.556069 0.0394751
0.203662 0.554421 0.0272984
0.287343 0.543816 0.0235447
0.387823 0.529046 0.0379187
0.479118 0.520989 0.0660258
0.535988 0.521508 0.0899825
0.589807 0.522271 0.0838331
0.642557 0.524498 0.0989242
0.692256 0.527413 0.129412
0.747494 0.527565 0.16875
0.798032 0.526436 0.209216
0.835492 0.529549 0.237583
0.866133 0.535241 0.261219
0.893111 0.541085 0.284611
0.915358 0.548318 0.304906
0.933303 0.554818 0.322698
0.933272 0.553338 0.322698
0.932723 0.551827 0.322164
0.932311 0.550286 0.321752
0.93196 0.548974 0.32137
0.931884 0.548089 0.321294
0.931517 0.547539 0.320912
0.9308 0.546731 0.320195
0.0317235 0.596918 0.31548
0.031632 0.599817 0.302937
0.0317998 0.602502 0.287877
0.0323796 0.605097 0.270512
0.0333257 0.607492 0.250324
0.0352026 0.609705 0.225147
0.0385748 0.611505 0.194125
0.0420844 0.609247 0.160128
0.0478218 0.604334 0.119738
0.0539254 0.599359 0.0894789
0.0988785 0.606043 0.0723583
0.17792 0.61236 0.0551461
0.262074 0.61117 0.0497597
0.346761 0.600717 0.0531777
0.448707 0.585824 0.0679179
0.537301 0.57847 0.0973373
0.592447 0.5794 0.123934
0.645487 0.581048 0.12253
0.696681 0.584161 0.145251
0.744198 0.58703 0.176501
0.793164 0.587579 0.211658
0.84036 0.586557 0.249027
0.875135 0.589624 0.277104
0.9028 0.595407 0.299565
0.926452 0.601236 0.32018
0.944671 0.607569 0.337438
0.948623 0.608423 0.341222
0.948272 0.607141 0.340703
0.947951 0.605905 0.3402
0.947784 0.605264 0.339879
0.947524 0.604242 0.339467
0.947036 0.603464 0.338888
0.946303 0.602808 0.338125
0.0543679 0.649424 0.363882
0.054612 0.651682 0.352941
0.0548714 0.653788 0.339956
0.0558175 0.655955 0.325765
0.0572366 0.658091 0.308995
0.0597848 0.660517 0.288579
0.063508 0.662257 0.262211
0.068452 0.662104 0.23151
0.0738079 0.658396 0.197147
0.0823377 0.651987 0.156741
0.102571 0.649287 0.122591
0.164675 0.661784 0.0998093
0.243809 0.670451 0.0899977
0.324819 0.668711 0.0867628
0.411215 0.65658 0.089601
0.513298 0.642039 0.103593
0.596033 0.636271 0.134707
0.649348 0.637583 0.163531
0.69987 0.639429 0.166735
0.747417 0.642649 0.196063
0.791745 0.645411 0.226444
0.835599 0.645823 0.259251
0.878477 0.645304 0.293187
0.909682 0.648035 0.318486
0.933806 0.652399 0.338918
0.953597 0.657404 0.356909
0.962234 0.659739 0.365103
0.96199 0.658625 0.364553
0.961822 0.658 0.364187
0.961486 0.657115 0.363561
0.961303 0.65626 0.363119
0.960861 0.655604 0.362493
0.960113 0.655039 0.361654
0.0848402 0.698253 0.415091
0.0850538 0.699947 0.405554
0.0861067 0.702022 0.394812
0.0873579 0.703944 0.383169
0.0891585 0.706081 0.369879
0.0914321 0.707958 0.352499
0.0951858 0.709667 0.330617
0.100877 0.710826 0.303532
0.106355 0.708812 0.273396
0.113252 0.703777 0.237858
0.1243 0.696498 0.198322
0.167452 0.703975 0.162142
0.233707 0.719631 0.144198
0.312566 0.727916 0.134936
0.391287 0.724437 0.129992
0.480171 0.710765 0.13228
0.579232 0.697261 0.146822
0.654032 0.692409 0.178119
0.704036 0.693782 0.207706
0.750546 0.695567 0.217258
0.794446 0.69897 0.249439
0.834363 0.701686 0.277806
0.873503 0.702113 0.307958
0.911543 0.700389 0.339757
0.938354 0.703197 0.361028
0.958923 0.70753 0.378378
0.971786 0.711116 0.390829
0.971817 0.710216 0.390478
0.971725 0.709316 0.390021
0.971603 0.708522 0.389563
0.971511 0.707729 0.389166
0.97113 0.707149 0.388632
0.970474 0.707012 0.387991
0.12401 0.744137 0.468162
0.124132 0.745174 0.460197
0.124788 0.746532 0.451011
0.126238 0.748348 0.44155
0.127703 0.749889 0.430396
0.129778 0.751507 0.416266
0.13286 0.753124 0.398001
0.137484 0.754467 0.375021
0.14403 0.755032 0.347829
0.149493 0.751888 0.316686
0.157488 0.746288 0.279484
0.184207 0.746868 0.237079
0.238041 0.760891 0.208087
0.306477 0.776577 0.193591
0.384192 0.782971 0.184421
0.460822 0.777264 0.178149
0.550088 0.761501 0.179431
0.643534 0.749523 0.195026
0.708949 0.74548 0.224903
0.754925 0.747005 0.253712
0.797665 0.749142 0.272618
0.836881 0.751888 0.303456
0.871809 0.753918 0.329137
0.905516 0.754162 0.355962
0.938811 0.751858 0.386435
0.961227 0.754452 0.40734
0.976669 0.758923 0.42182
0.979065 0.759014 0.422782
0.978882 0.758236 0.421561
0.978744 0.757534 0.420798
0.978714 0.756939 0.420523
0.978531 0.756771 0.420386
0.978149 0.756512 0.419898
0.17171 0.790249 0.520134
0.172305 0.791394 0.513603
0.17261 0.792142 0.505638
0.173007 0.792828 0.49723
0.173602 0.7935 0.487877
0.174533 0.794186 0.476265
0.176074 0.794888 0.461448
0.178958 0.795773 0.442603
0.183505 0.796445 0.418616
0.188586 0.795499 0.390448
0.196536 0.793545 0.356466
0.212665 0.791745 0.315496
0.251774 0.798657 0.276204
0.311788 0.816861 0.257252
0.381079 0.83122 0.245853
0.455879 0.834257 0.236011
0.531167 0.825284 0.227802
0.616953 0.808515 0.228473
0.703883 0.797971 0.244984
0.759686 0.794995 0.272526
0.800855 0.795895 0.298405
0.838788 0.79765 0.327749
0.873198 0.799725 0.357061
0.903746 0.802045 0.382483
0.932723 0.803174 0.407187
0.960678 0.801389 0.436393
0.978393 0.803525 0.456535
0.985092 0.804913 0.463142
0.984939 0.804257 0.461692
0.984756 0.803815 0.460563
0.984588 0.803479 0.459754
0.984344 0.802945 0.45893
0.98407 0.802548 0.458137
0.220157 0.833478 0.571267
0.220417 0.834211 0.565087
0.220691 0.834852 0.558114
0.221042 0.835447 0.550927
0.221515 0.836103 0.542641
0.222263 0.836744 0.532738
0.223804 0.837812 0.520195
0.22565 0.838499 0.503517
0.228504 0.838956 0.482429
0.232837 0.838987 0.456748
0.23888 0.838178 0.426703
0.249195 0.8365 0.390417
0.278401 0.842145 0.352605
0.325734 0.856138 0.326482
0.38555 0.872648 0.31162
0.454047 0.882628 0.299748
0.52668 0.881025 0.287755
0.601465 0.867918 0.278233
0.681041 0.851102 0.279545
0.754314 0.842557 0.296147
0.804471 0.839292 0.320989
0.841291 0.840009 0.351385
0.875303 0.841962 0.38436
0.906065 0.844038 0.413031
0.93257 0.846265 0.436942
0.956405 0.847822 0.45864
0.979263 0.846448 0.486244
0.99176 0.847456 0.501854
0.991592 0.847105 0.500481
0.991562 0.84683 0.499474
0.991638 0.84625 0.498543
0.991943 0.845685 0.497978
0.992172 0.845258 0.497536
0.265736 0.87248 0.619532
0.265934 0.87306 0.614069
0.266117 0.873655 0.607813
0.266377 0.87425 0.601205
0.266972 0.875044 0.594385
0.267552 0.875776 0.58587
0.268376 0.876554 0.574731
0.269688 0.877394 0.560388
0.271687 0.87808 0.541619
0.274968 0.878767 0.519219
0.280034 0.879118 0.492699
0.287587 0.878538 0.460822
0.311223 0.885176 0.427634
0.348318 0.895933 0.397528
0.398825 0.911131 0.3794
0.458106 0.924361 0.369696
0.526162 0.930571 0.362127
0.594202 0.925521 0.351858
0.665309 0.907942 0.339788
0.737377 0.890639 0.3393
0.799435 0.883131 0.35285
0.845487 0.879805 0.374914
0.88011 0.880629 0.408225
0.910246 0.882109 0.440223
0.936706 0.883513 0.46717
0.959106 0.885359 0.490074
0.978286 0.887297 0.511116
0.997833 0.886824 0.53724
0.999252 0.886671 0.538277
0.998734 0.886503 0.536736
0.99855 0.886183 0.535637
0.998703 0.885695 0.535012
0.998871 0.885267 0.534585
0.308843 0.907332 0.664622
0.308934 0.907897 0.659831
0.309056 0.908492 0.654215
0.309407 0.909224 0.648539
0.309773 0.909926 0.642496
0.310048 0.910567 0.634974
0.310643 0.911421 0.625711
0.311604 0.912428 0.61387
0.313008 0.913405 0.598138
0.315663 0.914717 0.579309
0.319432 0.915724 0.556649
0.326436 0.917006 0.528252
0.345647 0.923888 0.498619
0.377997 0.935225 0.47042
0.420386 0.947158 0.447303
0.47155 0.959823 0.435645
0.530037 0.969345 0.429343
0.59472 0.972015 0.422751
0.657649 0.964385 0.412879
0.721462 0.94432 0.399741
0.786145 0.927779 0.398917
0.839353 0.921447 0.410666
0.881697 0.918151 0.431617
0.913329 0.917708 0.462821
0.93933 0.918654 0.494377
0.96144 0.919615 0.520958
0.979721 0.921767 0.543618
0.995575 0.924163 0.563989
1 0.923629 0.573159
1 0.923644 0.572061
1 0.923506 0.570871
1 0.923217 0.570108
1 0.923018 0.56997
0.349172 0.937423 0.707301
0.349218 0.937972 0.703136
0.349355 0.938598 0.698329
0.349447 0.939193 0.693202
0.349569 0.939788 0.6878
0.349752 0.940459 0.681437
0.350088 0.941268 0.673396
0.350835 0.942397 0.663691
0.352209 0.943893 0.651682
0.35407 0.945373 0.636133
0.356847 0.946792 0.616541
0.364294 0.950271 0.59266
0.381567 0.958419 0.565896
0.409842 0.97023 0.53904
0.443854 0.97995 0.512459
0.486488 0.990234 0.494896
0.539696 0.998932 0.488121
0.597696 0.998932 0.48484
0.658625 0.998932 0.480797
0.718746 0.995621 0.471458
0.774914 0.975113 0.45861
0.830991 0.959869 0.45713
0.876936 0.954284 0.467933
0.914626 0.951171 0.488472
0.943175 0.950027 0.519265
0.964553 0.950607 0.550744
0.981918 0.951476 0.576486
0.996338 0.95288 0.597711
1 0.953201 0.610101
1 0.953262 0.610239
1 0.953399 0.609339
1 0.953323 0.608576
1 0.953063 0.608072
0.379309 0.959258 0.739895
0.379278 0.959701 0.73608
0.379248 0.96022 0.731609
0.379599 0.961089 0.727398
0.379965 0.961975 0.722805
0.380377 0.962905 0.717647
0.380987 0.96405 0.711498
0.381811 0.965423 0.703471
0.38294 0.966964 0.693187
0.384512 0.968673 0.680049
0.388159 0.971557 0.664057
0.396231 0.977081 0.645197
0.413657 0.988251 0.624277
0.438865 0.998932 0.600198
0.468284 0.998932 0.575311
0.503304 0.998932 0.552529
0.550958 0.998932 0.54226
0.605432 0.998932 0.540047
0.662135 0.998932 0.541161
0.718303 0.998932 0.539055
0.772656 0.998932 0.52903
0.824567 0.998932 0.518608
0.873762 0.985489 0.517281
0.913436 0.980896 0.527764
0.94548 0.978271 0.548577
0.968734 0.976349 0.578485
0.984939 0.976043 0.608316
0.998199 0.976471 0.632624
1 0.97615 0.649897
1 0.976303 0.651987
1 0.976364 0.651026
1 0.976318 0.650339
1 0.976181 0.649866
0.388266 0.96556 0.75285
0.388113 0.965896 0.748989
0.388113 0.966415 0.745007
0.388388 0.967224 0.741039
0.388708 0.968093 0.736736
0.389136 0.969055 0.732204
0.389868 0.970382 0.726513
0.390845 0.971939 0.719478
0.392096 0.97377 0.710185
0.393866 0.975875 0.698482
0.397848 0.979461 0.684291
0.405035 0.984939 0.667216
0.424964 0.998932 0.651621
0.45304 0.998932 0.635355
0.484092 0.998932 0.61857
0.517983 0.998932 0.600351
0.560143 0.998932 0.586633
0.613718 0.998932 0.585046
0.667781 0.998932 0.587442
0.720317 0.998932 0.589212
0.770321 0.998932 0.58558
0.819974 0.998932 0.574395
0.868269 0.998932 0.566567
0.913527 0.998932 0.569879
0.94609 0.997696 0.581933
0.971481 0.995315 0.604532
0.988251 0.993194 0.634119
1 0.992813 0.661311
1 0.992065 0.68307
1 0.992081 0.688029
1 0.992187 0.687526
1 0.992218 0.687022
1 0.992172 0.686793
0.388632 0.965103 0.757259
0.388525 0.96556 0.753338
0.388617 0.966171 0.749584
0.388769 0.966873 0.745785
0.388922 0.96759 0.741726
0.389197 0.96849 0.737057
0.389868 0.969802 0.731701
0.390753 0.971359 0.724849
0.391959 0.973266 0.715877
0.393637 0.975433 0.704524
0.39646 0.978286 0.690196
0.402701 0.983276 0.673106
0.42002 0.996323 0.656733
0.447654 0.998932 0.639872
0.47837 0.998932 0.622736
0.514092 0.998932 0.607752
0.557122 0.998932 0.597925
0.609735 0.998932 0.595911
0.663737 0.998932 0.598047
0.716197 0.998932 0.600275
0.764599 0.998932 0.597803
0.813184 0.998932 0.587716
0.860441 0.998932 0.577676
0.906584 0.998932 0.57734
0.941329 0.998917 0.587762
0.968597 0.998901 0.608606
0.987335 0.997314 0.637461
0.999496 0.996017 0.665049
1 0.995254 0.687327
1 0.99498 0.695705
1 0.995026 0.696345
1 0.994904 0.69601
1 0.994583 0.69604
0.388952 0.964706 0.762142
0.388388 0.964675 0.758129
0.388556 0.965408 0.754665
0.388861 0.966323 0.751064
0.388952 0.96701 0.746868
0.389105 0.967819 0.74229
0.389517 0.968963 0.736889
0.390356 0.970565 0.730251
0.39147 0.972503 0.721431
