bundles/resolve-cinematic-luts/Phantom Luts/P4k & P6k Phntm Arri LUTs - V6/P6k/Gen 4 Colour/P6k IceBlue Gen4-Legacy.cube
TITLE "Generated by Resolve"
LUT_3D_SIZE 9
0.0390173 0.0511788 0.0522011
0.0634165 0.0514534 0.0547189
0.151797 0.0535592 0.0602579
0.314885 0.0564431 0.0704051
0.501381 0.0648661 0.0946822
0.635035 0.10164 0.144594
0.747692 0.171252 0.21059
0.759594 0.184466 0.224018
0.767163 0.183932 0.246265
0.04094 0.0741283 0.0661936
0.057496 0.0709239 0.0588693
0.128069 0.0692912 0.0587625
0.280949 0.0571908 0.0569009
0.47718 0.057435 0.0706951
0.61622 0.0902113 0.118578
0.726757 0.152956 0.182834
0.737377 0.164248 0.193668
0.746136 0.165042 0.216342
0.0324865 0.168246 0.0967575
0.0347143 0.169818 0.0599985
0.126558 0.162341 0.0582284
0.290318 0.141985 0.0576028
0.478614 0.122087 0.0730144
0.628717 0.14699 0.112383
0.74052 0.189517 0.182208
0.738109 0.184558 0.18088
0.744854 0.189715 0.192905
0.0236057 0.323369 0.141817
0.0222171 0.331624 0.0901503
0.033875 0.326757 0.0505684
0.271107 0.335485 0.0507515
0.497978 0.339635 0.0616159
0.687984 0.346242 0.152102
0.81593 0.377981 0.23006
0.826947 0.381369 0.237644
0.836133 0.397009 0.24889
0.0323339 0.517708 0.26186
0.0325628 0.52575 0.225223
0.0349432 0.526558 0.147005
0.105165 0.529625 0.0710002
0.490654 0.548852 0.0954452
0.701198 0.565652 0.177417
0.872267 0.582773 0.294514
0.908293 0.593317 0.322484
0.913939 0.610193 0.331258
0.119387 0.712245 0.440574
0.122438 0.720287 0.425544
0.121874 0.723339 0.376913
0.137758 0.714092 0.25771
0.375463 0.746456 0.199695
0.706844 0.770352 0.251545
0.881178 0.784527 0.375586
0.958099 0.794491 0.440742
0.960754 0.811292 0.449592
0.246464 0.861021 0.587015
0.246174 0.862821 0.574426
0.246723 0.862638 0.546304
0.273518 0.870573 0.481697
0.407233 0.890425 0.407126
0.603387 0.901228 0.402853
0.875807 0.923003 0.46714
0.967269 0.932494 0.563928
0.966247 0.932891 0.566949
0.254429 0.866407 0.611551
0.251148 0.866117 0.597086
0.24976 0.865049 0.566903
0.264057 0.868284 0.495445
0.4038 0.892958 0.419318
0.596628 0.901091 0.410803
0.868147 0.921721 0.46865
0.968536 0.932464 0.565667
0.962798 0.933837 0.577035
0.256565 0.867872 0.620462
0.252964 0.86746 0.603357
0.250217 0.865797 0.560967
0.300114 0.878981 0.473991
0.458518 0.896971 0.411109
0.678218 0.905898 0.420996
0.915587 0.92668 0.499641
0.966827 0.933364 0.568795
0.961242 0.934661 0.574914
0.0428473 0.0518654 0.0763561
0.0666514 0.0515908 0.0790265
0.169894 0.0514534 0.0986191
0.338689 0.0517586 0.114778
0.518532 0.0601816 0.136278
0.647715 0.0973983 0.181735
0.757626 0.165866 0.244221
0.765682 0.17261 0.255314
0.771664 0.17351 0.274418
0.0404212 0.066453 0.0704967
0.0505074 0.063798 0.0698863
0.153964 0.0588998 0.0707866
0.31632 0.0560922 0.0792401
0.50901 0.0639506 0.108782
0.643763 0.102693 0.158938
0.752102 0.170916 0.224018
0.763439 0.183368 0.237049
0.769284 0.183368 0.254429
0.0370336 0.154788 0.124895
0.033875 0.159518 0.0972915
0.117876 0.156588 0.0653086
0.306905 0.118257 0.0672313
0.486915 0.102861 0.0754406
0.631281 0.123308 0.122255
0.732372 0.166491 0.182803
0.729397 0.160357 0.181415
0.73901 0.168383 0.196399
0.023621 0.312245 0.17818
0.0230106 0.321752 0.142351
0.0267033 0.322942 0.0615549
0.262882 0.333227 0.056672
0.510018 0.328817 0.0758221
0.692561 0.333242 0.156481
0.816571 0.368002 0.230457
0.822629 0.369039 0.234348
0.833021 0.385016 0.24712
0.0350347 0.512688 0.292866
0.0332494 0.521157 0.265705
0.0332494 0.525536 0.185763
0.0870375 0.529 0.0835584
0.485618 0.548012 0.10132
0.706065 0.562829 0.182788
0.877211 0.579187 0.300511
0.908721 0.588098 0.324208
0.914321 0.604547 0.332952
0.121523 0.709834 0.459953
0.124483 0.718105 0.447974
0.122103 0.721813 0.406424
0.128161 0.714229 0.281239
0.357641 0.746151 0.203922
0.704173 0.769879 0.251225
0.882994 0.783017 0.377417
0.958175 0.792401 0.442527
0.960189 0.80856 0.450507
0.247166 0.861128 0.601267
0.247715 0.863478 0.590219
0.248615 0.864134 0.564584
0.258488 0.866026 0.496239
0.395422 0.888716 0.410636
0.597223 0.901015 0.40209
0.874388 0.922667 0.465309
0.967422 0.932021 0.563333
0.966339 0.932509 0.567971
0.257527 0.86714 0.626001
0.254063 0.866835 0.613108
0.250965 0.86569 0.584146
0.254459 0.865476 0.513085
0.39176 0.892103 0.424903
0.588861 0.901244 0.411795
0.863142 0.921141 0.466743
0.968048 0.932265 0.569406
0.962768 0.933883 0.57821
0.262165 0.867918 0.637415
0.258015 0.867628 0.622614
0.251682 0.866667 0.583093
0.27541 0.872587 0.491417
0.444587 0.896696 0.415641
0.662989 0.904845 0.420462
0.908415 0.926116 0.494881
0.966644 0.933288 0.570596
0.960723 0.934462 0.579843
0.0499275 0.0543374 0.166217
0.090547 0.0531777 0.156512
0.180926 0.052842 0.16585
0.356451 0.0517891 0.183566
0.536706 0.0579995 0.20148
0.661204 0.0927901 0.230762
0.767102 0.159579 0.281849
0.774075 0.16611 0.293217
0.780346 0.167254 0.317586
0.0350195 0.0655528 0.135424
0.0489815 0.0547494 0.15877
0.161913 0.0541543 0.159396
0.351263 0.0539406 0.160754
0.536217 0.0604868 0.178851
0.662379 0.0991226 0.212375
0.765896 0.165621 0.266911
0.772793 0.172122 0.277867
0.778653 0.172213 0.300755
0.0360266 0.148577 0.152605
0.0383307 0.148531 0.153307
0.124956 0.145953 0.160143
0.344518 0.123644 0.146883
0.54258 0.10071 0.139864
0.663828 0.127169 0.174441
0.756893 0.177813 0.225452
0.764736 0.186664 0.23473
0.771374 0.188922 0.251102
0.0296635 0.301732 0.222263
0.0302281 0.306493 0.211429
0.0246128 0.310048 0.156207
0.255528 0.333135 0.099794
0.534874 0.30573 0.126177
0.707454 0.307729 0.176852
0.82739 0.342611 0.247303
0.826474 0.339055 0.246952
0.837949 0.354269 0.263127
0.0391546 0.502052 0.336461
0.0381781 0.509499 0.32221
0.0331426 0.513191 0.270085
0.0528878 0.521981 0.11693
0.469123 0.541787 0.111757
0.715114 0.551141 0.194507
0.885908 0.566598 0.312413
0.910048 0.573022 0.330861
0.915755 0.588373 0.340871
0.122377 0.701366 0.487984
0.125643 0.709529 0.481086
0.122667 0.712947 0.450843
0.116503 0.713008 0.337316
0.317205 0.742535 0.214359
0.693751 0.764889 0.24979
0.883803 0.775418 0.377508
0.957153 0.782788 0.444282
0.959518 0.798306 0.451759
0.252399 0.859693 0.626062
0.254108 0.863951 0.619318
0.25211 0.86537 0.59704
0.248737 0.863523 0.532753
0.365347 0.883833 0.419974
0.578515 0.89984 0.399512
0.867384 0.92108 0.459159
0.967773 0.927977 0.561212
0.966476 0.930419 0.572045
0.265171 0.86807 0.651362
0.261753 0.868116 0.64155
0.257298 0.866712 0.618524
0.251118 0.865171 0.55375
0.360449 0.888975 0.440772
0.5664 0.900649 0.413077
0.848524 0.919615 0.462333
0.966598 0.931945 0.56936
0.962173 0.933745 0.584192
0.272999 0.869596 0.669902
0.268025 0.869886 0.6589
0.259937 0.868101 0.628367
0.252491 0.86595 0.543587
0.406973 0.894499 0.430121
0.626001 0.903288 0.420493
0.887358 0.923949 0.482124
0.965881 0.932921 0.575692
0.958816 0.933898 0.594903
0.0732586 0.0557565 0.318776
0.124941 0.0541238 0.3084
0.212634 0.0526131 0.303883
0.365911 0.0541543 0.303151
0.546258 0.0581979 0.322484
0.681239 0.0932326 0.318624
0.780331 0.152132 0.355306
0.786084 0.158587 0.36733
0.789181 0.158877 0.397696
0.0264134 0.0692607 0.293782
0.0718395 0.0559091 0.321584
0.186069 0.0530404 0.310719
0.360952 0.0551614 0.308812
0.550362 0.0602884 0.316762
0.685786 0.095964 0.315908
0.782513 0.157534 0.349538
0.787991 0.163592 0.360937
0.79147 0.163607 0.391714
0.0259556 0.133181 0.262043
0.0238193 0.125536 0.281376
0.111131 0.0975357 0.347738
0.348486 0.0819257 0.320699
0.549065 0.073518 0.281453
0.675959 0.0979934 0.278706
0.78233 0.16849 0.315755
0.788235 0.174823 0.325933
0.792889 0.175311 0.351034
0.0281834 0.296773 0.280903
0.0295262 0.301518 0.285969
0.0389258 0.301778 0.289937
0.289769 0.318807 0.324804
0.563516 0.292134 0.30634
0.774365 0.272023 0.297368
0.845396 0.298222 0.319997
0.843534 0.293751 0.319554
0.854124 0.303166 0.341878
0.0467536 0.498985 0.395743
0.0489967 0.505928 0.396536
0.0517891 0.505486 0.380819
0.0580758 0.510689 0.316396
0.455817 0.540154 0.251286
0.751369 0.52813 0.281575
0.912062 0.533532 0.351583
0.919814 0.530953 0.359319
0.926177 0.546319 0.372854
0.127718 0.689967 0.534783
0.131762 0.696834 0.534432
0.129412 0.69865 0.518288
0.117678 0.69836 0.456123
0.233783 0.73492 0.267353
0.667018 0.755611 0.25684
0.891569 0.759167 0.384405
0.959854 0.762188 0.445289
0.958114 0.776959 0.460929
0.261036 0.853742 0.665232
0.265476 0.857969 0.662776
0.26041 0.857893 0.646922
0.246967 0.855711 0.598627
0.284459 0.866911 0.462211
0.536141 0.896498 0.397253
0.852018 0.915465 0.44506
0.968032 0.920165 0.553262
0.96405 0.925536 0.579202
0.280491 0.87126 0.69543
0.282155 0.870039 0.689982
0.275517 0.869245 0.673106
0.26273 0.867124 0.628794
0.276204 0.872587 0.495369
0.519142 0.900633 0.419303
0.811246 0.915953 0.454078
0.961517 0.931212 0.566201
0.960586 0.933364 0.599237
0.293278 0.87509 0.722103
0.294118 0.873716 0.716152
0.286168 0.872084 0.696223
0.268589 0.868925 0.642405
0.310872 0.882414 0.486961
0.561486 0.90164 0.425071
0.846723 0.920165 0.467796
0.961395 0.932372 0.571221
0.96025 0.934096 0.595621
0.126619 0.0580301 0.495659
0.183978 0.0560616 0.493263
0.272053 0.0550698 0.486686
0.390219 0.0551308 0.479728
0.544915 0.0648661 0.463905
0.682734 0.0880598 0.455619
0.782574 0.142168 0.464836
0.785428 0.146242 0.479774
0.781964 0.146029 0.511681
0.0554208 0.0627909 0.482826
0.126345 0.0583658 0.503777
0.242603 0.0555734 0.500435
0.382223 0.0554971 0.492454
0.547387 0.0665293 0.472847
0.68957 0.09131 0.458015
0.784482 0.144823 0.468299
0.787839 0.149584 0.482765
0.784039 0.149187 0.516197
0.0215763 0.095552 0.437079
0.022446 0.0832837 0.454566
0.129229 0.0586862 0.504036
0.339071 0.0563058 0.494087
0.535149 0.0670939 0.471443
0.686732 0.0914015 0.440467
0.791959 0.154498 0.442206
0.796567 0.160235 0.455528
0.794965 0.15996 0.48957
0.0213016 0.274128 0.422965
0.0198367 0.272755 0.438148
0.0246128 0.257343 0.46041
0.264988 0.229679 0.563836
0.562234 0.210758 0.537362
0.771435 0.197391 0.476371
0.840009 0.225711 0.454566
0.837552 0.22208 0.452186
0.845182 0.230869 0.486625
0.0498054 0.497993 0.468223
0.0534218 0.506157 0.477882
0.0591287 0.508003 0.481743
0.0942245 0.515221 0.494972
0.481956 0.51426 0.519722
0.764096 0.5019 0.510781
0.960403 0.497658 0.510628
0.958099 0.488182 0.505531
0.960678 0.505348 0.527916
0.156329 0.689967 0.599405
0.164721 0.69749 0.603174
0.169436 0.699214 0.599527
0.170672 0.69601 0.578759
0.280949 0.714809 0.537423
0.637629 0.737346 0.471885
0.910903 0.733257 0.503044
0.969146 0.737163 0.497414
0.961059 0.751644 0.526482
0.277317 0.847517 0.71516
0.286427 0.850584 0.717128
0.284993 0.850141 0.710735
0.271672 0.845823 0.687312
0.248951 0.845182 0.614908
0.477333 0.892607 0.460105
0.833234 0.908232 0.460243
0.968444 0.910872 0.570565
0.962524 0.91574 0.607584
0.322744 0.88716 0.7617
0.328939 0.884153 0.759686
0.322774 0.881117 0.750607
0.306233 0.876707 0.725399
0.276829 0.870878 0.651789
0.43679 0.901091 0.477562
0.74139 0.912016 0.468147
0.955245 0.931456 0.567727
0.960418 0.935149 0.629007
0.368765 0.904891 0.799313
0.376837 0.901122 0.796613
0.365148 0.895705 0.783902
0.336629 0.887922 0.753521
0.304021 0.881483 0.674891
0.498909 0.906966 0.524224
0.784909 0.91783 0.501549
0.956054 0.932174 0.582238
0.960845 0.935576 0.63154
0.212161 0.066865 0.615976
0.25536 0.0660868 0.620508
0.322271 0.0657816 0.622797
0.418158 0.0679637 0.619898
0.530648 0.0754864 0.608713
0.676265 0.103685 0.588891
0.768826 0.142336 0.590753
0.770214 0.147127 0.605814
0.762585 0.149783 0.634592
0.154269 0.0686046 0.607309
0.213657 0.0677348 0.621378
0.299214 0.0666819 0.628855
0.408835 0.068925 0.628229
0.528969 0.0770581 0.618036
0.681834 0.107759 0.598276
0.768292 0.144045 0.599939
0.769314 0.14963 0.616312
0.761227 0.152377 0.644556
0.0396429 0.0860456 0.556008
0.0831159 0.0718853 0.584192
0.215991 0.0677043 0.622019
0.37116 0.0678264 0.629877
0.511498 0.0760815 0.621012
0.677287 0.107256 0.596063
0.774716 0.146532 0.588129
0.776989 0.152575 0.602609
0.771435 0.156786 0.630045
0.0287785 0.217136 0.561715
0.028748 0.21059 0.569253
0.0320439 0.184527 0.578042
0.267308 0.122393 0.677394
0.506783 0.119295 0.670268
0.681422 0.127459 0.618494
0.782605 0.152361 0.574868
0.785306 0.158099 0.588373
0.788281 0.168444 0.610239
0.0638437 0.485008 0.594125
0.0656443 0.490562 0.602106
0.0663157 0.486519 0.609339
0.121324 0.488975 0.664714
0.476509 0.466453 0.781933
0.769207 0.446693 0.754223
0.96527 0.431495 0.716487
0.961166 0.420752 0.709361
0.962402 0.441672 0.742031
0.168215 0.687129 0.663066
0.177981 0.695567 0.670695
0.186252 0.698787 0.674449
0.199741 0.700252 0.678065
0.34493 0.721401 0.710201
0.664179 0.70132 0.712337
0.913222 0.69543 0.711223
0.979034 0.692302 0.712077
0.968109 0.70808 0.730831
0.329137 0.856687 0.779324
0.342763 0.860441 0.784085
0.347097 0.860197 0.78204
0.347982 0.857221 0.773007
0.351568 0.854597 0.749722
0.551736 0.870497 0.739971
0.813489 0.889616 0.691188
0.968246 0.890379 0.715236
0.960937 0.897383 0.74435
0.421271 0.923445 0.845289
0.436286 0.919936 0.845258
0.435294 0.91754 0.840436
0.418204 0.91368 0.826566
0.387182 0.904524 0.792218
0.503731 0.918364 0.756939
0.727443 0.927901 0.68925
0.949432 0.938094 0.692042
0.965576 0.940841 0.728573
0.457496 0.93817 0.879042
0.477699 0.932097 0.876646
0.477455 0.9281 0.869627
0.455024 0.924163 0.854109
0.433707 0.917128 0.821881
0.585016 0.925185 0.805798
0.76968 0.93257 0.74052
0.942107 0.940688 0.717845
0.961898 0.94284 0.728588
0.286351 0.0814984 0.691676
0.312367 0.0819715 0.695186
0.357702 0.0831922 0.69929
0.432395 0.0877089 0.70367
0.532876 0.0977188 0.703212
0.661067 0.125887 0.702571
0.749065 0.166735 0.72256
0.752789 0.179446 0.743969
0.752422 0.189639 0.762737
0.254017 0.0818647 0.688945
0.286915 0.0825666 0.695583
0.340932 0.0837262 0.701671
0.42417 0.0882124 0.707378
0.531762 0.0990616 0.708309
0.667292 0.131655 0.711543
0.750881 0.171969 0.731289
0.753994 0.184878 0.752605
0.753201 0.192691 0.766751
0.151904 0.0818952 0.662806
0.209064 0.0821698 0.680812
0.285069 0.0823529 0.69456
0.392889 0.0861524 0.705638
0.514641 0.0969558 0.708324
0.658732 0.131914 0.714656
0.755627 0.171878 0.724453
0.759747 0.183886 0.742718
0.757534 0.194049 0.763012
0.0569619 0.146548 0.630961
0.0596628 0.132967 0.633249
0.0685435 0.101701 0.631403
0.283879 0.0844587 0.695338
0.466224 0.0937209 0.708598
0.636332 0.132937 0.720394
0.759777 0.16968 0.710063
0.765499 0.178882 0.720653
0.763409 0.188724 0.741329
0.0984512 0.46453 0.701411
0.102846 0.469551 0.709911
0.106172 0.462333 0.718669
0.163149 0.449027 0.773907
0.525765 0.408637 0.935027
0.772992 0.397803 0.92134
0.910124 0.394232 0.877409
0.906905 0.382071 0.864332
0.912474 0.408225 0.891524
0.196048 0.68452 0.756481
0.203586 0.6916 0.763256
0.207141 0.691432 0.768338
0.236347 0.694865 0.791455
0.38706 0.722072 0.883299
0.673274 0.682139 0.924193
0.915297 0.663966 0.90518
0.980911 0.658579 0.891707
0.967773 0.67689 0.897032
0.34963 0.858549 0.835081
0.363088 0.863508 0.839918
0.369085 0.864271 0.841169
0.375174 0.863127 0.841123
0.395239 0.864454 0.845518
0.617975 0.877226 0.872709
0.835187 0.864912 0.873732
0.966964 0.861692 0.873259
0.958206 0.870222 0.884642
0.486519 0.948913 0.905638
0.507546 0.943725 0.904479
0.51281 0.941894 0.902373
0.507103 0.941741 0.898344
0.486046 0.93608 0.884321
0.62237 0.94342 0.896956
0.790631 0.945129 0.903258
0.935576 0.950668 0.87657
0.965621 0.952682 0.892226
0.508919 0.955627 0.929931
0.530098 0.949874 0.926528
0.534127 0.947341 0.921736
0.526619 0.946334 0.914275
0.518822 0.944915 0.903609
0.680217 0.94699 0.916793
0.821317 0.947082 0.920501
0.92488 0.951553 0.892424
0.964233 0.952926 0.886671
0.326986 0.088716 0.719509
0.347692 0.0899825 0.723018
0.384482 0.0919966 0.727001
0.449607 0.0970932 0.731395
0.545205 0.108354 0.732982
0.663874 0.132311 0.730037
0.748592 0.18294 0.757824
0.754788 0.19147 0.76408
0.755993 0.194339 0.766888
0.301305 0.0879072 0.715541
0.325292 0.0889296 0.720165
0.36846 0.0910506 0.725444
0.44123 0.0962997 0.730831
0.543481 0.108324 0.733272
0.669917 0.137118 0.734295
0.750866 0.18587 0.759945
0.75639 0.193896 0.766064
0.7561 0.197208 0.77113
0.232364 0.0863355 0.701213
0.267689 0.0876783 0.710826
0.322835 0.0889906 0.719921
0.41294 0.0940871 0.729351
0.525353 0.105577 0.733028
0.661189 0.138552 0.739513
0.754192 0.187839 0.759579
0.761044 0.196918 0.766201
0.759472 0.200381 0.772366
0.109819 0.124529 0.684337
0.107668 0.112627 0.678767
0.128313 0.0909285 0.673823
0.325338 0.0900435 0.721218
0.477424 0.101686 0.734371
0.63917 0.141421 0.749935
0.758389 0.193591 0.763684
0.766644 0.202945 0.769268
0.765988 0.207614 0.776455
0.13756 0.448341 0.767437
0.144076 0.45275 0.77583
0.152239 0.443473 0.785824
0.207889 0.41529 0.822736
0.532341 0.368231 0.927291
0.761944 0.363592 0.918135
0.88336 0.371984 0.888548
0.881865 0.363729 0.879683
0.890105 0.385473 0.897353
0.262501 0.695186 0.836881
0.270573 0.701762 0.843381
0.276173 0.701656 0.849714
0.292851 0.696849 0.867704
0.40798 0.711009 0.936172
0.710918 0.657557 0.982513
0.924346 0.647364 0.968505
0.973053 0.645045 0.961639
0.959945 0.663996 0.958907
0.393271 0.868376 0.895979
0.409201 0.873137 0.900099
0.418494 0.874159 0.9037
0.4309 0.872999 0.909606
0.465446 0.873564 0.927749
0.646387 0.882078 0.951324
0.843015 0.852995 0.955673
0.961028 0.845151 0.953048
0.954284 0.85507 0.948379
0.527764 0.960754 0.944991
0.552117 0.95555 0.942611
0.556451 0.953826 0.94136
0.542992 0.95227 0.938491
0.519036 0.947967 0.930999
0.652155 0.957961 0.950835
0.82182 0.95259 0.953033
0.941695 0.948028 0.95111
0.966522 0.94873 0.95082
0.538094 0.963333 0.950759
0.563104 0.956832 0.946288
0.570108 0.95552 0.945556
0.569772 0.956817 0.947051
0.567239 0.957855 0.946731
0.696895 0.958892 0.953475
0.847227 0.954314 0.954025
0.934173 0.955276 0.957488
0.963882 0.95581 0.953765
0.3337 0.0889754 0.720348
0.353765 0.0901961 0.723613
0.390051 0.092256 0.727337
0.45594 0.097734 0.731655
0.551888 0.109331 0.732876
0.670924 0.133837 0.729442
0.746456 0.17998 0.755718
0.756008 0.193133 0.765225
0.757107 0.19585 0.768048
0.308782 0.0881971 0.716808
0.331594 0.0891585 0.720989
0.374258 0.0914321 0.726101
0.447425 0.0968185 0.73109
0.549798 0.109041 0.732937
0.676585 0.137469 0.731746
0.748791 0.183124 0.757916
0.757534 0.195453 0.767193
0.756786 0.198306 0.771923
0.241489 0.0865339 0.703304
0.274861 0.087892 0.712306
0.329061 0.0891432 0.720668
0.418433 0.094377 0.729534
0.531716 0.106538 0.733166
0.666636 0.139239 0.738415
0.753246 0.186328 0.758419
0.761868 0.198047 0.76701
0.760479 0.20145 0.772931
0.110033 0.124102 0.684459
0.107713 0.112703 0.678691
0.139696 0.0911116 0.678416
0.330861 0.0902724 0.721996
0.482719 0.102296 0.7346
0.644663 0.143175 0.750286
0.758572 0.193469 0.763378
0.767483 0.203998 0.770077
0.766705 0.208484 0.777157
0.164935 0.452445 0.797284
0.165805 0.456504 0.7991
0.162158 0.445441 0.796139
0.210849 0.41532 0.824735
0.538537 0.3682 0.928237
0.766567 0.365911 0.919112
0.886427 0.372824 0.88661
0.881865 0.363745 0.879667
0.891905 0.388632 0.899062
0.293324 0.705318 0.867674
0.300008 0.71165 0.872312
0.302541 0.710384 0.875654
0.305135 0.70103 0.879149
0.41326 0.712123 0.936614
0.717845 0.657893 0.97969
0.926558 0.649424 0.967376
0.971069 0.647334 0.959121
0.956237 0.66772 0.955154
0.435828 0.879789 0.924025
0.447196 0.881559 0.923079
0.452186 0.881102 0.92343
0.46128 0.877897 0.925948
0.483452 0.874144 0.933745
0.654978 0.880858 0.951095
0.850095 0.850309 0.95433
0.962127 0.843687 0.951415
0.953918 0.854749 0.947845
0.544274 0.95935 0.946975
0.55996 0.955154 0.94435
0.569253 0.952148 0.942504
0.571817 0.951278 0.943038
0.56672 0.949386 0.94403
0.671351 0.955886 0.952895
0.830961 0.951431 0.955352
0.943114 0.945983 0.951766
0.965408 0.944839 0.95053
0.53724 0.963592 0.950835
0.563745 0.956695 0.946197
0.57586 0.953979 0.944366
0.580545 0.953918 0.944762
0.591623 0.954513 0.946242
0.711162 0.955764 0.951812
0.845853 0.954055 0.955093
0.932372 0.955962 0.959167
0.967147 0.955123 0.953506
