bundles/resolve-cinematic-luts/Phantom Luts/P4k & P6k Phntm Arri LUTs - V6/P6k/Gen 4 Colour/P6k Utopia Gen4.cube
TITLE "Generated by Resolve"
LUT_3D_SIZE 9
0 0.0227512 0.0306706
0.0711833 0.016968 0.0339361
0.212879 0.0125734 0.0413977
0.38233 0.018265 0.0596628
0.574746 0.0496529 0.108553
0.745464 0.118425 0.179873
0.868101 0.186023 0.24329
0.875334 0.192126 0.254398
0.885496 0.194369 0.260639
0 0.0931563 0.0392615
0.0454261 0.0818799 0.0193179
0.19147 0.0526589 0.0330205
0.346654 0.0303349 0.0251316
0.537652 0.0359655 0.0496986
0.713726 0.0959793 0.117037
0.848798 0.17055 0.192569
0.86009 0.184115 0.207462
0.872862 0.188632 0.213794
0 0.25304 0.0681621
0 0.250431 0
0.198245 0.229862 0.0230259
0.364202 0.209888 0.034287
0.551659 0.17229 0.0811627
0.721523 0.19733 0.133135
0.858396 0.235615 0.193484
0.86421 0.230488 0.195789
0.86627 0.224292 0.192828
0 0.431739 0.137057
0 0.442863 0.0078584
0.0248264 0.433875 0
0.380072 0.401556 0.0415808
0.56109 0.40267 0.0525063
0.748714 0.400839 0.165988
0.884504 0.417716 0.239017
0.905974 0.419516 0.249836
0.905394 0.417121 0.24799
0 0.641703 0.277668
0 0.655314 0.199634
0.00161746 0.65861 0.0361639
0.234028 0.650355 0
0.602548 0.609308 0.129
0.764889 0.617578 0.191974
0.89749 0.624094 0.285237
0.940139 0.628199 0.312169
0.93959 0.627131 0.31133
0.00161746 0.836316 0.450507
0 0.844938 0.403647
0.00956741 0.861357 0.287572
0.114397 0.861021 0.0806592
0.509865 0.839582 0.135348
0.802502 0.798779 0.252857
0.912306 0.800748 0.381765
0.971054 0.80238 0.442069
0.971527 0.802258 0.438895
0.0756085 0.977615 0.590051
0.0767681 0.982437 0.562692
0.0871443 0.991394 0.504692
0.195285 0.999969 0.380484
0.473259 0.996643 0.326085
0.7523 0.967346 0.402502
0.938796 0.936278 0.484733
0.999161 0.934127 0.586435
0.999405 0.934356 0.585687
0.0880751 0.986084 0.630808
0.0916915 0.989761 0.607294
0.103014 0.996063 0.558968
0.198169 0.999969 0.45481
0.468818 0.999969 0.401831
0.719356 0.999741 0.456962
0.929595 0.969909 0.524712
0.999847 0.964599 0.629801
0.999969 0.964889 0.642298
0.0889143 0.984863 0.648585
0.0873121 0.9888 0.624399
0.0995346 0.994827 0.577859
0.171344 0.999969 0.468482
0.454475 0.999969 0.404364
0.70898 0.999954 0.454688
0.923461 0.970108 0.522118
0.998917 0.96492 0.624369
0.999969 0.965087 0.642863
0 0.0246433 0.0909285
0.0735943 0.0171511 0.0979782
0.221378 0.0104067 0.117037
0.392386 0.00665293 0.134188
0.576562 0.0310521 0.168948
0.7505 0.0962387 0.226459
0.875807 0.164019 0.280385
0.882994 0.172625 0.293446
0.891493 0.177493 0.301717
0 0.0672923 0.0767681
0.028397 0.0591745 0.0682841
0.213825 0.0343633 0.0570687
0.369451 0.0205997 0.0596323
0.568933 0.0480659 0.105562
0.74136 0.116487 0.177554
0.872267 0.18468 0.241749
0.880125 0.191775 0.253422
0.888533 0.194736 0.259998
0 0.226612 0.150713
0 0.234882 0.0621042
0.18912 0.22063 0.0332341
0.380072 0.175113 0.0568551
0.557809 0.148623 0.0838483
0.727352 0.172305 0.133532
0.859358 0.209201 0.195254
0.861372 0.201877 0.194385
0.867613 0.201999 0.196704
0 0.407004 0.210498
0 0.420172 0.132784
0 0.428473 0
0.374228 0.396384 0.0543069
0.56997 0.388159 0.0748455
0.753735 0.382803 0.173068
0.889342 0.403311 0.240711
0.903853 0.402289 0.246891
0.903685 0.399496 0.245228
0 0.623194 0.326253
0 0.633982 0.272114
0 0.654749 0.105867
0.192157 0.652781 0.00531014
0.596887 0.60473 0.137255
0.764828 0.610986 0.19968
0.900679 0.615625 0.293126
0.93962 0.618616 0.313939
0.938811 0.617365 0.311513
0.00205997 0.825254 0.483101
0 0.8318 0.445716
0.00140383 0.847532 0.348913
0.0719615 0.85687 0.109361
0.489296 0.841962 0.144686
0.798383 0.795666 0.258915
0.911513 0.796613 0.381994
0.970077 0.797803 0.44332
0.970108 0.797436 0.44062
0.0742809 0.970092 0.611673
0.0699016 0.975021 0.585061
0.076585 0.983459 0.53138
0.136721 0.998779 0.395575
0.450416 0.996872 0.323674
0.741817 0.967361 0.397177
0.936141 0.9337 0.479347
0.998962 0.931121 0.58294
0.999283 0.931273 0.58233
0.0883345 0.983261 0.652094
0.0894484 0.986313 0.629786
0.0982223 0.992905 0.585687
0.148882 0.999969 0.474769
0.445686 0.999969 0.40531
0.707866 0.999969 0.455802
0.925322 0.970047 0.523583
0.999619 0.964889 0.628367
0.999969 0.965133 0.643198
0.0923476 0.981811 0.668894
0.0923171 0.984649 0.647822
0.0948043 0.991592 0.603357
0.137804 0.999969 0.494606
0.429465 0.999969 0.409079
0.695888 0.999969 0.452995
0.918563 0.970413 0.521035
0.998093 0.965362 0.621836
0.999969 0.965362 0.643793
0 0.0291295 0.231601
0.0949111 0.01944 0.22118
0.224674 0.0127871 0.220706
0.389624 0.00959792 0.234623
0.573892 0.0265507 0.257191
0.750988 0.0829633 0.300954
0.878782 0.152514 0.346136
0.884169 0.162219 0.358297
0.891646 0.166186 0.365927
0 0.0611429 0.177096
0 0.0294041 0.219333
0.201038 0.0182345 0.201572
0.381781 0.0156863 0.192523
0.573846 0.0319524 0.217075
0.749889 0.0928664 0.262821
0.879042 0.161181 0.311345
0.885512 0.171206 0.324132
0.893523 0.17528 0.331914
0 0.213458 0.213001
0 0.209049 0.208988
0.179721 0.21265 0.219501
0.410498 0.176684 0.1897
0.613596 0.134646 0.168566
0.760662 0.156771 0.205234
0.874525 0.194736 0.246754
0.880354 0.197208 0.254795
0.886351 0.199039 0.260121
0 0.388418 0.281178
0 0.388403 0.256825
0 0.408698 0.133516
0.368338 0.394415 0.116579
0.59147 0.361746 0.155566
0.770855 0.352468 0.210864
0.909041 0.373205 0.267826
0.913832 0.367941 0.268772
0.913802 0.364187 0.267201
0 0.598978 0.387152
0 0.603021 0.3552
0 0.62031 0.259312
0.114977 0.653849 0.037705
0.586938 0.596857 0.152163
0.768414 0.596384 0.220279
0.907973 0.59826 0.312367
0.940398 0.59971 0.328984
0.939483 0.597879 0.327733
0.00386053 0.808042 0.527092
0 0.812345 0.500633
0 0.822477 0.43595
0.0290227 0.848737 0.196231
0.446418 0.846098 0.159777
0.791348 0.790234 0.26923
0.910567 0.789014 0.383612
0.967987 0.789136 0.445838
0.967727 0.788281 0.443946
0.0762798 0.957427 0.644434
0.070573 0.961044 0.623423
0.0666514 0.968124 0.576928
0.0873274 0.987884 0.44654
0.403052 0.997345 0.322225
0.72163 0.967834 0.387304
0.931685 0.92929 0.469627
0.998383 0.925551 0.576745
0.998734 0.925338 0.57644
0.0939651 0.978592 0.685145
0.0917372 0.981292 0.666697
0.0918898 0.986847 0.627604
0.113222 0.999023 0.526772
0.397681 0.999969 0.414755
0.685603 0.999969 0.45301
0.917586 0.970611 0.522042
0.998932 0.965515 0.625238
0.999969 0.965515 0.644739
0.0986038 0.977523 0.70013
0.0958877 0.980011 0.682857
0.0955367 0.98497 0.645563
0.110231 0.997986 0.547936
0.377203 0.999969 0.420386
0.67126 0.999969 0.449912
0.909224 0.971222 0.519753
0.996048 0.966171 0.616922
0.999969 0.965866 0.645838
0.024506 0.0327611 0.388464
0.123934 0.0243687 0.374395
0.233875 0.0170901 0.366567
0.396384 0.0146487 0.361868
0.565209 0.0231022 0.380819
0.743038 0.0772106 0.403937
0.867033 0.140764 0.446464
0.870893 0.150347 0.458747
0.87805 0.154467 0.468238
0 0.0614481 0.347936
0.0289158 0.0319524 0.379568
0.197421 0.018967 0.362661
0.382971 0.0181125 0.350332
0.563027 0.0281071 0.360296
0.739498 0.0784009 0.387076
0.873594 0.148943 0.425238
0.879133 0.159548 0.437125
0.885756 0.163546 0.445151
0 0.197147 0.314122
0 0.182284 0.324437
0.148257 0.144152 0.414115
0.400381 0.113619 0.375357
0.586419 0.0864729 0.341894
0.743374 0.0965591 0.344167
0.879286 0.163531 0.37908
0.887022 0.174609 0.389731
0.893874 0.179065 0.397269
0 0.374243 0.360861
0 0.372381 0.359625
0 0.375418 0.362783
0.358312 0.385138 0.385779
0.612543 0.352422 0.356558
0.823056 0.31545 0.333104
0.924361 0.326818 0.349752
0.923781 0.319341 0.347921
0.924361 0.314641 0.347143
0 0.582223 0.462913
0 0.581949 0.451225
0 0.582025 0.422293
0.0476539 0.626841 0.312062
0.570443 0.591379 0.303777
0.787259 0.568765 0.314321
0.933501 0.558419 0.368261
0.948684 0.551751 0.378027
0.948272 0.548028 0.378515
0.0115511 0.785885 0.588769
0.00769055 0.786679 0.575555
0.00364691 0.789227 0.541863
0 0.806897 0.418723
0.348943 0.85565 0.20145
0.779095 0.781247 0.294316
0.912444 0.773007 0.398627
0.964096 0.772015 0.454002
0.963577 0.770077 0.453483
0.0828107 0.937163 0.694224
0.0762036 0.939315 0.679957
0.0721447 0.942245 0.649607
0.0630045 0.954879 0.560784
0.272526 0.997238 0.338964
0.673243 0.970596 0.368277
0.922774 0.920501 0.451514
0.997345 0.914824 0.5673
0.997604 0.913817 0.568063
0.105028 0.972549 0.736217
0.101442 0.974395 0.723278
0.100786 0.977249 0.696132
0.0956283 0.988327 0.622415
0.266697 0.999969 0.449516
0.637354 0.999969 0.448234
0.900008 0.972183 0.520516
0.996582 0.966796 0.619028
0.999969 0.966262 0.647929
0.109789 0.971832 0.74902
0.10721 0.973541 0.7364
0.104585 0.976486 0.710216
0.0999313 0.986206 0.640299
0.233646 0.999969 0.461631
0.618708 0.999969 0.445121
0.88101 0.975677 0.518578
0.989776 0.967987 0.605814
0.999969 0.96672 0.649638
0.0869001 0.0381628 0.548424
0.167697 0.0321202 0.538994
0.273167 0.0260624 0.528328
0.401709 0.0228275 0.518975
0.572076 0.0387121 0.514061
0.717632 0.0529335 0.532815
0.841398 0.127016 0.561624
0.844877 0.134829 0.574945
0.85304 0.137972 0.586343
0 0.0504768 0.53138
0.0855421 0.0377966 0.543343
0.232029 0.0280613 0.5308
0.382208 0.0227512 0.517311
0.566583 0.0411383 0.508995
0.717098 0.055848 0.52285
0.847501 0.134539 0.550195
0.852003 0.144259 0.562829
0.859861 0.147738 0.573297
0 0.136507 0.473594
0 0.100206 0.492088
0.112596 0.0373388 0.542275
0.341527 0.0256809 0.516838
0.555062 0.045304 0.497841
0.714855 0.064683 0.501747
0.853452 0.148333 0.525658
0.859922 0.159762 0.537102
0.867216 0.164446 0.545617
0 0.355398 0.483223
0 0.348211 0.485176
0 0.342382 0.502281
0.334462 0.316991 0.602106
0.607736 0.292378 0.56408
0.802411 0.256504 0.538247
0.904158 0.2598 0.530159
0.902785 0.253513 0.525963
0.903059 0.248951 0.525307
0 0.568536 0.544381
0 0.568246 0.544701
0 0.567422 0.543694
0.129854 0.579385 0.558312
0.54757 0.566781 0.55935
0.787518 0.545312 0.542306
0.948623 0.520974 0.522484
0.951263 0.506477 0.512383
0.950057 0.498711 0.507515
0.0542763 0.773114 0.661601
0.0587625 0.772625 0.656779
0.068513 0.771145 0.644205
0.0786603 0.768704 0.60798
0.324773 0.811963 0.530983
0.748226 0.765515 0.515679
0.910231 0.752697 0.523156
0.964248 0.749126 0.515175
0.963104 0.744381 0.510582
0.104311 0.919066 0.753491
0.0991531 0.91931 0.74728
0.0953841 0.918288 0.733013
0.0857862 0.917906 0.692378
0.0980087 0.950179 0.560113
0.605188 0.979797 0.440848
0.912795 0.913146 0.4878
0.995575 0.902174 0.586099
0.995026 0.898329 0.583612
0.136767 0.9691 0.801083
0.127398 0.969314 0.794095
0.122606 0.970275 0.779553
0.119127 0.973465 0.7402
0.110567 0.992004 0.61828
0.534752 0.999969 0.462715
0.855589 0.981659 0.528801
0.993286 0.970459 0.618021
0.999969 0.968612 0.657984
0.146792 0.970626 0.811231
0.138674 0.970321 0.80415
0.129091 0.970413 0.78941
0.123674 0.97293 0.750744
0.112108 0.989242 0.635309
0.494652 0.999969 0.458015
0.821271 0.989151 0.51957
0.979034 0.970932 0.586938
0.999969 0.968963 0.659129
0.170947 0.046128 0.684245
0.231235 0.0427558 0.678172
0.320439 0.0391394 0.671321
0.438453 0.0373693 0.661509
0.568597 0.0421149 0.65185
0.726543 0.0749676 0.653635
0.814298 0.114473 0.674876
0.818998 0.126268 0.68838
0.830732 0.13048 0.703258
0.0763104 0.0511788 0.681361
0.169314 0.0458076 0.681498
0.282872 0.0402838 0.673487
0.418189 0.0370642 0.661799
0.558297 0.0411688 0.650614
0.724804 0.0776532 0.651682
0.816861 0.116426 0.67042
0.824475 0.129015 0.684977
0.835996 0.132448 0.699641
0 0.108202 0.637705
0 0.0614023 0.660975
0.187335 0.0444648 0.677729
0.373098 0.0372168 0.662181
0.54049 0.0445106 0.651087
0.717403 0.083299 0.643793
0.811795 0.117464 0.658152
0.822263 0.132464 0.672023
0.834516 0.136767 0.685298
0 0.327138 0.597375
0 0.313832 0.605539
0 0.285069 0.633478
0.317876 0.198688 0.75172
0.571283 0.189975 0.723949
0.753826 0.175174 0.677058
0.841825 0.16144 0.654871
0.843961 0.16199 0.651545
0.850004 0.162051 0.657481
0 0.550195 0.663508
0 0.546227 0.665965
0 0.53846 0.669474
0.117189 0.557366 0.708568
0.540413 0.519219 0.767865
0.784024 0.500038 0.731716
0.933761 0.469139 0.714504
0.933974 0.452155 0.708278
0.930938 0.44332 0.705684
0.0692607 0.760128 0.729976
0.074464 0.759503 0.73019
0.087602 0.757443 0.728283
0.113039 0.752453 0.722499
0.392203 0.755367 0.733745
0.723049 0.734325 0.722469
0.909834 0.720928 0.714046
0.961517 0.708354 0.705699
0.960571 0.70341 0.702373
0.18378 0.90782 0.815396
0.184482 0.907118 0.813321
0.190555 0.905043 0.807095
0.20116 0.900923 0.790799
0.253895 0.906294 0.761883
0.584619 0.925414 0.714763
0.883238 0.892485 0.705089
0.981872 0.886397 0.708934
0.981399 0.882643 0.705364
0.270024 0.976181 0.866163
0.260945 0.976181 0.863325
0.248005 0.975753 0.855726
0.218982 0.974899 0.838209
0.196567 0.975586 0.79527
0.469673 0.999969 0.728283
0.80444 0.999512 0.673259
0.989212 0.977127 0.695705
0.999969 0.978149 0.727001
0.287205 0.977249 0.875898
0.280156 0.977005 0.871839
0.26688 0.976745 0.863828
0.236728 0.975906 0.845319
0.20882 0.976059 0.800992
0.41648 0.999939 0.72163
0.768399 0.999969 0.654627
0.962386 0.977081 0.669978
0.999969 0.978424 0.724422
0.259709 0.0538338 0.785885
0.302266 0.052079 0.782986
0.374716 0.0505226 0.779416
0.478584 0.0505074 0.773114
0.59617 0.0567941 0.761624
0.727321 0.0974136 0.764508
0.803677 0.132982 0.777722
0.811215 0.152377 0.799207
0.824689 0.160098 0.820905
0.199252 0.0559854 0.784497
0.257389 0.0534218 0.785046
0.342855 0.0510567 0.780423
0.458381 0.0500649 0.773404
0.585977 0.0548562 0.761715
0.723812 0.0985275 0.765133
0.804089 0.13228 0.773114
0.814252 0.149905 0.79588
0.826047 0.157366 0.81532
0.00856031 0.0648051 0.767651
0.130663 0.05832 0.782712
0.265721 0.0528267 0.781888
0.416449 0.0497292 0.773709
0.564965 0.0527504 0.761715
0.714916 0.101183 0.763684
0.800549 0.134264 0.759243
0.809674 0.149447 0.778225
0.823377 0.15407 0.798276
0 0.257359 0.729122
0 0.231266 0.74316
0 0.168414 0.764248
0.299092 0.0649882 0.789822
0.520989 0.0674449 0.773541
0.70045 0.112779 0.770581
0.802411 0.134905 0.741512
0.815244 0.152895 0.754192
0.827802 0.15555 0.769619
0 0.548501 0.748806
0 0.54374 0.752071
0 0.533227 0.755947
0.0987106 0.529107 0.812696
0.559945 0.459831 0.914382
0.783566 0.446235 0.884718
0.914061 0.42327 0.849683
0.911879 0.40415 0.840238
0.910201 0.398047 0.836576
0.041886 0.744228 0.819394
0.0383917 0.742519 0.822446
0.0417487 0.737789 0.82501
0.128771 0.734218 0.838468
0.392935 0.748409 0.862623
0.723354 0.70425 0.883207
0.90367 0.690974 0.856886
0.94931 0.677134 0.850324
0.947051 0.671443 0.848219
0.202594 0.896803 0.866316
0.203143 0.896147 0.866606
0.209796 0.894148 0.864317
0.224262 0.88954 0.859541
0.291371 0.890547 0.86009
0.629786 0.87921 0.861677
0.862974 0.866407 0.856062
0.97821 0.859113 0.851637
0.978469 0.85481 0.849867
0.365942 0.981231 0.919066
0.362707 0.98117 0.918547
0.355444 0.980179 0.914733
0.335042 0.976181 0.904845
0.327642 0.970123 0.884855
0.559442 0.977127 0.884413
0.781155 0.986007 0.857633
0.969543 0.969635 0.852064
0.997162 0.965667 0.857649
0.384451 0.983658 0.92726
0.380499 0.983536 0.926406
0.376303 0.983063 0.922652
0.365194 0.981857 0.913695
0.339269 0.98056 0.891585
0.511299 0.984649 0.881193
0.739559 0.998154 0.860487
0.934676 0.990356 0.836515
0.999863 0.98706 0.851118
0.336843 0.0597543 0.840223
0.370306 0.0589914 0.841749
0.427985 0.0588693 0.839475
0.515831 0.059678 0.832883
0.62359 0.0686656 0.819135
0.735195 0.105089 0.814389
0.822507 0.177935 0.8486
0.826978 0.187762 0.852674
0.831983 0.191669 0.858412
0.29482 0.0605936 0.839429
0.336202 0.0593881 0.843214
0.401343 0.0587015 0.840696
0.498192 0.0594797 0.834669
0.613657 0.0665751 0.821195
0.732967 0.107515 0.818906
0.823606 0.179782 0.849683
0.829755 0.189868 0.855573
0.836515 0.19379 0.863584
0.186709 0.0636301 0.834394
0.253071 0.0609903 0.843595
0.339284 0.0590829 0.841337
0.461189 0.0587625 0.835874
0.592752 0.0631876 0.823667
0.726253 0.112001 0.825406
0.822034 0.185153 0.846922
0.828946 0.196826 0.853727
0.83769 0.199908 0.86421
6.10361e-05 0.178485 0.829435
0.0147555 0.140093 0.836606
0.0640116 0.0688334 0.826368
0.354589 0.0586099 0.838743
0.537636 0.0607309 0.827695
0.71104 0.121202 0.838819
0.823651 0.189212 0.844388
0.831876 0.205112 0.853559
0.841093 0.21062 0.866163
0 0.539513 0.814221
0 0.532036 0.820325
0 0.515663 0.830701
0.168627 0.475746 0.909346
0.589639 0.409781 0.961807
0.78909 0.397162 0.94081
0.89659 0.392218 0.917861
0.895277 0.382406 0.914092
0.894301 0.377584 0.914
0.131167 0.745708 0.885435
0.131838 0.743679 0.88777
0.13608 0.738689 0.889113
0.180102 0.73228 0.895949
0.390005 0.746075 0.937514
0.754452 0.679484 0.971023
0.908797 0.668193 0.950942
0.942596 0.660319 0.942397
0.940352 0.654963 0.942611
0.203281 0.888167 0.9243
0.205249 0.887221 0.926513
0.220157 0.884672 0.928313
0.253269 0.87892 0.93196
0.355871 0.876631 0.948669
0.63859 0.874907 0.944106
0.864668 0.846906 0.952636
0.969482 0.841352 0.941405
0.968902 0.836744 0.939284
0.359762 0.976547 0.950011
0.3514 0.975525 0.95024
0.347463 0.973297 0.948058
0.348241 0.969116 0.943084
0.359915 0.962936 0.935729
0.591836 0.966049 0.944686
0.813748 0.958404 0.946441
0.954177 0.952071 0.944106
0.993454 0.94902 0.942245
0.427665 0.989212 0.965286
0.424369 0.989242 0.96466
0.424201 0.989151 0.961746
0.423621 0.988891 0.955352
0.422141 0.987854 0.943786
0.574014 0.98912 0.94728
0.785916 0.991302 0.95346
0.91249 0.995758 0.944167
0.998886 0.992737 0.945281
0.35436 0.0593271 0.84004
0.385397 0.0589914 0.84126
0.438651 0.0587167 0.838651
0.52462 0.0599374 0.832105
0.630365 0.0698863 0.818418
0.73431 0.0984512 0.807141
0.816144 0.167041 0.842115
0.830014 0.191592 0.855634
0.835142 0.195148 0.861738
0.315618 0.0600748 0.839384
0.353597 0.0590982 0.842603
0.413367 0.0587625 0.840146
0.507134 0.0596933 0.833982
0.620279 0.067689 0.820615
0.730632 0.100847 0.810315
0.817502 0.169528 0.84358
0.832013 0.193942 0.857847
0.838544 0.196857 0.865888
0.221241 0.0626841 0.835859
0.278569 0.0603189 0.843763
0.356771 0.0590219 0.842542
0.471473 0.059144 0.836713
0.599435 0.0642863 0.823819
0.724376 0.104585 0.81828
0.817075 0.176394 0.842176
0.830884 0.199847 0.855711
0.838911 0.202686 0.865339
0.0493629 0.154467 0.854246
0.0473335 0.115251 0.847761
0.132723 0.0650187 0.837385
0.375235 0.0589761 0.84213
0.546181 0.0608835 0.830533
0.711513 0.116823 0.83856
0.822766 0.188281 0.847852
0.833585 0.208576 0.857618
0.841779 0.212528 0.867811
0.0393225 0.523003 0.865187
0.0347753 0.512505 0.867903
0.0307012 0.490486 0.869215
0.174624 0.437598 0.917647
0.581018 0.370291 0.954116
0.777401 0.363912 0.933639
0.889616 0.366644 0.912383
0.888151 0.355032 0.908843
0.887877 0.352056 0.91133
0.189731 0.749233 0.916579
0.186755 0.746639 0.917708
0.183307 0.740475 0.917403
0.192401 0.727001 0.913436
0.383169 0.728267 0.939605
0.757366 0.660182 0.973449
0.908003 0.649607 0.954971
0.93959 0.643 0.948333
0.937667 0.637705 0.948775
0.310369 0.886122 0.963638
0.308034 0.884382 0.964691
0.306737 0.880644 0.964767
0.327337 0.874174 0.965499
0.39736 0.86923 0.966796
0.631678 0.871229 0.959731
0.874327 0.832532 0.973953
0.966049 0.829511 0.967391
0.965011 0.82565 0.967376
0.421683 0.971511 0.974868
0.419745 0.970352 0.976349
0.420523 0.968185 0.976822
0.423392 0.963149 0.977127
0.437446 0.954955 0.978302
0.610391 0.957946 0.983841
0.815381 0.952117 0.982834
0.955383 0.940002 0.983566
0.987289 0.938552 0.982177
0.46453 0.990051 0.977142
0.463218 0.990295 0.978836
0.46537 0.990433 0.97911
0.469856 0.990753 0.979477
0.475486 0.991226 0.979217
0.589151 0.9935 0.984512
0.792706 0.994263 0.989746
0.926299 0.994766 0.992477
0.997101 0.994751 0.992203
