bundles/resolve-cinematic-luts/Phantom Luts/P4k & P6k Phntm Arri LUTs - V6/P6k/Gen 4 Colour/P6k IceBlue Gen4-Legacy.cube
TITLE "Generated by Resolve"
LUT_3D_SIZE 33
0.0390173 0.0511788 0.0522011
0.0390326 0.0511788 0.0521706
0.0423285 0.0508431 0.0524147
0.0507973 0.0508583 0.0537728
0.0634165 0.0514534 0.0547189
0.0794385 0.0521248 0.0558633
0.0986343 0.0527047 0.0568551
0.12192 0.0531319 0.0583658
0.151797 0.0535592 0.0602579
0.187121 0.0540017 0.0625772
0.225711 0.054551 0.0650339
0.268269 0.0553445 0.0677348
0.314885 0.0564431 0.0704051
0.361883 0.0574044 0.0744488
0.409674 0.0593729 0.0803693
0.45713 0.0615854 0.0869459
0.501381 0.0648661 0.0946822
0.540063 0.0700694 0.104234
0.572915 0.0780041 0.115633
0.601938 0.0889448 0.129534
0.635035 0.10164 0.144594
0.668757 0.117861 0.161868
0.70312 0.138628 0.181598
0.73344 0.15996 0.200641
0.747692 0.171252 0.21059
0.751324 0.17554 0.214328
0.754208 0.179019 0.21738
0.757427 0.182483 0.221073
0.759594 0.184466 0.224018
0.761563 0.18529 0.228046
0.763348 0.185458 0.232486
0.765316 0.184817 0.239216
0.767163 0.183932 0.246265
0.0391241 0.0510872 0.0518959
0.0390784 0.0511482 0.0520485
0.0394446 0.0511177 0.0520943
0.0464485 0.0516213 0.0536202
0.0575723 0.0527199 0.0546578
0.0726329 0.0534371 0.0554208
0.0917067 0.0539254 0.0560922
0.114611 0.0540932 0.056672
0.143954 0.0542306 0.0577096
0.179248 0.0544747 0.0596323
0.217685 0.0544137 0.0612802
0.260121 0.0541848 0.0629587
0.307607 0.0546273 0.0654612
0.356924 0.0553292 0.069276
0.405966 0.0567178 0.0740978
0.454658 0.0590372 0.080415
0.499962 0.0623636 0.0885023
0.53875 0.0677043 0.0981765
0.570718 0.0763104 0.111055
0.600809 0.0868696 0.124971
0.633967 0.0997787 0.14023
0.668223 0.116167 0.158312
0.702586 0.136965 0.178088
0.733318 0.158618 0.197436
0.743389 0.167147 0.204959
0.746471 0.170809 0.207797
0.750011 0.17464 0.211505
0.752331 0.177096 0.214099
0.754894 0.179644 0.217288
0.757565 0.181384 0.222004
0.759655 0.181994 0.226673
0.762036 0.181796 0.233753
0.763882 0.18085 0.240726
0.0390936 0.0526589 0.0522621
0.0390478 0.0521248 0.0518196
0.0394141 0.0515908 0.0520943
0.0425269 0.0524605 0.0526131
0.0516365 0.0539101 0.0547189
0.0645762 0.0548562 0.0550851
0.082948 0.0556954 0.0560922
0.105653 0.0559396 0.0567636
0.134752 0.0555734 0.0573587
0.170413 0.055024 0.0581521
0.208759 0.054612 0.0592203
0.251347 0.0543679 0.0605783
0.297734 0.0540475 0.0619211
0.346319 0.0542153 0.0640116
0.39559 0.0548409 0.0675059
0.445457 0.0564584 0.0728923
0.492409 0.0598154 0.080827
0.532738 0.0649729 0.0906233
0.564431 0.0734112 0.103716
0.595789 0.0839246 0.118105
0.629313 0.0965286 0.133761
0.663417 0.112306 0.151781
0.697643 0.132204 0.171466
0.728603 0.153948 0.190616
0.736996 0.161196 0.197024
0.740551 0.165286 0.20032
0.743786 0.168765 0.203464
0.746532 0.17171 0.206485
0.749081 0.17409 0.209674
0.751705 0.175753 0.214099
0.753567 0.176211 0.21854
0.7561 0.176226 0.225742
0.758312 0.175631 0.232975
0.0400244 0.0605478 0.0576944
0.0403449 0.0604105 0.0549783
0.0425879 0.0593881 0.054139
0.0462806 0.0587015 0.0542153
0.0525216 0.0601511 0.0554513
0.0635233 0.0607462 0.056199
0.0797589 0.0609751 0.0569619
0.100954 0.0609293 0.0575418
0.127413 0.0596017 0.0576638
0.162097 0.0575113 0.0576944
0.200229 0.0553902 0.057435
0.24184 0.0543526 0.0583505
0.288136 0.0542763 0.0596933
0.337163 0.0543374 0.0611429
0.386892 0.054612 0.0640269
0.43653 0.0554971 0.0681315
0.483818 0.0577707 0.0738994
0.524208 0.0623178 0.0826429
0.557153 0.0707713 0.0960708
0.58909 0.0809339 0.110475
0.623056 0.0933242 0.126406
0.657694 0.108919 0.144701
0.691524 0.127764 0.164263
0.723323 0.149493 0.183673
0.731594 0.156542 0.1897
0.734936 0.160189 0.192905
0.737758 0.163516 0.19556
0.740688 0.166461 0.198764
0.742824 0.168399 0.201465
0.7449 0.169482 0.205493
0.747158 0.170413 0.210178
0.749706 0.170352 0.217258
0.751995 0.169757 0.224613
0.04094 0.0741283 0.0661936
0.0412146 0.0740978 0.0619059
0.0439918 0.072694 0.0592203
0.0489357 0.0710307 0.058732
0.057496 0.0709239 0.0588693
0.0673533 0.0720836 0.0589151
0.0829633 0.0724804 0.0594644
0.102663 0.0713207 0.0591592
0.128069 0.0692912 0.0587625
0.15964 0.0662852 0.057908
0.196735 0.0627604 0.057847
0.236439 0.0593118 0.0565194
0.280949 0.0571908 0.0569009
0.328893 0.0556191 0.0572976
0.379217 0.0550851 0.0604257
0.428962 0.0557259 0.0651255
0.47718 0.057435 0.0706951
0.517861 0.0613413 0.0782635
0.549798 0.0682078 0.089128
0.581827 0.0779583 0.102678
0.61622 0.0902113 0.118578
0.650614 0.105394 0.136858
0.684367 0.123552 0.1561
0.716548 0.144839 0.175845
0.726757 0.152956 0.182834
0.730083 0.156649 0.185855
0.733059 0.159747 0.188632
0.735134 0.16202 0.190906
0.737377 0.164248 0.193668
0.739742 0.165469 0.197925
0.741817 0.166155 0.202411
0.744213 0.165866 0.209491
0.746136 0.165042 0.216342
0.0404974 0.0920729 0.0735943
0.0404212 0.0929427 0.0680858
0.0424811 0.0920119 0.0630808
0.0477913 0.0896315 0.0616617
0.0550088 0.0885176 0.0613718
0.0699779 0.0882887 0.0611124
0.0858625 0.0889448 0.0607919
0.104784 0.0889906 0.0597696
0.131792 0.0859541 0.0602274
0.164233 0.0801862 0.0600137
0.198962 0.0747997 0.0583963
0.237339 0.0708019 0.0572976
0.280049 0.0666056 0.0573587
0.32665 0.0634623 0.0576944
0.374502 0.0606699 0.0577249
0.422263 0.0589456 0.0599374
0.469902 0.0584726 0.0644694
0.512001 0.0614328 0.07393
0.545953 0.0676432 0.085893
0.577203 0.0768597 0.098558
0.61004 0.0879988 0.112276
0.64329 0.102403 0.128756
0.675685 0.118959 0.146334
0.707683 0.139055 0.165621
0.721965 0.150103 0.175235
0.725185 0.153552 0.178119
0.727794 0.156542 0.18056
0.730419 0.159106 0.183368
0.732616 0.161151 0.185992
0.734493 0.162066 0.189502
0.736446 0.162676 0.19379
0.738811 0.162249 0.200641
0.740841 0.161364 0.207446
0.0386053 0.113954 0.0801099
0.0381476 0.115541 0.0729076
0.0384833 0.115343 0.0654917
0.0430457 0.113252 0.0623789
0.0503243 0.110826 0.0620432
0.0619821 0.109911 0.0620432
0.086305 0.108919 0.0610208
0.107286 0.1084 0.0602579
0.130404 0.108278 0.0584878
0.164034 0.103639 0.0581826
0.202747 0.0937514 0.0588388
0.242924 0.0857862 0.0585336
0.283757 0.0807965 0.0577554
0.32842 0.0773022 0.0576944
0.373648 0.0744793 0.0567941
0.421546 0.0713512 0.0615854
0.467796 0.0693217 0.0635386
0.509606 0.0691386 0.0690929
0.544579 0.0724193 0.0799725
0.575006 0.0789807 0.0937057
0.606836 0.0883955 0.108934
0.638498 0.101411 0.124346
0.670283 0.117403 0.140749
0.700771 0.135805 0.158083
0.718105 0.148302 0.168475
0.720333 0.150958 0.170199
0.722667 0.153979 0.172229
0.724575 0.156039 0.17409
0.726802 0.158114 0.176577
0.728817 0.15935 0.179889
0.73051 0.160189 0.182971
0.732219 0.160189 0.187289
0.733608 0.160143 0.191363
0.035935 0.138933 0.0879835
0.0352789 0.140856 0.0792248
0.0350652 0.141558 0.0699016
0.0370947 0.140276 0.0630655
0.0430762 0.138033 0.0609293
0.0530861 0.135943 0.0604868
0.0719463 0.135271 0.0612802
0.104799 0.13283 0.0601053
0.132052 0.131365 0.0592355
0.161532 0.130724 0.0563668
0.198383 0.126482 0.0555886
0.244617 0.113436 0.0581826
0.291035 0.101854 0.060029
0.336049 0.0963607 0.0608682
0.380056 0.0940871 0.0618143
0.424674 0.0920729 0.0635843
0.469718 0.0912642 0.0657054
0.511772 0.0919661 0.0690166
0.551293 0.0945907 0.0805524
0.584634 0.100465 0.0957504
0.615076 0.107912 0.10985
0.645151 0.117754 0.125612
0.67454 0.129839 0.142031
0.702037 0.143893 0.15816
0.721935 0.155459 0.17023
0.722316 0.156191 0.17026
0.724086 0.159045 0.171572
0.725765 0.161517 0.172961
0.727306 0.163531 0.174411
0.728328 0.164736 0.175845
0.729732 0.165957 0.178241
0.731548 0.166705 0.182254
0.733959 0.167834 0.187198
0.0324865 0.168246 0.0967575
0.0313726 0.170794 0.0866407
0.0307927 0.172 0.0745861
0.0311894 0.171405 0.065095
0.0347143 0.169818 0.0599985
0.043061 0.167193 0.058381
0.0581979 0.166125 0.0586557
0.084184 0.165164 0.0594644
0.126558 0.162341 0.0582284
0.16321 0.16051 0.057908
0.197543 0.158709 0.0533913
0.236866 0.155657 0.0522011
0.290318 0.141985 0.0576028
0.343084 0.127001 0.0631266
0.390692 0.122042 0.0665751
0.434852 0.121386 0.0693065
0.478614 0.122087 0.0730144
0.521752 0.124834 0.0783551
0.560357 0.130419 0.0866865
0.596277 0.137896 0.0981155
0.628717 0.14699 0.112383
0.658885 0.156878 0.127932
0.689128 0.167041 0.14728
0.717647 0.178119 0.16701
0.74052 0.189517 0.182208
0.739391 0.187198 0.181567
0.738796 0.186023 0.181231
0.738399 0.185199 0.181003
0.738109 0.184558 0.18088
0.738216 0.183932 0.181674
0.738781 0.183703 0.183337
0.740551 0.184512 0.187182
0.744854 0.189715 0.192905
0.0289006 0.201236 0.106142
0.0277256 0.204028 0.0956741
0.0267033 0.206058 0.0821698
0.0264439 0.205936 0.0698711
0.0278477 0.204379 0.0615091
0.0327611 0.202472 0.0572976
0.0439918 0.200626 0.0557717
0.0652018 0.200244 0.0564584
0.0983902 0.199893 0.0571298
0.153582 0.197177 0.0558175
0.199237 0.19498 0.0563973
0.238941 0.192859 0.0510719
0.283055 0.191073 0.0488136
0.339971 0.181506 0.0565499
0.39762 0.16878 0.0672007
0.446662 0.162707 0.0747845
0.491493 0.163546 0.0809033
0.533303 0.167758 0.0874189
0.573159 0.173587 0.0962844
0.610346 0.182147 0.108125
0.644022 0.19118 0.121569
0.67541 0.201144 0.137011
0.705699 0.211765 0.154253
0.733913 0.223209 0.172015
0.758984 0.235492 0.1888
0.75877 0.233356 0.188769
0.758129 0.231571 0.18851
0.757321 0.229831 0.188037
0.756863 0.228885 0.187747
0.757382 0.229313 0.188678
0.758877 0.231189 0.190768
0.761761 0.234302 0.195071
0.766354 0.240009 0.200931
0.025803 0.237629 0.116136
0.0253147 0.240742 0.106554
0.0246128 0.242786 0.0926528
0.0243076 0.243488 0.0778363
0.0243076 0.242008 0.0666514
0.0255436 0.240146 0.0590219
0.0315251 0.238285 0.0544594
0.0467842 0.238392 0.0531472
0.0744182 0.239216 0.0540627
0.116197 0.239414 0.0547036
0.185794 0.237339 0.0531014
0.241749 0.235996 0.0549325
0.28835 0.234638 0.0498817
0.33727 0.234318 0.0473945
0.393256 0.230396 0.0569314
0.452064 0.221302 0.0720989
0.502159 0.215625 0.0846723
0.545922 0.215305 0.0964828
0.586633 0.220935 0.106783
0.624414 0.229572 0.118898
0.65951 0.238544 0.132967
0.69192 0.248463 0.148043
0.723461 0.259098 0.165301
0.753384 0.270802 0.183963
0.778668 0.282078 0.201205
0.78172 0.282139 0.203281
0.781277 0.28072 0.203082
0.780835 0.279652 0.202853
0.780636 0.279316 0.202716
0.781323 0.280217 0.203677
0.782559 0.282017 0.20531
0.786068 0.28603 0.210147
0.790127 0.291737 0.215305
0.0244144 0.278309 0.127703
0.0241398 0.281392 0.118563
0.0237125 0.283528 0.105898
0.0235142 0.284718 0.0902876
0.0233616 0.284535 0.0753033
0.0232548 0.282338 0.0642557
0.024155 0.280385 0.0562753
0.0317998 0.279652 0.0521553
0.051957 0.281651 0.0509651
0.0868238 0.283818 0.051133
0.141543 0.285328 0.0518196
0.22594 0.285237 0.0510567
0.291829 0.284215 0.0549783
0.342519 0.283085 0.0513924
0.392889 0.28365 0.0487678
0.44506 0.283757 0.0574655
0.504067 0.27863 0.0772259
0.554986 0.27602 0.0953536
0.598062 0.277958 0.111818
0.638346 0.281605 0.128923
0.674464 0.288426 0.144991
0.708553 0.297429 0.161089
0.74165 0.307973 0.178866
0.771588 0.318837 0.196933
0.797559 0.329854 0.214649
0.804639 0.331838 0.219455
0.803983 0.330404 0.218952
0.803967 0.330129 0.218967
0.803937 0.330083 0.218967
0.804562 0.330983 0.219852
0.806363 0.333455 0.222187
0.809583 0.337804 0.22649
0.813657 0.344121 0.231586
0.0236057 0.323369 0.141817
0.0232242 0.326528 0.13254
0.0229801 0.329107 0.120989
0.0228275 0.330388 0.106996
0.0222171 0.331624 0.0901503
0.0221866 0.330755 0.0742351
0.0221714 0.328023 0.0620432
0.0235599 0.325933 0.0543221
0.033875 0.326757 0.0505684
0.0605936 0.330816 0.0492409
0.105974 0.333791 0.0494087
0.175967 0.3355 0.0504005
0.271107 0.335485 0.0507515
0.344839 0.334844 0.0565652
0.397467 0.334936 0.0554208
0.448157 0.33666 0.0536965
0.497978 0.339635 0.0616159
0.555001 0.337881 0.0856794
0.605753 0.337682 0.110109
0.648585 0.34139 0.130907
0.687984 0.346242 0.152102
0.724132 0.351736 0.172778
0.758038 0.357809 0.19295
0.789761 0.367651 0.212604
0.81593 0.377981 0.23006
0.827405 0.382223 0.238041
0.826978 0.381643 0.237552
0.826749 0.38117 0.237369
0.826947 0.381369 0.237644
0.827924 0.382544 0.238895
0.829496 0.385504 0.240726
0.832319 0.390066 0.244404
0.836133 0.397009 0.24889
0.0232853 0.371191 0.161532
0.0229801 0.374334 0.15259
0.0227512 0.37705 0.141939
0.0226444 0.378958 0.128862
0.0224308 0.380087 0.113787
0.0222629 0.380331 0.0965438
0.0221256 0.378408 0.0779431
0.0221714 0.375875 0.0635233
0.0248569 0.374395 0.0549477
0.040177 0.376196 0.050782
0.0746624 0.380392 0.0489967
0.132982 0.383078 0.0491188
0.217578 0.385367 0.0504311
0.320424 0.386297 0.053193
0.398856 0.386892 0.0630198
0.451698 0.387976 0.0636759
0.502464 0.390585 0.0634012
0.54931 0.395117 0.0751202
0.603387 0.396719 0.102098
0.654902 0.398398 0.131456
0.697978 0.402853 0.156161
0.736645 0.409339 0.179858
0.773175 0.415244 0.203845
0.805447 0.421851 0.226062
0.833692 0.42858 0.246906
0.850294 0.434852 0.258885
0.850156 0.434363 0.258671
0.850034 0.434043 0.258564
0.850233 0.434485 0.258824
0.85069 0.435737 0.259342
0.852323 0.43946 0.261021
0.854704 0.444587 0.263828
0.858061 0.451911 0.267643
0.0237583 0.419669 0.188205
0.0234836 0.422492 0.179248
0.0234379 0.425559 0.169238
0.0232853 0.427344 0.156374
0.023209 0.428611 0.141909
0.0231022 0.429419 0.124712
0.0231022 0.429465 0.105837
0.0231479 0.427558 0.0857557
0.02327 0.424674 0.068101
0.028687 0.424094 0.0590829
0.0510719 0.426032 0.0533913
0.0968948 0.43032 0.0508888
0.170672 0.433402 0.0513161
0.266636 0.437324 0.0531319
0.375296 0.439063 0.0602274
0.452552 0.440345 0.0757763
0.505165 0.443061 0.0798657
0.554772 0.446464 0.0833448
0.600793 0.452323 0.101534
0.652064 0.455848 0.128588
0.703304 0.457557 0.161196
0.747005 0.462135 0.18941
0.785595 0.468605 0.214527
0.819944 0.475181 0.239277
0.848569 0.482795 0.260578
0.870787 0.488685 0.278279
0.870878 0.488258 0.278355
0.870832 0.488182 0.27834
0.871046 0.488762 0.278584
0.871824 0.490837 0.279316
0.873106 0.493965 0.280568
0.875181 0.499306 0.282795
0.877958 0.506432 0.286107
0.0256046 0.469017 0.221347
0.0257267 0.472114 0.21384
0.0257725 0.47454 0.204288
0.025803 0.476249 0.192691
0.0259098 0.477607 0.178668
0.0261234 0.478614 0.162585
0.0264744 0.479591 0.143359
0.0268406 0.478981 0.122469
0.0269932 0.475685 0.100679
0.0287327 0.473381 0.0797436
0.0391394 0.473594 0.0668498
0.0707713 0.477668 0.0584878
0.13228 0.48191 0.0559396
0.218845 0.48574 0.0573129
0.323049 0.490501 0.0609751
0.4327 0.493278 0.0745556
0.50602 0.49543 0.0944076
0.557031 0.499214 0.103548
0.606439 0.503227 0.114107
0.651469 0.509133 0.136385
0.699428 0.513222 0.164279
0.751019 0.515526 0.198062
0.795895 0.520088 0.228946
0.831495 0.526619 0.253834
0.861585 0.533181 0.276127
0.885237 0.539712 0.294621
0.890379 0.541329 0.298695
0.890394 0.541482 0.298787
0.890822 0.542565 0.299336
0.89131 0.544091 0.299947
0.892638 0.547341 0.301457
0.894499 0.552438 0.303929
0.896986 0.559518 0.307317
0.0323339 0.517708 0.26186
0.032166 0.520775 0.25568
0.0321813 0.523049 0.247868
0.0323949 0.524605 0.237537
0.0325628 0.52575 0.225223
0.0329595 0.527092 0.210788
0.033463 0.52781 0.19176
0.034287 0.528038 0.169482
0.0349432 0.526558 0.147005
0.0357061 0.522911 0.122469
0.0403906 0.520867 0.0975967
0.0594797 0.52311 0.0804303
0.105165 0.529625 0.0710002
0.18436 0.534356 0.0668956
0.278798 0.539345 0.0699931
0.386465 0.545663 0.0779126
0.490654 0.548852 0.0954452
0.558618 0.551385 0.120073
0.608713 0.55494 0.134493
0.657008 0.559915 0.151232
0.701198 0.565652 0.177417
0.748012 0.57052 0.206989
0.799069 0.573068 0.241459
0.84065 0.576684 0.271107
0.872267 0.582773 0.294514
0.897261 0.588769 0.313298
0.907958 0.592065 0.321721
0.907942 0.592523 0.32192
0.908293 0.593317 0.322484
0.908934 0.594858 0.32343
0.909987 0.598032 0.324941
0.911665 0.602914 0.327459
0.913939 0.610193 0.331258
0.0451057 0.566018 0.30602
0.0452277 0.568719 0.300755
0.0454566 0.571298 0.294667
0.0453956 0.573205 0.286488
0.045182 0.574517 0.276326
0.0449836 0.575372 0.263813
0.0449378 0.575982 0.24686
0.0455329 0.576257 0.225284
0.046479 0.575799 0.200443
0.0476539 0.57322 0.175021
0.0505531 0.569574 0.146288
0.060914 0.568444 0.117906
0.094377 0.573663 0.10013
0.158923 0.581796 0.09131
0.248173 0.587823 0.0883345
0.34432 0.594507 0.0927749
0.450355 0.601099 0.104662
0.546838 0.604623 0.125811
0.61033 0.606928 0.152926
0.65893 0.610864 0.172244
0.7066 0.616083 0.195346
0.750607 0.621485 0.22385
0.794903 0.625818 0.253132
0.841932 0.628367 0.286091
0.879774 0.631434 0.314275
0.907256 0.636301 0.334676
0.924361 0.64126 0.34818
0.924727 0.641688 0.348577
0.924681 0.642496 0.348806
0.925063 0.644266 0.349554
0.926299 0.647471 0.351461
0.927459 0.652613 0.353857
0.929625 0.659892 0.357931
0.0632029 0.614206 0.35169
0.0639048 0.61709 0.348318
0.06421 0.619516 0.343496
0.0641642 0.621103 0.336294
0.0640269 0.622324 0.327657
0.0637217 0.623301 0.317006
0.0632944 0.624079 0.30222
0.0632334 0.624537 0.283284
0.06392 0.624903 0.259861
0.0650797 0.623224 0.232868
0.0679026 0.619608 0.203067
0.0736706 0.615686 0.169986
0.0947585 0.616587 0.140581
0.148516 0.626337 0.126879
0.225742 0.635157 0.118822
0.317662 0.642237 0.117556
0.409888 0.65008 0.123964
0.512154 0.656641 0.139132
0.602197 0.660258 0.162631
0.661662 0.662486 0.19089
0.708415 0.666514 0.214481
0.754376 0.670695 0.24361
0.797833 0.675517 0.27274
0.838193 0.680415 0.300755
0.879499 0.682994 0.332021
0.913451 0.685908 0.358083
0.935149 0.690074 0.37464
0.939223 0.691325 0.377569
0.939315 0.692424 0.377737
0.939925 0.69453 0.378759
0.940963 0.698177 0.380682
0.942107 0.703182 0.383352
0.943404 0.710277 0.387228
0.0876783 0.662516 0.396246
0.0888991 0.665812 0.394141
0.0897841 0.668467 0.390539
0.0898299 0.669963 0.384802
0.0897536 0.671122 0.378027
0.0895094 0.672068 0.36907
0.0892195 0.673167 0.357244
0.0889296 0.673686 0.340902
0.0888838 0.673732 0.319371
0.0896162 0.673136 0.292653
0.0920272 0.670436 0.263767
0.0959029 0.665568 0.229313
0.109621 0.663447 0.193698
0.149935 0.66862 0.169635
0.21767 0.680537 0.158846
0.300069 0.689937 0.152239
0.387259 0.69781 0.152972
0.474998 0.70634 0.162203
0.571252 0.712902 0.179522
0.655848 0.716091 0.203525
0.711131 0.717159 0.230701
0.755322 0.721019 0.261814
0.800748 0.725231 0.294728
0.842069 0.730571 0.324132
0.877012 0.73521 0.349752
0.912123 0.737758 0.377752
0.940215 0.7402 0.400748
0.95108 0.74258 0.409339
0.951232 0.743755 0.4094
0.951354 0.745922 0.410056
0.952209 0.749279 0.411994
0.952956 0.754559 0.414984
0.953796 0.761517 0.418845
0.119387 0.712245 0.440574
0.120638 0.714885 0.438605
0.12192 0.717571 0.43563
0.122164 0.718959 0.430991
0.122438 0.720287 0.425544
0.122606 0.721553 0.418311
0.12253 0.72256 0.408469
0.122148 0.72314 0.394903
0.121874 0.723339 0.376913
0.122087 0.723079 0.353124
0.123644 0.721325 0.32517
0.12752 0.717418 0.293355
0.137758 0.714092 0.25771
0.171359 0.716823 0.227955
0.227237 0.726787 0.212161
0.296681 0.737591 0.203326
0.375463 0.746456 0.199695
0.454002 0.754131 0.201663
0.537316 0.761364 0.210727
0.626688 0.767132 0.227619
0.706844 0.770352 0.251545
0.759503 0.772076 0.28014
0.802258 0.775967 0.316625
0.844755 0.780072 0.348837
0.881178 0.784527 0.375586
0.912093 0.788952 0.39884
0.940795 0.791562 0.422995
0.958022 0.793393 0.439643
0.958099 0.794491 0.440742
0.958083 0.796628 0.441917
0.958602 0.800092 0.443778
0.959167 0.804623 0.446036
0.960754 0.811292 0.449592
0.15668 0.760098 0.483299
0.158083 0.762692 0.4813
0.159411 0.765118 0.479271
0.159792 0.766476 0.475303
0.160128 0.767697 0.470161
0.160296 0.768566 0.464179
0.160266 0.769314 0.455344
0.160006 0.769909 0.443946
0.159854 0.770428 0.428916
0.160189 0.770459 0.409903
0.161151 0.769162 0.386557
0.16347 0.765621 0.357336
0.172305 0.763256 0.324681
0.202625 0.766491 0.294881
0.247562 0.771847 0.271122
0.307546 0.782773 0.260624
0.372244 0.79144 0.254932
0.442588 0.797986 0.253147
0.513802 0.804303 0.256245
0.594537 0.810636 0.26598
0.678767 0.816541 0.283314
0.755856 0.820645 0.307836
0.808118 0.822538 0.338354
0.84799 0.826017 0.372549
0.8851 0.829206 0.401404
0.91725 0.832715 0.425803
0.943984 0.837034 0.447532
0.962203 0.839872 0.4645
0.965179 0.841016 0.469398
0.964569 0.842924 0.470512
0.964401 0.846006 0.472282
0.96495 0.849912 0.474784
0.966003 0.855711 0.478584
0.192752 0.803296 0.523934
0.194003 0.805539 0.522194
0.194736 0.807309 0.519783
0.195529 0.808896 0.51635
0.195834 0.809873 0.512093
0.196017 0.810681 0.506325
0.195926 0.811368 0.498497
0.195773 0.811719 0.488823
0.19588 0.811902 0.476432
0.196384 0.811917 0.461189
0.197116 0.810742 0.441581
0.198505 0.80824 0.416815
0.209216 0.808118 0.38854
0.237583 0.812177 0.360632
0.275273 0.815442 0.333379
0.324819 0.82266 0.316823
0.379629 0.830701 0.309606
0.437064 0.83682 0.306325
0.500694 0.842084 0.306386
0.566323 0.848127 0.311406
0.64596 0.854612 0.322621
0.726116 0.861082 0.340673
0.798367 0.865766 0.36524
0.850736 0.867552 0.394888
0.886442 0.870192 0.425818
0.91899 0.872969 0.452811
0.945586 0.876036 0.475502
0.963088 0.879255 0.492424
0.968154 0.881453 0.500481
0.967422 0.882994 0.502358
0.966842 0.885267 0.504463
0.966613 0.888411 0.507408
0.967453 0.892973 0.511528
0.225376 0.839979 0.56109
0.226719 0.8421 0.559716
0.227893 0.843992 0.557992
0.228351 0.84506 0.554833
0.228717 0.845853 0.551278
0.228824 0.846281 0.546181
0.228931 0.846616 0.539681
0.229267 0.846983 0.531746
0.229435 0.846891 0.52134
0.229694 0.846494 0.507805
0.230243 0.845624 0.490486
0.233829 0.845579 0.470115
0.249012 0.848554 0.446433
0.276051 0.852598 0.420569
0.307149 0.854643 0.393545
0.345464 0.857649 0.371633
0.392874 0.864149 0.361227
0.442176 0.869856 0.356786
0.494911 0.874922 0.356283
0.553765 0.879728 0.358785
0.617243 0.885283 0.365087
0.695933 0.89189 0.377615
0.77229 0.898482 0.395789
0.838621 0.903487 0.419883
0.887953 0.905028 0.44889
0.918914 0.906828 0.477836
0.945846 0.909148 0.503334
0.96379 0.910979 0.523293
0.968963 0.912474 0.534035
0.967987 0.913527 0.536492
0.967178 0.915145 0.539071
0.966873 0.917784 0.54284
0.967422 0.921263 0.54757
0.246464 0.861021 0.587015
0.246464 0.861601 0.584436
0.246387 0.862104 0.581811
0.246265 0.862486 0.578271
0.246174 0.862821 0.574426
0.246128 0.862974 0.569726
0.246204 0.863081 0.563821
0.246143 0.86302 0.556161
0.246723 0.862638 0.546304
0.246769 0.862287 0.533593
0.247623 0.862013 0.517983
0.252735 0.863539 0.49987
0.273518 0.870573 0.481697
0.304631 0.879026 0.463325
0.336156 0.884382 0.443122
0.367605 0.886336 0.420905
0.407233 0.890425 0.407126
0.452522 0.895582 0.401404
0.49749 0.897841 0.398764
0.546746 0.89929 0.399435
0.603387 0.901228 0.402853
0.671641 0.905257 0.410834
0.748974 0.911299 0.424353
0.82356 0.917479 0.443839
0.875807 0.923003 0.46714
0.918395 0.927153 0.497551
0.94461 0.929946 0.526101
0.96289 0.931838 0.549966
0.967269 0.932494 0.563928
0.966827 0.932525 0.565744
0.966476 0.932601 0.5664
0.966232 0.932738 0.566751
0.966247 0.932891 0.566949
0.250294 0.865095 0.596475
0.249851 0.865141 0.593622
0.24947 0.865187 0.590387
0.249134 0.865187 0.586938
0.248875 0.865187 0.582742
0.248676 0.865064 0.577737
0.248585 0.864927 0.571618
0.248463 0.864729 0.563989
0.248234 0.864317 0.553857
0.248081 0.863798 0.5411
0.248157 0.863066 0.52517
0.25214 0.863996 0.506432
0.26923 0.86949 0.486625
0.300191 0.878309 0.467582
0.333394 0.884825 0.448585
0.367483 0.889311 0.431006
0.406882 0.893614 0.418219
0.449928 0.896864 0.41062
0.494163 0.898848 0.407172
0.542229 0.900221 0.407675
0.595376 0.901762 0.411276
0.661936 0.905562 0.418555
0.737423 0.911345 0.430411
0.813153 0.917418 0.447578
0.868849 0.922911 0.469596
0.912261 0.92723 0.498573
0.942351 0.930449 0.528283
0.96051 0.932662 0.552346
0.965881 0.933394 0.566842
0.965438 0.933562 0.569924
0.965194 0.933669 0.569497
0.965011 0.933806 0.568963
0.96495 0.933883 0.568399
0.250874 0.866056 0.602014
0.250431 0.866056 0.599054
0.250187 0.86598 0.596033
0.249943 0.865843 0.592462
0.249699 0.865705 0.588403
0.249439 0.865553 0.58349
0.24918 0.865309 0.577218
0.249027 0.865064 0.569329
0.248905 0.86479 0.559442
0.248707 0.864286 0.54667
0.248661 0.863584 0.530846
0.251987 0.864286 0.511879
0.266911 0.869139 0.491417
0.296803 0.877684 0.471397
0.331044 0.884779 0.451667
0.365515 0.889311 0.433249
0.403555 0.89337 0.419486
