bundles/resolve-cinematic-luts/Phantom Luts/P4k & P6k Phntm Arri LUTs - V6/P6k/Gen 4 Colour/P6k Utopia Gen4-Legacy.cube
TITLE "Generated by Resolve"
LUT_3D_SIZE 33
0.0121004 0.0376135 0.046952
0.0121004 0.0376135 0.046952
0.0176547 0.0374914 0.0468605
0.0303502 0.0378576 0.0504921
0.0512551 0.0373693 0.0517891
0.0730602 0.0375219 0.0522316
0.0972915 0.0373693 0.0532692
0.124437 0.0368658 0.0537728
0.156527 0.0362402 0.0547494
0.192294 0.0358282 0.0556954
0.230671 0.035584 0.0567636
0.272725 0.0352483 0.0577859
0.316838 0.0350347 0.0603952
0.36286 0.0356756 0.0653697
0.409628 0.0361334 0.070161
0.458732 0.0378119 0.0767529
0.506691 0.0404822 0.0838026
0.553109 0.0450141 0.0926986
0.588434 0.0544442 0.105501
0.62948 0.0643778 0.118807
0.675792 0.0752117 0.132876
0.725887 0.0888685 0.149477
0.774578 0.105257 0.167895
0.814954 0.12256 0.185428
0.830198 0.13167 0.194461
0.833387 0.135973 0.198581
0.835981 0.139498 0.202014
0.839002 0.143206 0.205753
0.841138 0.145388 0.208209
0.84416 0.146593 0.210178
0.846845 0.147127 0.211719
0.849729 0.147326 0.212955
0.851514 0.147799 0.213962
0.0121004 0.0376135 0.046952
0.0121004 0.0376135 0.046952
0.0128939 0.0375677 0.0468299
0.0233768 0.0393835 0.0483101
0.0379797 0.0400549 0.0514382
0.0608377 0.0400702 0.0513924
0.085069 0.0398718 0.0511025
0.111452 0.0386816 0.0501564
0.141939 0.0376593 0.0499886
0.176318 0.0361486 0.0500801
0.214084 0.0347448 0.0503548
0.255909 0.0332189 0.0506752
0.301259 0.0322423 0.0517739
0.348516 0.0316472 0.0546731
0.396826 0.0314336 0.0585336
0.447471 0.0327459 0.0647746
0.497185 0.0350347 0.071931
0.544457 0.0395972 0.0809339
0.580118 0.049073 0.0944533
0.621515 0.0586252 0.107958
0.668223 0.0695201 0.122515
0.718196 0.0823835 0.138872
0.766949 0.0986343 0.157046
0.808454 0.115846 0.175082
0.823911 0.124956 0.183795
0.826932 0.128618 0.187182
0.830304 0.132479 0.190951
0.833463 0.135683 0.194186
0.835843 0.137819 0.196551
0.8392 0.140093 0.19884
0.842969 0.141848 0.200992
0.84741 0.142855 0.20235
0.851225 0.143282 0.203189
0.0122835 0.0402838 0.0484169
0.0125124 0.039353 0.0474403
0.0129397 0.0383459 0.0471046
0.0188144 0.040528 0.0478218
0.0283665 0.0423743 0.0488899
0.0498512 0.0426337 0.0518502
0.0744335 0.043061 0.0516213
0.101244 0.0420691 0.0505837
0.132052 0.0395819 0.0489815
0.167071 0.0373388 0.0485542
0.20499 0.0354772 0.0486152
0.245914 0.0337682 0.0485084
0.289784 0.0321355 0.0478065
0.335958 0.0307317 0.0484779
0.382986 0.0295872 0.0498054
0.433387 0.0293736 0.0536507
0.485542 0.0317998 0.0615396
0.534691 0.0359655 0.0705119
0.570993 0.0449683 0.0841077
0.613611 0.0543832 0.0979324
0.660517 0.0647593 0.112627
0.709911 0.0766766 0.128374
0.758755 0.0920424 0.146319
0.80174 0.109438 0.164538
0.817655 0.118486 0.173236
0.820523 0.122057 0.176699
0.823819 0.125917 0.180041
0.826505 0.128832 0.182834
0.82948 0.13167 0.185657
0.833097 0.133837 0.187991
0.836713 0.135653 0.189853
0.841077 0.136187 0.190646
0.845609 0.136782 0.191608
0.0115358 0.054612 0.0559243
0.0122225 0.0542 0.0502174
0.0171511 0.0524147 0.0499123
0.0244297 0.0519875 0.0503243
0.0324865 0.0538186 0.0514839
0.0513771 0.0532692 0.051545
0.0731212 0.0521096 0.0514076
0.0966964 0.0502937 0.049958
0.125093 0.0469673 0.0486152
0.158312 0.0420233 0.0465248
0.195743 0.037171 0.0449226
0.235843 0.0346838 0.0457618
0.279973 0.0326696 0.0450904
0.326818 0.0313268 0.0457923
0.374868 0.0302129 0.0471351
0.424369 0.0295567 0.0495308
0.474708 0.0298466 0.0530861
0.523629 0.0327306 0.0600137
0.561959 0.0416724 0.0741588
0.60499 0.0509194 0.0882887
0.651347 0.0609293 0.102693
0.701396 0.0732738 0.119173
0.749813 0.0873732 0.136187
0.794324 0.104738 0.154665
0.811322 0.113451 0.163348
0.815625 0.117556 0.167315
0.818036 0.120516 0.169894
0.82089 0.123552 0.172747
0.823682 0.125994 0.175326
0.826627 0.127611 0.17702
0.829862 0.128817 0.178164
0.834562 0.129702 0.179355
0.839353 0.130266 0.180301
0.00706493 0.073579 0.0582742
0.00746166 0.0734722 0.0483253
0.0132601 0.0710765 0.046128
0.0212711 0.0688792 0.0471962
0.0347601 0.0692912 0.0469673
0.0522927 0.0704967 0.0469368
0.0760662 0.0687724 0.0510719
0.10103 0.0653697 0.0525521
0.128023 0.0607309 0.0517739
0.159289 0.0561227 0.0492714
0.194217 0.0507362 0.0466011
0.232715 0.0452888 0.0440528
0.274556 0.0395056 0.0419776
0.31931 0.0338903 0.0404669
0.36643 0.0314183 0.0430304
0.415824 0.0302739 0.0458381
0.467231 0.0300755 0.0492866
0.516487 0.032929 0.0561685
0.554498 0.0397192 0.0665599
0.595895 0.0475776 0.0781262
0.642206 0.0574197 0.0919356
0.691463 0.0694896 0.1084
0.740368 0.0835737 0.125765
0.784588 0.0998093 0.143725
0.80557 0.11017 0.15404
0.810819 0.114351 0.15787
0.813779 0.117479 0.160922
0.816449 0.120256 0.163272
0.818692 0.122332 0.16524
0.822049 0.124224 0.167086
0.825498 0.125551 0.168627
0.830274 0.126131 0.169406
0.834669 0.126253 0.16965
0.00047303 0.0979782 0.0558328
0.000610361 0.098558 0.0438087
0.00645457 0.0965286 0.0361639
0.0146181 0.0939956 0.0367895
0.0259709 0.0937819 0.0377203
0.0548409 0.0915999 0.0406348
0.0764935 0.0910201 0.0457465
0.100282 0.0898146 0.0483864
0.130953 0.0834363 0.0506294
0.165179 0.0726329 0.0525826
0.199207 0.0657359 0.0506142
0.235019 0.0596933 0.0473793
0.275914 0.0539254 0.0458686
0.318471 0.0485389 0.0438087
0.363622 0.0431678 0.0423438
0.410422 0.0377966 0.0415045
0.460441 0.0334783 0.0424659
0.50869 0.0345159 0.0500649
0.549355 0.0398566 0.0611276
0.590661 0.0478981 0.0735943
0.635264 0.0567788 0.0858625
0.682734 0.0675822 0.0995651
0.729625 0.0798962 0.113939
0.773358 0.0945144 0.13022
0.798321 0.105882 0.141619
0.806119 0.111528 0.147158
0.808652 0.114321 0.149462
0.811353 0.117128 0.152316
0.814023 0.119509 0.154528
0.817258 0.12105 0.156161
0.820432 0.122179 0.157107
0.825223 0.122683 0.157824
0.830014 0.122866 0.158221
0 0.122835 0.0542
0 0.124193 0.0390784
0 0.122301 0.0263523
0.0065156 0.120119 0.0250095
0.0172122 0.118273 0.0263218
0.0372473 0.118151 0.0291752
0.0772869 0.113878 0.0384375
0.100725 0.111925 0.0439307
0.127993 0.110414 0.0449531
0.161028 0.104601 0.046952
0.205097 0.0878157 0.0529183
0.24271 0.0776074 0.05243
0.281849 0.0719463 0.0508431
0.322774 0.0670939 0.0487221
0.365774 0.0624857 0.0472877
0.41088 0.057847 0.0479591
0.458946 0.0536507 0.048249
0.506218 0.0511482 0.0504005
0.549905 0.052018 0.057084
0.589456 0.0556344 0.0677806
0.631693 0.0611429 0.0806744
0.677211 0.0700847 0.0947127
0.723568 0.0816968 0.109224
0.766339 0.0946212 0.123415
0.795392 0.10634 0.134508
0.802869 0.110582 0.137362
0.804334 0.113115 0.138293
0.805814 0.115312 0.139452
0.80827 0.117678 0.141482
0.811139 0.119524 0.14313
0.814237 0.120974 0.144457
0.817578 0.121767 0.145266
0.820768 0.121935 0.145602
0 0.15053 0.0557259
0 0.151919 0.0366217
0 0.150958 0.0214237
0 0.148974 0.0137179
0.00715648 0.146548 0.0138094
0.0227817 0.14609 0.0165713
0.0538186 0.144793 0.0231479
0.101656 0.138521 0.0374762
0.127977 0.136019 0.0429541
0.160143 0.133898 0.0419013
0.194141 0.13019 0.0433356
0.246632 0.110094 0.0536507
0.291066 0.0961013 0.0565499
0.332784 0.0911116 0.0566262
0.374121 0.088426 0.0567025
0.417258 0.0855573 0.0567941
0.462623 0.0836194 0.0577554
0.509056 0.0827192 0.060029
0.556313 0.0846571 0.06804
0.59765 0.0895247 0.0776837
0.640314 0.0951705 0.0884565
0.68333 0.100175 0.0994583
0.72726 0.105638 0.111666
0.768704 0.11313 0.125216
0.800504 0.120684 0.137072
0.808988 0.123339 0.140703
0.809476 0.124743 0.141024
0.810346 0.126757 0.141543
0.811536 0.12871 0.142275
0.813123 0.130251 0.142794
0.814725 0.131502 0.143023
0.817395 0.132158 0.142977
0.819837 0.132509 0.142718
0 0.182422 0.0575418
0 0.184207 0.0369116
0 0.184131 0.018677
0 0.181796 0.00642405
0 0.179538 0.00196841
0.00962844 0.177447 0.00296025
0.0332952 0.178286 0.00836194
0.0721752 0.175891 0.0178531
0.130022 0.167544 0.037171
0.161074 0.165194 0.0435798
0.197406 0.162356 0.0395972
0.233738 0.160311 0.0415656
0.29131 0.141482 0.0540627
0.343191 0.123888 0.0627909
0.386679 0.12018 0.0657664
0.429694 0.119081 0.0677958
0.473671 0.119661 0.0704204
0.52018 0.122057 0.0749523
0.564065 0.126375 0.0821698
0.607126 0.131411 0.0906691
0.650111 0.137148 0.100572
0.692424 0.143206 0.110826
0.735576 0.149691 0.121447
0.779614 0.156649 0.137484
0.816175 0.164965 0.150561
0.824796 0.165408 0.153735
0.823926 0.1626 0.152895
0.823163 0.160128 0.152102
0.822324 0.157977 0.151202
0.822293 0.155993 0.150561
0.822965 0.154421 0.150149
0.824201 0.152453 0.149096
0.825406 0.150881 0.147982
0 0.218845 0.0607156
0 0.220737 0.0397803
0 0.221378 0.0184939
0 0.219211 0.0043946
0 0.217044 0
0 0.214267 0
0.0148318 0.215091 0
0.0482338 0.215686 0.00154116
0.0939345 0.212985 0.0137179
0.164706 0.202701 0.0379644
0.200595 0.200641 0.0451972
0.240726 0.197024 0.0388342
0.281926 0.197131 0.0402228
0.338735 0.184619 0.0539406
0.396414 0.168902 0.068574
0.443748 0.161761 0.0773938
0.488594 0.162615 0.0830396
0.531838 0.16585 0.0888533
0.575555 0.17052 0.0967422
0.618006 0.175982 0.105882
0.660578 0.182193 0.115953
0.703487 0.188739 0.127153
0.746838 0.195453 0.138582
0.788998 0.202762 0.150622
0.827283 0.211643 0.163302
0.838087 0.212741 0.166827
0.83801 0.210651 0.166217
0.837552 0.208576 0.165576
0.837278 0.206897 0.165194
0.836851 0.205219 0.164355
0.836805 0.203662 0.163516
0.837674 0.202167 0.162524
0.838834 0.20087 0.161624
0 0.2598 0.0647746
0 0.261875 0.0454108
0 0.263096 0.0227817
0 0.26244 0.00471504
0 0.258915 0
0 0.25655 0
0 0.254063 0
0.023682 0.258549 0
0.0666514 0.258869 0
0.12166 0.255451 0.0110323
0.207523 0.244724 0.04065
0.247913 0.243198 0.0488289
0.293553 0.240299 0.0415656
0.336919 0.241215 0.0418555
0.388815 0.237018 0.0547036
0.449577 0.223819 0.0729229
0.499153 0.216907 0.0868238
0.544045 0.214511 0.0999313
0.587533 0.218509 0.10901
0.629511 0.225269 0.119463
0.671824 0.231571 0.130312
0.71426 0.237995 0.141878
0.757214 0.244923 0.154269
0.800229 0.252247 0.167254
0.838987 0.260105 0.180468
0.85304 0.261982 0.185016
0.854627 0.260639 0.185168
0.854139 0.259113 0.184604
0.853697 0.257603 0.184131
0.85333 0.256153 0.183383
0.853346 0.254887 0.182727
0.85388 0.253758 0.181903
0.854536 0.252842 0.181125
0 0.307164 0.0703746
0 0.309361 0.0525673
0 0.310719 0.0318151
0 0.310964 0.0104524
0 0.308644 0
0 0.305272 0
0 0.302968 0
0.00418097 0.303349 0
0.0395209 0.3093 0
0.0912795 0.30988 0
0.161166 0.306065 0.0125582
0.258137 0.294072 0.0450141
0.302998 0.29279 0.054078
0.351324 0.290211 0.0472419
0.39443 0.292302 0.04654
0.440497 0.293385 0.0557565
0.500359 0.284169 0.0767529
0.551873 0.279164 0.0957504
0.597162 0.279606 0.111742
0.640269 0.280797 0.128267
0.681712 0.28426 0.142061
0.724086 0.289784 0.154986
0.767758 0.295628 0.168338
0.80943 0.301885 0.181201
0.847852 0.308736 0.194614
0.866789 0.312001 0.201602
0.869596 0.311147 0.20238
0.869261 0.309789 0.201938
0.868955 0.308461 0.201541
0.86862 0.307286 0.200931
0.868574 0.306264 0.200427
0.868879 0.305455 0.19971
0.869307 0.304829 0.198993
0 0.361013 0.0808423
0 0.363195 0.0637675
0 0.364813 0.044358
0 0.365621 0.0235904
0 0.365698 0.00161746
0 0.362219 0
0 0.358236 0
0 0.356527 0
0.015198 0.361624 0
0.063035 0.366857 0
0.126452 0.366293 0
0.211292 0.359106 0.0193637
0.313115 0.345739 0.0504311
0.360449 0.344976 0.0608072
0.408957 0.343587 0.054963
0.452506 0.346044 0.0533455
0.495872 0.349874 0.0598459
0.551232 0.346105 0.082948
0.602213 0.343099 0.105806
0.64683 0.343572 0.125307
0.690044 0.34493 0.143969
0.732235 0.346426 0.161135
0.775494 0.348318 0.178378
0.817395 0.352636 0.193713
0.856062 0.358816 0.208026
0.879042 0.362661 0.216724
0.883299 0.362295 0.218082
0.883009 0.361028 0.217746
0.882704 0.359808 0.217411
0.88249 0.358785 0.216999
0.882399 0.358007 0.216587
0.882521 0.357549 0.215991
0.882689 0.357229 0.215305
0 0.417807 0.100694
0 0.42005 0.083299
0 0.422004 0.0639658
0 0.423545 0.0436255
0 0.424384 0.0217136
0 0.423133 0
0 0.418952 0
0 0.416007 0
0 0.414328 0
0.0353552 0.422278 0
0.0948043 0.424414 0
0.172396 0.42089 0
0.26978 0.410697 0.0303197
0.371389 0.397955 0.0592508
0.418067 0.397436 0.0714122
0.466667 0.39707 0.0640879
0.510506 0.399908 0.0628672
0.551263 0.404685 0.0714427
0.600916 0.404532 0.0951247
0.650706 0.403357 0.120974
0.695994 0.404059 0.142092
0.739147 0.405753 0.161883
0.782635 0.407233 0.182086
0.823453 0.409049 0.200244
0.861891 0.411307 0.21854
0.890791 0.414862 0.231281
0.8963 0.414786 0.233555
0.896162 0.413794 0.233341
0.89604 0.412879 0.233158
0.895796 0.41207 0.232792
0.895567 0.411414 0.232395
0.89543 0.411002 0.231846
0.895308 0.410803 0.231159
0 0.473991 0.129244
0 0.4766 0.11136
0 0.479057 0.0919966
0 0.481056 0.0712291
0 0.482567 0.0479591
0 0.48333 0.0225986
0 0.481163 0
0 0.476829 0
0 0.474403 0
0.0141451 0.475334 0
0.0655222 0.482002 0
0.138994 0.481178 0
0.228077 0.474998 0.00868238
0.336706 0.461448 0.0449531
0.43003 0.450309 0.0713817
0.475654 0.450446 0.0866407
0.523644 0.450752 0.076936
0.566384 0.454093 0.0800031
0.605112 0.459236 0.0940566
0.650889 0.460899 0.114351
0.699474 0.459922 0.142306
0.745235 0.459998 0.16611
0.789166 0.461769 0.186618
0.830381 0.462943 0.206912
0.866911 0.465446 0.225376
0.900206 0.468055 0.242649
0.907256 0.467796 0.246052
0.907271 0.467033 0.245975
0.907088 0.466392 0.245762
0.906905 0.465766 0.245548
0.906828 0.465293 0.245457
0.906676 0.465064 0.245167
0.906508 0.464973 0.244709
0 0.5299 0.165789
0 0.532555 0.149096
0 0.535134 0.13048
0 0.537392 0.109926
0 0.539406 0.0866255
0 0.540825 0.0594492
0 0.541024 0.0307622
0 0.537652 0.00430304
0 0.533471 0
0.00523384 0.531563 0
0.0428626 0.536385 0
0.108873 0.539773 0
0.195071 0.53669 0
0.292363 0.527901 0.0230716
0.405447 0.512047 0.0614481
0.487282 0.502556 0.0871901
0.531914 0.503075 0.104753
0.578531 0.504051 0.0975814
0.619989 0.507256 0.106661
0.656886 0.51165 0.122179
0.699916 0.514107 0.143282
0.74789 0.513069 0.170367
0.794232 0.513054 0.195987
0.835126 0.514488 0.216861
0.872221 0.516106 0.236011
0.904814 0.518837 0.253269
0.917189 0.519463 0.259754
0.918776 0.519036 0.260395
0.918761 0.518532 0.260365
0.918746 0.51809 0.260349
0.918608 0.517693 0.260166
0.918425 0.51751 0.259861
0.918212 0.51751 0.259403
0 0.583658 0.210742
0 0.586236 0.19498
0 0.588769 0.177996
0 0.591455 0.15848
0 0.593927 0.135775
0 0.596139 0.107378
0 0.597559 0.074464
0 0.596826 0.0426337
0 0.592493 0.0116274
0.00315862 0.588479 0
0.0296635 0.58764 0
0.0836194 0.594385 0
0.166613 0.594644 0
0.262516 0.589273 0.0132143
0.365667 0.578286 0.0454719
0.471199 0.562341 0.0802777
0.544121 0.554452 0.106691
0.586908 0.555123 0.127535
0.631403 0.555978 0.122011
0.671672 0.55938 0.13817
0.707515 0.56318 0.156085
0.74789 0.565408 0.178912
0.795819 0.564492 0.206088
0.83888 0.564309 0.230625
0.874723 0.565759 0.250217
0.907423 0.56791 0.268162
0.925933 0.5691 0.278492
0.928862 0.568811 0.279957
0.928771 0.568414 0.279759
0.928786 0.568078 0.279667
0.928786 0.567849 0.279606
0.92871 0.567742 0.279408
0.928542 0.567742 0.279088
0 0.63595 0.259403
0 0.638498 0.244938
0 0.641199 0.228779
0 0.643931 0.210803
0 0.646555 0.189975
0 0.649256 0.163195
0 0.651713 0.129702
0 0.652964 0.0917678
0 0.650507 0.0558633
0.00595102 0.64593 0.0196231
0.0242618 0.642725 0
0.0643473 0.64538 0
0.136965 0.650217 0
0.235187 0.647608 0.011902
0.336294 0.639841 0.0387579
0.438392 0.626795 0.0744945
0.534997 0.612818 0.103563
0.598657 0.605692 0.130709
0.639094 0.605905 0.153811
0.682582 0.606973 0.15259
0.720241 0.609552 0.175082
0.755978 0.613001 0.196063
0.794293 0.614679 0.219593
0.839597 0.613596 0.246677
0.877379 0.613001 0.270024
0.909483 0.614221 0.287907
0.933379 0.616175 0.301366
0.93756 0.616342 0.303365
0.937484 0.616037 0.303212
0.937423 0.615763 0.303075
0.937392 0.615518 0.302968
0.937224 0.615366 0.302754
0.936965 0.61529 0.302464
0 0.687221 0.308965
0 0.68954 0.296529
0 0.692088 0.282048
0 0.694697 0.266041
0 0.697643 0.246433
0 0.700923 0.221363
0 0.704143 0.189563
0 0.706859 0.151385
0 0.707332 0.109941
0.0110018 0.703685 0.0684367
0.0260166 0.698909 0.0267796
0.0546273 0.698161 0
0.114488 0.702464 0.000961318
0.204532 0.703914 0.0159152
0.309972 0.698405 0.0394598
0.409354 0.689281 0.0684825
0.507088 0.675685 0.10396
0.594614 0.66302 0.128389
0.651728 0.656443 0.157229
0.68983 0.65626 0.182696
0.730632 0.657298 0.193072
0.7673 0.659144 0.218784
0.802518 0.661646 0.240681
0.837308 0.66302 0.263584
0.876753 0.661509 0.291279
0.910201 0.661448 0.312108
0.937621 0.662516 0.329091
0.945403 0.662928 0.332769
0.946105 0.662776 0.332097
0.946044 0.662638 0.331151
0.946014 0.662547 0.330678
0.945891 0.662486 0.330388
0.945647 0.66244 0.330144
0 0.73872 0.355596
0 0.74081 0.344503
0 0.743099 0.332265
0 0.745678 0.318166
0 0.748577 0.301564
0 0.751934 0.279576
0 0.755718 0.250523
0 0.759472 0.213428
0.00521859 0.762219 0.169665
0.0164492 0.760922 0.125277
0.0312352 0.75671 0.078172
0.0526131 0.753277 0.0345159
0.0944228 0.753109 0.0135653
0.180026 0.75787 0.0256199
0.281178 0.755795 0.0445411
0.386664 0.747936 0.0704662
0.477272 0.738705 0.0992447
0.570123 0.724254 0.132677
0.650919 0.712749 0.154208
0.702495 0.706279 0.184283
0.738735 0.705547 0.210071
0.776455 0.705562 0.238071
0.812238 0.70663 0.265812
0.845197 0.708721 0.287785
0.875944 0.71046 0.310246
0.90985 0.708751 0.338766
0.937957 0.709468 0.357946
0.952056 0.710582 0.36553
0.954009 0.710658 0.365469
0.953887 0.710536 0.364355
0.953811 0.710445 0.363455
0.953704 0.710384 0.362753
0.953506 0.710338 0.362249
0 0.791791 0.398062
0 0.793774 0.388022
0 0.795804 0.377234
0 0.798077 0.365225
0 0.800656 0.350835
0 0.803769 0.332006
0.00254826 0.807507 0.30692
0.00680552 0.811673 0.274006
0.0131075 0.815854 0.232074
0.0231785 0.817746 0.184512
0.0374151 0.814725 0.13637
0.0551919 0.810544 0.0842603
0.0913558 0.809644 0.0498054
0.165103 0.810941 0.0486763
0.260227 0.811795 0.0608072
0.363836 0.806851 0.0800336
0.457877 0.799252 0.103029
0.544015 0.788785 0.131807
0.628351 0.775616 0.161288
0.704326 0.76434 0.181323
0.752102 0.756481 0.210849
0.784802 0.754894 0.25037
0.821073 0.754772 0.287556
0.85478 0.755718 0.316686
0.88452 0.758007 0.338979
0.911467 0.759655 0.359396
0.939559 0.757702 0.385657
0.959136 0.757977 0.401541
0.962081 0.758083 0.402625
0.962219 0.758038 0.401648
0.962264 0.757992 0.400824
0.962203 0.757961 0.400229
0.962081 0.757946 0.399664
0.0133516 0.84567 0.436362
0.0128176 0.847562 0.42742
0.012253 0.849607 0.417716
0.0118715 0.851728 0.407477
0.0119936 0.854139 0.395148
0.0129397 0.857099 0.378805
0.014725 0.860792 0.357565
0.0180819 0.864866 0.329763
0.023682 0.869245 0.292592
0.0321202 0.872465 0.247257
0.0450599 0.871199 0.201663
0.06215 0.867872 0.151278
0.0981003 0.866926 0.110918
0.167437 0.864469 0.0964065
0.255695 0.866194 0.10251
0.350317 0.863905 0.117647
0.44239 0.857862 0.137118
0.52517 0.849683 0.158785
0.605417 0.837949 0.184619
0.68188 0.824369 0.208576
0.753597 0.813153 0.22652
0.799191 0.805417 0.255131
0.830503 0.803616 0.304738
0.864408 0.803021 0.342092
0.894575 0.803265 0.369131
0.920775 0.805234 0.389578
0.944244 0.806577 0.40737
0.966781 0.804822 0.430335
0.97026 0.804517 0.434424
0.970352 0.804562 0.433738
0.970413 0.804623 0.433005
0.970459 0.804669 0.432303
0.970504 0.804746 0.431708
0.0281834 0.895155 0.470832
0.0275273 0.89688 0.462837
0.0264744 0.898741 0.454368
0.0254978 0.900816 0.444907
0.0250706 0.903105 0.433631
0.0253452 0.905806 0.41944
0.0264439 0.909087 0.400977
0.0291752 0.912993 0.377127
0.0336919 0.917372 0.346365
0.041474 0.919875 0.312306
0.0525368 0.920333 0.271443
0.0698863 0.918868 0.222416
0.109285 0.919615 0.181369
0.180453 0.917723 0.1617
0.258732 0.914763 0.153735
0.345998 0.914015 0.164263
0.428565 0.910033 0.179767
0.509255 0.902937 0.198398
0.582589 0.894377 0.218921
0.659236 0.881498 0.244694
0.729824 0.868711 0.267262
0.797223 0.857984 0.286412
0.842649 0.850446 0.317327
0.87245 0.847929 0.36257
0.902724 0.846876 0.39588
0.929519 0.846601 0.420233
0.952651 0.847532 0.438788
0.97229 0.848844 0.45478
0.978927 0.848585 0.462959
0.97969 0.8486 0.463081
0.979858 0.848692 0.462409
0.979995 0.848768 0.461738
0.980148 0.848844 0.461219
0.043595 0.938689 0.503014
0.0427405 0.940307 0.495659
0.0411994 0.942199 0.487434
0.0400549 0.944121 0.478782
0.0391089 0.946288 0.468727
0.0391394 0.948745 0.456367
0.0403906 0.951339 0.441016
0.0435187 0.953857 0.422766
0.0480507 0.956603 0.400183
0.0548104 0.959152 0.371832
0.0644236 0.960998 0.336583
0.0830854 0.962142 0.29485
0.129473 0.965179 0.259602
0.19852 0.963287 0.234058
0.267353 0.957565 0.213581
0.349294 0.95639 0.217472
0.424186 0.953887 0.228794
0.495705 0.949203 0.243748
0.567163 0.942229 0.261784
0.634806 0.933623 0.282048
0.708461 0.920653 0.307836
0.775158 0.908522 0.330297
0.836606 0.898375 0.349905
0.882231 0.889967 0.379873
0.909453 0.887022 0.41799
0.935836 0.885496 0.447333
0.959014 0.884932 0.469032
0.978286 0.885695 0.486
0.985977 0.886778 0.495857
0.986755 0.886992 0.496239
0.986725 0.887098 0.495659
0.986755 0.887175 0.49514
0.986893 0.887236 0.494789
0.0580758 0.975402 0.53257
0.0585946 0.976364 0.526864
0.0581369 0.9776 0.520546
0.0577401 0.978988 0.513481
0.057557 0.980468 0.505592
0.058381 0.982055 0.495842
0.059968 0.98381 0.484001
0.0627909 0.985885 0.469017
0.0667582 0.988296 0.450019
0.0722667 0.990982 0.425971
0.0817578 0.993637 0.396063
0.106355 0.996872 0.363546
0.160754 0.998459 0.333455
0.223529 0.997879 0.306691
0.287312 0.994904 0.282795
0.356741 0.991913 0.274372
0.427161 0.989746 0.280919
0.491722 0.986633 0.292546
0.55584 0.982254 0.308064
0.621439 0.975631 0.326299
0.685557 0.967147 0.346609
0.756405 0.954055 0.371511
0.819593 0.941405 0.391714
0.874296 0.932036 0.410315
0.916915 0.923629 0.438621
0.941451 0.920287 0.471458
0.963943 0.918517 0.497292
0.982742 0.917693 0.516762
0.990295 0.918044 0.530205
0.99086 0.918257 0.531075
0.990829 0.918379 0.53051
0.990814 0.918486 0.530037
0.99086 0.918547 0.529656
0.0652476 0.987671 0.550774
0.0658732 0.988586 0.54551
0.0662089 0.989715 0.539727
0.0664378 0.990921 0.533532
0.0667735 0.992126 0.52668
0.0679179 0.993378 0.518166
0.0696269 0.994781 0.507469
0.0724193 0.996231 0.493828
0.0761578 0.99765 0.476844
0.0817426 0.998901 0.455497
0.09308 0.999893 0.429572
0.122454 0.999969 0.403784
0.185718 0.999969 0.385122
0.250095 0.999969 0.367254
0.310857 0.999969 0.348943
0.36846 0.999969 0.331212
0.434882 0.999969 0.333898
0.496101 0.999969 0.342107
0.553613 0.999969 0.355093
0.612284 0.998886 0.371313
0.672419 0.993713 0.38912
0.737041 0.98175 0.41033
0.801938 0.966888 0.432135
0.863676 0.953826 0.450034
0.906691 0.947906 0.466484
0.944961 0.944472 0.493904
0.967147 0.943114 0.522652
0.985809 0.942092 0.545724
0.991287 0.942184 0.565118
0.991531 0.94226 0.567147
0.99147 0.942351 0.566888
0.991424 0.942382 0.566537
0.99147 0.942367 0.566079
0.0644999 0.988479 0.559091
0.0649271 0.989441 0.553704
0.0652781 0.990463 0.548074
0.0659037 0.99147 0.542245
0.0667124 0.992508 0.535515
0.0681163 0.993637 0.527184
0.0699168 0.994934 0.516732
0.0725109 0.996353 0.503349
0.0760052 0.997742 0.486854
0.0810101 0.998962 0.465751
0.090959 0.999893 0.440162
0.116197 0.999969 0.413108
0.178195 0.999969 0.393759
0.244694 0.999969 0.376257
0.308965 0.999969 0.362005
0.368643 0.999969 0.351873
0.432471 0.999969 0.351644
0.493477 0.999969 0.358328
0.549935 0.999969 0.369604
0.606683 0.999771 0.384756
0.663691 0.99646 0.401175
0.72697 0.986358 0.420905
0.791333 0.971466 0.442008
0.854261 0.957305 0.459998
0.900328 0.949783 0.475044
0.93846 0.946044 0.49897
0.965499 0.943984 0.527825
0.983841 0.94287 0.551705
0.990372 0.942687 0.571771
0.990585 0.942885 0.577173
0.990799 0.94284 0.577035
0.991226 0.942748 0.576013
0.991531 0.942687 0.575128
0.0677806 0.986938 0.566522
0.0683604 0.987808 0.561303
0.0686809 0.988815 0.555688
0.0691539 0.989807 0.550011
0.0698863 0.990967 0.543374
0.0716564 0.992096 0.535378
0.0738689 0.993423 0.525277
0.076585 0.99498 0.512428
0.0799878 0.996628 0.496254
