bundles/resolve-cinematic-luts/Phantom Luts/P4k & P6k Phntm Arri LUTs - V6/P6k/Gen 4 Colour/P6k Neutral Gen4-Legacy.cube
TITLE "Generated by Resolve"
LUT_3D_SIZE 9
0.027863 0.0278019 0.0278172
0.0790112 0.0299382 0.0331426
0.193011 0.0331121 0.0493477
0.353597 0.0371252 0.0736706
0.54873 0.0440986 0.114427
0.75285 0.0704509 0.167208
0.930159 0.109773 0.219013
0.936568 0.123491 0.231678
0.939696 0.126848 0.237644
0.0259556 0.0746014 0.0430762
0.0605936 0.0683909 0.0303349
0.15903 0.0617227 0.0355688
0.308904 0.0408484 0.0440375
0.506111 0.0334936 0.0739757
0.714565 0.0532692 0.123278
0.913024 0.088838 0.176623
0.92079 0.100298 0.185977
0.925139 0.106813 0.191669
0.00846876 0.185245 0.0667887
0.0189059 0.182895 0.0131991
0.151293 0.175555 0.0248417
0.313161 0.151369 0.0392157
0.492119 0.131167 0.0671397
0.692027 0.139757 0.105715
0.907485 0.149355 0.1552
0.907912 0.137697 0.155032
0.907881 0.130312 0.154849
0 0.349126 0.117067
0 0.352834 0.0460822
0.0402075 0.348623 0
0.308003 0.352117 0.0331426
0.500053 0.355795 0.0413214
0.701228 0.348714 0.126925
0.893812 0.355169 0.176928
0.917449 0.352209 0.181903
0.917205 0.348531 0.181003
0.00247196 0.55346 0.242756
0 0.559274 0.181491
0 0.559258 0.0697948
0.166369 0.560052 0.028687
0.507652 0.561746 0.0818799
0.698604 0.570047 0.12726
0.893706 0.566537 0.224537
0.946731 0.568154 0.246174
0.946517 0.566171 0.245258
0.0400092 0.765667 0.404349
0.0321508 0.770489 0.364492
0.0209812 0.778943 0.267933
0.068452 0.771191 0.0932784
0.398077 0.780453 0.112612
0.702739 0.774853 0.164691
0.869978 0.774563 0.308171
0.965301 0.768185 0.378775
0.96492 0.7673 0.374578
0.0894331 0.954955 0.530922
0.0898146 0.956008 0.507088
0.091371 0.957931 0.458625
0.161898 0.95967 0.361074
0.388327 0.949279 0.317235
0.622446 0.949691 0.353246
0.874296 0.943175 0.406302
0.963378 0.939071 0.507301
0.963378 0.939208 0.504097
0.100633 0.962814 0.566644
0.100343 0.965011 0.544793
0.103059 0.968124 0.502541
0.164065 0.978271 0.41799
0.388479 0.977981 0.384466
0.602686 0.967727 0.418631
0.846784 0.962432 0.447059
0.962463 0.962081 0.546502
0.962432 0.962066 0.557046
0.106981 0.960769 0.583688
0.102571 0.964019 0.561166
0.10396 0.967697 0.520088
0.13904 0.976806 0.427909
0.375265 0.978439 0.38735
0.590494 0.968307 0.417273
0.835935 0.962142 0.444678
0.962493 0.962081 0.539971
0.962432 0.962051 0.55726
0.0390631 0.0283055 0.0655222
0.0875715 0.0288243 0.0731823
0.210727 0.0292668 0.100786
0.373907 0.0301213 0.126741
0.564843 0.0361334 0.159777
0.763012 0.0643931 0.209491
0.94023 0.101961 0.261021
0.946426 0.108782 0.272694
0.94818 0.113527 0.279637
0.0300755 0.0587472 0.0569009
0.053727 0.0537118 0.0537118
0.187182 0.0446021 0.0551156
0.33872 0.0378729 0.0716106
0.536095 0.0443732 0.112352
0.740139 0.0697032 0.164538
0.930266 0.109804 0.218769
0.936797 0.124147 0.231708
0.93991 0.127581 0.237797
0.01944 0.165927 0.109285
0.0121004 0.169482 0.0636149
0.145266 0.166491 0.0347448
0.326863 0.12076 0.0520333
0.500435 0.104417 0.0693523
0.706462 0.1075 0.110994
0.912627 0.114137 0.15938
0.911025 0.101152 0.157748
0.914488 0.10367 0.161822
0.000183108 0.329732 0.164355
0 0.336126 0.1131
0.0174868 0.340795 0.0152285
0.302983 0.345342 0.0408942
0.511208 0.337697 0.0615244
0.706371 0.328786 0.13167
0.90222 0.337957 0.176806
0.91696 0.333242 0.178882
0.915969 0.329 0.177523
0.0114748 0.538979 0.283436
0.00213626 0.544656 0.237049
0 0.553796 0.115419
0.137133 0.556725 0.039765
0.502785 0.555871 0.0899062
0.701228 0.561563 0.136355
0.897276 0.557565 0.231312
0.945922 0.558022 0.246708
0.945556 0.555673 0.244373
0.0461738 0.753536 0.431739
0.0393378 0.757717 0.399954
0.0255436 0.766857 0.320089
0.0402075 0.764996 0.116777
0.38323 0.776547 0.12575
0.698558 0.769467 0.172839
0.870771 0.767956 0.309224
0.965255 0.761318 0.380346
0.965026 0.760037 0.376791
0.0912642 0.946944 0.550454
0.0861524 0.949676 0.525643
0.086305 0.95198 0.480354
0.110719 0.955596 0.368734
0.368673 0.948043 0.315343
0.611429 0.947601 0.34931
0.87068 0.940078 0.400275
0.96347 0.935637 0.504051
0.963485 0.935439 0.501076
0.105303 0.959808 0.587274
0.101122 0.962966 0.56582
0.102052 0.966522 0.52636
0.122164 0.975006 0.431739
0.369207 0.978622 0.387549
0.591974 0.968277 0.419043
0.840162 0.962264 0.446372
0.962478 0.962081 0.544762
0.962417 0.962051 0.557977
0.111727 0.958129 0.603143
0.107591 0.960983 0.582971
0.102907 0.966079 0.543069
0.11809 0.974227 0.450568
0.354345 0.979065 0.390951
0.579019 0.968933 0.417472
0.828336 0.961913 0.444236
0.95964 0.962158 0.537255
0.962417 0.962051 0.558343
0.0594797 0.0281834 0.171237
0.119509 0.0291142 0.165713
0.223117 0.0300298 0.182437
0.389151 0.0296635 0.211841
0.581277 0.0319677 0.244816
0.780575 0.055375 0.284535
0.952285 0.0922408 0.331228
0.955413 0.0994888 0.342489
0.957183 0.104051 0.349142
0.0302739 0.0486152 0.132433
0.0605936 0.0285344 0.156664
0.195453 0.0326696 0.160708
0.371206 0.0338903 0.170001
0.564828 0.0360418 0.200763
0.762524 0.0614328 0.243473
0.948257 0.099794 0.293416
0.951232 0.10724 0.304738
0.952651 0.111482 0.311284
0.0241855 0.155398 0.148272
0.0309453 0.151537 0.145006
0.153552 0.153552 0.153552
0.359731 0.128435 0.14432
0.558953 0.096437 0.146059
0.750729 0.102235 0.182879
0.934905 0.117372 0.223316
0.938216 0.126848 0.232822
0.940612 0.13051 0.238972
0.0142824 0.312886 0.217136
0.0160372 0.311803 0.197604
0 0.322499 0.115221
0.302663 0.339864 0.0846876
0.532387 0.308385 0.118318
0.726146 0.297673 0.156756
0.939254 0.302052 0.204105
0.939635 0.292851 0.202701
0.93962 0.287404 0.201785
0.022034 0.518196 0.335821
0.0175479 0.519875 0.306813
0.00202945 0.528893 0.227573
0.0896925 0.549599 0.0672618
0.494743 0.546197 0.103487
0.712032 0.543999 0.161563
0.905974 0.540276 0.251255
0.944945 0.539483 0.262638
0.944961 0.536843 0.261311
0.0543526 0.734569 0.469505
0.0498207 0.736919 0.446067
0.0384222 0.743893 0.392279
0.0225986 0.756817 0.191913
0.352346 0.770123 0.14815
0.691722 0.760769 0.18613
0.872999 0.756725 0.313191
0.965011 0.749187 0.383307
0.964904 0.747478 0.380652
0.0979934 0.932891 0.58114
0.0936141 0.934783 0.561227
0.0848859 0.939406 0.51928
0.08365 0.945434 0.409384
0.328984 0.94612 0.313939
0.594156 0.944259 0.343252
0.86482 0.935027 0.389914
0.963638 0.929198 0.498589
0.963668 0.928573 0.495781
0.11313 0.955612 0.618708
0.109331 0.958114 0.600855
0.102083 0.963333 0.564462
0.106188 0.970443 0.4766
0.330983 0.979614 0.394308
0.57319 0.969329 0.419333
0.828779 0.961929 0.445975
0.962478 0.962081 0.541939
0.962417 0.962051 0.559365
0.119387 0.954253 0.633066
0.115801 0.956542 0.615839
0.10869 0.961364 0.581796
0.107042 0.970062 0.495827
0.312825 0.97998 0.3991
0.558877 0.970153 0.417823
0.809415 0.961944 0.445167
0.953689 0.96231 0.53257
0.962417 0.962051 0.560037
0.10573 0.0258183 0.331731
0.166445 0.0263066 0.321981
0.253605 0.0262608 0.324697
0.402869 0.0311131 0.338842
0.586282 0.0303044 0.38088
0.800458 0.0522011 0.40087
0.960616 0.0801709 0.445563
0.960601 0.0881208 0.455726
0.960601 0.0926375 0.46154
0.0316472 0.0435645 0.295903
0.105882 0.0260777 0.3196
0.220233 0.0267033 0.313741
0.385779 0.0329747 0.323507
0.574426 0.0342412 0.354025
0.785504 0.0522316 0.380697
0.960586 0.0877699 0.41976
0.960586 0.0953536 0.429297
0.960586 0.0997482 0.434653
0.0258946 0.128511 0.266682
0.0264897 0.115389 0.279835
0.16701 0.0911116 0.336446
0.374304 0.0775769 0.321706
0.561028 0.0605936 0.307652
0.759701 0.0590524 0.32607
0.959442 0.100298 0.368643
0.960418 0.107866 0.377752
0.960433 0.112367 0.3832
0.0196841 0.298314 0.284153
0.0262455 0.296208 0.282216
0.0423896 0.296223 0.283268
0.322087 0.322087 0.322087
0.557198 0.291798 0.310353
0.804013 0.250813 0.298405
0.959503 0.252552 0.318608
0.959548 0.24361 0.31751
0.959564 0.238056 0.316838
0.035462 0.503746 0.400519
0.0390326 0.50193 0.389303
0.0438392 0.499413 0.364401
0.0856031 0.525887 0.280156
0.494224 0.533913 0.249134
0.740139 0.511223 0.262547
0.939391 0.498421 0.310231
0.953445 0.49044 0.315862
0.953765 0.48716 0.315404
0.0648356 0.710384 0.522957
0.0631418 0.709499 0.510628
0.059144 0.710231 0.482353
0.0396277 0.720928 0.381842
0.278614 0.763134 0.198993
0.680568 0.746471 0.21825
0.885664 0.732876 0.338735
0.964141 0.726131 0.39202
0.963836 0.72285 0.391165
0.108507 0.907744 0.629419
0.10576 0.908232 0.614893
0.100023 0.909972 0.586587
0.0832685 0.918761 0.507469
0.214786 0.941634 0.325063
0.554665 0.938262 0.333928
0.852934 0.924666 0.370504
0.963867 0.915953 0.490578
0.963897 0.914168 0.488975
0.125948 0.94963 0.671183
0.123415 0.951202 0.657328
0.118379 0.954421 0.630854
0.10425 0.964157 0.562264
0.219562 0.980682 0.417578
0.532036 0.971908 0.420294
0.794766 0.962066 0.448356
0.954559 0.96228 0.535821
0.962402 0.962051 0.562509
0.131304 0.948775 0.683406
0.129076 0.950286 0.670466
0.124285 0.953262 0.644724
0.11104 0.962127 0.579522
0.189624 0.980392 0.426047
0.514595 0.97293 0.418906
0.767773 0.962417 0.448203
0.941924 0.962509 0.521691
0.962402 0.962051 0.563836
0.176135 0.0231632 0.508324
0.234607 0.0229343 0.500587
0.32192 0.0241855 0.496406
0.435126 0.0255894 0.5019
0.603403 0.034638 0.519631
0.814725 0.0332494 0.565087
0.960555 0.0663767 0.585458
0.960555 0.0712139 0.597696
0.960555 0.0745098 0.604242
0.0797589 0.0255741 0.496971
0.17232 0.0232242 0.499565
0.284031 0.023743 0.493309
0.414466 0.0256504 0.494865
0.591058 0.0364843 0.509178
0.803235 0.0354925 0.548882
0.960555 0.0728923 0.567422
0.960555 0.0788586 0.578058
0.960555 0.0829328 0.583917
0.0292363 0.0734722 0.437736
0.0346532 0.0518502 0.455207
0.187152 0.0239567 0.493111
0.373449 0.0299229 0.484459
0.569574 0.0397955 0.490929
0.7841 0.0414435 0.518807
0.960555 0.0866865 0.533043
0.960555 0.0939803 0.541344
0.960555 0.0982834 0.546349
0.022446 0.259495 0.428626
0.0225071 0.249348 0.434287
0.0469825 0.23238 0.455558
0.337972 0.226108 0.523384
0.570306 0.215213 0.513558
0.811337 0.176074 0.510124
0.960555 0.174716 0.512139
0.960555 0.167559 0.507729
0.960555 0.163149 0.50605
0.039704 0.490318 0.473487
0.0455787 0.488121 0.471382
0.057435 0.484718 0.468376
0.1514 0.495018 0.481651
0.501503 0.501503 0.501503
0.745022 0.483986 0.499886
0.961212 0.460197 0.490211
0.96379 0.443854 0.480781
0.965667 0.434318 0.475547
0.0994278 0.69453 0.589822
0.104723 0.692668 0.584176
0.112993 0.689494 0.572473
0.123995 0.684367 0.540795
0.325521 0.718776 0.495445
0.670237 0.714427 0.45919
0.898848 0.701488 0.469627
0.964523 0.696437 0.45861
0.963897 0.690028 0.453925
0.130327 0.883803 0.690364
0.128862 0.882231 0.682475
0.125902 0.879927 0.668208
0.116106 0.876936 0.62916
0.103639 0.90396 0.511498
0.511208 0.929503 0.420462
0.84358 0.911955 0.415
0.964538 0.896178 0.512291
0.964767 0.890669 0.507927
0.155779 0.946349 0.744259
0.149203 0.946044 0.735363
0.144396 0.946822 0.719188
0.137591 0.950149 0.679454
0.11606 0.965667 0.564599
0.448783 0.976654 0.440589
0.737102 0.96318 0.463004
0.946822 0.962417 0.534096
0.962371 0.962036 0.571771
0.166125 0.947906 0.754864
0.159625 0.947265 0.746105
0.150881 0.947036 0.729427
0.142016 0.949538 0.689754
0.120714 0.963577 0.580468
0.412818 0.977783 0.434974
0.696483 0.964523 0.459007
0.922103 0.962753 0.502556
0.962356 0.962036 0.572763
0.275319 0.0217746 0.683528
0.324239 0.0215152 0.676753
0.398718 0.0227054 0.67306
0.501442 0.025452 0.671855
0.63151 0.0293736 0.684153
0.841169 0.0406653 0.710353
0.960555 0.0603799 0.735088
0.960555 0.065095 0.752209
0.960555 0.0678264 0.761868
0.201114 0.0223239 0.677684
0.271275 0.0217899 0.676249
0.365393 0.022034 0.671229
0.481224 0.0249485 0.667399
0.616907 0.0293126 0.677623
0.829038 0.042649 0.70103
0.960555 0.0611734 0.72668
0.960555 0.0687114 0.73843
0.960555 0.0724956 0.74551
0.0539712 0.0531777 0.63592
0.113771 0.025391 0.657176
0.283116 0.0217746 0.669184
0.439551 0.0240177 0.660975
0.591226 0.0313878 0.667369
0.808133 0.0454719 0.685313
0.960555 0.0571908 0.720546
0.960555 0.0662089 0.727886
0.960555 0.0719615 0.731807
0.0314336 0.207111 0.591211
0.0323033 0.192309 0.599207
0.04448 0.162203 0.621042
0.355718 0.107271 0.693477
0.570977 0.109148 0.684718
0.794247 0.0946059 0.680049
0.960555 0.076112 0.687037
0.960555 0.0763256 0.683696
0.960555 0.081239 0.687373
0.0417182 0.462333 0.610758
0.04271 0.456123 0.613245
0.0442817 0.444938 0.61854
0.167285 0.441886 0.661357
0.528801 0.430686 0.705318
0.760601 0.424598 0.695277
0.960555 0.393164 0.693095
0.960555 0.374411 0.686107
0.960555 0.363821 0.682338
0.107713 0.679622 0.659159
0.11313 0.67776 0.657572
0.123171 0.674586 0.654505
0.144656 0.667872 0.648646
0.38967 0.679835 0.666743
0.670756 0.670756 0.670756
0.89778 0.658503 0.672801
0.960311 0.646723 0.667338
0.96022 0.640406 0.663386
0.206012 0.866789 0.7608
0.209567 0.864759 0.756741
0.215793 0.86157 0.749462
0.227314 0.854688 0.731868
0.273381 0.858549 0.702831
0.547829 0.875288 0.675914
0.831922 0.870802 0.643488
0.963851 0.863767 0.649439
0.963653 0.858305 0.64567
0.291325 0.953704 0.82919
0.285084 0.953689 0.82446
0.273045 0.953109 0.814893
0.244144 0.952132 0.793591
0.212818 0.951797 0.743786
0.447303 0.972076 0.686625
0.716731 0.967056 0.629435
0.944778 0.962219 0.617823
0.962036 0.961883 0.646082
0.309285 0.954849 0.840146
0.302312 0.954543 0.834607
0.289754 0.95407 0.824338
0.259754 0.953124 0.801678
0.226764 0.952285 0.750637
0.398779 0.971801 0.675471
0.676936 0.969055 0.610895
0.902113 0.962692 0.589944
0.962051 0.961898 0.641764
0.377478 0.0208133 0.845243
0.410986 0.020798 0.83917
0.471504 0.0223239 0.837232
0.56376 0.0256352 0.837186
0.687175 0.0306859 0.845075
0.863127 0.049134 0.874296
0.960555 0.0683299 0.909911
0.960555 0.0802625 0.931304
0.960555 0.0880293 0.941039
0.326909 0.0210117 0.842695
0.372976 0.0208438 0.838331
0.442878 0.0215152 0.83444
0.543038 0.0247959 0.832914
0.67245 0.0301213 0.839399
0.850782 0.0495918 0.868147
0.960555 0.0671397 0.900481
0.960555 0.0787213 0.920806
0.960555 0.0860151 0.930144
0.178012 0.0244907 0.825238
0.268589 0.0214084 0.831968
0.376745 0.0208286 0.830427
0.503777 0.0235294 0.827024
0.64564 0.0296178 0.830076
0.829343 0.0510109 0.858244
0.960555 0.0652171 0.884749
0.960555 0.076112 0.901427
0.960555 0.0826734 0.910231
0.0671244 0.132601 0.74464
0.0754253 0.112734 0.756558
0.0960861 0.0704356 0.783398
0.391836 0.0255741 0.824659
0.584619 0.0322423 0.816098
0.78381 0.0562905 0.839338
0.960555 0.0627146 0.853223
0.960555 0.0724956 0.860609
0.960555 0.0772717 0.865904
0.0701762 0.433783 0.752148
0.0719921 0.42565 0.757809
0.0750439 0.410437 0.770153
0.188281 0.393957 0.827237
0.569696 0.354726 0.893538
0.788327 0.353231 0.884657
0.960555 0.328161 0.881193
0.960555 0.304448 0.87332
0.960555 0.299062 0.865324
0.0900435 0.657282 0.779843
0.0917525 0.653513 0.78175
0.0942855 0.646403 0.784817
0.162966 0.635615 0.798215
0.405295 0.641169 0.843076
0.702876 0.620935 0.858915
0.90692 0.617044 0.851301
0.961486 0.601984 0.852644
0.961395 0.595605 0.849424
0.220706 0.85156 0.82771
0.223987 0.849622 0.825818
0.230289 0.84625 0.822492
0.243687 0.839521 0.815961
0.301106 0.839399 0.817075
0.59852 0.837903 0.826368
0.829343 0.829343 0.829343
0.96379 0.819791 0.831373
0.963867 0.813504 0.82768
0.388037 0.961532 0.897429
0.386603 0.961181 0.895262
0.379294 0.959396 0.890181
0.356298 0.95375 0.877638
0.3449 0.944045 0.852659
0.544137 0.955062 0.859083
0.739956 0.960372 0.842374
0.936934 0.958679 0.81062
0.961746 0.952758 0.817075
0.399344 0.963012 0.905806
0.397635 0.962631 0.903136
0.394354 0.961883 0.898711
0.385626 0.960616 0.888563
0.361059 0.958709 0.863462
0.500084 0.963745 0.854276
0.698375 0.965576 0.843
0.8869 0.961791 0.799741
0.961395 0.961227 0.799512
0.446052 0.0205386 0.923369
0.474754 0.0210269 0.923201
0.525124 0.0225834 0.922484
0.608774 0.0261387 0.922347
0.73048 0.0319524 0.926131
0.891127 0.0480354 0.943435
0.960555 0.0920119 0.960555
0.960555 0.0981155 0.960555
0.960555 0.101717 0.960555
0.409659 0.0205844 0.923003
0.444877 0.0205386 0.923354
0.50106 0.0217594 0.922866
0.590143 0.0252689 0.922118
0.715679 0.03122 0.925231
0.880293 0.049134 0.943313
0.960555 0.0929427 0.960555
0.960555 0.100114 0.960555
0.960555 0.104143 0.960555
0.318334 0.0209506 0.919493
0.374136 0.0207218 0.92195
0.448234 0.0205081 0.923278
0.555566 0.0238041 0.922255
0.689891 0.0299382 0.924331
0.861265 0.0512093 0.943008
0.960555 0.0949416 0.960555
0.960555 0.103807 0.960555
0.960555 0.10808 0.960555
0.149599 0.0831617 0.879622
0.167803 0.0603342 0.894224
0.221744 0.0251621 0.905959
0.463935 0.0226291 0.923751
0.630671 0.0296483 0.923796
0.821714 0.0574044 0.943786
0.960555 0.0999619 0.960555
0.960555 0.111009 0.960555
0.960555 0.11632 0.960555
0.11284 0.407187 0.866148
0.115969 0.397223 0.874556
0.12401 0.377737 0.890089
0.263371 0.339132 0.937224
0.604074 0.298009 0.960555
0.819425 0.292042 0.960555
0.960555 0.285222 0.960555
0.960555 0.274846 0.960555
0.960555 0.271366 0.960555
0.178653 0.643412 0.878523
0.180896 0.638804 0.881193
0.185245 0.630777 0.887129
0.223087 0.615534 0.904402
0.428107 0.617609 0.949615
0.748608 0.586053 0.960555
0.927916 0.584634 0.960876
0.960693 0.57821 0.960693
0.960662 0.57145 0.960662
0.233936 0.836805 0.90988
0.23476 0.833707 0.910094
0.247623 0.829038 0.911437
0.278401 0.819135 0.915404
0.374411 0.809796 0.933486
0.616205 0.810559 0.941131
0.857572 0.792325 0.948547
0.964141 0.79028 0.948409
0.964157 0.78378 0.944503
0.372427 0.954025 0.936263
0.366659 0.952728 0.934447
0.364157 0.949752 0.931624
0.364797 0.944091 0.925628
0.370352 0.934569 0.915511
0.566903 0.943267 0.929946
0.780285 0.938933 0.932815
0.933333 0.933333 0.933333
0.961334 0.928695 0.93312
0.43801 0.964584 0.953353
0.434684 0.964599 0.951202
0.434836 0.96463 0.947311
0.434577 0.964675 0.939605
0.433631 0.964782 0.926314
0.551644 0.964462 0.93109
0.752743 0.962936 0.940795
0.891569 0.961578 0.938094
0.9608 0.960632 0.924483
0.459449 0.0206607 0.923171
0.486213 0.0212711 0.922911
0.533715 0.022858 0.92221
0.616312 0.0264591 0.922316
0.737728 0.0321965 0.926268
0.895552 0.0433661 0.940536
0.960555 0.0826581 0.960555
0.960555 0.101122 0.960555
0.960555 0.104555 0.960555
0.425986 0.0205234 0.923125
0.458366 0.0206455 0.923186
0.510414 0.0219883 0.922515
0.59791 0.0255894 0.922118
0.722606 0.0315709 0.925551
0.884443 0.0448463 0.940764
0.960555 0.084123 0.960555
0.960555 0.102998 0.960555
0.960555 0.106432 0.960555
0.344717 0.0207828 0.920546
0.394385 0.0206149 0.922637
0.460807 0.0206912 0.923171
0.563333 0.024094 0.922103
0.696605 0.0302739 0.924575
0.86479 0.0476692 0.940902
0.960555 0.087892 0.960555
0.960555 0.106065 0.960555
0.960555 0.110109 0.960555
0.176257 0.0712444 0.905104
0.182193 0.0517128 0.90428
0.268711 0.0229343 0.913542
0.477089 0.0217746 0.92311
0.637186 0.0292821 0.923445
0.824521 0.0543526 0.942458
0.960555 0.0965438 0.960555
0.960555 0.112154 0.960555
0.960555 0.117205 0.960555
0.152392 0.386206 0.923583
0.151843 0.374105 0.923659
0.151369 0.351141 0.923735
0.261509 0.30309 0.937438
0.599603 0.257786 0.960555
0.811246 0.257511 0.960555
0.960555 0.259159 0.960555
0.960555 0.245029 0.960555
0.960555 0.241382 0.960555
0.235248 0.635187 0.935317
0.232258 0.629786 0.934661
0.227344 0.620386 0.933928
0.236423 0.601633 0.934234
0.42298 0.598718 0.949187
0.74815 0.566491 0.960555
0.926665 0.565667 0.960723
0.960601 0.558801 0.960601
0.960586 0.551995 0.960586
0.334478 0.826047 0.95314
0.33312 0.822751 0.953079
0.329915 0.81651 0.952255
0.345281 0.804776 0.951843
0.408957 0.792004 0.951812
0.614786 0.795178 0.958846
0.87013 0.771542 0.960555
0.963745 0.77232 0.963745
0.963668 0.766217 0.963668
0.427634 0.946639 0.960449
0.427482 0.944701 0.960479
0.427771 0.941649 0.960601
0.430411 0.934691 0.960983
0.441215 0.92195 0.96199
0.583581 0.929595 0.965286
0.786007 0.925429 0.962707
0.945815 0.915389 0.960815
0.962219 0.913924 0.962219
0.466117 0.964492 0.96289
0.467201 0.964492 0.962982
0.469123 0.964492 0.963149
0.472892 0.964492 0.963531
0.480095 0.964477 0.964218
0.563882 0.964202 0.964202
0.758282 0.962768 0.962768
0.906538 0.961196 0.961196
0.960555 0.960555 0.960555
