bundles/resolve-cinematic-luts/Phantom Luts/P4k & P6k Phntm Arri LUTs - V6/P6k/Gen 4 Colour/P6k Jamaica Gen4.cube
TITLE "Generated by Resolve"
LUT_3D_SIZE 5
0 0.0250553 0
0.24593 0.0279393 0.0348211
0.596719 0.0668345 0.12256
0.781949 0.224903 0.273701
0.794278 0.235172 0.287755
0 0.261601 0.104555
0.204105 0.24033 0.00427253
0.577203 0.18584 0.082826
0.791348 0.270893 0.242527
0.782605 0.258427 0.237781
0.0543679 0.649424 0.363882
0.0738079 0.658396 0.197147
0.596033 0.636271 0.134707
0.933806 0.652399 0.338918
0.960113 0.655039 0.361654
0.379309 0.959258 0.739895
0.38294 0.966964 0.693187
0.550958 0.998932 0.54226
0.94548 0.978271 0.548577
1 0.976181 0.649866
0.391531 0.965072 0.775067
0.392538 0.972 0.736614
0.53753 0.998932 0.600397
0.932723 0.998627 0.584894
1 0.995758 0.697185
0.0378729 0.0259861 0.211505
0.277562 0.0245518 0.244678
0.624552 0.042237 0.270604
0.788067 0.194827 0.345571
0.801968 0.207324 0.361105
3.0518e-05 0.220676 0.208972
0.191608 0.21828 0.191959
0.631449 0.139239 0.160662
0.782574 0.22916 0.269474
0.792767 0.237125 0.281514
0.0436866 0.609186 0.431907
0.0420081 0.628077 0.334813
0.58056 0.622049 0.151995
0.943282 0.627131 0.35285
0.960403 0.625879 0.364935
0.371359 0.94728 0.764111
0.370138 0.952926 0.725689
0.50251 0.998932 0.54728
0.937636 0.972824 0.534569
1 0.969573 0.641413
0.392477 0.959457 0.801053
0.390265 0.963958 0.770962
0.494301 0.998932 0.621851
0.918914 0.998932 0.584253
1 0.996124 0.699504
0.184985 0.0283665 0.532631
0.337072 0.0284123 0.539757
0.599115 0.0478523 0.539696
0.76997 0.160388 0.548943
0.779782 0.171756 0.565469
0 0.110109 0.461097
0.191745 0.0315404 0.523033
0.595361 0.0485542 0.525719
0.792721 0.176944 0.515251
0.806149 0.189975 0.529
0.0602731 0.565133 0.545876
0.0816052 0.564141 0.534752
0.559182 0.572656 0.528283
0.987091 0.538857 0.523384
0.981979 0.512016 0.502022
0.354788 0.915068 0.81265
0.348638 0.915969 0.793774
0.348333 0.940612 0.676448
0.919203 0.95819 0.504372
1 0.946395 0.630747
0.404227 0.950088 0.860502
0.400214 0.951293 0.845838
0.394827 0.971664 0.754833
0.85185 0.998932 0.602884
1 0.996414 0.709606
0.312963 0.0543832 0.660533
0.392126 0.0589151 0.667384
0.549081 0.0809644 0.664164
0.71165 0.159747 0.713787
0.72369 0.184649 0.734737
0.144427 0.0480201 0.615564
0.311101 0.0527504 0.658763
0.525826 0.0745861 0.661326
0.71487 0.159609 0.706371
0.72285 0.176699 0.720958
0.116487 0.476417 0.731365
0.117433 0.454505 0.733944
0.587716 0.407935 0.882445
0.942153 0.397589 0.897276
0.929076 0.372686 0.873381
0.383062 0.900816 0.888151
0.380682 0.900755 0.879927
0.403952 0.902663 0.872282
0.868193 0.892439 0.850584
0.988785 0.884611 0.858183
0.527886 0.988144 0.967163
0.518105 0.988785 0.959121
0.488441 0.985931 0.935256
0.79411 0.998932 0.899611
1 0.995514 0.855924
0.375113 0.0676127 0.680995
0.432898 0.0733043 0.686259
0.572503 0.096788 0.694423
0.727489 0.196612 0.758129
0.744259 0.219059 0.774456
0.282322 0.0601358 0.664256
0.374044 0.0675059 0.680797
0.546929 0.0898909 0.691402
0.731716 0.202441 0.762554
0.749294 0.225299 0.779385
0.222019 0.429694 0.830777
0.217517 0.396597 0.820218
0.610788 0.318898 0.914061
0.871794 0.347478 0.902815
0.856352 0.332509 0.887266
0.431342 0.876326 0.9579
0.425193 0.869429 0.955261
0.463203 0.849042 0.958846
0.883223 0.843091 0.962692
0.975235 0.839704 0.982651
0.59556 0.992279 1
0.594736 0.994079 0.999023
0.59762 0.995163 0.998642
0.845396 0.995209 0.994965
0.998672 0.993896 0.992691
