bundles/resolve-cinematic-luts/Phantom Luts/P4k & P6k Phntm Arri LUTs - V6/P6k/Gen 4 Colour/P6k IceBlue Gen4-Legacy.cube
TITLE "Generated by Resolve"
LUT_3D_SIZE 5
0.0390173 0.0511788 0.0522011
0.151797 0.0535592 0.0602579
0.501381 0.0648661 0.0946822
0.747692 0.171252 0.21059
0.767163 0.183932 0.246265
0.0324865 0.168246 0.0967575
0.126558 0.162341 0.0582284
0.478614 0.122087 0.0730144
0.74052 0.189517 0.182208
0.744854 0.189715 0.192905
0.0323339 0.517708 0.26186
0.0349432 0.526558 0.147005
0.490654 0.548852 0.0954452
0.872267 0.582773 0.294514
0.913939 0.610193 0.331258
0.246464 0.861021 0.587015
0.246723 0.862638 0.546304
0.407233 0.890425 0.407126
0.875807 0.923003 0.46714
0.966247 0.932891 0.566949
0.256565 0.867872 0.620462
0.250217 0.865797 0.560967
0.458518 0.896971 0.411109
0.915587 0.92668 0.499641
0.961242 0.934661 0.574914
0.0499275 0.0543374 0.166217
0.180926 0.052842 0.16585
0.536706 0.0579995 0.20148
0.767102 0.159579 0.281849
0.780346 0.167254 0.317586
0.0360266 0.148577 0.152605
0.124956 0.145953 0.160143
0.54258 0.10071 0.139864
0.756893 0.177813 0.225452
0.771374 0.188922 0.251102
0.0391546 0.502052 0.336461
0.0331426 0.513191 0.270085
0.469123 0.541787 0.111757
0.885908 0.566598 0.312413
0.915755 0.588373 0.340871
0.252399 0.859693 0.626062
0.25211 0.86537 0.59704
0.365347 0.883833 0.419974
0.867384 0.92108 0.459159
0.966476 0.930419 0.572045
0.272999 0.869596 0.669902
0.259937 0.868101 0.628367
0.406973 0.894499 0.430121
0.887358 0.923949 0.482124
0.958816 0.933898 0.594903
0.126619 0.0580301 0.495659
0.272053 0.0550698 0.486686
0.544915 0.0648661 0.463905
0.782574 0.142168 0.464836
0.781964 0.146029 0.511681
0.0215763 0.095552 0.437079
0.129229 0.0586862 0.504036
0.535149 0.0670939 0.471443
0.791959 0.154498 0.442206
0.794965 0.15996 0.48957
0.0498054 0.497993 0.468223
0.0591287 0.508003 0.481743
0.481956 0.51426 0.519722
0.960403 0.497658 0.510628
0.960678 0.505348 0.527916
0.277317 0.847517 0.71516
0.284993 0.850141 0.710735
0.248951 0.845182 0.614908
0.833234 0.908232 0.460243
0.962524 0.91574 0.607584
0.368765 0.904891 0.799313
0.365148 0.895705 0.783902
0.304021 0.881483 0.674891
0.784909 0.91783 0.501549
0.960845 0.935576 0.63154
0.286351 0.0814984 0.691676
0.357702 0.0831922 0.69929
0.532876 0.0977188 0.703212
0.749065 0.166735 0.72256
0.752422 0.189639 0.762737
0.151904 0.0818952 0.662806
0.285069 0.0823529 0.69456
0.514641 0.0969558 0.708324
0.755627 0.171878 0.724453
0.757534 0.194049 0.763012
0.0984512 0.46453 0.701411
0.106172 0.462333 0.718669
0.525765 0.408637 0.935027
0.910124 0.394232 0.877409
0.912474 0.408225 0.891524
0.34963 0.858549 0.835081
0.369085 0.864271 0.841169
0.395239 0.864454 0.845518
0.835187 0.864912 0.873732
0.958206 0.870222 0.884642
0.508919 0.955627 0.929931
0.534127 0.947341 0.921736
0.518822 0.944915 0.903609
0.821317 0.947082 0.920501
0.964233 0.952926 0.886671
0.3337 0.0889754 0.720348
0.390051 0.092256 0.727337
0.551888 0.109331 0.732876
0.746456 0.17998 0.755718
0.757107 0.19585 0.768048
0.241489 0.0865339 0.703304
0.329061 0.0891432 0.720668
0.531716 0.106538 0.733166
0.753246 0.186328 0.758419
0.760479 0.20145 0.772931
0.164935 0.452445 0.797284
0.162158 0.445441 0.796139
0.538537 0.3682 0.928237
0.886427 0.372824 0.88661
0.891905 0.388632 0.899062
0.435828 0.879789 0.924025
0.452186 0.881102 0.92343
0.483452 0.874144 0.933745
0.850095 0.850309 0.95433
0.953918 0.854749 0.947845
0.53724 0.963592 0.950835
0.57586 0.953979 0.944366
0.591623 0.954513 0.946242
0.845853 0.954055 0.955093
0.967147 0.955123 0.953506
