bundles/resolve-cinematic-luts/Phantom Luts/Fx6 Phntm Film LUTs-G5/Bleach Fx6.cube
TITLE "Generated by Resolve"
LUT_3D_SIZE 5
0.0233616 0.0356603 0.0245975
0.0646983 0.044419 0.0319982
0.266743 0.0625162 0.0562295
0.614435 0.0781567 0.125338
0.78349 0.104952 0.267308
0.0423896 0.112261 0.0475013
0.105821 0.126253 0.0462959
0.472663 0.100847 0.0657664
0.674403 0.0905776 0.0969253
0.755016 0.115099 0.149264
0.0286412 0.419852 0.0978866
0.0355688 0.422843 0.0481422
0.56437 0.582238 0.109331
0.902831 0.638224 0.256626
0.941482 0.672312 0.279927
0.210636 0.768093 0.36434
0.201663 0.762036 0.323888
0.621912 0.781109 0.320424
0.873304 0.877638 0.376165
0.933791 0.895613 0.440818
0.226444 0.778943 0.409873
0.217151 0.772168 0.333425
0.677317 0.814084 0.38294
0.890257 0.896513 0.451347
0.933257 0.909545 0.51426
0.022858 0.0410315 0.0418555
0.061326 0.0447852 0.0563211
0.291524 0.0588846 0.109636
0.638682 0.074052 0.199725
0.775448 0.0920729 0.343954
0.0411994 0.108614 0.0873121
0.110628 0.121447 0.108507
0.46247 0.0942702 0.0959029
0.703746 0.0915541 0.184314
0.784009 0.103929 0.275578
0.0247349 0.434531 0.158206
0.0294347 0.43743 0.106813
0.566567 0.582925 0.117449
0.913222 0.629419 0.276814
0.944152 0.650355 0.296117
0.206119 0.766644 0.416388
0.203677 0.762921 0.362463
0.568948 0.768963 0.301411
0.866255 0.87216 0.369131
0.9346 0.889616 0.433753
0.224521 0.782742 0.507118
0.226917 0.77911 0.412467
0.596582 0.794202 0.354437
0.870939 0.889601 0.473106
0.933349 0.909819 0.523659
0.025803 0.0614633 0.158389
0.0840925 0.0551156 0.202136
0.344106 0.0648203 0.293034
0.678599 0.0775158 0.411887
0.799039 0.0951247 0.533761
0.0180972 0.10544 0.225742
0.0425116 0.0810712 0.288487
0.486686 0.071458 0.404288
0.747234 0.0877852 0.487205
0.805341 0.0972763 0.546059
0.0213931 0.424613 0.353506
0.0220951 0.437629 0.365515
0.617746 0.602731 0.583078
0.934554 0.612619 0.595651
0.951431 0.596643 0.608652
0.181369 0.766949 0.586954
0.176257 0.76173 0.561318
0.44921 0.778134 0.513924
0.877348 0.876722 0.632059
0.957839 0.891707 0.684581
0.250843 0.798657 0.670085
0.232502 0.794415 0.628656
0.529397 0.816175 0.583841
0.875334 0.906096 0.698863
0.952651 0.93193 0.731228
0.0339361 0.0980392 0.383871
0.0961013 0.0820783 0.460349
0.416464 0.0902266 0.595056
0.740383 0.0993057 0.661128
0.875319 0.134569 0.752834
0.0137942 0.159564 0.52018
0.0365606 0.134249 0.567254
0.524376 0.109667 0.682246
0.812757 0.119478 0.723201
0.878721 0.138659 0.771237
0.00358587 0.421592 0.558465
0.00424201 0.430335 0.5794
0.488716 0.533852 0.776364
0.942336 0.568383 0.859998
0.962997 0.54844 0.860578
0.17496 0.756756 0.703471
0.168353 0.751553 0.698131
0.43476 0.775113 0.726558
0.905653 0.881773 0.846799
0.962234 0.886534 0.855543
0.303059 0.798947 0.745861
0.295018 0.799832 0.733349
0.57528 0.84448 0.755642
0.907134 0.937758 0.863111
0.9626 0.946624 0.869688
0.0306706 0.153567 0.609644
0.0978714 0.141207 0.658274
0.457191 0.146334 0.757458
0.800229 0.148379 0.80354
0.886168 0.152941 0.828153
0.0178073 0.235309 0.695796
0.018265 0.223438 0.710674
0.534661 0.187793 0.815335
0.84921 0.160678 0.826368
0.886625 0.154269 0.829709
0.0102388 0.46273 0.66836
0.0118715 0.471901 0.687205
0.384131 0.533211 0.83537
0.936858 0.594812 0.91632
0.96257 0.573907 0.912367
0.170245 0.752224 0.747967
0.160571 0.74493 0.747677
0.369009 0.753841 0.780606
0.882246 0.867369 0.88954
0.962371 0.873671 0.903777
0.193698 0.799008 0.763363
0.271366 0.797635 0.759762
0.585245 0.841993 0.795636
0.913069 0.938262 0.897322
0.962707 0.946044 0.905257
