bundles/resolve-cinematic-luts/Phantom Luts/Fx6 Phntm Film LUTs-G5/Bleach Fx6-Legacy.cube
TITLE "Generated by Resolve"
LUT_3D_SIZE 9
0.0342107 0.047364 0.0355688
0.0349584 0.0475776 0.0356298
0.057496 0.0524605 0.0390784
0.105089 0.055787 0.045243
0.206455 0.0638437 0.0555886
0.363546 0.07364 0.0756085
0.546899 0.0772869 0.101534
0.693233 0.0981003 0.166537
0.736263 0.105013 0.203174
0.0350805 0.049546 0.0364233
0.0364233 0.0497902 0.0365911
0.0628519 0.0561532 0.0398871
0.142489 0.0581216 0.0461433
0.279973 0.0656291 0.0543832
0.456199 0.0769207 0.0755779
0.605142 0.0851148 0.111406
0.733028 0.108965 0.174777
0.736339 0.108019 0.186465
0.0460822 0.0952316 0.0495918
0.0483101 0.098497 0.0460517
0.0866102 0.10338 0.050309
0.185855 0.0917525 0.0504005
0.361288 0.0900893 0.0637675
0.51133 0.0760357 0.0613718
0.612467 0.0818494 0.0825055
0.696056 0.106508 0.120943
0.699443 0.107073 0.12343
0.0523384 0.200931 0.0716106
0.0520333 0.212345 0.0661936
0.0899825 0.215763 0.0565042
0.217197 0.243503 0.0578317
0.488853 0.221408 0.0774853
0.667597 0.236469 0.122454
0.838849 0.272526 0.185809
0.9019 0.260685 0.19649
0.90808 0.28191 0.209613
0.043473 0.37055 0.0952926
0.0421759 0.382208 0.0887007
0.0469215 0.375479 0.0550546
0.208988 0.42356 0.0885939
0.493736 0.51931 0.0930648
0.734325 0.568566 0.165331
0.894865 0.578347 0.246082
0.942977 0.595148 0.269505
0.944884 0.612726 0.272114
0.0802777 0.59147 0.184543
0.0865187 0.603555 0.186114
0.0839704 0.596017 0.155383
0.231098 0.617319 0.125597
0.543542 0.676219 0.22977
0.716945 0.735882 0.212909
0.882704 0.768093 0.276127
0.944411 0.7823 0.312032
0.947646 0.793133 0.320699
0.187686 0.764431 0.320592
0.187274 0.764324 0.312398
0.181277 0.75787 0.2851
0.224277 0.74786 0.207446
0.56762 0.769039 0.278401
0.724315 0.815351 0.32874
0.860105 0.876783 0.32874
0.93254 0.893248 0.370291
0.934142 0.895918 0.382177
0.201999 0.781247 0.350271
0.200732 0.778439 0.332586
0.195254 0.772457 0.29865
0.251682 0.772396 0.238468
0.597253 0.793286 0.313191
0.740154 0.837003 0.381903
0.865766 0.888762 0.387091
0.925628 0.905882 0.420874
0.931456 0.908049 0.452445
0.202487 0.783139 0.362371
0.200961 0.778866 0.336217
0.19588 0.772 0.294331
0.290486 0.774182 0.237201
0.629999 0.800565 0.333349
0.760754 0.844755 0.385351
0.875273 0.89131 0.388266
0.928298 0.90695 0.423789
0.931456 0.908049 0.451545
0.0341955 0.0473945 0.0357977
0.0343938 0.0475319 0.0357214
0.0562905 0.0513619 0.0432898
0.106889 0.0558022 0.0523537
0.218219 0.0637675 0.0666972
0.381491 0.0728618 0.0885176
0.560861 0.0768749 0.116945
0.700206 0.0968032 0.187366
0.735973 0.101518 0.223011
0.0348058 0.0485847 0.0365606
0.035584 0.048661 0.0368505
0.0704051 0.0535897 0.0413367
0.146288 0.0596933 0.0513313
0.286595 0.0699474 0.0657359
0.47306 0.0742046 0.0865949
0.613733 0.0843214 0.127474
0.736431 0.106615 0.194858
0.73637 0.104311 0.207492
0.0461738 0.0955673 0.0570535
0.0469215 0.0997787 0.0518807
0.0866255 0.103197 0.0517128
0.19765 0.0882734 0.0513466
0.370275 0.0861677 0.0634623
0.506325 0.0729229 0.0625162
0.616678 0.0879225 0.0950484
0.713817 0.109041 0.13991
0.719585 0.109636 0.146334
0.0518654 0.207309 0.0833295
0.0522469 0.217792 0.0754101
0.0776989 0.217487 0.0530098
0.221042 0.24712 0.0586862
0.502251 0.220127 0.0795605
0.678584 0.236744 0.126085
0.840543 0.265293 0.182986
0.887892 0.242267 0.18265
0.898131 0.264424 0.19791
0.042649 0.377737 0.105516
0.0416876 0.389395 0.0979324
0.043473 0.381506 0.0687114
0.198215 0.424842 0.0845808
0.499931 0.525399 0.0960708
0.741802 0.570993 0.168902
0.899107 0.578729 0.247684
0.943465 0.592203 0.269062
0.944427 0.608362 0.270604
0.0826581 0.598672 0.201526
0.0898604 0.610346 0.200488
0.0863203 0.601495 0.169116
0.20914 0.615152 0.119478
0.539254 0.676921 0.231067
0.718318 0.737209 0.214572
0.885786 0.76817 0.27834
0.945129 0.77966 0.311971
0.947784 0.78909 0.319341
0.188602 0.76672 0.334188
0.189731 0.766781 0.324224
0.181979 0.758434 0.293599
0.208637 0.746868 0.216617
0.557702 0.767636 0.274998
0.720211 0.813565 0.329503
0.858991 0.875914 0.32871
0.932418 0.89134 0.370611
0.934462 0.894011 0.380529
0.20235 0.783734 0.370886
0.201999 0.78143 0.351629
0.197482 0.775265 0.3131
0.232898 0.77116 0.250126
0.581735 0.790387 0.306691
0.732418 0.834104 0.385168
0.860517 0.886244 0.392813
0.924468 0.905409 0.425223
0.931426 0.907988 0.455482
0.201999 0.7841 0.389929
0.202502 0.783307 0.363272
0.199207 0.775601 0.314076
0.246296 0.772656 0.239139
0.608942 0.796124 0.32372
0.747387 0.839872 0.390173
0.867475 0.888747 0.394339
0.925109 0.905745 0.426612
0.931426 0.908003 0.454841
0.0336156 0.0485542 0.0444495
0.0381323 0.0493477 0.0454871
0.0551308 0.0519112 0.0533913
0.109148 0.0557412 0.0673991
0.224781 0.062089 0.0881971
0.396674 0.0701305 0.111757
0.574258 0.0749218 0.148058
0.701076 0.0915999 0.223285
0.733089 0.094728 0.264759
0.0343633 0.0497902 0.0435798
0.0340124 0.049485 0.0518959
0.0687572 0.0529641 0.0641031
0.149645 0.0578927 0.0742351
0.30074 0.0671702 0.0968795
0.492683 0.0706493 0.119539
0.625956 0.0806744 0.170489
0.735073 0.0986801 0.240864
0.733639 0.0954604 0.260288
0.0450904 0.0928664 0.0738994
0.0455634 0.0974899 0.0779126
0.0886854 0.10013 0.0875715
0.212512 0.100649 0.0898299
0.35668 0.087953 0.084184
0.515572 0.0775921 0.0940414
0.64419 0.0890974 0.14107
0.73727 0.106432 0.197848
0.737545 0.104417 0.209552
0.0510262 0.20943 0.113771
0.0508431 0.222431 0.11252
0.0587778 0.222492 0.0834211
0.234836 0.255833 0.0959029
0.512718 0.21944 0.111192
0.706096 0.231708 0.149935
0.830198 0.203952 0.160555
0.823148 0.154543 0.138827
0.835218 0.168307 0.148302
0.0393072 0.384115 0.14287
0.0383307 0.397757 0.137285
0.0426184 0.387167 0.100999
0.145495 0.406104 0.0705882
0.495979 0.520623 0.099794
0.75938 0.560693 0.193423
0.908644 0.565789 0.263355
0.94432 0.569253 0.279179
0.944991 0.586938 0.282963
0.0809491 0.59997 0.239872
0.0877241 0.613001 0.240757
0.085832 0.602121 0.197986
0.0954452 0.58436 0.107073
0.502556 0.667399 0.223926
0.7122 0.730587 0.211917
0.889982 0.759716 0.285771
0.948547 0.765347 0.321279
0.949325 0.774044 0.326558
0.183749 0.765225 0.366781
0.185626 0.766384 0.357122
0.181231 0.757519 0.318669
0.175967 0.742473 0.253605
0.505608 0.759274 0.260761
0.701457 0.80383 0.328786
0.850904 0.868986 0.323171
0.932403 0.8851 0.369329
0.935775 0.888289 0.377005
0.201923 0.784939 0.414969
0.201846 0.784176 0.396384
0.20209 0.781659 0.353063
0.199847 0.771786 0.286763
0.511742 0.782849 0.290974
0.710399 0.82681 0.391318
0.843885 0.879225 0.406607
0.917372 0.902968 0.432578
0.931426 0.907988 0.455695
0.20119 0.786252 0.449226
0.201801 0.785061 0.419699
0.202899 0.78349 0.365133
0.201419 0.771695 0.284245
0.535622 0.785397 0.301808
0.720943 0.8309 0.3991
0.849638 0.881178 0.409735
0.915221 0.902358 0.433295
0.93135 0.907851 0.461311
0.0333257 0.0526741 0.0703136
0.0396582 0.0520027 0.0731823
0.0630655 0.0541085 0.0852522
0.116899 0.0556954 0.103044
0.244617 0.0637217 0.131289
0.413703 0.0669413 0.162356
0.588998 0.0701762 0.212955
0.699214 0.0842756 0.276768
0.728328 0.0871748 0.317266
0.0326085 0.0565957 0.0786297
0.0333104 0.0560616 0.0938277
0.0703136 0.0563363 0.1196
0.166674 0.0590524 0.143893
0.321981 0.0674601 0.166308
0.509377 0.0660105 0.195758
0.64387 0.0759594 0.251698
0.728801 0.0885023 0.306142
0.728038 0.0862745 0.324712
0.0396887 0.0903334 0.103532
0.038117 0.0927749 0.115984
0.0642863 0.0864424 0.14345
0.198337 0.0783246 0.170199
0.347814 0.070985 0.163546
0.535637 0.0685435 0.185901
0.658015 0.0798657 0.24036
0.731258 0.0910201 0.289952
0.730251 0.0891585 0.303349
0.0499123 0.201114 0.167773
0.0495918 0.21323 0.178958
0.0525368 0.214099 0.181308
0.250675 0.255482 0.242756
0.534813 0.242878 0.224781
0.694362 0.227848 0.22652
0.797024 0.176593 0.230045
0.810803 0.140322 0.238239
0.825177 0.148531 0.259876
0.0373693 0.387503 0.222141
0.0359655 0.401846 0.222354
0.0365911 0.399741 0.199985
0.119814 0.435889 0.17084
0.529061 0.545647 0.25214
0.769055 0.572 0.324163
0.928359 0.576074 0.388067
0.95053 0.563958 0.39707
0.951354 0.580209 0.418296
0.0764324 0.603815 0.311238
0.082475 0.615686 0.316289
0.0817884 0.609079 0.286595
0.0931716 0.597482 0.203281
0.450095 0.66862 0.274601
0.713283 0.72842 0.303899
0.902495 0.751522 0.41088
0.953094 0.762173 0.439323
0.954528 0.77052 0.451514
0.173266 0.761578 0.434501
0.175097 0.762402 0.426123
0.173327 0.755962 0.390631
0.1794 0.745022 0.312764
0.368048 0.753063 0.292134
0.679011 0.794919 0.386374
0.84239 0.859541 0.403418
0.93521 0.877348 0.478904
0.940978 0.879561 0.486824
0.198138 0.789242 0.502724
0.199039 0.787945 0.484901
0.20148 0.785885 0.441901
0.21474 0.783475 0.356023
0.366766 0.784192 0.337591
0.686687 0.823682 0.448936
0.82916 0.873625 0.49456
0.913237 0.901778 0.519371
0.933715 0.909499 0.54258
0.195941 0.792706 0.54432
0.197131 0.790768 0.520302
0.200366 0.78703 0.469566
0.217746 0.785153 0.367926
0.395132 0.787274 0.35877
0.699245 0.828977 0.475059
0.832074 0.87509 0.515175
0.910048 0.900999 0.536721
0.935088 0.910964 0.563851
0.0330663 0.0610819 0.122759
0.0426947 0.0581064 0.129061
0.0709239 0.0588693 0.152712
0.12987 0.0605631 0.187488
0.263951 0.0652171 0.226993
0.465385 0.0713359 0.26067
0.617121 0.0737316 0.314672
0.728191 0.085832 0.383825
0.758419 0.0904555 0.442069
0.0281834 0.0694591 0.149859
0.0340581 0.0695048 0.180926
0.0720684 0.0632639 0.217105
0.176776 0.0655528 0.265232
0.350332 0.0702678 0.297765
0.55552 0.0748302 0.32282
0.680079 0.0814069 0.380453
0.754345 0.0897231 0.431022
0.76907 0.0926986 0.472557
0.0292821 0.0886091 0.172183
0.0266728 0.0889296 0.192615
0.0417945 0.0761578 0.228443
0.169574 0.0682689 0.292576
0.378286 0.0724498 0.318013
0.577066 0.077409 0.334066
0.693996 0.0829175 0.382879
0.754467 0.0897688 0.424826
0.766659 0.0922103 0.459419
0.0359655 0.189044 0.239658
0.0338445 0.198016 0.25655
0.0308385 0.190021 0.266651
0.17966 0.206271 0.377829
0.515587 0.189868 0.443076
0.673274 0.164233 0.431861
0.756619 0.113741 0.40885
0.784176 0.0976577 0.412879
0.79202 0.0987869 0.44033
0.0374151 0.374136 0.317586
0.035996 0.387793 0.327184
0.0366064 0.386725 0.326482
0.103288 0.42417 0.360754
0.553475 0.540124 0.51928
0.776883 0.562844 0.53872
0.929076 0.566262 0.545953
0.947005 0.537713 0.546685
0.947784 0.549889 0.562142
0.0694438 0.601312 0.421408
0.0741436 0.612833 0.432013
0.0729992 0.608026 0.412589
0.0813458 0.602884 0.363592
0.454459 0.690074 0.482475
0.728313 0.731792 0.543038
0.904341 0.74258 0.597345
0.961944 0.763394 0.612207
0.961898 0.770214 0.623575
0.155505 0.759152 0.538964
0.15639 0.759487 0.534859
0.153521 0.752514 0.509209
0.16144 0.741939 0.444205
0.371908 0.762203 0.435584
0.669398 0.797864 0.53576
0.848478 0.857221 0.578424
0.948348 0.873411 0.631754
0.957626 0.876799 0.639887
0.196979 0.798535 0.598627
0.1953 0.797498 0.586892
0.195789 0.794263 0.558663
0.210132 0.789822 0.496208
0.399893 0.799649 0.476387
0.645808 0.826185 0.550576
0.828443 0.881117 0.617014
0.920928 0.910124 0.633524
0.946532 0.918288 0.658656
0.207797 0.802533 0.639567
0.202991 0.801038 0.6224
0.196994 0.797345 0.587777
0.215915 0.790753 0.519219
0.435782 0.804974 0.511788
0.659205 0.835782 0.581125
0.834211 0.887327 0.644175
0.917754 0.914061 0.656153
0.947036 0.923369 0.677867
0.0341192 0.0733959 0.209613
0.0482338 0.0682689 0.224598
0.0747692 0.0657969 0.254139
0.1402 0.0682689 0.303548
0.285893 0.0725567 0.357336
0.495094 0.0721904 0.410651
0.658152 0.0821393 0.470863
0.785092 0.0985733 0.537682
0.815808 0.10634 0.590021
0.0253758 0.0888228 0.261891
0.0352636 0.0869764 0.296574
0.073228 0.0744945 0.330312
0.17641 0.0748455 0.40235
0.374472 0.0774243 0.46595
0.574807 0.0758679 0.498665
0.726253 0.0928969 0.543465
0.813214 0.105425 0.583444
0.82649 0.110857 0.618265
0.0176394 0.10782 0.285374
0.0161593 0.108782 0.307866
0.0395666 0.0928664 0.345663
0.158419 0.0776837 0.433768
0.392966 0.0790875 0.500023
0.596887 0.079118 0.522377
0.743969 0.0958724 0.554971
0.816403 0.10634 0.587243
0.826856 0.110994 0.616754
0.0186923 0.182483 0.330983
0.0175326 0.189639 0.352117
0.0169985 0.180285 0.369329
0.115312 0.166079 0.498894
0.457938 0.148684 0.59086
0.655222 0.122621 0.583291
0.752758 0.0997482 0.549004
0.817472 0.106706 0.57023
0.82446 0.109087 0.587457
0.026154 0.354437 0.425956
0.0247501 0.366476 0.442466
0.0223392 0.361852 0.450767
0.0566262 0.369451 0.506859
0.476204 0.493477 0.651896
0.770382 0.528161 0.71046
0.925948 0.515419 0.709148
0.96405 0.474968 0.733455
0.962798 0.497002 0.741192
0.0660868 0.586587 0.524773
0.0703899 0.597833 0.536522
0.0687724 0.592538 0.531655
0.0708019 0.584482 0.52401
0.447059 0.684291 0.642878
0.740993 0.72253 0.701808
0.910033 0.736294 0.715663
0.961791 0.737499 0.716579
0.961822 0.735576 0.719371
0.147875 0.757458 0.629252
0.148043 0.7579 0.628107
0.143374 0.750546 0.614359
0.143938 0.739895 0.585443
0.374273 0.765606 0.609094
0.694728 0.82327 0.680171
0.872374 0.864897 0.715358
0.954131 0.87248 0.74403
0.962142 0.880369 0.749157
0.223499 0.806348 0.678096
0.220386 0.805356 0.670222
0.212863 0.803845 0.653269
0.214755 0.796735 0.616342
0.406714 0.808301 0.617365
0.673411 0.856641 0.671275
0.846265 0.897841 0.731777
0.933562 0.921431 0.743038
0.962417 0.92607 0.769512
0.236881 0.807401 0.707744
0.231876 0.807507 0.697505
0.22385 0.806195 0.676844
0.233982 0.800427 0.634867
0.452659 0.818875 0.640269
0.692805 0.872297 0.69604
0.841352 0.907118 0.752575
0.927733 0.92871 0.76286
0.958068 0.936263 0.77615
0.035172 0.0893111 0.309834
0.0517128 0.0836652 0.333165
0.0760357 0.0788891 0.365637
0.144121 0.0785534 0.438682
0.307546 0.0829328 0.520317
0.526833 0.0803845 0.554208
0.680156 0.0899825 0.602014
0.832624 0.116869 0.663767
0.850278 0.125765 0.714305
0.023209 0.111742 0.386755
0.0348516 0.108492 0.4336
0.071519 0.0936599 0.467048
0.175708 0.0888685 0.538231
0.397131 0.0920729 0.598047
0.599435 0.0889906 0.616358
0.745403 0.103182 0.658427
0.849439 0.124697 0.707149
0.8542 0.129412 0.737118
0.0144045 0.132952 0.423407
0.0139467 0.132509 0.454429
0.034165 0.117571 0.489906
0.154513 0.0925002 0.555428
0.408042 0.0961013 0.621927
0.618479 0.0931411 0.637995
0.763104 0.107469 0.672602
0.851164 0.125917 0.711955
0.854932 0.1299 0.737377
0.0149996 0.181582 0.45304
0.0148928 0.188205 0.47863
0.014374 0.181521 0.499733
0.0724651 0.156344 0.581689
0.383795 0.13225 0.668116
0.630976 0.109499 0.665782
0.762219 0.108064 0.672023
0.852186 0.12517 0.697398
0.855802 0.128313 0.713252
0.00865187 0.358862 0.519036
0.00790417 0.371298 0.532158
0.00790417 0.365698 0.542718
0.0208896 0.362829 0.594339
0.395621 0.458351 0.745098
0.767971 0.524849 0.834363
0.933883 0.513069 0.844846
0.96434 0.469368 0.839948
0.963958 0.491325 0.847272
0.0674296 0.574014 0.597559
0.0715343 0.584253 0.608591
0.0672923 0.576623 0.60798
0.0595712 0.563989 0.610513
0.38233 0.6542 0.725856
0.70277 0.699763 0.791104
0.899748 0.718746 0.829404
0.961746 0.714137 0.825498
0.961791 0.713939 0.835584
0.145678 0.74667 0.68661
0.145602 0.746731 0.686824
0.141024 0.739422 0.680308
0.141894 0.729686 0.670314
0.358267 0.754696 0.702083
0.705882 0.82707 0.785336
0.883467 0.859434 0.827634
0.959319 0.86746 0.836316
0.962249 0.865583 0.838483
0.240497 0.804837 0.725338
0.235996 0.804837 0.721294
0.22504 0.803937 0.712764
0.220035 0.798383 0.694392
0.406867 0.810193 0.704494
0.694347 0.8719 0.773175
0.870497 0.915999 0.83003
0.944228 0.927001 0.836347
0.962524 0.927962 0.846937
0.252766 0.803342 0.743633
0.249744 0.804166 0.737224
0.245731 0.805661 0.726329
0.258259 0.807019 0.705119
0.47628 0.828397 0.718837
0.711788 0.889982 0.783948
0.868879 0.929564 0.834272
0.93576 0.939147 0.845289
0.962722 0.94522 0.850324
0.0347601 0.107729 0.427054
0.0504921 0.103182 0.463325
0.0740673 0.0968643 0.495521
0.14725 0.0919509 0.550439
0.321248 0.100481 0.622568
0.561456 0.100572 0.661387
0.700298 0.0996414 0.686061
0.856626 0.132433 0.75758
0.861494 0.137972 0.790677
0.0171359 0.135454 0.517174
0.0283665 0.13463 0.5505
0.0644236 0.120012 0.572915
0.176669 0.106889 0.622644
0.407889 0.113802 0.687282
0.630381 0.115908 0.71989
0.760281 0.112291 0.732479
0.859998 0.136675 0.782467
0.862776 0.140063 0.802808
0.0138705 0.160525 0.551125
0.0140536 0.162692 0.571237
0.0246128 0.148394 0.588434
0.151293 0.112688 0.636393
0.41149 0.121202 0.708476
0.646113 0.122744 0.739269
0.776059 0.116609 0.745937
0.860945 0.137407 0.785626
0.863416 0.140108 0.801266
0.0142214 0.191012 0.55198
0.0143282 0.19942 0.56965
0.0147097 0.19443 0.587579
0.0417945 0.173007 0.64741
0.337682 0.136355 0.722408
0.641779 0.136477 0.759319
0.772473 0.118868 0.748104
0.861418 0.136828 0.775845
0.863066 0.138689 0.785138
0.00958267 0.374411 0.592615
0.0089723 0.386938 0.601785
0.0102541 0.382605 0.616205
0.0140383 0.38114 0.662989
0.340963 0.451484 0.801648
0.7355 0.52108 0.886885
0.930282 0.522683 0.900221
0.964385 0.475334 0.90164
0.963745 0.495796 0.902678
0.0545815 0.590051 0.655116
0.057435 0.598337 0.663615
0.0496376 0.590082 0.662348
0.0364996 0.575418 0.664424
0.327337 0.636042 0.77113
0.673335 0.685649 0.842161
0.904082 0.72575 0.89099
0.961654 0.724605 0.90074
0.961837 0.722744 0.900832
0.150561 0.736721 0.722255
0.150088 0.735744 0.722713
0.145357 0.727687 0.720058
0.144549 0.714885 0.717815
0.348165 0.73521 0.755779
0.688533 0.807691 0.830411
0.864683 0.845563 0.8692
0.951461 0.853223 0.881498
0.962173 0.850141 0.87892
0.246357 0.800626 0.749142
0.24155 0.800076 0.746761
0.229267 0.797971 0.741924
0.217899 0.789349 0.732662
0.39469 0.800412 0.747127
0.687846 0.86508 0.81561
0.878569 0.916671 0.874418
0.946334 0.924285 0.884535
0.962524 0.92639 0.887098
0.228046 0.80499 0.763806
0.252766 0.802563 0.758129
0.256596 0.80264 0.751156
0.272633 0.803815 0.737621
0.484672 0.827237 0.756695
0.718029 0.893507 0.825589
0.883665 0.936324 0.877745
0.942779 0.946014 0.889418
0.962646 0.947829 0.888792
0.0289921 0.131487 0.540398
0.0429847 0.130632 0.57145
0.0678874 0.124636 0.593606
0.14902 0.112062 0.633448
0.333837 0.125628 0.706447
0.590585 0.131212 0.755917
0.740948 0.12813 0.774212
0.863523 0.140948 0.808408
0.863523 0.143282 0.821027
0.0147707 0.168902 0.610727
0.0184024 0.170504 0.632471
0.0499275 0.157626 0.655207
0.174533 0.13228 0.693812
0.416693 0.145357 0.763409
0.657115 0.154528 0.806943
0.791333 0.137026 0.801862
0.863661 0.142855 0.818601
0.863188 0.143709 0.822599
0.0158541 0.196338 0.638117
0.0158694 0.200504 0.652216
0.0164492 0.188251 0.661784
0.142031 0.146548 0.707179
0.413916 0.154894 0.780774
0.670893 0.16463 0.821515
0.804318 0.142107 0.810575
0.86421 0.143694 0.820676
0.863691 0.144228 0.822751
0.0154879 0.213855 0.623026
0.0158236 0.224201 0.637964
0.0163424 0.221424 0.654658
0.0215915 0.204105 0.694408
0.325216 0.163012 0.776318
0.653651 0.173495 0.828244
0.804028 0.155688 0.819196
0.865553 0.143343 0.814313
0.865644 0.144518 0.818509
0.0107729 0.39762 0.64506
0.0101167 0.410361 0.652644
0.0113832 0.408576 0.667933
0.0142519 0.406989 0.709667
0.299077 0.466224 0.827405
0.702495 0.52784 0.900908
0.921263 0.543343 0.918608
0.963546 0.506371 0.913207
0.963531 0.522332 0.913252
0.0431373 0.605203 0.690593
0.044831 0.611002 0.697017
0.0365911 0.60177 0.696666
0.0314488 0.587945 0.706554
0.305745 0.63212 0.802213
0.648341 0.683085 0.863203
0.895354 0.732296 0.91783
0.961791 0.735103 0.922545
0.961791 0.733928 0.925566
0.145434 0.739223 0.74847
0.143908 0.73727 0.748913
0.139239 0.728725 0.747875
0.131533 0.71545 0.747921
0.306493 0.730434 0.77702
0.65919 0.794369 0.843397
0.845792 0.840055 0.889982
0.95053 0.856107 0.909239
0.962249 0.851499 0.913771
0.209522 0.803357 0.765087
0.221805 0.800824 0.762905
0.214481 0.795697 0.760479
0.204883 0.784985 0.755993
0.376684 0.791928 0.77055
0.672023 0.852461 0.833051
0.867903 0.910719 0.890532
0.938079 0.918761 0.900542
0.962478 0.921386 0.90277
0.149554 0.805982 0.770306
0.150729 0.806027 0.770245
0.222583 0.805722 0.766491
0.276204 0.80267 0.756161
0.488777 0.824643 0.774899
0.710384 0.887739 0.838544
0.879606 0.933867 0.889982
0.944091 0.944945 0.904768
0.962692 0.946868 0.90602
