bundles/resolve-cinematic-luts/Phantom Luts/Fx6 Phntm Film LUTs-G5/Bleach Fx6.cube
TITLE "Generated by Resolve"
LUT_3D_SIZE 9
0.0233616 0.0356603 0.0245975
0.0256046 0.0363012 0.0250706
0.0646983 0.044419 0.0319982
0.133928 0.0513161 0.0427253
0.266743 0.0625162 0.0562295
0.459602 0.0699474 0.0827955
0.614435 0.0781567 0.125338
0.748592 0.10042 0.219776
0.78349 0.104952 0.267308
0.0245365 0.0403906 0.0267948
0.0303655 0.0429999 0.0281071
0.0721599 0.0497139 0.0336004
0.187152 0.0533761 0.0429084
0.353658 0.064332 0.0540169
0.542428 0.0784924 0.0851759
0.666835 0.0882429 0.139025
0.782238 0.111528 0.226993
0.783871 0.109712 0.242374
0.0423896 0.112261 0.0475013
0.0468757 0.117891 0.0427558
0.105821 0.126253 0.0462959
0.253086 0.106661 0.0513619
0.472663 0.100847 0.0657664
0.58909 0.0853895 0.0687724
0.674403 0.0905776 0.0969253
0.751949 0.114717 0.146151
0.755016 0.115099 0.149264
0.0433204 0.251514 0.0749523
0.0417639 0.261692 0.0656138
0.102235 0.265949 0.0521248
0.274372 0.302129 0.049836
0.570123 0.287938 0.0839704
0.73463 0.31078 0.15079
0.888716 0.344961 0.225254
0.929046 0.327062 0.236301
0.933639 0.347356 0.245853
0.0286412 0.419852 0.0978866
0.0288396 0.431937 0.092256
0.0355688 0.422843 0.0481422
0.261845 0.492485 0.105959
0.56437 0.582238 0.109331
0.774578 0.625025 0.185504
0.902831 0.638224 0.256626
0.939834 0.657404 0.275929
0.941482 0.672312 0.279927
0.102403 0.641688 0.240024
0.108354 0.650553 0.239765
0.105043 0.643366 0.205921
0.285847 0.658915 0.159182
0.597192 0.709773 0.25095
0.757534 0.770672 0.241443
0.89041 0.79884 0.307149
0.937377 0.811337 0.340078
0.941085 0.819913 0.351919
0.210636 0.768093 0.36434
0.209781 0.768139 0.35523
0.201663 0.762036 0.323888
0.250462 0.7505 0.236103
0.621912 0.781109 0.320424
0.764416 0.830915 0.355596
0.873304 0.877638 0.376165
0.928634 0.892042 0.423499
0.933791 0.895613 0.440818
0.226398 0.778485 0.396399
0.225223 0.778042 0.377218
0.216632 0.772793 0.338338
0.281697 0.76939 0.269642
0.650904 0.805524 0.36788
0.781247 0.852979 0.430533
0.881712 0.893034 0.448798
0.92491 0.90605 0.484245
0.933288 0.909575 0.515129
0.226444 0.778943 0.409873
0.225574 0.778027 0.38088
0.217151 0.772168 0.333425
0.324514 0.770382 0.268177
0.677317 0.814084 0.38294
0.80148 0.860197 0.432837
0.890257 0.896513 0.451347
0.926528 0.906645 0.486763
0.933257 0.909545 0.51426
0.0233158 0.0358129 0.0255589
0.0236515 0.0363012 0.0252842
0.0618143 0.0434424 0.0398108
0.136767 0.0519112 0.0521859
0.282856 0.0617227 0.0762798
0.480186 0.0681163 0.102403
0.627466 0.0774701 0.151583
0.754452 0.0977798 0.248661
0.781613 0.100694 0.293202
0.0242618 0.0397803 0.0279698
0.0256352 0.038529 0.0272679
0.0802167 0.0476844 0.0367437
0.191501 0.0572061 0.0489204
0.363745 0.0686351 0.0723735
0.554147 0.0733654 0.101671
0.674754 0.0861067 0.165576
0.783734 0.107454 0.254353
0.783307 0.104112 0.273167
0.0422827 0.113375 0.061265
0.0433967 0.119219 0.0508888
0.10634 0.126009 0.0491035
0.268299 0.101656 0.0535439
0.479881 0.0939803 0.0649729
0.583093 0.0788434 0.0687724
0.678203 0.0947738 0.113451
0.767269 0.115312 0.175174
0.771176 0.115312 0.183948
0.0424506 0.258427 0.0918746
0.0422827 0.26743 0.07953
0.0837262 0.266239 0.0457008
0.278553 0.305898 0.0501869
0.581933 0.288029 0.0885023
0.745327 0.310826 0.155734
0.890333 0.336706 0.223362
0.919249 0.305058 0.224063
0.92726 0.329747 0.237125
0.0280308 0.428321 0.111559
0.0289616 0.439582 0.103593
0.0310216 0.429816 0.0662699
0.250492 0.493233 0.102678
0.569741 0.587015 0.112596
0.781582 0.627665 0.189319
0.90573 0.638834 0.257816
0.940352 0.655268 0.275578
0.9411 0.668421 0.278431
0.10518 0.646983 0.256382
0.111788 0.656229 0.254246
0.107637 0.648692 0.221225
0.261143 0.656931 0.15256
0.593332 0.710155 0.253178
0.758587 0.772137 0.243473
0.892714 0.798825 0.309438
0.93817 0.809216 0.339803
0.94107 0.817304 0.349584
0.211551 0.768719 0.379126
0.213062 0.76965 0.368292
0.203479 0.763119 0.333959
0.232563 0.750134 0.247517
0.613352 0.779202 0.316808
0.760159 0.828916 0.356252
0.872374 0.877058 0.375799
0.928191 0.890684 0.42385
0.933791 0.894194 0.438239
0.226307 0.779232 0.420096
0.226368 0.778515 0.397848
0.220386 0.775372 0.354894
0.259358 0.768704 0.28217
0.636637 0.801923 0.360265
0.774182 0.850401 0.435676
0.878935 0.892409 0.454765
0.923033 0.905409 0.488045
0.933364 0.909697 0.518273
0.226322 0.779767 0.443885
0.226444 0.778988 0.410727
0.222461 0.775647 0.355871
0.275181 0.769512 0.269764
0.65948 0.808865 0.376349
0.789303 0.855726 0.440528
0.884504 0.894331 0.458595
0.924239 0.905852 0.489433
0.933349 0.909667 0.517479
0.022858 0.0410315 0.0418555
0.031693 0.0408179 0.0431067
0.061326 0.0447852 0.0563211
0.141772 0.0507057 0.0786297
0.291524 0.0588846 0.109636
0.493538 0.0646525 0.140047
0.638682 0.074052 0.199725
0.752346 0.0905165 0.296254
0.775448 0.0920729 0.343954
0.0241703 0.0446479 0.0415351
0.0248112 0.0438239 0.0535744
0.0798962 0.0469062 0.0718395
0.199176 0.053727 0.0894789
0.381918 0.0638285 0.120745
0.569894 0.0683909 0.155352
0.684993 0.0803082 0.23035
0.779202 0.0966354 0.316167
0.776303 0.092668 0.339055
0.0411994 0.108614 0.0873121
0.0419165 0.115709 0.0933394
0.110628 0.121447 0.108507
0.286458 0.120851 0.108339
0.46247 0.0942702 0.0959029
0.589303 0.0791943 0.114046
0.703746 0.0915541 0.184314
0.784253 0.106874 0.258686
0.784009 0.103929 0.275578
0.0408331 0.261097 0.137713
0.0398566 0.273686 0.133608
0.0525521 0.273045 0.0908522
0.296773 0.317266 0.105501
0.592905 0.289982 0.135225
0.771771 0.298604 0.188647
0.875181 0.259495 0.203922
0.853239 0.186145 0.160937
0.86482 0.209567 0.178058
0.0247349 0.434531 0.158206
0.0260929 0.44831 0.153521
0.0294347 0.43743 0.106813
0.173175 0.46511 0.0762188
0.566567 0.582925 0.117449
0.79762 0.61883 0.217685
0.913222 0.629419 0.276814
0.943664 0.636667 0.289464
0.944152 0.650355 0.296117
0.10074 0.646281 0.294591
0.108309 0.656184 0.294697
0.107286 0.650019 0.252247
0.122011 0.631601 0.142962
0.564233 0.700633 0.250416
0.753201 0.766125 0.241932
0.896025 0.791547 0.317342
0.941787 0.797955 0.349004
0.94287 0.805524 0.357031
0.206119 0.766644 0.416388
0.20795 0.767361 0.404547
0.203677 0.762921 0.362463
0.196109 0.749813 0.29012
0.568948 0.768963 0.301411
0.741741 0.819608 0.358373
0.866255 0.87216 0.369131
0.928222 0.886427 0.422644
0.9346 0.889616 0.433753
0.225452 0.780652 0.473136
0.226276 0.780102 0.451881
0.226383 0.778561 0.399634
0.222004 0.771359 0.324392
0.575113 0.78912 0.339712
0.752972 0.84303 0.447593
0.868055 0.888457 0.469337
0.918379 0.903609 0.495552
0.933425 0.909438 0.51838
0.224521 0.782742 0.507118
0.225254 0.78088 0.477745
0.226917 0.77911 0.412467
0.223545 0.771069 0.321355
0.596582 0.794202 0.354437
0.764965 0.847898 0.456306
0.870939 0.889601 0.473106
0.916701 0.903105 0.496284
0.933349 0.909819 0.523659
0.0234989 0.05066 0.0813001
0.0354772 0.0463417 0.0867781
0.0728618 0.0484932 0.104189
0.154238 0.0514839 0.132525
0.31722 0.0627298 0.175662
0.511101 0.06421 0.218753
0.649378 0.0700084 0.285374
0.746822 0.0829786 0.358557
0.771664 0.08748 0.414313
0.0212253 0.057496 0.0937514
0.0258946 0.0548104 0.117739
0.0825208 0.0518959 0.156451
0.223102 0.0560922 0.191043
0.415015 0.0661784 0.22118
0.585473 0.066392 0.26598
0.700374 0.0767681 0.331624
0.77084 0.0873579 0.396735
0.772259 0.0874037 0.425223
0.030869 0.107881 0.132982
0.028687 0.110613 0.150805
0.0752575 0.101183 0.195789
0.270481 0.0888228 0.232609
0.451637 0.0713664 0.218479
0.604959 0.0682078 0.254902
0.711635 0.0786145 0.316533
0.771374 0.0880751 0.372351
0.771588 0.0875257 0.393515
0.0397498 0.251057 0.213657
0.0386664 0.263722 0.226139
0.0428321 0.265949 0.228641
0.321691 0.322881 0.308293
0.618708 0.315038 0.295048
0.767269 0.295033 0.29955
0.841596 0.205875 0.29041
0.841749 0.145266 0.300374
0.852018 0.154604 0.326131
0.0217288 0.438712 0.246525
0.0226291 0.453254 0.249699
0.0234226 0.450828 0.224903
0.145266 0.503288 0.212284
0.596124 0.608087 0.306325
0.810346 0.627283 0.384985
0.929351 0.639857 0.435416
0.950362 0.631922 0.444114
0.951202 0.64921 0.467079
0.0937514 0.650111 0.37261
0.0996719 0.659724 0.376761
0.0999313 0.654246 0.344823
0.117922 0.646006 0.256764
0.519814 0.701793 0.314748
0.753658 0.765393 0.354147
0.90927 0.784619 0.470405
0.94847 0.795468 0.489326
0.949966 0.80267 0.501534
0.193744 0.765286 0.494743
0.195575 0.765499 0.486427
0.192767 0.760525 0.446342
0.203265 0.753841 0.35697
0.433692 0.762844 0.337957
0.721004 0.813245 0.447883
0.863294 0.868803 0.472679
0.932586 0.883177 0.534188
0.940475 0.886198 0.542184
0.224537 0.786343 0.554726
0.224323 0.784848 0.539422
0.224643 0.782238 0.500374
0.241276 0.780514 0.402899
0.435828 0.787289 0.395346
0.737804 0.843442 0.528038
0.86154 0.887709 0.555459
0.919753 0.906477 0.576272
0.938918 0.914153 0.598672
0.225681 0.790036 0.590692
0.224842 0.788022 0.569833
0.224552 0.784024 0.525765
0.244221 0.780865 0.415824
0.475349 0.790906 0.42829
0.751293 0.850217 0.551522
0.866331 0.890547 0.575479
0.918791 0.907713 0.593118
0.940581 0.917266 0.618967
0.025803 0.0614633 0.158389
0.0428473 0.0545968 0.169085
0.0840925 0.0551156 0.202136
0.175097 0.0581369 0.246326
0.344106 0.0648203 0.293034
0.556512 0.0758831 0.337957
0.678599 0.0775158 0.411887
0.774609 0.0897078 0.489189
0.799039 0.0951247 0.533761
0.0159152 0.0765393 0.193729
0.0281834 0.0720073 0.232654
0.0869917 0.0616465 0.277882
0.239155 0.0657664 0.339773
0.45478 0.068101 0.374212
0.628031 0.0821088 0.424186
0.735515 0.0860761 0.483787
0.795468 0.0939803 0.525368
0.807523 0.0980697 0.555474
0.0180972 0.10544 0.225742
0.0172732 0.105928 0.248325
0.0425116 0.0810712 0.288487
0.232609 0.0698405 0.374731
0.486686 0.071458 0.404288
0.64715 0.0862745 0.439475
0.747234 0.0877852 0.487205
0.795407 0.0939651 0.521187
0.805341 0.0972763 0.546059
0.0216373 0.235523 0.297917
0.0197147 0.245258 0.315694
0.0193942 0.236896 0.329686
0.235431 0.259541 0.484657
0.60444 0.249866 0.543938
0.743847 0.215076 0.537209
0.803861 0.130648 0.514015
0.817899 0.103914 0.514946
0.824323 0.105745 0.534981
0.0213931 0.424613 0.353506
0.021561 0.438834 0.366171
0.0220951 0.437629 0.365515
0.119371 0.487617 0.426276
0.617746 0.602731 0.583078
0.819272 0.618494 0.597177
0.934554 0.612619 0.595651
0.950118 0.584665 0.593912
0.951431 0.596643 0.608652
0.0862745 0.649149 0.495003
0.09131 0.658946 0.504387
0.0892195 0.654749 0.48658
0.100069 0.648997 0.434348
0.524361 0.725246 0.542306
0.77258 0.772564 0.597452
0.918105 0.781323 0.642298
0.959609 0.800534 0.652918
0.961959 0.807248 0.663828
0.181369 0.766949 0.586954
0.181872 0.767086 0.583169
0.176257 0.76173 0.561318
0.182895 0.752255 0.505623
0.44921 0.778134 0.513924
0.72398 0.825559 0.602762
0.877348 0.876722 0.632059
0.946914 0.888304 0.675135
0.957839 0.891707 0.684581
0.233661 0.795407 0.637613
0.230259 0.794507 0.628199
0.226566 0.791714 0.603189
0.238499 0.786816 0.549615
0.492287 0.807828 0.553582
0.715328 0.853803 0.629511
0.868101 0.898207 0.671778
0.93138 0.917372 0.685817
0.953613 0.92462 0.710872
0.250843 0.798657 0.670085
0.243366 0.797299 0.656596
0.232502 0.794415 0.628656
0.24831 0.788724 0.569787
0.529397 0.816175 0.583841
0.729519 0.865354 0.656352
0.875334 0.906096 0.698863
0.93193 0.924849 0.710018
0.952651 0.93193 0.731228
0.0286259 0.0775921 0.264897
0.0522927 0.0680552 0.282994
0.0919051 0.0658732 0.320577
0.192767 0.0693065 0.38912
0.376059 0.073106 0.454414
0.577722 0.0754864 0.50547
0.718303 0.0886854 0.55169
0.821302 0.106096 0.606287
0.844373 0.11426 0.648722
0.0171664 0.101061 0.323964
0.0336614 0.094789 0.367376
0.0916762 0.0771496 0.415976
0.244587 0.0795605 0.507881
0.48835 0.0794995 0.545983
0.644846 0.0821851 0.574304
0.778637 0.102159 0.609735
0.842023 0.113344 0.643671
0.853437 0.118975 0.672816
0.0157168 0.129397 0.35877
0.0152438 0.130831 0.388678
0.041001 0.101472 0.432242
0.222278 0.084596 0.534371
0.506523 0.0832532 0.573144
0.665003 0.0872663 0.593668
0.792721 0.105303 0.619791
0.844739 0.114336 0.646815
0.853742 0.119295 0.671809
0.0162051 0.228077 0.415702
0.0152132 0.236408 0.442679
0.0151217 0.224918 0.465309
0.157183 0.208774 0.583673
0.564706 0.191516 0.662043
0.724498 0.151537 0.651942
0.800412 0.111467 0.61593
0.84567 0.115587 0.633524
0.851041 0.118303 0.6477
0.011429 0.407126 0.475257
0.0110475 0.421134 0.488716
0.00907912 0.417121 0.495796
0.0542458 0.426917 0.544854
0.554986 0.563638 0.698787
0.812711 0.589334 0.751003
0.932799 0.572442 0.748012
0.960861 0.536004 0.767819
0.961181 0.555505 0.77731
0.0838178 0.636957 0.580606
0.0887922 0.646708 0.59057
0.0870222 0.642237 0.586206
0.0895705 0.634318 0.578607
0.519753 0.721172 0.680156
0.786419 0.765621 0.743542
0.924056 0.776745 0.755718
0.961837 0.775509 0.755856
0.961868 0.773556 0.757488
0.17847 0.767422 0.661601
0.178653 0.76791 0.661067
0.172534 0.763058 0.650843
0.173159 0.75465 0.626673
0.458091 0.785443 0.654566
0.752819 0.856153 0.733883
0.898726 0.88629 0.758953
0.953826 0.890898 0.782147
0.962325 0.897276 0.787488
0.269108 0.800824 0.698833
0.265553 0.800534 0.693553
0.256779 0.799573 0.680827
0.256458 0.794842 0.652781
0.508278 0.819715 0.669001
0.747158 0.88455 0.738354
0.886244 0.913191 0.781018
0.942916 0.928328 0.788937
0.962509 0.931426 0.810575
0.283955 0.80058 0.719707
0.278294 0.800931 0.712383
0.269795 0.801633 0.698802
0.28159 0.799695 0.669444
0.552666 0.834089 0.69337
0.767681 0.899596 0.76199
0.887572 0.924208 0.804791
0.941527 0.937484 0.808469
0.961715 0.942657 0.818769
0.0339361 0.0980392 0.383871
0.0588846 0.0891127 0.417136
0.0961013 0.0820783 0.460349
0.201694 0.0860304 0.537453
0.416464 0.0902266 0.595056
0.608621 0.0921798 0.622339
0.740383 0.0993057 0.661128
0.861509 0.126268 0.712306
0.875319 0.134569 0.752834
0.0157931 0.128679 0.478172
0.0357519 0.12195 0.521675
0.0936904 0.101701 0.550973
0.250401 0.103014 0.618708
0.515709 0.103319 0.659693
0.670924 0.103441 0.67776
0.798398 0.114824 0.710811
0.874281 0.133242 0.746685
0.878035 0.138079 0.770687
0.0137942 0.159564 0.52018
0.0138399 0.160098 0.545373
0.0365606 0.134249 0.567254
0.220615 0.108492 0.632136
0.524376 0.109667 0.682246
0.687709 0.108782 0.696498
0.812757 0.119478 0.723201
0.87599 0.134859 0.751049
0.878721 0.138659 0.771237
0.0143282 0.225864 0.541848
0.014313 0.235523 0.562142
0.0148013 0.226444 0.580728
0.100282 0.190188 0.650629
0.506355 0.159152 0.727504
0.702129 0.132509 0.724529
0.811887 0.120287 0.722255
0.876127 0.134264 0.739254
0.879149 0.137362 0.751965
0.00358587 0.421592 0.558465
0.00317388 0.435615 0.568582
0.00424201 0.430335 0.5794
0.0179751 0.424582 0.622614
0.488716 0.533852 0.776364
0.814038 0.585916 0.85362
0.942336 0.568383 0.859998
0.96318 0.529 0.854307
0.962997 0.54844 0.860578
0.0864271 0.627558 0.643763
0.0907149 0.635584 0.652277
0.0860761 0.629282 0.652125
0.0805524 0.618799 0.655634
0.464256 0.692332 0.751217
0.753109 0.744884 0.817273
0.915526 0.758938 0.846616
0.9617 0.753994 0.844495
0.961715 0.754101 0.85243
0.17496 0.756756 0.703471
0.174762 0.756832 0.703609
0.168353 0.751553 0.698131
0.169604 0.744503 0.691127
0.43476 0.775113 0.726558
0.76051 0.858076 0.815976
0.905653 0.881773 0.846799
0.957488 0.887739 0.85272
0.962234 0.886534 0.855543
0.28835 0.798749 0.731899
0.282445 0.798032 0.728603
0.269612 0.796658 0.721553
0.264515 0.793103 0.709285
0.510506 0.820417 0.734493
0.765057 0.895567 0.816785
0.902602 0.924773 0.855802
0.950027 0.931044 0.857023
0.962615 0.932158 0.864393
0.303059 0.798947 0.745861
0.300206 0.799207 0.741543
0.295018 0.799832 0.733349
0.312917 0.803891 0.721065
0.57528 0.84448 0.755642
0.788495 0.912566 0.829389
0.907134 0.937758 0.863111
0.946563 0.942855 0.865064
0.9626 0.946624 0.869688
0.0354314 0.120882 0.516136
0.0611582 0.114855 0.547005
0.100435 0.105959 0.573587
0.210132 0.10779 0.627482
0.441474 0.114229 0.685328
0.641962 0.120745 0.719997
0.760861 0.112245 0.733852
0.879606 0.14136 0.786191
0.883635 0.146868 0.809049
0.0149844 0.161089 0.590829
0.0303655 0.157443 0.618616
0.0894331 0.136019 0.640101
0.251026 0.128725 0.691325
0.527642 0.133257 0.741375
0.703441 0.139803 0.767971
0.810681 0.124422 0.769085
0.88278 0.145556 0.803464
0.884565 0.149157 0.816693
0.0155489 0.196094 0.625834
0.0156558 0.198077 0.641566
0.0258488 0.175937 0.651179
0.216495 0.134829 0.699916
0.530632 0.142626 0.759411
0.717601 0.147936 0.78291
0.823285 0.129259 0.77882
0.883314 0.14638 0.805646
0.884978 0.149279 0.81561
0.0153353 0.238529 0.624567
0.0160067 0.248035 0.639307
0.0167086 0.240299 0.655375
0.0575723 0.206348 0.701793
0.461189 0.160891 0.770962
0.716564 0.168627 0.801572
0.82182 0.13254 0.781353
0.883513 0.146105 0.799405
0.884901 0.148333 0.805768
0.00688182 0.440955 0.623865
0.00753796 0.454063 0.632303
0.00828565 0.449241 0.644053
0.0130007 0.44239 0.679164
0.432349 0.524773 0.818692
0.789792 0.584756 0.893309
0.941253 0.576272 0.899245
0.963287 0.531075 0.89897
0.962814 0.550607 0.900923
0.0742046 0.638666 0.689021
0.0775158 0.644877 0.695338
0.0680552 0.637934 0.694575
0.0539559 0.625696 0.697154
0.398123 0.679286 0.784634
0.727825 0.732815 0.854032
0.919112 0.763699 0.889876
0.961776 0.760403 0.899641
0.961791 0.75877 0.899962
0.175433 0.750469 0.729534
0.174884 0.749737 0.730053
0.169848 0.743725 0.728359
0.170901 0.733806 0.72781
0.413169 0.759609 0.765408
0.747463 0.843351 0.847623
0.89163 0.871839 0.874266
0.950301 0.877317 0.880369
0.96228 0.875349 0.879194
0.294026 0.796185 0.749447
0.288457 0.795254 0.747005
0.274022 0.792538 0.742687
0.260319 0.786297 0.735729
0.496925 0.810834 0.762432
0.757153 0.889494 0.842145
0.90692 0.923903 0.884138
0.950362 0.928588 0.888426
0.962386 0.930541 0.890501
0.275792 0.797406 0.758038
0.302968 0.798306 0.756405
0.307897 0.798825 0.75169
0.330648 0.802884 0.745403
0.581949 0.843442 0.781933
0.793408 0.914168 0.855161
0.914946 0.940368 0.889433
0.950011 0.945724 0.892592
0.962661 0.947021 0.894316
0.0306706 0.153567 0.609644
0.0543069 0.150744 0.637339
0.0978714 0.141207 0.658274
0.213886 0.133455 0.697063
0.457191 0.146334 0.757458
0.67216 0.162646 0.800122
0.800229 0.148379 0.80354
0.88539 0.150301 0.820111
0.886168 0.152941 0.828153
0.016846 0.204471 0.674128
0.0195163 0.203372 0.687739
0.0717937 0.182803 0.707652
0.247288 0.159213 0.745937
0.536721 0.174884 0.802838
0.735943 0.195956 0.837919
0.838941 0.154513 0.82005
0.886061 0.152468 0.82681
0.886213 0.153521 0.829389
0.0178073 0.235309 0.695796
0.0179294 0.238941 0.705333
0.018265 0.223438 0.710674
0.206973 0.172442 0.75256
0.534661 0.187793 0.815335
0.749828 0.21004 0.849256
0.84921 0.160678 0.826368
0.886702 0.153475 0.828138
0.886625 0.154269 0.829709
0.0174868 0.263386 0.68365
0.0179141 0.274678 0.694545
0.0185702 0.267872 0.706645
0.0260471 0.240665 0.733822
0.443885 0.19733 0.810727
0.739223 0.226154 0.85832
0.853773 0.181689 0.837018
0.887358 0.153246 0.824445
0.8878 0.154711 0.827451
0.0102388 0.46273 0.66836
0.0108949 0.47425 0.674998
0.0118715 0.471901 0.687205
0.0138857 0.465415 0.715007
0.384131 0.533211 0.83537
0.762158 0.591409 0.905638
0.936858 0.594812 0.91632
0.962646 0.559976 0.911986
0.96257 0.573907 0.912367
0.0607462 0.648554 0.715068
0.062623 0.653254 0.719539
0.0525521 0.645747 0.719661
0.044892 0.634028 0.726314
0.373648 0.674617 0.804746
0.706462 0.730526 0.867582
0.914733 0.770306 0.910735
0.96173 0.769558 0.91635
0.961761 0.768597 0.919387
0.170245 0.752224 0.747967
0.1682 0.750835 0.748348
0.160571 0.74493 0.747677
0.15404 0.734646 0.748821
0.369009 0.753841 0.780606
0.722805 0.832013 0.855695
0.882246 0.867369 0.88954
0.948943 0.877348 0.902007
0.962371 0.873671 0.903777
0.256229 0.796002 0.758999
0.268101 0.794339 0.757458
0.258183 0.790677 0.755154
0.245792 0.783368 0.752316
0.473732 0.802853 0.777371
0.743542 0.880247 0.853284
0.90193 0.919676 0.894621
0.944823 0.924926 0.899596
0.962692 0.927092 0.903456
0.193698 0.799008 0.763363
0.195102 0.798917 0.763226
0.271366 0.797635 0.759762
0.335058 0.802213 0.758465
0.585245 0.841993 0.795636
0.787091 0.909773 0.863432
0.913069 0.938262 0.897322
0.950515 0.944488 0.902785
0.962707 0.946044 0.905257
