bundles/resolve-cinematic-luts/Phantom Luts/Fx6 Phntm Film LUTs-G5/Bleach Fx6-Legacy.cube
TITLE "Generated by Resolve"
LUT_3D_SIZE 5
0.0342107 0.047364 0.0355688
0.057496 0.0524605 0.0390784
0.206455 0.0638437 0.0555886
0.546899 0.0772869 0.101534
0.736263 0.105013 0.203174
0.0460822 0.0952316 0.0495918
0.0866102 0.10338 0.050309
0.361288 0.0900893 0.0637675
0.612467 0.0818494 0.0825055
0.699443 0.107073 0.12343
0.043473 0.37055 0.0952926
0.0469215 0.375479 0.0550546
0.493736 0.51931 0.0930648
0.894865 0.578347 0.246082
0.944884 0.612726 0.272114
0.187686 0.764431 0.320592
0.181277 0.75787 0.2851
0.56762 0.769039 0.278401
0.860105 0.876783 0.32874
0.934142 0.895918 0.382177
0.202487 0.783139 0.362371
0.19588 0.772 0.294331
0.629999 0.800565 0.333349
0.875273 0.89131 0.388266
0.931456 0.908049 0.451545
0.0336156 0.0485542 0.0444495
0.0551308 0.0519112 0.0533913
0.224781 0.062089 0.0881971
0.574258 0.0749218 0.148058
0.733089 0.094728 0.264759
0.0450904 0.0928664 0.0738994
0.0886854 0.10013 0.0875715
0.35668 0.087953 0.084184
0.64419 0.0890974 0.14107
0.737545 0.104417 0.209552
0.0393072 0.384115 0.14287
0.0426184 0.387167 0.100999
0.495979 0.520623 0.099794
0.908644 0.565789 0.263355
0.944991 0.586938 0.282963
0.183749 0.765225 0.366781
0.181231 0.757519 0.318669
0.505608 0.759274 0.260761
0.850904 0.868986 0.323171
0.935775 0.888289 0.377005
0.20119 0.786252 0.449226
0.202899 0.78349 0.365133
0.535622 0.785397 0.301808
0.849638 0.881178 0.409735
0.93135 0.907851 0.461311
0.0330663 0.0610819 0.122759
0.0709239 0.0588693 0.152712
0.263951 0.0652171 0.226993
0.617121 0.0737316 0.314672
0.758419 0.0904555 0.442069
0.0292821 0.0886091 0.172183
0.0417945 0.0761578 0.228443
0.378286 0.0724498 0.318013
0.693996 0.0829175 0.382879
0.766659 0.0922103 0.459419
0.0374151 0.374136 0.317586
0.0366064 0.386725 0.326482
0.553475 0.540124 0.51928
0.929076 0.566262 0.545953
0.947784 0.549889 0.562142
0.155505 0.759152 0.538964
0.153521 0.752514 0.509209
0.371908 0.762203 0.435584
0.848478 0.857221 0.578424
0.957626 0.876799 0.639887
0.207797 0.802533 0.639567
0.196994 0.797345 0.587777
0.435782 0.804974 0.511788
0.834211 0.887327 0.644175
0.947036 0.923369 0.677867
0.035172 0.0893111 0.309834
0.0760357 0.0788891 0.365637
0.307546 0.0829328 0.520317
0.680156 0.0899825 0.602014
0.850278 0.125765 0.714305
0.0144045 0.132952 0.423407
0.034165 0.117571 0.489906
0.408042 0.0961013 0.621927
0.763104 0.107469 0.672602
0.854932 0.1299 0.737377
0.00865187 0.358862 0.519036
0.00790417 0.365698 0.542718
0.395621 0.458351 0.745098
0.933883 0.513069 0.844846
0.963958 0.491325 0.847272
0.145678 0.74667 0.68661
0.141024 0.739422 0.680308
0.358267 0.754696 0.702083
0.883467 0.859434 0.827634
0.962249 0.865583 0.838483
0.252766 0.803342 0.743633
0.245731 0.805661 0.726329
0.47628 0.828397 0.718837
0.868879 0.929564 0.834272
0.962722 0.94522 0.850324
0.0289921 0.131487 0.540398
0.0678874 0.124636 0.593606
0.333837 0.125628 0.706447
0.740948 0.12813 0.774212
0.863523 0.143282 0.821027
0.0158541 0.196338 0.638117
0.0164492 0.188251 0.661784
0.413916 0.154894 0.780774
0.804318 0.142107 0.810575
0.863691 0.144228 0.822751
0.0107729 0.39762 0.64506
0.0113832 0.408576 0.667933
0.299077 0.466224 0.827405
0.921263 0.543343 0.918608
0.963531 0.522332 0.913252
0.145434 0.739223 0.74847
0.139239 0.728725 0.747875
0.306493 0.730434 0.77702
0.845792 0.840055 0.889982
0.962249 0.851499 0.913771
0.149554 0.805982 0.770306
0.222583 0.805722 0.766491
0.488777 0.824643 0.774899
0.879606 0.933867 0.889982
0.962692 0.946868 0.90602
