bundles/resolve-cinematic-luts/Phantom Luts/Fx6 Phntm Film LUTs-G5/Bleach Fx6-Legacy.cube
TITLE "Generated by Resolve"
LUT_3D_SIZE 33
0.0342107 0.047364 0.0355688
0.0342107 0.047364 0.0355688
0.0342107 0.047364 0.0355688
0.0344396 0.047425 0.035584
0.0349584 0.0475776 0.0356298
0.0393378 0.0487678 0.0369268
0.043534 0.0499123 0.0380865
0.0489204 0.0515297 0.0389715
0.057496 0.0524605 0.0390784
0.0677195 0.0526741 0.0399634
0.0780957 0.0534066 0.0413367
0.0904097 0.0544137 0.0429999
0.105089 0.055787 0.045243
0.123903 0.0576333 0.0483101
0.146822 0.0595254 0.0509804
0.174701 0.0616617 0.0531167
0.206455 0.0638437 0.0555886
0.241337 0.066392 0.0592966
0.278401 0.0691386 0.0641184
0.318471 0.0717784 0.0698711
0.363546 0.07364 0.0756085
0.412604 0.0738689 0.0799115
0.462715 0.073579 0.0848402
0.50811 0.0747845 0.0920272
0.546899 0.0772869 0.101534
0.581643 0.0805371 0.113268
0.61442 0.0844434 0.127291
0.651255 0.0901198 0.145266
0.693233 0.0981003 0.166537
0.718624 0.102892 0.182986
0.736294 0.106386 0.195895
0.736248 0.105653 0.199756
0.736263 0.105013 0.203174
0.0342107 0.047364 0.0355688
0.0342107 0.047364 0.0355688
0.0342107 0.047364 0.0355688
0.0343786 0.0474098 0.035584
0.0358282 0.0478676 0.035874
0.0402686 0.0490578 0.0372015
0.0449989 0.0503548 0.0384985
0.0521096 0.0521553 0.0389868
0.0628367 0.052369 0.0392615
0.0744945 0.0532235 0.041001
0.087602 0.0541848 0.0425574
0.102281 0.0554971 0.0446326
0.12163 0.0574807 0.0478828
0.14522 0.0591287 0.0504005
0.172915 0.0613413 0.0528573
0.205493 0.0637064 0.055314
0.240696 0.0662699 0.0590829
0.278386 0.0691844 0.0638132
0.319722 0.07187 0.0695354
0.364599 0.0737621 0.075349
0.413687 0.0740368 0.0795605
0.463706 0.0737621 0.0844739
0.50869 0.0749065 0.0914626
0.547051 0.077409 0.100893
0.581186 0.0806134 0.112016
0.613474 0.0845502 0.125963
0.6495 0.0899977 0.143099
0.690013 0.0978408 0.16347
0.716503 0.102815 0.179782
0.736339 0.106828 0.193149
0.736233 0.106218 0.19646
0.736324 0.105638 0.2
0.736339 0.105104 0.202869
0.0342107 0.047364 0.0355688
0.0342107 0.047364 0.0355688
0.0342107 0.047364 0.0355688
0.0342107 0.047364 0.0355688
0.0358434 0.0479591 0.035935
0.040589 0.0492409 0.0373388
0.0462196 0.0508125 0.0388952
0.0537423 0.0525673 0.0392309
0.0655222 0.052903 0.0397955
0.0785382 0.0538338 0.0412146
0.0933394 0.0547951 0.0428321
0.111803 0.0560922 0.0449989
0.135348 0.0572213 0.0474861
0.162036 0.0592813 0.0502174
0.192294 0.0621042 0.0531167
0.224964 0.0649577 0.0558633
0.261372 0.0677501 0.0599222
0.301045 0.0709087 0.0644846
0.344686 0.0735027 0.0712749
0.391241 0.0747082 0.0758831
0.442344 0.0745861 0.0802319
0.489616 0.0748302 0.0858167
0.529824 0.076173 0.0931868
0.565621 0.0793469 0.103792
0.597604 0.082826 0.116152
0.627543 0.0869001 0.129595
0.668818 0.0941329 0.148943
0.7037 0.100969 0.167712
0.726009 0.105623 0.181827
0.736263 0.107332 0.190188
0.7364 0.106859 0.193179
0.7364 0.106401 0.196078
0.736385 0.105882 0.199084
0.0342107 0.047364 0.0355688
0.0342107 0.047364 0.0355688
0.0342107 0.047364 0.0355688
0.0342107 0.047364 0.0355688
0.0352789 0.0478828 0.0357977
0.0393378 0.0493019 0.0370794
0.0439918 0.0507668 0.0384222
0.0514534 0.052781 0.039704
0.0643931 0.0536812 0.0395819
0.0789807 0.0545968 0.0410468
0.0956893 0.0553597 0.0423133
0.115648 0.0562448 0.0442359
0.14023 0.0570687 0.0462654
0.168521 0.0585489 0.0483864
0.199573 0.0615091 0.0513924
0.234348 0.0641184 0.0539101
0.271336 0.0672313 0.0570687
0.311116 0.0710918 0.0628519
0.352453 0.0744488 0.0687266
0.399695 0.0760357 0.0740368
0.450568 0.0755322 0.0776532
0.495521 0.0753643 0.0831617
0.535119 0.0771496 0.0911421
0.570245 0.0803235 0.101701
0.601984 0.0840314 0.114366
0.635233 0.0888838 0.128969
0.675135 0.0961013 0.147616
0.706706 0.102388 0.165057
0.729259 0.107012 0.178866
0.736019 0.10811 0.184894
0.736309 0.107652 0.188403
0.736477 0.107256 0.191211
0.736568 0.106874 0.193652
0.0350805 0.049546 0.0364233
0.0353399 0.0503243 0.0367132
0.0354467 0.0505989 0.0367742
0.0356603 0.0500649 0.0364843
0.0364233 0.0497902 0.0365911
0.0391394 0.0508278 0.0374304
0.0430152 0.0522927 0.0387884
0.0504768 0.0542763 0.04065
0.0628519 0.0561532 0.0398871
0.080293 0.0567025 0.0415351
0.0967575 0.0567941 0.0425269
0.117723 0.0576944 0.0444953
0.142489 0.0581216 0.0461433
0.171969 0.0586862 0.0475013
0.205127 0.0607919 0.0497597
0.241993 0.0629587 0.0520943
0.279973 0.0656291 0.0543832
0.319661 0.0697185 0.0594644
0.360449 0.0737774 0.0655375
0.406455 0.0768139 0.0710613
0.456199 0.0769207 0.0755779
0.500694 0.0769207 0.0808118
0.538949 0.0787823 0.0890516
0.573037 0.081117 0.0986191
0.605142 0.0851148 0.111406
0.640452 0.0902113 0.126467
0.680629 0.0981308 0.145296
0.709087 0.103761 0.160723
0.733028 0.108965 0.174777
0.735348 0.109041 0.178683
0.735866 0.108629 0.181949
0.736141 0.108309 0.184176
0.736339 0.108019 0.186465
0.0378271 0.0563516 0.0396124
0.0381476 0.0576181 0.0399176
0.0381628 0.0580301 0.0397955
0.0386664 0.0575418 0.0394903
0.0406195 0.0568246 0.0395514
0.0436103 0.0575418 0.0400549
0.048127 0.0584268 0.0411383
0.0547494 0.0602884 0.0420996
0.066453 0.0618753 0.0413825
0.0846876 0.0606241 0.0420233
0.104494 0.0616465 0.0438239
0.125597 0.0610666 0.0449378
0.151995 0.060914 0.0471962
0.177996 0.0601663 0.0482948
0.211643 0.0614939 0.0495003
0.247929 0.0629282 0.0509346
0.286687 0.0648508 0.0525673
0.32845 0.0683757 0.0559548
0.370916 0.0716106 0.0617685
0.419257 0.074403 0.0670787
0.465644 0.0763714 0.0724498
0.50605 0.0788281 0.0785992
0.543328 0.0800336 0.0860761
0.576226 0.0822003 0.0955978
0.606226 0.0860304 0.107012
0.64303 0.0917678 0.122164
0.682048 0.0993515 0.139757
0.710292 0.105211 0.154879
0.731746 0.109743 0.167529
0.733928 0.109834 0.170642
0.734905 0.109773 0.173373
0.735103 0.109621 0.174853
0.735454 0.109483 0.176181
0.0406348 0.0662547 0.0423438
0.0410163 0.0682383 0.0427558
0.0410315 0.068925 0.0425727
0.0415198 0.067628 0.0419013
0.043595 0.065919 0.0415656
0.0471656 0.0665751 0.042298
0.0535592 0.0683604 0.0432746
0.0619059 0.0698558 0.0447242
0.0732433 0.0708934 0.0437018
0.0914931 0.0683452 0.0437629
0.11075 0.0681926 0.0445563
0.134829 0.0690623 0.0458228
0.167544 0.0692302 0.0485542
0.199557 0.0680705 0.0509804
0.228779 0.066392 0.052018
0.262592 0.0664988 0.0528267
0.297032 0.0665599 0.0531777
0.337606 0.0680552 0.0544137
0.381735 0.0698711 0.0574502
0.431098 0.0709544 0.0606546
0.476524 0.0741131 0.0670329
0.514702 0.0774701 0.0740978
0.54725 0.0801556 0.0808881
0.577874 0.0837415 0.090547
0.60708 0.0871595 0.100969
0.644846 0.0931563 0.116075
0.679957 0.100069 0.131563
0.708049 0.106065 0.14551
0.72433 0.109682 0.155062
0.726543 0.109682 0.157397
0.728008 0.109819 0.159747
0.729442 0.109972 0.162173
0.729976 0.109926 0.163333
0.0433509 0.079408 0.0460822
0.0438544 0.0815137 0.0465858
0.0438849 0.0823529 0.0462196
0.0442206 0.0816663 0.044892
0.0465858 0.0804913 0.0442206
0.0505837 0.0801404 0.044831
0.0578012 0.0816358 0.0467231
0.0691386 0.0843824 0.0474708
0.080293 0.085832 0.046891
0.0987564 0.0839246 0.0453956
0.120439 0.0810407 0.0462806
0.141711 0.0793317 0.0466468
0.177554 0.0788434 0.0495155
0.213046 0.0783551 0.0523537
0.249897 0.0779736 0.0547189
0.294011 0.0769818 0.0571603
0.325795 0.0751507 0.0576181
0.359075 0.0731365 0.0569467
0.401389 0.0722362 0.0565805
0.44477 0.0705882 0.057435
0.487907 0.0708629 0.0596933
0.524056 0.0735485 0.0661936
0.554208 0.0771649 0.0740215
0.58053 0.0821546 0.0825971
0.604623 0.0878309 0.0916457
0.640116 0.0931106 0.105653
0.673396 0.100023 0.12015
0.703456 0.106676 0.133898
0.712642 0.108812 0.138827
0.71429 0.109026 0.140734
0.715694 0.109239 0.142367
0.717311 0.109468 0.143908
0.717739 0.109499 0.144457
0.0460822 0.0952316 0.0495918
0.0462654 0.0984207 0.0500649
0.0467079 0.0997635 0.0498665
0.0466621 0.0995956 0.0478523
0.0483101 0.098497 0.0460517
0.0527352 0.097734 0.0465705
0.0605478 0.0983291 0.0488899
0.0725261 0.0995499 0.0511635
0.0866102 0.10338 0.050309
0.102831 0.104677 0.0472419
0.130114 0.100526 0.046479
0.156756 0.0967117 0.0480507
0.185855 0.0917525 0.0504005
0.226108 0.0912184 0.0535744
0.266712 0.0911727 0.0575418
0.313695 0.091249 0.0612345
0.361288 0.0900893 0.0637675
0.405554 0.0871748 0.0643626
0.453559 0.0838026 0.0631266
0.486549 0.0806439 0.0618296
0.51133 0.0760357 0.0613718
0.541085 0.0759747 0.0642405
0.566659 0.0770123 0.0694438
0.589685 0.0779889 0.0744182
0.612467 0.0818494 0.0825055
0.632013 0.0884108 0.0923781
0.660395 0.0967117 0.104768
0.69482 0.105318 0.119783
0.696056 0.106508 0.120943
0.696925 0.106416 0.121859
0.697932 0.106416 0.122469
0.698924 0.107317 0.123323
0.699443 0.107073 0.12343
0.0483711 0.113634 0.0532082
0.0489662 0.117891 0.0543069
0.0487068 0.119738 0.0533455
0.0485542 0.119738 0.0515297
0.0496071 0.119524 0.0481727
0.0542306 0.118379 0.0480201
0.0623026 0.118502 0.0503395
0.0752117 0.119615 0.0540627
0.0900435 0.121248 0.0551156
0.106538 0.126329 0.0516976
0.131258 0.12697 0.0473793
0.169894 0.12166 0.0482338
0.203815 0.115801 0.0514229
0.242756 0.106828 0.0554513
0.284459 0.107317 0.0594949
0.329717 0.108751 0.0638132
0.390951 0.108278 0.0683909
0.448844 0.10634 0.0706493
0.499977 0.105638 0.0736553
0.54403 0.105272 0.0766461
0.571542 0.102937 0.0770428
0.588357 0.0957351 0.073991
0.605783 0.0920272 0.0759442
0.614069 0.0840467 0.0749218
0.627588 0.0840772 0.0802319
0.641443 0.0841688 0.0860304
0.666285 0.0912795 0.0967269
0.683436 0.0977646 0.104677
0.684215 0.0987564 0.106706
0.683848 0.0984512 0.106203
0.683482 0.0980697 0.105745
0.683909 0.0979782 0.105653
0.682979 0.0973068 0.104753
0.0504921 0.13669 0.058381
0.0505379 0.142702 0.0593576
0.0504463 0.145052 0.0584421
0.0501259 0.144701 0.0557412
0.0504616 0.144091 0.052079
0.0528725 0.14432 0.0483253
0.0618753 0.143603 0.0498512
0.0764935 0.145296 0.0550851
0.0932021 0.146746 0.0585336
0.111498 0.149538 0.0597696
0.133242 0.155581 0.0535134
0.169345 0.156619 0.0488746
0.218921 0.150713 0.051194
0.26125 0.143847 0.05626
0.31191 0.130938 0.0627756
0.357015 0.131044 0.0669108
0.411078 0.132006 0.0705272
0.483284 0.131731 0.0762341
0.534722 0.134752 0.0830243
0.580789 0.139483 0.0904402
0.620371 0.141512 0.0975509
0.648585 0.140841 0.101091
0.668498 0.133669 0.0996719
0.687633 0.128603 0.0991379
0.693935 0.113466 0.0933242
0.698909 0.103227 0.0919966
0.702251 0.0996414 0.0947585
0.706111 0.0948501 0.0959029
0.714 0.100206 0.100587
0.715328 0.0998093 0.100893
0.722316 0.100999 0.101457
0.722362 0.0995346 0.10045
0.722423 0.0978103 0.0993057
0.051957 0.166461 0.065095
0.0518349 0.173007 0.0659495
0.0519722 0.176089 0.0650339
0.0517281 0.176059 0.0624094
0.051667 0.175326 0.0584878
0.0532998 0.174395 0.0533761
0.0598764 0.174899 0.0497444
0.0743267 0.17583 0.053315
0.0936141 0.17937 0.059556
0.114916 0.181628 0.0637064
0.138491 0.185718 0.0650492
0.169421 0.194766 0.0556344
0.219623 0.197208 0.0512551
0.279835 0.192477 0.0549783
0.331533 0.186313 0.0615396
0.395422 0.170153 0.0700694
0.451087 0.164752 0.0739757
0.502281 0.166094 0.0794385
0.559686 0.172961 0.0895094
0.60621 0.178531 0.100526
0.650553 0.186419 0.112444
0.687556 0.191989 0.123064
0.721874 0.195972 0.130785
0.751476 0.192172 0.136126
0.78526 0.191546 0.141451
0.790478 0.173342 0.131868
0.79646 0.155612 0.121996
0.797223 0.146548 0.119905
0.796887 0.139971 0.117403
0.800595 0.145312 0.120226
0.805768 0.153063 0.125216
0.813169 0.158068 0.128435
0.816953 0.165026 0.129946
0.0523384 0.200931 0.0716106
0.0519875 0.208591 0.0720226
0.0522774 0.212787 0.0719005
0.0520943 0.212909 0.0698253
0.0520333 0.212345 0.0661936
0.0520638 0.210925 0.0600443
0.0554208 0.210498 0.0522316
0.0697948 0.212146 0.0509651
0.0899825 0.215763 0.0565042
0.114855 0.22063 0.0653849
0.143114 0.225422 0.0710765
0.176303 0.232136 0.0717174
0.217197 0.243503 0.0578317
0.278065 0.247288 0.0547646
0.349004 0.243488 0.0594034
0.417456 0.237293 0.0657816
0.488853 0.221408 0.0774853
0.538735 0.21799 0.0869306
0.579553 0.221454 0.0961318
0.625605 0.229084 0.108995
0.667597 0.236469 0.122454
0.71426 0.248737 0.139162
0.758282 0.258412 0.155642
0.798245 0.26685 0.170306
0.838849 0.272526 0.185809
0.865293 0.27219 0.192966
0.880858 0.264057 0.193256
0.894942 0.261845 0.195636
0.9019 0.260685 0.19649
0.900511 0.261295 0.196994
0.901473 0.265919 0.199619
0.904005 0.27274 0.204288
0.90808 0.28191 0.209613
0.0518044 0.240894 0.0783398
0.051667 0.248951 0.0794842
0.0512245 0.253178 0.0785534
0.0511177 0.253574 0.0762646
0.0508278 0.252888 0.0731823
0.0508583 0.251972 0.0682994
0.0516365 0.250065 0.0580148
0.0608835 0.250019 0.0503243
0.0820478 0.253544 0.0516823
0.109575 0.260639 0.0607767
0.141482 0.267567 0.0723583
0.180224 0.273716 0.0800031
0.221088 0.283024 0.0780346
0.27068 0.297627 0.060029
0.343008 0.304265 0.0595102
0.432929 0.301427 0.0645151
0.504051 0.300786 0.0725719
0.564996 0.292805 0.0904097
0.613535 0.293584 0.107332
0.656046 0.300511 0.124544
0.697002 0.306889 0.141054
0.731609 0.315251 0.155535
0.787701 0.335149 0.183169
0.835813 0.344015 0.205554
0.878187 0.355779 0.225422
0.913939 0.368658 0.244709
0.929656 0.368597 0.251759
0.938247 0.369696 0.255787
0.941985 0.37261 0.258137
0.942412 0.376669 0.259327
0.943862 0.382803 0.262226
0.944823 0.387594 0.264347
0.945907 0.394385 0.266178
0.0501411 0.282918 0.0841535
0.0498207 0.291188 0.0851301
0.049073 0.295323 0.0841535
0.0490425 0.295644 0.0820172
0.0489815 0.294957 0.0792401
0.0487526 0.294072 0.0754406
0.0493019 0.292119 0.0675212
0.0508278 0.289631 0.0531167
0.0685435 0.291981 0.0485084
0.0985275 0.298085 0.0536812
0.133761 0.307179 0.0664225
0.176349 0.317021 0.0823072
0.223545 0.32665 0.0898604
0.272068 0.340887 0.0831464
0.330678 0.360174 0.0632792
0.422354 0.36788 0.0653239
0.512459 0.372915 0.0749981
0.576898 0.383169 0.0918135
0.634714 0.386725 0.116365
0.686656 0.394202 0.142657
0.736721 0.402655 0.170642
0.776989 0.411795 0.191928
0.808209 0.421927 0.205722
0.850828 0.42855 0.224872
0.889952 0.43212 0.242329
0.92047 0.44065 0.257435
0.938125 0.445289 0.267811
0.94815 0.445747 0.27393
0.948592 0.450294 0.274311
0.948074 0.454551 0.27396
0.947982 0.461555 0.274159
0.947417 0.468589 0.273243
0.946899 0.475746 0.272511
0.0467536 0.325399 0.0898909
0.0457771 0.333791 0.0902724
0.0457008 0.337972 0.0897231
0.0456703 0.337774 0.0873884
0.045655 0.336645 0.0839094
0.0453193 0.335729 0.0807202
0.0453498 0.334829 0.0744335
0.0465095 0.332616 0.0627604
0.0521248 0.330098 0.0453346
0.0815595 0.335195 0.0467079
0.120226 0.34609 0.0584878
0.166278 0.359136 0.0756085
0.220798 0.374823 0.096788
0.272633 0.389197 0.100526
0.327718 0.409903 0.0880293
0.402991 0.436149 0.0704356
0.502708 0.452918 0.0792401
0.580148 0.46804 0.0976272
0.63653 0.483436 0.117098
0.688319 0.491051 0.1411
0.734051 0.497993 0.164965
0.786664 0.499794 0.193973
0.828092 0.50309 0.215045
0.855451 0.510964 0.225406
0.885695 0.514565 0.237964
0.913787 0.51458 0.251148
0.928496 0.520668 0.25771
0.940993 0.524468 0.265431
0.94403 0.52781 0.267552
0.943709 0.533211 0.267124
0.943542 0.538628 0.267048
0.94345 0.54313 0.26714
0.943648 0.54789 0.267674
0.043473 0.37055 0.0952926
0.0426337 0.379477 0.0957198
0.0420996 0.383703 0.0945907
0.0420996 0.383185 0.0923323
0.0421759 0.382208 0.0887007
0.0418708 0.381323 0.0850843
0.0419318 0.380377 0.0812085
0.0431983 0.377707 0.071107
0.0469215 0.375479 0.0550546
0.0637217 0.375784 0.0411078
0.102495 0.386069 0.0498054
0.150088 0.402716 0.0665293
0.208988 0.42356 0.0885939
0.272801 0.446387 0.112535
0.334569 0.467872 0.114778
0.40914 0.491859 0.104463
0.493736 0.51931 0.0930648
0.575311 0.537087 0.1066
0.638346 0.550622 0.125185
0.687221 0.561502 0.143252
0.734325 0.568566 0.165331
0.77705 0.575677 0.186191
0.824262 0.575433 0.211505
0.867185 0.573037 0.234089
0.894865 0.578347 0.246082
0.917891 0.582406 0.257588
0.931273 0.585931 0.263935
0.938521 0.591211 0.266407
0.942977 0.595148 0.269505
0.944274 0.599008 0.270436
0.944503 0.603006 0.271153
0.944472 0.607889 0.271611
0.944884 0.612726 0.272114
0.0395972 0.420172 0.100343
0.0391241 0.42974 0.101427
0.0391241 0.43447 0.101228
0.0391089 0.434272 0.0984665
0.0391394 0.432944 0.0953841
0.0390021 0.431266 0.0913252
0.0386511 0.430213 0.0874952
0.0395666 0.428656 0.0796063
0.0411231 0.425238 0.0635843
0.0545663 0.425071 0.0489052
0.0844282 0.430503 0.0434577
0.13492 0.447456 0.0597543
0.201495 0.471931 0.0858473
0.278874 0.501244 0.118929
0.353735 0.527367 0.145907
0.426841 0.545419 0.142306
0.501488 0.564492 0.130968
0.567361 0.587167 0.121233
0.632792 0.601999 0.135454
0.689082 0.613748 0.155077
0.734569 0.622156 0.172808
0.77882 0.629068 0.193652
0.818601 0.635615 0.210788
0.859632 0.635416 0.232288
0.893797 0.632349 0.251926
0.91812 0.634089 0.266453
0.936904 0.638743 0.277684
0.943511 0.642939 0.281239
0.946517 0.648264 0.281392
0.946899 0.65272 0.282811
0.947112 0.656168 0.284245
0.947356 0.659953 0.285618
0.947433 0.663661 0.287175
0.0424048 0.472877 0.11371
0.0440528 0.482948 0.117021
0.0450904 0.487221 0.11783
0.0448768 0.48658 0.115206
0.0442969 0.484871 0.110826
0.0442512 0.483757 0.106645
0.043595 0.482368 0.102541
0.043061 0.480598 0.0963455
0.0442817 0.477455 0.0817578
0.0482795 0.473777 0.0618143
0.0753338 0.477485 0.051667
0.128389 0.492378 0.0601968
0.208133 0.522332 0.0941634
0.294347 0.553903 0.135256
0.372946 0.576913 0.164614
0.44831 0.591821 0.176089
0.514046 0.60444 0.1673
0.572976 0.622446 0.157275
0.625895 0.642954 0.150423
0.683268 0.656214 0.166079
0.736339 0.665751 0.187091
0.779171 0.673411 0.204593
0.81976 0.679713 0.222354
0.855207 0.684749 0.237797
0.889418 0.685527 0.256123
0.913481 0.686107 0.26923
0.932311 0.687861 0.280735
0.942077 0.691112 0.290745
0.948867 0.693812 0.297688
0.949187 0.697765 0.298405
0.948989 0.701839 0.298375
0.949172 0.705486 0.299214
0.949142 0.708598 0.299489
0.0555581 0.528344 0.140993
0.0592813 0.540185 0.147677
0.0608988 0.544549 0.149493
0.0605478 0.543999 0.146471
0.0598306 0.542214 0.142046
0.0592813 0.539727 0.136294
0.0587625 0.53785 0.130739
0.0584573 0.537285 0.125109
0.0582132 0.533593 0.111162
0.0602884 0.529198 0.0912032
0.0669108 0.524712 0.0650797
0.13051 0.542428 0.0747082
0.220996 0.571359 0.108614
0.308324 0.59942 0.150225
0.389578 0.619089 0.18497
0.46743 0.63093 0.200076
0.529519 0.642115 0.202609
0.580407 0.654978 0.194934
0.62974 0.673152 0.187381
0.675227 0.692409 0.181384
0.728084 0.702754 0.198047
0.778408 0.711192 0.21799
0.820157 0.718822 0.235096
0.854536 0.724865 0.250065
0.88603 0.72987 0.264195
0.910018 0.732952 0.27689
0.928389 0.734112 0.288441
0.940505 0.736645 0.295842
0.946502 0.739193 0.30248
0.948302 0.740917 0.30454
0.949096 0.743603 0.305837
0.948592 0.747143 0.305608
0.948806 0.750362 0.306737
0.0802777 0.59147 0.184543
0.0859388 0.602792 0.192645
0.0877852 0.607095 0.194537
0.0873579 0.605753 0.190875
0.0865187 0.603555 0.186114
0.0862593 0.602274 0.180697
0.0855726 0.600412 0.174289
0.0844129 0.598657 0.166857
0.0839704 0.596017 0.155383
0.0857252 0.592157 0.134508
0.0916152 0.587716 0.107042
0.125399 0.591882 0.0911727
0.231098 0.617319 0.125597
0.319371 0.640131 0.164645
0.399832 0.656092 0.196994
0.482933 0.665492 0.221592
0.543542 0.676219 0.22977
0.590478 0.687739 0.229877
0.631937 0.69987 0.223804
0.674144 0.716793 0.217182
0.716945 0.735882 0.212909
0.768887 0.746258 0.228565
0.818509 0.754757 0.247593
0.853315 0.762234 0.26273
0.882704 0.768093 0.276127
0.906874 0.772686 0.287968
0.923629 0.777386 0.297215
0.937331 0.779828 0.305669
0.944411 0.7823 0.312032
0.947448 0.784268 0.316777
0.947906 0.786679 0.318364
0.947723 0.789532 0.319341
0.947646 0.793133 0.320699
0.111284 0.651926 0.230793
0.116152 0.660197 0.236881
0.118074 0.663096 0.238056
0.117586 0.662257 0.234699
0.116716 0.660807 0.230549
0.116243 0.659312 0.225422
0.11577 0.657176 0.218494
0.114885 0.655375 0.211032
0.113497 0.653132 0.200961
0.1149 0.649958 0.182361
0.119768 0.645655 0.154253
0.143481 0.645304 0.127825
0.219791 0.655039 0.136416
0.331029 0.675669 0.179034
0.408331 0.68751 0.207355
0.490028 0.695125 0.229664
0.553094 0.704707 0.250996
0.598581 0.716014 0.25565
0.638651 0.727703 0.255314
0.676188 0.740414 0.250751
0.715938 0.757733 0.245472
0.757 0.777264 0.242924
0.805661 0.787686 0.257908
0.85153 0.795895 0.275013
0.879789 0.803159 0.287404
0.903532 0.80975 0.299275
0.919615 0.814328 0.307897
0.933196 0.819318 0.317067
0.939437 0.820981 0.323476
0.945037 0.822965 0.32958
0.944808 0.825254 0.33167
0.944686 0.827253 0.332998
0.944244 0.829999 0.333959
0.140383 0.700618 0.267643
0.144778 0.707881 0.272847
0.14638 0.709606 0.27303
0.145403 0.708553 0.269276
0.144274 0.706615 0.264927
0.143603 0.70486 0.259663
0.142794 0.702953 0.253056
0.141436 0.701228 0.245563
0.139864 0.699504 0.238758
0.14078 0.696269 0.221759
0.145586 0.691936 0.195422
0.160876 0.688167 0.166781
0.219333 0.692149 0.15671
0.312932 0.70399 0.183764
0.415671 0.715663 0.217685
0.49688 0.721614 0.238636
0.557717 0.729915 0.25951
0.604349 0.740276 0.275608
0.643214 0.751766 0.280201
0.680537 0.764782 0.279927
0.717861 0.778622 0.276555
0.757244 0.79678 0.273167
0.794644 0.815366 0.272007
0.839902 0.825132 0.285771
0.878141 0.832029 0.301961
0.900526 0.839216 0.31313
0.916762 0.84509 0.322789
0.928527 0.849699 0.3308
0.936156 0.853574 0.336843
0.940032 0.856229 0.341665
0.939986 0.858183 0.34464
0.940139 0.859449 0.347387
0.939986 0.860899 0.348379
0.166293 0.738216 0.296864
0.169909 0.743358 0.300664
0.170367 0.744198 0.299886
0.169146 0.742794 0.295995
0.1673 0.740536 0.291295
0.165286 0.738827 0.286168
0.164294 0.737163 0.279713
0.163256 0.735134 0.272007
0.1617 0.732723 0.263844
0.161379 0.730755 0.253697
0.16466 0.726131 0.229664
0.179263 0.722744 0.200183
0.218128 0.723491 0.180819
0.3187 0.732448 0.199344
0.409964 0.7393 0.225635
0.501549 0.743755 0.24686
0.563699 0.75227 0.27039
0.608957 0.761898 0.287282
0.648066 0.773129 0.30045
0.684779 0.785946 0.304936
0.721843 0.799802 0.304799
0.758175 0.813916 0.30132
0.795682 0.832761 0.300206
0.828992 0.849485 0.299962
0.867903 0.857298 0.313787
0.898665 0.863203 0.328954
0.915373 0.868284 0.338064
0.925917 0.872618 0.345281
0.933989 0.876188 0.351583
0.936675 0.878309 0.357015
0.937026 0.879698 0.36141
0.936965 0.880873 0.363592
0.936721 0.88191 0.364263
0.187686 0.764431 0.320592
0.190265 0.767361 0.322759
0.190021 0.767193 0.320928
0.188556 0.765743 0.316884
0.187274 0.764324 0.312398
0.185718 0.763241 0.3075
0.184176 0.761685 0.301167
0.182483 0.75993 0.293629
0.181277 0.75787 0.2851
0.18027 0.755703 0.275303
0.180224 0.751766 0.256413
0.194141 0.748425 0.232547
0.224277 0.74786 0.207446
0.297322 0.751858 0.210086
0.415061 0.758602 0.235782
0.505348 0.761624 0.255619
0.56762 0.769039 0.278401
0.61648 0.779492 0.303151
0.652628 0.789746 0.316838
0.686976 0.801602 0.324636
0.724315 0.815351 0.32874
0.7608 0.830228 0.327932
0.798047 0.846418 0.325795
0.830793 0.862989 0.326986
0.860105 0.876783 0.32874
0.889006 0.881987 0.340719
0.913817 0.885878 0.355306
0.923613 0.889555 0.362432
0.93254 0.893248 0.370291
0.933547 0.894057 0.374273
0.934173 0.894606 0.379049
0.934218 0.89543 0.381476
0.934142 0.895918 0.382177
0.201129 0.778958 0.336461
0.200977 0.778866 0.336187
0.200778 0.778531 0.33373
0.200381 0.77818 0.330068
0.199237 0.777508 0.325597
0.198154 0.776608 0.320943
0.196689 0.775265 0.314794
0.195026 0.773541 0.306615
0.193973 0.772107 0.297932
0.191302 0.770245 0.288151
0.19115 0.767208 0.273259
0.206271 0.764706 0.251011
0.234134 0.764462 0.230564
0.285359 0.766049 0.22211
0.401968 0.771725 0.245472
0.510445 0.77435 0.266056
0.57322 0.781903 0.290257
0.621592 0.791638 0.316518
0.659205 0.802213 0.3346
0.691295 0.812818 0.345418
0.725719 0.825605 0.351659
0.763088 0.83975 0.353017
0.80029 0.855329 0.351263
0.830808 0.8701 0.348165
0.859281 0.882292 0.350729
0.883116 0.889982 0.357443
0.905409 0.894667 0.370687
0.920668 0.900084 0.382544
0.928756 0.903395 0.390249
0.930617 0.90425 0.395422
0.931838 0.905226 0.399313
0.931609 0.905684 0.40177
0.931716 0.905455 0.404822
0.201526 0.779828 0.341985
0.201465 0.77969 0.34107
0.201251 0.779126 0.33724
0.200793 0.778485 0.333394
0.199939 0.777966 0.328588
0.198657 0.776989 0.323293
0.197055 0.775677 0.316854
0.195331 0.773953 0.308583
