bundles/resolve-cinematic-luts/Phantom Luts/Fx6 Phntm Film LUTs-G5/Bleach Fx6.cube
TITLE "Generated by Resolve"
LUT_3D_SIZE 33
0.0233616 0.0356603 0.0245975
0.0233616 0.0356603 0.0245975
0.0233616 0.0356603 0.0245975
0.0238499 0.0359808 0.0248417
0.0256046 0.0363012 0.0250706
0.0321202 0.0388495 0.0270695
0.0402228 0.0413672 0.0284886
0.0520485 0.0426184 0.0296483
0.0646983 0.044419 0.0319982
0.077409 0.0458686 0.0341344
0.0923934 0.0470588 0.0366369
0.111315 0.049012 0.0399023
0.133928 0.0513161 0.0427253
0.160815 0.0537728 0.0457771
0.191501 0.0568704 0.0484169
0.227695 0.0599069 0.0513771
0.266743 0.0625162 0.0562295
0.308431 0.0653239 0.0629587
0.352514 0.0677501 0.0702831
0.403784 0.0694743 0.0767071
0.459602 0.0699474 0.0827955
0.506508 0.0708324 0.090425
0.545983 0.0722515 0.0987106
0.581857 0.0747539 0.110811
0.614435 0.0781567 0.125338
0.646113 0.0822614 0.14406
0.675319 0.0863203 0.16495
0.709499 0.0923018 0.1906
0.748592 0.10042 0.219776
0.769711 0.10454 0.240085
0.783642 0.107088 0.255863
0.783551 0.105913 0.261784
0.78349 0.104952 0.267308
0.0233616 0.0356603 0.0245975
0.0233616 0.0356603 0.0245975
0.0233616 0.0356603 0.0245975
0.0236973 0.0359197 0.0247959
0.0265812 0.0368963 0.0255436
0.0340734 0.039765 0.0277562
0.0429847 0.0420844 0.0289769
0.0574044 0.0433814 0.03093
0.0710002 0.0451209 0.0332952
0.0872053 0.0465705 0.0357214
0.106874 0.0485542 0.0390478
0.129488 0.0507515 0.0421149
0.157168 0.0532692 0.0450141
0.189181 0.0562753 0.0478981
0.225681 0.0594492 0.0508888
0.265431 0.0621805 0.0556039
0.307637 0.0652171 0.0624552
0.352728 0.0678874 0.0697032
0.405447 0.0695964 0.0760662
0.46038 0.0701305 0.0822461
0.507424 0.0710918 0.0897688
0.546807 0.0725719 0.0979934
0.582208 0.0749371 0.109865
0.614572 0.0783246 0.124147
0.645594 0.0824292 0.14197
0.674388 0.0865339 0.16257
0.707942 0.0923934 0.187167
0.745632 0.100206 0.215137
0.768185 0.104707 0.235492
0.783642 0.107866 0.251759
0.783581 0.106783 0.256977
0.783597 0.105882 0.262104
0.783551 0.105074 0.266697
0.0233616 0.0356603 0.0245975
0.0233616 0.0356603 0.0245975
0.0233616 0.0356603 0.0245975
0.0233616 0.0356603 0.0245975
0.0270695 0.0373083 0.025803
0.0349889 0.0403449 0.0283055
0.0450904 0.0427863 0.0294347
0.0597696 0.0442969 0.0316625
0.075349 0.0458991 0.0336461
0.0934768 0.0472114 0.035996
0.115801 0.0487221 0.0389105
0.143114 0.0512245 0.0421912
0.175891 0.0538033 0.0450599
0.210712 0.0568856 0.0479438
0.248661 0.0599222 0.0516365
0.289113 0.0632639 0.05626
0.332372 0.0674601 0.0635538
0.381231 0.0699931 0.0701305
0.43714 0.0706188 0.0764782
0.488319 0.0716106 0.0832074
0.530205 0.0729534 0.0912032
0.566506 0.0744945 0.100908
0.599557 0.0768597 0.112657
0.631739 0.0810254 0.129595
0.660044 0.0850996 0.147295
0.687907 0.0893416 0.167697
0.726101 0.0968795 0.194446
0.75787 0.103853 0.219547
0.775814 0.107622 0.236851
0.783734 0.108675 0.247532
0.783688 0.107881 0.251789
0.783719 0.107073 0.256153
0.783658 0.106188 0.260563
0.0233616 0.0356603 0.0245975
0.0233616 0.0356603 0.0245975
0.0233616 0.0356603 0.0245975
0.0233616 0.0356603 0.0245975
0.0264744 0.0375067 0.0257115
0.0331579 0.0412604 0.0280461
0.0415351 0.0436103 0.0302281
0.0557259 0.0450446 0.0310216
0.0731823 0.0468147 0.033341
0.0939956 0.0478218 0.0353552
0.118929 0.0488594 0.0380865
0.148394 0.0507973 0.0409705
0.182269 0.0531472 0.0433051
0.219287 0.0556802 0.0458839
0.257298 0.0590524 0.0487831
0.299336 0.0627298 0.0535897
0.344793 0.0673075 0.0594949
0.393591 0.0699626 0.0661021
0.447669 0.0724956 0.0727092
0.495628 0.0739452 0.079881
0.536904 0.0747845 0.0876936
0.571633 0.0755016 0.0970779
0.604181 0.078294 0.109209
0.635126 0.0825208 0.125093
0.663966 0.086717 0.143832
0.695018 0.0918288 0.165423
0.732296 0.0996567 0.191669
0.760037 0.10547 0.214527
0.778637 0.109529 0.232746
0.783673 0.109926 0.240665
0.78381 0.109163 0.245228
0.783825 0.108492 0.249104
0.783795 0.107851 0.25243
0.0245365 0.0403906 0.0267948
0.0256504 0.0423133 0.0280461
0.026215 0.0434424 0.0284123
0.0276951 0.0429847 0.0277256
0.0303655 0.0429999 0.0281071
0.0339818 0.0448768 0.0299992
0.0399786 0.04654 0.0312963
0.052079 0.0484779 0.0321202
0.0721599 0.0497139 0.0336004
0.0966812 0.0512398 0.0363622
0.121538 0.0512703 0.0388342
0.152346 0.0521096 0.0411231
0.187152 0.0533761 0.0429084
0.224399 0.0554513 0.0445869
0.265019 0.0581826 0.0466468
0.307774 0.061265 0.0495308
0.353658 0.064332 0.0540169
0.404791 0.0686503 0.0608072
0.457862 0.0726787 0.0684215
0.5028 0.0768902 0.0767834
0.542428 0.0784924 0.0851759
0.575921 0.0782635 0.0936141
0.60824 0.0807965 0.106264
0.637751 0.0839094 0.119951
0.666835 0.0882429 0.139025
0.699657 0.0938735 0.16144
0.737942 0.102251 0.187793
0.762478 0.107424 0.208316
0.782238 0.111528 0.226993
0.783825 0.111299 0.232486
0.783734 0.11075 0.236072
0.78378 0.110216 0.239399
0.783871 0.109712 0.242374
0.0300603 0.0534218 0.0332799
0.0306401 0.0554513 0.0339361
0.03093 0.0561837 0.0338445
0.0322118 0.0547189 0.0327153
0.0357977 0.053315 0.0327306
0.0413977 0.0552529 0.0339208
0.0481117 0.0567025 0.0361639
0.0591897 0.0586557 0.0356451
0.0803235 0.0582589 0.0362097
0.104982 0.0586709 0.0382544
0.134798 0.0592355 0.0404517
0.165545 0.0581674 0.0429999
0.201694 0.0579995 0.0449683
0.233051 0.0570993 0.0450752
0.274159 0.059556 0.0466621
0.315892 0.0612345 0.0478828
0.36173 0.0635843 0.049897
0.416098 0.0659037 0.055436
0.469215 0.0699474 0.0624094
0.514336 0.0764782 0.0729229
0.550515 0.0798352 0.0813458
0.581445 0.0830243 0.0908522
0.612039 0.084535 0.101808
0.640146 0.0855116 0.114565
0.667582 0.0895247 0.131731
0.702434 0.096025 0.154192
0.739727 0.103975 0.178759
0.763561 0.10959 0.199252
0.78114 0.113375 0.215381
0.782788 0.113146 0.219623
0.783627 0.112749 0.223743
0.78381 0.112306 0.22649
0.783993 0.11194 0.228992
0.0346075 0.0698405 0.0380407
0.0356146 0.0723735 0.0390173
0.0355077 0.0734569 0.0386511
0.0367742 0.0716869 0.0374609
0.0406195 0.0690776 0.0366979
0.0465095 0.0696574 0.0385138
0.0577707 0.0729534 0.0401923
0.0697795 0.0751812 0.0403296
0.0907149 0.0738689 0.0392767
0.116487 0.0715801 0.0407874
0.145373 0.0703593 0.0416266
0.181628 0.0709239 0.0443732
0.225269 0.070573 0.047837
0.263645 0.0691234 0.0502327
0.298604 0.0669413 0.0505989
0.336629 0.0667735 0.0509804
0.376577 0.0659342 0.0508736
0.428412 0.0662394 0.0511177
0.480522 0.0675059 0.0556191
0.522942 0.0716106 0.0631113
0.559335 0.0788586 0.0748455
0.589883 0.0843977 0.0854047
0.615793 0.0854658 0.0944228
0.642618 0.0893416 0.108171
0.668589 0.0915999 0.122057
0.703639 0.0983139 0.142947
0.73698 0.105531 0.165316
0.761837 0.111376 0.184573
0.775433 0.114519 0.196765
0.776898 0.114382 0.201038
0.778103 0.114321 0.204089
0.779293 0.11426 0.207172
0.779706 0.114107 0.208927
0.0389563 0.0891127 0.0423743
0.0397803 0.0926833 0.0431525
0.0397498 0.0945449 0.0427405
0.0404517 0.0932479 0.0413062
0.0443122 0.0908522 0.0406958
0.0518959 0.0903944 0.0424964
0.0639963 0.0922408 0.0457008
0.079881 0.0974136 0.0444648
0.0986496 0.0990311 0.0419928
0.130266 0.0941634 0.0420844
0.161501 0.0894636 0.0438239
0.194049 0.0856641 0.0459907
0.240879 0.0855421 0.0502632
0.285557 0.0853132 0.0540627
0.330007 0.0850385 0.0568093
0.381689 0.0828717 0.0585336
0.421454 0.0780041 0.057023
0.459388 0.0736706 0.0552529
0.500832 0.0734875 0.0564584
0.53463 0.0728466 0.059266
0.567437 0.0746624 0.0635843
0.597406 0.0796979 0.0741436
0.623529 0.0854047 0.0863813
0.64538 0.0891432 0.0970016
0.666072 0.0931563 0.108141
0.699245 0.099794 0.127352
0.731289 0.106905 0.147478
0.757504 0.113207 0.165927
0.766278 0.115282 0.173846
0.767636 0.115236 0.176089
0.768612 0.115236 0.178378
0.769894 0.115358 0.180575
0.770123 0.115328 0.181155
0.0423896 0.112261 0.0475013
0.0428626 0.117418 0.0484321
0.0426795 0.119524 0.0476234
0.042771 0.119417 0.044892
0.0468757 0.117891 0.0427558
0.0541695 0.116793 0.0436561
0.0683146 0.117281 0.0489509
0.0868544 0.11989 0.0518807
0.105821 0.126253 0.0462959
0.134295 0.12697 0.0424048
0.178714 0.120027 0.0442817
0.215763 0.113771 0.0471809
0.253086 0.106661 0.0513619
0.303258 0.106157 0.0559243
0.353277 0.105135 0.0601968
0.414572 0.103395 0.063859
0.472663 0.100847 0.0657664
0.511833 0.0971237 0.0675059
0.547707 0.094728 0.068864
0.571542 0.0918441 0.0691539
0.58909 0.0853895 0.0687724
0.612879 0.0850385 0.072755
0.634089 0.0855573 0.0793317
0.654169 0.0868849 0.0863966
0.674403 0.0905776 0.0969253
0.692683 0.0977035 0.110002
0.719371 0.106401 0.125887
0.751476 0.114626 0.145449
0.751949 0.114717 0.146151
0.752682 0.114656 0.147372
0.753552 0.114794 0.148013
0.75433 0.114946 0.148684
0.755016 0.115099 0.149264
0.0449226 0.140627 0.0530251
0.0451209 0.146792 0.0542153
0.0445411 0.149767 0.0529335
0.0435798 0.14934 0.0487984
0.0464332 0.149065 0.0439765
0.0547189 0.147814 0.044007
0.0694285 0.14844 0.049073
0.0903029 0.150484 0.0547189
0.112154 0.15349 0.0562448
0.137621 0.161135 0.0476081
0.178546 0.16144 0.0430457
0.232959 0.153826 0.0460975
0.276829 0.145968 0.0517891
0.326375 0.134188 0.0580301
0.377325 0.131838 0.062501
0.436271 0.129183 0.0655833
0.502052 0.128573 0.0718242
0.547341 0.129442 0.0775464
0.585504 0.130526 0.0843671
0.621103 0.130541 0.0907607
0.643748 0.126253 0.0925612
0.656977 0.116365 0.0886091
0.671519 0.109865 0.0892653
0.677104 0.0958877 0.0861219
0.688823 0.0950179 0.0931716
0.701564 0.0949569 0.101366
0.725048 0.102556 0.114321
0.742473 0.11075 0.125811
0.743282 0.112078 0.128695
0.743175 0.112108 0.128389
0.743542 0.112978 0.128725
0.743954 0.113252 0.128878
0.743557 0.113588 0.128084
0.0461128 0.174609 0.0610208
0.0460975 0.182361 0.0623331
0.0454108 0.18529 0.0605936
0.0446326 0.18436 0.0558022
0.0451057 0.183108 0.0491646
0.0507973 0.183505 0.0436103
0.0664683 0.183154 0.0466468
0.0899519 0.186572 0.0541085
0.115007 0.189319 0.0601053
0.142977 0.193347 0.0611734
0.177447 0.202777 0.0484169
0.229908 0.203601 0.0446632
0.292363 0.19588 0.0488746
0.347097 0.187335 0.055848
0.413397 0.170642 0.0640574
0.466667 0.163958 0.0679332
0.515419 0.163195 0.0740826
0.570031 0.167788 0.084947
0.611154 0.171756 0.0952773
0.650584 0.178347 0.105715
0.68716 0.181033 0.116716
0.713161 0.178897 0.122026
0.731807 0.168505 0.122469
0.748028 0.158862 0.119783
0.751644 0.139223 0.111803
0.75462 0.124926 0.108217
0.756268 0.116609 0.110842
0.758144 0.109697 0.11133
0.765515 0.118166 0.118425
0.765652 0.115099 0.117006
0.770565 0.115648 0.116075
0.770901 0.113771 0.114931
0.771511 0.11165 0.113756
0.0454261 0.21239 0.0687419
0.045304 0.220249 0.0699474
0.0445869 0.223316 0.0678111
0.0439002 0.222919 0.0632486
0.0438544 0.222126 0.0571603
0.0471199 0.22063 0.0492256
0.0580758 0.221073 0.0428931
0.0831311 0.223728 0.0493477
0.11191 0.228229 0.0590677
0.144305 0.232181 0.0657511
0.180301 0.238071 0.065919
0.22269 0.249149 0.0489815
0.286305 0.251514 0.0462654
0.3608 0.245121 0.0518502
0.429816 0.235737 0.0581064
0.499489 0.219364 0.0713664
0.54432 0.21651 0.0804456
0.583261 0.2206 0.0889754
0.631037 0.225376 0.103975
0.671794 0.230106 0.117769
0.713634 0.24004 0.133364
0.749493 0.246082 0.146578
0.782956 0.252476 0.15761
0.810056 0.246723 0.166003
0.837919 0.244724 0.1738
0.839109 0.218845 0.162982
0.839139 0.194842 0.149432
0.836133 0.182101 0.141634
0.833112 0.172534 0.136233
0.837018 0.1776 0.139406
0.841031 0.184466 0.144152
0.847059 0.191562 0.148211
0.853407 0.201602 0.155734
0.0433204 0.251514 0.0749523
0.0428016 0.259144 0.075761
0.0423896 0.262745 0.0745556
0.0420233 0.262531 0.070985
0.0417639 0.261692 0.0656138
0.0424659 0.259754 0.0564584
0.0484321 0.258808 0.0447547
0.0713054 0.260685 0.0422827
0.102235 0.265949 0.0521248
0.138231 0.272282 0.065156
0.179965 0.278614 0.073167
0.223285 0.28777 0.0703136
0.274372 0.302129 0.049836
0.348287 0.305669 0.0491493
0.438514 0.300404 0.0546883
0.510643 0.297612 0.0639658
0.570123 0.287938 0.0839704
0.61326 0.28925 0.099855
0.650752 0.297871 0.114275
0.693767 0.300923 0.132448
0.73463 0.31078 0.15079
0.781842 0.325536 0.174716
0.822171 0.330907 0.193973
0.857404 0.340932 0.209934
0.888716 0.344961 0.225254
0.90634 0.343771 0.231312
0.916396 0.333333 0.232547
0.924987 0.32987 0.235462
0.929046 0.327062 0.236301
0.928283 0.327581 0.236454
0.929946 0.332479 0.239246
0.931167 0.338308 0.241642
0.933639 0.347356 0.245853
0.0398871 0.290272 0.0807965
0.0390631 0.297856 0.0813153
0.0386969 0.301366 0.0799725
0.0385748 0.301457 0.0769665
0.0384222 0.300832 0.0736706
0.0385138 0.299489 0.0668498
0.0396735 0.296818 0.0518502
0.0542458 0.296239 0.0403906
0.0861372 0.300572 0.0428473
0.125399 0.309895 0.0560616
0.171145 0.319554 0.07364
0.221317 0.328527 0.0820325
0.271519 0.341665 0.0734417
0.330632 0.360693 0.0513008
0.424201 0.367117 0.0539864
0.515297 0.370871 0.0647898
0.578912 0.378195 0.0818189
0.637278 0.378836 0.109041
0.685161 0.386435 0.134295
0.72694 0.398795 0.157504
0.766964 0.409567 0.179675
0.798947 0.420691 0.196017
0.844327 0.424094 0.219379
0.87985 0.426078 0.236683
0.906172 0.433249 0.24828
0.926696 0.432425 0.260838
0.938338 0.431739 0.265949
0.945937 0.431647 0.268238
0.948211 0.434073 0.26949
0.94844 0.440223 0.269856
0.948013 0.44654 0.269673
0.947845 0.452537 0.270069
0.947265 0.458228 0.270069
0.0357977 0.329366 0.0858473
0.0348516 0.336767 0.0864729
0.0344549 0.341344 0.085481
0.0343786 0.341451 0.082414
0.034287 0.340383 0.0789654
0.034287 0.33901 0.0740978
0.0353246 0.336461 0.063386
0.0379339 0.333562 0.0446937
0.064622 0.336339 0.0384527
0.105623 0.344579 0.0457008
0.155856 0.358251 0.0645762
0.211963 0.373098 0.086305
0.267781 0.387564 0.0911879
0.325628 0.408408 0.0768139
0.39968 0.433066 0.0567941
0.503151 0.449622 0.0676127
0.580972 0.465278 0.0868849
0.638163 0.478279 0.107362
0.690272 0.483421 0.134066
0.736049 0.490806 0.159808
0.779614 0.497841 0.186481
0.813016 0.504585 0.204196
0.837537 0.512718 0.213489
0.869657 0.514931 0.228016
0.89691 0.517647 0.240711
0.917556 0.519295 0.251392
0.933104 0.518837 0.261845
0.942809 0.519539 0.266651
0.943328 0.52224 0.267491
0.944183 0.525429 0.268788
0.943908 0.530434 0.269032
0.943206 0.536706 0.268421
0.942535 0.543862 0.26775
0.031754 0.371466 0.0917678
0.0306554 0.380804 0.0924697
0.0300298 0.384619 0.0910964
0.0301671 0.384375 0.0879835
0.0306249 0.383429 0.0847486
0.0304417 0.382177 0.0804303
0.0308385 0.380621 0.0722362
0.0328374 0.377081 0.0568246
0.0411383 0.374105 0.0348669
0.0799878 0.381231 0.0367895
0.132753 0.397375 0.0533303
0.195056 0.417731 0.0769513
0.262028 0.441337 0.102373
0.326802 0.462821 0.104021
0.40325 0.487556 0.0923171
0.489891 0.514885 0.0801099
0.573724 0.53283 0.0950484
0.638407 0.546166 0.11458
0.687083 0.557107 0.134157
0.733242 0.563714 0.156619
0.77351 0.569863 0.178058
0.818647 0.571878 0.206394
0.852934 0.574884 0.225895
0.87364 0.582147 0.233066
0.895018 0.586908 0.242588
0.914473 0.589868 0.252293
0.925826 0.593988 0.257572
0.936812 0.594949 0.265492
0.940444 0.599847 0.267826
0.940856 0.604074 0.268223
0.940856 0.610529 0.268421
0.940764 0.616129 0.268482
0.941131 0.620325 0.26981
0.0286412 0.419852 0.0978866
0.0289464 0.429404 0.0995956
0.0285801 0.433326 0.0987259
0.0287022 0.432914 0.0959335
0.0288396 0.431937 0.092256
0.0285344 0.430961 0.0877089
0.028397 0.429313 0.0817884
0.0294499 0.425711 0.0678569
0.0355688 0.422843 0.0481422
0.0574502 0.423529 0.0312352
0.110521 0.438087 0.0448005
0.178958 0.461875 0.0711681
0.261845 0.492485 0.105959
0.34165 0.520974 0.135897
0.416876 0.539742 0.132143
0.495903 0.558846 0.118044
0.56437 0.582238 0.109331
0.633829 0.598444 0.125994
0.688609 0.61004 0.145953
0.732662 0.618494 0.165118
0.774578 0.625025 0.185504
0.812787 0.631632 0.204044
0.851194 0.632593 0.227268
0.883574 0.632502 0.247013
0.902831 0.638224 0.256626
0.919387 0.643137 0.266407
0.928786 0.647791 0.270359
0.935241 0.653254 0.272328
0.939834 0.657404 0.275929
0.941436 0.660975 0.277394
0.941329 0.664195 0.278126
0.941604 0.668284 0.279347
0.941482 0.672312 0.279927
0.0319219 0.470466 0.113176
0.0336919 0.480507 0.117052
0.0345464 0.484962 0.117693
0.0345464 0.484672 0.1149
0.0344091 0.483207 0.110582
0.0341344 0.48159 0.105592
0.0335241 0.480186 0.100359
0.033753 0.477897 0.0891737
0.0363012 0.473686 0.0686656
0.0540627 0.473304 0.0495766
0.0953994 0.480903 0.0436713
0.173251 0.507301 0.0736706
0.267216 0.54078 0.116579
0.35375 0.568383 0.152132
0.434516 0.585748 0.168139
0.507622 0.600214 0.157427
0.570443 0.618219 0.14728
0.624491 0.638437 0.140795
0.682963 0.65214 0.158816
0.73434 0.662745 0.180392
0.774716 0.670466 0.198962
0.814191 0.67689 0.218173
0.846632 0.68217 0.234119
0.878416 0.683619 0.252155
0.902281 0.684245 0.265995
0.919692 0.687755 0.277256
0.93344 0.693004 0.288151
0.939208 0.697551 0.291356
0.94229 0.702739 0.291249
0.94255 0.70631 0.29276
0.942657 0.709499 0.294636
0.943008 0.712795 0.296422
0.942718 0.715831 0.297505
0.0452888 0.5252 0.143374
0.0495308 0.536065 0.151217
0.0509957 0.541024 0.152712
0.0506905 0.540154 0.149584
0.0503243 0.538201 0.144244
0.049897 0.536339 0.138064
0.0486763 0.534463 0.131273
0.0482643 0.532403 0.122927
0.0496986 0.528084 0.104479
0.0538338 0.523461 0.0762341
0.0939651 0.529351 0.0651102
0.174945 0.552483 0.0835889
0.277546 0.585824 0.130556
0.368536 0.610498 0.171817
0.454612 0.62472 0.191653
0.522148 0.636973 0.194568
0.578882 0.651392 0.185351
0.629404 0.668635 0.177478
0.674449 0.68658 0.174502
0.728222 0.699245 0.19408
0.776608 0.7084 0.215854
0.813199 0.715846 0.233204
0.846281 0.721141 0.249104
0.87361 0.725414 0.262287
0.89868 0.727764 0.277089
0.91548 0.730053 0.285939
0.929122 0.733333 0.295415
0.937118 0.738231 0.303395
0.943435 0.742473 0.309453
0.943465 0.745449 0.31104
0.943358 0.748318 0.312749
0.943526 0.750881 0.314412
0.943633 0.753063 0.315755
0.0712444 0.585382 0.19115
0.0765698 0.596582 0.200122
0.0790112 0.600473 0.202289
0.0787976 0.599832 0.19913
0.0777447 0.598032 0.193469
0.0764172 0.59559 0.185595
0.0755932 0.593652 0.178317
0.074876 0.592584 0.170947
0.074876 0.588617 0.152728
0.0774701 0.583429 0.124559
0.0882582 0.578592 0.090013
0.176577 0.597284 0.103151
0.284504 0.62475 0.144579
0.378653 0.646021 0.185901
0.470695 0.657862 0.212726
0.537209 0.669291 0.222263
0.588052 0.682368 0.2224
0.634577 0.696376 0.215045
0.678416 0.713573 0.210758
0.718563 0.730709 0.209079
0.768109 0.740917 0.22771
0.811963 0.748806 0.248539
0.844999 0.755932 0.264378
0.871458 0.761364 0.278279
0.894392 0.765667 0.290547
0.911391 0.769299 0.299977
0.925353 0.771572 0.308598
0.935012 0.774304 0.316289
0.940322 0.777295 0.323033
0.942412 0.778317 0.327382
0.943099 0.780316 0.32958
0.942962 0.783093 0.330892
0.943008 0.785885 0.332509
0.102403 0.641688 0.240024
0.107973 0.650431 0.247059
0.10988 0.653681 0.248432
0.109316 0.652476 0.244846
0.108354 0.650553 0.239765
0.107774 0.649363 0.233707
0.107286 0.647959 0.226841
0.105577 0.646128 0.218494
0.105043 0.643366 0.205921
0.107362 0.639536 0.178424
0.116472 0.634256 0.141955
0.160861 0.636896 0.119326
0.285847 0.658915 0.159182
0.386053 0.677134 0.199176
0.479637 0.686854 0.225528
0.547677 0.697139 0.245045
0.597192 0.709773 0.25095
0.639948 0.722545 0.249714
0.68043 0.736553 0.24448
0.719249 0.75317 0.241672
0.757534 0.770672 0.241443
0.801907 0.779675 0.259907
0.84358 0.786969 0.280613
0.869215 0.793423 0.294591
0.89041 0.79884 0.307149
0.907469 0.802686 0.316686
0.919951 0.806714 0.325109
0.930983 0.809079 0.332601
0.937377 0.811337 0.340078
0.941131 0.812818 0.346197
0.941405 0.814908 0.348455
0.941115 0.817334 0.349874
0.941085 0.819913 0.351919
0.133684 0.688258 0.280552
0.138033 0.69398 0.285527
0.139544 0.695964 0.285817
0.139025 0.695155 0.282643
0.138201 0.693828 0.278218
0.137148 0.692561 0.272236
0.136324 0.69073 0.265141
0.135073 0.689219 0.257923
0.133913 0.686915 0.246983
0.134813 0.683223 0.226078
0.141665 0.678126 0.192294
0.17203 0.676524 0.15697
0.264836 0.685603 0.167651
0.393729 0.70338 0.212299
0.487297 0.711223 0.237675
0.555581 0.720851 0.259617
0.603677 0.731914 0.273381
0.644907 0.744244 0.277043
0.68365 0.757626 0.275593
0.721309 0.772091 0.271962
0.758007 0.788327 0.270848
0.792767 0.804562 0.274357
0.833021 0.81265 0.292363
0.868833 0.819593 0.311833
0.888304 0.825696 0.323735
0.904799 0.830945 0.335546
0.916503 0.835187 0.343359
0.926558 0.839536 0.351995
0.932723 0.841337 0.35877
0.938384 0.843153 0.365774
0.938613 0.845029 0.369024
0.938643 0.846525 0.371069
0.938125 0.848661 0.372564
0.160845 0.723095 0.312764
0.165042 0.728161 0.317037
0.166262 0.72932 0.316686
0.165454 0.728328 0.3131
0.164157 0.726818 0.308675
0.163577 0.725841 0.303197
0.162158 0.72401 0.295979
0.161013 0.721965 0.2878
0.159106 0.720333 0.279759
0.160021 0.717281 0.261662
0.165545 0.712077 0.232227
0.184131 0.70779 0.198199
0.25803 0.711208 0.187228
0.367086 0.722713 0.217166
0.492668 0.73164 0.248402
0.562036 0.740932 0.273274
0.610483 0.751415 0.290166
0.648508 0.762737 0.299763
0.686748 0.775402 0.302892
0.723583 0.789471 0.302129
0.759579 0.804654 0.299504
0.794095 0.820844 0.301381
0.823713 0.834226 0.307149
0.859968 0.841733 0.325536
0.887724 0.847517 0.342077
0.903639 0.852964 0.353964
0.915282 0.857313 0.36408
0.924422 0.861128 0.372351
0.930343 0.864347 0.378744
0.934661 0.866651 0.385275
0.935485 0.868574 0.389425
0.936126 0.869749 0.393286
0.93579 0.870497 0.394278
0.187549 0.749691 0.34081
0.191073 0.75317 0.34406
0.191562 0.753841 0.34313
0.190158 0.752758 0.338979
0.188144 0.751125 0.333867
0.186206 0.749706 0.328298
0.184787 0.747951 0.320989
0.183124 0.746105 0.312398
0.181094 0.744076 0.303227
0.180133 0.74197 0.292134
0.183566 0.737072 0.265324
0.20119 0.733074 0.232547
0.247608 0.732876 0.210071
0.367742 0.741909 0.23064
0.484245 0.747692 0.25658
0.565652 0.757031 0.28336
0.617716 0.768322 0.307973
0.65481 0.779492 0.319478
0.689174 0.791516 0.326604
0.725795 0.804425 0.329381
0.761151 0.819409 0.328344
0.795499 0.834928 0.32726
0.824155 0.84828 0.332845
0.850614 0.858763 0.34078
0.879866 0.865232 0.357519
0.90277 0.870115 0.373602
0.915145 0.873899 0.38407
0.922744 0.87718 0.391546
0.929351 0.880323 0.399863
0.932876 0.881849 0.406775
0.934585 0.883467 0.412573
0.935058 0.884443 0.415534
0.935027 0.885298 0.416785
0.210636 0.768093 0.36434
0.213596 0.770199 0.366491
0.213413 0.770199 0.364691
0.211551 0.769284 0.360174
0.209781 0.768139 0.35523
0.207446 0.766735 0.349493
0.205692 0.765499 0.342351
0.203906 0.764065 0.333776
0.201663 0.762036 0.323888
0.199741 0.75993 0.312963
0.200275 0.756161 0.292515
0.215641 0.752331 0.264958
0.250462 0.7505 0.236103
0.337606 0.754055 0.240162
0.486961 0.761105 0.268482
0.568673 0.770031 0.295232
0.621912 0.781109 0.320424
0.662226 0.793088 0.338888
0.694224 0.804211 0.347936
0.726955 0.816388 0.353521
0.764416 0.830915 0.355596
0.79646 0.845808 0.355215
0.825254 0.859983 0.356359
0.850599 0.869764 0.365515
0.873304 0.877638 0.376165
0.895491 0.882429 0.389761
0.914244 0.886244 0.405234
0.921859 0.889403 0.414786
0.928634 0.892042 0.423499
0.931273 0.893584 0.430243
0.933425 0.894499 0.436591
0.933867 0.895201 0.43978
0.933791 0.895613 0.440818
0.225666 0.778042 0.381292
0.225589 0.778042 0.380835
0.22536 0.778027 0.378653
0.22472 0.77792 0.374121
0.223301 0.777523 0.369512
0.221378 0.776791 0.363684
0.219348 0.775525 0.356909
0.216785 0.774014 0.347478
0.215106 0.772595 0.33753
0.211994 0.770565 0.326558
0.211353 0.767605 0.309651
0.22884 0.764355 0.284306
0.261158 0.762905 0.260761
0.320485 0.763912 0.25156
0.469291 0.770001 0.278355
0.572366 0.78027 0.30808
0.627863 0.792447 0.337499
0.668345 0.803876 0.358877
0.701045 0.815366 0.372732
0.731701 0.826627 0.381415
0.766033 0.839872 0.385595
0.802457 0.854627 0.38677
0.831403 0.868147 0.388067
0.853956 0.878737 0.390845
0.875731 0.885557 0.401938
0.891859 0.889342 0.410712
0.909239 0.893568 0.426184
0.920134 0.897231 0.440223
0.926955 0.899977 0.449104
0.929915 0.901564 0.4551
0.932555 0.902998 0.460563
0.932677 0.90341 0.46331
0.932769 0.903471 0.466163
0.225956 0.778103 0.387228
0.225849 0.778042 0.386557
0.225666 0.778027 0.382437
0.22536 0.778027 0.37818
0.22414 0.777813 0.372641
0.222232 0.777142 0.366445
0.219821 0.775921 0.359243
0.217197 0.77438 0.350164
0.216129 0.772808 0.338521
0.212711 0.770871 0.327199
