bundles/resolve-cinematic-luts/Phantom Luts/Fx6 Phntm Film LUTs-G5/Eastman Fx6.cube
TITLE "Generated by Resolve"
LUT_3D_SIZE 9
0.0390021 0.0390021 0.0390021
0.0553597 0.0390021 0.0390021
0.121309 0.0390021 0.0434119
0.241581 0.0442359 0.0406958
0.37464 0.0545052 0.046952
0.475792 0.0547799 0.0610666
0.577691 0.0694896 0.171695
0.585977 0.0746166 0.208835
0.56994 0.0771649 0.219409
0.0480507 0.0486458 0.0466621
0.0535134 0.044007 0.0435798
0.114656 0.0456855 0.048249
0.24332 0.0509499 0.0390021
0.379232 0.0700389 0.0439612
0.479011 0.0835126 0.0559548
0.584985 0.0744335 0.145144
0.592538 0.0783093 0.183352
0.568505 0.0831159 0.196399
0.0673838 0.122942 0.0696117
0.071397 0.117876 0.0622416
0.136095 0.124926 0.063508
0.293919 0.097322 0.0571603
0.436103 0.118608 0.0562142
0.492027 0.109697 0.0505226
0.574487 0.120577 0.0931258
0.579461 0.111421 0.101335
0.572473 0.104631 0.107942
0.104494 0.30898 0.134417
0.0968643 0.304143 0.122774
0.14934 0.311482 0.114214
0.34406 0.338689 0.0989548
0.555627 0.303883 0.130022
0.695125 0.297566 0.144976
0.766857 0.299641 0.161227
0.754513 0.280797 0.158602
0.734813 0.274327 0.156909
0.164965 0.552331 0.271473
0.159319 0.547951 0.263127
0.155245 0.532143 0.206928
0.353506 0.542443 0.200748
0.547448 0.551644 0.144961
0.723217 0.549081 0.186511
0.823865 0.534676 0.229389
0.835721 0.535836 0.230472
0.832471 0.532113 0.23035
0.262776 0.75404 0.439872
0.257145 0.747707 0.435248
0.248463 0.735607 0.410132
0.333501 0.697597 0.279286
0.5523 0.707103 0.289219
0.695979 0.721645 0.250996
0.800427 0.718547 0.292454
0.833692 0.712978 0.298253
0.836896 0.705608 0.291722
0.340932 0.834714 0.519432
0.335775 0.830137 0.512871
0.322744 0.81973 0.488655
0.330159 0.790433 0.405829
0.570077 0.793103 0.389334
0.695659 0.796323 0.352834
0.79118 0.807843 0.352956
0.833982 0.807248 0.371664
0.832029 0.803845 0.368795
0.347158 0.841215 0.534646
0.342458 0.835798 0.518746
0.329183 0.824994 0.488884
0.327703 0.797131 0.413809
0.562692 0.799588 0.392508
0.690318 0.806363 0.377874
0.786816 0.821485 0.369985
0.838163 0.824384 0.398245
0.839826 0.826062 0.409384
0.349706 0.843442 0.554055
0.345556 0.838758 0.535164
0.333288 0.828428 0.501625
0.31928 0.802045 0.432319
0.537408 0.797696 0.391073
0.679149 0.806149 0.382193
0.77818 0.822248 0.371038
0.834073 0.823896 0.394018
0.835935 0.827176 0.41387
0.0390021 0.0390021 0.0390021
0.0514229 0.0390021 0.044007
0.11046 0.0390021 0.0609445
0.235492 0.0390021 0.0595254
0.365301 0.0390021 0.0518044
0.462272 0.0390021 0.0871595
0.557641 0.0714275 0.19675
0.56556 0.0764935 0.225193
0.549996 0.0788586 0.233265
0.0442054 0.0411078 0.0463722
0.049073 0.0390021 0.0452277
0.110018 0.0396582 0.0488136
0.232578 0.0482185 0.0415503
0.366339 0.0599222 0.0464027
0.466087 0.057557 0.0635996
0.566827 0.0771649 0.179171
0.570886 0.079118 0.209125
0.556481 0.0811322 0.219165
0.0673228 0.122728 0.0852979
0.062974 0.117174 0.0709087
0.129961 0.12105 0.065095
0.290379 0.0932937 0.0544747
0.419852 0.109529 0.0504005
0.480217 0.103304 0.0518196
0.579263 0.0966659 0.109895
0.583551 0.0817731 0.128725
0.576516 0.0860609 0.147723
0.105943 0.31635 0.154513
0.0984665 0.308293 0.138308
0.118471 0.301152 0.105806
0.341512 0.335256 0.0993973
0.556115 0.289693 0.131456
0.696941 0.291188 0.143542
0.758846 0.288029 0.158297
0.738933 0.265415 0.154803
0.718517 0.259052 0.152544
0.16849 0.560815 0.29485
0.161471 0.552956 0.281315
0.155657 0.537163 0.234043
0.336721 0.539422 0.197467
0.545724 0.549706 0.145022
0.725597 0.544381 0.186542
0.824781 0.528222 0.22797
0.835111 0.527794 0.22884
0.832059 0.52256 0.228473
0.265141 0.757275 0.452491
0.259953 0.750744 0.44622
0.249744 0.736828 0.417517
0.291203 0.695537 0.279423
0.545052 0.705043 0.290547
0.693202 0.718563 0.249241
0.800122 0.713863 0.290013
0.831739 0.706966 0.296101
0.831006 0.701015 0.292897
0.345968 0.839399 0.537072
0.340658 0.834485 0.524239
0.328237 0.824613 0.500481
0.319341 0.793454 0.420874
0.56144 0.791379 0.387945
0.68893 0.793912 0.352422
0.787655 0.806088 0.349981
0.833844 0.803998 0.368353
0.831739 0.800977 0.365972
0.352132 0.84596 0.559289
0.347173 0.841184 0.536263
0.33521 0.829938 0.501167
0.319921 0.80264 0.432837
0.548257 0.798062 0.390066
0.683619 0.806409 0.382269
0.782803 0.822278 0.373037
0.837491 0.824414 0.399069
0.832761 0.828443 0.420478
0.355123 0.849332 0.568261
0.350332 0.844343 0.547158
0.338857 0.832959 0.513497
0.31841 0.807889 0.449821
0.518914 0.796033 0.388724
0.673213 0.805997 0.385534
0.773526 0.821927 0.374914
0.832578 0.823728 0.393194
0.832349 0.828534 0.420691
0.0390021 0.0390021 0.0642252
0.0555276 0.0390021 0.0795605
0.10927 0.0392004 0.0894942
0.235203 0.0390021 0.0948348
0.360143 0.0390021 0.112016
0.460197 0.0392309 0.156085
0.545113 0.0671244 0.227756
0.553567 0.0721447 0.247532
0.539178 0.0747692 0.251362
0.0397192 0.0438239 0.062623
0.0390021 0.0390021 0.0713664
0.10161 0.0393378 0.0867781
0.234073 0.0390021 0.0827192
0.367834 0.0390021 0.0864271
0.466163 0.0404669 0.136904
0.553933 0.0714275 0.223026
0.55639 0.0739147 0.241535
0.542062 0.0758984 0.246372
0.0630655 0.117617 0.100954
0.0600595 0.114778 0.0999161
0.132418 0.124743 0.126574
0.306325 0.100374 0.102525
0.409674 0.0773785 0.0631571
0.48423 0.052079 0.0702678
0.581994 0.0797742 0.19353
0.575784 0.077821 0.21062
0.563607 0.0792554 0.22034
0.111254 0.324712 0.197711
0.105348 0.322087 0.186831
0.106355 0.311971 0.147967
0.349447 0.347356 0.14255
0.562707 0.286839 0.15404
0.712673 0.281483 0.157061
0.707088 0.232212 0.159762
0.680415 0.207752 0.150576
0.657588 0.198383 0.142458
0.176501 0.576944 0.344808
0.170199 0.570626 0.336156
0.160525 0.549661 0.283726
0.268956 0.530007 0.18999
0.541604 0.545022 0.145403
0.736904 0.528054 0.200687
0.826001 0.514336 0.229007
0.837552 0.5066 0.231861
0.833219 0.499855 0.230961
0.27126 0.76669 0.484443
0.265949 0.759396 0.477943
0.255131 0.743908 0.443992
0.241474 0.698711 0.330632
0.525979 0.702037 0.297627
0.688396 0.713207 0.24596
0.801572 0.705699 0.290471
0.832212 0.695552 0.293629
0.831464 0.688243 0.289525
0.356039 0.851133 0.568154
0.350652 0.845075 0.559121
0.337926 0.832364 0.524575
0.311879 0.804349 0.458701
0.531929 0.788159 0.388281
0.675532 0.789639 0.354833
0.782361 0.802045 0.346044
0.833982 0.79884 0.363424
0.831327 0.794461 0.361883
0.365225 0.860807 0.59205
0.359579 0.854032 0.578943
0.347463 0.841611 0.537865
0.323995 0.814923 0.466072
0.495644 0.796689 0.394415
0.669978 0.80827 0.39649
0.773999 0.821973 0.38146
0.835706 0.824277 0.401053
0.832959 0.828779 0.423667
0.367758 0.863981 0.600366
0.36231 0.857206 0.586786
0.351003 0.845014 0.549432
0.328069 0.819623 0.478874
0.462379 0.794644 0.390326
0.656901 0.807568 0.398428
0.763073 0.820768 0.383047
0.829007 0.823865 0.399039
0.832074 0.829053 0.425254
0.0390021 0.0527962 0.1337
0.0509651 0.0482185 0.157992
0.106081 0.0468299 0.189456
0.232517 0.0390021 0.191699
0.370275 0.0424353 0.198932
0.463951 0.0465553 0.227085
0.540444 0.0683452 0.268421
0.551492 0.0740826 0.287861
0.541588 0.0782025 0.295369
0.0390021 0.0631876 0.12752
0.0390021 0.0552071 0.145861
0.0821851 0.0500038 0.19263
0.234821 0.0390021 0.195056
0.372305 0.0424353 0.195346
0.466835 0.0474098 0.224216
0.542397 0.06981 0.267399
0.549706 0.0742809 0.284382
0.540719 0.0782177 0.292363
0.0441901 0.116197 0.150576
0.0396735 0.109667 0.157229
0.0646677 0.0979782 0.206607
0.257099 0.062974 0.220645
0.38114 0.0445258 0.187106
0.47747 0.0465095 0.212848
0.55317 0.0701915 0.259907
0.553231 0.0714885 0.270909
0.545327 0.0750744 0.277317
0.0980545 0.320424 0.25745
0.094728 0.320882 0.259861
0.0973831 0.320668 0.261128
0.367071 0.374151 0.366384
0.57705 0.30251 0.319158
0.697002 0.213825 0.272114
0.661875 0.128389 0.256077
0.632044 0.11014 0.256672
0.603082 0.0987411 0.247929
0.183047 0.602502 0.421469
0.180987 0.599908 0.422141
0.179507 0.591394 0.403815
0.233616 0.569757 0.348211
0.549172 0.574212 0.323613
0.746242 0.527062 0.329198
0.844907 0.491279 0.322621
0.848508 0.476341 0.317342
0.842863 0.468971 0.315496
0.281376 0.790921 0.547143
0.278447 0.784573 0.545571
0.271427 0.771557 0.523339
0.252552 0.729671 0.437888
0.491005 0.70956 0.372229
0.680247 0.71426 0.319997
0.812543 0.695171 0.363027
0.839704 0.68423 0.352575
0.838956 0.675975 0.345373
0.37734 0.879896 0.630762
0.371496 0.872816 0.622568
0.360357 0.859174 0.598001
0.336294 0.826169 0.521935
0.431678 0.790921 0.432837
0.653696 0.793988 0.409888
0.775906 0.801633 0.385
0.835248 0.792187 0.394324
0.832959 0.786923 0.386847
0.388968 0.892744 0.65565
0.384405 0.885573 0.644312
0.374517 0.872206 0.618509
0.353124 0.842145 0.544625
0.402945 0.807523 0.449012
0.641459 0.817639 0.445426
0.759152 0.824475 0.422889
0.832227 0.828916 0.437263
0.835615 0.832074 0.449302
0.390295 0.894194 0.661585
0.386038 0.887587 0.648814
0.376593 0.874968 0.623636
0.3552 0.846113 0.554879
0.371283 0.807568 0.44715
0.625177 0.815274 0.441489
0.745693 0.821256 0.42211
0.821241 0.827375 0.433066
0.834623 0.832715 0.452903
0.0390021 0.0772259 0.245914
0.0429084 0.0654612 0.264057
0.0870832 0.0614939 0.298589
0.24535 0.0448005 0.318837
0.370932 0.0460059 0.318486
0.491386 0.059266 0.323064
0.574502 0.0860914 0.355535
0.587716 0.091722 0.376516
0.583947 0.0979171 0.389151
0.0390021 0.0953078 0.244388
0.0390021 0.0805219 0.259937
0.0624704 0.0656291 0.296025
0.241108 0.0465705 0.329503
0.376226 0.0473945 0.324376
0.495308 0.0602274 0.324941
0.576806 0.0880293 0.357229
0.586542 0.0924544 0.376852
0.583505 0.098146 0.389654
0.0390021 0.119142 0.249317
0.0390021 0.113375 0.25803
0.0390021 0.0838026 0.283223
0.220218 0.0509804 0.345022
0.386664 0.0525063 0.334554
0.504799 0.0654154 0.328237
0.581613 0.0868086 0.35462
0.589166 0.0898146 0.371481
0.585397 0.0948959 0.380468
0.0654917 0.308553 0.326329
0.0620279 0.304707 0.329519
0.0578927 0.291417 0.332616
0.236194 0.295842 0.447028
0.523537 0.244968 0.477165
0.621637 0.166674 0.418524
0.592615 0.0944686 0.346548
0.59089 0.0917372 0.347082
0.583886 0.0932631 0.348669
0.164858 0.595697 0.488624
0.163912 0.594324 0.492348
0.162844 0.591409 0.490471
0.221408 0.598138 0.508141
0.573907 0.596399 0.577935
0.753063 0.526238 0.52256
0.845457 0.434028 0.470298
0.841535 0.400702 0.466499
0.833677 0.388632 0.465171
0.275853 0.80621 0.616541
0.274571 0.80148 0.617273
0.271672 0.795239 0.607416
0.273289 0.778119 0.57612
0.492302 0.743114 0.561074
0.704448 0.744793 0.545556
0.834623 0.707469 0.540688
0.86453 0.691722 0.518029
0.862913 0.679042 0.510826
0.39115 0.912886 0.706905
0.386892 0.9066 0.701427
0.378088 0.89662 0.684718
0.36492 0.872053 0.64062
0.462776 0.823514 0.573129
0.651881 0.823667 0.575418
0.79057 0.825803 0.543648
0.858854 0.808774 0.559152
0.858503 0.8009 0.55317
0.4121 0.927962 0.734997
0.408927 0.923751 0.725795
0.403586 0.916182 0.70779
0.395666 0.895109 0.664454
0.451545 0.849149 0.587304
0.621195 0.850111 0.591836
0.773373 0.85919 0.580514
0.848951 0.860807 0.579278
0.862364 0.864759 0.598672
0.414466 0.928862 0.739757
0.4103 0.924575 0.729229
0.403967 0.917327 0.710643
0.395834 0.897642 0.669566
0.426535 0.850111 0.583215
0.594705 0.847196 0.585458
0.761257 0.858457 0.585229
0.839261 0.864286 0.585962
0.864881 0.872419 0.617365
0.0390021 0.10898 0.342977
0.0401007 0.0949111 0.354681
0.0779431 0.0849928 0.381033
0.240467 0.0717937 0.428656
0.393439 0.0704662 0.428428
0.495735 0.076936 0.430854
0.601846 0.112261 0.456306
0.612879 0.120745 0.483192
0.615518 0.125307 0.501152
0.0390021 0.131334 0.347707
0.0390021 0.11516 0.356771
0.0566873 0.0922713 0.37879
0.229679 0.076524 0.437308
0.3991 0.0734417 0.437827
0.502556 0.0794385 0.437552
0.607889 0.114839 0.461723
0.613825 0.121614 0.487251
0.616098 0.125902 0.50367
0.0390021 0.157 0.355642
0.0390021 0.151659 0.361273
0.0390021 0.119951 0.372717
0.196689 0.0844892 0.445182
0.405142 0.0784009 0.452338
0.512581 0.08365 0.445762
0.610361 0.114443 0.464332
0.616815 0.119844 0.484733
0.614466 0.124117 0.494942
0.0543374 0.307286 0.40618
0.0528573 0.301289 0.408972
0.0486305 0.28336 0.411643
0.132891 0.241978 0.48838
0.466545 0.17966 0.563745
0.541573 0.113069 0.474968
0.605249 0.111177 0.44506
0.611978 0.113481 0.451316
0.609094 0.115663 0.454353
0.131548 0.578363 0.549554
0.130083 0.576272 0.550744
0.123995 0.570016 0.550347
0.141207 0.564401 0.574105
0.478859 0.548165 0.678782
0.732494 0.500938 0.681605
0.817899 0.415671 0.626856
0.822492 0.375769 0.621546
0.814618 0.36379 0.614542
0.255863 0.790036 0.667842
0.253834 0.785687 0.666789
0.250568 0.780774 0.661845
0.248844 0.768917 0.651865
0.509285 0.768139 0.696925
0.728206 0.756695 0.732036
0.847883 0.711864 0.694987
0.873533 0.647791 0.650309
0.866102 0.629267 0.641947
0.381689 0.919264 0.764126
0.376791 0.914473 0.759838
0.370459 0.908354 0.751125
0.362448 0.89546 0.727718
0.51191 0.879637 0.725734
0.685405 0.853315 0.729915
0.821149 0.857923 0.72221
0.890242 0.838941 0.716243
0.892271 0.830747 0.701961
0.441825 0.943557 0.797147
0.439841 0.943053 0.792691
0.435111 0.941009 0.782773
0.433036 0.934691 0.759365
0.51397 0.915099 0.734966
0.658824 0.890166 0.730495
0.794308 0.899001 0.745174
0.877195 0.902205 0.735119
0.899138 0.901198 0.75021
0.442969 0.943603 0.80029
0.441123 0.943481 0.795773
0.436286 0.942046 0.785885
0.43125 0.935607 0.761898
0.489616 0.916213 0.729122
0.642817 0.889128 0.725093
0.782712 0.903777 0.755367
0.866484 0.913481 0.750042
0.90396 0.91928 0.774456
0.0390021 0.155398 0.421607
0.0419776 0.140871 0.433722
0.0761425 0.121828 0.451514
0.232456 0.116121 0.517205
0.425284 0.118456 0.548363
0.522911 0.10779 0.521416
0.617243 0.13402 0.54461
0.624628 0.139742 0.561807
0.626429 0.142153 0.570687
0.0390021 0.183566 0.430411
0.0390021 0.16492 0.433112
0.0570382 0.138018 0.452567
0.219471 0.121782 0.52108
0.430564 0.1234 0.557717
0.530648 0.110857 0.528161
0.622278 0.136141 0.548913
0.62501 0.140337 0.563684
0.626352 0.142336 0.571145
0.0390021 0.213581 0.443259
0.0390021 0.208804 0.447562
0.0390021 0.176425 0.444541
0.183566 0.128664 0.517601
0.431479 0.130495 0.571633
0.538109 0.11516 0.535683
0.619303 0.135668 0.54992
0.625269 0.140185 0.562112
0.626078 0.141711 0.567941
0.0527047 0.314443 0.476905
0.0514229 0.308507 0.479149
0.0490578 0.292226 0.481361
0.0731365 0.240482 0.516655
0.400015 0.161929 0.605753
0.554742 0.139437 0.566979
0.614588 0.132021 0.538979
0.625299 0.136416 0.546487
0.624857 0.13753 0.549615
0.123293 0.586252 0.603861
0.122316 0.583017 0.605066
0.119966 0.575296 0.608469
0.1149 0.553597 0.62356
0.409033 0.52636 0.743664
0.709819 0.482765 0.792187
0.818952 0.406516 0.734752
0.823407 0.36289 0.7084
0.817609 0.347768 0.701625
0.241093 0.771557 0.705898
0.237797 0.766873 0.704234
0.231769 0.759167 0.70132
0.218158 0.741176 0.695521
0.451713 0.746792 0.767605
0.666087 0.72639 0.800305
0.83653 0.69688 0.798535
0.86685 0.634592 0.759197
0.862791 0.618708 0.750988
0.362783 0.901396 0.786892
0.356558 0.896437 0.782193
0.348104 0.889921 0.774838
0.339361 0.878676 0.763394
0.49221 0.882277 0.790265
0.69749 0.864271 0.812818
0.83682 0.864744 0.836851
0.907332 0.84155 0.818097
0.907912 0.820508 0.802991
0.453452 0.940246 0.826551
0.45275 0.940658 0.824125
0.451011 0.941344 0.819242
0.456641 0.943877 0.811734
0.534874 0.945342 0.814801
0.698451 0.923232 0.828473
0.817746 0.920363 0.843137
0.894835 0.924453 0.840543
0.917266 0.919768 0.842329
0.454322 0.939773 0.829084
0.453407 0.940246 0.826307
0.451743 0.94107 0.82182
0.455039 0.943511 0.813046
0.521004 0.948745 0.811063
0.693507 0.931563 0.829862
0.810864 0.931197 0.846937
0.890852 0.938598 0.853178
0.919753 0.942061 0.858534
0.0419318 0.244007 0.49955
0.0455177 0.230808 0.504021
0.0772717 0.208225 0.528328
0.227695 0.183871 0.593622
0.451347 0.192767 0.666178
0.599054 0.181735 0.647303
0.626184 0.145541 0.582681
0.629175 0.147478 0.586969
0.629374 0.147478 0.587259
0.0461128 0.267704 0.514031
0.0444343 0.25774 0.511162
0.0591135 0.232227 0.524697
0.215106 0.189685 0.593423
0.456458 0.200183 0.675624
0.607477 0.186007 0.652171
0.62884 0.147021 0.585733
0.629206 0.147555 0.587137
0.629236 0.147539 0.587152
0.0504463 0.290547 0.525963
0.0501411 0.28896 0.527138
0.0469825 0.270237 0.521218
0.180575 0.203449 0.587533
0.452567 0.209857 0.686091
0.61445 0.190829 0.659144
0.624964 0.145815 0.584649
0.629587 0.147845 0.587427
0.629496 0.147768 0.587366
0.0586709 0.339208 0.53782
0.0579232 0.333989 0.538262
0.0558633 0.32192 0.537957
0.049012 0.276051 0.528939
0.378607 0.219852 0.679194
0.59881 0.198489 0.671565
0.621988 0.145342 0.582437
0.630655 0.147692 0.585184
0.630869 0.148272 0.587015
0.127245 0.591882 0.652964
0.126787 0.588769 0.654795
0.124743 0.582696 0.658335
0.119631 0.564645 0.668421
0.354177 0.529839 0.774609
0.660624 0.495293 0.852857
0.813306 0.421607 0.789105
0.82768 0.372381 0.764691
0.821042 0.355215 0.75729
0.225101 0.768261 0.731792
0.22005 0.763256 0.728771
0.211032 0.753811 0.724529
0.190326 0.732525 0.714778
0.396307 0.737804 0.801175
0.615045 0.710811 0.834211
0.822629 0.689189 0.860273
0.874479 0.626352 0.820935
0.871763 0.609705 0.815106
0.344961 0.888716 0.799817
0.337865 0.88246 0.795499
0.328191 0.874266 0.790463
0.311894 0.858167 0.78146
0.441489 0.86334 0.820157
0.663737 0.852323 0.851347
0.801648 0.847166 0.873442
0.898543 0.831556 0.874479
0.904387 0.808743 0.860853
0.448753 0.936965 0.841215
0.451514 0.937087 0.840085
0.454032 0.937697 0.838407
0.452094 0.935561 0.833066
0.513313 0.934951 0.840925
0.69044 0.925017 0.863554
0.822919 0.920562 0.884169
0.901228 0.926619 0.897185
0.926436 0.922347 0.893858
0.392432 0.929976 0.829099
0.417578 0.933776 0.834989
0.450858 0.937087 0.839948
0.463676 0.939254 0.837552
0.52752 0.947509 0.845304
0.707118 0.944259 0.870848
0.829709 0.941741 0.893126
0.901045 0.95082 0.906661
0.924208 0.952132 0.905058
0.0549935 0.308873 0.551308
0.0539712 0.303029 0.550057
0.0772106 0.291615 0.573343
0.229755 0.241138 0.636866
0.467658 0.242451 0.720607
0.631266 0.209949 0.684306
0.629206 0.147555 0.587137
0.629206 0.147555 0.587137
0.629206 0.147555 0.587137
0.055436 0.311894 0.550774
0.054963 0.308736 0.551339
0.0604257 0.296757 0.557626
0.218723 0.242191 0.632288
0.470375 0.241703 0.720409
0.634073 0.207797 0.680797
0.629206 0.147555 0.587137
0.629206 0.147555 0.587137
0.629221 0.147555 0.587152
0.0565805 0.320043 0.550988
0.0566567 0.318914 0.551949
0.0549325 0.308553 0.551308
0.183276 0.250309 0.619364
0.463172 0.242863 0.720195
0.635859 0.208515 0.68127
0.626993 0.146944 0.587091
0.629709 0.147906 0.587533
0.629587 0.147845 0.587427
0.0680552 0.376349 0.580789
0.0661784 0.365957 0.575448
0.0607767 0.341039 0.560647
0.0549172 0.305196 0.551644
0.373358 0.246967 0.701122
0.616846 0.222904 0.702647
0.630777 0.152895 0.595911
0.631037 0.148806 0.588418
0.631052 0.148821 0.588449
0.134417 0.604654 0.684474
0.133761 0.601846 0.685496
0.132052 0.595972 0.686564
0.121386 0.567163 0.678203
0.333577 0.527153 0.775113
0.639414 0.494148 0.855924
0.807126 0.424063 0.795254
0.824918 0.372442 0.766064
0.818967 0.356374 0.759625
0.211292 0.765164 0.741009
0.206073 0.758923 0.738354
0.198428 0.750134 0.735027
0.18468 0.730282 0.728389
0.370199 0.731548 0.808103
0.58854 0.707607 0.841031
0.80444 0.692576 0.879866
0.873915 0.629816 0.834073
0.873121 0.612879 0.831144
0.321645 0.883513 0.803067
0.313878 0.877119 0.799527
0.302892 0.868254 0.794446
0.283864 0.851087 0.785672
0.382467 0.858732 0.823835
0.627955 0.849592 0.863401
0.766278 0.838041 0.882353
0.893385 0.831647 0.895781
0.906325 0.808362 0.884855
0.351324 0.926085 0.811994
0.351415 0.92604 0.812131
0.349844 0.924331 0.811139
0.380484 0.925887 0.820218
0.432929 0.925414 0.833906
0.607919 0.925902 0.868284
0.776349 0.914015 0.888594
0.889647 0.918837 0.912581
0.925765 0.918288 0.916243
0.357794 0.923384 0.820294
0.358007 0.923308 0.820569
0.358007 0.923308 0.820569
0.363073 0.924834 0.822309
0.490883 0.943938 0.854307
0.689113 0.945724 0.884169
0.828595 0.942779 0.904479
0.900252 0.948562 0.920714
0.927001 0.951995 0.92137
