bundles/resolve-cinematic-luts/Phantom Luts/Fx6 Phntm Film LUTs-G5/Eastman Fx6.cube
TITLE "Generated by Resolve"
LUT_3D_SIZE 5
0.0390021 0.0390021 0.0390021
0.121309 0.0390021 0.0434119
0.37464 0.0545052 0.046952
0.577691 0.0694896 0.171695
0.56994 0.0771649 0.219409
0.0673838 0.122942 0.0696117
0.136095 0.124926 0.063508
0.436103 0.118608 0.0562142
0.574487 0.120577 0.0931258
0.572473 0.104631 0.107942
0.164965 0.552331 0.271473
0.155245 0.532143 0.206928
0.547448 0.551644 0.144961
0.823865 0.534676 0.229389
0.832471 0.532113 0.23035
0.340932 0.834714 0.519432
0.322744 0.81973 0.488655
0.570077 0.793103 0.389334
0.79118 0.807843 0.352956
0.832029 0.803845 0.368795
0.349706 0.843442 0.554055
0.333288 0.828428 0.501625
0.537408 0.797696 0.391073
0.77818 0.822248 0.371038
0.835935 0.827176 0.41387
0.0390021 0.0390021 0.0642252
0.10927 0.0392004 0.0894942
0.360143 0.0390021 0.112016
0.545113 0.0671244 0.227756
0.539178 0.0747692 0.251362
0.0630655 0.117617 0.100954
0.132418 0.124743 0.126574
0.409674 0.0773785 0.0631571
0.581994 0.0797742 0.19353
0.563607 0.0792554 0.22034
0.176501 0.576944 0.344808
0.160525 0.549661 0.283726
0.541604 0.545022 0.145403
0.826001 0.514336 0.229007
0.833219 0.499855 0.230961
0.356039 0.851133 0.568154
0.337926 0.832364 0.524575
0.531929 0.788159 0.388281
0.782361 0.802045 0.346044
0.831327 0.794461 0.361883
0.367758 0.863981 0.600366
0.351003 0.845014 0.549432
0.462379 0.794644 0.390326
0.763073 0.820768 0.383047
0.832074 0.829053 0.425254
0.0390021 0.0772259 0.245914
0.0870832 0.0614939 0.298589
0.370932 0.0460059 0.318486
0.574502 0.0860914 0.355535
0.583947 0.0979171 0.389151
0.0390021 0.119142 0.249317
0.0390021 0.0838026 0.283223
0.386664 0.0525063 0.334554
0.581613 0.0868086 0.35462
0.585397 0.0948959 0.380468
0.164858 0.595697 0.488624
0.162844 0.591409 0.490471
0.573907 0.596399 0.577935
0.845457 0.434028 0.470298
0.833677 0.388632 0.465171
0.39115 0.912886 0.706905
0.378088 0.89662 0.684718
0.462776 0.823514 0.573129
0.79057 0.825803 0.543648
0.858503 0.8009 0.55317
0.414466 0.928862 0.739757
0.403967 0.917327 0.710643
0.426535 0.850111 0.583215
0.761257 0.858457 0.585229
0.864881 0.872419 0.617365
0.0390021 0.155398 0.421607
0.0761425 0.121828 0.451514
0.425284 0.118456 0.548363
0.617243 0.13402 0.54461
0.626429 0.142153 0.570687
0.0390021 0.213581 0.443259
0.0390021 0.176425 0.444541
0.431479 0.130495 0.571633
0.619303 0.135668 0.54992
0.626078 0.141711 0.567941
0.123293 0.586252 0.603861
0.119966 0.575296 0.608469
0.409033 0.52636 0.743664
0.818952 0.406516 0.734752
0.817609 0.347768 0.701625
0.362783 0.901396 0.786892
0.348104 0.889921 0.774838
0.49221 0.882277 0.790265
0.83682 0.864744 0.836851
0.907912 0.820508 0.802991
0.454322 0.939773 0.829084
0.451743 0.94107 0.82182
0.521004 0.948745 0.811063
0.810864 0.931197 0.846937
0.919753 0.942061 0.858534
0.0549935 0.308873 0.551308
0.0772106 0.291615 0.573343
0.467658 0.242451 0.720607
0.629206 0.147555 0.587137
0.629206 0.147555 0.587137
0.0565805 0.320043 0.550988
0.0549325 0.308553 0.551308
0.463172 0.242863 0.720195
0.626993 0.146944 0.587091
0.629587 0.147845 0.587427
0.134417 0.604654 0.684474
0.132052 0.595972 0.686564
0.333577 0.527153 0.775113
0.807126 0.424063 0.795254
0.818967 0.356374 0.759625
0.321645 0.883513 0.803067
0.302892 0.868254 0.794446
0.382467 0.858732 0.823835
0.766278 0.838041 0.882353
0.906325 0.808362 0.884855
0.357794 0.923384 0.820294
0.358007 0.923308 0.820569
0.490883 0.943938 0.854307
0.828595 0.942779 0.904479
0.927001 0.951995 0.92137
