bundles/resolve-cinematic-luts/Phantom Luts/Fx6 Phntm Film LUTs-G5/Eastman Fx6.cube
TITLE "Generated by Resolve"
LUT_3D_SIZE 33
0.0390021 0.0390021 0.0390021
0.0390021 0.0390021 0.0390021
0.0393988 0.0390021 0.0390021
0.0454566 0.0390021 0.0390021
0.0553597 0.0390021 0.0390021
0.0695506 0.0390021 0.0390021
0.0853132 0.0390021 0.0402228
0.102327 0.0390021 0.0417945
0.121309 0.0390021 0.0434119
0.144594 0.0390021 0.0451362
0.173556 0.0399176 0.0445716
0.206195 0.0421454 0.0424964
0.241581 0.0442359 0.0406958
0.276967 0.0460212 0.0415656
0.311559 0.04654 0.0442817
0.344045 0.0505074 0.0454261
0.37464 0.0545052 0.046952
0.403082 0.0583963 0.0487373
0.428733 0.0603647 0.050721
0.452598 0.059205 0.0537575
0.475792 0.0547799 0.0610666
0.49752 0.0462501 0.072343
0.518746 0.0458686 0.0990005
0.551415 0.0582895 0.139239
0.577691 0.0694896 0.171695
0.592248 0.0762341 0.194049
0.590143 0.0755627 0.199527
0.588098 0.0750134 0.204166
0.585977 0.0746166 0.208835
0.582025 0.0751659 0.212192
0.577417 0.0760204 0.215549
0.572259 0.0770123 0.217243
0.56994 0.0771649 0.219409
0.0390021 0.0390021 0.0390021
0.0390021 0.0390021 0.0390021
0.0390021 0.0390021 0.0390021
0.0433967 0.0390021 0.0390021
0.0509194 0.0390021 0.0390021
0.0628214 0.0390021 0.0390021
0.0774395 0.0390021 0.0394293
0.0959487 0.0390021 0.0407721
0.116136 0.0390021 0.0421759
0.140841 0.0390021 0.0433204
0.170901 0.040589 0.0425879
0.205081 0.0433051 0.0402075
0.239582 0.0464179 0.0390021
0.274372 0.0497597 0.0401007
0.308293 0.0521096 0.0430304
0.341787 0.0550393 0.0446021
0.373236 0.0591135 0.0462196
0.402304 0.063386 0.0479438
0.428489 0.0658427 0.049836
0.45185 0.0654307 0.0524453
0.475608 0.0630045 0.0588693
0.4981 0.055787 0.0697642
0.519509 0.0464332 0.0876783
0.552758 0.059205 0.130098
0.578943 0.0702831 0.164034
0.593561 0.0771801 0.187106
0.591989 0.0765698 0.192981
0.589899 0.0760052 0.198093
0.587762 0.0755779 0.202731
0.583871 0.0757916 0.206836
0.578912 0.076524 0.209644
0.573785 0.0776684 0.21239
0.571954 0.0778363 0.21503
0.0390021 0.0390021 0.0390021
0.0390021 0.0390021 0.0390021
0.039353 0.0390021 0.0390021
0.0425879 0.0390021 0.0390021
0.0484169 0.0390021 0.0390021
0.0563821 0.0390021 0.0390021
0.0710002 0.0390021 0.039353
0.0902113 0.0390021 0.0416571
0.112276 0.0390021 0.0428779
0.138537 0.0390021 0.0434272
0.169329 0.0413214 0.042298
0.203937 0.0444648 0.0390631
0.239185 0.0473945 0.0390021
0.275837 0.0516213 0.0391394
0.311269 0.0544747 0.0416114
0.343969 0.0597543 0.0439612
0.374914 0.0651102 0.0458839
0.403006 0.0690471 0.0474556
0.429084 0.0711223 0.0491493
0.45275 0.0715953 0.0514687
0.476539 0.069688 0.0570535
0.499733 0.0639048 0.0677348
0.522164 0.0524147 0.0823529
0.55613 0.0610208 0.123507
0.58056 0.0715496 0.158022
0.594446 0.0779431 0.180545
0.593011 0.0775006 0.186633
0.591272 0.0770581 0.192065
0.589227 0.0766003 0.196719
0.585473 0.0767224 0.201373
0.580392 0.0774548 0.204349
0.572457 0.0791333 0.207553
0.564782 0.0807202 0.209445
0.0420539 0.0390021 0.0395361
0.0416724 0.0390021 0.0390021
0.0429694 0.0390021 0.0390021
0.0461738 0.0390021 0.0390021
0.050309 0.0390021 0.0390021
0.0562448 0.0390021 0.0390021
0.0689708 0.0390021 0.0408789
0.0881208 0.0390021 0.0431525
0.111467 0.0390021 0.0447547
0.136095 0.0405737 0.0446784
0.168505 0.0425727 0.0423438
0.205097 0.0459297 0.0390021
0.240482 0.0488594 0.0390021
0.277104 0.0532692 0.0390021
0.312306 0.0574655 0.0404212
0.3467 0.0616007 0.042771
0.377111 0.0683757 0.044831
0.406043 0.0744335 0.0471046
0.431769 0.0778973 0.0495155
0.454307 0.077348 0.0509804
0.478355 0.0766766 0.0563821
0.501045 0.0713359 0.0658732
0.52636 0.0614176 0.0818494
0.559991 0.0630198 0.117845
0.583062 0.0729686 0.15227
0.595514 0.0787671 0.173846
0.594034 0.0782025 0.180331
0.592523 0.0778515 0.186038
0.590539 0.0775311 0.190799
0.587106 0.0776989 0.195224
0.582361 0.078233 0.199191
0.574029 0.0798199 0.202213
0.566125 0.0817121 0.203937
0.0480507 0.0486458 0.0466621
0.0466773 0.0471504 0.0457923
0.0465858 0.043946 0.0439307
0.0479744 0.0425116 0.0431678
0.0535134 0.044007 0.0435798
0.0618601 0.0442206 0.0444038
0.0746777 0.0437018 0.0453498
0.0929122 0.0433509 0.0465248
0.114656 0.0456855 0.048249
0.139666 0.0476234 0.0479744
0.174502 0.0489052 0.0442969
0.206485 0.0479896 0.0390326
0.24332 0.0509499 0.0390021
0.279744 0.0557107 0.0390021
0.315053 0.0598154 0.0402838
0.34786 0.0639658 0.0414435
0.379232 0.0700389 0.0439612
0.407828 0.0780957 0.0458991
0.433448 0.0816358 0.0485542
0.455497 0.084184 0.0516365
0.479011 0.0835126 0.0559548
0.50135 0.0787976 0.0643473
0.528038 0.0711376 0.0802319
0.562234 0.064744 0.109651
0.584985 0.0744335 0.145144
0.595865 0.0795148 0.165408
0.595117 0.0791943 0.17229
0.593896 0.0785992 0.178347
0.592538 0.0783093 0.183352
0.589227 0.0785687 0.188006
0.584695 0.0792248 0.191836
0.576455 0.0809033 0.19472
0.568505 0.0831159 0.196399
0.0539406 0.0653239 0.0531472
0.0516365 0.0631571 0.0513466
0.0520638 0.0604562 0.0504616
0.0537118 0.057908 0.0499275
0.0578927 0.0584726 0.0507057
0.0671702 0.0609293 0.0504616
0.0818494 0.0605783 0.0507057
0.0996567 0.0575265 0.0514076
0.120516 0.055375 0.0518196
0.144106 0.0554513 0.0506294
0.180819 0.0561685 0.0465705
0.218372 0.0576791 0.041825
0.252613 0.0585489 0.0390021
0.286137 0.0596933 0.0391089
0.31841 0.0631571 0.0403296
0.350591 0.0679637 0.0412604
0.380621 0.0734722 0.0428779
0.409827 0.0803235 0.0450599
0.435309 0.0869764 0.0473487
0.459281 0.0912032 0.0524453
0.479042 0.0905165 0.0550088
0.500191 0.0881819 0.062089
0.527214 0.0831769 0.0768444
0.561975 0.0742962 0.102068
0.583597 0.0754559 0.131258
0.59379 0.0799115 0.15111
0.593835 0.0799268 0.158831
0.593866 0.0801099 0.166171
0.592905 0.0798657 0.17145
0.590204 0.0801251 0.176043
0.586419 0.0805371 0.180209
0.57882 0.0826734 0.183093
0.571237 0.0846571 0.185504
0.0576638 0.0816815 0.0582284
0.0561532 0.080354 0.0569924
0.0597391 0.0774853 0.0548867
0.0620584 0.0753185 0.0545205
0.0665446 0.0745098 0.0552987
0.0751965 0.0760815 0.056611
0.0887922 0.0775769 0.0537881
0.107881 0.0766766 0.0544442
0.130022 0.0699931 0.0548867
0.15494 0.065507 0.0534218
0.188373 0.0643931 0.0497139
0.229587 0.0653849 0.0454414
0.268208 0.0681468 0.0427863
0.306661 0.0726635 0.041474
0.331609 0.0741741 0.0411536
0.359152 0.0743572 0.0419623
0.387045 0.0787671 0.0429999
0.414115 0.0841077 0.0442054
0.439994 0.0898756 0.0460059
0.462928 0.094255 0.0486305
0.484657 0.0993515 0.055314
0.504112 0.0981003 0.0609598
0.529732 0.0967727 0.0733349
0.560265 0.0909438 0.0939498
0.583993 0.080415 0.113802
0.590707 0.0790265 0.127153
0.591775 0.0796674 0.136721
0.592493 0.0800031 0.145235
0.593301 0.0806897 0.152636
0.591745 0.0809644 0.157504
0.589944 0.0816968 0.162356
0.585626 0.0831464 0.165911
0.580377 0.0845197 0.168322
0.0637522 0.0992142 0.0628214
0.0620432 0.0977188 0.0607767
0.0620432 0.0967575 0.058793
0.0648356 0.0948959 0.0579385
0.0698558 0.0936446 0.0585489
0.0792096 0.0944228 0.0610666
0.0924086 0.0957961 0.0612802
0.109438 0.0979629 0.0576791
0.135729 0.095491 0.0585946
0.167208 0.0861067 0.0586557
0.200275 0.0793622 0.055787
0.239124 0.0773327 0.0519722
0.278401 0.0808576 0.0490578
0.318883 0.0854505 0.0469215
0.355352 0.0902571 0.0453346
0.381537 0.092607 0.0451209
0.404837 0.0945296 0.0453193
0.421073 0.0920577 0.04477
0.444511 0.0957046 0.045655
0.465644 0.0992752 0.0467536
0.485008 0.102007 0.0493324
0.502571 0.104753 0.0551919
0.524407 0.1075 0.0659495
0.553674 0.107286 0.0833143
0.581506 0.102403 0.104479
0.585519 0.0970321 0.109178
0.586252 0.0910658 0.112184
0.587488 0.0857862 0.115877
0.587991 0.0796368 0.118227
0.588098 0.0801709 0.12459
0.587182 0.0811017 0.130556
0.583673 0.0826886 0.134859
0.579782 0.0844587 0.138903
0.0673838 0.122942 0.0696117
0.0657359 0.121019 0.0673381
0.0650187 0.11989 0.0645151
0.0673991 0.119066 0.0624704
0.071397 0.117876 0.0622416
0.0818036 0.117739 0.0654154
0.0971542 0.119951 0.0685435
0.114122 0.122194 0.068513
0.136095 0.124926 0.063508
0.175219 0.120012 0.0636301
0.217578 0.108721 0.0645914
0.256046 0.0992752 0.0608072
0.293919 0.097322 0.0571603
0.327886 0.100664 0.0549172
0.371939 0.108003 0.0552071
0.405646 0.113787 0.0553902
0.436103 0.118608 0.0562142
0.461326 0.122393 0.0570535
0.46833 0.116716 0.0542611
0.479347 0.111666 0.0508431
0.492027 0.109697 0.0505226
0.507561 0.111025 0.0531167
0.519387 0.111406 0.0580453
0.541604 0.116884 0.0708171
0.574487 0.120577 0.0931258
0.574685 0.119478 0.0937972
0.576638 0.116762 0.0964065
0.578408 0.114397 0.0991836
0.579461 0.111421 0.101335
0.579873 0.108965 0.10338
0.579416 0.106752 0.105226
0.576257 0.105241 0.106661
0.572473 0.104631 0.107942
0.06981 0.155184 0.0775921
0.0672007 0.153017 0.0750439
0.0644083 0.151507 0.0709544
0.0648508 0.151095 0.0677501
0.0693217 0.150484 0.0665446
0.0789349 0.14995 0.0677958
0.0971542 0.151232 0.0721294
0.116884 0.154742 0.0771649
0.138781 0.157687 0.0764782
0.171008 0.162829 0.0698558
0.225772 0.156069 0.0706493
0.272679 0.145006 0.0730449
0.316136 0.131777 0.072343
0.352712 0.127779 0.0698863
0.383444 0.130251 0.0686961
0.429358 0.139574 0.0717327
0.466758 0.147494 0.074876
0.500542 0.154452 0.0780346
0.530266 0.160388 0.0820935
0.538369 0.155261 0.0794232
0.539528 0.147951 0.0764172
0.533684 0.133165 0.0646067
0.539559 0.128679 0.0655528
0.543359 0.121798 0.065919
0.565301 0.127596 0.0811933
0.565194 0.126284 0.0829633
0.566064 0.126894 0.0848707
0.56611 0.126604 0.0852827
0.56762 0.125765 0.0868086
0.567834 0.126223 0.0877546
0.567422 0.126711 0.0885786
0.564767 0.127718 0.0892042
0.560098 0.129564 0.0895857
0.075227 0.196017 0.0894789
0.0726635 0.194247 0.0866102
0.069749 0.193393 0.083772
0.0673381 0.191379 0.0778515
0.0671702 0.190524 0.0731975
0.0740673 0.190936 0.0726177
0.0907149 0.192721 0.0761578
0.115633 0.197314 0.0838788
0.143694 0.203845 0.0919051
0.176913 0.207904 0.090074
0.220768 0.214237 0.0796368
0.284581 0.209018 0.0819257
0.335103 0.20145 0.0871443
0.381094 0.183658 0.0925612
0.418112 0.174533 0.0905318
0.449424 0.178149 0.092195
0.49189 0.183444 0.0951858
0.530602 0.189929 0.0990616
0.568795 0.198611 0.104524
0.597421 0.203647 0.108385
0.617655 0.202747 0.111589
0.628733 0.199542 0.115251
0.617365 0.185504 0.109773
0.604456 0.16733 0.100389
0.587213 0.148226 0.0847181
0.587182 0.145724 0.0875105
0.579919 0.140871 0.0826276
0.577935 0.139132 0.0818189
0.576043 0.137621 0.0806287
0.572061 0.135058 0.0785229
0.565469 0.131823 0.0759136
0.559243 0.131121 0.0749523
0.551904 0.130282 0.0738842
0.0889906 0.249744 0.110079
0.0848707 0.247395 0.106859
0.0819562 0.246555 0.104509
0.0799725 0.245197 0.100618
0.0785687 0.243549 0.0945754
0.078233 0.241062 0.0862593
0.0912337 0.243168 0.0861524
0.116197 0.249592 0.0936904
0.147204 0.257404 0.104891
0.185351 0.265064 0.113863
0.231632 0.2692 0.106264
0.282063 0.275868 0.0917067
0.349187 0.271199 0.0944076
0.400916 0.266621 0.0998245
0.448188 0.251225 0.107576
0.487541 0.235615 0.114412
0.519921 0.23772 0.115862
0.556878 0.237842 0.11722
0.594369 0.241398 0.119982
0.635782 0.248035 0.12607
0.665858 0.253285 0.130236
0.689799 0.256611 0.135485
0.707576 0.256046 0.141787
0.702052 0.241001 0.142412
0.694499 0.22884 0.142473
0.675212 0.213764 0.136553
0.667185 0.208606 0.133043
0.660166 0.203113 0.132067
0.65568 0.199786 0.130159
0.652537 0.197803 0.129152
0.647227 0.194446 0.126009
0.640192 0.192721 0.123842
0.632486 0.191928 0.12221
0.104494 0.30898 0.134417
0.101274 0.307591 0.132235
0.0982223 0.307012 0.130388
0.0965133 0.306416 0.128206
0.0968643 0.304143 0.122774
0.0958419 0.301625 0.114473
0.0965744 0.298619 0.101457
0.117678 0.303334 0.103761
0.14934 0.311482 0.114214
0.188617 0.320943 0.127733
0.238636 0.327871 0.132937
0.291478 0.331838 0.116823
0.34406 0.338689 0.0989548
0.412497 0.333257 0.103105
0.464378 0.330663 0.108217
0.512139 0.319356 0.1187
0.555627 0.303883 0.130022
0.591653 0.299016 0.137316
0.625711 0.298085 0.138476
0.657969 0.300725 0.140429
0.695125 0.297566 0.144976
0.72488 0.300618 0.150469
0.74963 0.30547 0.157137
0.760784 0.304173 0.159518
0.766857 0.299641 0.161227
0.7682 0.293095 0.162844
0.762707 0.288075 0.161227
0.758663 0.284016 0.159884
0.754513 0.280797 0.158602
0.749767 0.276555 0.158053
0.746136 0.274769 0.157259
0.740902 0.274281 0.15697
0.734813 0.274327 0.156909
0.117815 0.36936 0.159106
0.115007 0.367544 0.15668
0.112596 0.36672 0.154849
0.111376 0.366522 0.153079
0.110719 0.3664 0.150378
0.110307 0.364523 0.144137
0.109178 0.360296 0.131731
0.11426 0.356954 0.115236
0.143664 0.364111 0.121294
0.184283 0.373983 0.134569
0.237903 0.3832 0.148516
0.294865 0.389303 0.146593
0.347707 0.391943 0.122362
0.400641 0.396887 0.102998
0.469062 0.391562 0.109743
0.519295 0.389868 0.115953
0.566354 0.384054 0.126314
0.61091 0.372808 0.139132
0.65127 0.363684 0.152697
0.683528 0.357626 0.162692
0.707652 0.360754 0.165164
0.739361 0.357061 0.168475
0.765866 0.355413 0.174029
0.785397 0.351614 0.17969
0.795895 0.34963 0.181949
0.800809 0.347753 0.182391
0.799771 0.346685 0.181704
0.798856 0.345388 0.181338
0.79762 0.343359 0.180606
0.796002 0.341711 0.179767
0.794171 0.340246 0.179339
0.790387 0.339681 0.179477
0.786053 0.340383 0.17969
0.130266 0.430716 0.188006
0.128344 0.429541 0.186481
0.126741 0.428809 0.184497
0.125887 0.428733 0.182589
0.125063 0.428473 0.180621
0.123995 0.426734 0.174548
0.122728 0.423209 0.163897
0.124758 0.419257 0.14876
0.140627 0.418463 0.132677
0.17557 0.425483 0.140978
0.231418 0.434684 0.155245
0.294896 0.442161 0.165576
0.350408 0.445441 0.15317
0.399969 0.446967 0.125917
0.45333 0.451759 0.112963
0.518929 0.447471 0.122759
0.567224 0.44683 0.130495
0.610376 0.444434 0.139361
0.653346 0.437751 0.15201
0.695888 0.427756 0.168399
0.729931 0.419638 0.181628
0.750851 0.421042 0.187243
0.775158 0.416403 0.195331
0.795651 0.416022 0.198764
0.812741 0.410727 0.202197
0.82266 0.407111 0.20531
0.822919 0.403616 0.204639
0.821927 0.401511 0.20383
0.820981 0.399573 0.203037
0.820096 0.398169 0.202686
0.818494 0.396643 0.201907
0.815137 0.396139 0.201755
0.81146 0.396002 0.201678
0.144701 0.492622 0.224826
0.143084 0.49102 0.222416
0.141436 0.490455 0.221241
0.13994 0.489601 0.219043
0.138781 0.489006 0.216327
0.138048 0.487999 0.212192
0.136797 0.484703 0.201526
0.136782 0.479637 0.18436
0.142229 0.475227 0.163455
0.169207 0.476799 0.151125
0.22208 0.483299 0.162631
0.290135 0.490166 0.175937
0.351522 0.496254 0.179141
0.405081 0.496818 0.160327
0.450919 0.498863 0.137163
0.502281 0.50338 0.127764
0.56434 0.499184 0.138659
0.610407 0.499367 0.146715
0.65098 0.499382 0.15613
0.691005 0.496559 0.167514
0.731853 0.488258 0.184314
0.762585 0.47837 0.19791
0.783841 0.478706 0.204501
0.805615 0.476646 0.212467
0.816968 0.479072 0.215457
0.827482 0.476356 0.219989
0.832456 0.474495 0.222309
0.832181 0.473655 0.222049
0.832044 0.472633 0.221958
0.832105 0.471672 0.222217
0.831937 0.469856 0.222278
0.830671 0.468559 0.222492
0.828214 0.468147 0.223255
0.164965 0.552331 0.271473
0.16318 0.550866 0.269444
0.161425 0.549676 0.268162
0.160342 0.548653 0.266102
0.159319 0.547951 0.263127
0.157961 0.546334 0.258518
0.156832 0.544472 0.251926
0.155413 0.53904 0.233692
0.155245 0.532143 0.206928
0.169009 0.52755 0.182422
0.214832 0.530312 0.17641
0.287175 0.534997 0.188464
0.353506 0.542443 0.200748
0.405234 0.545922 0.194217
0.455772 0.544945 0.169162
0.497475 0.547601 0.151232
0.547448 0.551644 0.144961
0.60618 0.54902 0.157534
0.650614 0.549447 0.167346
0.687648 0.549905 0.176608
0.723217 0.549081 0.186511
0.756161 0.543908 0.200687
0.784039 0.536873 0.212772
0.805859 0.535912 0.221607
0.823865 0.534676 0.229389
0.831434 0.537041 0.230274
0.836255 0.537072 0.231174
0.835996 0.536629 0.230732
0.835721 0.535836 0.230472
0.835203 0.534661 0.230045
0.834989 0.533364 0.229755
0.833982 0.532387 0.229786
0.832471 0.532113 0.23035
0.18793 0.610422 0.319905
0.18584 0.608423 0.317998
0.184314 0.607187 0.317357
0.183505 0.606439 0.316197
0.181994 0.60499 0.313161
0.180804 0.602975 0.308049
0.179187 0.600748 0.301778
0.177646 0.597086 0.291157
0.176318 0.588464 0.263737
0.177142 0.578576 0.224994
0.207813 0.57702 0.204471
0.283742 0.578714 0.203357
0.352972 0.584756 0.216846
0.411078 0.590494 0.227359
0.457237 0.591211 0.210056
0.502205 0.591211 0.183413
0.542 0.59443 0.169986
0.590295 0.599451 0.166247
0.643854 0.595499 0.179797
0.686229 0.595422 0.191638
0.719234 0.597147 0.202319
0.749157 0.596765 0.211215
0.774227 0.595514 0.219821
0.798459 0.590707 0.229572
0.81854 0.588922 0.2383
0.831952 0.588693 0.244968
0.835477 0.591058 0.244923
0.835401 0.590753 0.244724
0.835523 0.589914 0.244526
0.835447 0.588708 0.244266
0.835218 0.587243 0.243656
0.834607 0.586404 0.243839
0.833524 0.585977 0.244358
0.211795 0.664714 0.364721
0.210025 0.662669 0.362982
0.208621 0.661311 0.362951
0.20766 0.660273 0.36202
0.206516 0.659083 0.359808
0.205264 0.65713 0.355123
0.20322 0.654093 0.34844
0.201526 0.650538 0.3402
0.199069 0.643793 0.322438
0.197787 0.633234 0.286275
0.204883 0.621546 0.236347
0.271687 0.622095 0.225986
0.354696 0.625315 0.235431
0.413275 0.630732 0.247929
0.462776 0.634684 0.250996
0.505669 0.633661 0.22887
0.545296 0.634546 0.204242
0.583337 0.638743 0.194446
0.628534 0.64445 0.191012
0.679164 0.638895 0.206851
0.716915 0.638758 0.219928
0.745312 0.640543 0.230304
0.76939 0.640955 0.237552
0.790356 0.640864 0.243992
0.810285 0.638056 0.24979
0.824323 0.638315 0.256123
0.832868 0.636255 0.260548
0.832914 0.636255 0.260563
0.833036 0.635264 0.260243
0.833356 0.634165 0.260121
0.833509 0.632853 0.259876
0.832944 0.631327 0.259693
0.831815 0.630472 0.259693
0.236881 0.713039 0.404776
0.23563 0.711192 0.403784
0.234257 0.710262 0.40383
0.233051 0.708629 0.402502
0.231785 0.706966 0.400549
0.230503 0.705089 0.396048
0.228428 0.702083 0.389395
0.2262 0.699138 0.382986
0.223514 0.693675 0.370672
0.220233 0.683177 0.342489
0.221973 0.669413 0.295827
0.248829 0.661265 0.250935
0.35079 0.663935 0.25745
0.41825 0.668635 0.272068
0.467552 0.672679 0.278462
0.508431 0.67393 0.270817
0.550164 0.672724 0.249958
0.58529 0.67451 0.22977
0.622507 0.679973 0.222705
0.663798 0.686503 0.219989
0.708583 0.681056 0.235859
0.742321 0.679789 0.249653
0.76553 0.682292 0.259785
0.785824 0.683467 0.266255
0.804181 0.683436 0.270359
0.819043 0.681178 0.273747
0.827985 0.678233 0.276249
0.832074 0.674571 0.278813
0.832059 0.673823 0.278416
0.831769 0.672755 0.277607
0.831937 0.671489 0.277119
0.831571 0.670146 0.276661
0.831159 0.669215 0.276951
0.262776 0.75404 0.439872
0.261173 0.752224 0.438911
0.260258 0.751003 0.438895
0.258808 0.749569 0.437644
0.257145 0.747707 0.435248
0.255665 0.745434 0.431388
0.253681 0.742718 0.425208
0.251408 0.739635 0.417838
0.248463 0.735607 0.410132
0.244221 0.726528 0.388312
0.241825 0.712734 0.350347
0.259968 0.700786 0.301839
0.333501 0.697597 0.279286
0.423499 0.701595 0.294881
0.473945 0.705364 0.303548
0.514534 0.707408 0.302724
0.5523 0.707103 0.289219
0.589578 0.706569 0.270878
0.623087 0.709407 0.255848
0.660014 0.715373 0.25095
0.695979 0.721645 0.250996
0.7355 0.71667 0.26566
0.76553 0.715724 0.278843
0.783581 0.717632 0.28687
0.800427 0.718547 0.292454
0.814694 0.719051 0.296757
0.824811 0.716838 0.298573
0.831739 0.714641 0.299748
0.833692 0.712978 0.298253
0.835798 0.710628 0.295674
0.83743 0.708736 0.293385
0.837919 0.706767 0.291997
0.836896 0.705608 0.291722
0.289296 0.787762 0.464424
0.287907 0.786099 0.46331
0.286656 0.784466 0.463081
0.285161 0.782849 0.462623
0.283299 0.781079 0.460716
0.281422 0.779065 0.457176
0.278889 0.775814 0.451087
0.27599 0.772366 0.44332
0.272679 0.767941 0.434669
0.26862 0.762387 0.422538
0.264729 0.750149 0.391546
0.27126 0.734874 0.343526
0.324163 0.729091 0.309957
0.415198 0.729198 0.311101
0.480598 0.732525 0.32163
0.523964 0.735195 0.325414
0.55993 0.735561 0.31722
0.596292 0.734676 0.302052
0.629358 0.735058 0.286061
0.662303 0.739422 0.276478
0.697002 0.746059 0.274601
0.72813 0.750774 0.276844
0.763119 0.74638 0.290227
0.788022 0.74522 0.300786
0.80412 0.746273 0.307485
0.818036 0.746777 0.312078
0.827253 0.747021 0.31516
0.833112 0.745205 0.317708
0.834058 0.743648 0.317388
0.834852 0.742367 0.316335
0.835081 0.741131 0.315084
0.834974 0.739605 0.314168
0.834943 0.73785 0.313436
0.315328 0.813596 0.491142
0.313451 0.812436 0.489616
0.312016 0.811444 0.489143
0.310201 0.809735 0.487755
0.308202 0.80763 0.485893
0.30515 0.805219 0.48249
0.302235 0.802609 0.476997
0.298817 0.798581 0.469154
0.295048 0.794476 0.459876
0.291203 0.789425 0.448554
0.286656 0.779492 0.425315
0.288258 0.765591 0.387671
0.307607 0.753933 0.339971
0.406943 0.754314 0.335134
0.479011 0.756191 0.342962
0.528008 0.758785 0.346441
0.565835 0.760082 0.344839
0.598596 0.759838 0.333211
0.633005 0.759518 0.318547
0.663706 0.761303 0.306035
0.694591 0.767498 0.301198
0.725063 0.772778 0.301976
0.752773 0.77612 0.305608
0.78204 0.772137 0.315999
0.804242 0.770825 0.324331
0.817823 0.771084 0.329458
0.827558 0.771801 0.332906
0.833051 0.771344 0.335927
0.834592 0.770169 0.336431
0.835019 0.768933 0.335088
0.835126 0.767636 0.333608
0.834958 0.766186 0.332174
0.834852 0.76466 0.331258
0.335912 0.830335 0.510674
0.334386 0.829038 0.508934
0.33286 0.82797 0.508263
0.331121 0.826764 0.506889
0.329274 0.825162 0.505226
0.326589 0.822873 0.501381
0.32398 0.820584 0.497063
0.320409 0.817807 0.490333
0.31603 0.813245 0.480323
0.310994 0.809186 0.470588
0.305684 0.801266 0.452857
0.306889 0.788922 0.421149
0.323247 0.777203 0.380911
0.374044 0.771908 0.354284
0.478294 0.774136 0.361715
0.528923 0.776684 0.367041
0.56788 0.778805 0.366751
0.602304 0.779126 0.358846
0.634485 0.779004 0.347662
0.665354 0.779828 0.334188
0.695994 0.783139 0.326238
0.721019 0.790265 0.325063
0.74873 0.794049 0.326772
0.773007 0.795178 0.331304
0.79852 0.792508 0.338888
0.81738 0.790951 0.344549
0.827527 0.792248 0.348608
0.83209 0.792264 0.352316
0.833631 0.791836 0.354757
0.832898 0.790997 0.354803
0.833158 0.789746 0.353872
0.834455 0.788067 0.351629
0.835492 0.786618 0.349081
0.340932 0.834714 0.519432
0.33994 0.834028 0.517601
0.338827 0.832837 0.51635
0.337774 0.831815 0.51516
0.335775 0.830137 0.512871
0.333562 0.828458 0.509316
0.330526 0.82652 0.504463
0.327062 0.823453 0.497963
0.322744 0.81973 0.488655
0.317968 0.814969 0.477806
0.312352 0.809339 0.46363
0.315557 0.800549 0.439475
0.330159 0.790433 0.405829
0.364996 0.784466 0.375769
0.45536 0.785901 0.378317
0.530007 0.790295 0.385931
0.570077 0.793103 0.389334
0.60412 0.794537 0.385092
0.636255 0.79443 0.374655
0.66569 0.794461 0.364172
0.695659 0.796323 0.352834
0.723522 0.801282 0.349432
0.747906 0.80798 0.348302
0.771588 0.810651 0.350515
0.79118 0.807843 0.352956
0.813046 0.80647 0.359945
0.826444 0.807004 0.364828
0.832532 0.807523 0.368902
0.833982 0.807248 0.371664
0.832792 0.806546 0.372274
0.831785 0.805737 0.370733
0.831434 0.804944 0.370123
0.832029 0.803845 0.368795
0.342885 0.836164 0.529244
0.342016 0.835355 0.525185
0.340536 0.834424 0.522347
0.339178 0.833143 0.519493
0.337774 0.831754 0.516823
0.335256 0.829679 0.512825
0.332204 0.827771 0.50779
0.328679 0.825025 0.500999
0.324224 0.820844 0.492103
0.319417 0.815991 0.479789
0.313588 0.810376 0.466163
0.316701 0.802594 0.44361
0.331868 0.794949 0.415213
0.363577 0.791836 0.392493
0.441703 0.793545 0.390768
0.517723 0.796979 0.397742
0.570169 0.801358 0.403311
0.604837 0.804791 0.405005
0.636332 0.805249 0.396902
0.667781 0.804959 0.38677
0.693233 0.805814 0.37644
0.722652 0.808942 0.368536
0.746761 0.814862 0.367651
0.769497 0.820401 0.366445
0.788556 0.818296 0.36907
0.806271 0.817014 0.372503
0.82295 0.817349 0.378653
0.831968 0.818677 0.384924
0.835187 0.819501 0.391562
0.834028 0.819165 0.392935
0.833082 0.818631 0.391257
0.832547 0.818051 0.389624
0.832441 0.817426 0.388205
0.344564 0.837629 0.535103
0.34345 0.836622 0.531563
0.342611 0.835843 0.528756
0.340658 0.834455 0.524102
0.338933 0.832853 0.520516
0.33698 0.831113 0.516228
0.333959 0.828794 0.510719
0.33019 0.826108 0.503609
0.325658 0.822126 0.494804
0.32108 0.817044 0.482368
0.314809 0.811963 0.4701
0.316869 0.803632 0.44712
0.329503 0.795636 0.417762
0.361334 0.792157 0.393942
0.431617 0.792905 0.389273
