bundles/resolve-cinematic-luts/Phantom Luts/Fx6 Phntm Film LUTs-G5/Eterna Fx6.cube
TITLE "Generated by Resolve"
LUT_3D_SIZE 9
0.0126497 0.0407568 0.0407568
0.0478218 0.04654 0.0457008
0.115892 0.0571908 0.0535744
0.235599 0.0767376 0.0876173
0.418402 0.102861 0.151965
0.593957 0.120989 0.236408
0.696361 0.135531 0.305074
0.6963 0.130571 0.320027
0.716594 0.122133 0.341772
0.0223392 0.0607462 0.0509041
0.0316014 0.0562905 0.0480964
0.111803 0.0617533 0.0539406
0.250111 0.0736248 0.0734569
0.44036 0.109621 0.141634
0.639994 0.127901 0.238376
0.710079 0.13814 0.296895
0.706615 0.133639 0.309758
0.725582 0.126146 0.328878
0.0535897 0.151156 0.0831769
0.0472725 0.158999 0.0732738
0.135012 0.150332 0.0733349
0.307012 0.126955 0.0898146
0.475257 0.109773 0.120272
0.641764 0.135286 0.20354
0.704005 0.146166 0.253437
0.710719 0.145144 0.268391
0.725704 0.14081 0.281849
0.0791943 0.350683 0.159747
0.0600443 0.376638 0.150195
0.0695964 0.378576 0.104219
0.345006 0.368017 0.0908675
0.643915 0.331701 0.148074
0.836973 0.318456 0.208194
0.834623 0.264729 0.215351
0.810117 0.234546 0.210132
0.791608 0.21181 0.206241
0.154803 0.671534 0.324758
0.140169 0.699733 0.327337
0.140993 0.709834 0.317128
0.203296 0.669398 0.169482
0.628428 0.659998 0.191775
0.877501 0.647166 0.258854
0.940154 0.633509 0.285618
0.938308 0.618463 0.280705
0.93666 0.599176 0.276356
0.333944 0.911604 0.528313
0.32166 0.92256 0.526162
0.313771 0.924895 0.516518
0.299367 0.911986 0.473136
0.583551 0.868544 0.367025
0.843702 0.879271 0.375174
0.955123 0.874464 0.437339
0.955245 0.856687 0.418891
0.954604 0.841215 0.404471
0.361181 0.936217 0.581933
0.361135 0.935775 0.57406
0.356878 0.935882 0.560876
0.345144 0.932479 0.527413
0.383932 0.920882 0.410559
0.799023 0.925292 0.50251
0.951278 0.948287 0.588037
0.964904 0.953262 0.634501
0.962844 0.951446 0.610758
0.364736 0.936141 0.597711
0.369284 0.934249 0.589563
0.372335 0.932815 0.577874
0.366064 0.931334 0.548486
0.348165 0.919142 0.469963
0.712764 0.91902 0.479988
0.929442 0.944915 0.558984
0.96611 0.954131 0.648386
0.962142 0.956436 0.646906
0.354513 0.93962 0.605478
0.356786 0.938323 0.596323
0.363943 0.935653 0.586084
0.368887 0.932174 0.560265
0.348379 0.923522 0.496452
0.59765 0.918456 0.439689
0.873381 0.932265 0.522423
0.965393 0.953704 0.63093
0.962142 0.95639 0.645487
0.0134279 0.0429236 0.0505837
0.0475319 0.0477302 0.0570993
0.1084 0.0554665 0.0720684
0.226734 0.0712749 0.111162
0.4159 0.0962234 0.171862
0.594507 0.111162 0.252628
0.712093 0.127062 0.32842
0.708888 0.122011 0.34226
0.723064 0.114961 0.361105
0.0203403 0.0540017 0.0519722
0.0248417 0.0471962 0.0486915
0.114382 0.0590372 0.0636606
0.253422 0.0771954 0.0982528
0.440009 0.0987259 0.161532
0.636271 0.116396 0.257389
0.722393 0.128252 0.322789
0.718029 0.124331 0.335546
0.729152 0.118379 0.351476
0.0510567 0.142718 0.101427
0.0448768 0.148333 0.0864424
0.13019 0.144305 0.0739605
0.313436 0.116915 0.0901045
0.462776 0.10219 0.124361
0.648356 0.129915 0.221378
0.720653 0.141649 0.280705
0.720302 0.138506 0.293538
0.731975 0.133333 0.307439
0.072755 0.344182 0.179278
0.0610971 0.366125 0.16466
0.0641184 0.377005 0.137697
0.341924 0.364965 0.0910353
0.62916 0.327611 0.144305
0.832441 0.316564 0.206012
0.832303 0.259266 0.215122
0.803052 0.226017 0.208621
0.7794 0.198764 0.202991
0.146151 0.658503 0.333913
0.130327 0.681514 0.329061
0.132174 0.691951 0.31397
0.181567 0.66389 0.181445
0.619669 0.653666 0.187488
0.872923 0.642954 0.254704
0.939315 0.633753 0.283986
0.937652 0.617151 0.279438
0.936065 0.595728 0.275135
0.321126 0.904677 0.532769
0.311299 0.916457 0.52958
0.303639 0.91841 0.513558
0.287846 0.904189 0.463096
0.57171 0.865507 0.360449
0.840116 0.876585 0.370703
0.953582 0.871412 0.430884
0.954452 0.854749 0.414878
0.953765 0.83946 0.400702
0.3617 0.93698 0.597391
0.361944 0.936355 0.588693
0.358602 0.936355 0.57174
0.346365 0.932601 0.528496
0.388556 0.921019 0.413886
0.793606 0.925002 0.501305
0.950607 0.948653 0.590143
0.964706 0.95317 0.633829
0.962661 0.951263 0.610117
0.366842 0.936965 0.615991
0.373251 0.93434 0.606516
0.373938 0.932967 0.591318
0.367041 0.931548 0.552041
0.354696 0.919387 0.465309
0.707713 0.9187 0.477653
0.927016 0.944259 0.55877
0.96614 0.954177 0.649851
0.962158 0.956481 0.648066
0.357656 0.940276 0.625132
0.359838 0.938872 0.615381
0.366629 0.935882 0.601572
0.370565 0.932494 0.568276
0.347585 0.923186 0.49485
0.604349 0.91873 0.442802
0.869322 0.931502 0.521508
0.965118 0.953536 0.628153
0.962158 0.956436 0.646952
0.0147402 0.0523995 0.0867628
0.0531624 0.0531472 0.104036
0.121508 0.0587167 0.0981918
0.231403 0.0715038 0.126818
0.406577 0.0928664 0.185534
0.582437 0.107347 0.263264
0.705928 0.122347 0.34139
0.701625 0.117525 0.355291
0.716533 0.110674 0.374334
0.0201114 0.0584878 0.0668193
0.0157626 0.0552529 0.0932784
0.119081 0.0591592 0.102007
0.245914 0.0729229 0.127275
0.422004 0.0937972 0.185687
0.605676 0.107713 0.271824
0.711971 0.120363 0.346426
0.705211 0.116075 0.35935
0.717617 0.109911 0.376608
0.0521248 0.13698 0.118929
0.0467079 0.139666 0.124453
0.127275 0.137469 0.135088
0.311208 0.116686 0.137957
0.46244 0.105882 0.173938
0.631525 0.119448 0.25893
0.71014 0.128603 0.324773
0.704097 0.123598 0.338674
0.714092 0.117067 0.355962
0.0742046 0.331762 0.209415
0.0620279 0.357 0.211627
0.0628519 0.368582 0.178073
0.339101 0.360815 0.0996414
0.637644 0.308202 0.157305
0.829068 0.295171 0.213687
0.789822 0.205127 0.217624
0.760662 0.184009 0.21651
0.739895 0.165469 0.216098
0.134463 0.638468 0.362829
0.12108 0.661036 0.368383
0.123919 0.674372 0.344884
0.127565 0.657343 0.222065
0.60911 0.642695 0.184344
0.867124 0.62826 0.25243
0.93846 0.619257 0.281132
0.936873 0.602014 0.27689
0.934951 0.577218 0.272526
0.304021 0.890105 0.555352
0.291722 0.90016 0.555032
0.282261 0.899779 0.53048
0.269825 0.886076 0.459159
0.533806 0.856397 0.344121
0.828412 0.864576 0.358282
0.95137 0.860594 0.420279
0.953689 0.845777 0.405997
0.952499 0.82948 0.389914
0.365789 0.938811 0.636912
0.36495 0.938704 0.631464
0.36492 0.937224 0.612284
0.355779 0.935393 0.553643
0.382452 0.922621 0.432151
0.78024 0.924422 0.504723
0.948928 0.948608 0.591623
0.964569 0.952346 0.629328
0.962097 0.949691 0.602014
0.373571 0.938323 0.661433
0.368597 0.939101 0.653864
0.381003 0.934462 0.635645
0.374365 0.932692 0.586862
0.353811 0.921309 0.482612
0.697124 0.918883 0.477806
0.921355 0.942336 0.560525
0.966323 0.954177 0.653468
0.962478 0.956405 0.651667
0.363638 0.941848 0.672908
0.361486 0.941772 0.663859
0.372396 0.937652 0.647623
0.376837 0.93341 0.607599
0.358434 0.926909 0.512795
0.608698 0.919142 0.449287
0.861067 0.930663 0.526345
0.964416 0.953384 0.632258
0.961791 0.956741 0.649943
0.0284581 0.0674754 0.174624
0.0580606 0.0635691 0.204837
0.132342 0.0643015 0.191943
0.265583 0.0793164 0.178439
0.420844 0.0916304 0.222858
0.586252 0.103075 0.294423
0.695933 0.116335 0.358618
0.695994 0.114397 0.376699
0.71632 0.109133 0.408209
0.0174868 0.0720989 0.138705
0.017792 0.0746319 0.179202
0.11017 0.0662699 0.227451
0.27303 0.079469 0.193606
0.422736 0.0912184 0.228748
0.590295 0.101884 0.304524
0.695415 0.114702 0.370077
0.700786 0.113909 0.395926
0.720439 0.108934 0.429282
0.0484627 0.133303 0.150561
0.0367132 0.134981 0.179812
0.042237 0.116518 0.232868
0.300389 0.0888075 0.229206
0.444999 0.0978714 0.246967
0.600961 0.104601 0.316472
0.692332 0.115785 0.375479
0.695888 0.115862 0.398535
0.713848 0.112551 0.427955
0.0787213 0.315785 0.254963
0.0680095 0.335546 0.278767
0.0682689 0.346838 0.295521
0.344259 0.354482 0.329915
0.65861 0.30779 0.321279
0.809964 0.225788 0.340856
0.759274 0.148608 0.347829
0.729488 0.131518 0.354131
0.717998 0.120317 0.361822
0.123125 0.614496 0.4177
0.107164 0.637568 0.443656
0.112734 0.650156 0.446769
0.121187 0.645777 0.34873
0.594659 0.63183 0.256992
0.870848 0.610117 0.343923
0.954787 0.590906 0.363241
0.954818 0.574395 0.366186
0.953323 0.542351 0.361471
0.283101 0.872053 0.603937
0.267369 0.879927 0.614359
0.257557 0.877119 0.601617
0.253285 0.868452 0.532128
0.383246 0.855604 0.372351
0.811292 0.847105 0.369894
0.952255 0.835447 0.453574
0.954803 0.820691 0.442954
0.954025 0.805798 0.428107
0.381399 0.939605 0.704433
0.369406 0.94287 0.708522
0.370672 0.941726 0.695659
0.370611 0.937881 0.641352
0.38764 0.933989 0.525002
0.738003 0.924743 0.525231
0.942199 0.946548 0.597498
0.963378 0.947433 0.612726
0.961089 0.944503 0.59205
0.385397 0.940948 0.737346
0.375448 0.94345 0.73637
0.379965 0.941161 0.721782
0.387076 0.935622 0.674342
0.388373 0.933364 0.557382
0.630594 0.922988 0.506676
0.898787 0.936019 0.567071
0.969009 0.952834 0.662074
0.965469 0.955077 0.663447
0.375601 0.944564 0.751995
0.373663 0.944732 0.747921
0.372244 0.944045 0.734874
0.388525 0.936919 0.693812
0.388373 0.93518 0.596994
0.537484 0.92723 0.508629
0.835431 0.928588 0.547417
0.959899 0.952026 0.635081
0.962356 0.956756 0.659983
0.0486763 0.103517 0.33431
0.0757 0.100587 0.367117
0.147646 0.0858015 0.37348
0.29807 0.0859236 0.343771
0.477546 0.108278 0.325765
0.621775 0.106844 0.361257
0.69482 0.116045 0.395468
0.704677 0.11632 0.421881
0.736522 0.114855 0.468711
0.0243992 0.11191 0.28098
0.0281987 0.113069 0.321614
0.0928359 0.0926833 0.3664
0.288533 0.0882734 0.377157
0.475685 0.108202 0.3411
0.627482 0.107454 0.377401
0.705409 0.116609 0.422309
0.727779 0.121721 0.465583
0.755825 0.122042 0.517754
0.0324865 0.13048 0.239368
0.026154 0.131594 0.28455
0.0279545 0.130907 0.341375
0.261784 0.0949874 0.42652
0.497993 0.110765 0.383597
0.636469 0.111421 0.397162
0.715724 0.121813 0.446647
0.733577 0.128542 0.488701
0.754528 0.129564 0.534249
0.0740673 0.290272 0.316167
0.0585184 0.304967 0.352468
0.0472114 0.317403 0.395377
0.140551 0.297063 0.488609
0.606149 0.223163 0.498375
0.714839 0.163699 0.447654
0.717739 0.128023 0.431464
0.721172 0.128359 0.453147
0.741268 0.126787 0.486748
0.115419 0.590585 0.487144
0.0999924 0.607141 0.516411
0.102647 0.619654 0.538766
0.105501 0.612711 0.534447
0.577401 0.604364 0.563912
0.885893 0.579934 0.567269
0.966247 0.521218 0.571557
0.964416 0.495445 0.584161
0.959655 0.452262 0.587137
0.270268 0.846403 0.657237
0.244495 0.855222 0.674144
0.234577 0.851804 0.677714
0.231159 0.84332 0.647669
0.431006 0.851682 0.586633
0.788418 0.830579 0.555062
0.947707 0.81384 0.612634
0.95819 0.811215 0.626719
0.958099 0.799207 0.620371
0.401709 0.939742 0.772656
0.384482 0.944808 0.784405
0.374655 0.945586 0.780819
0.376623 0.940551 0.739712
0.467399 0.941817 0.672892
0.685008 0.933806 0.653803
0.941665 0.939605 0.700542
0.967468 0.937407 0.743465
0.965148 0.935347 0.737972
0.410529 0.942412 0.814801
0.403357 0.944762 0.820706
0.392813 0.946441 0.81619
0.390784 0.943313 0.778378
0.45005 0.939254 0.700511
0.674647 0.940108 0.694438
0.894179 0.937362 0.707256
0.970397 0.955886 0.796429
0.968078 0.958877 0.809369
0.416831 0.943114 0.830182
0.411261 0.944823 0.834272
0.400549 0.946517 0.830137
0.39237 0.944869 0.800137
0.423346 0.939437 0.724376
0.654704 0.943984 0.709148
0.860273 0.939605 0.722011
0.958572 0.953658 0.763409
0.964538 0.960052 0.796811
0.0693828 0.154604 0.508644
0.0803235 0.161929 0.548226
0.148623 0.137484 0.554406
0.32781 0.120638 0.557717
0.515267 0.107118 0.527443
0.693996 0.120943 0.492485
0.736446 0.12874 0.495125
0.741939 0.130816 0.510018
0.761257 0.129152 0.548882
0.0379797 0.161791 0.46247
0.0375982 0.170871 0.505806
0.0917067 0.154452 0.542123
0.274525 0.125093 0.563851
0.51371 0.111604 0.558907
0.69929 0.122835 0.518914
0.745281 0.133165 0.524132
0.753002 0.137316 0.555276
0.771969 0.137636 0.61178
0.0436408 0.16849 0.401663
0.0370184 0.17911 0.456397
0.0384833 0.178988 0.503578
0.188998 0.125765 0.547066
0.515206 0.11899 0.600107
0.695201 0.125414 0.537987
0.743099 0.139315 0.536202
0.751263 0.144533 0.577539
0.766659 0.145296 0.641032
0.0514839 0.291936 0.421698
0.0400854 0.299214 0.462593
0.0405737 0.305287 0.507607
0.0438392 0.27834 0.566735
0.477119 0.157641 0.661082
0.680507 0.122621 0.545266
0.740414 0.138262 0.513481
0.748852 0.143038 0.547906
0.763912 0.143618 0.59794
0.113619 0.558968 0.560571
0.0964523 0.566323 0.586511
0.0945296 0.574792 0.612741
0.0837873 0.569024 0.64094
0.4121 0.553079 0.741238
0.849439 0.508934 0.733471
0.952804 0.444282 0.714672
0.949508 0.40177 0.716487
0.942748 0.359106 0.722866
0.260792 0.824964 0.717922
0.230701 0.82797 0.730602
0.220462 0.822324 0.735363
0.215335 0.81355 0.730251
0.409354 0.815152 0.735714
0.770474 0.797787 0.759258
0.952682 0.782467 0.76109
0.96611 0.75668 0.760479
0.965103 0.743435 0.76289
0.418051 0.938308 0.829541
0.400916 0.942702 0.839017
0.384268 0.94168 0.83949
0.364218 0.935561 0.818631
0.478752 0.930373 0.791669
0.732219 0.933211 0.79733
0.931655 0.931105 0.798718
0.965988 0.929091 0.835248
0.964492 0.92723 0.840543
0.463981 0.936416 0.86389
0.437766 0.942672 0.87483
0.428519 0.944595 0.876539
0.422721 0.946563 0.861311
0.502617 0.944366 0.823713
0.744778 0.947707 0.833387
0.88539 0.946471 0.83473
0.971115 0.958282 0.888258
0.974243 0.961059 0.915221
0.45037 0.939055 0.881056
0.443122 0.940627 0.887434
0.435904 0.942473 0.889372
0.429801 0.944854 0.878706
0.466392 0.944793 0.839811
0.739727 0.947478 0.854688
0.885359 0.950927 0.869062
0.963592 0.957488 0.886336
0.971389 0.96231 0.914748
0.0609751 0.221729 0.671672
0.0644694 0.239933 0.704311
0.111254 0.230686 0.730541
0.29398 0.173617 0.718914
0.564446 0.153079 0.743328
0.718334 0.135882 0.687221
0.767468 0.14725 0.665797
0.766003 0.147555 0.663981
0.770794 0.145968 0.676356
0.0507362 0.223133 0.647791
0.0557565 0.2392 0.683848
0.0655528 0.237354 0.704738
0.22092 0.18616 0.720623
0.546517 0.167056 0.773541
0.715526 0.138766 0.70927
0.765545 0.150622 0.702327
0.766751 0.150591 0.712261
0.769375 0.150576 0.733486
0.0490272 0.223514 0.597589
0.0499275 0.236728 0.641794
0.0550546 0.243839 0.681788
0.10277 0.218311 0.706157
0.497871 0.178805 0.784772
0.705562 0.139086 0.723705
0.758831 0.154299 0.70428
0.75906 0.15491 0.713741
0.764538 0.154116 0.741421
0.0443885 0.299214 0.57174
0.0446632 0.302266 0.604501
0.0474861 0.299947 0.639414
0.0523079 0.286854 0.675486
0.338704 0.178576 0.732601
0.677165 0.141726 0.736263
0.764294 0.15227 0.681132
0.761929 0.153506 0.676905
0.768734 0.152041 0.710948
0.0752422 0.560967 0.662806
0.0654612 0.56434 0.680186
0.0631418 0.565469 0.694133
0.0666514 0.560571 0.71487
0.191714 0.535622 0.82179
0.748455 0.477165 0.917144
0.938247 0.3635 0.818631
0.939345 0.361028 0.7953
0.921752 0.311315 0.806699
0.239277 0.799664 0.776699
0.218555 0.795346 0.784665
0.21181 0.782773 0.784024
0.205936 0.768322 0.786191
0.240589 0.752605 0.813855
0.66038 0.757931 0.875776
0.936355 0.732509 0.870375
0.960647 0.705592 0.859571
0.959533 0.685603 0.866026
0.425193 0.928969 0.868955
0.388998 0.933867 0.877501
0.366293 0.928237 0.873198
0.340444 0.918395 0.861006
0.368963 0.912902 0.85037
0.710063 0.919432 0.882811
0.914855 0.920821 0.905669
0.96997 0.912245 0.901396
0.967788 0.909575 0.904051
0.472694 0.93138 0.894621
0.448463 0.937591 0.904387
0.444434 0.938796 0.905196
0.44062 0.940414 0.898558
0.500984 0.945693 0.887907
0.762936 0.951965 0.913664
0.909087 0.958663 0.928389
0.971359 0.960418 0.936553
0.976303 0.95996 0.944442
0.474449 0.9299 0.904341
0.456123 0.934432 0.913085
0.450523 0.93579 0.91603
0.44773 0.937072 0.911482
0.486824 0.942458 0.899184
0.769589 0.951843 0.924895
0.909117 0.959518 0.938933
0.956893 0.962051 0.942809
0.972351 0.965209 0.952834
0.0829938 0.303777 0.769604
0.08336 0.309178 0.776257
0.084184 0.303639 0.778653
0.215305 0.26804 0.820752
0.557321 0.24152 0.883238
0.731197 0.168368 0.795834
0.765209 0.159487 0.781781
0.765484 0.159197 0.780606
0.76527 0.158541 0.776196
0.0765698 0.293278 0.755779
0.0822919 0.315435 0.774609
0.0834211 0.30811 0.776577
0.124697 0.293812 0.7953
0.509087 0.246632 0.878279
0.747677 0.190311 0.82443
0.76437 0.161166 0.788281
0.764248 0.161395 0.7888
0.764431 0.160952 0.786603
0.0690318 0.284871 0.735256
0.0755932 0.302419 0.754482
0.0809339 0.314412 0.770703
0.0836042 0.307774 0.777005
0.421912 0.24184 0.854078
0.74406 0.203143 0.839872
0.764019 0.161776 0.790158
0.764111 0.161624 0.789731
0.764019 0.161761 0.790082
0.0552529 0.318517 0.702129
0.0612039 0.327657 0.724346
0.0684825 0.328008 0.743069
0.0753033 0.32546 0.758618
0.166217 0.280003 0.806394
0.685389 0.232746 0.880964
0.765652 0.161395 0.786999
0.766079 0.160479 0.783566
0.766567 0.159792 0.780774
0.0820325 0.575982 0.745403
0.0876936 0.578302 0.759243
0.0921798 0.573297 0.773281
0.0953231 0.560998 0.786511
0.104265 0.53283 0.821729
0.579065 0.486122 0.941482
0.898878 0.332189 0.917357
0.865217 0.261631 0.850767
0.854536 0.243824 0.836347
0.232502 0.7841 0.835325
0.228351 0.778729 0.841108
0.220157 0.767483 0.841031
0.206439 0.751171 0.838895
0.179187 0.722026 0.837644
0.535424 0.733333 0.92108
0.883009 0.720256 0.951934
0.957961 0.662715 0.933974
0.957656 0.665232 0.928664
0.398459 0.919722 0.900374
0.372412 0.918379 0.903349
0.352239 0.910628 0.899519
0.327016 0.89659 0.890501
0.314092 0.877821 0.883787
0.597543 0.886244 0.912566
0.849805 0.901854 0.93817
0.959548 0.891463 0.937377
0.961349 0.885893 0.934249
0.468757 0.92987 0.918883
0.454246 0.933455 0.923873
0.452964 0.933776 0.923415
0.452552 0.934691 0.919615
0.474342 0.938262 0.911925
0.713039 0.945724 0.92871
0.899123 0.955428 0.948501
0.961547 0.961593 0.959518
0.971786 0.960357 0.958404
0.465049 0.927733 0.923278
0.449958 0.931838 0.929412
0.44828 0.932326 0.930373
0.451667 0.932677 0.927993
0.481559 0.936019 0.920256
0.748425 0.947219 0.937148
0.917098 0.95935 0.954879
0.960937 0.966445 0.963592
0.972595 0.967102 0.964477
0.0837873 0.307759 0.777584
0.0839246 0.30724 0.777996
0.0841535 0.303029 0.778485
0.176806 0.280964 0.81323
0.501976 0.24567 0.876204
0.746517 0.195529 0.831006
0.764019 0.161761 0.790158
0.764019 0.161761 0.790158
0.764019 0.161761 0.790158
0.082475 0.311223 0.774609
0.0827344 0.310475 0.774868
0.08365 0.308141 0.777218
0.10457 0.297719 0.787045
0.439765 0.243091 0.859846
0.744854 0.2038 0.840558
0.764019 0.161761 0.790158
0.764019 0.161761 0.790158
0.764019 0.161761 0.790158
0.0806744 0.31693 0.770428
0.0809033 0.317266 0.771099
0.081651 0.316945 0.773083
0.0832685 0.309285 0.776242
0.348379 0.238621 0.832456
0.726024 0.219654 0.861326
0.764187 0.161913 0.790265
0.764019 0.161761 0.790158
0.764019 0.161761 0.790158
0.0786145 0.355016 0.77142
0.0822766 0.364523 0.782116
0.0853132 0.365332 0.790585
0.0835889 0.349035 0.783703
0.0836042 0.308446 0.777127
0.619715 0.242283 0.890883
0.764767 0.162432 0.790677
0.764843 0.162509 0.790738
0.764797 0.162463 0.790707
0.108476 0.591806 0.808286
0.112505 0.595361 0.817411
0.115618 0.593408 0.82739
0.116701 0.583108 0.83624
0.111894 0.545922 0.838224
0.441199 0.461524 0.933425
0.856352 0.333318 0.929107
0.827619 0.226886 0.846098
0.814832 0.212726 0.834882
0.232792 0.784558 0.872084
0.227543 0.780468 0.873381
0.216846 0.771923 0.871931
0.197406 0.753491 0.866667
0.163119 0.719188 0.860258
0.379217 0.711391 0.933181
0.778454 0.710704 0.951385
0.95346 0.640009 0.956802
0.953918 0.618463 0.95697
0.367224 0.913314 0.921508
0.356603 0.908736 0.921035
0.341146 0.90135 0.91899
0.322042 0.887816 0.913771
0.293858 0.861784 0.905516
0.419303 0.868437 0.932494
0.749294 0.879835 0.943236
0.943816 0.886961 0.954818
0.953933 0.866529 0.954681
0.366033 0.927764 0.930419
0.369116 0.927916 0.930663
0.376364 0.92845 0.93106
0.381552 0.929274 0.930968
0.457694 0.932616 0.93051
0.59733 0.934569 0.934417
0.798199 0.942855 0.946761
0.932464 0.951812 0.958221
0.963684 0.958846 0.963287
0.342061 0.922652 0.926238
0.342061 0.922652 0.926238
0.342061 0.922652 0.926238
0.342061 0.922652 0.926238
0.416297 0.93167 0.932525
0.642893 0.940322 0.937911
0.885512 0.955398 0.954253
0.959823 0.965896 0.965469
0.969085 0.969024 0.969085
