bundles/resolve-cinematic-luts/Phantom Luts/Fx6 Phntm Film LUTs-G5/Eterna Fx6.cube
TITLE "Generated by Resolve"
LUT_3D_SIZE 5
0.0126497 0.0407568 0.0407568
0.115892 0.0571908 0.0535744
0.418402 0.102861 0.151965
0.696361 0.135531 0.305074
0.716594 0.122133 0.341772
0.0535897 0.151156 0.0831769
0.135012 0.150332 0.0733349
0.475257 0.109773 0.120272
0.704005 0.146166 0.253437
0.725704 0.14081 0.281849
0.154803 0.671534 0.324758
0.140993 0.709834 0.317128
0.628428 0.659998 0.191775
0.940154 0.633509 0.285618
0.93666 0.599176 0.276356
0.361181 0.936217 0.581933
0.356878 0.935882 0.560876
0.383932 0.920882 0.410559
0.951278 0.948287 0.588037
0.962844 0.951446 0.610758
0.354513 0.93962 0.605478
0.363943 0.935653 0.586084
0.348379 0.923522 0.496452
0.873381 0.932265 0.522423
0.962142 0.95639 0.645487
0.0147402 0.0523995 0.0867628
0.121508 0.0587167 0.0981918
0.406577 0.0928664 0.185534
0.705928 0.122347 0.34139
0.716533 0.110674 0.374334
0.0521248 0.13698 0.118929
0.127275 0.137469 0.135088
0.46244 0.105882 0.173938
0.71014 0.128603 0.324773
0.714092 0.117067 0.355962
0.134463 0.638468 0.362829
0.123919 0.674372 0.344884
0.60911 0.642695 0.184344
0.93846 0.619257 0.281132
0.934951 0.577218 0.272526
0.365789 0.938811 0.636912
0.36492 0.937224 0.612284
0.382452 0.922621 0.432151
0.948928 0.948608 0.591623
0.962097 0.949691 0.602014
0.363638 0.941848 0.672908
0.372396 0.937652 0.647623
0.358434 0.926909 0.512795
0.861067 0.930663 0.526345
0.961791 0.956741 0.649943
0.0486763 0.103517 0.33431
0.147646 0.0858015 0.37348
0.477546 0.108278 0.325765
0.69482 0.116045 0.395468
0.736522 0.114855 0.468711
0.0324865 0.13048 0.239368
0.0279545 0.130907 0.341375
0.497993 0.110765 0.383597
0.715724 0.121813 0.446647
0.754528 0.129564 0.534249
0.115419 0.590585 0.487144
0.102647 0.619654 0.538766
0.577401 0.604364 0.563912
0.966247 0.521218 0.571557
0.959655 0.452262 0.587137
0.401709 0.939742 0.772656
0.374655 0.945586 0.780819
0.467399 0.941817 0.672892
0.941665 0.939605 0.700542
0.965148 0.935347 0.737972
0.416831 0.943114 0.830182
0.400549 0.946517 0.830137
0.423346 0.939437 0.724376
0.860273 0.939605 0.722011
0.964538 0.960052 0.796811
0.0609751 0.221729 0.671672
0.111254 0.230686 0.730541
0.564446 0.153079 0.743328
0.767468 0.14725 0.665797
0.770794 0.145968 0.676356
0.0490272 0.223514 0.597589
0.0550546 0.243839 0.681788
0.497871 0.178805 0.784772
0.758831 0.154299 0.70428
0.764538 0.154116 0.741421
0.0752422 0.560967 0.662806
0.0631418 0.565469 0.694133
0.191714 0.535622 0.82179
0.938247 0.3635 0.818631
0.921752 0.311315 0.806699
0.425193 0.928969 0.868955
0.366293 0.928237 0.873198
0.368963 0.912902 0.85037
0.914855 0.920821 0.905669
0.967788 0.909575 0.904051
0.474449 0.9299 0.904341
0.450523 0.93579 0.91603
0.486824 0.942458 0.899184
0.909117 0.959518 0.938933
0.972351 0.965209 0.952834
0.0837873 0.307759 0.777584
0.0841535 0.303029 0.778485
0.501976 0.24567 0.876204
0.764019 0.161761 0.790158
0.764019 0.161761 0.790158
0.0806744 0.31693 0.770428
0.081651 0.316945 0.773083
0.348379 0.238621 0.832456
0.764187 0.161913 0.790265
0.764019 0.161761 0.790158
0.108476 0.591806 0.808286
0.115618 0.593408 0.82739
0.111894 0.545922 0.838224
0.856352 0.333318 0.929107
0.814832 0.212726 0.834882
0.367224 0.913314 0.921508
0.341146 0.90135 0.91899
0.293858 0.861784 0.905516
0.749294 0.879835 0.943236
0.953933 0.866529 0.954681
0.342061 0.922652 0.926238
0.342061 0.922652 0.926238
0.416297 0.93167 0.932525
0.885512 0.955398 0.954253
0.969085 0.969024 0.969085
