bundles/resolve-cinematic-luts/Phantom Luts/Fx6 Phntm Film LUTs-G5/Eterna Fx6-Legacy.cube
TITLE "Generated by Resolve"
LUT_3D_SIZE 33
0.0306554 0.057145 0.0571908
0.0306554 0.057145 0.0571908
0.0317082 0.0573892 0.0571145
0.0389563 0.0587472 0.0584726
0.0483558 0.0596933 0.0585184
0.0609445 0.0606851 0.0574044
0.0736706 0.0615091 0.0564736
0.0859846 0.0622416 0.0561837
0.100038 0.0635386 0.0571603
0.115587 0.065919 0.0603037
0.135683 0.0691844 0.0650034
0.160327 0.0733501 0.0709392
0.191501 0.0782635 0.0792096
0.228595 0.08336 0.0904097
0.270588 0.0897536 0.103761
0.314382 0.0959793 0.117906
0.357931 0.101305 0.131701
0.401358 0.10605 0.146197
0.444434 0.110872 0.161959
0.486503 0.115831 0.180011
0.530938 0.121019 0.200916
0.59852 0.130175 0.228901
0.64033 0.135897 0.247623
0.655436 0.137774 0.257801
0.654292 0.136767 0.261265
0.653391 0.135866 0.264744
0.652811 0.13489 0.267964
0.653117 0.133822 0.27129
0.654994 0.132464 0.274891
0.658488 0.130938 0.279042
0.663539 0.129015 0.283833
0.669032 0.127092 0.288594
0.67512 0.125139 0.293416
0.0317388 0.0566262 0.055436
0.0309758 0.0569924 0.0566873
0.0311894 0.0571908 0.0569467
0.035935 0.0585641 0.0577707
0.0447242 0.0599527 0.0580758
0.0573281 0.0610971 0.0573587
0.0717021 0.0620279 0.0563058
0.0855573 0.062501 0.0551003
0.100252 0.06392 0.0557107
0.116243 0.0663767 0.0584573
0.136614 0.0700389 0.0634012
0.161227 0.0740215 0.0696117
0.192294 0.0785382 0.0771649
0.229801 0.0838331 0.0874342
0.272267 0.0901656 0.100908
0.316579 0.0965438 0.115023
0.360357 0.101839 0.129061
0.404501 0.106401 0.143832
0.447837 0.111742 0.16022
0.491585 0.117128 0.178714
0.538506 0.122698 0.200229
0.608972 0.13257 0.229374
0.646983 0.137621 0.247333
0.656031 0.138552 0.254994
0.655192 0.13756 0.258442
0.654261 0.136675 0.261707
0.653849 0.135729 0.265034
0.654337 0.134691 0.268162
0.655985 0.13341 0.272068
0.659556 0.131777 0.276097
0.6645 0.129885 0.281086
0.670512 0.127977 0.285618
0.676478 0.126085 0.290242
0.0316625 0.0566567 0.0555581
0.0309453 0.0570077 0.0567178
0.0307774 0.057084 0.0569924
0.0337224 0.0582437 0.0576486
0.0410468 0.060029 0.0584726
0.0514839 0.0614328 0.058381
0.0662394 0.0628061 0.0576638
0.0819104 0.0635386 0.0564126
0.0984207 0.0645914 0.0562295
0.116564 0.0661021 0.0573281
0.138338 0.0686809 0.0610361
0.164599 0.0728466 0.0673686
0.195727 0.0780041 0.0755932
0.231724 0.0838941 0.084947
0.273991 0.0905776 0.0980545
0.319539 0.097261 0.112902
0.364553 0.102678 0.127398
0.407965 0.107103 0.141863
0.452232 0.112673 0.158724
0.496834 0.118334 0.177783
0.54844 0.124483 0.200305
0.617685 0.134234 0.229191
0.653819 0.139391 0.247349
0.656901 0.139208 0.252628
0.655863 0.138293 0.256001
0.6551 0.137407 0.259113
0.654765 0.136522 0.262165
0.65536 0.135454 0.265599
0.657023 0.134249 0.269017
0.660716 0.132647 0.27335
0.665721 0.130755 0.278172
0.671565 0.128817 0.282826
0.677729 0.126833 0.287602
0.032578 0.0584726 0.0567636
0.0317998 0.0587472 0.0575875
0.031754 0.0584421 0.0576791
0.0327916 0.0586862 0.0578927
0.0376135 0.0602121 0.0586557
0.0454871 0.0617075 0.0589761
0.0595254 0.0636759 0.0589456
0.0778363 0.0651255 0.0584115
0.0965744 0.06598 0.0581369
0.116609 0.0676127 0.0589151
0.139895 0.0696422 0.0614481
0.167041 0.0724193 0.065568
0.199176 0.0767987 0.0728771
0.236744 0.0826886 0.0825666
0.279057 0.0899672 0.0952163
0.324224 0.0983597 0.111055
0.368994 0.103944 0.126009
0.41265 0.107713 0.140291
0.45655 0.113054 0.156954
0.502007 0.119127 0.17615
0.557946 0.12665 0.200549
0.622873 0.135576 0.228046
0.657877 0.140658 0.245655
0.657664 0.139879 0.250065
0.65687 0.139101 0.253223
0.65597 0.138293 0.256184
0.65568 0.137438 0.259129
0.656306 0.136461 0.262287
0.658442 0.13518 0.266041
0.661875 0.133639 0.26981
0.666911 0.131762 0.274723
0.672938 0.129809 0.279484
0.679805 0.127749 0.284276
0.0356909 0.0662394 0.0607309
0.0347601 0.0660563 0.0607462
0.0348363 0.0653391 0.0603952
0.0356146 0.0634775 0.0599985
0.0388342 0.0634928 0.0602731
0.0443732 0.0644694 0.0605173
0.0554971 0.0661173 0.0600595
0.0736553 0.0676738 0.0598459
0.0946365 0.0683452 0.0602579
0.116167 0.0695048 0.0613565
0.140887 0.0713817 0.0631571
0.169772 0.0735485 0.0663615
0.202884 0.076463 0.0717174
0.241062 0.081117 0.0794842
0.284733 0.0881819 0.0917067
0.329519 0.097673 0.108003
0.374701 0.105684 0.12459
0.41915 0.108827 0.139208
0.463279 0.113176 0.156283
0.509773 0.119417 0.176104
0.570932 0.127718 0.202029
0.630442 0.136492 0.22768
0.658946 0.141024 0.242634
0.658747 0.140337 0.24683
0.658351 0.139681 0.250782
0.657435 0.13904 0.253391
0.656779 0.138369 0.255924
0.657008 0.137469 0.258824
0.658671 0.136339 0.262028
0.662242 0.134874 0.265995
0.667536 0.133074 0.270405
0.674327 0.130938 0.275502
0.681743 0.128679 0.280903
0.0393835 0.077348 0.0652171
0.0381476 0.0771496 0.0646525
0.037705 0.0767681 0.0640269
0.0392004 0.0746929 0.0631113
0.0426795 0.0725414 0.0629129
0.0490272 0.073106 0.0634165
0.0594492 0.0734417 0.0632334
0.076112 0.0739605 0.0623178
0.0973678 0.0735485 0.0628824
0.118608 0.0740978 0.0639353
0.145541 0.0750286 0.0664225
0.173465 0.0753643 0.0688945
0.207721 0.0777295 0.0731365
0.24625 0.0811627 0.0783093
0.289464 0.0864881 0.0881666
0.33518 0.0948348 0.103655
0.380713 0.105119 0.121843
0.424689 0.111345 0.138003
0.470161 0.113985 0.154849
0.517876 0.119463 0.175357
0.583505 0.128298 0.202869
0.641367 0.13666 0.22829
0.665278 0.140169 0.241733
0.664561 0.139559 0.245747
0.663951 0.138994 0.249607
0.663523 0.138491 0.25275
0.662959 0.138003 0.255268
0.662455 0.137392 0.257542
0.663096 0.136645 0.2598
0.665507 0.135485 0.263005
0.670359 0.133822 0.267094
0.677165 0.131716 0.272038
0.684749 0.129488 0.27715
0.0431983 0.091722 0.0696422
0.041886 0.0918288 0.0687114
0.0407111 0.0917067 0.0680095
0.0411536 0.0907912 0.0666667
0.0458381 0.0869917 0.0662852
0.0521096 0.0851759 0.0662242
0.0642405 0.0856031 0.0660105
0.0821546 0.0848096 0.0654459
0.102098 0.082063 0.0645762
0.12372 0.0819409 0.0646372
0.153536 0.0830854 0.0675822
0.181567 0.0823987 0.0702068
0.215915 0.082536 0.0743877
0.252003 0.0834821 0.078584
0.294163 0.0874952 0.0859998
0.338674 0.09337 0.098085
0.384207 0.102342 0.115908
0.427314 0.112001 0.134066
0.471092 0.116091 0.15079
0.517021 0.12076 0.171176
0.585367 0.130404 0.198947
0.641993 0.13843 0.223667
0.662425 0.141115 0.235554
0.66389 0.140749 0.240406
0.664057 0.140063 0.244205
0.664057 0.139452 0.247471
0.663981 0.138933 0.250324
0.664012 0.138521 0.252598
0.664317 0.138003 0.254856
0.665675 0.137331 0.256947
0.668345 0.136278 0.259617
0.672343 0.134981 0.262654
0.677638 0.133364 0.266163
0.0508431 0.106844 0.0717327
0.0483406 0.108309 0.0719005
0.0458381 0.10927 0.0715648
0.0448615 0.109834 0.0708476
0.0479744 0.108202 0.0697337
0.053666 0.104036 0.0697795
0.0653239 0.102602 0.0704204
0.0843519 0.103761 0.0697032
0.106905 0.101259 0.0698253
0.129656 0.0968338 0.069276
0.158328 0.0954147 0.0710002
0.192142 0.0951095 0.0742809
0.229923 0.093843 0.0785229
0.267323 0.0920119 0.0830091
0.305348 0.0917678 0.088838
0.347692 0.0947433 0.0972
0.391302 0.0996262 0.109819
0.433845 0.106996 0.126329
0.473869 0.115312 0.144656
0.518898 0.122118 0.164858
0.585367 0.131395 0.192279
0.639872 0.13933 0.215778
0.656703 0.141802 0.226337
0.660746 0.141649 0.231052
0.663264 0.141421 0.235157
0.664118 0.141176 0.2383
0.664332 0.140734 0.241062
0.664607 0.140291 0.243397
0.665263 0.139818 0.245457
0.666789 0.139116 0.247822
0.669673 0.138109 0.250553
0.673899 0.136873 0.253468
0.679515 0.135348 0.256916
0.0552224 0.126268 0.078645
0.0528267 0.128054 0.078645
0.0505379 0.129809 0.0783551
0.0491951 0.131075 0.0773175
0.0497292 0.131563 0.0747997
0.0552529 0.129244 0.0735332
0.0641642 0.125444 0.0747387
0.082826 0.123766 0.0761273
0.107683 0.125612 0.0739757
0.135882 0.122637 0.0752422
0.165118 0.115908 0.0762341
0.201495 0.110002 0.0787213
0.241382 0.110292 0.0832685
0.289693 0.110811 0.0899519
0.328191 0.107118 0.0953231
0.366751 0.103746 0.101366
0.402686 0.101915 0.108583
0.443305 0.104692 0.119936
0.479881 0.109483 0.134096
0.515618 0.116701 0.151812
0.574029 0.13019 0.178988
0.631708 0.139788 0.202914
0.64239 0.140993 0.209796
0.647471 0.141329 0.214847
0.651728 0.141695 0.219272
0.655604 0.141939 0.223041
0.658503 0.142138 0.226596
0.660243 0.141894 0.228931
0.661952 0.141619 0.230854
0.664607 0.141299 0.233417
0.668681 0.140688 0.236301
0.673472 0.139681 0.239063
0.679149 0.138247 0.242298
0.0614328 0.150622 0.0894636
0.0588998 0.152926 0.0881666
0.0560311 0.155367 0.0873732
0.0542 0.157137 0.0858015
0.0533455 0.158602 0.0829786
0.0551003 0.159274 0.0787366
0.06392 0.156603 0.0782025
0.0791791 0.152667 0.0818647
0.104402 0.150698 0.0837873
0.134951 0.152712 0.0796674
0.173007 0.148989 0.0818189
0.212497 0.138277 0.0852522
0.254414 0.130648 0.0897383
0.303502 0.132784 0.0963607
0.355856 0.1346 0.104158
0.405829 0.132921 0.112139
0.444739 0.125566 0.119097
0.468559 0.115541 0.123873
0.495079 0.111162 0.131456
0.524132 0.112306 0.142855
0.551202 0.118532 0.157137
0.61474 0.136645 0.185672
0.619379 0.137331 0.189151
0.621912 0.137758 0.191394
0.628275 0.140093 0.195941
0.632563 0.140597 0.199603
0.635966 0.140871 0.202152
0.638453 0.14078 0.204105
0.641154 0.140978 0.206485
0.644694 0.140795 0.20882
0.649149 0.140368 0.211398
0.654948 0.139498 0.214298
0.661372 0.138369 0.217121
0.0685588 0.183459 0.103548
0.0658732 0.186496 0.102281
0.0626535 0.189944 0.101045
0.060502 0.192584 0.0991073
0.0593423 0.194659 0.0964675
0.0589609 0.195773 0.0909743
0.0605325 0.196292 0.0843977
0.0745861 0.193027 0.0841535
0.0994736 0.188968 0.0903792
0.130907 0.186358 0.0933394
0.169848 0.188815 0.0873884
0.221973 0.185779 0.0910506
0.273075 0.172641 0.0977188
0.322087 0.162509 0.10396
0.377584 0.1664 0.112673
0.439963 0.170901 0.123278
0.500175 0.172839 0.133669
0.547112 0.166888 0.141344
0.578088 0.152239 0.147448
0.582025 0.12929 0.148241
0.589502 0.121843 0.156649
0.611307 0.125353 0.170397
0.606241 0.126711 0.173312
0.607187 0.128313 0.175326
0.607721 0.12871 0.175875
0.609689 0.129641 0.177096
0.609857 0.129595 0.177523
0.609598 0.129702 0.177661
0.609628 0.129809 0.177798
0.61062 0.129702 0.178149
0.613123 0.129259 0.178882
0.617197 0.128603 0.180011
0.623041 0.127916 0.181918
0.0769818 0.225864 0.120928
0.0737621 0.23006 0.11931
0.0697337 0.234394 0.117968
0.0674296 0.238071 0.116258
0.06598 0.242206 0.115084
0.0657206 0.244663 0.111315
0.0659037 0.246418 0.104967
0.0682994 0.245624 0.0945144
0.0890822 0.241276 0.0916915
0.125292 0.237568 0.100206
0.166567 0.235019 0.106371
0.219043 0.239292 0.0975662
0.289693 0.238437 0.100862
0.349859 0.227176 0.110124
0.406302 0.211902 0.121202
0.465644 0.21384 0.130709
0.534417 0.218021 0.141146
0.605173 0.221302 0.151568
0.663279 0.22005 0.15993
0.711437 0.209461 0.171557
0.715633 0.183886 0.177829
0.704372 0.160174 0.180499
0.687877 0.144411 0.178958
0.675181 0.135897 0.175448
0.665354 0.131258 0.174166
0.657008 0.127306 0.172641
0.64712 0.123171 0.170901
0.636606 0.120439 0.169512
0.627268 0.119036 0.168856
0.620417 0.118318 0.168627
0.618067 0.118929 0.169772
0.618921 0.118639 0.170642
0.623255 0.118151 0.171801
0.0864881 0.282673 0.140505
0.0812848 0.289067 0.138857
0.0766766 0.29572 0.138613
0.0742046 0.301442 0.137789
0.0719615 0.30692 0.136629
0.0718547 0.31133 0.134524
0.0716259 0.314076 0.131304
0.072221 0.314168 0.123522
0.0771649 0.311254 0.106279
0.1084 0.304967 0.0990921
0.156573 0.302022 0.110704
0.212985 0.299611 0.120577
0.281743 0.305089 0.104509
0.368261 0.306218 0.105608
0.435279 0.29836 0.115419
0.502983 0.279927 0.133059
0.566369 0.274968 0.144839
0.626444 0.274144 0.153216
0.707958 0.277485 0.167636
0.768109 0.279088 0.181384
0.80351 0.274998 0.197314
0.816602 0.259983 0.207111
0.818433 0.244038 0.211276
0.811643 0.235538 0.209766
0.804623 0.228275 0.208103
0.797559 0.221469 0.206271
0.790295 0.214527 0.204349
0.782727 0.208255 0.202426
0.775265 0.202136 0.20058
0.768246 0.196551 0.198749
0.761608 0.191073 0.196719
0.756695 0.18587 0.195438
0.753918 0.18117 0.194675
0.0938277 0.355673 0.162234
0.0888685 0.36318 0.161715
0.0843214 0.370275 0.161242
0.0803235 0.376852 0.160372
0.0771954 0.383169 0.159228
0.0750134 0.388434 0.157015
0.0739757 0.39324 0.155367
0.07364 0.395483 0.152193
0.0747387 0.392691 0.141207
0.082948 0.38706 0.11516
0.129931 0.378195 0.103853
0.195087 0.37467 0.121294
0.268605 0.371481 0.133791
0.352544 0.3794 0.10695
0.44538 0.381094 0.110109
0.51751 0.37792 0.121065
0.592401 0.360464 0.140871
0.66807 0.347234 0.161028
0.71632 0.34551 0.168917
0.784421 0.340139 0.18616
0.836973 0.341039 0.208606
0.866941 0.341756 0.225498
0.876036 0.333776 0.230045
0.874617 0.330587 0.229068
0.872618 0.326726 0.227497
0.871077 0.322927 0.226886
0.868955 0.31899 0.225788
0.867185 0.31487 0.224964
0.865263 0.311162 0.224262
0.863416 0.306935 0.223484
0.861967 0.303822 0.223087
0.860349 0.299825 0.222644
0.859007 0.296086 0.22208
0.0979324 0.440406 0.189853
0.0927443 0.448814 0.189715
0.088426 0.456123 0.189395
0.0844129 0.462882 0.1888
0.0816205 0.469032 0.187701
0.0800183 0.474662 0.186069
0.0795911 0.479194 0.184131
0.0791333 0.482063 0.181796
0.0789349 0.482216 0.176928
0.0803235 0.477455 0.15845
0.0940108 0.468299 0.121996
0.161639 0.457572 0.113787
0.248844 0.452613 0.14023
0.337407 0.448905 0.149462
0.426261 0.458061 0.11986
0.519081 0.460792 0.126131
0.592248 0.45864 0.140993
0.664576 0.446632 0.158511
0.745312 0.427329 0.182208
0.797253 0.420996 0.195758
0.845273 0.413413 0.212451
0.881361 0.408301 0.231891
0.902892 0.403342 0.246128
0.9019 0.39939 0.24567
0.900771 0.39646 0.245014
0.899901 0.393896 0.244556
0.898878 0.390845 0.243946
0.897826 0.387945 0.243442
0.896742 0.38439 0.242786
0.895186 0.380621 0.241764
0.894163 0.376944 0.241337
0.892729 0.373266 0.240238
0.891829 0.369802 0.239643
0.113405 0.527291 0.227787
0.110109 0.535561 0.228626
0.105806 0.543099 0.228977
0.10132 0.549889 0.228992
0.0984512 0.555993 0.228717
0.0972152 0.56144 0.22797
0.0970474 0.565362 0.226307
0.097734 0.5682 0.223896
0.0976272 0.569162 0.220523
0.097322 0.567208 0.212116
0.0983139 0.558694 0.182834
0.121965 0.54464 0.131884
0.219623 0.533639 0.139223
0.323796 0.526909 0.171298
0.415229 0.524071 0.170382
0.501213 0.533394 0.145144
0.589761 0.537133 0.15227
0.662577 0.534813 0.168139
0.731167 0.527199 0.183688
0.805997 0.506661 0.206668
0.863706 0.493568 0.227619
0.901122 0.490196 0.245243
0.918212 0.487922 0.255482
0.923919 0.481651 0.260014
0.922988 0.477226 0.259449
0.921935 0.47248 0.258839
0.920958 0.468162 0.258213
0.919799 0.463172 0.25742
0.918883 0.458503 0.256703
0.917311 0.453269 0.255512
0.916487 0.448508 0.255009
0.914992 0.443702 0.253803
0.914153 0.439734 0.253193
0.141344 0.61239 0.277043
0.138521 0.620645 0.278096
0.133837 0.628031 0.278248
0.130083 0.635279 0.279057
0.12694 0.641367 0.279011
0.125994 0.646952 0.279072
0.125917 0.650248 0.277913
0.12639 0.652461 0.275181
0.126589 0.653132 0.270954
0.125994 0.651835 0.264958
0.125185 0.645991 0.24921
0.126894 0.633707 0.206668
0.175326 0.615702 0.152239
0.299001 0.605707 0.177874
0.40502 0.599435 0.205753
0.48957 0.596399 0.194934
0.570626 0.605783 0.173632
0.654292 0.608988 0.181643
0.726024 0.605676 0.199268
0.791104 0.600534 0.214664
0.856519 0.583444 0.235294
0.908446 0.567452 0.258335
0.934493 0.563012 0.274617
0.939223 0.563195 0.276295
0.938537 0.559045 0.274983
0.937758 0.554742 0.273869
0.937453 0.551598 0.273335
0.936492 0.547219 0.272068
0.935607 0.542351 0.271031
0.934737 0.537011 0.270024
0.933776 0.531929 0.268956
0.932815 0.526741 0.267781
0.931991 0.522194 0.266819
0.174121 0.695811 0.329137
0.171527 0.703975 0.33051
0.167178 0.711559 0.330938
0.163577 0.718776 0.331151
0.160571 0.724895 0.331304
0.15993 0.729976 0.331594
0.160281 0.733608 0.331029
0.160678 0.735195 0.328466
0.160891 0.735409 0.3243
0.16083 0.734066 0.317571
0.159182 0.728618 0.307134
0.157626 0.718059 0.280537
0.163928 0.700298 0.220356
0.257069 0.68481 0.188083
0.386511 0.675837 0.221286
0.480262 0.668711 0.239628
0.558724 0.665339 0.223484
0.63473 0.674693 0.206226
0.714229 0.67715 0.215488
0.784772 0.672465 0.235508
0.843763 0.668208 0.25098
0.8963 0.656352 0.267201
0.932906 0.643519 0.28423
0.947799 0.636255 0.295552
0.94754 0.633265 0.294804
0.946975 0.629496 0.293294
0.946639 0.625589 0.292149
0.946105 0.621241 0.2907
0.945602 0.616281 0.289418
0.945037 0.61146 0.288045
0.944442 0.606287 0.286473
0.944137 0.602045 0.285527
0.943313 0.597757 0.283864
0.210925 0.778744 0.380926
0.210758 0.785687 0.381918
0.20856 0.792493 0.382681
0.205142 0.798596 0.382925
0.202502 0.803845 0.383047
0.201724 0.808057 0.383032
0.201526 0.81062 0.38233
0.202197 0.811749 0.380514
0.20209 0.81149 0.376425
0.201511 0.809659 0.369833
0.199634 0.8047 0.359045
0.19678 0.796628 0.344854
0.1953 0.782086 0.305241
0.220035 0.76141 0.234501
0.356512 0.750912 0.233097
0.46743 0.743099 0.264103
0.551308 0.735576 0.275105
0.62324 0.731228 0.258396
0.695033 0.740307 0.24535
0.771313 0.742473 0.256229
0.838911 0.737331 0.277607
0.888518 0.734234 0.292729
0.926177 0.725765 0.304479
0.948074 0.715312 0.313985
0.951415 0.705684 0.314641
0.950851 0.700801 0.312459
0.950561 0.696559 0.310948
0.950195 0.691844 0.309056
0.949996 0.6869 0.307393
0.949844 0.681544 0.305913
0.949645 0.676814 0.304753
0.949386 0.671839 0.30338
0.949248 0.667597 0.302296
0.256703 0.847929 0.43064
0.257435 0.852842 0.431785
0.25597 0.85803 0.432685
0.253178 0.863508 0.433082
0.250111 0.867979 0.432746
0.248249 0.871626 0.432502
0.247074 0.873472 0.431083
0.246586 0.874113 0.429282
0.245731 0.87364 0.425299
0.244343 0.87187 0.419547
0.242054 0.867674 0.409781
0.238544 0.860853 0.397024
0.234775 0.850858 0.376135
0.237568 0.833692 0.321233
0.301671 0.818219 0.262074
0.449622 0.810819 0.28249
0.540581 0.802777 0.306645
0.61474 0.79588 0.31043
0.683024 0.792798 0.297215
0.752026 0.801541 0.289235
0.824979 0.804898 0.302556
0.885191 0.800351 0.323735
0.923186 0.798337 0.337377
0.946578 0.79205 0.345113
0.954681 0.782208 0.347036
0.954711 0.774685 0.343404
0.954253 0.768902 0.340078
0.953887 0.763622 0.33695
0.953307 0.757702 0.333806
0.95317 0.752819 0.331533
0.952789 0.747112 0.328862
0.952544 0.742077 0.326879
0.952193 0.737011 0.324498
0.305791 0.902907 0.478996
0.304799 0.905592 0.478965
0.301656 0.908858 0.478401
0.297505 0.912108 0.477546
0.293431 0.914977 0.476387
0.290364 0.916808 0.475135
0.288609 0.917861 0.473381
0.287312 0.917876 0.47071
0.286137 0.91722 0.467109
0.28455 0.91577 0.462318
0.281987 0.912902 0.454353
0.27866 0.908431 0.442405
0.274922 0.901915 0.427131
0.271443 0.891554 0.398123
0.286015 0.874556 0.332326
0.39881 0.866453 0.301183
0.527718 0.859312 0.329686
0.607569 0.852461 0.350652
0.673915 0.847807 0.34902
0.740047 0.846326 0.338704
0.807416 0.856764 0.336797
0.873518 0.86125 0.353735
0.922026 0.857466 0.375326
0.945708 0.855512 0.386542
0.956985 0.850858 0.391577
0.958175 0.843778 0.388525
0.95758 0.837644 0.382818
0.957076 0.831937 0.377874
0.956817 0.826398 0.373724
0.956451 0.820966 0.369726
0.956313 0.815961 0.36643
0.956115 0.810788 0.363439
0.955917 0.806546 0.360601
0.343969 0.929534 0.514321
0.342046 0.930037 0.512749
0.338659 0.930663 0.510613
0.334539 0.931456 0.508431
0.33077 0.932204 0.505898
0.327764 0.932708 0.503563
0.325826 0.932723 0.501183
0.324773 0.93225 0.49807
0.323842 0.931487 0.494438
0.322545 0.930541 0.489769
0.320516 0.929198 0.483497
0.317983 0.927169 0.474281
0.315068 0.923858 0.460731
0.312673 0.920073 0.446876
0.320974 0.913725 0.410681
0.357275 0.901457 0.350439
0.505852 0.897978 0.351415
0.605066 0.892943 0.379812
0.676936 0.888197 0.399222
0.736828 0.886061 0.394842
0.80116 0.887221 0.388708
0.864485 0.900542 0.396277
0.917708 0.905425 0.418738
0.948226 0.901091 0.437278
0.961135 0.900664 0.447501
0.963455 0.89633 0.4477
0.962982 0.89134 0.442008
0.962081 0.887037 0.435538
0.961288 0.882658 0.429023
0.960342 0.878462 0.422278
0.959823 0.874784 0.417258
0.959167 0.870863 0.412482
0.958999 0.866804 0.408301
0.345052 0.931243 0.522759
0.34255 0.93164 0.520607
0.339071 0.932265 0.518364
0.335271 0.933028 0.516304
0.331853 0.933608 0.513771
0.328984 0.933944 0.511101
0.327016 0.933898 0.508461
0.325948 0.933486 0.504875
0.325231 0.932876 0.500999
0.32398 0.931807 0.495659
0.322164 0.930556 0.489448
0.319524 0.928649 0.48072
0.316411 0.92578 0.468238
0.313375 0.922026 0.452995
0.312779 0.917189 0.429206
0.344961 0.916991 0.390326
0.429725 0.917586 0.365881
0.585702 0.916228 0.39823
0.665446 0.913756 0.42826
0.729732 0.912718 0.440528
0.789166 0.912993 0.438468
0.852415 0.918578 0.438697
0.905028 0.931243 0.454795
0.941207 0.932784 0.478355
0.960678 0.933104 0.498482
0.965103 0.931945 0.503761
0.965148 0.929381 0.500069
0.964584 0.926604 0.492622
0.963729 0.923995 0.485008
0.963058 0.920958 0.477531
0.962219 0.917556 0.470054
0.961929 0.914397 0.464393
0.961532 0.911437 0.459419
0.343832 0.933196 0.530098
0.341665 0.933471 0.528084
0.338445 0.934005 0.525917
0.334829 0.93463 0.523293
0.331868 0.935042 0.520455
0.329503 0.93521 0.517876
0.327932 0.935119 0.514961
0.326879 0.934707 0.511543
0.326024 0.933944 0.507195
0.325246 0.933074 0.501762
0.32343 0.931746 0.494743
0.320943 0.930037 0.486595
0.317891 0.927474 0.475334
0.314931 0.923873 0.458839
0.31133 0.919554 0.440375
0.330892 0.918791 0.405844
0.385977 0.92076 0.373663
0.525902 0.92343 0.391257
0.642557 0.921874 0.431022
0.714366 0.921553 0.458412
0.774136 0.922545 0.468391
0.834775 0.925628 0.470619
0.891829 0.935836 0.481376
0.930327 0.943694 0.504646
0.954498 0.947631 0.53489
0.964569 0.950408 0.557763
0.965103 0.949996 0.55848
0.96434 0.948959 0.550103
0.963394 0.947188 0.539696
0.962524 0.945373 0.530465
0.961959 0.943679 0.523018
0.961608 0.941878 0.517128
0.961501 0.940169 0.512078
0.333959 0.937301 0.535393
0.333776 0.937087 0.533715
0.33315 0.936858 0.531334
0.331914 0.936767 0.529
0.330541 0.93669 0.526696
0.329229 0.936553 0.523964
0.328222 0.936263 0.520912
0.327337 0.935805 0.517418
0.327031 0.934997 0.513039
0.325902 0.934005 0.507225
0.324483 0.932891 0.500038
0.322087 0.931258 0.491554
0.318914 0.928847 0.480583
0.316091 0.925597 0.465232
0.312108 0.921492 0.44802
0.321889 0.919097 0.418235
0.357214 0.919661 0.378088
0.466926 0.923568 0.377234
0.611902 0.922881 0.418036
0.690547 0.922057 0.450828
0.755001 0.922637 0.467872
0.813993 0.924605 0.474495
0.874144 0.932021 0.485313
0.921584 0.943236 0.510582
0.948379 0.948501 0.539651
0.961654 0.950301 0.565545
0.965331 0.951782 0.585718
0.964828 0.952071 0.589227
0.964019 0.952148 0.583032
0.963256 0.952163 0.576623
0.962707 0.95198 0.571267
0.962417 0.95169 0.567071
0.962325 0.951339 0.563485
0.331304 0.93846 0.540215
0.331441 0.938262 0.538323
0.331441 0.938079 0.536217
0.331014 0.937987 0.534218
0.330129 0.937835 0.531609
0.329107 0.937636 0.52903
0.328298 0.937285 0.52636
0.32781 0.936751 0.522774
0.327245 0.935943 0.517983
0.326497 0.934997 0.512245
0.325322 0.933684 0.504814
0.323033 0.932265 0.496086
0.319768 0.930175 0.485847
0.316747 0.92726 0.471534
0.312688 0.923308 0.454002
0.315602 0.91989 0.429236
0.34258 0.919814 0.390005
0.417868 0.922774 0.370748
0.574502 0.924147 0.404257
0.662776 0.922835 0.439567
0.732754 0.92285 0.463386
0.791897 0.924269 0.471595
0.854093 0.928878 0.479744
0.909728 0.94023 0.500877
0.941558 0.948028 0.530404
0.958282 0.949142 0.554055
0.96527 0.951751 0.581811
0.964935 0.952377 0.594583
0.964218 0.952789 0.593408
0.963531 0.953155 0.591272
0.963043 0.953399 0.589502
0.962829 0.953521 0.588418
0.962768 0.953536 0.587976
0.331411 0.938613 0.544198
0.33138 0.938537 0.542367
0.331151 0.938476 0.54049
0.330556 0.938537 0.538247
0.329458 0.938643 0.535805
0.32813 0.938689 0.533394
0.327077 0.938521 0.53048
0.326589 0.938018 0.527138
0.326421 0.937148 0.522591
0.326207 0.936019 0.516732
0.32549 0.934707 0.509712
0.323919 0.933272 0.500969
0.320668 0.931334 0.490394
0.316976 0.928649 0.47744
0.313161 0.925109 0.459724
0.311406 0.921401 0.438529
0.330358 0.920256 0.403067
0.383383 0.921965 0.372702
0.516381 0.924697 0.387945
0.631754 0.923827 0.426459
0.70753 0.923354 0.456916
0.768338 0.924483 0.468437
0.830152 0.926513 0.475029
0.894301 0.936614 0.490501
