bundles/resolve-cinematic-luts/Phantom Luts/Fx6 Phntm Film LUTs-G5/Eterna Fx6-Legacy.cube
TITLE "Generated by Resolve"
LUT_3D_SIZE 5
0.0306554 0.057145 0.0571908
0.100038 0.0635386 0.0571603
0.357931 0.101305 0.131701
0.654292 0.136767 0.261265
0.67512 0.125139 0.293416
0.0552224 0.126268 0.078645
0.107683 0.125612 0.0739757
0.402686 0.101915 0.108583
0.651728 0.141695 0.219272
0.679149 0.138247 0.242298
0.141344 0.61239 0.277043
0.126589 0.653132 0.270954
0.570626 0.605783 0.173632
0.938537 0.559045 0.274983
0.931991 0.522194 0.266819
0.333959 0.937301 0.535393
0.327031 0.934997 0.513039
0.357214 0.919661 0.378088
0.948379 0.948501 0.539651
0.962325 0.951339 0.563485
0.323369 0.941802 0.557534
0.334752 0.937407 0.539681
0.325368 0.919463 0.453422
0.834836 0.927047 0.477821
0.960906 0.954665 0.58909
0.0316625 0.059266 0.0821393
0.101778 0.0650187 0.0889448
0.346227 0.0940261 0.155795
0.66453 0.125612 0.293721
0.675639 0.11516 0.324437
0.0542306 0.116487 0.102449
0.101854 0.116289 0.114214
0.394247 0.104219 0.148714
0.668009 0.130632 0.278523
0.673564 0.120928 0.307332
0.125612 0.579049 0.311391
0.113542 0.615045 0.29514
0.551095 0.58793 0.167636
0.935851 0.543175 0.271366
0.927687 0.499825 0.262623
0.339315 0.93959 0.588876
0.333822 0.939345 0.564828
0.354376 0.921279 0.396292
0.943557 0.947875 0.540368
0.961898 0.94992 0.55639
0.330831 0.944076 0.623636
0.34081 0.939727 0.599329
0.332296 0.923613 0.467948
0.819059 0.92546 0.481514
0.960616 0.954986 0.59292
0.0505531 0.0956741 0.279652
0.117357 0.0832837 0.315068
0.406043 0.102373 0.265354
0.646891 0.114626 0.337911
0.696574 0.11133 0.40647
0.0448463 0.109667 0.193194
0.032517 0.10956 0.282216
0.424262 0.104463 0.316518
0.675013 0.118303 0.386404
0.733669 0.123049 0.477852
0.113924 0.527687 0.426062
0.100191 0.55761 0.477531
0.518608 0.545754 0.505196
0.961456 0.470115 0.519234
0.953643 0.402014 0.532113
0.362753 0.942946 0.726116
0.335073 0.94873 0.732967
0.420432 0.945235 0.621225
0.933349 0.938827 0.648219
0.965087 0.931487 0.685603
0.373297 0.946548 0.791257
0.35375 0.950652 0.790249
0.383261 0.942535 0.675807
0.814054 0.936156 0.662608
0.963027 0.956802 0.737133
0.0546426 0.190295 0.5953
0.0855268 0.201877 0.671153
0.489296 0.135897 0.676356
0.751965 0.141604 0.610727
0.758114 0.139422 0.627756
0.0438544 0.187427 0.504005
0.0448768 0.205005 0.595987
0.420035 0.155367 0.72015
0.740032 0.149157 0.662852
0.746273 0.148058 0.710704
0.0756542 0.500603 0.601434
0.0496681 0.508186 0.640604
0.149142 0.481773 0.780667
0.92752 0.319982 0.769848
0.906249 0.275547 0.752789
0.387503 0.934157 0.849867
0.32958 0.930999 0.852674
0.324987 0.909468 0.822705
0.896483 0.908629 0.883009
0.968765 0.8907 0.882567
0.423438 0.936889 0.900938
0.400946 0.941634 0.913237
0.434607 0.950027 0.887419
0.875776 0.958053 0.926436
0.969528 0.96202 0.938766
0.0727703 0.27042 0.741527
0.0735332 0.263935 0.742626
0.426261 0.211414 0.83566
0.742718 0.155581 0.784451
0.742702 0.155566 0.784436
0.0675059 0.274205 0.728908
0.0693217 0.275395 0.733944
0.282872 0.206561 0.791684
0.74287 0.155688 0.784512
0.742702 0.155566 0.784436
0.088716 0.537484 0.778805
0.0991989 0.540444 0.804746
0.0985122 0.490333 0.819242
0.813779 0.292287 0.912596
0.793957 0.196216 0.822843
0.332296 0.908736 0.919524
0.311147 0.891829 0.915892
0.268421 0.840208 0.900969
0.691234 0.857313 0.946441
0.957916 0.830533 0.957916
0.315419 0.921767 0.925383
0.315419 0.921767 0.925383
0.371649 0.934829 0.934646
0.843259 0.953902 0.953445
0.966705 0.966705 0.966705
