bundles/resolve-cinematic-luts/Phantom Luts/Fx6 Phntm Film LUTs-G5/Eterna Fx6-Legacy.cube
TITLE "Generated by Resolve"
LUT_3D_SIZE 9
0.0306554 0.057145 0.0571908
0.0483558 0.0596933 0.0585184
0.100038 0.0635386 0.0571603
0.191501 0.0782635 0.0792096
0.357931 0.101305 0.131701
0.530938 0.121019 0.200916
0.654292 0.136767 0.261265
0.654994 0.132464 0.274891
0.67512 0.125139 0.293416
0.0356909 0.0662394 0.0607309
0.0388342 0.0634928 0.0602731
0.0946365 0.0683452 0.0602579
0.202884 0.076463 0.0717174
0.374701 0.105684 0.12459
0.570932 0.127718 0.202029
0.658351 0.139681 0.250782
0.658671 0.136339 0.262028
0.681743 0.128679 0.280903
0.0552224 0.126268 0.078645
0.0497292 0.131563 0.0747997
0.107683 0.125612 0.0739757
0.241382 0.110292 0.0832685
0.402686 0.101915 0.108583
0.574029 0.13019 0.178988
0.651728 0.141695 0.219272
0.661952 0.141619 0.230854
0.679149 0.138247 0.242298
0.0864881 0.282673 0.140505
0.0719615 0.30692 0.136629
0.0771649 0.311254 0.106279
0.281743 0.305089 0.104509
0.566369 0.274968 0.144839
0.80351 0.274998 0.197314
0.804623 0.228275 0.208103
0.775265 0.202136 0.20058
0.753918 0.18117 0.194675
0.141344 0.61239 0.277043
0.12694 0.641367 0.279011
0.126589 0.653132 0.270954
0.175326 0.615702 0.152239
0.570626 0.605783 0.173632
0.856519 0.583444 0.235294
0.938537 0.559045 0.274983
0.935607 0.542351 0.271031
0.931991 0.522194 0.266819
0.305791 0.902907 0.478996
0.293431 0.914977 0.476387
0.286137 0.91722 0.467109
0.274922 0.901915 0.427131
0.527718 0.859312 0.329686
0.807416 0.856764 0.336797
0.956985 0.850858 0.391577
0.956817 0.826398 0.373724
0.955917 0.806546 0.360601
0.333959 0.937301 0.535393
0.330541 0.93669 0.526696
0.327031 0.934997 0.513039
0.318914 0.928847 0.480583
0.357214 0.919661 0.378088
0.755001 0.922637 0.467872
0.948379 0.948501 0.539651
0.964019 0.952148 0.583032
0.962325 0.951339 0.563485
0.335653 0.937789 0.550774
0.336507 0.937057 0.542672
0.34284 0.933822 0.531609
0.337621 0.928679 0.501091
0.327352 0.91516 0.430243
0.663264 0.919875 0.439811
0.910338 0.938613 0.501701
0.966934 0.951064 0.596139
0.963607 0.953185 0.5935
0.323369 0.941802 0.557534
0.324468 0.940887 0.548943
0.334752 0.937407 0.539681
0.339422 0.930983 0.512947
0.325368 0.919463 0.453422
0.547601 0.922545 0.397101
0.834836 0.927047 0.477821
0.964797 0.95198 0.577981
0.960906 0.954665 0.58909
0.0309911 0.0574044 0.0603799
0.0477913 0.0598459 0.0646525
0.0929427 0.0629129 0.0706645
0.182315 0.0747845 0.0975357
0.353918 0.0964218 0.146273
0.5308 0.113222 0.213107
0.669749 0.129274 0.281727
0.666346 0.125612 0.293523
0.681163 0.119112 0.310887
0.0345312 0.0620279 0.0605478
0.0357824 0.0599527 0.0605783
0.0964981 0.0657969 0.0671397
0.203296 0.0793317 0.0895552
0.374365 0.0985275 0.140368
0.567636 0.118395 0.21622
0.674464 0.13138 0.273381
0.67274 0.127672 0.286168
0.687312 0.121706 0.30164
0.053254 0.120256 0.0903944
0.0483864 0.124849 0.082948
0.104341 0.121782 0.0749523
0.247791 0.10396 0.0847639
0.391821 0.0975509 0.11252
0.580621 0.126864 0.191775
0.673503 0.139101 0.240833
0.674723 0.137179 0.251392
0.68719 0.132982 0.262898
0.0808576 0.27599 0.152804
0.0721294 0.296498 0.145418
0.0743572 0.308843 0.127993
0.278798 0.302205 0.104356
0.550515 0.269902 0.142367
0.797559 0.273487 0.194125
0.801663 0.223346 0.207538
0.766445 0.194156 0.197772
0.741024 0.17023 0.190249
0.134295 0.599344 0.284413
0.118822 0.6215 0.280873
0.119738 0.633219 0.267491
0.156588 0.608667 0.16054
0.561517 0.598978 0.170214
0.849958 0.579904 0.230503
0.93814 0.55877 0.27425
0.935134 0.541451 0.270024
0.931044 0.518608 0.26537
0.293172 0.894667 0.483009
0.283757 0.907805 0.479683
0.275822 0.907729 0.462837
0.263249 0.890593 0.416266
0.515572 0.854871 0.323095
0.802152 0.853101 0.331762
0.955917 0.846586 0.385824
0.956054 0.823468 0.36994
0.955459 0.803922 0.357778
0.333425 0.938415 0.550378
0.331228 0.938552 0.541878
0.328939 0.936706 0.524346
0.319646 0.929091 0.48159
0.359792 0.919951 0.380438
0.74966 0.922484 0.46685
0.947356 0.948867 0.54139
0.963821 0.952026 0.582193
0.962188 0.95108 0.562387
0.337102 0.938674 0.568322
0.339086 0.937438 0.559121
0.344259 0.934859 0.545007
0.338659 0.929366 0.504829
0.332479 0.915846 0.426505
0.658106 0.91989 0.437827
0.906554 0.937911 0.501488
0.966903 0.951125 0.597421
0.963485 0.953277 0.594491
0.325765 0.942535 0.576654
0.326833 0.941527 0.567193
0.337377 0.93756 0.554498
0.340948 0.93228 0.521233
0.324819 0.919127 0.451972
0.554437 0.922621 0.400107
0.829419 0.926467 0.477287
0.964782 0.951949 0.575967
0.960922 0.954696 0.590448
0.0316625 0.059266 0.0821393
0.0524605 0.0620127 0.0944991
0.101778 0.0650187 0.0889448
0.18613 0.074464 0.108614
0.346227 0.0940261 0.155795
0.519158 0.110109 0.220661
0.66453 0.125612 0.293721
0.660319 0.121553 0.307103
0.675639 0.11516 0.324437
0.0349126 0.0641031 0.0689403
0.031754 0.0605936 0.0867933
0.0996719 0.0657816 0.0923934
0.197543 0.0757305 0.110048
0.358267 0.0951705 0.155993
0.537957 0.111955 0.226017
0.665583 0.125032 0.295171
0.662333 0.120607 0.309697
0.676951 0.114412 0.326604
0.0542306 0.116487 0.102449
0.0495308 0.119295 0.108217
0.101854 0.116289 0.114214
0.246403 0.103838 0.116564
0.394247 0.104219 0.148714
0.567376 0.120287 0.218936
0.668009 0.130632 0.278523
0.663508 0.126635 0.291493
0.673564 0.120928 0.307332
0.0804303 0.265156 0.171511
0.0722057 0.287724 0.176562
0.073991 0.299367 0.155047
0.276768 0.298421 0.1093
0.55726 0.255192 0.15082
0.790784 0.252338 0.200504
0.752178 0.178149 0.203189
0.715877 0.159518 0.196551
0.686534 0.143435 0.19237
0.125612 0.579049 0.311391
0.112245 0.602045 0.317143
0.113542 0.615045 0.29514
0.117571 0.599344 0.192889
0.551095 0.58793 0.167636
0.842329 0.563531 0.229648
0.935851 0.543175 0.271366
0.932479 0.525277 0.267369
0.927687 0.499825 0.262623
0.275608 0.875731 0.503563
0.263645 0.887648 0.503517
0.254322 0.885817 0.479026
0.243046 0.865049 0.408591
0.477729 0.841779 0.306798
0.787015 0.838331 0.319677
0.953643 0.831861 0.37496
0.955566 0.811124 0.362066
0.954421 0.790173 0.348882
0.339315 0.93959 0.588876
0.333837 0.940719 0.583459
0.333822 0.939345 0.564828
0.326375 0.933532 0.50573
0.354376 0.921279 0.396292
0.735271 0.922347 0.47013
0.943557 0.947875 0.540368
0.963729 0.95137 0.578729
0.961898 0.94992 0.55639
0.341909 0.940337 0.613108
0.336614 0.941253 0.605234
0.349493 0.936584 0.588113
0.34551 0.934325 0.541009
0.331212 0.917754 0.441489
0.647196 0.920378 0.437201
0.897017 0.9355 0.502617
0.967315 0.950973 0.600793
0.963928 0.953094 0.598108
0.330831 0.944076 0.623636
0.328939 0.943984 0.614816
0.34081 0.939727 0.599329
0.346105 0.9355 0.560723
0.332296 0.923613 0.467948
0.55848 0.922484 0.405951
0.819059 0.92546 0.481514
0.964858 0.952056 0.581903
0.960616 0.954986 0.59292
0.037232 0.0690471 0.144686
0.0551308 0.068513 0.168307
0.108797 0.0697948 0.158083
0.21297 0.0799268 0.144961
0.361349 0.0936599 0.184771
0.52636 0.107271 0.246479
0.655329 0.12047 0.310842
0.652216 0.116274 0.324453
0.668421 0.108721 0.348592
0.0336309 0.0709087 0.119265
0.0337377 0.0726787 0.149386
0.092195 0.0709239 0.186557
0.219318 0.0805524 0.157565
0.360662 0.0930648 0.187427
0.530327 0.106432 0.255543
0.65359 0.117571 0.320012
0.653361 0.11313 0.338415
0.671534 0.107057 0.366049
0.0520027 0.112703 0.125154
0.0443732 0.113741 0.147265
0.0466163 0.10071 0.188815
0.240238 0.0862135 0.185153
0.381125 0.097261 0.201129
0.541894 0.108141 0.266911
0.648157 0.11696 0.323339
0.64799 0.11429 0.340597
0.665858 0.110292 0.365576
0.0834669 0.251667 0.204364
0.0768902 0.268772 0.224491
0.0781415 0.279774 0.237919
0.282811 0.29485 0.273747
0.575479 0.261418 0.272541
0.753491 0.203021 0.29276
0.730999 0.147906 0.302251
0.693935 0.133715 0.305882
0.681285 0.123903 0.313802
0.118242 0.553033 0.360769
0.103365 0.576455 0.385672
0.107195 0.589609 0.388952
0.111925 0.585214 0.299168
0.536645 0.575601 0.225635
0.84361 0.543145 0.304616
0.949645 0.509682 0.332601
0.948241 0.491081 0.335821
0.944366 0.466316 0.332311
0.254597 0.850355 0.550515
0.239124 0.85864 0.560311
0.229419 0.854261 0.547265
0.224857 0.843946 0.477958
0.337591 0.832761 0.327932
0.765377 0.816419 0.324941
0.955352 0.799252 0.399969
0.957702 0.780285 0.390723
0.957015 0.761944 0.377798
0.354894 0.940002 0.655512
0.335607 0.945205 0.659403
0.337026 0.944091 0.646494
0.339101 0.940063 0.593317
0.352087 0.932311 0.477089
0.688045 0.924849 0.482063
0.932845 0.944793 0.542046
0.963729 0.948363 0.569894
0.962325 0.944533 0.549752
0.349401 0.943725 0.689113
0.339635 0.946151 0.687968
0.34583 0.943526 0.673121
0.354849 0.937728 0.626215
0.354147 0.931868 0.508904
0.578622 0.925704 0.458671
0.865309 0.928801 0.514641
0.968139 0.950622 0.607446
0.964385 0.953063 0.607034
0.338659 0.947478 0.703517
0.336828 0.947616 0.699275
0.336538 0.946715 0.686229
0.355825 0.939071 0.645609
0.355535 0.937179 0.549783
0.489281 0.929351 0.459342
0.790555 0.925231 0.503899
0.959533 0.950683 0.58378
0.961044 0.954925 0.602472
0.0505531 0.0956741 0.279652
0.0670481 0.0948806 0.30959
0.117357 0.0832837 0.315068
0.237995 0.0856641 0.284413
0.406043 0.102373 0.265354
0.553979 0.10576 0.301762
0.646891 0.114626 0.337911
0.658335 0.113573 0.361517
0.696574 0.11133 0.40647
0.0352026 0.0954299 0.229923
0.0381781 0.0995193 0.267567
0.0786603 0.0894942 0.30956
0.22887 0.086656 0.314519
0.403891 0.102113 0.278904
0.559548 0.106477 0.316487
0.659236 0.113878 0.362005
0.690806 0.11725 0.4056
0.728237 0.116594 0.458183
0.0448463 0.109667 0.193194
0.0365911 0.110491 0.231052
0.032517 0.10956 0.282216
0.203418 0.0897536 0.357137
0.424262 0.104463 0.316518
0.568627 0.10927 0.334279
0.675013 0.118303 0.386404
0.703609 0.123293 0.430396
0.733669 0.123049 0.477852
0.0786603 0.230228 0.250446
0.0675364 0.242786 0.282673
0.0616312 0.255116 0.320546
0.11873 0.242206 0.403677
0.520439 0.191546 0.418769
0.641169 0.14847 0.376699
0.680583 0.122988 0.373236
0.68716 0.123262 0.395254
0.711849 0.120897 0.428458
0.113924 0.527687 0.426062
0.0989395 0.54435 0.454673
0.100191 0.55761 0.477531
0.10219 0.550607 0.472923
0.518608 0.545754 0.505196
0.854292 0.524056 0.510719
0.961456 0.470115 0.519234
0.958984 0.443854 0.530785
0.953643 0.402014 0.532113
0.240299 0.817227 0.602747
0.214206 0.825818 0.619455
0.204471 0.820966 0.622736
0.201831 0.809491 0.591501
0.375555 0.819501 0.528267
0.740261 0.793835 0.493614
0.9514 0.770367 0.551659
0.963317 0.766857 0.565911
0.963729 0.752102 0.55964
0.362753 0.942946 0.726116
0.344106 0.948211 0.737179
0.335073 0.94873 0.732967
0.340429 0.94258 0.691051
0.420432 0.945235 0.621225
0.628168 0.93576 0.595346
0.933349 0.938827 0.648219
0.967361 0.934615 0.693004
0.965087 0.931487 0.685603
0.366018 0.946288 0.772839
0.357794 0.948791 0.779309
0.348028 0.950332 0.773236
0.35172 0.946395 0.731579
0.408011 0.942489 0.650965
0.615961 0.94197 0.636912
0.85626 0.932906 0.64799
0.96939 0.953185 0.741924
0.965835 0.955718 0.750881
0.373297 0.946548 0.791257
0.364569 0.948943 0.796078
0.35375 0.950652 0.790249
0.350103 0.948425 0.75465
0.383261 0.942535 0.675807
0.596185 0.946563 0.652811
0.814054 0.936156 0.662608
0.955642 0.950973 0.707347
0.963027 0.956802 0.737133
0.0639506 0.135821 0.435203
0.0700694 0.142458 0.473213
0.115389 0.125124 0.483207
0.258503 0.107256 0.477623
0.441657 0.102586 0.45301
0.638712 0.115816 0.429541
0.709361 0.123033 0.438605
0.717266 0.124987 0.453468
0.740826 0.122911 0.490959
0.0390936 0.137346 0.389151
0.0409094 0.145388 0.429679
0.077348 0.137041 0.468513
0.211215 0.109682 0.485267
0.438972 0.104982 0.482826
0.645289 0.116686 0.454902
0.724254 0.126818 0.468894
0.736782 0.130449 0.501457
0.760449 0.130175 0.558709
0.037232 0.13994 0.331533
0.0310521 0.14905 0.378729
0.033875 0.148486 0.423056
0.145892 0.113146 0.47599
0.43888 0.109392 0.521691
0.642466 0.118944 0.475608
0.72491 0.13228 0.482933
0.737423 0.137285 0.52639
0.755886 0.137636 0.59115
0.0561074 0.232547 0.340475
0.0420844 0.238453 0.376181
0.0402838 0.243977 0.416785
0.0411841 0.224979 0.473152
0.397574 0.137469 0.574929
0.620249 0.116548 0.479301
0.720119 0.131548 0.459297
0.73344 0.136187 0.495109
0.75198 0.136568 0.545098
0.112902 0.497368 0.498573
0.0967269 0.504448 0.524651
0.093492 0.51368 0.551156
0.0830854 0.508461 0.579858
0.356512 0.494911 0.685924
0.810437 0.451331 0.678264
0.949371 0.390661 0.655848
0.942275 0.352712 0.656092
0.933181 0.315572 0.661021
0.227832 0.790997 0.66656
0.199619 0.793088 0.680171
0.190188 0.78674 0.686061
0.184665 0.774136 0.679774
0.355856 0.774289 0.684367
0.719921 0.752102 0.707637
0.956634 0.736095 0.71162
0.970184 0.70927 0.712322
0.970214 0.695079 0.716152
0.373632 0.941833 0.792309
0.355657 0.946181 0.80238
0.339727 0.944305 0.802167
0.321965 0.936141 0.776608
0.42443 0.930739 0.744595
0.674327 0.932342 0.746288
0.917021 0.925628 0.747097
0.965652 0.92018 0.787518
0.964233 0.917296 0.793469
0.417243 0.941543 0.83917
0.390677 0.948882 0.852277
0.381262 0.951019 0.853925
0.373465 0.951064 0.83003
0.449241 0.948867 0.78172
0.688762 0.95082 0.789944
0.839582 0.942855 0.781903
0.970581 0.95491 0.842878
0.972457 0.95697 0.873991
0.404303 0.945968 0.86334
0.396979 0.94815 0.871839
0.390097 0.950423 0.874372
0.381598 0.950759 0.855787
0.41384 0.949477 0.802411
0.683391 0.951263 0.81738
0.838697 0.948592 0.825055
0.958724 0.953933 0.840894
0.968582 0.95848 0.871489
0.0546426 0.190295 0.5953
0.0540627 0.206729 0.638987
0.0855268 0.201877 0.671153
0.229252 0.147997 0.648463
0.489296 0.135897 0.676356
0.681529 0.125292 0.639597
0.751965 0.141604 0.610727
0.750912 0.141787 0.611719
0.758114 0.139422 0.627756
0.0431067 0.18851 0.559792
0.0450904 0.202152 0.601373
0.0545357 0.204898 0.641108
0.167803 0.16701 0.659022
0.469795 0.146929 0.710185
0.679026 0.127337 0.669169
0.74902 0.14461 0.657801
0.750927 0.144472 0.671382
0.755245 0.143664 0.700816
0.0438544 0.187427 0.504005
0.0423896 0.199084 0.550881
0.0448768 0.205005 0.595987
0.0815595 0.1906 0.638361
0.420035 0.155367 0.72015
0.666255 0.127443 0.689403
0.740032 0.149157 0.662852
0.739895 0.149828 0.674907
0.746273 0.148058 0.710704
0.0443275 0.239673 0.473182
0.0425116 0.243076 0.505913
0.0435035 0.242741 0.540597
0.0451209 0.236072 0.58056
0.268711 0.150958 0.657908
0.623468 0.12752 0.696895
0.746303 0.146975 0.629511
0.744045 0.148196 0.625315
0.753475 0.146075 0.668803
0.0756542 0.500603 0.601434
0.0585184 0.50573 0.623545
0.0496681 0.508186 0.640604
0.044831 0.503014 0.663951
0.149142 0.481773 0.780667
0.690883 0.419684 0.901854
0.92752 0.319982 0.769848
0.928283 0.318959 0.742092
0.906249 0.275547 0.752789
0.212848 0.761257 0.732754
0.188449 0.756268 0.742947
0.181781 0.741238 0.742367
0.176989 0.724025 0.744732
0.205798 0.706172 0.776654
0.603708 0.707012 0.856947
0.937942 0.679332 0.846555
0.966232 0.650889 0.833051
0.965469 0.62977 0.84004
0.387503 0.934157 0.849867
0.35021 0.939025 0.858763
0.32958 0.930999 0.852674
0.306401 0.917052 0.83711
0.324987 0.909468 0.822705
0.652827 0.913298 0.858259
0.896483 0.908629 0.883009
0.970413 0.895735 0.879118
0.968765 0.8907 0.882567
0.429175 0.937835 0.885374
0.402121 0.944213 0.896376
0.396445 0.945769 0.897459
0.393301 0.947845 0.887526
0.446052 0.952438 0.868025
0.710506 0.954879 0.895964
0.877028 0.956954 0.90837
0.970871 0.958068 0.919188
0.975387 0.959289 0.934829
0.423438 0.936889 0.900938
0.407996 0.940093 0.909712
0.400946 0.941634 0.913237
0.398733 0.943465 0.906508
0.434607 0.950027 0.887419
0.716869 0.955154 0.914397
0.875776 0.958053 0.926436
0.95021 0.958541 0.926024
0.969528 0.96202 0.938766
0.0712444 0.266102 0.730755
0.0720836 0.271885 0.739513
0.0735027 0.264561 0.742672
0.161395 0.238621 0.777356
0.478935 0.208469 0.845548
0.689036 0.155779 0.7832
0.745632 0.153338 0.772152
0.746273 0.153048 0.770291
0.746136 0.152361 0.763485
0.0626688 0.255009 0.712413
0.0704509 0.275212 0.736492
0.0721294 0.270802 0.739986
0.0941176 0.256367 0.753094
0.433005 0.212482 0.838285
0.702998 0.174502 0.814588
0.743557 0.155077 0.782116
0.743252 0.155215 0.782528
0.743816 0.154864 0.778973
0.054139 0.24387 0.676173
0.0604715 0.260151 0.706691
0.0681621 0.273198 0.730785
0.0724346 0.270481 0.740688
0.351141 0.206928 0.809857
0.692149 0.183581 0.827939
0.742702 0.155581 0.784421
0.742916 0.155459 0.783978
0.742702 0.155581 0.784344
0.0470436 0.26099 0.609552
0.0491493 0.270008 0.640772
0.0527657 0.273228 0.673304
0.0589609 0.275395 0.703975
0.124681 0.246784 0.763027
0.613108 0.204211 0.858579
0.745251 0.155184 0.779629
0.746365 0.154208 0.77438
0.74757 0.153521 0.770275
0.0537881 0.519158 0.699626
0.0604868 0.521569 0.717021
0.066743 0.516518 0.733822
0.0721904 0.504341 0.750332
0.0889448 0.477348 0.796521
0.517067 0.427543 0.936721
0.872343 0.29543 0.897002
0.848234 0.236484 0.828702
0.839063 0.221851 0.812284
0.202014 0.743633 0.807828
0.197589 0.737697 0.815
0.188647 0.724346 0.814588
0.175265 0.706493 0.812009
0.149416 0.676143 0.812207
0.477791 0.680415 0.9252
0.862577 0.666255 0.960006
0.963882 0.606546 0.934844
0.963668 0.608942 0.928069
0.359304 0.920806 0.892638
0.33518 0.917433 0.895293
0.318547 0.905959 0.88954
0.2963 0.886076 0.87744
0.282414 0.860304 0.868727
0.53611 0.869932 0.909194
0.808194 0.882902 0.939147
0.961669 0.864286 0.937209
0.962753 0.857023 0.933394
0.420111 0.934432 0.918761
0.403693 0.938338 0.924254
0.402335 0.938735 0.92372
0.402594 0.940063 0.918593
0.422461 0.944869 0.907073
0.657069 0.950072 0.925155
0.867323 0.956374 0.946181
0.961822 0.962875 0.959991
0.970352 0.961196 0.958892
0.417441 0.930999 0.92401
0.3991 0.936202 0.931884
0.397024 0.936736 0.933181
0.401266 0.936461 0.929442
0.428367 0.941634 0.919203
0.692912 0.950591 0.935943
0.885512 0.956939 0.952316
0.956176 0.963958 0.960998
0.97232 0.963882 0.959884
0.0727703 0.27042 0.741527
0.0729686 0.269627 0.741878
0.0735332 0.263935 0.742626
0.129641 0.247639 0.768307
0.426261 0.211414 0.83566
0.699016 0.178347 0.820523
0.742718 0.155581 0.784451
0.742718 0.155581 0.784451
0.742702 0.155566 0.784436
0.0708629 0.272862 0.737179
0.071046 0.272526 0.737575
0.0725567 0.270832 0.741039
0.0821088 0.259174 0.747082
0.367498 0.208133 0.816495
0.692866 0.183917 0.82855
0.742718 0.155581 0.784451
0.742718 0.155581 0.784451
0.742718 0.155581 0.784451
0.0675059 0.274205 0.728908
0.0678111 0.274678 0.729992
0.0693217 0.275395 0.733944
0.0718547 0.271748 0.739467
0.282872 0.206561 0.791684
0.663569 0.1953 0.846235
0.74287 0.155688 0.784512
0.742718 0.155581 0.784451
0.742702 0.155566 0.784436
0.061677 0.299687 0.71902
0.0664988 0.309026 0.734157
0.0719005 0.31223 0.7476
0.0697185 0.298268 0.739757
0.0724041 0.269001 0.740322
0.541726 0.210056 0.858824
0.743435 0.156085 0.784726
0.743526 0.15613 0.784756
0.743481 0.1561 0.784741
0.088716 0.537484 0.778805
0.0939956 0.541573 0.79118
0.0991989 0.540444 0.804746
0.102525 0.530678 0.817426
0.0985122 0.490333 0.819242
0.378729 0.411337 0.928084
0.813779 0.292287 0.912596
0.807218 0.20763 0.83209
0.793957 0.196216 0.822843
0.203326 0.745892 0.85565
0.197208 0.741222 0.857298
0.186496 0.730907 0.856275
0.1664 0.71107 0.85034
0.138979 0.67599 0.847486
0.32546 0.661616 0.936889
0.727977 0.654871 0.956344
0.959381 0.583566 0.962158
0.959396 0.561944 0.9617
0.332296 0.908736 0.919524
0.324224 0.902464 0.919112
0.311147 0.891829 0.915892
0.29482 0.873793 0.910399
0.268421 0.840208 0.900969
0.361669 0.849805 0.9364
0.691234 0.857313 0.946441
0.945998 0.857755 0.957549
0.957916 0.830533 0.957916
0.336812 0.927993 0.929839
0.338888 0.928115 0.930144
0.343938 0.928878 0.930907
0.347417 0.929946 0.930907
0.405341 0.936828 0.93312
0.535393 0.938964 0.937819
0.744228 0.94403 0.948104
0.919295 0.95111 0.957259
0.962753 0.958007 0.962753
0.315419 0.921767 0.925383
0.315419 0.921767 0.925383
0.315419 0.921767 0.925383
0.315419 0.921767 0.925383
0.371649 0.934829 0.934646
0.581689 0.944732 0.940429
0.843259 0.953902 0.953445
0.953399 0.962936 0.962997
0.966705 0.966705 0.966705
