bundles/resolve-cinematic-luts/Phantom Luts/Fx6 Phntm Film LUTs-G5/Eterna Fx6.cube
TITLE "Generated by Resolve"
LUT_3D_SIZE 33
0.0126497 0.0407568 0.0407568
0.0127413 0.0407111 0.0406043
0.0171817 0.0415045 0.0407721
0.0298924 0.0440681 0.0449073
0.0478218 0.04654 0.0457008
0.0659648 0.0492561 0.0462806
0.0819104 0.0514534 0.0466926
0.0977493 0.0540475 0.0491646
0.115892 0.0571908 0.0535744
0.138018 0.061326 0.0594492
0.165423 0.0661173 0.0673228
0.196887 0.0710918 0.0759594
0.235599 0.0767376 0.0876173
0.278996 0.08336 0.102556
0.325154 0.0906996 0.118853
0.37229 0.0976272 0.135393
0.418402 0.102861 0.151965
0.462928 0.106981 0.169268
0.50692 0.111116 0.188449
0.550164 0.116213 0.211017
0.593957 0.120989 0.236408
0.655726 0.130327 0.269139
0.688869 0.136126 0.290791
0.698131 0.137011 0.300969
0.696361 0.135531 0.305074
0.695232 0.134417 0.308629
0.694774 0.13344 0.312322
0.694896 0.132143 0.315877
0.6963 0.130571 0.320027
0.699916 0.12874 0.324697
0.704677 0.126619 0.330175
0.710506 0.124346 0.335866
0.716594 0.122133 0.341772
0.013611 0.0402838 0.0393225
0.0130007 0.040589 0.0401923
0.0147097 0.0410163 0.0402991
0.0264591 0.0445716 0.0419013
0.0425879 0.0472419 0.0429999
0.0615244 0.0491646 0.0438697
0.0803845 0.0514992 0.0453346
0.097673 0.054078 0.047425
0.116152 0.0572519 0.0509957
0.138643 0.0614023 0.0563211
0.166278 0.0666361 0.0637369
0.197864 0.0717937 0.0721752
0.236881 0.0771954 0.0830243
0.281407 0.0835126 0.0981308
0.328038 0.0911269 0.115053
0.375494 0.0981918 0.132143
0.421286 0.103502 0.148394
0.466606 0.107805 0.165911
0.510689 0.112337 0.185977
0.555657 0.117754 0.209262
0.601572 0.123018 0.235676
0.66601 0.133257 0.269749
0.693858 0.137789 0.289403
0.699229 0.138079 0.297963
0.697688 0.136645 0.302052
0.696239 0.135393 0.305486
0.695583 0.134295 0.309056
0.696178 0.133242 0.312688
0.697978 0.131701 0.317006
0.701396 0.129839 0.321691
0.706249 0.127657 0.327382
0.712276 0.125536 0.332677
0.718746 0.123278 0.33846
0.0135348 0.0403296 0.0394293
0.0129244 0.0406348 0.0403296
0.0129244 0.0406348 0.0403296
0.0223545 0.04448 0.0420691
0.0357671 0.0483558 0.0436255
0.0534218 0.0502327 0.0444953
0.0740673 0.0521706 0.0454566
0.0937209 0.0538949 0.0465858
0.114382 0.0559701 0.0488746
0.138796 0.0594034 0.0534676
0.168307 0.0641794 0.060441
0.201816 0.0694591 0.068864
0.240833 0.0759136 0.0792859
0.284428 0.083772 0.0933852
0.331487 0.0919356 0.111345
0.380606 0.0988632 0.129168
0.427314 0.104356 0.146136
0.47129 0.108125 0.163058
0.516014 0.113237 0.183505
0.56141 0.119142 0.20798
0.611429 0.125124 0.235599
0.674281 0.135439 0.26949
0.699168 0.139971 0.288823
0.700435 0.139178 0.294957
0.698863 0.137697 0.298939
0.697459 0.136416 0.302785
0.696696 0.13521 0.30602
0.696971 0.134005 0.309712
0.699184 0.132631 0.313817
0.703044 0.130892 0.318822
0.708019 0.12874 0.324331
0.713863 0.126574 0.329839
0.720577 0.124224 0.33579
0.0157473 0.0444648 0.0425879
0.0150454 0.0450294 0.0426032
0.0161135 0.04448 0.0423438
0.0205234 0.0460365 0.0429541
0.0297856 0.0501411 0.044892
0.0436103 0.052079 0.045655
0.0653544 0.053727 0.0470741
0.0891737 0.0560922 0.049073
0.112627 0.0580911 0.0512856
0.139483 0.0606394 0.0544289
0.170657 0.064271 0.0598306
0.204791 0.068452 0.0662699
0.244678 0.0740673 0.0754101
0.289677 0.0819867 0.0886702
0.337423 0.0920577 0.106874
0.386587 0.101152 0.126604
0.434623 0.105867 0.14432
0.479194 0.108385 0.161196
0.524956 0.113329 0.182239
0.571252 0.119387 0.207416
0.625055 0.126879 0.237034
0.681865 0.136446 0.268849
0.705837 0.141161 0.288151
0.704204 0.139742 0.293034
0.702312 0.138399 0.296986
0.700664 0.137209 0.300237
0.699474 0.136049 0.303685
0.699443 0.13489 0.306752
0.700862 0.133486 0.310628
0.704173 0.131746 0.315328
0.709529 0.129702 0.320546
0.715831 0.127489 0.326467
0.722911 0.125124 0.332387
0.0223392 0.0607462 0.0509041
0.0211032 0.0605783 0.0502327
0.0225528 0.0592203 0.0486763
0.0263218 0.0561837 0.047364
0.0316014 0.0562905 0.0480964
0.0412146 0.057496 0.0489815
0.059205 0.0576486 0.0491188
0.0845808 0.0594644 0.0510567
0.111803 0.0617533 0.0539406
0.140185 0.0632792 0.0571603
0.173129 0.0657359 0.0613413
0.209751 0.0691386 0.0667582
0.250111 0.0736248 0.0734569
0.294514 0.0797284 0.0833448
0.342611 0.0894179 0.100191
0.392477 0.101915 0.122194
0.44036 0.109621 0.141634
0.485756 0.110414 0.158648
0.532113 0.113817 0.179568
0.580392 0.119829 0.206241
0.639994 0.127901 0.238376
0.691875 0.136934 0.269459
0.712032 0.140963 0.28687
0.71107 0.139559 0.291997
0.710079 0.13814 0.296895
0.708537 0.136873 0.300481
0.707393 0.135805 0.303685
0.706569 0.134737 0.3066
0.706615 0.133639 0.309758
0.708385 0.132387 0.312947
0.712215 0.130724 0.317418
0.718318 0.128527 0.322896
0.725582 0.126146 0.328878
0.0293736 0.0793011 0.0587167
0.0277867 0.0791028 0.0576181
0.0271 0.0784772 0.0565499
0.0317235 0.074342 0.0542916
0.0376287 0.0705882 0.0540169
0.0484321 0.071519 0.0549477
0.0652018 0.0713817 0.055436
0.0891737 0.0700694 0.0556191
0.116472 0.0708934 0.0576486
0.145937 0.0714733 0.0607462
0.181415 0.071931 0.0648508
0.216327 0.071931 0.0689555
0.257862 0.0754101 0.0741894
0.301381 0.0799115 0.0811322
0.347723 0.0866255 0.0932174
0.398505 0.0989395 0.115511
0.44802 0.112078 0.139147
0.491051 0.114748 0.156039
0.536461 0.116075 0.176043
0.584695 0.121187 0.20267
0.648051 0.130404 0.236759
0.695705 0.138643 0.266514
0.713497 0.142 0.28278
0.712489 0.140703 0.288075
0.71136 0.139483 0.292424
0.709987 0.138399 0.296376
0.708461 0.137392 0.299214
0.70753 0.1364 0.30219
0.707668 0.135409 0.304875
0.710018 0.133959 0.308553
0.714672 0.132082 0.313359
0.721462 0.129732 0.319371
0.728725 0.127398 0.325124
0.0362097 0.100847 0.0657664
0.0345617 0.101305 0.0639353
0.0325628 0.10132 0.0626078
0.0349126 0.099733 0.0608682
0.0422675 0.09337 0.0599527
0.0539254 0.0905318 0.0607004
0.0733806 0.092134 0.0598001
0.0974746 0.0892195 0.0599527
0.124056 0.0852064 0.0607156
0.153811 0.0847181 0.0624094
0.192721 0.0855268 0.0674449
0.227665 0.0829938 0.0710155
0.269276 0.0829786 0.0761883
0.309163 0.0841688 0.0822766
0.354223 0.0887922 0.0907301
0.402213 0.0962234 0.106386
0.451835 0.109102 0.130953
0.496071 0.118944 0.152255
0.537682 0.119005 0.170397
0.583673 0.123201 0.195972
0.64979 0.133486 0.231006
0.695445 0.141482 0.26009
0.710307 0.144045 0.274739
0.710903 0.142992 0.280568
0.710338 0.141863 0.284901
0.709682 0.140856 0.288884
0.709056 0.139895 0.292103
0.708553 0.13904 0.294972
0.708324 0.138155 0.29749
0.709285 0.137179 0.299977
0.711788 0.135836 0.30341
0.715679 0.134371 0.307012
0.720974 0.132601 0.311452
0.0462501 0.122545 0.0712444
0.0436255 0.124483 0.0699779
0.0404364 0.125917 0.0687877
0.0398108 0.126833 0.0674907
0.0449378 0.124437 0.0652171
0.0557259 0.118151 0.0661784
0.0754711 0.11606 0.0687572
0.102098 0.118425 0.0658274
0.13254 0.11458 0.0681468
0.164141 0.107317 0.0693675
0.201663 0.103532 0.0723278
0.244388 0.102937 0.0770581
0.289876 0.101137 0.0826886
0.329107 0.0978561 0.0879225
0.36936 0.0964065 0.0948959
0.413565 0.0986038 0.104524
0.459785 0.105043 0.12105
0.504433 0.114626 0.142428
0.545083 0.122744 0.164553
0.585885 0.1252 0.186709
0.650874 0.13521 0.221714
0.694942 0.143313 0.249744
0.707164 0.145434 0.26247
0.709697 0.145037 0.268727
0.710994 0.144442 0.273991
0.71136 0.143679 0.278019
0.711101 0.142885 0.281361
0.710994 0.142199 0.28394
0.711131 0.141497 0.286519
0.712337 0.140597 0.289357
0.714977 0.139406 0.292363
0.719219 0.137881 0.296162
0.724575 0.136217 0.300114
0.0535897 0.151156 0.0831769
0.0508278 0.153628 0.0812085
0.0473945 0.156207 0.0793317
0.0456092 0.158129 0.0773175
0.0472725 0.158999 0.0732738
0.0576028 0.155962 0.0714275
0.0743267 0.150027 0.0754101
0.101869 0.147356 0.078172
0.135012 0.150332 0.0733349
0.17496 0.145541 0.076524
0.213443 0.134661 0.079469
0.259266 0.126421 0.083711
0.307012 0.126955 0.0898146
0.358511 0.126452 0.0970474
0.398764 0.120241 0.103471
0.439017 0.114351 0.111437
0.475257 0.109773 0.120272
0.515831 0.111421 0.132982
0.553735 0.11754 0.151202
0.588281 0.124971 0.172992
0.641764 0.135286 0.20354
0.689616 0.144915 0.232273
0.697978 0.146242 0.241794
0.701396 0.146151 0.247929
0.704005 0.146166 0.253437
0.706447 0.146059 0.258381
0.70837 0.145876 0.262547
0.709545 0.145586 0.26569
0.710719 0.145144 0.268391
0.712673 0.144533 0.271366
0.71606 0.143603 0.274708
0.720409 0.142336 0.278141
0.725704 0.14081 0.281849
0.0621805 0.187304 0.099794
0.0589151 0.190356 0.096849
0.0550546 0.193576 0.0939193
0.0518044 0.196216 0.0905928
0.0504311 0.198001 0.0844739
0.054902 0.198917 0.0780957
0.0710613 0.195346 0.0784924
0.0970016 0.190036 0.0851759
0.132967 0.186847 0.0890822
0.174746 0.190082 0.080766
0.226459 0.184405 0.0847944
0.276356 0.169528 0.0910811
0.325567 0.158541 0.0977646
0.378302 0.15903 0.10518
0.434165 0.160388 0.113603
0.486976 0.157443 0.123568
0.52604 0.146136 0.132586
0.548287 0.130236 0.13901
0.571969 0.119936 0.146868
0.600519 0.120287 0.161669
0.627573 0.127459 0.179858
0.684321 0.144762 0.212116
0.687404 0.145388 0.216907
0.688014 0.145342 0.219364
0.690806 0.14551 0.22388
0.693645 0.145861 0.228092
0.695583 0.14612 0.231464
0.697078 0.146273 0.234714
0.698802 0.146395 0.237385
0.701228 0.146166 0.24007
0.704707 0.145663 0.243244
0.709728 0.144732 0.246464
0.715557 0.143526 0.249943
0.0701457 0.23183 0.1196
0.0663005 0.235676 0.116289
0.0619821 0.239933 0.11313
0.0587167 0.243198 0.109468
0.0559396 0.245853 0.104417
0.0547646 0.24712 0.0939956
0.0598459 0.247547 0.08365
0.0851301 0.243488 0.0843366
0.123842 0.238132 0.0948043
0.168948 0.234531 0.100313
0.221988 0.238437 0.0871748
0.288685 0.233265 0.0919051
0.349355 0.217716 0.102281
0.401602 0.202564 0.112139
0.458854 0.201526 0.121157
0.522942 0.203265 0.13225
0.583673 0.203708 0.142428
0.630518 0.195727 0.152117
0.657954 0.176654 0.160983
0.656596 0.147662 0.164675
0.660563 0.134585 0.175769
0.682368 0.138323 0.194263
0.679927 0.138079 0.198901
0.681514 0.139956 0.200763
0.682551 0.14049 0.201602
0.684443 0.141176 0.203555
0.685573 0.141848 0.20473
0.685969 0.142565 0.205325
0.686137 0.143313 0.205631
0.686229 0.143664 0.205768
0.686946 0.143694 0.206027
0.688991 0.143374 0.206836
0.692988 0.14258 0.208179
0.0758984 0.286778 0.13962
0.0716106 0.292226 0.136568
0.0662852 0.297642 0.133913
0.0625772 0.302388 0.130526
0.0601968 0.306722 0.127657
0.059617 0.309316 0.121508
0.059617 0.31078 0.11078
0.0646677 0.309209 0.093492
0.100099 0.303731 0.089601
0.152605 0.297902 0.102602
0.211032 0.293675 0.111147
0.278401 0.298711 0.0911574
0.36202 0.295003 0.0939345
0.427985 0.280781 0.10631
0.489647 0.262776 0.123766
0.549386 0.259251 0.134615
0.616251 0.257359 0.146593
0.683558 0.258671 0.158679
0.734127 0.257694 0.168917
0.768536 0.246891 0.184024
0.765316 0.216632 0.192233
0.748531 0.185214 0.195727
0.732448 0.167407 0.195758
0.719554 0.155749 0.192172
0.709178 0.147036 0.190143
0.703624 0.142351 0.189975
0.697032 0.137591 0.18909
0.690608 0.133761 0.188602
0.685359 0.131243 0.18909
0.681407 0.13019 0.189868
0.6804 0.130755 0.19147
0.680781 0.130816 0.192264
0.684504 0.130785 0.193454
0.0791943 0.350683 0.159747
0.072282 0.358114 0.156878
0.0664836 0.364981 0.154955
0.0630655 0.370962 0.152605
0.0600443 0.376638 0.150195
0.059205 0.380789 0.146746
0.0594034 0.38349 0.142123
0.0609293 0.382849 0.130327
0.0695964 0.378576 0.104219
0.119051 0.370047 0.0918898
0.186618 0.365423 0.109865
0.261295 0.360693 0.12137
0.345006 0.368017 0.0908675
0.438376 0.366384 0.0952773
0.509819 0.357382 0.108995
0.581308 0.338415 0.132189
0.643915 0.331701 0.148074
0.700908 0.328984 0.159762
0.767834 0.321309 0.179141
0.811872 0.323278 0.194324
0.836973 0.318456 0.208194
0.845731 0.300496 0.215244
0.846479 0.282155 0.21828
0.84062 0.272953 0.216526
0.834623 0.264729 0.215351
0.828855 0.256519 0.214069
0.822995 0.248753 0.212757
0.816648 0.24152 0.211429
0.810117 0.234546 0.210132
0.804074 0.227985 0.208774
0.798459 0.222141 0.207446
0.794217 0.216678 0.206714
0.791608 0.21181 0.206241
0.0810407 0.426459 0.183795
0.0758526 0.434363 0.182147
0.0707256 0.441291 0.18024
0.0666056 0.448157 0.178897
0.0628824 0.454231 0.176501
0.0608988 0.459541 0.174029
0.0601511 0.464057 0.171832
0.0603342 0.465782 0.167239
0.0621958 0.462257 0.150484
0.0754101 0.455497 0.11368
0.143282 0.444877 0.0972152
0.231952 0.439094 0.1243
0.323644 0.434119 0.135592
0.415412 0.443565 0.0984207
0.511406 0.444038 0.108171
0.583398 0.439734 0.124575
0.657145 0.424323 0.147646
0.728771 0.412177 0.173159
0.771252 0.41239 0.182696
0.824964 0.402228 0.201968
0.863096 0.395605 0.221439
0.884062 0.38616 0.234195
0.893217 0.378195 0.2383
0.891417 0.374609 0.236622
0.889418 0.370977 0.235111
0.88806 0.367376 0.234043
0.886 0.363256 0.232792
0.884672 0.359167 0.232105
0.882765 0.354833 0.231006
0.881544 0.350912 0.230426
0.880171 0.34728 0.229694
0.878752 0.343282 0.228885
0.878004 0.339849 0.228458
0.090013 0.509239 0.218708
0.0855116 0.517464 0.218433
0.0811322 0.5243 0.217456
0.0775158 0.530953 0.216678
0.0748913 0.536507 0.215564
0.0738079 0.542123 0.213947
0.0738537 0.546319 0.21207
0.0740215 0.548714 0.208927
0.0744182 0.548272 0.201892
0.076112 0.542611 0.177127
0.0944991 0.532158 0.12546
0.187793 0.520058 0.116609
0.297826 0.512917 0.153536
0.396521 0.508995 0.155428
0.487251 0.51841 0.123629
0.580758 0.521798 0.134936
0.652415 0.519692 0.153048
0.720241 0.511055 0.171252
0.792309 0.49453 0.198993
0.834699 0.491463 0.212909
0.872435 0.488075 0.227543
0.90132 0.480949 0.243229
0.9196 0.472007 0.257267
0.919951 0.463172 0.257832
0.91873 0.457023 0.256977
0.916945 0.451377 0.255665
0.915633 0.445838 0.25478
0.914076 0.439933 0.253788
0.91252 0.434379 0.252781
0.911162 0.428977 0.25214
0.909651 0.423438 0.251225
0.908248 0.419562 0.249943
0.907485 0.416327 0.249287
0.118837 0.590784 0.267704
0.115465 0.598657 0.268147
0.110903 0.606287 0.268406
0.1066 0.612833 0.268299
0.103578 0.618814 0.268055
0.102541 0.623972 0.267475
0.102785 0.627649 0.265812
0.103792 0.630106 0.262531
0.104295 0.630503 0.257816
0.104326 0.627894 0.246601
0.10605 0.618372 0.210651
0.137179 0.603113 0.143923
0.262303 0.590921 0.15491
0.381704 0.583429 0.191501
0.475074 0.581582 0.180575
0.561028 0.590936 0.15613
0.647913 0.595209 0.168444
0.717342 0.5935 0.187747
0.778897 0.588373 0.204028
0.840055 0.572885 0.226413
0.883925 0.565072 0.244556
0.912245 0.565087 0.257679
0.925872 0.564477 0.264698
0.933303 0.560174 0.270115
0.932815 0.556222 0.26923
0.932784 0.552438 0.268925
0.932235 0.548272 0.268132
0.932021 0.543862 0.267857
0.931395 0.53901 0.267155
0.930678 0.53344 0.266346
0.930068 0.527459 0.265705
0.92929 0.522011 0.264851
0.928206 0.516899 0.263554
0.154803 0.671534 0.324758
0.151781 0.679728 0.32604
0.147189 0.686824 0.326299
0.143084 0.694011 0.327474
0.140169 0.699733 0.327337
0.139849 0.704784 0.327398
0.139849 0.70782 0.325841
0.140459 0.709667 0.32256
0.140993 0.709834 0.317128
0.140978 0.708202 0.309651
0.139757 0.701595 0.290623
0.141604 0.688258 0.238422
0.203296 0.669398 0.169482
0.352438 0.658961 0.201068
0.463691 0.652781 0.227726
0.549294 0.651362 0.20911
0.628428 0.659998 0.191775
0.708415 0.663432 0.206027
0.774807 0.661631 0.227131
0.828717 0.657801 0.243091
0.877501 0.647166 0.258854
0.915084 0.638758 0.274662
0.935378 0.636332 0.28603
0.940963 0.637324 0.287388
0.940154 0.633509 0.285618
0.939467 0.629862 0.284092
0.939208 0.626932 0.283146
0.938567 0.622873 0.281727
0.938308 0.618463 0.280705
0.937652 0.613352 0.279225
0.937514 0.608499 0.278492
0.937057 0.603601 0.277363
0.93666 0.599176 0.276356
0.192309 0.750378 0.381765
0.192111 0.757443 0.383383
0.189548 0.763973 0.384375
0.186282 0.769879 0.384497
0.18352 0.775402 0.384619
0.182681 0.779431 0.384497
0.183062 0.782361 0.383581
0.183536 0.783581 0.380819
0.183627 0.783398 0.375586
0.183352 0.781567 0.367712
0.18117 0.776547 0.356725
0.178866 0.765972 0.326497
0.186694 0.74725 0.253056
0.30135 0.731823 0.213016
0.444511 0.723262 0.249928
0.538781 0.717006 0.261051
0.617304 0.715755 0.24332
0.690013 0.724468 0.23212
0.763607 0.726726 0.247501
0.824826 0.724025 0.27039
0.869963 0.721065 0.285389
0.907347 0.71371 0.296132
0.933318 0.706477 0.305943
0.945998 0.704204 0.313176
0.945769 0.70219 0.3122
0.945418 0.698924 0.31043
0.9449 0.695308 0.3084
0.944793 0.691417 0.306737
0.944228 0.686839 0.304524
0.943999 0.682368 0.302831
0.943511 0.677577 0.30074
0.943236 0.673411 0.299214
0.942946 0.669581 0.297749
0.238224 0.818586 0.4365
0.238834 0.824491 0.437705
0.236713 0.83006 0.438087
0.233494 0.835416 0.438422
0.23003 0.839719 0.437964
0.229465 0.843259 0.438071
0.228962 0.845273 0.436973
0.229389 0.846006 0.434531
0.229221 0.845472 0.430137
0.228672 0.843549 0.422827
0.226703 0.838987 0.411582
0.223117 0.831876 0.396368
0.220417 0.817929 0.350988
0.25095 0.79736 0.26627
0.410361 0.78761 0.265888
0.526467 0.780301 0.296284
0.606104 0.774838 0.296788
0.679042 0.77406 0.282597
0.746777 0.783902 0.277394
0.81413 0.786267 0.29482
0.867689 0.78262 0.317891
0.90396 0.780972 0.331594
0.929412 0.775509 0.338079
0.946242 0.769055 0.343435
0.949783 0.761013 0.343618
0.949203 0.756649 0.340536
0.949111 0.753277 0.338262
0.948608 0.749325 0.335576
0.948302 0.745205 0.333257
0.948013 0.741207 0.330816
0.947753 0.737102 0.328603
0.947616 0.73341 0.326955
0.947372 0.729641 0.324926
0.286183 0.871763 0.484489
0.286809 0.875761 0.485328
0.284855 0.880522 0.485908
0.281819 0.8851 0.486122
0.278279 0.889189 0.485695
0.276432 0.892195 0.485267
0.274922 0.893706 0.483543
0.274113 0.894163 0.481163
0.27306 0.893584 0.477195
0.271519 0.891859 0.470939
0.268925 0.888106 0.460502
0.265431 0.882063 0.446754
0.260563 0.87335 0.424186
0.262699 0.857237 0.361624
0.34258 0.841352 0.293919
0.507057 0.833097 0.318868
0.597559 0.826551 0.339284
0.666621 0.822934 0.333608
0.734951 0.824063 0.323583
0.798672 0.834958 0.324742
0.858 0.837507 0.344701
0.903365 0.834394 0.367773
0.928695 0.833082 0.379782
0.945251 0.829557 0.384985
0.952972 0.821775 0.386236
0.953109 0.815915 0.381918
0.95259 0.811093 0.377584
0.952117 0.806821 0.373678
0.951751 0.802182 0.369894
0.951247 0.798138 0.366445
0.951049 0.793912 0.363684
0.950652 0.789593 0.360357
0.950469 0.785748 0.357855
0.333944 0.911604 0.528313
0.333349 0.913878 0.528298
0.33022 0.916869 0.527871
0.326009 0.919905 0.527214
0.32166 0.92256 0.526162
0.318578 0.924346 0.525093
0.316777 0.925322 0.523262
0.315373 0.925368 0.520409
0.313771 0.924895 0.516518
0.31162 0.923659 0.511116
0.308553 0.921141 0.502403
0.304479 0.917357 0.489525
0.299367 0.911986 0.473136
0.293812 0.903197 0.441321
0.310399 0.886885 0.365011
0.445777 0.875776 0.334752
0.583551 0.868544 0.367025
0.659113 0.864225 0.379339
0.721859 0.862852 0.373281
0.786358 0.866682 0.367697
0.843702 0.879271 0.375174
0.894224 0.881178 0.399023
0.928206 0.878904 0.421134
0.94522 0.877623 0.431647
0.955123 0.874464 0.437339
0.956695 0.869459 0.434821
0.956298 0.865125 0.429541
0.955688 0.860685 0.423743
0.955245 0.856687 0.418891
0.954971 0.852552 0.414496
0.954696 0.848539 0.410605
0.954757 0.84477 0.407416
0.954604 0.841215 0.404471
0.375967 0.929885 0.561563
0.374411 0.930404 0.560128
0.370718 0.931319 0.558404
0.365957 0.932525 0.556161
0.361425 0.933639 0.553903
0.357763 0.934432 0.551553
0.355276 0.934813 0.549187
0.353765 0.934752 0.546166
0.352316 0.934356 0.542351
0.350423 0.9337 0.537469
0.347509 0.932631 0.530556
0.343572 0.930648 0.520348
0.339437 0.927718 0.505745
0.334035 0.924163 0.489296
0.34197 0.917708 0.448295
0.387243 0.904677 0.381338
0.55613 0.897459 0.3897
0.65655 0.893263 0.417105
0.721813 0.891203 0.422919
0.780362 0.891432 0.4206
0.841505 0.899947 0.422309
0.88809 0.911803 0.438239
0.924697 0.912505 0.461616
0.947082 0.911025 0.478126
0.957336 0.911116 0.488045
0.9608 0.908736 0.49102
0.960723 0.905287 0.486397
0.960235 0.902571 0.480766
0.959365 0.899367 0.474556
0.958465 0.896574 0.468894
0.957977 0.893935 0.464134
0.957656 0.890867 0.460136
0.957458 0.887572 0.456016
0.375021 0.931243 0.569604
0.373663 0.931517 0.567712
0.370474 0.932296 0.565759
0.366461 0.933272 0.563882
0.362432 0.934249 0.561471
0.359091 0.934981 0.559075
0.356924 0.935317 0.55639
0.355505 0.935332 0.552834
0.354269 0.935073 0.549004
0.352605 0.93463 0.543709
0.349981 0.933761 0.537163
0.346151 0.932143 0.527581
0.341176 0.929412 0.513909
0.336263 0.926101 0.496681
0.332631 0.921462 0.469383
0.370459 0.919005 0.424216
0.470726 0.915908 0.403174
0.636271 0.913634 0.439841
0.713436 0.912856 0.46244
0.772793 0.913268 0.468238
0.830732 0.915953 0.470024
0.88394 0.925948 0.480064
0.919142 0.933532 0.500053
0.943252 0.933272 0.518425
0.957214 0.934325 0.534722
0.961761 0.934478 0.541833
0.96202 0.932998 0.538949
0.961074 0.931228 0.531579
0.960327 0.929503 0.524498
0.959381 0.927443 0.517403
0.958556 0.92517 0.510628
0.958282 0.922957 0.505714
0.958251 0.920699 0.501808
0.363836 0.935195 0.576074
0.364889 0.934722 0.574548
0.364935 0.934554 0.572641
0.363821 0.934722 0.570413
0.361776 0.935134 0.567941
0.359625 0.935531 0.565576
0.357931 0.935775 0.562768
0.356756 0.93576 0.559411
0.355673 0.935561 0.555154
0.354223 0.93521 0.549691
0.351873 0.934646 0.542702
0.348592 0.93341 0.534264
0.343374 0.93106 0.521538
0.338781 0.92781 0.503487
0.332021 0.923735 0.481865
0.354498 0.92134 0.442039
0.41976 0.920256 0.40824
0.575418 0.919829 0.434363
0.693233 0.920272 0.472297
0.760555 0.922591 0.493172
0.81796 0.925063 0.50399
0.874144 0.931273 0.515145
0.917372 0.941482 0.535698
0.939818 0.944747 0.554147
0.955398 0.946105 0.574777
0.963592 0.948211 0.59443
0.964828 0.948013 0.596918
0.964004 0.947143 0.588602
0.96289 0.945846 0.579049
0.961822 0.944533 0.570504
0.961028 0.943221 0.563684
0.960693 0.942016 0.55845
0.960525 0.940642 0.553811
0.361181 0.936217 0.581933
0.362264 0.935851 0.580148
0.362905 0.935607 0.578134
0.362524 0.935592 0.576059
0.361135 0.935775 0.57406
0.359503 0.93608 0.571389
0.35819 0.936233 0.56849
0.357321 0.936202 0.565133
0.356878 0.935882 0.560876
0.35555 0.935607 0.5552
0.353475 0.935195 0.548089
0.350027 0.934295 0.53933
0.345144 0.932479 0.527413
0.340291 0.929442 0.510643
0.333272 0.925658 0.49073
0.343435 0.92256 0.456611
0.383932 0.920882 0.410559
0.513283 0.920684 0.418906
0.662028 0.920439 0.460319
0.737957 0.922499 0.487297
0.799023 0.925292 0.50251
0.856107 0.929946 0.517525
0.905867 0.939239 0.540246
0.934813 0.945922 0.566476
0.951278 0.948287 0.588037
0.96228 0.951614 0.615808
0.96614 0.953368 0.638621
0.965713 0.953521 0.642145
0.964904 0.953262 0.634501
0.964126 0.953079 0.627207
0.963439 0.952605 0.620615
0.963027 0.952071 0.615549
0.962844 0.951446 0.610758
0.361608 0.93637 0.586938
0.362173 0.93611 0.585
0.362478 0.935897 0.583093
0.361929 0.935973 0.580957
0.360586 0.936278 0.5785
0.358984 0.936599 0.57615
0.357885 0.936706 0.573663
0.357366 0.936614 0.57023
0.35697 0.936355 0.565652
0.356252 0.935988 0.560098
0.354742 0.935576 0.55285
0.351827 0.934951 0.544182
0.347356 0.933547 0.533425
0.341482 0.930907 0.517662
0.335302 0.927443 0.497902
0.336019 0.923735 0.469169
0.367269 0.921813 0.423835
0.458976 0.92108 0.409522
0.624475 0.920882 0.446967
0.71284 0.922362 0.480308
0.776669 0.925155 0.496498
0.834684 0.928588 0.510781
0.889448 0.936278 0.529747
0.927153 0.945495 0.557397
0.946899 0.948363 0.580514
0.959289 0.950591 0.60412
0.96556 0.953414 0.63389
0.965927 0.954299 0.649622
0.965255 0.954665 0.648615
0.96463 0.954971 0.646616
0.964141 0.955169 0.644648
0.963912 0.955261 0.643488
0.963867 0.955261 0.642969
0.361791 0.936522 0.591196
0.362081 0.936339 0.589364
0.362219 0.936202 0.587259
0.361593 0.936278 0.584939
0.359991 0.936584 0.582712
0.358114 0.937011 0.580179
0.356817 0.937285 0.577432
0.356176 0.937301 0.574533
0.355993 0.937011 0.570108
0.355871 0.936568 0.564523
0.355032 0.936049 0.557687
0.352956 0.935454 0.548928
0.348898 0.934325 0.538186
0.343069 0.932204 0.524102
0.337224 0.929 0.504662
0.332647 0.925185 0.479912
0.353735 0.922545 0.438773
0.418723 0.921386 0.408392
0.566155 0.921233 0.430945
0.683314 0.922133 0.469383
0.753002 0.92462 0.490303
0.812482 0.92755 0.504845
0.869902 0.933028 0.520119
0.916609 0.944183 0.546166
0.941863 0.949279 0.574411
0.95523 0.949676 0.592096
