bundles/resolve-cinematic-luts/Phantom Luts/Fx6 Phntm Film LUTs-G5/VisionTeal Fx6-Legacy.cube
TITLE "Generated by Resolve"
LUT_3D_SIZE 33
0.0235294 0.0434272 0.0415656
0.0235294 0.0434272 0.0415656
0.0236667 0.0433356 0.0414435
0.0261082 0.0434882 0.041474
0.0329747 0.0440833 0.0421149
0.0416419 0.0437629 0.0422065
0.0534981 0.0443732 0.0416724
0.0710002 0.0432288 0.0399786
0.0931563 0.0422217 0.0382696
0.117891 0.0413672 0.0361181
0.151171 0.0412146 0.0346838
0.19118 0.0404212 0.0323644
0.232868 0.0399939 0.0323949
0.278416 0.040589 0.0322881
0.327428 0.0402075 0.0344549
0.373297 0.0412909 0.0383612
0.418265 0.0436255 0.0442969
0.459724 0.0489509 0.0534524
0.503914 0.0408026 0.0607919
0.547265 0.047715 0.0840925
0.610666 0.06421 0.12314
0.666346 0.0808881 0.174884
0.686061 0.0864576 0.197345
0.686534 0.0866865 0.204089
0.686412 0.0868238 0.207996
0.686046 0.0868238 0.212711
0.685863 0.0869001 0.215061
0.685695 0.0869154 0.216693
0.68574 0.0869917 0.218219
0.685969 0.0871443 0.219425
0.686397 0.0874495 0.220798
0.686793 0.0877546 0.221607
0.687221 0.0879377 0.220279
0.0238651 0.0433356 0.041474
0.0236057 0.0434119 0.0415503
0.0236362 0.0434577 0.0415808
0.0260471 0.043534 0.0414893
0.0327153 0.0443275 0.0421607
0.040528 0.0442359 0.0422827
0.052903 0.0451057 0.0419471
0.0710307 0.0436255 0.0401007
0.0936751 0.0427405 0.0390784
0.119951 0.0417029 0.0364996
0.153048 0.0416724 0.0350652
0.194537 0.0408789 0.032578
0.236606 0.0399939 0.0319677
0.281102 0.0404822 0.0310521
0.328054 0.0415503 0.0341497
0.376181 0.0421454 0.0367437
0.42182 0.0439155 0.0437018
0.46183 0.0510109 0.0534371
0.50457 0.0436103 0.0600595
0.54786 0.0476692 0.0831311
0.612375 0.0645609 0.121477
0.663478 0.0798199 0.160693
0.681758 0.0851453 0.181811
0.686793 0.086717 0.199634
0.686671 0.086717 0.204944
0.686519 0.0868544 0.207874
0.686381 0.0869001 0.210941
0.686213 0.0868544 0.212619
0.68632 0.0869764 0.213642
0.686534 0.0871595 0.214786
0.686915 0.0875257 0.215625
0.68719 0.0877241 0.215473
0.687572 0.0878309 0.214374
0.0239872 0.0434272 0.0415198
0.0236667 0.0435492 0.0415961
0.0236362 0.0434882 0.0415808
0.0246128 0.0435035 0.0411688
0.0305638 0.0446174 0.0419013
0.0377356 0.0449683 0.0421149
0.0499733 0.0460517 0.0421912
0.0681926 0.0448768 0.0406348
0.0926223 0.0437629 0.0396887
0.119051 0.0428779 0.0375677
0.152834 0.0424506 0.0357671
0.195026 0.0414282 0.0332036
0.239033 0.0410925 0.0327306
0.285222 0.0414893 0.0327153
0.330053 0.0418708 0.0327001
0.378241 0.0424659 0.035584
0.423819 0.0447242 0.0414282
0.466331 0.0456397 0.050721
0.505913 0.046067 0.0599985
0.547875 0.0475929 0.0811475
0.613504 0.0648661 0.119768
0.662684 0.0793927 0.154726
0.680385 0.0846418 0.176287
0.686717 0.0866102 0.18706
0.686915 0.0867781 0.20029
0.686809 0.0867781 0.204196
0.686748 0.0868238 0.206043
0.686748 0.0868696 0.207111
0.686885 0.0869917 0.207553
0.686885 0.087068 0.208347
0.687007 0.0871901 0.208667
0.687404 0.0874037 0.20885
0.687831 0.08748 0.207752
0.0240635 0.0486915 0.041413
0.0235752 0.0479896 0.0408789
0.024567 0.0468452 0.0411688
0.0257267 0.0464179 0.041413
0.0292973 0.0462501 0.0418555
0.0346532 0.0464637 0.0420386
0.0458991 0.0474098 0.0425727
0.0639353 0.0465248 0.0415961
0.090074 0.0455634 0.0404517
0.117754 0.0443732 0.0387121
0.152056 0.0432898 0.0362554
0.195422 0.0418402 0.0333562
0.24004 0.0417182 0.0328374
0.28687 0.0421454 0.0329747
0.332738 0.0426184 0.0336614
0.378546 0.04448 0.0353094
0.425757 0.0447852 0.0400244
0.468757 0.0461585 0.049836
0.508476 0.045594 0.0590524
0.54995 0.048249 0.0779736
0.612955 0.0645457 0.115526
0.662531 0.0792248 0.150103
0.678523 0.0839399 0.170626
0.681453 0.0849012 0.177096
0.684352 0.0859693 0.18436
0.686442 0.0865797 0.197848
0.687037 0.0868391 0.200031
0.68716 0.0869001 0.201282
0.686549 0.0866865 0.200656
0.686397 0.0866865 0.201389
0.686946 0.0869612 0.202594
0.687587 0.0872053 0.203235
0.685512 0.0865187 0.198016
0.0245823 0.0566567 0.0420539
0.0242618 0.0554971 0.0415198
0.0254673 0.0538338 0.0412146
0.0278782 0.052491 0.0418097
0.0324559 0.0527047 0.0426947
0.0376135 0.0524758 0.0437629
0.0468452 0.051667 0.043122
0.0649729 0.0509651 0.042771
0.0885176 0.0483101 0.0411841
0.118486 0.0463722 0.0393835
0.15256 0.0451209 0.0372625
0.197955 0.0433509 0.0342565
0.240711 0.0435645 0.0328985
0.287694 0.0426947 0.0329442
0.333974 0.0432441 0.0326696
0.379919 0.0451209 0.0345312
0.42887 0.0472114 0.0403143
0.470802 0.0469215 0.047303
0.509056 0.048188 0.0581216
0.551156 0.0485237 0.0739452
0.612726 0.0645457 0.111498
0.660578 0.0783398 0.144656
0.676188 0.0829328 0.159518
0.678187 0.0836957 0.166964
0.681926 0.084947 0.174838
0.686244 0.0864424 0.18201
0.686351 0.0865034 0.191623
0.685725 0.0863203 0.191073
0.685588 0.0862898 0.191272
0.686046 0.0864729 0.192172
0.686015 0.0865339 0.192004
0.684474 0.086244 0.189471
0.681849 0.0854505 0.184909
0.0247654 0.067277 0.0432136
0.0243687 0.0657054 0.0419013
0.0253147 0.0638285 0.0416266
0.0290379 0.0610208 0.0425727
0.032578 0.0601053 0.0432898
0.0397192 0.0606088 0.0441901
0.0497749 0.0599069 0.0451972
0.0674907 0.0581521 0.0432593
0.0869917 0.0547799 0.0429084
0.116609 0.0532692 0.0404517
0.155093 0.0506752 0.0380102
0.202304 0.0458076 0.0349126
0.243687 0.0449531 0.0335851
0.290455 0.0440375 0.0336461
0.338186 0.0449683 0.0343481
0.383169 0.046479 0.0354772
0.430732 0.0483711 0.0391852
0.472908 0.0484932 0.046128
0.511574 0.0494392 0.0558785
0.548211 0.0484321 0.0681773
0.609751 0.0636912 0.104753
0.658625 0.0777752 0.136568
0.673045 0.0822309 0.149676
0.675059 0.0823224 0.156481
0.676448 0.0829633 0.15993
0.67805 0.0836194 0.161715
0.678126 0.0836347 0.163363
0.682994 0.0853742 0.177752
0.682933 0.0853895 0.178653
0.682063 0.0851453 0.177142
0.680415 0.0847334 0.175494
0.678569 0.0841535 0.172992
0.676158 0.0833906 0.167575
0.0251316 0.0807507 0.0451514
0.024506 0.078706 0.0429847
0.0248112 0.0769055 0.0419928
0.0290837 0.0733654 0.0425422
0.0324102 0.0717327 0.0436866
0.0394598 0.0719921 0.0453498
0.0525978 0.0724804 0.0463874
0.0675212 0.0715496 0.0446326
0.0896468 0.0670787 0.0431525
0.113359 0.0621958 0.0419165
0.155993 0.0583505 0.0387121
0.20383 0.0550546 0.0354772
0.256809 0.0511025 0.0340887
0.294713 0.0465705 0.0332494
0.342702 0.0469368 0.0347906
0.388205 0.0481422 0.0361028
0.434607 0.0509804 0.0398871
0.477699 0.0504158 0.0450446
0.512001 0.0500954 0.0526894
0.547021 0.0536049 0.0662394
0.603632 0.0609598 0.0938888
0.655085 0.0771649 0.12752
0.667216 0.0800488 0.137163
0.670176 0.0812238 0.142916
0.672038 0.0818952 0.146136
0.672694 0.0820478 0.147097
0.67277 0.0820935 0.147478
0.672404 0.0819562 0.147158
0.67599 0.0827192 0.156359
0.67538 0.0824445 0.154513
0.673884 0.0822919 0.151995
0.670909 0.0818341 0.147982
0.667765 0.0806287 0.143282
0.0268254 0.096376 0.0471656
0.0258183 0.094789 0.0450294
0.0252689 0.093431 0.0433356
0.0276036 0.09131 0.0416876
0.0319677 0.0888685 0.0435035
0.0390784 0.0871748 0.0468605
0.052018 0.0863966 0.0487984
0.0688334 0.0873121 0.0473945
0.0876631 0.0855116 0.0432593
0.115389 0.080354 0.0432593
0.152102 0.0705119 0.0413672
0.200763 0.0639048 0.0374304
0.255573 0.0608072 0.035996
0.307362 0.0582589 0.0352636
0.351568 0.0538338 0.0354314
0.391943 0.0508278 0.0369116
0.438529 0.0531014 0.0402533
0.483085 0.0543984 0.0463722
0.520211 0.0527352 0.0529335
0.549599 0.0527199 0.0617685
0.593835 0.0615549 0.0835279
0.649607 0.0738384 0.114992
0.659632 0.0776074 0.122286
0.661738 0.0780957 0.126192
0.663645 0.0789807 0.129335
0.664469 0.0791028 0.128893
0.664759 0.0791943 0.129213
0.663066 0.0788128 0.128374
0.662013 0.0782177 0.125429
0.665324 0.079469 0.132464
0.66273 0.0788128 0.129519
0.660502 0.0780499 0.126055
0.657511 0.0775006 0.122728
0.0274815 0.114946 0.0498665
0.0264286 0.113313 0.0480659
0.0253605 0.111727 0.0446784
0.0261997 0.110552 0.0426642
0.0334478 0.107607 0.0453956
0.0385138 0.10544 0.0470283
0.0505837 0.104799 0.0522316
0.0673991 0.103624 0.052781
0.087602 0.105653 0.0471504
0.114534 0.101656 0.0428168
0.150835 0.0937667 0.0425422
0.205921 0.076936 0.0401923
0.24921 0.07364 0.038529
0.312673 0.0722362 0.038468
0.362493 0.0717937 0.0390326
0.417517 0.0700847 0.0414893
0.446693 0.0599527 0.0424506
0.488838 0.0590372 0.0473793
0.528542 0.0585336 0.0548104
0.559869 0.055024 0.0624704
0.591699 0.057496 0.0772259
0.642664 0.0708934 0.102434
0.647974 0.0742504 0.105715
0.653559 0.075227 0.112154
0.654871 0.075227 0.114397
0.651621 0.0711833 0.110048
0.647974 0.0707866 0.106401
0.648463 0.0733654 0.105608
0.648096 0.0741588 0.103716
0.65243 0.0740673 0.107744
0.651804 0.0730144 0.108659
0.650095 0.0707713 0.107683
0.647623 0.0689708 0.106065
0.0267185 0.139528 0.0540932
0.0252689 0.137774 0.0506752
0.0254673 0.136202 0.0483406
0.0269169 0.133989 0.0460059
0.0320287 0.132235 0.0456092
0.0370489 0.130037 0.0463874
0.0459297 0.127947 0.051194
0.0622873 0.127626 0.0567025
0.084947 0.125399 0.0561074
0.108553 0.128206 0.0462348
0.150225 0.122255 0.0426337
0.200885 0.111345 0.0441138
0.262318 0.0912642 0.0423438
0.306615 0.0905928 0.0415198
0.374426 0.0927596 0.0451362
0.430411 0.0972152 0.0498207
0.492699 0.101396 0.0587472
0.523415 0.0894179 0.0599985
0.545586 0.0749371 0.0615702
0.574304 0.066041 0.0669718
0.596277 0.0580911 0.0738231
0.637476 0.068574 0.0947433
0.644083 0.0693217 0.0978408
0.643809 0.0690471 0.0976272
0.642817 0.0681926 0.0967727
0.642069 0.0688487 0.0961929
0.642115 0.0687572 0.0959487
0.642298 0.0686198 0.0957656
0.644892 0.0686046 0.0970321
0.643824 0.0664225 0.0951858
0.642206 0.0639658 0.093019
0.639918 0.0624247 0.0920577
0.642298 0.0613107 0.0923934
0.0220493 0.175143 0.0547951
0.0216831 0.172717 0.0527352
0.0208133 0.170382 0.0497749
0.0242618 0.167742 0.0491493
0.0256809 0.164645 0.0458076
0.0311894 0.162951 0.04477
0.0399329 0.161166 0.0474708
0.0549783 0.159548 0.0534218
0.07776 0.159854 0.0603799
0.105318 0.157824 0.0601053
0.138277 0.162722 0.0444953
0.20354 0.154391 0.0437018
0.263493 0.146319 0.049897
0.327565 0.12192 0.0522469
0.375753 0.122988 0.0548409
0.445212 0.132509 0.0632181
0.507942 0.139178 0.0712902
0.562768 0.142412 0.0792096
0.606638 0.130129 0.0856031
0.622736 0.104433 0.0842451
0.630304 0.082826 0.083711
0.645731 0.071458 0.0910811
0.643702 0.0666972 0.0912947
0.641047 0.0666056 0.091722
0.640833 0.0662547 0.0914168
0.640833 0.0657664 0.0909895
0.640604 0.0650797 0.0901656
0.64654 0.0684825 0.0918135
0.652705 0.0697337 0.0924086
0.655451 0.0694896 0.0923323
0.65655 0.0682689 0.0912947
0.649927 0.0626535 0.0891585
0.65005 0.0601205 0.0890059
0.0295109 0.22356 0.0693828
0.0284276 0.220478 0.0669718
0.0272984 0.218662 0.0645151
0.0270848 0.215381 0.0608835
0.0266728 0.210391 0.0551766
0.0269627 0.206317 0.0484169
0.0346075 0.204929 0.0472267
0.0485695 0.203723 0.0509194
0.0707408 0.204852 0.0583963
0.100923 0.207843 0.0697795
0.140627 0.207874 0.0687572
0.191043 0.213199 0.0463111
0.266865 0.206546 0.0491646
0.328222 0.20058 0.0566567
0.394186 0.176379 0.0691386
0.445487 0.171572 0.0714885
0.505623 0.178698 0.0783551
0.572946 0.188602 0.0882429
0.626657 0.192172 0.0963149
0.684306 0.184436 0.107515
0.710185 0.153475 0.111009
0.715084 0.122332 0.111009
0.697185 0.09897 0.103777
0.686503 0.0905013 0.100175
0.680079 0.0854658 0.0986343
0.682475 0.0845197 0.0982376
0.683345 0.0838026 0.0975052
0.683207 0.0822919 0.0962844
0.680827 0.0791791 0.0943313
0.686824 0.0881056 0.0990005
0.701518 0.103166 0.107073
0.717189 0.11725 0.114107
0.727672 0.122896 0.118608
0.0406348 0.283406 0.0902419
0.0392615 0.281209 0.0879377
0.0379797 0.279057 0.0857099
0.0375982 0.277424 0.0827344
0.0371099 0.273213 0.0777295
0.0370336 0.268727 0.0716106
0.0379034 0.26331 0.0623636
0.05066 0.262135 0.0602274
0.0688945 0.259541 0.0632334
0.0966964 0.262135 0.0731365
0.137316 0.2645 0.0865187
0.191363 0.261204 0.0785992
0.247379 0.267369 0.0504463
0.331243 0.262226 0.0577859
0.391577 0.26067 0.0661479
0.455512 0.241596 0.0833448
0.512398 0.234348 0.0934005
0.562966 0.234043 0.0974441
0.633173 0.244663 0.109667
0.694041 0.250309 0.11928
0.744976 0.24567 0.127855
0.778302 0.220111 0.134874
0.786313 0.191516 0.134203
0.782101 0.178683 0.132219
0.774548 0.169039 0.128161
0.770001 0.159487 0.129946
0.764614 0.154147 0.128145
0.766308 0.156878 0.129503
0.772717 0.163394 0.132219
0.778988 0.172839 0.131975
0.788617 0.181628 0.134615
0.790967 0.18996 0.135897
0.793179 0.200885 0.139193
0.0562142 0.34522 0.114199
0.0539101 0.343206 0.111452
0.0519875 0.341283 0.108339
0.0512245 0.339849 0.10695
0.0504463 0.336873 0.103517
0.0490883 0.333776 0.0986038
0.0496529 0.328161 0.0899062
0.050782 0.320531 0.0764019
0.0699931 0.317662 0.0714733
0.0922713 0.315068 0.0772412
0.130953 0.31841 0.090135
0.191043 0.319066 0.104677
0.247684 0.316396 0.0873274
0.303838 0.319768 0.0608225
0.39408 0.321691 0.07187
0.453788 0.323949 0.0805219
0.517006 0.311086 0.0994583
0.577722 0.302098 0.118715
0.62002 0.301762 0.124849
0.68896 0.304616 0.136202
0.752255 0.312428 0.149783
0.790631 0.311452 0.157946
0.813489 0.299947 0.163867
0.813535 0.291081 0.160479
0.812589 0.282536 0.158526
0.811093 0.275776 0.156573
0.808621 0.270375 0.153994
0.807706 0.265812 0.152834
0.806714 0.263066 0.15172
0.807218 0.265843 0.152438
0.809415 0.274937 0.155352
0.812253 0.284001 0.158312
0.814389 0.295216 0.161334
0.074464 0.407965 0.146075
0.071931 0.406546 0.143542
0.0706035 0.403952 0.139757
0.069398 0.401846 0.13669
0.068513 0.401114 0.135195
0.0672923 0.398611 0.131212
0.0663767 0.393545 0.123842
0.0667887 0.387289 0.11162
0.0688792 0.377539 0.0930037
0.0944991 0.372854 0.0867781
0.122545 0.370855 0.0949874
0.184344 0.371695 0.111498
0.252094 0.372595 0.125856
0.31014 0.371557 0.0969253
0.363989 0.375402 0.0780804
0.455451 0.380606 0.0897231
0.515404 0.385626 0.100649
0.575738 0.380209 0.119814
0.640772 0.369848 0.145449
0.678935 0.371283 0.158587
0.739651 0.365988 0.171542
0.791852 0.375296 0.189563
0.814725 0.37113 0.195331
0.814664 0.366308 0.192004
0.814923 0.362692 0.190249
0.814939 0.359976 0.18912
0.81442 0.357885 0.187457
0.814694 0.355978 0.187152
0.814588 0.353704 0.186053
0.814771 0.351583 0.184619
0.815045 0.347646 0.182986
0.815579 0.351049 0.184955
0.816358 0.355642 0.188373
0.0973526 0.471824 0.193042
0.0957198 0.470237 0.189731
0.093904 0.46804 0.186282
0.0927749 0.466361 0.182025
0.0914168 0.464485 0.178317
0.0902266 0.462974 0.175738
0.0893721 0.460304 0.170321
0.089189 0.454597 0.157366
0.0893111 0.446006 0.137774
0.0926986 0.433234 0.110124
0.124056 0.427054 0.106371
0.173342 0.425528 0.119966
0.249409 0.425376 0.140764
0.315953 0.426383 0.148547
0.372961 0.426307 0.110155
0.427527 0.432975 0.096376
0.517449 0.441093 0.112978
0.57525 0.447776 0.12546
0.633066 0.449226 0.145525
0.697536 0.437369 0.178317
0.740887 0.438148 0.196292
0.781079 0.437385 0.215778
0.812985 0.43679 0.224582
0.81825 0.43389 0.225406
0.817655 0.43151 0.22385
0.817441 0.429938 0.223407
0.81767 0.428199 0.223255
0.817777 0.426596 0.222766
0.81767 0.424247 0.22208
0.817563 0.421469 0.220768
0.817288 0.417395 0.218616
0.817929 0.413306 0.216892
0.81825 0.410285 0.215763
0.12285 0.538689 0.245014
0.120699 0.537865 0.242679
0.118578 0.535485 0.239048
0.117021 0.533547 0.235477
0.116548 0.532174 0.231693
0.115663 0.529915 0.228458
0.114046 0.52723 0.224277
0.113588 0.524254 0.218021
0.113848 0.51574 0.200259
0.115572 0.505516 0.171862
0.120073 0.489967 0.132906
0.171695 0.481254 0.133852
0.243656 0.478431 0.15433
0.319173 0.479301 0.180697
0.378241 0.481178 0.175082
0.432258 0.483177 0.13228
0.488685 0.49218 0.120378
0.575463 0.50248 0.140826
0.632578 0.510155 0.156695
0.689006 0.516732 0.175982
0.747417 0.506889 0.2112
0.791608 0.50869 0.235019
0.816114 0.51107 0.245441
0.82475 0.510872 0.248798
0.826032 0.50901 0.249287
0.825452 0.506554 0.248631
0.824933 0.504112 0.248127
0.824445 0.502159 0.247623
0.824247 0.500374 0.247333
0.824674 0.498146 0.247639
0.82356 0.493187 0.246632
0.823224 0.486549 0.246586
0.821775 0.476295 0.2448
0.151308 0.606531 0.297169
0.149783 0.605539 0.294942
0.147677 0.603998 0.292638
0.14583 0.60209 0.289128
0.144747 0.599802 0.285588
0.14432 0.59762 0.281849
0.143847 0.595514 0.278172
0.142855 0.59234 0.273594
0.142412 0.587533 0.264652
0.143832 0.576379 0.241505
0.144945 0.562066 0.206882
0.161318 0.545235 0.162661
0.2392 0.532708 0.171817
0.317937 0.532189 0.199252
0.387427 0.534279 0.220356
0.439155 0.5364 0.201785
0.491081 0.540352 0.157504
0.545281 0.551553 0.147753
0.629633 0.562097 0.171542
0.686488 0.570657 0.19472
0.740337 0.580606 0.213352
0.786557 0.578119 0.240925
0.821149 0.578714 0.262608
0.834852 0.581125 0.271046
0.835691 0.580652 0.270863
0.83592 0.578561 0.270649
0.835737 0.576333 0.269947
0.834989 0.574182 0.268559
0.834989 0.572824 0.268254
0.835508 0.570291 0.268162
0.834241 0.565835 0.265888
0.83473 0.560494 0.264836
0.833417 0.550973 0.261982
0.184497 0.674723 0.348363
0.181949 0.673243 0.345647
0.178927 0.67245 0.343847
0.176623 0.671305 0.34168
0.176257 0.670039 0.339422
0.175784 0.667552 0.335805
0.175891 0.664042 0.330434
0.176486 0.660975 0.324773
0.175937 0.657053 0.319036
0.176211 0.649973 0.305653
0.178759 0.635966 0.277119
0.183688 0.6168 0.233585
0.22211 0.596765 0.197055
0.317388 0.58645 0.217334
0.390784 0.58674 0.240131
0.448997 0.590173 0.253422
0.498909 0.591501 0.226261
0.547646 0.597711 0.190158
0.597971 0.610834 0.183642
0.678645 0.620188 0.207279
0.734279 0.630167 0.230716
0.777844 0.639811 0.248402
0.813733 0.645594 0.264958
0.834943 0.645563 0.281483
0.840543 0.642557 0.286305
0.840131 0.641215 0.285313
0.840177 0.639017 0.28484
0.840162 0.637842 0.284535
0.840604 0.635981 0.284504
0.840467 0.633036 0.284016
0.839612 0.628565 0.282902
0.840299 0.623011 0.283116
0.839765 0.614099 0.281483
0.224262 0.739956 0.396353
0.222492 0.73933 0.394842
0.219715 0.739315 0.393988
0.2177 0.738445 0.39237
0.215885 0.73666 0.389471
0.215259 0.734707 0.386603
0.215228 0.732677 0.382101
0.215625 0.72842 0.376089
0.215122 0.7243 0.368246
0.215869 0.719951 0.361135
0.216175 0.710323 0.342382
0.218814 0.693141 0.305394
0.231052 0.669779 0.256382
0.296437 0.648524 0.236347
0.394965 0.641215 0.262348
0.457252 0.642145 0.280964
0.506966 0.644495 0.284413
0.55404 0.645655 0.255665
0.599985 0.653483 0.226123
0.646372 0.668254 0.224506
0.724834 0.676555 0.244541
0.771313 0.688411 0.268055
0.804623 0.696452 0.28365
0.828748 0.70132 0.294514
0.839078 0.699947 0.300175
0.841169 0.697246 0.301259
0.841428 0.695338 0.300282
0.840833 0.693553 0.298497
0.840772 0.691493 0.297292
0.841505 0.689174 0.296254
0.841703 0.685466 0.294957
0.841917 0.679911 0.293004
0.841382 0.671183 0.289921
0.268574 0.795544 0.446326
0.266224 0.795605 0.444785
0.263615 0.795727 0.443641
0.261723 0.794934 0.441535
0.259159 0.794202 0.439918
0.258656 0.793164 0.437705
0.257588 0.790951 0.433585
0.256397 0.788296 0.427771
0.256748 0.784405 0.42089
0.25568 0.779614 0.411597
0.255406 0.77377 0.400839
0.25626 0.761273 0.375097
0.261799 0.740963 0.330541
0.28751 0.718502 0.284779
0.384314 0.694148 0.282063
0.462104 0.690166 0.304479
0.516869 0.691173 0.320104
0.558556 0.692271 0.314382
0.605417 0.694942 0.288289
0.650629 0.705211 0.264439
0.697581 0.723995 0.266499
0.760449 0.729366 0.284779
0.796643 0.740078 0.303914
0.821408 0.746746 0.316655
0.834516 0.748119 0.324742
0.837613 0.746868 0.326543
0.83798 0.74461 0.326207
0.838346 0.742855 0.325261
0.838788 0.741115 0.324163
0.838788 0.738415 0.322652
0.838804 0.735195 0.320317
0.839353 0.730724 0.318059
0.840009 0.722942 0.3131
0.311849 0.835081 0.489784
0.310658 0.834882 0.48806
0.307881 0.834485 0.486229
0.305409 0.83389 0.483787
0.303532 0.832868 0.481514
0.302373 0.832334 0.479774
0.301488 0.831403 0.476753
0.299931 0.829206 0.472023
0.298039 0.82533 0.464118
0.297993 0.821454 0.45539
0.295796 0.815946 0.444221
0.295323 0.808789 0.429068
0.300603 0.794278 0.395758
0.310964 0.772793 0.347478
0.357122 0.748409 0.311543
0.464561 0.730114 0.32578
0.524712 0.728298 0.343999
0.569467 0.730632 0.35314
0.607446 0.731929 0.342229
0.654246 0.737316 0.31957
0.701503 0.750759 0.302281
0.743069 0.768124 0.310002
0.78999 0.771389 0.326284
0.816526 0.778637 0.339696
0.830655 0.782773 0.348379
0.834333 0.782773 0.352148
0.83415 0.781292 0.351812
0.833982 0.779919 0.350881
0.83418 0.778439 0.349584
0.834623 0.776623 0.347417
0.835096 0.774395 0.344945
0.835096 0.770932 0.342687
0.836606 0.764218 0.337926
0.324224 0.854261 0.512322
0.32462 0.853819 0.511223
0.325383 0.853193 0.50985
0.32549 0.852766 0.508537
0.325048 0.852308 0.507591
0.324147 0.851606 0.504829
0.32314 0.850278 0.501717
0.322606 0.84863 0.497215
0.322377 0.846159 0.491615
0.320928 0.843122 0.48275
0.32018 0.838361 0.472251
0.318776 0.834516 0.461189
0.324239 0.826154 0.440726
0.335973 0.809491 0.403754
0.362036 0.788525 0.362448
0.437125 0.764477 0.345617
0.527047 0.757168 0.365484
0.575982 0.758862 0.382849
0.613809 0.760098 0.383658
0.652018 0.763058 0.369635
0.699382 0.770932 0.349355
0.743023 0.78555 0.338506
0.776272 0.799451 0.351125
0.810468 0.800458 0.362097
0.827359 0.804944 0.370153
0.831968 0.805646 0.375402
0.831861 0.80473 0.375769
0.832105 0.803784 0.374929
0.832212 0.802625 0.373266
0.832074 0.801419 0.371664
0.832288 0.799176 0.369238
0.832547 0.796139 0.36643
0.833371 0.792081 0.361837
0.325307 0.856733 0.519615
0.323857 0.85655 0.517678
0.32192 0.856291 0.515236
0.320256 0.855833 0.512566
0.319539 0.855528 0.510811
0.321111 0.854612 0.509651
0.323568 0.852857 0.507652
0.323308 0.850767 0.502647
0.322332 0.848478 0.496757
0.321782 0.84538 0.488853
0.320241 0.840421 0.47689
0.319615 0.836133 0.4654
0.321279 0.828916 0.44715
0.33727 0.817075 0.418662
0.363165 0.802457 0.387778
0.426154 0.783856 0.371664
0.513954 0.771878 0.381888
0.575555 0.771893 0.402426
0.615335 0.774807 0.412146
0.650919 0.776898 0.40734
0.690654 0.780621 0.393088
0.736553 0.791775 0.372351
0.771771 0.806882 0.367224
0.795575 0.809918 0.38117
0.820829 0.817578 0.391775
0.827848 0.819593 0.398383
0.828809 0.819257 0.399344
0.828916 0.818479 0.398169
0.829038 0.817639 0.395666
0.829129 0.816815 0.393469
0.829435 0.815549 0.391226
0.830091 0.813886 0.389075
0.830076 0.81088 0.384405
0.328008 0.8598 0.52755
0.326207 0.859113 0.525078
0.323857 0.85861 0.522393
0.321965 0.857893 0.519661
0.32047 0.857603 0.517388
0.319173 0.856764 0.513909
0.319387 0.855451 0.510155
0.322972 0.853071 0.507744
0.322911 0.850172 0.501122
0.322072 0.846738 0.493141
0.320653 0.842695 0.481926
0.320668 0.837308 0.469154
0.319585 0.830442 0.451743
0.334127 0.819059 0.424216
0.358434 0.804715 0.390951
0.414969 0.786694 0.371572
0.502968 0.772534 0.379339
0.570062 0.772076 0.400977
0.611078 0.775799 0.414237
0.646983 0.778592 0.413108
0.684245 0.781628 0.403647
0.728573 0.790555 0.386267
0.766232 0.805158 0.379614
0.789502 0.8121 0.390433
0.813153 0.816571 0.398901
0.825895 0.821088 0.411093
0.828473 0.822309 0.420661
0.828443 0.822217 0.422065
0.828611 0.822003 0.419837
0.828656 0.82179 0.417563
0.828443 0.821408 0.415366
0.82829 0.82089 0.412024
0.828351 0.82031 0.407858
0.329458 0.861433 0.533669
0.328084 0.861173 0.531167
0.326406 0.860777 0.52845
0.324254 0.860243 0.525841
0.322683 0.859281 0.523049
0.320516 0.858198 0.519158
0.319219 0.857008 0.514717
0.320226 0.855085 0.509743
0.323659 0.851957 0.505287
0.32224 0.848676 0.497063
0.321736 0.844785 0.486778
0.320668 0.838331 0.472023
0.31928 0.832547 0.456291
0.332494 0.821439 0.430411
0.353368 0.807401 0.39501
0.403983 0.789456 0.372717
0.494102 0.773632 0.377981
0.565148 0.772091 0.399207
0.606561 0.775219 0.413367
0.643534 0.778393 0.414359
0.678935 0.781567 0.405768
0.721706 0.788952 0.390631
0.762112 0.803281 0.382025
0.788937 0.814221 0.389425
0.808392 0.815747 0.398184
0.824125 0.8206 0.409033
0.828046 0.822522 0.423438
0.827756 0.82298 0.429541
0.827771 0.822965 0.428901
0.827787 0.822889 0.428
0.827848 0.822828 0.426871
0.827878 0.822812 0.426184
0.827909 0.822812 0.425635
0.330358 0.862943 0.538491
0.328908 0.862715 0.535988
0.327199 0.862242 0.533623
0.326131 0.861891 0.5308
0.324392 0.861219 0.528054
0.32253 0.859998 0.524498
0.320195 0.858274 0.518883
0.318151 0.856596 0.512642
0.321706 0.853697 0.508583
0.322454 0.850065 0.500404
