bundles/resolve-cinematic-luts/Phantom Luts/Fx6 Phntm Film LUTs-G5/Vision Fx6.cube
TITLE "Generated by Resolve"
LUT_3D_SIZE 5
0.0222019 0.0305943 0.0222019
0.104982 0.038819 0.0269627
0.483925 0.0667582 0.0607004
0.74081 0.107301 0.274388
0.743801 0.106035 0.279423
0.0341344 0.141939 0.0577096
0.100191 0.136828 0.0370184
0.514275 0.0877394 0.055787
0.725933 0.0925154 0.145663
0.724651 0.087892 0.127733
0.16875 0.591058 0.342901
0.148577 0.570138 0.289982
0.554299 0.567391 0.133806
0.802365 0.530312 0.251911
0.799191 0.500862 0.242161
0.413825 0.836912 0.613519
0.403052 0.833997 0.59057
0.544991 0.815488 0.517968
0.826154 0.849515 0.465202
0.842969 0.847791 0.469917
0.41001 0.83917 0.626368
0.413001 0.836561 0.609262
0.421714 0.80975 0.4981
0.788357 0.850858 0.467063
0.843458 0.856107 0.496254
0.024567 0.0425116 0.0977646
0.122454 0.038941 0.104997
0.504082 0.0505989 0.177661
0.721141 0.10779 0.347036
0.727153 0.106371 0.33933
0.0264439 0.13077 0.108675
0.116304 0.130785 0.116823
0.504051 0.0466773 0.070634
0.742397 0.106661 0.275212
0.745266 0.10135 0.235264
0.157336 0.59321 0.383932
0.155428 0.574273 0.329381
0.546181 0.558602 0.13196
0.79939 0.508293 0.244419
0.798718 0.483711 0.239216
0.409735 0.839872 0.633707
0.412451 0.837491 0.613397
0.504845 0.81268 0.507301
0.821393 0.848615 0.465385
0.843183 0.843336 0.459449
0.407492 0.84184 0.644724
0.410163 0.839094 0.627466
0.396399 0.81268 0.511147
0.778668 0.848936 0.474525
0.843809 0.856779 0.500145
0.0671244 0.111604 0.483909
0.171023 0.0744335 0.469612
0.534035 0.0865187 0.478019
0.75639 0.121248 0.546563
0.728893 0.104417 0.475593
0.0405127 0.143709 0.455726
0.0707256 0.105913 0.474372
0.518013 0.0859236 0.463203
0.737392 0.107057 0.503929
0.711101 0.102831 0.439994
0.0611887 0.572106 0.569711
0.0566567 0.562371 0.559655
0.58146 0.596445 0.574533
0.878035 0.455009 0.495995
0.861112 0.43508 0.418967
0.362707 0.86508 0.751904
0.371969 0.861021 0.730465
0.478264 0.843397 0.637583
0.818357 0.85919 0.582422
0.852949 0.842115 0.551583
0.36669 0.8636 0.743633
0.376303 0.858839 0.721538
0.423377 0.841398 0.633387
0.743481 0.852613 0.573587
0.849363 0.868223 0.568246
0.115831 0.330434 0.852522
0.197711 0.28809 0.838758
0.613825 0.242969 0.798047
0.788586 0.170077 0.775631
0.78851 0.170169 0.775631
0.112673 0.339544 0.839826
0.114153 0.32137 0.845548
0.582849 0.236271 0.795102
0.788647 0.169528 0.775189
0.788586 0.170138 0.775692
0.0366064 0.564477 0.809293
0.0456855 0.552758 0.815763
0.444389 0.496132 0.865675
0.836973 0.34107 0.809476
0.813275 0.235843 0.770077
0.395071 0.864363 0.875471
0.368841 0.860121 0.870817
0.35375 0.842893 0.85005
0.85742 0.890486 0.871702
0.90309 0.859037 0.841291
0.416556 0.86865 0.876967
0.414038 0.869459 0.870069
0.413428 0.875517 0.845991
0.81117 0.920546 0.851209
0.904082 0.942138 0.882841
0.119036 0.341375 0.867079
0.21387 0.309117 0.858076
0.626398 0.259907 0.806516
0.788586 0.170138 0.775692
0.788586 0.170138 0.775692
0.115602 0.349874 0.85214
0.118914 0.341497 0.866896
0.591638 0.262455 0.810468
0.788708 0.170382 0.775784
0.788586 0.170138 0.775692
0.0703746 0.583093 0.8813
0.0785077 0.568444 0.8804
0.393988 0.482628 0.884901
0.827176 0.316579 0.812726
0.802731 0.219074 0.789578
0.294286 0.858763 0.900954
0.275608 0.850782 0.900282
0.211795 0.822751 0.898772
0.807919 0.850858 0.924071
0.90457 0.833799 0.916838
0.271992 0.868162 0.903883
0.271992 0.868162 0.903883
0.283238 0.868894 0.90396
0.735988 0.912398 0.906813
0.919264 0.953964 0.937575
