bundles/resolve-cinematic-luts/Phantom Luts/Fx6 Phntm Film LUTs-G5/VisionTeal Fx6-Legacy.cube
TITLE "Generated by Resolve"
LUT_3D_SIZE 9
0.0235294 0.0434272 0.0415656
0.0329747 0.0440833 0.0421149
0.0931563 0.0422217 0.0382696
0.232868 0.0399939 0.0323949
0.418265 0.0436255 0.0442969
0.610666 0.06421 0.12314
0.686412 0.0868238 0.207996
0.68574 0.0869917 0.218219
0.687221 0.0879377 0.220279
0.0245823 0.0566567 0.0420539
0.0324559 0.0527047 0.0426947
0.0885176 0.0483101 0.0411841
0.240711 0.0435645 0.0328985
0.42887 0.0472114 0.0403143
0.612726 0.0645457 0.111498
0.681926 0.084947 0.174838
0.685588 0.0862898 0.191272
0.681849 0.0854505 0.184909
0.0274815 0.114946 0.0498665
0.0334478 0.107607 0.0453956
0.087602 0.105653 0.0471504
0.24921 0.07364 0.038529
0.446693 0.0599527 0.0424506
0.591699 0.057496 0.0772259
0.654871 0.075227 0.114397
0.648096 0.0741588 0.103716
0.647623 0.0689708 0.106065
0.0406348 0.283406 0.0902419
0.0371099 0.273213 0.0777295
0.0688945 0.259541 0.0632334
0.247379 0.267369 0.0504463
0.512398 0.234348 0.0934005
0.744976 0.24567 0.127855
0.774548 0.169039 0.128161
0.772717 0.163394 0.132219
0.793179 0.200885 0.139193
0.12285 0.538689 0.245014
0.116548 0.532174 0.231693
0.113848 0.51574 0.200259
0.243656 0.478431 0.15433
0.488685 0.49218 0.120378
0.747417 0.506889 0.2112
0.826032 0.50901 0.249287
0.824247 0.500374 0.247333
0.821775 0.476295 0.2448
0.268574 0.795544 0.446326
0.259159 0.794202 0.439918
0.256748 0.784405 0.42089
0.261799 0.740963 0.330541
0.516869 0.691173 0.320104
0.697581 0.723995 0.266499
0.834516 0.748119 0.324742
0.838788 0.741115 0.324163
0.840009 0.722942 0.3131
0.328008 0.8598 0.52755
0.32047 0.857603 0.517388
0.322911 0.850172 0.501122
0.319585 0.830442 0.451743
0.502968 0.772534 0.379339
0.684245 0.781628 0.403647
0.813153 0.816571 0.398901
0.828611 0.822003 0.419837
0.828351 0.82031 0.407858
0.331014 0.866865 0.547448
0.327016 0.862608 0.534066
0.324788 0.853727 0.510796
0.324361 0.833997 0.463874
0.45771 0.775937 0.369039
0.665553 0.779828 0.409415
0.796902 0.812314 0.391913
0.827893 0.823011 0.428214
0.827695 0.823148 0.429053
0.331441 0.868544 0.553872
0.327688 0.865919 0.542412
0.32372 0.858701 0.522622
0.325505 0.841993 0.482811
0.377356 0.796674 0.380789
0.623575 0.776608 0.416281
0.769528 0.807187 0.382162
0.827985 0.822538 0.422614
0.827588 0.82298 0.428519
0.0221561 0.0442054 0.0473945
0.0351873 0.0441138 0.0544137
0.0979934 0.0410315 0.0626993
0.256703 0.035874 0.0607767
0.440192 0.036759 0.0770428
0.642206 0.0752728 0.191745
0.683299 0.08748 0.238666
0.682429 0.0876936 0.246479
0.686061 0.0888991 0.24152
0.0236973 0.0524147 0.0481117
0.0282597 0.0485695 0.0466926
0.090486 0.0443275 0.0433814
0.229953 0.0384375 0.0397955
0.41529 0.037232 0.0545663
0.616266 0.0677348 0.154894
0.686015 0.0875715 0.222766
0.686366 0.0879988 0.225666
0.687221 0.0876478 0.211826
0.0267948 0.113176 0.0659342
0.0256199 0.107073 0.0505379
0.0819562 0.101015 0.0487984
0.258 0.0669566 0.0388952
0.435187 0.0527962 0.0419471
0.60061 0.0619974 0.0995193
0.670558 0.0819867 0.149752
0.669886 0.0813611 0.14432
0.649226 0.0710155 0.114092
0.0325017 0.288487 0.10132
0.0347143 0.274922 0.088716
0.0450446 0.252476 0.0579995
0.239826 0.261799 0.05037
0.506706 0.223117 0.0890822
0.748928 0.230243 0.127077
0.757916 0.146975 0.126329
0.769192 0.15555 0.130358
0.791074 0.194598 0.13817
0.110567 0.543709 0.256062
0.1122 0.534203 0.244221
0.111299 0.519478 0.21828
0.219898 0.47567 0.145617
0.484276 0.488823 0.120439
0.749798 0.50132 0.212406
0.824338 0.499596 0.247532
0.823575 0.489723 0.246708
0.821469 0.463951 0.24155
0.256703 0.798383 0.452461
0.248692 0.796399 0.444083
0.252384 0.785519 0.428138
0.254643 0.745296 0.347723
0.508537 0.687251 0.316777
0.692454 0.718151 0.262013
0.834989 0.742885 0.321157
0.838972 0.734295 0.320165
0.839948 0.71574 0.309651
0.330388 0.864027 0.540642
0.325093 0.861982 0.530343
0.320928 0.854643 0.509438
0.320485 0.834989 0.462928
0.4869 0.77467 0.376745
0.67805 0.781262 0.405402
0.810162 0.815549 0.397894
0.828641 0.821546 0.417487
0.828565 0.819501 0.405188
0.333257 0.868193 0.557534
0.329885 0.867597 0.548241
0.324941 0.857816 0.521477
0.326345 0.836881 0.472679
0.439704 0.779431 0.368627
0.659617 0.778897 0.410468
0.792172 0.811017 0.3935
0.827878 0.823117 0.428992
0.827619 0.823194 0.430335
0.334157 0.869078 0.563378
0.330922 0.86894 0.554726
0.328145 0.862989 0.535851
0.325872 0.845731 0.494011
0.365896 0.801587 0.389838
0.617945 0.776516 0.416434
0.765133 0.805081 0.382422
0.828 0.822522 0.422446
0.827558 0.823072 0.429465
0.0214389 0.0521706 0.0883345
0.0352941 0.0493172 0.100908
0.0935683 0.0426032 0.110506
0.246555 0.0374304 0.112734
0.442863 0.0377966 0.134905
0.646128 0.0786145 0.256199
0.669642 0.0861372 0.288228
0.668421 0.0861372 0.294011
0.67364 0.0883345 0.289509
0.0215305 0.0524758 0.0723735
0.0215 0.0511177 0.0859541
0.0816968 0.0429389 0.10161
0.235172 0.0378882 0.0967117
0.446937 0.0379187 0.109438
0.649577 0.0787518 0.236301
0.675868 0.0870375 0.271565
0.675486 0.0873579 0.276112
0.680385 0.088716 0.265644
0.0224002 0.107927 0.0885023
0.0207675 0.104509 0.0865492
0.0833906 0.105592 0.100328
0.272358 0.0649119 0.0651713
0.432227 0.0387121 0.0584115
0.626413 0.0703899 0.155596
0.686656 0.0873426 0.210834
0.686732 0.0871138 0.2065
0.678141 0.0840925 0.174441
0.0324865 0.288167 0.133181
0.0291142 0.281209 0.119127
0.0307622 0.260548 0.0838788
0.239322 0.261936 0.0640726
0.520104 0.205692 0.090074
0.743267 0.184314 0.125078
0.737316 0.131228 0.120073
0.754711 0.132357 0.120287
0.783932 0.182177 0.134691
0.105272 0.548516 0.28867
0.0966964 0.542931 0.270573
0.106676 0.523171 0.237369
0.164309 0.47274 0.131838
0.478523 0.483406 0.119295
0.75404 0.490837 0.214206
0.821912 0.484672 0.245029
0.82089 0.471916 0.243366
0.821088 0.460594 0.239796
0.258091 0.802319 0.47538
0.247578 0.800168 0.465553
0.236347 0.788861 0.437964
0.246235 0.753491 0.37763
0.492317 0.681971 0.310948
0.686336 0.711543 0.25835
0.834714 0.734691 0.31696
0.839368 0.725322 0.314839
0.841077 0.705806 0.304692
0.335836 0.867781 0.561242
0.329824 0.869429 0.554574
0.324758 0.862425 0.531029
0.323705 0.840818 0.478447
0.455772 0.777234 0.371237
0.669947 0.780926 0.410239
0.806271 0.814694 0.397467
0.828458 0.8206 0.41532
0.828824 0.817823 0.40116
0.339162 0.869581 0.575753
0.333593 0.87039 0.567498
0.330068 0.867475 0.548684
0.327092 0.844785 0.491249
0.409583 0.787381 0.370581
0.651209 0.778851 0.414603
0.787091 0.810376 0.395926
0.827817 0.823209 0.431189
0.827588 0.823301 0.431754
0.338338 0.870466 0.577356
0.334005 0.87071 0.569192
0.331395 0.868757 0.555505
0.327489 0.851926 0.508232
0.352773 0.809918 0.405753
0.609995 0.775647 0.415
0.759335 0.80296 0.385611
0.828 0.822522 0.422599
0.827466 0.823163 0.431312
0.0199741 0.0801404 0.210651
0.029221 0.0699931 0.23241
0.0792859 0.0510872 0.251362
0.244282 0.0386358 0.25034
0.440696 0.0410468 0.256687
0.614557 0.0711528 0.333516
0.646754 0.0819715 0.348684
0.648081 0.0836194 0.344579
0.652323 0.0853742 0.339956
0.0201267 0.0834058 0.184466
0.0199893 0.0787366 0.207263
0.0629587 0.0637369 0.243015
0.232853 0.0385748 0.241093
0.432105 0.0404974 0.241382
0.614008 0.0738994 0.320668
0.650614 0.0838636 0.338338
0.651102 0.0841077 0.33814
0.655283 0.0857404 0.333761
0.0198825 0.109438 0.162341
0.0200046 0.104677 0.175097
0.0246433 0.0935836 0.226764
0.216068 0.0419928 0.230091
0.419547 0.0406806 0.209857
0.632837 0.0771496 0.302907
0.656168 0.0838178 0.32018
0.658564 0.0842298 0.316258
0.667674 0.087068 0.303822
0.0207828 0.274296 0.20943
0.0190433 0.26894 0.207813
0.0191958 0.258793 0.20087
0.277195 0.291371 0.269703
0.556588 0.213931 0.207904
0.691585 0.101122 0.190509
0.703029 0.0923476 0.207095
0.694011 0.0879683 0.181964
0.734508 0.100923 0.153674
0.103136 0.551446 0.364233
0.0987259 0.548516 0.358297
0.0976425 0.539162 0.336507
0.108919 0.50724 0.234455
0.484337 0.491646 0.190127
0.758587 0.483177 0.268345
0.822736 0.454032 0.269841
0.821347 0.44358 0.256214
0.821546 0.44094 0.243732
0.2607 0.798596 0.524788
0.249729 0.799146 0.519173
0.240543 0.792706 0.500099
0.217426 0.765133 0.421698
0.434791 0.675715 0.299535
0.673518 0.698772 0.255283
0.83653 0.717647 0.320485
0.841184 0.704585 0.31606
0.842451 0.684352 0.305837
0.349248 0.873671 0.607523
0.342962 0.874952 0.60206
0.33785 0.873549 0.586252
0.325185 0.862623 0.53257
0.380362 0.804791 0.406653
0.650477 0.780377 0.422446
0.799405 0.812375 0.398184
0.828779 0.818158 0.408179
0.829847 0.813642 0.394018
0.352316 0.875685 0.620905
0.346334 0.876371 0.613382
0.340887 0.874586 0.597467
0.330922 0.867567 0.54995
0.353185 0.814801 0.422843
0.630854 0.780377 0.428687
0.7794 0.811383 0.401663
0.827832 0.82356 0.435813
0.827573 0.823545 0.435843
0.348394 0.875547 0.613825
0.344198 0.875242 0.605722
0.339422 0.874357 0.593332
0.33225 0.868421 0.556435
0.332387 0.829633 0.454475
0.588693 0.775662 0.416007
0.744579 0.797421 0.399908
0.827726 0.822553 0.424323
0.827512 0.823484 0.435218
0.0193637 0.131243 0.391531
0.0194553 0.115587 0.405631
0.0651408 0.105425 0.430991
0.232792 0.0579232 0.441413
0.45066 0.0540322 0.457435
0.68217 0.0813153 0.495003
0.715724 0.0892958 0.528542
0.710918 0.0878157 0.515465
0.677974 0.0789654 0.448356
0.0193179 0.142245 0.368551
0.0193942 0.130404 0.390387
0.0393072 0.108934 0.418891
0.211582 0.0600137 0.440589
0.444114 0.0530709 0.450385
0.673503 0.0792706 0.483268
0.710719 0.087602 0.515465
0.703227 0.0853742 0.494972
0.669444 0.0773632 0.432288
0.018967 0.151186 0.33817
0.0193027 0.147402 0.350484
0.0192264 0.126528 0.387213
0.161959 0.0634623 0.438605
0.433585 0.0530709 0.439033
0.656382 0.0758221 0.459403
0.695994 0.0844892 0.4795
0.685023 0.0818036 0.456504
0.657435 0.0754253 0.408896
0.0190127 0.268482 0.337285
0.0191196 0.259785 0.341405
0.0188754 0.243198 0.344533
0.105089 0.231327 0.463905
0.484932 0.129366 0.480903
0.622003 0.0725261 0.409384
0.666575 0.0798047 0.408194
0.657694 0.0776226 0.390616
0.64918 0.0805371 0.360449
0.0766155 0.539071 0.461021
0.070573 0.536385 0.46157
0.0674449 0.52903 0.454536
0.0680858 0.514488 0.441077
0.541482 0.533989 0.505684
0.806714 0.489738 0.470619
0.842664 0.407721 0.437217
0.840024 0.404639 0.415061
0.835203 0.4168 0.373159
0.225635 0.806546 0.614206
0.215946 0.805493 0.610788
0.21297 0.797909 0.597955
0.213535 0.776806 0.560159
0.381689 0.741222 0.47982
0.686366 0.715923 0.439445
0.855039 0.722271 0.485451
0.859571 0.711879 0.475319
0.855421 0.688151 0.441032
0.351171 0.895186 0.694606
0.347906 0.895079 0.688533
0.350927 0.891478 0.67689
0.351598 0.882994 0.645518
0.379995 0.856275 0.544289
0.632319 0.803281 0.512032
0.798306 0.819059 0.492607
0.837064 0.821256 0.500404
0.837201 0.812314 0.478645
0.35024 0.897002 0.70396
0.345205 0.897551 0.698116
0.348089 0.894163 0.685527
0.353017 0.885176 0.654276
0.355871 0.866011 0.554437
0.591241 0.802213 0.498222
0.766232 0.815564 0.494713
0.834897 0.834195 0.522652
0.833127 0.831861 0.508217
0.351171 0.893629 0.687114
0.351583 0.891981 0.679026
0.353063 0.888563 0.668772
0.350698 0.882368 0.6421
0.34287 0.86862 0.56025
0.510582 0.795743 0.456794
0.718929 0.799878 0.467857
0.824277 0.82649 0.483894
0.830915 0.82884 0.486885
0.01944 0.235645 0.577432
0.0192874 0.217548 0.587121
0.0385443 0.19115 0.598688
0.233097 0.139483 0.645304
0.480308 0.116258 0.668299
0.710719 0.116167 0.724437
0.75378 0.130877 0.770443
0.752499 0.133547 0.787961
0.754467 0.131182 0.774258
0.0193484 0.248905 0.565148
0.01944 0.234531 0.576242
0.0192416 0.202594 0.588418
0.21622 0.160708 0.639582
0.470405 0.114153 0.663615
0.703975 0.113954 0.71603
0.754192 0.129213 0.761151
0.753323 0.132586 0.780377
0.756527 0.128176 0.758526
0.0192111 0.255146 0.545998
0.0191348 0.250675 0.554711
0.0192111 0.22945 0.569543
0.150118 0.170748 0.62652
0.451041 0.109789 0.654871
0.688045 0.109529 0.698054
0.752865 0.12665 0.742077
0.753536 0.129397 0.760769
0.75845 0.136553 0.723827
0.0193027 0.294423 0.511711
0.0191958 0.288533 0.516304
0.0193027 0.280003 0.525399
0.0194095 0.240467 0.592554
0.392645 0.109133 0.643259
0.645731 0.0974441 0.654795
0.767178 0.147356 0.69337
0.759533 0.150774 0.701457
0.759075 0.125933 0.645304
0.0205234 0.539467 0.574868
0.0207523 0.535912 0.575082
0.0204623 0.528664 0.573114
0.0202029 0.508583 0.580362
0.399359 0.477531 0.7205
0.756451 0.411002 0.738079
0.821881 0.32781 0.684199
0.815595 0.281682 0.659358
0.795041 0.189929 0.593668
0.182467 0.796262 0.717159
0.174838 0.793072 0.714046
0.168307 0.785748 0.70576
0.160678 0.769406 0.688579
0.34818 0.746502 0.678447
0.740764 0.741878 0.717327
0.905745 0.710765 0.692515
0.906279 0.676448 0.668528
0.8981 0.663706 0.630518
0.359396 0.916762 0.79266
0.35024 0.918685 0.78909
0.342718 0.916869 0.780316
0.323812 0.912169 0.762753
0.370275 0.884764 0.712825
0.651896 0.857893 0.694209
0.826017 0.850019 0.67924
0.884916 0.845579 0.689067
0.88246 0.832364 0.66627
0.363272 0.917678 0.802625
0.354101 0.919478 0.796826
0.349508 0.918715 0.788251
0.33994 0.915572 0.76759
0.379812 0.897078 0.713481
0.617502 0.877195 0.687587
0.788296 0.860243 0.684062
0.868528 0.873457 0.693401
0.86833 0.873121 0.692638
0.352056 0.917266 0.786542
0.345647 0.916655 0.778531
0.340795 0.915877 0.769329
0.335363 0.913191 0.750805
0.360433 0.896284 0.699916
0.54818 0.869673 0.647456
0.737636 0.847898 0.644419
0.844968 0.860838 0.654704
0.864073 0.868025 0.674922
0.0200198 0.371206 0.747295
0.0201572 0.361532 0.751202
0.0200656 0.337621 0.76524
0.203632 0.272206 0.790082
0.489662 0.201465 0.827665
0.72575 0.184039 0.83415
0.757855 0.170047 0.842954
0.757794 0.170169 0.842985
0.757717 0.170184 0.842756
0.0200198 0.373541 0.740475
0.0200046 0.367834 0.744656
0.0198825 0.348333 0.753613
0.165881 0.278752 0.787076
0.475898 0.199786 0.825177
0.721233 0.186313 0.833188
0.757946 0.169818 0.842802
0.757824 0.170153 0.843061
0.757778 0.170169 0.842969
0.0199283 0.371542 0.727062
0.0199283 0.370565 0.731106
0.0200656 0.359884 0.737179
0.0972457 0.289403 0.776776
0.449027 0.195789 0.819379
0.705745 0.186908 0.826673
0.758236 0.169192 0.842512
0.757763 0.170169 0.843
0.757824 0.170169 0.843061
0.0201267 0.359716 0.664515
0.019791 0.356664 0.671031
0.019852 0.354574 0.683742
0.0201724 0.343526 0.729076
0.359792 0.187274 0.802258
0.668193 0.189334 0.81387
0.759411 0.159899 0.832395
0.758801 0.165728 0.838834
0.758663 0.165103 0.838041
0.0209506 0.569451 0.700999
0.0205844 0.5635 0.70248
0.0207065 0.555962 0.707301
0.0209201 0.54345 0.731319
0.285939 0.513237 0.830243
0.693721 0.415198 0.858946
0.819623 0.293538 0.854459
0.811841 0.263752 0.846693
0.796704 0.195041 0.822507
0.119661 0.786847 0.794507
0.112932 0.78233 0.791836
0.103929 0.775326 0.789395
0.0771649 0.760311 0.78172
0.198169 0.746532 0.807111
0.655375 0.699153 0.857618
0.889479 0.669734 0.87509
0.902968 0.639002 0.853834
0.890272 0.597864 0.813916
0.366445 0.910826 0.842451
0.355779 0.91223 0.842466
0.339529 0.910338 0.839979
0.311406 0.905104 0.835126
0.326741 0.885161 0.819333
0.646952 0.866941 0.822705
0.860975 0.872206 0.850507
0.928206 0.849226 0.832151
0.924804 0.825376 0.810681
0.3897 0.912642 0.850446
0.387427 0.913649 0.847272
0.3841 0.914565 0.842634
0.377783 0.916289 0.833494
0.392782 0.916671 0.812451
0.633494 0.909834 0.81001
0.815869 0.920409 0.831922
0.909758 0.922881 0.83267
0.913756 0.920668 0.833783
0.389517 0.912428 0.84303
0.382956 0.914839 0.839887
0.378988 0.915938 0.835035
0.372824 0.917449 0.827222
0.375296 0.918364 0.804288
0.564675 0.902541 0.784192
0.77142 0.908995 0.803021
0.88426 0.915038 0.816617
0.911604 0.920897 0.83035
0.0202792 0.385931 0.765362
0.0201724 0.382055 0.772992
0.0200809 0.366842 0.791836
0.211078 0.296529 0.812177
0.501503 0.217441 0.838178
0.733959 0.183474 0.839307
0.757839 0.170169 0.843061
0.757839 0.170169 0.843061
0.757809 0.170153 0.843015
0.020325 0.386374 0.75668
0.0202792 0.385931 0.765255
0.0201267 0.376944 0.780652
0.169558 0.305669 0.810346
0.486809 0.21886 0.837491
0.730373 0.19057 0.839628
0.757839 0.170169 0.843061
0.757839 0.170169 0.843061
0.757794 0.170184 0.843015
0.0203098 0.385107 0.744778
0.0202792 0.38703 0.751568
0.020264 0.386038 0.765072
0.0911269 0.326543 0.807065
0.456458 0.221729 0.83653
0.719997 0.20116 0.840497
0.757961 0.170245 0.843076
0.757824 0.170169 0.843061
0.757839 0.170169 0.843061
0.0203403 0.415671 0.746593
0.0203403 0.406928 0.743526
0.0201419 0.392172 0.737408
0.0204471 0.384558 0.769268
0.367468 0.248417 0.829969
0.678462 0.214527 0.842222
0.758389 0.170672 0.843168
0.758358 0.170642 0.843137
0.758312 0.170596 0.843137
0.0209201 0.603723 0.785016
0.0209049 0.60032 0.787152
0.0205692 0.596521 0.792752
0.0208438 0.574334 0.792782
0.222354 0.533623 0.851072
0.665873 0.415671 0.872801
0.814908 0.304341 0.865751
0.806485 0.278004 0.862928
0.792111 0.232288 0.857984
0.056611 0.813886 0.844556
0.0496681 0.810132 0.842939
0.0383001 0.803677 0.840589
0.0213016 0.788769 0.836789
0.117647 0.759945 0.859068
0.59881 0.707378 0.897505
0.854459 0.675059 0.926452
0.890913 0.636973 0.920348
0.885145 0.604196 0.91635
0.271214 0.924468 0.873274
0.272496 0.921752 0.873442
0.26656 0.916472 0.873487
0.247013 0.906264 0.875242
0.236637 0.884153 0.872541
0.585229 0.857069 0.875959
0.813794 0.847425 0.911254
0.923613 0.824186 0.921904
0.921324 0.803876 0.916426
0.257877 0.933913 0.870878
0.253727 0.935409 0.871839
0.253727 0.935409 0.871839
0.274571 0.932952 0.869535
0.407874 0.912001 0.853925
0.627588 0.910048 0.857099
0.810483 0.92636 0.89073
0.926741 0.939559 0.919066
0.933486 0.933074 0.911711
0.255268 0.934813 0.871733
0.253788 0.935378 0.871839
0.253742 0.935409 0.871839
0.302007 0.927565 0.866133
0.402258 0.911635 0.850828
0.567849 0.908125 0.842954
0.779309 0.9252 0.874723
0.908965 0.941649 0.911009
0.932982 0.944091 0.917723
0.0203555 0.385382 0.768078
0.0201114 0.380484 0.775662
0.019913 0.364355 0.793408
0.217426 0.295033 0.812299
0.50457 0.217227 0.838407
0.734936 0.180026 0.839048
0.757839 0.170169 0.843061
0.757839 0.170169 0.843061
0.757809 0.170153 0.84303
0.0202182 0.386709 0.75877
0.0203555 0.385382 0.767788
0.0199893 0.374701 0.783673
0.175372 0.30425 0.810361
0.488563 0.218738 0.837598
0.731899 0.187961 0.840055
0.757839 0.170169 0.843061
0.757839 0.170169 0.843061
0.757839 0.170169 0.843061
0.0203098 0.385885 0.746258
0.020325 0.386603 0.75314
0.0203555 0.385458 0.767437
0.0974289 0.324727 0.807401
0.458183 0.221775 0.836622
0.720623 0.200122 0.840131
0.758007 0.170291 0.843107
0.757855 0.170184 0.843061
0.757824 0.170153 0.843061
0.0199588 0.412879 0.744717
0.0200809 0.404623 0.741512
0.0200504 0.389212 0.736217
0.0204471 0.383597 0.770413
0.367819 0.247883 0.83003
0.678264 0.213764 0.842222
0.758358 0.170657 0.843153
0.758358 0.170642 0.843153
0.758312 0.170581 0.843153
0.0208591 0.607752 0.799542
0.0209964 0.601267 0.798337
0.0210727 0.591775 0.795987
0.020676 0.563546 0.790387
0.196521 0.523278 0.849653
0.649042 0.392248 0.868467
0.806592 0.275288 0.862913
0.795743 0.248188 0.858976
0.778622 0.205371 0.853819
0.0360418 0.818326 0.856031
0.03122 0.812879 0.853452
0.0226139 0.804379 0.850477
0.0211643 0.784909 0.842298
0.0903639 0.748241 0.853758
0.586221 0.693065 0.896376
0.845731 0.659312 0.924071
0.887816 0.618708 0.918181
0.880613 0.586053 0.913878
0.265766 0.923125 0.874586
0.263981 0.919478 0.875425
0.247669 0.914778 0.877516
0.218708 0.905577 0.881346
0.175082 0.886412 0.883436
0.547601 0.850599 0.879789
0.788083 0.835218 0.911528
0.921386 0.816739 0.924117
0.918639 0.796841 0.924041
0.256199 0.934493 0.871702
0.253727 0.935409 0.871839
0.253727 0.935409 0.871839
0.253727 0.935409 0.871839
0.266972 0.934829 0.871077
0.486625 0.908766 0.861402
0.680247 0.905196 0.87631
0.908919 0.927764 0.920348
0.932677 0.926238 0.924285
0.254017 0.935286 0.871824
0.253727 0.935409 0.871839
0.253727 0.935409 0.871839
0.253727 0.935409 0.871839
0.262242 0.935042 0.87155
0.452781 0.914504 0.861082
0.704631 0.917235 0.874907
0.891188 0.94078 0.917617
0.93373 0.94519 0.927199
