bundles/resolve-cinematic-luts/Phantom Luts/Fx6 Phntm Film LUTs-G5/VisionTeal Fx6-Legacy.cube
TITLE "Generated by Resolve"
LUT_3D_SIZE 5
0.0235294 0.0434272 0.0415656
0.0931563 0.0422217 0.0382696
0.418265 0.0436255 0.0442969
0.686412 0.0868238 0.207996
0.687221 0.0879377 0.220279
0.0274815 0.114946 0.0498665
0.087602 0.105653 0.0471504
0.446693 0.0599527 0.0424506
0.654871 0.075227 0.114397
0.647623 0.0689708 0.106065
0.12285 0.538689 0.245014
0.113848 0.51574 0.200259
0.488685 0.49218 0.120378
0.826032 0.50901 0.249287
0.821775 0.476295 0.2448
0.328008 0.8598 0.52755
0.322911 0.850172 0.501122
0.502968 0.772534 0.379339
0.813153 0.816571 0.398901
0.828351 0.82031 0.407858
0.331441 0.868544 0.553872
0.32372 0.858701 0.522622
0.377356 0.796674 0.380789
0.769528 0.807187 0.382162
0.827588 0.82298 0.428519
0.0214389 0.0521706 0.0883345
0.0935683 0.0426032 0.110506
0.442863 0.0377966 0.134905
0.669642 0.0861372 0.288228
0.67364 0.0883345 0.289509
0.0224002 0.107927 0.0885023
0.0833906 0.105592 0.100328
0.432227 0.0387121 0.0584115
0.686656 0.0873426 0.210834
0.678141 0.0840925 0.174441
0.105272 0.548516 0.28867
0.106676 0.523171 0.237369
0.478523 0.483406 0.119295
0.821912 0.484672 0.245029
0.821088 0.460594 0.239796
0.335836 0.867781 0.561242
0.324758 0.862425 0.531029
0.455772 0.777234 0.371237
0.806271 0.814694 0.397467
0.828824 0.817823 0.40116
0.338338 0.870466 0.577356
0.331395 0.868757 0.555505
0.352773 0.809918 0.405753
0.759335 0.80296 0.385611
0.827466 0.823163 0.431312
0.0193637 0.131243 0.391531
0.0651408 0.105425 0.430991
0.45066 0.0540322 0.457435
0.715724 0.0892958 0.528542
0.677974 0.0789654 0.448356
0.018967 0.151186 0.33817
0.0192264 0.126528 0.387213
0.433585 0.0530709 0.439033
0.695994 0.0844892 0.4795
0.657435 0.0754253 0.408896
0.0766155 0.539071 0.461021
0.0674449 0.52903 0.454536
0.541482 0.533989 0.505684
0.842664 0.407721 0.437217
0.835203 0.4168 0.373159
0.351171 0.895186 0.694606
0.350927 0.891478 0.67689
0.379995 0.856275 0.544289
0.798306 0.819059 0.492607
0.837201 0.812314 0.478645
0.351171 0.893629 0.687114
0.353063 0.888563 0.668772
0.34287 0.86862 0.56025
0.718929 0.799878 0.467857
0.830915 0.82884 0.486885
0.0200198 0.371206 0.747295
0.0200656 0.337621 0.76524
0.489662 0.201465 0.827665
0.757855 0.170047 0.842954
0.757717 0.170184 0.842756
0.0199283 0.371542 0.727062
0.0200656 0.359884 0.737179
0.449027 0.195789 0.819379
0.758236 0.169192 0.842512
0.757824 0.170169 0.843061
0.0209506 0.569451 0.700999
0.0207065 0.555962 0.707301
0.285939 0.513237 0.830243
0.819623 0.293538 0.854459
0.796704 0.195041 0.822507
0.366445 0.910826 0.842451
0.339529 0.910338 0.839979
0.326741 0.885161 0.819333
0.860975 0.872206 0.850507
0.924804 0.825376 0.810681
0.389517 0.912428 0.84303
0.378988 0.915938 0.835035
0.375296 0.918364 0.804288
0.77142 0.908995 0.803021
0.911604 0.920897 0.83035
0.0203555 0.385382 0.768078
0.019913 0.364355 0.793408
0.50457 0.217227 0.838407
0.757839 0.170169 0.843061
0.757809 0.170153 0.84303
0.0203098 0.385885 0.746258
0.0203555 0.385458 0.767437
0.458183 0.221775 0.836622
0.758007 0.170291 0.843107
0.757824 0.170153 0.843061
0.0208591 0.607752 0.799542
0.0210727 0.591775 0.795987
0.196521 0.523278 0.849653
0.806592 0.275288 0.862913
0.778622 0.205371 0.853819
0.265766 0.923125 0.874586
0.247669 0.914778 0.877516
0.175082 0.886412 0.883436
0.788083 0.835218 0.911528
0.918639 0.796841 0.924041
0.254017 0.935286 0.871824
0.253727 0.935409 0.871839
0.262242 0.935042 0.87155
0.704631 0.917235 0.874907
0.93373 0.94519 0.927199
