bundles/resolve-cinematic-luts/Phantom Luts/Fx6 Phntm Film LUTs-G5/Vision Fx6.cube
TITLE "Generated by Resolve"
LUT_3D_SIZE 9
0.0222019 0.0305943 0.0222019
0.0328374 0.0357519 0.0223392
0.104982 0.038819 0.0269627
0.27744 0.0437934 0.0289921
0.483925 0.0667582 0.0607004
0.686671 0.0852522 0.180514
0.74081 0.107301 0.274388
0.739361 0.107881 0.286656
0.743801 0.106035 0.279423
0.0258488 0.0543374 0.032105
0.0319982 0.0482643 0.028809
0.108354 0.0453956 0.0292821
0.289998 0.0462043 0.0287175
0.494438 0.0680247 0.0506294
0.687053 0.0834974 0.153079
0.741222 0.103288 0.236088
0.742306 0.105425 0.256428
0.746746 0.102281 0.240482
0.0341344 0.141939 0.0577096
0.0397955 0.133089 0.0477455
0.100191 0.136828 0.0370184
0.304372 0.0881514 0.0409552
0.514275 0.0877394 0.055787
0.668421 0.0836652 0.0999313
0.725933 0.0925154 0.145663
0.721096 0.0903029 0.131838
0.724651 0.087892 0.127733
0.061387 0.349157 0.141573
0.0580606 0.338262 0.12256
0.0933242 0.328389 0.0990921
0.31606 0.339345 0.0482338
0.546899 0.279133 0.110475
0.747021 0.266957 0.143435
0.789624 0.194553 0.131014
0.78674 0.189456 0.130739
0.796567 0.209964 0.134417
0.16875 0.591058 0.342901
0.160693 0.583886 0.32488
0.148577 0.570138 0.289982
0.280217 0.55172 0.247837
0.554299 0.567391 0.133806
0.75581 0.530449 0.235966
0.802365 0.530312 0.251911
0.801663 0.523125 0.249119
0.799191 0.500862 0.242161
0.348196 0.797238 0.546075
0.339422 0.793362 0.533867
0.329183 0.786618 0.514931
0.305379 0.75874 0.432151
0.528313 0.757717 0.432578
0.741238 0.781247 0.321813
0.842374 0.766979 0.339361
0.844419 0.75967 0.339239
0.840818 0.741024 0.329107
0.413825 0.836912 0.613519
0.412772 0.836133 0.605631
0.403052 0.833997 0.59057
0.377783 0.820371 0.544884
0.544991 0.815488 0.517968
0.700114 0.836698 0.494423
0.826154 0.849515 0.465202
0.843076 0.852796 0.487907
0.842969 0.847791 0.469917
0.411185 0.838666 0.622705
0.41323 0.83772 0.615488
0.410925 0.835203 0.60148
0.386145 0.823499 0.558724
0.505257 0.812329 0.507546
0.681468 0.835843 0.506081
0.815198 0.850843 0.462669
0.843107 0.856107 0.499763
0.843442 0.856428 0.499107
0.41001 0.83917 0.626368
0.411368 0.838529 0.619577
0.413001 0.836561 0.609262
0.396002 0.829007 0.576455
0.421714 0.80975 0.4981
0.641566 0.829801 0.526055
0.788357 0.850858 0.467063
0.843107 0.855131 0.490227
0.843458 0.856107 0.496254
0.0224613 0.0322881 0.0300755
0.0398718 0.0352789 0.0379187
0.12636 0.0351415 0.0513619
0.31667 0.0344091 0.0568551
0.509896 0.0446632 0.0941176
0.712902 0.0960708 0.252613
0.737377 0.1075 0.298451
0.736095 0.107393 0.305745
0.742382 0.10605 0.293996
0.0240482 0.0463569 0.0342107
0.0312963 0.0425116 0.0336461
0.112581 0.0401312 0.030396
0.290654 0.0444953 0.0357824
0.489677 0.0436408 0.0610971
0.698405 0.0890059 0.214405
0.742367 0.106432 0.279789
0.742306 0.106538 0.283497
0.747829 0.103624 0.262226
0.0319371 0.139193 0.0757916
0.0342412 0.128191 0.0561379
0.0939345 0.128069 0.037232
0.315282 0.0788128 0.0393683
0.504158 0.0746777 0.0506447
0.680766 0.0789197 0.12488
0.737194 0.097612 0.198123
0.73698 0.0971542 0.191852
0.730999 0.0910658 0.147784
0.0623636 0.354192 0.168276
0.058732 0.340093 0.138247
0.0639658 0.318044 0.0912184
0.309987 0.334081 0.0476081
0.541711 0.268254 0.10869
0.75346 0.252857 0.140124
0.784207 0.17528 0.127962
0.78436 0.179416 0.129381
0.795346 0.20116 0.132372
0.170352 0.594217 0.359045
0.162524 0.584787 0.337102
0.151781 0.572457 0.309422
0.261631 0.547509 0.239368
0.549935 0.563958 0.132601
0.755505 0.524132 0.2336
0.801755 0.522255 0.248707
0.800671 0.513634 0.246509
0.798474 0.48983 0.239551
0.348806 0.796185 0.552483
0.340627 0.793896 0.540413
0.3299 0.786862 0.521569
0.301701 0.761181 0.447013
0.52018 0.753719 0.429664
0.737255 0.7776 0.317556
0.84152 0.76231 0.335653
0.842878 0.753033 0.335103
0.839414 0.733272 0.325933
0.412421 0.838071 0.620722
0.412726 0.837354 0.613306
0.408209 0.835142 0.598123
0.382757 0.822705 0.554925
0.530892 0.814389 0.513268
0.693858 0.836194 0.496269
0.824506 0.849149 0.46511
0.843153 0.851453 0.485023
0.843427 0.845884 0.465766
0.409873 0.839475 0.629877
0.411444 0.838575 0.622858
0.413382 0.836423 0.609598
0.392477 0.826688 0.568048
0.48513 0.810773 0.502724
0.675807 0.835233 0.509422
0.812238 0.851331 0.466743
0.843244 0.856397 0.50132
0.84358 0.856672 0.500755
0.409018 0.840162 0.633173
0.410117 0.839109 0.626886
0.412741 0.837903 0.617044
0.401511 0.832456 0.586954
0.409949 0.810727 0.502632
0.63711 0.828779 0.528023
0.783902 0.849989 0.468971
0.842863 0.855131 0.49012
0.843534 0.856367 0.497658
0.024567 0.0425116 0.0977646
0.0520027 0.0394141 0.104906
0.122454 0.038941 0.104997
0.303868 0.0409552 0.12903
0.504082 0.0505989 0.177661
0.705119 0.100389 0.314809
0.721141 0.10779 0.347036
0.719692 0.107546 0.351492
0.727153 0.106371 0.33933
0.0214389 0.0471199 0.0741436
0.0260929 0.0409094 0.0938125
0.10515 0.0387121 0.0925917
0.295354 0.0366369 0.0994736
0.508629 0.0478676 0.132296
0.711238 0.0996567 0.291554
0.728969 0.107622 0.32871
0.728115 0.107561 0.332708
0.73463 0.106569 0.320699
0.0264439 0.13077 0.108675
0.0269627 0.123644 0.10367
0.116304 0.130785 0.116823
0.352041 0.0893873 0.0773632
0.504051 0.0466773 0.070634
0.70309 0.0911269 0.219272
0.742397 0.106661 0.275212
0.743282 0.106386 0.271382
0.745266 0.10135 0.235264
0.0510567 0.352041 0.210178
0.0525826 0.345357 0.18909
0.0575113 0.326223 0.133974
0.31046 0.333761 0.0661173
0.555016 0.248203 0.114961
0.761028 0.21384 0.132631
0.773358 0.158267 0.128054
0.778988 0.157427 0.126177
0.790295 0.178088 0.126909
0.157336 0.59321 0.383932
0.158297 0.587976 0.365942
0.155428 0.574273 0.329381
0.211109 0.539208 0.222416
0.546181 0.558602 0.13196
0.756451 0.515007 0.23238
0.79939 0.508293 0.244419
0.798627 0.497032 0.241154
0.798718 0.483711 0.239216
0.339727 0.794141 0.563806
0.338079 0.792126 0.553079
0.332815 0.788159 0.534661
0.305791 0.765118 0.475547
0.509438 0.749142 0.42855
0.733837 0.773495 0.31281
0.83946 0.754192 0.330571
0.84126 0.74403 0.33048
0.837583 0.722988 0.321538
0.409735 0.839872 0.633707
0.409979 0.839216 0.62594
0.412451 0.837491 0.613397
0.393576 0.827802 0.570489
0.504845 0.81268 0.507301
0.686488 0.83595 0.504021
0.821393 0.848615 0.465385
0.843091 0.849867 0.481758
0.843183 0.843336 0.459449
0.40798 0.841581 0.644022
0.408347 0.840543 0.636271
0.411322 0.838636 0.623117
0.401694 0.831907 0.584817
0.454704 0.810803 0.49865
0.667933 0.834562 0.517281
0.808194 0.851575 0.473671
0.843503 0.856901 0.503716
0.84387 0.857023 0.5028
0.407492 0.84184 0.644724
0.408164 0.840803 0.637217
0.410163 0.839094 0.627466
0.40885 0.834745 0.598215
0.396399 0.81268 0.511147
0.630457 0.827695 0.531106
0.778668 0.848936 0.474525
0.842435 0.855161 0.490455
0.843809 0.856779 0.500145
0.0379034 0.0635843 0.276249
0.0734875 0.053193 0.279988
0.144472 0.0488441 0.271427
0.309255 0.043183 0.265126
0.512917 0.0687419 0.310033
0.676829 0.0984512 0.384466
0.701244 0.105745 0.396933
0.701854 0.106249 0.391714
0.706996 0.105608 0.381033
0.0269169 0.0730755 0.247364
0.0367895 0.0624247 0.269154
0.112581 0.0487373 0.274144
0.298589 0.0423438 0.255573
0.503075 0.0659342 0.29369
0.670848 0.0982528 0.368307
0.702266 0.106569 0.384009
0.703395 0.10695 0.384741
0.710079 0.105776 0.374487
0.0197147 0.122942 0.238514
0.0209659 0.111284 0.248478
0.0698558 0.0897841 0.297948
0.284352 0.0449683 0.242557
0.491279 0.0662699 0.266575
0.692027 0.10164 0.353552
0.708858 0.107424 0.371283
0.709941 0.107652 0.369421
0.720867 0.106905 0.353307
0.0264439 0.333776 0.312627
0.025803 0.327611 0.306401
0.0263066 0.318639 0.297124
0.345006 0.360571 0.335439
0.629862 0.277684 0.263584
0.754437 0.124132 0.24535
0.751598 0.109773 0.271763
0.748425 0.106493 0.256809
0.756558 0.101808 0.197452
0.114748 0.593362 0.452888
0.118441 0.589334 0.440452
0.126818 0.580758 0.418814
0.16437 0.559487 0.327489
0.545922 0.571435 0.237675
0.757473 0.522713 0.298054
0.800687 0.485603 0.294865
0.798627 0.46659 0.280308
0.796735 0.453346 0.257038
0.314931 0.792996 0.599344
0.313252 0.791226 0.590341
0.312535 0.785519 0.573541
0.314946 0.770977 0.518685
0.469581 0.740749 0.425925
0.723964 0.764767 0.312093
0.837507 0.73846 0.342428
0.836912 0.723735 0.339086
0.833585 0.700999 0.328923
0.403326 0.846479 0.670558
0.403601 0.845655 0.66276
0.405844 0.843122 0.649256
0.412894 0.837705 0.613977
0.429816 0.814954 0.519112
0.669413 0.834699 0.52517
0.81709 0.848051 0.46775
0.843687 0.844572 0.470893
0.844266 0.836683 0.448173
0.400885 0.848325 0.679896
0.401709 0.847105 0.671595
0.40383 0.844862 0.658305
0.411139 0.838727 0.623835
0.400793 0.816739 0.527153
0.652613 0.832776 0.541512
0.797116 0.853391 0.492164
0.843854 0.857496 0.510094
0.844083 0.857404 0.507912
0.401709 0.847105 0.673915
0.403235 0.846174 0.666194
0.40444 0.844373 0.654917
0.410193 0.839185 0.628702
0.391485 0.821515 0.551629
0.620142 0.826139 0.544137
0.763912 0.847211 0.491142
0.84097 0.855375 0.494057
0.844129 0.857313 0.506172
0.0671244 0.111604 0.483909
0.101884 0.094667 0.473701
0.171023 0.0744335 0.469612
0.348455 0.080293 0.460426
0.534035 0.0865187 0.478019
0.733135 0.110628 0.516609
0.75639 0.121248 0.546563
0.751842 0.114321 0.532952
0.728893 0.104417 0.475593
0.0441444 0.128618 0.476432
0.0669871 0.110491 0.48188
0.136355 0.087602 0.470024
0.329107 0.0767987 0.457908
0.528054 0.0852369 0.472114
0.726574 0.107408 0.506615
0.752163 0.114839 0.533822
0.743145 0.107088 0.513542
0.721996 0.103517 0.460761
0.0405127 0.143709 0.455726
0.0419776 0.137072 0.463645
0.0707256 0.105913 0.474372
0.289372 0.0743877 0.454185
0.518013 0.0859236 0.463203
0.711528 0.101625 0.488396
0.737392 0.107057 0.503929
0.727062 0.105577 0.479423
0.711101 0.102831 0.439994
0.0192416 0.309239 0.469032
0.0192569 0.300343 0.471778
0.019028 0.283589 0.478523
0.239933 0.251453 0.557946
0.565896 0.183429 0.512306
0.687465 0.102922 0.449622
0.716426 0.106691 0.444663
0.708995 0.105715 0.427573
0.704982 0.10573 0.402502
0.0611887 0.572106 0.569711
0.058793 0.568399 0.566278
0.0566567 0.562371 0.559655
0.0606394 0.549157 0.544915
0.58146 0.596445 0.574533
0.836713 0.53872 0.529839
0.878035 0.455009 0.495995
0.876326 0.439887 0.471229
0.861112 0.43508 0.418967
0.229221 0.799496 0.686824
0.227375 0.798047 0.679438
0.226932 0.791699 0.665476
0.238483 0.777188 0.628916
0.49163 0.773617 0.590936
0.729442 0.781918 0.535668
0.8448 0.755138 0.540566
0.846021 0.74522 0.529
0.839124 0.720607 0.490852
0.362707 0.86508 0.751904
0.365637 0.863905 0.743496
0.371969 0.861021 0.730465
0.388998 0.853254 0.699809
0.478264 0.843397 0.637583
0.689586 0.844831 0.640452
0.818357 0.85919 0.582422
0.853361 0.852705 0.576623
0.852949 0.842115 0.551583
0.35816 0.867323 0.763592
0.36054 0.865736 0.752667
0.367788 0.862791 0.738705
0.384588 0.854932 0.706706
0.441978 0.842313 0.633799
0.660258 0.844022 0.636667
0.787213 0.865309 0.600916
0.851667 0.875746 0.606058
0.850538 0.872511 0.590204
0.36669 0.8636 0.743633
0.371115 0.861509 0.733898
0.376303 0.858839 0.721538
0.39057 0.852644 0.696147
0.423377 0.841398 0.633387
0.577981 0.832578 0.594202
0.743481 0.852613 0.573587
0.83856 0.86743 0.567224
0.849363 0.868223 0.568246
0.098146 0.210513 0.70544
0.13843 0.188998 0.694423
0.218692 0.15697 0.670787
0.388281 0.142809 0.672816
0.585916 0.16141 0.67187
0.756924 0.146029 0.695277
0.78201 0.155093 0.725567
0.782986 0.155047 0.738277
0.782269 0.154879 0.726894
0.0823072 0.229908 0.708598
0.0983749 0.209598 0.70341
0.173388 0.17145 0.680308
0.366537 0.141421 0.67155
0.578607 0.16025 0.670359
0.75198 0.144472 0.689799
0.781476 0.155215 0.718853
0.782315 0.155032 0.732509
0.782712 0.153536 0.715419
0.0792859 0.242512 0.694621
0.0811475 0.237491 0.702419
0.0983749 0.205158 0.695186
0.319188 0.135683 0.666529
0.562203 0.155779 0.664714
0.741726 0.141497 0.67834
0.783322 0.148775 0.708782
0.780957 0.155337 0.718578
0.784726 0.139116 0.68835
0.0693523 0.312779 0.669154
0.070161 0.303044 0.672282
0.0735943 0.286213 0.680919
0.149676 0.222873 0.709041
0.517357 0.154147 0.662684
0.712596 0.133013 0.648722
0.785946 0.147875 0.67454
0.786068 0.144579 0.682368
0.783017 0.158587 0.620493
0.0207675 0.545373 0.697826
0.0203861 0.541466 0.697643
0.0208286 0.534768 0.697566
0.0204166 0.515038 0.707683
0.503304 0.508598 0.780224
0.800244 0.487068 0.758679
0.838529 0.399863 0.70425
0.831769 0.357198 0.675547
0.817594 0.251347 0.603784
0.177005 0.781155 0.785016
0.170871 0.777447 0.781903
0.164523 0.773236 0.777005
0.156939 0.761547 0.765225
0.397147 0.760037 0.750301
0.763973 0.784314 0.767407
0.895399 0.74905 0.737423
0.902388 0.723674 0.715023
0.888563 0.705638 0.680766
0.38999 0.875456 0.839612
0.38381 0.876249 0.835203
0.377081 0.875166 0.828565
0.356115 0.870954 0.813031
0.392096 0.859571 0.767285
0.733867 0.868147 0.777737
0.831846 0.88452 0.761349
0.887251 0.87509 0.74995
0.88629 0.861051 0.727047
0.39649 0.874418 0.846525
0.389654 0.876158 0.841657
0.383413 0.876478 0.834638
0.375479 0.874922 0.818067
0.40119 0.869612 0.769055
0.70515 0.881193 0.771847
0.814588 0.89929 0.78172
0.872496 0.917769 0.776486
0.878218 0.918349 0.774624
0.384314 0.875914 0.833829
0.380087 0.875685 0.82742
0.376211 0.875151 0.819257
0.366491 0.873167 0.802365
0.38088 0.866773 0.755322
0.63743 0.868238 0.734539
0.782895 0.883345 0.756786
0.852491 0.9066 0.742687
0.87483 0.914153 0.757656
0.115831 0.330434 0.852522
0.12015 0.320638 0.852888
0.197711 0.28809 0.838758
0.388022 0.226139 0.803494
0.613825 0.242969 0.798047
0.771908 0.182803 0.774563
0.788586 0.170077 0.775631
0.788556 0.170138 0.775677
0.78851 0.170169 0.775631
0.11426 0.335607 0.847532
0.114916 0.327825 0.850996
0.148196 0.305745 0.846983
0.363073 0.224048 0.802136
0.603357 0.240833 0.797208
0.768872 0.185336 0.774609
0.788586 0.16994 0.775494
0.788586 0.170138 0.775692
0.788571 0.170138 0.775677
0.112673 0.339544 0.839826
0.112825 0.335912 0.841596
0.114153 0.32137 0.845548
0.32195 0.239307 0.802274
0.582849 0.236271 0.795102
0.75938 0.18819 0.77026
0.788647 0.169528 0.775189
0.788586 0.170138 0.775692
0.788586 0.170138 0.775692
0.102312 0.350423 0.805447
0.104295 0.344961 0.810162
0.106081 0.336187 0.816602
0.114336 0.306233 0.837278
0.515953 0.224155 0.788693
0.734691 0.205524 0.76347
0.78883 0.165942 0.768643
0.789425 0.168734 0.773678
0.78938 0.168505 0.773205
0.0366064 0.564477 0.809293
0.0399634 0.559319 0.811353
0.0456855 0.552758 0.815763
0.0654154 0.538643 0.835782
0.444389 0.496132 0.865675
0.76672 0.475319 0.837446
0.836973 0.34107 0.809476
0.829343 0.307118 0.799176
0.813275 0.235843 0.770077
0.1458 0.758312 0.845335
0.139269 0.75433 0.844663
0.12987 0.747875 0.842786
0.109667 0.732403 0.839689
0.271794 0.72105 0.850813
0.713924 0.733608 0.874281
0.885496 0.728466 0.864744
0.901656 0.703593 0.850919
0.894011 0.668513 0.819318
0.395071 0.864363 0.875471
0.385321 0.863508 0.873808
0.368841 0.860121 0.870817
0.33727 0.8533 0.864576
0.35375 0.842893 0.85005
0.682841 0.86598 0.852903
0.85742 0.890486 0.871702
0.907317 0.876539 0.858137
0.90309 0.859037 0.841291
0.419257 0.867765 0.882597
0.418555 0.86833 0.880354
0.416709 0.868742 0.876097
0.413306 0.869581 0.868864
0.431891 0.875196 0.852735
0.669764 0.901167 0.845472
0.841672 0.93022 0.874327
0.89778 0.937957 0.88365
0.901793 0.935973 0.880293
0.416556 0.86865 0.876967
0.416266 0.868894 0.874052
0.414038 0.869459 0.870069
0.407584 0.871244 0.864134
0.413428 0.875517 0.845991
0.600946 0.889982 0.825208
0.81117 0.920546 0.851209
0.885481 0.935882 0.873182
0.904082 0.942138 0.882841
0.118471 0.341939 0.8654
0.122255 0.336492 0.868437
0.202838 0.313298 0.860487
0.395117 0.24683 0.818982
0.624002 0.259831 0.806729
0.776577 0.181521 0.776867
0.788586 0.170138 0.775692
0.788586 0.170138 0.775692
0.788586 0.170138 0.775692
0.11693 0.343709 0.858778
0.118456 0.341924 0.865293
0.152239 0.329641 0.868406
0.377707 0.261875 0.81973
0.613336 0.261006 0.807843
0.774868 0.188556 0.778973
0.788586 0.170138 0.775692
0.788586 0.170138 0.775692
0.788586 0.170138 0.775692
0.115282 0.34992 0.851423
0.116548 0.348302 0.855192
0.118395 0.341985 0.865095
0.325231 0.26949 0.827253
0.590768 0.26244 0.810651
0.767956 0.20293 0.780255
0.788693 0.170321 0.775753
0.788586 0.170153 0.775692
0.788586 0.170138 0.775692
0.11635 0.389776 0.855512
0.116182 0.380423 0.85362
0.114382 0.362951 0.848524
0.119478 0.340307 0.867735
0.517418 0.260151 0.81442
0.744839 0.24358 0.786404
0.788937 0.171084 0.775876
0.788937 0.171054 0.77586
0.788907 0.170947 0.775845
0.0635538 0.583764 0.869413
0.0666056 0.57998 0.871855
0.0720531 0.574197 0.876829
0.0877546 0.553292 0.879713
0.408469 0.49659 0.88603
0.748837 0.474174 0.853101
0.835447 0.351965 0.820111
0.827527 0.320195 0.813169
0.814038 0.259556 0.799222
0.0903944 0.760876 0.882979
0.0821241 0.756588 0.882185
0.0698863 0.74902 0.881895
0.0437781 0.732647 0.883894
0.205737 0.715267 0.895872
0.67541 0.725643 0.91194
0.865812 0.728725 0.903151
0.898161 0.699519 0.895918
0.896208 0.669657 0.890669
0.297597 0.860945 0.900938
0.301534 0.858625 0.899977
0.296345 0.854566 0.898939
0.271885 0.844877 0.895125
0.264134 0.829374 0.892241
0.635126 0.846494 0.899458
0.825452 0.864088 0.918883
0.907881 0.857221 0.915404
0.906584 0.839979 0.907744
0.271992 0.868162 0.903883
0.271992 0.868162 0.903883
0.271992 0.868162 0.903883
0.296086 0.868986 0.902281
0.44123 0.869825 0.886549
0.662104 0.895674 0.889494
0.821363 0.927718 0.909422
0.906004 0.942153 0.92578
0.918166 0.937606 0.923751
0.271992 0.868162 0.903883
0.271992 0.868162 0.903883
0.272023 0.868177 0.903899
0.328878 0.868635 0.899092
0.434348 0.869139 0.88365
0.60531 0.887907 0.877852
0.799969 0.928939 0.900069
0.897078 0.949493 0.922713
0.921569 0.950301 0.930175
0.119036 0.341375 0.867079
0.132143 0.334417 0.868666
0.21387 0.309117 0.858076
0.398779 0.246799 0.818341
0.626398 0.259907 0.806516
0.776959 0.177249 0.775891
0.788586 0.170138 0.775692
0.788586 0.170138 0.775692
0.788586 0.170138 0.775692
0.117327 0.343709 0.860349
0.119005 0.34139 0.867018
0.163424 0.326513 0.867079
0.379583 0.257664 0.819974
0.614343 0.261021 0.807858
0.77525 0.185382 0.77818
0.788586 0.170138 0.775692
0.788586 0.170138 0.775692
0.788586 0.170138 0.775692
0.115602 0.349874 0.85214
0.117021 0.346807 0.856931
0.118914 0.341497 0.866896
0.329732 0.268132 0.826246
0.591638 0.262455 0.810468
0.768719 0.201602 0.780163
0.788708 0.170382 0.775784
0.788602 0.170184 0.775708
0.788586 0.170138 0.775692
0.116091 0.386755 0.854566
0.115557 0.377203 0.852628
0.114336 0.360265 0.84773
0.119524 0.338827 0.868193
0.518105 0.26041 0.814481
0.744533 0.24303 0.786343
0.788937 0.171069 0.775876
0.788937 0.171054 0.77586
0.788907 0.170947 0.775845
0.0703746 0.583093 0.8813
0.0734722 0.577264 0.881315
0.0785077 0.568444 0.8804
0.0935073 0.543389 0.878981
0.393988 0.482628 0.884901
0.737362 0.450462 0.848798
0.827176 0.316579 0.812726
0.817975 0.280003 0.804334
0.802731 0.219074 0.789578
0.066865 0.757565 0.892821
0.0609293 0.75169 0.892088
0.0505379 0.743694 0.891402
0.0310674 0.724712 0.888151
0.173785 0.704738 0.896544
0.665812 0.711498 0.911574
0.860807 0.714687 0.900649
0.896757 0.683009 0.89276
0.893477 0.653208 0.887984
0.294286 0.858763 0.900954
0.294209 0.855955 0.900496
0.275608 0.850782 0.900282
0.243183 0.840879 0.89984
0.211795 0.822751 0.898772
0.60209 0.836683 0.904524
0.807919 0.850858 0.924071
0.904112 0.85008 0.920241
0.90457 0.833799 0.916838
0.271992 0.868162 0.903883
0.271992 0.868162 0.903883
0.271992 0.868162 0.903883
0.271992 0.868162 0.903883
0.289021 0.869261 0.904036
0.526314 0.876661 0.895994
0.712001 0.895293 0.90663
0.886152 0.932601 0.931945
0.91107 0.933928 0.933623
0.271992 0.868162 0.903883
0.271992 0.868162 0.903883
0.271992 0.868162 0.903883
0.271992 0.868162 0.903883
0.283238 0.868894 0.90396
0.490455 0.877104 0.895872
0.735988 0.912398 0.906813
0.88249 0.947875 0.932036
0.919264 0.953964 0.937575
