bundles/resolve-cinematic-luts/Phantom Luts/Fx6 Phntm Film LUTs-G5/Vision Fx6.cube
TITLE "Generated by Resolve"
LUT_3D_SIZE 33
0.0222019 0.0305943 0.0222019
0.0222019 0.0305943 0.0222019
0.0221866 0.0307774 0.0221866
0.0255894 0.0330968 0.0231174
0.0328374 0.0357519 0.0223392
0.0457313 0.0352941 0.0237888
0.0596323 0.0362097 0.0246738
0.0799573 0.0372168 0.0260929
0.104982 0.038819 0.0269627
0.138109 0.0405127 0.0276341
0.181613 0.0406348 0.0269169
0.227756 0.041886 0.027451
0.27744 0.0437934 0.0289921
0.326162 0.0453803 0.0314794
0.381231 0.0501106 0.0371557
0.434669 0.0580758 0.0477913
0.483925 0.0667582 0.0607004
0.529641 0.062211 0.0699321
0.574853 0.0542916 0.0831311
0.623087 0.0666514 0.121096
0.686671 0.0852522 0.180514
0.727337 0.0990768 0.226673
0.742931 0.105425 0.250431
0.742535 0.106126 0.257694
0.74081 0.107301 0.274388
0.739971 0.107622 0.279637
0.73959 0.107851 0.282353
0.739116 0.108003 0.285389
0.739361 0.107881 0.286656
0.74023 0.107591 0.286748
0.741238 0.10721 0.28481
0.742351 0.10663 0.28191
0.743801 0.106035 0.279423
0.0222019 0.0305943 0.0222019
0.0222019 0.0305943 0.0222019
0.0222019 0.0306706 0.0222019
0.0258335 0.0337682 0.0232853
0.0324559 0.0365301 0.0229496
0.0450294 0.0361639 0.024033
0.0600137 0.0367285 0.0250706
0.0814069 0.037995 0.0268254
0.1075 0.0393378 0.0274205
0.141772 0.0407416 0.0281071
0.187457 0.0410468 0.0271611
0.232258 0.0420996 0.0272831
0.281666 0.043534 0.0283207
0.328603 0.0449531 0.0295415
0.38204 0.0504005 0.0354467
0.43566 0.0573587 0.0437629
0.489189 0.0644541 0.0586252
0.532647 0.0687724 0.0708171
0.576944 0.0556649 0.0800336
0.623377 0.0663767 0.117006
0.687266 0.0850385 0.175448
0.728435 0.0991073 0.223377
0.742794 0.104829 0.246525
0.742672 0.105699 0.25417
0.741344 0.107134 0.269963
0.740917 0.107317 0.274235
0.740398 0.107546 0.277943
0.740032 0.107774 0.280522
0.740505 0.107607 0.280903
0.741207 0.107271 0.280156
0.742 0.106859 0.279042
0.74342 0.106355 0.276738
0.745434 0.105623 0.272374
0.0222019 0.0307622 0.0222019
0.0222171 0.0308232 0.0222171
0.0222171 0.0308537 0.0222171
0.0246128 0.0335393 0.023209
0.0293584 0.0372473 0.0242771
0.0413672 0.0377661 0.0231327
0.0571756 0.0376593 0.0255741
0.0799725 0.0387579 0.0272374
0.107622 0.0402075 0.0279545
0.14258 0.041413 0.0284276
0.188571 0.0415961 0.0271
0.23508 0.0429694 0.0275578
0.284321 0.0439307 0.0282444
0.33283 0.0468757 0.0307622
0.381613 0.0506905 0.0327916
0.436713 0.056733 0.0409705
0.492317 0.0656901 0.0572671
0.539422 0.0702068 0.0716259
0.57818 0.0602274 0.0802625
0.62324 0.0658732 0.112642
0.688319 0.0849317 0.169604
0.727626 0.0982681 0.217365
0.740246 0.102937 0.237842
0.743313 0.105272 0.248234
0.74284 0.105867 0.25507
0.741421 0.107134 0.269551
0.741192 0.107256 0.272465
0.741024 0.107347 0.274128
0.741299 0.10724 0.27454
0.741909 0.107027 0.274067
0.743053 0.106584 0.272725
0.74464 0.105943 0.269276
0.746517 0.104707 0.264149
0.0236973 0.041474 0.0273136
0.0234531 0.040238 0.0256046
0.0248722 0.0390326 0.0247654
0.0260929 0.0387274 0.0246738
0.0291142 0.0397498 0.0257725
0.0343328 0.0408331 0.0249638
0.0534066 0.038819 0.0254826
0.0785229 0.0398871 0.0281224
0.107744 0.0416419 0.0285649
0.143694 0.0428931 0.0289311
0.189944 0.042359 0.0271763
0.237537 0.0435798 0.0274815
0.286992 0.0446326 0.0278019
0.333196 0.0468147 0.0291295
0.384375 0.0522164 0.0332036
0.437324 0.0577707 0.0396735
0.492302 0.0649271 0.0522774
0.543099 0.0745403 0.0726787
0.579431 0.0638285 0.0792248
0.625269 0.0659953 0.108049
0.68719 0.0841688 0.161913
0.727901 0.0978256 0.211368
0.739559 0.102556 0.231128
0.743023 0.104524 0.241703
0.741451 0.104173 0.246921
0.742153 0.106508 0.26305
0.74197 0.106828 0.265141
0.741772 0.107057 0.267292
0.742184 0.106935 0.267964
0.742687 0.106615 0.266896
0.743908 0.105776 0.263859
0.745678 0.104952 0.259831
0.747753 0.103883 0.255634
0.0258488 0.0543374 0.032105
0.0249485 0.0519265 0.030518
0.0271305 0.0486763 0.029099
0.0285649 0.047013 0.0286259
0.0319982 0.0482643 0.028809
0.0379034 0.0498665 0.0302129
0.0560922 0.0481575 0.0259251
0.0803845 0.0449989 0.0289921
0.108354 0.0453956 0.0292821
0.147097 0.0454261 0.0296483
0.192325 0.043946 0.0278172
0.241062 0.0454108 0.0281529
0.289998 0.0462043 0.0287175
0.33846 0.0487831 0.031281
0.385962 0.0525063 0.0320745
0.436088 0.0581674 0.0367132
0.494438 0.0680247 0.0506294
0.543511 0.0726177 0.0665293
0.587488 0.0764324 0.0840162
0.6262 0.0658885 0.101106
0.687053 0.0834974 0.153079
0.727672 0.0972457 0.203296
0.738048 0.101503 0.22182
0.739452 0.102296 0.22887
0.741222 0.103288 0.236088
0.74313 0.104616 0.242557
0.742657 0.106081 0.256718
0.742336 0.105898 0.256794
0.742306 0.105425 0.256428
0.742931 0.105043 0.255329
0.744747 0.104616 0.25272
0.747158 0.10399 0.249348
0.746746 0.102281 0.240482
0.0280156 0.0701762 0.0360876
0.026978 0.0675364 0.0344854
0.0283207 0.0650034 0.033341
0.0310216 0.0614481 0.0332189
0.0348211 0.0607156 0.0340429
0.0407416 0.0637217 0.032929
0.057023 0.064332 0.0297398
0.0853132 0.0557412 0.0306401
0.108293 0.053315 0.031632
0.148363 0.0530861 0.0317235
0.198077 0.0509346 0.030045
0.247608 0.0483406 0.0293889
0.293599 0.0484169 0.0298009
0.341451 0.0508736 0.0316014
0.391394 0.0552834 0.0344701
0.441215 0.060441 0.037995
0.494957 0.0675822 0.0471504
0.548379 0.0785687 0.0670634
0.58999 0.0784772 0.0808728
0.624735 0.0681163 0.0932021
0.68542 0.0818494 0.14049
0.726757 0.0956436 0.189197
0.735454 0.0998245 0.207477
0.737514 0.100649 0.215198
0.738506 0.101549 0.221897
0.739635 0.10193 0.224231
0.741619 0.103853 0.240665
0.741512 0.103853 0.24123
0.742245 0.103822 0.241489
0.743236 0.103471 0.240208
0.743618 0.102586 0.235065
0.744213 0.101442 0.22945
0.744121 0.100175 0.221637
0.0301061 0.0894789 0.0413214
0.0291295 0.0867781 0.0393683
0.0293889 0.0850538 0.0378119
0.0324102 0.0813611 0.0367285
0.036759 0.079057 0.0385138
0.0443427 0.080354 0.0399634
0.0554513 0.0848707 0.03505
0.0862287 0.0810712 0.0288396
0.115267 0.0701915 0.0324865
0.145525 0.0646677 0.0340581
0.19971 0.0599374 0.0323339
0.249088 0.0583658 0.0321202
0.306706 0.056611 0.0327001
0.345922 0.053727 0.0322423
0.397223 0.0586252 0.0356756
0.44686 0.0644999 0.0403449
0.500999 0.0716411 0.0489204
0.549859 0.0771191 0.0611582
0.590066 0.0821698 0.0764935
0.624216 0.0793927 0.0910201
0.679911 0.0800946 0.124895
0.724147 0.0934157 0.170184
0.732845 0.0971084 0.186938
0.733944 0.0980392 0.194354
0.73492 0.0988785 0.200183
0.736263 0.0997482 0.205478
0.735714 0.0995956 0.206256
0.739239 0.101534 0.220111
0.739315 0.101289 0.218448
0.739483 0.100633 0.215457
0.739513 0.099733 0.210239
0.739849 0.0988479 0.205295
0.738872 0.0969253 0.194553
0.0330968 0.112322 0.0488136
0.0319677 0.109545 0.0464637
0.031693 0.107774 0.0440375
0.034699 0.10631 0.0425574
0.0389715 0.10341 0.0426795
0.0470741 0.102342 0.046479
0.0582895 0.103746 0.0464485
0.0755169 0.107927 0.0361944
0.119951 0.100557 0.0296635
0.156542 0.0866407 0.0349126
0.200549 0.0741588 0.0356298
0.250523 0.0705882 0.0355535
0.307973 0.0702373 0.0365911
0.359426 0.0708019 0.0379644
0.407828 0.0682231 0.0392157
0.452064 0.0683757 0.0421912
0.503548 0.0765393 0.0492714
0.55726 0.0848249 0.0631876
0.598032 0.0843214 0.074052
0.627253 0.0824903 0.0853742
0.670146 0.0799573 0.10634
0.721431 0.0917067 0.148409
0.727138 0.0937819 0.160723
0.72903 0.0949264 0.167239
0.730983 0.0956588 0.172366
0.731929 0.0960098 0.174395
0.732387 0.0962692 0.17528
0.732601 0.0961929 0.173724
0.734691 0.097673 0.188067
0.734295 0.0968338 0.182727
0.733959 0.0959793 0.175906
0.733211 0.0945754 0.166705
0.731853 0.0928511 0.156939
0.0341344 0.141939 0.0577096
0.0331121 0.138521 0.0545205
0.0331884 0.136446 0.0506294
0.0342565 0.135042 0.0478065
0.0397955 0.133089 0.0477455
0.046479 0.13077 0.0504158
0.0594797 0.130907 0.054963
0.0736248 0.132387 0.0520027
0.100191 0.136828 0.0370184
0.164263 0.122545 0.0319371
0.209964 0.106264 0.037705
0.260258 0.0895247 0.0404822
0.304372 0.0881514 0.0409552
0.36669 0.0906691 0.0446326
0.418662 0.0940261 0.0488289
0.48014 0.0965896 0.0558785
0.514275 0.0877394 0.055787
0.563149 0.0902419 0.0643931
0.606653 0.0927443 0.0761425
0.637766 0.0865797 0.085008
0.668421 0.0836652 0.0999313
0.715724 0.0881666 0.125063
0.719142 0.0897383 0.129915
0.721889 0.0908675 0.135256
0.725933 0.0925154 0.145663
0.72491 0.0919203 0.142535
0.721309 0.0908064 0.135821
0.721462 0.0907301 0.135454
0.721096 0.0903029 0.131838
0.724956 0.0913558 0.140078
0.724758 0.0908064 0.135363
0.725032 0.0896925 0.132738
0.724651 0.087892 0.127733
0.0326085 0.182254 0.0659342
0.0323186 0.178653 0.0627298
0.0318151 0.174578 0.057435
0.031342 0.171603 0.0522927
0.0348821 0.171008 0.0503395
0.0421759 0.16965 0.0519265
0.0544442 0.168551 0.0562295
0.0726482 0.170214 0.0617685
0.0909285 0.172015 0.055787
0.134798 0.176974 0.0356298
0.22121 0.15697 0.0355077
0.270481 0.139788 0.0445563
0.322896 0.118776 0.0513161
0.364462 0.117159 0.0534371
0.43183 0.124117 0.0624094
0.485939 0.129244 0.0691844
0.547433 0.132235 0.0766766
0.5888 0.119722 0.078172
0.618173 0.106554 0.0792096
0.650294 0.0986191 0.0870985
0.672541 0.0879225 0.0962234
0.711635 0.0929274 0.117586
0.717815 0.0937209 0.12108
0.718181 0.0937057 0.121584
0.718074 0.094377 0.121355
0.715633 0.0978714 0.11931
0.716533 0.0943008 0.119158
0.717021 0.0926528 0.118669
0.717739 0.0903182 0.118456
0.71812 0.0899672 0.117769
0.718776 0.0917678 0.118608
0.718883 0.092958 0.11751
0.718502 0.0948501 0.115526
0.0406958 0.236271 0.0883955
0.0398108 0.231968 0.0837873
0.0381018 0.227512 0.0780041
0.0368353 0.222934 0.0706035
0.0362554 0.218616 0.0628977
0.0419471 0.218753 0.0612192
0.0544289 0.219318 0.0641337
0.0724804 0.219715 0.0695506
0.0962081 0.223239 0.078294
0.120974 0.226246 0.068864
0.192813 0.228382 0.0394598
0.281666 0.205707 0.0399786
0.334157 0.189105 0.0541085
0.38497 0.166171 0.0677043
0.427039 0.163333 0.072343
0.489311 0.164874 0.0801251
0.549294 0.170565 0.0885481
0.602533 0.172763 0.0950637
0.655482 0.161532 0.101228
0.684062 0.137453 0.0986801
0.701366 0.115114 0.102419
0.717235 0.100404 0.111299
0.7178 0.096025 0.114366
0.71603 0.0959182 0.115496
0.715938 0.0955367 0.114931
0.715877 0.0950179 0.114275
0.715587 0.0948043 0.11368
0.718074 0.0972152 0.114107
0.721904 0.0990005 0.11371
0.725765 0.100649 0.114
0.726635 0.100694 0.111513
0.721721 0.0957351 0.110338
0.723705 0.0944686 0.110109
0.0500496 0.29221 0.112322
0.0489662 0.288777 0.107988
0.0482032 0.286671 0.104143
0.0477302 0.283009 0.0989242
0.0458076 0.27776 0.0892805
0.0462959 0.273976 0.0808576
0.0550851 0.273503 0.0773022
0.0722972 0.273869 0.080705
0.0958114 0.275959 0.0869764
0.124727 0.278996 0.0985733
0.160891 0.280262 0.0807355
0.252796 0.282582 0.0425116
0.344503 0.258152 0.0460365
0.395254 0.243015 0.0657511
0.442435 0.222034 0.0791791
0.484199 0.219333 0.092134
0.540413 0.214237 0.0971847
0.605264 0.219654 0.108034
0.654276 0.220508 0.113054
0.709529 0.213519 0.119448
0.743725 0.184512 0.120211
0.762814 0.152239 0.121431
0.753414 0.130312 0.11957
0.746578 0.122896 0.117891
0.741894 0.115908 0.114839
0.742947 0.114427 0.114275
0.743709 0.113191 0.113878
0.743862 0.111498 0.112749
0.742458 0.109041 0.11107
0.740795 0.108782 0.110628
0.748425 0.122286 0.116762
0.753307 0.12874 0.118883
0.761883 0.140536 0.123156
0.061387 0.349157 0.141573
0.0609598 0.347036 0.137835
0.0600595 0.34461 0.13373
0.0590066 0.342794 0.129305
0.0580606 0.338262 0.12256
0.0567941 0.334493 0.113283
0.0567178 0.327993 0.0996414
0.071458 0.328099 0.0944991
0.0933242 0.328389 0.0990921
0.123507 0.332631 0.108568
0.16379 0.335332 0.121798
0.211887 0.336522 0.0935988
0.31606 0.339345 0.0482338
0.405814 0.317205 0.0504311
0.455665 0.302556 0.0812695
0.501457 0.285893 0.0957046
0.546899 0.279133 0.110475
0.590692 0.276326 0.122866
0.654902 0.272709 0.132311
0.706096 0.274113 0.139254
0.747021 0.266957 0.143435
0.778805 0.241901 0.14226
0.792218 0.217273 0.136904
0.791104 0.205203 0.133577
0.789624 0.194553 0.131014
0.788495 0.187457 0.130053
0.785946 0.181842 0.129244
0.785901 0.183917 0.130159
0.78674 0.189456 0.130739
0.789685 0.196139 0.132616
0.792172 0.202365 0.13373
0.796338 0.208591 0.134295
0.796567 0.209964 0.134417
0.0766461 0.407248 0.183352
0.076112 0.405661 0.178286
0.0758984 0.403342 0.173587
0.0742199 0.401511 0.169284
0.072755 0.398596 0.163027
0.0727245 0.395865 0.155261
0.0711376 0.390372 0.142245
0.0707256 0.383413 0.122286
0.0931563 0.383902 0.115221
0.118929 0.384054 0.121508
0.163546 0.388327 0.136736
0.21387 0.391287 0.149004
0.269215 0.39237 0.106294
0.375265 0.39266 0.0617227
0.468162 0.377035 0.0585641
0.51545 0.364416 0.0959029
0.561669 0.349325 0.11696
0.608789 0.341176 0.135592
0.642573 0.340398 0.146929
0.698116 0.330068 0.162905
0.745312 0.330297 0.172488
0.773053 0.322057 0.173236
0.792599 0.310048 0.172488
0.793988 0.301976 0.168475
0.793469 0.294286 0.165194
0.79324 0.288579 0.162463
0.793576 0.283192 0.160281
0.792767 0.279454 0.158511
0.792889 0.276371 0.157839
0.792569 0.278676 0.158175
0.792645 0.283803 0.159792
0.793118 0.290257 0.162402
0.792981 0.29575 0.163867
0.0998245 0.467887 0.231327
0.0983444 0.466438 0.226993
0.0966812 0.46392 0.221775
0.0957809 0.461738 0.216693
0.0944533 0.46009 0.213962
0.0931258 0.457633 0.207904
0.0917525 0.453193 0.197818
0.0897841 0.447242 0.179873
0.0895094 0.439658 0.150881
0.118929 0.439445 0.141711
0.158923 0.440558 0.154849
0.216297 0.443366 0.175799
0.266316 0.448203 0.180453
0.330983 0.44921 0.124544
0.434104 0.449119 0.082414
0.527428 0.437873 0.0750744
0.575601 0.427253 0.115114
0.620462 0.414282 0.144594
0.665599 0.403952 0.167117
0.694789 0.404059 0.176974
0.733272 0.398184 0.196674
0.769055 0.389395 0.207843
0.789715 0.38265 0.208881
0.792294 0.376822 0.206958
0.791775 0.37229 0.204685
0.791897 0.369055 0.203174
0.791516 0.366155 0.201266
0.791287 0.363134 0.199573
0.791608 0.360449 0.198993
0.791653 0.357809 0.197787
0.791562 0.353246 0.195743
0.791867 0.355261 0.196506
0.793011 0.357946 0.198062
0.130465 0.529259 0.285679
0.128527 0.527413 0.281132
0.126818 0.5252 0.275425
0.125475 0.52343 0.271778
0.123659 0.520745 0.266346
0.122026 0.519509 0.263096
0.120058 0.517617 0.25684
0.117357 0.511467 0.242695
0.115328 0.50399 0.22034
0.114916 0.49453 0.185565
0.159197 0.494209 0.181918
0.21706 0.495171 0.199222
0.275319 0.499077 0.221897
0.323201 0.504967 0.208957
0.392828 0.505608 0.149142
0.495766 0.50753 0.10486
0.586496 0.497185 0.0997482
0.633219 0.489097 0.139254
0.674479 0.477485 0.17821
0.714488 0.465812 0.200992
0.741833 0.466545 0.211185
0.767239 0.4645 0.219883
0.787823 0.459037 0.229786
0.793194 0.455146 0.234882
0.79321 0.451774 0.235142
0.79263 0.449577 0.234379
0.792325 0.447318 0.233967
0.792416 0.445594 0.234226
0.792218 0.443122 0.233829
0.791821 0.439704 0.233478
0.791165 0.435203 0.233143
0.791516 0.429191 0.231357
0.791684 0.424033 0.229953
0.16875 0.591058 0.342901
0.166583 0.589899 0.338643
0.164645 0.588006 0.334127
0.1626 0.585763 0.328878
0.160693 0.583886 0.32488
0.158648 0.58201 0.320317
0.156817 0.579858 0.315953
0.153582 0.576913 0.308843
0.148577 0.570138 0.289982
0.145693 0.561318 0.262242
0.147738 0.550332 0.222004
0.218006 0.548516 0.226658
0.280217 0.55172 0.247837
0.33669 0.557046 0.266667
0.382803 0.563272 0.238071
0.458137 0.563607 0.181796
0.554299 0.567391 0.133806
0.642756 0.557748 0.125231
0.685817 0.550927 0.168566
0.724926 0.543603 0.208484
0.75581 0.530449 0.235966
0.77998 0.531548 0.246952
0.793652 0.532479 0.250507
0.801373 0.532311 0.252247
0.802365 0.530312 0.251911
0.802167 0.528359 0.251026
0.802075 0.526772 0.250385
0.801984 0.525109 0.249897
0.801663 0.523125 0.249119
0.801221 0.520653 0.248127
0.800809 0.516869 0.247456
0.799466 0.510079 0.244892
0.799191 0.500862 0.242161
0.213184 0.651545 0.398428
0.211032 0.649638 0.394354
0.208911 0.648066 0.390005
0.207446 0.646372 0.386206
0.205447 0.644495 0.381476
0.20325 0.641962 0.376654
0.201556 0.64036 0.372198
0.198566 0.637919 0.367315
0.19382 0.633463 0.356939
0.185763 0.625772 0.333776
0.183368 0.615442 0.299901
0.198856 0.604074 0.2598
0.284092 0.603769 0.274708
0.346456 0.608728 0.298405
0.396063 0.615 0.307515
0.441398 0.621103 0.268879
0.519524 0.621378 0.216571
0.606012 0.627741 0.174853
0.691203 0.616495 0.166857
0.732433 0.612619 0.205661
0.763561 0.607767 0.237812
0.78764 0.598566 0.264164
0.805188 0.595499 0.281987
0.814633 0.59762 0.284886
0.815518 0.596857 0.284199
0.814969 0.594949 0.28307
0.81471 0.59324 0.282429
0.814099 0.591424 0.28098
0.813489 0.589517 0.279545
0.813611 0.587198 0.278935
0.812696 0.583062 0.27628
0.812009 0.577676 0.273381
0.809964 0.568627 0.267811
0.25597 0.708431 0.450584
0.254322 0.706767 0.447242
0.252567 0.705486 0.444114
0.251209 0.704341 0.441138
0.249165 0.702739 0.437156
0.246616 0.700435 0.431907
0.244724 0.697963 0.427283
0.242695 0.695994 0.422446
0.238819 0.692668 0.415045
0.234348 0.687877 0.403143
0.224811 0.678279 0.372992
0.224369 0.66511 0.332219
0.265553 0.65716 0.304479
0.356802 0.659693 0.328771
0.413245 0.66479 0.350515
0.45275 0.670558 0.344518
0.501045 0.67631 0.30219
0.577569 0.677363 0.256413
0.655482 0.688975 0.220706
0.733425 0.673411 0.221775
0.770794 0.671611 0.242847
0.793225 0.669139 0.266758
0.812039 0.663539 0.285618
0.823636 0.661082 0.299382
0.827253 0.658305 0.305318
0.827039 0.656809 0.304814
0.826185 0.654459 0.303883
0.825483 0.652873 0.303181
0.825696 0.650324 0.303304
0.826062 0.648234 0.303563
0.824308 0.643748 0.301885
0.824399 0.638743 0.301045
0.821607 0.629694 0.29897
0.301244 0.757092 0.499397
0.299199 0.756466 0.496468
0.296956 0.755276 0.493019
0.295872 0.754452 0.490547
0.294621 0.753155 0.487083
0.292103 0.751446 0.484108
0.289189 0.749569 0.478614
0.287297 0.747463 0.473228
0.283909 0.744259 0.466773
0.279835 0.74139 0.459312
0.27422 0.734569 0.441505
0.264179 0.724376 0.405875
0.272725 0.709712 0.36257
0.346685 0.706828 0.356588
0.427344 0.711208 0.383032
0.473579 0.715831 0.394903
0.508064 0.721111 0.377066
0.556588 0.725002 0.336019
0.630457 0.728176 0.298772
0.701488 0.741161 0.27126
0.765347 0.726024 0.274098
0.797162 0.725978 0.283574
0.816159 0.724498 0.296208
0.829374 0.721843 0.309071
0.834943 0.716335 0.317479
0.836057 0.712795 0.319753
0.835737 0.710994 0.319249
0.835767 0.709407 0.319127
0.834928 0.706874 0.317998
0.834257 0.703304 0.316869
0.833951 0.699809 0.315953
0.832853 0.693874 0.313558
0.831373 0.685084 0.310872
0.348196 0.797238 0.546075
0.346029 0.796551 0.543221
0.343999 0.79556 0.540337
0.341421 0.794156 0.536553
0.339422 0.793362 0.533867
0.337942 0.792508 0.531212
0.335805 0.791089 0.527413
0.332998 0.788861 0.521782
0.329183 0.786618 0.514931
0.325139 0.782956 0.506783
0.319402 0.779492 0.496254
0.312886 0.771389 0.472831
0.305379 0.75874 0.432151
0.330068 0.748882 0.396933
0.428092 0.748333 0.4094
0.489265 0.75227 0.431006
0.528313 0.757717 0.432578
0.560265 0.762295 0.406897
0.60795 0.764202 0.370031
0.678508 0.769879 0.339117
0.741238 0.781247 0.321813
0.789853 0.770397 0.327459
0.815656 0.769787 0.334844
0.831708 0.768856 0.336919
0.842374 0.766979 0.339361
0.845014 0.765209 0.342947
0.844572 0.763317 0.342092
0.844663 0.761746 0.340826
0.844419 0.75967 0.339239
0.84361 0.757153 0.33724
0.843 0.753979 0.336309
0.842283 0.749325 0.3337
0.840818 0.741024 0.329107
0.391104 0.824399 0.584054
0.389548 0.82417 0.582193
0.386923 0.823423 0.580118
0.385122 0.82269 0.576928
0.38291 0.821973 0.574289
0.380728 0.821073 0.571618
0.3785 0.820371 0.568292
0.374975 0.818372 0.563455
0.370825 0.815656 0.556817
0.366659 0.812909 0.548257
0.360296 0.809247 0.538094
0.353658 0.804303 0.524086
0.346471 0.795621 0.493797
0.35256 0.784573 0.455558
0.401083 0.777401 0.435706
0.498527 0.780438 0.459251
0.545769 0.784131 0.472084
0.577142 0.789487 0.461921
0.611276 0.794476 0.434318
0.660365 0.796414 0.404028
0.724697 0.803861 0.379553
0.771618 0.810987 0.371618
0.808652 0.802762 0.376608
0.828077 0.801617 0.380316
0.839963 0.801617 0.383856
0.844526 0.800809 0.386099
0.845396 0.799512 0.385504
0.845472 0.798138 0.383612
0.845121 0.796674 0.380896
0.845182 0.794995 0.377859
0.845212 0.792203 0.374456
0.845457 0.789242 0.369528
0.845945 0.782315 0.360372
0.413169 0.835309 0.6047
0.411688 0.835142 0.602564
0.410132 0.834958 0.600061
0.40856 0.834852 0.598062
0.407034 0.834684 0.596353
0.405539 0.834516 0.593988
0.403357 0.834104 0.590982
0.401236 0.833173 0.587808
0.397498 0.831067 0.581628
0.392844 0.82887 0.573999
0.38677 0.825772 0.564218
0.380606 0.822431 0.553033
0.37702 0.816861 0.534722
0.379721 0.809705 0.504875
0.406653 0.801648 0.479225
0.482277 0.800198 0.480385
0.557809 0.804593 0.50135
0.591669 0.809567 0.501305
0.622278 0.814404 0.483711
0.657252 0.817975 0.456413
0.711162 0.82089 0.430106
0.757748 0.828595 0.415534
0.795224 0.831647 0.412512
0.82327 0.825711 0.415045
0.836469 0.825605 0.417639
0.842191 0.825452 0.422171
0.843931 0.824598 0.422614
0.844099 0.823651 0.420676
0.844541 0.822217 0.418372
0.844724 0.821027 0.415824
0.844709 0.818845 0.411749
0.845121 0.815503 0.406989
0.845304 0.811154 0.400519
0.413748 0.836194 0.609094
0.413825 0.835981 0.607126
0.413382 0.835798 0.605646
0.411673 0.835645 0.603418
0.410071 0.835447 0.600992
0.408545 0.835126 0.598367
0.406546 0.834745 0.595728
0.403861 0.834424 0.591882
0.401038 0.832975 0.587152
0.395544 0.830045 0.579141
0.390448 0.827436 0.568917
0.382803 0.823407 0.557504
0.377279 0.819028 0.540963
0.382101 0.814298 0.517113
0.408301 0.810361 0.49868
0.473625 0.811948 0.502495
0.554253 0.816358 0.520195
0.605066 0.821714 0.532082
0.63415 0.827634 0.52546
0.664836 0.832181 0.504784
0.703929 0.834531 0.480552
0.755734 0.839414 0.457084
0.788327 0.846098 0.447471
0.813901 0.844404 0.444053
0.83212 0.843229 0.450523
0.840818 0.843442 0.456535
0.842741 0.843015 0.45771
0.842954 0.842039 0.455222
0.84332 0.840925 0.451637
0.84361 0.839429 0.448615
0.844053 0.837873 0.445029
0.843793 0.835813 0.440543
0.843824 0.832059 0.434165
0.413825 0.836912 0.613519
0.413611 0.836667 0.611521
0.413245 0.836454 0.609384
0.413062 0.836347 0.607095
0.412772 0.836133 0.605631
0.411032 0.835874 0.602975
0.408972 0.83534 0.599207
0.406455 0.834791 0.595682
0.403052 0.833997 0.59057
0.398978 0.831769 0.583124
0.39234 0.828534 0.573297
0.385504 0.824674 0.56051
0.377783 0.820371 0.544884
0.380316 0.815091 0.52105
0.403159 0.810849 0.50013
0.463645 0.811872 0.500725
0.544991 0.815488 0.517968
0.600885 0.821408 0.533379
0.631922 0.828305 0.529686
0.663127 0.833875 0.514336
0.700114 0.836698 0.494423
0.748791 0.841428 0.474403
0.78378 0.849378 0.465629
0.809079 0.84921 0.462196
0.826154 0.849515 0.465202
0.838773 0.851575 0.477638
0.842954 0.853437 0.489342
0.84329 0.853452 0.491051
0.843076 0.852796 0.487907
0.843076 0.851865 0.484428
0.843076 0.850889 0.481041
0.843091 0.849622 0.476539
0.842969 0.847791 0.469917
0.413581 0.837568 0.616678
0.413565 0.837324 0.614786
0.413291 0.837064 0.613245
0.413001 0.836866 0.611017
0.41268 0.836652 0.608713
0.412665 0.836378 0.606256
0.411124 0.835981 0.603281
0.408499 0.835248 0.598489
0.405219 0.834638 0.593774
0.401083 0.833082 0.587427
0.394553 0.829618 0.576806
0.387701 0.825818 0.56408
0.37995 0.821653 0.549844
0.38352 0.815274 0.527321
0.398047 0.811475 0.501396
0.451881 0.8112 0.497963
0.536889 0.814786 0.515175
0.597284 0.820325 0.532601
0.628916 0.827436 0.530648
0.659968 0.832944 0.516228
0.69514 0.836698 0.497566
0.741222 0.841001 0.479179
0.778866 0.848676 0.46836
0.805508 0.850889 0.464912
0.823651 0.849958 0.466041
0.8365 0.852094 0.474296
0.842695 0.855207 0.492515
0.843259 0.856321 0.500237
0.843229 0.856168 0.498909
0.843259 0.855924 0.497398
0.843305 0.855741 0.496086
0.843351 0.85565 0.495384
0.843366 0.855573 0.495033
0.41236 0.838087 0.61941
0.41268 0.837934 0.617411
0.412787 0.837797 0.615198
0.412665 0.837491 0.613703
0.412833 0.83714 0.611612
0.412543 0.83682 0.60911
0.412512 0.836408 0.605966
0.410147 0.835798 0.601617
0.406973 0.834958 0.596643
0.402487 0.83386 0.590265
0.396124 0.830488 0.580453
0.390341 0.826978 0.566812
0.381277 0.822278 0.552316
0.382589 0.816312 0.531746
0.393729 0.812116 0.503502
0.441886 0.810636 0.496681
0.528801 0.81442 0.512871
