bundles/resolve-cinematic-luts/Gamut/Timbre/Timbre 03.cube
TITLE "Generated by 3D LUT Creator Pro (c) Oleg Sharonov"
LUT_3D_SIZE 33
#IMAGEPROFILE iMac 5K Retina - Dark Room v.2.40
#INPUTGAMMA iMac 5K Retina - Dark Room v.2.40
#OUTPUTGAMMA iMac 5K Retina - Dark Room v.2.40
0.000000 0.000000 0.000000
0.013080 0.001422 0.001573
0.028698 0.003319 0.003159
0.044148 0.005688 0.005974
0.061010 0.009473 0.009238
0.079339 0.013733 0.013817
0.096767 0.018958 0.019372
0.116842 0.025575 0.026396
0.154967 0.032972 0.033496
0.209961 0.040257 0.041242
0.258793 0.047850 0.049325
0.306596 0.055086 0.057435
0.356102 0.062742 0.066434
0.406259 0.070896 0.076321
0.457166 0.079205 0.087335
0.505032 0.087430 0.098655
0.549765 0.095629 0.111043
0.590329 0.105189 0.123547
0.627467 0.117075 0.136422
0.660061 0.129689 0.148907
0.689150 0.142440 0.160795
0.715745 0.154960 0.172164
0.739993 0.167280 0.183426
0.761851 0.179508 0.194392
0.781823 0.191927 0.205468
0.800925 0.205062 0.216844
0.819202 0.218573 0.228709
0.837335 0.232305 0.241249
0.855711 0.246664 0.255024
0.874463 0.261585 0.270511
0.893250 0.277362 0.287131
0.911363 0.293881 0.304373
0.929136 0.311202 0.322664
0.001302 0.018441 0.001164
0.019192 0.018473 0.008023
0.035654 0.019424 0.004347
0.051163 0.021329 0.004737
0.068031 0.024187 0.007570
0.086022 0.027793 0.011696
0.103379 0.031933 0.017202
0.128270 0.036789 0.023577
0.174623 0.042055 0.030620
0.228776 0.047675 0.038079
0.276533 0.053627 0.045368
0.324948 0.059782 0.053304
0.375842 0.066517 0.061605
0.426036 0.073491 0.071066
0.474246 0.081556 0.082083
0.520011 0.089583 0.093559
0.562383 0.097628 0.105850
0.601238 0.107901 0.118405
0.636563 0.119663 0.131093
0.667779 0.132196 0.143367
0.696063 0.144768 0.155268
0.721728 0.157051 0.166700
0.744943 0.169104 0.178019
0.766162 0.181308 0.189039
0.785664 0.193754 0.200362
0.804513 0.206894 0.212176
0.822515 0.220357 0.224084
0.840582 0.234231 0.237053
0.858857 0.248627 0.251061
0.877497 0.263465 0.266821
0.895979 0.279367 0.283579
0.913957 0.295995 0.301129
0.931428 0.313223 0.319545
0.003038 0.037492 0.002337
0.021816 0.036820 0.009242
0.037891 0.037198 0.017250
0.054722 0.038250 0.011722
0.072726 0.039957 0.007963
0.090447 0.042595 0.011263
0.108207 0.046342 0.015901
0.136932 0.050367 0.023128
0.185708 0.054530 0.030209
0.236931 0.059152 0.037729
0.283808 0.064184 0.045341
0.332241 0.069720 0.053280
0.382365 0.075655 0.061830
0.433478 0.082270 0.071280
0.482554 0.088908 0.081190
0.528862 0.095410 0.091634
0.571548 0.103210 0.102507
0.610750 0.112714 0.113654
0.646085 0.123258 0.124725
0.676375 0.134974 0.136595
0.703527 0.147100 0.148482
0.728207 0.159401 0.160181
0.750550 0.171444 0.171572
0.771007 0.183359 0.183058
0.790078 0.195847 0.194639
0.808554 0.208980 0.206508
0.826284 0.222382 0.218860
0.844175 0.236372 0.232074
0.862345 0.250569 0.246517
0.880751 0.265542 0.262348
0.899075 0.281562 0.279458
0.916816 0.298099 0.297342
0.934064 0.315237 0.315907
0.005208 0.056828 0.004323
0.027541 0.055589 0.013826
0.041535 0.056130 0.021569
0.057447 0.056141 0.030171
0.075818 0.057918 0.025248
0.095861 0.060136 0.015903
0.115349 0.062764 0.017167
0.149294 0.065879 0.022237
0.198734 0.069402 0.028690
0.246588 0.073182 0.036732
0.293915 0.077565 0.044731
0.342671 0.082442 0.052985
0.392904 0.088075 0.062042
0.442399 0.093862 0.071493
0.490511 0.100374 0.081396
0.535111 0.108400 0.091619
0.576461 0.117984 0.102486
0.614284 0.128608 0.113423
0.648117 0.138985 0.124290
0.678582 0.149360 0.134521
0.706444 0.159060 0.144765
0.732119 0.168766 0.154838
0.755508 0.178409 0.164871
0.776705 0.188230 0.175025
0.796347 0.198987 0.185695
0.814202 0.211838 0.198051
0.831677 0.225392 0.210881
0.849259 0.239418 0.224373
0.867210 0.253568 0.239286
0.885504 0.268638 0.255580
0.903461 0.284537 0.273293
0.920772 0.301139 0.291422
0.937812 0.318325 0.310394
0.008247 0.077054 0.006739
0.030861 0.076519 0.016791
0.046648 0.076348 0.025255
0.065412 0.075568 0.039820
0.080532 0.077148 0.045465
0.098233 0.079274 0.041642
0.122271 0.080755 0.030468
0.164004 0.083178 0.024222
0.214381 0.085827 0.029712
0.260238 0.089452 0.035702
0.307524 0.093581 0.042937
0.356921 0.098198 0.052154
0.406009 0.104209 0.061515
0.453557 0.111565 0.070991
0.499440 0.120111 0.080902
0.542076 0.129748 0.091137
0.582080 0.140620 0.101805
0.617622 0.150997 0.112547
0.649917 0.160955 0.123011
0.679309 0.170389 0.133043
0.706707 0.179238 0.143084
0.731971 0.188266 0.153159
0.755117 0.197170 0.163209
0.776389 0.206654 0.173379
0.796460 0.216570 0.183866
0.815672 0.226741 0.194667
0.834464 0.237209 0.205974
0.853376 0.248569 0.218366
0.872392 0.260513 0.232012
0.891393 0.273732 0.246881
0.909196 0.288663 0.264058
0.926139 0.305281 0.282926
0.942703 0.322286 0.302249
0.011286 0.099203 0.009601
0.034972 0.098330 0.021109
0.051942 0.097575 0.031580
0.066757 0.098370 0.037930
0.090926 0.096323 0.058704
0.103107 0.098531 0.061656
0.124477 0.101136 0.059673
0.176690 0.102690 0.045790
0.231190 0.106037 0.036136
0.277701 0.110366 0.038178
0.325130 0.116364 0.044579
0.373005 0.123706 0.051254
0.419637 0.132186 0.059449
0.465402 0.140992 0.069266
0.509015 0.150476 0.079467
0.550278 0.160618 0.089751
0.587646 0.170557 0.100248
0.620984 0.179665 0.110605
0.651488 0.188176 0.120679
0.680018 0.196284 0.130929
0.706594 0.204448 0.140769
0.731530 0.212580 0.150842
0.754758 0.220849 0.160915
0.776058 0.229405 0.171313
0.796397 0.238112 0.182028
0.815800 0.247028 0.193052
0.835199 0.256713 0.204778
0.854478 0.267182 0.217580
0.873941 0.278984 0.231628
0.893065 0.291607 0.246888
0.911475 0.305145 0.263138
0.929071 0.319127 0.280068
0.946262 0.333828 0.297786
0.014252 0.132483 0.012431
0.035220 0.131300 0.021880
0.054163 0.130334 0.033917
0.075585 0.128644 0.047097
0.088569 0.131640 0.052514
0.116755 0.127363 0.078452
0.138892 0.133183 0.080589
0.179554 0.139808 0.081295
0.243680 0.142621 0.063469
0.294680 0.148088 0.053569
0.343537 0.155177 0.047481
0.389782 0.162425 0.053927
0.434497 0.170726 0.060737
0.477391 0.179738 0.067697
0.519236 0.189154 0.076413
0.557273 0.197736 0.086819
0.591912 0.205907 0.097183
0.623289 0.213531 0.107384
0.652625 0.220794 0.117491
0.680072 0.227406 0.127556
0.706168 0.234073 0.137406
0.730968 0.240510 0.147689
0.754344 0.247338 0.157996
0.776039 0.254271 0.168637
0.796459 0.261689 0.179587
0.816414 0.269788 0.191042
0.836266 0.278924 0.203188
0.856121 0.289025 0.216405
0.875965 0.300574 0.231052
0.895176 0.312890 0.246518
0.913568 0.326060 0.263156
0.931202 0.339472 0.280271
0.948301 0.353562 0.298157
0.020176 0.183514 0.017767
0.039748 0.182596 0.026513
0.059613 0.181189 0.039540
0.080110 0.179743 0.052066
0.097512 0.180509 0.061406
0.116968 0.182036 0.074021
0.174862 0.177708 0.104742
0.208079 0.187275 0.103350
0.240003 0.197169 0.107159
0.304651 0.198592 0.085884
0.356558 0.204161 0.072404
0.404130 0.210761 0.059960
0.447800 0.217730 0.063172
0.489913 0.225317 0.070030
0.528200 0.232457 0.076893
0.562721 0.239202 0.083620
0.594858 0.245044 0.092163
0.624711 0.250004 0.102463
0.652952 0.254785 0.112841
0.679815 0.259289 0.122943
0.705570 0.263940 0.133018
0.730579 0.269145 0.143513
0.754086 0.274886 0.154249
0.775975 0.280945 0.165139
0.796842 0.287693 0.176535
0.817468 0.295285 0.188427
0.837998 0.304228 0.201399
0.858474 0.314428 0.215229
0.878555 0.325428 0.230286
0.897781 0.337317 0.246152
0.916100 0.349667 0.262992
0.933626 0.362569 0.280479
0.950858 0.376248 0.298536
0.028839 0.246311 0.025458
0.046650 0.245283 0.033778
0.065146 0.243344 0.044644
0.084851 0.242310 0.056942
0.106286 0.239685 0.072209
0.122459 0.243545 0.077137
0.160823 0.242604 0.096648
0.243201 0.237689 0.136072
0.269072 0.248625 0.129062
0.294180 0.259481 0.136113
0.361980 0.258342 0.111387
0.412359 0.261992 0.092623
0.457255 0.266039 0.079038
0.497600 0.269970 0.071675
0.533988 0.273587 0.078291
0.566842 0.277079 0.084793
0.597267 0.280749 0.091407
0.625501 0.284578 0.097939
0.652615 0.287989 0.106506
0.679244 0.291568 0.117076
0.705031 0.295296 0.127591
0.730188 0.299550 0.138506
0.754073 0.304315 0.149449
0.776351 0.309761 0.161009
0.797870 0.316217 0.172863
0.819359 0.323810 0.185604
0.840644 0.332640 0.199211
0.861570 0.342450 0.213861
0.881714 0.353154 0.229137
0.900882 0.364346 0.245410
0.919091 0.376115 0.262647
0.936431 0.388237 0.280152
0.953775 0.401360 0.298750
0.035802 0.304496 0.032169
0.052205 0.303836 0.039643
0.068879 0.302241 0.048610
0.087559 0.300112 0.060431
0.106070 0.298348 0.073353
0.132684 0.297251 0.086123
0.158798 0.301246 0.091598
0.208499 0.298947 0.120921
0.293325 0.294171 0.165189
0.320754 0.303174 0.154546
0.347861 0.311479 0.163662
0.410879 0.309047 0.138024
0.458084 0.310072 0.113501
0.499274 0.311158 0.098137
0.535991 0.312982 0.082128
0.568311 0.314513 0.085540
0.598208 0.316242 0.091939
0.626087 0.318497 0.098475
0.652958 0.321266 0.105160
0.678990 0.324363 0.111803
0.704968 0.327790 0.120904
0.730346 0.331536 0.132253
0.754504 0.335758 0.143816
0.777563 0.340950 0.156034
0.800016 0.347235 0.168768
0.822287 0.354881 0.182372
0.844203 0.363483 0.196626
0.865375 0.372965 0.211907
0.885486 0.383097 0.227800
0.904404 0.393518 0.244292
0.922437 0.404606 0.261745
0.939972 0.416272 0.280019
0.957007 0.428454 0.298626
0.044250 0.359949 0.040029
0.059386 0.359055 0.047009
0.074912 0.357996 0.054970
0.094845 0.355409 0.068553
0.112585 0.354024 0.079415
0.152235 0.350960 0.096746
0.191993 0.352136 0.104970
0.228347 0.354460 0.115596
0.287590 0.346072 0.160040
0.347583 0.339954 0.202091
0.367445 0.348593 0.180498
0.391842 0.354662 0.189227
0.449368 0.351701 0.164294
0.494673 0.351165 0.133659
0.532910 0.350665 0.117306
0.566953 0.351132 0.100377
0.597770 0.352140 0.092474
0.626031 0.353056 0.098800
0.653305 0.354779 0.105700
0.679948 0.357294 0.112553
0.705807 0.360265 0.119793
0.731275 0.364158 0.127019
0.756166 0.368802 0.137144
0.780122 0.374013 0.150200
0.803527 0.380658 0.164043
0.826497 0.388213 0.178528
0.848596 0.396465 0.193441
0.869699 0.405356 0.209169
0.889675 0.414687 0.225499
0.908434 0.424550 0.242608
0.926503 0.435025 0.260667
0.943826 0.446014 0.279172
0.960574 0.457119 0.298166
0.053323 0.408480 0.048470
0.068054 0.407564 0.055292
0.082411 0.406221 0.062938
0.099726 0.404092 0.074558
0.123017 0.401785 0.088384
0.165121 0.399187 0.102843
0.223344 0.394785 0.121661
0.247901 0.396967 0.125288
0.286446 0.396159 0.144016
0.355940 0.383332 0.197528
0.395781 0.377493 0.238934
0.410255 0.386762 0.207100
0.429675 0.392056 0.213328
0.481441 0.389158 0.190687
0.525557 0.387598 0.158370
0.562199 0.386674 0.137368
0.595075 0.386982 0.119623
0.625413 0.388159 0.101872
0.653587 0.389121 0.106032
0.680908 0.390967 0.113307
0.707838 0.393667 0.120757
0.734437 0.397493 0.128610
0.760135 0.402550 0.137090
0.784628 0.408784 0.146220
0.808422 0.415583 0.158266
0.831671 0.422910 0.173659
0.853798 0.430727 0.189452
0.874700 0.438985 0.205644
0.894420 0.447636 0.222619
0.913132 0.457020 0.240166
0.930982 0.466754 0.258835
0.947872 0.476411 0.277587
0.964369 0.486316 0.296810
0.061175 0.448343 0.055399
0.073984 0.447392 0.061346
0.086989 0.446198 0.068463
0.103221 0.444185 0.079119
0.131393 0.441019 0.094853
0.171093 0.438929 0.106878
0.224277 0.435020 0.125052
0.261652 0.433131 0.136434
0.288692 0.433918 0.143133
0.330761 0.430339 0.171621
0.395498 0.417828 0.224362
0.434699 0.411184 0.271847
0.445838 0.421171 0.231279
0.464394 0.426050 0.237399
0.510436 0.424077 0.218444
0.554363 0.422377 0.186384
0.590457 0.421742 0.159126
0.622683 0.422037 0.140583
0.653426 0.423505 0.122190
0.682816 0.425775 0.114479
0.711388 0.428594 0.122139
0.739372 0.432677 0.130620
0.766072 0.437853 0.139943
0.791094 0.443938 0.149718
0.815012 0.450756 0.160104
0.837836 0.458151 0.170810
0.859563 0.465672 0.183843
0.880261 0.473279 0.200915
0.899885 0.481410 0.218550
0.918335 0.489769 0.236929
0.935660 0.498179 0.255839
0.952211 0.506591 0.275080
0.968261 0.515082 0.294410
0.066485 0.482324 0.060739
0.078205 0.481477 0.066238
0.089766 0.480308 0.072487
0.104819 0.478742 0.082309
0.132662 0.475830 0.096859
0.174713 0.473314 0.110297
0.222297 0.470410 0.126207
0.271881 0.465797 0.147612
0.296813 0.466598 0.152081
0.325564 0.466709 0.160434
0.373924 0.461073 0.201799
0.432825 0.450065 0.252030
0.469627 0.444496 0.297049
0.480543 0.454284 0.256526
0.498401 0.459052 0.262881
0.538183 0.458611 0.249064
0.583576 0.456893 0.215345
0.619818 0.457529 0.183417
0.653123 0.458750 0.165048
0.685240 0.461483 0.146109
0.716816 0.465406 0.127464
0.746119 0.469541 0.133670
0.773152 0.474287 0.143218
0.798439 0.479811 0.153425
0.822428 0.485836 0.164193
0.845083 0.492406 0.175272
0.866512 0.499345 0.186860
0.886806 0.506779 0.199146
0.905801 0.514330 0.213292
0.923676 0.521677 0.232148
0.940526 0.529189 0.251327
0.956620 0.536944 0.271093
0.972255 0.544759 0.290601
0.071721 0.512449 0.065904
0.082411 0.511708 0.071014
0.092740 0.510878 0.076900
0.106964 0.509605 0.085699
0.133975 0.507445 0.098869
0.180667 0.504671 0.114938
0.222806 0.502613 0.128577
0.267453 0.499274 0.148150
0.310271 0.496368 0.165470
0.332976 0.497560 0.169896
0.364006 0.497234 0.184118
0.417432 0.490282 0.234674
0.470325 0.481656 0.281639
0.505044 0.477628 0.323580
0.516314 0.487479 0.284398
0.534198 0.493021 0.291446
0.568468 0.494842 0.284415
0.616157 0.493503 0.248788
0.653724 0.495468 0.211895
0.688616 0.497989 0.194012
0.721918 0.501343 0.174998
0.753004 0.505580 0.155395
0.780853 0.510223 0.147125
0.806308 0.515023 0.157541
0.830130 0.520149 0.168485
0.852831 0.526128 0.180142
0.874204 0.532757 0.192295
0.893934 0.539589 0.204737
0.912224 0.546843 0.217468
0.929272 0.554259 0.230670
0.945445 0.561829 0.245293
0.961006 0.568865 0.265242
0.976190 0.575892 0.285365
0.077243 0.541782 0.071157
0.086655 0.541161 0.076141
0.095948 0.540367 0.081690
0.109874 0.539327 0.089929
0.136653 0.537544 0.101725
0.185701 0.534612 0.118974
0.226396 0.532987 0.132604
0.266926 0.530565 0.150147
0.314356 0.527122 0.173299
0.344790 0.526919 0.182294
0.370709 0.528065 0.190236
0.405468 0.527301 0.213794
0.463614 0.519741 0.272889
0.510590 0.514282 0.315906
0.543182 0.512311 0.354387
0.555241 0.522920 0.317050
0.573570 0.529515 0.324658
0.602480 0.533643 0.324723
0.652860 0.531933 0.287617
0.691195 0.534581 0.251223
0.726778 0.537465 0.227367
0.758876 0.541165 0.207948
0.787503 0.545648 0.187584
0.814128 0.551055 0.166798
0.838427 0.556410 0.173605
0.860896 0.562054 0.185429
0.881763 0.568063 0.197745
0.900832 0.574343 0.210346
0.918506 0.580801 0.223227
0.934981 0.587508 0.236574
0.950582 0.594294 0.250185
0.965419 0.600994 0.263657
0.979933 0.607847 0.278065
0.082763 0.573240 0.077176
0.091151 0.572822 0.081828
0.100057 0.572325 0.087060
0.114008 0.571422 0.094972
0.142168 0.570061 0.106036
0.189253 0.567859 0.122005
0.233328 0.565814 0.138912
0.270697 0.564363 0.154644
0.314942 0.562043 0.176511
0.364419 0.558753 0.201891
0.384132 0.561650 0.204045
0.412095 0.563321 0.214589
0.451390 0.562074 0.250279
0.514337 0.553077 0.317236
0.553354 0.550630 0.357011
0.584419 0.550703 0.390251
0.596352 0.561945 0.353297
0.614275 0.569228 0.361007
0.637502 0.575586 0.368019
0.691296 0.573337 0.329412
0.729672 0.575898 0.296142
0.764029 0.579446 0.264905
0.793812 0.583709 0.245134
0.821048 0.588510 0.224243
0.845907 0.593834 0.202566
0.868550 0.599421 0.191111
0.888792 0.604631 0.203184
0.907249 0.610030 0.215742
0.924317 0.615721 0.228773
0.940256 0.621567 0.242073
0.955319 0.627546 0.255445
0.969684 0.633483 0.268992
0.983302 0.639962 0.285373
0.088845 0.609094 0.084362
0.096618 0.608782 0.088700
0.105412 0.608468 0.093838
0.120722 0.607850 0.101429
0.151367 0.606867 0.111972
0.197212 0.605278 0.127077
0.244939 0.602909 0.148309
0.279792 0.602345 0.162605
0.321046 0.600821 0.183133
0.367970 0.598565 0.208589
0.404335 0.598299 0.224512
0.427640 0.601054 0.231260
0.456372 0.603232 0.243133
0.501207 0.600489 0.293861
0.565496 0.590506 0.365019
0.596960 0.590334 0.401444
0.626074 0.591782 0.428637
0.638009 0.603361 0.391942
0.656046 0.611182 0.399535
0.674994 0.619499 0.412281
0.730265 0.617102 0.373722
0.767349 0.619664 0.342197
0.798905 0.623559 0.305107
0.826626 0.627513 0.285530
0.851670 0.632073 0.264287
0.874378 0.637066 0.241398
0.894859 0.642393 0.217654
0.912938 0.647194 0.221309
0.929479 0.651929 0.234101
0.944879 0.656738 0.246972
0.959450 0.661532 0.260301
0.973236 0.666021 0.273522
0.983192 0.673394 0.309480
0.095576 0.649443 0.092676
0.103224 0.649217 0.096932
0.112963 0.648914 0.101987
0.131079 0.648380 0.109266
0.164133 0.647576 0.119723
0.208241 0.646290 0.134193
0.252795 0.644352 0.154659
0.292200 0.643298 0.173136
0.330577 0.642533 0.191904
0.374606 0.640779 0.216618
0.423312 0.638101 0.246021
0.447335 0.640892 0.252107
0.473201 0.643561 0.262664
0.504052 0.645083 0.283152
0.550649 0.641201 0.340090
0.609545 0.632704 0.407155
0.641217 0.632630 0.448502
0.668985 0.635340 0.469829
0.681224 0.647762 0.433189
0.699136 0.656038 0.440164
0.717770 0.664143 0.453354
0.766188 0.662693 0.420020
0.801125 0.664319 0.387839
0.830440 0.667752 0.345875
0.855820 0.671051 0.326189
0.878530 0.674638 0.305126
0.898829 0.678493 0.282133
0.917148 0.682588 0.257665
0.933739 0.686508 0.239419
0.948616 0.689672 0.251674
0.962470 0.692458 0.264179
0.975748 0.695230 0.276735
0.983132 0.702568 0.331926
0.103105 0.690624 0.101910
0.111456 0.690422 0.106101
0.122895 0.690271 0.111089
0.145005 0.689846 0.118491
0.179346 0.689192 0.128692
0.220508 0.688209 0.142768
0.262302 0.686733 0.162426
0.306913 0.685105 0.185979
0.342639 0.684747 0.202791
0.384155 0.683863 0.226350
0.429621 0.682193 0.255190
0.471985 0.680953 0.279669
0.492386 0.684414 0.284139
0.519376 0.686796 0.296968
0.551997 0.687601 0.327367
0.600448 0.683411 0.389289
0.654131 0.676524 0.451379
0.686023 0.675848 0.493238
0.712110 0.679124 0.504480
0.723721 0.690151 0.474545
0.740128 0.696920 0.479616
0.756900 0.703254 0.490425
0.797115 0.703008 0.467266
0.831172 0.703331 0.432707
0.857640 0.705630 0.395428
0.881064 0.707792 0.365832
0.901337 0.710023 0.344729
0.919384 0.712336 0.322019
0.935646 0.714578 0.297437
0.950702 0.716950 0.271045
0.964649 0.719042 0.267854
0.977945 0.721072 0.280130
0.983091 0.728321 0.355412
0.112493 0.727164 0.112115
0.122717 0.727031 0.116462
0.137627 0.726924 0.121598
0.162429 0.726543 0.128745
0.196354 0.726080 0.138938
0.233480 0.725421 0.153074
0.273960 0.724364 0.172011
0.320116 0.722833 0.197361
0.357490 0.722295 0.216564
0.396004 0.721798 0.238176
0.438849 0.720685 0.266220
0.485628 0.718602 0.297813
0.514789 0.719478 0.309923
0.536925 0.721857 0.318441
0.563384 0.723891 0.331730
0.598388 0.723539 0.373066
0.648943 0.718681 0.439430
0.697437 0.713451 0.491702
0.728798 0.712158 0.529148
0.751398 0.715147 0.535265
0.761403 0.724007 0.506906
0.775518 0.729656 0.509836
0.790298 0.734855 0.519236
0.823418 0.735206 0.504892
0.856689 0.734738 0.475486
0.880605 0.735930 0.441286
0.901588 0.737053 0.403090
0.919624 0.738096 0.381879
0.936088 0.739507 0.359134
0.951371 0.741189 0.334986
0.965874 0.743138 0.309384
0.979775 0.745302 0.283868
0.983039 0.752712 0.379645
0.125375 0.760464 0.123500
0.138894 0.760319 0.127805
0.155852 0.760157 0.132707
0.181277 0.759839 0.140052
0.213521 0.759370 0.150280
0.247241 0.758777 0.164199
0.286258 0.757859 0.182556
0.330583 0.756521 0.206719
0.372978 0.755350 0.231584
0.408835 0.754982 0.251462
0.449026 0.754066 0.277773
0.492764 0.752252 0.307900
0.539158 0.749575 0.340426
0.555688 0.752495 0.341577
0.578856 0.754460 0.352569
0.604185 0.756109 0.366359
0.642501 0.754221 0.419188
0.695544 0.748071 0.486562
0.737560 0.744089 0.523237
0.766194 0.742343 0.565358
0.784841 0.745374 0.566061
0.793519 0.753304 0.535869
0.805936 0.758409 0.537444
0.818936 0.762893 0.547050
0.844786 0.763466 0.537059
0.877057 0.761727 0.507077
0.899295 0.762316 0.481248
0.918814 0.763370 0.438010
0.935724 0.764206 0.417792
0.951383 0.765399 0.395608
0.966183 0.766900 0.371966
0.977258 0.770262 0.374483
0.981418 0.777531 0.429459
0.142422 0.792996 0.135039
0.157845 0.792886 0.139537
0.175656 0.792643 0.144439
0.200082 0.792301 0.151811
0.228649 0.791833 0.162044
0.260752 0.791197 0.175622
0.298187 0.790297 0.193213
0.340767 0.789003 0.216406
0.387514 0.787189 0.246642
0.421473 0.786762 0.265561
0.459006 0.785950 0.289204
0.500165 0.784249 0.317769
0.543227 0.781984 0.349370
0.575875 0.781583 0.368063
0.594206 0.783872 0.373189
0.617471 0.785306 0.385724
0.644417 0.786012 0.408072
0.684490 0.783052 0.464926
0.739015 0.775255 0.522966
0.771805 0.772422 0.554277
0.797738 0.769960 0.599121
0.813538 0.773135 0.594795
0.821144 0.780550 0.564278
0.832067 0.785365 0.564159
0.843884 0.789452 0.573565
0.863289 0.791207 0.570081
0.894781 0.788231 0.537319
0.916168 0.788345 0.512308
0.934197 0.789333 0.481143
0.950718 0.790121 0.453491
0.965877 0.791026 0.431512
0.972033 0.796037 0.475194
0.976823 0.802143 0.511754
0.161925 0.822984 0.147002
0.177655 0.822799 0.151510
0.194836 0.822536 0.156425
0.217006 0.822226 0.163766
0.242779 0.821768 0.173700
0.273639 0.821075 0.186946
0.309595 0.820251 0.204184
0.350365 0.819001 0.226227
0.394968 0.817356 0.254753
0.433685 0.816161 0.279665
0.468744 0.815363 0.300686
0.507185 0.813782 0.327110
0.547335 0.811722 0.357087
0.590118 0.809212 0.389818
0.610103 0.810529 0.395736
0.629814 0.812053 0.403838
0.653233 0.812996 0.416630
0.681993 0.812519 0.448280
0.723555 0.808354 0.501401
0.776353 0.799729 0.559183
0.801056 0.798474 0.583593
0.825366 0.795630 0.630646
0.839008 0.799124 0.622165
0.846018 0.806126 0.591965
0.855792 0.810778 0.590147
0.866576 0.814496 0.599535
0.879739 0.817633 0.603103
0.910829 0.813975 0.569476
0.931585 0.813086 0.542565
0.948681 0.813831 0.514485
0.961040 0.816024 0.509816
0.967224 0.820163 0.544279
0.972524 0.825358 0.577265
0.181682 0.849568 0.158992
0.196431 0.849396 0.163266
0.212117 0.849157 0.168134
0.231522 0.848784 0.175414
0.255835 0.848299 0.185252
0.285569 0.847632 0.197978
0.319995 0.846748 0.214487
0.358948 0.845579 0.235602
0.401444 0.843989 0.262447
0.444941 0.842181 0.293161
0.477529 0.841284 0.312053
0.513336 0.839814 0.335634
0.551040 0.838022 0.364083
0.590794 0.835886 0.395398
0.627068 0.834022 0.421031
0.642435 0.835918 0.422843
0.663290 0.836967 0.433266
0.686500 0.837733 0.445934
0.718022 0.836260 0.485461
0.759282 0.831577 0.533266
0.806767 0.823479 0.590885
0.827814 0.822828 0.613436
0.850560 0.819878 0.661141
0.862319 0.823591 0.649206
0.868703 0.830157 0.619363
0.877375 0.834575 0.615582
0.887225 0.837970 0.624945
0.896454 0.841736 0.632708
0.925328 0.838389 0.602195
0.943276 0.837273 0.589281
0.953439 0.839691 0.601090
0.962799 0.842928 0.607080
0.968599 0.847298 0.638086
0.199900 0.872803 0.170476
0.213274 0.872589 0.174712
0.226710 0.872406 0.179745
0.244731 0.872037 0.186556
0.268096 0.871591 0.196108
0.296428 0.870981 0.208729
0.329623 0.870145 0.224720
0.366728 0.869054 0.244733
0.407402 0.867684 0.270231
0.451385 0.865848 0.301298
0.486346 0.864575 0.323646
0.519640 0.863399 0.344802
0.555143 0.861910 0.371290
0.592637 0.860133 0.401067
0.632408 0.857812 0.433176
0.657209 0.857826 0.445448
0.674478 0.859226 0.450883
0.696146 0.859987 0.462866
0.719224 0.860546 0.476064
0.752048 0.858151 0.515743
0.791333 0.853248 0.566461
0.832664 0.846365 0.618992
0.852201 0.845578 0.643547
0.873443 0.842613 0.690650
0.883517 0.846390 0.675785
0.889331 0.852504 0.646372
0.896986 0.856757 0.640557
0.905969 0.859832 0.649805
0.914458 0.863210 0.657593
0.933246 0.862008 0.667969
0.947009 0.862199 0.678664
0.956229 0.864467 0.690558
0.964583 0.868100 0.699769
0.216803 0.893911 0.182268
0.228373 0.893722 0.186471
0.240711 0.893503 0.191259
0.257937 0.893216 0.198207
0.280388 0.892782 0.207475
0.307540 0.892225 0.219600
0.339186 0.891491 0.235084
0.374791 0.890460 0.254389
0.413667 0.889237 0.278433
0.455842 0.887607 0.307435
0.495596 0.885879 0.335773
0.526640 0.884950 0.355050
0.559888 0.883782 0.378996
0.595474 0.882291 0.407380
0.632820 0.880393 0.438260
0.673604 0.877774 0.471239
0.687506 0.879475 0.470815
0.706162 0.880450 0.478093
0.727819 0.880978 0.488496
0.751312 0.880918 0.505799
0.782740 0.878267 0.546630
0.821020 0.873233 0.599502
