bundles/resolve-cinematic-luts/Gamut/Timbre/Timbre 03.cube
TITLE "Generated by 3D LUT Creator Pro (c) Oleg Sharonov"
LUT_3D_SIZE 9
#IMAGEPROFILE iMac 5K Retina - Dark Room v.2.40
#INPUTGAMMA iMac 5K Retina - Dark Room v.2.40
#OUTPUTGAMMA iMac 5K Retina - Dark Room v.2.40
0.000000 0.000000 0.000000
0.061010 0.009473 0.009238
0.154967 0.032972 0.033496
0.356102 0.062742 0.066434
0.549765 0.095629 0.111043
0.689150 0.142440 0.160795
0.781823 0.191927 0.205468
0.855711 0.246664 0.255024
0.929136 0.311202 0.322664
0.008247 0.077054 0.006739
0.080532 0.077148 0.045465
0.214381 0.085827 0.029712
0.406009 0.104209 0.061515
0.582080 0.140620 0.101805
0.706707 0.179238 0.143084
0.796460 0.216570 0.183866
0.872392 0.260513 0.232012
0.942703 0.322286 0.302249
0.028839 0.246311 0.025458
0.106286 0.239685 0.072209
0.269072 0.248625 0.129062
0.457255 0.266039 0.079038
0.597267 0.280749 0.091407
0.705031 0.295296 0.127591
0.797870 0.316217 0.172863
0.881714 0.353154 0.229137
0.953775 0.401360 0.298750
0.061175 0.448343 0.055399
0.131393 0.441019 0.094853
0.288692 0.433918 0.143133
0.445838 0.421171 0.231279
0.590457 0.421742 0.159126
0.711388 0.428594 0.122139
0.815012 0.450756 0.160104
0.899885 0.481410 0.218550
0.968261 0.515082 0.294410
0.082763 0.573240 0.077176
0.142168 0.570061 0.106036
0.314942 0.562043 0.176511
0.451390 0.562074 0.250279
0.596352 0.561945 0.353297
0.729672 0.575898 0.296142
0.845907 0.593834 0.202566
0.924317 0.615721 0.228773
0.983302 0.639962 0.285373
0.112493 0.727164 0.112115
0.196354 0.726080 0.138938
0.357490 0.722295 0.216564
0.514789 0.719478 0.309923
0.648943 0.718681 0.439430
0.761403 0.724007 0.506906
0.856689 0.734738 0.475486
0.936088 0.739507 0.359134
0.983039 0.752712 0.379645
0.181682 0.849568 0.158992
0.255835 0.848299 0.185252
0.401444 0.843989 0.262447
0.551040 0.838022 0.364083
0.663290 0.836967 0.433266
0.806767 0.823479 0.590885
0.868703 0.830157 0.619363
0.925328 0.838389 0.602195
0.968599 0.847298 0.638086
0.247053 0.930831 0.206754
0.304817 0.929842 0.230731
0.427053 0.926806 0.296174
0.571516 0.921803 0.397380
0.712036 0.915311 0.504711
0.783403 0.917818 0.531094
0.897749 0.904765 0.706654
0.932460 0.908987 0.802501
0.951423 0.921287 0.850977
0.426996 0.986751 0.392720
0.477285 0.984934 0.429720
0.580333 0.980148 0.510187
0.710710 0.972035 0.620307
0.804857 0.965984 0.713502
0.871744 0.962162 0.786641
0.912687 0.962129 0.843388
0.957145 0.957716 0.912430
0.971357 0.962919 0.936781
0.001751 0.007099 0.029806
0.077009 0.000512 0.071389
0.184751 0.023442 0.079688
0.369332 0.059556 0.107473
0.556701 0.093416 0.152755
0.692475 0.138871 0.200041
0.783577 0.188871 0.239540
0.857076 0.244490 0.285473
0.930175 0.309577 0.349261
0.001688 0.078836 0.070688
0.079956 0.080044 0.076235
0.223025 0.085787 0.080289
0.431332 0.096427 0.099519
0.592159 0.133376 0.140719
0.707585 0.178299 0.183179
0.792441 0.222939 0.224165
0.866271 0.272764 0.274870
0.937809 0.335300 0.341794
0.020275 0.250572 0.082478
0.125092 0.234416 0.110472
0.278502 0.252110 0.131274
0.445479 0.272005 0.136815
0.580349 0.291796 0.149235
0.706166 0.293886 0.168913
0.803285 0.309945 0.202656
0.886014 0.346796 0.255581
0.956850 0.395548 0.322126
0.038301 0.452486 0.085537
0.215298 0.428130 0.160429
0.322708 0.425289 0.201067
0.442765 0.422906 0.255796
0.580634 0.425597 0.208903
0.705938 0.431522 0.175049
0.815884 0.450666 0.193906
0.902882 0.478302 0.249851
0.970594 0.511911 0.320823
0.052478 0.578119 0.080454
0.234683 0.559372 0.190945
0.364425 0.552149 0.262269
0.447258 0.564457 0.260088
0.597265 0.563388 0.357447
0.726649 0.578276 0.316552
0.844806 0.595409 0.235784
0.925127 0.615227 0.263103
0.981250 0.642243 0.330793
0.086008 0.730754 0.110807
0.290961 0.717827 0.248258
0.417544 0.713884 0.328159
0.580355 0.704986 0.427455
0.643022 0.721034 0.444046
0.762479 0.724969 0.505965
0.857416 0.735518 0.475051
0.935755 0.739905 0.380277
0.980488 0.754090 0.423250
0.124941 0.852446 0.151888
0.350471 0.841150 0.312339
0.469345 0.836039 0.396825
0.601663 0.828834 0.484300
0.696712 0.830081 0.496073
0.804246 0.824628 0.597063
0.869558 0.830745 0.615240
0.926444 0.838796 0.596002
0.967403 0.847998 0.650297
0.194269 0.932938 0.193144
0.390631 0.924911 0.352441
0.497653 0.920929 0.428798
0.622312 0.914997 0.513464
0.757514 0.907333 0.590100
0.788748 0.916915 0.547768
0.896728 0.905011 0.718049
0.932960 0.909343 0.800491
0.952534 0.921414 0.848335
0.397614 0.988538 0.381104
0.587231 0.975932 0.561172
0.668595 0.971315 0.628918
0.769447 0.963792 0.719515
0.836248 0.959556 0.779041
0.889608 0.957387 0.823187
0.912917 0.962209 0.845980
0.956941 0.957887 0.914135
0.971517 0.963070 0.936654
0.006937 0.024642 0.076911
0.066586 0.015474 0.155645
0.232697 0.000679 0.196115
0.428065 0.027057 0.217305
0.581231 0.081918 0.257751
0.703500 0.126419 0.294588
0.789239 0.178413 0.320018
0.861293 0.237294 0.355099
0.933085 0.304648 0.411208
0.032071 0.079862 0.149782
0.072170 0.086038 0.168160
0.244523 0.081404 0.207420
0.442606 0.094439 0.225907
0.600037 0.128621 0.258391
0.711712 0.171940 0.284035
0.795215 0.217256 0.310000
0.868978 0.268966 0.348948
0.939848 0.332419 0.407252
0.015972 0.255046 0.197940
0.083881 0.261607 0.214760
0.265322 0.261970 0.231433
0.474148 0.264195 0.204398
0.579889 0.293077 0.242080
0.736212 0.265230 0.237818
0.816063 0.293634 0.273504
0.891661 0.338988 0.325972
0.958259 0.394556 0.390023
0.037831 0.462368 0.228296
0.130062 0.444158 0.196725
0.313263 0.429761 0.258789
0.442006 0.426206 0.295140
0.589987 0.424313 0.251775
0.693707 0.439779 0.265935
0.802364 0.462923 0.306354
0.897925 0.485336 0.347644
0.971074 0.512214 0.396198
0.061151 0.576698 0.201192
0.162736 0.569659 0.218431
0.387983 0.551143 0.294132
0.466725 0.561625 0.333514
0.591522 0.566032 0.429688
0.721436 0.582738 0.375106
0.831420 0.603095 0.375894
0.910160 0.629532 0.394775
0.970322 0.655283 0.436390
0.076957 0.732264 0.207164
0.207768 0.727458 0.236888
0.486202 0.706161 0.381942
0.585409 0.705892 0.467151
0.632528 0.725579 0.462751
0.756171 0.726752 0.556881
0.848140 0.739662 0.512972
0.926558 0.744327 0.486506
0.969116 0.760554 0.527323
0.096732 0.854770 0.218275
0.246510 0.850051 0.254328
0.521180 0.831108 0.445432
0.628230 0.825295 0.518287
0.719567 0.825318 0.551658
0.791464 0.829432 0.604135
0.867862 0.831931 0.639355
0.923688 0.841120 0.610940
0.960608 0.851150 0.693594
0.121026 0.935309 0.221003
0.303400 0.930256 0.307865
0.554635 0.915989 0.496533
0.650461 0.912110 0.553724
0.767236 0.905740 0.630765
0.800376 0.914947 0.588597
0.893965 0.905697 0.744973
0.932268 0.910072 0.810878
0.953478 0.921946 0.848988
0.316693 0.992118 0.356146
0.542899 0.980195 0.537803
0.737966 0.963741 0.711968
0.799460 0.959224 0.767985
0.857891 0.955033 0.820396
0.909529 0.951543 0.863780
0.913715 0.962368 0.852864
0.956398 0.958298 0.918307
0.971501 0.963406 0.938091
0.020764 0.049170 0.136915
0.051161 0.046437 0.254511
0.219784 0.031512 0.324851
0.462177 0.000000 0.419660
0.642087 0.021946 0.435310
0.739185 0.086881 0.435502
0.803920 0.150013 0.439537
0.870389 0.218683 0.461692
0.939321 0.292465 0.502590
0.047335 0.092190 0.215596
0.077412 0.098059 0.238719
0.236749 0.093670 0.341197
0.466882 0.090946 0.435277
0.633166 0.099340 0.430782
0.732976 0.141170 0.428069
0.804468 0.198780 0.433967
0.876371 0.257082 0.459925
0.944980 0.323220 0.501962
0.074157 0.252774 0.325585
0.106941 0.263933 0.331890
0.240225 0.281912 0.432551
0.493818 0.246592 0.460329
0.622463 0.257338 0.407878
0.731440 0.265896 0.404955
0.816829 0.291776 0.416207
0.893984 0.336999 0.451775
0.960401 0.392644 0.497858
0.049466 0.437578 0.356175
0.101256 0.440773 0.371765
0.226009 0.447984 0.415845
0.434881 0.430507 0.397560
0.604339 0.420898 0.340223
0.734972 0.416741 0.368410
0.793832 0.473625 0.416847
0.915276 0.466797 0.435539
0.971120 0.513701 0.504183
0.048568 0.570801 0.336744
0.128539 0.571963 0.344738
0.366261 0.563734 0.290992
0.464504 0.565728 0.422270
0.575304 0.580028 0.434350
0.745126 0.577935 0.437491
0.845697 0.598658 0.440404
0.915957 0.627391 0.473513
0.965580 0.660553 0.538810
0.081141 0.732334 0.377798
0.192976 0.729502 0.387224
0.375207 0.725926 0.382741
0.563765 0.715246 0.483790
0.645147 0.724404 0.533469
0.776905 0.727732 0.523768
0.851567 0.741151 0.539854
0.929431 0.744468 0.524261
0.961683 0.766274 0.599958
0.108872 0.853194 0.401634
0.241122 0.849801 0.415919
0.436218 0.843176 0.429914
0.645521 0.825068 0.540742
0.735139 0.822549 0.619941
0.777545 0.834922 0.626677
0.857439 0.833790 0.726919
0.922687 0.842575 0.652043
0.957816 0.853485 0.729481
0.132087 0.934033 0.395752
0.268208 0.931318 0.415675
0.477234 0.924693 0.461283
0.709044 0.906565 0.596922
0.787130 0.903506 0.663096
0.819988 0.911160 0.661140
0.888562 0.907532 0.779265
0.926639 0.911219 0.851968
0.954579 0.922859 0.854787
0.289231 0.992995 0.454197
0.480345 0.985006 0.541043
0.694719 0.969923 0.678463
0.802670 0.959847 0.776601
0.863215 0.954958 0.832023
0.911504 0.951602 0.877441
0.917761 0.961830 0.867272
0.955769 0.959134 0.923756
0.970588 0.963961 0.943799
0.043428 0.075547 0.220210
0.062188 0.077334 0.316221
0.182646 0.077283 0.409974
0.448716 0.053228 0.530709
0.664270 0.000000 0.632548
0.782908 0.000000 0.591381
0.841795 0.078435 0.568772
0.893430 0.159577 0.571750
0.951377 0.262916 0.601614
0.065448 0.116163 0.290227
0.090658 0.125034 0.327820
0.217337 0.128495 0.452334
0.463803 0.109313 0.545371
0.654791 0.090270 0.627917
0.766304 0.089791 0.578411
0.835110 0.131872 0.563067
0.894869 0.215555 0.572316
0.954882 0.302244 0.603489
0.117688 0.268302 0.442318
0.140850 0.283505 0.440918
0.241125 0.296797 0.519418
0.478721 0.262684 0.582133
0.627613 0.252874 0.598593
0.739612 0.251828 0.557832
0.829003 0.273266 0.555316
0.902893 0.323456 0.574230
0.966557 0.383261 0.606358
0.111637 0.417993 0.472313
0.158240 0.422378 0.483898
0.294403 0.429662 0.514563
0.393433 0.433206 0.555225
0.619639 0.399413 0.576838
0.747656 0.407765 0.532195
0.839121 0.434833 0.549244
0.920303 0.462027 0.574317
0.971855 0.515493 0.616427
0.079742 0.548895 0.457837
0.117913 0.551906 0.470275
0.233493 0.563364 0.498228
0.461296 0.568800 0.540280
0.590971 0.578645 0.553446
0.758394 0.580137 0.514144
0.867477 0.589138 0.526410
0.938269 0.606208 0.570300
0.973093 0.652702 0.633305
0.074202 0.722277 0.481491
0.147652 0.725295 0.500664
0.339912 0.732379 0.501297
0.614172 0.715970 0.461510
0.638544 0.729875 0.601761
0.732325 0.743552 0.596779
0.877068 0.733010 0.602418
0.937955 0.740080 0.608066
0.965054 0.766542 0.649851
0.101748 0.850703 0.523745
0.222170 0.849295 0.530967
0.408784 0.845649 0.543350
0.605937 0.835312 0.552608
0.702945 0.832825 0.634092
0.797835 0.831185 0.696763
0.866794 0.836530 0.706620
0.921454 0.843787 0.722133
0.962885 0.853811 0.748359
0.156483 0.932363 0.556163
0.273626 0.930108 0.564412
0.451060 0.925427 0.580510
0.625825 0.918658 0.577410
0.773621 0.908375 0.673361
0.850284 0.902921 0.783421
0.881398 0.910564 0.811792
0.937936 0.913056 0.807848
0.958173 0.923484 0.863416
0.327664 0.990727 0.593324
0.487139 0.984178 0.642218
0.680542 0.971515 0.729182
0.771691 0.966095 0.766669
0.841178 0.961386 0.819519
0.900537 0.956528 0.873466
0.924798 0.960787 0.885738
0.955021 0.960831 0.925188
0.970652 0.964814 0.947267
0.070568 0.105122 0.323644
0.086039 0.109879 0.395343
0.180882 0.117886 0.506119
0.416520 0.114619 0.584789
0.629997 0.067608 0.694970
0.777923 0.000000 0.749986
0.864971 0.000000 0.716908
0.924652 0.070656 0.706992
0.977658 0.164113 0.722186
0.090736 0.163621 0.389069
0.110612 0.174084 0.425529
0.213210 0.182561 0.545377
0.429722 0.175091 0.600088
0.622817 0.119710 0.688194
0.761011 0.084827 0.731914
0.857335 0.081053 0.708734
0.923167 0.125715 0.706401
0.978538 0.228234 0.724124
0.149125 0.297399 0.510106
0.176214 0.307430 0.516754
0.251514 0.317439 0.570198
0.433185 0.292161 0.635156
0.603353 0.258002 0.665388
0.733113 0.241762 0.705115
0.845234 0.245783 0.696951
0.922209 0.282423 0.707462
0.979637 0.355720 0.727833
0.195080 0.412083 0.551232
0.227646 0.416550 0.557963
0.283570 0.430524 0.564928
0.385034 0.431268 0.635275
0.607088 0.391430 0.687697
0.748375 0.398274 0.717889
0.849784 0.424929 0.702804
0.930484 0.449587 0.714598
0.974475 0.515750 0.735068
0.170914 0.532727 0.547878
0.211628 0.537714 0.556246
0.287506 0.552797 0.583445
0.468662 0.566365 0.648148
0.559057 0.589200 0.698441
0.766734 0.570541 0.732411
0.883253 0.576712 0.694658
0.940925 0.608393 0.686736
0.974324 0.652286 0.746392
0.134305 0.696435 0.569060
0.199818 0.699991 0.578781
0.302451 0.709814 0.603496
0.414706 0.727863 0.645216
0.637277 0.732839 0.713667
0.753739 0.739570 0.724031
0.880872 0.735542 0.674310
0.931202 0.748778 0.679415
0.975561 0.758905 0.750797
0.101705 0.840174 0.611991
0.192073 0.840353 0.617846
0.360083 0.842020 0.635667
0.518774 0.850379 0.595035
0.773562 0.828039 0.587544
0.769871 0.841362 0.746379
0.839407 0.848570 0.753505
0.926544 0.843542 0.783010
0.968354 0.854306 0.783702
0.124061 0.932665 0.681143
0.244790 0.930934 0.675078
0.422449 0.928099 0.661547
0.569365 0.925748 0.628336
0.778714 0.909881 0.721570
0.831360 0.909938 0.803348
0.903090 0.906103 0.853330
0.921256 0.918414 0.868739
0.963279 0.924372 0.874161
0.304961 0.990952 0.703923
0.474303 0.984799 0.733020
0.669774 0.973136 0.786426
0.762381 0.967929 0.817723
0.813977 0.967924 0.825209
0.883224 0.963487 0.864628
0.934673 0.958899 0.911068
0.949768 0.964755 0.921534
0.970828 0.965931 0.951475
0.101876 0.166813 0.441134
0.116876 0.174848 0.493940
0.210840 0.186720 0.588652
0.391111 0.193908 0.636089
0.578826 0.144274 0.713619
0.732628 0.080041 0.778373
0.853229 0.008829 0.831811
0.939887 0.000000 0.841369
0.999999 0.075208 0.843119
0.124265 0.230069 0.493019
0.157564 0.239399 0.517381
0.235232 0.241022 0.622448
0.398210 0.240770 0.651543
0.574906 0.196693 0.707247
0.723960 0.127660 0.768065
0.847555 0.084419 0.826734
0.939398 0.075555 0.841203
0.996112 0.159915 0.840634
0.185679 0.327304 0.556613
0.205213 0.334380 0.562044
0.267927 0.339930 0.613102
0.397934 0.323774 0.683827
0.569098 0.295173 0.699774
0.714807 0.258541 0.758177
0.841059 0.245950 0.822897
0.935562 0.248699 0.838148
0.985756 0.351595 0.835341
0.252418 0.415290 0.612163
0.265989 0.421179 0.612743
0.299146 0.434073 0.621933
0.386256 0.439587 0.686862
0.577928 0.413745 0.736425
0.735955 0.401361 0.781600
0.850653 0.424635 0.839371
0.936601 0.444344 0.841733
0.979691 0.514743 0.837096
0.269081 0.529776 0.628601
0.293484 0.535641 0.639511
0.350246 0.549820 0.661280
0.437905 0.576058 0.684648
0.559017 0.584602 0.775065
0.771756 0.556969 0.833993
0.882362 0.569172 0.869707
0.945085 0.599535 0.850479
0.978941 0.648639 0.843458
0.270156 0.676832 0.652784
0.293411 0.683279 0.662063
0.348944 0.698912 0.685901
0.462294 0.719331 0.721558
0.643709 0.733819 0.791742
0.731738 0.744696 0.825365
0.877621 0.730394 0.859133
0.934795 0.744593 0.825839
0.977867 0.758180 0.848392
0.202451 0.829809 0.746988
0.250705 0.833749 0.760506
0.353653 0.837213 0.776811
0.456489 0.845589 0.806372
0.563760 0.853626 0.840973
0.772609 0.841838 0.840005
0.855738 0.844806 0.844807
0.934992 0.844377 0.822544
0.979265 0.850389 0.849967
0.084032 0.935333 0.818536
0.165403 0.933944 0.817742
0.349344 0.930731 0.814456
0.519750 0.927253 0.798581
0.697038 0.926389 0.689517
0.854884 0.912248 0.770094
0.878731 0.916598 0.870215
0.918342 0.924107 0.875358
0.971784 0.924618 0.889383
0.214358 0.993266 0.810173
0.419236 0.987195 0.820372
0.644904 0.975775 0.839061
0.755953 0.970786 0.847247
0.805670 0.970856 0.861707
0.858317 0.970622 0.879587
0.921744 0.965874 0.905557
0.944331 0.969117 0.919524
0.971436 0.967324 0.955305
0.161184 0.248851 0.540175
0.185356 0.253173 0.572122
0.243676 0.253359 0.660178
0.373175 0.259340 0.688311
0.531741 0.238986 0.724016
0.687581 0.167860 0.788151
0.820148 0.099511 0.851160
0.932024 0.034210 0.914245
0.999999 0.080990 0.931806
0.186236 0.288460 0.566063
0.212106 0.292326 0.585231
0.260526 0.291357 0.660398
0.378048 0.290149 0.698891
0.532811 0.271932 0.723623
0.685795 0.215319 0.785268
0.819968 0.152948 0.849981
0.931050 0.094887 0.913913
0.999362 0.164338 0.929308
0.221144 0.357160 0.596775
0.238988 0.360863 0.608095
0.290036 0.363965 0.651299
0.383593 0.352944 0.726166
0.538486 0.339667 0.734622
0.688232 0.310218 0.784772
0.824625 0.280492 0.853247
0.930439 0.263954 0.915961
0.988817 0.358678 0.921351
0.279568 0.432198 0.649053
0.290989 0.437291 0.652417
0.319649 0.448934 0.664790
0.398545 0.455741 0.729222
0.552963 0.444509 0.783222
0.718386 0.430701 0.815881
0.841881 0.428112 0.868243
0.933690 0.447242 0.923390
0.982809 0.518336 0.917888
0.344078 0.536688 0.703289
0.362301 0.542363 0.712185
0.400980 0.556754 0.726049
0.455344 0.579398 0.747624
0.562943 0.590230 0.827509
0.754117 0.570532 0.863410
0.880250 0.556790 0.901202
0.944391 0.594572 0.929977
0.982432 0.647845 0.918974
0.366166 0.674106 0.726147
0.385181 0.678896 0.735061
0.436271 0.691174 0.758958
0.519799 0.711589 0.783644
0.621710 0.730156 0.804779
0.733435 0.737415 0.876109
0.877007 0.723175 0.921195
0.935063 0.740419 0.931377
0.982153 0.756820 0.920235
0.324291 0.833542 0.863061
0.356037 0.835448 0.867070
0.423032 0.842389 0.881566
0.510943 0.849712 0.898586
0.625515 0.851108 0.906473
0.772865 0.843824 0.909621
0.837474 0.850119 0.920641
0.933207 0.842449 0.928796
0.981863 0.850462 0.923121
0.098895 0.936347 0.919817
0.172363 0.935463 0.919679
0.321119 0.933530 0.919524
0.472209 0.931349 0.920383
0.575892 0.930867 0.923220
0.756949 0.923929 0.922770
0.880684 0.918136 0.918477
0.927383 0.922785 0.924268
0.979221 0.924577 0.923385
0.075577 0.996643 0.913853
0.258864 0.993110 0.913807
0.564483 0.982344 0.915404
0.696327 0.976831 0.916300
0.769291 0.975758 0.916100
0.841093 0.974285 0.916226
0.900131 0.974188 0.910530
0.946269 0.970108 0.937062
0.974045 0.968891 0.955223
0.220939 0.305897 0.611833
0.235666 0.307607 0.634442
0.275431 0.306279 0.694382
0.367385 0.308965 0.728049
0.503076 0.303687 0.744057
0.641477 0.278967 0.789832
0.790633 0.221277 0.859877
0.907368 0.148350 0.923230
0.999719 0.080840 0.977688
0.233313 0.331423 0.624043
0.251229 0.334207 0.638593
0.289742 0.333303 0.692716
0.375457 0.331200 0.737158
0.507797 0.327068 0.749665
0.645672 0.307388 0.792111
0.794873 0.260955 0.862182
0.909235 0.204182 0.924377
0.995377 0.169574 0.973406
0.258298 0.385039 0.639956
0.274783 0.386985 0.652670
0.316219 0.389987 0.688293
0.389234 0.382182 0.763058
0.520537 0.381674 0.772050
0.662323 0.373080 0.805250
0.807114 0.345130 0.869379
0.914386 0.317815 0.927864
0.985079 0.359367 0.962396
0.310848 0.455582 0.686544
0.320731 0.460076 0.690706
0.346393 0.471457 0.705028
0.414566 0.472762 0.777689
0.542428 0.467974 0.830577
0.705369 0.458177 0.850136
0.841355 0.437334 0.897388
0.938864 0.411391 0.946758
0.979121 0.510747 0.953394
0.396487 0.551331 0.758813
0.406217 0.556954 0.762338
0.431411 0.570878 0.772788
0.466984 0.585337 0.802367
0.555658 0.579694 0.887234
0.743294 0.559094 0.905285
0.884157 0.525946 0.932008
0.956805 0.538254 0.967250
0.980951 0.648156 0.972973
0.447425 0.679148 0.793135
0.462590 0.683411 0.799174
0.500713 0.694589 0.812594
0.548410 0.705196 0.836577
0.588214 0.712845 0.877057
0.707154 0.726411 0.945853
0.858282 0.739725 0.962709
0.933232 0.754795 0.978481
0.982050 0.759355 0.980395
0.416728 0.843382 0.943013
0.439829 0.845683 0.947574
0.496239 0.850608 0.957515
0.605161 0.851161 0.958668
0.688706 0.852738 0.960095
0.770283 0.855361 0.961390
0.843729 0.858910 0.971695
0.930748 0.851101 0.979551
0.982511 0.850761 0.981729
0.244820 0.933950 0.981550
0.297130 0.933279 0.980963
0.475129 0.928717 0.974206
0.598460 0.925849 0.970266
0.695936 0.925250 0.970904
0.790964 0.924718 0.971882
0.869244 0.924274 0.974146
0.920996 0.926703 0.980275
0.983039 0.922202 0.983088
0.074316 0.996253 0.987653
0.213934 0.994036 0.986004
0.533516 0.984763 0.978937
0.667208 0.980157 0.975808
0.738073 0.979942 0.976573
0.808243 0.979341 0.977116
0.870691 0.978080 0.977114
0.916345 0.976845 0.976837
0.971325 0.970670 0.971645
