bundles/resolve-cinematic-luts/Gamut/Timbre/Timbre 05.cube
TITLE "Generated by 3D LUT Creator Pro (c) Oleg Sharonov"
LUT_3D_SIZE 33
#IMAGEPROFILE Display v.2.10
#INPUTGAMMA Display v.2.10
#OUTPUTGAMMA Display v.2.10
0.000000 0.000000 0.000000
0.015124 0.000009 0.000000
0.032953 0.000499 0.000000
0.050181 0.000505 0.000000
0.069243 0.000985 0.000000
0.089507 0.001459 0.000000
0.114730 0.002386 0.000000
0.148600 0.002774 0.000000
0.192014 0.003581 0.000000
0.237672 0.004378 0.000000
0.280917 0.005196 0.000000
0.323372 0.006513 0.000000
0.365917 0.007836 0.000000
0.408459 0.009167 0.000000
0.450233 0.010506 0.000000
0.490685 0.012354 0.000000
0.529822 0.014221 0.000000
0.566339 0.016115 0.000000
0.600729 0.018532 0.000000
0.633845 0.020966 0.000000
0.664927 0.026298 0.000000
0.698324 0.029380 0.000000
0.731484 0.032267 0.000000
0.762764 0.035383 0.000000
0.791845 0.036102 0.000000
0.818870 0.034528 0.000000
0.840857 0.032123 0.000000
0.860085 0.026950 0.000000
0.878493 0.021142 0.000000
0.898470 0.014121 0.000000
0.920677 0.006148 0.000000
0.943435 0.000000 0.000000
0.965436 0.000000 0.001247
0.000000 0.016676 0.000353
0.015118 0.016692 0.002648
0.033663 0.016699 0.000000
0.051003 0.016708 0.000000
0.070145 0.017207 0.000000
0.090350 0.017699 0.000000
0.115670 0.018658 0.000000
0.149678 0.019062 0.000000
0.192729 0.019901 0.000000
0.238216 0.020728 0.000000
0.280863 0.022078 0.000000
0.323331 0.022931 0.000000
0.366475 0.024287 0.000000
0.408707 0.025608 0.000000
0.449866 0.027349 0.000000
0.490466 0.028577 0.000000
0.529723 0.030212 0.000000
0.566252 0.032223 0.000000
0.600853 0.034164 0.000000
0.634077 0.036037 0.000000
0.666086 0.039656 0.000000
0.699401 0.042021 0.000000
0.732233 0.044606 0.000000
0.763377 0.047077 0.000000
0.792479 0.047029 0.000000
0.819305 0.046058 0.000000
0.841116 0.044131 0.000000
0.860397 0.040436 0.000000
0.878598 0.036085 0.000000
0.898533 0.030473 0.000000
0.920606 0.023622 0.000000
0.943771 0.013069 0.000000
0.966004 0.010545 0.000000
0.000000 0.035003 0.001087
0.022410 0.033803 0.006600
0.031843 0.034221 0.005782
0.051273 0.035036 0.000000
0.071034 0.035036 0.000000
0.091609 0.035431 0.000000
0.117509 0.035787 0.000000
0.151011 0.036480 0.000000
0.194265 0.036706 0.000000
0.239588 0.037303 0.000000
0.282091 0.038285 0.000000
0.324434 0.038877 0.000000
0.366880 0.039822 0.000000
0.408947 0.041102 0.000000
0.450087 0.042005 0.000000
0.490667 0.043231 0.000000
0.529985 0.044435 0.000000
0.566465 0.045950 0.000000
0.601241 0.047433 0.000000
0.634545 0.049185 0.000000
0.667240 0.051748 0.000000
0.700526 0.053918 0.000000
0.733167 0.056004 0.000000
0.764155 0.058019 0.000000
0.793293 0.057712 0.000000
0.819888 0.056638 0.000000
0.841472 0.055310 0.000000
0.860518 0.052303 0.000000
0.878639 0.049127 0.000000
0.898451 0.044790 0.000000
0.920605 0.039712 0.000000
0.943755 0.031261 0.000000
0.965649 0.031229 0.000000
0.000395 0.053888 0.002217
0.016000 0.054465 0.000277
0.040319 0.052768 0.012842
0.049070 0.052477 0.010284
0.069484 0.054485 0.004111
0.092459 0.053896 0.000000
0.118695 0.053848 0.000000
0.152601 0.054032 0.000000
0.196349 0.054145 0.000000
0.241173 0.054814 0.000000
0.283690 0.055211 0.000000
0.326035 0.055606 0.000000
0.368170 0.056267 0.000000
0.409458 0.056923 0.000000
0.451041 0.057828 0.000000
0.491625 0.058722 0.000000
0.530992 0.059608 0.000000
0.567460 0.060991 0.000000
0.602177 0.062351 0.000000
0.635326 0.063920 0.000000
0.668621 0.065443 0.000000
0.701761 0.067368 0.000000
0.734484 0.069047 0.000000
0.765513 0.070505 0.000000
0.794361 0.070238 0.000000
0.820620 0.069548 0.000000
0.841923 0.068443 0.000000
0.860577 0.066233 0.000000
0.878619 0.063515 0.000000
0.898494 0.060413 0.000000
0.920560 0.056341 0.000000
0.943410 0.051104 0.000000
0.965132 0.051922 0.000000
0.000386 0.072225 0.003368
0.014633 0.073287 0.000252
0.037750 0.071814 0.008188
0.057939 0.070962 0.021262
0.067685 0.070091 0.016746
0.086931 0.072869 0.014085
0.118545 0.071941 0.000000
0.153716 0.071831 0.000000
0.198162 0.071652 0.000000
0.243168 0.071903 0.000000
0.285476 0.072171 0.000000
0.328128 0.072653 0.000000
0.369612 0.072927 0.000000
0.410903 0.073418 0.000000
0.452122 0.074122 0.000000
0.492802 0.074619 0.000000
0.532458 0.075550 0.000000
0.569069 0.076715 0.000000
0.603785 0.078106 0.000000
0.637192 0.079717 0.000000
0.670827 0.081330 0.000000
0.703764 0.083157 0.000000
0.735981 0.084987 0.000000
0.767102 0.085781 0.000000
0.795564 0.085544 0.000000
0.821397 0.085109 0.000000
0.842412 0.084068 0.000000
0.860737 0.082192 0.000000
0.878726 0.079878 0.000000
0.898514 0.077107 0.000000
0.920423 0.073649 0.000000
0.942759 0.071014 0.000000
0.964386 0.071416 0.000000
0.000806 0.091764 0.004928
0.012357 0.092987 0.000603
0.032177 0.092612 0.000583
0.061724 0.089442 0.025592
0.077431 0.089865 0.030791
0.087377 0.088634 0.025156
0.108540 0.093116 0.027186
0.153100 0.091530 0.000000
0.200496 0.091159 0.000000
0.244742 0.091213 0.000000
0.287430 0.091281 0.000000
0.329555 0.091353 0.000000
0.371042 0.091842 0.000000
0.412335 0.092129 0.000000
0.453668 0.092832 0.000000
0.495239 0.093746 0.000000
0.535078 0.094678 0.000000
0.571646 0.096058 0.000000
0.605967 0.097470 0.000000
0.640053 0.099330 0.000000
0.673169 0.101218 0.000000
0.705895 0.103347 0.000000
0.738101 0.105289 0.000000
0.768782 0.105944 0.000000
0.796778 0.105737 0.000000
0.822174 0.105321 0.000000
0.842876 0.104491 0.000000
0.860769 0.102576 0.000000
0.878661 0.100015 0.000000
0.898396 0.097240 0.000000
0.920317 0.093830 0.000000
0.941850 0.092977 0.000000
0.963479 0.093180 0.000000
0.000322 0.115634 0.006895
0.009161 0.117600 0.000157
0.029482 0.118345 0.000132
0.050401 0.116901 0.002049
0.088008 0.111919 0.040413
0.100376 0.113017 0.039724
0.113216 0.111268 0.034811
0.137228 0.118973 0.041624
0.198244 0.115988 0.000000
0.245467 0.115434 0.000000
0.288625 0.115121 0.000000
0.330790 0.115255 0.000000
0.372727 0.115395 0.000000
0.414392 0.115987 0.000000
0.456722 0.117036 0.000000
0.498150 0.118104 0.000000
0.537988 0.119655 0.000000
0.574389 0.121252 0.000000
0.609409 0.123349 0.000000
0.643034 0.125722 0.000000
0.675893 0.128131 0.000000
0.708331 0.130575 0.000000
0.740394 0.132322 0.000000
0.770725 0.133115 0.000000
0.798158 0.133190 0.000000
0.823073 0.132537 0.000000
0.842895 0.132150 0.000000
0.860672 0.129815 0.000000
0.878445 0.127247 0.000000
0.898070 0.123961 0.000000
0.919711 0.120926 0.000000
0.940849 0.120969 0.000000
0.962458 0.121484 0.000000
0.000218 0.148202 0.009686
0.005931 0.150645 0.000036
0.024882 0.151795 0.000000
0.047204 0.152475 0.000000
0.076273 0.148620 0.025020
0.112580 0.143466 0.051526
0.128769 0.143226 0.048806
0.145218 0.140994 0.044127
0.177470 0.155677 0.055636
0.239873 0.148848 0.008191
0.288139 0.147978 0.000000
0.331970 0.147454 0.000000
0.374499 0.147944 0.000000
0.417297 0.148950 0.000000
0.460050 0.149968 0.000000
0.501908 0.151528 0.000000
0.541583 0.153403 0.000000
0.578228 0.156151 0.000000
0.613067 0.158974 0.000000
0.646341 0.162135 0.000000
0.678857 0.165067 0.000000
0.711344 0.167750 0.000000
0.742739 0.169886 0.000000
0.772461 0.170610 0.000000
0.799360 0.170773 0.000000
0.823465 0.170366 0.000000
0.842825 0.169688 0.000000
0.860466 0.167298 0.000000
0.878122 0.164054 0.000000
0.897633 0.160531 0.000000
0.918501 0.158975 0.000000
0.939584 0.159093 0.000000
0.961202 0.159488 0.000000
0.000908 0.192537 0.012907
0.003526 0.196054 0.000600
0.022029 0.196837 0.000192
0.044720 0.198226 0.000000
0.067581 0.197625 0.000000
0.108041 0.188953 0.050184
0.142111 0.186635 0.063114
0.162219 0.183200 0.057287
0.182455 0.180889 0.052643
0.218194 0.204525 0.067039
0.278867 0.196106 0.029021
0.331781 0.193810 0.000000
0.376610 0.193882 0.000000
0.420362 0.194526 0.000000
0.463729 0.196305 0.000000
0.505940 0.198373 0.000000
0.546215 0.201018 0.000000
0.582654 0.203952 0.000000
0.616781 0.206877 0.000000
0.649835 0.210057 0.000000
0.682046 0.212932 0.000000
0.714019 0.214972 0.000000
0.744955 0.216994 0.000000
0.774001 0.217426 0.000000
0.800181 0.217600 0.000000
0.823423 0.217513 0.000000
0.842671 0.216652 0.000000
0.860154 0.214191 0.000000
0.877686 0.211424 0.000000
0.896689 0.208877 0.000000
0.917114 0.208489 0.000000
0.938070 0.208640 0.000000
0.959773 0.208788 0.000000
0.001129 0.241713 0.016641
0.001109 0.245151 0.001537
0.019069 0.245992 0.000737
0.042168 0.246881 0.000709
0.065524 0.247523 0.000674
0.092994 0.243721 0.017479
0.150412 0.232390 0.069515
0.179283 0.233427 0.074758
0.202812 0.227152 0.065424
0.223252 0.225095 0.061326
0.255729 0.246589 0.076452
0.319064 0.247724 0.049230
0.377549 0.245541 0.000000
0.422999 0.245573 0.000000
0.468154 0.246688 0.000000
0.510795 0.248430 0.000000
0.550548 0.250582 0.000000
0.586643 0.252541 0.000000
0.620576 0.254711 0.000000
0.653308 0.256670 0.000000
0.685342 0.258417 0.000000
0.716693 0.259951 0.000000
0.746903 0.261074 0.000000
0.775275 0.261393 0.000000
0.800396 0.261311 0.000000
0.823265 0.261237 0.000000
0.842377 0.260166 0.000000
0.859799 0.258487 0.000000
0.877117 0.256380 0.000000
0.895333 0.255894 0.000000
0.915621 0.255597 0.000000
0.936646 0.255498 0.000000
0.958241 0.255394 0.000000
0.001391 0.285195 0.020539
0.001377 0.288065 0.004534
0.016161 0.288919 0.000942
0.039561 0.289699 0.000915
0.062013 0.290649 0.001668
0.086538 0.290450 0.001234
0.129700 0.281536 0.049781
0.195183 0.265222 0.082666
0.217826 0.268028 0.085658
0.237802 0.260295 0.072201
0.255687 0.258442 0.069073
0.288355 0.278470 0.085185
0.361196 0.296053 0.069143
0.425024 0.293257 0.000000
0.471202 0.293842 0.000000
0.515100 0.294626 0.000000
0.554716 0.295988 0.000000
0.590243 0.297738 0.000000
0.623797 0.299309 0.000000
0.656198 0.300696 0.000000
0.687740 0.301715 0.000000
0.718774 0.302546 0.000000
0.748495 0.303196 0.000000
0.775588 0.303306 0.000000
0.800416 0.303243 0.000000
0.823037 0.303006 0.000000
0.842076 0.301878 0.000000
0.859270 0.300203 0.000000
0.875892 0.299801 0.000000
0.894007 0.299198 0.000000
0.914177 0.298946 0.000000
0.935147 0.298684 0.000000
0.956778 0.298602 0.000000
0.001209 0.330262 0.023445
0.001199 0.332807 0.007215
0.013712 0.333693 0.000749
0.038443 0.333918 0.000724
0.061609 0.334110 0.000693
0.083260 0.335130 0.002636
0.114648 0.333285 0.004996
0.181044 0.317042 0.076974
0.238962 0.307503 0.095501
0.262126 0.312176 0.098729
0.278791 0.301446 0.081579
0.300268 0.303268 0.080305
0.339739 0.331118 0.099787
0.403406 0.344895 0.089312
0.470298 0.342440 0.012951
0.517104 0.342148 0.000000
0.557210 0.342539 0.000000
0.593304 0.343115 0.000000
0.626125 0.344190 0.000000
0.658271 0.344941 0.000000
0.689390 0.345529 0.000000
0.719713 0.345787 0.000000
0.748705 0.345721 0.000000
0.775668 0.345501 0.000000
0.800227 0.345126 0.000000
0.822724 0.344759 0.000000
0.841610 0.343759 0.000000
0.858201 0.343253 0.000000
0.874716 0.342742 0.000000
0.892666 0.342381 0.000000
0.912734 0.342001 0.000000
0.933601 0.341610 0.000000
0.955716 0.341713 0.000000
0.002782 0.377881 0.028978
0.002777 0.379967 0.012122
0.010814 0.381276 0.002523
0.035653 0.381345 0.002502
0.059709 0.381392 0.002475
0.084782 0.383052 0.003234
0.113210 0.384245 0.007279
0.168439 0.379450 0.047198
0.251671 0.366679 0.103861
0.292083 0.365484 0.115006
0.316037 0.368261 0.116018
0.332230 0.356009 0.094881
0.355157 0.360586 0.095472
0.392914 0.386675 0.116671
0.444540 0.392882 0.110938
0.510515 0.390865 0.045662
0.557540 0.388925 0.000000
0.593777 0.388712 0.000000
0.627518 0.388655 0.000000
0.659373 0.388600 0.000000
0.689671 0.388544 0.000000
0.719525 0.388486 0.000000
0.748344 0.387995 0.000000
0.775211 0.387368 0.000000
0.799797 0.386894 0.000000
0.822159 0.386281 0.000000
0.840580 0.385978 0.000000
0.857178 0.385537 0.000000
0.873589 0.385092 0.000000
0.891382 0.384633 0.000000
0.911271 0.384301 0.000000
0.932540 0.384108 0.000000
0.954776 0.384059 0.000000
0.003924 0.425515 0.034409
0.004368 0.427475 0.018615
0.007932 0.429050 0.003937
0.033424 0.429267 0.004733
0.056753 0.429071 0.005950
0.082761 0.429386 0.007588
0.113814 0.431710 0.009634
0.158981 0.431494 0.009474
0.239135 0.425054 0.084434
0.314228 0.412702 0.129595
0.339219 0.416076 0.135701
0.363355 0.417272 0.133748
0.381619 0.406636 0.110178
0.402939 0.409244 0.110341
0.436577 0.430478 0.132756
0.483756 0.439005 0.135229
0.545744 0.436321 0.074575
0.592733 0.433063 0.000000
0.626265 0.431990 0.000000
0.658384 0.430918 0.000000
0.689327 0.430100 0.000000
0.718953 0.429790 0.000000
0.747635 0.429227 0.000000
0.774413 0.428542 0.000000
0.798848 0.427865 0.000000
0.821196 0.427194 0.000000
0.839767 0.426802 0.000000
0.856270 0.426287 0.000000
0.872558 0.426029 0.000000
0.890181 0.425628 0.000000
0.910352 0.425470 0.000000
0.931777 0.425434 0.000000
0.954031 0.425523 0.000000
0.005529 0.471140 0.042706
0.005532 0.472745 0.029028
0.005975 0.474515 0.010455
0.026525 0.475189 0.006207
0.051832 0.475157 0.007446
0.076748 0.474884 0.009976
0.108371 0.475253 0.012966
0.150235 0.476976 0.016401
0.218987 0.474178 0.041986
0.294982 0.464551 0.118656
0.360129 0.455505 0.151654
0.381025 0.460138 0.156820
0.404776 0.458471 0.150129
0.424329 0.449519 0.125705
0.445555 0.451708 0.126091
0.477601 0.471375 0.149820
0.519371 0.481684 0.159772
0.575351 0.477749 0.101776
0.623404 0.473623 0.000000
0.656091 0.472352 0.000000
0.687298 0.471074 0.000000
0.717848 0.469901 0.000000
0.746756 0.469064 0.000000
0.773309 0.468460 0.000000
0.797623 0.467749 0.000000
0.820062 0.467045 0.000000
0.838768 0.466475 0.000000
0.855347 0.465911 0.000000
0.871709 0.465574 0.000000
0.889640 0.465456 0.000000
0.909879 0.465548 0.000000
0.931193 0.465631 0.000000
0.953438 0.465710 0.000000
0.007616 0.511763 0.055445
0.008072 0.513083 0.043851
0.008527 0.514546 0.028508
0.013497 0.516158 0.008591
0.043525 0.516067 0.010293
0.069630 0.515846 0.012891
0.100180 0.515521 0.016879
0.141628 0.515552 0.020417
0.200678 0.515273 0.021070
0.274024 0.509707 0.084597
0.349417 0.500549 0.152468
0.399856 0.496485 0.173347
0.421229 0.499995 0.179166
0.445030 0.495552 0.166397
0.465141 0.488730 0.142217
0.485621 0.490366 0.142405
0.515322 0.507120 0.166960
0.550435 0.518576 0.183734
0.602387 0.514420 0.130796
0.650484 0.510641 0.027429
0.684435 0.508671 0.000000
0.715324 0.507326 0.000000
0.744777 0.506159 0.000000
0.772027 0.505088 0.000000
0.796382 0.504395 0.000000
0.818910 0.503803 0.000000
0.837736 0.503324 0.000000
0.854593 0.502951 0.000000
0.871265 0.502765 0.000000
0.889236 0.502662 0.000000
0.909573 0.502635 0.000000
0.930944 0.502599 0.000000
0.953174 0.502841 0.000000
0.009299 0.547020 0.063886
0.010210 0.548118 0.054798
0.011121 0.549360 0.043762
0.012486 0.551031 0.023951
0.034055 0.551718 0.012803
0.062874 0.551465 0.015462
0.091976 0.550870 0.019541
0.130793 0.550442 0.024671
0.185275 0.550134 0.028496
0.250391 0.548334 0.029021
0.327120 0.540690 0.124718
0.401267 0.531572 0.182602
0.437845 0.530926 0.195448
0.460260 0.533888 0.201705
0.483409 0.527938 0.183144
0.503055 0.522492 0.159365
0.522337 0.523758 0.159562
0.549128 0.538601 0.184548
0.577660 0.551919 0.207615
0.627895 0.547606 0.160864
0.674653 0.543859 0.068257
0.711958 0.541064 0.000000
0.742039 0.539785 0.000000
0.769811 0.538593 0.000000
0.794877 0.537490 0.000000
0.818041 0.536886 0.000000
0.837160 0.536632 0.000000
0.854145 0.536388 0.000000
0.870847 0.536227 0.000000
0.888857 0.536135 0.000000
0.909268 0.536026 0.000000
0.930794 0.536072 0.000000
0.953293 0.536195 0.000000
0.011451 0.579843 0.072903
0.012367 0.580782 0.064357
0.013285 0.581930 0.054157
0.014660 0.583484 0.037450
0.024132 0.585031 0.014929
0.056571 0.585049 0.017636
0.085151 0.584730 0.020809
0.122540 0.584066 0.026246
0.171175 0.583375 0.032623
0.233825 0.582444 0.034896
0.304154 0.578119 0.080337
0.379064 0.569910 0.166289
0.455960 0.560829 0.211634
0.476740 0.563562 0.217599
0.499213 0.565970 0.223533
0.519617 0.558445 0.200362
0.538191 0.553845 0.177135
0.555776 0.555016 0.177144
0.580152 0.569138 0.201601
0.604057 0.583776 0.229408
0.652159 0.579750 0.190501
0.698243 0.576171 0.102664
0.738544 0.572855 0.000000
0.767254 0.571687 0.000000
0.793154 0.570828 0.000000
0.817051 0.570051 0.000000
0.836756 0.569371 0.000000
0.853832 0.569152 0.000000
0.870521 0.569009 0.000000
0.888577 0.569004 0.000000
0.909091 0.568981 0.000000
0.930844 0.568950 0.000000
0.953463 0.569064 0.000000
0.013614 0.611593 0.082417
0.014536 0.612466 0.074360
0.015459 0.613466 0.064832
0.016843 0.614852 0.050012
0.018684 0.616654 0.025023
0.048416 0.617108 0.019845
0.078736 0.617034 0.022910
0.115129 0.616568 0.026985
0.163395 0.615869 0.032570
0.222556 0.614946 0.038643
0.282168 0.613209 0.037418
0.358063 0.606686 0.123127
0.434358 0.597892 0.201602
0.496541 0.591529 0.232690
0.515302 0.594275 0.238175
0.535806 0.595176 0.240076
0.553586 0.588137 0.216332
0.570300 0.584472 0.193945
0.586767 0.585704 0.194164
0.609446 0.599001 0.219134
0.632143 0.613239 0.246882
0.676172 0.611872 0.221037
0.721976 0.608619 0.137732
0.764584 0.604981 0.000000
0.791101 0.603983 0.000000
0.815540 0.603130 0.000000
0.835745 0.602367 0.000000
0.853368 0.601825 0.000000
0.870411 0.601559 0.000000
0.888530 0.601559 0.000000
0.909135 0.601610 0.000000
0.931016 0.601722 0.000000
0.953754 0.601898 0.000000
0.014881 0.642931 0.088233
0.015805 0.643768 0.080452
0.016731 0.644793 0.071023
0.018120 0.646060 0.056580
0.019509 0.647858 0.032694
0.044619 0.648641 0.020207
0.075913 0.648525 0.022825
0.109874 0.648290 0.026511
0.158759 0.647372 0.031022
0.219758 0.646416 0.035489
0.272562 0.645438 0.040700
0.337228 0.642218 0.065720
0.413928 0.634099 0.164452
0.488434 0.625164 0.233319
0.532517 0.621891 0.254325
0.550058 0.624668 0.260083
0.568478 0.624136 0.257543
0.585365 0.617435 0.231520
0.600609 0.614837 0.211624
0.616244 0.616056 0.211850
0.638009 0.629181 0.237344
0.660433 0.643885 0.266593
0.700472 0.644916 0.252940
0.745298 0.641701 0.174843
0.785443 0.638428 0.057681
0.813790 0.636486 0.000000
0.834530 0.635702 0.000000
0.852490 0.635064 0.000000
0.869869 0.634623 0.000000
0.888600 0.634301 0.000000
0.909522 0.634357 0.000000
0.931505 0.634602 0.000000
0.954401 0.634975 0.000000
0.016150 0.674384 0.092510
0.017077 0.675155 0.084929
0.017547 0.676096 0.075999
0.018939 0.677260 0.062031
0.020792 0.678914 0.039905
0.039176 0.679983 0.021009
0.072241 0.679830 0.023167
0.105576 0.679620 0.026030
0.152433 0.678963 0.030206
0.214167 0.678015 0.034369
0.268241 0.676986 0.038657
0.324373 0.675521 0.038459
0.394750 0.670335 0.109801
0.469578 0.661935 0.205573
0.538704 0.653240 0.264319
0.566159 0.653216 0.276352
0.583198 0.656143 0.282349
0.600282 0.654567 0.275553
0.615655 0.648183 0.248967
0.630328 0.646333 0.230725
0.645833 0.647967 0.231146
0.666817 0.660707 0.256962
0.688576 0.674872 0.286156
0.724596 0.678116 0.284024
0.767406 0.675162 0.212678
0.805364 0.672296 0.103675
0.833125 0.669854 0.000000
0.851516 0.669214 0.000000
0.869172 0.668754 0.000000
0.888175 0.668402 0.000000
0.909733 0.668274 0.000000
0.932328 0.668258 0.000000
0.955114 0.668539 0.000000
0.017435 0.703760 0.097590
0.018364 0.704412 0.089991
0.018837 0.705207 0.081090
0.020233 0.706239 0.067307
0.021613 0.707681 0.045884
0.034625 0.708877 0.021814
0.068945 0.708832 0.023943
0.101782 0.708688 0.026374
0.146195 0.708259 0.029396
0.210672 0.707409 0.032514
0.265620 0.706602 0.036221
0.317842 0.705754 0.040071
0.372742 0.704449 0.040857
0.451292 0.697491 0.155342
0.523129 0.689439 0.246443
0.583678 0.681409 0.293568
0.598344 0.684351 0.298840
0.614638 0.687129 0.305220
0.630980 0.684588 0.293536
0.645452 0.679162 0.267348
0.659994 0.678267 0.250838
0.675369 0.680068 0.251448
0.695630 0.691225 0.276978
0.716848 0.703336 0.305580
0.747673 0.707942 0.313576
0.788114 0.705714 0.251723
0.823313 0.703694 0.148678
0.850380 0.701273 0.000000
0.868447 0.700888 0.000000
0.887719 0.700589 0.000000
0.909372 0.700219 0.000000
0.932147 0.699989 0.000000
0.955723 0.699854 0.000000
0.018750 0.729664 0.101772
0.019222 0.730238 0.094266
0.020156 0.730850 0.085595
0.021089 0.731701 0.072188
0.022438 0.732898 0.051847
0.029285 0.734149 0.022633
0.065758 0.734053 0.024320
0.099144 0.733951 0.026337
0.140804 0.733686 0.028989
0.203521 0.732972 0.032503
0.262235 0.732157 0.034445
0.316423 0.731320 0.036691
0.368629 0.730529 0.038202
0.432584 0.727535 0.092395
0.506606 0.721094 0.200615
0.569677 0.714068 0.284741
0.614305 0.709779 0.316899
0.628607 0.712248 0.322571
0.644805 0.714529 0.329292
0.661111 0.711661 0.312504
0.675353 0.707550 0.285352
0.689559 0.707528 0.271873
0.704981 0.709136 0.272461
0.724384 0.717807 0.297152
0.744471 0.727941 0.325878
0.769680 0.733850 0.342117
0.807830 0.731770 0.291112
0.838874 0.730578 0.195264
0.865380 0.728865 0.057022
0.886763 0.727911 0.000000
0.908749 0.727554 0.000000
0.931926 0.727389 0.000000
0.955937 0.727299 0.000000
0.020083 0.753058 0.106168
0.020558 0.753536 0.098716
0.021027 0.754084 0.089773
0.022373 0.754921 0.076703
0.023259 0.755965 0.057274
0.024952 0.757267 0.025122
0.062209 0.757318 0.025122
0.095663 0.757152 0.027118
0.137200 0.756974 0.028975
0.196801 0.756423 0.032140
0.256873 0.755655 0.034795
0.312332 0.754873 0.036683
0.364943 0.754066 0.038193
0.416830 0.753153 0.037003
0.488696 0.748409 0.141461
0.554956 0.742201 0.248581
0.611202 0.735896 0.320559
0.643690 0.734166 0.341078
0.658191 0.736398 0.346967
0.674486 0.738446 0.354011
0.690627 0.735476 0.332998
0.704941 0.732246 0.305348
0.719362 0.732771 0.293490
0.734628 0.734457 0.294227
0.752651 0.741723 0.317818
0.771048 0.751046 0.346827
0.790614 0.758653 0.370205
0.825341 0.756378 0.330229
0.853088 0.755111 0.242602
0.880640 0.753946 0.114386
0.908168 0.752716 0.000000
0.931794 0.752525 0.000000
0.956169 0.752437 0.000000
0.021836 0.775968 0.112928
0.022290 0.776470 0.105327
0.023167 0.777006 0.096748
0.024033 0.777787 0.083972
0.024889 0.778811 0.064650
0.026128 0.780023 0.035333
0.057228 0.780208 0.026318
0.091128 0.780065 0.027891
0.131916 0.779840 0.030115
0.187328 0.779467 0.032521
0.249408 0.778815 0.035501
0.306305 0.778296 0.037703
0.360035 0.777613 0.039517
0.411605 0.776831 0.039997
0.468336 0.775025 0.070181
0.539348 0.769100 0.193921
0.598258 0.762762 0.296849
0.651288 0.756509 0.354344
0.672753 0.757015 0.365769
0.687414 0.759226 0.372161
0.704074 0.760937 0.376897
0.720690 0.758485 0.354277
0.734822 0.755833 0.326160
0.749036 0.756923 0.315788
0.763542 0.758802 0.316664
0.779697 0.765536 0.339407
0.796550 0.775000 0.368705
0.812463 0.784000 0.396130
0.841233 0.782507 0.369056
0.868147 0.781102 0.290146
0.898598 0.779820 0.169227
0.931636 0.778291 0.000000
0.956635 0.778284 0.000000
0.023920 0.800185 0.120291
0.024354 0.800632 0.112746
0.024784 0.801213 0.104258
0.025620 0.801927 0.091846
0.026841 0.802938 0.073717
0.028033 0.804130 0.046719
0.050294 0.804649 0.027880
0.085775 0.804394 0.029804
0.126444 0.804056 0.031603
0.180180 0.803575 0.033608
0.241563 0.802948 0.036542
0.299641 0.802380 0.039039
0.354748 0.801957 0.040814
0.407099 0.801546 0.041923
0.458449 0.800801 0.041109
0.522528 0.797215 0.126220
0.584586 0.791147 0.247771
0.638793 0.784551 0.341033
0.689054 0.778606 0.385899
0.702690 0.781160 0.391812
0.717692 0.783658 0.398385
0.734366 0.784969 0.399295
0.750396 0.782918 0.376743
0.764005 0.780772 0.348182
0.777343 0.782416 0.339174
0.790958 0.784692 0.340179
0.805924 0.791084 0.361714
0.820330 0.800317 0.391447
0.833088 0.808423 0.418971
0.856302 0.808585 0.406757
0.885162 0.807556 0.336025
0.918823 0.806500 0.223726
0.954729 0.805316 0.058964
0.025909 0.823235 0.128702
0.026326 0.823604 0.121204
0.027131 0.824055 0.112576
0.027544 0.824694 0.100114
0.028718 0.825520 0.082570
0.029869 0.826550 0.056975
0.043131 0.827325 0.029799
0.080419 0.827116 0.031303
0.120813 0.826838 0.033073
0.173874 0.826400 0.035044
0.235238 0.825795 0.037235
0.293760 0.825085 0.040036
0.349855 0.824571 0.041785
0.403092 0.824176 0.043197
0.454577 0.823843 0.043972
0.504052 0.823231 0.041914
0.570741 0.818407 0.183753
0.626973 0.812903 0.301054
0.679071 0.807006 0.381414
0.719645 0.803822 0.412992
0.733323 0.806367 0.419237
0.748165 0.808774 0.426373
0.763989 0.809507 0.423334
0.778720 0.807958 0.400457
0.791556 0.806495 0.371353
