bundles/resolve-cinematic-luts/Gamut/Timbre/Timbre 03.cube
TITLE "Generated by 3D LUT Creator Pro (c) Oleg Sharonov"
LUT_3D_SIZE 5
#IMAGEPROFILE iMac 5K Retina - Dark Room v.2.40
#INPUTGAMMA iMac 5K Retina - Dark Room v.2.40
#OUTPUTGAMMA iMac 5K Retina - Dark Room v.2.40
0.000000 0.000000 0.000000
0.154967 0.032972 0.033496
0.549765 0.095629 0.111043
0.781823 0.191927 0.205468
0.929136 0.311202 0.322664
0.028839 0.246311 0.025458
0.269072 0.248625 0.129062
0.597267 0.280749 0.091407
0.797870 0.316217 0.172863
0.953775 0.401360 0.298750
0.082763 0.573240 0.077176
0.314942 0.562043 0.176511
0.596352 0.561945 0.353297
0.845907 0.593834 0.202566
0.983302 0.639962 0.285373
0.181682 0.849568 0.158992
0.401444 0.843989 0.262447
0.663290 0.836967 0.433266
0.868703 0.830157 0.619363
0.968599 0.847298 0.638086
0.426996 0.986751 0.392720
0.580333 0.980148 0.510187
0.804857 0.965984 0.713502
0.912687 0.962129 0.843388
0.971357 0.962919 0.936781
0.006937 0.024642 0.076911
0.232697 0.000679 0.196115
0.581231 0.081918 0.257751
0.789239 0.178413 0.320018
0.933085 0.304648 0.411208
0.015972 0.255046 0.197940
0.265322 0.261970 0.231433
0.579889 0.293077 0.242080
0.816063 0.293634 0.273504
0.958259 0.394556 0.390023
0.061151 0.576698 0.201192
0.387983 0.551143 0.294132
0.591522 0.566032 0.429688
0.831420 0.603095 0.375894
0.970322 0.655283 0.436390
0.096732 0.854770 0.218275
0.521180 0.831108 0.445432
0.719567 0.825318 0.551658
0.867862 0.831931 0.639355
0.960608 0.851150 0.693594
0.316693 0.992118 0.356146
0.737966 0.963741 0.711968
0.857891 0.955033 0.820396
0.913715 0.962368 0.852864
0.971501 0.963406 0.938091
0.043428 0.075547 0.220210
0.182646 0.077283 0.409974
0.664270 0.000000 0.632548
0.841795 0.078435 0.568772
0.951377 0.262916 0.601614
0.117688 0.268302 0.442318
0.241125 0.296797 0.519418
0.627613 0.252874 0.598593
0.829003 0.273266 0.555316
0.966557 0.383261 0.606358
0.079742 0.548895 0.457837
0.233493 0.563364 0.498228
0.590971 0.578645 0.553446
0.867477 0.589138 0.526410
0.973093 0.652702 0.633305
0.101748 0.850703 0.523745
0.408784 0.845649 0.543350
0.702945 0.832825 0.634092
0.866794 0.836530 0.706620
0.962885 0.853811 0.748359
0.327664 0.990727 0.593324
0.680542 0.971515 0.729182
0.841178 0.961386 0.819519
0.924798 0.960787 0.885738
0.970652 0.964814 0.947267
0.101876 0.166813 0.441134
0.210840 0.186720 0.588652
0.578826 0.144274 0.713619
0.853229 0.008829 0.831811
0.999999 0.075208 0.843119
0.185679 0.327304 0.556613
0.267927 0.339930 0.613102
0.569098 0.295173 0.699774
0.841059 0.245950 0.822897
0.985756 0.351595 0.835341
0.269081 0.529776 0.628601
0.350246 0.549820 0.661280
0.559017 0.584602 0.775065
0.882362 0.569172 0.869707
0.978941 0.648639 0.843458
0.202451 0.829809 0.746988
0.353653 0.837213 0.776811
0.563760 0.853626 0.840973
0.855738 0.844806 0.844807
0.979265 0.850389 0.849967
0.214358 0.993266 0.810173
0.644904 0.975775 0.839061
0.805670 0.970856 0.861707
0.921744 0.965874 0.905557
0.971436 0.967324 0.955305
0.220939 0.305897 0.611833
0.275431 0.306279 0.694382
0.503076 0.303687 0.744057
0.790633 0.221277 0.859877
0.999719 0.080840 0.977688
0.258298 0.385039 0.639956
0.316219 0.389987 0.688293
0.520537 0.381674 0.772050
0.807114 0.345130 0.869379
0.985079 0.359367 0.962396
0.396487 0.551331 0.758813
0.431411 0.570878 0.772788
0.555658 0.579694 0.887234
0.884157 0.525946 0.932008
0.980951 0.648156 0.972973
0.416728 0.843382 0.943013
0.496239 0.850608 0.957515
0.688706 0.852738 0.960095
0.843729 0.858910 0.971695
0.982511 0.850761 0.981729
0.074316 0.996253 0.987653
0.533516 0.984763 0.978937
0.738073 0.979942 0.976573
0.870691 0.978080 0.977114
0.971325 0.970670 0.971645
