bundles/resolve-cinematic-luts/Gamut/Timbre/Timbre 05.cube
TITLE "Generated by 3D LUT Creator Pro (c) Oleg Sharonov"
LUT_3D_SIZE 5
#IMAGEPROFILE Display v.2.10
#INPUTGAMMA Display v.2.10
#OUTPUTGAMMA Display v.2.10
0.000000 0.000000 0.000000
0.192014 0.003581 0.000000
0.529822 0.014221 0.000000
0.791845 0.036102 0.000000
0.965436 0.000000 0.001247
0.000908 0.192537 0.012907
0.182455 0.180889 0.052643
0.546215 0.201018 0.000000
0.800181 0.217600 0.000000
0.959773 0.208788 0.000000
0.009299 0.547020 0.063886
0.185275 0.550134 0.028496
0.522337 0.523758 0.159562
0.794877 0.537490 0.000000
0.953293 0.536195 0.000000
0.021836 0.775968 0.112928
0.131916 0.779840 0.030115
0.598258 0.762762 0.296849
0.763542 0.758802 0.316664
0.956635 0.778284 0.000000
0.037208 0.958635 0.177497
0.091721 0.964893 0.042258
0.540371 0.961976 0.052466
0.863003 0.930344 0.641133
0.943810 0.942182 0.608802
0.007443 0.021704 0.069580
0.202992 0.000000 0.178063
0.541539 0.002097 0.183148
0.802362 0.000000 0.174128
0.964409 0.000000 0.196955
0.007292 0.193726 0.157764
0.198574 0.194700 0.173539
0.506449 0.239800 0.173927
0.795915 0.228558 0.174699
0.957600 0.216307 0.174998
0.000000 0.544773 0.227832
0.202421 0.544424 0.273503
0.527457 0.486651 0.210398
0.804786 0.532126 0.138484
0.977090 0.515692 0.040139
0.014076 0.775824 0.252677
0.237247 0.772356 0.320476
0.579960 0.767213 0.316304
0.769420 0.743534 0.339544
0.961447 0.776778 0.152378
0.032462 0.958868 0.312207
0.259523 0.956940 0.379651
0.534475 0.961762 0.255048
0.871489 0.928056 0.665830
0.947544 0.935439 0.688787
0.039354 0.067797 0.189596
0.182463 0.050079 0.375407
0.547792 0.000000 0.515907
0.795613 0.011220 0.529039
0.943453 0.065230 0.555813
0.088644 0.210041 0.323516
0.182349 0.222194 0.445424
0.559326 0.211099 0.531161
0.782670 0.242982 0.531745
0.935258 0.261220 0.547533
0.076434 0.523557 0.432490
0.211288 0.535898 0.472127
0.551632 0.543395 0.514612
0.790560 0.541721 0.470776
0.974500 0.515413 0.467496
0.002293 0.768549 0.488585
0.226688 0.764971 0.540093
0.475987 0.777250 0.592441
0.788805 0.745699 0.510011
0.981370 0.769866 0.411176
0.011269 0.958441 0.586396
0.261826 0.955144 0.628096
0.518324 0.962047 0.567384
0.847306 0.940087 0.700862
0.953043 0.927507 0.768240
0.085649 0.126176 0.353586
0.220712 0.109050 0.518511
0.511432 0.108847 0.624363
0.797301 0.000000 0.769731
0.957821 0.000000 0.781556
0.128938 0.274345 0.425037
0.226676 0.283423 0.548969
0.538436 0.259476 0.651187
0.787083 0.231290 0.763876
0.945167 0.238901 0.771898
0.242494 0.505232 0.596532
0.297824 0.521289 0.619581
0.533813 0.534407 0.743829
0.816628 0.508435 0.800014
0.968113 0.514187 0.777742
0.215669 0.733952 0.603268
0.325968 0.741619 0.623623
0.511196 0.768640 0.686711
0.786955 0.775442 0.765179
0.973812 0.772696 0.752131
0.000000 0.961366 0.777032
0.230961 0.959501 0.794760
0.452406 0.966023 0.808679
0.787542 0.960265 0.803217
0.953874 0.928235 0.834427
0.174366 0.248431 0.526378
0.276834 0.237948 0.621655
0.514948 0.234990 0.707034
0.737169 0.213193 0.807455
0.942386 0.047418 0.917979
0.210040 0.360029 0.548335
0.289741 0.355199 0.642807
0.547696 0.327884 0.729459
0.746899 0.322562 0.811798
0.933640 0.254247 0.912065
0.326492 0.535962 0.667764
0.356345 0.547510 0.684938
0.519184 0.525599 0.851699
0.813692 0.469903 0.869181
0.964762 0.495353 0.929453
0.378753 0.712964 0.733240
0.421871 0.726078 0.768870
0.511494 0.759457 0.866352
0.783326 0.786867 0.952322
0.968945 0.773113 0.967825
0.104924 0.964013 0.950466
0.307786 0.962208 0.950787
0.587497 0.961092 0.953574
0.795487 0.959152 0.956973
0.946877 0.945397 0.947923
