bundles/resolve-cinematic-luts/Gamut/Timbre/Timbre 02.cube
TITLE "Generated by 3D LUT Creator Pro (c) Oleg Sharonov"
LUT_3D_SIZE 9
#IMAGEPROFILE iMac 5K Retina - Dark Room v.2.40
#INPUTGAMMA iMac 5K Retina - Dark Room v.2.40
#OUTPUTGAMMA iMac 5K Retina - Dark Room v.2.40
0.000000 0.000000 0.000000
0.058216 0.008796 0.008233
0.144729 0.030676 0.030205
0.313872 0.057390 0.060109
0.470255 0.082876 0.095561
0.613829 0.124881 0.141627
0.740409 0.192790 0.199989
0.836899 0.260951 0.262402
0.910220 0.318510 0.322708
0.007392 0.073334 0.005755
0.074979 0.072556 0.040004
0.190872 0.078910 0.025611
0.345387 0.090388 0.053300
0.501215 0.116808 0.088102
0.640715 0.163451 0.131248
0.763744 0.222089 0.184526
0.854656 0.274735 0.240776
0.923368 0.326886 0.301656
0.021660 0.208174 0.018984
0.086167 0.202727 0.058053
0.221963 0.206017 0.105367
0.387127 0.222611 0.068370
0.539040 0.251867 0.084278
0.667059 0.287725 0.127078
0.778951 0.324976 0.181232
0.862023 0.360395 0.236654
0.929917 0.395717 0.293322
0.052899 0.399900 0.048063
0.112168 0.396265 0.085355
0.259333 0.399666 0.124879
0.422576 0.400369 0.212900
0.576762 0.416702 0.162068
0.698652 0.434165 0.130747
0.795617 0.454257 0.168932
0.871220 0.474798 0.220103
0.937357 0.497317 0.281715
0.083568 0.571285 0.082511
0.158377 0.568951 0.112613
0.321898 0.562905 0.183184
0.449730 0.564638 0.234513
0.592306 0.559578 0.343237
0.707667 0.565925 0.288217
0.809841 0.573739 0.200980
0.884729 0.585142 0.220621
0.948605 0.601231 0.265982
0.114304 0.704137 0.115914
0.202897 0.702254 0.141930
0.348856 0.696559 0.213958
0.491829 0.691798 0.284336
0.615923 0.686676 0.395302
0.717888 0.687479 0.470970
0.813398 0.694527 0.415581
0.896079 0.702125 0.335446
0.963670 0.712087 0.281615
0.178952 0.800516 0.155202
0.246392 0.799296 0.178632
0.378284 0.795404 0.247165
0.520878 0.790433 0.337195
0.621035 0.791456 0.383207
0.762309 0.779086 0.550334
0.827383 0.786979 0.574622
0.895409 0.796221 0.543957
0.958750 0.803960 0.540444
0.244055 0.893635 0.202910
0.296600 0.892814 0.224772
0.409944 0.890266 0.283946
0.548673 0.885619 0.377076
0.672358 0.881126 0.471016
0.742712 0.886102 0.491243
0.865408 0.872514 0.658869
0.912095 0.879326 0.727127
0.938416 0.894628 0.787700
0.305549 0.974960 0.257665
0.350146 0.974215 0.277842
0.448810 0.972518 0.328673
0.620902 0.962533 0.502179
0.743277 0.954411 0.616489
0.823482 0.951030 0.693421
0.876706 0.951888 0.760407
0.942628 0.943209 0.879714
0.962148 0.950080 0.913605
0.002184 0.006336 0.025561
0.074770 0.000029 0.071785
0.170956 0.021472 0.075698
0.324200 0.054326 0.097446
0.476570 0.081040 0.128860
0.617740 0.122429 0.174575
0.743123 0.190395 0.231542
0.838432 0.258912 0.291236
0.911194 0.316771 0.347737
0.000784 0.075372 0.068685
0.073949 0.075006 0.071922
0.194184 0.079798 0.069344
0.367329 0.084323 0.087082
0.511393 0.111292 0.119750
0.642755 0.162990 0.166185
0.760629 0.228617 0.222621
0.848559 0.286172 0.281840
0.917737 0.338782 0.338595
0.015758 0.211293 0.072000
0.087310 0.204004 0.081612
0.205648 0.216507 0.100281
0.379399 0.227910 0.114581
0.524581 0.262225 0.134955
0.669076 0.286869 0.166017
0.784502 0.319162 0.210325
0.866447 0.354143 0.261835
0.933283 0.389892 0.314538
0.033482 0.404807 0.078426
0.166786 0.388302 0.130067
0.289454 0.393131 0.175347
0.419876 0.402763 0.239278
0.570853 0.420189 0.203642
0.693904 0.437028 0.183822
0.796349 0.454047 0.201919
0.874302 0.471501 0.248950
0.939956 0.494069 0.305449
0.055294 0.575998 0.086269
0.240320 0.560110 0.192795
0.358669 0.556272 0.248315
0.444872 0.566848 0.243891
0.592873 0.560770 0.347805
0.706257 0.567481 0.301018
0.808591 0.574944 0.231345
0.885578 0.584583 0.250983
0.950052 0.600041 0.289712
0.084700 0.707532 0.114562
0.288117 0.693592 0.244107
0.390928 0.690155 0.295753
0.554231 0.676615 0.389727
0.610178 0.689083 0.400068
0.718867 0.688352 0.469055
0.814004 0.695341 0.415453
0.895821 0.702593 0.354714
0.963659 0.712063 0.311774
0.123236 0.803247 0.148771
0.330961 0.792622 0.291473
0.435908 0.788746 0.360001
0.554160 0.784720 0.418131
0.648033 0.786218 0.432762
0.759797 0.780173 0.556501
0.828441 0.787592 0.569893
0.896744 0.796648 0.537795
0.957212 0.804752 0.555201
0.197147 0.895963 0.190900
0.374835 0.887596 0.334499
0.477023 0.883989 0.405947
0.585219 0.880186 0.476299
0.709682 0.873798 0.534502
0.746904 0.885575 0.501239
0.864321 0.873120 0.664973
0.912887 0.879799 0.723427
0.940233 0.894733 0.782279
0.261831 0.977215 0.240286
0.443871 0.968695 0.405852
0.567711 0.961483 0.514334
0.693749 0.951916 0.623206
0.773285 0.948401 0.679822
0.842807 0.946258 0.729005
0.876933 0.952022 0.764357
0.942325 0.943414 0.882287
0.962375 0.950280 0.913367
0.007823 0.022668 0.071456
0.064064 0.013081 0.154403
0.217944 0.000000 0.188695
0.373389 0.023969 0.188702
0.499665 0.071608 0.211058
0.630027 0.113148 0.253846
0.751033 0.181748 0.306425
0.842967 0.252706 0.358007
0.914005 0.311673 0.407066
0.023660 0.075232 0.143215
0.069113 0.079966 0.158730
0.225823 0.072540 0.195441
0.376151 0.082478 0.189071
0.520124 0.107886 0.212737
0.649180 0.159239 0.253355
0.765184 0.224537 0.303479
0.851281 0.282756 0.352510
0.919549 0.335647 0.400699
0.008389 0.214592 0.169976
0.066379 0.221214 0.176187
0.219502 0.217416 0.191441
0.406254 0.223122 0.162343
0.535927 0.260705 0.203513
0.698875 0.261999 0.230433
0.797605 0.304151 0.278630
0.872197 0.346183 0.327708
0.934574 0.388172 0.377460
0.034156 0.416374 0.202010
0.108484 0.403837 0.173138
0.288420 0.398720 0.235003
0.404489 0.413735 0.272467
0.586615 0.418120 0.234686
0.685049 0.444311 0.268915
0.783306 0.465273 0.308360
0.868688 0.477578 0.338791
0.940390 0.493726 0.374038
0.064366 0.575131 0.209290
0.179986 0.569199 0.225909
0.385548 0.554591 0.285964
0.467528 0.562595 0.329997
0.577301 0.565580 0.422201
0.705590 0.569702 0.341934
0.796393 0.580599 0.355491
0.868905 0.596446 0.369724
0.939333 0.610115 0.385339
0.077034 0.708506 0.207443
0.211830 0.702930 0.233651
0.456698 0.682386 0.340339
0.560601 0.676190 0.436694
0.600071 0.693429 0.421158
0.711353 0.689847 0.523915
0.806254 0.699872 0.456532
0.886897 0.706723 0.451259
0.955260 0.716209 0.426092
0.092527 0.805352 0.208905
0.237589 0.801086 0.240086
0.474629 0.786190 0.387649
0.581079 0.781392 0.465260
0.671400 0.780933 0.507601
0.746776 0.784906 0.563185
0.826292 0.788840 0.596096
0.893524 0.799112 0.552928
0.949688 0.808009 0.602907
0.124793 0.898859 0.216708
0.295017 0.893579 0.294539
0.523215 0.880088 0.462645
0.602850 0.878587 0.502968
0.721849 0.871662 0.579199
0.757818 0.883733 0.532932
0.861008 0.874694 0.680708
0.911573 0.880708 0.740000
0.941626 0.895391 0.782663
0.208052 0.979354 0.259906
0.365410 0.974536 0.361683
0.652913 0.951844 0.615202
0.722389 0.948047 0.668888
0.796762 0.943744 0.728748
0.875147 0.936679 0.802947
0.877798 0.952268 0.774968
0.941558 0.943946 0.888497
0.962299 0.950742 0.915603
0.020584 0.047029 0.127876
0.045778 0.042702 0.243545
0.202350 0.023201 0.301436
0.402246 0.000000 0.362961
0.556391 0.019753 0.356071
0.666140 0.079975 0.380278
0.769189 0.156627 0.421857
0.852452 0.236692 0.463298
0.920089 0.299558 0.497254
0.042898 0.084616 0.196433
0.071729 0.089605 0.217602
0.205086 0.083255 0.301140
0.395648 0.078923 0.360872
0.553499 0.086218 0.357057
0.672964 0.133998 0.385193
0.777249 0.209237 0.424195
0.858614 0.271442 0.461457
0.924433 0.326356 0.494521
0.053881 0.214529 0.263499
0.085329 0.222636 0.280627
0.200654 0.235234 0.348976
0.440758 0.197694 0.399923
0.577638 0.231927 0.364755
0.698295 0.265112 0.388115
0.799239 0.302917 0.416974
0.873936 0.343597 0.449490
0.936153 0.385511 0.483933
0.042210 0.404484 0.324507
0.091388 0.410952 0.342037
0.203018 0.428380 0.394966
0.416207 0.415911 0.378717
0.603057 0.415908 0.327201
0.708323 0.435069 0.347726
0.787383 0.465372 0.395775
0.887225 0.457779 0.420890
0.963502 0.460217 0.443317
0.051575 0.570469 0.340075
0.142668 0.571821 0.347821
0.360638 0.567069 0.279240
0.470064 0.564120 0.427963
0.565792 0.575359 0.437470
0.725824 0.563831 0.408200
0.814887 0.572756 0.403648
0.876808 0.592702 0.439057
0.952952 0.598011 0.457790
0.080207 0.707668 0.364981
0.197691 0.704009 0.372715
0.338077 0.702208 0.342789
0.538719 0.685407 0.454443
0.612475 0.690827 0.507533
0.699338 0.701686 0.473781
0.809674 0.701273 0.490442
0.893382 0.705866 0.485157
0.950483 0.719600 0.510669
0.105371 0.803982 0.373716
0.232765 0.801021 0.386767
0.397385 0.796377 0.385253
0.599740 0.780717 0.495310
0.688919 0.777304 0.577950
0.732695 0.790373 0.584843
0.811769 0.791449 0.688128
0.892921 0.800675 0.592970
0.948072 0.809929 0.640580
0.137503 0.897892 0.376151
0.263446 0.895288 0.394702
0.456079 0.888724 0.435320
0.659012 0.872438 0.541182
0.746233 0.868557 0.617790
0.780653 0.878787 0.614204
0.853444 0.878160 0.703765
0.903164 0.882132 0.801590
0.942997 0.896498 0.791565
0.185775 0.980076 0.382304
0.296801 0.977584 0.404001
0.601006 0.959534 0.575929
0.726543 0.948890 0.680520
0.804562 0.943427 0.747813
0.879062 0.936116 0.827608
0.883583 0.951384 0.798459
0.940627 0.945048 0.896454
0.960875 0.951527 0.924155
0.041014 0.070924 0.197873
0.056362 0.071656 0.283364
0.157099 0.068126 0.370307
0.383222 0.041531 0.469451
0.577671 0.000000 0.543089
0.715976 0.004324 0.538657
0.810556 0.079789 0.551556
0.876367 0.178128 0.567315
0.932398 0.271274 0.585840
0.060838 0.104388 0.248744
0.081657 0.110932 0.280918
0.175058 0.107679 0.393057
0.390450 0.090394 0.475946
0.576685 0.080275 0.545744
0.711786 0.086332 0.538163
0.810103 0.144484 0.552188
0.877356 0.233545 0.567056
0.934120 0.305831 0.584934
0.092904 0.222320 0.384808
0.112985 0.233811 0.390024
0.209012 0.249995 0.457038
0.429257 0.222792 0.531343
0.589783 0.235668 0.559739
0.711154 0.255718 0.541528
0.811716 0.286231 0.552112
0.882200 0.329901 0.564683
0.941888 0.375309 0.581116
0.100926 0.392712 0.441855
0.145853 0.399540 0.459679
0.251406 0.413276 0.513642
0.377534 0.427249 0.543079
0.617793 0.396626 0.573516
0.751585 0.398355 0.533747
0.823065 0.428253 0.541035
0.891381 0.451440 0.553551
0.964396 0.457428 0.569800
0.080797 0.550635 0.459525
0.128868 0.553427 0.471742
0.228393 0.565614 0.499189
0.471118 0.565272 0.535731
0.581563 0.572150 0.545780
0.734179 0.564417 0.498872
0.824887 0.570925 0.487670
0.888072 0.587332 0.515851
0.965342 0.584738 0.563554
0.073624 0.696226 0.467038
0.152998 0.698833 0.487414
0.316183 0.705562 0.477908
0.585140 0.684812 0.424886
0.611993 0.693284 0.576481
0.684575 0.706227 0.567782
0.829593 0.694456 0.558906
0.914933 0.695336 0.539931
0.954738 0.719367 0.568169
0.097061 0.802099 0.504349
0.215423 0.801092 0.510016
0.380418 0.798140 0.512179
0.559785 0.790963 0.506288
0.659315 0.787412 0.591184
0.755591 0.786056 0.659523
0.803651 0.801097 0.650782
0.893439 0.802630 0.643443
0.953008 0.810503 0.669030
0.162493 0.896575 0.531932
0.268747 0.894340 0.539041
0.432684 0.889803 0.553194
0.574733 0.886934 0.522076
0.732400 0.874352 0.628266
0.805794 0.872490 0.713884
0.844237 0.881833 0.749265
0.904915 0.892556 0.665068
0.948070 0.897072 0.804294
0.213872 0.978327 0.540518
0.303243 0.976494 0.547631
0.582144 0.961683 0.639859
0.694890 0.955117 0.682829
0.776040 0.951465 0.734769
0.860351 0.943913 0.815791
0.894828 0.949236 0.831602
0.939513 0.947359 0.898218
0.960894 0.952686 0.929163
0.064614 0.094938 0.280706
0.076018 0.097876 0.342717
0.141692 0.098536 0.454609
0.349435 0.091673 0.519132
0.561006 0.060722 0.612452
0.730686 0.000000 0.702263
0.839988 0.000000 0.693056
0.909610 0.075897 0.691031
0.960253 0.177544 0.693234
0.080078 0.139579 0.324721
0.094458 0.146393 0.354327
0.162811 0.148345 0.486283
0.364791 0.143867 0.530510
0.565503 0.108285 0.618710
0.722476 0.082930 0.693504
0.835741 0.084886 0.689487
0.906763 0.142501 0.688991
0.958927 0.236856 0.692089
0.120103 0.253841 0.447373
0.145035 0.264768 0.454894
0.221557 0.276557 0.523486
0.395290 0.262588 0.593683
0.576024 0.252403 0.632082
0.711049 0.250201 0.681571
0.827571 0.260520 0.682769
0.901389 0.290325 0.684415
0.958059 0.340396 0.690174
0.185721 0.393010 0.533354
0.216107 0.397955 0.548773
0.272544 0.411291 0.586157
0.399901 0.431123 0.604293
0.615466 0.383290 0.694180
0.748099 0.388077 0.716026
0.828096 0.419931 0.681992
0.900632 0.437751 0.678626
0.967653 0.450951 0.691487
0.188751 0.535107 0.546020
0.219581 0.539827 0.555713
0.277388 0.553781 0.587384
0.447808 0.563805 0.630753
0.554128 0.578710 0.673110
0.738387 0.553498 0.701002
0.860138 0.539131 0.657204
0.923104 0.554249 0.635320
0.966987 0.582683 0.689839
0.134747 0.667968 0.550858
0.198726 0.670775 0.558638
0.286083 0.680101 0.579122
0.367750 0.699258 0.615865
0.612301 0.695413 0.666415
0.705421 0.701882 0.675265
0.836768 0.696170 0.625737
0.918901 0.698483 0.598291
0.968239 0.710188 0.685983
0.104887 0.784164 0.540546
0.194768 0.786141 0.548938
0.340864 0.792688 0.582498
0.460397 0.807239 0.543205
0.727646 0.783379 0.546110
0.733501 0.794983 0.708468
0.797691 0.805336 0.719071
0.906641 0.799357 0.714779
0.959132 0.810962 0.715635
0.129479 0.897493 0.644441
0.242780 0.895870 0.639070
0.406018 0.893438 0.626606
0.520266 0.894862 0.578668
0.728322 0.878877 0.659150
0.781486 0.881629 0.738717
0.872466 0.875012 0.815136
0.895190 0.891073 0.832269
0.955098 0.897959 0.820653
0.205942 0.978253 0.657739
0.293225 0.976820 0.659311
0.566898 0.963824 0.713370
0.684242 0.957157 0.753228
0.749846 0.957928 0.758313
0.832033 0.954287 0.798420
0.911411 0.945146 0.877994
0.931834 0.952963 0.891546
0.960970 0.954220 0.935543
0.087259 0.141027 0.370768
0.096392 0.146107 0.418745
0.157894 0.150612 0.526868
0.332909 0.160984 0.566865
0.529839 0.130525 0.649927
0.697261 0.077250 0.740629
0.832307 0.016877 0.809199
0.926385 0.000000 0.820252
0.988343 0.060811 0.811438
0.101820 0.189230 0.410616
0.122997 0.196353 0.439243
0.190466 0.199952 0.546255
0.348973 0.210702 0.584954
0.537282 0.183498 0.659386
0.696111 0.133613 0.736918
0.828996 0.090005 0.806489
0.923001 0.079917 0.817025
0.985018 0.125390 0.809168
0.163970 0.291559 0.504476
0.184886 0.300618 0.511576
0.244861 0.309004 0.571604
0.369204 0.302582 0.655189
0.552944 0.292091 0.673343
0.699668 0.269865 0.737953
0.822432 0.259842 0.802425
0.913625 0.257329 0.807911
0.978072 0.285937 0.804179
0.246553 0.402688 0.602703
0.260305 0.410118 0.608792
0.296374 0.428054 0.625923
0.400856 0.440671 0.684558
0.587309 0.407910 0.744941
0.728630 0.395448 0.771357
0.825435 0.416821 0.811922
0.905127 0.430181 0.800161
0.974048 0.440295 0.802303
0.269125 0.531694 0.623379
0.287374 0.536211 0.636441
0.335559 0.545595 0.670135
0.435137 0.558370 0.710749
0.562437 0.577188 0.739941
0.747746 0.531990 0.813108
0.855778 0.528173 0.840788
0.925529 0.542785 0.812291
0.972846 0.576799 0.803602
0.257148 0.646758 0.625507
0.274871 0.652705 0.634508
0.315939 0.667662 0.658421
0.428006 0.683932 0.697584
0.600478 0.698978 0.751608
0.686931 0.707173 0.779687
0.831658 0.692176 0.813560
0.923760 0.690587 0.781160
0.971171 0.707900 0.804860
0.235574 0.759471 0.621485
0.273011 0.763144 0.633136
0.347955 0.772253 0.661538
0.411106 0.789239 0.702892
0.526866 0.802801 0.750853
0.741569 0.795735 0.781963
0.815121 0.802925 0.800182
0.917343 0.799747 0.766298
0.972771 0.805847 0.801901
0.086123 0.901855 0.773035
0.176826 0.900434 0.772824
0.340709 0.897554 0.770071
0.489851 0.895504 0.755092
0.616361 0.902286 0.602827
0.809779 0.884812 0.690875
0.844952 0.887836 0.833921
0.891970 0.898324 0.839568
0.965811 0.898080 0.845871
0.160240 0.979450 0.773545
0.256988 0.978007 0.771128
0.531585 0.967378 0.783518
0.676353 0.960800 0.793784
0.742562 0.961062 0.812362
0.804316 0.962072 0.831498
0.889636 0.955988 0.863898
0.922571 0.959654 0.884630
0.960894 0.956339 0.940833
0.123841 0.205242 0.467535
0.143806 0.211081 0.502042
0.205538 0.217309 0.582123
0.331029 0.232763 0.624602
0.500869 0.226332 0.683411
0.666200 0.176027 0.759679
0.802746 0.111355 0.831797
0.913553 0.041871 0.894435
0.996788 0.000000 0.913536
0.154024 0.249084 0.500353
0.181295 0.254948 0.520524
0.231605 0.259845 0.593293
0.342525 0.267351 0.647638
0.510082 0.264652 0.689569
0.669263 0.227116 0.760619
0.802582 0.170872 0.830612
0.910465 0.103605 0.892203
0.995586 0.072764 0.912481
0.207767 0.330977 0.551282
0.225769 0.337028 0.566366
0.274302 0.344553 0.621223
0.368269 0.340543 0.705669
0.534124 0.338687 0.717755
0.678267 0.320964 0.766411
0.804040 0.290432 0.831333
0.904070 0.267928 0.888304
0.985406 0.259854 0.904015
0.280312 0.429120 0.641737
0.291971 0.435795 0.648568
0.323103 0.452575 0.666490
0.410305 0.459164 0.735593
0.558986 0.439379 0.790664
0.708184 0.421914 0.803383
0.811914 0.419122 0.838987
0.899888 0.429778 0.890893
0.977818 0.433918 0.897770
0.335437 0.533273 0.702622
0.350665 0.536028 0.714979
0.388179 0.544434 0.741387
0.454411 0.566471 0.751246
0.569504 0.578569 0.792596
0.726589 0.540559 0.846397
0.847544 0.518020 0.881485
0.921084 0.538550 0.912483
0.977201 0.573365 0.897201
0.332578 0.642781 0.695902
0.346207 0.646677 0.704950
0.387503 0.657361 0.730285
0.476847 0.671007 0.766937
0.586617 0.684675 0.794644
0.685567 0.704155 0.826195
0.853001 0.664052 0.887802
0.923261 0.681354 0.909113
0.976622 0.704913 0.896945
0.339874 0.754106 0.730490
0.353438 0.758721 0.740756
0.382233 0.771220 0.768624
0.449137 0.787502 0.808166
0.587921 0.797643 0.850164
0.721606 0.802309 0.868943
0.794756 0.808200 0.897217
0.913965 0.796931 0.908693
0.976144 0.805662 0.899142
0.116463 0.904425 0.884132
0.197395 0.903546 0.884142
0.321281 0.901739 0.885073
0.458259 0.900034 0.887383
0.529029 0.902736 0.894260
0.666946 0.901322 0.900478
0.848427 0.889968 0.891716
0.903105 0.896972 0.899924
0.974305 0.898241 0.895179
0.080197 0.982522 0.887666
0.164961 0.981617 0.887080
0.401494 0.976308 0.886700
0.601207 0.968757 0.888016
0.695132 0.967441 0.887806
0.788562 0.965624 0.887663
0.857445 0.967482 0.872707
0.926855 0.960196 0.914231
0.960074 0.960293 0.935351
0.195580 0.271645 0.546388
0.211463 0.275254 0.569227
0.250050 0.280110 0.631620
0.337866 0.290604 0.687440
0.487388 0.299817 0.714866
0.632525 0.288808 0.768715
0.773891 0.237778 0.840331
0.882618 0.160099 0.901733
0.979395 0.066291 0.956325
0.215216 0.302487 0.568070
0.232217 0.307060 0.586107
0.269054 0.311682 0.644152
0.354673 0.318197 0.703919
0.499013 0.326355 0.726043
0.638650 0.317561 0.772926
0.776662 0.272930 0.841723
0.882449 0.213713 0.901060
0.976696 0.129331 0.953963
0.251797 0.371140 0.608576
0.268248 0.374940 0.625031
0.310352 0.381283 0.671052
0.387264 0.378249 0.750831
0.524076 0.382750 0.764508
0.655199 0.378224 0.788089
0.783429 0.347358 0.845391
0.882981 0.313405 0.901003
0.971541 0.282734 0.950860
0.315133 0.459417 0.682512
0.325126 0.465222 0.689174
0.351792 0.478855 0.704805
0.419832 0.475639 0.784087
0.542161 0.461904 0.832079
0.689741 0.446660 0.834991
0.806210 0.425404 0.867531
0.902574 0.392989 0.918287
0.973749 0.419517 0.948877
0.382310 0.542711 0.756407
0.390865 0.546843 0.760841
0.415753 0.558439 0.772908
0.453929 0.572522 0.792909
0.539170 0.559932 0.881428
0.709988 0.526664 0.894526
0.841417 0.499278 0.905442
0.939560 0.461488 0.947239
0.973467 0.559411 0.948141
0.402359 0.642592 0.767330
0.415634 0.645540 0.775745
0.452857 0.652863 0.796550
0.505944 0.656665 0.831824
0.553120 0.669372 0.857581
0.669954 0.655998 0.921229
0.843955 0.635473 0.944944
0.921270 0.680047 0.966643
0.976439 0.707052 0.974188
0.421364 0.764437 0.829739
0.435148 0.769076 0.841428
0.466708 0.777350 0.862379
0.508403 0.791648 0.904241
0.591048 0.804691 0.945981
0.727957 0.812079 0.957185
0.803326 0.816605 0.962711
0.910143 0.807130 0.972828
0.976973 0.805564 0.976041
0.264924 0.902540 0.955963
0.309595 0.902016 0.955766
0.402017 0.900799 0.955425
0.485853 0.901754 0.959988
0.617674 0.900250 0.960805
0.734888 0.899422 0.962943
0.827346 0.899330 0.967963
0.896620 0.901021 0.974499
0.978396 0.895002 0.978562
0.083988 0.982944 0.972434
0.156768 0.982276 0.972252
0.352417 0.979048 0.970547
0.566733 0.972729 0.966363
0.655473 0.972635 0.967687
0.748585 0.971985 0.968744
0.827472 0.970605 0.969269
0.878945 0.970677 0.970700
0.961658 0.960590 0.962293
