bundles/resolve-cinematic-luts/Gamut/Timbre/Timbre 02.cube
TITLE "Generated by 3D LUT Creator Pro (c) Oleg Sharonov"
LUT_3D_SIZE 33
#IMAGEPROFILE iMac 5K Retina - Dark Room v.2.40
#INPUTGAMMA iMac 5K Retina - Dark Room v.2.40
#OUTPUTGAMMA iMac 5K Retina - Dark Room v.2.40
0.000000 0.000000 0.000000
0.011404 0.001458 0.001130
0.026005 0.002923 0.003051
0.041358 0.005364 0.005011
0.058216 0.008796 0.008233
0.075384 0.012742 0.011981
0.090409 0.017724 0.017192
0.109211 0.023713 0.023852
0.144729 0.030676 0.030205
0.192252 0.037412 0.037284
0.235031 0.044032 0.044675
0.274312 0.050822 0.052057
0.313872 0.057390 0.060109
0.352812 0.063981 0.068271
0.391849 0.070309 0.076812
0.430447 0.076572 0.085702
0.470255 0.082876 0.095561
0.508521 0.089619 0.105742
0.545502 0.099181 0.116644
0.580088 0.110749 0.128532
0.613829 0.124881 0.141627
0.646583 0.140639 0.155418
0.678711 0.157569 0.169921
0.710160 0.174963 0.184710
0.740409 0.192790 0.199989
0.768333 0.211569 0.215569
0.793230 0.229535 0.231282
0.815734 0.245708 0.246772
0.836899 0.260951 0.262402
0.856800 0.275745 0.277692
0.875635 0.290131 0.292961
0.893252 0.304324 0.307734
0.910220 0.318510 0.322708
0.001297 0.017154 0.001115
0.017619 0.017189 0.006628
0.032937 0.018187 0.003812
0.048293 0.019685 0.004189
0.064920 0.022684 0.006572
0.081237 0.026177 0.010274
0.096121 0.029915 0.014983
0.119828 0.034558 0.020723
0.161010 0.039416 0.027379
0.208820 0.044466 0.034030
0.249394 0.049717 0.040773
0.289014 0.054782 0.047860
0.329253 0.060428 0.055322
0.368226 0.065789 0.062931
0.405427 0.071937 0.071737
0.443381 0.078219 0.081109
0.481863 0.084349 0.091197
0.519027 0.091622 0.101500
0.554701 0.101342 0.112701
0.588466 0.113397 0.124637
0.621706 0.127945 0.137765
0.653839 0.143746 0.151633
0.685232 0.160360 0.166023
0.716252 0.177668 0.180901
0.745852 0.195811 0.196260
0.773069 0.214216 0.211915
0.797262 0.231726 0.227503
0.819494 0.247868 0.243052
0.840303 0.262813 0.258761
0.859872 0.277530 0.274186
0.878321 0.291844 0.289406
0.895781 0.305971 0.304457
0.912444 0.319919 0.319369
0.002593 0.035713 0.001856
0.018950 0.035357 0.007010
0.035412 0.034982 0.014580
0.051732 0.036171 0.010294
0.069275 0.038091 0.006956
0.084729 0.040689 0.009840
0.099992 0.043856 0.014098
0.126379 0.047418 0.020238
0.169229 0.050944 0.026529
0.215581 0.055061 0.033640
0.254848 0.059187 0.040426
0.293561 0.063747 0.047547
0.332869 0.068400 0.055034
0.372231 0.073098 0.062660
0.411179 0.077988 0.070708
0.451079 0.082816 0.079391
0.490489 0.088159 0.088392
0.528467 0.095280 0.097897
0.564595 0.104555 0.107850
0.598018 0.116618 0.119638
0.630327 0.131023 0.133031
0.661850 0.147131 0.146969
0.692674 0.163690 0.161476
0.723156 0.180934 0.176461
0.752038 0.198826 0.191720
0.778339 0.217100 0.207468
0.801874 0.234361 0.223137
0.823626 0.250228 0.238755
0.844057 0.265073 0.254531
0.863191 0.279501 0.269936
0.881391 0.293738 0.285307
0.898550 0.307792 0.300492
0.915009 0.321499 0.315687
0.004768 0.054589 0.003782
0.024296 0.053500 0.011561
0.036776 0.054375 0.016312
0.054512 0.054103 0.026379
0.072310 0.055219 0.021668
0.088456 0.056869 0.013661
0.105448 0.058998 0.014514
0.136078 0.061711 0.019287
0.179167 0.064446 0.024827
0.222765 0.067723 0.032141
0.261022 0.071060 0.039745
0.299653 0.074599 0.046926
0.338061 0.078480 0.054459
0.376935 0.082446 0.062121
0.416623 0.086652 0.070454
0.456295 0.092039 0.079147
0.495280 0.099267 0.088380
0.532881 0.107861 0.097876
0.568504 0.118193 0.108048
0.603007 0.130102 0.119179
0.636040 0.143096 0.131071
0.668577 0.157208 0.143537
0.700594 0.171907 0.156884
0.731742 0.186949 0.170554
0.760641 0.203456 0.184751
0.785755 0.221488 0.200650
0.808328 0.238107 0.216255
0.829369 0.253210 0.231988
0.849223 0.267930 0.247676
0.867972 0.282243 0.263657
0.885727 0.296373 0.279257
0.902410 0.310148 0.294478
0.918621 0.323941 0.309865
0.007392 0.073334 0.005755
0.027201 0.072751 0.014117
0.041351 0.072349 0.020320
0.057463 0.072144 0.033351
0.074979 0.072556 0.040004
0.090345 0.073804 0.034814
0.110387 0.075198 0.026356
0.146964 0.077020 0.020598
0.190872 0.078910 0.025611
0.231447 0.081295 0.030987
0.268627 0.084108 0.037352
0.307043 0.086936 0.045378
0.345387 0.090388 0.053300
0.384138 0.095199 0.061293
0.423404 0.101061 0.069917
0.462708 0.108190 0.078870
0.501215 0.116808 0.088102
0.538171 0.126626 0.097602
0.573665 0.137840 0.108002
0.607817 0.150273 0.119354
0.640715 0.163451 0.131248
0.672869 0.177169 0.143933
0.704328 0.191717 0.157061
0.735084 0.207053 0.170727
0.763744 0.222089 0.184526
0.789414 0.236593 0.198677
0.812512 0.249725 0.212596
0.834275 0.262355 0.226688
0.854656 0.274735 0.240776
0.873885 0.286883 0.255062
0.891385 0.299733 0.270099
0.907635 0.313384 0.285987
0.923368 0.326886 0.301656
0.010474 0.091676 0.008602
0.031086 0.090839 0.017624
0.046256 0.090336 0.026378
0.058000 0.090698 0.030732
0.079987 0.089136 0.051831
0.092714 0.090369 0.054171
0.112740 0.092018 0.049768
0.154568 0.093024 0.040521
0.202792 0.095047 0.031102
0.241593 0.097725 0.032814
0.278699 0.101058 0.038333
0.316124 0.105804 0.043759
0.353914 0.111067 0.050909
0.392685 0.117350 0.059582
0.431558 0.124383 0.068548
0.470640 0.132675 0.077803
0.508813 0.141892 0.087314
0.545093 0.152277 0.097074
0.580154 0.163740 0.107710
0.613933 0.176093 0.119292
0.646120 0.188947 0.131193
0.677829 0.202965 0.143882
0.709072 0.217159 0.157223
0.739143 0.231089 0.170689
0.767164 0.244332 0.184503
0.791967 0.256747 0.198470
0.814840 0.268923 0.212399
0.836130 0.280688 0.226307
0.856196 0.292073 0.240404
0.875150 0.303470 0.254512
0.893073 0.314698 0.268677
0.909962 0.325764 0.282545
0.926384 0.336844 0.296661
0.013055 0.120504 0.010609
0.031762 0.119409 0.018891
0.046793 0.118530 0.027932
0.063477 0.117387 0.038263
0.072468 0.120078 0.041277
0.096061 0.116186 0.068340
0.118720 0.118335 0.069871
0.154339 0.121989 0.067653
0.208874 0.123155 0.055436
0.250679 0.126027 0.045816
0.289539 0.130328 0.040226
0.327097 0.135028 0.045819
0.365058 0.141157 0.051663
0.402765 0.148151 0.058074
0.441381 0.156257 0.065800
0.479706 0.164300 0.075691
0.517149 0.173577 0.085543
0.553502 0.183863 0.096066
0.587947 0.195411 0.106952
0.620683 0.207707 0.118552
0.652397 0.220423 0.130685
0.683557 0.232953 0.143392
0.714434 0.245393 0.156758
0.744035 0.257128 0.170456
0.771172 0.268879 0.184286
0.795038 0.279865 0.197870
0.817341 0.290898 0.211814
0.838242 0.301784 0.225736
0.857949 0.312352 0.239656
0.876637 0.322966 0.253777
0.894317 0.333452 0.267787
0.911119 0.343815 0.281860
0.927402 0.354216 0.295829
0.015565 0.162049 0.013435
0.032706 0.160952 0.020541
0.048708 0.159299 0.030135
0.064773 0.158165 0.040146
0.078191 0.158628 0.048068
0.086801 0.161787 0.055109
0.124748 0.155350 0.087275
0.165882 0.159157 0.085937
0.202387 0.164329 0.088383
0.255635 0.164509 0.073350
0.297879 0.168245 0.061928
0.338069 0.173033 0.051061
0.376591 0.178680 0.053815
0.414954 0.185431 0.060398
0.453039 0.193076 0.066964
0.490133 0.201765 0.074026
0.527330 0.211950 0.082997
0.562703 0.222179 0.093888
0.596282 0.232709 0.105279
0.628209 0.243247 0.116925
0.659410 0.253430 0.129314
0.690236 0.264085 0.142482
0.720338 0.274810 0.155882
0.749191 0.285412 0.169609
0.774995 0.295712 0.183064
0.798280 0.305732 0.196874
0.820107 0.315836 0.210647
0.840544 0.325668 0.224592
0.859911 0.335244 0.238532
0.878318 0.344902 0.252486
0.895718 0.354477 0.266718
0.912355 0.364122 0.280652
0.928495 0.373826 0.294660
0.021660 0.208174 0.018984
0.038048 0.206886 0.026374
0.053892 0.205317 0.035488
0.069591 0.204255 0.044810
0.086167 0.202727 0.058053
0.095577 0.205274 0.061640
0.110406 0.208142 0.073434
0.187981 0.199352 0.109453
0.221963 0.206017 0.105367
0.246160 0.214521 0.111215
0.303599 0.213151 0.092340
0.345893 0.217534 0.079877
0.387127 0.222611 0.068370
0.426649 0.229098 0.062653
0.465671 0.235922 0.069646
0.503109 0.243698 0.076850
0.539040 0.251867 0.084278
0.572862 0.260496 0.092159
0.605066 0.269534 0.102049
0.636493 0.278554 0.114427
0.667059 0.287725 0.127078
0.697160 0.297034 0.140277
0.726783 0.306646 0.153950
0.754266 0.315835 0.167524
0.778951 0.324976 0.181232
0.801760 0.334071 0.195085
0.823035 0.342946 0.208895
0.843033 0.351773 0.222682
0.862023 0.360395 0.236654
0.880110 0.369126 0.250822
0.897299 0.377954 0.264925
0.913670 0.386578 0.278919
0.929917 0.395717 0.293322
0.028948 0.256576 0.025344
0.043858 0.255970 0.032383
0.058733 0.254517 0.040424
0.075375 0.253301 0.051266
0.089515 0.252499 0.062267
0.106160 0.252073 0.072262
0.123500 0.254865 0.075758
0.159756 0.254773 0.096283
0.244993 0.247920 0.137667
0.269564 0.256112 0.126884
0.294578 0.263751 0.133477
0.352629 0.262661 0.112362
0.395130 0.267277 0.099848
0.437675 0.272230 0.088081
0.478175 0.278221 0.075081
0.515737 0.284343 0.079651
0.550946 0.291206 0.087462
0.583792 0.298757 0.095459
0.615108 0.306882 0.103736
0.645282 0.315360 0.112137
0.675122 0.323826 0.123305
0.704620 0.332104 0.136766
0.732838 0.340194 0.150524
0.759255 0.348114 0.164395
0.783170 0.356034 0.178383
0.805225 0.363945 0.192099
0.825958 0.371843 0.206163
0.845615 0.379724 0.219999
0.864282 0.387438 0.234205
0.881987 0.395134 0.248224
0.898913 0.403089 0.262581
0.915221 0.411011 0.276830
0.931516 0.419562 0.291475
0.035303 0.302976 0.031830
0.049025 0.302074 0.037893
0.062792 0.301348 0.045058
0.079652 0.299038 0.056565
0.092519 0.298519 0.066393
0.115230 0.296340 0.080588
0.141463 0.298422 0.085805
0.169832 0.301376 0.091321
0.222647 0.297268 0.124953
0.298003 0.293302 0.171396
0.318710 0.303767 0.151902
0.344691 0.312051 0.159590
0.403221 0.311999 0.136413
0.445775 0.316730 0.122515
0.487925 0.321124 0.109919
0.526779 0.326454 0.096392
0.562117 0.332541 0.090595
0.594505 0.338807 0.098511
0.625159 0.345625 0.106982
0.654842 0.352796 0.115580
0.683750 0.360298 0.124764
0.711628 0.367646 0.133895
0.738757 0.374856 0.145575
0.764282 0.381643 0.159787
0.787316 0.388603 0.174091
0.808743 0.395433 0.188100
0.828974 0.402138 0.202244
0.848141 0.408855 0.216344
0.866466 0.415716 0.230611
0.883973 0.422708 0.244871
0.900705 0.429709 0.259493
0.917159 0.437223 0.274206
0.933313 0.444963 0.289111
0.041653 0.349914 0.038056
0.054710 0.349442 0.043944
0.067717 0.348648 0.050626
0.082954 0.347434 0.061388
0.098372 0.346213 0.073231
0.125526 0.345248 0.086659
0.173375 0.343516 0.100462
0.199936 0.348050 0.103482
0.232472 0.351306 0.113960
0.293024 0.343379 0.165196
0.353225 0.340339 0.209891
0.368910 0.352270 0.179943
0.394997 0.360634 0.188109
0.452005 0.361375 0.164368
0.494537 0.365531 0.150900
0.534640 0.369480 0.134749
0.570931 0.374325 0.119739
0.604041 0.380152 0.104242
0.634392 0.385527 0.110219
0.663638 0.391262 0.118798
0.691532 0.396906 0.127754
0.718963 0.403016 0.137099
0.745140 0.409297 0.146610
0.769287 0.415609 0.156404
0.791210 0.421689 0.168119
0.812214 0.427548 0.182666
0.831956 0.433320 0.197119
0.850789 0.439130 0.211508
0.868824 0.445219 0.226048
0.886044 0.451201 0.240567
0.902883 0.457780 0.255645
0.919172 0.464401 0.270675
0.935265 0.471244 0.285866
0.052899 0.399900 0.048063
0.065266 0.399628 0.053935
0.076654 0.399075 0.060387
0.089363 0.397870 0.069986
0.112168 0.396265 0.085355
0.145407 0.395772 0.096148
0.196489 0.394386 0.112194
0.232285 0.395692 0.119956
0.259333 0.399666 0.124879
0.300420 0.399997 0.146490
0.366721 0.390004 0.205199
0.407296 0.387152 0.251184
0.422576 0.400369 0.212900
0.445245 0.408811 0.219412
0.497467 0.409964 0.196441
0.540047 0.412901 0.181854
0.576762 0.416702 0.162068
0.610352 0.420604 0.146075
0.641430 0.425110 0.128791
0.670736 0.429710 0.121798
0.698652 0.434165 0.130747
0.725680 0.438819 0.140092
0.751025 0.443788 0.149570
0.774373 0.448940 0.159323
0.795617 0.454257 0.168932
0.815702 0.459714 0.178610
0.834876 0.464906 0.190357
0.853444 0.469850 0.205265
0.871220 0.474798 0.220103
0.888575 0.480278 0.235281
0.905213 0.485718 0.250620
0.921417 0.491410 0.266188
0.937357 0.497317 0.281715
0.062983 0.448780 0.057729
0.073843 0.448414 0.063212
0.083595 0.448060 0.069563
0.097179 0.447377 0.079418
0.125588 0.445676 0.093580
0.167086 0.444721 0.106666
0.212440 0.443744 0.121633
0.256233 0.442170 0.137080
0.280475 0.445424 0.140683
0.308227 0.448522 0.146413
0.356097 0.446097 0.182078
0.417933 0.436985 0.241141
0.457151 0.434320 0.286600
0.471833 0.447177 0.245779
0.493177 0.454970 0.252227
0.537665 0.456538 0.232541
0.580474 0.457437 0.211989
0.613548 0.460808 0.190687
0.645494 0.463537 0.173614
0.675647 0.467010 0.155406
0.704429 0.470984 0.136564
0.731261 0.474372 0.142861
0.756172 0.477931 0.152298
0.778908 0.481757 0.161803
0.799805 0.485827 0.171583
0.819568 0.490018 0.181427
0.838402 0.494408 0.191340
0.856422 0.498883 0.201128
0.874110 0.503707 0.212945
0.891265 0.508106 0.228632
0.907743 0.512636 0.244454
0.923809 0.517346 0.260389
0.939673 0.522347 0.276488
0.070637 0.494485 0.065736
0.079818 0.494182 0.071221
0.088677 0.493784 0.077297
0.103413 0.493202 0.086517
0.135586 0.491952 0.099515
0.183780 0.490409 0.115719
0.223146 0.489790 0.129286
0.264285 0.488255 0.147239
0.302920 0.487946 0.158970
0.325704 0.491145 0.162674
0.355960 0.493469 0.171880
0.411279 0.488436 0.222212
0.467339 0.480670 0.278579
0.503355 0.478268 0.320950
0.516825 0.489671 0.279324
0.536105 0.496292 0.284825
0.572249 0.498382 0.270900
0.616224 0.497282 0.242215
0.646867 0.499963 0.219757
0.678048 0.501836 0.202382
0.707451 0.504153 0.183372
0.735221 0.506985 0.163574
0.760506 0.509950 0.155019
0.782903 0.512507 0.164282
0.803550 0.515380 0.174032
0.823128 0.518494 0.183849
0.842073 0.522101 0.193935
0.860186 0.525932 0.204288
0.877636 0.530065 0.214712
0.894316 0.534494 0.225213
0.910488 0.539053 0.236936
0.926402 0.543354 0.253404
0.942198 0.548023 0.270323
0.077519 0.534486 0.074173
0.085514 0.534231 0.079418
0.094556 0.533806 0.085236
0.111359 0.533295 0.093846
0.147045 0.532123 0.106076
0.197677 0.530041 0.123865
0.234130 0.529339 0.137800
0.272943 0.528040 0.155809
0.315816 0.526382 0.173902
0.344328 0.527555 0.179742
0.369725 0.529741 0.185137
0.403076 0.530627 0.201321
0.464779 0.523221 0.266291
0.512739 0.517941 0.316059
0.544822 0.516164 0.354116
0.556953 0.526169 0.312016
0.574416 0.531861 0.316727
0.602547 0.534743 0.309687
0.648653 0.531631 0.272684
0.677884 0.533699 0.254102
0.708425 0.535091 0.231895
0.736923 0.536805 0.212428
0.762868 0.539026 0.192075
0.786007 0.541757 0.171106
0.806968 0.544216 0.176493
0.826868 0.547072 0.186485
0.845814 0.550233 0.196744
0.863870 0.553532 0.207070
0.881201 0.557208 0.217663
0.897788 0.561173 0.228333
0.913847 0.565417 0.239464
0.929465 0.569933 0.250488
0.945006 0.574711 0.262634
0.083568 0.571285 0.082511
0.091205 0.570966 0.087301
0.101180 0.570719 0.092884
0.121198 0.569985 0.100984
0.158377 0.568951 0.112613
0.205779 0.567173 0.129226
0.245191 0.565656 0.146979
0.280856 0.564526 0.163081
0.321898 0.562905 0.183184
0.365672 0.560950 0.199986
0.385277 0.563635 0.201742
0.411908 0.565414 0.208160
0.449730 0.564638 0.234513
0.515111 0.554362 0.312205
0.552687 0.550915 0.354594
0.581438 0.550077 0.386467
0.592306 0.559578 0.343237
0.608233 0.564981 0.347098
0.629098 0.569155 0.348686
0.678735 0.564542 0.303410
0.707667 0.565925 0.288217
0.736853 0.567319 0.262600
0.763837 0.568943 0.242858
0.787849 0.571114 0.222274
0.809841 0.573739 0.200980
0.830359 0.576570 0.189538
0.849321 0.579140 0.199564
0.867418 0.581999 0.209861
0.884729 0.585142 0.220621
0.901277 0.588638 0.231455
0.917355 0.592479 0.242747
0.932993 0.596654 0.254304
0.948605 0.601231 0.265982
0.089365 0.606511 0.090745
0.097636 0.606210 0.095335
0.109226 0.605897 0.100740
0.132566 0.605190 0.108473
0.169616 0.604145 0.119551
0.213533 0.602577 0.135238
0.256506 0.600301 0.156888
0.289327 0.599546 0.171106
0.328046 0.597899 0.190787
0.370004 0.595943 0.210921
0.402920 0.595761 0.220332
0.424925 0.597788 0.224532
0.452192 0.599282 0.231176
0.494964 0.596308 0.272066
0.559994 0.584289 0.356193
0.588664 0.582751 0.392818
0.614461 0.582511 0.418014
0.624590 0.591639 0.374205
0.639784 0.596957 0.377165
0.655359 0.602135 0.385991
0.707028 0.596994 0.335528
0.736904 0.597846 0.320378
0.763807 0.599807 0.294078
0.788640 0.601256 0.274869
0.811369 0.603215 0.254160
0.832504 0.605672 0.232645
0.852377 0.608472 0.210609
0.870803 0.611090 0.213231
0.888171 0.613900 0.223766
0.904804 0.616975 0.234763
0.920963 0.620455 0.246216
0.936720 0.624357 0.257910
0.952412 0.628681 0.269846
0.096148 0.640440 0.098899
0.105416 0.640074 0.103384
0.119652 0.639687 0.108471
0.144632 0.638927 0.116106
0.180840 0.637927 0.126670
0.220621 0.636517 0.141461
0.261677 0.634359 0.161894
0.298312 0.632882 0.179846
0.333934 0.631605 0.197533
0.374284 0.629621 0.219238
0.417244 0.627279 0.238565
0.439805 0.628926 0.242133
0.463802 0.630617 0.247925
0.491871 0.631254 0.259536
0.537283 0.626323 0.310887
0.594505 0.615506 0.390240
0.622060 0.613572 0.431110
0.645939 0.614203 0.449776
0.656026 0.623447 0.405753
0.670858 0.628978 0.407899
0.686336 0.634348 0.417187
0.734210 0.630067 0.370290
0.764517 0.629986 0.351545
0.788345 0.632220 0.325743
0.811884 0.633547 0.307183
0.833734 0.635503 0.287167
0.854164 0.637873 0.265994
0.873511 0.640791 0.243702
0.891575 0.643964 0.227477
0.908387 0.646821 0.238252
0.924640 0.650066 0.249676
0.940573 0.653755 0.261666
0.956416 0.657871 0.273852
0.103933 0.673653 0.107346
0.115583 0.673297 0.111533
0.131869 0.672984 0.116549
0.157580 0.672329 0.123895
0.191824 0.671335 0.133978
0.227847 0.670033 0.148082
0.266768 0.668218 0.167065
0.307769 0.665993 0.189272
0.340673 0.664925 0.204999
0.378937 0.663191 0.226531
0.419623 0.661046 0.248338
0.457285 0.659622 0.262370
0.476273 0.661853 0.265071
0.500921 0.663324 0.271840
0.530478 0.663326 0.290552
0.577488 0.657126 0.351771
0.627689 0.647488 0.425310
0.655156 0.645230 0.470291
0.677305 0.646680 0.481103
0.687112 0.656152 0.438116
0.701581 0.661702 0.439241
0.716813 0.666879 0.448882
0.758873 0.663953 0.408171
0.789625 0.662930 0.382925
0.811525 0.665197 0.364688
0.834235 0.666822 0.340083
0.855435 0.668688 0.320764
0.875346 0.670983 0.300324
0.893991 0.673820 0.278747
0.911732 0.677054 0.255992
0.928494 0.680266 0.254068
0.944435 0.683221 0.265576
0.960129 0.686409 0.277651
0.114304 0.704137 0.115914
0.128016 0.703866 0.120044
0.145558 0.703526 0.125008
0.171040 0.703004 0.132090
0.202897 0.702254 0.141930
0.235775 0.701195 0.155275
0.272746 0.699744 0.173026
0.314820 0.697662 0.196631
0.348856 0.696559 0.213958
0.384527 0.695331 0.233407
0.423923 0.693578 0.256935
0.465468 0.691440 0.277776
0.491829 0.691798 0.284336
0.512346 0.693452 0.288941
0.536286 0.694619 0.296194
0.567482 0.693793 0.324247
0.615923 0.686676 0.395302
0.660099 0.679147 0.460818
0.687604 0.676506 0.502452
0.708354 0.678693 0.506203
0.717888 0.687479 0.470970
0.731695 0.692560 0.470556
0.746260 0.697162 0.479775
0.781214 0.696223 0.448737
0.813398 0.694527 0.415581
0.834560 0.696415 0.401424
0.856109 0.698304 0.374134
0.876781 0.699995 0.355328
0.896079 0.702125 0.335446
0.914099 0.704417 0.314312
0.931293 0.707004 0.292037
0.947828 0.709729 0.270007
0.963670 0.712087 0.281615
0.128157 0.730331 0.124859
0.142861 0.730044 0.129166
0.160498 0.729786 0.133881
0.184919 0.729335 0.140721
0.213709 0.728704 0.150499
0.244172 0.727861 0.163245
0.279588 0.726694 0.179978
0.319615 0.725105 0.202003
0.358257 0.723588 0.224199
0.391452 0.722738 0.241772
0.428971 0.721373 0.264884
0.468703 0.719669 0.287734
0.509735 0.717345 0.306590
0.525700 0.719261 0.307400
0.546690 0.720551 0.313595
0.569565 0.721660 0.321188
0.603469 0.719736 0.361011
0.653649 0.712332 0.441098
0.692099 0.707206 0.492528
0.719689 0.704602 0.529574
0.738402 0.707147 0.528741
0.747476 0.714579 0.498371
0.760314 0.719120 0.497177
0.773697 0.723113 0.504694
0.801821 0.723677 0.487882
0.836152 0.721994 0.450606
0.857513 0.723452 0.437478
0.877577 0.725282 0.408384
0.897189 0.726565 0.390525
0.915644 0.728140 0.370716
0.933222 0.730036 0.349812
0.950134 0.732201 0.327815
0.966718 0.734629 0.304339
0.144015 0.753744 0.134623
0.159112 0.753550 0.138688
0.176093 0.753272 0.143385
0.198718 0.752863 0.150167
0.224288 0.752300 0.159387
0.253391 0.751576 0.171752
0.287053 0.750602 0.187684
0.325358 0.749258 0.208337
0.368194 0.747419 0.234925
0.399636 0.746770 0.251589
0.434865 0.745714 0.272527
0.473271 0.744115 0.296490
0.512075 0.742240 0.317904
0.541118 0.741673 0.328350
0.558195 0.743277 0.331524
0.579113 0.744396 0.338402
0.602568 0.745069 0.351575
0.638566 0.742434 0.400698
0.691149 0.734495 0.485880
0.724032 0.731462 0.518050
0.750751 0.729146 0.558397
0.767134 0.732054 0.553531
0.775491 0.738809 0.522440
0.787154 0.743261 0.520004
0.799715 0.747000 0.527456
0.821384 0.748701 0.519467
0.857272 0.746457 0.485126
0.879201 0.747335 0.471898
0.897469 0.749248 0.450792
0.916520 0.750537 0.426386
0.934562 0.751927 0.406593
0.951874 0.753656 0.385797
0.968814 0.755685 0.363591
0.161243 0.776777 0.144558
0.175997 0.776514 0.148584
0.191697 0.776248 0.153213
0.211882 0.775898 0.159683
0.235098 0.775400 0.168772
0.262769 0.774702 0.180562
0.295087 0.773801 0.195912
0.331829 0.772584 0.215403
0.372695 0.770971 0.240499
0.408726 0.769738 0.262400
0.441800 0.768921 0.281084
0.478449 0.767571 0.304594
0.515751 0.765784 0.327875
0.553138 0.763975 0.347933
0.571805 0.765163 0.351610
0.589788 0.766720 0.356619
0.610630 0.767901 0.364264
0.635446 0.768162 0.384416
0.674276 0.764686 0.442934
0.729305 0.755835 0.520349
0.755149 0.754707 0.544169
0.779866 0.752475 0.588031
0.794032 0.755860 0.579500
0.802056 0.762495 0.548047
0.812884 0.767113 0.543862
0.824800 0.770946 0.551933
0.839874 0.774239 0.552680
0.877006 0.770778 0.513830
0.899661 0.771017 0.499705
0.916952 0.772904 0.487944
0.935248 0.774562 0.462439
0.953031 0.775897 0.443001
0.963872 0.779880 0.467675
0.178952 0.800516 0.155202
0.192738 0.800337 0.159158
0.206895 0.800090 0.163505
0.224329 0.799769 0.169883
0.246392 0.799296 0.178632
0.272853 0.798704 0.190260
0.303993 0.797884 0.204836
0.339141 0.796833 0.223563
0.378284 0.795404 0.247165
0.419178 0.793743 0.274533
0.450313 0.793180 0.291346
0.484731 0.792010 0.312721
0.520878 0.790433 0.337195
0.556233 0.788872 0.359641
0.587907 0.787982 0.374857
0.602472 0.789961 0.376796
0.621035 0.791456 0.383207
0.641730 0.792759 0.390990
0.669149 0.792378 0.420439
0.710819 0.787882 0.485128
0.762309 0.779086 0.550334
0.783709 0.778740 0.572792
0.807066 0.776244 0.617449
0.819796 0.780190 0.605670
0.827383 0.786979 0.574622
0.837458 0.791748 0.568436
0.848812 0.795495 0.576690
0.859812 0.799615 0.583208
0.895409 0.796221 0.543957
0.919114 0.795359 0.523703
0.936166 0.796909 0.514847
0.951314 0.799489 0.505049
0.958750 0.803960 0.540444
0.196820 0.824414 0.166287
0.208796 0.824251 0.170181
0.220966 0.824091 0.174466
0.237239 0.823792 0.180946
0.258326 0.823381 0.189360
0.283774 0.822890 0.200630
0.313718 0.822154 0.214836
0.347566 0.821204 0.232612
0.385345 0.820033 0.255287
0.426732 0.818412 0.283053
0.460428 0.817572 0.303211
0.492475 0.816598 0.322632
0.526899 0.815189 0.346519
0.561070 0.813838 0.370706
0.595269 0.812460 0.391950
0.617097 0.813018 0.399495
0.632828 0.814808 0.403334
0.652077 0.816148 0.410767
0.672811 0.817377 0.419641
0.703319 0.816129 0.459169
0.746381 0.810744 0.517931
0.790129 0.803254 0.577869
0.810413 0.802796 0.602129
0.832926 0.800269 0.646489
0.844324 0.804487 0.631925
0.851592 0.811098 0.601368
0.860995 0.815924 0.592961
0.871829 0.819532 0.601247
0.882247 0.823485 0.607954
0.912528 0.821361 0.576541
0.936659 0.819787 0.555918
0.945325 0.822972 0.588474
0.953703 0.827497 0.609064
0.213495 0.848201 0.178216
0.223720 0.848055 0.181849
0.235062 0.847876 0.186265
0.250697 0.847624 0.192443
0.270833 0.847269 0.200732
0.295456 0.846777 0.211654
0.324197 0.846148 0.225499
0.356726 0.845289 0.242718
0.392973 0.844227 0.264213
0.432913 0.842779 0.290224
0.471220 0.841370 0.315902
0.501251 0.840557 0.333604
0.533460 0.839411 0.355556
0.566457 0.838201 0.380876
0.599172 0.836973 0.404335
0.633011 0.835405 0.424514
0.646301 0.837415 0.425384
0.663150 0.838969 0.430844
0.682785 0.840200 0.438789
0.704820 0.841070 0.453404
0.737156 0.838988 0.494911
0.779026 0.833090 0.550902
