bundles/resolve-cinematic-luts/Gamut/Timbre/Timbre 05.cube
TITLE "Generated by 3D LUT Creator Pro (c) Oleg Sharonov"
LUT_3D_SIZE 9
#IMAGEPROFILE Display v.2.10
#INPUTGAMMA Display v.2.10
#OUTPUTGAMMA Display v.2.10
0.000000 0.000000 0.000000
0.069243 0.000985 0.000000
0.192014 0.003581 0.000000
0.365917 0.007836 0.000000
0.529822 0.014221 0.000000
0.664927 0.026298 0.000000
0.791845 0.036102 0.000000
0.878493 0.021142 0.000000
0.965436 0.000000 0.001247
0.000386 0.072225 0.003368
0.067685 0.070091 0.016746
0.198162 0.071652 0.000000
0.369612 0.072927 0.000000
0.532458 0.075550 0.000000
0.670827 0.081330 0.000000
0.795564 0.085544 0.000000
0.878726 0.079878 0.000000
0.964386 0.071416 0.000000
0.000908 0.192537 0.012907
0.067581 0.197625 0.000000
0.182455 0.180889 0.052643
0.376610 0.193882 0.000000
0.546215 0.201018 0.000000
0.682046 0.212932 0.000000
0.800181 0.217600 0.000000
0.877686 0.211424 0.000000
0.959773 0.208788 0.000000
0.002782 0.377881 0.028978
0.059709 0.381392 0.002475
0.251671 0.366679 0.103861
0.355157 0.360586 0.095472
0.557540 0.388925 0.000000
0.689671 0.388544 0.000000
0.799797 0.386894 0.000000
0.873589 0.385092 0.000000
0.954776 0.384059 0.000000
0.009299 0.547020 0.063886
0.034055 0.551718 0.012803
0.185275 0.550134 0.028496
0.437845 0.530926 0.195448
0.522337 0.523758 0.159562
0.674653 0.543859 0.068257
0.794877 0.537490 0.000000
0.870847 0.536227 0.000000
0.953293 0.536195 0.000000
0.016150 0.674384 0.092510
0.020792 0.678914 0.039905
0.152433 0.678963 0.030206
0.394750 0.670335 0.109801
0.583198 0.656143 0.282349
0.645833 0.647967 0.231146
0.767406 0.675162 0.212678
0.869172 0.668754 0.000000
0.955114 0.668539 0.000000
0.021836 0.775968 0.112928
0.024889 0.778811 0.064650
0.131916 0.779840 0.030115
0.360035 0.777613 0.039517
0.598258 0.762762 0.296849
0.704074 0.760937 0.376897
0.763542 0.758802 0.316664
0.841233 0.782507 0.369056
0.956635 0.778284 0.000000
0.029682 0.861646 0.143820
0.031949 0.863619 0.098452
0.111181 0.865702 0.035965
0.341656 0.864420 0.044061
0.545325 0.862656 0.045909
0.759988 0.845198 0.457751
0.817174 0.850118 0.472929
0.858293 0.853414 0.415342
0.911790 0.873397 0.501409
0.037208 0.958635 0.177497
0.038906 0.960827 0.131268
0.091721 0.964893 0.042258
0.324660 0.963980 0.047139
0.540371 0.961976 0.052466
0.719074 0.953548 0.283086
0.863003 0.930344 0.641133
0.901497 0.935839 0.673625
0.943810 0.942182 0.608802
0.001749 0.005846 0.024785
0.072372 0.000029 0.069649
0.201651 0.000000 0.069124
0.376796 0.000000 0.066747
0.542035 0.000000 0.062555
0.676834 0.000000 0.053103
0.802505 0.000000 0.048484
0.882072 0.000000 0.061123
0.965278 0.000000 0.075982
0.000788 0.072858 0.066248
0.070630 0.072222 0.067651
0.177439 0.078510 0.062149
0.368830 0.075699 0.062861
0.536972 0.075769 0.059914
0.675784 0.077568 0.051402
0.801566 0.077134 0.046695
0.882414 0.070222 0.050940
0.968322 0.061270 0.052932
0.000000 0.195757 0.083219
0.063592 0.194598 0.091929
0.187054 0.158423 0.071206
0.379947 0.193756 0.061756
0.564743 0.186931 0.022726
0.699284 0.191417 0.008903
0.813919 0.190045 0.004760
0.886521 0.182587 0.016253
0.970272 0.175554 0.011138
0.002256 0.378863 0.091239
0.074732 0.376102 0.110860
0.235465 0.371446 0.108233
0.347848 0.326002 0.099340
0.562109 0.387695 0.059753
0.704756 0.378898 0.000000
0.810952 0.375407 0.000000
0.881396 0.372180 0.000000
0.964150 0.369247 0.000000
0.006072 0.547417 0.107545
0.084137 0.545535 0.135725
0.186129 0.549298 0.097742
0.454840 0.528540 0.208693
0.522990 0.509956 0.165935
0.677829 0.543032 0.096923
0.804217 0.532636 0.000000
0.877055 0.530778 0.000000
0.960429 0.530310 0.000000
0.012862 0.674528 0.132882
0.086629 0.672961 0.159854
0.147482 0.679090 0.097905
0.383284 0.672600 0.122616
0.593445 0.654153 0.293530
0.646705 0.638468 0.237950
0.771672 0.673903 0.227342
0.874127 0.665776 0.000000
0.961434 0.664870 0.000000
0.019463 0.775938 0.153539
0.089112 0.774950 0.179426
0.129270 0.779915 0.099064
0.359777 0.777233 0.106200
0.593956 0.763997 0.302373
0.711480 0.760032 0.388732
0.765057 0.754406 0.323877
0.844454 0.781539 0.377145
0.960039 0.777383 0.020199
0.028063 0.861565 0.183915
0.094186 0.860916 0.209065
0.106484 0.865651 0.103887
0.338036 0.864362 0.109292
0.547077 0.862284 0.113296
0.757120 0.846038 0.460154
0.820740 0.849340 0.480473
0.859790 0.851362 0.423281
0.916071 0.872524 0.505177
0.035799 0.958746 0.217660
0.100965 0.958308 0.242378
0.105026 0.964168 0.128649
0.322505 0.963976 0.113404
0.540274 0.961832 0.118947
0.715807 0.954380 0.291718
0.865407 0.929691 0.648449
0.903963 0.935011 0.679484
0.944935 0.940072 0.635618
0.007443 0.021704 0.069580
0.069344 0.004714 0.158130
0.202992 0.000000 0.178063
0.376704 0.000000 0.177067
0.541539 0.002097 0.183148
0.677367 0.000000 0.175904
0.802362 0.000000 0.174128
0.881347 0.000000 0.186565
0.964409 0.000000 0.196955
0.024489 0.073825 0.127753
0.063749 0.075851 0.163124
0.208101 0.069824 0.181801
0.365382 0.075908 0.175690
0.532153 0.079133 0.186148
0.679605 0.073487 0.175912
0.806192 0.068014 0.169851
0.881432 0.070172 0.181785
0.963924 0.070268 0.188874
0.007292 0.193726 0.157764
0.066462 0.201503 0.173451
0.198574 0.194700 0.173539
0.375981 0.201639 0.150159
0.506449 0.239800 0.173927
0.677852 0.225449 0.171654
0.795915 0.228558 0.174699
0.874624 0.221470 0.180568
0.957600 0.216307 0.174998
0.000000 0.389222 0.197425
0.072035 0.387667 0.231300
0.159798 0.388059 0.241790
0.380055 0.351441 0.172274
0.582605 0.376457 0.180819
0.698940 0.382996 0.160821
0.810171 0.376389 0.145070
0.881243 0.372241 0.137242
0.965299 0.368362 0.127891
0.000000 0.544773 0.227832
0.083601 0.542350 0.262046
0.202421 0.544424 0.273503
0.438980 0.535367 0.235219
0.527457 0.486651 0.210398
0.677912 0.542617 0.205264
0.804786 0.532126 0.138484
0.885689 0.523222 0.085622
0.977090 0.515692 0.040139
0.007081 0.674301 0.235637
0.087853 0.672114 0.266708
0.228936 0.669641 0.300414
0.374742 0.673565 0.224673
0.619288 0.648320 0.327128
0.647921 0.612629 0.250103
0.779854 0.671456 0.270286
0.876930 0.664194 0.120481
0.975964 0.656155 0.012112
0.014076 0.775824 0.252677
0.091027 0.774429 0.280474
0.237247 0.772356 0.320476
0.342055 0.777748 0.230210
0.579960 0.767213 0.316304
0.731397 0.756268 0.416205
0.769420 0.743534 0.339544
0.851869 0.779225 0.399119
0.961447 0.776778 0.152378
0.022919 0.861351 0.278978
0.096626 0.860417 0.306532
0.246943 0.858833 0.347915
0.319178 0.864559 0.237577
0.547189 0.861623 0.245180
0.748786 0.848242 0.466543
0.830912 0.847532 0.499830
0.864117 0.846593 0.441577
0.926767 0.870412 0.514840
0.032462 0.958868 0.312207
0.104441 0.958738 0.339212
0.259523 0.956940 0.379651
0.308150 0.964094 0.247663
0.534475 0.961762 0.255048
0.706792 0.956686 0.313424
0.871489 0.928056 0.665830
0.910920 0.933101 0.694888
0.947544 0.935439 0.688787
0.020441 0.045203 0.123873
0.071908 0.021262 0.256321
0.187355 0.019858 0.286403
0.379568 0.000000 0.340158
0.541112 0.000000 0.334237
0.676459 0.003142 0.349658
0.797080 0.018259 0.370595
0.875258 0.022252 0.376470
0.959472 0.016150 0.373260
0.039116 0.085614 0.162433
0.067377 0.086945 0.210910
0.195414 0.078261 0.288899
0.372838 0.074896 0.337674
0.534818 0.076088 0.330783
0.673494 0.081676 0.351470
0.790166 0.092924 0.378985
0.871249 0.091508 0.380302
0.956475 0.084234 0.370854
0.055513 0.191448 0.279778
0.088801 0.198587 0.285888
0.184520 0.202092 0.360907
0.408129 0.177199 0.369923
0.549180 0.204646 0.340470
0.668226 0.230625 0.364435
0.783497 0.243291 0.385495
0.864412 0.243870 0.386503
0.950791 0.230287 0.363852
0.037838 0.378423 0.299523
0.089401 0.381909 0.314024
0.169806 0.399621 0.362811
0.385541 0.388129 0.370592
0.567146 0.388402 0.314760
0.673545 0.402168 0.320850
0.762281 0.424616 0.362397
0.860131 0.406993 0.357193
0.975223 0.348812 0.282843
0.005355 0.539466 0.319461
0.078637 0.538778 0.343045
0.194795 0.539508 0.404195
0.335152 0.548730 0.430136
0.550710 0.520929 0.349408
0.725780 0.519749 0.339040
0.795565 0.537867 0.305816
0.873865 0.533488 0.301400
0.982762 0.509484 0.221801
0.000000 0.671767 0.385193
0.075522 0.669514 0.415333
0.225903 0.666725 0.459372
0.333817 0.674667 0.444041
0.603849 0.655523 0.391484
0.662912 0.620000 0.350103
0.788077 0.669210 0.356706
0.866927 0.668564 0.367420
0.987963 0.648433 0.159998
0.003494 0.774662 0.409581
0.084260 0.773146 0.434887
0.243463 0.770508 0.475133
0.374935 0.771799 0.484891
0.541476 0.774257 0.366530
0.750752 0.754187 0.463785
0.777466 0.731194 0.405881
0.862739 0.775865 0.445235
0.973559 0.773107 0.228617
0.015145 0.860762 0.426267
0.091769 0.859891 0.449800
0.257003 0.857581 0.492373
0.407536 0.857063 0.513027
0.518651 0.862785 0.407766
0.727975 0.852881 0.478921
0.849784 0.844457 0.538607
0.871167 0.837330 0.475481
0.934840 0.868286 0.575706
0.026872 0.959081 0.455141
0.100190 0.958206 0.476523
0.271008 0.955700 0.510720
0.356429 0.960191 0.472353
0.511544 0.963020 0.415910
0.686989 0.960405 0.384887
0.868606 0.930033 0.687920
0.921847 0.930499 0.724043
0.951198 0.928351 0.747954
0.039354 0.067797 0.189596
0.070386 0.056535 0.316465
0.182463 0.050079 0.375407
0.359769 0.038696 0.442040
0.547792 0.000000 0.515907
0.680314 0.000000 0.512529
0.795613 0.011220 0.529039
0.866362 0.051875 0.549804
0.943453 0.065230 0.555813
0.052841 0.104950 0.207841
0.077739 0.104206 0.272657
0.201553 0.090229 0.387607
0.363982 0.087428 0.444394
0.547250 0.074978 0.518653
0.678744 0.077070 0.512347
0.790304 0.088025 0.529893
0.862040 0.110212 0.550848
0.939952 0.118781 0.554275
0.088644 0.210041 0.323516
0.103444 0.220332 0.333632
0.182349 0.222194 0.445424
0.399762 0.199491 0.501524
0.559326 0.211099 0.531161
0.675874 0.227909 0.516985
0.782670 0.242982 0.531745
0.856106 0.260704 0.550086
0.935258 0.261220 0.547533
0.095611 0.364513 0.414097
0.128324 0.369831 0.430685
0.211090 0.389131 0.491053
0.374875 0.392131 0.553829
0.585670 0.368582 0.545995
0.707620 0.369502 0.528948
0.788327 0.393569 0.533834
0.855346 0.410292 0.535030
0.969025 0.352394 0.516878
0.076434 0.523557 0.432490
0.121485 0.525984 0.443869
0.211288 0.535898 0.472127
0.348371 0.548370 0.522559
0.551632 0.543395 0.514612
0.688002 0.539236 0.488402
0.790560 0.541721 0.470776
0.847049 0.561840 0.480066
0.974500 0.515413 0.467496
0.036363 0.658932 0.440042
0.091874 0.659863 0.456963
0.224171 0.660526 0.496100
0.326182 0.667676 0.553598
0.504879 0.674443 0.568531
0.675720 0.650865 0.514790
0.823660 0.649982 0.484781
0.882913 0.658749 0.467870
0.984878 0.649029 0.417540
0.002293 0.768549 0.488585
0.078174 0.767529 0.505470
0.226688 0.764971 0.540093
0.371961 0.767753 0.588495
0.475987 0.777250 0.592441
0.736129 0.759230 0.546914
0.788805 0.745699 0.510011
0.886928 0.766415 0.522419
0.981370 0.769866 0.411176
0.000000 0.859665 0.561896
0.077183 0.858813 0.581591
0.238780 0.856606 0.618099
0.412673 0.855510 0.633929
0.508119 0.860978 0.619595
0.677557 0.861885 0.506609
0.849313 0.846137 0.588293
0.877366 0.838280 0.557392
0.944343 0.867111 0.622752
0.011269 0.958441 0.586396
0.090925 0.957630 0.599839
0.261826 0.955144 0.628096
0.352593 0.959587 0.604913
0.518324 0.962047 0.567384
0.675677 0.961072 0.550949
0.847306 0.940087 0.700862
0.925175 0.931898 0.765532
0.953043 0.927507 0.768240
0.060963 0.092127 0.267475
0.079241 0.083663 0.389765
0.200418 0.074646 0.459875
0.346086 0.076086 0.509796
0.531081 0.056428 0.581146
0.693772 0.000000 0.665081
0.802732 0.000000 0.653590
0.874144 0.012384 0.664534
0.949686 0.044171 0.669433
0.071966 0.131424 0.280253
0.093712 0.130234 0.342117
0.220209 0.109998 0.475596
0.359972 0.113489 0.518083
0.535590 0.101436 0.585518
0.692824 0.075406 0.665896
0.800170 0.077006 0.651893
0.870137 0.087878 0.662032
0.945891 0.101516 0.666698
0.106390 0.243266 0.375460
0.120284 0.252491 0.386840
0.200625 0.250863 0.503813
0.396321 0.227794 0.559859
0.550486 0.232601 0.606721
0.679056 0.225447 0.651503
0.790861 0.234186 0.646881
0.862919 0.244102 0.656011
0.938228 0.254100 0.661232
0.152071 0.373956 0.498388
0.178931 0.381727 0.506286
0.233259 0.398061 0.528316
0.365014 0.393721 0.626982
0.578630 0.360925 0.650742
0.703650 0.364755 0.670795
0.791669 0.390974 0.648905
0.858342 0.404673 0.650939
0.967360 0.350491 0.659988
0.158139 0.509675 0.525781
0.190561 0.513112 0.532821
0.247556 0.523325 0.558848
0.363455 0.534323 0.608666
0.538466 0.539787 0.672366
0.699958 0.527016 0.661865
0.819973 0.512672 0.654640
0.877737 0.523147 0.649587
0.967999 0.517592 0.644813
0.126553 0.634415 0.529601
0.175512 0.637384 0.537002
0.264888 0.646265 0.555932
0.351059 0.664320 0.589138
0.521608 0.674129 0.644763
0.673430 0.670446 0.638316
0.790843 0.669945 0.615226
0.873245 0.668383 0.590054
0.974137 0.655524 0.610176
0.075736 0.755109 0.528136
0.125306 0.756151 0.535810
0.254121 0.758808 0.556295
0.371944 0.762694 0.592568
0.474055 0.768818 0.655944
0.650261 0.774945 0.687997
0.791634 0.763404 0.655092
0.892545 0.767487 0.593385
0.979958 0.769832 0.598433
0.000000 0.862461 0.648423
0.070627 0.862021 0.657099
0.224878 0.860141 0.680783
0.395303 0.857873 0.716208
0.505401 0.859455 0.744464
0.611833 0.865166 0.741923
0.840225 0.850353 0.684778
0.881300 0.847945 0.658984
0.959236 0.865755 0.666616
0.000000 0.958340 0.690537
0.069566 0.957998 0.701205
0.235002 0.955580 0.731017
0.329803 0.958236 0.745253
0.495506 0.962458 0.710424
0.667472 0.961641 0.688296
0.802936 0.958816 0.662845
0.925233 0.934414 0.785846
0.953766 0.927769 0.799174
0.085649 0.126176 0.353586
0.103215 0.120711 0.438670
0.220712 0.109050 0.518511
0.354658 0.112576 0.561753
0.511432 0.108847 0.624363
0.666631 0.071869 0.709966
0.797301 0.000000 0.769731
0.876615 0.000000 0.779720
0.957821 0.000000 0.781556
0.097179 0.172760 0.366294
0.119715 0.172048 0.419934
0.227991 0.153808 0.529035
0.373044 0.152858 0.574654
0.520485 0.149825 0.633949
0.664676 0.118899 0.705605
0.793734 0.078311 0.767414
0.874395 0.075039 0.777262
0.953678 0.080275 0.778377
0.128938 0.274345 0.425037
0.141582 0.282526 0.436785
0.226676 0.283423 0.548969
0.405852 0.255774 0.616114
0.538436 0.259476 0.651187
0.663366 0.246624 0.700059
0.787083 0.231290 0.763876
0.866788 0.234092 0.768855
0.945167 0.238901 0.771898
0.202460 0.394971 0.533936
0.216359 0.401044 0.540812
0.248867 0.415442 0.559694
0.367014 0.405595 0.668633
0.572721 0.371974 0.701950
0.686726 0.371754 0.729164
0.789672 0.387671 0.772117
0.861079 0.401083 0.762876
0.968979 0.345326 0.782351
0.242494 0.505232 0.596532
0.259228 0.510428 0.603088
0.297824 0.521289 0.619581
0.378318 0.538749 0.647740
0.533813 0.534407 0.743829
0.708418 0.507781 0.774690
0.816628 0.508435 0.800014
0.877965 0.521508 0.775859
0.968113 0.514187 0.777742
0.232931 0.615495 0.600937
0.251946 0.619556 0.608006
0.292759 0.630815 0.627930
0.372698 0.646775 0.664010
0.524655 0.658826 0.717938
0.665383 0.668617 0.776989
0.798625 0.661403 0.776687
0.899386 0.640706 0.779970
0.967428 0.656149 0.772278
0.215669 0.733952 0.603268
0.253123 0.736070 0.609490
0.325968 0.741619 0.623623
0.395466 0.753452 0.643430
0.511196 0.768640 0.686711
0.671810 0.773190 0.748589
0.786955 0.775442 0.765179
0.882502 0.772150 0.735173
0.973812 0.772696 0.752131
0.052671 0.864658 0.745794
0.110793 0.864004 0.747859
0.260300 0.862354 0.751898
0.413798 0.861220 0.759327
0.508311 0.863662 0.790778
0.588800 0.866920 0.844133
0.746615 0.868694 0.813495
0.877678 0.855518 0.781085
0.967407 0.864681 0.764230
0.000000 0.961366 0.777032
0.071647 0.961159 0.781736
0.230961 0.959501 0.794760
0.318293 0.962698 0.803425
0.452406 0.966023 0.808679
0.640190 0.962638 0.820193
0.787542 0.960265 0.803217
0.914865 0.940420 0.816496
0.953874 0.928235 0.834427
0.120579 0.180677 0.445162
0.141444 0.176220 0.504790
0.243022 0.166180 0.565818
0.379979 0.163891 0.614649
0.507003 0.168004 0.669086
0.636162 0.151739 0.729131
0.766651 0.099566 0.795830
0.868611 0.016063 0.853129
0.958282 0.000000 0.867018
0.134746 0.230486 0.458722
0.160344 0.230343 0.501836
0.253561 0.217177 0.583615
0.394446 0.203698 0.629989
0.517177 0.210776 0.678224
0.639031 0.199563 0.729198
0.766058 0.147405 0.794329
0.865758 0.086400 0.851084
0.956501 0.071819 0.865762
0.158747 0.313736 0.484483
0.182271 0.322358 0.510511
0.255759 0.318727 0.596388
0.414781 0.291750 0.664604
0.538248 0.293056 0.691853
0.648540 0.289903 0.734644
0.767060 0.266315 0.793801
0.860425 0.239667 0.847631
0.948533 0.232668 0.860685
0.232731 0.420382 0.568074
0.243194 0.425756 0.574406
0.269776 0.438441 0.590675
0.379907 0.424949 0.706776
0.573672 0.390838 0.741964
0.674552 0.392026 0.764404
0.776497 0.393048 0.804182
0.857844 0.400207 0.849556
0.970024 0.341122 0.872407
0.290904 0.519584 0.633579
0.303138 0.523595 0.640018
0.334215 0.533054 0.655944
0.385735 0.548898 0.679496
0.529788 0.536676 0.797522
0.705960 0.506215 0.813920
0.808903 0.501899 0.839717
0.874754 0.518008 0.872866
0.969355 0.513342 0.870885
0.313357 0.609721 0.669193
0.326356 0.612899 0.677256
0.360720 0.620177 0.698487
0.424604 0.639524 0.724614
0.529176 0.660720 0.753177
0.668842 0.659771 0.819091
0.818305 0.634012 0.855285
0.897951 0.633263 0.881312
0.968899 0.655735 0.869233
0.317520 0.717011 0.673089
0.330059 0.720176 0.678489
0.358311 0.728170 0.692840
0.411549 0.742198 0.723412
0.515784 0.760349 0.783641
0.652777 0.771640 0.844290
0.779978 0.773456 0.877703
0.886452 0.765881 0.880523
0.968740 0.772300 0.868280
0.136209 0.866184 0.848045
0.201615 0.865417 0.848299
0.317259 0.864054 0.849233
0.442800 0.863006 0.851830
0.523374 0.865741 0.858422
0.616008 0.869606 0.868438
0.756652 0.869263 0.872083
0.872327 0.865165 0.867263
0.966626 0.865581 0.857757
0.048624 0.963920 0.860544
0.110760 0.963494 0.861041
0.268219 0.962039 0.861880
0.363131 0.964759 0.862260
0.535598 0.964275 0.863231
0.662040 0.963870 0.869176
0.771652 0.961721 0.885226
0.853261 0.960035 0.874477
0.953214 0.934538 0.868244
0.174366 0.248431 0.526378
0.200855 0.246394 0.563160
0.276834 0.237948 0.621655
0.407052 0.222937 0.668977
0.514948 0.234990 0.707034
0.622448 0.238418 0.749899
0.737169 0.213193 0.807455
0.842141 0.136903 0.859653
0.942386 0.047418 0.917979
0.189637 0.284170 0.535164
0.214801 0.283461 0.564151
0.280051 0.270197 0.643709
0.412205 0.258829 0.679323
0.525277 0.264709 0.712889
0.628018 0.267706 0.753444
0.739544 0.249357 0.808043
0.841971 0.189120 0.859129
0.939235 0.103587 0.915286
0.210040 0.360029 0.548335
0.230811 0.360394 0.571690
0.289741 0.355199 0.642807
0.422752 0.333811 0.705838
0.547696 0.327884 0.729459
0.641638 0.331979 0.763192
0.746899 0.322562 0.811798
0.842622 0.290461 0.858947
0.933640 0.254247 0.912065
0.263264 0.449371 0.602551
0.272109 0.454217 0.608370
0.294387 0.465605 0.623047
0.394904 0.443105 0.749113
0.583432 0.403530 0.780811
0.675674 0.403557 0.801932
0.773937 0.396469 0.833910
0.860058 0.369386 0.876927
0.955438 0.348289 0.930721
0.326492 0.535962 0.667764
0.334748 0.539637 0.673116
0.356345 0.547510 0.684938
0.386099 0.559175 0.708024
0.519184 0.525599 0.851699
0.716538 0.480995 0.849457
0.813692 0.469903 0.869181
0.896894 0.437974 0.912962
0.964762 0.495353 0.929453
0.367248 0.619101 0.715705
0.377083 0.622295 0.719928
0.405280 0.632137 0.733819
0.445520 0.644305 0.755418
0.482783 0.656323 0.784013
0.652066 0.611716 0.904937
0.844853 0.548470 0.913604
0.911563 0.586764 0.946623
0.967551 0.652647 0.959037
0.378753 0.712964 0.733240
0.389166 0.715438 0.738614
0.421871 0.726078 0.768870
0.464078 0.739276 0.817242
0.511494 0.759457 0.866352
0.595413 0.782303 0.923584
0.783326 0.786867 0.952322
0.883177 0.776389 0.963173
0.968945 0.773113 0.967825
0.256743 0.865660 0.922729
0.295936 0.865426 0.923143
0.376303 0.865001 0.924980
0.425640 0.867972 0.936482
0.516719 0.871164 0.951459
0.670055 0.869703 0.955726
0.794187 0.868535 0.961237
0.868627 0.868525 0.967824
0.970211 0.862137 0.970631
0.104924 0.964013 0.950466
0.172065 0.963413 0.950489
0.307786 0.962208 0.950787
0.461290 0.961028 0.951474
0.587497 0.961092 0.953574
0.698626 0.960611 0.955728
0.795487 0.959152 0.956973
0.850171 0.958499 0.958518
0.946877 0.945397 0.947923
