bundles/resolve-cinematic-luts/Gamut/Timbre/Timbre 02.cube
TITLE "Generated by 3D LUT Creator Pro (c) Oleg Sharonov"
LUT_3D_SIZE 5
#IMAGEPROFILE iMac 5K Retina - Dark Room v.2.40
#INPUTGAMMA iMac 5K Retina - Dark Room v.2.40
#OUTPUTGAMMA iMac 5K Retina - Dark Room v.2.40
0.000000 0.000000 0.000000
0.144729 0.030676 0.030205
0.470255 0.082876 0.095561
0.740409 0.192790 0.199989
0.910220 0.318510 0.322708
0.021660 0.208174 0.018984
0.221963 0.206017 0.105367
0.539040 0.251867 0.084278
0.778951 0.324976 0.181232
0.929917 0.395717 0.293322
0.083568 0.571285 0.082511
0.321898 0.562905 0.183184
0.592306 0.559578 0.343237
0.809841 0.573739 0.200980
0.948605 0.601231 0.265982
0.178952 0.800516 0.155202
0.378284 0.795404 0.247165
0.621035 0.791456 0.383207
0.827383 0.786979 0.574622
0.958750 0.803960 0.540444
0.305549 0.974960 0.257665
0.448810 0.972518 0.328673
0.743277 0.954411 0.616489
0.876706 0.951888 0.760407
0.962148 0.950080 0.913605
0.007823 0.022668 0.071456
0.217944 0.000000 0.188695
0.499665 0.071608 0.211058
0.751033 0.181748 0.306425
0.914005 0.311673 0.407066
0.008389 0.214592 0.169976
0.219502 0.217416 0.191441
0.535927 0.260705 0.203513
0.797605 0.304151 0.278630
0.934574 0.388172 0.377460
0.064366 0.575131 0.209290
0.385548 0.554591 0.285964
0.577301 0.565580 0.422201
0.796393 0.580599 0.355491
0.939333 0.610115 0.385339
0.092527 0.805352 0.208905
0.474629 0.786190 0.387649
0.671400 0.780933 0.507601
0.826292 0.788840 0.596096
0.949688 0.808009 0.602907
0.208052 0.979354 0.259906
0.652913 0.951844 0.615202
0.796762 0.943744 0.728748
0.877798 0.952268 0.774968
0.962299 0.950742 0.915603
0.041014 0.070924 0.197873
0.157099 0.068126 0.370307
0.577671 0.000000 0.543089
0.810556 0.079789 0.551556
0.932398 0.271274 0.585840
0.092904 0.222320 0.384808
0.209012 0.249995 0.457038
0.589783 0.235668 0.559739
0.811716 0.286231 0.552112
0.941888 0.375309 0.581116
0.080797 0.550635 0.459525
0.228393 0.565614 0.499189
0.581563 0.572150 0.545780
0.824887 0.570925 0.487670
0.965342 0.584738 0.563554
0.097061 0.802099 0.504349
0.380418 0.798140 0.512179
0.659315 0.787412 0.591184
0.803651 0.801097 0.650782
0.953008 0.810503 0.669030
0.213872 0.978327 0.540518
0.582144 0.961683 0.639859
0.776040 0.951465 0.734769
0.894828 0.949236 0.831602
0.960894 0.952686 0.929163
0.087259 0.141027 0.370768
0.157894 0.150612 0.526868
0.529839 0.130525 0.649927
0.832307 0.016877 0.809199
0.988343 0.060811 0.811438
0.163970 0.291559 0.504476
0.244861 0.309004 0.571604
0.552944 0.292091 0.673343
0.822432 0.259842 0.802425
0.978072 0.285937 0.804179
0.269125 0.531694 0.623379
0.335559 0.545595 0.670135
0.562437 0.577188 0.739941
0.855778 0.528173 0.840788
0.972846 0.576799 0.803602
0.235574 0.759471 0.621485
0.347955 0.772253 0.661538
0.526866 0.802801 0.750853
0.815121 0.802925 0.800182
0.972771 0.805847 0.801901
0.160240 0.979450 0.773545
0.531585 0.967378 0.783518
0.742562 0.961062 0.812362
0.889636 0.955988 0.863898
0.960894 0.956339 0.940833
0.195580 0.271645 0.546388
0.250050 0.280110 0.631620
0.487388 0.299817 0.714866
0.773891 0.237778 0.840331
0.979395 0.066291 0.956325
0.251797 0.371140 0.608576
0.310352 0.381283 0.671052
0.524076 0.382750 0.764508
0.783429 0.347358 0.845391
0.971541 0.282734 0.950860
0.382310 0.542711 0.756407
0.415753 0.558439 0.772908
0.539170 0.559932 0.881428
0.841417 0.499278 0.905442
0.973467 0.559411 0.948141
0.421364 0.764437 0.829739
0.466708 0.777350 0.862379
0.591048 0.804691 0.945981
0.803326 0.816605 0.962711
0.976973 0.805564 0.976041
0.083988 0.982944 0.972434
0.352417 0.979048 0.970547
0.655473 0.972635 0.967687
0.827472 0.970605 0.969269
0.961658 0.960590 0.962293
