bundles/resolve-cinematic-luts/Gamut/_Conversion/Panasonic/Panasonic S5 BaseLUTs/BaseLUT - Panasonic S5 - V-Log to Rec709.cube
TITLE "BaseLUT - Panasonic S5 - V-Log to Rec709"
# Developed for converting V-Log / V-Gamut to Rec.709. Version 1.0 - 05/01/2025 - Copyright 2025 Gamut, LLC.
LUT_3D_SIZE 5
0.0000000000 0.0000000000 0.0000000000
0.0000000000 0.0000000000 0.0000000000
0.4610350473 0.0710275407 0.0575864357
0.8641864265 0.3101775689 0.1205845763
0.9975139690 0.5015446892 0.3396809819
0.0063132311 0.0530253370 0.0063132311
0.1714035989 0.1889254906 0.0242673970
0.5694988147 0.1059411838 0.0709649914
0.8766308288 0.3215756067 0.1237492992
0.9975139690 0.5041368296 0.3445351139
0.0955309551 0.5535960103 0.0950732361
0.1002952674 0.5667022642 0.0988182165
0.6148170706 0.6353999086 0.1227363481
0.9271925765 0.3828511719 0.1362703041
0.9975434600 0.5147679474 0.3781570898
0.5045743886 0.8964360314 0.5438892711
0.5051497706 0.8968376402 0.5420036212
0.5110030674 0.9011380668 0.5255055056
0.9372727638 0.9498755452 0.3787634060
0.9976769198 0.6880702099 0.4702449822
0.7874935699 0.9987077052 0.9526741579
0.7870739758 0.9987077052 0.9520841269
0.7853097563 0.9987077052 0.9485195647
0.7669611649 0.9986516034 0.9097465270
0.9992462686 0.9992425925 0.8609496853
0.0000551644 0.0000551644 0.0035510518
0.0883490393 0.0110482170 0.0592578679
0.5393032979 0.0939287660 0.0726258018
0.8911842954 0.3345995304 0.1374970619
0.9975434600 0.5078879679 0.3662246395
0.0142047075 0.1153677986 0.0996725370
0.1473447682 0.1473447682 0.1473446278
0.5809879010 0.1105553614 0.0797334309
0.8964387434 0.3393805883 0.1397202167
0.9975434600 0.5092050723 0.3713485725
0.0992218908 0.5631735170 0.1489677716
0.1041119679 0.5750867284 0.1533976097
0.6099999206 0.6278382711 0.1216060186
0.9282426473 0.3829621061 0.1496748878
0.9975876966 0.5183353885 0.4030870096
0.5062445528 0.8963130340 0.5660307249
0.5067016953 0.8966523972 0.5641845361
0.5123254625 0.9007852585 0.5496715479
0.9381325054 0.9503137050 0.3860957403
0.9977155261 0.6877367791 0.4879735908
0.7874654619 0.9987077052 0.9531478534
0.7871205693 0.9987077052 0.9524945974
0.7853284950 0.9987077052 0.9488797132
0.7668944823 0.9986516034 0.9102682644
0.9992462686 0.9992425925 0.8626331002
0.0665410008 0.0909951446 0.5352250276
0.1224228010 0.0838240794 0.4997669684
0.5605411394 0.1458250725 0.4969040832
0.9222072307 0.3698500712 0.3937375563
0.9978249106 0.5318317631 0.5484320071
0.0641866433 0.0899810705 0.5152479250
0.0876810312 0.0950881529 0.5354573598
0.5752313651 0.1558102290 0.5168611092
0.9242366371 0.3722039707 0.3976919693
0.9978249106 0.5326415857 0.5516610546
0.1043980017 0.5526701989 0.5311352856
0.1078100190 0.5587133138 0.5402442971
0.5667867781 0.5667865117 0.5667875258
0.9430580692 0.4002864100 0.4206166318
0.9978506481 0.5375395863 0.5703630485
0.5154278116 0.8949144990 0.6660422717
0.5159723568 0.8953325407 0.6650940592
0.5200232603 0.8982879636 0.6587084446
0.9374741761 0.9474107398 0.5618163016
0.9980427262 0.6844225423 0.5978851701
0.7876606985 0.9987918578 0.9562416187
0.7873530299 0.9987077052 0.9556263798
0.7854404205 0.9987077052 0.9516112858
0.7669804677 0.9986516034 0.9139353548
0.9992859652 0.9992828244 0.8718232647
0.1289975663 0.3299403884 0.8864147852
0.1532944896 0.3292999539 0.8851839818
0.5522437363 0.3427458168 0.8740792542
0.9148284898 0.4578976940 0.8748182781
0.9980555950 0.5991492036 0.8957530573
0.1231788372 0.3263599257 0.8827057730
0.1409756161 0.3307310854 0.8867913462
0.5480970350 0.3462197427 0.8791386315
0.9148212433 0.4580817164 0.8753934407
0.9980555950 0.5989540032 0.8954037774
0.1514869028 0.4615987814 0.8892396212
0.1508451708 0.4561930005 0.8925594977
0.4933069938 0.4317695290 0.9084455421
0.9207195474 0.4675785131 0.8880329660
0.9980169887 0.5978578393 0.8920793629
0.5456341185 0.8840018677 0.8734939727
0.5452488033 0.8837958262 0.8734284049
0.5543655951 0.8892313969 0.8801065717
0.9044609500 0.9044635315 0.9044624681
0.9982927774 0.6728841945 0.8864744011
0.7887677988 0.9987918578 0.9773368586
0.7884608899 0.9987918578 0.9768714274
0.7861600863 0.9987077052 0.9738665551
0.7675530356 0.9986516034 0.9399031738
0.9998088627 0.9998088617 0.9344669766
0.3313518080 0.5241526440 0.9972636339
0.3604515136 0.5256451500 0.9973188341
0.6094188655 0.5349414017 0.9976971951
0.9144691643 0.5747263473 0.9978043958
0.9982350089 0.6618960595 0.9981265142
0.3231393266 0.5263883878 0.9972636339
0.3477914173 0.5277032504 0.9973188341
0.6035997664 0.5373622027 0.9977239952
0.9144076941 0.5758290284 0.9978043958
0.9982350089 0.6617111485 0.9981265142
0.3195327589 0.5694263158 0.9972636339
0.3260879090 0.5688412913 0.9972636339
0.5300053323 0.5679011449 0.9976971951
0.9133924371 0.5849389819 0.9978838037
0.9982350089 0.6598349049 0.9981265142
0.5955023263 0.8789071837 0.9978972038
0.5965878827 0.8794513445 0.9978972038
0.6045280465 0.8836317980 0.9979508042
0.8960256586 0.8808692320 0.9992893204
0.9984539084 0.7102570110 0.9983585802
0.7805458642 0.9987077052 0.9986711324
0.7801728427 0.9987077052 0.9986711324
0.7779286975 0.9987077052 0.9986164661
0.7938743369 0.9987918578 0.9987531318
1.0000000000 1.0000000000 1.0000000000
