bundles/resolve-cinematic-luts/Gamut/_Conversion/Panasonic/Panasonic S5 BaseLUTs/BaseLUT - Panasonic S5 - V-Log to DWG.cube
TITLE "BaseLUT - Panasonic S5 - V-Log to DWG"
# Developed for converting V-Log / V-Gamut to DaVinci Wide Gamut / DaVinci Intermediate. Version 1.0 - 05/01/2025 - Copyright 2025 Gamut, LLC.
LUT_3D_SIZE 5
0.0000000000 0.0000000000 0.0000000000
0.1357752123 0.0000000000 0.0000000000
0.3708860000 0.0000000000 0.0000000000
0.6102540000 0.0000000000 0.0000000000
0.9024030000 0.0000000000 0.1916530000
0.0000000000 0.1921420000 0.0000000000
0.2075380000 0.2068820000 0.0000000000
0.4004120000 0.0092317100 0.0000000000
0.6162200000 0.0000000000 0.0000000000
0.9024030000 0.0000000000 0.2207220000
0.0000000000 0.4341800000 0.2289010000
0.0000000000 0.4320130000 0.2288700000
0.4465250000 0.4460060000 0.1982600000
0.6370180000 0.2668800000 0.2184180000
0.9024030000 0.0000000000 0.3214470000
0.0000000000 0.6903030000 0.5014110000
0.0000000000 0.6888230000 0.5002210000
0.0000000000 0.6784010000 0.4919050000
0.6874190000 0.6869150000 0.4636000000
0.8795910000 0.5113760000 0.4734110000
0.0000000000 0.9024030000 0.8765700000
0.0000000000 0.9024030000 0.8752120000
0.0000000000 0.9024030000 0.8656290000
0.0000000000 0.9024030000 0.7694495267
0.9024030000 0.9024030000 0.7093310000
0.0000000000 0.0000000000 0.1151450000
0.1334250000 0.0000000000 0.1333180000
0.3898220000 0.0000000000 0.1194020661
0.6291910000 0.0000000000 0.1274590000
0.9024030000 0.0000000000 0.2770730000
0.0000000000 0.1765620000 0.1657430000
0.1676366721 0.1676366721 0.1676366721
0.3935760000 0.0284733000 0.1547720000
0.6300140000 0.0000000000 0.1587550000
0.9024030000 0.0000000000 0.2909590000
0.0000000000 0.4295720000 0.2819100000
0.0000000000 0.4272680000 0.2818490000
0.4356450000 0.4351870000 0.2699930000
0.6317240000 0.2662550000 0.2597390000
0.9024030000 0.0000000000 0.3530330000
0.0000000000 0.6896770000 0.5071490000
0.0000000000 0.6881970000 0.5059590000
0.0000000000 0.6777750000 0.4975510000
0.6861680000 0.6856790000 0.4717940000
0.8790110000 0.5112540000 0.4778970000
0.0000000000 0.9024030000 0.8770430000
0.0000000000 0.9024030000 0.8756850000
0.0000000000 0.9024030000 0.8661020000
0.0000000000 0.9024030000 0.7699223612
0.9024030000 0.9024030000 0.7101550000
0.0000000000 0.0000000000 0.4083920000
0.1634700000 0.0000000000 0.3848630000
0.3900510000 0.0000000000 0.3899750000
0.6425420000 0.0000000000 0.3827730000
0.9024030000 0.0000000000 0.4519420000
0.0000000000 0.2049130000 0.3849390000
0.1933620000 0.1978940000 0.3849550000
0.3924470000 0.1102620000 0.3923860000
0.6416880000 0.0000000000 0.3852290000
0.9024030000 0.0000000000 0.4539560000
0.0000000000 0.4227050000 0.4142370740
0.1066610000 0.4206610000 0.4132300000
0.4144201723 0.4144201723 0.4144201723
0.6378580000 0.2817880000 0.4016630000
0.9024030000 0.0000000000 0.4655830000
0.0000000000 0.6860910000 0.5397730000
0.0000000000 0.6846110000 0.5385210000
0.0000000000 0.6742499991 0.5297170000
0.6796220000 0.6791790000 0.5150680000
0.8756390000 0.5110860000 0.5046460000
0.0000000000 0.9024030000 0.8802780000
0.0000000000 0.9024030000 0.8789040000
0.0000000000 0.9024030000 0.8693220000
0.0000000000 0.9024030000 0.7730802560
0.9024030000 0.9024030000 0.7158310000
0.1258870000 0.2081790000 0.6475170000
0.2550700000 0.1945530000 0.6426030000
0.4178230000 0.0854658000 0.6290070000
0.6398260000 0.0000000000 0.6397500000
0.9024030000 0.0000000000 0.6952160000
0.1001600000 0.2929270000 0.6393840000
0.2622420000 0.2894790000 0.6393380000
0.4207830000 0.2482190000 0.6287020000
0.6388190000 0.0000000000 0.6387430000
0.9024030000 0.0000000000 0.6942240000
0.0000000000 0.4502630000 0.6296020000
0.2138700271 0.4489200000 0.6289310000
0.4397340000 0.4441439998 0.6290230000
0.6366220000 0.3591360000 0.6365610000
0.9024030000 0.0000000000 0.6871900000
0.0000000000 0.6717330000 0.6634930000
0.0000000000 0.6702830000 0.6621350000
0.3557340000 0.6647590000 0.6573430000
0.6585340083 0.6585340083 0.6585340083
0.8817430000 0.5265280000 0.6458080000
0.0000000000 0.9024030000 0.9024030000
0.0000000000 0.9024030000 0.9024030000
0.0000000000 0.9024030000 0.8942550000
0.0000000000 0.9024030000 0.7976200000
0.9024030000 0.9024030000 0.7590300000
0.4198370000 0.4767070000 0.8887920000
0.4380250000 0.4760970143 0.8888080000
0.5040510000 0.4685130000 0.8859390000
0.6624860000 0.3916080000 0.8727240000
0.9024030000 0.0000000000 0.9024030000
0.4178380000 0.4866410000 0.8878160001
0.4361640000 0.4860910000 0.8878310001
0.5057600000 0.4798350000 0.8857710000
0.6627760000 0.4111240000 0.8726790000
0.9024030000 0.0000000000 0.9024030000
0.4056000000 0.5371630077 0.8830700000
0.4250250000 0.5368280403 0.8830550000
0.5076370000 0.5344930000 0.8831010000
0.6649120000 0.4937060000 0.8725570000
0.9024030000 0.0000000000 0.9024030000
0.2714890000 0.6939190000 0.8731820000
0.3222100000 0.6937360000 0.8730600000
0.4599530035 0.6929730000 0.8727860000
0.6838180000 0.6882280000 0.8728770000
0.8804910000 0.6034640000 0.8804300000
0.0000000000 0.9024030000 0.9024030000
0.0000000000 0.9024030000 0.9024030000
0.0000000000 0.9024030000 0.9024030000
0.6000760000 0.9024030000 0.9012130000
0.9023194603 0.9023194603 0.9023194603
