bundles/resolve-cinematic-luts/Gamut/_Conversion/Panasonic/Panasonic S5 BaseLUTs/BaseLUT - Panasonic S5 - V-Log to Rec709.cube
TITLE "BaseLUT - Panasonic S5 - V-Log to Rec709"
# Developed for converting V-Log / V-Gamut to Rec.709. Version 1.0 - 05/01/2025 - Copyright 2025 Gamut, LLC.
LUT_3D_SIZE 33
0.0000000000 0.0000000000 0.0000000000
0.0000000000 0.0000000000 0.0000000000
0.0000000000 0.0000000000 0.0000000000
0.0000000000 0.0000000000 0.0000000000
0.0000000000 0.0000000000 0.0000000000
0.0000000000 0.0000000000 0.0000000000
0.0000000000 0.0000000000 0.0000000000
0.0000000000 0.0000000000 0.0000000000
0.0000000000 0.0000000000 0.0000000000
0.0063375003 0.0000000000 0.0000000000
0.0274242002 0.0026632888 0.0026632888
0.0831432727 0.0102097743 0.0094208080
0.1620443933 0.0205186892 0.0200258004
0.2470495283 0.0321593425 0.0301122586
0.3259570267 0.0442933600 0.0404839418
0.3946145947 0.0565260053 0.0490184881
0.4610350473 0.0710275407 0.0575864357
0.5266825317 0.0887604869 0.0655992265
0.5897255179 0.1112854159 0.0736571319
0.6500041976 0.1396439810 0.0816110975
0.7013120852 0.1731993852 0.0890696110
0.7456848060 0.2087933056 0.0957160434
0.7860360693 0.2441545796 0.1029664311
0.8255385794 0.2782456937 0.1109006042
0.8641864265 0.3101775689 0.1205845763
0.8957342302 0.3383747825 0.1317770228
0.9236710036 0.3646746723 0.1453127704
0.9482248817 0.3897168810 0.1629520621
0.9723610259 0.4136446545 0.1861610506
0.9914589340 0.4384264510 0.2171266167
0.9968899077 0.4618138886 0.2553808937
0.9974387927 0.4826774859 0.2961323596
0.9975139690 0.5015446892 0.3396809819
0.0000000000 0.0000000000 0.0000000000
0.0000000000 0.0000000000 0.0000000000
0.0000000000 0.0000000000 0.0000000000
0.0000000000 0.0000000000 0.0000000000
0.0000000000 0.0000000000 0.0000000000
0.0000000000 0.0000000000 0.0000000000
0.0000000000 0.0000000000 0.0000000000
0.0000000000 0.0000000000 0.0000000000
0.0017751506 0.0000000000 0.0000000000
0.0118868787 0.0000000000 0.0000000000
0.0456928016 0.0053019020 0.0053019020
0.1094945254 0.0132972084 0.0132972084
0.1876258501 0.0239225624 0.0226394563
0.2664962789 0.0347986436 0.0327511844
0.3389222694 0.0463920721 0.0419795594
0.4049018138 0.0583428137 0.0503481622
0.4693115284 0.0727928085 0.0581949158
0.5324773124 0.0908703851 0.0664038614
0.5946099869 0.1133646094 0.0741530732
0.6539184914 0.1417074849 0.0823521140
0.7039880725 0.1752014251 0.0894940680
0.7476710159 0.2105470777 0.0961109161
0.7879564971 0.2458865751 0.1033354675
0.8274187436 0.2796984047 0.1112562984
0.8656278375 0.3115372652 0.1209129863
0.8969182032 0.3394470337 0.1320690336
0.9247368902 0.3656106978 0.1458012873
0.9490432985 0.3905386435 0.1634326939
0.9731396891 0.4146182530 0.1866005797
0.9918598316 0.4394070343 0.2181797155
0.9968899077 0.4623695304 0.2558222277
0.9974412411 0.4829518491 0.2965103116
0.9975139690 0.5018661163 0.3402087412
0.0000000000 0.0000000000 0.0000000000
0.0000000000 0.0000000000 0.0000000000
0.0000000000 0.0000000000 0.0000000000
0.0000000000 0.0000000000 0.0000000000
0.0000000000 0.0000000000 0.0000000000
0.0000000000 0.0000000000 0.0000000000
0.0000000000 0.0000000000 0.0000000000
0.0012330041 0.0002053598 0.0002053598
0.0096177759 0.0003555552 0.0003555552
0.0355393218 0.0039701324 0.0039701324
0.0835487870 0.0098647208 0.0098647208
0.1437380336 0.0181264580 0.0173861865
0.2113054864 0.0272762084 0.0257472521
0.2852274425 0.0378987146 0.0351190840
0.3514276173 0.0484365915 0.0434439096
0.4148246596 0.0606709319 0.0516541614
0.4767151967 0.0747829196 0.0593619705
0.5385169380 0.0927203422 0.0672129998
0.5991864760 0.1153711167 0.0749331353
0.6574669589 0.1437412258 0.0828061146
0.7066674747 0.1773498203 0.0895079178
0.7497936847 0.2124015491 0.0962605475
0.7898369786 0.2476571345 0.1037041908
0.8293726545 0.2812754805 0.1117076435
0.8669463478 0.3128620560 0.1212197311
0.8980322184 0.3404153365 0.1324230070
0.9257069479 0.3664644326 0.1463369632
0.9499382808 0.3915169071 0.1639482733
0.9739399292 0.4155982268 0.1872493995
0.9922126328 0.4402333072 0.2188685917
0.9969372508 0.4629913208 0.2566625169
0.9974412411 0.4832877575 0.2971266044
0.9975139690 0.5020639537 0.3405275239
0.0000000000 0.0000000000 0.0000000000
0.0000000000 0.0000000000 0.0000000000
0.0000000000 0.0000000000 0.0000000000
0.0000000000 0.0000000000 0.0000000000
0.0000000000 0.0000000000 0.0000000000
0.0000000000 0.0000000000 0.0000000000
0.0003555552 0.0000000000 0.0000000000
0.0096424829 0.0002053598 0.0002053598
0.0362959187 0.0039208748 0.0039208748
0.0831496409 0.0098647520 0.0098647520
0.1386683436 0.0173369288 0.0167947511
0.1962638626 0.0251057459 0.0238728669
0.2524184884 0.0329486840 0.0308769244
0.3051055388 0.0406533255 0.0379548214
0.3631647852 0.0504927138 0.0449472134
0.4241581138 0.0623800929 0.0526015651
0.4844894283 0.0767227340 0.0602383093
0.5445955366 0.0947645522 0.0677389773
0.6039248656 0.1173603447 0.0756379142
0.6605059790 0.1456162309 0.0832577057
0.7092394376 0.1793097323 0.0899424336
0.7518065619 0.2143604484 0.0966659426
0.7915668862 0.2491731228 0.1038441139
0.8312315072 0.2826262331 0.1120603408
0.8682411381 0.3141305615 0.1215668092
0.8991244856 0.3414385453 0.1327139872
0.9265764133 0.3672292684 0.1466482765
0.9508508816 0.3924201526 0.1644259849
0.9747156444 0.4164904786 0.1878711839
0.9925359323 0.4409971887 0.2195804898
0.9969406324 0.4635540500 0.2572475948
0.9974412411 0.4835557227 0.2976056963
0.9975139690 0.5023884082 0.3412603981
0.0000000000 0.0000000000 0.0000000000
0.0000000000 0.0000000000 0.0000000000
0.0000000000 0.0000000000 0.0000000000
0.0000000000 0.0000000000 0.0000000000
0.0000000000 0.0000000000 0.0000000000
0.0047104978 0.0013562889 0.0000000000
0.0216038579 0.0034026847 0.0019723687
0.0535663576 0.0068802097 0.0061900715
0.0916484969 0.0113444508 0.0107522335
0.1386467491 0.0175589165 0.0167701379
0.1907925912 0.0244157015 0.0230833378
0.2436652757 0.0315676256 0.0300879581
0.2946406619 0.0391413826 0.0364012206
0.3388383333 0.0464334485 0.0420454864
0.3792990371 0.0534304691 0.0470481835
0.4330333098 0.0644179195 0.0536451072
0.4913826524 0.0788516683 0.0610945786
0.5501729173 0.0967180327 0.0687982818
0.6089252453 0.1196722466 0.0761241260
0.6640467824 0.1478537541 0.0835231629
0.7115997030 0.1811061884 0.0903687325
0.7536882575 0.2160203247 0.0970693335
0.7932461487 0.2507134869 0.1041072998
0.8329811149 0.2842872544 0.1124123201
0.8695092591 0.3154733660 0.1218929715
0.9003507916 0.3426200127 0.1330037181
0.9274958791 0.3680692258 0.1469081767
0.9517476445 0.3931515937 0.1649027546
0.9755782887 0.4172826642 0.1883306306
0.9930076172 0.4416182341 0.2202965169
0.9969406324 0.4641164683 0.2578139073
0.9974412411 0.4838959380 0.2980051221
0.9975139690 0.5027039367 0.3417842956
0.0000000000 0.0000000000 0.0000000000
0.0000000000 0.0000000000 0.0000000000
0.0000000000 0.0000000000 0.0000000000
0.0000000000 0.0019970444 0.0000000000
0.0014795424 0.0128206331 0.0014795424
0.0252042924 0.0316904725 0.0034519111
0.0557898932 0.0338861424 0.0064120278
0.0966651828 0.0329482462 0.0116896606
0.1433218213 0.0277201457 0.0171893749
0.1904792173 0.0263886331 0.0232065600
0.2380213302 0.0315430124 0.0292985228
0.2859541837 0.0383911969 0.0355136765
0.3300435703 0.0450254313 0.0405273198
0.3699589291 0.0521701623 0.0460476441
0.4079404724 0.0594458156 0.0504022674
0.4440428211 0.0671524520 0.0552174728
0.4988606411 0.0809340992 0.0619558832
0.5556550319 0.0988518158 0.0693140638
0.6132590838 0.1215584242 0.0766869980
0.6673964807 0.1500553972 0.0839718372
0.7138949435 0.1830978992 0.0908075809
0.7557999970 0.2179337177 0.0972727670
0.7951114683 0.2522436319 0.1044253838
0.8346814124 0.2857563465 0.1127630194
0.8709387794 0.3168511385 0.1222176353
0.9016175450 0.3437109840 0.1333557863
0.9284782345 0.3691386619 0.1474344608
0.9527247485 0.3939530246 0.1653775775
0.9763671702 0.4181631968 0.1889493243
0.9932165352 0.4422167674 0.2208333417
0.9969913572 0.4646047803 0.2582581186
0.9974412411 0.4842889599 0.2984783916
0.9975139690 0.5030263002 0.3424312305
0.0000000000 0.0019230798 0.0000000000
0.0000000000 0.0025646485 0.0000000000
0.0005962868 0.0072010566 0.0005962868
0.0019970131 0.0187182687 0.0019970131
0.0042415341 0.0415327694 0.0048831028
0.0201737296 0.0676565685 0.0079656286
0.0682549156 0.0792964479 0.0096672525
0.1143375146 0.0771475703 0.0135324247
0.1671562133 0.0691820221 0.0202227683
0.2215962301 0.0565004851 0.0272267319
0.2731947079 0.0448947344 0.0334418856
0.3209495287 0.0465173584 0.0396334270
0.3624761916 0.0522013118 0.0449140622
0.4015866491 0.0587373755 0.0497281418
0.4376191062 0.0660080178 0.0542528680
0.4691586219 0.0734905137 0.0585311602
0.5061110627 0.0831975111 0.0630877763
0.5616364497 0.1009452817 0.0699289239
0.6180312907 0.1240530745 0.0773716766
0.6707559617 0.1521721765 0.0844180704
0.7165115350 0.1854081589 0.0911546984
0.7581117722 0.2199896474 0.0976619713
0.7972512208 0.2539885341 0.1047901925
0.8365538582 0.2873299076 0.1131134378
0.8723987177 0.3182318404 0.1225420493
0.9029146889 0.3450153706 0.1338790947
0.9295071548 0.3702623975 0.1477021332
0.9537500200 0.3949552739 0.1658867514
0.9771169309 0.4191992351 0.1895498487
0.9934836493 0.4429389611 0.2215135847
0.9969913572 0.4651116189 0.2587567500
0.9974412411 0.4846905956 0.2992131974
0.9975139690 0.5032828739 0.3428308879
0.0014055152 0.0149447914 0.0014055152
0.0020216263 0.0214556473 0.0020216263
0.0034273604 0.0331215704 0.0034273604
0.0063379694 0.0535905017 0.0063379694
0.0095438426 0.0799260915 0.0095438426
0.0141306491 0.1105899202 0.0132975635
0.0514999460 0.1249311621 0.0150929709
0.1177427139 0.1322545939 0.0164984861
0.1761583734 0.1245245641 0.0218995287
0.2368810943 0.1107720738 0.0294959285
0.2948476742 0.0904616890 0.0364752164
0.3452180933 0.0700004804 0.0426212844
0.3914407481 0.0654789441 0.0486758740
0.4341417294 0.0688415034 0.0539858448
0.4719894583 0.0758896188 0.0587266142
0.5036248954 0.0834705358 0.0627649278
0.5287397549 0.0903852892 0.0657979458
0.5682784241 0.1037951805 0.0708623792
0.6238033880 0.1269144549 0.0780594304
0.6750494401 0.1550124025 0.0850449844
0.7197449436 0.1880527265 0.0915666701
0.7606863789 0.2223596129 0.0980494533
0.7996297328 0.2561643883 0.1051540616
0.8388434726 0.2895113278 0.1136379572
0.8742365452 0.3197839025 0.1231166418
0.9045599229 0.3465041730 0.1342286332
0.9308197163 0.3717187988 0.1484466031
0.9550340805 0.3961318261 0.1665800204
0.9780661511 0.4203713097 0.1903174560
0.9937769758 0.4438944756 0.2224777235
0.9970302461 0.4656640590 0.2594425989
0.9974412411 0.4850275651 0.2999196427
0.9975139690 0.5037057945 0.3435415413
0.0063132311 0.0530253370 0.0063132311
0.0076696451 0.0646989224 0.0076696451
0.0094206204 0.0796638772 0.0094206204
0.0117636565 0.0992246098 0.0117636565
0.0148956277 0.1233398611 0.0148956277
0.0186936868 0.1497173955 0.0186936868
0.0249086529 0.1759549206 0.0219488802
0.0880217452 0.1843803020 0.0234780242
0.1714035989 0.1889254906 0.0242673970
0.2401824943 0.1778123840 0.0296684396
0.3054344632 0.1585192370 0.0380288172
0.3600520479 0.1308460633 0.0447041466
0.4108534066 0.1033236249 0.0508322316
0.4595151826 0.0910706162 0.0569598476
0.5025909275 0.0906606978 0.0626543092
0.5408219610 0.0978245696 0.0673045095
0.5694988147 0.1059411838 0.0709649914
0.5887433902 0.1123021143 0.0734917144
0.6308467718 0.1305484335 0.0790209796
0.6804173213 0.1590647092 0.0857606377
0.7239664298 0.1916296976 0.0922438318
0.7643737046 0.2256401352 0.0985694050
0.8027646134 0.2593073998 0.1056307336
0.8417755880 0.2918422179 0.1143207189
0.8766308288 0.3215756067 0.1237492992
0.9065992980 0.3482926212 0.1351053840
0.9324487135 0.3735756110 0.1491311745
0.9567402910 0.3976859766 0.1676615440
0.9792196818 0.4215641976 0.1911966621
0.9940957274 0.4447864761 0.2233444882
0.9970420819 0.4663456877 0.2603163532
0.9974412411 0.4855451443 0.3007460722
0.9975139690 0.5041368296 0.3445351139
0.0136577627 0.1111594829 0.0136577627
0.0146489643 0.1221757870 0.0146489643
0.0169428366 0.1360332716 0.0169428366
0.0186937494 0.1507729760 0.0186937494
0.0210121098 0.1703807828 0.0210121098
0.0241195616 0.1921373378 0.0241195616
0.0274486257 0.2167723557 0.0274486257
0.0413918769 0.2401706150 0.0310741738
0.1314582229 0.2461397711 0.0318142264
0.2292525465 0.2485816029 0.0326031301
0.3044095296 0.2342659500 0.0382259728
0.3665990124 0.2097110027 0.0461128518
0.4225084592 0.1762305615 0.0527813320
0.4744220993 0.1435978565 0.0592715631
0.5240032988 0.1234884577 0.0653368946
0.5676691825 0.1186397400 0.0707334650
0.6061487652 0.1256869792 0.0757694539
0.6329851938 0.1346456783 0.0792518478
0.6480694962 0.1404549048 0.0812650488
0.6871038501 0.1642118931 0.0866506945
0.7296999762 0.1966927597 0.0929509323
0.7690663044 0.2300510675 0.0993495049
0.8070313202 0.2632721890 0.1066285474
0.8460720268 0.2952112792 0.1149996097
0.8794839390 0.3243476557 0.1244567229
0.9091775149 0.3506163047 0.1358929387
0.9345159010 0.3760744414 0.1503051067
0.9586216390 0.3997426711 0.1688169817
0.9805720189 0.4232191027 0.1923773109
0.9944797949 0.4459158197 0.2245964017
0.9970470917 0.4670256068 0.2613948708
0.9974412411 0.4862448312 0.3020206037
0.9975434600 0.5046178624 0.3460644001
0.0221957625 0.1765975106 0.0221957625
0.0232067789 0.1859414974 0.0232067789
0.0247610365 0.1962005414 0.0247610365
0.0263146060 0.2077855663 0.0263146060
0.0280159352 0.2198177447 0.0280159352
0.0303345902 0.2375010834 0.0303345902
0.0334418856 0.2580837963 0.0334418856
0.0366972041 0.2826884626 0.0366231769
0.0632119993 0.3039286006 0.0395830435
0.1791643454 0.3078406415 0.0403259422
0.2880796337 0.3082756521 0.0410623982
0.3631524732 0.2922343607 0.0467956718
0.4267702129 0.2641354366 0.0540062359
0.4829359974 0.2251039348 0.0604379043
0.5351206256 0.1881123920 0.0666532769
0.5851493342 0.1618383586 0.0731850697
0.6289706082 0.1521330670 0.0786917658
0.6642938732 0.1584636161 0.0833778320
0.6870409086 0.1680256104 0.0865423621
0.7011380108 0.1761198433 0.0884797272
0.7365730720 0.2032169970 0.0940429156
0.7751392466 0.2359069452 0.1003913500
0.8129180100 0.2684554908 0.1077087117
0.8515447721 0.2999527012 0.1162493780
0.8834207336 0.3282808528 0.1256923497
0.9125483782 0.3538496432 0.1372385308
0.9371665113 0.3786574718 0.1514703727
0.9605581868 0.4019210018 0.1698445259
0.9820749300 0.4248737051 0.1936529278
0.9949245442 0.4473709953 0.2261820713
0.9971231788 0.4679440089 0.2628082280
0.9974412411 0.4870689818 0.3037494978
0.9975139690 0.5051993900 0.3480588360
0.0315182429 0.2431681716 0.0315182429
0.0322825334 0.2503255676 0.0322825334
0.0333185696 0.2577109401 0.0333185696
0.0346010502 0.2663019282 0.0346010502
0.0356370864 0.2756207592 0.0356370864
0.0371906559 0.2851975994 0.0371906559
0.0396334270 0.3003722848 0.0396334270
0.0426212844 0.3205025650 0.0426212844
0.0463488505 0.3429603925 0.0460184023
0.0907641460 0.3610591808 0.0486504164
0.2292449078 0.3640608585 0.0492879507
0.3432973029 0.3635369099 0.0499642656
0.4208160750 0.3473244587 0.0550699815
0.4856160925 0.3176013587 0.0621698958
0.5407292890 0.2750568028 0.0681968386
0.5924584046 0.2341426848 0.0743406810
0.6413608814 0.2030033875 0.0805018713
0.6806051227 0.1893660230 0.0857062020
0.7114132046 0.1947635327 0.0900112032
0.7328174563 0.2050454624 0.0931364527
0.7493462434 0.2158160435 0.0958788591
0.7829022845 0.2436880015 0.1016688535
0.8199888940 0.2751798495 0.1090178039
0.8577141047 0.3055941258 0.1175827161
0.8881675533 0.3326821466 0.1269231925
0.9162028850 0.3574736131 0.1384664753
0.9399033699 0.3813060884 0.1527672652
0.9628394303 0.4044496891 0.1711753823
0.9837080153 0.4267828006 0.1954898808
0.9953404868 0.4491286492 0.2283472313
0.9971231788 0.4692213478 0.2647939025
0.9974412411 0.4881806660 0.3059414565
0.9975241065 0.5060711039 0.3506256279
0.0407731700 0.3079746539 0.0407731700
0.0415080936 0.3133119326 0.0415080936
0.0422377005 0.3183402970 0.0422377005
0.0429591760 0.3234518188 0.0429591760
0.0437687685 0.3298344019 0.0437687685
0.0446611708 0.3358995898 0.0446611708
0.0460704121 0.3432612625 0.0460704121
0.0480983559 0.3566114623 0.0480983559
0.0514071853 0.3759420199 0.0514071853
0.0568752808 0.3980290174 0.0552108113
0.1226829310 0.4155577878 0.0584906804
0.2797071453 0.4185086158 0.0590931485
0.3965835244 0.4173339161 0.0600517558
0.4768674773 0.3995695710 0.0642494741
0.5413495814 0.3672049241 0.0701391523
0.5956891580 0.3233205899 0.0756562391
0.6466935110 0.2817400204 0.0818375588
0.6900209570 0.2469819556 0.0873236426
0.7252441045 0.2300074592 0.0920320680
0.7544697576 0.2336418457 0.0961880805
0.7746487159 0.2425019617 0.0996731633
0.7940068370 0.2556800596 0.1032641906
0.8279074088 0.2825770270 0.1103081552
0.8637069599 0.3113431342 0.1189017564
0.8931651159 0.3369822828 0.1281565884
0.9198897772 0.3614087604 0.1398288697
0.9430202082 0.3845100005 0.1542137449
0.9654447070 0.4070927557 0.1727435951
0.9855343810 0.4291918070 0.1976949071
0.9957369850 0.4510293263 0.2306132689
0.9971781660 0.4708784193 0.2674540239
0.9974412411 0.4894854749 0.3088406432
0.9975434600 0.5072114697 0.3536270945
0.0500563069 0.3682904132 0.0500563069
0.0507257414 0.3721247568 0.0507257414
0.0513893587 0.3758290557 0.0513893587
0.0520471590 0.3792261970 0.0520471590
0.0528891045 0.3831467154 0.0528891045
0.0535129717 0.3878304998 0.0535129717
0.0545004383 0.3926217205 0.0545004383
0.0558601361 0.3997449212 0.0558601361
0.0582791072 0.4124823927 0.0579273297
0.0616997123 0.4313658089 0.0616997123
0.0697884068 0.4538273496 0.0664724468
0.1582792117 0.4694751556 0.0695391164
0.3286425190 0.4719796625 0.0703382469
0.4487771109 0.4699417393 0.0708630985
0.5308862586 0.4507286254 0.0740893428
0.5955408671 0.4163869122 0.0789128057
0.6501230948 0.3726675246 0.0840524921
0.6956932902 0.3317785018 0.0891250295
0.7354922255 0.2956677941 0.0940971248
0.7693066814 0.2751705920 0.0987206649
0.7970988742 0.2743409287 0.1031582148
0.8164553979 0.2805192498 0.1070002457
0.8386044835 0.2937195873 0.1119078425
0.8697852635 0.3181162781 0.1199669034
0.8983151299 0.3422210895 0.1296789173
0.9238040370 0.3656621606 0.1412764939
0.9463295185 0.3882433799 0.1559315160
0.9684998078 0.4100628969 0.1749606277
0.9875589953 0.4319814602 0.2003232867
0.9960623747 0.4533597700 0.2335903914
0.9972197901 0.4728280615 0.2708011947
0.9974412411 0.4909515747 0.3125537695
0.9975434600 0.5083122929 0.3572406641
0.0615344882 0.4291182220 0.0615344882
0.0621151964 0.4319495941 0.0621151964
0.0626913385 0.4348785600 0.0626913385
0.0632641654 0.4375091322 0.0632641654
0.0637583679 0.4398941299 0.0638324263
0.0643055809 0.4427942231 0.0643973720
0.0651030538 0.4463133660 0.0651030538
0.0660685343 0.4511700422 0.0660685343
0.0676745202 0.4583882752 0.0676745202
0.0706811111 0.4707149441 0.0701556028
0.0753965651 0.4892272783 0.0745745636
0.0875024111 0.5111195995 0.0800462855
0.1986309109 0.5255653738 0.0838812591
0.3794089443 0.5267525316 0.0840623520
0.5018191073 0.5232626054 0.0843134473
0.5854471238 0.5034841131 0.0860736825
0.6502025794 0.4688949568 0.0891010613
0.6993200240 0.4247554191 0.0928359373
0.7417079265 0.3830400599 0.0972019598
0.7800454627 0.3459803096 0.1018591027
0.8130980902 0.3212308056 0.1066320549
0.8413077404 0.3150040421 0.1116553852
0.8600818479 0.3174305708 0.1155808203
0.8780318898 0.3278417927 0.1212640290
0.9043039821 0.3485918912 0.1310268517
0.9283496532 0.3706556021 0.1429876772
0.9501419557 0.3924820221 0.1579129172
0.9718227986 0.4136908437 0.1774807322
0.9896391751 0.4352610152 0.2036821128
0.9964089310 0.4562116825 0.2377349092
0.9972565172 0.4750649900 0.2748545450
0.9974828652 0.4928200281 0.3171559000
0.9975434600 0.5098535857 0.3625545271
0.0758427737 0.4908991115 0.0761243162
0.0763344605 0.4928733340 0.0766083722
0.0768231651 0.4949369407 0.0770895748
0.0775555076 0.4969983315 0.0775684630
0.0780382478 0.4991762588 0.0780444979
0.0786745703 0.5011581277 0.0785190743
0.0791358451 0.5031948941 0.0789909243
0.0800669685 0.5060509113 0.0798178268
0.0813327793 0.5106895304 0.0807615266
0.0834662489 0.5182993321 0.0826244509
0.0871479977 0.5304453218 0.0857504924
0.0932361218 0.5485787522 0.0907482044
0.1120805499 0.5698513101 0.0973164225
0.2448828592 0.5832443580 0.1018165120
0.4331463673 0.5837187199 0.1015941631
0.5578279306 0.5793471268 0.1010078826
0.6409923190 0.5592159240 0.1008120903
0.6996104542 0.5243654015 0.1009910341
0.7452306510 0.4797860648 0.1027784681
0.7863712761 0.4380062679 0.1067444193
0.8246654317 0.3979098215 0.1113269128
0.8586099763 0.3671317664 0.1161189818
0.8809371948 0.3530967768 0.1207303004
0.8954079172 0.3503510107 0.1250268825
0.9117357727 0.3583718285 0.1322287495
0.9333969781 0.3771860008 0.1446785292
0.9548766781 0.3975079376 0.1604688660
0.9755685863 0.4181114448 0.1804901911
0.9917190425 0.4391080482 0.2081848728
0.9966566367 0.4591991859 0.2423720341
0.9973109278 0.4776187664 0.2801650976
0.9975139690 0.4952596787 0.3232014901
0.9975434600 0.5119315894 0.3697287573
0.0955309551 0.5535960103 0.0950732361
0.0959240953 0.5547662272 0.0954841117
0.0963163603 0.5562405944 0.0958934840
0.0967470987 0.5576635590 0.0961074400
0.0974969372 0.5590805021 0.0965143070
0.0978839516 0.5604202943 0.0968524338
0.0984569255 0.5618257588 0.0973225292
0.0992348923 0.5637983770 0.0980336070
0.1002952674 0.5667022642 0.0988182165
0.1020902918 0.5709468849 0.0998749997
0.1052123478 0.5786725079 0.1021354729
0.1106381272 0.5906724912 0.1056699735
0.1192306202 0.6081919944 0.1117028985
0.1471284509 0.6287428138 0.1196045911
0.2966871426 0.6405507004 0.1246488677
0.4898422756 0.6403404367 0.1243091570
0.6148170706 0.6353999086 0.1227363481
0.6916098739 0.6158713114 0.1192484599
0.7446431146 0.5820104158 0.1161354335
0.7889944669 0.5383595641 0.1158278770
0.8305227270 0.4967099553 0.1189854822
0.8681728975 0.4546861621 0.1228696788
0.8956641152 0.4157727958 0.1268794315
0.9156295071 0.3920640201 0.1316725548
0.9271925765 0.3828511719 0.1362703041
0.9402835420 0.3876264646 0.1457481945
0.9603374807 0.4042858706 0.1628293844
0.9799603310 0.4236518062 0.1842989442
0.9935839750 0.4437675102 0.2136453377
0.9968777275 0.4630724834 0.2482244399
0.9973653384 0.4810249871 0.2870581609
0.9975148906 0.4980958778 0.3306715013
0.9975434600 0.5147679474 0.3781570898
0.1241205017 0.6158038763 0.1194652666
0.1244302474 0.6166014121 0.1197975788
0.1248992641 0.6173489014 0.1201071020
0.1253663399 0.6181464996 0.1204266149
0.1258112218 0.6189137769 0.1207885214
0.1262541962 0.6198445002 0.1211173059
0.1268668087 0.6208289162 0.1214446232
0.1274883603 0.6221117732 0.1218789547
0.1286424136 0.6238985676 0.1226625496
0.1300710678 0.6264149136 0.1232984536
0.1325724725 0.6303793038 0.1245395746
0.1370126958 0.6376800372 0.1268424456
0.1450301412 0.6489073053 0.1311618638
0.1573320952 0.6645902077 0.1382871776
0.1945092140 0.6824890388 0.1476274595
0.3532948712 0.6918807983 0.1530659684
0.5486076839 0.6914007232 0.1522840587
0.6687112241 0.6871873020 0.1499870614
0.7362299616 0.6699833091 0.1432804064
0.7864621523 0.6394923655 0.1361225185
0.8316911425 0.5988870355 0.1336311822
0.8718923051 0.5592817219 0.1354382763
0.9037561951 0.5154642304 0.1377265168
0.9284146599 0.4687633124 0.1407571206
0.9455120701 0.4334783237 0.1453222022
0.9559998765 0.4154761910 0.1508644884
0.9678934313 0.4160525561 0.1636948481
0.9848783284 0.4309368018 0.1882948227
0.9951493924 0.4495357368 0.2197607243
0.9970496906 0.4675780468 0.2551637766
0.9974020655 0.4848859049 0.2951809999
0.9975148906 0.5014137339 0.3397372936
0.9975876966 0.5179152757 0.3886936936
0.1646349806 0.6720095103 0.1503434455
0.1652050171 0.6725711523 0.1506097130
0.1656769836 0.6730477503 0.1508754154
0.1661470148 0.6735220244 0.1511411178
0.1667112458 0.6739474956 0.1514058153
0.1671788425 0.6745197210 0.1516699477
0.1676443167 0.6750938935 0.1519336405
0.1683439356 0.6757932452 0.1522917516
0.1692894001 0.6767898741 0.1528083043
0.1705366395 0.6782108023 0.1535070997
0.1723878066 0.6801873565 0.1542700128
0.1757940369 0.6835612107 0.1553463240
0.1825415620 0.6899666133 0.1578205399
0.1933081801 0.6995549753 0.1626960936
0.2100433415 0.7132255668 0.1706098542
0.2542286519 0.7290837216 0.1811811874
