bundles/resolve-cinematic-luts/Gamut/_Conversion/Panasonic/Panasonic S5 BaseLUTs/BaseLUT - Panasonic S5 - V-Log to DWG.cube
TITLE "BaseLUT - Panasonic S5 - V-Log to DWG"
# Developed for converting V-Log / V-Gamut to DaVinci Wide Gamut / DaVinci Intermediate. Version 1.0 - 05/01/2025 - Copyright 2025 Gamut, LLC.
LUT_3D_SIZE 65
0.0000000000 0.0000000000 0.0000000000
0.0000000000 0.0000000000 0.0000000000
0.0000000000 0.0000000000 0.0000000000
0.0000000000 0.0000000000 0.0000000000
0.0000000000 0.0000000000 0.0000000000
0.0000000000 0.0000000000 0.0000000000
0.0000000000 0.0000000000 0.0000000000
0.0000000000 0.0000000000 0.0000000000
0.0000000000 0.0000000000 0.0000000000
0.0191806000 0.0000000000 0.0000000000
0.0404364000 0.0000000000 0.0000000000
0.0579538000 0.0000000000 0.0000000000
0.0739300000 0.0000000000 0.0000000000
0.0896620000 0.0000000000 0.0000000000
0.1051960000 0.0000000000 0.0000000000
0.1205461732 0.0000000000 0.0000000000
0.1357752123 0.0000000000 0.0000000000
0.1508660000 0.0000000000 0.0000000000
0.1658500000 0.0000000000 0.0000000000
0.1807580000 0.0000000000 0.0000000000
0.1955900000 0.0000000000 0.0000000000
0.2103610000 0.0000000000 0.0000000000
0.2250710000 0.0000000000 0.0000000000
0.2397500000 0.0000000000 0.0000000000
0.2543830000 0.0000000000 0.0000000000
0.2690010000 0.0000000000 0.0000000000
0.2835740000 0.0000000000 0.0000000000
0.2981460000 0.0000000000 0.0000000000
0.3127030000 0.0000000000 0.0000000000
0.3272450000 0.0000000000 0.0000000000
0.3417870000 0.0000000000 0.0000000000
0.3563290000 0.0000000000 0.0000000000
0.3708860000 0.0000000000 0.0000000000
0.3854580000 0.0000000000 0.0000000000
0.4000310000 0.0000000000 0.0000000000
0.4146330782 0.0000000000 0.0000000000
0.4292520000 0.0000000000 0.0000000000
0.4439150000 0.0000000000 0.0000000000
0.4586250000 0.0000000000 0.0000000000
0.4733650000 0.0000000000 0.0000000000
0.4881820000 0.0000000000 0.0000000000
0.5030590000 0.0000000000 0.0000000000
0.5180130000 0.0000000000 0.0000000000
0.5330430000 0.0000000000 0.0000000000
0.5481960000 0.0000000000 0.0000000000
0.5634700000 0.0000000000 0.0000000000
0.5788970000 0.0000000000 0.0000000000
0.5944760000 0.0000000000 0.0000000000
0.6102540000 0.0000000000 0.0000000000
0.6262610000 0.0000000000 0.0000000000
0.6425120000 0.0000000000 0.0000000000
0.6590680004 0.0000000000 0.0000000000
0.6759750000 0.0000000000 0.0000000000
0.6932630000 0.0000000000 0.0000000000
0.7110250000 0.0000000000 0.0000000000
0.7293050000 0.0000000000 0.0000000000
0.7482110000 0.0000000000 0.0000000000
0.7678208065 0.0000000000 0.0000000000
0.7882562207 0.0000000000 0.0000000000
0.8096130000 0.0000000000 0.0231430307
0.8316780000 0.0000000000 0.0604868000
0.8544140000 0.0000000000 0.0948806000
0.8780350000 0.0000000000 0.1276420000
0.9023963086 0.0000000000 0.1597010000
0.9024030000 0.0000000000 0.1916530000
0.0000000000 0.0000000000 0.0000000000
0.0000000000 0.0000000000 0.0000000000
0.0000000000 0.0000000000 0.0000000000
0.0000000000 0.0000000000 0.0000000000
0.0000000000 0.0000000000 0.0000000000
0.0000000000 0.0000000000 0.0000000000
0.0000000000 0.0000000000 0.0000000000
0.0000000000 0.0000000000 0.0000000000
0.0000000000 0.0000000000 0.0000000000
0.0240940000 0.0000000000 0.0000000000
0.0444800000 0.0000000000 0.0000000000
0.0612802000 0.0000000000 0.0000000000
0.0768902000 0.0000000000 0.0000000000
0.0924239000 0.0000000000 0.0000000000
0.1077590000 0.0000000000 0.0000000000
0.1228050000 0.0000000000 0.0000000000
0.1377430000 0.0000000000 0.0000000000
0.1526050000 0.0000000000 0.0000000000
0.1674072957 0.0000000000 0.0000000000
0.1821320000 0.0000000000 0.0000000000
0.1968260000 0.0000000000 0.0000000000
0.2114600000 0.0000000000 0.0000000000
0.2260780000 0.0000000000 0.0000000000
0.2406500000 0.0000000000 0.0000000000
0.2552070000 0.0000000000 0.0000000000
0.2697490000 0.0000000000 0.0000000000
0.2842760000 0.0000000000 0.0000000000
0.2987870000 0.0000000000 0.0000000000
0.3132980000 0.0000000000 0.0000000000
0.3277940000 0.0000000000 0.0000000000
0.3423060000 0.0000000000 0.0000000000
0.3568320000 0.0000000000 0.0000000000
0.3713590000 0.0000000000 0.0000000000
0.3859010000 0.0000000000 0.0000000000
0.4004580000 0.0000000000 0.0000000000
0.4150450101 0.0000000000 0.0000000000
0.4296640000 0.0000000000 0.0000000000
0.4443119995 0.0000000000 0.0000000000
0.4589910000 0.0000000000 0.0000000000
0.4737320000 0.0000000000 0.0000000000
0.4885330000 0.0000000000 0.0000000000
0.5034100000 0.0000000000 0.0000000000
0.5183490000 0.0000000000 0.0000000000
0.5333940000 0.0000000000 0.0000000000
0.5485310000 0.0000000000 0.0000000000
0.5638060000 0.0000000000 0.0000000000
0.5792170000 0.0000000000 0.0000000000
0.5948120000 0.0000000000 0.0000000000
0.6105740000 0.0000000000 0.0000000000
0.6265810000 0.0000000000 0.0000000000
0.6428320000 0.0000000000 0.0000000000
0.6593880001 0.0000000000 0.0000000000
0.6762800000 0.0000000000 0.0000000000
0.6935840000 0.0000000000 0.0000000000
0.7113300000 0.0000000000 0.0000000000
0.7296250000 0.0000000000 0.0000000000
0.7485310000 0.0000000000 0.0000000000
0.7681410306 0.0000000000 0.0000000000
0.7885610073 0.0000000000 0.0000000000
0.8099030000 0.0000000000 0.0291142000
0.8318760000 0.0000000000 0.0650187000
0.8545510000 0.0000000000 0.0983444000
0.8781260000 0.0000000000 0.1304190000
0.9024030000 0.0000000000 0.1619130000
0.9024030000 0.0000000000 0.1935000000
0.0000000000 0.0000000000 0.0000000000
0.0000000000 0.0000000000 0.0000000000
0.0000000000 0.0000000000 0.0000000000
0.0000000000 0.0000000000 0.0000000000
0.0000000000 0.0000000000 0.0000000000
0.0000000000 0.0000000000 0.0000000000
0.0000000000 0.0000000000 0.0000000000
0.0000000000 0.0000000000 0.0000000000
0.0058899800 0.0000000000 0.0000000000
0.0301518000 0.0000000000 0.0000000000
0.0501869000 0.0000000000 0.0000000000
0.0667582000 0.0000000000 0.0000000000
0.0818952000 0.0000000000 0.0000000000
0.0968032000 0.0000000000 0.0000000000
0.1115130000 0.0000000000 0.0000000000
0.1260090000 0.0000000000 0.0000000000
0.1403070000 0.0000000000 0.0000000000
0.1544060000 0.0000000000 0.0000000000
0.1684750000 0.0000000000 0.0000000000
0.1832916076 0.0000000000 0.0000000000
0.1980470000 0.0000000000 0.0000000000
0.2125580000 0.0000000000 0.0000000000
0.2270540000 0.0000000000 0.0000000000
0.2415500000 0.0000000000 0.0000000000
0.2560160000 0.0000000000 0.0000000000
0.2704970000 0.0000000000 0.0000000000
0.2849620000 0.0000000000 0.0000000000
0.2994280000 0.0000000000 0.0000000000
0.3138930000 0.0000000000 0.0000000000
0.3283590000 0.0000000000 0.0000000000
0.3428400000 0.0000000000 0.0000000000
0.3573210000 0.0000000000 0.0000000000
0.3718320000 0.0000000000 0.0000000000
0.3863430000 0.0000000000 0.0000000000
0.4008850000 0.0000000000 0.0000000000
0.4154570000 0.0000000000 0.0000000000
0.4300600000 0.0000000000 0.0000000000
0.4446939962 0.0000000000 0.0000000000
0.4593730000 0.0000000000 0.0000000000
0.4741130000 0.0000000000 0.0000000000
0.4888990000 0.0000000000 0.0000000000
0.5037610000 0.0000000000 0.0000000000
0.5187000000 0.0000000000 0.0000000000
0.5337300000 0.0000000000 0.0000000000
0.5488820000 0.0000000000 0.0000000000
0.5641410000 0.0000000000 0.0000000000
0.5795530000 0.0000000000 0.0000000000
0.5951320000 0.0000000000 0.0000000000
0.6109100000 0.0000000000 0.0000000000
0.6269020000 0.0000000000 0.0000000000
0.6431530000 0.0000000000 0.0000000000
0.6597090000 0.0000000000 0.0000000000
0.6766000000 0.0000000000 0.0000000000
0.6939040000 0.0000000000 0.0000000000
0.7116500000 0.0000000000 0.0000000000
0.7299460000 0.0000000000 0.0000000000
0.7488370000 0.0000000000 0.0000000000
0.7684462443 0.0000000000 0.0000000000
0.7888807833 0.0000000000 0.0000000000
0.8101620000 0.0000000000 0.0348058000
0.8320590000 0.0000000000 0.0692912000
0.8546880000 0.0000000000 0.1017470000
0.8782180000 0.0000000000 0.1331200000
0.9024030000 0.0000000000 0.1640960000
0.9024030000 0.0000000000 0.1952540000
0.0000000000 0.0000000000 0.0000000000
0.0000000000 0.0000000000 0.0000000000
0.0000000000 0.0000000000 0.0000000000
0.0000000000 0.0000000000 0.0000000000
0.0000000000 0.0000000000 0.0000000000
0.0000000000 0.0000000000 0.0000000000
0.0000000000 0.0000000000 0.0000000000
0.0000000000 0.0000000000 0.0000000000
0.0131228000 0.0000000000 0.0000000000
0.0368505000 0.0000000000 0.0000000000
0.0563363000 0.0000000000 0.0000000000
0.0725567000 0.0000000000 0.0000000000
0.0874357534 0.0000000000 0.0000000000
0.1021590000 0.0000000000 0.0000000000
0.1167010000 0.0000000000 0.0000000000
0.1310750000 0.0000000000 0.0000000000
0.1452660000 0.0000000000 0.0000000000
0.1592890000 0.0000000000 0.0000000000
0.1731140000 0.0000000000 0.0000000000
0.1867400000 0.0000000000 0.0000000000
0.2001370000 0.0000000000 0.0000000000
0.2133060000 0.0000000000 0.0000000000
0.2277710000 0.0000000000 0.0000000000
0.2424200000 0.0000000000 0.0000000000
0.2568400000 0.0000000000 0.0000000000
0.2712440000 0.0000000000 0.0000000000
0.2856490000 0.0000000000 0.0000000000
0.3000530000 0.0000000000 0.0000000000
0.3144730000 0.0000000000 0.0000000000
0.3289080000 0.0000000000 0.0000000000
0.3433590000 0.0000000000 0.0000000000
0.3578090000 0.0000000000 0.0000000000
0.3722900000 0.0000000000 0.0000000000
0.3867860000 0.0000000000 0.0000000000
0.4013120000 0.0000000000 0.0000000000
0.4158690000 0.0000000000 0.0000000000
0.4304570000 0.0000000000 0.0000000000
0.4450749944 0.0000000000 0.0000000000
0.4597540008 0.0000000000 0.0000000000
0.4744790000 0.0000000000 0.0000000000
0.4892500000 0.0000000000 0.0000000000
0.5041120000 0.0000000000 0.0000000000
0.5190510000 0.0000000000 0.0000000000
0.5340810000 0.0000000000 0.0000000000
0.5492180000 0.0000000000 0.0000000000
0.5644770000 0.0000000000 0.0000000000
0.5798890000 0.0000000000 0.0000000000
0.5954680000 0.0000000000 0.0000000000
0.6112310000 0.0000000000 0.0000000000
0.6272220000 0.0000000000 0.0000000000
0.6434730000 0.0000000000 0.0000000000
0.6600290000 0.0000000000 0.0000000000
0.6769210000 0.0000000000 0.0000000000
0.6942090000 0.0000000000 0.0000000000
0.7119710000 0.0000000000 0.0000000000
0.7302510000 0.0000000000 0.0000000000
0.7491570000 0.0000000000 0.0000000000
0.7687674691 0.0000000000 0.0000000000
0.7891855699 0.0000000000 0.0044556300
0.8104220000 0.0000000000 0.0402380000
0.8322420000 0.0000000000 0.0734874000
0.8548100000 0.0000000000 0.1049970000
0.8783090000 0.0000000000 0.1357291908
0.9024030000 0.0000000000 0.1662470000
0.9024030000 0.0000000000 0.1970400000
0.0000000000 0.0000000000 0.0000000000
0.0000000000 0.0000000000 0.0000000000
0.0000000000 0.0000000000 0.0000000000
0.0000000000 0.0000000000 0.0000000000
0.0000000000 0.0000000000 0.0000000000
0.0000000000 0.0000000000 0.0000000000
0.0000000000 0.0000000000 0.0000000000
0.0000000000 0.0000000000 0.0000000000
0.0209659000 0.0000000000 0.0000000000
0.0442664000 0.0000000000 0.0000000000
0.0630045000 0.0000000000 0.0000000000
0.0787366000 0.0000000000 0.0000000000
0.0932784000 0.0000000000 0.0000000000
0.1077130000 0.0000000000 0.0000000000
0.1220420000 0.0000000000 0.0000000000
0.1362481520 0.0000000000 0.0000000000
0.1503170000 0.0000000000 0.0000000000
0.1642330000 0.0000000000 0.0000000000
0.1779660000 0.0000000000 0.0000000000
0.1915310000 0.0000000000 0.0000000000
0.2048980000 0.0000000000 0.0000000000
0.2180210000 0.0000000000 0.0000000000
0.2309000000 0.0000000000 0.0000000000
0.2434730000 0.0000000000 0.0000000000
0.2573130000 0.0000000000 0.0000000000
0.2719160000 0.0000000000 0.0000000000
0.2863360000 0.0000000000 0.0000000000
0.3006940000 0.0000000000 0.0000000000
0.3150680000 0.0000000000 0.0000000000
0.3294730000 0.0000000000 0.0000000000
0.3438770000 0.0000000000 0.0000000000
0.3583120000 0.0000000000 0.0000000000
0.3727630000 0.0000000000 0.0000000000
0.3872430000 0.0000000000 0.0000000000
0.4017400000 0.0000000000 0.0000000000
0.4162810000 0.0000000000 0.0000000000
0.4308540000 0.0000000000 0.0000000000
0.4454719993 0.0000000000 0.0000000000
0.4601210058 0.0000000000 0.0000000000
0.4748450004 0.0000000000 0.0000000000
0.4896160000 0.0000000000 0.0000000000
0.5044630000 0.0000000000 0.0000000000
0.5193870000 0.0000000000 0.0000000000
0.5344170000 0.0000000000 0.0000000000
0.5495540000 0.0000000000 0.0000000000
0.5648130000 0.0000000000 0.0000000000
0.5802090000 0.0000000000 0.0000000000
0.5957890000 0.0000000000 0.0000000000
0.6115510000 0.0000000000 0.0000000000
0.6275430000 0.0000000000 0.0000000000
0.6437930000 0.0000000000 0.0000000000
0.6603490000 0.0000000000 0.0000000000
0.6772410000 0.0000000000 0.0000000000
0.6945300000 0.0000000000 0.0000000000
0.7122910000 0.0000000000 0.0000000000
0.7305710000 0.0000000000 0.0000000000
0.7494620000 0.0000000000 0.0000000000
0.7690726828 0.0000000000 0.0000000000
0.7895063453 0.0000000000 0.0108949000
0.8106510000 0.0000000000 0.0453651000
0.8324100000 0.0000000000 0.0774853000
0.8549170000 0.0000000000 0.1082170000
0.8783860000 0.0000000000 0.1383230000
0.9024030000 0.0000000000 0.1683680000
0.9024030000 0.0000000000 0.1987491197
0.0000000000 0.0000000000 0.0000000000
0.0000000000 0.0000000000 0.0000000000
0.0000000000 0.0000000000 0.0000000000
0.0000000000 0.0000000000 0.0000000000
0.0000000000 0.0000000000 0.0000000000
0.0000000000 0.0000000000 0.0000000000
0.0000000000 0.0000000000 0.0000000000
0.0030823200 0.0000000000 0.0000000000
0.0282444000 0.0000000000 0.0000000000
0.0516365000 0.0000000000 0.0000000000
0.0703076079 0.0000000000 0.0000000000
0.0855726000 0.0000000000 0.0000000000
0.0994583000 0.0000000000 0.0000000000
0.1135270000 0.0000000000 0.0000000000
0.1275650000 0.0000000000 0.0000000000
0.1415580000 0.0000000000 0.0000000000
0.1554590000 0.0000000000 0.0000000000
0.1692380000 0.0000000000 0.0000000000
0.1828791086 0.0000000000 0.0000000000
0.1963680000 0.0000000000 0.0000000000
0.2096740000 0.0000000000 0.0000000000
0.2227510000 0.0000000000 0.0000000000
0.2355840000 0.0000000000 0.0000000000
0.2481420000 0.0000000000 0.0000000000
0.2603800000 0.0000000000 0.0000000000
0.2722510000 0.0000000000 0.0000000000
0.2867480000 0.0000000000 0.0000000000
0.3013350000 0.0000000000 0.0000000000
0.3156630000 0.0000000000 0.0000000000
0.3300220000 0.0000000000 0.0000000000
0.3443960000 0.0000000000 0.0000000000
0.3588010000 0.0000000000 0.0000000000
0.3732360000 0.0000000000 0.0000000000
0.3876860000 0.0000000000 0.0000000000
0.4021670000 0.0000000000 0.0000000000
0.4166930000 0.0000000000 0.0000000000
0.4312500000 0.0000000000 0.0000000000
0.4458530000 0.0000000000 0.0000000000
0.4605020037 0.0000000000 0.0000000000
0.4752120351 0.0000000000 0.0000000000
0.4899820000 0.0000000000 0.0000000000
0.5048140000 0.0000000000 0.0000000000
0.5197380000 0.0000000000 0.0000000000
0.5347520000 0.0000000000 0.0000000000
0.5498890000 0.0000000000 0.0000000000
0.5651480000 0.0000000000 0.0000000000
0.5805450000 0.0000000000 0.0000000000
0.5961090000 0.0000000000 0.0000000000
0.6118870000 0.0000000000 0.0000000000
0.6278630000 0.0000000000 0.0000000000
0.6441140000 0.0000000000 0.0000000000
0.6606700000 0.0000000000 0.0000000000
0.6775620000 0.0000000000 0.0000000000
0.6948500000 0.0000000000 0.0000000000
0.7125960000 0.0000000000 0.0000000000
0.7308770000 0.0000000000 0.0000000000
0.7497830000 0.0000000000 0.0000000000
0.7693929069 0.0000000000 0.0000000000
0.7898111319 0.0000000000 0.0172885000
0.8108800000 0.0000000000 0.0503090000
0.8325630000 0.0000000000 0.0813611000
0.8550390000 0.0000000000 0.1112990000
0.8784620000 0.0000000000 0.1408260000
0.9024030000 0.0000000000 0.1703820000
0.9024030000 0.0000000000 0.2004270000
0.0000000000 0.0000000000 0.0000000000
0.0000000000 0.0000000000 0.0000000000
0.0000000000 0.0000000000 0.0000000000
0.0000000000 0.0000000000 0.0000000000
0.0000000000 0.0000000000 0.0000000000
0.0000000000 0.0000000000 0.0000000000
0.0000000000 0.0000000000 0.0000000000
0.0092469700 0.0000000000 0.0000000000
0.0348669000 0.0000000000 0.0000000000
0.0585184000 0.0000000000 0.0000000000
0.0772564000 0.0000000000 0.0000000000
0.0925765000 0.0000000000 0.0000000000
0.1064620000 0.0000000000 0.0000000000
0.1200129007 0.0000000000 0.0000000000
0.1333030000 0.0000000000 0.0000000000
0.1470210000 0.0000000000 0.0000000000
0.1607080000 0.0000000000 0.0000000000
0.1743340000 0.0000000000 0.0000000000
0.1878540000 0.0000000000 0.0000000000
0.2012510000 0.0000000000 0.0000000000
0.2144814353 0.0000000000 0.0000000000
0.2274970000 0.0000000000 0.0000000000
0.2402990000 0.0000000000 0.0000000000
0.2528110000 0.0000000000 0.0000000000
0.2650340000 0.0000000000 0.0000000000
0.2768750401 0.0000000000 0.0000000000
0.2883040000 0.0000000000 0.0000000000
0.3015640000 0.0000000000 0.0000000000
0.3161820000 0.0000000000 0.0000000000
0.3305710000 0.0000000000 0.0000000000
0.3449150000 0.0000000000 0.0000000000
0.3592890000 0.0000000000 0.0000000000
0.3736930000 0.0000000000 0.0000000000
0.3881280000 0.0000000000 0.0000000000
0.4025940000 0.0000000000 0.0000000000
0.4171050000 0.0000000000 0.0000000000
0.4316470000 0.0000000000 0.0000000000
0.4462350000 0.0000000000 0.0000000000
0.4608830001 0.0000000000 0.0000000000
0.4755781300 0.0000000000 0.0000000000
0.4903330000 0.0000000000 0.0000000000
0.5051650000 0.0000000000 0.0000000000
0.5200880000 0.0000000000 0.0000000000
0.5351030000 0.0000000000 0.0000000000
0.5502250000 0.0000000000 0.0000000000
0.5654840000 0.0000000000 0.0000000000
0.5808800000 0.0000000000 0.0000000000
0.5964450000 0.0000000000 0.0000000000
0.6122069994 0.0000000000 0.0000000000
0.6281990000 0.0000000000 0.0000000000
0.6444340000 0.0000000000 0.0000000000
0.6609900000 0.0000000000 0.0000000000
0.6778820000 0.0000000000 0.0000000000
0.6951710000 0.0000000000 0.0000000000
0.7129170000 0.0000000000 0.0000000000
0.7311970000 0.0000000000 0.0000000000
0.7501030000 0.0000000000 0.0000000000
0.7696991213 0.0000000000 0.0000000000
0.7901009290 0.0000000000 0.0233756330
0.8110930000 0.0000000000 0.0550393000
0.8327150000 0.0000000000 0.0850996000
0.8551460000 0.0000000000 0.1143210000
0.8785380000 0.0000000000 0.1432520000
0.9024030000 0.0000000000 0.1723960000
0.9024030000 0.0000000000 0.2021060000
0.0000000000 0.0046692600 0.0000000000
0.0000000000 0.0035706100 0.0000000000
0.0000000000 0.0045624500 0.0000000000
0.0000000000 0.0066529300 0.0000000000
0.0000000000 0.0087281600 0.0000000000
0.0000000000 0.0108186000 0.0000000000
0.0000000000 0.0128939000 0.0000000000
0.0157168000 0.0147860000 0.0000000000
0.0409400000 0.0099336200 0.0000000000
0.0649119000 0.0034485400 0.0000000000
0.0838331000 0.0000000000 0.0000000000
0.0992905000 0.0000000000 0.0000000000
0.1132520000 0.0000000000 0.0000000000
0.1268330000 0.0000000000 0.0000000000
0.1400470000 0.0000000000 0.0000000000
0.1528950000 0.0000000000 0.0000000000
0.1660790000 0.0000000000 0.0000000000
0.1795220000 0.0000000000 0.0000000000
0.1928890000 0.0000000000 0.0000000000
0.2061650000 0.0000000000 0.0000000000
0.2193180000 0.0000000000 0.0000000000
0.2322730000 0.0000000000 0.0000000000
0.2450140372 0.0000000000 0.0000000000
0.2575110000 0.0000000000 0.0000000000
0.2696880000 0.0000000000 0.0000000000
0.2815140000 0.0000000000 0.0000000000
0.2929270000 0.0000000000 0.0000000000
0.3038680000 0.0000000000 0.0000000000
0.3163810000 0.0000000000 0.0000000000
0.3309990000 0.0000000000 0.0000000000
0.3454340000 0.0000000000 0.0000000000
0.3597770000 0.0000000000 0.0000000000
0.3741660000 0.0000000000 0.0000000000
0.3885710000 0.0000000000 0.0000000000
0.4030210000 0.0000000000 0.0000000000
0.4175170000 0.0000000000 0.0000000000
0.4320440000 0.0000000000 0.0000000000
0.4466320000 0.0000000000 0.0000000000
0.4612500000 0.0000000000 0.0000000000
0.4759440247 0.0000000000 0.0000000000
0.4907000000 0.0000000000 0.0000000000
0.5055160000 0.0000000000 0.0000000000
0.5204390000 0.0000000000 0.0000000000
0.5354390000 0.0000000000 0.0000000000
0.5505610000 0.0000000000 0.0000000000
0.5658050000 0.0000000000 0.0000000000
0.5812010000 0.0000000000 0.0000000000
0.5967650000 0.0000000000 0.0000000000
0.6125279973 0.0000000000 0.0000000000
0.6285190000 0.0000000000 0.0000000000
0.6447550000 0.0000000000 0.0000000000
0.6613110000 0.0000000000 0.0000000000
0.6781870000 0.0000000000 0.0000000000
0.6954910000 0.0000000000 0.0000000000
0.7132370000 0.0000000000 0.0000000000
0.7315170000 0.0000000000 0.0000000000
0.7504080000 0.0000000000 0.0000000000
0.7700193454 0.0000000000 0.0000000000
0.7903757366 0.0000000000 0.0290837000
0.8112920000 0.0000000000 0.0595560000
0.8328680000 0.0000000000 0.0887312000
0.8552530000 0.0000000000 0.1172500000
0.8786140000 0.0000000000 0.1456930000
0.9024030000 0.0000000000 0.1743800000
0.9024030000 0.0000000000 0.2037380000
0.0000000000 0.0348516000 0.0000000000
0.0000000000 0.0334936000 0.0000000000
0.0000000000 0.0343481000 0.0000000000
0.0000000000 0.0362249000 0.0000000000
0.0000000000 0.0383154000 0.0000000000
0.0000000000 0.0404059000 0.0000000000
0.0000000000 0.0424811000 0.0000000000
0.0137026000 0.0445716000 0.0000000000
0.0474861000 0.0464179000 0.0000000000
0.0708782000 0.0419165000 0.0000000000
0.0900740000 0.0357824000 0.0000000000
0.1056990000 0.0297246000 0.0000000000
0.1197833774 0.0232515582 0.0000000000
0.1334550000 0.0158846000 0.0000000000
0.1467310000 0.0074921800 0.0000000000
0.1596090000 0.0000000000 0.0000000000
0.1721070000 0.0000000000 0.0000000000
0.1848020000 0.0000000000 0.0000000000
0.1980010000 0.0000000000 0.0000000000
0.2111390000 0.0000000000 0.0000000000
0.2241860000 0.0000000000 0.0000000000
0.2370640000 0.0000000000 0.0000000000
0.2497600000 0.0000000000 0.0000000000
0.2621960000 0.0000000000 0.0000000000
0.2743570000 0.0000000000 0.0000000000
0.2861520000 0.0000000000 0.0000000000
0.2975510000 0.0000000000 0.0000000000
0.3084760000 0.0000000000 0.0000000000
0.3188680000 0.0000000000 0.0000000000
0.3311970000 0.0000000000 0.0000000000
0.3458460000 0.0000000000 0.0000000000
0.3602810000 0.0000000000 0.0000000000
0.3746240000 0.0000000000 0.0000000000
0.3890290000 0.0000000000 0.0000000000
0.4034490000 0.0000000000 0.0000000000
0.4179290000 0.0000000000 0.0000000000
0.4324410000 0.0000000000 0.0000000000
0.4470130000 0.0000000000 0.0000000000
0.4616310000 0.0000000000 0.0000000000
0.4763100000 0.0000000000 0.0000000000
0.4910510000 0.0000000000 0.0000000000
0.5058670000 0.0000000000 0.0000000000
0.5207750000 0.0000000000 0.0000000000
0.5357900000 0.0000000000 0.0000000000
0.5508960000 0.0000000000 0.0000000000
0.5661400000 0.0000000000 0.0000000000
0.5815370000 0.0000000000 0.0000000000
0.5971010193 0.0000000000 0.0000000000
0.6128629914 0.0000000000 0.0000000000
0.6288400000 0.0000000000 0.0000000000
0.6450750000 0.0000000000 0.0000000000
0.6616310000 0.0000000000 0.0000000000
0.6785080000 0.0000000000 0.0000000000
0.6957960000 0.0000000000 0.0000000000
0.7135420000 0.0000000000 0.0000000000
0.7318230000 0.0000000000 0.0000000000
0.7507290000 0.0000000000 0.0000000000
0.7703245591 0.0000000000 0.0037689800
0.7906345553 0.0000000000 0.0345769000
0.8114750000 0.0000000000 0.0638437000
0.8330050000 0.0000000000 0.0921645000
0.8553440000 0.0000000000 0.1200740400
0.8786910000 0.0000000000 0.1480280000
0.9024030000 0.0000000000 0.1763180000
0.9024030000 0.0000000000 0.2053560000
0.0000000000 0.0637369000 0.0000000000
0.0000000000 0.0622873000 0.0000000000
0.0000000000 0.0630350000 0.0000000000
0.0000000000 0.0644846000 0.0000000000
0.0000000000 0.0664683000 0.0000000000
0.0000000000 0.0684367000 0.0000000000
0.0000000000 0.0704200414 0.0000000000
0.0112306000 0.0723583000 0.0000000000
0.0453346000 0.0743267000 0.0000000000
0.0769818000 0.0759899000 0.0000000000
0.0957046000 0.0724498000 0.0000000000
0.1116500000 0.0672007000 0.0000000000
0.1259940000 0.0614023000 0.0000000000
0.1398640000 0.0545357000 0.0000000000
0.1532620000 0.0463417000 0.0000000000
0.1662010000 0.0368048000 0.0000000000
0.1787290000 0.0259098000 0.0000000000
0.1908140000 0.0135042000 0.0000000000
0.2031740000 0.0033112100 0.0000000000
0.2161750000 0.0000000000 0.0000000000
0.2290990000 0.0000000000 0.0000000000
0.2418860000 0.0000000000 0.0000000000
0.2545200000 0.0000000000 0.0000000000
0.2669110000 0.0000000000 0.0000000000
0.2790260000 0.0000000000 0.0000000000
