bundles/resolve-cinematic-luts/Gamut/Stratus/MS Blue.cube
TITLE "Generated by 3D LUT Creator Pro (c) Oleg Sharonov"
LUT_3D_SIZE 25
#INPUTGAMMA sRGB
#IMAGEPROFILE sRGB
#OUTPUTGAMMA sRGB
0.007097 0.015771 0.011829
0.023657 0.014194 0.010251
0.045463 0.014983 0.010251
0.073649 0.020503 0.012617
0.104163 0.029177 0.015771
0.140880 0.038640 0.018137
0.180036 0.048294 0.019714
0.223814 0.057439 0.018137
0.272247 0.066756 0.014194
0.326247 0.076662 0.009463
0.390731 0.088729 0.005520
0.459299 0.103403 0.002366
0.521951 0.119755 0.001577
0.574022 0.136563 0.000789
0.618607 0.153095 0.000789
0.658196 0.169847 0.000789
0.694146 0.185863 0.000789
0.727381 0.201485 0.000000
0.760252 0.217490 0.000000
0.795732 0.233105 0.000000
0.834453 0.248999 0.000789
0.874192 0.265946 0.001577
0.914618 0.282917 0.000789
0.956408 0.299142 0.002366
1.000000 0.317172 0.007097
0.009463 0.029966 0.011829
0.027600 0.033909 0.011829
0.050348 0.038640 0.012617
0.076662 0.044738 0.014983
0.107892 0.053002 0.017349
0.144241 0.061056 0.018926
0.183298 0.069470 0.018137
0.227072 0.078134 0.016560
0.275948 0.086965 0.013406
0.332424 0.096721 0.008674
0.396769 0.108623 0.003943
0.462222 0.122387 0.001577
0.522014 0.137437 0.000789
0.573246 0.152312 0.000789
0.617500 0.167256 0.000789
0.656476 0.181783 0.001577
0.691671 0.196561 0.000789
0.725134 0.211692 0.000789
0.759674 0.226732 0.000789
0.796566 0.242152 0.000789
0.834964 0.257559 0.000789
0.873647 0.273075 0.001577
0.912925 0.288531 0.001577
0.953985 0.305132 0.002366
0.997258 0.324793 0.005520
0.014194 0.051686 0.017349
0.033120 0.056820 0.016560
0.054934 0.062227 0.016560
0.080536 0.069470 0.016560
0.112567 0.077155 0.017349
0.148869 0.085170 0.017349
0.189433 0.093011 0.015771
0.234093 0.101867 0.013406
0.285544 0.110791 0.010251
0.344067 0.121078 0.006309
0.407072 0.133009 0.002366
0.469358 0.145618 0.001577
0.525620 0.158466 0.000789
0.574962 0.171706 0.000789
0.618255 0.184799 0.001577
0.656616 0.197557 0.001577
0.691671 0.210770 0.001577
0.725503 0.224849 0.000789
0.760214 0.238805 0.000789
0.797181 0.253396 0.000789
0.834862 0.268347 0.000789
0.872684 0.282785 0.001577
0.911198 0.297031 0.001577
0.951553 0.313103 0.003154
0.994209 0.332315 0.006309
0.021292 0.077646 0.028389
0.038640 0.082416 0.026023
0.059868 0.087409 0.022869
0.086965 0.094676 0.020503
0.120418 0.103403 0.018137
0.158466 0.111859 0.016560
0.201485 0.120748 0.014194
0.248999 0.130586 0.011040
0.303313 0.141446 0.007886
0.363492 0.152312 0.003943
0.425153 0.163654 0.002366
0.483306 0.174681 0.001577
0.535953 0.186075 0.001577
0.582084 0.197159 0.001577
0.623161 0.208538 0.001577
0.660650 0.219621 0.001577
0.695704 0.231447 0.001577
0.729863 0.243727 0.000789
0.764318 0.256081 0.000789
0.800176 0.269468 0.000789
0.837003 0.283708 0.000789
0.874128 0.297529 0.001577
0.912047 0.310985 0.002366
0.952184 0.325577 0.007886
0.994399 0.342598 0.018137
0.029966 0.105669 0.038640
0.046892 0.110432 0.035486
0.067852 0.115355 0.031543
0.094676 0.121406 0.026023
0.129049 0.130280 0.021292
0.169145 0.140028 0.017349
0.214613 0.150468 0.014194
0.265946 0.162189 0.010251
0.322654 0.174907 0.006309
0.384303 0.187342 0.003154
0.444399 0.198941 0.002366
0.498821 0.209657 0.002366
0.548216 0.219268 0.003154
0.591340 0.228259 0.002366
0.629692 0.237354 0.001577
0.665249 0.246998 0.001577
0.700135 0.256822 0.001577
0.734874 0.267361 0.001577
0.769153 0.278383 0.001577
0.804302 0.290459 0.001577
0.840590 0.303556 0.002366
0.877325 0.316595 0.003943
0.914830 0.329353 0.007097
0.954841 0.342388 0.018137
0.997339 0.357159 0.038640
0.044005 0.137437 0.048294
0.060464 0.142571 0.045463
0.080060 0.147253 0.040217
0.106043 0.152835 0.033909
0.139170 0.160463 0.026812
0.179816 0.170081 0.021292
0.227072 0.180912 0.015771
0.279859 0.193135 0.011040
0.338573 0.207412 0.007097
0.400095 0.222600 0.003943
0.458491 0.236543 0.003154
0.511258 0.248078 0.003943
0.558423 0.256822 0.004731
0.599630 0.263663 0.004731
0.635457 0.270584 0.004731
0.668990 0.278249 0.004731
0.703382 0.286196 0.004731
0.738244 0.294650 0.005520
0.772781 0.304285 0.006309
0.807476 0.315320 0.007886
0.843318 0.326804 0.010251
0.879523 0.338359 0.014194
0.916398 0.349765 0.020503
0.955839 0.361232 0.035486
0.997312 0.374358 0.059267
0.065646 0.174226 0.058053
0.082416 0.181783 0.057439
0.101090 0.187131 0.053002
0.124965 0.191499 0.046892
0.155933 0.196761 0.037852
0.194149 0.204185 0.028389
0.239766 0.213158 0.018926
0.292118 0.224504 0.011040
0.350585 0.239286 0.006309
0.411390 0.256378 0.003943
0.468787 0.272799 0.003943
0.521201 0.286457 0.006309
0.567668 0.296031 0.009463
0.607981 0.302948 0.013406
0.642881 0.308731 0.015771
0.675224 0.314388 0.016560
0.708680 0.320269 0.018137
0.743063 0.326693 0.019714
0.777584 0.334813 0.022869
0.812366 0.344381 0.026812
0.847938 0.354547 0.031543
0.883643 0.364177 0.038640
0.919793 0.373412 0.047596
0.957802 0.383386 0.062227
0.997204 0.395094 0.083343
0.090892 0.212426 0.071584
0.108987 0.222426 0.073137
0.126866 0.228428 0.070533
0.148063 0.231779 0.064521
0.175585 0.234913 0.054934
0.210029 0.239766 0.042516
0.251435 0.246069 0.028389
0.300253 0.255190 0.014983
0.356458 0.268908 0.006309
0.415819 0.285805 0.003154
0.472628 0.302948 0.003943
0.524876 0.318438 0.008674
0.571636 0.330783 0.017349
0.612739 0.340062 0.028389
0.648543 0.347396 0.037063
0.681297 0.353030 0.041759
0.714637 0.357958 0.044738
0.748824 0.363002 0.048294
0.783349 0.369598 0.052347
0.818617 0.377646 0.057439
0.854246 0.386036 0.064521
0.889620 0.393764 0.072104
0.924988 0.401224 0.081010
0.961259 0.409365 0.094676
0.998953 0.419288 0.113969
0.118418 0.249152 0.088729
0.136563 0.260632 0.091745
0.153356 0.267220 0.090032
0.171706 0.269747 0.084717
0.196162 0.271833 0.075669
0.226732 0.275267 0.062227
0.263233 0.279726 0.046892
0.306578 0.286457 0.029177
0.357958 0.297405 0.013406
0.414321 0.311928 0.004731
0.470143 0.328026 0.003943
0.521889 0.343753 0.008674
0.568565 0.357859 0.020503
0.610289 0.369981 0.038640
0.648117 0.380159 0.056820
0.683644 0.388663 0.068394
0.719125 0.395447 0.077155
0.754333 0.401138 0.083343
0.788986 0.407072 0.087409
0.824113 0.413486 0.092168
0.859839 0.419781 0.099126
0.894768 0.425799 0.107156
0.928549 0.431714 0.115355
0.962954 0.438230 0.127493
0.998711 0.446229 0.146165
0.148869 0.287885 0.107892
0.166543 0.299883 0.111504
0.182217 0.306457 0.110791
0.198547 0.308612 0.105669
0.219797 0.309683 0.096721
0.246689 0.311928 0.084717
0.278518 0.315552 0.070003
0.316826 0.320383 0.050348
0.362315 0.327472 0.029177
0.412733 0.337825 0.012617
0.465410 0.351198 0.005520
0.516165 0.365930 0.007886
0.562076 0.380529 0.018137
0.603902 0.393853 0.039429
0.643359 0.405876 0.063382
0.681874 0.417393 0.084261
0.720613 0.428289 0.100700
0.758440 0.437217 0.113270
0.794134 0.444399 0.121734
0.829493 0.450463 0.127806
0.865156 0.455686 0.134501
0.899970 0.460617 0.142290
0.932651 0.465049 0.150203
0.964925 0.470000 0.161944
0.997689 0.476361 0.178934
0.177603 0.324007 0.123683
0.196162 0.337182 0.129049
0.211323 0.344067 0.129049
0.225364 0.345944 0.124005
0.243570 0.346256 0.116042
0.267079 0.347499 0.105669
0.295153 0.350175 0.092168
0.329132 0.353840 0.074158
0.369310 0.358257 0.051686
0.413570 0.364567 0.029177
0.460617 0.374169 0.013406
0.508298 0.386763 0.007886
0.553175 0.400616 0.013406
0.595530 0.413904 0.032332
0.636282 0.426121 0.059868
0.676525 0.439007 0.086520
0.717384 0.452711 0.110072
0.757745 0.465699 0.131196
0.796131 0.476711 0.148063
0.833498 0.485502 0.160215
0.870044 0.492017 0.170081
0.904735 0.496633 0.178270
0.936876 0.500076 0.186498
0.967649 0.503947 0.197159
0.998469 0.509652 0.212243
0.204185 0.356759 0.137147
0.222252 0.369598 0.143686
0.236706 0.376241 0.144241
0.248999 0.378206 0.139456
0.264379 0.378672 0.132708
0.285152 0.379509 0.123683
0.310394 0.381638 0.112214
0.341227 0.384760 0.097529
0.377646 0.388302 0.078134
0.416400 0.392608 0.054934
0.457313 0.398524 0.032332
0.500076 0.407583 0.014983
0.542782 0.419124 0.011829
0.585065 0.431317 0.025234
0.626635 0.443480 0.051020
0.667807 0.456722 0.080536
0.709565 0.471423 0.108987
0.751448 0.486800 0.135977
0.792861 0.501589 0.160463
0.833293 0.514196 0.181348
0.872170 0.523759 0.198744
0.907547 0.530298 0.211692
0.939299 0.534380 0.221204
0.968993 0.538181 0.231945
0.998792 0.543258 0.245913
0.230947 0.388934 0.152312
0.246379 0.399572 0.157963
0.258881 0.405363 0.158717
0.270166 0.407242 0.154392
0.283971 0.408093 0.148063
0.302338 0.409111 0.140880
0.325241 0.410969 0.131499
0.353435 0.413570 0.119755
0.385854 0.416731 0.104542
0.420354 0.420600 0.084717
0.456501 0.424911 0.059868
0.494632 0.430523 0.035486
0.534258 0.438541 0.020503
0.574851 0.448730 0.022869
0.616187 0.460544 0.043264
0.658057 0.473971 0.072622
0.700949 0.488909 0.103403
0.744014 0.505250 0.133608
0.787039 0.521764 0.162189
0.829871 0.536677 0.189848
0.871494 0.549388 0.215877
0.908857 0.559510 0.236706
0.941017 0.566825 0.252191
0.970223 0.572136 0.266230
0.998415 0.577330 0.281725
0.256081 0.418795 0.168203
0.269747 0.428689 0.173543
0.280661 0.433847 0.174226
0.290715 0.435418 0.170314
0.303313 0.436045 0.164864
0.319470 0.436905 0.158717
0.339956 0.438308 0.150998
0.364957 0.440479 0.141164
0.393853 0.443557 0.128739
0.424426 0.447368 0.112214
0.457608 0.451439 0.091745
0.493092 0.455167 0.067305
0.529195 0.459885 0.044005
0.566769 0.467497 0.032332
0.606178 0.477970 0.040217
0.647975 0.490668 0.063953
0.691714 0.505641 0.094676
0.736281 0.522388 0.127180
0.780827 0.539561 0.158466
0.825462 0.555432 0.189848
0.868333 0.570131 0.221379
0.906784 0.583225 0.249152
0.939999 0.593573 0.271971
0.970027 0.601615 0.292754
0.998281 0.609111 0.313805
0.281725 0.446761 0.186709
0.293640 0.456205 0.190675
0.303070 0.460982 0.191293
0.311928 0.461931 0.188181
0.322993 0.462440 0.183728
0.337289 0.463167 0.178270
0.355353 0.464616 0.171706
0.377646 0.467210 0.163897
0.403214 0.470143 0.153356
0.430364 0.473759 0.139456
0.461055 0.477760 0.122712
0.494097 0.480543 0.102253
0.527658 0.483788 0.079102
0.561848 0.489112 0.057439
0.598110 0.496766 0.048985
0.637976 0.507457 0.059267
0.682051 0.521951 0.084717
0.727993 0.538662 0.117405
0.773910 0.556008 0.151261
0.819210 0.572525 0.185225
0.861899 0.588347 0.219268
0.900587 0.602500 0.250525
0.935060 0.613756 0.278249
0.967032 0.623758 0.304769
0.997554 0.633949 0.332315
0.309564 0.475519 0.208725
0.318897 0.482824 0.210585
0.326916 0.486800 0.211139
0.334813 0.488026 0.209098
0.344694 0.488637 0.205331
0.357359 0.490060 0.200315
0.373412 0.492084 0.194755
0.392964 0.494699 0.188390
0.415404 0.497762 0.179816
0.440015 0.501458 0.168203
0.467856 0.505576 0.154133
0.498159 0.508878 0.138017
0.529563 0.512154 0.118418
0.562019 0.516291 0.095499
0.596058 0.521514 0.075669
0.633461 0.529256 0.068934
0.676032 0.541533 0.081481
0.721808 0.556930 0.109350
0.767938 0.573690 0.143408
0.812754 0.590647 0.179155
0.855105 0.607261 0.215336
0.894613 0.621714 0.249152
0.930854 0.633217 0.279859
0.964503 0.643885 0.309683
0.996935 0.655590 0.340487
0.338893 0.505511 0.233105
0.346464 0.511194 0.234585
0.353030 0.514578 0.235403
0.359947 0.515658 0.233929
0.368155 0.516291 0.229943
0.378951 0.517998 0.224849
0.393142 0.520450 0.219797
0.410210 0.523136 0.214613
0.430045 0.526300 0.207224
0.452487 0.530543 0.197953
0.477690 0.534925 0.186920
0.504990 0.538842 0.173771
0.534258 0.542664 0.157710
0.565755 0.546451 0.137728
0.598530 0.550615 0.115010
0.633656 0.556297 0.095908
0.673425 0.565078 0.091319
0.716969 0.577605 0.106043
0.761790 0.593042 0.134798
0.806159 0.609982 0.171243
0.849305 0.626833 0.209471
0.890153 0.641251 0.245291
0.927571 0.652830 0.278518
0.961683 0.664012 0.310867
0.994372 0.676794 0.343543
0.366706 0.536978 0.259028
0.373790 0.541831 0.261213
0.379695 0.544562 0.262081
0.385125 0.545212 0.260341
0.391716 0.545744 0.255933
0.401051 0.547452 0.250829
0.413821 0.549856 0.246689
0.429408 0.552478 0.242310
0.447444 0.556181 0.236056
0.468142 0.560538 0.228934
0.491073 0.565022 0.220150
0.515467 0.569293 0.208538
0.542366 0.573413 0.194554
0.572136 0.577275 0.177380
0.603591 0.581377 0.156443
0.637106 0.586305 0.134798
0.674101 0.592617 0.117405
0.714261 0.601562 0.113620
0.756468 0.614111 0.129357
0.800212 0.629495 0.161698
0.844157 0.645506 0.199924
0.885726 0.659216 0.236868
0.923410 0.670850 0.272386
0.957489 0.682361 0.307776
0.990360 0.695660 0.343543
0.395182 0.571858 0.288789
0.401831 0.575624 0.291099
0.407157 0.577824 0.291609
0.411558 0.578482 0.289175
0.416979 0.579194 0.285021
0.425476 0.580996 0.280527
0.437451 0.583225 0.277034
0.451888 0.586090 0.273625
0.468715 0.589900 0.268487
0.488298 0.594155 0.262225
0.509716 0.598792 0.254743
0.532252 0.603694 0.244979
0.556815 0.608444 0.232774
0.584686 0.612840 0.218025
0.614973 0.617197 0.200315
0.647359 0.622214 0.181130
0.682494 0.627426 0.159717
0.719580 0.633656 0.141446
0.758517 0.642306 0.138882
0.800032 0.653908 0.158215
0.842881 0.667214 0.192319
0.883770 0.679874 0.230278
0.921020 0.691061 0.267784
0.955126 0.702188 0.305373
0.988646 0.714846 0.343962
0.425073 0.609470 0.320383
0.431158 0.612637 0.322314
0.435497 0.614263 0.322201
0.439162 0.614669 0.319584
0.443940 0.615479 0.315203
0.451663 0.617298 0.310985
0.462513 0.619812 0.307776
0.475800 0.622862 0.305615
0.491680 0.626685 0.302093
0.510295 0.631115 0.296406
0.530726 0.636039 0.289433
0.551955 0.641347 0.281327
0.575072 0.646742 0.271140
0.601250 0.651562 0.258735
0.629888 0.656290 0.243884
0.660835 0.661573 0.227072
0.694796 0.666667 0.206658
0.730756 0.671800 0.183728
0.767824 0.677420 0.167256
0.806301 0.684527 0.168439
0.845934 0.693626 0.190675
0.884464 0.703552 0.225707
0.920242 0.713217 0.263807
0.954014 0.723248 0.302582
0.987910 0.735076 0.343229
0.455390 0.649819 0.350789
0.461128 0.652408 0.352013
0.464760 0.653533 0.351504
0.467569 0.653533 0.348532
0.471849 0.654095 0.344485
0.479293 0.656150 0.340381
0.489044 0.658938 0.337611
0.500998 0.662403 0.336216
0.515784 0.666529 0.333730
0.533105 0.670895 0.328801
0.551955 0.675494 0.322428
0.571525 0.680542 0.314971
0.593201 0.685673 0.306217
0.617802 0.690319 0.295906
0.644696 0.694969 0.283576
0.674505 0.700307 0.268768
0.707878 0.705635 0.250677
0.743578 0.710617 0.229775
0.780083 0.715138 0.209285
0.816412 0.719497 0.196162
0.852460 0.724438 0.200315
0.887676 0.730269 0.223468
0.921020 0.736562 0.257707
0.953814 0.744291 0.296906
0.987801 0.754527 0.339956
0.489790 0.698333 0.382927
0.495634 0.701034 0.384485
0.499350 0.702316 0.383936
0.502049 0.702231 0.381454
0.506290 0.702487 0.378393
0.512985 0.704106 0.375112
0.521764 0.706609 0.372272
0.532374 0.709860 0.370364
0.545449 0.713677 0.367866
0.560937 0.717674 0.363688
0.577769 0.721479 0.358058
0.595900 0.725339 0.351300
0.616541 0.729701 0.343648
0.639761 0.734029 0.335137
0.665432 0.738484 0.325241
0.694059 0.743657 0.312634
0.726402 0.748667 0.297031
0.761098 0.753165 0.279859
0.796566 0.757358 0.261647
0.831653 0.760675 0.243727
0.865968 0.762940 0.232609
0.898550 0.764662 0.237677
0.928934 0.766607 0.260777
0.959107 0.770137 0.297405
0.990958 0.776612 0.341861
0.526733 0.750979 0.417062
0.532679 0.754916 0.418959
0.536978 0.756623 0.418630
0.540100 0.756390 0.416400
0.544147 0.756003 0.414155
0.549914 0.756661 0.411726
0.557447 0.758440 0.408857
0.566882 0.760983 0.406218
0.578701 0.764050 0.403214
0.592245 0.767520 0.399572
0.607364 0.770629 0.395359
0.624752 0.773496 0.389654
0.644744 0.777173 0.382744
0.666484 0.781050 0.375395
0.690363 0.785271 0.367383
0.717591 0.790012 0.357259
0.748234 0.794316 0.344694
0.780864 0.798085 0.331550
0.814304 0.801686 0.317287
0.848572 0.804767 0.300499
0.883011 0.806480 0.283708
0.914920 0.805909 0.274721
0.942992 0.803658 0.281858
0.969189 0.802512 0.308373
0.995776 0.803766 0.347913
0.562190 0.799312 0.449484
0.568117 0.803658 0.451514
0.572470 0.805731 0.451514
0.575899 0.805410 0.449484
0.579959 0.804731 0.447368
0.585119 0.805124 0.445391
0.591979 0.806658 0.443327
0.600937 0.808969 0.441096
0.612229 0.811660 0.438152
0.624752 0.814761 0.435418
0.638797 0.817323 0.432426
0.655450 0.819629 0.427407
0.674235 0.822622 0.420764
0.694189 0.825981 0.414571
0.716012 0.829596 0.408432
0.741077 0.833362 0.400356
0.769494 0.837037 0.390821
0.799636 0.840590 0.381454
0.830797 0.843687 0.370938
0.863595 0.846502 0.357159
0.897281 0.848639 0.340910
0.929081 0.848139 0.326470
0.956295 0.844157 0.320839
0.978692 0.839273 0.329904
0.998899 0.835270 0.353435
0.600519 0.846435 0.482893
0.605662 0.850569 0.486118
0.610187 0.852659 0.487482
0.614314 0.852857 0.486322
0.617903 0.852791 0.483513
0.622563 0.853684 0.481651
0.629397 0.855105 0.481097
0.638411 0.857180 0.479919
0.649488 0.859675 0.477271
0.661481 0.862226 0.475098
0.674865 0.864311 0.473053
0.690363 0.865871 0.468500
0.707582 0.868398 0.462367
0.725421 0.871591 0.458270
0.744607 0.873999 0.454648
0.766950 0.875856 0.448049
0.792350 0.878887 0.440324
0.819873 0.882505 0.434240
0.848772 0.885127 0.427889
0.878409 0.887393 0.416979
0.908675 0.889338 0.401831
0.939649 0.889652 0.386763
0.967397 0.886607 0.375112
0.987064 0.879555 0.365930
1.000000 0.870302 0.363492
0.003154 0.018137 0.030754
0.018926 0.015771 0.029177
0.042516 0.016560 0.029177
0.070003 0.021292 0.029177
0.100700 0.030754 0.030754
0.135683 0.040217 0.032332
0.174907 0.051020 0.032332
0.218736 0.061643 0.031543
0.268487 0.071584 0.029177
0.324905 0.081950 0.026812
0.387669 0.093846 0.022869
0.452412 0.107156 0.018926
0.511770 0.121078 0.014983
0.562757 0.135977 0.011829
0.606281 0.151525 0.010251
0.645030 0.166781 0.009463
0.680630 0.182217 0.008674
0.714720 0.197755 0.007886
0.748981 0.213705 0.007886
0.785086 0.230111 0.007886
0.824252 0.246534 0.009463
0.864246 0.263233 0.010251
0.904152 0.280127 0.011829
0.946550 0.297155 0.017349
0.993073 0.316132 0.027600
0.005520 0.033909 0.031543
0.022869 0.036274 0.031543
0.045463 0.040217 0.032332
0.071584 0.046181 0.033120
0.103403 0.053651 0.033909
0.138306 0.061643 0.034697
0.177603 0.071060 0.033909
0.221204 0.080060 0.032332
0.271694 0.089600 0.030754
0.328911 0.099522 0.027600
0.391000 0.111148 0.022869
0.453978 0.123360 0.018926
0.511578 0.136563 0.015771
0.561678 0.150733 0.012617
0.605455 0.164623 0.011829
0.643837 0.178491 0.010251
0.679072 0.192931 0.009463
0.713133 0.207788 0.009463
0.748195 0.223121 0.009463
0.784939 0.238965 0.009463
0.823143 0.254743 0.010251
0.861834 0.270166 0.011040
0.901080 0.285544 0.012617
0.943282 0.302460 0.018137
0.989490 0.322201 0.029177
0.010251 0.054934 0.037063
0.028389 0.059868 0.037852
0.048985 0.063953 0.036274
0.075168 0.070533 0.037063
0.106786 0.077646 0.037063
0.143686 0.085170 0.036274
0.183298 0.093429 0.035486
0.228597 0.101867 0.033909
0.280394 0.111504 0.031543
0.338359 0.121734 0.028389
0.399572 0.132708 0.024446
0.460032 0.143964 0.020503
0.515213 0.156188 0.017349
0.564118 0.169145 0.014194
0.607106 0.181566 0.012617
0.645125 0.194149 0.011829
0.680052 0.207224 0.011040
0.714136 0.221379 0.011040
0.749177 0.235730 0.011040
0.785935 0.250525 0.011829
0.823247 0.265377 0.011829
0.860853 0.279726 0.013406
0.899230 0.293893 0.015771
0.940843 0.310157 0.021292
0.986272 0.329243 0.032332
0.017349 0.081950 0.046892
0.034697 0.085170 0.045463
0.055568 0.090032 0.044005
0.082416 0.095908 0.041759
0.115699 0.103784 0.039429
0.153875 0.111859 0.038640
0.196362 0.120418 0.037063
0.243884 0.130586 0.036274
0.298275 0.141164 0.033909
0.356959 0.151788 0.030754
0.416565 0.161944 0.026812
0.473689 0.172627 0.022869
0.525806 0.183298 0.020503
0.572081 0.194149 0.017349
0.612891 0.205140 0.015771
0.649913 0.216057 0.014983
0.684704 0.227751 0.014983
0.718835 0.240405 0.014983
0.753671 0.253245 0.014983
0.790012 0.266938 0.015771
0.827085 0.280927 0.016560
0.864116 0.294650 0.018137
0.902188 0.308135 0.022080
0.943398 0.322993 0.030754
0.988046 0.340381 0.044738
0.026812 0.110072 0.056196
0.043264 0.113620 0.054934
0.064521 0.118418 0.052347
0.091319 0.123683 0.047596
0.125284 0.131499 0.043264
0.165105 0.140597 0.040217
0.210585 0.150998 0.039429
0.261357 0.162189 0.039429
0.317748 0.174681 0.037063
0.377365 0.186498 0.034697
0.435654 0.197358 0.031543
0.489316 0.207224 0.028389
0.538061 0.216416 0.025234
0.581323 0.225021 0.022869
0.619511 0.233929 0.021292
0.654703 0.243256 0.020503
0.689358 0.253095 0.020503
0.724028 0.263950 0.021292
0.758981 0.275540 0.021292
0.794970 0.288014 0.022869
0.831755 0.300868 0.025234
0.868559 0.313571 0.028389
0.906326 0.326247 0.033120
0.947588 0.339956 0.044738
0.992314 0.355756 0.064521
0.041759 0.141446 0.065085
0.058662 0.146437 0.064521
0.078134 0.150733 0.061643
0.104163 0.155677 0.055568
0.137147 0.162679 0.049669
0.176709 0.171243 0.044005
0.222948 0.181783 0.040994
0.275267 0.193541 0.040217
0.333078 0.207412 0.039429
0.393142 0.221554 0.038640
0.450162 0.234421 0.037852
0.502246 0.244979 0.035486
0.548509 0.253245 0.033909
0.589418 0.260196 0.032332
0.625397 0.267079 0.030754
0.659170 0.274721 0.030754
0.693279 0.282652 0.030754
0.728278 0.291482 0.032332
0.763438 0.301726 0.033120
0.798807 0.312986 0.036274
0.835032 0.324232 0.038640
0.871333 0.335353 0.043264
0.908401 0.346671 0.049669
0.948826 0.359054 0.062227
0.992341 0.373506 0.082416
0.064521 0.178934 0.076662
0.081950 0.185650 0.077646
0.100700 0.190469 0.075168
0.124326 0.194352 0.068934
0.154650 0.199138 0.061056
0.191909 0.205711 0.052347
0.235893 0.213887 0.044738
0.287366 0.224677 0.039429
0.345111 0.238965 0.038640
0.404762 0.254743 0.039429
0.461639 0.270166 0.041759
0.513432 0.282917 0.044005
0.558881 0.292118 0.045463
0.598215 0.299018 0.046892
0.633071 0.304890 0.046892
0.665707 0.310749 0.047596
0.699363 0.316826 0.048985
0.733787 0.323782 0.051020
0.768660 0.332533 0.053002
0.804052 0.342282 0.056820
0.840084 0.352115 0.061056
0.876176 0.361725 0.066202
0.912895 0.371320 0.073649
0.951869 0.382007 0.086520
0.993289 0.394828 0.104919
0.090463 0.216954 0.090892
0.109350 0.226049 0.093846
0.127493 0.231280 0.092168
0.148333 0.234093 0.086520
0.175134 0.236868 0.077646
0.208351 0.241042 0.066202
0.248692 0.246689 0.053651
0.296281 0.255339 0.043264
0.351606 0.268206 0.037063
0.409872 0.283971 0.036274
0.466419 0.300376 0.040994
0.518250 0.315203 0.047596
0.564174 0.327138 0.055568
0.604006 0.336323 0.062227
0.639183 0.343229 0.067852
0.672252 0.348841 0.071584
0.705932 0.353941 0.074664
0.740041 0.359748 0.077155
0.774887 0.366996 0.080060
0.810741 0.375301 0.083803
0.846970 0.383753 0.089165
0.882663 0.391805 0.095088
0.918503 0.399746 0.102253
0.956266 0.408857 0.114664
0.996396 0.420027 0.133308
0.119088 0.253546 0.107156
0.137728 0.263807 0.110791
0.154650 0.269328 0.110072
0.172856 0.271694 0.104919
0.196162 0.273625 0.095908
0.225707 0.276220 0.083803
0.261213 0.280260 0.069470
0.303678 0.286587 0.054295
0.353941 0.296656 0.040994
0.409111 0.310394 0.033909
0.464254 0.325912 0.036274
0.515784 0.341122 0.044738
0.561905 0.354850 0.056820
0.602968 0.366803 0.071060
0.640242 0.376616 0.084261
0.675673 0.384668 0.094262
0.711037 0.391269 0.101479
0.746345 0.397384 0.106415
0.781458 0.403989 0.110072
0.817042 0.410801 0.113969
0.852957 0.417558 0.118753
0.887864 0.424021 0.124646
0.922306 0.430443 0.131803
0.958341 0.437841 0.143408
0.996396 0.447064 0.161205
0.150203 0.291737 0.124005
0.168203 0.302338 0.128118
0.183942 0.308015 0.127806
0.199532 0.310038 0.123360
0.219974 0.311339 0.114664
0.245913 0.312868 0.103021
0.277169 0.315900 0.089600
0.314622 0.320383 0.072622
0.358855 0.327027 0.053002
0.408687 0.336968 0.037852
0.460617 0.350073 0.033120
0.511001 0.364470 0.037852
0.556987 0.378393 0.051020
0.598740 0.391269 0.070003
0.637734 0.403214 0.090463
0.675718 0.414571 0.107892
0.713969 0.424992 0.122061
0.751683 0.433925 0.133009
0.788069 0.441636 0.140880
0.823836 0.448125 0.146165
0.859577 0.454053 0.151525
0.894240 0.459372 0.157458
0.927334 0.464327 0.164623
0.960976 0.470143 0.175585
0.995668 0.477481 0.191293
0.179376 0.327027 0.138017
0.197755 0.339106 0.143964
0.212609 0.345320 0.144241
0.226391 0.347086 0.140028
0.243884 0.347706 0.132407
0.266655 0.348532 0.121734
0.294272 0.350789 0.108987
0.327583 0.353941 0.093011
0.366996 0.358357 0.073137
