bundles/resolve-cinematic-luts/Gamut/Stratus/MS Blue.cube
TITLE "Generated by 3D LUT Creator Pro (c) Oleg Sharonov"
LUT_3D_SIZE 5
#INPUTGAMMA sRGB
#IMAGEPROFILE sRGB
#OUTPUTGAMMA sRGB
0.007097 0.015771 0.011829
0.180036 0.048294 0.019714
0.521951 0.119755 0.001577
0.760252 0.217490 0.000000
1.000000 0.317172 0.007097
0.065646 0.174226 0.058053
0.239766 0.213158 0.018926
0.567668 0.296031 0.009463
0.777584 0.334813 0.022869
0.997204 0.395094 0.083343
0.230947 0.388934 0.152312
0.325241 0.410969 0.131499
0.534258 0.438541 0.020503
0.787039 0.521764 0.162189
0.998415 0.577330 0.281725
0.395182 0.571858 0.288789
0.437451 0.583225 0.277034
0.556815 0.608444 0.232774
0.758517 0.642306 0.138882
0.988646 0.714846 0.343962
0.600519 0.846435 0.482893
0.629397 0.855105 0.481097
0.707582 0.868398 0.462367
0.848772 0.885127 0.427889
1.000000 0.870302 0.363492
0.000000 0.082416 0.191704
0.127180 0.059267 0.191088
0.459152 0.084261 0.184157
0.714220 0.206090 0.198349
0.973872 0.330783 0.236868
0.007886 0.208538 0.228090
0.199335 0.223295 0.223121
0.502311 0.264665 0.226391
0.733787 0.328469 0.240405
0.977061 0.408432 0.274584
0.195158 0.411726 0.269608
0.316132 0.420927 0.269188
0.518628 0.441944 0.217312
0.768773 0.536677 0.332533
0.986764 0.591021 0.389834
0.400095 0.584794 0.366318
0.449936 0.594579 0.367770
0.554449 0.615074 0.330783
0.752658 0.648685 0.272247
0.985780 0.728481 0.424507
0.603954 0.851133 0.520638
0.633656 0.858593 0.521451
0.704701 0.869980 0.500537
0.842780 0.886827 0.462295
0.999141 0.872844 0.401918
0.000789 0.217490 0.492353
0.003154 0.185225 0.491410
0.368637 0.121078 0.448730
0.650338 0.152050 0.412062
0.915916 0.332315 0.449484
0.000789 0.326247 0.502835
0.035486 0.314738 0.496233
0.401138 0.239446 0.452785
0.655217 0.283444 0.424507
0.918202 0.408008 0.464182
0.141446 0.441405 0.476851
0.287107 0.452337 0.481513
0.463312 0.450538 0.455612
0.700221 0.515404 0.487005
0.957574 0.581323 0.514451
0.375865 0.617852 0.511065
0.421907 0.624007 0.504404
0.534864 0.622762 0.483719
0.735076 0.664516 0.456722
0.971980 0.763055 0.579413
0.549212 0.863595 0.588883
0.591873 0.866811 0.592298
0.694969 0.871237 0.597111
0.826498 0.889244 0.563155
0.998039 0.880666 0.502770
0.001577 0.359748 0.709523
0.000789 0.350175 0.700178
0.190882 0.292373 0.681119
0.577660 0.236543 0.638459
0.860690 0.299018 0.632241
0.000789 0.434633 0.708975
0.003943 0.431158 0.704658
0.303678 0.384394 0.682184
0.588025 0.320155 0.636379
0.861605 0.361823 0.626833
0.070003 0.548450 0.700521
0.231280 0.559224 0.704531
0.435497 0.555201 0.693149
0.622712 0.478319 0.643264
0.894022 0.502180 0.636088
0.347603 0.659679 0.690581
0.397121 0.667351 0.692193
0.516481 0.679340 0.687344
0.688965 0.682006 0.659216
0.938045 0.766417 0.724930
0.525558 0.884780 0.782608
0.569573 0.887739 0.777472
0.674415 0.889714 0.760906
0.802906 0.891216 0.733868
0.968209 0.896972 0.684924
0.000789 0.513623 0.909405
0.003943 0.526362 0.907638
0.311928 0.544147 0.904551
0.529502 0.509652 0.897158
0.789463 0.445544 0.887676
0.002366 0.550089 0.907150
0.003943 0.561450 0.907364
0.365541 0.584578 0.901788
0.548978 0.545449 0.899291
0.796710 0.475730 0.887079
0.003943 0.618557 0.911471
0.005520 0.629446 0.908918
0.410716 0.660419 0.903478
0.611974 0.651280 0.899477
0.821754 0.572747 0.890497
0.260922 0.733343 0.902311
0.330124 0.740121 0.904735
0.489316 0.759752 0.903201
0.718006 0.800392 0.899909
0.869690 0.747172 0.895079
0.618054 0.869915 0.905684
0.640627 0.874640 0.903386
0.713551 0.882853 0.901111
0.823177 0.899538 0.901357
0.925167 0.909801 0.898983
