bundles/resolve-cinematic-luts/Gamut/Stratus/MS Blue.cube
TITLE "Generated by 3D LUT Creator Pro (c) Oleg Sharonov"
LUT_3D_SIZE 9
#INPUTGAMMA sRGB
#IMAGEPROFILE sRGB
#OUTPUTGAMMA sRGB
0.007097 0.015771 0.011829
0.073649 0.020503 0.012617
0.180036 0.048294 0.019714
0.326247 0.076662 0.009463
0.521951 0.119755 0.001577
0.658196 0.169847 0.000789
0.760252 0.217490 0.000000
0.874192 0.265946 0.001577
1.000000 0.317172 0.007097
0.021292 0.077646 0.028389
0.086965 0.094676 0.020503
0.201485 0.120748 0.014194
0.363492 0.152312 0.003943
0.535953 0.186075 0.001577
0.660650 0.219621 0.001577
0.764318 0.256081 0.000789
0.874128 0.297529 0.001577
0.994399 0.342598 0.018137
0.065646 0.174226 0.058053
0.124965 0.191499 0.046892
0.239766 0.213158 0.018926
0.411390 0.256378 0.003943
0.567668 0.296031 0.009463
0.675224 0.314388 0.016560
0.777584 0.334813 0.022869
0.883643 0.364177 0.038640
0.997204 0.395094 0.083343
0.148869 0.287885 0.107892
0.198547 0.308612 0.105669
0.278518 0.315552 0.070003
0.412733 0.337825 0.012617
0.562076 0.380529 0.018137
0.681874 0.417393 0.084261
0.794134 0.444399 0.121734
0.899970 0.460617 0.142290
0.997689 0.476361 0.178934
0.230947 0.388934 0.152312
0.270166 0.407242 0.154392
0.325241 0.410969 0.131499
0.420354 0.420600 0.084717
0.534258 0.438541 0.020503
0.658057 0.473971 0.072622
0.787039 0.521764 0.162189
0.908857 0.559510 0.236706
0.998415 0.577330 0.281725
0.309564 0.475519 0.208725
0.334813 0.488026 0.209098
0.373412 0.492084 0.194755
0.440015 0.501458 0.168203
0.529563 0.512154 0.118418
0.633461 0.529256 0.068934
0.767938 0.573690 0.143408
0.894613 0.621714 0.249152
0.996935 0.655590 0.340487
0.395182 0.571858 0.288789
0.411558 0.578482 0.289175
0.437451 0.583225 0.277034
0.488298 0.594155 0.262225
0.556815 0.608444 0.232774
0.647359 0.622214 0.181130
0.758517 0.642306 0.138882
0.883770 0.679874 0.230278
0.988646 0.714846 0.343962
0.489790 0.698333 0.382927
0.502049 0.702231 0.381454
0.521764 0.706609 0.372272
0.560937 0.717674 0.363688
0.616541 0.729701 0.343648
0.694059 0.743657 0.312634
0.796566 0.757358 0.261647
0.898550 0.764662 0.237677
0.990958 0.776612 0.341861
0.600519 0.846435 0.482893
0.614314 0.852857 0.486322
0.629397 0.855105 0.481097
0.661481 0.862226 0.475098
0.707582 0.868398 0.462367
0.766950 0.875856 0.448049
0.848772 0.885127 0.427889
0.939649 0.889652 0.386763
1.000000 0.870302 0.363492
0.000000 0.033120 0.081010
0.052347 0.031543 0.081481
0.166781 0.046181 0.079102
0.318094 0.077155 0.079582
0.496233 0.117744 0.078619
0.630330 0.164381 0.075669
0.737804 0.212975 0.073137
0.855171 0.264522 0.080536
0.987556 0.320155 0.105669
0.006309 0.092168 0.092168
0.068394 0.101867 0.093846
0.186075 0.119755 0.092168
0.343124 0.148869 0.096315
0.508556 0.179155 0.091745
0.635603 0.213158 0.086965
0.741991 0.252794 0.087851
0.854874 0.295278 0.094262
0.982052 0.342388 0.121078
0.048294 0.190262 0.124646
0.119088 0.201096 0.123360
0.228766 0.216954 0.108258
0.392162 0.254145 0.116042
0.543495 0.286717 0.121734
0.652079 0.306578 0.121078
0.757938 0.331331 0.125602
0.868721 0.362118 0.134798
0.988918 0.397823 0.162189
0.138595 0.299636 0.161452
0.196761 0.313454 0.165105
0.273213 0.318323 0.139456
0.402869 0.338039 0.104163
0.550323 0.378486 0.124005
0.667077 0.413821 0.167494
0.779003 0.440788 0.192114
0.886670 0.460544 0.204568
0.992423 0.482272 0.232609
0.229103 0.396329 0.195961
0.271140 0.412733 0.202840
0.324681 0.415736 0.182217
0.417145 0.423778 0.145891
0.529318 0.439627 0.106415
0.650715 0.474041 0.149137
0.780232 0.524814 0.225021
0.901172 0.563438 0.288143
0.995425 0.581377 0.323557
0.312986 0.483031 0.246844
0.342388 0.496034 0.251587
0.378672 0.499020 0.238483
0.442021 0.507522 0.213158
0.528827 0.514959 0.171474
0.630821 0.530298 0.135683
0.763438 0.576065 0.200511
0.891965 0.626536 0.294398
0.996288 0.663828 0.375301
0.403989 0.577605 0.320155
0.421173 0.587166 0.322541
0.446077 0.591660 0.313571
0.492890 0.601510 0.297280
0.558308 0.613146 0.268628
0.646409 0.624305 0.221554
0.757126 0.644410 0.188808
0.882156 0.683069 0.270445
0.987801 0.720654 0.373790
0.496100 0.704701 0.403128
0.509458 0.711289 0.404247
0.527842 0.714971 0.396153
0.565022 0.723412 0.386127
0.618506 0.734230 0.366221
0.693149 0.746029 0.335569
0.795115 0.759636 0.290203
0.897189 0.766950 0.269328
0.988455 0.779971 0.364470
0.607364 0.851266 0.501458
0.620414 0.856687 0.504077
0.634241 0.859315 0.497695
0.662587 0.864376 0.489044
0.706948 0.869367 0.476641
0.767102 0.877389 0.460178
0.846903 0.885726 0.436905
0.939328 0.890027 0.400269
1.000000 0.870721 0.376429
0.000000 0.082416 0.191704
0.009463 0.066756 0.195560
0.127180 0.059267 0.191088
0.296281 0.067305 0.187972
0.459152 0.084261 0.184157
0.597900 0.135977 0.185863
0.714220 0.206090 0.198349
0.837105 0.267220 0.212426
0.973872 0.330783 0.236868
0.001577 0.130891 0.201679
0.018926 0.132407 0.205711
0.149937 0.124646 0.202647
0.311221 0.133608 0.199138
0.468644 0.153356 0.195961
0.604627 0.193947 0.200706
0.717882 0.248539 0.210214
0.835678 0.297280 0.220678
0.969692 0.351708 0.245135
0.007886 0.208538 0.228090
0.075669 0.221204 0.233435
0.199335 0.223295 0.223121
0.352217 0.240246 0.222078
0.502311 0.264665 0.226391
0.620764 0.293387 0.229607
0.733787 0.328469 0.240405
0.849538 0.365736 0.249916
0.977061 0.408432 0.274584
0.082881 0.314971 0.255487
0.158717 0.328137 0.260050
0.254294 0.325241 0.241042
0.384485 0.340699 0.221029
0.529747 0.379138 0.246998
0.642929 0.412314 0.278921
0.755110 0.440556 0.294019
0.868139 0.465410 0.305253
0.982492 0.493360 0.325912
0.195158 0.411726 0.269608
0.249305 0.424345 0.279993
0.316132 0.420927 0.269188
0.405962 0.427568 0.242310
0.518628 0.441944 0.217312
0.639376 0.480613 0.263233
0.768773 0.536677 0.332533
0.888366 0.572303 0.370173
0.986764 0.591021 0.389834
0.302582 0.493494 0.307417
0.338466 0.503293 0.318209
0.379973 0.502246 0.312281
0.439472 0.509845 0.291991
0.520450 0.517998 0.258735
0.623957 0.533409 0.235893
0.757319 0.584416 0.297529
0.886953 0.638169 0.374830
0.991772 0.675269 0.433689
0.400095 0.584794 0.366318
0.422478 0.592564 0.373032
0.449936 0.594579 0.367770
0.493159 0.604368 0.355655
0.554449 0.615074 0.330783
0.640627 0.627129 0.294019
0.752658 0.648685 0.272247
0.878791 0.689970 0.339744
0.985780 0.728481 0.424507
0.491613 0.707709 0.432110
0.508039 0.713969 0.435967
0.528335 0.716678 0.431000
0.563608 0.725584 0.421418
0.615783 0.735518 0.403989
0.689315 0.748038 0.378299
0.791109 0.762365 0.341016
0.894675 0.770137 0.324569
0.986382 0.784348 0.403300
0.603954 0.851133 0.520638
0.618456 0.857476 0.524876
0.633656 0.858593 0.521451
0.660881 0.863562 0.512410
0.704701 0.869980 0.500537
0.764777 0.878505 0.485707
0.842780 0.886827 0.462295
0.935734 0.890935 0.428449
0.999141 0.872844 0.401918
0.000789 0.145068 0.347086
0.001577 0.130891 0.344485
0.035486 0.107156 0.342598
0.250829 0.093429 0.335245
0.421907 0.083343 0.316247
0.561621 0.097930 0.299760
0.681297 0.167731 0.299513
0.802404 0.258148 0.325912
0.948912 0.344694 0.360541
0.000789 0.194352 0.356258
0.001577 0.192931 0.363590
0.051020 0.166781 0.355253
0.265093 0.145068 0.337718
0.429088 0.137147 0.319012
0.566150 0.155677 0.305132
0.682095 0.218736 0.310631
0.800500 0.291226 0.331987
0.943774 0.363786 0.363981
0.000789 0.264808 0.377365
0.008674 0.273899 0.383845
0.118418 0.260632 0.370556
0.298647 0.231280 0.345840
0.450688 0.229775 0.328248
0.575844 0.259028 0.324793
0.690276 0.313922 0.341861
0.812401 0.365541 0.360046
0.953242 0.419041 0.386127
0.018137 0.333730 0.373696
0.088729 0.347603 0.384211
0.214975 0.346567 0.371320
0.345216 0.343543 0.352827
0.480820 0.360837 0.355152
0.595108 0.392875 0.371129
0.712002 0.431158 0.388121
0.835610 0.464471 0.400530
0.964053 0.500537 0.417310
0.149671 0.425638 0.386309
0.216416 0.438774 0.396329
0.294272 0.435732 0.382744
0.388483 0.433768 0.363492
0.495100 0.446913 0.348635
0.614922 0.491006 0.391269
0.744805 0.543436 0.433610
0.864831 0.573025 0.447292
0.972342 0.595055 0.459739
0.296906 0.508685 0.400877
0.330673 0.518628 0.406645
0.372177 0.515531 0.400269
0.435418 0.514323 0.390462
0.507198 0.521764 0.367480
0.609828 0.540458 0.353536
0.747920 0.599054 0.407668
0.879555 0.655310 0.464905
0.980952 0.689227 0.502770
0.384942 0.601093 0.426121
0.407838 0.607673 0.432189
0.441944 0.606539 0.431317
0.491276 0.608187 0.427086
0.547393 0.617751 0.409872
0.630330 0.631898 0.383845
0.745240 0.655777 0.369981
0.875409 0.701034 0.421989
0.980897 0.741753 0.493427
0.466347 0.719166 0.470428
0.485639 0.725052 0.475870
0.515213 0.724438 0.475098
0.558079 0.727830 0.471707
0.608495 0.737644 0.457091
0.681208 0.751292 0.436358
0.782534 0.766493 0.406901
0.889276 0.775262 0.393142
0.983754 0.791730 0.462003
0.585281 0.857114 0.549856
0.601510 0.860886 0.555778
0.624106 0.860723 0.556066
0.657685 0.862976 0.551256
0.700350 0.869754 0.540697
0.758402 0.879555 0.526177
0.836528 0.887676 0.504860
0.926207 0.892402 0.471281
1.000000 0.876016 0.447064
0.000789 0.217490 0.492353
0.001577 0.212426 0.494231
0.003154 0.185225 0.491410
0.140880 0.154650 0.474675
0.368637 0.121078 0.448730
0.525806 0.109350 0.428049
0.650338 0.152050 0.412062
0.771196 0.230613 0.417971
0.915916 0.332315 0.449484
0.000789 0.261936 0.497231
0.001577 0.259466 0.501655
0.004731 0.232609 0.491343
0.159966 0.194352 0.473265
0.378486 0.161944 0.448805
0.531276 0.155677 0.428769
0.650715 0.195961 0.413403
0.764624 0.263376 0.417227
0.909192 0.352115 0.450463
0.000789 0.326247 0.502835
0.001577 0.331659 0.508168
0.035486 0.314738 0.496233
0.221729 0.273075 0.476011
0.401138 0.239446 0.452785
0.542247 0.241201 0.433374
0.655217 0.283444 0.424507
0.770970 0.338252 0.435183
0.918202 0.408008 0.464182
0.003154 0.382099 0.495567
0.037852 0.394031 0.501261
0.173771 0.393587 0.492689
0.315668 0.380622 0.476991
0.431793 0.349149 0.452785
0.550907 0.357759 0.443174
0.663598 0.396505 0.448730
0.789939 0.436593 0.462222
0.937022 0.485365 0.483719
0.141446 0.441405 0.476851
0.212243 0.452785 0.488502
0.287107 0.452337 0.481513
0.376897 0.453009 0.469430
0.463312 0.450538 0.455612
0.573745 0.475449 0.464399
0.700221 0.515404 0.487005
0.829356 0.548274 0.499152
0.957574 0.581323 0.514451
0.278249 0.519697 0.491073
0.315552 0.529440 0.496832
0.359649 0.528642 0.489519
0.422478 0.527226 0.477970
0.492084 0.527103 0.462222
0.589632 0.549036 0.458050
0.736241 0.612382 0.500405
0.867103 0.663185 0.541890
0.967481 0.691540 0.565812
0.375865 0.617852 0.511065
0.395447 0.625744 0.513113
0.421907 0.624007 0.504404
0.469430 0.622413 0.493628
0.534864 0.622762 0.483719
0.616288 0.637348 0.465555
0.735076 0.664516 0.456722
0.871269 0.716303 0.507457
0.971980 0.763055 0.579413
0.434791 0.735196 0.528704
0.450763 0.740957 0.531765
0.477481 0.739403 0.527350
0.531215 0.737964 0.524069
0.596532 0.740479 0.519320
0.668535 0.754955 0.503228
0.769759 0.770743 0.477481
0.882188 0.781236 0.466059
0.977172 0.804374 0.535772
0.549212 0.863595 0.588883
0.565135 0.867783 0.593838
0.591873 0.866811 0.592298
0.639327 0.866584 0.596532
0.694969 0.871237 0.597111
0.752580 0.880063 0.582899
0.826498 0.889244 0.563155
0.915463 0.894737 0.530176
0.998039 0.880666 0.502770
0.000789 0.291482 0.603902
0.000789 0.286977 0.603123
0.000789 0.270166 0.594790
0.031543 0.225192 0.580232
0.285283 0.198151 0.558766
0.472770 0.166304 0.539980
0.620514 0.170081 0.525991
0.739642 0.219444 0.514959
0.890559 0.309326 0.531887
0.001577 0.318553 0.598477
0.001577 0.318897 0.601354
0.001577 0.301971 0.591234
0.047596 0.261357 0.577385
0.301726 0.232111 0.559453
0.479085 0.200706 0.538662
0.619963 0.204759 0.522887
0.734271 0.245758 0.510423
0.880412 0.326359 0.528089
0.000789 0.378579 0.601458
0.001577 0.380992 0.604472
0.010251 0.367576 0.593997
0.157963 0.337075 0.578647
0.341544 0.301114 0.561507
0.494432 0.272247 0.541056
0.625843 0.278787 0.524814
0.739123 0.313922 0.515404
0.889056 0.378206 0.534804
0.001577 0.433768 0.596111
0.021292 0.445010 0.599839
0.138017 0.445544 0.592989
0.296156 0.434555 0.579850
0.398436 0.399048 0.560880
0.514959 0.370077 0.542247
0.633266 0.375583 0.528335
0.752034 0.400964 0.525744
0.903017 0.449786 0.543969
0.130586 0.488094 0.579085
0.201291 0.498027 0.588615
0.280527 0.499152 0.583225
0.371415 0.502377 0.575403
0.451663 0.492084 0.562928
0.537340 0.464471 0.542069
0.650856 0.469786 0.536013
0.779673 0.496034 0.541711
0.925791 0.542961 0.563155
0.291099 0.541354 0.571525
0.321748 0.549563 0.577110
0.360145 0.549797 0.572414
0.416814 0.551548 0.567163
0.483375 0.554218 0.558537
0.565586 0.555316 0.547158
0.695315 0.588508 0.562530
0.828290 0.629495 0.587650
0.950263 0.667898 0.611771
0.345632 0.629446 0.594102
0.365930 0.636912 0.597742
0.395182 0.637589 0.593042
0.446457 0.640002 0.585281
0.513623 0.642163 0.571079
0.597742 0.647454 0.554739
0.718048 0.674640 0.549972
0.861017 0.736883 0.608906
0.957148 0.784422 0.673740
0.411137 0.750235 0.627722
0.430205 0.756041 0.631262
0.459226 0.755654 0.624454
0.506096 0.756545 0.611260
0.569181 0.757165 0.596690
0.653861 0.761098 0.587220
0.750627 0.775750 0.564627
0.870206 0.790670 0.555085
0.965347 0.823905 0.636476
0.553117 0.871269 0.672703
0.562928 0.874704 0.674010
0.577605 0.875313 0.665524
0.612229 0.876879 0.659309
0.674820 0.878345 0.660466
0.746187 0.882251 0.657871
0.815008 0.890215 0.640098
0.899168 0.897343 0.609316
0.985644 0.885789 0.584308
0.001577 0.359748 0.709523
0.001577 0.358158 0.709144
0.000789 0.350175 0.700178
0.003943 0.325353 0.691801
0.190882 0.292373 0.681119
0.425073 0.270166 0.662357
0.577660 0.236543 0.638459
0.712086 0.244667 0.623808
0.860690 0.299018 0.632241
0.001577 0.383019 0.705804
0.001577 0.384028 0.709228
0.001577 0.376897 0.702145
0.014983 0.357659 0.693018
0.229103 0.321861 0.680630
0.433610 0.296281 0.660512
0.577824 0.260922 0.634192
0.707794 0.266088 0.620013
0.856588 0.315203 0.625447
0.000789 0.434633 0.708975
0.001577 0.437217 0.711289
0.003943 0.431158 0.704658
0.125284 0.420109 0.694363
0.303678 0.384394 0.682184
0.456427 0.356057 0.663139
0.588025 0.320155 0.636379
0.715012 0.322428 0.621814
0.861605 0.361823 0.626833
0.002366 0.495300 0.708722
0.004731 0.503947 0.712128
0.070533 0.503816 0.708300
0.261647 0.497098 0.699020
0.380992 0.470570 0.685409
0.487141 0.435262 0.666392
0.604368 0.399659 0.638893
0.726157 0.396417 0.625298
0.874544 0.423453 0.631017
0.070003 0.548450 0.700521
0.130280 0.555778 0.707160
0.231280 0.559224 0.704531
0.338573 0.564457 0.702572
0.435497 0.555201 0.693149
0.518754 0.517051 0.671303
0.622712 0.478319 0.643264
0.746739 0.472203 0.628511
0.894022 0.502180 0.636088
0.252191 0.601719 0.693539
0.283313 0.608341 0.699792
0.328580 0.610289 0.697429
0.396241 0.615378 0.696265
0.476361 0.621964 0.693018
0.560253 0.611056 0.680897
0.649583 0.569628 0.649724
0.775638 0.570856 0.639327
0.919733 0.614922 0.656476
0.347603 0.659679 0.690581
0.366996 0.665570 0.693713
0.397121 0.667351 0.692193
0.449107 0.672749 0.691061
0.516481 0.679340 0.687344
0.595213 0.685277 0.677286
0.688965 0.682006 0.659216
0.823801 0.717716 0.682405
0.938045 0.766417 0.724930
0.387760 0.757938 0.722426
0.406218 0.763706 0.727096
0.433925 0.765998 0.725830
0.485023 0.771838 0.722508
0.553697 0.778219 0.715721
0.637638 0.781681 0.699621
0.730512 0.783201 0.676122
0.848439 0.805410 0.673650
0.946059 0.852294 0.756351
0.525558 0.884780 0.782608
0.541890 0.887016 0.781384
0.569573 0.887739 0.777472
0.618607 0.888806 0.771914
0.674415 0.889714 0.760906
0.731727 0.890497 0.744133
0.802906 0.891216 0.733868
0.880127 0.899477 0.710491
0.968209 0.896972 0.684924
0.001577 0.432030 0.818267
0.001577 0.434240 0.816832
0.001577 0.436358 0.814832
0.012617 0.438463 0.810316
0.173771 0.408687 0.801686
0.388934 0.388392 0.792131
0.545508 0.361528 0.774887
0.681607 0.325017 0.753516
0.833976 0.336968 0.752190
0.001577 0.452038 0.817253
0.002366 0.456131 0.819978
0.002366 0.458270 0.815675
0.035486 0.459739 0.809288
0.222774 0.430125 0.802548
0.397998 0.404762 0.788179
0.547863 0.377085 0.770554
0.681519 0.341544 0.750627
0.834317 0.350175 0.750274
0.001577 0.494298 0.818896
0.002366 0.498887 0.821962
0.003154 0.499878 0.818127
0.109350 0.500405 0.812190
0.299513 0.480127 0.803730
0.423209 0.448654 0.791766
0.560424 0.419370 0.772743
0.688746 0.383295 0.752346
0.840827 0.387126 0.752151
0.001577 0.550440 0.820640
0.002366 0.556527 0.823247
0.020503 0.556930 0.820849
0.216057 0.556354 0.815570
0.369502 0.545508 0.806622
0.460251 0.509780 0.794897
0.578427 0.478319 0.778368
0.701889 0.440324 0.756119
0.853651 0.439085 0.755032
0.008674 0.599002 0.820849
0.028389 0.604886 0.823593
0.116385 0.609162 0.822379
0.283444 0.615074 0.821127
0.412901 0.612433 0.813776
0.506161 0.587005 0.801363
0.600310 0.547981 0.783645
0.719290 0.506290 0.761406
0.870786 0.504599 0.758633
0.163411 0.652689 0.815289
0.207600 0.658196 0.821232
0.270862 0.661251 0.821162
0.356458 0.668171 0.820361
0.454648 0.677465 0.819455
0.558938 0.676122 0.811271
0.639520 0.637589 0.790963
0.744330 0.591447 0.767900
0.895638 0.592936 0.761021
0.323894 0.714053 0.815991
0.349457 0.718918 0.819036
0.386581 0.722179 0.817533
0.447140 0.728888 0.817953
0.523198 0.738204 0.817323
0.612127 0.749491 0.814621
0.699235 0.744686 0.803837
0.782423 0.702700 0.775525
0.915403 0.714470 0.776312
0.436436 0.779226 0.817007
0.455686 0.783386 0.819210
0.482617 0.786855 0.819455
0.530115 0.792788 0.819385
0.589900 0.800032 0.817498
0.660789 0.808862 0.814410
0.740718 0.816797 0.805481
0.825739 0.817918 0.794134
0.926741 0.848739 0.825981
0.537279 0.877006 0.854775
0.552885 0.879777 0.858823
0.573911 0.883296 0.859052
0.608803 0.888115 0.857739
0.658428 0.891965 0.854841
0.722302 0.896414 0.847605
0.795768 0.899168 0.835372
0.865286 0.902464 0.818302
0.943311 0.907333 0.800968
0.000789 0.513623 0.909405
0.003154 0.517556 0.905561
0.003943 0.526362 0.907638
0.095499 0.542545 0.907943
0.311928 0.544147 0.904551
0.405705 0.521138 0.902188
0.529502 0.509652 0.897158
0.652971 0.487618 0.895949
0.789463 0.445544 0.887676
0.002366 0.524380 0.908644
0.002366 0.528581 0.907913
0.002366 0.537219 0.904704
0.110791 0.550206 0.903692
0.328137 0.555547 0.900833
0.414488 0.530910 0.900402
0.534622 0.517240 0.896662
0.653767 0.492151 0.891341
0.792460 0.450989 0.884654
0.002366 0.550089 0.907150
0.002366 0.554623 0.908126
0.003943 0.561450 0.907364
0.160463 0.573745 0.904765
0.365541 0.584578 0.901788
0.443174 0.562474 0.901018
0.548978 0.545449 0.899291
0.661804 0.518502 0.891122
0.796710 0.475730 0.887079
0.002366 0.584524 0.906875
0.002366 0.590754 0.907882
0.007097 0.595847 0.906692
0.207976 0.606849 0.904765
0.397121 0.622912 0.901665
0.495167 0.613705 0.902341
0.575955 0.591713 0.898148
0.676436 0.562133 0.894395
0.805802 0.516101 0.888492
0.003943 0.618557 0.911471
0.003154 0.622613 0.909801
0.005520 0.629446 0.908918
0.206280 0.643885 0.906814
0.410716 0.660419 0.903478
0.543554 0.675359 0.901419
0.611974 0.651280 0.899477
0.698848 0.620564 0.895203
0.821754 0.572747 0.890497
0.014983 0.670079 0.905316
0.033909 0.672523 0.908004
0.089165 0.675584 0.904980
0.234421 0.683644 0.908004
0.406474 0.700778 0.905928
0.567444 0.726116 0.901542
0.668444 0.727096 0.898735
0.735076 0.697343 0.896259
0.843587 0.650715 0.895079
0.260922 0.733343 0.902311
0.284234 0.737083 0.904796
0.330124 0.740121 0.904735
0.402264 0.747999 0.905133
0.489316 0.759752 0.903201
0.594949 0.778742 0.902341
0.718006 0.800392 0.899909
0.787922 0.786745 0.898612
0.869690 0.747172 0.895079
0.460836 0.805909 0.903846
0.474182 0.807192 0.905102
0.501129 0.809288 0.905163
0.547805 0.816271 0.903508
0.611056 0.826153 0.902218
0.686025 0.838427 0.903631
0.768546 0.854180 0.900217
0.841602 0.866520 0.899168
0.898364 0.839645 0.895793
0.618054 0.869915 0.905684
0.622912 0.870496 0.906509
0.640627 0.874640 0.903386
0.671212 0.876655 0.903324
0.713551 0.882853 0.901111
0.768052 0.891840 0.900926
0.823177 0.899538 0.901357
0.875728 0.908431 0.899785
0.925167 0.909801 0.898983
