bundles/resolve-cinematic-luts/Gamut/Stratus/MS Copper.cube
TITLE "Generated by 3D LUT Creator Pro (c) Oleg Sharonov"
LUT_3D_SIZE 25
#INPUTGAMMA sRGB
#IMAGEPROFILE sRGB
#OUTPUTGAMMA sRGB
0.028389 0.023657 0.017349
0.050348 0.024446 0.020503
0.074664 0.027600 0.023657
0.109712 0.029966 0.026812
0.156188 0.030754 0.029177
0.210770 0.029966 0.028389
0.271278 0.026812 0.025234
0.336860 0.026023 0.022869
0.408178 0.029966 0.019714
0.479154 0.039429 0.013406
0.542545 0.053651 0.007886
0.599368 0.071060 0.004731
0.651232 0.089600 0.002366
0.697601 0.109350 0.001577
0.738764 0.129357 0.003154
0.775000 0.149671 0.004731
0.807263 0.169379 0.013406
0.835134 0.189225 0.029177
0.859446 0.209098 0.048985
0.883074 0.229439 0.072104
0.905959 0.250068 0.098330
0.928460 0.271833 0.125284
0.950349 0.296531 0.150733
0.973455 0.324119 0.178491
1.000000 0.354547 0.210954
0.029177 0.036274 0.022080
0.046892 0.036274 0.024446
0.070003 0.039429 0.028389
0.103403 0.043264 0.031543
0.149671 0.046892 0.032332
0.203994 0.050348 0.030754
0.264950 0.052347 0.027600
0.331659 0.056820 0.024446
0.403214 0.063382 0.018926
0.472699 0.073137 0.012617
0.536315 0.085170 0.007097
0.593360 0.099126 0.003943
0.645363 0.113620 0.001577
0.691671 0.129973 0.001577
0.732657 0.147253 0.002366
0.769304 0.164864 0.006309
0.802404 0.183082 0.014983
0.831721 0.201291 0.030754
0.857345 0.219621 0.051686
0.881015 0.238483 0.074664
0.903079 0.258001 0.099126
0.924810 0.278787 0.124326
0.946810 0.302093 0.150468
0.970474 0.329573 0.179816
0.997743 0.361331 0.213887
0.030754 0.053002 0.024446
0.046892 0.051686 0.026812
0.067852 0.053002 0.030754
0.097930 0.056196 0.034697
0.141164 0.063382 0.035486
0.196362 0.071060 0.033120
0.259174 0.079102 0.029966
0.327694 0.088291 0.025234
0.399135 0.097930 0.018137
0.468429 0.108258 0.011829
0.531399 0.118753 0.006309
0.588722 0.129973 0.003154
0.640723 0.141446 0.001577
0.686904 0.154650 0.001577
0.727952 0.168910 0.003154
0.764700 0.184371 0.007886
0.798626 0.200315 0.018137
0.828943 0.216416 0.034697
0.855303 0.232939 0.054934
0.879014 0.250068 0.077646
0.901172 0.268206 0.101090
0.922425 0.287626 0.125284
0.944151 0.309683 0.151525
0.968069 0.336538 0.181566
0.995722 0.368348 0.215336
0.026812 0.076167 0.026023
0.046181 0.075168 0.026812
0.067852 0.074158 0.030754
0.094676 0.075168 0.035486
0.133906 0.081950 0.039429
0.188181 0.093846 0.038640
0.253095 0.107892 0.033909
0.324793 0.122061 0.026812
0.397384 0.134798 0.018137
0.466491 0.145891 0.011040
0.529624 0.156188 0.006309
0.586790 0.165345 0.003154
0.638556 0.174681 0.002366
0.684572 0.185438 0.003154
0.725421 0.196960 0.005520
0.762787 0.209285 0.011829
0.796819 0.222774 0.024446
0.827050 0.236706 0.041759
0.853850 0.251132 0.061643
0.877804 0.266513 0.084261
0.899939 0.282917 0.107156
0.920960 0.300868 0.130891
0.942354 0.321634 0.156697
0.966864 0.347086 0.185863
0.995533 0.377926 0.218736
0.019714 0.106043 0.024446
0.040994 0.106415 0.024446
0.066202 0.105669 0.026812
0.094676 0.104542 0.032332
0.130280 0.107156 0.040217
0.179376 0.118418 0.044738
0.242941 0.136270 0.043264
0.315784 0.154650 0.034697
0.390552 0.170779 0.023657
0.461274 0.183942 0.014194
0.525186 0.194755 0.007886
0.582791 0.203418 0.004731
0.634825 0.211508 0.003943
0.680941 0.219974 0.005520
0.722220 0.228934 0.010251
0.760175 0.238644 0.019714
0.794389 0.249610 0.033909
0.824632 0.261502 0.051686
0.851465 0.273899 0.072104
0.875664 0.287107 0.093429
0.897653 0.301971 0.115699
0.918743 0.318438 0.138882
0.940406 0.337504 0.164381
0.965403 0.361232 0.192931
0.994885 0.390373 0.225192
0.011040 0.144241 0.019714
0.029177 0.146981 0.018137
0.057439 0.147523 0.018926
0.093011 0.145891 0.023657
0.131499 0.145068 0.033909
0.175360 0.149937 0.045463
0.231113 0.163897 0.053002
0.299760 0.183513 0.050348
0.375112 0.203033 0.040217
0.448352 0.219444 0.028389
0.514387 0.232111 0.018926
0.574243 0.241677 0.012617
0.627426 0.249458 0.011829
0.674370 0.256378 0.014194
0.716636 0.263376 0.021292
0.754955 0.271140 0.032332
0.789353 0.279993 0.047596
0.820187 0.289433 0.065085
0.847571 0.299760 0.084261
0.871880 0.311339 0.104163
0.893742 0.324344 0.124965
0.914830 0.338893 0.147794
0.936729 0.355555 0.172856
0.961457 0.377178 0.200706
0.990469 0.404161 0.232443
0.005520 0.191499 0.011040
0.016560 0.196960 0.009463
0.042516 0.199138 0.009463
0.086072 0.198349 0.012617
0.135683 0.195560 0.021292
0.181348 0.193947 0.037063
0.228428 0.198941 0.055568
0.286587 0.212609 0.067305
0.357059 0.232277 0.066202
0.430045 0.251435 0.056196
0.498953 0.266938 0.044738
0.562417 0.278518 0.036274
0.618456 0.287237 0.032332
0.667032 0.294398 0.033909
0.710323 0.300499 0.040994
0.748863 0.306457 0.051020
0.783534 0.313103 0.064521
0.814867 0.320383 0.081010
0.842713 0.329132 0.099522
0.867200 0.338893 0.118418
0.889589 0.349868 0.137728
0.911016 0.362413 0.159218
0.932857 0.377459 0.183298
0.956665 0.397209 0.210585
0.984193 0.422233 0.241042
0.003154 0.241835 0.003943
0.007097 0.249458 0.003154
0.027600 0.252493 0.003154
0.073137 0.252040 0.004731
0.133308 0.248845 0.009463
0.188390 0.244510 0.022080
0.234913 0.242626 0.045463
0.282917 0.246998 0.072622
0.341755 0.260341 0.090463
0.409365 0.278652 0.092168
0.478319 0.296781 0.083803
0.544680 0.311339 0.073137
0.604161 0.322541 0.065646
0.655917 0.331441 0.064521
0.701505 0.337825 0.067852
0.741275 0.342703 0.074664
0.776686 0.347810 0.085622
0.808720 0.353739 0.100700
0.836969 0.360936 0.117744
0.861997 0.369118 0.135389
0.885064 0.377926 0.154133
0.906998 0.388663 0.174226
0.928578 0.402437 0.196761
0.952155 0.420436 0.222948
0.978636 0.443250 0.252644
0.001577 0.290203 0.002366
0.003154 0.298523 0.001577
0.016560 0.302460 0.001577
0.056196 0.301481 0.001577
0.121734 0.298399 0.003154
0.187762 0.294272 0.009463
0.241677 0.290459 0.028389
0.287755 0.288402 0.061056
0.336000 0.292246 0.097126
0.392073 0.304285 0.120418
0.455390 0.321861 0.124965
0.521389 0.339319 0.117405
0.583279 0.353739 0.108258
0.638749 0.364762 0.102637
0.688133 0.372368 0.101479
0.730877 0.377739 0.103784
0.767938 0.382744 0.111148
0.801255 0.388212 0.123360
0.830488 0.394208 0.138306
0.856193 0.400530 0.154650
0.879618 0.407497 0.172397
0.901326 0.416483 0.191088
0.923022 0.428689 0.212243
0.946665 0.444934 0.237515
0.972927 0.465699 0.266655
0.001577 0.337397 0.002366
0.002366 0.345632 0.001577
0.009463 0.349149 0.001577
0.040217 0.347810 0.001577
0.104542 0.344694 0.001577
0.179596 0.341544 0.003943
0.243727 0.338252 0.014194
0.295780 0.334380 0.041759
0.340910 0.331659 0.084717
0.386036 0.334921 0.127806
0.438463 0.346671 0.153875
0.498358 0.363786 0.159218
0.560025 0.380529 0.153356
0.618456 0.393676 0.145891
0.671484 0.403472 0.140597
0.717301 0.410632 0.138882
0.756894 0.416979 0.142290
0.792131 0.422559 0.150203
0.822865 0.427327 0.161698
0.849571 0.432347 0.176036
0.873294 0.438386 0.192114
0.895390 0.445924 0.209843
0.917481 0.456427 0.230111
0.941192 0.471210 0.254444
0.966836 0.490398 0.282255
0.002366 0.380159 0.002366
0.002366 0.388843 0.001577
0.006309 0.391894 0.001577
0.027600 0.390014 0.001577
0.084717 0.387035 0.002366
0.163897 0.384394 0.003154
0.237515 0.381823 0.007097
0.298399 0.378579 0.023657
0.348429 0.374452 0.061643
0.390911 0.372368 0.112919
0.433058 0.376053 0.158466
0.482479 0.387397 0.186075
0.539202 0.403041 0.193744
0.597269 0.418136 0.189433
0.651609 0.430602 0.182000
0.699707 0.440169 0.177603
0.742071 0.448352 0.177603
0.779934 0.454796 0.181566
0.812825 0.459299 0.189016
0.840961 0.464109 0.200120
0.865903 0.470000 0.214250
0.888962 0.476571 0.230780
0.911683 0.485571 0.250373
0.935177 0.499218 0.273488
0.960099 0.517051 0.299883
0.002366 0.418465 0.001577
0.002366 0.426926 0.001577
0.003943 0.429886 0.001577
0.017349 0.428129 0.002366
0.063953 0.425315 0.002366
0.141728 0.423047 0.002366
0.222948 0.421091 0.003943
0.292373 0.419124 0.011829
0.350482 0.416068 0.037852
0.398173 0.413068 0.086072
0.437997 0.411726 0.141164
0.477690 0.414821 0.188808
0.524007 0.424668 0.218381
0.576450 0.439240 0.227242
0.629643 0.453904 0.223121
0.679162 0.466059 0.217669
0.724684 0.476081 0.215156
0.765044 0.483994 0.216237
0.799600 0.489451 0.220678
0.829493 0.494766 0.228766
0.856259 0.500603 0.240086
0.880920 0.506874 0.254743
0.904367 0.515594 0.272799
0.928490 0.528273 0.295529
0.953899 0.544502 0.321634
0.002366 0.455686 0.001577
0.001577 0.462586 0.001577
0.002366 0.465410 0.001577
0.010251 0.464182 0.002366
0.046181 0.461858 0.002366
0.118081 0.459592 0.002366
0.203418 0.458197 0.002366
0.280127 0.456944 0.004731
0.345736 0.455019 0.020503
0.400616 0.452785 0.058662
0.445010 0.450388 0.113969
0.482479 0.448579 0.171474
0.519257 0.451439 0.219621
0.561962 0.461201 0.249763
0.610084 0.475379 0.259613
0.659355 0.489316 0.258001
0.706990 0.501129 0.254444
0.749412 0.510744 0.253095
0.785086 0.517998 0.255933
0.816236 0.524131 0.262225
0.844895 0.529931 0.271001
0.871108 0.536556 0.283181
0.895731 0.545508 0.298895
0.921798 0.557677 0.320155
0.949372 0.572247 0.346152
0.001577 0.492017 0.001577
0.001577 0.498093 0.001577
0.002366 0.500669 0.001577
0.007097 0.499416 0.002366
0.032332 0.497031 0.002366
0.095908 0.494699 0.001577
0.182000 0.493226 0.001577
0.263950 0.492420 0.001577
0.335785 0.491410 0.009463
0.396681 0.490128 0.035486
0.447747 0.488569 0.084717
0.489519 0.486186 0.145068
0.524007 0.484817 0.202067
0.558136 0.487958 0.249610
0.597322 0.497363 0.280794
0.642067 0.510488 0.292881
0.689184 0.523510 0.293261
0.732899 0.535227 0.291609
0.769683 0.544502 0.293640
0.802117 0.551548 0.298647
0.832747 0.557849 0.305856
0.860526 0.565135 0.316016
0.886733 0.574851 0.329573
0.914498 0.587112 0.347913
0.943282 0.600989 0.370460
0.000789 0.527842 0.001577
0.001577 0.533044 0.001577
0.001577 0.535167 0.001577
0.003943 0.533894 0.001577
0.022080 0.531276 0.002366
0.076662 0.529256 0.001577
0.160463 0.527966 0.000789
0.246379 0.527350 0.000789
0.322993 0.526856 0.003943
0.388843 0.526609 0.018137
0.445315 0.526053 0.058053
0.493092 0.524690 0.117405
0.531826 0.522513 0.177825
0.564061 0.521076 0.232939
0.594896 0.523572 0.280394
0.630674 0.531948 0.312399
0.672974 0.544266 0.326582
0.715887 0.557390 0.330234
0.753477 0.568509 0.332315
0.787223 0.576835 0.336323
0.819594 0.583983 0.342388
0.849305 0.592032 0.351708
0.877325 0.602760 0.364177
0.905867 0.615783 0.379230
0.935031 0.630232 0.397121
0.000789 0.563948 0.000789
0.001577 0.567949 0.001577
0.001577 0.569628 0.001577
0.003154 0.568565 0.001577
0.015771 0.566263 0.001577
0.061056 0.564570 0.001577
0.140880 0.563665 0.000789
0.228090 0.563155 0.000789
0.308850 0.562928 0.001577
0.379323 0.563381 0.008674
0.440092 0.563608 0.037063
0.492689 0.562984 0.090463
0.537400 0.561507 0.153615
0.573745 0.559625 0.212059
0.603175 0.558136 0.265520
0.631800 0.560082 0.312399
0.664791 0.567556 0.346464
0.701889 0.579139 0.364177
0.738164 0.590861 0.371225
0.772366 0.600676 0.375301
0.805195 0.609316 0.380529
0.835882 0.618356 0.388934
0.865254 0.629544 0.400095
0.895017 0.642737 0.412984
0.925404 0.657546 0.429248
0.001577 0.601145 0.000789
0.002366 0.603850 0.001577
0.002366 0.605197 0.002366
0.002366 0.604420 0.002366
0.011040 0.602187 0.001577
0.048985 0.600519 0.001577
0.124005 0.599630 0.000789
0.210954 0.599106 0.000789
0.293767 0.598949 0.000789
0.368155 0.599421 0.003943
0.432663 0.599996 0.021292
0.488909 0.600049 0.065085
0.538302 0.599682 0.128739
0.580396 0.598582 0.190882
0.614618 0.596532 0.246069
0.642306 0.594738 0.298523
0.667761 0.596163 0.347293
0.695704 0.602604 0.384120
0.726402 0.612382 0.404591
0.758402 0.623012 0.413904
0.790305 0.633364 0.419863
0.821093 0.643741 0.427568
0.851565 0.655263 0.436983
0.882884 0.668398 0.448352
0.915132 0.683025 0.463457
0.001577 0.638459 0.001577
0.002366 0.640050 0.001577
0.002366 0.641059 0.002366
0.001577 0.640483 0.001577
0.008674 0.638604 0.001577
0.041759 0.636767 0.001577
0.112567 0.635505 0.001577
0.198349 0.634582 0.001577
0.280927 0.634387 0.001577
0.356659 0.634825 0.002366
0.423940 0.635214 0.011040
0.483168 0.635214 0.044005
0.535711 0.635068 0.103403
0.582030 0.634387 0.169847
0.621514 0.632632 0.228428
0.653346 0.630477 0.282255
0.677957 0.628757 0.335893
0.699535 0.629397 0.386309
0.722385 0.634776 0.424588
0.748784 0.643980 0.447064
0.777696 0.654703 0.458050
0.807796 0.666301 0.465915
0.838732 0.678716 0.474112
0.871011 0.692323 0.483719
0.905041 0.707329 0.496100
0.001577 0.674910 0.003154
0.002366 0.676077 0.001577
0.002366 0.676346 0.001577
0.001577 0.675853 0.001577
0.007886 0.674685 0.001577
0.040994 0.673154 0.001577
0.110791 0.671710 0.001577
0.193541 0.670669 0.001577
0.272799 0.670261 0.001577
0.347086 0.670397 0.001577
0.415653 0.670034 0.006309
0.477481 0.669535 0.028389
0.532131 0.669489 0.082416
0.580832 0.668762 0.151788
0.623758 0.666986 0.215156
0.660373 0.665158 0.270723
0.689315 0.662817 0.324681
0.710617 0.660419 0.379230
0.727708 0.660743 0.429248
0.746503 0.665570 0.467066
0.769872 0.674055 0.488977
0.797398 0.685277 0.500405
0.827670 0.698290 0.508620
0.859446 0.713007 0.516291
0.893119 0.729213 0.524938
0.002366 0.709523 0.003943
0.002366 0.710617 0.002366
0.002366 0.710827 0.001577
0.003154 0.710239 0.001577
0.011829 0.709523 0.001577
0.049669 0.708469 0.002366
0.119755 0.707202 0.002366
0.196761 0.706398 0.001577
0.269328 0.705720 0.001577
0.339850 0.704998 0.001577
0.408432 0.703936 0.003154
0.471778 0.702913 0.018137
0.528027 0.702444 0.064521
0.578318 0.701291 0.134798
0.623360 0.699535 0.203225
0.663047 0.697946 0.262225
0.696481 0.695790 0.317518
0.721520 0.692932 0.372177
0.738284 0.690756 0.424911
0.751995 0.690538 0.472416
0.768697 0.694666 0.508298
0.791365 0.703552 0.529440
0.818966 0.715929 0.540339
0.848805 0.731080 0.546981
0.880730 0.748117 0.553465
0.003943 0.742507 0.010251
0.002366 0.743697 0.007097
0.002366 0.744014 0.004731
0.006309 0.743459 0.003154
0.024446 0.742984 0.002366
0.070533 0.742507 0.002366
0.139456 0.741713 0.002366
0.207976 0.740758 0.001577
0.271694 0.739881 0.000789
0.336538 0.738564 0.000789
0.403128 0.737003 0.001577
0.466995 0.735558 0.011829
0.524504 0.734311 0.050348
0.576395 0.732617 0.119755
0.623111 0.730877 0.192931
0.664608 0.729741 0.256969
0.700820 0.728074 0.315552
0.729782 0.725503 0.371129
0.750509 0.722919 0.423209
0.764356 0.720406 0.472345
0.776462 0.720324 0.516798
0.792533 0.725011 0.549563
0.814656 0.734552 0.567500
0.841433 0.748156 0.576670
0.871526 0.764815 0.584524
0.005520 0.773872 0.032332
0.004731 0.775750 0.026023
0.007097 0.776162 0.018926
0.018926 0.775412 0.011040
0.049669 0.775150 0.005520
0.103403 0.775450 0.002366
0.166543 0.774925 0.001577
0.225364 0.773985 0.001577
0.281193 0.773270 0.001577
0.339319 0.772253 0.001577
0.401831 0.770818 0.001577
0.465194 0.769190 0.007886
0.524318 0.767330 0.040994
0.577934 0.765273 0.108987
0.626487 0.763438 0.187972
0.669353 0.762250 0.258295
0.706906 0.760752 0.320839
0.738404 0.758286 0.377459
0.763132 0.755731 0.428609
0.780455 0.753282 0.475730
0.792423 0.751135 0.520638
0.803730 0.751292 0.559339
0.818896 0.755847 0.586197
0.840287 0.765616 0.602240
0.866714 0.779413 0.613298
0.019714 0.807085 0.068934
0.022869 0.809323 0.061056
0.033120 0.809643 0.049669
0.055568 0.808791 0.034697
0.095908 0.808578 0.019714
0.148333 0.809359 0.010251
0.201096 0.809359 0.005520
0.251132 0.808614 0.003943
0.300622 0.808365 0.003154
0.352522 0.808152 0.002366
0.408857 0.807370 0.001577
0.469715 0.805909 0.007886
0.529808 0.803837 0.040217
0.585281 0.801399 0.110791
0.635554 0.799239 0.195761
0.680052 0.797723 0.270862
0.718587 0.796022 0.335245
0.751214 0.793662 0.391448
0.778107 0.791182 0.441559
0.798951 0.789023 0.486391
0.814023 0.786487 0.527904
0.824909 0.784200 0.565643
0.834828 0.783978 0.597059
0.848505 0.787958 0.620864
0.866941 0.795841 0.638169
0.080060 0.846870 0.112919
0.088291 0.849038 0.106043
0.104163 0.849272 0.095908
0.130891 0.848305 0.081010
0.168439 0.848272 0.063382
0.210585 0.848939 0.047596
0.252040 0.849671 0.036274
0.294145 0.849604 0.028389
0.338466 0.849438 0.020503
0.384760 0.849671 0.010251
0.434162 0.849538 0.005520
0.489180 0.848639 0.015771
0.547687 0.846937 0.059868
0.603798 0.844459 0.140312
0.654890 0.842073 0.226561
0.700264 0.840354 0.300253
0.739602 0.838359 0.363002
0.772743 0.835746 0.416897
0.800248 0.833020 0.464688
0.822796 0.830317 0.506939
0.841063 0.827636 0.544325
0.853982 0.825117 0.577165
0.862128 0.822136 0.607106
0.869012 0.819525 0.634630
0.877325 0.818722 0.657918
0.197557 0.892464 0.157710
0.203225 0.895824 0.156443
0.214432 0.895824 0.153356
0.232939 0.894520 0.148063
0.258881 0.894178 0.140028
0.289433 0.894364 0.129973
0.321748 0.895793 0.116042
0.356959 0.897220 0.096315
0.396153 0.897405 0.067852
0.437529 0.897158 0.033909
0.479711 0.896972 0.014983
0.526053 0.896848 0.033909
0.579631 0.896600 0.103021
0.634338 0.894737 0.195961
0.684572 0.892402 0.276763
0.730066 0.890559 0.343858
0.770137 0.888241 0.402523
0.803730 0.884780 0.453308
0.830625 0.881142 0.497762
0.853089 0.877549 0.536436
0.872941 0.874384 0.568565
0.887896 0.872427 0.595372
0.896135 0.867880 0.621114
0.898117 0.857772 0.646362
0.897220 0.846001 0.668626
0.029966 0.029177 0.037852
0.048294 0.026023 0.038640
0.073137 0.024446 0.038640
0.106415 0.025234 0.038640
0.151261 0.026812 0.037852
0.203225 0.027600 0.035486
0.260050 0.029177 0.033120
0.324007 0.033909 0.029966
0.394828 0.043264 0.026023
0.464616 0.056820 0.019714
0.528827 0.072104 0.012617
0.586413 0.088291 0.007097
0.637831 0.104542 0.003943
0.684395 0.122061 0.002366
0.726320 0.139456 0.003154
0.763476 0.157205 0.003943
0.796457 0.174907 0.011040
0.825773 0.192727 0.025234
0.851996 0.211323 0.045463
0.876911 0.230780 0.068394
0.900587 0.250677 0.093846
0.923022 0.271694 0.120087
0.944817 0.294901 0.145891
0.969273 0.321748 0.174681
0.998415 0.352115 0.208538
0.032332 0.038640 0.037063
0.047596 0.037852 0.038640
0.068934 0.038640 0.040217
0.100700 0.040994 0.040217
0.143964 0.044738 0.040217
0.195359 0.048985 0.038640
0.253245 0.053651 0.035486
0.318668 0.061056 0.031543
0.389114 0.072104 0.026023
0.458491 0.084717 0.018926
0.522513 0.097930 0.011829
0.580505 0.111504 0.007097
0.632827 0.125284 0.003943
0.679607 0.140312 0.002366
0.721149 0.155677 0.002366
0.758556 0.171474 0.004731
0.792751 0.187552 0.012617
0.823108 0.204377 0.027600
0.850270 0.221554 0.047596
0.875217 0.239446 0.070533
0.898395 0.258001 0.095088
0.920332 0.277844 0.120087
0.941976 0.300130 0.146165
0.965853 0.326693 0.175585
0.994020 0.357759 0.209657
0.033120 0.051686 0.037063
0.047596 0.053002 0.039429
0.067305 0.054295 0.041759
0.096315 0.057439 0.043264
0.136563 0.062806 0.044005
0.187972 0.071060 0.041759
0.247770 0.080060 0.037852
0.315203 0.090463 0.033120
0.385945 0.102637 0.026812
0.454573 0.114664 0.018926
0.517998 0.126235 0.011829
0.576175 0.137728 0.007097
0.628905 0.149671 0.004731
0.675808 0.162434 0.003154
0.717467 0.175811 0.003154
0.755110 0.189433 0.007097
0.789792 0.203802 0.016560
0.821023 0.218913 0.031543
0.848605 0.234585 0.051686
0.873647 0.250981 0.074158
0.896600 0.268206 0.097930
0.918323 0.286847 0.122387
0.939882 0.308015 0.148333
0.963799 0.334055 0.178048
0.991691 0.364860 0.211323
0.030754 0.073649 0.040217
0.046892 0.075168 0.040217
0.066756 0.076167 0.042516
0.093429 0.078134 0.046181
0.131196 0.083803 0.048985
0.181783 0.094676 0.048294
0.244041 0.108623 0.044005
0.313571 0.123360 0.037063
0.385581 0.136855 0.029177
0.454350 0.149137 0.020503
0.517051 0.160215 0.013406
0.574741 0.170081 0.008674
0.627475 0.180036 0.005520
0.674415 0.190469 0.004731
0.716054 0.201485 0.005520
0.753866 0.212975 0.011040
0.788583 0.225192 0.022869
0.819804 0.238483 0.038640
0.847471 0.252493 0.058662
0.872587 0.267361 0.081010
0.895545 0.283181 0.104542
0.917120 0.300499 0.128429
0.938979 0.320725 0.154392
0.963348 0.345424 0.183728
0.991636 0.375207 0.216596
0.022869 0.104163 0.041759
0.040994 0.106415 0.040217
0.063953 0.107156 0.040217
0.092590 0.107156 0.044738
0.128429 0.110072 0.051686
0.176036 0.121078 0.056196
0.237030 0.137728 0.054934
0.307417 0.155677 0.047596
0.380807 0.171936 0.037063
0.450463 0.185438 0.027600
0.514069 0.196362 0.018926
0.571858 0.205521 0.012617
0.624554 0.214250 0.009463
0.671529 0.222774 0.008674
0.713844 0.231280 0.011040
0.751917 0.240564 0.018926
0.786745 0.250829 0.032332
0.817883 0.262225 0.049669
0.845733 0.274448 0.069470
0.870947 0.287626 0.090892
0.893711 0.301849 0.113270
0.915162 0.317748 0.136855
0.937402 0.336216 0.162189
0.962276 0.359451 0.190882
0.991039 0.387488 0.222600
0.012617 0.143129 0.039429
0.028389 0.146710 0.035486
0.053651 0.148333 0.033909
0.089600 0.147794 0.037852
0.129973 0.148063 0.047596
0.173999 0.153095 0.059267
0.227751 0.166065 0.066756
0.294524 0.184799 0.065085
0.367673 0.203802 0.055568
0.439395 0.219797 0.044005
0.505055 0.231945 0.033120
0.564570 0.241677 0.024446
0.618054 0.249916 0.019714
0.666027 0.257117 0.018926
0.709144 0.263950 0.022080
0.747841 0.271417 0.031543
0.782831 0.279993 0.045463
0.814304 0.289433 0.062806
0.842511 0.299636 0.082416
0.867621 0.311103 0.102253
0.890121 0.323557 0.123036
0.911896 0.337611 0.145891
0.934502 0.354345 0.171011
0.959362 0.375771 0.198941
0.987801 0.402177 0.229943
0.005520 0.192114 0.031543
0.014983 0.197358 0.027600
0.038640 0.199532 0.025234
0.081950 0.199138 0.026812
0.132708 0.197159 0.035486
0.179596 0.195961 0.052347
0.226732 0.200901 0.071584
0.283708 0.214250 0.083343
0.352013 0.233105 0.082416
0.423696 0.251435 0.072622
0.491747 0.265804 0.059868
0.554334 0.277169 0.048294
0.610238 0.286066 0.040994
0.659541 0.293387 0.038640
0.703510 0.299513 0.041759
0.742785 0.305615 0.050348
0.778070 0.312399 0.062806
0.809997 0.319813 0.079102
0.838427 0.328359 0.097529
0.863432 0.338039 0.116385
0.886576 0.348841 0.135977
0.908888 0.361232 0.157710
0.931355 0.376429 0.182000
0.955468 0.396241 0.209285
0.983096 0.421091 0.239446
0.002366 0.242941 0.022869
0.006309 0.249916 0.019714
0.024446 0.252945 0.016560
0.068394 0.252191 0.015771
0.128739 0.249152 0.021292
0.185438 0.245291 0.037063
0.232939 0.243570 0.062806
0.281193 0.248231 0.089600
0.338999 0.261502 0.106043
0.405620 0.279190 0.107156
0.473335 0.296031 0.097529
0.538242 0.309920 0.085170
0.597322 0.320725 0.074664
0.649252 0.329243 0.069470
0.694969 0.335569 0.069470
0.735518 0.341016 0.074158
0.771725 0.346567 0.083803
0.804481 0.352624 0.098330
0.833191 0.359649 0.115355
0.858691 0.367866 0.133009
0.882378 0.376804 0.151788
0.904980 0.387850 0.172167
0.927186 0.401658 0.195359
0.951181 0.419699 0.222078
0.978222 0.442406 0.251889
0.001577 0.291354 0.015771
0.003154 0.299142 0.013406
0.014194 0.302216 0.010251
0.051686 0.301359 0.008674
0.116042 0.298399 0.011040
0.183513 0.294524 0.021292
0.239126 0.290587 0.044005
0.286196 0.289046 0.078619
0.334272 0.293387 0.113270
0.389744 0.305373 0.134501
0.452038 0.322088 0.137437
0.516798 0.338573 0.128739
0.577989 0.352013 0.117405
0.632973 0.362315 0.108623
0.681785 0.369981 0.103784
0.724889 0.375959 0.104163
0.763170 0.381362 0.109712
0.797289 0.386763 0.121078
0.826947 0.392697 0.135977
0.853089 0.399135 0.152312
0.877166 0.406389 0.170081
0.899754 0.415902 0.189225
0.922097 0.428369 0.210954
0.946146 0.444857 0.237030
0.972815 0.465194 0.266513
0.001577 0.338573 0.011829
0.002366 0.346152 0.009463
0.008674 0.348943 0.007097
0.037063 0.347706 0.005520
0.098729 0.344799 0.005520
0.173999 0.341333 0.010251
0.239926 0.337825 0.026023
0.293514 0.334272 0.057439
0.339425 0.332424 0.101479
0.384942 0.336323 0.142009
0.436749 0.347913 0.165345
0.496034 0.364177 0.170081
0.557160 0.379788 0.162923
0.614314 0.392252 0.152835
0.666027 0.401831 0.144241
0.711834 0.409111 0.140028
0.752424 0.415321 0.141728
0.788766 0.420846 0.148869
0.820013 0.425960 0.159966
0.846937 0.431158 0.174454
0.871301 0.437607 0.190882
0.894178 0.445696 0.208912
0.917240 0.456796 0.229775
0.941308 0.471849 0.254294
0.967341 0.490398 0.282123
0.001577 0.381546 0.008674
0.002366 0.389294 0.007097
0.005520 0.392162 0.005520
0.025234 0.390462 0.003943
0.080060 0.387397 0.003154
0.157963 0.384394 0.004731
0.232939 0.381546 0.013406
0.295153 0.378299 0.036274
0.346775 0.375018 0.078134
