bundles/resolve-cinematic-luts/Gamut/Stratus/MS Copper.cube
TITLE "Generated by 3D LUT Creator Pro (c) Oleg Sharonov"
LUT_3D_SIZE 5
#INPUTGAMMA sRGB
#IMAGEPROFILE sRGB
#OUTPUTGAMMA sRGB
0.028389 0.023657 0.017349
0.271278 0.026812 0.025234
0.651232 0.089600 0.002366
0.859446 0.209098 0.048985
1.000000 0.354547 0.210954
0.005520 0.191499 0.011040
0.228428 0.198941 0.055568
0.618456 0.287237 0.032332
0.842713 0.329132 0.099522
0.984193 0.422233 0.241042
0.002366 0.455686 0.001577
0.203418 0.458197 0.002366
0.519257 0.451439 0.219621
0.785086 0.517998 0.255933
0.949372 0.572247 0.346152
0.001577 0.674910 0.003154
0.110791 0.671710 0.001577
0.532131 0.669489 0.082416
0.727708 0.660743 0.429248
0.893119 0.729213 0.524938
0.197557 0.892464 0.157710
0.321748 0.895793 0.116042
0.579631 0.896600 0.103021
0.830625 0.881142 0.497762
0.897220 0.846001 0.668626
0.001577 0.095088 0.199335
0.202840 0.007886 0.205901
0.590113 0.034697 0.144517
0.829493 0.223641 0.147253
0.993966 0.355152 0.210214
0.004731 0.203225 0.194149
0.214613 0.214613 0.201679
0.567050 0.267079 0.195158
0.818826 0.335461 0.192114
0.980346 0.421254 0.240883
0.001577 0.460105 0.239926
0.182866 0.460471 0.191499
0.512410 0.464471 0.315552
0.776237 0.527165 0.325912
0.949372 0.572192 0.345840
0.003154 0.678983 0.246379
0.156443 0.677599 0.196960
0.517682 0.672252 0.225364
0.724889 0.670261 0.477481
0.895328 0.729132 0.525186
0.243570 0.893213 0.327360
0.326693 0.894147 0.278383
0.549739 0.899322 0.111504
0.824632 0.882315 0.488094
0.900279 0.846435 0.662495
0.001577 0.279592 0.508104
0.006309 0.177156 0.511962
0.499614 0.003154 0.489383
0.816727 0.010251 0.380344
0.974483 0.352827 0.388753
0.052347 0.384760 0.480890
0.194352 0.362413 0.493092
0.489180 0.165345 0.470214
0.792204 0.216237 0.383111
0.963377 0.428609 0.409788
0.112567 0.475168 0.466851
0.287107 0.482962 0.469858
0.473830 0.460544 0.445772
0.750940 0.513878 0.455835
0.944411 0.586197 0.471920
0.223295 0.683733 0.520011
0.326024 0.685805 0.513304
0.476501 0.675718 0.446913
0.721973 0.692454 0.574906
0.905286 0.747212 0.585982
0.321294 0.888304 0.561279
0.402004 0.890809 0.552420
0.533834 0.899168 0.475308
0.801435 0.892745 0.514642
0.899044 0.847772 0.661804
0.078134 0.468214 0.693409
0.050348 0.433295 0.694969
0.254444 0.249305 0.701419
0.726116 0.002366 0.686025
0.989163 0.082881 0.611158
0.180693 0.520888 0.678671
0.280661 0.516228 0.684748
0.345736 0.376804 0.693669
0.726279 0.104542 0.680764
0.980236 0.276220 0.613400
0.349046 0.609828 0.659633
0.432268 0.619862 0.661942
0.529747 0.602083 0.669172
0.713468 0.438463 0.664333
0.960071 0.509780 0.619662
0.341227 0.694363 0.666529
0.420518 0.696308 0.665295
0.573634 0.703850 0.668535
0.701291 0.693062 0.656802
0.939008 0.743261 0.666301
0.121734 0.870979 0.718255
0.257854 0.873967 0.715929
0.494766 0.888555 0.712589
0.716095 0.915644 0.661066
0.908888 0.875441 0.740917
0.511770 0.701718 0.858166
0.509780 0.701718 0.858593
0.459885 0.619612 0.872234
0.608135 0.355957 0.909040
0.996962 0.000000 0.913712
0.514705 0.704913 0.861769
0.514769 0.704828 0.862356
0.474535 0.633705 0.875984
0.628363 0.454945 0.905959
0.995290 0.014194 0.924988
0.543732 0.739682 0.857345
0.544384 0.741633 0.859675
0.582573 0.744093 0.864571
0.655637 0.630723 0.898303
0.988401 0.400703 0.921708
0.585928 0.807512 0.841501
0.586359 0.806765 0.841939
0.589044 0.804838 0.840658
0.713760 0.806230 0.878918
0.970530 0.664883 0.927245
0.487686 0.867362 0.840320
0.488298 0.868753 0.841737
0.475730 0.870302 0.839611
0.627525 0.887896 0.857016
0.926207 0.926563 0.906631
