bundles/resolve-cinematic-luts/Gamut/Stratus/MS Copper.cube
TITLE "Generated by 3D LUT Creator Pro (c) Oleg Sharonov"
LUT_3D_SIZE 9
#INPUTGAMMA sRGB
#IMAGEPROFILE sRGB
#OUTPUTGAMMA sRGB
0.028389 0.023657 0.017349
0.109712 0.029966 0.026812
0.271278 0.026812 0.025234
0.479154 0.039429 0.013406
0.651232 0.089600 0.002366
0.775000 0.149671 0.004731
0.859446 0.209098 0.048985
0.928460 0.271833 0.125284
1.000000 0.354547 0.210954
0.026812 0.076167 0.026023
0.094676 0.075168 0.035486
0.253095 0.107892 0.033909
0.466491 0.145891 0.011040
0.638556 0.174681 0.002366
0.762787 0.209285 0.011829
0.853850 0.251132 0.061643
0.920960 0.300868 0.130891
0.995533 0.377926 0.218736
0.005520 0.191499 0.011040
0.086072 0.198349 0.012617
0.228428 0.198941 0.055568
0.430045 0.251435 0.056196
0.618456 0.287237 0.032332
0.748863 0.306457 0.051020
0.842713 0.329132 0.099522
0.911016 0.362413 0.159218
0.984193 0.422233 0.241042
0.001577 0.337397 0.002366
0.040217 0.347810 0.001577
0.243727 0.338252 0.014194
0.386036 0.334921 0.127806
0.560025 0.380529 0.153356
0.717301 0.410632 0.138882
0.822865 0.427327 0.161698
0.895390 0.445924 0.209843
0.966836 0.490398 0.282255
0.002366 0.455686 0.001577
0.010251 0.464182 0.002366
0.203418 0.458197 0.002366
0.400616 0.452785 0.058662
0.519257 0.451439 0.219621
0.659355 0.489316 0.258001
0.785086 0.517998 0.255933
0.871108 0.536556 0.283181
0.949372 0.572247 0.346152
0.000789 0.563948 0.000789
0.003154 0.568565 0.001577
0.140880 0.563665 0.000789
0.379323 0.563381 0.008674
0.537400 0.561507 0.153615
0.631800 0.560082 0.312399
0.738164 0.590861 0.371225
0.835882 0.618356 0.388934
0.925404 0.657546 0.429248
0.001577 0.674910 0.003154
0.001577 0.675853 0.001577
0.110791 0.671710 0.001577
0.347086 0.670397 0.001577
0.532131 0.669489 0.082416
0.660373 0.665158 0.270723
0.727708 0.660743 0.429248
0.797398 0.685277 0.500405
0.893119 0.729213 0.524938
0.005520 0.773872 0.032332
0.018926 0.775412 0.011040
0.166543 0.774925 0.001577
0.339319 0.772253 0.001577
0.524318 0.767330 0.040994
0.669353 0.762250 0.258295
0.763132 0.755731 0.428609
0.803730 0.751292 0.559339
0.866714 0.779413 0.613298
0.197557 0.892464 0.157710
0.232939 0.894520 0.148063
0.321748 0.895793 0.116042
0.437529 0.897158 0.033909
0.579631 0.896600 0.103021
0.730066 0.890559 0.343858
0.830625 0.881142 0.497762
0.887896 0.872427 0.595372
0.897220 0.846001 0.668626
0.026023 0.045463 0.074664
0.091745 0.022080 0.085170
0.251132 0.011040 0.071060
0.443404 0.049669 0.056196
0.616743 0.115010 0.038640
0.748627 0.170547 0.026023
0.843385 0.221903 0.049669
0.918172 0.277979 0.118753
0.995911 0.352827 0.207036
0.037852 0.077646 0.075669
0.092168 0.083803 0.081481
0.234749 0.101867 0.081010
0.433925 0.143964 0.070533
0.608649 0.182866 0.050348
0.740997 0.219974 0.037852
0.840219 0.259320 0.064521
0.913561 0.305132 0.128118
0.988591 0.376241 0.215156
0.008674 0.189433 0.092590
0.076167 0.201096 0.082416
0.223987 0.207224 0.111859
0.414488 0.252342 0.120418
0.597006 0.285152 0.094676
0.732698 0.306938 0.080060
0.832747 0.331222 0.103403
0.905745 0.363394 0.157458
0.982107 0.421826 0.239926
0.001577 0.339744 0.084261
0.030754 0.347396 0.063382
0.228428 0.338039 0.072622
0.382376 0.340699 0.178270
0.552536 0.382468 0.196960
0.704573 0.410041 0.167494
0.815780 0.426443 0.167256
0.892433 0.446381 0.208912
0.966695 0.490803 0.282255
0.000789 0.459959 0.065085
0.008674 0.467641 0.048294
0.189225 0.459372 0.024446
0.395712 0.455316 0.121734
0.517871 0.456796 0.255190
0.655403 0.492151 0.284628
0.781718 0.517808 0.264950
0.869754 0.536375 0.283444
0.949573 0.573135 0.345007
0.001577 0.567780 0.058053
0.003943 0.574022 0.043264
0.142009 0.568117 0.014194
0.373317 0.565981 0.046892
0.535288 0.564174 0.201291
0.631066 0.564118 0.340169
0.737043 0.592511 0.382560
0.835406 0.618607 0.389384
0.925553 0.657174 0.429408
0.001577 0.676839 0.074158
0.003154 0.679028 0.054295
0.122712 0.675808 0.018137
0.341650 0.672929 0.008674
0.530053 0.671257 0.138595
0.658846 0.667351 0.300868
0.726320 0.662357 0.439550
0.797253 0.685673 0.499218
0.893057 0.728278 0.526300
0.006309 0.775225 0.145891
0.040217 0.775675 0.121078
0.181566 0.774211 0.056820
0.339106 0.772404 0.007097
0.519697 0.768849 0.079102
0.667168 0.762749 0.275404
0.762710 0.755459 0.429328
0.803336 0.751331 0.558766
0.866163 0.780083 0.612382
0.200120 0.894053 0.219797
0.232443 0.893368 0.195359
0.311221 0.895452 0.146710
0.424345 0.897220 0.046892
0.567444 0.897591 0.085170
0.722302 0.889777 0.338573
0.827636 0.881301 0.494298
0.888178 0.872973 0.595213
0.899291 0.846736 0.664057
0.001577 0.095088 0.199335
0.022080 0.055568 0.209285
0.202840 0.007886 0.205901
0.428769 0.002366 0.178270
0.590113 0.034697 0.144517
0.722261 0.137437 0.139742
0.829493 0.223641 0.147253
0.911077 0.286717 0.159966
0.993966 0.355152 0.210214
0.014983 0.137147 0.181130
0.062806 0.129049 0.192319
0.207036 0.079102 0.199335
0.412984 0.070533 0.176709
0.577440 0.129049 0.158717
0.715263 0.202647 0.157458
0.825290 0.262801 0.160711
0.905531 0.312868 0.170779
0.986382 0.377646 0.218381
0.004731 0.203225 0.194149
0.094676 0.215877 0.200120
0.214613 0.214613 0.201679
0.394208 0.232277 0.201291
0.567050 0.267079 0.195158
0.708891 0.300868 0.191088
0.818826 0.335461 0.192114
0.898890 0.369502 0.198349
0.980346 0.421254 0.240883
0.002366 0.331550 0.231280
0.063382 0.342808 0.229103
0.208538 0.339956 0.202067
0.371320 0.346464 0.245913
0.541056 0.385398 0.265235
0.690930 0.412566 0.252342
0.804159 0.432584 0.245602
0.886733 0.451888 0.247616
0.965713 0.490195 0.282917
0.001577 0.460105 0.239926
0.026023 0.468572 0.232609
0.182866 0.460471 0.191499
0.374641 0.454573 0.213705
0.512410 0.464471 0.315552
0.650196 0.501852 0.341650
0.776237 0.527165 0.325912
0.865709 0.542188 0.318438
0.949372 0.572192 0.345840
0.002366 0.571079 0.236868
0.012617 0.577000 0.228428
0.158215 0.570689 0.187552
0.351198 0.564514 0.168439
0.526362 0.565925 0.273350
0.629692 0.572969 0.391358
0.734955 0.603435 0.427086
0.833123 0.624305 0.414821
0.927779 0.656290 0.429088
0.003154 0.678983 0.246379
0.015771 0.680897 0.235730
0.156443 0.677599 0.196960
0.330893 0.673470 0.135389
0.517682 0.672252 0.225364
0.654890 0.670850 0.355756
0.724889 0.670261 0.477481
0.796747 0.690058 0.514133
0.895328 0.729132 0.525186
0.057439 0.775187 0.283181
0.108987 0.775450 0.268908
0.218381 0.774060 0.233270
0.343962 0.772479 0.153356
0.505641 0.769607 0.174454
0.662265 0.764395 0.325465
0.761290 0.757474 0.451364
0.803336 0.752307 0.562076
0.868591 0.781050 0.612025
0.243570 0.893213 0.327360
0.264522 0.891716 0.312046
0.326693 0.894147 0.278383
0.420682 0.897467 0.198744
0.549739 0.899322 0.111504
0.710701 0.891903 0.323331
0.824632 0.882315 0.488094
0.886733 0.873967 0.595160
0.900279 0.846435 0.662495
0.000789 0.183513 0.366996
0.001577 0.147794 0.367673
0.073649 0.062227 0.370077
0.363688 0.003943 0.363100
0.575569 0.000789 0.319241
0.708258 0.017349 0.258881
0.813671 0.141164 0.246069
0.899075 0.274311 0.265804
0.984987 0.363884 0.292118
0.001577 0.229439 0.341861
0.014194 0.218736 0.352013
0.099916 0.146710 0.362904
0.359748 0.042516 0.354244
0.562984 0.020503 0.311103
0.698075 0.074158 0.262657
0.806765 0.207600 0.258881
0.892994 0.307058 0.276356
0.979299 0.384303 0.296156
0.006309 0.291991 0.340062
0.114664 0.300868 0.348119
0.203802 0.276491 0.349765
0.354951 0.200901 0.340593
0.542247 0.190882 0.304648
0.680319 0.239926 0.281725
0.797470 0.312634 0.289175
0.887079 0.370938 0.300376
0.974789 0.429168 0.315784
0.007886 0.350175 0.345216
0.120748 0.360541 0.350687
0.238965 0.358656 0.343229
0.352420 0.345840 0.333295
0.514832 0.357958 0.331222
0.662587 0.391000 0.330564
0.785271 0.426926 0.336000
0.874929 0.459226 0.342177
0.961316 0.499020 0.350073
0.022869 0.453308 0.367480
0.128739 0.463602 0.375959
0.237839 0.462731 0.362413
0.349970 0.455686 0.331222
0.496034 0.466923 0.377739
0.639905 0.506680 0.403903
0.766074 0.535106 0.402004
0.856259 0.554681 0.400269
0.944383 0.582084 0.400877
0.048294 0.571580 0.389834
0.138017 0.580341 0.390821
0.234749 0.576230 0.371415
0.341016 0.567275 0.325912
0.500274 0.565078 0.350380
0.624901 0.583496 0.451439
0.732778 0.617903 0.482824
0.829150 0.639665 0.475730
0.926889 0.664424 0.466563
0.108623 0.682272 0.401831
0.169847 0.684086 0.400790
0.244979 0.682051 0.378393
0.343124 0.677018 0.331002
0.487890 0.672071 0.317748
0.644171 0.675090 0.421907
0.724069 0.681519 0.528273
0.797832 0.703808 0.555605
0.898488 0.733424 0.541771
0.226049 0.775900 0.428849
0.247461 0.774962 0.419452
0.294145 0.774699 0.396593
0.370556 0.773609 0.351402
0.484886 0.770705 0.301971
0.648022 0.767216 0.389114
0.757087 0.763017 0.500076
0.805124 0.759212 0.588240
0.872009 0.782720 0.616137
0.304648 0.891310 0.453829
0.317979 0.890559 0.443250
0.361133 0.892340 0.424183
0.432663 0.896197 0.378393
0.534985 0.901049 0.301236
0.687168 0.896042 0.341861
0.815359 0.885127 0.480405
0.885442 0.875792 0.591713
0.899785 0.847471 0.664057
0.001577 0.279592 0.508104
0.000789 0.261502 0.507198
0.006309 0.177156 0.511962
0.216596 0.067305 0.511770
0.499614 0.003154 0.489383
0.692323 0.001577 0.442713
0.816727 0.010251 0.380344
0.894147 0.163411 0.353131
0.974483 0.352827 0.388753
0.000789 0.316479 0.492084
0.003154 0.311457 0.497828
0.021292 0.252342 0.506290
0.233105 0.140312 0.504208
0.494833 0.017349 0.481374
0.685849 0.007097 0.437841
0.808010 0.059267 0.379323
0.888523 0.222948 0.359649
0.968685 0.378206 0.393320
0.052347 0.384760 0.480890
0.121078 0.388483 0.490195
0.194352 0.362413 0.493092
0.278652 0.268066 0.490195
0.489180 0.165345 0.470214
0.671890 0.152312 0.428129
0.792204 0.216237 0.383111
0.877421 0.321407 0.379602
0.963377 0.428609 0.409788
0.110432 0.428689 0.471565
0.195158 0.438852 0.480058
0.288918 0.436280 0.474112
0.356659 0.403386 0.466491
0.477131 0.328248 0.451064
0.644553 0.326359 0.420109
0.769115 0.371034 0.403559
0.863204 0.436593 0.415902
0.955269 0.500142 0.433058
0.112567 0.475168 0.466851
0.192931 0.485160 0.474323
0.287107 0.482962 0.469858
0.383936 0.477481 0.459372
0.473830 0.460544 0.445772
0.618909 0.477411 0.449183
0.750940 0.513878 0.455835
0.848405 0.548919 0.464977
0.944411 0.586197 0.471920
0.165105 0.566994 0.490331
0.227921 0.575955 0.497031
0.306217 0.576065 0.493159
0.390283 0.574243 0.478946
0.473971 0.565474 0.445924
0.610698 0.585658 0.497762
0.730025 0.625000 0.529624
0.828187 0.649535 0.529931
0.927660 0.675763 0.526856
0.223295 0.683733 0.520011
0.264808 0.685893 0.520638
0.326024 0.685805 0.513304
0.400703 0.683246 0.493695
0.476501 0.675718 0.446913
0.619411 0.676346 0.478040
0.721973 0.692454 0.574906
0.802476 0.718462 0.597585
0.905286 0.747212 0.585982
0.270862 0.776087 0.531948
0.304527 0.775825 0.531704
0.365444 0.775675 0.528027
0.430045 0.775525 0.508168
0.493159 0.772969 0.458418
0.616793 0.770062 0.451364
0.749844 0.769683 0.548743
0.807654 0.772065 0.626536
0.881966 0.794134 0.642067
0.321294 0.888304 0.561279
0.349765 0.889213 0.556872
0.402004 0.890809 0.552420
0.458785 0.894831 0.525620
0.533834 0.899168 0.475308
0.652595 0.902464 0.426202
0.801435 0.892745 0.514642
0.883738 0.879459 0.597690
0.899044 0.847772 0.661804
0.001577 0.368829 0.614009
0.001577 0.364470 0.612280
0.001577 0.303191 0.617651
0.063953 0.209285 0.619762
0.370173 0.072104 0.612840
0.618255 0.002366 0.593997
0.797072 0.001577 0.551606
0.899847 0.033909 0.496633
0.983397 0.248845 0.476081
0.000789 0.392875 0.604834
0.004731 0.394917 0.607673
0.019714 0.357559 0.612280
0.101479 0.263807 0.614770
0.378672 0.132407 0.607570
0.615530 0.009463 0.588883
0.791328 0.005520 0.548509
0.895141 0.094262 0.496433
0.977973 0.288918 0.476991
0.081481 0.457313 0.593785
0.133608 0.458491 0.599525
0.212609 0.440169 0.601667
0.241518 0.363492 0.604213
0.396329 0.256230 0.598740
0.612739 0.132708 0.581704
0.783016 0.134798 0.542782
0.885347 0.232111 0.497496
0.968881 0.362020 0.485434
0.227412 0.508104 0.577660
0.277709 0.515404 0.584254
0.337075 0.512857 0.583550
0.381454 0.484268 0.585604
0.429248 0.394740 0.583604
0.603902 0.309564 0.568509
0.767444 0.312634 0.534561
0.867880 0.369214 0.502114
0.955497 0.463094 0.504990
0.240086 0.543673 0.573413
0.289946 0.550848 0.578866
0.358855 0.552362 0.575955
0.441019 0.552362 0.570522
0.491141 0.521451 0.566150
0.592617 0.449710 0.554623
0.744963 0.452038 0.528150
0.846034 0.499878 0.519948
0.945135 0.567275 0.535288
0.241677 0.591979 0.575238
0.285413 0.596585 0.577110
0.352319 0.596479 0.575844
0.435575 0.597164 0.572803
0.513814 0.593785 0.564570
0.591873 0.579194 0.553523
0.720984 0.597269 0.561450
0.826498 0.632925 0.570019
0.934678 0.670578 0.576615
0.276763 0.678448 0.600258
0.311103 0.680542 0.600101
0.375865 0.682494 0.600780
0.457534 0.685189 0.601041
0.529808 0.685629 0.588990
0.599421 0.678894 0.560481
0.715012 0.697946 0.612127
0.811024 0.729538 0.634922
0.919013 0.756584 0.627475
0.318438 0.773948 0.624852
0.344903 0.773195 0.622463
0.399048 0.774925 0.622613
0.471778 0.777098 0.617903
0.541473 0.777584 0.603850
0.605817 0.774587 0.562814
0.730472 0.775750 0.593891
0.814093 0.787223 0.665707
0.896290 0.811024 0.676615
0.080060 0.882315 0.626882
0.170081 0.884811 0.626091
0.297031 0.887707 0.627870
0.427006 0.891153 0.627870
0.532131 0.897653 0.613349
0.626734 0.903508 0.566431
0.768204 0.905041 0.563098
0.878122 0.891466 0.635845
0.899970 0.856028 0.683512
0.078134 0.468214 0.693409
0.075669 0.465987 0.692845
0.050348 0.433295 0.694969
0.022869 0.340275 0.701419
0.254444 0.249305 0.701419
0.503555 0.083343 0.699750
0.726116 0.002366 0.686025
0.881079 0.001577 0.651232
0.989163 0.082881 0.611158
0.080536 0.471352 0.690625
0.093846 0.475870 0.691584
0.120748 0.456870 0.692584
0.115010 0.382376 0.697773
0.286587 0.293134 0.699750
0.507069 0.134204 0.697558
0.727544 0.006309 0.685497
0.880476 0.014194 0.650950
0.987010 0.167731 0.613247
0.180693 0.520888 0.678671
0.217133 0.523572 0.682981
0.280661 0.516228 0.684748
0.292754 0.465771 0.689621
0.345736 0.376804 0.693669
0.518942 0.250220 0.691975
0.726279 0.104542 0.680764
0.874288 0.152312 0.647785
0.980236 0.276220 0.613400
0.312399 0.575844 0.665158
0.340804 0.579194 0.668444
0.380159 0.576835 0.671122
0.426121 0.560994 0.676749
0.433847 0.491545 0.681785
0.535590 0.389744 0.682804
0.721438 0.294775 0.673154
0.864896 0.321407 0.643264
0.970697 0.394917 0.616945
0.349046 0.609828 0.659633
0.380252 0.615328 0.661389
0.432268 0.619862 0.661942
0.493963 0.623211 0.664103
0.529747 0.602083 0.669172
0.563325 0.520450 0.672703
0.713468 0.438463 0.664333
0.850436 0.455761 0.638073
0.960071 0.509780 0.619662
0.352319 0.645744 0.662080
0.377459 0.647691 0.661112
0.429487 0.651327 0.661527
0.501852 0.657360 0.661896
0.573690 0.662357 0.661343
0.616541 0.639713 0.661850
0.701975 0.573523 0.652689
0.829046 0.583008 0.634825
0.948855 0.626190 0.631996
0.341227 0.694363 0.666529
0.365833 0.694103 0.664974
0.420518 0.696308 0.665295
0.496167 0.700135 0.667168
0.573634 0.703850 0.668535
0.640194 0.705210 0.665661
0.701291 0.693062 0.656802
0.812684 0.710323 0.663185
0.939008 0.743261 0.666301
0.308135 0.763744 0.684572
0.340804 0.763974 0.684263
0.408517 0.766493 0.686729
0.495100 0.771196 0.690625
0.575182 0.777584 0.693973
0.641347 0.784348 0.688001
0.707582 0.783460 0.662725
0.817218 0.801327 0.706863
0.919013 0.828737 0.720654
0.121734 0.870979 0.718255
0.162679 0.871816 0.716511
0.257854 0.873967 0.715929
0.385672 0.880127 0.715887
0.494766 0.888555 0.712589
0.597900 0.901911 0.700564
0.716095 0.915644 0.661066
0.859249 0.909314 0.682937
0.908888 0.875441 0.740917
0.330344 0.573800 0.764471
0.329904 0.572358 0.762557
0.322088 0.567163 0.761675
0.253396 0.500735 0.770137
0.259028 0.394828 0.778480
0.428289 0.291864 0.784348
0.636379 0.084261 0.788142
0.838529 0.002366 0.780529
0.980814 0.003943 0.751761
0.329794 0.572414 0.762864
0.332860 0.574354 0.764471
0.327583 0.567780 0.763591
0.287496 0.512410 0.769683
0.298275 0.425234 0.777920
0.444934 0.331112 0.783127
0.642450 0.129357 0.787664
0.838461 0.004731 0.781199
0.982656 0.031543 0.755343
0.349046 0.589846 0.758324
0.355253 0.593573 0.759906
0.372843 0.594102 0.759251
0.385490 0.566375 0.763744
0.377272 0.491680 0.772178
0.474041 0.405705 0.779077
0.648354 0.239286 0.784459
0.837580 0.086520 0.778816
0.978830 0.179816 0.754255
0.401918 0.632876 0.747487
0.409026 0.635845 0.749059
0.429009 0.637009 0.748824
0.476711 0.632925 0.754994
0.481513 0.586628 0.764050
0.518502 0.506420 0.773346
0.657220 0.384760 0.779375
0.834794 0.285936 0.774549
0.971255 0.333404 0.751839
0.453829 0.672478 0.736241
0.460617 0.674101 0.736602
0.480959 0.676749 0.738164
0.522949 0.679741 0.743539
0.565248 0.671212 0.753710
0.575789 0.612178 0.764509
0.665844 0.516038 0.772178
0.827980 0.433847 0.769266
0.964109 0.464544 0.750901
0.448654 0.702145 0.735638
0.457608 0.702231 0.735357
0.487277 0.705635 0.735598
0.542545 0.712924 0.738404
0.602344 0.719911 0.743776
0.640675 0.707202 0.756584
0.680186 0.637928 0.765693
0.816061 0.569293 0.762404
0.958625 0.584686 0.748902
0.418877 0.734311 0.739243
0.431317 0.734391 0.739083
0.466563 0.737043 0.739802
0.528888 0.742825 0.742031
0.598844 0.751174 0.746108
0.666392 0.759944 0.752190
0.714762 0.744805 0.759520
0.804374 0.688221 0.755847
0.960580 0.691758 0.745595
0.359054 0.776874 0.744528
0.375583 0.777098 0.744845
0.420518 0.779636 0.746384
0.494432 0.784052 0.749177
0.575182 0.791255 0.754994
0.653861 0.800536 0.763285
0.731444 0.810068 0.768622
0.808543 0.803228 0.764547
0.948135 0.819036 0.770894
0.289690 0.858100 0.777734
0.288660 0.858265 0.777808
0.291099 0.860559 0.776874
0.328137 0.865514 0.778630
0.458859 0.873230 0.787407
0.587703 0.887707 0.795732
0.703723 0.906662 0.798229
0.819804 0.923767 0.774098
0.919073 0.901080 0.817638
0.511770 0.701718 0.858166
0.510937 0.701889 0.858593
0.509780 0.701718 0.858593
0.502377 0.692584 0.860428
0.459885 0.619612 0.872234
0.468500 0.499416 0.894364
0.608135 0.355957 0.909040
0.800176 0.068934 0.922067
0.996962 0.000000 0.913712
0.511642 0.703084 0.860003
0.510873 0.702572 0.859511
0.510809 0.702530 0.859577
0.504469 0.692758 0.861442
0.461347 0.620864 0.876112
0.476431 0.512090 0.892464
0.615277 0.390642 0.907943
0.803658 0.107156 0.922604
0.994507 0.002366 0.922097
0.514705 0.704913 0.861769
0.514578 0.705041 0.861932
0.514769 0.704828 0.862356
0.508298 0.695876 0.862845
0.474535 0.633705 0.875984
0.500603 0.554681 0.891434
0.628363 0.454945 0.905959
0.807049 0.204950 0.923201
0.995290 0.014194 0.924988
0.520324 0.712589 0.864539
0.520638 0.713007 0.864636
0.521889 0.715138 0.863041
0.529011 0.718504 0.862421
0.538302 0.691758 0.870947
0.544798 0.624405 0.886229
0.645172 0.541592 0.902280
0.806622 0.363884 0.920751
0.993479 0.222426 0.921080
0.543732 0.739682 0.857345
0.543851 0.740240 0.859282
0.544384 0.741633 0.859675
0.549036 0.744251 0.858330
0.582573 0.744093 0.864571
0.598057 0.701889 0.881237
0.655637 0.630723 0.898303
0.804445 0.506550 0.916578
0.988401 0.400703 0.921708
0.583875 0.780343 0.847237
0.584416 0.779971 0.847438
0.583658 0.779413 0.848339
0.580778 0.777210 0.848939
0.588508 0.777210 0.850635
0.641011 0.773082 0.869141
0.672929 0.716095 0.893244
0.795406 0.632338 0.914316
0.983205 0.544976 0.927542
0.585928 0.807512 0.841501
0.586628 0.807334 0.841939
0.586359 0.806765 0.841939
0.587488 0.805909 0.841433
0.589044 0.804838 0.840658
0.638507 0.809678 0.850569
0.713760 0.806230 0.878918
0.783386 0.743737 0.910652
0.970530 0.664883 0.927245
0.548919 0.831310 0.838867
0.549388 0.831858 0.839171
0.549680 0.831995 0.839679
0.548567 0.831824 0.839273
0.550615 0.830968 0.840557
0.588186 0.834896 0.846134
0.710281 0.849371 0.857870
0.808187 0.849804 0.889902
0.960212 0.786635 0.922425
0.487686 0.867362 0.840320
0.488162 0.868301 0.841063
0.488298 0.868753 0.841737
0.486664 0.869367 0.842343
0.475730 0.870302 0.839611
0.481513 0.874576 0.842410
0.627525 0.887896 0.857016
0.799924 0.908949 0.882346
0.926207 0.926563 0.906631
