bundles/resolve-cinematic-luts/Phantom Luts/Komodo Phantom FILM LUTs G2/Komodo Phantom FILM LUTs G2/33x/WB Offset - Green Boost/EastmanRM_Komodo_WBO_Legacy_G2_33x.cube
TITLE "Generated by Resolve"
LUT_3D_SIZE 33
0.0506142 0.0584726 0.0538033
0.051133 0.0582895 0.0534371
0.0523842 0.0577859 0.0526741
0.0581674 0.0568704 0.0513619
0.0681163 0.0543069 0.0493324
0.0845045 0.0519112 0.0477607
0.10753 0.0491188 0.0472572
0.130068 0.0463722 0.0472725
0.156069 0.0448157 0.0487831
0.184649 0.0439612 0.0507515
0.220493 0.0426642 0.0527352
0.268956 0.0415961 0.0543832
0.322805 0.0401007 0.0575113
0.379828 0.0378271 0.061326
0.433448 0.0362707 0.0673533
0.477607 0.0350195 0.0742046
0.509468 0.0344244 0.081529
0.531212 0.0376135 0.0893263
0.545968 0.0414435 0.0978103
0.547951 0.0414893 0.100359
0.549325 0.0414588 0.102846
0.550576 0.041474 0.104509
0.551705 0.0414282 0.10631
0.552346 0.0415961 0.10837
0.553185 0.0417792 0.110109
0.553964 0.0419013 0.111055
0.552712 0.0413214 0.111589
0.551934 0.041001 0.112734
0.546624 0.0388952 0.11249
0.544411 0.0393378 0.115587
0.540841 0.0399023 0.119326
0.533608 0.0408789 0.126131
0.526009 0.0419013 0.133516
0.0522164 0.0577707 0.0526894
0.0516823 0.0580606 0.0530709
0.0522164 0.0577554 0.0526741
0.0570993 0.0570382 0.0515145
0.0658427 0.0550851 0.0500954
0.0805676 0.0529946 0.0491188
0.10251 0.0501106 0.0488441
0.127749 0.0467689 0.0480507
0.155749 0.0446174 0.0487221
0.185 0.0433661 0.0500801
0.220813 0.0419776 0.0517891
0.269429 0.0402838 0.0534066
0.323201 0.0390631 0.0564736
0.380179 0.0370336 0.0607919
0.431861 0.0355535 0.0670176
0.474769 0.0344854 0.0743267
0.505684 0.0341497 0.0822003
0.52903 0.0391089 0.0905013
0.54136 0.0417487 0.0985275
0.543069 0.041886 0.101839
0.54464 0.0419318 0.103883
0.545769 0.0419318 0.105913
0.54696 0.0419013 0.107607
0.547951 0.0418555 0.109178
0.548516 0.0419165 0.110552
0.54905 0.0420539 0.111849
0.549584 0.0421607 0.113039
0.550042 0.0422675 0.113817
0.550301 0.042359 0.114488
0.54905 0.0425879 0.116625
0.546212 0.0430304 0.11986
0.535286 0.0422065 0.124651
0.527749 0.0431678 0.132128
0.0522164 0.0577707 0.0526894
0.0515908 0.0580911 0.0531167
0.0520485 0.057847 0.0528115
0.0554818 0.0573739 0.0516976
0.0628214 0.0562142 0.0502632
0.0763256 0.054612 0.0497444
0.0968948 0.0521096 0.0497444
0.123003 0.0484169 0.0494087
0.152682 0.0458991 0.0494698
0.184466 0.0440375 0.05037
0.22211 0.0419928 0.0513313
0.270359 0.0396887 0.0526131
0.324254 0.0378882 0.0543832
0.380972 0.0358129 0.0576791
0.433509 0.0341039 0.0640116
0.475074 0.0332647 0.0714427
0.5066 0.0348974 0.0797284
0.528405 0.0399329 0.0875105
0.53756 0.0416114 0.0939651
0.540902 0.041825 0.0986648
0.542306 0.0419165 0.101686
0.543725 0.0419928 0.103548
0.544793 0.0419776 0.10547
0.545556 0.0419776 0.106706
0.546349 0.0419776 0.107897
0.547021 0.0419471 0.108858
0.547524 0.0419013 0.109728
0.54789 0.0419013 0.110246
0.548119 0.0419623 0.110719
0.546685 0.0421912 0.112657
0.54406 0.0425574 0.115633
0.53724 0.0434577 0.122148
0.529458 0.04448 0.12929
0.0523079 0.062211 0.052781
0.0513313 0.0626383 0.053727
0.0515297 0.0621958 0.0537575
0.0531777 0.0608988 0.052781
0.0598154 0.0609445 0.0521401
0.0708934 0.0589303 0.0509499
0.0894942 0.0555734 0.0502632
0.114992 0.0521401 0.0501106
0.146151 0.049134 0.0507668
0.180011 0.0465095 0.0509041
0.221912 0.0437934 0.0518502
0.273014 0.0412757 0.0520333
0.326925 0.0386206 0.0538033
0.38175 0.0355993 0.0555276
0.432227 0.0332494 0.0596323
0.471839 0.0321508 0.0651102
0.506218 0.0362402 0.0740215
0.525338 0.0400854 0.0805371
0.532937 0.0413825 0.0855879
0.535927 0.0416114 0.0907301
0.53872 0.0417639 0.0953841
0.540978 0.0418402 0.0987869
0.542031 0.041886 0.101137
0.542947 0.0419776 0.102785
0.543801 0.0419928 0.103655
0.544335 0.0419928 0.104585
0.544762 0.0419928 0.105394
0.545068 0.0419776 0.105837
0.545281 0.0419623 0.106126
0.544015 0.0421454 0.107759
0.541299 0.0424659 0.110582
0.534356 0.0433661 0.116915
0.526558 0.0443732 0.123568
0.0533761 0.0728161 0.0541695
0.0523384 0.0733043 0.0551461
0.0519722 0.0731518 0.0555123
0.0534981 0.071931 0.0552529
0.0579995 0.0717632 0.0544442
0.071397 0.0709392 0.0548409
0.089662 0.0687114 0.0535744
0.11487 0.0644999 0.0522774
0.143801 0.0588235 0.0517433
0.17406 0.0527504 0.0522469
0.216403 0.0477607 0.0531472
0.271931 0.0439612 0.0528878
0.329335 0.0402686 0.0539712
0.385595 0.0366064 0.0555123
0.435431 0.0337835 0.058854
0.47303 0.0323644 0.0629587
0.505241 0.0369879 0.0694743
0.521019 0.0396582 0.0746014
0.526177 0.0409094 0.077409
0.528115 0.0410773 0.0798047
0.530571 0.0412451 0.0818341
0.532937 0.0413519 0.0857404
0.534798 0.0415656 0.0889296
0.536538 0.0416114 0.0918288
0.537896 0.0417182 0.0942092
0.538888 0.0417792 0.0955978
0.539467 0.0417639 0.0966049
0.539788 0.0417639 0.0970626
0.540078 0.0417792 0.0973526
0.538537 0.0419928 0.0989548
0.535637 0.0423133 0.101762
0.529335 0.0432898 0.108263
0.521279 0.0443427 0.114778
0.0551308 0.0877241 0.0557717
0.0536965 0.0883803 0.0564584
0.0531472 0.0885023 0.0568246
0.0546426 0.0875715 0.0571145
0.0573587 0.0865492 0.0574044
0.0666361 0.0872511 0.0565652
0.0916304 0.0858473 0.0580453
0.118364 0.0829633 0.0574655
0.149813 0.0771038 0.0566262
0.180484 0.0709544 0.0565042
0.221973 0.0600595 0.0546273
0.270619 0.0505379 0.0548714
0.325002 0.0440223 0.0552529
0.385153 0.0385595 0.055848
0.437491 0.0350958 0.0587167
0.476158 0.0330816 0.0625772
0.507973 0.0373236 0.0695964
0.523873 0.0405127 0.0751049
0.526894 0.0413214 0.0761883
0.526177 0.0411536 0.0757916
0.525719 0.0410163 0.0756542
0.525109 0.0408942 0.0754864
0.525582 0.0408942 0.076173
0.526528 0.0410163 0.0774701
0.527382 0.0411078 0.0783551
0.527993 0.0411383 0.0791028
0.528283 0.0411383 0.0796063
0.528527 0.0411231 0.0800031
0.528756 0.0411231 0.0803235
0.527184 0.0413672 0.0810254
0.524193 0.0417334 0.0827649
0.517113 0.0425879 0.087892
0.508568 0.0436866 0.0935378
0.0573434 0.107973 0.0586252
0.0558785 0.108721 0.058854
0.0553445 0.10901 0.059205
0.0564279 0.108553 0.0591745
0.0601053 0.107332 0.0592203
0.0687419 0.107225 0.0592355
0.0905928 0.108186 0.0574655
0.128847 0.105943 0.059968
0.163561 0.1028 0.0623484
0.200549 0.0955825 0.0598001
0.247181 0.0825513 0.0588846
0.293034 0.0706188 0.0575265
0.340642 0.0531014 0.0542
0.388128 0.0434577 0.0559091
0.435203 0.0380102 0.059617
0.475151 0.0348974 0.063798
0.503151 0.0353704 0.0693065
0.524681 0.0414588 0.0765698
0.530114 0.0424201 0.0786145
0.529809 0.0422217 0.0782788
0.529427 0.0420691 0.0779431
0.529091 0.0419623 0.0776684
0.528725 0.041886 0.0775006
0.528313 0.0418402 0.0773632
0.528023 0.0417945 0.0773022
0.527749 0.0417487 0.0772869
0.527489 0.0417487 0.0773327
0.527306 0.0417639 0.0774548
0.527153 0.0418097 0.0776074
0.526284 0.0419318 0.0782635
0.524575 0.0421607 0.0795758
0.520409 0.042771 0.0817273
0.515648 0.0434424 0.085008
0.0652781 0.132174 0.0599222
0.0623941 0.133303 0.0603189
0.0597848 0.134325 0.0615396
0.0594186 0.134417 0.0618448
0.0630655 0.134096 0.06215
0.0704662 0.132891 0.0621958
0.0857099 0.135698 0.0635843
0.119005 0.137301 0.0618448
0.167803 0.135683 0.0666819
0.218311 0.129625 0.0697948
0.270176 0.118578 0.0655833
0.321706 0.105135 0.0633707
0.372656 0.0911574 0.0630808
0.418677 0.0758526 0.0626383
0.456382 0.051606 0.0577096
0.481559 0.0409552 0.0625315
0.497917 0.0368505 0.0700694
0.518593 0.0429389 0.0796216
0.527153 0.045304 0.0840772
0.526833 0.0451057 0.0838788
0.526604 0.0449378 0.0837568
0.526421 0.04477 0.0836805
0.526253 0.0446326 0.0836194
0.526101 0.0445563 0.0835889
0.525948 0.0445106 0.0835889
0.525795 0.04448 0.0836194
0.525673 0.0444953 0.08365
0.525628 0.0445258 0.0837262
0.525567 0.0445716 0.0838026
0.52549 0.0446326 0.0838788
0.525414 0.0447089 0.0840009
0.523812 0.0450141 0.085359
0.520668 0.0455329 0.0876326
0.0704967 0.1617 0.0647898
0.0668498 0.163027 0.065156
0.0639963 0.164126 0.0653086
0.0634012 0.164706 0.0657816
0.064622 0.164767 0.0657054
0.0729534 0.164569 0.0654917
0.0864576 0.165057 0.0667582
0.111269 0.169986 0.0690471
0.155459 0.1738 0.0676738
0.227146 0.170611 0.0733196
0.297475 0.164767 0.077821
0.359106 0.157214 0.0796826
0.416327 0.147753 0.0776226
0.46746 0.131731 0.0783093
0.508736 0.11516 0.0787518
0.534157 0.0962844 0.0789349
0.536873 0.0635996 0.0713817
0.526162 0.0474403 0.0737316
0.534752 0.0488899 0.0814069
0.533043 0.0479438 0.0829633
0.531136 0.0470893 0.0836042
0.530953 0.0469825 0.0836042
0.530831 0.0469215 0.0836347
0.530724 0.0468757 0.0836957
0.530678 0.0468605 0.0837262
0.530632 0.0468452 0.0837262
0.530678 0.0468605 0.0837262
0.530785 0.046891 0.083711
0.530922 0.046952 0.0836652
0.531044 0.047013 0.0836042
0.531182 0.0471199 0.0835584
0.529793 0.0474403 0.0844434
0.526894 0.0479744 0.0869917
0.0725719 0.197848 0.0664836
0.0681163 0.199802 0.0667735
0.0649271 0.201144 0.0663157
0.063859 0.202029 0.0660716
0.0638437 0.202213 0.066041
0.0683146 0.202869 0.0658732
0.080827 0.204807 0.0670634
0.102815 0.20856 0.069398
0.13962 0.2215 0.0742504
0.208331 0.23241 0.0749218
0.312535 0.230716 0.0827802
0.394507 0.232425 0.091722
0.470207 0.221866 0.103868
0.528298 0.217914 0.104692
0.580102 0.206271 0.106676
0.621393 0.188128 0.11577
0.642725 0.172274 0.122164
0.640711 0.155444 0.124834
0.612238 0.114977 0.105882
0.585473 0.0870527 0.0908827
0.567315 0.0717021 0.0840772
0.561532 0.065919 0.0842603
0.552789 0.0592203 0.0829175
0.5458 0.0540017 0.081239
0.539696 0.0498054 0.0789044
0.540352 0.0506142 0.0781415
0.54078 0.0511177 0.0780804
0.540246 0.0508888 0.0786145
0.539879 0.0506752 0.0790875
0.542351 0.0522316 0.0806287
0.544656 0.0538186 0.0813306
0.545464 0.0556954 0.0830854
0.545129 0.0581216 0.0860151
0.072221 0.250706 0.0655985
0.0677348 0.253117 0.0661631
0.0644846 0.254551 0.0653239
0.0629892 0.255177 0.06392
0.0622416 0.255894 0.0639963
0.0628367 0.256077 0.0636149
0.0719158 0.260807 0.0649577
0.090425 0.264179 0.0668498
0.12694 0.2766 0.0730602
0.182406 0.297917 0.0803388
0.28748 0.314931 0.0812238
0.411215 0.314855 0.0924849
0.500725 0.320668 0.100679
0.57113 0.310048 0.116381
0.632288 0.303761 0.122805
0.681056 0.302968 0.127337
0.720378 0.298039 0.135698
0.744717 0.288319 0.151781
0.75021 0.265782 0.16556
0.741497 0.248173 0.165011
0.731273 0.234699 0.16202
0.720836 0.221012 0.159487
0.711543 0.209674 0.156817
0.70457 0.20238 0.154299
0.698634 0.196567 0.151995
0.695613 0.193851 0.150515
0.695445 0.193713 0.150286
0.696742 0.194827 0.150988
0.69929 0.197314 0.152041
0.7028 0.200641 0.153185
0.70634 0.204471 0.154559
0.708125 0.208804 0.156695
0.709056 0.214435 0.161501
0.0700694 0.314427 0.0638743
0.0661326 0.316854 0.0645304
0.0627909 0.318532 0.0638743
0.0609751 0.31957 0.0609751
0.0602884 0.320638 0.0600595
0.0602579 0.32166 0.0600137
0.0624552 0.323613 0.0600443
0.0762951 0.329702 0.0617685
0.104356 0.335058 0.0645762
0.156741 0.354421 0.0714733
0.249744 0.386618 0.0814221
0.379141 0.410681 0.0855726
0.511025 0.411032 0.102464
0.595743 0.421241 0.113085
0.657206 0.419516 0.127337
0.71017 0.40824 0.142672
0.75494 0.406363 0.155657
0.784909 0.412741 0.16733
0.802152 0.415579 0.179721
0.80267 0.405676 0.180255
0.79939 0.395727 0.177646
0.797421 0.386557 0.175784
0.79469 0.379705 0.173831
0.793835 0.375784 0.173907
0.793072 0.373342 0.173754
0.792874 0.372183 0.173846
0.793362 0.373175 0.17435
0.794476 0.375509 0.175219
0.795087 0.377829 0.175418
0.796368 0.381796 0.176089
0.797787 0.38584 0.176898
0.797314 0.390799 0.1794
0.794064 0.39585 0.18436
0.063386 0.381826 0.0573739
0.059617 0.384115 0.0578927
0.0570993 0.386267 0.0576791
0.0561532 0.387961 0.0556954
0.0558785 0.390005 0.0532235
0.0561532 0.391684 0.0525673
0.0562753 0.39237 0.0521706
0.0617838 0.39527 0.0520638
0.0821393 0.401251 0.0537575
0.124834 0.41004 0.0581064
0.21117 0.439048 0.0696117
0.341619 0.484443 0.0883345
0.473136 0.507424 0.0954452
0.593362 0.506798 0.121263
0.67068 0.515129 0.136934
0.723262 0.526787 0.154116
0.762402 0.525551 0.173465
0.79263 0.530465 0.191058
0.812253 0.539422 0.205905
0.815061 0.532387 0.206241
0.815213 0.525826 0.204089
0.815106 0.520455 0.203037
0.815229 0.516335 0.202014
0.815152 0.514183 0.201266
0.815106 0.512993 0.200992
0.814969 0.512764 0.200778
0.815198 0.513832 0.201251
0.815305 0.516228 0.201892
0.815229 0.518822 0.202487
0.81503 0.521737 0.203052
0.815366 0.525963 0.203998
0.813977 0.530327 0.20708
0.81181 0.535714 0.212512
0.0617533 0.449256 0.0564126
0.0597696 0.451652 0.0573434
0.0580148 0.453666 0.0573587
0.0577096 0.455634 0.0565347
0.0573587 0.458717 0.0538796
0.0586862 0.461814 0.0528115
0.0591592 0.462455 0.0528115
0.0596628 0.462684 0.0524758
0.0735943 0.465995 0.052018
0.110155 0.472648 0.0543679
0.182864 0.487419 0.0628977
0.304112 0.529824 0.0862745
0.448356 0.575219 0.112337
0.55845 0.59263 0.120943
0.662867 0.592233 0.150164
0.735515 0.60032 0.179538
0.779217 0.614221 0.209934
0.806348 0.629389 0.239475
0.825727 0.646052 0.262943
0.82945 0.647135 0.266651
0.828748 0.643137 0.264973
0.828305 0.64004 0.263279
0.828611 0.638361 0.262852
0.82829 0.637034 0.262043
0.828275 0.636759 0.261891
0.828702 0.637644 0.262699
0.829053 0.638834 0.263401
0.828977 0.640085 0.264057
0.829633 0.642405 0.26569
0.83003 0.645014 0.266835
0.831006 0.64799 0.26894
0.831083 0.650507 0.270283
0.831556 0.653513 0.271992
0.0714122 0.513756 0.0706951
0.071107 0.515465 0.0707256
0.070573 0.517754 0.0712291
0.0709392 0.520363 0.0711986
0.0725109 0.523217 0.0693217
0.0773175 0.527184 0.0676127
0.0792248 0.528237 0.0672313
0.0801404 0.52842 0.0663615
0.0859388 0.52871 0.0644388
0.122133 0.533013 0.0627298
0.182635 0.539864 0.0671092
0.28603 0.568566 0.0875715
0.417975 0.619699 0.122972
0.547417 0.655314 0.147356
0.636072 0.673381 0.162417
0.725048 0.676463 0.202487
0.792447 0.683833 0.253666
0.829206 0.699825 0.291951
0.85275 0.716747 0.321263
0.859937 0.718608 0.328847
0.858183 0.715084 0.325124
0.857755 0.714061 0.324346
0.857496 0.713436 0.323949
0.857359 0.713176 0.323796
0.857633 0.713878 0.324346
0.858198 0.715084 0.325429
0.858839 0.716228 0.326726
0.859342 0.71754 0.328084
0.860395 0.719295 0.330053
0.861082 0.721004 0.331655
0.861601 0.722896 0.332906
0.862852 0.725048 0.33521
0.863844 0.72726 0.337713
0.0999924 0.570413 0.100328
0.101381 0.572152 0.101091
0.102449 0.574578 0.102205
0.104997 0.576761 0.102235
0.109926 0.579034 0.101289
0.119509 0.581643 0.0980545
0.129625 0.585092 0.0978714
0.13106 0.585367 0.0972763
0.13341 0.585122 0.0952468
0.157107 0.585168 0.0865187
0.209689 0.591501 0.0860609
0.285863 0.608438 0.100282
0.412024 0.656687 0.141863
0.533501 0.704036 0.180713
0.639445 0.733074 0.211566
0.712917 0.754147 0.243626
0.784115 0.763607 0.292363
0.839338 0.774289 0.343572
0.870726 0.783932 0.378302
0.885878 0.7841 0.393896
0.885771 0.780179 0.39115
0.885679 0.779751 0.390661
0.885603 0.779995 0.390723
0.885649 0.780407 0.390997
0.885801 0.781003 0.391531
0.885969 0.781857 0.392248
0.886046 0.782696 0.392905
0.886748 0.784115 0.394614
0.887144 0.785595 0.395544
0.888319 0.78732 0.398001
0.888884 0.789181 0.399832
0.889204 0.790814 0.401358
0.88986 0.792676 0.403281
0.150484 0.616037 0.149599
0.152972 0.617609 0.151415
0.154925 0.61915 0.153521
0.159411 0.621332 0.152621
0.166873 0.623148 0.150011
0.18085 0.626993 0.149004
0.198764 0.632624 0.150317
0.202136 0.63418 0.150988
0.202518 0.633921 0.149645
0.211551 0.633951 0.14519
0.256291 0.638682 0.1337
0.32195 0.654917 0.141344
0.421912 0.691829 0.17644
0.538827 0.743709 0.228214
0.647181 0.783108 0.272343
0.730236 0.811536 0.312428
0.788174 0.831846 0.351308
0.835721 0.839948 0.388205
0.869566 0.840803 0.41561
0.893538 0.839796 0.437491
0.898009 0.837201 0.440085
0.897993 0.836759 0.439689
0.897948 0.837049 0.439841
0.897993 0.83772 0.440482
0.8981 0.838239 0.441093
0.898116 0.839033 0.441611
0.898054 0.840101 0.442191
0.898238 0.841398 0.443061
0.898299 0.842405 0.444312
0.898314 0.843748 0.445472
0.898238 0.845212 0.44622
0.898436 0.846937 0.447593
0.898482 0.848402 0.449042
0.208225 0.656474 0.199741
0.210697 0.658732 0.20145
0.211948 0.661204 0.204059
0.216876 0.663264 0.203815
0.224506 0.667475 0.204639
0.233188 0.672419 0.209064
0.245853 0.677592 0.212085
0.25069 0.67924 0.212879
0.252979 0.680064 0.212879
0.258488 0.680491 0.21178
0.309743 0.687129 0.2094
0.369284 0.699702 0.210834
0.448661 0.727886 0.233036
0.556802 0.7776 0.285313
0.660868 0.821591 0.337285
0.744671 0.849821 0.376944
0.79472 0.868742 0.405234
0.833906 0.879377 0.429679
0.867491 0.882826 0.45478
0.891569 0.882383 0.473793
0.899718 0.881483 0.479484
0.899519 0.880858 0.478645
0.899641 0.881483 0.479362
0.899702 0.882231 0.48011
0.899565 0.883131 0.480888
0.899413 0.883894 0.481621
0.899504 0.884642 0.482444
0.899489 0.885344 0.483482
0.899596 0.885908 0.484565
0.899718 0.886839 0.485603
0.899748 0.887587 0.486595
0.899565 0.888334 0.487526
0.899825 0.889326 0.48896
0.23859 0.689097 0.252262
0.236652 0.689754 0.256474
0.233967 0.690547 0.262287
0.23125 0.691371 0.267231
0.229572 0.691936 0.270741
0.229129 0.692103 0.271839
0.22884 0.692195 0.272679
0.229007 0.692149 0.272251
0.229114 0.692073 0.271855
0.229328 0.691768 0.270542
0.238911 0.687633 0.242054
0.327153 0.699687 0.228748
0.421363 0.729656 0.252705
0.52665 0.774899 0.297276
0.632212 0.824018 0.353063
0.725933 0.860426 0.401572
0.788907 0.882643 0.43772
0.828916 0.896498 0.463462
0.862806 0.904265 0.487419
0.888502 0.905867 0.509773
0.900328 0.905776 0.520684
0.900008 0.905226 0.516487
0.900221 0.905333 0.516304
0.900465 0.905623 0.516732
0.900725 0.906004 0.517571
0.900908 0.906508 0.518441
0.900984 0.906935 0.51931
0.901015 0.90695 0.519432
0.901015 0.906981 0.5196
0.901015 0.907012 0.519936
0.900999 0.907042 0.520394
0.900969 0.907088 0.520989
0.900908 0.907103 0.521614
0.232807 0.695689 0.28983
0.231205 0.696086 0.291966
0.229419 0.696574 0.295033
0.227558 0.697047 0.297536
0.226307 0.697292 0.299001
0.225803 0.697292 0.299016
0.225666 0.697124 0.298131
0.225925 0.696651 0.29575
0.225956 0.696605 0.29546
0.225956 0.696605 0.29546
0.227146 0.695247 0.287572
0.239994 0.687633 0.241657
0.334417 0.70161 0.231205
0.447929 0.740871 0.263752
0.577478 0.799741 0.325872
0.682948 0.844831 0.380392
0.765484 0.874739 0.425849
0.816831 0.893858 0.459617
0.852369 0.903624 0.486748
0.882795 0.907286 0.512047
0.897963 0.907805 0.529427
0.898863 0.908156 0.53312
0.899001 0.908232 0.533684
0.899016 0.908202 0.533501
0.899031 0.908202 0.533349
0.899046 0.908202 0.533303
0.899046 0.908186 0.533288
0.899062 0.908186 0.533318
0.899046 0.908202 0.533379
0.899031 0.908202 0.53344
0.899001 0.908202 0.533486
0.898985 0.908217 0.533562
0.898939 0.908217 0.533639
0.227726 0.697368 0.299336
0.22771 0.697322 0.299153
0.227436 0.697322 0.299229
0.226947 0.697353 0.299397
0.226184 0.697414 0.299611
0.225772 0.697337 0.29926
0.225605 0.69723 0.298741
0.225895 0.696681 0.295933
0.225956 0.696605 0.29546
0.225956 0.696605 0.29546
0.226184 0.6963 0.294057
0.233783 0.688151 0.24918
0.320806 0.698192 0.229236
0.422553 0.730709 0.25568
0.549233 0.786572 0.311681
0.661646 0.836774 0.369787
0.749752 0.869444 0.416663
0.808423 0.890852 0.453529
0.845899 0.902434 0.481865
0.878477 0.90695 0.508446
0.895979 0.907774 0.526955
0.898436 0.908019 0.531792
0.898756 0.908217 0.533867
0.898756 0.908217 0.533867
0.898756 0.908217 0.533867
0.898756 0.908217 0.533867
0.898756 0.908217 0.533867
0.898756 0.908217 0.533867
0.898756 0.908217 0.533867
0.898756 0.908217 0.533867
0.898878 0.908171 0.533349
0.899138 0.908095 0.532219
0.89958 0.907958 0.530449
0.230274 0.69662 0.294972
0.230625 0.696452 0.293889
0.230457 0.696437 0.294041
0.229999 0.696483 0.294438
0.229206 0.696559 0.294804
0.228717 0.696483 0.294377
0.228504 0.696376 0.293843
0.228824 0.695857 0.291585
0.22887 0.695735 0.29102
0.22887 0.695735 0.29102
0.229114 0.695415 0.288991
0.233509 0.688762 0.253071
0.316884 0.696864 0.225376
0.420554 0.729458 0.251362
0.543694 0.783764 0.30547
0.659571 0.83566 0.364294
0.747906 0.868467 0.409934
0.807507 0.889677 0.446097
0.845747 0.901884 0.475105
0.877852 0.906371 0.501152
0.896254 0.907423 0.520302
0.899657 0.907515 0.526604
0.900114 0.90779 0.528756
0.900114 0.90779 0.528786
0.900114 0.90779 0.528786
0.900114 0.90779 0.528786
0.900114 0.90779 0.528786
0.899931 0.907851 0.529427
0.89958 0.907958 0.530449
0.899138 0.908095 0.532219
0.899001 0.908141 0.532799
0.899138 0.908095 0.532219
0.89958 0.907958 0.530449
0.230198 0.696727 0.295567
0.230564 0.696544 0.294438
0.230365 0.696529 0.294469
0.229923 0.696559 0.294926
0.229084 0.696651 0.295293
0.228672 0.696544 0.294697
0.228473 0.696406 0.29395
0.228779 0.695903 0.291783
0.22887 0.695735 0.29102
0.22887 0.695735 0.29102
0.229114 0.695415 0.289082
0.234501 0.689052 0.254612
0.315221 0.696559 0.22504
0.418067 0.728603 0.251469
0.537133 0.781018 0.304082
0.654505 0.833631 0.364202
0.744778 0.867536 0.41033
0.80531 0.888731 0.445563
0.843885 0.901488 0.473823
0.876341 0.906355 0.499809
0.895445 0.90724 0.519158
0.899596 0.907469 0.526253
0.900053 0.907759 0.52845
0.900114 0.90779 0.528786
0.900114 0.90779 0.528786
0.900114 0.90779 0.528786
0.900114 0.90779 0.528786
0.899931 0.907851 0.529427
0.89958 0.907958 0.530449
0.899138 0.908095 0.532219
0.899001 0.908141 0.532799
0.899123 0.908095 0.532219
0.89958 0.907958 0.530449
0.230167 0.696834 0.296117
0.230533 0.69662 0.29482
0.230304 0.69659 0.294774
0.229847 0.69662 0.295216
0.228992 0.696727 0.295781
0.228611 0.69659 0.294942
0.228458 0.696422 0.294087
0.228779 0.695903 0.291814
0.22887 0.695735 0.29102
0.228885 0.695735 0.29102
0.228901 0.695705 0.290776
0.235096 0.688914 0.253361
0.316747 0.696818 0.22472
0.419699 0.729152 0.251789
0.535683 0.780499 0.303838
0.653483 0.833188 0.365026
0.742962 0.867201 0.411902
0.804456 0.888869 0.448341
0.842268 0.901244 0.474876
0.87509 0.906462 0.500099
0.89485 0.907301 0.518532
0.89955 0.907439 0.525963
0.900023 0.907744 0.528206
0.900114 0.90779 0.528786
0.900114 0.90779 0.528786
0.900114 0.90779 0.528786
0.900114 0.90779 0.528786
0.899931 0.907851 0.529427
0.89958 0.907958 0.530449
0.899138 0.908095 0.532219
0.898878 0.908171 0.533349
0.898878 0.908171 0.533349
0.899138 0.908095 0.532219
0.229435 0.697139 0.298085
0.230182 0.696788 0.295888
0.230259 0.696651 0.295048
0.229801 0.696681 0.295491
0.228946 0.696757 0.296056
0.22858 0.69662 0.295094
0.228458 0.696437 0.294194
0.228779 0.695903 0.291814
0.22887 0.695735 0.29102
0.22887 0.695735 0.29102
0.22887 0.695735 0.29102
0.234607 0.688838 0.25301
0.318334 0.697093 0.225086
0.424125 0.731029 0.253285
0.540322 0.782406 0.305898
0.656016 0.834501 0.366491
0.745037 0.867979 0.413947
0.80502 0.889418 0.451041
0.841993 0.901518 0.478264
0.873838 0.906645 0.502937
0.893599 0.907439 0.520363
0.89897 0.907637 0.52752
0.89958 0.907866 0.529534
0.899825 0.907881 0.529717
0.899901 0.907851 0.529473
0.899962 0.907835 0.52932
0.899992 0.90782 0.529198
0.89984 0.907881 0.529671
0.899489 0.907988 0.530709
0.899077 0.90811 0.532479
0.898817 0.908202 0.533608
0.898665 0.908232 0.534188
0.898787 0.908202 0.533715
0.227787 0.697688 0.300893
0.229023 0.697215 0.298528
0.229572 0.69691 0.29688
0.229435 0.696818 0.296376
0.228702 0.696864 0.296635
0.228489 0.696666 0.295293
0.228458 0.696437 0.294133
0.228794 0.695903 0.291768
0.22887 0.695735 0.29102
0.22887 0.695735 0.29102
0.228962 0.695598 0.290166
0.233753 0.688594 0.251942
0.323491 0.698405 0.226139
0.430533 0.733837 0.25568
0.547433 0.785626 0.309056
0.661936 0.836835 0.369482
0.748974 0.869078 0.416114
0.806516 0.890089 0.452171
0.843397 0.901946 0.479759
0.874281 0.906752 0.504662
0.893309 0.907561 0.522667
0.898222 0.907866 0.530205
0.898695 0.908125 0.532937
0.898833 0.908202 0.533593
0.898833 0.908186 0.533516
0.898863 0.908186 0.533455
0.898878 0.908171 0.533394
0.898756 0.908217 0.533898
0.898451 0.908324 0.534722
0.898039 0.908476 0.535836
0.897749 0.908553 0.536843
0.897612 0.908598 0.537346
0.897597 0.908598 0.537392
0.224704 0.698802 0.306783
0.22536 0.698436 0.304814
0.226413 0.697948 0.302251
0.227192 0.697536 0.300298
0.227741 0.6972 0.298482
0.228183 0.696757 0.295842
0.228473 0.696422 0.294057
0.228794 0.695888 0.291707
0.22887 0.695735 0.29102
0.22887 0.695735 0.29102
0.229282 0.695277 0.287968
0.234836 0.688334 0.250172
0.33167 0.700572 0.227649
0.438682 0.737041 0.259022
