bundles/resolve-cinematic-luts/Phantom Luts/Komodo Phantom FILM LUTs G2/Komodo Phantom FILM LUTs G2/33x/WB Offset - Green Boost/EastmanRM_Komodo_WBO_Legacy_G2_33x.cube
TITLE "Generated by Resolve"
LUT_3D_SIZE 5
0.0506142 0.0584726 0.0538033
0.156069 0.0448157 0.0487831
0.509468 0.0344244 0.081529
0.553185 0.0417792 0.110109
0.526009 0.0419013 0.133516
0.0704967 0.1617 0.0647898
0.155459 0.1738 0.0676738
0.536873 0.0635996 0.0713817
0.530678 0.0468605 0.0837262
0.526894 0.0479744 0.0869917
0.150484 0.616037 0.149599
0.202518 0.633921 0.149645
0.788174 0.831846 0.351308
0.8981 0.838239 0.441093
0.898482 0.848402 0.449042
0.229435 0.697139 0.298085
0.22887 0.695735 0.29102
0.745037 0.867979 0.413947
0.899901 0.907851 0.529473
0.898787 0.908202 0.533715
0.224384 0.699062 0.308125
0.232456 0.694743 0.284123
0.795102 0.884306 0.43003
0.901686 0.907256 0.523171
0.897765 0.908553 0.536812
0.0457618 0.0673075 0.096376
0.147662 0.0634928 0.114488
0.521447 0.0466773 0.14229
0.571679 0.0616159 0.184298
0.562524 0.0700999 0.21326
0.0627146 0.145602 0.113115
0.139864 0.163409 0.141222
0.523125 0.0438087 0.11519
0.536645 0.0437934 0.127352
0.532464 0.043946 0.134554
0.106676 0.6215 0.25185
0.124971 0.618341 0.185
0.778836 0.821851 0.335912
0.896345 0.820645 0.427024
0.897169 0.829725 0.434043
0.225925 0.719524 0.387472
0.227054 0.698482 0.304631
0.704524 0.853193 0.391852
0.900114 0.90779 0.528786
0.898756 0.908217 0.533867
0.226947 0.728878 0.423041
0.230854 0.697871 0.300618
0.755032 0.870268 0.406012
0.901686 0.907256 0.523171
0.897505 0.908629 0.537758
0.0419318 0.100328 0.31664
0.0825666 0.0953994 0.365454
0.567636 0.118776 0.477501
0.633463 0.152499 0.522423
0.626902 0.161532 0.549828
0.0419318 0.137713 0.332891
0.0424811 0.0975052 0.346349
0.582956 0.130465 0.500572
0.640665 0.153368 0.523445
0.632364 0.160662 0.546685
0.0868238 0.605295 0.514534
0.0817426 0.61117 0.527382
0.676509 0.707942 0.6598
0.874266 0.659693 0.6336
0.871656 0.671107 0.650935
0.252201 0.763928 0.59144
0.241657 0.764279 0.586618
0.303868 0.731563 0.380194
0.900511 0.907103 0.521706
0.90013 0.907439 0.525704
0.247074 0.766995 0.626505
0.244892 0.766613 0.608347
0.377127 0.752712 0.435492
0.898619 0.907332 0.52517
0.897154 0.908339 0.53492
0.0425422 0.10399 0.403067
0.0771344 0.109148 0.450217
0.560433 0.149035 0.579751
0.628122 0.174472 0.601175
0.626825 0.174762 0.602045
0.0424964 0.142107 0.421012
0.0437781 0.10396 0.410956
0.571832 0.154376 0.584665
0.629374 0.174151 0.600504
0.626657 0.174807 0.602167
0.0621195 0.545388 0.599893
0.0605936 0.544076 0.600732
0.4795 0.525261 0.74934
0.881453 0.60499 0.867231
0.882353 0.618082 0.869764
0.24921 0.758206 0.700816
0.246403 0.75877 0.702739
0.272328 0.776135 0.704356
0.899306 0.940398 0.903624
0.907347 0.943496 0.906035
0.248646 0.758312 0.701213
0.246403 0.75877 0.702739
0.280217 0.782223 0.703777
0.900313 0.947555 0.906188
0.910292 0.951263 0.911009
0.0444495 0.104051 0.412345
0.0903334 0.108766 0.456611
0.577081 0.155398 0.584985
0.628122 0.174472 0.601175
0.626917 0.174746 0.601984
0.0424964 0.135378 0.41442
0.046128 0.104692 0.418585
0.583307 0.158831 0.588449
0.629404 0.174151 0.600488
0.626657 0.174807 0.602167
0.0606241 0.541558 0.598535
0.0592813 0.540383 0.599954
0.480949 0.514656 0.749294
0.887922 0.59556 0.866026
0.881682 0.611261 0.868193
0.249149 0.758206 0.700832
0.246403 0.75877 0.702739
0.239338 0.753643 0.703075
0.893919 0.931426 0.906493
0.907927 0.938796 0.911986
0.248447 0.758358 0.701335
0.246403 0.75877 0.702739
0.276341 0.780697 0.720241
0.865568 0.938659 0.901518
0.911513 0.952026 0.916457
