bundles/resolve-cinematic-luts/Phantom Luts/Komodo Phantom FILM LUTs G2/Komodo Phantom FILM LUTs G2/33x/WB Offset - Green Boost/EastmanRM_Komodo_WBO_G2_33x.cube
TITLE "Generated by Resolve"
LUT_3D_SIZE 9
0.0446021 0.0421149 0.0435492
0.06421 0.0393072 0.0415961
0.180865 0.0316472 0.0438544
0.37406 0.0297704 0.0587625
0.518822 0.0311742 0.0933394
0.548257 0.037644 0.115282
0.55227 0.0395209 0.1243
0.552575 0.0404364 0.12958
0.532891 0.0433051 0.151003
0.0469673 0.0677348 0.0458839
0.0538491 0.0652934 0.0463264
0.169223 0.0484016 0.0458228
0.380529 0.0299077 0.0519875
0.510872 0.032166 0.0760357
0.531334 0.0362097 0.091371
0.538888 0.0367437 0.104219
0.540749 0.0369573 0.108171
0.522316 0.0391852 0.126055
0.0599832 0.191135 0.0563516
0.0561837 0.193851 0.0545663
0.196002 0.216602 0.0615396
0.496345 0.187655 0.0921645
0.555215 0.0727855 0.0793164
0.52958 0.0403601 0.0892042
0.529198 0.0402686 0.0895705
0.529366 0.0403143 0.0893873
0.525307 0.0409857 0.0922408
0.0547036 0.432547 0.0534371
0.0516823 0.438987 0.0471504
0.0903029 0.453742 0.0482032
0.544915 0.570977 0.108598
0.796674 0.587304 0.223178
0.833143 0.587854 0.248142
0.832715 0.575341 0.241566
0.832639 0.580819 0.2439
0.832395 0.597299 0.256291
0.178744 0.639414 0.186969
0.196567 0.643839 0.178897
0.236545 0.65304 0.172534
0.484855 0.731228 0.224704
0.815229 0.84831 0.385657
0.899031 0.851804 0.454444
0.898985 0.852445 0.455009
0.899153 0.855695 0.458061
0.899428 0.860426 0.462715
0.232578 0.706966 0.330755
0.231281 0.706401 0.32929
0.231098 0.705165 0.324208
0.349477 0.708568 0.241428
0.782757 0.879667 0.448478
0.896437 0.908705 0.544762
0.898436 0.90959 0.554162
0.898436 0.90959 0.554162
0.899367 0.9093 0.551049
0.234852 0.706676 0.329503
0.233875 0.705913 0.326146
0.233692 0.704189 0.319142
0.346303 0.706935 0.236912
0.779171 0.878492 0.445914
0.893767 0.908354 0.538918
0.899214 0.909346 0.551522
0.898878 0.909453 0.552651
0.898131 0.909682 0.555276
0.231937 0.708095 0.336004
0.238132 0.704524 0.319417
0.240818 0.701839 0.3066
0.398123 0.722957 0.239933
0.800839 0.884398 0.445853
0.898161 0.907713 0.532723
0.901274 0.908644 0.543908
0.900755 0.908812 0.545907
0.897917 0.909758 0.556527
0.230457 0.708858 0.339864
0.233555 0.70602 0.326604
0.237354 0.702983 0.312978
0.449439 0.743526 0.259815
0.819593 0.890867 0.45803
0.900786 0.907927 0.537408
0.901274 0.908644 0.543908
0.900755 0.908812 0.545907
0.897795 0.909789 0.557443
0.0431373 0.0431067 0.0513924
0.059968 0.0434577 0.0559243
0.17142 0.0428626 0.0647898
0.367666 0.0354314 0.0851301
0.512001 0.0343175 0.120043
0.543633 0.0428931 0.146258
0.546319 0.0445258 0.153964
0.546075 0.0455634 0.159167
0.533623 0.0476844 0.174334
0.0461738 0.0593729 0.0524453
0.0504616 0.0560616 0.0525368
0.161303 0.0374762 0.0543374
0.373419 0.0325017 0.0724804
0.510353 0.0343023 0.113344
0.533608 0.0401465 0.133288
0.536919 0.0419623 0.141787
0.538628 0.0426642 0.145998
0.528084 0.0444038 0.158053
0.0579995 0.189654 0.0804913
0.0544594 0.190494 0.064744
0.185504 0.209445 0.0620737
0.479088 0.163027 0.0873579
0.522393 0.0489357 0.0780804
0.521752 0.0400244 0.0951095
0.520943 0.0397803 0.0951858
0.521019 0.0398108 0.0951095
0.517021 0.0404974 0.0985428
0.0520333 0.435096 0.0801862
0.0504158 0.439353 0.0667582
0.0711986 0.445945 0.0462196
0.544289 0.568063 0.107897
0.79794 0.57882 0.22269
0.832471 0.574228 0.241062
0.831891 0.55967 0.234897
0.832334 0.56585 0.237369
0.83003 0.581598 0.248631
0.158282 0.642939 0.224048
0.170459 0.644953 0.211673
0.236057 0.652689 0.172229
0.466514 0.723293 0.215625
0.815045 0.847791 0.384512
0.899168 0.849836 0.453056
0.899199 0.849897 0.453132
0.898955 0.853071 0.455711
0.899382 0.857786 0.460502
0.232654 0.707988 0.335317
0.231205 0.70782 0.334813
0.231022 0.705425 0.325017
0.313634 0.699351 0.236469
0.778164 0.878172 0.445563
0.896178 0.908675 0.544152
0.898436 0.90959 0.554162
0.898436 0.90959 0.554162
0.898543 0.90956 0.553826
0.233371 0.708309 0.336446
0.233616 0.707332 0.33257
0.233448 0.704692 0.321523
0.30251 0.696696 0.232486
0.772091 0.876356 0.441733
0.892531 0.908232 0.536645
0.899367 0.9093 0.551049
0.899046 0.909392 0.551995
0.898222 0.909667 0.554864
0.230426 0.71046 0.346563
0.237293 0.706218 0.327108
0.240589 0.702205 0.308446
0.356191 0.708614 0.227787
0.793683 0.881773 0.441138
0.896605 0.907668 0.530022
0.901274 0.908644 0.543908
0.900755 0.908812 0.545907
0.897795 0.909789 0.557458
0.230488 0.711955 0.352621
0.233585 0.707729 0.33402
0.237446 0.703105 0.313573
0.410697 0.72784 0.244434
0.813825 0.888212 0.454139
0.899474 0.907835 0.534874
0.901274 0.908644 0.543908
0.900755 0.908812 0.545907
0.897795 0.909789 0.557458
0.0408789 0.0571145 0.106554
0.0532082 0.0476997 0.126345
0.177966 0.0510567 0.136584
0.384649 0.0499733 0.136004
0.537072 0.0466621 0.170611
0.568551 0.0590219 0.206699
0.577905 0.0669413 0.223667
0.5832 0.0729839 0.236591
0.574166 0.0804913 0.26009
0.040589 0.0665599 0.0990616
0.0415961 0.0564431 0.114992
0.172427 0.0528725 0.143633
0.39585 0.0504921 0.134218
0.533608 0.0452735 0.169039
0.55819 0.0551003 0.199939
0.566598 0.0615396 0.215305
0.571099 0.0654002 0.22414
0.563653 0.071046 0.242817
0.0556649 0.173663 0.13463
0.0519265 0.174884 0.140719
0.175555 0.201038 0.175097
0.466117 0.110384 0.138308
0.532921 0.0423285 0.131884
0.534554 0.0405127 0.134417
0.536873 0.0418708 0.141039
0.538033 0.0423896 0.144442
0.534401 0.0431067 0.149248
0.0525063 0.437308 0.171695
0.0498054 0.442603 0.165179
0.0497444 0.430182 0.0825208
0.527306 0.553948 0.108324
0.797467 0.540703 0.208804
0.829129 0.517494 0.222858
0.827405 0.499977 0.220035
0.828519 0.503487 0.221134
0.824857 0.517296 0.22948
0.1364 0.65684 0.317113
0.135973 0.659388 0.314397
0.152758 0.644282 0.230304
0.395132 0.691218 0.181262
0.808667 0.840711 0.373175
0.89836 0.840436 0.444495
0.898497 0.839063 0.443549
0.898634 0.841642 0.445808
0.898665 0.845991 0.449424
0.234943 0.724758 0.397681
0.231312 0.71899 0.376822
0.230426 0.70869 0.339101
0.2383 0.694514 0.270985
0.757412 0.871733 0.432486
0.893797 0.908461 0.540505
0.898436 0.909606 0.554177
0.898436 0.90959 0.554162
0.898436 0.90959 0.554162
0.23772 0.733135 0.429221
0.234028 0.727108 0.40795
0.232685 0.708247 0.336614
0.236789 0.696925 0.286168
0.744366 0.867842 0.425299
0.887968 0.907973 0.528435
0.899825 0.909117 0.549676
0.899367 0.9093 0.551049
0.898436 0.90959 0.554162
0.238163 0.739437 0.451133
0.235447 0.73286 0.428031
0.238697 0.706371 0.327276
0.249516 0.692546 0.256153
0.766339 0.873625 0.423926
0.890654 0.907393 0.521492
0.901274 0.908644 0.543908
0.900755 0.908812 0.545907
0.897795 0.909789 0.557443
0.241489 0.743343 0.465599
0.236561 0.736751 0.442802
0.236423 0.707652 0.333303
0.270771 0.692699 0.238727
0.787442 0.880125 0.437385
0.893553 0.907454 0.525704
0.901274 0.908644 0.543908
0.900755 0.908812 0.545907
0.897642 0.909819 0.558175
0.0411078 0.076112 0.211566
0.0484474 0.0694133 0.235538
0.149401 0.0554055 0.292454
0.400046 0.059556 0.310979
0.535561 0.0633249 0.300801
0.572503 0.0831311 0.329747
0.573831 0.0874189 0.341543
0.57377 0.0905776 0.352499
0.5608 0.0957656 0.375952
0.0415045 0.0982528 0.217563
0.041825 0.0766918 0.231754
0.131914 0.0550698 0.304555
0.410468 0.0617227 0.33077
0.539803 0.0694896 0.315816
0.568963 0.0868696 0.341329
0.570092 0.0901808 0.353292
0.571405 0.0927291 0.361364
0.562036 0.0967575 0.381048
0.0423133 0.161761 0.219425
0.0421149 0.156756 0.231403
0.0569772 0.109102 0.298268
0.407416 0.0765393 0.34287
0.553307 0.0663615 0.28864
0.58117 0.0813458 0.309804
0.576516 0.0797131 0.314168
0.577173 0.0814069 0.320256
0.565881 0.086183 0.339986
0.052903 0.416831 0.332998
0.0500649 0.422843 0.345983
0.0499886 0.420859 0.342657
0.487083 0.514183 0.466575
0.809186 0.420874 0.43653
0.8607 0.340856 0.42295
0.852949 0.321569 0.422049
0.852598 0.322103 0.425132
0.850935 0.335729 0.438315
0.127565 0.672175 0.457786
0.123568 0.677943 0.468711
0.12372 0.675959 0.445533
0.139422 0.637919 0.260151
0.75378 0.798779 0.382254
0.900008 0.807187 0.434043
0.898299 0.802167 0.429206
0.899626 0.802823 0.432868
0.901839 0.806348 0.441382
0.244984 0.748943 0.501091
0.238468 0.750896 0.507271
0.240162 0.747051 0.485283
0.230381 0.710811 0.34844
0.688319 0.848234 0.395468
0.890455 0.907515 0.52282
0.901366 0.908812 0.545876
0.901289 0.908705 0.54464
0.901289 0.908721 0.544686
0.23978 0.755169 0.529503
0.238056 0.75462 0.526421
0.238819 0.749584 0.499763
0.233097 0.712306 0.353338
0.647639 0.832059 0.370657
0.872587 0.906386 0.509804
0.899763 0.909026 0.548669
0.899336 0.909285 0.550912
0.898405 0.909575 0.554025
0.237186 0.75845 0.546563
0.236957 0.757366 0.540978
0.238666 0.751751 0.511482
0.237949 0.714412 0.35964
0.668879 0.840085 0.370809
0.872251 0.905806 0.501854
0.901076 0.908339 0.541176
0.90074 0.908782 0.545663
0.897749 0.909758 0.557107
0.237644 0.760891 0.560098
0.237156 0.75967 0.553262
0.238148 0.754253 0.524315
0.237873 0.718486 0.374746
0.701396 0.852399 0.387991
0.876463 0.906233 0.505898
0.901045 0.908293 0.540612
0.90074 0.908751 0.545434
0.897749 0.909728 0.556848
0.0419471 0.0959487 0.341009
0.0429999 0.0858015 0.354376
0.0990005 0.0711223 0.414008
0.372732 0.0720378 0.466804
0.573999 0.123079 0.497627
0.613596 0.13727 0.513756
0.625437 0.148989 0.537499
0.629023 0.154391 0.549645
0.623804 0.158846 0.562585
0.0421149 0.115068 0.354299
0.0420386 0.0959182 0.354528
0.0903334 0.0848096 0.413565
0.380591 0.0754711 0.480766
0.587411 0.132296 0.513695
0.626749 0.148333 0.535149
0.634546 0.156039 0.552407
0.63537 0.158923 0.560388
0.626841 0.162203 0.571084
0.0421912 0.156558 0.368368
0.0423285 0.151507 0.378637
0.042298 0.0890211 0.36936
0.348974 0.073518 0.481651
0.588479 0.134401 0.518364
0.627588 0.14406 0.525231
0.634684 0.151583 0.5402
0.637827 0.155001 0.548806
0.628733 0.158404 0.560327
0.0437781 0.401022 0.460487
0.0437781 0.403433 0.470512
0.0434882 0.387655 0.474723
0.281132 0.340917 0.600916
0.79826 0.381201 0.736996
0.802762 0.283757 0.668528
0.776852 0.254536 0.640742
0.774838 0.254734 0.644221
0.78146 0.271717 0.665034
0.108553 0.641199 0.556283
0.104036 0.645472 0.566918
0.103975 0.645975 0.566934
0.103792 0.643488 0.561227
0.72108 0.753735 0.706905
0.878004 0.725078 0.687648
0.879072 0.716106 0.685786
0.879683 0.718608 0.690089
0.876005 0.726589 0.701686
0.236713 0.760174 0.602686
0.232731 0.762615 0.609125
0.229236 0.76109 0.603601
0.222995 0.755291 0.578744
0.544167 0.798001 0.564157
0.869505 0.913329 0.729152
0.910948 0.918517 0.74287
0.911665 0.917372 0.751705
0.911528 0.918837 0.759655
0.24947 0.767193 0.619959
0.242344 0.768429 0.625757
0.240986 0.767971 0.616022
0.239307 0.764157 0.581186
0.340597 0.746929 0.422965
0.850309 0.906126 0.535134
0.899138 0.908598 0.544289
0.899367 0.908965 0.54757
0.898955 0.909072 0.548898
0.245487 0.768551 0.637446
0.243442 0.768872 0.637079
0.241901 0.768536 0.625528
0.24004 0.765148 0.587991
0.363226 0.754131 0.444877
0.840864 0.906554 0.580835
0.899382 0.908186 0.54052
0.899611 0.908858 0.546517
0.898253 0.9093 0.550713
0.243885 0.769329 0.649577
0.24361 0.769299 0.647196
0.242512 0.768811 0.634104
0.240482 0.766018 0.594919
0.430762 0.772747 0.492393
0.84361 0.909911 0.635233
0.898024 0.908583 0.544137
0.898207 0.9093 0.550561
0.897368 0.909514 0.554376
0.042237 0.100679 0.387579
0.0426032 0.0953536 0.402594
0.083238 0.100603 0.453925
0.297658 0.0836652 0.520562
0.558434 0.145541 0.579858
0.631601 0.172885 0.606882
0.631586 0.1729 0.606897
0.631403 0.17293 0.607004
0.629313 0.173419 0.608515
0.0421912 0.112398 0.384131
0.0422675 0.0975357 0.390814
0.0765087 0.100084 0.449851
0.314931 0.0861982 0.523735
0.578042 0.153933 0.587915
0.632166 0.172747 0.606577
0.632166 0.172747 0.606577
0.631815 0.172839 0.60676
0.629313 0.173419 0.608515
0.0426032 0.161852 0.430426
0.0424811 0.151705 0.425101
0.0425116 0.0956588 0.40296
0.276356 0.0814221 0.517418
0.575982 0.153552 0.588006
0.633112 0.172519 0.605875
0.633631 0.172427 0.605432
0.63328 0.172488 0.605722
0.630716 0.173098 0.607446
0.0444953 0.3299 0.502388
0.0445563 0.327413 0.50454
0.0443122 0.297963 0.495064
0.129198 0.18677 0.546502
0.645304 0.233722 0.707744
0.68632 0.212161 0.656519
0.64741 0.18088 0.614389
0.666117 0.195682 0.634958
0.680323 0.211521 0.656352
0.0857404 0.606455 0.608438
0.0842451 0.608484 0.612558
0.0823072 0.605035 0.612879
0.0737316 0.586862 0.611078
0.601282 0.643824 0.787335
0.889738 0.696239 0.853101
0.89395 0.688807 0.849012
0.894072 0.691798 0.84921
0.891295 0.699504 0.852781
0.20325 0.731929 0.654475
0.198428 0.733745 0.659281
0.190051 0.726879 0.651972
0.184176 0.721248 0.646815
0.442802 0.794049 0.72575
0.854032 0.892668 0.855985
0.900481 0.897917 0.862776
0.90071 0.897032 0.862745
0.900679 0.899382 0.865415
0.251881 0.766842 0.6851
0.246067 0.768017 0.689036
0.245823 0.768475 0.685115
0.245686 0.769116 0.671336
0.264134 0.781399 0.662425
0.826764 0.915816 0.829404
0.904418 0.945617 0.87895
0.908949 0.947311 0.883131
0.909285 0.947784 0.886107
0.247257 0.766735 0.695369
0.246311 0.767178 0.695171
0.245899 0.768048 0.68957
0.245899 0.76907 0.672908
0.268376 0.782528 0.665614
0.819074 0.913085 0.825025
0.894133 0.94078 0.86096
0.905043 0.931487 0.753475
0.903975 0.929244 0.730648
0.248035 0.765408 0.699138
0.246494 0.766308 0.699275
0.245838 0.767514 0.693629
0.245853 0.768917 0.67599
0.273381 0.785229 0.674144
0.830411 0.917922 0.837659
0.894331 0.942016 0.872236
0.904158 0.942733 0.853162
0.903227 0.937896 0.810681
0.0430457 0.0958267 0.405921
0.0481727 0.0961471 0.421942
0.10341 0.0984665 0.466957
0.32639 0.0879225 0.525917
0.575647 0.152758 0.586526
0.631571 0.1729 0.606897
0.631571 0.1729 0.606897
0.632364 0.172702 0.606424
0.630457 0.173159 0.607645
0.0422675 0.0973831 0.390463
0.0438087 0.0960555 0.410773
0.0978561 0.101762 0.461891
0.339574 0.0890516 0.527565
0.592508 0.15996 0.59379
0.631693 0.172869 0.606836
0.631693 0.172869 0.606836
0.631525 0.1729 0.606928
0.629313 0.173419 0.608515
0.042649 0.15465 0.426841
0.0424353 0.131807 0.407599
0.0461891 0.0958724 0.417884
0.299474 0.0839399 0.52105
0.586191 0.157946 0.592264
0.632334 0.172717 0.606455
0.632486 0.172671 0.606332
0.632502 0.172671 0.606317
0.630625 0.173129 0.607492
0.0437171 0.274434 0.484276
0.0437171 0.274418 0.4851
0.0433051 0.249928 0.472404
0.106386 0.135225 0.50013
0.561822 0.168185 0.619303
0.635233 0.174136 0.60763
0.636881 0.173922 0.607019
0.636728 0.17406 0.607248
0.633738 0.175174 0.609751
0.0792248 0.589532 0.623636
0.0788739 0.591928 0.625757
0.0770123 0.588388 0.624338
0.0689403 0.56849 0.618082
0.550698 0.58648 0.782879
0.88249 0.660822 0.87747
0.888319 0.656229 0.877577
0.888014 0.660349 0.877424
0.887144 0.668223 0.878065
0.172473 0.698543 0.669001
0.167407 0.699351 0.671962
0.165728 0.697581 0.672129
0.153414 0.685191 0.66714
0.252903 0.722148 0.715969
0.825284 0.859815 0.877714
0.90161 0.876844 0.887327
0.90193 0.877256 0.88658
0.900755 0.880644 0.889021
0.241581 0.762463 0.703838
0.238651 0.763073 0.705806
0.238453 0.763119 0.705959
0.240482 0.763348 0.704753
0.264454 0.776364 0.708736
0.784817 0.907851 0.864179
0.900496 0.941176 0.904494
0.907591 0.943877 0.906294
0.907607 0.943893 0.906493
0.244877 0.761837 0.700938
0.238712 0.763058 0.705776
0.238453 0.763119 0.705959
0.24181 0.76379 0.704402
0.269001 0.779278 0.706477
0.594629 0.868132 0.79617
0.903075 0.949065 0.90811
0.915251 0.955245 0.917082
0.915648 0.955856 0.918746
0.241321 0.762509 0.704051
0.239368 0.762936 0.705287
0.238453 0.763119 0.705959
0.241733 0.763821 0.704433
0.272526 0.78117 0.708415
0.658152 0.884184 0.81796
0.903197 0.949264 0.908827
0.914977 0.95462 0.915953
0.91635 0.955795 0.918379
0.0459449 0.0957504 0.416114
0.0542916 0.096025 0.430198
0.110704 0.0914168 0.474678
0.341909 0.0893568 0.527962
0.585351 0.156619 0.590829
0.631571 0.1729 0.606897
0.631571 0.1729 0.606897
0.633143 0.172519 0.605844
0.630854 0.173083 0.607355
0.0423743 0.0956283 0.400076
0.0467384 0.0959029 0.418814
0.105089 0.0968643 0.468605
0.353353 0.0909438 0.530221
0.59968 0.162753 0.596796
0.631693 0.172869 0.606836
0.631693 0.172869 0.606836
0.631525 0.172915 0.606928
0.629313 0.173419 0.608515
0.0426337 0.147112 0.420691
0.0424048 0.123537 0.398672
0.0495155 0.0960708 0.423865
0.311971 0.0857252 0.52314
0.592889 0.160571 0.594736
0.632425 0.172686 0.606378
0.632486 0.172671 0.606317
0.632517 0.172671 0.606317
0.630625 0.173129 0.607492
0.0433967 0.256977 0.475395
0.0433661 0.257282 0.476509
0.0432136 0.234226 0.465156
0.097261 0.121157 0.483406
0.533669 0.145678 0.588144
0.634852 0.1738 0.607233
0.636347 0.173602 0.606638
0.636225 0.173785 0.606928
0.633204 0.174762 0.609308
0.0777295 0.586328 0.62211
0.0772717 0.588617 0.624399
0.0757763 0.585168 0.623514
0.0665751 0.563195 0.615869
0.548455 0.576043 0.781872
0.882078 0.652537 0.877317
0.888167 0.648219 0.877073
0.888106 0.652873 0.877241
0.887022 0.661799 0.877852
0.168338 0.694301 0.666651
0.1673 0.69894 0.672267
0.16173 0.693828 0.670741
0.151263 0.682536 0.666316
0.262409 0.720424 0.718822
0.819242 0.851164 0.876982
0.899351 0.868101 0.888212
0.900374 0.86862 0.887602
0.899046 0.872511 0.889815
0.241505 0.762478 0.703914
0.238651 0.763073 0.705806
0.238453 0.763119 0.705959
0.238712 0.763058 0.705776
0.238361 0.763485 0.708186
0.722469 0.884169 0.851865
0.896468 0.93463 0.906294
0.90779 0.940795 0.911055
0.907835 0.941009 0.911147
0.244862 0.761837 0.700954
0.238712 0.763073 0.705776
0.238453 0.763119 0.705959
0.238758 0.763058 0.705745
0.260471 0.77673 0.716396
0.286595 0.789502 0.726146
0.894865 0.945754 0.90866
0.914275 0.954208 0.919051
0.914824 0.954833 0.920455
0.241199 0.762539 0.704158
0.239353 0.762936 0.705303
0.238453 0.763119 0.705959
0.238636 0.763088 0.705821
0.263401 0.778866 0.717525
0.332067 0.799054 0.73547
0.893004 0.946166 0.908324
0.916732 0.955993 0.920363
0.918318 0.957397 0.923125
0.0475929 0.0958877 0.419516
0.0578164 0.0961471 0.433219
0.115068 0.0879225 0.478798
0.350973 0.0906996 0.529717
0.591287 0.159243 0.59295
0.631571 0.1729 0.606897
0.631571 0.1729 0.606897
0.633143 0.172519 0.605844
0.630854 0.173083 0.607355
0.0426642 0.0957046 0.4038
0.0480354 0.0961318 0.421637
0.108248 0.093843 0.472145
0.361059 0.0919814 0.531548
0.604456 0.164706 0.598947
0.631693 0.172869 0.606836
0.631693 0.172869 0.606836
0.631525 0.172915 0.606928
0.629313 0.173419 0.608515
0.0424811 0.144411 0.418265
0.0422522 0.120974 0.395438
0.0510719 0.0962081 0.426322
0.31928 0.0869154 0.52462
0.596658 0.162188 0.596551
0.632441 0.172686 0.606363
0.632502 0.172671 0.606332
0.632517 0.172671 0.606317
0.630625 0.173129 0.607492
0.043534 0.254978 0.474693
0.0435187 0.254459 0.475471
0.043183 0.23183 0.463981
0.0994583 0.119982 0.48304
0.52929 0.141268 0.582223
0.634836 0.173739 0.607172
0.636316 0.173571 0.606592
0.636194 0.17377 0.606897
0.633158 0.174746 0.609277
0.0777905 0.586511 0.622126
0.0774548 0.588983 0.624628
0.0758984 0.585473 0.623606
0.0663005 0.562676 0.615778
0.551965 0.57615 0.783032
0.882109 0.652781 0.877287
0.887938 0.648478 0.87686
0.888136 0.653483 0.877302
0.886961 0.662379 0.877836
0.168078 0.694041 0.666453
0.168811 0.700526 0.673548
0.161166 0.693202 0.670283
0.150851 0.681956 0.666194
0.271641 0.720851 0.720577
0.819989 0.850538 0.877409
0.899351 0.867552 0.888228
0.900252 0.867597 0.88748
0.898711 0.871534 0.88954
0.241505 0.762478 0.703914
0.238651 0.763073 0.705806
0.238453 0.763119 0.705959
0.238453 0.763119 0.705959
0.233005 0.759716 0.706096
0.732891 0.885832 0.855177
0.895628 0.933669 0.906203
0.907225 0.939544 0.910903
0.907454 0.939834 0.910872
0.244938 0.761822 0.700893
0.238712 0.763073 0.705776
0.238453 0.763119 0.705959
0.238453 0.763119 0.705959
0.259373 0.777264 0.717601
0.278965 0.788769 0.72752
0.888991 0.942611 0.908141
0.912276 0.953353 0.918914
0.914229 0.954467 0.920058
0.241199 0.762539 0.704158
0.239338 0.762936 0.705303
0.238453 0.763119 0.705959
0.238453 0.763119 0.705959
0.262211 0.779507 0.718914
0.296468 0.79176 0.731243
0.876402 0.940505 0.904128
0.915923 0.955901 0.921187
0.918639 0.957748 0.923781
