bundles/resolve-cinematic-luts/Phantom Luts/Komodo Phantom FILM LUTs G2/Komodo Phantom FILM LUTs G2/33x/WB Offset - Green Boost/EastmanRM_Komodo_WBO_G2_33x.cube
TITLE "Generated by Resolve"
LUT_3D_SIZE 33
0.0446021 0.0421149 0.0435492
0.0447089 0.0420081 0.0434119
0.0452277 0.0416571 0.0429694
0.0500801 0.0411688 0.0424964
0.06421 0.0393072 0.0415961
0.0883497 0.0373083 0.0413214
0.118791 0.0352789 0.0410925
0.149279 0.0335699 0.0424201
0.180865 0.0316472 0.0438544
0.221012 0.0302434 0.0469825
0.269917 0.0289464 0.0503548
0.322606 0.029099 0.0537881
0.37406 0.0297704 0.0587625
0.423331 0.0295567 0.0660563
0.466423 0.0293126 0.074876
0.497673 0.0300603 0.0834211
0.518822 0.0311742 0.0933394
0.53373 0.0343328 0.100877
0.544884 0.0368353 0.109331
0.546639 0.037171 0.112184
0.548257 0.037644 0.115282
0.549615 0.0381476 0.117723
0.550835 0.0386206 0.12047
0.551644 0.0391241 0.122744
0.55227 0.0395209 0.1243
0.552666 0.039765 0.125475
0.552865 0.0400397 0.126787
0.552789 0.040238 0.128206
0.552575 0.0404364 0.12958
0.550469 0.0408331 0.132372
0.547082 0.0413825 0.135988
0.540215 0.0423285 0.143145
0.532891 0.0433051 0.151003
0.0450599 0.0416876 0.0429694
0.0448768 0.0418555 0.0432441
0.0450599 0.0416876 0.0429541
0.0491951 0.0412757 0.0424659
0.0617533 0.0398108 0.0419318
0.0839704 0.0378729 0.0420081
0.114427 0.035874 0.041886
0.147189 0.0337377 0.0427863
0.181216 0.031281 0.0435187
0.221851 0.0293889 0.0454108
0.271092 0.0276493 0.0484321
0.324102 0.0275731 0.0517891
0.375036 0.0282444 0.0563973
0.423239 0.0285344 0.0642252
0.464576 0.0294652 0.073579
0.495171 0.0302129 0.0827039
0.517128 0.0315862 0.0937057
0.531228 0.0345922 0.100862
0.541253 0.0370184 0.109606
0.542641 0.0372015 0.11284
0.544167 0.0375219 0.115496
0.545403 0.0380102 0.117998
0.546609 0.0384375 0.120638
0.547677 0.0388342 0.122667
0.54844 0.0392004 0.124361
0.548882 0.0395666 0.125551
0.549294 0.039826 0.126452
0.54963 0.0399786 0.127367
0.549889 0.0400702 0.127993
0.548608 0.0403449 0.129915
0.545647 0.0408026 0.133104
0.538888 0.0416876 0.139956
0.531441 0.042649 0.147433
0.0450599 0.0416876 0.0429694
0.0448768 0.0418555 0.0432441
0.0450599 0.0416876 0.0429541
0.0472572 0.0418402 0.0424353
0.0570535 0.0412299 0.0420844
0.0778821 0.0395361 0.0420844
0.106996 0.0374609 0.0426795
0.140948 0.0355535 0.0433356
0.177325 0.0326238 0.0439307
0.221393 0.0301213 0.0455482
0.272969 0.0276799 0.0474098
0.324468 0.026688 0.0499733
0.37557 0.0273594 0.052903
0.422995 0.0284581 0.0594186
0.464866 0.0294499 0.0691234
0.495552 0.0301671 0.0798047
0.516594 0.0319219 0.0896925
0.530434 0.0348821 0.0971084
0.538537 0.0366827 0.10399
0.541222 0.0370184 0.109316
0.542351 0.0371252 0.112139
0.543664 0.0374304 0.114595
0.544762 0.0377508 0.116915
0.545663 0.038117 0.118532
0.546532 0.038407 0.1205
0.54728 0.0386511 0.121782
0.547753 0.0388647 0.122866
0.548135 0.0390326 0.123552
0.548394 0.0391852 0.124224
0.546883 0.0394903 0.125811
0.544045 0.0399176 0.129198
0.537087 0.0408026 0.135714
0.529366 0.0417945 0.143145
0.0458381 0.0484169 0.0439765
0.0452888 0.0484321 0.044358
0.0454566 0.0476081 0.044358
0.0467536 0.0459602 0.0437781
0.0529946 0.0464027 0.0436866
0.070634 0.0445869 0.0434577
0.0982986 0.0410163 0.0427253
0.132784 0.0387732 0.0439155
0.168673 0.0361181 0.0451362
0.215946 0.0329137 0.0461585
0.271717 0.0301061 0.0475166
0.328176 0.0286412 0.0496986
0.378454 0.0276036 0.0519722
0.423407 0.028397 0.0559854
0.46331 0.0293584 0.0625925
0.492927 0.0300908 0.0719921
0.513298 0.0320592 0.08159
0.526802 0.0350958 0.0890669
0.533745 0.0364538 0.0953536
0.536965 0.0366217 0.100969
0.539742 0.0368658 0.105806
0.541253 0.0370184 0.109392
0.542153 0.0370794 0.111543
0.542931 0.0372778 0.113512
0.54374 0.0374304 0.114717
0.54435 0.0375677 0.115801
0.544717 0.0377356 0.116793
0.545022 0.0378729 0.117403
0.545312 0.0379797 0.117815
0.544152 0.0381781 0.119768
0.54139 0.038529 0.122972
0.53434 0.0393683 0.129366
0.526482 0.0402838 0.136385
0.0469673 0.0677348 0.0458839
0.0462806 0.0680705 0.0462806
0.0462043 0.0673991 0.0464637
0.0478981 0.0648966 0.0466011
0.0538491 0.0652934 0.0463264
0.0737621 0.0645457 0.0475624
0.1037 0.0621195 0.0469062
0.136172 0.0566873 0.0461585
0.169223 0.0484016 0.0458228
0.210285 0.0394446 0.0464942
0.265354 0.0343023 0.0482795
0.326253 0.0316625 0.0502785
0.380529 0.0299077 0.0519875
0.427482 0.0284581 0.0556649
0.465278 0.0294041 0.0621195
0.492897 0.0300755 0.0686961
0.510872 0.032166 0.0760357
0.522896 0.0349584 0.0816815
0.526589 0.0357366 0.084535
0.52871 0.0359197 0.0877394
0.531334 0.0362097 0.091371
0.53373 0.0364385 0.0953689
0.535729 0.0365911 0.0991379
0.537514 0.0366369 0.102159
0.538888 0.0367437 0.104219
0.539956 0.0369116 0.106126
0.540398 0.0369421 0.107179
0.540627 0.0369421 0.10779
0.540749 0.0369573 0.108171
0.539345 0.0371405 0.10988
0.536492 0.0374609 0.11249
0.530282 0.0382544 0.119295
0.522316 0.0391852 0.126055
0.0487984 0.0942397 0.0483558
0.0479591 0.0946975 0.0485237
0.0476234 0.0946822 0.0488441
0.0492866 0.0934157 0.0493782
0.053666 0.0914626 0.0501411
0.0697948 0.0940414 0.049424
0.107637 0.0918135 0.0527962
0.143313 0.0878004 0.0536812
0.181201 0.0800793 0.0518502
0.225162 0.0694896 0.0505379
0.273747 0.0534371 0.0492103
0.32369 0.0386358 0.049958
0.375158 0.0339666 0.0534981
0.42594 0.0302586 0.0566873
0.465827 0.0295262 0.0618601
0.494118 0.0301061 0.0683452
0.511864 0.0325017 0.0759442
0.524819 0.0354467 0.0818647
0.526864 0.0360876 0.0825971
0.526345 0.035935 0.0823529
0.525994 0.0358129 0.0823377
0.525505 0.0356909 0.0821088
0.525994 0.0357061 0.0829023
0.526848 0.0358282 0.0845197
0.527779 0.035874 0.0859236
0.52842 0.0359655 0.087129
0.528832 0.035996 0.0875868
0.529183 0.0360113 0.0879835
0.529442 0.0360418 0.0882734
0.527779 0.0362402 0.0894179
0.524727 0.0364996 0.0918746
0.51751 0.0372015 0.0971695
0.509499 0.037995 0.103502
0.0516976 0.123461 0.0516213
0.050721 0.124163 0.0511482
0.0502937 0.124422 0.0513466
0.0512856 0.123903 0.0514839
0.0569314 0.122362 0.0521706
0.0706188 0.123522 0.0534371
0.106188 0.125109 0.0517128
0.15758 0.12224 0.0567636
0.205051 0.115999 0.0610513
0.254292 0.105928 0.0567025
0.307622 0.089189 0.054963
0.353902 0.0724346 0.0542306
0.396002 0.0484016 0.0507515
0.431327 0.0360723 0.0551308
0.463249 0.0312047 0.0624857
0.487984 0.0305943 0.0703593
0.507164 0.0333104 0.0782177
0.521691 0.0364691 0.0854505
0.526696 0.0375067 0.0877546
0.526665 0.0373388 0.0874189
0.526497 0.0371557 0.0869917
0.526253 0.0370184 0.0865949
0.526009 0.0369116 0.0863508
0.525704 0.03682 0.086183
0.525383 0.0367895 0.0861372
0.525124 0.036759 0.0861677
0.52488 0.0367437 0.0862287
0.524651 0.036759 0.0863813
0.524422 0.0367895 0.0866102
0.523583 0.0368963 0.0872206
0.522438 0.0370336 0.0878767
0.518868 0.0374609 0.0902419
0.515145 0.0378729 0.0937209
0.0584421 0.154391 0.0541543
0.0562448 0.155413 0.0536049
0.0543526 0.156374 0.054078
0.0539864 0.156481 0.0542916
0.0585336 0.156664 0.0551461
0.0708629 0.155322 0.0561227
0.0971237 0.160189 0.0585336
0.147158 0.163439 0.0568246
0.215427 0.158206 0.0622263
0.282811 0.150393 0.0688792
0.340002 0.139239 0.0682841
0.390265 0.125124 0.0650797
0.435203 0.106828 0.0646525
0.471046 0.0877699 0.0650187
0.492668 0.0519417 0.0591745
0.496773 0.0370336 0.066392
0.503334 0.034287 0.0765545
0.517739 0.0374304 0.0865034
0.525994 0.039292 0.0920577
0.525628 0.0391852 0.0920577
0.525338 0.0390631 0.0920424
0.525063 0.0389715 0.0920577
0.524865 0.03888 0.0920729
0.524712 0.0388342 0.0920729
0.52462 0.0388037 0.0920882
0.524529 0.0387732 0.0920882
0.524514 0.0387732 0.0920729
0.524559 0.0387884 0.0920882
0.52462 0.038819 0.0920882
0.524681 0.0388342 0.0920577
0.524788 0.0388647 0.0920424
0.523278 0.0390936 0.0931411
0.520134 0.0395361 0.0951705
0.0599832 0.191135 0.0563516
0.0571908 0.192309 0.0555886
0.0552071 0.19321 0.0544137
0.0546883 0.193683 0.0545663
0.0561837 0.193851 0.0545663
0.0681315 0.195315 0.055848
0.0900893 0.197711 0.0580148
0.127291 0.208087 0.0607919
0.196002 0.216602 0.0615396
0.298955 0.213382 0.0711681
0.378958 0.209628 0.0841535
0.444099 0.198932 0.0936294
0.496345 0.187655 0.0921645
0.538781 0.168292 0.09514
0.571435 0.148821 0.0972305
0.581048 0.123903 0.0965133
0.555215 0.0727855 0.0793164
0.527291 0.043122 0.0745098
0.531579 0.0412604 0.0837415
0.530907 0.0407416 0.0875715
0.52958 0.0403601 0.0892042
0.529427 0.0403296 0.0893263
0.529305 0.0402991 0.0894179
0.529229 0.0402838 0.0895094
0.529198 0.0402686 0.0895705
0.529168 0.0402686 0.0895705
0.529183 0.0402838 0.0895705
0.529259 0.0402838 0.0895094
0.529366 0.0403143 0.0893873
0.529473 0.0403449 0.08925
0.52958 0.0403754 0.0890974
0.528069 0.0406043 0.090074
0.525307 0.0409857 0.0922408
0.0581979 0.239475 0.0556649
0.0557107 0.240864 0.0540322
0.0533608 0.241962 0.0518044
0.0526284 0.242634 0.0511025
0.0525673 0.242863 0.0510567
0.0582589 0.24593 0.0521401
0.0777447 0.250919 0.0551156
0.112505 0.260319 0.0600137
0.167468 0.282139 0.0664683
0.274205 0.296712 0.0684367
0.396368 0.294942 0.0811475
0.481407 0.294972 0.0966659
0.548333 0.279713 0.115755
0.60235 0.274342 0.12018
0.648585 0.261952 0.122957
0.685725 0.239597 0.138048
0.700587 0.218494 0.147112
0.687846 0.191714 0.146471
0.642939 0.142138 0.12459
0.597864 0.0920729 0.0960861
0.577554 0.0742199 0.0864271
0.566155 0.0631876 0.0860151
0.553933 0.0530861 0.0839704
0.543481 0.0462806 0.0810559
0.537774 0.0428016 0.0781567
0.537102 0.0428016 0.0758068
0.536751 0.0427405 0.0755779
0.536522 0.0426032 0.0773022
0.536416 0.0425574 0.0786755
0.539986 0.0448463 0.0809796
0.543496 0.0469215 0.0822919
0.545296 0.049134 0.0846876
0.545953 0.0518349 0.088014
0.0590219 0.302754 0.0569467
0.0561379 0.304646 0.0560311
0.0539406 0.30547 0.0532387
0.0527657 0.305791 0.0502327
0.0524453 0.306462 0.0504158
0.052842 0.3066 0.0501411
0.0652171 0.313863 0.0518349
0.0926223 0.320577 0.0550088
0.142473 0.338018 0.0614023
0.231235 0.368917 0.0706035
0.36585 0.389746 0.0742046
0.495735 0.388464 0.09131
0.577844 0.394903 0.109117
0.63888 0.381979 0.131456
0.692531 0.371679 0.144549
0.735882 0.368811 0.152667
0.765896 0.363348 0.15967
0.782345 0.350225 0.171435
0.784482 0.321752 0.18143
0.776745 0.300923 0.180117
0.768811 0.285237 0.177874
0.759197 0.26833 0.174563
0.752087 0.254902 0.173907
0.745068 0.245167 0.171542
0.73994 0.238193 0.169879
0.737041 0.23508 0.168643
0.736645 0.234806 0.168353
0.737881 0.236027 0.168948
0.740307 0.239109 0.169558
0.743633 0.243809 0.170275
0.746548 0.248325 0.171099
0.748257 0.254002 0.173449
0.747463 0.260121 0.177508
0.0558785 0.367193 0.0546731
0.0535439 0.369192 0.0541238
0.0518959 0.370809 0.0526284
0.0512398 0.370977 0.0488289
0.0509499 0.371801 0.0470283
0.0508125 0.37258 0.046891
0.0534371 0.374838 0.0469978
0.0709239 0.38349 0.0485237
0.108949 0.392706 0.0524453
0.185046 0.41796 0.0606088
0.316381 0.462547 0.0774548
0.459083 0.484474 0.0840162
0.580499 0.484382 0.11104
0.657389 0.49369 0.129107
0.710536 0.49192 0.154009
0.752667 0.479026 0.172183
0.787839 0.473686 0.188174
0.810742 0.475868 0.202869
0.822721 0.473884 0.211963
0.824033 0.463233 0.211597
0.822217 0.453529 0.20705
0.820447 0.444953 0.203586
0.818265 0.438178 0.200519
0.817639 0.434012 0.199924
0.817197 0.431632 0.199725
0.817151 0.430594 0.199893
0.817639 0.431388 0.200488
0.818433 0.433783 0.201541
0.819272 0.436851 0.20267
0.820172 0.440208 0.203784
0.821286 0.444663 0.205539
0.820188 0.44892 0.208728
0.816861 0.453483 0.214069
0.0547036 0.432547 0.0534371
0.0528267 0.434897 0.0542153
0.0516365 0.436606 0.0536202
0.0513924 0.437858 0.0509499
0.0516823 0.438987 0.0471504
0.0522621 0.440467 0.04654
0.0526284 0.441093 0.046479
0.0601511 0.444923 0.0460365
0.0903029 0.453742 0.0482032
0.149554 0.465232 0.0537423
0.269978 0.504982 0.0734722
0.421393 0.554025 0.0989395
0.544915 0.570977 0.108598
0.651652 0.568826 0.140108
0.719722 0.575875 0.162325
0.763622 0.587228 0.190555
0.796674 0.587304 0.223178
0.818845 0.592676 0.242618
0.832151 0.600824 0.252552
0.83386 0.594812 0.25182
0.833143 0.587854 0.248142
0.832746 0.582437 0.245045
0.832837 0.57818 0.243381
0.832639 0.576196 0.242145
0.832715 0.575341 0.241566
0.83267 0.575204 0.241413
0.832547 0.576013 0.241825
0.832853 0.578042 0.243137
0.832639 0.580819 0.2439
0.833326 0.584115 0.246326
0.833173 0.5879 0.24799
0.833143 0.592096 0.251408
0.832395 0.597299 0.256291
0.0632792 0.497017 0.0654154
0.0625315 0.499168 0.0660105
0.0617533 0.500999 0.0656443
0.0619059 0.502297 0.063508
0.0632181 0.504311 0.0605631
0.0661631 0.507103 0.0581216
0.0666209 0.507744 0.0580453
0.067216 0.507927 0.0573129
0.0919051 0.512718 0.0554513
0.147555 0.521553 0.0582284
0.24123 0.542962 0.0726482
0.383886 0.595636 0.108156
0.520211 0.633112 0.132601
0.618463 0.64651 0.145174
0.710735 0.64593 0.182574
0.7738 0.652674 0.2224
0.809613 0.665965 0.257572
0.831052 0.680018 0.283787
0.845121 0.694713 0.29749
0.847501 0.695399 0.299977
0.847395 0.692409 0.29987
0.846845 0.689891 0.299123
0.846998 0.688212 0.299031
0.846891 0.687266 0.298863
0.846922 0.687144 0.298939
0.84715 0.687694 0.299275
0.847395 0.688762 0.299779
0.847288 0.689891 0.299992
0.848051 0.69189 0.300786
0.848646 0.69395 0.301579
0.849134 0.696284 0.30248
0.849577 0.698619 0.303319
0.850248 0.701152 0.304509
0.0843366 0.55555 0.0950179
0.0850843 0.556832 0.0937514
0.0856641 0.558251 0.0928969
0.0884871 0.559915 0.0917525
0.0922255 0.561852 0.0882734
0.10193 0.564538 0.0831464
0.105928 0.565713 0.0825971
0.107042 0.565805 0.081529
0.117357 0.566293 0.0782177
0.170108 0.572213 0.0742199
0.243305 0.585916 0.0835889
0.359014 0.62472 0.117403
0.492958 0.675395 0.156298
0.607523 0.703944 0.18201
0.687312 0.718257 0.203815
0.7635 0.721111 0.252522
0.820569 0.727825 0.300954
0.848905 0.740993 0.332097
0.866743 0.754772 0.351095
0.872297 0.756222 0.356313
0.870787 0.753567 0.352804
0.870451 0.752728 0.351751
0.870237 0.752102 0.351202
0.870192 0.751904 0.351171
0.870405 0.752514 0.35198
0.870756 0.753353 0.35317
0.871214 0.754177 0.354376
0.871916 0.755215 0.355856
0.872419 0.756725 0.357122
0.872709 0.758282 0.358633
0.873579 0.759899 0.360555
0.874235 0.761593 0.362341
0.875456 0.763455 0.364752
0.126284 0.602197 0.140856
0.128588 0.603281 0.13991
0.13138 0.604761 0.139971
0.135576 0.606195 0.137881
0.142229 0.606775 0.13225
0.156115 0.609277 0.126879
0.169451 0.612268 0.124208
0.171664 0.612726 0.1234
0.17496 0.61268 0.121584
0.206195 0.614923 0.110582
0.269474 0.628595 0.114168
0.354818 0.654627 0.138872
0.482155 0.706233 0.189014
0.593088 0.74667 0.228748
0.688701 0.771008 0.261418
0.753765 0.787366 0.293385
0.812894 0.794736 0.337942
0.855726 0.80293 0.378347
0.880308 0.81004 0.404288
0.892058 0.810117 0.415518
0.891768 0.807019 0.413123
0.891661 0.806745 0.412802
0.891707 0.807019 0.413031
0.891691 0.807202 0.413123
0.891798 0.807614 0.413443
0.891966 0.808316 0.413916
0.892042 0.809079 0.414527
0.892653 0.81004 0.415915
0.893263 0.811292 0.417578
0.893324 0.812406 0.41854
0.893599 0.813657 0.419898
0.894255 0.815259 0.421668
0.894804 0.816953 0.423087
0.178744 0.639414 0.186969
0.180575 0.64033 0.187015
0.183108 0.641611 0.187213
0.187625 0.642603 0.184939
0.196567 0.643839 0.178897
0.213092 0.647044 0.174212
0.232242 0.651942 0.173571
0.236057 0.653117 0.173556
0.236545 0.65304 0.172534
0.248524 0.654124 0.168765
0.308324 0.665293 0.163729
0.384756 0.690013 0.182712
0.484855 0.731228 0.224704
0.597421 0.779019 0.275883
0.695109 0.81178 0.31783
0.76733 0.833707 0.353506
0.815229 0.84831 0.385657
0.852689 0.854185 0.415961
0.877958 0.854292 0.43563
0.895384 0.853712 0.452155
0.899031 0.851804 0.454444
0.899092 0.851484 0.454154
0.899016 0.851743 0.454337
0.898985 0.85211 0.454673
0.898985 0.852445 0.455009
0.898939 0.852918 0.455467
0.898833 0.853651 0.456168
0.899077 0.854582 0.457237
0.899153 0.855695 0.458061
0.899351 0.856855 0.45919
0.899397 0.857786 0.460563
0.899428 0.859144 0.461814
0.899428 0.860426 0.462715
0.226688 0.671138 0.225925
0.22884 0.672297 0.22565
0.230335 0.673609 0.226596
0.234592 0.674907 0.224155
0.24155 0.677134 0.220233
0.250431 0.680888 0.222065
0.263401 0.68481 0.222477
0.267552 0.686259 0.22266
0.270298 0.687007 0.222385
0.276265 0.687648 0.221195
0.343069 0.700816 0.225696
0.417197 0.72311 0.239811
0.501579 0.757183 0.271214
0.611276 0.806485 0.325765
0.705776 0.842847 0.374258
0.77847 0.864271 0.410971
0.818647 0.877134 0.431449
0.850065 0.884535 0.451469
0.87541 0.886778 0.47425
0.893385 0.886992 0.48925
0.900008 0.885756 0.493446
0.899916 0.885328 0.492576
0.899916 0.885664 0.493187
0.900084 0.886198 0.49395
0.899992 0.886809 0.494652
0.899748 0.887297 0.49514
0.899733 0.887785 0.496239
0.899855 0.888502 0.497307
0.899962 0.889281 0.498573
0.900175 0.890074 0.50016
0.900298 0.890913 0.501701
0.900328 0.891844 0.502678
0.900404 0.892699 0.504173
0.242802 0.694835 0.272526
0.240925 0.695583 0.277119
0.23798 0.696559 0.283558
0.236393 0.697383 0.288701
0.23476 0.698054 0.292332
0.234089 0.698344 0.293629
0.233768 0.698512 0.294484
0.234089 0.698436 0.294026
0.234287 0.698375 0.29366
0.234516 0.698009 0.292317
0.246479 0.692546 0.25539
0.357031 0.710628 0.241779
0.462638 0.749554 0.277394
0.575113 0.799481 0.331563
0.678584 0.843992 0.387655
0.762661 0.872984 0.434546
0.814374 0.889601 0.465751
0.844999 0.900023 0.48687
0.87068 0.905379 0.50901
0.88954 0.90724 0.531106
0.899092 0.907408 0.543145
0.898878 0.906798 0.538033
0.899077 0.90692 0.538064
0.899245 0.907195 0.538399
0.899413 0.9075 0.538979
0.899565 0.907881 0.539956
0.899687 0.908278 0.541283
0.899718 0.908293 0.54168
0.899733 0.908354 0.542153
0.899763 0.908431 0.542519
0.899748 0.908507 0.543114
0.899718 0.908568 0.54374
0.899687 0.90866 0.544533
0.236133 0.705409 0.323827
0.235172 0.705577 0.324575
0.233539 0.705943 0.326329
0.232181 0.706142 0.327443
0.231327 0.706172 0.328298
0.230991 0.706081 0.327977
0.230915 0.705806 0.326863
0.231067 0.705226 0.324422
0.231098 0.705165 0.324208
0.231098 0.705165 0.324208
0.231647 0.702876 0.314076
0.248234 0.692546 0.254719
0.366522 0.713527 0.244846
0.491203 0.762112 0.2916
0.626413 0.823209 0.361089
0.725689 0.861402 0.414435
0.795682 0.883833 0.456992
0.835706 0.897948 0.483085
0.863249 0.905608 0.507362
0.885588 0.908125 0.529885
0.897658 0.909087 0.54902
0.89839 0.90959 0.55404
0.898497 0.909651 0.554635
0.898482 0.909651 0.554574
0.898466 0.909636 0.554528
0.898466 0.909636 0.554528
0.898466 0.909636 0.554528
0.898482 0.909651 0.554559
0.898482 0.909651 0.554574
0.898482 0.909636 0.554543
0.898466 0.909651 0.554528
0.898482 0.909636 0.554513
0.898466 0.909636 0.554482
0.232578 0.706966 0.330755
0.232609 0.706798 0.330068
0.232334 0.706645 0.329534
0.231937 0.706523 0.329274
0.231281 0.706401 0.32929
0.230976 0.706157 0.328344
0.230854 0.705943 0.327443
0.231067 0.705272 0.324575
0.231098 0.705165 0.324208
0.231098 0.705165 0.324208
0.23122 0.704692 0.322347
0.239078 0.693492 0.265248
0.349477 0.708568 0.241428
0.463813 0.750317 0.280018
0.598459 0.810605 0.346929
0.705684 0.854566 0.40412
0.782757 0.879667 0.448478
0.829313 0.895796 0.478157
0.85861 0.904646 0.502831
0.882536 0.907958 0.526787
0.896437 0.908705 0.544762
0.898192 0.909377 0.551537
0.898436 0.90959 0.554147
0.898436 0.90959 0.554162
0.898436 0.90959 0.554162
0.898436 0.90959 0.554162
0.898436 0.90959 0.554162
0.898436 0.90959 0.554162
0.898436 0.90959 0.554162
0.898436 0.90959 0.554162
0.898589 0.909545 0.553735
0.898878 0.909453 0.552621
0.899367 0.9093 0.551049
0.235798 0.705974 0.326116
0.236194 0.705684 0.324758
0.235859 0.705592 0.324544
0.23508 0.705562 0.324544
0.233997 0.705516 0.324605
0.233433 0.705272 0.324132
0.233204 0.705089 0.323384
0.233585 0.704372 0.320012
0.233692 0.704189 0.319142
0.233692 0.704189 0.319142
0.233936 0.703624 0.31693
0.23714 0.694362 0.270771
0.343816 0.706477 0.237201
0.460655 0.748806 0.275212
0.592584 0.80798 0.341085
0.703365 0.853574 0.398611
0.781338 0.878721 0.441855
0.829038 0.894942 0.471382
0.858671 0.904067 0.496086
0.882155 0.907378 0.519631
0.89662 0.908278 0.538399
0.899596 0.908797 0.546059
0.899825 0.909117 0.549584
0.89984 0.909117 0.549615
0.89984 0.909117 0.549615
0.89984 0.909117 0.549615
0.89984 0.909117 0.549615
0.899672 0.909178 0.550027
0.899367 0.9093 0.551049
0.898878 0.909453 0.552621
0.898726 0.909499 0.553201
0.898878 0.909453 0.552621
0.899367 0.9093 0.551049
0.235752 0.706142 0.326848
0.236149 0.705852 0.32546
0.235843 0.705791 0.3252
0.23505 0.70576 0.3252
0.233936 0.705699 0.3252
0.233387 0.705364 0.324437
0.233188 0.705135 0.323491
0.233555 0.704448 0.320394
0.233692 0.704189 0.319142
0.233692 0.704189 0.319142
0.233951 0.703655 0.316991
0.238834 0.694865 0.272786
0.342138 0.706096 0.237018
0.45803 0.747677 0.27454
0.585916 0.805127 0.339361
0.698878 0.851881 0.398703
0.7785 0.87808 0.442679
0.826917 0.894316 0.471748
0.857221 0.903609 0.495277
0.881086 0.907225 0.518441
0.896071 0.908095 0.536904
0.899535 0.908736 0.54548
0.899825 0.909072 0.54931
0.899855 0.909117 0.549615
0.89984 0.909117 0.549615
0.89984 0.909117 0.549615
0.89984 0.909117 0.549615
0.899672 0.909178 0.550027
0.899367 0.9093 0.551049
0.898878 0.909453 0.552621
0.898726 0.909499 0.553201
0.898878 0.909453 0.552621
0.899367 0.9093 0.551064
0.235721 0.706249 0.327398
0.236133 0.705974 0.326085
0.235813 0.705913 0.32578
0.235035 0.705898 0.325826
0.233906 0.705837 0.32578
0.233341 0.70544 0.324666
0.233173 0.705165 0.323644
0.233555 0.704463 0.320439
0.233692 0.704189 0.319142
0.233692 0.704189 0.319142
0.233722 0.704128 0.318929
0.239551 0.694606 0.270939
0.343954 0.706447 0.236561
0.460121 0.748608 0.275547
0.584497 0.804547 0.33872
0.698177 0.851698 0.399405
0.776867 0.877852 0.444129
0.826169 0.894469 0.474769
0.855329 0.903517 0.49688
0.879774 0.907271 0.519081
0.895308 0.908049 0.536141
0.899474 0.908705 0.545174
0.899794 0.909056 0.549004
0.89984 0.909117 0.549615
0.89984 0.909117 0.549615
0.89984 0.909117 0.549615
0.89984 0.909117 0.549615
0.899672 0.909178 0.550027
0.899367 0.9093 0.551064
0.898878 0.909453 0.552621
0.898573 0.909545 0.553719
0.898573 0.909545 0.553719
0.898878 0.909453 0.552621
0.234852 0.706676 0.329503
0.235737 0.706203 0.327138
0.235782 0.705989 0.326223
0.235004 0.706004 0.326253
0.233875 0.705913 0.326146
0.233326 0.705516 0.324834
0.233158 0.705196 0.323735
0.233539 0.704463 0.320439
0.233692 0.704189 0.319142
0.233692 0.704189 0.319142
0.233692 0.704189 0.319142
0.238773 0.694392 0.27013
0.346303 0.706935 0.236912
0.465904 0.75108 0.27805
0.589899 0.806745 0.341207
0.700908 0.85272 0.400702
0.779171 0.878492 0.445914
0.826642 0.894881 0.476326
0.855085 0.903807 0.499733
0.878798 0.907469 0.521889
0.893767 0.908354 0.538918
0.898451 0.90901 0.548241
0.898955 0.909331 0.551354
0.899123 0.909377 0.551751
0.899214 0.909346 0.551522
0.899275 0.909331 0.551339
0.899321 0.909316 0.551202
0.899184 0.909361 0.551583
0.898878 0.909453 0.552651
0.898436 0.90959 0.554162
0.898177 0.909682 0.555108
0.898054 0.909712 0.555688
0.898131 0.909682 0.555276
0.232456 0.707683 0.333898
0.233265 0.707164 0.33167
0.233799 0.706767 0.329885
0.233799 0.706477 0.328496
0.233265 0.706172 0.327214
0.233127 0.705623 0.325322
0.233173 0.70518 0.32369
0.233539 0.704448 0.320333
0.233692 0.704189 0.319142
0.233692 0.704189 0.319142
0.233799 0.703975 0.318273
0.237552 0.694148 0.269673
0.35198 0.708766 0.238315
0.472511 0.753811 0.281621
0.597208 0.81001 0.34464
0.705989 0.854643 0.4038
0.782223 0.879469 0.44831
0.827558 0.895323 0.477409
0.856382 0.904143 0.500984
0.879332 0.907546 0.522988
0.893721 0.908476 0.54049
0.897963 0.909163 0.549844
0.898344 0.909529 0.553384
0.898436 0.90959 0.554162
0.898436 0.90959 0.554162
0.898436 0.90959 0.554162
0.898436 0.90959 0.554162
0.898299 0.909636 0.554574
0.898085 0.909712 0.555566
0.897856 0.909758 0.556985
0.897734 0.909804 0.557885
0.897642 0.909819 0.558175
0.897642 0.909819 0.558175
0.230671 0.708583 0.338643
0.231205 0.708171 0.336599
0.231754 0.707652 0.333852
0.232273 0.707118 0.331487
0.232624 0.706447 0.328511
0.232929 0.705699 0.325673
0.233173 0.70515 0.323613
0.233555 0.704417 0.320256
0.233692 0.704189 0.319142
0.233692 0.704189 0.319142
0.233997 0.703319 0.315847
0.238834 0.693797 0.26746
0.362036 0.711788 0.241169
0.480278 0.757183 0.284916
0.604105 0.813169 0.348638
