bundles/resolve-cinematic-luts/Phantom Luts/Komodo Phantom FILM LUTs G2/Komodo Phantom FILM LUTs G2/33x/WB Offset - Green Boost/EastmanRM_Komodo_WBO_G2_33x.cube
TITLE "Generated by Resolve"
LUT_3D_SIZE 5
0.0446021 0.0421149 0.0435492
0.180865 0.0316472 0.0438544
0.518822 0.0311742 0.0933394
0.55227 0.0395209 0.1243
0.532891 0.0433051 0.151003
0.0599832 0.191135 0.0563516
0.196002 0.216602 0.0615396
0.555215 0.0727855 0.0793164
0.529198 0.0402686 0.0895705
0.525307 0.0409857 0.0922408
0.178744 0.639414 0.186969
0.236545 0.65304 0.172534
0.815229 0.84831 0.385657
0.898985 0.852445 0.455009
0.899428 0.860426 0.462715
0.234852 0.706676 0.329503
0.233692 0.704189 0.319142
0.779171 0.878492 0.445914
0.899214 0.909346 0.551522
0.898131 0.909682 0.555276
0.230457 0.708858 0.339864
0.237354 0.702983 0.312978
0.819593 0.890867 0.45803
0.901274 0.908644 0.543908
0.897795 0.909789 0.557443
0.0408789 0.0571145 0.106554
0.177966 0.0510567 0.136584
0.537072 0.0466621 0.170611
0.577905 0.0669413 0.223667
0.574166 0.0804913 0.26009
0.0556649 0.173663 0.13463
0.175555 0.201038 0.175097
0.532921 0.0423285 0.131884
0.536873 0.0418708 0.141039
0.534401 0.0431067 0.149248
0.1364 0.65684 0.317113
0.152758 0.644282 0.230304
0.808667 0.840711 0.373175
0.898497 0.839063 0.443549
0.898665 0.845991 0.449424
0.23772 0.733135 0.429221
0.232685 0.708247 0.336614
0.744366 0.867842 0.425299
0.899825 0.909117 0.549676
0.898436 0.90959 0.554162
0.241489 0.743343 0.465599
0.236423 0.707652 0.333303
0.787442 0.880125 0.437385
0.901274 0.908644 0.543908
0.897642 0.909819 0.558175
0.0419471 0.0959487 0.341009
0.0990005 0.0711223 0.414008
0.573999 0.123079 0.497627
0.625437 0.148989 0.537499
0.623804 0.158846 0.562585
0.0421912 0.156558 0.368368
0.042298 0.0890211 0.36936
0.588479 0.134401 0.518364
0.634684 0.151583 0.5402
0.628733 0.158404 0.560327
0.108553 0.641199 0.556283
0.103975 0.645975 0.566934
0.72108 0.753735 0.706905
0.879072 0.716106 0.685786
0.876005 0.726589 0.701686
0.24947 0.767193 0.619959
0.240986 0.767971 0.616022
0.340597 0.746929 0.422965
0.899138 0.908598 0.544289
0.898955 0.909072 0.548898
0.243885 0.769329 0.649577
0.242512 0.768811 0.634104
0.430762 0.772747 0.492393
0.898024 0.908583 0.544137
0.897368 0.909514 0.554376
0.0430457 0.0958267 0.405921
0.10341 0.0984665 0.466957
0.575647 0.152758 0.586526
0.631571 0.1729 0.606897
0.630457 0.173159 0.607645
0.042649 0.15465 0.426841
0.0461891 0.0958724 0.417884
0.586191 0.157946 0.592264
0.632486 0.172671 0.606332
0.630625 0.173129 0.607492
0.0792248 0.589532 0.623636
0.0770123 0.588388 0.624338
0.550698 0.58648 0.782879
0.888319 0.656229 0.877577
0.887144 0.668223 0.878065
0.241581 0.762463 0.703838
0.238453 0.763119 0.705959
0.264454 0.776364 0.708736
0.900496 0.941176 0.904494
0.907607 0.943893 0.906493
0.241321 0.762509 0.704051
0.238453 0.763119 0.705959
0.272526 0.78117 0.708415
0.903197 0.949264 0.908827
0.91635 0.955795 0.918379
0.0475929 0.0958877 0.419516
0.115068 0.0879225 0.478798
0.591287 0.159243 0.59295
0.631571 0.1729 0.606897
0.630854 0.173083 0.607355
0.0424811 0.144411 0.418265
0.0510719 0.0962081 0.426322
0.596658 0.162188 0.596551
0.632502 0.172671 0.606332
0.630625 0.173129 0.607492
0.0777905 0.586511 0.622126
0.0758984 0.585473 0.623606
0.551965 0.57615 0.783032
0.887938 0.648478 0.87686
0.886961 0.662379 0.877836
0.241505 0.762478 0.703914
0.238453 0.763119 0.705959
0.233005 0.759716 0.706096
0.895628 0.933669 0.906203
0.907454 0.939834 0.910872
0.241199 0.762539 0.704158
0.238453 0.763119 0.705959
0.262211 0.779507 0.718914
0.876402 0.940505 0.904128
0.918639 0.957748 0.923781
