bundles/resolve-cinematic-luts/Phantom Luts/Komodo Phantom FILM LUTs G2/Komodo Phantom FILM LUTs G2/33x/WB Offset - Green Boost/EastmanRM_Komodo_WBO_Legacy_G2_33x.cube
TITLE "Generated by Resolve"
LUT_3D_SIZE 9
0.0506142 0.0584726 0.0538033
0.0681163 0.0543069 0.0493324
0.156069 0.0448157 0.0487831
0.322805 0.0401007 0.0575113
0.509468 0.0344244 0.081529
0.549325 0.0414588 0.102846
0.553185 0.0417792 0.110109
0.546624 0.0388952 0.11249
0.526009 0.0419013 0.133516
0.0533761 0.0728161 0.0541695
0.0579995 0.0717632 0.0544442
0.143801 0.0588235 0.0517433
0.329335 0.0402686 0.0539712
0.505241 0.0369879 0.0694743
0.530571 0.0412451 0.0818341
0.537896 0.0417182 0.0942092
0.540078 0.0417792 0.0973526
0.521279 0.0443427 0.114778
0.0704967 0.1617 0.0647898
0.064622 0.164767 0.0657054
0.155459 0.1738 0.0676738
0.416327 0.147753 0.0776226
0.536873 0.0635996 0.0713817
0.531136 0.0470893 0.0836042
0.530678 0.0468605 0.0837262
0.530922 0.046952 0.0836652
0.526894 0.0479744 0.0869917
0.063386 0.381826 0.0573739
0.0558785 0.390005 0.0532235
0.0821393 0.401251 0.0537575
0.473136 0.507424 0.0954452
0.762402 0.525551 0.173465
0.815213 0.525826 0.204089
0.815106 0.512993 0.200992
0.815229 0.518822 0.202487
0.81181 0.535714 0.212512
0.150484 0.616037 0.149599
0.166873 0.623148 0.150011
0.202518 0.633921 0.149645
0.421912 0.691829 0.17644
0.788174 0.831846 0.351308
0.898009 0.837201 0.440085
0.8981 0.838239 0.441093
0.898299 0.842405 0.444312
0.898482 0.848402 0.449042
0.227726 0.697368 0.299336
0.226184 0.697414 0.299611
0.225956 0.696605 0.29546
0.320806 0.698192 0.229236
0.749752 0.869444 0.416663
0.895979 0.907774 0.526955
0.898756 0.908217 0.533867
0.898756 0.908217 0.533867
0.89958 0.907958 0.530449
0.229435 0.697139 0.298085
0.228946 0.696757 0.296056
0.22887 0.695735 0.29102
0.318334 0.697093 0.225086
0.745037 0.867979 0.413947
0.893599 0.907439 0.520363
0.899901 0.907851 0.529473
0.899489 0.907988 0.530709
0.898787 0.908202 0.533715
0.226108 0.69839 0.304387
0.232486 0.695705 0.289876
0.236332 0.693828 0.278233
0.36347 0.708537 0.223529
0.77145 0.875776 0.415213
0.897871 0.906889 0.514443
0.901686 0.907256 0.523171
0.901106 0.907439 0.525368
0.898039 0.908461 0.535821
0.224384 0.699062 0.308125
0.228901 0.696773 0.296117
0.232456 0.694743 0.284123
0.40943 0.725078 0.236988
0.795102 0.884306 0.43003
0.901137 0.906905 0.518914
0.901686 0.907256 0.523171
0.901106 0.907439 0.525368
0.897765 0.908553 0.536812
0.0496071 0.0587472 0.0594034
0.063508 0.0588388 0.0604257
0.145785 0.0551614 0.0644236
0.317647 0.0450294 0.0773327
0.503929 0.0369116 0.10634
0.538781 0.0416419 0.128725
0.543069 0.0435187 0.136812
0.543816 0.0449989 0.141787
0.530831 0.0476234 0.156893
0.0522774 0.0690166 0.0587472
0.0559854 0.0675212 0.0589914
0.136706 0.0517433 0.058854
0.32256 0.0431678 0.0683299
0.500481 0.0366522 0.100572
0.5337 0.043595 0.120516
0.536141 0.0435645 0.127825
0.532082 0.0412451 0.129061
0.522057 0.0429694 0.140642
0.0669108 0.159365 0.0780041
0.0622263 0.161471 0.0717479
0.147875 0.169421 0.0681773
0.404211 0.130297 0.0749981
0.514076 0.0489967 0.0729839
0.522438 0.0462959 0.0878309
0.521538 0.0458991 0.0877546
0.521706 0.0459754 0.0877394
0.517708 0.0468757 0.0907759
0.0609751 0.381765 0.0769818
0.0555886 0.388113 0.0672618
0.0695354 0.39469 0.0520638
0.47245 0.504891 0.0949416
0.764645 0.516075 0.172534
0.814878 0.51194 0.200839
0.814649 0.498146 0.199222
0.814923 0.503716 0.199878
0.810758 0.519814 0.20856
0.130953 0.616739 0.177249
0.142763 0.621393 0.17232
0.20209 0.633494 0.149264
0.403632 0.684291 0.168338
0.787854 0.831098 0.350118
0.897734 0.834577 0.438132
0.897749 0.834684 0.438163
0.898085 0.839231 0.441703
0.898253 0.845182 0.446189
0.227451 0.698131 0.302708
0.225345 0.698253 0.303685
0.225834 0.696803 0.296513
0.291783 0.692271 0.226688
0.744183 0.867552 0.413428
0.895766 0.90779 0.52668
0.898756 0.908217 0.533867
0.898756 0.908217 0.533867
0.898878 0.908171 0.533379
0.227878 0.698482 0.304219
0.228107 0.697719 0.300877
0.228733 0.696086 0.292485
0.283589 0.690272 0.222721
0.737011 0.864897 0.409644
0.892088 0.907423 0.518532
0.900038 0.90782 0.529107
0.899565 0.907958 0.53048
0.898848 0.908186 0.533501
0.224445 0.700374 0.314
0.231556 0.696773 0.294911
0.236133 0.694026 0.279362
0.328328 0.69836 0.215579
0.762676 0.872831 0.410208
0.896071 0.906813 0.512093
0.901686 0.907256 0.523171
0.901106 0.907439 0.525368
0.897765 0.908553 0.536812
0.224216 0.701442 0.318975
0.228061 0.698039 0.302144
0.232593 0.694789 0.284306
0.375113 0.712413 0.226841
0.788083 0.8813 0.42562
0.89958 0.906859 0.516594
0.901686 0.907256 0.523171
0.901106 0.907439 0.525368
0.897749 0.908553 0.536797
0.0457618 0.0673075 0.096376
0.0558938 0.0621653 0.108812
0.147662 0.0634928 0.114488
0.330694 0.0575113 0.110826
0.521447 0.0466773 0.14229
0.565606 0.0569009 0.174228
0.571679 0.0616159 0.184298
0.573983 0.0647135 0.192706
0.562524 0.0700999 0.21326
0.0446784 0.0721904 0.0887312
0.0471656 0.0663005 0.102876
0.14255 0.0654307 0.120562
0.341299 0.0573434 0.111635
0.524315 0.0456245 0.145586
0.556374 0.0545663 0.171923
0.562005 0.0587167 0.180652
0.565866 0.0612497 0.186145
0.557107 0.0653849 0.201907
0.0627146 0.145602 0.113115
0.0579385 0.147219 0.119417
0.139864 0.163409 0.141222
0.398627 0.0927443 0.11165
0.523125 0.0438087 0.11519
0.533837 0.0433204 0.120943
0.536645 0.0437934 0.127352
0.538277 0.0441596 0.130465
0.532464 0.043946 0.134554
0.0637522 0.377111 0.140764
0.057435 0.383963 0.137194
0.0568856 0.377157 0.0809796
0.452873 0.488029 0.0965591
0.767529 0.475349 0.166384
0.8121 0.458824 0.194202
0.809873 0.441978 0.18967
0.811215 0.445502 0.190677
0.806928 0.458824 0.200565
0.106676 0.6215 0.25185
0.106096 0.625986 0.251896
0.124971 0.618341 0.185
0.331975 0.653956 0.137514
0.778836 0.821851 0.335912
0.896284 0.822217 0.428138
0.896345 0.820645 0.427024
0.896544 0.823774 0.429831
0.897169 0.829725 0.434043
0.226383 0.710506 0.354406
0.223682 0.706523 0.339696
0.224384 0.698924 0.307469
0.233631 0.689036 0.254353
0.71986 0.859007 0.399756
0.893355 0.907546 0.522744
0.898756 0.908217 0.533898
0.898756 0.908217 0.533867
0.898756 0.908217 0.533867
0.225925 0.719524 0.387472
0.224094 0.713695 0.367727
0.227054 0.698482 0.304631
0.231861 0.69099 0.26511
0.704524 0.853193 0.391852
0.885954 0.907149 0.510155
0.900114 0.90779 0.528786
0.89958 0.907958 0.530449
0.898756 0.908217 0.533867
0.225071 0.725032 0.409094
0.22385 0.719341 0.386984
0.232685 0.696971 0.295445
0.243427 0.687404 0.238834
0.730388 0.861784 0.392126
0.888472 0.906722 0.50367
0.901686 0.907256 0.523171
0.901106 0.907439 0.525368
0.897765 0.908553 0.536812
0.226947 0.728878 0.423041
0.22414 0.722667 0.401007
0.230854 0.697871 0.300618
0.260914 0.687816 0.225818
0.755032 0.870268 0.406012
0.892531 0.906767 0.507912
0.901686 0.907256 0.523171
0.901106 0.907439 0.525368
0.897505 0.908629 0.537758
0.0432593 0.0821851 0.17789
0.049897 0.0783093 0.192355
0.120455 0.068513 0.238682
0.349264 0.0688334 0.258854
0.527214 0.0595712 0.261006
0.573281 0.0785229 0.292546
0.573754 0.081239 0.30486
0.575402 0.0861982 0.31783
0.565026 0.0935073 0.343893
0.0420539 0.0942702 0.178973
0.0433051 0.0825666 0.194156
0.105714 0.0679484 0.251087
0.36112 0.0704204 0.279774
0.534188 0.0638743 0.277577
0.567025 0.079408 0.302434
0.566171 0.0810407 0.313375
0.572839 0.0882124 0.327169
0.564187 0.0944228 0.348974
0.047364 0.138247 0.174182
0.044831 0.134463 0.185748
0.055375 0.102922 0.243458
0.352789 0.0789197 0.287221
0.548714 0.0625315 0.247044
0.58381 0.0776226 0.27129
0.581201 0.0776074 0.278584
0.579355 0.0776226 0.283406
0.565606 0.080415 0.301869
0.0665599 0.352255 0.277836
0.0602731 0.358755 0.290318
0.0601511 0.356542 0.286961
0.412924 0.439368 0.393866
0.766888 0.346273 0.365698
0.824308 0.271061 0.355047
0.813077 0.252476 0.351614
0.812314 0.251728 0.353765
0.813489 0.263737 0.367269
0.099733 0.635843 0.393668
0.0955062 0.642603 0.407279
0.0942245 0.638865 0.379446
0.106416 0.603555 0.20502
0.714031 0.76405 0.321706
0.893736 0.778576 0.407279
0.891524 0.771954 0.401511
0.892943 0.772824 0.404837
0.895857 0.776745 0.411643
0.231159 0.73521 0.45594
0.225101 0.737346 0.463722
0.224781 0.732799 0.441871
0.224369 0.700664 0.315465
0.642664 0.828916 0.360174
0.888609 0.906783 0.50457
0.9019 0.907408 0.524742
0.901762 0.907317 0.523781
0.901778 0.907332 0.523827
0.228595 0.743328 0.486748
0.226383 0.742535 0.483543
0.225055 0.73547 0.455726
0.226139 0.701671 0.318868
0.598581 0.809461 0.334569
0.86479 0.90544 0.490242
0.899992 0.907729 0.527977
0.899535 0.907958 0.530327
0.898711 0.908202 0.5337
0.229023 0.74818 0.505272
0.227466 0.746517 0.499474
0.225391 0.738338 0.468055
0.231296 0.702602 0.322072
0.622507 0.819623 0.336645
0.863767 0.904891 0.48191
0.901366 0.907088 0.520928
0.901076 0.907423 0.525124
0.897704 0.908537 0.536507
0.231266 0.751858 0.521431
0.229877 0.750393 0.513726
0.226291 0.742031 0.481407
0.230594 0.705867 0.335546
0.656733 0.834134 0.354177
0.869459 0.90544 0.486412
0.90135 0.907057 0.520546
0.901045 0.907408 0.524926
0.897673 0.908522 0.536309
0.0419318 0.100328 0.31664
0.0431067 0.0938735 0.324346
0.0825666 0.0953994 0.365454
0.324819 0.0784466 0.435294
0.567636 0.118776 0.477501
0.62443 0.143084 0.499702
0.633463 0.152499 0.522423
0.634958 0.156664 0.534691
0.626902 0.161532 0.549828
0.0419928 0.111711 0.330861
0.0420539 0.101167 0.333333
0.0731823 0.0974136 0.373526
0.333394 0.0807202 0.452049
0.583215 0.12874 0.495048
0.634043 0.151202 0.518822
0.64007 0.157595 0.536141
0.64033 0.160861 0.546029
0.629313 0.16463 0.559472
0.0419318 0.137713 0.332891
0.0419776 0.134661 0.347936
0.0424811 0.0975052 0.346349
0.294636 0.0815747 0.453407
0.582956 0.130465 0.500572
0.635767 0.147677 0.509194
0.640665 0.153368 0.523445
0.642802 0.156283 0.532006
0.632364 0.160662 0.546685
0.0434272 0.335348 0.407126
0.0432746 0.337484 0.419242
0.0433509 0.321889 0.42414
0.212024 0.280797 0.534173
0.743221 0.315663 0.672709
0.762402 0.236225 0.597116
0.738231 0.213962 0.570611
0.735012 0.21323 0.572946
0.739574 0.228901 0.598367
0.0868238 0.605295 0.514534
0.0816663 0.610544 0.527199
0.0817426 0.61117 0.527382
0.0813611 0.605341 0.518883
0.676509 0.707942 0.6598
0.872755 0.669474 0.635493
0.874266 0.659693 0.6336
0.874815 0.662531 0.638407
0.871656 0.671107 0.650935
0.235782 0.753307 0.569955
0.232212 0.756924 0.577966
0.2271 0.75407 0.571115
0.216846 0.745907 0.541665
0.479103 0.771115 0.500084
0.861646 0.908766 0.687541
0.914733 0.913115 0.706706
0.91487 0.910948 0.714672
0.914611 0.912718 0.723491
0.252201 0.763928 0.59144
0.244297 0.76556 0.598398
0.241657 0.764279 0.586618
0.236332 0.757198 0.545434
0.303868 0.731563 0.380194
0.835996 0.902922 0.501244
0.900511 0.907103 0.521706
0.900633 0.907271 0.523903
0.90013 0.907439 0.525704
0.248432 0.766262 0.612253
0.246174 0.766613 0.611261
0.243565 0.765667 0.598337
0.237461 0.758724 0.552956
0.321874 0.737453 0.397223
0.824765 0.902098 0.536278
0.900023 0.907042 0.520912
0.900053 0.907439 0.525872
0.898497 0.907942 0.530938
0.247074 0.766995 0.626505
0.246662 0.76701 0.623621
0.244892 0.766613 0.608347
0.238911 0.760143 0.56109
0.377127 0.752712 0.435492
0.827436 0.905241 0.588525
0.898619 0.907332 0.52517
0.898711 0.907851 0.529854
0.897154 0.908339 0.53492
0.0422522 0.109087 0.394339
0.0423896 0.104005 0.400916
0.0632639 0.108125 0.439536
0.235981 0.0852827 0.510704
0.541817 0.141802 0.574014
0.628199 0.174456 0.601129
0.628153 0.174456 0.601144
0.627832 0.174533 0.601358
0.625345 0.175113 0.602975
0.0424048 0.116747 0.393515
0.0422827 0.107362 0.396826
0.0588693 0.108003 0.437446
0.256153 0.0874037 0.514519
0.562509 0.150195 0.580713
0.629007 0.174243 0.600687
0.629007 0.174243 0.600702
0.628534 0.174365 0.600946
0.625345 0.175113 0.60296
0.0426642 0.146868 0.423575
0.0424811 0.140383 0.420462
0.0423896 0.104387 0.401892
0.212619 0.0834821 0.50753
0.56051 0.149737 0.58085
0.629877 0.174029 0.600214
0.630259 0.173953 0.599954
0.630228 0.173953 0.59997
0.626749 0.174777 0.602106
0.0436561 0.270954 0.468849
0.0437781 0.268925 0.472618
0.0434272 0.244175 0.467643
0.0873426 0.157687 0.499992
0.582925 0.196933 0.659449
0.664164 0.197467 0.631098
0.63949 0.177722 0.602167
0.652277 0.187884 0.617182
0.659327 0.197879 0.632578
0.0656901 0.566217 0.580621
0.0649271 0.568109 0.585107
0.0639048 0.564095 0.585626
0.05832 0.542779 0.583627
0.535195 0.584833 0.752453
0.886412 0.64715 0.838514
0.892256 0.639078 0.833768
0.892195 0.642329 0.833906
0.888533 0.650523 0.837766
0.193957 0.716991 0.63389
0.189364 0.719188 0.639384
0.177508 0.710323 0.630411
0.168139 0.703136 0.623163
0.379614 0.766964 0.692439
0.840009 0.878096 0.83975
0.902632 0.879088 0.839139
0.903304 0.877653 0.837659
0.902296 0.881193 0.843458
0.258412 0.7635 0.674372
0.251698 0.764645 0.678584
0.251453 0.765393 0.672374
0.250294 0.766629 0.653574
0.270237 0.781781 0.64329
0.798123 0.905959 0.799298
0.903151 0.94316 0.86424
0.905318 0.944106 0.868025
0.905653 0.944656 0.872221
0.252857 0.76289 0.687099
0.252018 0.763409 0.686534
0.251652 0.764645 0.679072
0.250568 0.766522 0.656092
0.273869 0.783398 0.646922
0.787945 0.902571 0.793881
0.892729 0.939513 0.842908
0.906737 0.9299 0.721736
0.905455 0.927413 0.6981
0.25301 0.761227 0.692241
0.252125 0.762173 0.692226
0.251759 0.763851 0.684215
0.250736 0.766278 0.659922
0.279591 0.786862 0.657649
0.803677 0.909438 0.811688
0.892454 0.940459 0.85687
0.902953 0.940764 0.828962
0.904341 0.935607 0.781186
0.0425422 0.10399 0.403067
0.0447242 0.104128 0.414389
0.0771344 0.109148 0.450217
0.269245 0.0886702 0.516869
0.560433 0.149035 0.579751
0.628122 0.174472 0.601175
0.628122 0.174472 0.601175
0.629969 0.174014 0.600153
0.626825 0.174762 0.602045
0.0422827 0.107332 0.396384
0.0428321 0.103639 0.405722
0.0716564 0.108873 0.446433
0.286152 0.0906386 0.520104
0.578408 0.156283 0.585779
0.628275 0.174426 0.601083
0.62826 0.174426 0.601083
0.628 0.174502 0.601251
0.625345 0.175113 0.60296
0.0424964 0.142107 0.421012
0.0424659 0.127337 0.407355
0.0437781 0.10396 0.410956
0.238453 0.0855268 0.511238
0.571832 0.154376 0.584665
0.629175 0.174212 0.60061
0.629374 0.174151 0.600504
0.629358 0.174151 0.600519
0.626657 0.174807 0.602167
0.0430304 0.225574 0.459098
0.0430304 0.225467 0.460456
0.0428168 0.20679 0.45243
0.0742962 0.128435 0.470161
0.521355 0.149203 0.594491
0.630457 0.174823 0.601083
0.632029 0.17464 0.600473
0.63209 0.174685 0.600549
0.629023 0.17557 0.602747
0.0621195 0.545388 0.599893
0.0619821 0.547845 0.601999
0.0605936 0.544076 0.600732
0.0538949 0.520485 0.593912
0.4795 0.525261 0.74934
0.875288 0.6103 0.868528
0.881453 0.60499 0.867231
0.882383 0.609583 0.868284
0.882353 0.618082 0.869764
0.154925 0.673274 0.654627
0.150378 0.674006 0.657511
0.147692 0.672007 0.657145
0.127901 0.657404 0.652155
0.2047 0.690837 0.697505
0.794476 0.830732 0.870192
0.901381 0.854994 0.886259
0.902464 0.855131 0.884886
0.901137 0.859602 0.887251
0.24921 0.758206 0.700816
0.246601 0.75874 0.702586
0.246403 0.75877 0.702739
0.247791 0.759152 0.701152
0.272328 0.776135 0.704356
0.746731 0.899382 0.852003
0.899306 0.940398 0.903624
0.907515 0.94345 0.905653
0.907347 0.943496 0.906035
0.2533 0.757412 0.69749
0.246647 0.75874 0.702556
0.246403 0.75877 0.702739
0.248631 0.759472 0.700389
0.27715 0.77995 0.701625
0.539361 0.855421 0.773312
0.900252 0.947326 0.905119
0.909728 0.951141 0.910185
0.909422 0.9514 0.911574
0.248646 0.758312 0.701213
0.24715 0.758633 0.702174
0.246403 0.75877 0.702739
0.248539 0.759487 0.700435
0.280217 0.782223 0.703777
0.603403 0.871733 0.796323
0.900313 0.947555 0.906188
0.910704 0.95111 0.910353
0.910292 0.951263 0.911009
0.0436408 0.103792 0.409155
0.0476997 0.105241 0.42211
0.0859541 0.108827 0.454185
0.288853 0.0910353 0.520668
0.570092 0.15288 0.582773
0.628122 0.174472 0.601175
0.628122 0.174472 0.601175
0.63006 0.173999 0.600092
0.626902 0.174746 0.601999
0.0423438 0.104753 0.400214
0.0440223 0.103944 0.411841
0.0793164 0.10901 0.451453
0.302037 0.0924086 0.523003
0.586786 0.159747 0.588861
0.62826 0.174426 0.601083
0.62826 0.174426 0.601083
0.627985 0.174502 0.601251
0.625345 0.175113 0.60296
0.0425116 0.137148 0.416068
0.0424201 0.122454 0.401068
0.0453346 0.104097 0.416022
0.252918 0.0873274 0.514183
0.578851 0.157229 0.587167
0.629297 0.174182 0.600549
0.629389 0.174151 0.600504
0.629374 0.174151 0.600504
0.626657 0.174807 0.602167
0.0430457 0.212284 0.453819
0.0430457 0.212436 0.455024
0.0427863 0.195193 0.447974
0.0701152 0.120165 0.459174
0.502876 0.134234 0.574136
0.630304 0.17464 0.600916
0.631678 0.174411 0.600244
0.631754 0.174472 0.600275
0.628687 0.175357 0.602472
0.0605631 0.541329 0.598459
0.0607004 0.544274 0.600641
0.0591592 0.540093 0.599802
0.0523537 0.514397 0.59115
0.477104 0.514641 0.747906
0.874067 0.60087 0.866957
0.887785 0.595026 0.865904
0.887816 0.599954 0.866072
0.88191 0.610788 0.868391
0.14963 0.668742 0.652506
0.150256 0.673701 0.65803
0.144259 0.667247 0.655665
0.125353 0.654398 0.651423
0.211551 0.687373 0.699413
0.787335 0.819486 0.868971
0.900145 0.844236 0.888624
0.901488 0.844862 0.887617
0.899763 0.849195 0.889311
0.249149 0.758221 0.700847
0.246601 0.75874 0.702586
0.246403 0.758785 0.702739
0.246647 0.75874 0.702556
0.247501 0.759274 0.705867
0.671336 0.868132 0.837797
0.894636 0.932799 0.906889
0.908217 0.939788 0.911955
0.908171 0.940124 0.912123
0.253285 0.757427 0.697505
0.246647 0.758724 0.702556
0.246403 0.75877 0.702739
0.246677 0.758724 0.702541
0.273747 0.777478 0.716686
0.297856 0.792126 0.728298
0.8916 0.945418 0.907866
0.914534 0.951354 0.913588
0.91429 0.951415 0.913863
0.248432 0.758358 0.701335
0.247089 0.758648 0.702235
0.246403 0.75877 0.702739
0.246555 0.758755 0.702617
0.27744 0.780056 0.718914
0.32549 0.79765 0.73225
0.888411 0.94493 0.907134
0.912016 0.951919 0.916091
0.911574 0.95201 0.916411
0.0444495 0.104051 0.412345
0.0496223 0.105928 0.425574
0.0903334 0.108766 0.456611
0.299275 0.0920272 0.522393
0.577081 0.155398 0.584985
0.628122 0.174472 0.601175
0.628122 0.174472 0.601175
0.630045 0.173999 0.600107
0.626917 0.174746 0.601984
0.0424201 0.104234 0.40209
0.0446632 0.104082 0.414115
0.0826429 0.108904 0.45301
0.311498 0.093431 0.524742
0.592157 0.161715 0.590478
0.62826 0.174426 0.601083
0.62826 0.174426 0.601083
0.627985 0.174502 0.601251
0.625345 0.175113 0.60296
0.0424964 0.135378 0.41442
0.0422827 0.120958 0.398352
0.046128 0.104692 0.418585
0.26096 0.0877546 0.515251
0.583307 0.158831 0.588449
0.629328 0.174166 0.600534
0.629404 0.174151 0.600488
0.629389 0.174151 0.600504
0.626657 0.174807 0.602167
0.0429084 0.210681 0.453147
0.0428779 0.210346 0.453971
0.042649 0.193698 0.447135
0.0713207 0.119387 0.459083
0.502449 0.132616 0.571435
0.63035 0.174609 0.600885
0.631647 0.174395 0.600183
0.631693 0.174441 0.600229
0.628626 0.175311 0.602411
0.0606241 0.541558 0.598535
0.0607767 0.544717 0.600809
0.0592813 0.540383 0.599954
0.0522621 0.513619 0.591089
0.480949 0.514656 0.749294
0.874144 0.601068 0.866941
0.887922 0.59556 0.866026
0.887755 0.600488 0.866041
0.881682 0.611261 0.868193
0.149432 0.668376 0.652369
0.151812 0.675517 0.658778
0.143435 0.666453 0.654917
0.124926 0.653895 0.651484
0.218708 0.687541 0.70106
0.788617 0.818601 0.869337
0.900008 0.843534 0.888533
0.901244 0.843626 0.88748
0.899763 0.847913 0.889281
0.249149 0.758206 0.700832
0.246601 0.75874 0.702586
0.246403 0.75877 0.702739
0.246403 0.75877 0.702739
0.239338 0.753643 0.703075
0.683192 0.869993 0.841718
0.893919 0.931426 0.906493
0.907683 0.938491 0.911864
0.907927 0.938796 0.911986
0.253361 0.757412 0.697444
0.246647 0.75874 0.702556
0.246403 0.75877 0.702739
0.246403 0.75877 0.702739
0.272862 0.778058 0.717922
0.293339 0.791745 0.730251
0.883543 0.941451 0.906874
0.914763 0.951293 0.913314
0.91487 0.951263 0.913191
0.248447 0.758358 0.701335
0.247089 0.758648 0.702235
0.246403 0.75877 0.702739
0.246418 0.758785 0.702739
0.276341 0.780697 0.720241
0.302113 0.794079 0.732494
0.865568 0.938659 0.901518
0.911238 0.952087 0.916671
0.911513 0.952026 0.916457
