bundles/resolve-cinematic-luts/Phantom Luts/Komodo Phantom FILM LUTs G2/Komodo Phantom FILM LUTs G2/33x/WB Offset - Green Boost/Eterna_Komodo_WBO_G2_33x.cube
TITLE "Generated by Resolve"
LUT_3D_SIZE 5
0.0186923 0.0462501 0.0462348
0.16463 0.049546 0.0547951
0.600061 0.0857252 0.19205
0.626673 0.0898146 0.232624
0.657252 0.0831617 0.254856
0.0611124 0.211215 0.0845045
0.209308 0.221149 0.0829328
0.617807 0.0867475 0.141939
0.621653 0.0874189 0.143511
0.631952 0.086305 0.142779
0.272877 0.879637 0.324392
0.253605 0.899168 0.340047
0.896651 0.928557 0.396139
0.949828 0.929686 0.445029
0.947799 0.923674 0.427939
0.247684 0.904341 0.398581
0.253864 0.901808 0.388846
0.643259 0.917845 0.31339
0.952209 0.950347 0.527886
0.949218 0.951934 0.523888
0.241367 0.906737 0.399344
0.255863 0.901289 0.394217
0.343328 0.898573 0.275471
0.951751 0.950225 0.520562
0.948241 0.952438 0.522591
0.0201419 0.0533913 0.14255
0.191531 0.0572061 0.133074
0.616022 0.0788281 0.253422
0.685725 0.101625 0.330114
0.726482 0.121111 0.385794
0.0550393 0.183917 0.151247
0.195148 0.197406 0.185534
0.641718 0.0823987 0.225254
0.664164 0.0847486 0.287175
0.692485 0.0998093 0.334691
0.196612 0.839689 0.451896
0.20209 0.868284 0.395865
0.879347 0.918029 0.36408
0.944823 0.920195 0.413184
0.942596 0.911025 0.393988
0.226017 0.904662 0.583124
0.246433 0.909392 0.542626
0.642802 0.91783 0.314046
0.952209 0.950347 0.527886
0.949081 0.951995 0.523705
0.207172 0.905486 0.615
0.233524 0.90428 0.574533
0.347173 0.894377 0.275242
0.954147 0.94847 0.519997
0.947906 0.95259 0.522148
0.0476692 0.0647593 0.462119
0.187854 0.0654459 0.498192
0.674479 0.0933547 0.492897
0.68246 0.0953078 0.51548
0.715267 0.106737 0.618128
0.0333867 0.142123 0.364889
0.0320745 0.132006 0.504189
0.686122 0.101686 0.567117
0.71043 0.125902 0.618082
0.728237 0.131762 0.696056
0.128725 0.757656 0.633646
0.121691 0.765148 0.676112
0.736614 0.775265 0.710521
0.939361 0.766674 0.743786
0.93373 0.747082 0.762402
0.223575 0.886473 0.776242
0.204807 0.892775 0.782025
0.245792 0.921431 0.658518
0.951812 0.949981 0.517342
0.950607 0.950973 0.521843
0.210773 0.888029 0.818006
0.20856 0.889281 0.812131
0.227665 0.902083 0.702708
0.936141 0.950317 0.59971
0.94873 0.951995 0.519402
0.113436 0.0506752 0.56611
0.171023 0.0543374 0.576349
0.730098 0.133623 0.72372
0.730678 0.1337 0.723735
0.730022 0.133959 0.722255
0.0442512 0.162921 0.631907
0.0377661 0.127977 0.611704
0.687556 0.126314 0.717769
0.730678 0.133715 0.723705
0.730724 0.133684 0.723812
0.118456 0.680812 0.778759
0.119692 0.676051 0.787915
0.122057 0.637247 0.822248
0.926558 0.623926 0.917159
0.925612 0.622248 0.919402
0.217319 0.876112 0.870924
0.215885 0.877806 0.870802
0.222171 0.896254 0.846296
0.95407 0.956115 0.952346
0.96495 0.957214 0.953948
0.218982 0.871046 0.873091
0.211078 0.873701 0.876356
0.228992 0.897215 0.865858
0.938521 0.961151 0.951293
0.973175 0.967193 0.958862
0.138048 0.0521401 0.569512
0.161547 0.0535592 0.574319
0.680827 0.124819 0.716762
0.730724 0.133684 0.723827
0.730724 0.133684 0.723827
0.0444038 0.16376 0.63238
0.0428931 0.153414 0.62768
0.516182 0.0968032 0.682307
0.730724 0.133684 0.723827
0.730724 0.133684 0.723827
0.12491 0.679271 0.802335
0.124392 0.678157 0.801541
0.109178 0.623987 0.792508
0.918013 0.53608 0.9122
0.914641 0.496117 0.908339
0.211078 0.873701 0.876356
0.211078 0.873701 0.876356
0.210163 0.87277 0.875807
0.865309 0.925719 0.944015
0.956374 0.942214 0.956039
0.211078 0.873701 0.876356
0.211078 0.873701 0.876356
0.211185 0.873808 0.876463
0.644495 0.942901 0.938827
0.971466 0.971466 0.971466
