bundles/resolve-cinematic-luts/Phantom Luts/Komodo Phantom FILM LUTs G2/Komodo Phantom FILM LUTs G2/33x/WB Offset - Green Boost/Eterna_Komodo_WBO_G2_33x.cube
TITLE "Generated by Resolve"
LUT_3D_SIZE 9
0.0186923 0.0462501 0.0462348
0.0591745 0.0467842 0.0434119
0.16463 0.049546 0.0547951
0.355764 0.0710002 0.111711
0.600061 0.0857252 0.19205
0.619547 0.0889448 0.216342
0.626673 0.0898146 0.232624
0.630518 0.0896773 0.239429
0.657252 0.0831617 0.254856
0.026566 0.0640879 0.0499733
0.040528 0.0601205 0.0506294
0.17499 0.0542763 0.0557259
0.375143 0.0622721 0.0943313
0.593256 0.0851759 0.161761
0.611353 0.0870985 0.196185
0.616205 0.0877394 0.205921
0.619425 0.087602 0.209888
0.64828 0.0805371 0.222141
0.0611124 0.211215 0.0845045
0.0534676 0.229816 0.0760204
0.209308 0.221149 0.0829328
0.496742 0.185351 0.126482
0.617807 0.0867475 0.141939
0.620127 0.0870832 0.14464
0.621653 0.0874189 0.143511
0.623377 0.0880751 0.142184
0.631952 0.086305 0.142779
0.0827039 0.55169 0.146822
0.07953 0.592599 0.133135
0.0977798 0.606561 0.10547
0.54519 0.596887 0.127672
0.859648 0.662654 0.20676
0.875288 0.673213 0.210849
0.874067 0.683238 0.20882
0.873823 0.689036 0.208377
0.873411 0.685512 0.207828
0.272877 0.879637 0.324392
0.255985 0.897627 0.330053
0.253605 0.899168 0.340047
0.44445 0.90605 0.272816
0.896651 0.928557 0.396139
0.950225 0.930449 0.448066
0.949828 0.929686 0.445029
0.948379 0.92903 0.439155
0.947799 0.923674 0.427939
0.255604 0.901411 0.396902
0.250431 0.903227 0.393423
0.246113 0.904585 0.384009
0.250721 0.902556 0.378119
0.793759 0.926406 0.376852
0.951873 0.950042 0.518944
0.952392 0.95024 0.528145
0.95172 0.950591 0.527245
0.952834 0.949996 0.52874
0.247684 0.904341 0.398581
0.252674 0.902449 0.39675
0.253864 0.901808 0.388846
0.255406 0.900771 0.378973
0.643259 0.917845 0.31339
0.938994 0.948867 0.486671
0.952209 0.950347 0.527886
0.950195 0.9514 0.525353
0.949218 0.951934 0.523888
0.246326 0.904891 0.39939
0.260288 0.899809 0.399496
0.267735 0.896681 0.393866
0.268528 0.895735 0.381033
0.492058 0.909194 0.284901
0.907683 0.942168 0.445945
0.95555 0.948455 0.532433
0.954299 0.949172 0.530785
0.949813 0.951629 0.524681
0.241367 0.906737 0.399344
0.248783 0.903944 0.398672
0.255863 0.901289 0.394217
0.258122 0.899763 0.379873
0.343328 0.898573 0.275471
0.844572 0.931945 0.406287
0.951751 0.950225 0.520562
0.951843 0.950545 0.527382
0.948241 0.952438 0.522591
0.0172427 0.046479 0.065919
0.0631266 0.0472267 0.0621805
0.16997 0.0559243 0.081529
0.356512 0.0718242 0.134752
0.612909 0.0785687 0.215808
0.655726 0.0840314 0.257282
0.66006 0.0846113 0.272633
0.663111 0.0845808 0.28217
0.680232 0.0801862 0.29688
0.0236515 0.0560311 0.0538186
0.0349279 0.0514382 0.0533913
0.187716 0.0532387 0.0755627
0.402106 0.0726329 0.137133
0.632029 0.0810864 0.213687
0.652049 0.0833448 0.245197
0.657526 0.0840314 0.261372
0.661204 0.0841077 0.271153
0.679042 0.0798657 0.286168
0.0561227 0.201358 0.10956
0.0510567 0.217029 0.0951705
0.208453 0.217609 0.0833295
0.489616 0.167315 0.120684
0.62121 0.0818036 0.145342
0.624262 0.0823072 0.149371
0.624247 0.0823072 0.149386
0.624445 0.0824903 0.149126
0.630884 0.080827 0.150362
0.0708324 0.533532 0.18349
0.0713664 0.573114 0.171099
0.0958114 0.603967 0.104128
0.543755 0.593942 0.126329
0.855085 0.655161 0.205097
0.874922 0.672404 0.210117
0.87335 0.682185 0.207355
0.873045 0.685115 0.207218
0.873594 0.677638 0.208408
0.240665 0.865599 0.363165
0.241291 0.885832 0.34342
0.259037 0.897063 0.306798
0.430137 0.905684 0.269139
0.889052 0.926146 0.382361
0.947662 0.929412 0.437873
0.947601 0.930327 0.439063
0.946975 0.928405 0.433555
0.945525 0.923064 0.419669
0.252537 0.90338 0.415427
0.248631 0.904082 0.400549
0.245319 0.904997 0.390295
0.249485 0.903014 0.377859
0.784817 0.926116 0.372015
0.951415 0.950256 0.517876
0.951934 0.950484 0.52752
0.951141 0.950896 0.526635
0.952331 0.950271 0.528069
0.242344 0.909224 0.467216
0.249973 0.905379 0.437049
0.252796 0.902419 0.396902
0.255711 0.900649 0.379019
0.655268 0.918135 0.318029
0.937407 0.948669 0.483742
0.952209 0.950347 0.527886
0.950179 0.951415 0.525338
0.949203 0.951934 0.523873
0.240772 0.910491 0.490776
0.258503 0.903639 0.464393
0.267521 0.897215 0.402625
0.26865 0.895674 0.381048
0.526421 0.910948 0.289952
0.905409 0.941588 0.444038
0.95552 0.94844 0.531746
0.954299 0.949172 0.530785
0.949737 0.951659 0.524575
0.235904 0.912474 0.500328
0.244877 0.908644 0.477195
0.254353 0.902495 0.412009
0.258793 0.899718 0.383734
0.409506 0.904662 0.275319
0.85417 0.933013 0.412131
0.952239 0.949905 0.520485
0.952316 0.950286 0.528038
0.948257 0.952422 0.522606
0.0201419 0.0533913 0.14255
0.0690929 0.0513008 0.158999
0.191531 0.0572061 0.133074
0.377203 0.0806744 0.17377
0.616022 0.0788281 0.253422
0.667994 0.0873274 0.299916
0.685725 0.101625 0.330114
0.70161 0.114092 0.355489
0.726482 0.121111 0.385794
0.0126802 0.0609751 0.110735
0.0138399 0.0575418 0.157549
0.206622 0.0577707 0.157092
0.408392 0.0858625 0.195636
0.635813 0.0825971 0.275578
0.680964 0.0969406 0.321706
0.703197 0.115465 0.3579
0.71339 0.122621 0.385183
0.720272 0.110475 0.412604
0.0550393 0.183917 0.151247
0.0495308 0.191562 0.166476
0.195148 0.197406 0.185534
0.479835 0.13547 0.194156
0.641718 0.0823987 0.225254
0.658305 0.0841535 0.262119
0.664164 0.0847486 0.287175
0.674083 0.0912642 0.309758
0.692485 0.0998093 0.334691
0.0675212 0.501015 0.24712
0.0593118 0.540322 0.262531
0.0691386 0.565988 0.20235
0.532494 0.581933 0.121096
0.861143 0.626902 0.212192
0.880369 0.633005 0.215549
0.879255 0.639994 0.214817
0.879042 0.637461 0.213916
0.881575 0.621027 0.215976
0.196612 0.839689 0.451896
0.186328 0.855283 0.458457
0.20209 0.868284 0.395865
0.35169 0.895216 0.261311
0.879347 0.918029 0.36408
0.944717 0.91902 0.411063
0.944823 0.920195 0.413184
0.944259 0.91841 0.408438
0.942596 0.911025 0.393988
0.245472 0.90956 0.545632
0.241688 0.911208 0.54377
0.240345 0.910491 0.486076
0.249607 0.903029 0.379232
0.747738 0.92372 0.353902
0.949493 0.949966 0.510124
0.952102 0.950393 0.527749
0.951064 0.950927 0.526558
0.951507 0.950713 0.527001
0.226017 0.904662 0.583124
0.230701 0.904479 0.57673
0.246433 0.909392 0.542626
0.253925 0.901808 0.389624
0.642802 0.91783 0.314046
0.929808 0.947982 0.471717
0.952209 0.950347 0.527886
0.950179 0.951415 0.525338
0.949081 0.951995 0.523705
0.213275 0.904784 0.605905
0.220233 0.904311 0.594965
0.252811 0.901335 0.562188
0.267521 0.897215 0.402548
0.502419 0.909773 0.286259
0.897353 0.939696 0.437766
0.955367 0.948409 0.529259
0.954299 0.949172 0.530785
0.949706 0.95169 0.524514
0.207172 0.905486 0.615
0.210666 0.90605 0.604425
0.233524 0.90428 0.574533
0.26157 0.902373 0.464286
0.347173 0.894377 0.275242
0.855863 0.931105 0.414343
0.954147 0.94847 0.519997
0.953689 0.949508 0.529931
0.947906 0.95259 0.522148
0.0314031 0.059144 0.272953
0.0594949 0.053254 0.306371
0.206241 0.0632181 0.290623
0.411734 0.0760204 0.265461
0.671244 0.116609 0.341924
0.705821 0.124971 0.380331
0.687236 0.104936 0.406821
0.676539 0.0901808 0.434089
0.697841 0.0856031 0.482597
0.0142977 0.0770428 0.237736
0.0150454 0.0724956 0.290379
0.180835 0.0614633 0.340063
0.434623 0.0720531 0.309758
0.680934 0.115312 0.376318
0.691615 0.0987106 0.418738
0.682307 0.0895399 0.454398
0.685512 0.0919356 0.497932
0.700374 0.0905165 0.548623
0.0394293 0.172625 0.220783
0.0323796 0.175067 0.267079
0.0267643 0.125353 0.326604
0.459266 0.0759747 0.35523
0.683406 0.103792 0.402106
0.681315 0.0888228 0.436118
0.683253 0.09131 0.477607
0.681941 0.0951705 0.512032
0.691386 0.0949569 0.549447
0.0637217 0.457984 0.343664
0.0512551 0.486336 0.388602
0.0507057 0.501991 0.415061
0.476539 0.506157 0.435187
0.875395 0.460807 0.462074
0.911864 0.442954 0.484092
0.906661 0.450187 0.517266
0.901518 0.438071 0.540673
0.895552 0.4094 0.554314
0.157015 0.804089 0.540734
0.137881 0.817197 0.573495
0.142565 0.824063 0.572381
0.169436 0.828977 0.443763
0.836744 0.887327 0.335592
0.939803 0.890974 0.371466
0.944381 0.878294 0.40737
0.946685 0.867475 0.436057
0.945388 0.850111 0.441505
0.228 0.895735 0.636301
0.207462 0.901366 0.651026
0.206912 0.903166 0.63595
0.237324 0.911559 0.549371
0.618677 0.919432 0.305379
0.94139 0.949126 0.491249
0.952132 0.950454 0.529747
0.951568 0.950744 0.528572
0.952621 0.950149 0.52929
0.208026 0.897276 0.693675
0.203326 0.898619 0.699855
0.206241 0.899046 0.6804
0.223484 0.902403 0.599451
0.503944 0.913497 0.283635
0.904311 0.941527 0.442893
0.954971 0.948623 0.528466
0.953124 0.949813 0.528923
0.952361 0.95024 0.527871
0.203479 0.897063 0.722408
0.202075 0.89752 0.721904
0.215137 0.894408 0.69955
0.232044 0.894926 0.630243
0.345495 0.896284 0.296452
0.860014 0.929992 0.418326
0.955322 0.947799 0.521233
0.954055 0.94931 0.530404
0.949599 0.95172 0.524285
0.200458 0.897581 0.73196
0.201831 0.897124 0.728954
0.202548 0.898054 0.711147
0.225498 0.895003 0.65095
0.263157 0.901076 0.447318
0.814832 0.925399 0.389883
0.943587 0.947265 0.493324
0.953323 0.949722 0.529397
0.948287 0.952407 0.522606
0.0476692 0.0647593 0.462119
0.0624552 0.0592203 0.489052
0.187854 0.0654459 0.498192
0.484352 0.0920882 0.513329
0.674479 0.0933547 0.492897
0.679652 0.0941176 0.493278
0.68246 0.0953078 0.51548
0.690562 0.0973831 0.55787
0.715267 0.106737 0.618128
0.0227665 0.0925917 0.430411
0.0219577 0.0823682 0.462608
0.132403 0.0526284 0.489006
0.469215 0.0907607 0.549706
0.673915 0.0943618 0.524193
0.681727 0.097734 0.532998
0.696254 0.105592 0.582025
0.726497 0.125368 0.651164
0.73463 0.128023 0.691386
0.0333867 0.142123 0.364889
0.0326848 0.151339 0.426535
0.0320745 0.132006 0.504189
0.410422 0.0854505 0.577981
0.686122 0.101686 0.567117
0.682368 0.105074 0.557321
0.71043 0.125902 0.618082
0.72018 0.133059 0.660624
0.728237 0.131762 0.696056
0.0326085 0.4065 0.471199
0.0273442 0.433524 0.517372
0.0295872 0.464149 0.585382
0.0466621 0.419471 0.692836
0.841169 0.310765 0.726329
0.866926 0.293324 0.698848
0.860975 0.275456 0.720409
0.856901 0.262913 0.743877
0.849729 0.248463 0.756985
0.128725 0.757656 0.633646
0.119234 0.763088 0.659663
0.121691 0.765148 0.676112
0.118059 0.757092 0.667796
0.736614 0.775265 0.710521
0.938262 0.771038 0.727855
0.939361 0.766674 0.743786
0.938537 0.763989 0.758862
0.93373 0.747082 0.762402
0.215366 0.892927 0.71873
0.201663 0.896696 0.736171
0.200092 0.897337 0.736645
0.192401 0.891234 0.700038
0.430152 0.92372 0.624918
0.938582 0.949004 0.714076
0.965927 0.947875 0.773754
0.964599 0.942184 0.807874
0.963333 0.939086 0.810666
0.223575 0.886473 0.776242
0.207385 0.891386 0.789715
0.204807 0.892775 0.782025
0.207675 0.894881 0.731426
0.245792 0.921431 0.658518
0.855207 0.93724 0.575647
0.951812 0.949981 0.517342
0.951171 0.950683 0.522667
0.950607 0.950973 0.521843
0.221241 0.885145 0.805554
0.212573 0.887755 0.8121
0.207446 0.890303 0.803632
0.212665 0.891676 0.755459
0.244892 0.913237 0.699413
0.82504 0.936065 0.678004
0.950607 0.947585 0.507622
0.954299 0.948974 0.52697
0.95198 0.95024 0.523781
0.210773 0.888029 0.818006
0.211978 0.887251 0.820172
0.20856 0.889281 0.812131
0.209735 0.891646 0.77319
0.227665 0.902083 0.702708
0.783047 0.937484 0.710857
0.936141 0.950317 0.59971
0.948699 0.951858 0.516579
0.94873 0.951995 0.519402
0.0703441 0.0535134 0.565927
0.0887312 0.0492561 0.564446
0.165316 0.0543526 0.575372
0.446021 0.0889448 0.660548
0.730037 0.130175 0.707958
0.732677 0.129717 0.701076
0.732754 0.129442 0.6981
0.733257 0.129732 0.704128
0.732174 0.131411 0.712932
0.0271 0.0851453 0.576562
0.0303655 0.0742351 0.57435
0.117037 0.0509499 0.566934
0.392599 0.0833906 0.643809
0.72549 0.132189 0.717784
0.730144 0.132692 0.714199
0.730175 0.132982 0.716304
0.730343 0.133837 0.722972
0.73048 0.133776 0.723293
0.0422675 0.169116 0.599359
0.0440528 0.166003 0.624887
0.0399786 0.138293 0.618341
0.280751 0.0726329 0.609491
0.718166 0.132143 0.721263
0.727871 0.134615 0.716731
0.727932 0.134707 0.717433
0.729442 0.134173 0.721004
0.730678 0.1337 0.72372
0.0387121 0.412238 0.647883
0.0424964 0.417105 0.672084
0.0480812 0.417533 0.697826
0.0578622 0.342596 0.717693
0.69456 0.193393 0.792721
0.785061 0.186313 0.750042
0.820905 0.224186 0.773739
0.804196 0.208286 0.77348
0.771344 0.172763 0.758267
0.111299 0.707027 0.715801
0.109926 0.705486 0.729641
0.115114 0.705837 0.745922
0.115114 0.689387 0.761624
0.493904 0.695262 0.837674
0.931807 0.691829 0.872053
0.934447 0.695964 0.8636
0.935393 0.68571 0.871351
0.934112 0.668391 0.881926
0.213596 0.885054 0.790845
0.199588 0.881209 0.798108
0.19118 0.86923 0.79556
0.172335 0.845579 0.772213
0.291875 0.883604 0.808072
0.899672 0.91397 0.88954
0.957046 0.916991 0.894606
0.95996 0.91284 0.895827
0.957656 0.911025 0.898161
0.228443 0.88011 0.830991
0.213077 0.884794 0.840986
0.212146 0.885573 0.837324
0.208423 0.889387 0.811429
0.219196 0.908583 0.791547
0.804456 0.946883 0.851545
0.965118 0.960021 0.889281
0.971222 0.963058 0.928923
0.973022 0.962585 0.938643
0.221698 0.879118 0.855634
0.216419 0.880339 0.860609
0.21471 0.881743 0.856474
0.21091 0.886854 0.828992
0.218921 0.905318 0.803281
0.732174 0.946609 0.854124
0.946212 0.957244 0.890898
0.954696 0.951812 0.588022
0.953094 0.951293 0.55845
0.225086 0.876249 0.862226
0.218585 0.877714 0.867247
0.215641 0.879866 0.8645
0.21268 0.884672 0.841962
0.220768 0.902602 0.818967
0.676463 0.94519 0.866743
0.944213 0.959243 0.920577
0.966384 0.961273 0.883497
0.952316 0.950088 0.524849
0.113436 0.0506752 0.56611
0.119707 0.0510109 0.56701
0.171023 0.0543374 0.576349
0.405386 0.0846723 0.647822
0.730098 0.133623 0.72372
0.730648 0.133715 0.723674
0.730678 0.1337 0.723735
0.730694 0.1337 0.723766
0.730022 0.133959 0.722255
0.0597543 0.0579843 0.567483
0.0695354 0.0539101 0.566217
0.129229 0.0515297 0.568093
0.337636 0.0780804 0.626596
0.727596 0.133242 0.723278
0.730724 0.133684 0.723827
0.730724 0.133684 0.723827
0.730724 0.133684 0.723827
0.730495 0.133776 0.723308
0.0442512 0.162921 0.631907
0.0442817 0.162783 0.631724
0.0377661 0.127977 0.611704
0.213336 0.0660563 0.590311
0.687556 0.126314 0.717769
0.730648 0.133715 0.723674
0.730678 0.133715 0.723705
0.730724 0.133684 0.723827
0.730724 0.133684 0.723812
0.0577249 0.368826 0.722499
0.0599374 0.362554 0.727611
0.0594034 0.35697 0.726085
0.0582589 0.317937 0.712627
0.516503 0.150011 0.731197
0.731868 0.134981 0.724941
0.731487 0.135515 0.723751
0.740337 0.14374 0.733013
0.745342 0.148257 0.738628
0.118456 0.680812 0.778759
0.118914 0.679149 0.783597
0.119692 0.676051 0.787915
0.117723 0.662181 0.792645
0.122057 0.637247 0.822248
0.898711 0.623072 0.919219
0.926558 0.623926 0.917159
0.929747 0.646616 0.91368
0.925612 0.622248 0.919402
0.198962 0.856336 0.836667
0.19086 0.850858 0.839185
0.181399 0.834501 0.831678
0.166583 0.805539 0.81619
0.167315 0.794339 0.834195
0.781491 0.869505 0.919463
0.952789 0.885008 0.931228
0.955474 0.884001 0.927214
0.953674 0.875792 0.928222
0.217319 0.876112 0.870924
0.213962 0.876127 0.872923
0.215885 0.877806 0.870802
0.214893 0.881559 0.857435
0.222171 0.896254 0.846296
0.72047 0.938125 0.914397
0.95407 0.956115 0.952346
0.96463 0.957961 0.953994
0.96495 0.957214 0.953948
0.227268 0.868269 0.869642
0.211826 0.873457 0.875975
0.211078 0.873701 0.876356
0.215946 0.879347 0.866621
0.227375 0.899031 0.856062
0.414252 0.939895 0.890425
0.943282 0.961059 0.948882
0.969955 0.967681 0.95816
0.972488 0.967849 0.9608
0.218982 0.871046 0.873091
0.212329 0.873289 0.8757
0.211078 0.873701 0.876356
0.213733 0.875639 0.873716
0.228992 0.897215 0.865858
0.365332 0.937102 0.896788
0.938521 0.961151 0.951293
0.968215 0.966552 0.960204
0.973175 0.967193 0.958862
0.130938 0.0516365 0.568246
0.13492 0.0519417 0.568994
0.168078 0.0540017 0.575586
0.345037 0.0786755 0.628855
0.724651 0.132906 0.722835
0.730724 0.133684 0.723827
0.730724 0.133684 0.723827
0.730724 0.133684 0.723827
0.730495 0.133776 0.723308
0.0824445 0.0493629 0.564309
0.0892042 0.0492256 0.564446
0.128023 0.0514534 0.56788
0.283848 0.0728923 0.61033
0.699382 0.128893 0.719631
0.730724 0.133684 0.723827
0.730724 0.133684 0.723827
0.730724 0.133684 0.723827
0.730724 0.133684 0.723827
0.0437324 0.159655 0.630869
0.0436713 0.158892 0.630228
0.0400397 0.138659 0.618555
0.142794 0.0525216 0.570779
0.612619 0.110445 0.705531
0.730724 0.133684 0.723827
0.730724 0.133684 0.723827
0.730724 0.133684 0.723827
0.730724 0.133684 0.723812
0.0598459 0.362417 0.727901
0.0597696 0.36524 0.728389
0.0594797 0.358557 0.726452
0.0581674 0.315953 0.711971
0.355413 0.119295 0.665843
0.730846 0.133852 0.723964
0.730953 0.133959 0.724041
0.731106 0.134142 0.724193
0.731456 0.134524 0.724559
0.122545 0.671672 0.799969
0.123064 0.672877 0.800443
0.121798 0.669444 0.799741
0.118044 0.657053 0.797253
0.110399 0.619516 0.798733
0.807324 0.591638 0.910658
0.920989 0.57319 0.915511
0.921202 0.568322 0.913375
0.921035 0.570718 0.915465
0.192111 0.843122 0.863493
0.190402 0.839704 0.86215
0.18526 0.828367 0.857771
0.166506 0.787167 0.840497
0.151476 0.747677 0.829755
0.632746 0.825422 0.913603
0.93959 0.855711 0.940993
0.94255 0.850355 0.941024
0.943069 0.856733 0.941451
0.212329 0.873274 0.875685
0.211078 0.873701 0.876356
0.211078 0.873701 0.876356
0.211078 0.873701 0.876356
0.211063 0.872465 0.871855
0.317235 0.89453 0.908873
0.921798 0.941985 0.950729
0.959976 0.95137 0.958053
0.960082 0.951263 0.957641
0.211246 0.87364 0.876265
0.211078 0.873701 0.876356
0.211078 0.873701 0.876356
0.211078 0.873701 0.876356
0.221164 0.883757 0.873762
0.246555 0.91043 0.886534
0.892821 0.956298 0.950515
0.967834 0.968139 0.967605
0.970596 0.968475 0.967834
0.211078 0.873701 0.876356
0.211078 0.873701 0.876356
0.211078 0.873701 0.876356
0.211078 0.873701 0.876356
0.221347 0.884794 0.879499
0.252049 0.913085 0.894835
0.901884 0.957305 0.952972
0.967437 0.968856 0.967834
0.971099 0.971084 0.970397
0.138048 0.0521401 0.569512
0.140459 0.0523537 0.570031
0.161547 0.0535592 0.574319
0.289616 0.0733501 0.612009
0.680827 0.124819 0.716762
0.730724 0.133684 0.723827
0.730724 0.133684 0.723827
0.730724 0.133684 0.723827
0.730724 0.133684 0.723827
0.0895705 0.0493935 0.564553
0.0941024 0.0493935 0.56466
0.1205 0.0510109 0.567041
0.236912 0.0683909 0.597055
0.628412 0.113329 0.708553
0.730724 0.133684 0.723827
0.730724 0.133684 0.723827
0.730724 0.133684 0.723827
0.730724 0.133684 0.723827
0.0444038 0.16376 0.63238
0.0443732 0.163684 0.632303
0.0428931 0.153414 0.62768
0.0826123 0.0520943 0.565682
0.516182 0.0968032 0.682307
0.730724 0.133684 0.723827
0.730724 0.133684 0.723827
0.730724 0.133684 0.723827
0.730724 0.133684 0.723827
0.0601358 0.377951 0.731044
0.0605173 0.383551 0.732418
0.0606088 0.3823 0.732509
0.0591897 0.348974 0.723583
0.199969 0.115404 0.633967
0.730922 0.133944 0.724041
0.730724 0.133684 0.723827
0.73077 0.133745 0.723873
0.730816 0.133822 0.723934
0.12491 0.679271 0.802335
0.125536 0.680644 0.802792
0.124392 0.678157 0.801541
0.120531 0.66508 0.79884
0.109178 0.623987 0.792508
0.696651 0.568536 0.903059
0.918013 0.53608 0.9122
0.915419 0.508278 0.909224
0.914641 0.496117 0.908339
0.194675 0.848386 0.865339
0.193042 0.845045 0.864302
0.188693 0.836057 0.860731
0.172213 0.800198 0.84538
0.152422 0.750515 0.830121
0.440482 0.788876 0.900374
0.909529 0.831708 0.935927
0.939864 0.823651 0.938293
0.939147 0.813443 0.937423
0.211078 0.873701 0.876356
0.211078 0.873701 0.876356
0.211078 0.873701 0.876356
0.211078 0.873701 0.876356
0.210163 0.87277 0.875807
0.200595 0.852766 0.87895
0.865309 0.925719 0.944015
0.957397 0.945129 0.957076
0.956374 0.942214 0.956039
0.211078 0.873701 0.876356
0.211078 0.873701 0.876356
0.211078 0.873701 0.876356
0.211078 0.873701 0.876356
0.211078 0.873701 0.876356
0.234485 0.903273 0.898116
0.623911 0.937011 0.937758
0.961669 0.964019 0.965011
0.967926 0.967056 0.96788
0.211078 0.873701 0.876356
0.211078 0.873701 0.876356
0.211078 0.873701 0.876356
0.211078 0.873701 0.876356
0.211185 0.873808 0.876463
0.238041 0.907347 0.901457
0.644495 0.942901 0.938827
0.964538 0.96759 0.967285
0.971466 0.971466 0.971466
