bundles/resolve-cinematic-luts/Phantom Luts/Komodo Phantom FILM LUTs G2/Komodo Phantom FILM LUTs G2/33x/WB Offset - Green Boost/Eterna_Komodo_WBO_G2_33x.cube
TITLE "Generated by Resolve"
LUT_3D_SIZE 33
0.0186923 0.0462501 0.0462348
0.0188449 0.0461891 0.0459449
0.0202945 0.0460975 0.0451972
0.0352331 0.0466926 0.0445411
0.0591745 0.0467842 0.0434119
0.0839857 0.0470283 0.0429236
0.108492 0.0469673 0.0439307
0.135332 0.0482795 0.0490578
0.16463 0.049546 0.0547951
0.201694 0.0527962 0.0643626
0.245686 0.0594034 0.0778668
0.297429 0.0663005 0.0944533
0.355764 0.0710002 0.111711
0.423865 0.076173 0.135149
0.490028 0.076997 0.157366
0.551873 0.0798352 0.176944
0.600061 0.0857252 0.19205
0.612879 0.0877699 0.201129
0.61532 0.0882734 0.206928
0.617487 0.0886702 0.211673
0.619547 0.0889448 0.216342
0.622217 0.0894026 0.222141
0.624018 0.0897231 0.226429
0.62562 0.0898756 0.229908
0.626673 0.0898146 0.232624
0.627482 0.0897993 0.234989
0.628229 0.0899062 0.236805
0.628992 0.0899062 0.237888
0.630518 0.0896773 0.239429
0.633783 0.0889601 0.241978
0.63975 0.087541 0.245441
0.64799 0.085481 0.250004
0.657252 0.0831617 0.254856
0.0195621 0.0458381 0.0446632
0.0191043 0.046067 0.0454871
0.0196384 0.0460365 0.0451514
0.0345312 0.0468299 0.0451057
0.0593576 0.0471199 0.0447089
0.0855573 0.0473182 0.0446937
0.112444 0.0469368 0.0457008
0.138537 0.0467994 0.0478218
0.168322 0.0476234 0.0527352
0.204318 0.0504311 0.0605631
0.24921 0.0560159 0.0736095
0.30161 0.0637827 0.0901961
0.361975 0.0702525 0.111315
0.429877 0.0753948 0.1355
0.495827 0.0761578 0.157931
0.557961 0.0805982 0.177386
0.605112 0.0863813 0.193133
0.613519 0.0875105 0.200931
0.615854 0.0879988 0.206561
0.618097 0.0883345 0.211276
0.62005 0.0886091 0.215656
0.621881 0.0888838 0.219562
0.623255 0.0891585 0.222797
0.624582 0.0894484 0.226001
0.625834 0.0896315 0.228946
0.626703 0.0896773 0.230915
0.627314 0.0896315 0.232822
0.628092 0.0895399 0.234531
0.629709 0.0892958 0.236255
0.632883 0.0886549 0.238437
0.63888 0.0872206 0.241703
0.647517 0.0850843 0.246082
0.657298 0.0826123 0.25124
0.0196078 0.0458076 0.0445869
0.0190738 0.0460822 0.0455482
0.0191806 0.0460212 0.0453498
0.0290379 0.0470588 0.0454108
0.0546731 0.0476844 0.0452125
0.0831159 0.0479286 0.045594
0.112795 0.0474556 0.0469978
0.141848 0.0468605 0.0494087
0.172183 0.047013 0.0526436
0.208347 0.0490425 0.0583047
0.252476 0.0534218 0.0691997
0.305562 0.0608835 0.0852827
0.366659 0.0674144 0.106844
0.431861 0.0714885 0.13022
0.498466 0.074815 0.153506
0.562188 0.0811933 0.174014
0.608118 0.0869917 0.190387
0.611948 0.0871748 0.197559
0.614908 0.087541 0.203189
0.61706 0.0879225 0.208072
0.619089 0.0881971 0.212039
0.620768 0.0883955 0.215747
0.622309 0.0885939 0.218891
0.623514 0.0887922 0.221744
0.624414 0.0890059 0.223865
0.625437 0.0891432 0.226017
0.626322 0.0892653 0.228016
0.627329 0.0892805 0.229725
0.628977 0.0889906 0.231327
0.632547 0.0880903 0.233875
0.638987 0.0864271 0.237522
0.647959 0.0842145 0.2421
0.657725 0.0818036 0.246906
0.0205234 0.0470588 0.0449989
0.0196994 0.0474861 0.0461738
0.0196994 0.0467536 0.0460365
0.0217136 0.0468757 0.045655
0.0437934 0.0493782 0.0462043
0.0750591 0.0500191 0.0459754
0.107607 0.0500191 0.0475319
0.141176 0.0495918 0.0509651
0.175601 0.0493019 0.0548562
0.214099 0.0505684 0.0603952
0.258213 0.0533455 0.0688792
0.308858 0.0582895 0.0797742
0.367849 0.0623331 0.0974136
0.434745 0.068574 0.122347
0.502403 0.0749981 0.147204
0.564004 0.0814527 0.16643
0.602625 0.0863355 0.179507
0.609125 0.0871443 0.190936
0.61178 0.0871443 0.197269
0.614496 0.0874495 0.20209
0.616419 0.0877699 0.206424
0.618112 0.0879683 0.209537
0.619501 0.0881208 0.212329
0.620615 0.0882429 0.214847
0.621592 0.0883497 0.216754
0.622492 0.0884565 0.21854
0.623178 0.0885481 0.220005
0.623865 0.0885786 0.221271
0.625391 0.0883497 0.222568
0.628992 0.087602 0.224613
0.635157 0.0861372 0.227909
0.644404 0.0838788 0.232151
0.654719 0.0812848 0.236927
0.026566 0.0640879 0.0499733
0.0254368 0.0654917 0.0509651
0.0251926 0.0656443 0.0514076
0.027512 0.060853 0.0504921
0.040528 0.0601205 0.0506294
0.0691081 0.059678 0.0502632
0.101061 0.0573129 0.0486915
0.136629 0.0545663 0.0510567
0.17499 0.0542763 0.0557259
0.218051 0.0551461 0.0618753
0.26714 0.0587625 0.0715038
0.319524 0.0617533 0.0827192
0.375143 0.0622721 0.0943313
0.435676 0.067628 0.109758
0.500481 0.0742657 0.131395
0.560281 0.0809949 0.150195
0.593256 0.0851759 0.161761
0.600824 0.0861982 0.173724
0.605951 0.0867475 0.183932
0.609476 0.0871138 0.191882
0.611353 0.0870985 0.196185
0.613062 0.0872816 0.199573
0.614481 0.0874495 0.20206
0.615503 0.0875715 0.204257
0.616205 0.0877394 0.205921
0.616831 0.0878157 0.207263
0.617304 0.0878767 0.208133
0.617945 0.0878462 0.208789
0.619425 0.087602 0.209888
0.622904 0.0868086 0.211673
0.628946 0.0853285 0.214389
0.638056 0.0831006 0.21796
0.64828 0.0805371 0.222141
0.0334325 0.0918135 0.0560922
0.031754 0.0940414 0.0563058
0.03122 0.095491 0.0569924
0.0322576 0.0940261 0.0569009
0.0420996 0.0871595 0.0566262
0.0713817 0.0872969 0.0581521
0.108858 0.0863508 0.0611734
0.145998 0.0813458 0.0599069
0.182025 0.0738994 0.0573281
0.221469 0.0657359 0.0615091
0.272251 0.0652476 0.0722362
0.330938 0.0661631 0.0850843
0.392279 0.0652628 0.0983902
0.455848 0.0651255 0.113924
0.518654 0.0704967 0.128649
0.572564 0.0762646 0.141405
0.595773 0.0795758 0.146273
0.60116 0.0805066 0.152392
0.606455 0.0811322 0.158907
0.610941 0.0813611 0.165881
0.61529 0.0816205 0.172793
0.618326 0.0817426 0.178134
0.621912 0.0818189 0.183307
0.623819 0.0817884 0.186465
0.625711 0.0817578 0.189166
0.627375 0.0817578 0.191318
0.62771 0.0816815 0.191775
0.627985 0.081651 0.192325
0.628077 0.0816205 0.192462
0.628519 0.0814679 0.192615
0.630152 0.0810254 0.193011
0.634043 0.0800336 0.194141
0.64036 0.0784314 0.196612
0.0400244 0.125368 0.0641337
0.0389258 0.128679 0.063447
0.0379034 0.131258 0.0631876
0.0381628 0.131914 0.0630503
0.0442817 0.12845 0.0631266
0.0655528 0.121965 0.0632181
0.109117 0.121447 0.0657054
0.158465 0.120043 0.0730602
0.20206 0.112871 0.0741588
0.243748 0.102586 0.0725719
0.285542 0.0882124 0.0712596
0.332723 0.0774395 0.0821088
0.3906 0.073579 0.095964
0.451911 0.0690776 0.110384
0.516152 0.0730144 0.126177
0.572229 0.079057 0.140108
0.597696 0.0826123 0.145525
0.595987 0.0823377 0.145052
0.594751 0.0819562 0.14464
0.594049 0.08159 0.144411
0.59443 0.0813916 0.144976
0.595331 0.0813764 0.146029
0.594614 0.0811933 0.145586
0.593637 0.0809796 0.144915
0.595041 0.0811627 0.145998
0.596246 0.0813153 0.146792
0.596597 0.0813458 0.146929
0.596628 0.0813458 0.146792
0.596857 0.0813764 0.146883
0.597223 0.0813306 0.146944
0.597574 0.0809949 0.146456
0.598932 0.0803845 0.146166
0.603189 0.0794232 0.147066
0.0513619 0.164034 0.0724651
0.0500038 0.168933 0.0711681
0.0475624 0.172976 0.0693828
0.0464637 0.176272 0.0692302
0.0461738 0.176211 0.0692912
0.0599527 0.171099 0.0698711
0.0952468 0.166674 0.0714733
0.155276 0.166018 0.0750286
0.218952 0.166567 0.0877089
0.277333 0.15877 0.0954757
0.32929 0.144518 0.0967269
0.376181 0.127764 0.0960403
0.417258 0.0992142 0.0934768
0.463218 0.0801556 0.106249
0.519142 0.0733806 0.122057
0.5776 0.079881 0.137255
0.60882 0.0843366 0.147326
0.608042 0.0841993 0.147295
0.607477 0.0840314 0.14725
0.607065 0.0838178 0.147204
0.607034 0.0836652 0.147356
0.607172 0.0836042 0.147524
0.607416 0.0835889 0.147478
0.607843 0.0836042 0.147402
0.608209 0.0836194 0.147341
0.608698 0.08365 0.147448
0.60914 0.0836805 0.147539
0.609567 0.083711 0.147631
0.609918 0.0837415 0.147738
0.610559 0.0837262 0.147784
0.611933 0.0835584 0.147936
0.61471 0.0830091 0.148348
0.61944 0.082002 0.149203
0.0611124 0.211215 0.0845045
0.0588235 0.217319 0.0829175
0.0555428 0.22295 0.0798657
0.0538643 0.227649 0.0762951
0.0534676 0.229816 0.0760204
0.0552987 0.228275 0.0760357
0.0816205 0.22327 0.0776532
0.132128 0.22089 0.0797436
0.209308 0.221149 0.0829328
0.291936 0.224689 0.0988785
0.372656 0.2168 0.119066
0.4374 0.203204 0.123644
0.496742 0.185351 0.126482
0.545647 0.159609 0.12401
0.566827 0.11136 0.113634
0.586404 0.0816968 0.11754
0.617807 0.0867475 0.141939
0.620172 0.0871748 0.144442
0.620005 0.0871138 0.144549
0.619989 0.0870832 0.144732
0.620127 0.0870832 0.14464
0.620371 0.087129 0.144411
0.620752 0.0872053 0.144121
0.62118 0.0873121 0.143755
0.621653 0.0874189 0.143511
0.622202 0.0875715 0.143313
0.622721 0.0877241 0.143069
0.623133 0.0879072 0.142641
0.623377 0.0880751 0.142184
0.623621 0.0881361 0.142031
0.624582 0.0879988 0.142
0.627176 0.0874342 0.142153
0.631952 0.086305 0.142779
0.0729992 0.26952 0.0987106
0.0677806 0.277516 0.0963455
0.063798 0.286046 0.0925765
0.0611276 0.292622 0.0873274
0.0601358 0.296956 0.0823987
0.0619059 0.298207 0.0822156
0.066453 0.295003 0.0822461
0.106828 0.291203 0.0844282
0.177157 0.291295 0.0862745
0.276585 0.29308 0.0866865
0.380636 0.300572 0.101579
0.484871 0.295171 0.135882
0.568994 0.28661 0.148211
0.643503 0.268376 0.156756
0.703227 0.243854 0.159686
0.728099 0.21561 0.154986
0.704433 0.165805 0.141604
0.66836 0.127718 0.129168
0.647852 0.109285 0.120531
0.652033 0.113817 0.124468
0.650446 0.111315 0.130251
0.642145 0.103288 0.126802
0.632609 0.0945754 0.119371
0.63151 0.0949416 0.113924
0.639338 0.102663 0.117144
0.652186 0.113313 0.126101
0.661784 0.121752 0.131792
0.669291 0.128511 0.13518
0.673411 0.132753 0.136355
0.675807 0.134676 0.136431
0.677363 0.135149 0.136217
0.679988 0.135119 0.136004
0.684642 0.134951 0.135912
0.0785992 0.346868 0.112459
0.0722667 0.357305 0.109651
0.0671855 0.367788 0.10573
0.063798 0.376303 0.100023
0.0624704 0.383169 0.0918288
0.0624704 0.387152 0.0840772
0.064683 0.387793 0.0838178
0.0772869 0.383276 0.084596
0.132219 0.378744 0.0869917
0.228779 0.381872 0.0879072
0.357412 0.385687 0.0852827
0.477424 0.396475 0.0981155
0.594369 0.401236 0.146715
0.68954 0.398413 0.172274
0.765103 0.394171 0.186145
0.819638 0.381277 0.19237
0.845991 0.361303 0.201602
0.846021 0.341207 0.201373
0.841993 0.333898 0.198734
0.83917 0.326604 0.198291
0.838376 0.321874 0.199863
0.838682 0.320897 0.200961
0.838865 0.324071 0.199207
0.840162 0.32903 0.198016
0.842496 0.335637 0.198459
0.845304 0.342245 0.199542
0.84863 0.350088 0.201007
0.850355 0.354574 0.202243
0.852018 0.358206 0.20351
0.853605 0.360678 0.204883
0.854459 0.362249 0.205753
0.854826 0.362432 0.206073
0.855589 0.36347 0.206455
0.0784314 0.443305 0.124758
0.07187 0.456107 0.12192
0.0660868 0.468009 0.117952
0.0630808 0.478004 0.112612
0.061738 0.486717 0.104509
0.0614633 0.49366 0.0938888
0.0634928 0.498695 0.0834211
0.0664073 0.497139 0.0835584
0.0909743 0.491997 0.0843977
0.170153 0.484245 0.0894942
0.300984 0.487083 0.0959945
0.449363 0.492714 0.0981613
0.574014 0.502937 0.116823
0.677577 0.51986 0.144366
0.770214 0.523476 0.192309
0.835126 0.529564 0.208133
0.873045 0.538781 0.21416
0.888762 0.536095 0.220462
0.888655 0.532967 0.219272
0.88896 0.532586 0.219959
0.888747 0.532418 0.22031
0.888533 0.534218 0.220447
0.888548 0.536828 0.22063
0.888518 0.540978 0.220645
0.888533 0.54493 0.220554
0.888548 0.550362 0.220508
0.888533 0.55462 0.220386
0.888609 0.557855 0.22031
0.888853 0.55935 0.220462
0.888945 0.559747 0.220462
0.888884 0.559243 0.220279
0.888777 0.558892 0.220066
0.888624 0.558968 0.219745
0.0827039 0.55169 0.146822
0.0811475 0.563134 0.145281
0.0785687 0.574228 0.142855
0.0793317 0.583566 0.139284
0.07953 0.592599 0.133135
0.0827039 0.600198 0.124987
0.0868544 0.606943 0.11281
0.0952316 0.610468 0.105547
0.0977798 0.606561 0.10547
0.136934 0.59826 0.101289
0.241779 0.589426 0.110216
0.403555 0.591669 0.123934
0.54519 0.596887 0.127672
0.660563 0.604913 0.15285
0.752132 0.62536 0.161181
0.81796 0.645472 0.189761
0.859648 0.662654 0.20676
0.874296 0.67364 0.208804
0.874632 0.672953 0.209644
0.875151 0.67248 0.210666
0.875288 0.673213 0.210849
0.875196 0.674754 0.210651
0.874937 0.677226 0.210224
0.874662 0.680049 0.209613
0.874067 0.683238 0.20882
0.873625 0.685573 0.208316
0.873487 0.687602 0.208011
0.873762 0.688731 0.208301
0.873823 0.689036 0.208377
0.873823 0.688609 0.208377
0.873762 0.688014 0.208331
0.873579 0.686778 0.208118
0.873411 0.685512 0.207828
0.119936 0.652903 0.189624
0.121111 0.662501 0.18941
0.121386 0.671687 0.187533
0.121599 0.680735 0.183658
0.12256 0.689052 0.177386
0.126223 0.696651 0.170245
0.133562 0.70396 0.161578
0.14818 0.709361 0.150301
0.157671 0.710002 0.14728
0.157382 0.703578 0.145327
0.222965 0.695369 0.132982
0.347829 0.684703 0.144167
0.510933 0.68835 0.160433
0.639765 0.695811 0.171771
0.741482 0.70782 0.199954
0.822583 0.725475 0.218143
0.867658 0.747906 0.229694
0.892714 0.765499 0.235569
0.891691 0.762615 0.233585
0.891676 0.762661 0.233646
0.89192 0.763195 0.233936
0.89218 0.764065 0.234394
0.892592 0.76524 0.235096
0.893675 0.767758 0.236759
0.894713 0.769787 0.238087
0.895216 0.770993 0.239048
0.895521 0.77171 0.23978
0.895552 0.771756 0.239918
0.895277 0.771145 0.239429
0.894789 0.770092 0.238544
0.894301 0.769039 0.237812
0.893172 0.767391 0.236011
0.892027 0.765637 0.233936
0.169116 0.744854 0.237095
0.171435 0.75317 0.237613
0.172793 0.761303 0.236576
0.174853 0.769024 0.233417
0.177844 0.776196 0.228824
0.183719 0.783169 0.223682
0.19202 0.788174 0.215549
0.208988 0.793011 0.205478
0.231571 0.798489 0.199557
0.235813 0.796338 0.198184
0.241093 0.788296 0.191577
0.335042 0.779202 0.172366
0.485435 0.771801 0.187854
0.627558 0.77995 0.213931
0.736858 0.793561 0.236866
0.822644 0.811032 0.270283
0.884825 0.82829 0.293751
0.916777 0.840955 0.308293
0.924315 0.838514 0.308522
0.923461 0.836133 0.305837
0.923461 0.836133 0.305852
0.923659 0.836912 0.306706
0.924163 0.838483 0.308354
0.924468 0.83949 0.309346
0.924773 0.840467 0.310231
0.925063 0.841108 0.310933
0.925124 0.84126 0.311086
0.924941 0.840955 0.310658
0.924697 0.84033 0.310002
0.924346 0.838972 0.308949
0.923964 0.837095 0.307515
0.923674 0.83505 0.30605
0.922789 0.832807 0.303883
0.229923 0.819669 0.285771
0.232593 0.826535 0.285756
0.233005 0.833799 0.284031
0.232563 0.841169 0.281331
0.234272 0.847822 0.276234
0.23917 0.853773 0.269734
0.247456 0.858335 0.258015
0.263371 0.864652 0.2533
0.28484 0.871687 0.251469
0.297002 0.874876 0.251392
0.298833 0.869902 0.248066
0.355932 0.862394 0.232319
0.47715 0.84918 0.221408
0.628901 0.850645 0.244877
0.756909 0.863478 0.287648
0.83917 0.883848 0.317159
0.89369 0.894774 0.348867
0.924681 0.897765 0.36437
0.940963 0.898177 0.378378
0.941421 0.894377 0.374212
0.941268 0.89369 0.373587
0.941283 0.893812 0.373648
0.941344 0.894209 0.373953
0.94136 0.894606 0.374273
0.941283 0.895079 0.374472
0.941085 0.895445 0.374228
0.940734 0.895628 0.373632
0.940337 0.89546 0.372564
0.939956 0.894606 0.371038
0.939712 0.892943 0.369146
0.939696 0.890898 0.367346
0.939651 0.888731 0.365789
0.939361 0.886625 0.363653
0.272877 0.879637 0.324392
0.270741 0.884672 0.325383
0.266484 0.889982 0.325597
0.261189 0.895369 0.326513
0.255985 0.897627 0.330053
0.252628 0.899107 0.333913
0.251575 0.899794 0.337102
0.252018 0.899779 0.339437
0.253605 0.899168 0.340047
0.256504 0.897948 0.337758
0.260365 0.896513 0.330999
0.265827 0.89427 0.312612
0.44445 0.90605 0.272816
0.612085 0.90428 0.289464
0.752041 0.910719 0.336156
0.846952 0.919402 0.375708
0.896651 0.928557 0.396139
0.928206 0.931472 0.429816
0.945541 0.932418 0.452018
0.950332 0.931502 0.451652
0.950225 0.930449 0.448066
0.950103 0.929915 0.446342
0.950011 0.929625 0.445594
0.94995 0.929625 0.44538
0.949828 0.929686 0.445029
0.949569 0.929793 0.444389
0.949218 0.929961 0.443671
0.94876 0.929702 0.441733
0.948379 0.92903 0.439155
0.94818 0.927871 0.4365
0.94815 0.926436 0.433783
0.948043 0.924956 0.430762
0.947799 0.923674 0.427939
0.269932 0.895659 0.391119
0.266484 0.897124 0.393286
0.261234 0.899168 0.392844
0.255482 0.90132 0.391257
0.250828 0.903014 0.389746
0.248035 0.904005 0.3879
0.247028 0.904311 0.385794
0.247227 0.904158 0.383658
0.248234 0.903731 0.382513
0.250462 0.902708 0.379492
0.252979 0.901686 0.378576
0.255314 0.900801 0.378958
0.262898 0.895567 0.324559
0.484092 0.912795 0.280858
0.68716 0.919768 0.328328
0.813489 0.928145 0.387701
0.885603 0.940246 0.427573
0.921874 0.946517 0.459693
0.942916 0.948287 0.496117
0.952514 0.948943 0.522652
0.952422 0.948516 0.512581
0.952422 0.948211 0.511116
0.952316 0.947997 0.509972
0.952102 0.947906 0.508797
0.951782 0.947951 0.507729
0.951324 0.948119 0.50663
0.950774 0.948302 0.505226
0.950225 0.948318 0.503014
0.949828 0.948119 0.500603
0.949523 0.947799 0.497887
0.94931 0.947311 0.495003
0.949248 0.946822 0.492866
0.949187 0.946258 0.49015
0.255879 0.901289 0.394324
0.25536 0.901473 0.393973
0.253727 0.902037 0.393286
0.251453 0.902861 0.392187
0.248951 0.903731 0.390875
0.247456 0.904219 0.389532
0.246571 0.904524 0.387457
0.246921 0.904311 0.384955
0.247562 0.90399 0.382803
0.24892 0.903349 0.380499
0.251225 0.902373 0.378195
0.253483 0.901488 0.378653
0.25745 0.898878 0.359365
0.377081 0.9028 0.272114
0.580453 0.915709 0.298222
0.750027 0.923018 0.355474
0.852857 0.932967 0.411414
0.90808 0.944488 0.445624
0.936584 0.948363 0.482017
0.950561 0.949798 0.514656
0.952712 0.949966 0.527001
0.95288 0.950011 0.530098
0.95285 0.950042 0.529992
0.952743 0.950088 0.529778
0.952605 0.950164 0.529473
0.952377 0.950286 0.529076
0.952087 0.950439 0.528603
0.951827 0.950576 0.528191
0.95169 0.950652 0.527947
0.951675 0.950652 0.52784
0.951736 0.950622 0.527825
0.951843 0.950561 0.527749
0.951919 0.950454 0.526986
0.256321 0.901152 0.39585
0.256367 0.901122 0.395499
0.255299 0.901503 0.394858
0.253269 0.90222 0.393851
0.250889 0.903059 0.392462
0.248692 0.903822 0.39086
0.247303 0.90428 0.388998
0.246967 0.904341 0.386267
0.247333 0.904112 0.383383
0.248203 0.90367 0.381323
0.249805 0.902907 0.378103
0.251438 0.902281 0.378241
0.253361 0.901396 0.375631
0.305425 0.897337 0.282902
0.5178 0.914427 0.285557
0.705425 0.920562 0.33576
0.824704 0.929076 0.394614
0.893721 0.941665 0.434012
0.928496 0.947478 0.469963
0.9467 0.949355 0.502434
0.952377 0.949905 0.522042
0.952789 0.949996 0.528435
0.952773 0.950027 0.528664
0.952712 0.950057 0.528572
0.95256 0.950134 0.528389
0.952361 0.950256 0.528084
0.952087 0.950408 0.527718
0.951827 0.950545 0.527382
0.95169 0.950622 0.527245
0.95169 0.950637 0.527291
0.951736 0.950607 0.527443
0.951858 0.950545 0.527687
0.951965 0.950484 0.527901
0.255604 0.901411 0.396902
0.255802 0.901335 0.396582
0.254902 0.90164 0.395941
0.252903 0.902342 0.394919
0.250431 0.903227 0.393423
0.248005 0.904067 0.391791
0.246372 0.904616 0.389944
0.245853 0.904784 0.38732
0.246113 0.904585 0.384009
0.246845 0.904234 0.381842
0.248173 0.903517 0.378058
0.249363 0.903059 0.37789
0.250721 0.902556 0.378119
0.264729 0.896864 0.312642
0.462165 0.912566 0.277256
0.65507 0.918685 0.31751
0.793759 0.926406 0.376852
0.877104 0.938567 0.423667
0.919509 0.946731 0.458198
0.941955 0.94905 0.492134
0.951873 0.950042 0.518944
0.952361 0.950134 0.526299
0.952499 0.950179 0.528283
0.952468 0.950195 0.528252
0.952392 0.95024 0.528145
0.952255 0.950317 0.527947
0.952041 0.950423 0.527657
0.951843 0.95053 0.527382
0.95172 0.950591 0.527245
0.95172 0.950591 0.527245
0.951843 0.95053 0.527398
0.952224 0.950332 0.527901
0.952834 0.949996 0.52874
0.260334 0.899763 0.398428
0.262699 0.898894 0.398489
0.263706 0.898482 0.398184
0.262913 0.898726 0.397498
0.260975 0.899443 0.396124
0.258671 0.900236 0.394446
0.25687 0.900832 0.392462
0.256077 0.901015 0.390005
0.256016 0.900893 0.386572
0.256458 0.900633 0.384024
0.257328 0.900069 0.37998
0.258305 0.899672 0.379461
0.258961 0.899413 0.379553
0.262196 0.895705 0.341726
0.417746 0.905806 0.275898
0.606455 0.914839 0.305653
0.764736 0.922042 0.363622
0.862242 0.93254 0.417563
0.913878 0.943358 0.451987
0.94078 0.94696 0.487953
0.953689 0.948348 0.517952
0.955215 0.94844 0.527962
0.955474 0.948516 0.532372
0.955444 0.948531 0.532387
0.955367 0.948577 0.53228
0.955154 0.948684 0.531991
0.954772 0.948913 0.531441
0.954116 0.949279 0.530526
0.953323 0.949722 0.529412
0.952651 0.950103 0.528481
0.9523 0.950286 0.528008
0.952453 0.95021 0.528222
0.953002 0.949905 0.528984
0.258656 0.900389 0.399054
0.261021 0.899535 0.399023
0.262074 0.899138 0.398627
0.26157 0.89929 0.397971
0.259754 0.899931 0.396704
0.257328 0.900771 0.39498
0.255344 0.901442 0.392981
0.254383 0.901701 0.390463
0.254261 0.901595 0.387152
0.254704 0.901305 0.384039
0.255543 0.900786 0.380514
0.256641 0.900298 0.379171
0.257496 0.899977 0.379324
0.259861 0.897765 0.358007
0.368109 0.901625 0.272236
0.554543 0.915129 0.292836
0.72488 0.921126 0.344366
0.837461 0.929519 0.402609
0.901976 0.941558 0.440955
0.933928 0.94641 0.477333
0.95024 0.948074 0.508827
0.955016 0.948425 0.525933
0.955428 0.948501 0.531731
0.955444 0.948531 0.532387
0.955367 0.948577 0.53228
0.955154 0.948684 0.531991
0.954772 0.948913 0.531441
0.954116 0.949279 0.530526
0.953323 0.949722 0.529412
0.952667 0.950088 0.528527
0.952346 0.950271 0.528069
0.952499 0.950179 0.528283
0.952972 0.94992 0.528939
0.257618 0.900771 0.399664
0.259937 0.899931 0.399573
0.261051 0.899519 0.399115
0.260517 0.899702 0.39826
0.258625 0.900343 0.397177
0.256382 0.901122 0.395499
0.254673 0.901701 0.393515
0.253941 0.901915 0.39115
0.253941 0.901732 0.387976
0.254322 0.901473 0.384375
0.254856 0.901091 0.38114
0.25568 0.900664 0.379019
0.256565 0.900328 0.379171
0.258289 0.899046 0.36788
0.323186 0.89752 0.279896
0.516045 0.914122 0.285573
0.68368 0.9196 0.327306
0.807507 0.927642 0.383993
0.884733 0.940322 0.427832
0.922881 0.947066 0.46244
0.943954 0.949096 0.495949
0.952331 0.949828 0.520012
0.952895 0.949844 0.52694
0.953079 0.949859 0.529091
0.953017 0.949889 0.529
0.952773 0.950027 0.528664
0.952331 0.950271 0.528069
0.951568 0.950683 0.527062
0.950652 0.951156 0.52604
0.94992 0.951553 0.52488
0.949432 0.951812 0.524163
0.949294 0.951888 0.52398
0.949462 0.951797 0.524208
0.247684 0.904341 0.398581
0.249668 0.903593 0.398505
0.251392 0.902983 0.398138
0.252369 0.902602 0.39762
0.252674 0.902449 0.39675
0.252659 0.902449 0.395499
0.252598 0.902449 0.39379
0.252674 0.902403 0.391592
0.253864 0.901808 0.388846
0.254246 0.901503 0.384833
0.254551 0.901259 0.381704
0.254963 0.900938 0.378897
0.255406 0.900771 0.378973
0.256336 0.900221 0.375006
0.286259 0.895903 0.297719
0.476783 0.912291 0.279896
0.643259 0.917845 0.31339
0.778149 0.925399 0.368887
0.866926 0.936172 0.419287
0.913878 0.945937 0.451942
0.938994 0.948867 0.486671
0.951217 0.950057 0.516121
0.952071 0.95021 0.524208
0.9523 0.950286 0.527962
0.952209 0.950347 0.527886
0.951965 0.950469 0.527565
0.951537 0.950698 0.527047
0.950896 0.951019 0.52636
0.950195 0.9514 0.525353
0.949615 0.95172 0.524422
0.949218 0.951934 0.523873
0.949096 0.951995 0.52372
0.949218 0.951934 0.523888
0.246372 0.904845 0.398779
0.248142 0.904173 0.398749
0.249958 0.903487 0.398459
0.25124 0.903014 0.397879
0.251698 0.902831 0.397009
0.251652 0.902815 0.395743
0.251545 0.902846 0.39411
0.25185 0.902708 0.392065
0.252461 0.902373 0.389395
0.253361 0.901869 0.385306
0.254093 0.901473 0.382437
0.254688 0.901045 0.378851
0.254932 0.900954 0.378897
0.255146 0.900862 0.378927
0.261036 0.895293 0.318654
0.439612 0.909834 0.276005
0.601801 0.916899 0.303044
0.745495 0.923262 0.35314
0.846464 0.932021 0.408469
0.903304 0.944152 0.441077
0.933165 0.948363 0.476997
0.948272 0.949874 0.506905
0.951934 0.950179 0.522087
0.952255 0.950271 0.527382
0.952209 0.950347 0.527886
0.951965 0.950469 0.527565
0.951537 0.950698 0.527047
0.950896 0.951019 0.52636
0.950195 0.9514 0.525353
0.949615 0.95172 0.524422
0.949218 0.951934 0.523873
0.949081 0.951995 0.523705
0.949142 0.951965 0.523781
0.24535 0.905226 0.398962
0.246586 0.904753 0.398779
0.248402 0.904082 0.398642
0.249989 0.903471 0.398077
0.250767 0.903151 0.397345
0.250645 0.903181 0.396048
0.250019 0.903395 0.394385
0.249546 0.903532 0.392264
0.249546 0.903487 0.38967
0.249989 0.903181 0.38558
0.250492 0.902876 0.382589
0.251102 0.902419 0.378439
0.251362 0.902312 0.378225
0.251514 0.902251 0.378256
0.255085 0.898314 0.336934
0.391577 0.90721 0.272816
0.558953 0.917189 0.29221
0.709133 0.922286 0.336172
0.817594 0.929854 0.389776
0.88661 0.941848 0.428504
0.923445 0.94815 0.463249
0.943252 0.950134 0.49546
