bundles/resolve-cinematic-luts/Phantom Luts/Komodo Phantom FILM LUTs G2/Komodo Phantom FILM LUTs G2/33x/WB Offset - Green Boost/VisionTeal_Komodo_WBO_G2_33x.cube
TITLE "Generated by Resolve"
LUT_3D_SIZE 33
0.0221408 0.0355993 0.0336461
0.0221408 0.0355993 0.0336156
0.0221561 0.0355383 0.0335546
0.0261082 0.0349889 0.0341955
0.0464637 0.0335393 0.033463
0.0748913 0.0305791 0.0306706
0.107683 0.0281682 0.0278019
0.147692 0.0264439 0.0246586
0.198566 0.021973 0.0199283
0.250858 0.0186618 0.0184024
0.30869 0.0151369 0.0194095
0.366308 0.0125734 0.0211032
0.427054 0.0121004 0.0250858
0.49015 0.0123293 0.0391241
0.550225 0.0161135 0.0571908
0.604273 0.020737 0.068986
0.637064 0.024506 0.0774548
0.641688 0.0263218 0.0879377
0.643748 0.027039 0.0946059
0.64506 0.0275578 0.0993515
0.645075 0.0275883 0.0995804
0.644358 0.0273442 0.0966812
0.642267 0.026688 0.0913252
0.638758 0.02533 0.0816968
0.635004 0.0241398 0.072221
0.630716 0.0234073 0.0633249
0.629816 0.0230716 0.0570077
0.629236 0.0226596 0.0534829
0.631434 0.0230716 0.0531777
0.636042 0.0231785 0.0545663
0.640803 0.0236973 0.0568093
0.646281 0.0243076 0.0601205
0.652705 0.0251011 0.0619821
0.0221561 0.0355383 0.0335088
0.0221561 0.035584 0.0335851
0.0221714 0.035523 0.0335241
0.0280308 0.03505 0.0343328
0.0480659 0.0337835 0.0335393
0.0772106 0.0309758 0.0307164
0.111849 0.0289464 0.0282139
0.152255 0.0268559 0.024918
0.204013 0.0232547 0.020676
0.257435 0.0208133 0.0194553
0.314687 0.0178531 0.0206912
0.373205 0.0146181 0.0224308
0.430213 0.0119478 0.0239414
0.489754 0.0122225 0.0317235
0.548928 0.0155642 0.0454108
0.601282 0.0199741 0.0585031
0.63003 0.0233616 0.0653544
0.633707 0.0238804 0.0715038
0.635966 0.0244144 0.0760662
0.637156 0.0247196 0.0789807
0.637095 0.0246281 0.0781567
0.634958 0.0242466 0.0752728
0.632807 0.0237125 0.0688792
0.630014 0.0232853 0.0632944
0.628138 0.022797 0.0564736
0.629618 0.0228733 0.0554818
0.629847 0.022797 0.0528572
0.633478 0.0230869 0.0536507
0.63743 0.0233616 0.0543832
0.641917 0.0237736 0.0559396
0.646586 0.0243839 0.0584115
0.652216 0.0250553 0.0601205
0.65864 0.0259098 0.0607614
0.0221561 0.035584 0.033463
0.0221408 0.0356451 0.0335546
0.0221561 0.0355688 0.0335851
0.0221866 0.0361791 0.0340581
0.0433509 0.0350347 0.0341344
0.0736706 0.0327916 0.0316014
0.110033 0.0307927 0.0289464
0.152239 0.0287327 0.0259251
0.206302 0.0252232 0.0223087
0.260273 0.0235752 0.0205234
0.318563 0.0221866 0.0222629
0.375433 0.0174563 0.0237278
0.432624 0.0119478 0.0233768
0.493309 0.012253 0.0303044
0.548867 0.0151827 0.0392767
0.598886 0.0193637 0.0490272
0.624949 0.0221103 0.0556497
0.626749 0.0225834 0.0576028
0.629068 0.0230564 0.061265
0.62916 0.0230564 0.0612497
0.629282 0.0230259 0.0604105
0.62887 0.0229038 0.0585184
0.625223 0.0220035 0.0534218
0.62855 0.0225376 0.0540627
0.630106 0.0228733 0.0538949
0.632547 0.0230716 0.0537728
0.635843 0.0231632 0.0539864
0.638911 0.0235294 0.05449
0.643275 0.0239261 0.0555734
0.647517 0.024567 0.056611
0.652415 0.0251469 0.0575723
0.658213 0.0259251 0.0585031
0.664103 0.0267796 0.0586862
0.0221714 0.0444953 0.0324712
0.0222019 0.043946 0.0326543
0.0222324 0.0425116 0.03299
0.0224002 0.0411383 0.0344854
0.0361791 0.041062 0.0364385
0.0619516 0.0379492 0.0337682
0.102998 0.034226 0.0300603
0.147799 0.0323949 0.0274968
0.203937 0.0295567 0.024155
0.261036 0.0282902 0.0228275
0.319768 0.025391 0.023621
0.378439 0.0204471 0.024567
0.436957 0.0137942 0.0247196
0.494804 0.0124208 0.0301671
0.551507 0.0155947 0.0389715
0.601999 0.0194247 0.0485237
0.625605 0.0218357 0.0517891
0.626276 0.0219425 0.0523384
0.625299 0.0218051 0.0514229
0.627024 0.0220645 0.0530404
0.62771 0.0221866 0.0530251
0.628916 0.0223087 0.0524453
0.630915 0.0228885 0.053727
0.633341 0.0229953 0.053727
0.636088 0.0231327 0.0540169
0.63856 0.0234531 0.0543374
0.642237 0.0237888 0.0548562
0.645594 0.0241398 0.0555581
0.649699 0.0246586 0.0556191
0.654368 0.0262455 0.056672
0.659495 0.0280003 0.0576028
0.6645 0.0288701 0.0584573
0.672877 0.0337224 0.0611429
0.0209659 0.0640726 0.0332036
0.0209049 0.0632486 0.0330816
0.0207828 0.0617533 0.0329442
0.0224918 0.0590066 0.0345006
0.0375067 0.0578927 0.0374304
0.0616464 0.0576333 0.0370642
0.0991379 0.053193 0.036286
0.14461 0.0472725 0.0305028
0.200916 0.0388037 0.0254063
0.258961 0.0334325 0.0245975
0.320455 0.0298619 0.0252537
0.380468 0.024979 0.0258488
0.439612 0.0187228 0.0268406
0.495232 0.0124819 0.0291752
0.553948 0.0157473 0.0378576
0.60589 0.0196994 0.0480812
0.634089 0.0230259 0.0538033
0.633097 0.0229801 0.0537423
0.633158 0.0229801 0.053727
0.633692 0.0229953 0.0537423
0.634546 0.0230564 0.0539254
0.636255 0.0231479 0.0540475
0.637934 0.0234073 0.0542763
0.640726 0.0236362 0.0545663
0.643427 0.0238804 0.0550851
0.646265 0.0242771 0.0555886
0.65005 0.0250401 0.0556497
0.654093 0.0271153 0.0566262
0.658213 0.0290684 0.0571298
0.663188 0.0312505 0.0586557
0.669688 0.0345006 0.0606088
0.675044 0.0373236 0.0608835
0.683314 0.0422217 0.0626993
0.0200961 0.0904707 0.0338445
0.0202487 0.089601 0.0332494
0.0203403 0.0884413 0.0334325
0.021561 0.0867018 0.0345922
0.0328527 0.0824292 0.038407
0.0616007 0.0829786 0.0404059
0.0980087 0.0825513 0.038468
0.146731 0.0743114 0.0408179
0.209949 0.0631266 0.0327916
0.266712 0.0529946 0.0274052
0.321996 0.0424964 0.0262303
0.381064 0.0317082 0.0280461
0.441444 0.0249943 0.0289006
0.496834 0.0156558 0.0294957
0.555367 0.0161288 0.0360418
0.609079 0.0199741 0.0466468
0.642069 0.0237583 0.0549325
0.64213 0.0237583 0.0548409
0.641215 0.023682 0.0546731
0.642161 0.0237736 0.0549935
0.643366 0.0238956 0.0552224
0.644785 0.0239872 0.0550698
0.646601 0.0243381 0.0554513
0.649409 0.0247501 0.0555581
0.653147 0.0267033 0.0564736
0.656306 0.0284886 0.0573129
0.660121 0.0303502 0.0576181
0.665141 0.033341 0.0595102
0.670161 0.0365606 0.0604715
0.674891 0.0398566 0.0611734
0.681422 0.0443122 0.0623484
0.68867 0.0491188 0.0635843
0.696666 0.0555581 0.0641031
0.0215763 0.122972 0.037995
0.0220493 0.121874 0.037232
0.0217288 0.121263 0.0372168
0.0227512 0.120226 0.0377661
0.0314488 0.11812 0.038941
0.0505074 0.11603 0.0426032
0.0946822 0.116243 0.0401007
0.1458 0.113985 0.0385901
0.222126 0.102647 0.0447089
0.28957 0.0908522 0.0397192
0.350484 0.078172 0.0358587
0.399863 0.0631876 0.0322423
0.450507 0.0463264 0.0325475
0.500847 0.0246891 0.0319066
0.558068 0.0195926 0.0359808
0.612772 0.0231022 0.0459449
0.65069 0.0256657 0.0560311
0.651072 0.0261234 0.0561379
0.652079 0.0269474 0.0564126
0.653086 0.0274052 0.0565499
0.654002 0.027985 0.0566873
0.655924 0.0291142 0.0572671
0.657801 0.0297246 0.0571298
0.661662 0.0317388 0.0582742
0.665293 0.0343175 0.0595254
0.669612 0.0367437 0.0604868
0.673304 0.0398413 0.0610208
0.678004 0.0441291 0.0620279
0.683894 0.0489815 0.0628061
0.689799 0.0541238 0.0635538
0.695888 0.0603189 0.06392
0.703182 0.0688945 0.0637827
0.712016 0.0820172 0.0645762
0.0208133 0.164645 0.0382086
0.0206455 0.163806 0.036347
0.0197452 0.162478 0.035172
0.0197147 0.161334 0.0354314
0.024155 0.159915 0.0364996
0.0387732 0.15816 0.0396735
0.075639 0.158755 0.0453803
0.133318 0.161181 0.0369116
0.212757 0.160678 0.0398413
0.307698 0.155489 0.058732
0.380423 0.144823 0.0618906
0.444251 0.131792 0.0607004
0.500908 0.116991 0.0580758
0.543999 0.0918441 0.0504768
0.571649 0.0452277 0.0390021
0.617243 0.0302892 0.0464027
0.658778 0.030396 0.0569772
0.66302 0.0308843 0.0588693
0.663981 0.0315709 0.059266
0.66656 0.0335393 0.0601663
0.669017 0.0352026 0.0606546
0.671107 0.036408 0.0610666
0.67274 0.0381323 0.0608377
0.677028 0.0415045 0.0619364
0.680842 0.0451362 0.0625467
0.685802 0.0502022 0.0632334
0.690837 0.054551 0.0636606
0.69601 0.0607919 0.063798
0.702403 0.0695201 0.063798
0.707424 0.0771344 0.0621042
0.725643 0.104845 0.0719921
0.745113 0.139757 0.082414
0.761395 0.175067 0.0936141
0.0252842 0.222538 0.0451362
0.0243992 0.22031 0.0423133
0.0239261 0.218967 0.0394903
0.0237736 0.218112 0.0394446
0.0230259 0.215778 0.0388952
0.0340124 0.216159 0.0404669
0.0574044 0.2159 0.0458381
0.117601 0.222019 0.0548714
0.196094 0.224277 0.0390631
0.287419 0.226459 0.0462348
0.387289 0.226947 0.072343
0.458289 0.22118 0.0875105
0.52665 0.209705 0.0880598
0.587869 0.191546 0.0885023
0.644327 0.166125 0.0863203
0.680613 0.124712 0.0716411
0.696437 0.0755016 0.0587472
0.689418 0.0537118 0.0631418
0.684596 0.0479133 0.0631113
0.684504 0.0475166 0.0633249
0.687938 0.0520638 0.0630961
0.690471 0.0535439 0.0635691
0.694545 0.0574197 0.0641489
0.697932 0.060914 0.0639353
0.704997 0.0708019 0.0631266
0.709789 0.0824598 0.0606241
0.716167 0.0902113 0.0589609
0.736309 0.121828 0.0756542
0.750225 0.150698 0.0854047
0.760983 0.180789 0.093843
0.767727 0.217838 0.104433
0.774166 0.256733 0.118105
0.78085 0.300099 0.133867
0.038941 0.292699 0.0638437
0.0379339 0.292287 0.0609903
0.037232 0.290028 0.0562295
0.0366827 0.287343 0.0530861
0.0362097 0.285588 0.0526894
0.0369726 0.283848 0.0522316
0.0578317 0.286259 0.0555276
0.0911421 0.285313 0.0602579
0.175921 0.289128 0.0673075
0.264866 0.292103 0.0445716
0.366354 0.297765 0.057023
0.463554 0.311482 0.0881361
0.538552 0.311894 0.113619
0.600885 0.309621 0.128344
0.663188 0.293462 0.128405
0.71635 0.266972 0.122087
0.75581 0.23473 0.108171
0.762951 0.186038 0.0955673
0.751812 0.149737 0.084123
0.743145 0.134997 0.0760357
0.740139 0.129595 0.0771649
0.739071 0.119768 0.074464
0.743206 0.131533 0.0769818
0.752102 0.150301 0.0851453
0.76051 0.179324 0.0937819
0.765515 0.206653 0.0997482
0.769848 0.231601 0.108553
0.774319 0.259281 0.118486
0.778653 0.290944 0.130755
0.781415 0.32192 0.141634
0.783322 0.353796 0.156039
0.785016 0.385824 0.173648
0.785336 0.416083 0.18883
0.0564736 0.366339 0.0852827
0.0556649 0.365499 0.0827192
0.0548867 0.363439 0.0783398
0.0537728 0.360937 0.0719158
0.0522011 0.358511 0.0687877
0.0519265 0.356451 0.0686809
0.0606546 0.356176 0.0691691
0.0891432 0.356786 0.0722057
0.14197 0.356634 0.0810407
0.248768 0.358648 0.0841535
0.340307 0.365316 0.0568093
0.44361 0.374655 0.0764782
0.531533 0.397391 0.0995804
0.609659 0.407507 0.141695
0.669841 0.410269 0.164553
0.718929 0.4094 0.175998
0.761074 0.396979 0.173938
0.783734 0.364874 0.16379
0.782712 0.344503 0.152865
0.781567 0.326467 0.144671
0.780972 0.311925 0.139986
0.780133 0.300542 0.136172
0.780331 0.300435 0.136431
0.781735 0.316014 0.142931
0.782086 0.33576 0.148699
0.782742 0.357305 0.156634
0.78436 0.383261 0.169543
0.784604 0.406134 0.182162
0.7841 0.427817 0.193225
0.786343 0.449622 0.19707
0.788815 0.472847 0.198093
0.790112 0.493629 0.198962
0.791745 0.513405 0.19968
0.0817884 0.441688 0.112108
0.0802472 0.440955 0.109316
0.0793622 0.440192 0.104829
0.0779736 0.437598 0.0980392
0.0767376 0.434546 0.0895399
0.0762341 0.432883 0.0882582
0.0750744 0.430594 0.0869917
0.0951858 0.431388 0.0898451
0.130678 0.428687 0.0941329
0.221622 0.424674 0.103441
0.326925 0.42945 0.0997024
0.414633 0.437629 0.0812695
0.51725 0.451392 0.101686
0.593301 0.474632 0.112123
0.668116 0.494713 0.157321
0.722942 0.504402 0.189136
0.76492 0.512886 0.196506
0.789853 0.512688 0.198016
0.790997 0.49984 0.198215
0.790311 0.489525 0.19617
0.789776 0.481529 0.194614
0.788678 0.476097 0.192996
0.788449 0.473121 0.19411
0.78851 0.473579 0.195605
0.788983 0.476341 0.197192
0.790341 0.491844 0.199298
0.790738 0.504585 0.199313
0.790997 0.518196 0.19913
0.792065 0.534356 0.199222
0.791653 0.547723 0.196292
0.79115 0.560708 0.192737
0.790738 0.57528 0.189212
0.789792 0.588434 0.184833
0.111971 0.517693 0.148852
0.110765 0.517784 0.145342
0.109651 0.516228 0.13991
0.109041 0.514412 0.132036
0.108797 0.513008 0.122988
0.110094 0.511666 0.116365
0.109422 0.509743 0.115389
0.108537 0.506996 0.113817
0.138293 0.502266 0.112718
0.202991 0.493416 0.118624
0.314534 0.491173 0.135546
0.411292 0.499321 0.115862
0.484916 0.507149 0.107393
0.581765 0.52311 0.125261
0.654398 0.54583 0.132036
0.713771 0.571023 0.150378
0.760632 0.591699 0.170184
0.788052 0.60676 0.164691
0.78996 0.602869 0.171786
0.789212 0.596719 0.174731
0.790051 0.593378 0.179644
0.790021 0.590951 0.181018
0.789975 0.590936 0.181491
0.789975 0.591867 0.181689
0.78996 0.592828 0.181827
0.789548 0.593942 0.181445
0.789136 0.59501 0.180667
0.78999 0.602014 0.174395
0.790341 0.610895 0.16556
0.790097 0.62005 0.160037
0.790188 0.629648 0.155413
0.790417 0.637018 0.151858
0.79115 0.643915 0.150149
0.144839 0.58996 0.195392
0.144213 0.589593 0.19089
0.142992 0.588617 0.183398
0.142535 0.587793 0.174365
0.143282 0.587091 0.162692
0.1467 0.586587 0.150683
0.148669 0.585061 0.147601
0.146929 0.58204 0.14609
0.153689 0.576486 0.141787
0.209522 0.56463 0.139223
0.29041 0.552316 0.150515
0.406638 0.55375 0.165377
0.492561 0.566522 0.130999
0.552804 0.578683 0.132769
0.639323 0.595087 0.154253
0.711238 0.618631 0.16347
0.759976 0.644465 0.163104
0.790661 0.66833 0.151675
0.795438 0.66949 0.150027
0.795331 0.666026 0.150637
0.795254 0.663981 0.151003
0.795178 0.663203 0.150942
0.795117 0.663264 0.150454
0.795087 0.663645 0.149981
0.794766 0.664546 0.149081
0.794934 0.666026 0.148608
0.794629 0.667445 0.147814
0.794949 0.668727 0.14847
0.795758 0.670192 0.14966
0.796994 0.673915 0.152438
0.798901 0.679454 0.157412
0.799084 0.684535 0.160021
0.802182 0.690425 0.164721
0.183383 0.658778 0.235203
0.183368 0.659068 0.231785
0.183383 0.658854 0.226047
0.18323 0.658198 0.218143
0.183764 0.658198 0.206516
0.188022 0.657115 0.192187
0.198596 0.656214 0.1823
0.197299 0.653986 0.180636
0.195758 0.650553 0.178546
0.221775 0.63743 0.16376
0.295918 0.620569 0.171908
0.391135 0.608072 0.189899
0.486412 0.616571 0.18587
0.566781 0.634943 0.160952
0.622873 0.653422 0.170977
0.695644 0.668864 0.198489
0.757671 0.692287 0.210819
0.793606 0.715923 0.204517
0.808591 0.722667 0.204807
0.808576 0.719585 0.200732
0.808499 0.718685 0.199359
0.808454 0.718486 0.199207
0.808499 0.718593 0.199268
0.80856 0.719188 0.199847
0.808713 0.719768 0.20058
0.808652 0.720958 0.201907
0.808927 0.722438 0.203357
0.809003 0.723598 0.204898
0.809064 0.724254 0.205615
0.809064 0.724254 0.205646
0.808972 0.723049 0.204273
0.809903 0.726345 0.209018
0.810117 0.729503 0.213703
0.223209 0.7205 0.269688
0.223117 0.720562 0.265812
0.223056 0.72076 0.260914
0.223392 0.721263 0.253544
0.224033 0.720745 0.241413
0.230854 0.719371 0.227634
0.243717 0.719127 0.218616
0.248508 0.718364 0.214328
0.247288 0.71667 0.213352
0.248692 0.710781 0.208286
0.30779 0.688075 0.195041
0.395468 0.667811 0.20795
0.494667 0.664836 0.222843
0.569909 0.681804 0.210056
0.643336 0.7037 0.210269
0.696117 0.72784 0.225376
0.750347 0.741726 0.250813
0.788998 0.757229 0.254673
0.810971 0.762676 0.26865
0.813245 0.760723 0.264851
0.813336 0.760342 0.264378
0.813352 0.760281 0.264363
0.813336 0.76051 0.264897
0.813275 0.761166 0.266026
0.813352 0.762219 0.267659
0.813611 0.763378 0.270222
0.813977 0.764233 0.271916
0.813886 0.764691 0.272496
0.813809 0.764813 0.272679
0.813916 0.76466 0.272389
0.813916 0.763806 0.271504
0.81355 0.762142 0.268299
0.813504 0.760754 0.266361
0.259388 0.776669 0.297658
0.259617 0.777356 0.294667
0.259342 0.777935 0.289937
0.259113 0.778607 0.283543
0.260716 0.779904 0.272282
0.266026 0.781247 0.264881
0.276646 0.781628 0.259388
0.285161 0.7832 0.256184
0.285649 0.781125 0.254154
0.287266 0.777462 0.250858
0.333104 0.758984 0.241199
0.416205 0.731319 0.243534
0.504936 0.715114 0.254307
0.586847 0.726986 0.252155
0.662882 0.748089 0.251362
0.719738 0.770535 0.259754
0.755596 0.783261 0.277714
0.782238 0.786343 0.301778
0.804425 0.791058 0.309041
0.813458 0.792264 0.314305
0.813397 0.791226 0.312398
0.813382 0.791409 0.312596
0.813443 0.791959 0.313603
0.813413 0.792508 0.314733
0.813153 0.793133 0.315602
0.812909 0.793667 0.316533
0.812711 0.794049 0.317311
0.812772 0.794324 0.317968
0.812818 0.794446 0.318334
0.812772 0.794385 0.318135
0.812894 0.793591 0.316213
0.813367 0.791775 0.31313
0.813107 0.788586 0.30782
0.268696 0.819196 0.368643
0.267964 0.819516 0.367437
0.267201 0.819806 0.365255
0.266407 0.820188 0.364248
0.265858 0.820447 0.362875
0.265522 0.820371 0.359625
0.265126 0.819913 0.355795
0.26508 0.818967 0.350988
0.264973 0.817624 0.344625
0.265431 0.81619 0.338964
0.268482 0.813062 0.320775
0.374746 0.779171 0.268269
0.488457 0.755993 0.283894
0.583124 0.754421 0.296544
0.655222 0.768399 0.302434
0.719661 0.784482 0.312703
0.758633 0.801404 0.315572
0.781842 0.807645 0.333639
0.800488 0.809064 0.356756
0.812924 0.811673 0.363226
0.813336 0.811429 0.358618
0.813321 0.811536 0.35874
0.813352 0.811734 0.35935
0.813397 0.811963 0.360159
0.813428 0.812192 0.360586
0.813428 0.812406 0.361105
0.813382 0.812604 0.361746
0.813321 0.812711 0.362127
0.813291 0.812711 0.362097
0.813352 0.812451 0.361166
0.813291 0.811841 0.359655
0.812955 0.810697 0.356435
0.813123 0.808713 0.351263
0.26656 0.827008 0.404807
0.265873 0.827375 0.404746
0.264851 0.828031 0.405066
0.263905 0.828672 0.404669
0.263355 0.828962 0.403861
0.263249 0.828809 0.402365
0.263218 0.828763 0.401465
0.263661 0.82829 0.398733
0.263981 0.828061 0.39675
0.264057 0.828016 0.396674
0.264271 0.827832 0.396048
0.265705 0.816175 0.340032
0.378027 0.778668 0.269245
0.52401 0.759136 0.298253
0.621942 0.765423 0.308827
0.694453 0.781537 0.319753
0.749172 0.799908 0.330938
0.779126 0.813031 0.339666
0.796658 0.813901 0.363088
0.810956 0.816556 0.381628
0.813275 0.816892 0.387884
0.813352 0.816983 0.38645
0.813367 0.816983 0.386694
0.813382 0.816983 0.386877
0.813367 0.816983 0.387091
0.813352 0.816968 0.387442
0.813306 0.816968 0.387579
0.81326 0.816953 0.387762
0.813199 0.816922 0.387533
0.813153 0.816922 0.387259
0.813138 0.816922 0.386511
0.813092 0.816938 0.385489
0.813031 0.816953 0.383917
0.265553 0.827802 0.407355
0.265202 0.828031 0.407156
0.264469 0.828473 0.406821
0.263935 0.828824 0.406241
0.263508 0.829023 0.405066
0.263264 0.828901 0.403494
0.263294 0.828702 0.401617
0.263554 0.828382 0.399481
0.263981 0.828077 0.396796
0.264027 0.828031 0.396704
0.264103 0.827985 0.396628
0.265492 0.820233 0.359304
0.329824 0.79057 0.268299
0.474388 0.763348 0.286717
0.589776 0.761013 0.307805
0.669017 0.775402 0.314397
0.730831 0.792645 0.328145
0.770336 0.80943 0.335348
0.789624 0.813138 0.357809
0.807477 0.815885 0.372946
0.812879 0.816968 0.384329
0.812879 0.816892 0.388617
0.812879 0.816876 0.388663
0.812879 0.816876 0.388663
0.812863 0.816892 0.388663
0.812833 0.816892 0.388663
0.812802 0.816907 0.388663
0.812787 0.816907 0.388632
0.812757 0.816907 0.388632
0.812772 0.816922 0.388663
0.812757 0.816907 0.388693
0.812772 0.816907 0.388769
0.812772 0.816907 0.388891
0.264286 0.828977 0.409171
0.264149 0.829007 0.408957
0.263935 0.829129 0.408576
0.263661 0.829252 0.407706
0.263416 0.829313 0.406546
0.263294 0.829129 0.404196
0.263249 0.828779 0.401999
0.263401 0.828519 0.400153
0.263951 0.828077 0.396933
0.264027 0.828046 0.396704
0.264088 0.828016 0.396643
0.26479 0.821576 0.370321
0.313619 0.795041 0.271672
0.462989 0.764279 0.284108
0.575479 0.758923 0.307057
0.659464 0.773892 0.313497
0.7243 0.7897 0.327474
0.765942 0.807858 0.333944
0.788479 0.813947 0.352361
0.804776 0.81561 0.369635
0.812924 0.81706 0.382635
0.812863 0.816953 0.387243
0.812863 0.816938 0.388327
0.812848 0.816938 0.388327
0.812833 0.816938 0.388327
0.812818 0.816953 0.388312
0.812802 0.816953 0.388296
0.812772 0.816968 0.388281
0.812772 0.816968 0.388266
0.812757 0.816968 0.388251
0.812772 0.816968 0.388266
0.812802 0.816968 0.388281
0.812848 0.816953 0.388312
0.264912 0.828656 0.409171
0.2654 0.828229 0.408484
0.265492 0.828046 0.407797
0.265293 0.828031 0.406973
0.264942 0.828061 0.4056
0.264683 0.82797 0.403525
0.26453 0.827756 0.401343
0.264851 0.827604 0.399481
0.265629 0.826917 0.395636
0.265705 0.826856 0.395453
0.265782 0.826795 0.395392
0.266285 0.821714 0.376608
0.301396 0.797559 0.271717
0.457542 0.76434 0.281987
0.570291 0.758144 0.30724
0.653605 0.771695 0.311604
0.719158 0.78819 0.32546
0.763867 0.806241 0.332555
0.787106 0.813962 0.349126
0.802701 0.815152 0.367605
0.813199 0.81706 0.381338
0.813306 0.81706 0.385901
0.813275 0.816999 0.388128
0.81326 0.816999 0.388113
0.81326 0.816999 0.388128
0.813245 0.817014 0.388113
0.813199 0.817014 0.388098
0.813153 0.817014 0.388083
0.813046 0.817014 0.388052
0.81297 0.817029 0.388052
0.812909 0.817029 0.388052
0.812924 0.817029 0.388052
0.813001 0.817029 0.388067
0.264286 0.82919 0.410193
0.26482 0.828779 0.409216
0.265003 0.828504 0.40853
0.264881 0.828428 0.40766
0.264637 0.828367 0.406394
0.264515 0.828168 0.404059
0.264347 0.827893 0.401663
0.264591 0.827741 0.399817
0.265293 0.827222 0.396155
0.265339 0.827131 0.395697
0.265293 0.827161 0.395727
0.265858 0.822843 0.3794
0.291508 0.80061 0.275929
0.451102 0.765362 0.280949
0.564508 0.758038 0.307805
0.647334 0.770916 0.311269
0.715923 0.787533 0.324254
0.760143 0.804974 0.331853
0.785458 0.814221 0.346593
0.801053 0.814817 0.36585
0.812055 0.816861 0.378943
0.813275 0.81706 0.385199
0.813275 0.816999 0.388067
0.813275 0.817014 0.388067
0.81326 0.817014 0.388052
0.813245 0.817014 0.388052
0.813214 0.817029 0.388037
0.813153 0.817029 0.388037
0.813062 0.817029 0.388022
0.81297 0.817044 0.388022
0.81294 0.817044 0.388022
0.81297 0.817044 0.388022
0.813016 0.817029 0.388022
0.263981 0.829419 0.410849
0.264469 0.829038 0.409873
0.264775 0.828779 0.409003
0.264576 0.828702 0.408408
0.264378 0.828672 0.407065
0.264164 0.828489 0.404791
0.264088 0.828107 0.402075
0.264317 0.827893 0.400031
0.264897 0.827482 0.396536
0.265034 0.827329 0.39585
0.265019 0.827359 0.395865
0.26537 0.824048 0.383764
0.289189 0.801755 0.281849
0.446326 0.766186 0.280018
0.557916 0.75816 0.3066
0.643595 0.769909 0.310933
0.711498 0.786297 0.323095
0.757748 0.803983 0.331243
0.784009 0.81445 0.343954
0.799512 0.814603 0.364782
0.811536 0.8168 0.377783
0.813291 0.81709 0.384512
0.813275 0.817014 0.388052
0.813275 0.817014 0.388067
0.813275 0.817029 0.388052
0.813245 0.817014 0.388037
0.813214 0.817029 0.388037
0.813153 0.817029 0.388022
0.813062 0.817029 0.388022
0.81297 0.817044 0.388022
0.81294 0.817044 0.388022
0.81294 0.817044 0.388022
0.812985 0.817044 0.388022
0.263447 0.829938 0.411505
0.263905 0.829465 0.410742
0.264332 0.829129 0.409659
0.264286 0.829007 0.408927
0.264134 0.828916 0.407599
0.263981 0.828687 0.405371
0.26392 0.82826 0.402502
0.264195 0.82797 0.400153
0.26482 0.827527 0.396567
0.264973 0.82739 0.39588
0.264942 0.82742 0.395895
0.265385 0.824002 0.383429
0.290806 0.801801 0.288624
0.442649 0.766888 0.279545
0.555001 0.758267 0.305745
0.640589 0.769741 0.311116
0.709133 0.785489 0.322332
0.755764 0.802945 0.330938
0.782956 0.814328 0.342702
0.79762 0.814252 0.364126
0.810849 0.816739 0.377005
0.813138 0.817044 0.384131
0.813123 0.816953 0.387869
0.813169 0.816968 0.388205
0.813184 0.816983 0.388174
0.813169 0.816983 0.388159
0.813138 0.816999 0.388144
0.813062 0.816999 0.388128
0.81297 0.817014 0.388128
0.812879 0.816999 0.388128
0.812802 0.816999 0.388159
0.812757 0.816983 0.38822
0.812711 0.816968 0.388266
0.262913 0.830579 0.412573
0.263172 0.830137 0.411627
0.263432 0.829725 0.410864
0.26363 0.829465 0.409751
0.263676 0.829297 0.40856
0.263722 0.828946 0.405982
0.263767 0.828397 0.402899
0.264103 0.828016 0.40029
0.264729 0.827588 0.396704
0.264912 0.82742 0.395911
0.264927 0.82742 0.39588
0.265415 0.82414 0.383917
0.288884 0.802533 0.292973
0.438956 0.767544 0.279149
0.5505 0.758099 0.304311
0.637598 0.769116 0.311162
0.706981 0.784649 0.321584
0.753841 0.802274 0.330465
0.781781 0.813993 0.341314
0.796399 0.814023 0.363043
0.809644 0.816541 0.375738
0.812879 0.81706 0.383749
0.812833 0.816938 0.387472
0.812848 0.816938 0.388342
0.812833 0.816938 0.388342
0.812818 0.816938 0.388357
0.812772 0.816938 0.388342
0.812711 0.816953 0.388327
0.812634 0.816968 0.388296
0.812589 0.816983 0.388266
0.812543 0.816999 0.38822
0.812543 0.816999 0.38822
0.812543 0.816999 0.388235
0.262348 0.831357 0.413611
0.262516 0.831022 0.41268
0.26276 0.830488 0.411429
0.26305 0.829999 0.410346
0.263218 0.829664 0.409094
0.263478 0.829252 0.406577
0.263508 0.828611 0.403311
0.263905 0.828153 0.400656
0.264607 0.827665 0.396887
0.264775 0.827497 0.395972
0.264881 0.827451 0.395911
0.265614 0.824399 0.384726
0.286366 0.804105 0.297002
0.433005 0.768734 0.278523
