bundles/resolve-cinematic-luts/Phantom Luts/Komodo Phantom FILM LUTs G2/Komodo Phantom FILM LUTs G2/33x/WB Offset - Green Boost/Vision_Komodo_WBO_Legacy_G2_33x.cube
TITLE "Generated by Resolve"
LUT_3D_SIZE 9
0.0361028 0.0486152 0.0394293
0.0475319 0.0491646 0.0366979
0.147509 0.0427405 0.0335393
0.37586 0.0427558 0.0349889
0.621836 0.0678569 0.0680705
0.629572 0.0542458 0.0742657
0.624628 0.0650645 0.0697185
0.612024 0.0772564 0.0627146
0.629786 0.0813306 0.0637675
0.0365606 0.0645914 0.041886
0.0437476 0.0624704 0.0424659
0.150729 0.0496223 0.0349432
0.389349 0.0491798 0.0362097
0.61619 0.0802777 0.0628367
0.614908 0.0799878 0.0625772
0.623957 0.0818647 0.0638437
0.638636 0.085893 0.0662394
0.661311 0.0933394 0.0669108
0.040528 0.177768 0.0625925
0.0399939 0.172778 0.0586252
0.128756 0.186481 0.0485847
0.453605 0.155093 0.0803388
0.673716 0.100252 0.0587625
0.669459 0.0981155 0.0657206
0.681483 0.101244 0.0633555
0.706523 0.12311 0.0672923
0.741329 0.192172 0.098909
0.106706 0.470832 0.180301
0.103853 0.469444 0.162997
0.121324 0.466178 0.1579
0.434806 0.488441 0.101869
0.72668 0.502907 0.164019
0.756863 0.4963 0.165621
0.756603 0.496025 0.167239
0.760784 0.513558 0.165591
0.768673 0.547997 0.154299
0.241428 0.757671 0.353246
0.241352 0.763531 0.339757
0.260746 0.772732 0.338109
0.409644 0.737957 0.329915
0.728023 0.801984 0.274846
0.826581 0.794324 0.260182
0.826368 0.797635 0.265675
0.826062 0.800244 0.269429
0.826612 0.789059 0.252445
0.265751 0.800748 0.428992
0.264485 0.800977 0.426139
0.263264 0.800137 0.419135
0.2869 0.794949 0.358663
0.652888 0.826276 0.369665
0.824765 0.842634 0.355428
0.825254 0.842985 0.361624
0.825299 0.843046 0.360998
0.825269 0.843 0.361517
0.265492 0.801236 0.430365
0.265187 0.800855 0.427787
0.263569 0.799985 0.41976
0.271641 0.795743 0.364828
0.630182 0.823819 0.372076
0.821363 0.842893 0.351293
0.825223 0.842939 0.362203
0.825284 0.84303 0.361196
0.82533 0.843061 0.360769
0.26508 0.801663 0.430716
0.265522 0.800763 0.428321
0.264332 0.799481 0.420478
0.26157 0.796078 0.376608
0.608179 0.819348 0.377188
0.815793 0.843336 0.34847
0.825208 0.842893 0.362646
0.825238 0.842985 0.3617
0.82536 0.843137 0.360006
0.264897 0.801816 0.430716
0.264729 0.801434 0.428656
0.264378 0.800198 0.422827
0.263523 0.798947 0.416373
0.526558 0.803525 0.395285
0.786023 0.844984 0.343252
0.825223 0.842939 0.361959
0.825254 0.843 0.361608
0.825391 0.843168 0.359701
0.03122 0.0492409 0.0525826
0.0554665 0.0489967 0.0530098
0.190723 0.0387732 0.045304
0.433356 0.0348974 0.0512398
0.642466 0.0487526 0.097612
0.646906 0.0509804 0.109438
0.643915 0.049546 0.101823
0.632303 0.0508888 0.0738079
0.621958 0.0791333 0.0627298
0.0358587 0.0607462 0.0485389
0.0441138 0.0581216 0.0480354
0.161349 0.0430304 0.0344701
0.394369 0.0413672 0.0364691
0.618616 0.072694 0.0641794
0.619425 0.0731975 0.0641794
0.614496 0.0784924 0.0620584
0.631586 0.0822461 0.0641031
0.65713 0.0908675 0.066331
0.0407568 0.172961 0.0735332
0.040528 0.167102 0.0635233
0.122164 0.17612 0.0472725
0.449958 0.136233 0.0736248
0.664469 0.0959945 0.062211
0.663447 0.0952468 0.0668345
0.676722 0.0997787 0.0643626
0.703593 0.119081 0.0670939
0.741421 0.188006 0.0963455
0.105379 0.466728 0.198398
0.103349 0.463127 0.178439
0.109117 0.457877 0.152621
0.431052 0.482887 0.100008
0.725505 0.494804 0.163973
0.755032 0.485634 0.164904
0.754482 0.48397 0.166735
0.761501 0.51339 0.164508
0.769009 0.548638 0.153353
0.236088 0.749294 0.367453
0.236179 0.750515 0.351644
0.260792 0.769436 0.335897
0.396353 0.73431 0.326085
0.725261 0.799222 0.27126
0.826688 0.790631 0.254307
0.826719 0.793332 0.257664
0.826673 0.795224 0.260014
0.82739 0.783963 0.24332
0.266102 0.801205 0.431632
0.264912 0.801343 0.428901
0.263569 0.800534 0.421256
0.266957 0.795682 0.361913
0.644541 0.825574 0.370398
0.824735 0.842649 0.354345
0.825284 0.843015 0.361303
0.825315 0.843076 0.360739
0.825315 0.843046 0.360922
0.266011 0.801724 0.433341
0.26566 0.801266 0.4309
0.263951 0.800397 0.422263
0.262028 0.796719 0.377401
0.62031 0.821653 0.374853
0.819425 0.843061 0.349798
0.825238 0.842939 0.362127
0.825284 0.84303 0.361089
0.82533 0.843061 0.360754
0.265675 0.801999 0.433494
0.266148 0.801129 0.431464
0.264958 0.799817 0.423178
0.259266 0.797101 0.390463
0.598367 0.817746 0.38024
0.813855 0.845075 0.344747
0.825193 0.842893 0.362661
0.825238 0.842985 0.3617
0.825376 0.843137 0.360006
0.26537 0.80209 0.432883
0.265385 0.801602 0.431205
0.26479 0.800381 0.424353
0.263981 0.799344 0.419181
0.517754 0.801328 0.396246
0.781888 0.84448 0.343832
0.825177 0.842939 0.361776
0.825254 0.843 0.361624
0.825391 0.843168 0.359716
0.0374456 0.0540322 0.157778
0.0625315 0.0505074 0.159884
0.198154 0.0453498 0.145708
0.442054 0.057969 0.187732
0.671427 0.0747387 0.242939
0.669367 0.0699626 0.229862
0.666773 0.0659953 0.21738
0.662181 0.0596475 0.19382
0.655253 0.0496529 0.151369
0.0294652 0.059205 0.131868
0.0408789 0.0520333 0.149355
0.180041 0.0456397 0.133211
0.436927 0.0535744 0.153857
0.664302 0.0610208 0.199832
0.6636 0.0602121 0.197116
0.66128 0.0567178 0.181415
0.652491 0.049073 0.14551
0.633021 0.0587778 0.0714733
0.0296788 0.149157 0.125322
0.030045 0.145647 0.122774
0.143053 0.168124 0.140215
0.46862 0.0950484 0.0893263
0.630915 0.0760662 0.0670481
0.627634 0.0792401 0.0651102
0.637034 0.0841077 0.0650492
0.662776 0.0951858 0.0664225
0.718471 0.132906 0.0716716
0.0992447 0.456367 0.255146
0.100557 0.452598 0.241779
0.095552 0.436011 0.17464
0.414252 0.465919 0.0947738
0.720638 0.468009 0.166506
0.750469 0.44329 0.162585
0.751507 0.457252 0.165576
0.756558 0.492134 0.165637
0.764691 0.530205 0.161776
0.226795 0.73579 0.424033
0.223102 0.732662 0.406851
0.225315 0.729519 0.350027
0.347402 0.723156 0.310979
0.717647 0.790784 0.262425
0.826871 0.779171 0.236103
0.826963 0.779187 0.23592
0.82707 0.779904 0.23743
0.827832 0.777005 0.232578
0.276799 0.806119 0.473548
0.267628 0.803662 0.451438
0.264927 0.801633 0.429984
0.259037 0.798123 0.399008
0.622873 0.822629 0.374136
0.824537 0.842573 0.352621
0.825254 0.843 0.361563
0.825315 0.843061 0.360815
0.825315 0.843061 0.360784
0.280446 0.810025 0.496544
0.276509 0.806546 0.475944
0.26566 0.801617 0.431922
0.262577 0.7991 0.414145
0.592157 0.816922 0.381064
0.814618 0.844495 0.345678
0.825238 0.842939 0.362142
0.825284 0.84303 0.361089
0.82533 0.843076 0.360693
0.281605 0.811231 0.501518
0.276707 0.806882 0.47892
0.266575 0.801236 0.432639
0.264179 0.799313 0.419821
0.569421 0.812207 0.387167
0.807111 0.845808 0.343175
0.825177 0.842878 0.362768
0.825238 0.842985 0.3617
0.82536 0.843137 0.359991
0.276448 0.806928 0.478325
0.269184 0.804807 0.458274
0.266072 0.80145 0.432273
0.264057 0.799405 0.419806
0.495109 0.79733 0.396139
0.76994 0.843198 0.345357
0.825132 0.842924 0.360739
0.825238 0.842985 0.3617
0.825406 0.843168 0.359594
0.0532235 0.0662699 0.359503
0.0754711 0.0610971 0.356695
0.192081 0.0543832 0.345281
0.467323 0.0644236 0.38265
0.669764 0.0811475 0.445365
0.666499 0.0766308 0.44419
0.665904 0.0852674 0.415274
0.669413 0.0936446 0.390341
0.682658 0.105669 0.34963
0.0445869 0.0800946 0.35729
0.0546883 0.0644083 0.355932
0.16701 0.0547646 0.345754
0.456077 0.0623484 0.373449
0.668544 0.0811322 0.434714
0.668482 0.084535 0.424308
0.66891 0.0919203 0.391791
0.674403 0.101167 0.378775
0.684977 0.10312 0.326299
0.0385595 0.123415 0.314061
0.039353 0.115419 0.317113
0.078294 0.0743114 0.35903
0.414878 0.0560006 0.334096
0.662165 0.0865644 0.39617
0.674571 0.105501 0.371756
0.679545 0.107179 0.346593
0.682216 0.0990768 0.305699
0.668406 0.0653086 0.216114
0.033814 0.407675 0.391363
0.0335546 0.403876 0.386481
0.033341 0.391638 0.369924
0.412329 0.442573 0.39379
0.76286 0.371832 0.346563
0.7906 0.312673 0.285985
0.781064 0.291981 0.237736
0.76199 0.323201 0.218936
0.74699 0.426825 0.191318
0.165393 0.724132 0.526589
0.167987 0.721614 0.518227
0.178546 0.711192 0.489937
0.202152 0.681971 0.359075
0.65832 0.738384 0.261173
0.828199 0.744106 0.181231
0.827344 0.738888 0.175875
0.827619 0.739528 0.177066
0.828244 0.74464 0.181491
0.263371 0.821927 0.57673
0.267445 0.821302 0.570214
0.2851 0.818143 0.551812
0.265507 0.802029 0.433204
0.557076 0.810117 0.389288
0.817014 0.84332 0.34873
0.825223 0.842863 0.363973
0.825315 0.842924 0.363607
0.825284 0.843 0.362264
0.253269 0.824948 0.591302
0.258457 0.823529 0.582483
0.277348 0.819318 0.558984
0.266239 0.801877 0.434562
0.520165 0.802289 0.395239
0.795102 0.845563 0.342123
0.825238 0.842939 0.362173
0.825284 0.843046 0.361105
0.825315 0.843076 0.360708
0.251621 0.825437 0.593469
0.257847 0.823774 0.583444
0.277272 0.819348 0.559182
0.267018 0.801694 0.436149
0.497383 0.797208 0.396841
0.776318 0.843641 0.344686
0.82504 0.842802 0.360525
0.825238 0.842969 0.361791
0.82536 0.843137 0.360006
0.26659 0.821561 0.570916
0.27364 0.820066 0.562585
0.28806 0.818662 0.546136
0.266545 0.801587 0.434287
0.408194 0.793851 0.376226
0.738369 0.838972 0.351003
0.824842 0.84268 0.35729
0.825238 0.842985 0.3617
0.82536 0.843137 0.360006
0.0779431 0.090425 0.560143
0.0975662 0.0806744 0.542
0.200183 0.0688487 0.540566
0.478767 0.108766 0.57229
0.735958 0.130037 0.658854
0.734417 0.137789 0.671138
0.733974 0.137102 0.679866
0.734142 0.138064 0.668589
0.730541 0.124117 0.612085
0.0651255 0.103197 0.579934
0.0791791 0.0880751 0.555245
0.174197 0.0678111 0.53901
0.464363 0.104448 0.566354
0.735759 0.128527 0.655146
0.735485 0.136202 0.66746
0.734066 0.13756 0.674784
0.735393 0.129595 0.656641
0.721431 0.123217 0.587381
0.0775006 0.147784 0.591714
0.0776379 0.139895 0.596704
0.0894484 0.0804761 0.533379
0.402457 0.088838 0.54168
0.728313 0.12372 0.638056
0.735714 0.127672 0.651102
0.735714 0.127565 0.650568
0.732662 0.125231 0.619303
0.70309 0.114366 0.53843
0.0414435 0.385199 0.617197
0.0444648 0.380621 0.61976
0.0569009 0.356435 0.62591
0.323171 0.271015 0.666926
0.733104 0.26305 0.646174
0.748608 0.195346 0.61912
0.732525 0.174182 0.573404
0.712825 0.127642 0.511116
0.708461 0.123461 0.451987
0.0414893 0.668925 0.671717
0.0410925 0.666239 0.669062
0.0415961 0.658885 0.660822
0.0419471 0.641978 0.638239
0.675013 0.704417 0.667155
0.841367 0.679805 0.642252
0.830869 0.677226 0.622492
0.823407 0.679591 0.595224
0.809079 0.667201 0.528008
0.147494 0.844938 0.718517
0.15285 0.844999 0.712963
0.174411 0.843473 0.694804
0.221744 0.831937 0.645731
0.498939 0.818692 0.578119
0.807019 0.86453 0.573953
0.83621 0.849546 0.47657
0.837934 0.849882 0.490867
0.830289 0.845762 0.417014
0.121218 0.846952 0.743832
0.132296 0.84622 0.731991
0.160281 0.844755 0.706981
0.224872 0.835004 0.64802
0.320378 0.805402 0.486015
0.755291 0.84181 0.345876
0.824781 0.842649 0.356039
0.825071 0.842863 0.359884
0.825086 0.842863 0.360265
0.119066 0.847196 0.746242
0.132418 0.846189 0.732006
0.163363 0.844556 0.70457
0.227863 0.834302 0.645335
0.288197 0.807141 0.484703
0.722698 0.837583 0.353475
0.824598 0.842542 0.35082
0.825147 0.843015 0.358892
0.825193 0.843015 0.359045
0.1664 0.844419 0.701869
0.180713 0.842557 0.689799
0.205676 0.838621 0.667674
0.238834 0.830182 0.620615
0.276265 0.806806 0.476173
0.661723 0.827756 0.367895
0.818509 0.843397 0.346166
0.825177 0.843076 0.358434
0.825223 0.843122 0.358618
0.1028 0.087541 0.586877
0.12459 0.0872206 0.582971
0.221073 0.0741741 0.586221
0.482582 0.108141 0.61532
0.734722 0.136126 0.687129
0.734707 0.136126 0.687114
0.734707 0.136126 0.687114
0.734737 0.13611 0.687144
0.734737 0.13611 0.687144
0.0853285 0.0959793 0.60354
0.104417 0.0874037 0.586435
0.196155 0.0725109 0.585977
0.465721 0.10367 0.611948
0.734737 0.13611 0.687144
0.734722 0.13611 0.687144
0.734691 0.136126 0.687114
0.734676 0.136126 0.687114
0.734707 0.136126 0.687129
0.0912337 0.153689 0.668681
0.0887465 0.142397 0.662013
0.111696 0.0867781 0.583947
0.400488 0.0949416 0.601541
0.728893 0.134539 0.684977
0.734737 0.13611 0.687144
0.734737 0.13611 0.687144
0.734737 0.13611 0.687144
0.734737 0.13611 0.687144
0.0996872 0.319997 0.72723
0.0982986 0.310948 0.724895
0.0991379 0.281407 0.718883
0.244999 0.156542 0.669947
0.661601 0.171588 0.684291
0.73431 0.137514 0.6869
0.733883 0.136889 0.686412
0.735225 0.13904 0.687861
0.734462 0.13724 0.681956
0.0294499 0.612207 0.772045
0.0289464 0.608804 0.770687
0.0276036 0.598764 0.766339
0.0305791 0.571893 0.770962
0.606653 0.575067 0.834012
0.859968 0.615625 0.823987
0.85832 0.60795 0.819776
0.856947 0.607614 0.80766
0.837293 0.56051 0.764508
0.075761 0.832273 0.840497
0.0721294 0.829038 0.836515
0.0647898 0.816403 0.822873
0.0487984 0.779919 0.783291
0.235248 0.79501 0.792645
0.832456 0.859586 0.836744
0.888121 0.856397 0.824216
0.885893 0.852125 0.81268
0.880446 0.841825 0.781918
0.095613 0.844007 0.863783
0.0882124 0.845518 0.859525
0.0755779 0.84651 0.847181
0.071046 0.847227 0.817456
0.118044 0.858412 0.766522
0.773068 0.88864 0.791241
0.871626 0.9234 0.797391
0.874952 0.921218 0.787579
0.874388 0.919844 0.781964
0.0972305 0.843534 0.866285
0.0895552 0.845182 0.860456
0.0748455 0.846632 0.846769
0.0739147 0.847333 0.814054
0.128145 0.855344 0.749706
0.73521 0.876509 0.765866
0.833844 0.901244 0.714977
0.824948 0.842954 0.353384
0.824994 0.842985 0.354604
0.0734112 0.84651 0.844968
0.0712291 0.846296 0.836881
0.0693828 0.846845 0.823743
0.0955825 0.847364 0.790646
0.164904 0.846418 0.707134
0.653605 0.856321 0.706844
0.804593 0.883635 0.655482
0.82472 0.84271 0.352361
0.824933 0.842847 0.356207
0.115999 0.0869917 0.583581
0.143725 0.089662 0.58471
0.23714 0.0753033 0.585977
0.499779 0.112871 0.620539
0.734737 0.13611 0.687144
0.734737 0.13611 0.687144
0.734737 0.13611 0.687144
0.734737 0.13611 0.687144
0.734707 0.136126 0.687129
0.095964 0.0893873 0.591089
0.1178 0.0870375 0.583459
0.211749 0.0736858 0.586099
0.482231 0.107988 0.615137
0.734737 0.13611 0.687144
0.734737 0.13611 0.687144
0.734737 0.13611 0.687144
0.734737 0.13611 0.687144
0.734737 0.13611 0.687144
0.090959 0.149615 0.666865
0.0842603 0.12813 0.648157
0.124834 0.0873121 0.583047
0.414847 0.0966354 0.603372
0.733562 0.135851 0.686564
0.734737 0.13611 0.687144
0.734737 0.13611 0.687144
0.734737 0.13611 0.687144
0.734737 0.13611 0.687144
0.0987716 0.293812 0.721859
0.0990768 0.283391 0.719173
0.0974441 0.251652 0.709285
0.222324 0.125841 0.635798
0.648066 0.149798 0.669459
0.734417 0.136538 0.686824
0.734447 0.136522 0.68687
0.734386 0.136599 0.686824
0.734524 0.136431 0.686931
0.0296635 0.598764 0.789212
0.0298772 0.59527 0.788754
0.032166 0.586175 0.788312
0.0424048 0.558831 0.785061
0.591028 0.537713 0.836973
0.847944 0.575967 0.827756
0.844785 0.565911 0.82385
0.84387 0.561257 0.822583
0.836622 0.533532 0.813718
0.0862745 0.806699 0.864988
0.0826276 0.801068 0.862882
0.0699474 0.782193 0.854276
0.0407568 0.718456 0.828428
0.0694438 0.730098 0.853544
0.791028 0.803433 0.906508
0.894026 0.818952 0.895888
0.893828 0.813336 0.892943
0.892561 0.799207 0.878233
0.104616 0.838972 0.88011
0.104616 0.838972 0.88011
0.104616 0.838972 0.88011
0.104616 0.838972 0.88011
0.0986343 0.858366 0.875288
0.664912 0.886076 0.871397
0.895338 0.93312 0.913222
0.912993 0.93167 0.913191
0.909255 0.928191 0.905394
0.104616 0.838972 0.88011
0.104616 0.838972 0.88011
0.104616 0.838972 0.88011
0.104616 0.838972 0.88011
0.082948 0.855482 0.859037
0.251164 0.874464 0.846082
0.883391 0.940032 0.901137
0.911788 0.943832 0.906859
0.909194 0.942641 0.90045
0.104616 0.838972 0.88011
0.104616 0.838972 0.88011
0.104616 0.838972 0.88011
0.106371 0.840131 0.876356
0.0713359 0.848249 0.836225
0.114534 0.884047 0.844999
0.854612 0.929808 0.875196
0.901732 0.94107 0.885847
0.895705 0.938781 0.867506
0.122225 0.0869154 0.582956
0.150805 0.0902876 0.585138
0.244877 0.0760815 0.586206
0.509422 0.115816 0.62295
0.734737 0.13611 0.687144
0.734737 0.13611 0.687144
0.734737 0.13611 0.687144
0.734737 0.13611 0.687144
0.734737 0.13611 0.687144
0.100694 0.0879377 0.588067
0.123552 0.0869459 0.582773
0.219318 0.0740215 0.586069
0.49099 0.110735 0.618418
0.734737 0.13611 0.687144
0.734737 0.13611 0.687144
0.734737 0.13611 0.687144
0.734737 0.13611 0.687144
0.734737 0.13611 0.687144
0.0906844 0.148425 0.666102
0.0827497 0.123812 0.643763
0.13164 0.0881514 0.583597
0.422599 0.0979477 0.604974
0.734508 0.13608 0.687053
0.734737 0.13611 0.687144
0.734737 0.13611 0.687144
0.734737 0.13611 0.687144
0.734737 0.13611 0.687144
0.0987564 0.284535 0.719402
0.0984665 0.27454 0.717403
0.0971695 0.24271 0.706279
0.21294 0.115877 0.622232
0.645533 0.14374 0.66479
0.734554 0.1364 0.686976
0.734508 0.136446 0.686931
0.734417 0.136507 0.686839
0.7346 0.136339 0.687022
0.0294652 0.596536 0.788479
0.0304417 0.592889 0.788464
0.0326085 0.583185 0.787762
0.0446632 0.554437 0.784817
0.590158 0.529015 0.834073
0.844343 0.565255 0.823423
0.842054 0.55346 0.820508
0.840238 0.548867 0.818357
0.833036 0.518853 0.809644
0.083238 0.803525 0.86331
0.0793774 0.796155 0.860334
0.0611429 0.769055 0.847913
0.041001 0.708965 0.825437
0.0737163 0.721721 0.851621
0.786984 0.791913 0.905943
0.891997 0.804791 0.895155
0.891478 0.798505 0.893233
0.889296 0.782513 0.889204
0.104616 0.838972 0.88011
0.104616 0.838972 0.88011
0.104616 0.838972 0.88011
0.104616 0.838972 0.88011
0.106477 0.845151 0.887953
0.591226 0.85272 0.887587
0.876799 0.917128 0.925002
0.908293 0.920806 0.928939
0.907271 0.914137 0.927489
0.104616 0.838972 0.88011
0.104616 0.838972 0.88011
0.104616 0.838972 0.88011
0.104616 0.838972 0.88011
0.109422 0.848966 0.888151
0.126772 0.876417 0.908736
0.823728 0.933867 0.915663
0.915068 0.950881 0.933501
0.914672 0.950591 0.933516
0.104616 0.838972 0.88011
0.104616 0.838972 0.88011
0.104616 0.838972 0.88011
0.104616 0.838972 0.88011
0.105303 0.840314 0.880705
0.114504 0.875944 0.896498
0.728878 0.913497 0.889967
0.911254 0.950332 0.931548
0.914855 0.950332 0.933547
0.123857 0.0870222 0.582803
0.153567 0.090547 0.585397
0.245792 0.0761578 0.586236
0.507851 0.115602 0.62269
0.734737 0.13611 0.687144
0.734737 0.13611 0.687144
0.734737 0.13611 0.687144
0.734737 0.13611 0.687144
0.734737 0.13611 0.687144
0.102785 0.087602 0.586984
0.126314 0.0874342 0.583078
0.220005 0.074052 0.586069
0.489998 0.110414 0.618051
0.734737 0.13611 0.687144
0.734737 0.13611 0.687144
0.734737 0.13611 0.687144
0.734737 0.13611 0.687144
0.734737 0.13611 0.687144
0.0898299 0.145998 0.664179
0.0813153 0.120714 0.639323
0.134005 0.0882734 0.583612
0.42211 0.0977493 0.604639
0.734737 0.13611 0.687144
0.734737 0.13611 0.687144
0.734737 0.13611 0.687144
0.734737 0.13611 0.687144
0.734737 0.13611 0.687144
0.0986496 0.276341 0.717784
0.0982223 0.264973 0.714046
0.0968948 0.234882 0.703182
0.204456 0.109026 0.612833
0.644968 0.142901 0.664073
0.73463 0.136324 0.687037
0.734569 0.13637 0.686992
0.734508 0.136416 0.686915
0.734646 0.136294 0.687053
0.0305333 0.592691 0.78851
0.0314641 0.589166 0.788312
0.0339208 0.579675 0.787564
0.0463569 0.548638 0.783398
0.583795 0.519158 0.830854
0.841871 0.55285 0.82031
0.837964 0.540612 0.815717
0.837171 0.535073 0.814404
0.829343 0.504112 0.80499
0.0802014 0.797589 0.860853
0.0754101 0.790082 0.85774
0.0565042 0.757443 0.84361
0.0403296 0.70396 0.825238
0.0622416 0.71458 0.850019
0.782849 0.783352 0.904128
0.89102 0.797024 0.892882
0.89015 0.78967 0.890822
0.887907 0.773053 0.885695
0.104616 0.838972 0.88011
0.104616 0.838972 0.88011
0.104616 0.838972 0.88011
0.104616 0.838972 0.88011
0.100771 0.835752 0.88394
0.592584 0.84802 0.886183
0.872435 0.910338 0.924224
0.907012 0.915053 0.928038
0.906203 0.906386 0.925719
0.104616 0.838972 0.88011
0.104616 0.838972 0.88011
0.104616 0.838972 0.88011
0.104616 0.838972 0.88011
0.109407 0.848051 0.887526
0.128801 0.874678 0.910964
0.800885 0.923293 0.916548
0.912932 0.949218 0.934707
0.914702 0.948913 0.934844
0.104616 0.838972 0.88011
0.104616 0.838972 0.88011
0.104616 0.838972 0.88011
0.104616 0.838972 0.88011
0.105043 0.840024 0.880796
0.133944 0.878279 0.913603
0.53756 0.883741 0.892439
0.90016 0.950149 0.932403
0.915068 0.950881 0.933501
