bundles/resolve-cinematic-luts/Phantom Luts/Komodo Phantom FILM LUTs G2/Komodo Phantom FILM LUTs G2/33x/WB Offset - Green Boost/Vision_Komodo_WBO_G2_33x.cube
TITLE "Generated by Resolve"
LUT_3D_SIZE 5
0.0242161 0.0345617 0.0253605
0.18674 0.0320439 0.0178988
0.646693 0.032578 0.0729076
0.649378 0.033814 0.0802472
0.658763 0.0489204 0.0607462
0.0367285 0.223468 0.0644388
0.182788 0.233783 0.0409705
0.69987 0.0924849 0.056611
0.705531 0.0861372 0.0614633
0.754665 0.220417 0.110933
0.259846 0.773175 0.375998
0.280568 0.783169 0.349737
0.75642 0.811658 0.291295
0.82417 0.80708 0.30193
0.824735 0.800717 0.289097
0.277134 0.807858 0.460517
0.275242 0.806332 0.447837
0.668223 0.827375 0.390433
0.825284 0.843976 0.402152
0.825391 0.844068 0.400961
0.276478 0.808209 0.460685
0.276097 0.806806 0.451881
0.561257 0.812863 0.406958
0.825254 0.843946 0.401999
0.825483 0.84419 0.39968
0.0311131 0.0436561 0.204349
0.241764 0.03093 0.18349
0.690669 0.0745098 0.306676
0.686595 0.065156 0.281086
0.684169 0.0522621 0.215259
0.0192569 0.186694 0.161715
0.193835 0.220432 0.186053
0.656321 0.0366674 0.0630655
0.664378 0.0517739 0.0616922
0.74136 0.138537 0.0748608
0.247593 0.765087 0.472221
0.246143 0.754101 0.380285
0.748608 0.803632 0.279744
0.825986 0.793332 0.273976
0.82623 0.791363 0.271015
0.297017 0.819242 0.537011
0.27718 0.80795 0.461921
0.632258 0.824216 0.392706
0.825299 0.843976 0.402136
0.825376 0.844068 0.400977
0.294713 0.816632 0.518273
0.277424 0.807813 0.46247
0.529213 0.806622 0.411429
0.825132 0.84387 0.400824
0.825483 0.84419 0.399573
0.0757305 0.085008 0.597269
0.247684 0.0601511 0.568521
0.750866 0.131746 0.682963
0.750362 0.131304 0.701244
0.74345 0.108827 0.641123
0.0730144 0.185733 0.652903
0.099321 0.0707408 0.567636
0.746426 0.122072 0.667918
0.751095 0.125292 0.677256
0.721233 0.0993515 0.577661
0.0328832 0.712932 0.723934
0.0337987 0.704265 0.714412
0.721965 0.750103 0.717296
0.843839 0.727855 0.675059
0.826307 0.718776 0.584237
0.0900282 0.852216 0.784237
0.10132 0.85214 0.75317
0.352514 0.81387 0.526467
0.824552 0.843488 0.39379
0.825071 0.843854 0.399207
0.104753 0.851942 0.749233
0.141909 0.849058 0.716136
0.294041 0.816007 0.515373
0.819226 0.843046 0.382193
0.825284 0.844038 0.398566
0.137896 0.0787671 0.613535
0.290074 0.0684672 0.611276
0.750957 0.130938 0.706874
0.750957 0.130938 0.706874
0.750957 0.130938 0.706889
0.085893 0.177417 0.716182
0.150942 0.0784619 0.612528
0.750347 0.1308 0.706538
0.750957 0.130938 0.706874
0.750957 0.130938 0.706874
0.0211032 0.649119 0.818555
0.0209812 0.637705 0.817212
0.649439 0.599863 0.861311
0.86157 0.621805 0.844938
0.855619 0.591012 0.836744
0.0839551 0.847135 0.891783
0.0839551 0.847135 0.891783
0.0884718 0.862135 0.887419
0.895537 0.934462 0.915175
0.909682 0.929992 0.909316
0.0839551 0.847135 0.891783
0.0839551 0.847135 0.891783
0.0538643 0.855344 0.858183
0.867643 0.933074 0.887861
0.906798 0.944305 0.886244
0.149371 0.0786145 0.612726
0.298924 0.0690623 0.611063
0.750957 0.130938 0.706874
0.750957 0.130938 0.706874
0.750957 0.130938 0.706874
0.0856489 0.171633 0.713283
0.163134 0.0777752 0.611124
0.750957 0.130938 0.706874
0.750957 0.130938 0.706874
0.750957 0.130938 0.706874
0.0209812 0.643809 0.817777
0.021088 0.632227 0.816724
0.643091 0.580484 0.85594
0.856855 0.598047 0.838468
0.850233 0.563989 0.829801
0.0839551 0.847135 0.891783
0.0839551 0.847135 0.891783
0.0791028 0.845029 0.893843
0.877348 0.916762 0.922301
0.903883 0.913832 0.924163
0.0839551 0.847135 0.891783
0.0839551 0.847135 0.891783
0.0849165 0.848264 0.892393
0.584802 0.887205 0.892058
0.926299 0.95552 0.941131
