bundles/resolve-cinematic-luts/Phantom Luts/Komodo Phantom FILM LUTs G2/Komodo Phantom FILM LUTs G2/33x/WB Offset - Green Boost/Vision_Komodo_WBO_G2_33x.cube
TITLE "Generated by Resolve"
LUT_3D_SIZE 33
0.0242161 0.0345617 0.0253605
0.0242161 0.0345464 0.0253452
0.0242924 0.0345922 0.0253452
0.0290074 0.0349889 0.0246891
0.0466621 0.0338445 0.0241703
0.0696269 0.0328985 0.0235447
0.100267 0.0328222 0.021973
0.13727 0.0332647 0.0199283
0.18674 0.0320439 0.0178988
0.240604 0.0322423 0.0200198
0.298573 0.0301366 0.0222477
0.360265 0.0272068 0.0259861
0.422751 0.024155 0.0281682
0.48893 0.0220798 0.0343328
0.552956 0.0229953 0.0464485
0.612375 0.0285649 0.0637675
0.646693 0.032578 0.0729076
0.651225 0.0347295 0.0849622
0.654353 0.036408 0.0943008
0.655802 0.0372015 0.0995193
0.656779 0.0377356 0.102449
0.655863 0.0373083 0.10045
0.655482 0.0369573 0.0975967
0.653284 0.0358587 0.090959
0.649378 0.033814 0.0802472
0.646082 0.0321813 0.0701305
0.641947 0.0330816 0.0617838
0.640482 0.0405432 0.0594034
0.640894 0.0438544 0.058854
0.640894 0.0467536 0.0578927
0.645685 0.0467384 0.0583658
0.65185 0.0472572 0.0594186
0.658763 0.0489204 0.0607462
0.0242008 0.0345617 0.0252995
0.0242161 0.0345617 0.0253452
0.0242771 0.0345922 0.02533
0.0300145 0.0353552 0.0245212
0.0485542 0.0339818 0.0241398
0.0724193 0.0331579 0.0233158
0.104448 0.0332036 0.0220645
0.142565 0.0333562 0.0196384
0.194263 0.0324559 0.018204
0.248066 0.0330358 0.020798
0.306157 0.0318151 0.0236515
0.366384 0.0278325 0.0263676
0.428 0.0246281 0.0282292
0.490303 0.0277256 0.0332341
0.553613 0.0280919 0.0424048
0.609293 0.0322881 0.0526741
0.640833 0.0344091 0.0602426
0.644907 0.0316625 0.0643473
0.647028 0.032105 0.0705272
0.648829 0.0330358 0.0763256
0.649027 0.0330968 0.0767529
0.648676 0.0328832 0.0753338
0.646021 0.0319219 0.0697948
0.644388 0.0315557 0.0625162
0.641459 0.0351568 0.0601816
0.640162 0.0404212 0.0591745
0.640757 0.0437018 0.0588388
0.640726 0.0457008 0.0582437
0.643 0.0469825 0.0583963
0.647425 0.047425 0.0591592
0.652842 0.0481422 0.0599832
0.658625 0.0493019 0.0608835
0.664164 0.051133 0.0613413
0.0242466 0.034638 0.0252995
0.0242466 0.0346227 0.0253452
0.0242161 0.0345617 0.0253452
0.0267643 0.0355535 0.0254215
0.0449989 0.0348516 0.0243381
0.0701915 0.033875 0.0238193
0.103777 0.0338903 0.0222477
0.143587 0.0340276 0.020325
0.197131 0.0334478 0.0187839
0.24979 0.0345464 0.0205234
0.309163 0.0353094 0.0253758
0.369497 0.0302129 0.0266575
0.430915 0.0261845 0.0284276
0.494606 0.0280919 0.0336614
0.555444 0.032578 0.0416724
0.609247 0.0387732 0.0514076
0.636713 0.0417487 0.057969
0.639368 0.0392767 0.0587778
0.64033 0.0370184 0.0594797
0.641154 0.0362249 0.0598154
0.64126 0.0362554 0.0598306
0.640894 0.0375372 0.0593729
0.640314 0.0394446 0.0589761
0.638529 0.0429847 0.0582742
0.640116 0.0441444 0.0584573
0.641245 0.0455634 0.0583047
0.642634 0.0469825 0.058381
0.645838 0.047303 0.0588693
0.649912 0.0478981 0.0596933
0.654612 0.0492714 0.060914
0.65893 0.0499733 0.0610819
0.664256 0.0517891 0.0617227
0.67042 0.0533913 0.0620737
0.0248112 0.0429847 0.0277867
0.0248112 0.0424506 0.0277562
0.0254215 0.0412146 0.0276646
0.0277409 0.0401007 0.0274357
0.0358892 0.041886 0.026276
0.0619821 0.0377203 0.0248112
0.098497 0.0356451 0.0229953
0.140414 0.035523 0.0209201
0.194842 0.0349889 0.0189975
0.250645 0.035935 0.0208591
0.311208 0.0372473 0.0258183
0.371923 0.0333867 0.0280308
0.433616 0.0281529 0.0289769
0.496208 0.0287327 0.0336309
0.55758 0.0331273 0.0415808
0.613169 0.0405737 0.052369
0.637751 0.0463722 0.0573739
0.637446 0.0453346 0.0572976
0.637156 0.0451514 0.0573281
0.637675 0.044892 0.0575875
0.639124 0.0443885 0.0581064
0.63772 0.0460517 0.0573434
0.639582 0.0462806 0.0577707
0.642191 0.0463569 0.0585184
0.643717 0.046952 0.0584421
0.646723 0.0474708 0.0590524
0.649836 0.0479744 0.0597086
0.653681 0.049134 0.0607767
0.656565 0.0501564 0.0612345
0.660929 0.0514992 0.0617075
0.665827 0.0530709 0.0623941
0.671199 0.0547341 0.0628214
0.67776 0.0575418 0.0632029
0.0264744 0.0623178 0.0316625
0.0262455 0.0614023 0.0314031
0.0261997 0.0599374 0.0309758
0.0288396 0.0575265 0.0309453
0.0371099 0.0587167 0.0312352
0.0658427 0.0577859 0.0258946
0.099382 0.0516213 0.0294499
0.13846 0.0464485 0.0252537
0.192462 0.0398718 0.0204776
0.249088 0.0381476 0.0206607
0.310369 0.0391852 0.0255283
0.374228 0.037644 0.0290227
0.436255 0.032578 0.0306096
0.497429 0.0294347 0.0336156
0.559457 0.0341955 0.0415656
0.616617 0.0415808 0.0525368
0.644862 0.0471046 0.0586252
0.644297 0.0469978 0.0585641
0.643153 0.0469368 0.0584115
0.643336 0.046952 0.0584115
0.644022 0.0469978 0.0585184
0.645563 0.0471504 0.0587778
0.64741 0.0476692 0.0592508
0.649882 0.0480507 0.0597238
0.652888 0.0488899 0.0605783
0.65536 0.0499733 0.0612192
0.657847 0.0506447 0.0613565
0.661555 0.0520027 0.0619974
0.665034 0.0535592 0.0627298
0.669245 0.0550851 0.0632334
0.674144 0.0572976 0.0634928
0.679744 0.0597238 0.0637064
0.685771 0.0636454 0.0633402
0.028397 0.0875257 0.0364233
0.0282902 0.0869612 0.0360876
0.0282902 0.0857557 0.0360113
0.0302434 0.0845502 0.0359808
0.0363317 0.0816968 0.0365454
0.0540322 0.0856947 0.0345312
0.103441 0.080354 0.030518
0.145876 0.0713207 0.0350195
0.200626 0.0611582 0.0307774
0.254353 0.0530861 0.0268101
0.311009 0.0456703 0.0255741
0.374289 0.0433051 0.0301213
0.438773 0.0388037 0.0321355
0.498939 0.0323339 0.0341497
0.56112 0.0356146 0.0415045
0.620142 0.0433661 0.0530556
0.654185 0.0493782 0.0609751
0.653956 0.0493019 0.0608682
0.65275 0.0488289 0.0605325
0.653391 0.0489815 0.0607156
0.654383 0.049546 0.0610361
0.655543 0.0500649 0.0612345
0.65687 0.0504463 0.0612345
0.659129 0.0510872 0.0615244
0.661906 0.0521706 0.0620279
0.664576 0.0535744 0.0627909
0.667659 0.0546578 0.0630198
0.67129 0.0565652 0.0635233
0.674952 0.0588388 0.063798
0.679957 0.0616617 0.0642405
0.684092 0.0641184 0.0635996
0.689433 0.0675364 0.0631266
0.696559 0.072221 0.0631723
0.0313573 0.120226 0.0440681
0.0308843 0.119219 0.0420539
0.0309453 0.118349 0.0419928
0.0317693 0.117449 0.0423896
0.0372931 0.116533 0.0429389
0.0503243 0.116533 0.0443275
0.0812695 0.119585 0.0356909
0.152193 0.110597 0.0325322
0.215518 0.0978561 0.0406043
0.274586 0.0879072 0.041062
0.332341 0.0770123 0.0381781
0.384344 0.0646677 0.0335241
0.442222 0.0543679 0.0325933
0.501198 0.0413062 0.0357824
0.563455 0.0390173 0.0412146
0.624521 0.0482948 0.0537881
0.662852 0.0529488 0.0625467
0.662654 0.0529488 0.062501
0.663264 0.053315 0.0626993
0.663676 0.0535592 0.0628519
0.663859 0.0536355 0.0629282
0.665431 0.054139 0.0628367
0.667689 0.0551003 0.0633402
0.670222 0.0564431 0.0637369
0.672618 0.0580606 0.0638132
0.676005 0.0601053 0.0641337
0.679896 0.0623026 0.0643931
0.682628 0.0647898 0.06392
0.686152 0.0678111 0.0636606
0.691585 0.0714427 0.0641031
0.695216 0.0753643 0.0632792
0.701213 0.0797894 0.0632334
0.706416 0.0854658 0.061387
0.0306401 0.1626 0.0490578
0.0303655 0.161471 0.0467231
0.0306554 0.160143 0.0464027
0.0306859 0.158999 0.0463111
0.0333257 0.158251 0.0471046
0.0430304 0.15816 0.0484016
0.0658274 0.161517 0.0499123
0.116564 0.166339 0.0350805
0.220661 0.154589 0.035584
0.29926 0.14638 0.0568704
0.362829 0.137835 0.0650187
0.424247 0.124987 0.063798
0.482521 0.112505 0.0600748
0.534173 0.0935988 0.0508278
0.576837 0.0646372 0.0432898
0.628107 0.0547799 0.052369
0.671809 0.0588693 0.0625315
0.675288 0.0587167 0.0637217
0.67599 0.058793 0.063859
0.677348 0.0602121 0.0639353
0.679271 0.0615854 0.0641337
0.681208 0.0624094 0.064332
0.682414 0.0635538 0.064332
0.684504 0.0653086 0.0635691
0.686976 0.0678721 0.063508
0.691203 0.0706645 0.06392
0.693889 0.0738994 0.0634165
0.698009 0.0773785 0.062974
0.7019 0.0821698 0.0629129
0.705959 0.0872816 0.0616007
0.709438 0.0921798 0.0601968
0.718837 0.103334 0.0630655
0.733776 0.12755 0.071519
0.0367285 0.223468 0.0644388
0.0358282 0.221485 0.0610971
0.0345312 0.219181 0.057145
0.0343023 0.217258 0.0564279
0.0339666 0.215106 0.0559396
0.042649 0.218448 0.0585946
0.0601205 0.220035 0.0611124
0.0975662 0.22945 0.0648661
0.182788 0.233783 0.0409705
0.297276 0.220676 0.0409247
0.380468 0.214832 0.0748302
0.442985 0.209079 0.0906386
0.507805 0.197116 0.0933394
0.570581 0.17882 0.0932479
0.630076 0.156909 0.0872511
0.673091 0.123125 0.0678264
0.69987 0.0924849 0.056611
0.696803 0.0769818 0.0626383
0.693523 0.072221 0.0641489
0.693401 0.0718547 0.0642405
0.69427 0.0736706 0.063447
0.696376 0.0756695 0.0630808
0.699886 0.0785534 0.0629129
0.702266 0.0818189 0.0630198
0.705531 0.0861372 0.0614633
0.709194 0.0930953 0.0590829
0.710552 0.0948806 0.0561685
0.717754 0.101778 0.0578012
0.729992 0.123613 0.0678264
0.741054 0.143709 0.0781109
0.74815 0.162387 0.0859541
0.751812 0.190356 0.0979324
0.754665 0.220417 0.110933
0.0504463 0.295445 0.0901198
0.0501411 0.294728 0.0872511
0.0484932 0.292088 0.0813001
0.0477302 0.289311 0.0779126
0.0476997 0.287877 0.0777752
0.0485084 0.286854 0.07776
0.0647288 0.292088 0.0806439
0.0905928 0.293843 0.0826581
0.13962 0.304891 0.0854353
0.257359 0.306722 0.0500801
0.379156 0.295125 0.0476081
0.46276 0.294377 0.0958572
0.524163 0.293538 0.115465
0.581827 0.289067 0.132692
0.641535 0.271 0.131518
0.695476 0.243305 0.123354
0.736278 0.212406 0.106203
0.74995 0.171115 0.0903944
0.742824 0.143938 0.0777142
0.734768 0.131411 0.0688792
0.733684 0.127443 0.0708324
0.731472 0.120211 0.065156
0.733364 0.122637 0.0657511
0.739788 0.136034 0.0729534
0.745632 0.155474 0.0825666
0.749813 0.175494 0.0915541
0.750912 0.191806 0.0980545
0.752239 0.212467 0.106889
0.755108 0.237766 0.118517
0.757214 0.262928 0.128786
0.757275 0.286244 0.137041
0.758297 0.311528 0.147723
0.759915 0.338796 0.16083
0.067216 0.371435 0.120806
0.0666972 0.370214 0.117205
0.0662394 0.368841 0.112459
0.0645304 0.366415 0.105364
0.0638743 0.364019 0.102678
0.0635386 0.361685 0.101778
0.0704967 0.363317 0.103441
0.0938125 0.368154 0.106783
0.13341 0.37322 0.110719
0.203082 0.382971 0.108232
0.340276 0.386206 0.0648203
0.462028 0.376516 0.0522164
0.538018 0.380148 0.106111
0.599908 0.384131 0.147463
0.651438 0.382559 0.163455
0.695766 0.377661 0.173037
0.734768 0.35996 0.168399
0.758877 0.327962 0.157702
0.758221 0.308064 0.147906
0.757839 0.292378 0.141527
0.757656 0.279301 0.136355
0.757931 0.26978 0.13373
0.757885 0.268742 0.133501
0.758801 0.280354 0.139361
0.757977 0.295048 0.142245
0.757626 0.311452 0.147723
0.758389 0.332586 0.156924
0.758556 0.353338 0.167163
0.758282 0.371649 0.176349
0.758358 0.39115 0.186236
0.76051 0.40911 0.187518
0.76376 0.428321 0.186755
0.765698 0.445319 0.186831
0.0889143 0.448692 0.1608
0.0886702 0.448157 0.157519
0.0881971 0.447303 0.151949
0.0869612 0.445472 0.14406
0.0855116 0.443168 0.134554
0.0851759 0.4421 0.133288
0.0841535 0.439689 0.131975
0.101961 0.443183 0.135531
0.134844 0.446799 0.14081
0.198184 0.450599 0.147723
0.277073 0.462425 0.135058
0.42298 0.467033 0.0861677
0.539101 0.457557 0.0652018
0.606439 0.463035 0.101793
0.66656 0.466285 0.17145
0.709697 0.47187 0.192508
0.74464 0.473121 0.191104
0.765362 0.467552 0.187152
0.765789 0.454871 0.186496
0.765194 0.444831 0.183948
0.763989 0.436393 0.182284
0.763638 0.431846 0.181872
0.762997 0.429252 0.182574
0.76318 0.43006 0.183764
0.763989 0.432563 0.185901
0.764996 0.445548 0.187533
0.76585 0.456687 0.188403
0.766629 0.468772 0.189014
0.768246 0.481102 0.190372
0.770871 0.494652 0.191745
0.772625 0.504524 0.191791
0.774533 0.516594 0.192065
0.777081 0.527031 0.192248
0.118425 0.52549 0.213825
0.118166 0.525505 0.209964
0.117235 0.524453 0.204944
0.116564 0.523888 0.198123
0.114885 0.523033 0.18854
0.116426 0.523247 0.180789
0.115602 0.521019 0.179629
0.114611 0.518761 0.177981
0.143984 0.520684 0.179416
0.199207 0.519982 0.185214
0.27306 0.52636 0.19823
0.360143 0.53901 0.161227
0.499428 0.542931 0.109224
0.605951 0.53373 0.0871595
0.670008 0.538048 0.106386
0.719951 0.549371 0.142107
0.757733 0.556603 0.174075
0.780835 0.561975 0.173739
0.780774 0.554986 0.183139
0.780606 0.550164 0.18732
0.779324 0.545586 0.188373
0.778943 0.54316 0.189441
0.778851 0.543252 0.189929
0.778897 0.544274 0.190356
0.778912 0.54548 0.190539
0.779416 0.547356 0.191089
0.779644 0.548882 0.190829
0.780438 0.553597 0.186862
0.782757 0.56289 0.177966
0.78468 0.57322 0.165774
0.786313 0.582605 0.155093
0.786938 0.590692 0.144274
0.788724 0.598337 0.138964
0.153704 0.598001 0.263371
0.15288 0.59762 0.258824
0.151766 0.597086 0.254093
0.15082 0.596811 0.247562
0.150469 0.596948 0.239719
0.152132 0.598108 0.230945
0.153826 0.597513 0.228229
0.152316 0.595087 0.226535
0.159014 0.591638 0.223163
0.212894 0.590463 0.224125
0.271229 0.588083 0.231174
0.350256 0.597009 0.23566
0.443946 0.608865 0.189776
0.565957 0.615351 0.1402
0.663447 0.609201 0.124041
0.728969 0.615167 0.119127
0.769421 0.627024 0.12343
0.794522 0.640497 0.106935
0.797406 0.6392 0.106218
0.796323 0.634821 0.10956
0.796307 0.632883 0.1122
0.796201 0.631464 0.113573
0.796124 0.631525 0.112779
0.796231 0.63241 0.111055
0.796017 0.633371 0.1093
0.79585 0.634592 0.107439
0.795911 0.6365 0.104799
0.796963 0.638071 0.105119
0.797498 0.63978 0.104479
0.798688 0.643793 0.10515
0.800458 0.649317 0.105379
0.802228 0.654536 0.105821
0.803479 0.658274 0.10634
0.192233 0.663401 0.306325
0.192096 0.663813 0.303807
0.191684 0.663615 0.298726
0.191196 0.663523 0.292256
0.190677 0.664591 0.283803
0.192676 0.665461 0.275212
0.202502 0.667613 0.271122
0.200931 0.665461 0.269444
0.199359 0.662745 0.267887
0.223194 0.657267 0.259022
0.286259 0.654627 0.2654
0.350561 0.651972 0.275441
0.425788 0.664286 0.264256
0.523049 0.676432 0.226703
0.629526 0.687907 0.188632
0.716442 0.686412 0.176471
0.776455 0.694942 0.151537
0.806149 0.707683 0.125628
0.818586 0.7093 0.127687
0.817014 0.704234 0.124041
0.817166 0.702892 0.124041
0.817151 0.702754 0.124056
0.817151 0.702815 0.124025
0.817212 0.703487 0.123888
0.817105 0.704387 0.123598
0.817563 0.706264 0.124453
0.818402 0.708614 0.125536
0.819303 0.710063 0.127428
0.819669 0.710826 0.128328
0.819638 0.710842 0.128389
0.818875 0.709407 0.126726
0.819608 0.712184 0.129503
0.819364 0.714626 0.131807
0.229328 0.722148 0.345022
0.229038 0.722301 0.342153
0.228504 0.722393 0.33785
0.228046 0.723232 0.331868
0.227176 0.723629 0.323293
0.231861 0.724529 0.314809
0.244999 0.72755 0.311971
0.249027 0.728542 0.309545
0.247196 0.726406 0.307515
0.248356 0.722667 0.304662
0.297948 0.714809 0.295888
0.362966 0.70956 0.30573
0.434821 0.713542 0.313954
0.510048 0.730526 0.290562
0.607782 0.74168 0.270222
0.697826 0.759152 0.244572
0.76289 0.762432 0.240635
0.802396 0.765743 0.221927
0.824445 0.765148 0.223774
0.826734 0.76109 0.214405
0.82681 0.760494 0.213519
0.826856 0.760372 0.213474
0.826856 0.760723 0.214237
0.826795 0.761608 0.216159
0.826749 0.762829 0.21886
0.827588 0.76466 0.222538
0.827588 0.76553 0.225193
0.827619 0.766155 0.227039
0.827695 0.766461 0.227527
0.827634 0.766064 0.226581
0.827878 0.765133 0.223819
0.827085 0.762676 0.219135
0.827314 0.760296 0.214588
0.259846 0.773175 0.375998
0.259922 0.77377 0.373175
0.259403 0.77409 0.369512
0.258747 0.774578 0.364202
0.258701 0.776333 0.356588
0.262501 0.778485 0.352789
0.271672 0.781003 0.351034
0.279454 0.784726 0.351263
0.280568 0.783169 0.349737
0.281041 0.781079 0.347082
0.325689 0.775937 0.345907
0.389395 0.765942 0.347723
0.451911 0.760571 0.354604
0.523629 0.775082 0.344442
0.611597 0.789624 0.324468
0.695796 0.801022 0.30724
0.75642 0.811658 0.291295
0.791669 0.809781 0.30071
0.815122 0.807706 0.297078
0.824414 0.805692 0.299535
0.824491 0.804532 0.296284
0.824567 0.804837 0.296971
0.824643 0.805386 0.29868
0.824262 0.805997 0.299947
0.82417 0.80708 0.30193
0.824323 0.807736 0.303319
0.824292 0.808316 0.303868
0.824384 0.808865 0.304295
0.824399 0.809125 0.304692
0.824384 0.808988 0.304463
0.824323 0.807614 0.302815
0.82472 0.805234 0.297734
0.824735 0.800717 0.289097
0.271717 0.802976 0.428641
0.271351 0.803021 0.427085
0.270771 0.803082 0.42475
0.269978 0.803235 0.423056
0.269444 0.803326 0.421454
0.268772 0.803372 0.418891
0.268315 0.803372 0.416144
0.267781 0.803098 0.412345
0.266911 0.802411 0.407965
0.266575 0.801831 0.404074
0.26566 0.800031 0.391546
0.364752 0.799527 0.375128
0.453773 0.796094 0.391333
0.527077 0.801328 0.398322
0.602472 0.815518 0.386069
0.683482 0.822736 0.376135
0.744076 0.831495 0.356939
0.785718 0.837613 0.351446
0.810468 0.835843 0.368338
0.823484 0.834562 0.369787
0.823606 0.833494 0.36376
0.823606 0.833631 0.364034
0.823621 0.833982 0.364706
0.823667 0.834485 0.365743
0.823713 0.834745 0.366705
0.823758 0.835035 0.367315
0.823774 0.835416 0.367849
0.823789 0.83566 0.3682
0.823804 0.83566 0.368109
0.823758 0.835126 0.367117
0.823667 0.834241 0.364706
0.823941 0.832883 0.360891
0.823835 0.830106 0.353704
0.277668 0.807111 0.457481
0.277378 0.807218 0.457023
0.27686 0.807385 0.456458
0.276463 0.807492 0.455146
0.276081 0.807477 0.453559
0.275746 0.807355 0.452186
0.275517 0.807248 0.451469
0.27512 0.806836 0.448722
0.274739 0.8065 0.447044
0.274784 0.806485 0.447074
0.274784 0.806378 0.446845
0.266865 0.801877 0.405615
0.367819 0.799451 0.37554
0.482475 0.801877 0.404974
0.566583 0.814008 0.405875
0.648569 0.825574 0.391394
0.726925 0.833997 0.381964
0.773907 0.841978 0.371771
0.806592 0.845167 0.375326
0.821653 0.84329 0.394995
0.825162 0.843854 0.402411
0.824964 0.843732 0.401312
0.824994 0.843748 0.401709
0.82504 0.843763 0.401923
0.825071 0.843809 0.40206
0.825162 0.843854 0.402213
0.825162 0.84387 0.402197
0.825208 0.843885 0.402182
0.825177 0.843885 0.401968
0.825132 0.843839 0.401556
0.824994 0.843763 0.400641
0.824796 0.84361 0.39913
0.824521 0.843381 0.39646
0.277577 0.807279 0.458534
0.277378 0.80734 0.457908
0.277058 0.807446 0.457084
0.27657 0.807538 0.456458
0.276295 0.807568 0.454856
0.275944 0.807431 0.452857
0.275639 0.807263 0.451774
0.275288 0.806989 0.449439
0.274739 0.806516 0.447074
0.274754 0.806485 0.447044
0.274784 0.80647 0.447074
0.268818 0.803311 0.418723
0.323125 0.799496 0.369268
0.444205 0.800168 0.393729
0.535485 0.808331 0.410086
0.618891 0.822385 0.395499
0.698863 0.830381 0.388495
0.760189 0.839887 0.372778
0.798642 0.845029 0.372457
0.81825 0.84303 0.384436
0.824674 0.843534 0.396292
0.825315 0.844007 0.402075
0.825315 0.844007 0.402136
0.825315 0.844007 0.402121
0.82533 0.844007 0.402106
0.825315 0.844022 0.402029
0.82533 0.844022 0.401923
0.825345 0.844038 0.401816
0.82536 0.844038 0.401724
0.825345 0.844053 0.40174
0.82536 0.844053 0.401831
0.825376 0.844053 0.401938
0.825391 0.844053 0.402075
0.27718 0.807584 0.459022
0.277104 0.807599 0.458564
0.276936 0.80763 0.457771
0.276585 0.80766 0.456977
0.276341 0.80766 0.455741
0.276036 0.807553 0.453742
0.275685 0.807324 0.451987
0.275364 0.80708 0.450202
0.274754 0.806531 0.447181
0.274739 0.806485 0.447059
0.274769 0.80647 0.447074
0.270604 0.803555 0.426581
0.306859 0.798749 0.368185
0.436393 0.800626 0.392157
0.524376 0.806027 0.411566
0.606287 0.820768 0.397284
0.68748 0.829007 0.390555
0.753628 0.838621 0.373877
0.793057 0.844739 0.37116
0.815381 0.843809 0.380636
0.82446 0.843412 0.39379
0.825238 0.843976 0.400397
0.825345 0.844022 0.401465
0.825345 0.844038 0.401434
0.82536 0.844038 0.401373
0.82536 0.844053 0.401236
0.825376 0.844068 0.401129
0.825391 0.844068 0.401007
0.825376 0.844083 0.400946
0.825391 0.844068 0.400946
0.825376 0.844068 0.401007
0.825376 0.844068 0.401114
0.82536 0.844038 0.401373
0.27744 0.807553 0.4598
0.277531 0.807446 0.459525
0.277485 0.807385 0.458991
0.277333 0.807385 0.457954
0.276997 0.80737 0.456886
0.276616 0.807309 0.454902
0.276234 0.807095 0.452491
0.275837 0.806821 0.451225
0.275288 0.806149 0.447562
0.275288 0.806134 0.447501
0.275319 0.806119 0.447501
0.272206 0.803967 0.432975
0.293248 0.798337 0.366476
0.431662 0.800412 0.39115
0.519448 0.804776 0.413046
0.599008 0.819211 0.399145
0.680232 0.828305 0.391302
0.748775 0.837522 0.375723
0.788907 0.844022 0.371725
0.813718 0.845106 0.377966
0.824109 0.843168 0.393301
0.824979 0.843763 0.400137
0.825284 0.843961 0.402258
0.825284 0.843961 0.402243
0.825284 0.843976 0.402213
0.825284 0.843976 0.402136
0.825299 0.843992 0.402029
0.825315 0.844007 0.401801
0.825345 0.844038 0.401465
0.825376 0.844068 0.401129
0.825391 0.844068 0.400961
0.825391 0.844068 0.401007
0.82536 0.844038 0.401236
0.277302 0.807691 0.460197
0.277409 0.807568 0.459892
0.277409 0.807492 0.459327
0.277302 0.807446 0.458412
0.277028 0.807431 0.457023
0.276631 0.807401 0.455314
0.276219 0.807141 0.452674
0.275837 0.806882 0.451423
0.275288 0.806256 0.447761
0.275227 0.80618 0.44741
0.275196 0.806195 0.447395
0.272358 0.804288 0.435187
0.283482 0.798138 0.366979
0.426764 0.800458 0.389639
0.514061 0.803845 0.413474
0.594156 0.818677 0.400275
0.675715 0.827863 0.390845
0.744152 0.836774 0.376715
0.784726 0.843717 0.37203
0.811765 0.845426 0.376944
0.822553 0.843061 0.390616
0.824826 0.843641 0.398947
0.825284 0.843961 0.402228
0.825299 0.843976 0.402213
0.825284 0.843976 0.402182
0.825284 0.843976 0.402121
0.825299 0.843992 0.402014
0.825315 0.844007 0.401801
0.825345 0.844022 0.401465
0.825376 0.844068 0.401129
0.825376 0.844068 0.401007
0.825376 0.844068 0.401068
0.825345 0.844053 0.401297
0.277302 0.807767 0.460426
0.277363 0.807645 0.460197
0.277378 0.807568 0.459617
0.277241 0.807507 0.458717
0.276997 0.807507 0.457191
0.27657 0.807477 0.455528
0.276173 0.807233 0.452766
0.275792 0.806943 0.451347
0.275257 0.806332 0.447837
0.275151 0.806226 0.447364
0.275151 0.806241 0.447349
0.272633 0.80473 0.437675
0.282841 0.798444 0.37116
0.423026 0.800244 0.388586
0.509056 0.803326 0.411902
0.590494 0.818112 0.4009
0.671031 0.827726 0.390478
0.740826 0.836378 0.377142
0.781949 0.843458 0.371557
0.809796 0.845411 0.376165
0.821958 0.842908 0.389807
0.82472 0.843565 0.397879
0.825284 0.843976 0.402197
0.825284 0.843976 0.402197
0.825284 0.843961 0.402167
0.825299 0.843976 0.402121
0.825299 0.843992 0.402014
0.825315 0.844007 0.401801
0.825345 0.844022 0.401465
0.825376 0.844068 0.401129
0.825376 0.844068 0.400992
0.825391 0.844068 0.401007
0.825376 0.844053 0.40116
0.277134 0.807858 0.460517
0.277256 0.807767 0.460319
0.277256 0.80766 0.459709
0.277165 0.807599 0.4589
0.276936 0.807568 0.457359
0.276524 0.807523 0.455695
0.276158 0.807279 0.452903
0.275776 0.806958 0.451362
0.275242 0.806332 0.447837
0.275135 0.806241 0.447333
0.27512 0.806241 0.447318
0.272618 0.804715 0.437354
0.285969 0.798825 0.376287
0.420249 0.799954 0.387579
0.507012 0.803281 0.411399
0.587198 0.817761 0.401602
0.668223 0.827375 0.390433
0.738293 0.83566 0.377356
0.779706 0.843198 0.371252
0.808454 0.845289 0.374929
0.821286 0.842847 0.388083
0.824674 0.843519 0.396597
0.825238 0.843946 0.401877
0.825284 0.843976 0.402152
0.825284 0.843976 0.402152
0.825299 0.843976 0.402121
0.825299 0.843992 0.402014
0.825315 0.844007 0.401801
0.825345 0.844038 0.401465
0.825376 0.844068 0.401129
0.825376 0.844083 0.400946
0.825391 0.844083 0.400916
0.825391 0.844068 0.400961
0.277012 0.807935 0.460594
0.277058 0.807889 0.460319
0.277073 0.807797 0.4598
0.276967 0.807721 0.458915
0.276799 0.80766 0.45742
0.276478 0.807568 0.455863
0.276127 0.807309 0.45301
0.275761 0.806973 0.451408
0.275227 0.806363 0.447852
0.27512 0.806241 0.447318
0.27512 0.806241 0.447318
0.272709 0.804776 0.437812
0.285191 0.798993 0.378988
0.416968 0.799817 0.386221
0.503868 0.803235 0.410956
0.58262 0.816648 0.402014
0.664317 0.826993 0.390433
0.735088 0.835523 0.378485
0.777676 0.842893 0.370855
0.806683 0.845304 0.374472
0.820554 0.842832 0.385718
0.824628 0.843519 0.395254
0.825238 0.843976 0.400595
0.825345 0.844022 0.401526
0.82533 0.844038 0.401526
0.825345 0.844038 0.401419
0.82536 0.844038 0.401236
0.825376 0.844068 0.401007
0.825406 0.844099 0.400732
0.825422 0.844114 0.400504
0.825422 0.844129 0.40032
0.825437 0.844144 0.400259
0.825422 0.844129 0.400275
0.276768 0.808057 0.460563
0.276783 0.808026 0.460288
0.276814 0.80798 0.459709
0.276738 0.807874 0.458885
0.27657 0.807797 0.457435
0.276371 0.807645 0.455894
0.276066 0.80737 0.45304
0.275746 0.807034 0.451484
0.275181 0.806394 0.447837
0.275105 0.806271 0.447318
0.27512 0.806256 0.447333
0.272953 0.804944 0.438956
0.282032 0.799191 0.38114
0.41236 0.799649 0.384756
0.500725 0.802823 0.409567
