bundles/resolve-cinematic-luts/Phantom Luts/Komodo Phantom FILM LUTs G2/Komodo Phantom FILM LUTs G2/33x/WB Offset - Green Boost/Vision_Komodo_WBO_G2_33x.cube
TITLE "Generated by Resolve"
LUT_3D_SIZE 9
0.0242161 0.0345617 0.0253605
0.0466621 0.0338445 0.0241703
0.18674 0.0320439 0.0178988
0.422751 0.024155 0.0281682
0.646693 0.032578 0.0729076
0.656779 0.0377356 0.102449
0.649378 0.033814 0.0802472
0.640894 0.0438544 0.058854
0.658763 0.0489204 0.0607462
0.0264744 0.0623178 0.0316625
0.0371099 0.0587167 0.0312352
0.192462 0.0398718 0.0204776
0.436255 0.032578 0.0306096
0.644862 0.0471046 0.0586252
0.644022 0.0469978 0.0585184
0.652888 0.0488899 0.0605783
0.665034 0.0535592 0.0627298
0.685771 0.0636454 0.0633402
0.0367285 0.223468 0.0644388
0.0339666 0.215106 0.0559396
0.182788 0.233783 0.0409705
0.507805 0.197116 0.0933394
0.69987 0.0924849 0.056611
0.69427 0.0736706 0.063447
0.705531 0.0861372 0.0614633
0.729992 0.123613 0.0678264
0.754665 0.220417 0.110933
0.118425 0.52549 0.213825
0.114885 0.523033 0.18854
0.143984 0.520684 0.179416
0.499428 0.542931 0.109224
0.757733 0.556603 0.174075
0.779324 0.545586 0.188373
0.778912 0.54548 0.190539
0.782757 0.56289 0.177966
0.788724 0.598337 0.138964
0.259846 0.773175 0.375998
0.258701 0.776333 0.356588
0.280568 0.783169 0.349737
0.451911 0.760571 0.354604
0.75642 0.811658 0.291295
0.824491 0.804532 0.296284
0.82417 0.80708 0.30193
0.824399 0.809125 0.304692
0.824735 0.800717 0.289097
0.27718 0.807584 0.459022
0.276341 0.80766 0.455741
0.274754 0.806531 0.447181
0.306859 0.798749 0.368185
0.68748 0.829007 0.390555
0.82446 0.843412 0.39379
0.82536 0.844038 0.401373
0.825376 0.844083 0.400946
0.82536 0.844038 0.401373
0.277134 0.807858 0.460517
0.276936 0.807568 0.457359
0.275242 0.806332 0.447837
0.285969 0.798825 0.376287
0.668223 0.827375 0.390433
0.821286 0.842847 0.388083
0.825284 0.843976 0.402152
0.825345 0.844038 0.401465
0.825391 0.844068 0.400961
0.276783 0.808072 0.4607
0.277317 0.807431 0.45832
0.276081 0.805875 0.448737
0.271901 0.799268 0.391287
0.647532 0.825513 0.392126
0.816556 0.843076 0.384024
0.825284 0.843961 0.402319
0.825299 0.844007 0.401862
0.825422 0.844144 0.400183
0.276478 0.808209 0.460685
0.276524 0.80798 0.458793
0.276097 0.806806 0.451881
0.274952 0.805127 0.443763
0.561257 0.812863 0.406958
0.796613 0.84477 0.372808
0.825254 0.843946 0.401999
0.825315 0.844007 0.401679
0.825483 0.84419 0.39968
0.0221103 0.0347143 0.0522316
0.0587625 0.0350042 0.0521553
0.231373 0.0284886 0.052842
0.478813 0.0288548 0.0780652
0.669551 0.0435798 0.146853
0.672847 0.0457313 0.163973
0.670375 0.0440528 0.152224
0.6607 0.0369726 0.104845
0.650523 0.0458076 0.0580453
0.0244144 0.0541695 0.0404669
0.0368353 0.0497444 0.0395972
0.20267 0.0328679 0.0226444
0.439551 0.020676 0.0294652
0.644404 0.0341192 0.0593423
0.645197 0.0349889 0.059556
0.644511 0.0461128 0.0578164
0.660105 0.0495155 0.0607767
0.683787 0.0609598 0.0635691
0.0357214 0.220691 0.0852674
0.0341344 0.209293 0.0635386
0.17348 0.223514 0.0400702
0.508293 0.172244 0.08748
0.692393 0.0788128 0.0600137
0.688746 0.0665446 0.0630808
0.701793 0.0803998 0.0626688
0.728618 0.119738 0.068574
0.755367 0.215198 0.107607
0.117403 0.523262 0.239078
0.115236 0.518303 0.213291
0.125719 0.512734 0.173663
0.494438 0.537743 0.106371
0.757244 0.54815 0.182177
0.778058 0.535958 0.191135
0.777066 0.53434 0.193256
0.783368 0.562799 0.17586
0.788983 0.598871 0.137163
0.255238 0.768383 0.397574
0.255299 0.768093 0.376318
0.280888 0.780972 0.34696
0.439353 0.757992 0.349874
0.753841 0.809491 0.287144
0.825071 0.802213 0.291341
0.824826 0.803861 0.294652
0.824765 0.805341 0.296468
0.825666 0.796506 0.28014
0.277378 0.807813 0.461524
0.276661 0.80795 0.459037
0.275303 0.807034 0.44976
0.28072 0.798611 0.371923
0.679881 0.828519 0.390387
0.824414 0.843366 0.392798
0.82536 0.844053 0.401129
0.825391 0.844083 0.400778
0.825376 0.844068 0.400961
0.277348 0.807935 0.463706
0.277226 0.807843 0.460883
0.275761 0.806943 0.451209
0.272633 0.800153 0.392462
0.657572 0.826291 0.3906
0.819883 0.842863 0.385641
0.825284 0.843976 0.402121
0.825345 0.844038 0.401373
0.825376 0.844083 0.400931
0.277043 0.808164 0.463828
0.277562 0.807706 0.461494
0.276677 0.806455 0.452125
0.269062 0.801633 0.409033
0.637522 0.82443 0.39292
0.815106 0.843748 0.381415
0.825284 0.843961 0.402319
0.825299 0.844007 0.401862
0.825422 0.844144 0.400137
0.276768 0.808225 0.463172
0.276951 0.807996 0.461204
0.276539 0.807095 0.453513
0.275639 0.805646 0.447303
0.551766 0.810864 0.408545
0.793973 0.844633 0.37229
0.825238 0.843931 0.401862
0.825315 0.844022 0.401679
0.825483 0.844175 0.39968
0.0311131 0.0436561 0.204349
0.0683146 0.0373999 0.200961
0.241764 0.03093 0.18349
0.494713 0.0681315 0.250996
0.690669 0.0745098 0.306676
0.687755 0.0684977 0.29308
0.686595 0.065156 0.281086
0.686198 0.0605783 0.258183
0.684169 0.0522621 0.215259
0.0246128 0.053254 0.17258
0.0348821 0.0412451 0.194903
0.223224 0.0310521 0.16762
0.488823 0.0598306 0.213779
0.68719 0.0614328 0.263508
0.686961 0.0608072 0.261265
0.685893 0.0579538 0.245212
0.681544 0.0518654 0.209613
0.659586 0.034287 0.088838
0.0192569 0.186694 0.161715
0.0190433 0.181872 0.156039
0.193835 0.220432 0.186053
0.539239 0.113741 0.118624
0.656321 0.0366674 0.0630655
0.654307 0.0435645 0.060853
0.664378 0.0517739 0.0616922
0.687846 0.0669566 0.0629129
0.74136 0.138537 0.0748608
0.104402 0.516167 0.310292
0.108278 0.513237 0.295018
0.104509 0.493874 0.213413
0.479347 0.521431 0.100847
0.752834 0.520577 0.198367
0.77142 0.497047 0.191485
0.772824 0.509804 0.195178
0.778973 0.541939 0.189944
0.786267 0.581521 0.156542
0.247593 0.765087 0.472221
0.244663 0.761761 0.453635
0.246143 0.754101 0.380285
0.389105 0.748348 0.332235
0.748608 0.803632 0.279744
0.826017 0.793286 0.274281
0.825986 0.793332 0.273976
0.825696 0.794049 0.275074
0.82623 0.791363 0.271015
0.293492 0.814603 0.511391
0.287083 0.811719 0.488487
0.2766 0.808103 0.460243
0.268986 0.803418 0.420432
0.660761 0.826398 0.390188
0.824063 0.843198 0.390845
0.82536 0.844053 0.401266
0.825391 0.844083 0.400809
0.825391 0.844083 0.400839
0.297017 0.819242 0.537011
0.294026 0.815488 0.514488
0.27718 0.80795 0.461921
0.273411 0.805249 0.440833
0.632258 0.824216 0.392706
0.815549 0.843534 0.382239
0.825299 0.843976 0.402136
0.825345 0.844038 0.401389
0.825376 0.844068 0.400977
0.2981 0.820645 0.542794
0.294865 0.816632 0.518761
0.277852 0.80763 0.463035
0.275822 0.805692 0.447776
0.609232 0.820829 0.39791
0.810773 0.84538 0.376944
0.825284 0.843961 0.40238
0.825299 0.844007 0.401862
0.825452 0.844144 0.400122
0.294713 0.816632 0.518273
0.287968 0.812634 0.49546
0.277424 0.807813 0.46247
0.275792 0.805753 0.447791
0.529213 0.806622 0.411429
0.786053 0.843732 0.371649
0.825132 0.84387 0.400824
0.825315 0.844022 0.401724
0.825483 0.84419 0.399573
0.0482643 0.0602121 0.412146
0.0877089 0.0520333 0.40531
0.237964 0.044892 0.38555
0.517601 0.0628519 0.434333
0.694652 0.0770581 0.491417
0.695186 0.0780041 0.494133
0.68484 0.0686656 0.455528
0.685222 0.0752117 0.430625
0.707317 0.108186 0.40795
0.038117 0.0868849 0.416876
0.051545 0.0578012 0.407462
0.209979 0.0441749 0.385382
0.507744 0.0607767 0.425483
0.692424 0.071931 0.478935
0.687526 0.0686809 0.464942
0.685237 0.0735027 0.431632
0.693706 0.0880751 0.423377
0.709773 0.114687 0.393652
0.0293736 0.155123 0.380468
0.0315404 0.143618 0.383246
0.093492 0.076463 0.416266
0.468269 0.0539254 0.387778
0.681422 0.0711986 0.438407
0.696071 0.095552 0.418753
0.704936 0.110369 0.406134
0.706828 0.108797 0.374166
0.689189 0.0641794 0.279515
0.0242466 0.470359 0.463462
0.0246891 0.466453 0.459327
0.0251164 0.454749 0.443442
0.482872 0.511757 0.465354
0.795636 0.436011 0.414084
0.813077 0.368078 0.346807
0.796613 0.348165 0.296086
0.774838 0.381888 0.271382
0.767025 0.483818 0.224201
0.151095 0.760632 0.583688
0.158526 0.757565 0.573465
0.181399 0.748547 0.544884
0.228046 0.719463 0.405112
0.700999 0.766293 0.294697
0.82739 0.765835 0.22295
0.826978 0.761746 0.215244
0.82707 0.762142 0.216281
0.827222 0.76611 0.223117
0.253758 0.829648 0.616266
0.258488 0.829068 0.609323
0.281468 0.825681 0.590234
0.276905 0.808194 0.463493
0.596521 0.818952 0.398901
0.817594 0.843 0.384512
0.82533 0.843976 0.403922
0.825437 0.844068 0.403265
0.825437 0.844099 0.402014
0.240513 0.833173 0.632288
0.247288 0.831495 0.622827
0.271656 0.826795 0.597559
0.277455 0.808103 0.465064
0.554742 0.811765 0.407507
0.802258 0.845212 0.373922
0.825284 0.843976 0.402136
0.825345 0.844038 0.401389
0.825376 0.844068 0.401022
0.238697 0.833661 0.63444
0.246769 0.831708 0.623743
0.271504 0.826841 0.597818
0.280018 0.80795 0.467781
0.531731 0.806683 0.4112
0.790219 0.844358 0.371832
0.824933 0.843717 0.400305
0.825299 0.844007 0.401892
0.825437 0.844144 0.400107
0.257328 0.829389 0.610376
0.266728 0.827665 0.601099
0.289662 0.825223 0.583642
0.277714 0.807858 0.464775
0.443626 0.799786 0.39379
0.763302 0.84007 0.372244
0.824567 0.843442 0.396231
0.825299 0.844007 0.401862
0.825452 0.844144 0.400076
0.0757305 0.085008 0.597269
0.110491 0.0711681 0.574838
0.247684 0.0601511 0.568521
0.533761 0.113359 0.613123
0.750866 0.131746 0.682963
0.750668 0.131701 0.694163
0.750362 0.131304 0.701244
0.750454 0.131838 0.692531
0.74345 0.108827 0.641123
0.0634318 0.109056 0.624781
0.079408 0.0817731 0.591333
0.219013 0.0579995 0.567819
0.520195 0.109804 0.606287
0.752117 0.127001 0.681453
0.750637 0.131823 0.690867
0.7505 0.131502 0.697261
0.750866 0.130205 0.68191
0.733455 0.0995499 0.616312
0.0730144 0.185733 0.652903
0.0739757 0.173938 0.656123
0.099321 0.0707408 0.567636
0.462425 0.0925307 0.581292
0.746426 0.122072 0.667918
0.751141 0.125521 0.677592
0.751095 0.125292 0.677256
0.746303 0.112642 0.64863
0.721233 0.0993515 0.577661
0.0239872 0.448249 0.674754
0.0255131 0.443183 0.675395
0.036347 0.420966 0.683162
0.39115 0.326528 0.724453
0.770428 0.315724 0.69781
0.774304 0.21799 0.664958
0.759716 0.192462 0.623407
0.742107 0.148394 0.566369
0.736248 0.127001 0.5028
0.0328832 0.712932 0.723934
0.0327764 0.710582 0.722148
0.0337987 0.704265 0.714412
0.0338445 0.689464 0.693935
0.721965 0.750103 0.717296
0.850019 0.730098 0.693751
0.843839 0.727855 0.675059
0.838254 0.730205 0.647852
0.826307 0.718776 0.584237
0.0968338 0.852079 0.763958
0.0974899 0.852293 0.75877
0.111482 0.851286 0.742123
0.165331 0.844678 0.693812
0.551125 0.830594 0.622431
0.816968 0.872053 0.621378
0.836973 0.85536 0.525277
0.83917 0.856901 0.540368
0.829969 0.849165 0.462959
0.0900282 0.852216 0.784237
0.0950179 0.85211 0.773892
0.10132 0.85214 0.75317
0.168811 0.846799 0.695735
0.352514 0.81387 0.526467
0.775464 0.842695 0.369436
0.824552 0.843488 0.39379
0.82504 0.843824 0.398856
0.825071 0.843854 0.399207
0.0879072 0.852567 0.785992
0.09514 0.852079 0.773877
0.102052 0.852216 0.751461
0.173281 0.846098 0.692653
0.30837 0.815946 0.524147
0.752117 0.838712 0.373358
0.824033 0.843061 0.388891
0.825116 0.843885 0.398795
0.825162 0.843931 0.398993
0.104753 0.851942 0.749233
0.116899 0.850675 0.737194
0.141909 0.849058 0.716136
0.20853 0.839963 0.664057
0.294041 0.816007 0.515373
0.699062 0.830472 0.388327
0.819226 0.843046 0.382193
0.825223 0.843992 0.397925
0.825284 0.844038 0.398566
0.115892 0.0796674 0.618082
0.150546 0.0785077 0.612604
0.271489 0.0654917 0.610025
0.536751 0.112383 0.647578
0.750957 0.130938 0.706889
0.750942 0.130938 0.706874
0.750957 0.130938 0.706889
0.750957 0.130938 0.706874
0.750957 0.130938 0.706889
0.0845045 0.0897383 0.635859
0.119173 0.0796674 0.617456
0.243503 0.0626535 0.610407
0.52047 0.107591 0.644144
0.750957 0.130938 0.706874
0.750957 0.130938 0.706874
0.750957 0.130938 0.706889
0.750957 0.130938 0.706889
0.750927 0.130953 0.706874
0.0864118 0.184237 0.718212
0.0852522 0.166812 0.710628
0.13106 0.0795911 0.614923
0.455741 0.0914321 0.628656
0.748562 0.130434 0.706111
0.750957 0.130938 0.706874
0.750957 0.130938 0.706874
0.750957 0.130938 0.706874
0.750957 0.130938 0.706889
0.0936446 0.383093 0.77499
0.0932479 0.374258 0.773632
0.0931258 0.340566 0.768795
0.296361 0.17113 0.718059
0.704112 0.184848 0.715908
0.753079 0.135454 0.709453
0.751034 0.133013 0.707195
0.75494 0.138521 0.710964
0.751293 0.132769 0.703426
0.02121 0.66125 0.804471
0.0212253 0.65803 0.803754
0.0212253 0.648997 0.801007
0.021149 0.625147 0.803891
0.659052 0.633722 0.858305
0.872709 0.667948 0.844038
0.870954 0.660502 0.840375
0.869459 0.660761 0.830747
0.857206 0.617716 0.800229
0.0635538 0.843244 0.860853
0.0606699 0.840879 0.858473
0.0545205 0.831937 0.848402
0.0424506 0.804181 0.817609
0.282002 0.8159 0.819226
0.847044 0.87686 0.853544
0.89192 0.8766 0.843976
0.889952 0.872831 0.833692
0.885328 0.864332 0.809049
0.0852216 0.851698 0.879271
0.0764324 0.852384 0.875166
0.0618143 0.8533 0.866072
0.0495308 0.853651 0.843259
0.0869764 0.861875 0.804318
0.799512 0.898726 0.815229
0.877455 0.931472 0.828779
0.884672 0.929656 0.817624
0.883665 0.927962 0.812253
0.0863661 0.85156 0.881178
0.0781567 0.852186 0.876234
0.0613565 0.853422 0.865538
0.0494545 0.853697 0.840314
0.0960861 0.858869 0.788357
0.768109 0.884962 0.793011
0.844648 0.909911 0.757733
0.824674 0.843626 0.392523
0.824781 0.843702 0.393591
0.0604105 0.853544 0.863676
0.0554513 0.854292 0.859449
0.0466011 0.854154 0.84831
0.0547189 0.85362 0.822873
0.102983 0.852934 0.752651
0.699672 0.864256 0.743908
0.818479 0.892287 0.701427
0.824384 0.843366 0.39057
0.824735 0.843641 0.394736
0.137896 0.0787671 0.613535
0.175967 0.0771344 0.609644
0.290074 0.0684672 0.611276
0.55317 0.117891 0.653101
0.750957 0.130938 0.706874
0.750957 0.130938 0.706874
0.750957 0.130938 0.706874
0.750957 0.130938 0.706874
0.750957 0.130938 0.706889
0.104005 0.0799878 0.621164
0.140368 0.0787366 0.613352
0.261158 0.0644846 0.610224
0.5364 0.112245 0.647364
0.750957 0.130938 0.706874
0.750957 0.130938 0.706874
0.750957 0.130938 0.706874
0.750957 0.130938 0.706874
0.750957 0.130938 0.706874
0.085893 0.177417 0.716182
0.0807355 0.14551 0.695216
0.150942 0.0784619 0.612528
0.470115 0.0931563 0.630671
0.750347 0.1308 0.706538
0.750957 0.130938 0.706874
0.750957 0.130938 0.706874
0.750957 0.130938 0.706874
0.750957 0.130938 0.706874
0.0928664 0.35346 0.771038
0.0924697 0.342016 0.76849
0.092195 0.305821 0.760922
0.262974 0.115389 0.676051
0.688746 0.148959 0.698848
0.751064 0.131975 0.707073
0.751095 0.13196 0.707103
0.751171 0.132189 0.707195
0.75108 0.131716 0.707057
0.0211032 0.649119 0.818555
0.0213474 0.646204 0.818387
0.0209812 0.637705 0.817212
0.0209506 0.612634 0.815091
0.649439 0.599863 0.861311
0.863676 0.630732 0.847547
0.86157 0.621805 0.844938
0.861006 0.617884 0.844114
0.855619 0.591012 0.836744
0.0714885 0.824659 0.881544
0.068986 0.819165 0.878035
0.0650797 0.80618 0.873091
0.0387274 0.755718 0.850095
0.077821 0.766552 0.870344
0.812589 0.829953 0.906355
0.892531 0.842969 0.898405
0.892485 0.837934 0.896269
0.8916 0.826123 0.884932
0.0839551 0.847135 0.891783
0.0839551 0.847135 0.891783
0.0839551 0.847135 0.891783
0.0839551 0.847135 0.891783
0.0884718 0.862135 0.887419
0.707652 0.891737 0.876524
0.895537 0.934462 0.915175
0.913161 0.933303 0.91635
0.909682 0.929992 0.909316
0.0839551 0.847135 0.891783
0.0839551 0.847135 0.891783
0.0839551 0.847135 0.891783
0.0839551 0.847135 0.891783
0.0703899 0.859937 0.874739
0.292363 0.873899 0.858503
0.889677 0.94136 0.907668
0.918105 0.948852 0.914382
0.916854 0.947997 0.910262
0.0839551 0.847135 0.891783
0.0839551 0.847135 0.891783
0.0839551 0.847135 0.891783
0.0875105 0.848661 0.888441
0.0538643 0.855344 0.858183
0.104097 0.883818 0.863355
0.867643 0.933074 0.887861
0.908171 0.945388 0.900343
0.906798 0.944305 0.886244
0.14696 0.0786603 0.612894
0.182055 0.0723278 0.609339
0.297902 0.068925 0.61091
0.562203 0.121218 0.656031
0.750957 0.130938 0.706874
0.750957 0.130938 0.706874
0.750957 0.130938 0.706874
0.750957 0.130938 0.706874
0.750957 0.130938 0.706874
0.112566 0.0795453 0.618891
0.148898 0.0786145 0.612757
0.269505 0.0654612 0.610162
0.544991 0.115511 0.650965
0.750957 0.130938 0.706874
0.750957 0.130938 0.706874
0.750957 0.130938 0.706874
0.750957 0.130938 0.706874
0.750957 0.130938 0.706874
0.0858625 0.175799 0.715312
0.078233 0.137301 0.688502
0.159854 0.0778515 0.611521
0.476493 0.0944686 0.631632
0.750805 0.130907 0.706813
0.750957 0.130938 0.706874
0.750957 0.130938 0.706874
0.750957 0.130938 0.706874
0.750957 0.130938 0.706874
0.092546 0.343511 0.769085
0.092256 0.332021 0.766217
0.0915694 0.294545 0.757809
0.250614 0.100649 0.659052
0.685023 0.139422 0.693095
0.751064 0.131609 0.707027
0.751064 0.131731 0.707042
0.751064 0.131914 0.707042
0.751034 0.131472 0.706996
0.0212711 0.647349 0.818311
0.0209812 0.644007 0.817761
0.0209354 0.635721 0.816846
0.0210574 0.608087 0.814801
0.646845 0.590402 0.858793
0.861265 0.621103 0.844739
0.859052 0.609827 0.841535
0.859007 0.606073 0.841367
0.852949 0.577829 0.833448
0.0700542 0.821302 0.879072
0.068925 0.816403 0.877592
0.059556 0.796063 0.86746
0.0349737 0.747402 0.84715
0.0846265 0.759304 0.867933
0.809445 0.820768 0.90634
0.891096 0.831296 0.898512
0.89041 0.825772 0.896727
0.887663 0.811475 0.891859
0.0839551 0.847135 0.891783
0.0839551 0.847135 0.891783
0.0839551 0.847135 0.891783
0.0839551 0.847135 0.891783
0.0847028 0.851896 0.897581
0.638392 0.865797 0.889509
0.879896 0.920836 0.923476
0.906126 0.92488 0.926696
0.904387 0.919875 0.924681
0.0839551 0.847135 0.891783
0.0839551 0.847135 0.891783
0.0839551 0.847135 0.891783
0.0839551 0.847135 0.891783
0.0885481 0.854383 0.897429
0.115236 0.875853 0.910872
0.841962 0.936309 0.917052
0.914977 0.951293 0.934615
0.919585 0.950835 0.933623
0.0839551 0.847135 0.891783
0.0839551 0.847135 0.891783
0.0839551 0.847135 0.891783
0.0839551 0.847135 0.891783
0.0855268 0.848539 0.892363
0.104372 0.87541 0.902312
0.764111 0.918288 0.894697
0.913664 0.953094 0.932036
0.925277 0.954742 0.935714
0.149371 0.0786145 0.612726
0.183612 0.0704051 0.609018
0.298924 0.0690623 0.611063
0.560937 0.120729 0.655589
0.750957 0.130938 0.706874
0.750957 0.130938 0.706874
0.750957 0.130938 0.706874
0.750957 0.130938 0.706874
0.750957 0.130938 0.706874
0.115831 0.0796674 0.618128
0.152651 0.0784466 0.612482
0.270253 0.0654765 0.610117
0.543648 0.115084 0.650401
0.750957 0.130938 0.706874
0.750957 0.130938 0.706874
0.750957 0.130938 0.706874
0.750957 0.130938 0.706874
0.750957 0.130938 0.706874
0.0856489 0.171633 0.713283
0.0762188 0.132158 0.684321
0.163134 0.0777752 0.611124
0.475731 0.094255 0.631388
0.750957 0.130938 0.706874
0.750957 0.130938 0.706874
0.750957 0.130938 0.706874
0.750957 0.130938 0.706874
0.750957 0.130938 0.706874
0.0924392 0.3337 0.766766
0.0920119 0.320867 0.764477
0.0914626 0.28481 0.755688
0.238666 0.0897383 0.645472
0.684367 0.138079 0.692546
0.751003 0.131411 0.706981
0.751034 0.131533 0.707027
0.751034 0.13167 0.707042
0.750988 0.131304 0.70695
0.0209812 0.643809 0.817777
0.0209659 0.640208 0.817456
0.021088 0.632227 0.816724
0.0220951 0.603586 0.814404
0.643091 0.580484 0.85594
0.859022 0.609339 0.841505
0.856855 0.598047 0.838468
0.856626 0.592767 0.83772
0.850233 0.563989 0.829801
0.0685435 0.817349 0.877531
0.0664988 0.811597 0.874998
0.0548714 0.787152 0.862943
0.0325628 0.741604 0.846128
0.0694591 0.752972 0.866804
0.806043 0.813672 0.905379
0.889769 0.82443 0.895903
0.888777 0.817731 0.893431
0.886961 0.803525 0.889845
0.0839551 0.847135 0.891783
0.0839551 0.847135 0.891783
0.0839551 0.847135 0.891783
0.0839551 0.847135 0.891783
0.0791028 0.845029 0.893843
0.640345 0.861967 0.889189
0.877348 0.916762 0.922301
0.904494 0.920348 0.925292
0.903883 0.913832 0.924163
0.0839551 0.847135 0.891783
0.0839551 0.847135 0.891783
0.0839551 0.847135 0.891783
0.0839551 0.847135 0.891783
0.088304 0.853803 0.896712
0.109133 0.87364 0.913359
0.82237 0.927474 0.917067
0.911879 0.94905 0.936629
0.917082 0.94844 0.936843
0.0839551 0.847135 0.891783
0.0839551 0.847135 0.891783
0.0839551 0.847135 0.891783
0.0839551 0.847135 0.891783
0.0849165 0.848264 0.892393
0.113909 0.876478 0.915251
0.584802 0.887205 0.892058
0.90219 0.952285 0.934646
0.926299 0.95552 0.941131
