bundles/resolve-cinematic-luts/Phantom Luts/Komodo Phantom FILM LUTs G2/Komodo Phantom FILM LUTs G2/33x/WB Offset - Green Boost/Vision_Komodo_WBO_Legacy_G2_33x.cube
TITLE "Generated by Resolve"
LUT_3D_SIZE 33
0.0361028 0.0486152 0.0394293
0.0360876 0.0486152 0.0394293
0.0362249 0.0486152 0.0394293
0.0401617 0.049012 0.0398566
0.0475319 0.0491646 0.0366979
0.0614481 0.0471351 0.0361639
0.0827955 0.0454261 0.0363012
0.111635 0.0431983 0.034638
0.147509 0.0427405 0.0335393
0.196155 0.0416114 0.0316777
0.25008 0.0427558 0.0322271
0.311559 0.0436255 0.0342565
0.37586 0.0427558 0.0349889
0.445884 0.0420081 0.0386206
0.511193 0.04094 0.0440223
0.583413 0.0608988 0.0607462
0.621836 0.0678569 0.0680705
0.626612 0.0635996 0.070985
0.627924 0.0588693 0.0724956
0.629191 0.0561074 0.0739147
0.629572 0.0542458 0.0742657
0.628977 0.0553902 0.0739452
0.628901 0.0570382 0.0734112
0.627176 0.0599527 0.0718547
0.624628 0.0650645 0.0697185
0.622278 0.0697642 0.0683146
0.617075 0.0725414 0.0657664
0.612451 0.0758373 0.0631418
0.612024 0.0772564 0.0627146
0.610849 0.0787671 0.0618906
0.61677 0.0799115 0.0625925
0.623362 0.0810712 0.0637675
0.629786 0.0813306 0.0637675
0.0360876 0.0486152 0.0393835
0.0360876 0.0486152 0.0394141
0.0362097 0.0486152 0.0394293
0.0406195 0.0491951 0.0400244
0.0492256 0.0493324 0.0366827
0.0632181 0.0473335 0.0362554
0.0857252 0.0454719 0.0363317
0.115633 0.0436103 0.0347906
0.153597 0.0429999 0.0334783
0.202976 0.0421454 0.0317998
0.256519 0.0431525 0.0320439
0.316442 0.0435187 0.0338445
0.381506 0.0431067 0.0347601
0.444953 0.0436713 0.0367437
0.515068 0.0526894 0.0457923
0.579568 0.0667277 0.0577554
0.614862 0.0734112 0.0646982
0.620386 0.0708934 0.0669871
0.622309 0.0690623 0.0681315
0.622873 0.0666514 0.0687419
0.623377 0.0665141 0.0688029
0.622766 0.0670481 0.0687114
0.621393 0.0684977 0.067628
0.619318 0.0717174 0.0664225
0.615427 0.0740215 0.0646677
0.611902 0.0756542 0.0629892
0.611673 0.0771954 0.0627298
0.611124 0.0784924 0.0621653
0.613687 0.0796368 0.062211
0.619272 0.0808881 0.0633707
0.624002 0.0814069 0.0637675
0.630014 0.0818036 0.0639506
0.636835 0.0834058 0.0646525
0.0361028 0.0486763 0.0394598
0.0361181 0.048661 0.0395056
0.0361028 0.0486152 0.0394293
0.0387579 0.0495003 0.0401007
0.0450752 0.0501717 0.0378576
0.0618143 0.0481575 0.0361791
0.0853285 0.0464637 0.036759
0.11632 0.0446021 0.0350958
0.155642 0.0438087 0.0336767
0.2047 0.0430915 0.0319219
0.25832 0.0440833 0.0321508
0.319249 0.0445563 0.0339666
0.383749 0.0449378 0.0350805
0.449393 0.0446174 0.0372778
0.517372 0.0577096 0.0462806
0.576852 0.0697032 0.0560769
0.607156 0.0757 0.0620584
0.611444 0.0750134 0.0629282
0.613504 0.0745861 0.0636606
0.61442 0.0742809 0.0641337
0.614557 0.0743267 0.0641642
0.613916 0.0749371 0.0638132
0.612665 0.0752728 0.0631113
0.608911 0.0766461 0.06215
0.610712 0.0774701 0.0623331
0.611994 0.0784314 0.062211
0.613275 0.07953 0.0621653
0.617304 0.0806592 0.0631113
0.622034 0.0815747 0.0637827
0.625849 0.0818647 0.0638285
0.630823 0.0826276 0.064332
0.637263 0.0840009 0.0650339
0.644587 0.0860456 0.0663767
0.0361486 0.0543374 0.0400854
0.0360876 0.0539712 0.0399939
0.0367437 0.0534524 0.0400854
0.0385748 0.0527199 0.0402686
0.0424506 0.0536812 0.0404517
0.058381 0.0523079 0.0360266
0.0809186 0.0486 0.0371099
0.113817 0.0463111 0.0356756
0.153887 0.0454414 0.0341955
0.205539 0.0446937 0.0324559
0.259968 0.0454871 0.0327001
0.319707 0.0458686 0.0335851
0.387655 0.0465095 0.035523
0.451957 0.0466163 0.0381781
0.517998 0.0560006 0.0452125
0.58143 0.0715343 0.0567178
0.607309 0.0781109 0.061387
0.607233 0.0775464 0.0616007
0.606836 0.0774243 0.0615854
0.607614 0.077348 0.061738
0.609491 0.0773022 0.0619974
0.607294 0.0779583 0.0614023
0.609705 0.0783398 0.0618143
0.61297 0.0789654 0.0622568
0.614466 0.0798962 0.0624552
0.618372 0.0808576 0.0633097
0.62208 0.08159 0.0637827
0.624704 0.0818799 0.0638132
0.628977 0.0825818 0.0642252
0.633616 0.0836957 0.0649119
0.638972 0.0853285 0.0659648
0.645167 0.0868391 0.0665293
0.651362 0.088426 0.0662852
0.0365606 0.0645914 0.041886
0.0365911 0.0641337 0.0419013
0.0368963 0.0636301 0.0419928
0.0395361 0.0623178 0.042298
0.0437476 0.0624704 0.0424659
0.0542916 0.0634012 0.040177
0.0811475 0.0586557 0.0393225
0.110735 0.0540932 0.0374914
0.150729 0.0496223 0.0349432
0.204211 0.0465095 0.0327459
0.260075 0.0469062 0.0331579
0.321523 0.0471962 0.0337835
0.389349 0.0491798 0.0362097
0.453239 0.0487526 0.0384375
0.516457 0.0493019 0.0417029
0.584817 0.0725719 0.0573281
0.61619 0.0802777 0.0628367
0.615366 0.0800946 0.0626993
0.613962 0.0795605 0.0622416
0.614115 0.0796521 0.0622721
0.614908 0.0799878 0.0625772
0.617166 0.0803998 0.0630045
0.619684 0.081117 0.063508
0.622156 0.0816052 0.0637675
0.623957 0.0818647 0.0638437
0.626917 0.0823072 0.0639658
0.63035 0.0829633 0.0644846
0.634211 0.0841993 0.0651713
0.638636 0.085893 0.0662394
0.643336 0.0872663 0.066804
0.647883 0.0883497 0.0664225
0.65388 0.0900587 0.0665141
0.661311 0.0933394 0.0669108
0.0375982 0.0801404 0.0453193
0.0372473 0.0795758 0.0446784
0.037232 0.0790723 0.0445258
0.0394751 0.0781109 0.0450294
0.0429999 0.0757153 0.0455482
0.0523842 0.0778973 0.0448005
0.0845197 0.0762188 0.0370794
0.114794 0.0698711 0.0425879
0.155627 0.0625467 0.0399939
0.206531 0.0559701 0.035462
0.259815 0.0509041 0.0333562
0.320287 0.0492256 0.0345617
0.389197 0.0510414 0.0361791
0.455131 0.0525673 0.0392309
0.520195 0.054612 0.0437934
0.589471 0.0741894 0.0578164
0.625513 0.0819562 0.063859
0.625238 0.0819562 0.0638437
0.62385 0.0818494 0.063859
0.62446 0.0818341 0.0638285
0.625788 0.0820325 0.0638895
0.627344 0.0823835 0.0639811
0.629328 0.0828717 0.0643015
0.631525 0.0834363 0.064744
0.63476 0.0843824 0.0652934
0.6383 0.0858015 0.0661936
0.642176 0.0871443 0.0668498
0.64506 0.0879072 0.0664225
0.649119 0.0895399 0.0667582
0.654246 0.0915389 0.0672313
0.659327 0.0941329 0.0673838
0.664469 0.0958267 0.0665751
0.671031 0.0975509 0.065568
0.0394903 0.102892 0.0503548
0.0393835 0.102174 0.0490578
0.0392462 0.101396 0.0489052
0.0394598 0.100481 0.0488441
0.0432898 0.0996262 0.0494545
0.0512245 0.0988022 0.0504768
0.0683757 0.100999 0.0470436
0.118776 0.0964828 0.0382239
0.165133 0.0865949 0.0457618
0.219501 0.0770581 0.0436103
0.27483 0.0680705 0.0401465
0.327962 0.0607767 0.0361181
0.388861 0.0563668 0.0350042
0.455955 0.0572824 0.0399176
0.522789 0.0577859 0.0438544
0.592294 0.0767987 0.0577096
0.635737 0.0849775 0.0657511
0.635599 0.0849928 0.0657206
0.636347 0.0853132 0.0659037
0.63714 0.0856489 0.0660563
0.637491 0.0858015 0.0661479
0.639628 0.086717 0.0666819
0.64213 0.0874189 0.0668956
0.643915 0.0878614 0.0666667
0.646647 0.0889906 0.066743
0.65005 0.0905165 0.0669261
0.654383 0.0926223 0.0675822
0.657969 0.0946822 0.0677501
0.661601 0.0962234 0.0670329
0.665797 0.0972457 0.0662242
0.670512 0.0988022 0.0654917
0.676463 0.10013 0.0649729
0.681926 0.101045 0.0632486
0.0409857 0.134218 0.0572518
0.0407568 0.133516 0.0556649
0.0407874 0.132311 0.055024
0.0409094 0.131762 0.0551156
0.0428779 0.131075 0.0555123
0.0486458 0.129732 0.0560922
0.0621195 0.130159 0.0566873
0.092607 0.134249 0.0473945
0.169955 0.126146 0.040177
0.234623 0.114519 0.051194
0.293721 0.105623 0.0541085
0.355627 0.0962539 0.0518349
0.418357 0.0890364 0.0489204
0.476921 0.0810254 0.0451972
0.532113 0.0711833 0.0439918
0.591379 0.0744488 0.0543069
0.644862 0.0890822 0.0657816
0.649042 0.0895247 0.0667887
0.649744 0.0896468 0.066865
0.650828 0.0905776 0.0668345
0.653178 0.0914473 0.0671397
0.655482 0.0928817 0.0676585
0.657069 0.0936904 0.0677043
0.659495 0.0948806 0.0674296
0.662211 0.0962692 0.0669413
0.665278 0.0970932 0.0663767
0.668956 0.0981308 0.0655985
0.673106 0.0995651 0.0651865
0.677333 0.10074 0.0645609
0.681468 0.101396 0.0631418
0.685756 0.102327 0.061738
0.693401 0.110048 0.0623789
0.709819 0.125414 0.0695201
0.040528 0.177768 0.0625925
0.0403449 0.176623 0.0609903
0.0400092 0.175402 0.058732
0.0398566 0.174197 0.0584726
0.0399939 0.172778 0.0586252
0.044892 0.173312 0.0593271
0.0543984 0.172503 0.0612345
0.0782635 0.177646 0.0629435
0.128756 0.186481 0.0485847
0.238209 0.176669 0.0439612
0.316899 0.170123 0.0676432
0.3832 0.164599 0.0801404
0.453605 0.155093 0.0803388
0.519722 0.143877 0.0797436
0.580468 0.130632 0.0726482
0.632013 0.113283 0.0629129
0.673716 0.100252 0.0587625
0.671336 0.0990616 0.0647898
0.667689 0.0975357 0.0660258
0.667414 0.0974594 0.0661479
0.669459 0.0981155 0.0657206
0.67129 0.0989853 0.0653849
0.674968 0.099733 0.0649271
0.677806 0.100694 0.0646982
0.681483 0.101244 0.0633555
0.685863 0.102419 0.0614328
0.689799 0.103838 0.0598459
0.693721 0.109483 0.0597238
0.706523 0.12311 0.0672923
0.71841 0.135866 0.0733501
0.728527 0.148821 0.0796826
0.735821 0.168521 0.0897383
0.741329 0.192172 0.098909
0.0519112 0.241627 0.0814374
0.0514382 0.241123 0.0802625
0.0507362 0.239445 0.0776379
0.0503548 0.237766 0.0757916
0.0496834 0.235966 0.0748913
0.0504463 0.234455 0.0747845
0.0592966 0.237018 0.0767529
0.0764019 0.237934 0.0789349
0.112428 0.247333 0.0818189
0.196841 0.252552 0.0562753
0.314885 0.241413 0.0487526
0.397635 0.238941 0.0815595
0.466346 0.236835 0.0973831
0.530999 0.233051 0.10602
0.598047 0.219532 0.105806
0.660151 0.201617 0.102571
0.716197 0.181857 0.0939498
0.731136 0.155276 0.0830854
0.721508 0.137194 0.0735637
0.713298 0.128008 0.068574
0.710781 0.124987 0.0687572
0.709316 0.120577 0.0651102
0.712612 0.124544 0.0672618
0.71809 0.132357 0.071458
0.725261 0.142916 0.077348
0.731991 0.156634 0.0836042
0.735851 0.169268 0.0899214
0.737926 0.184665 0.0955978
0.740673 0.205127 0.103044
0.743328 0.224598 0.111086
0.744228 0.24358 0.117128
0.746075 0.264439 0.123308
0.749676 0.287098 0.131167
0.0653391 0.313451 0.105119
0.0649577 0.312581 0.103777
0.06421 0.311009 0.100542
0.0632029 0.309133 0.0967422
0.0627604 0.307424 0.0956741
0.063035 0.305577 0.0956436
0.0658427 0.305852 0.0960098
0.0794537 0.308644 0.0976883
0.107164 0.311559 0.100206
0.157015 0.322286 0.101549
0.270619 0.325917 0.065568
0.396918 0.315908 0.053315
0.47866 0.31841 0.0951705
0.545266 0.32163 0.118166
0.604303 0.320333 0.132815
0.660075 0.318257 0.141878
0.716258 0.303975 0.134096
0.747875 0.277775 0.128985
0.746029 0.261555 0.123461
0.74493 0.248692 0.118837
0.744091 0.237964 0.116258
0.743709 0.22974 0.113481
0.744076 0.229023 0.113512
0.745434 0.238254 0.117235
0.745129 0.250187 0.119265
0.745464 0.264363 0.123339
0.746883 0.2822 0.128435
0.749096 0.299428 0.134554
0.74902 0.317052 0.141375
0.747921 0.335866 0.148257
0.747478 0.354543 0.15584
0.748577 0.374823 0.164691
0.74873 0.390387 0.164477
0.0826734 0.390677 0.135561
0.0818799 0.390127 0.13315
0.0812695 0.389593 0.130205
0.0804456 0.388312 0.126406
0.080293 0.387457 0.122408
0.0800641 0.38584 0.121981
0.0792096 0.383124 0.120439
0.0890974 0.385519 0.122484
0.109865 0.387259 0.12462
0.155154 0.391745 0.128862
0.223346 0.402319 0.12372
0.352438 0.408087 0.0822461
0.479225 0.398001 0.0604105
0.552453 0.404486 0.0974136
0.616129 0.408515 0.140444
0.667399 0.414221 0.156161
0.715755 0.41706 0.159411
0.746868 0.411765 0.159792
0.748928 0.399619 0.163027
0.748425 0.39028 0.163653
0.747814 0.383139 0.164126
0.746929 0.378637 0.163928
0.747127 0.376028 0.163806
0.747097 0.376318 0.164202
0.747356 0.378836 0.165438
0.748241 0.390524 0.165026
0.74844 0.401419 0.163119
0.749126 0.413214 0.161334
0.749798 0.426673 0.162387
0.750835 0.440406 0.163317
0.751354 0.45211 0.163531
0.752483 0.464683 0.164187
0.754055 0.475822 0.16492
0.106706 0.470832 0.180301
0.106249 0.470924 0.177844
0.105699 0.470344 0.1738
0.104692 0.469703 0.168551
0.103853 0.469444 0.162997
0.104707 0.469932 0.158724
0.104158 0.467964 0.158251
0.103273 0.465415 0.156558
0.121324 0.466178 0.1579
0.158114 0.465995 0.160815
0.224704 0.471427 0.168536
0.300862 0.483238 0.148211
0.434806 0.488441 0.101869
0.553841 0.479698 0.0709544
0.622461 0.483955 0.102251
0.678843 0.495064 0.136492
0.72668 0.502907 0.164019
0.757687 0.511681 0.163348
0.758953 0.50663 0.164813
0.757641 0.500557 0.165316
0.756863 0.4963 0.165621
0.75668 0.494224 0.165835
0.756481 0.494179 0.166079
0.756634 0.495155 0.166918
0.756603 0.496025 0.167239
0.756649 0.497551 0.167819
0.756664 0.498924 0.167712
0.758434 0.505028 0.166812
0.760784 0.513558 0.165591
0.763119 0.522652 0.164141
0.764538 0.531579 0.161776
0.76585 0.539513 0.159335
0.768673 0.547997 0.154299
0.135958 0.547997 0.228962
0.135332 0.547585 0.226169
0.134554 0.547189 0.222309
0.133837 0.547036 0.217472
0.133425 0.547387 0.211933
0.135119 0.54931 0.207492
0.135821 0.548836 0.205997
0.134524 0.545769 0.203647
0.138369 0.542275 0.201205
0.176104 0.541314 0.201923
0.2271 0.537423 0.204639
0.301396 0.54609 0.215076
0.387121 0.558907 0.171633
0.510613 0.56582 0.125643
0.619791 0.560189 0.101793
0.689998 0.565515 0.111971
0.741863 0.578622 0.128557
0.775464 0.594537 0.131594
0.779522 0.593011 0.133913
0.77911 0.58938 0.136736
0.778164 0.586175 0.138003
0.777417 0.584115 0.138811
0.777249 0.584161 0.138338
0.777432 0.585275 0.137331
0.77789 0.586877 0.1364
0.778439 0.58909 0.135531
0.778988 0.590906 0.134234
0.779202 0.592142 0.133608
0.779782 0.593652 0.133135
0.78204 0.598627 0.133776
0.783734 0.604379 0.132601
0.786954 0.610422 0.132143
0.78854 0.614069 0.131792
0.169039 0.62031 0.273548
0.168704 0.620966 0.271077
0.168154 0.620844 0.266896
0.167575 0.620981 0.262608
0.167498 0.622461 0.257298
0.169223 0.623377 0.250736
0.175738 0.625788 0.248631
0.175021 0.623652 0.247608
0.173648 0.620295 0.245533
0.192035 0.613748 0.239231
0.243626 0.60972 0.240772
0.3037 0.607263 0.247745
0.37673 0.619257 0.245182
0.471611 0.63267 0.203082
0.582223 0.646143 0.165148
0.680278 0.645075 0.143511
0.754437 0.654246 0.129961
0.792355 0.669551 0.128771
0.809125 0.671305 0.138857
0.806851 0.66566 0.137163
0.806302 0.66363 0.137179
0.806271 0.663508 0.137133
0.806256 0.663539 0.137057
0.806561 0.664302 0.137011
0.807126 0.665965 0.136843
0.808392 0.66891 0.137514
0.809476 0.670848 0.137957
0.809583 0.67187 0.137896
0.809583 0.672541 0.137987
0.809552 0.672557 0.138048
0.809476 0.671321 0.138018
0.809796 0.674662 0.138506
0.812161 0.678813 0.141131
0.20705 0.688899 0.314656
0.206699 0.68893 0.312566
0.206226 0.689113 0.308568
0.205982 0.690517 0.304143
0.205447 0.691508 0.297169
0.208682 0.693324 0.292546
0.219242 0.69752 0.291524
0.223117 0.698253 0.290013
0.221836 0.696223 0.288853
0.222049 0.691005 0.28542
0.26067 0.68072 0.276921
0.319356 0.673976 0.280934
0.390066 0.676677 0.291447
0.461387 0.694362 0.273106
0.558389 0.710491 0.247105
0.655009 0.730983 0.221683
0.740612 0.737697 0.210071
0.794156 0.743725 0.18732
0.823911 0.742397 0.18265
0.82707 0.738323 0.175296
0.826856 0.737499 0.174441
0.82678 0.737316 0.174273
0.826978 0.737682 0.175097
0.827131 0.73872 0.176837
0.82739 0.740139 0.178668
0.828077 0.741802 0.180758
0.828748 0.743709 0.182086
0.829007 0.744762 0.183795
0.829007 0.745083 0.184253
0.829038 0.744656 0.183352
0.828641 0.74255 0.181674
0.827756 0.739956 0.179721
0.82739 0.737179 0.176181
0.241428 0.757671 0.353246
0.241428 0.758572 0.351751
0.24126 0.759274 0.348653
0.240833 0.760327 0.344686
0.241352 0.763531 0.339757
0.245502 0.766567 0.338384
0.25417 0.770581 0.338811
0.260853 0.77525 0.340383
0.260746 0.772732 0.338109
0.260853 0.769574 0.335943
0.294194 0.762234 0.331395
0.349462 0.746929 0.326818
0.409644 0.737957 0.329915
0.480186 0.752041 0.331411
0.565759 0.771313 0.307256
0.650294 0.789029 0.293721
0.728023 0.801984 0.274846
0.779828 0.801953 0.271183
0.813626 0.798444 0.264164
0.82652 0.795789 0.262791
0.826581 0.794324 0.260182
0.826551 0.794598 0.260609
0.82649 0.795377 0.262043
0.826459 0.796323 0.263355
0.826368 0.797635 0.265675
0.826032 0.798367 0.267155
0.825986 0.799329 0.268177
0.826093 0.799939 0.269017
0.826062 0.800244 0.269429
0.826108 0.800046 0.269123
0.826108 0.798108 0.266224
0.826551 0.795056 0.261067
0.826612 0.789059 0.252445
0.261616 0.797711 0.405325
0.261158 0.797803 0.403922
0.260365 0.797925 0.402335
0.259709 0.798077 0.400809
0.259312 0.798169 0.399802
0.259037 0.798169 0.39794
0.258854 0.798199 0.395636
0.258457 0.798184 0.392721
0.257755 0.798016 0.390005
0.257603 0.797803 0.386969
0.256352 0.796765 0.376638
0.331777 0.794095 0.361456
0.416007 0.787549 0.371939
0.491432 0.788571 0.384787
0.560983 0.8047 0.375357
0.645792 0.818357 0.356603
0.710948 0.828946 0.340032
0.768307 0.83563 0.327092
0.806851 0.835599 0.332555
0.823972 0.833295 0.333257
0.824247 0.832364 0.327535
0.824231 0.832517 0.327733
0.824201 0.832883 0.328191
0.824186 0.833326 0.329244
0.824277 0.833646 0.330159
0.824292 0.833982 0.330846
0.824201 0.834348 0.331304
0.824186 0.834607 0.331548
0.824186 0.834607 0.331441
0.824277 0.834073 0.33048
0.824125 0.833082 0.328054
0.824109 0.830915 0.324666
0.823987 0.827832 0.318212
0.266011 0.800259 0.427817
0.26566 0.800397 0.427237
0.265171 0.80061 0.426459
0.264637 0.800793 0.425498
0.264179 0.80087 0.424384
0.26389 0.800778 0.423255
0.263722 0.800702 0.4224
0.263462 0.800381 0.420386
0.263249 0.800137 0.419059
0.263264 0.800122 0.419043
0.263264 0.800046 0.418784
0.257725 0.797757 0.387808
0.335409 0.7944 0.362264
0.446036 0.794965 0.38497
0.529732 0.804746 0.394675
0.608911 0.819669 0.376715
0.689906 0.832242 0.363638
0.752911 0.84123 0.348821
0.80116 0.845548 0.342473
0.821439 0.842817 0.357061
0.825116 0.842802 0.362921
0.82504 0.842756 0.361593
0.825055 0.842771 0.361868
0.825071 0.842786 0.362051
0.825086 0.842786 0.362203
0.825116 0.842817 0.362402
0.825132 0.842847 0.362356
0.825147 0.842863 0.362325
0.825147 0.842863 0.36202
0.825101 0.842847 0.36173
0.825071 0.842817 0.360876
0.824964 0.842725 0.359991
0.824781 0.842573 0.358114
0.266117 0.800381 0.42858
0.265858 0.800473 0.428199
0.265415 0.800626 0.427558
0.264942 0.800793 0.42652
0.264439 0.8009 0.425223
0.264042 0.800839 0.423957
0.263798 0.800717 0.42266
0.263554 0.800488 0.421012
0.263264 0.800137 0.419074
0.263249 0.800137 0.419059
0.263264 0.800122 0.419059
0.258961 0.798077 0.397436
0.299168 0.79472 0.358679
0.408225 0.794293 0.376043
0.501549 0.798276 0.397543
0.578347 0.814282 0.384482
0.661784 0.827726 0.368109
0.733791 0.838788 0.351965
0.789014 0.845182 0.342733
0.817548 0.843275 0.349004
0.824872 0.842695 0.358007
0.825193 0.842908 0.362692
0.825208 0.842893 0.362829
0.825208 0.842893 0.362814
0.825208 0.842893 0.362737
0.825223 0.842908 0.36257
0.825238 0.842924 0.362371
0.825254 0.842954 0.362203
0.825254 0.842954 0.362112
0.825254 0.842969 0.362127
0.825254 0.842954 0.362219
0.825254 0.842954 0.362387
0.825284 0.842939 0.362585
0.265751 0.800748 0.428992
0.265614 0.800778 0.428626
0.265309 0.800855 0.428153
0.264927 0.800946 0.427237
0.264485 0.800977 0.426139
0.264134 0.800931 0.424491
0.263828 0.800763 0.422934
0.263615 0.80058 0.421546
0.263264 0.800137 0.419135
0.263249 0.800137 0.419043
0.263249 0.800122 0.419043
0.259922 0.798398 0.403616
0.2869 0.794949 0.358663
0.400214 0.794034 0.374578
0.488533 0.796872 0.393698
0.566781 0.812207 0.387427
0.652888 0.826276 0.369665
0.724987 0.837659 0.353872
0.780606 0.844419 0.34342
0.814084 0.845075 0.344335
0.824765 0.842634 0.355428
0.825177 0.842969 0.360586
0.825238 0.842985 0.3617
0.825238 0.842985 0.3617
0.825254 0.842985 0.361624
0.825269 0.843015 0.361486
0.825284 0.843015 0.361288
0.825299 0.84303 0.36112
0.825299 0.843046 0.360998
0.825315 0.843046 0.360998
0.825299 0.843046 0.361059
0.825299 0.843015 0.361242
0.825269 0.843 0.361517
0.266041 0.800702 0.429648
0.266102 0.80061 0.429343
0.265965 0.80058 0.428855
0.26569 0.80058 0.428168
0.265309 0.80061 0.426902
0.264866 0.80058 0.425284
0.264347 0.800427 0.423636
0.264088 0.800259 0.422278
0.26363 0.799817 0.419486
0.26363 0.799786 0.419379
0.263645 0.799786 0.419409
0.261784 0.798352 0.408148
0.276097 0.795178 0.357702
0.395346 0.793729 0.373434
0.48336 0.79617 0.393317
0.559594 0.810254 0.389197
0.644923 0.825376 0.371023
0.7187 0.83653 0.356191
0.773571 0.843381 0.344717
0.811902 0.845869 0.343114
0.824552 0.842481 0.354833
0.825055 0.842832 0.360342
0.825223 0.842908 0.362478
0.825223 0.842908 0.362432
0.825223 0.842908 0.362371
0.825223 0.842924 0.362249
0.825238 0.842954 0.36202
0.825238 0.842985 0.3617
0.825299 0.843015 0.361257
0.825315 0.843061 0.360861
0.82533 0.843076 0.360678
0.82533 0.843076 0.360693
0.825315 0.843061 0.360876
0.265614 0.801053 0.429877
0.265736 0.8009 0.429572
0.265736 0.800793 0.429114
0.265614 0.800732 0.428412
0.265293 0.800687 0.427329
0.264881 0.800641 0.425681
0.264347 0.800504 0.423804
0.264073 0.80032 0.422385
0.26363 0.799893 0.41973
0.263569 0.799832 0.419333
0.263569 0.799847 0.419333
0.261814 0.798535 0.409476
0.268696 0.795163 0.357977
0.390875 0.794003 0.372259
0.477836 0.79556 0.391684
0.554437 0.80975 0.390494
0.638453 0.824659 0.37142
0.711482 0.835599 0.358022
0.768399 0.843 0.345815
0.808682 0.845914 0.342901
0.823102 0.842618 0.352621
0.82501 0.842802 0.359258
0.825223 0.842924 0.36231
0.825223 0.842924 0.362295
0.825223 0.842924 0.362249
0.825238 0.842939 0.362142
0.825254 0.842954 0.361929
0.825254 0.842985 0.361624
0.825299 0.84303 0.361181
0.825315 0.843061 0.360815
0.82533 0.843076 0.360662
0.82533 0.843076 0.360678
0.825315 0.843061 0.360845
0.265507 0.801205 0.430121
0.265614 0.801038 0.429847
0.26566 0.800916 0.429343
0.265538 0.800839 0.428611
0.265232 0.800793 0.427619
0.26479 0.800732 0.42591
0.264271 0.800595 0.423865
0.263981 0.800381 0.422339
0.263569 0.799954 0.419776
0.263508 0.799893 0.419287
0.263508 0.799908 0.419287
0.261997 0.798764 0.411551
0.269017 0.795621 0.360693
0.387259 0.794202 0.371817
0.472801 0.795895 0.39089
0.55082 0.809033 0.391058
0.63447 0.824216 0.371633
0.707866 0.834714 0.358221
0.764157 0.842435 0.346029
0.80528 0.845899 0.342641
0.822156 0.842771 0.352148
0.824933 0.842756 0.358618
0.825238 0.842924 0.36228
0.825208 0.842939 0.362249
0.825238 0.842924 0.362203
0.825238 0.842939 0.362112
0.825223 0.842969 0.361929
0.825269 0.842985 0.361624
0.825284 0.84303 0.361166
0.825315 0.843061 0.360815
0.82533 0.843076 0.360678
0.82533 0.843076 0.360693
0.825315 0.843061 0.360845
0.265492 0.801236 0.430365
0.265614 0.801083 0.43006
0.265629 0.800961 0.429496
0.265461 0.8009 0.428763
0.265187 0.800855 0.427787
0.264759 0.800778 0.426078
0.264256 0.800641 0.423957
0.263951 0.800427 0.422339
0.263569 0.799985 0.41976
0.263493 0.799908 0.419272
0.263478 0.799924 0.419272
0.261936 0.798749 0.411353
0.271641 0.795743 0.364828
0.384878 0.794537 0.371511
0.47071 0.795727 0.390494
0.547753 0.80853 0.39202
0.630182 0.823819 0.372076
0.703243 0.834592 0.359182
0.760876 0.84239 0.346899
0.803372 0.845731 0.34168
0.821363 0.842893 0.351293
0.824903 0.842725 0.357794
0.825177 0.842924 0.361883
0.825223 0.842924 0.362234
0.825223 0.842939 0.362203
0.825238 0.842939 0.362112
0.825238 0.842954 0.361929
0.825254 0.842985 0.361639
0.825284 0.84303 0.361196
0.825315 0.843061 0.36083
0.82533 0.843076 0.360678
0.82533 0.843076 0.360678
0.82533 0.843061 0.360769
0.2654 0.801358 0.430518
0.265431 0.801236 0.430121
0.265461 0.801099 0.429603
0.265354 0.801022 0.42884
0.265095 0.800931 0.427878
0.264744 0.800855 0.4262
0.26424 0.800671 0.424033
0.263966 0.800427 0.422385
0.263569 0.8 0.419791
0.263493 0.799924 0.419272
0.263493 0.799924 0.419272
0.262043 0.798795 0.411597
0.271168 0.795789 0.367025
0.381811 0.794629 0.370901
0.467018 0.795254 0.389395
0.543877 0.80766 0.392615
0.627344 0.823087 0.372641
0.70016 0.83418 0.35993
0.758572 0.842084 0.346761
0.801282 0.845685 0.341268
0.820264 0.843 0.349798
0.824887 0.842741 0.356603
0.825193 0.842985 0.360723
0.825238 0.842969 0.36173
0.825238 0.842969 0.36173
0.825238 0.842985 0.361654
0.825284 0.843 0.36141
0.825299 0.843046 0.361059
0.82533 0.843076 0.360708
0.82533 0.843091 0.360464
0.82533 0.843107 0.360342
0.825345 0.843107 0.360311
0.825345 0.843107 0.360327
0.265187 0.801556 0.430564
0.265141 0.80145 0.430091
0.265126 0.801343 0.429572
0.265064 0.801221 0.428809
0.264897 0.801099 0.427909
0.264591 0.800946 0.426246
0.264195 0.800748 0.424079
0.26392 0.800504 0.422431
0.263539 0.800031 0.419776
0.263462 0.799924 0.419257
0.263478 0.799924 0.419257
0.262272 0.798901 0.412253
0.268559 0.796185 0.369192
0.376989 0.794644 0.370275
0.463569 0.794766 0.388235
