bundles/resolve-cinematic-luts/Phantom Luts/Komodo Phantom FILM LUTs G2/Komodo Phantom FILM LUTs G2/33x/WB Offset - Green Boost/Vision_Komodo_WBO_Legacy_G2_33x.cube
TITLE "Generated by Resolve"
LUT_3D_SIZE 5
0.0361028 0.0486152 0.0394293
0.147509 0.0427405 0.0335393
0.621836 0.0678569 0.0680705
0.624628 0.0650645 0.0697185
0.629786 0.0813306 0.0637675
0.040528 0.177768 0.0625925
0.128756 0.186481 0.0485847
0.673716 0.100252 0.0587625
0.681483 0.101244 0.0633555
0.741329 0.192172 0.098909
0.241428 0.757671 0.353246
0.260746 0.772732 0.338109
0.728023 0.801984 0.274846
0.826368 0.797635 0.265675
0.826612 0.789059 0.252445
0.265492 0.801236 0.430365
0.263569 0.799985 0.41976
0.630182 0.823819 0.372076
0.825223 0.842939 0.362203
0.82533 0.843061 0.360769
0.264897 0.801816 0.430716
0.264378 0.800198 0.422827
0.526558 0.803525 0.395285
0.825223 0.842939 0.361959
0.825391 0.843168 0.359701
0.0374456 0.0540322 0.157778
0.198154 0.0453498 0.145708
0.671427 0.0747387 0.242939
0.666773 0.0659953 0.21738
0.655253 0.0496529 0.151369
0.0296788 0.149157 0.125322
0.143053 0.168124 0.140215
0.630915 0.0760662 0.0670481
0.637034 0.0841077 0.0650492
0.718471 0.132906 0.0716716
0.226795 0.73579 0.424033
0.225315 0.729519 0.350027
0.717647 0.790784 0.262425
0.826963 0.779187 0.23592
0.827832 0.777005 0.232578
0.280446 0.810025 0.496544
0.26566 0.801617 0.431922
0.592157 0.816922 0.381064
0.825238 0.842939 0.362142
0.82533 0.843076 0.360693
0.276448 0.806928 0.478325
0.266072 0.80145 0.432273
0.495109 0.79733 0.396139
0.825132 0.842924 0.360739
0.825406 0.843168 0.359594
0.0779431 0.090425 0.560143
0.200183 0.0688487 0.540566
0.735958 0.130037 0.658854
0.733974 0.137102 0.679866
0.730541 0.124117 0.612085
0.0775006 0.147784 0.591714
0.0894484 0.0804761 0.533379
0.728313 0.12372 0.638056
0.735714 0.127565 0.650568
0.70309 0.114366 0.53843
0.0414893 0.668925 0.671717
0.0415961 0.658885 0.660822
0.675013 0.704417 0.667155
0.830869 0.677226 0.622492
0.809079 0.667201 0.528008
0.121218 0.846952 0.743832
0.160281 0.844755 0.706981
0.320378 0.805402 0.486015
0.824781 0.842649 0.356039
0.825086 0.842863 0.360265
0.1664 0.844419 0.701869
0.205676 0.838621 0.667674
0.276265 0.806806 0.476173
0.818509 0.843397 0.346166
0.825223 0.843122 0.358618
0.115999 0.0869917 0.583581
0.23714 0.0753033 0.585977
0.734737 0.13611 0.687144
0.734737 0.13611 0.687144
0.734707 0.136126 0.687129
0.090959 0.149615 0.666865
0.124834 0.0873121 0.583047
0.733562 0.135851 0.686564
0.734737 0.13611 0.687144
0.734737 0.13611 0.687144
0.0296635 0.598764 0.789212
0.032166 0.586175 0.788312
0.591028 0.537713 0.836973
0.844785 0.565911 0.82385
0.836622 0.533532 0.813718
0.104616 0.838972 0.88011
0.104616 0.838972 0.88011
0.0986343 0.858366 0.875288
0.895338 0.93312 0.913222
0.909255 0.928191 0.905394
0.104616 0.838972 0.88011
0.104616 0.838972 0.88011
0.0713359 0.848249 0.836225
0.854612 0.929808 0.875196
0.895705 0.938781 0.867506
0.123857 0.0870222 0.582803
0.245792 0.0761578 0.586236
0.734737 0.13611 0.687144
0.734737 0.13611 0.687144
0.734737 0.13611 0.687144
0.0898299 0.145998 0.664179
0.134005 0.0882734 0.583612
0.734737 0.13611 0.687144
0.734737 0.13611 0.687144
0.734737 0.13611 0.687144
0.0305333 0.592691 0.78851
0.0339208 0.579675 0.787564
0.583795 0.519158 0.830854
0.837964 0.540612 0.815717
0.829343 0.504112 0.80499
0.104616 0.838972 0.88011
0.104616 0.838972 0.88011
0.100771 0.835752 0.88394
0.872435 0.910338 0.924224
0.906203 0.906386 0.925719
0.104616 0.838972 0.88011
0.104616 0.838972 0.88011
0.105043 0.840024 0.880796
0.53756 0.883741 0.892439
0.915068 0.950881 0.933501
