bundles/resolve-cinematic-luts/Phantom Luts/Komodo Phantom FILM LUTs G2/Komodo Phantom FILM LUTs G2/33x/WB Offset - Green Boost/VisionTeal_Komodo_WBO_G2_33x.cube
TITLE "Generated by Resolve"
LUT_3D_SIZE 5
0.0221408 0.0355993 0.0336461
0.198566 0.021973 0.0199283
0.637064 0.024506 0.0774548
0.635004 0.0241398 0.072221
0.652705 0.0251011 0.0619821
0.0252842 0.222538 0.0451362
0.196094 0.224277 0.0390631
0.696437 0.0755016 0.0587472
0.704997 0.0708019 0.0631266
0.78085 0.300099 0.133867
0.259388 0.776669 0.297658
0.285649 0.781125 0.254154
0.755596 0.783261 0.277714
0.813153 0.793133 0.315602
0.813107 0.788586 0.30782
0.263447 0.829938 0.411505
0.26482 0.827527 0.396567
0.709133 0.785489 0.322332
0.813184 0.816983 0.388174
0.812711 0.816968 0.388266
0.261814 0.832227 0.41471
0.2654 0.827314 0.399741
0.618738 0.764904 0.308339
0.81326 0.817014 0.387793
0.812543 0.81706 0.388022
0.0200809 0.0626535 0.206241
0.236744 0.0274357 0.223377
0.676783 0.0600443 0.332815
0.672938 0.05037 0.304051
0.668315 0.0399023 0.234104
0.019089 0.194903 0.141161
0.190234 0.221378 0.190829
0.645167 0.0250401 0.0735332
0.657008 0.0260014 0.0597848
0.775051 0.250141 0.117311
0.175265 0.796704 0.42742
0.236316 0.762234 0.315801
0.746563 0.775418 0.266087
0.813474 0.783886 0.299565
0.813458 0.783719 0.299321
0.231312 0.859373 0.504295
0.262715 0.831388 0.414939
0.681254 0.778637 0.31696
0.81326 0.817029 0.388052
0.812772 0.816999 0.38819
0.227314 0.854032 0.478828
0.262974 0.831022 0.415213
0.58323 0.759304 0.306279
0.813275 0.817044 0.386618
0.812497 0.81706 0.388022
0.0193637 0.146105 0.588922
0.179477 0.110201 0.626795
0.739879 0.112612 0.762402
0.737346 0.116564 0.780316
0.732479 0.102083 0.715129
0.0194858 0.252995 0.597604
0.0191348 0.126177 0.578027
0.733547 0.108507 0.743282
0.739559 0.111772 0.756115
0.714824 0.0993515 0.661463
0.0799573 0.768948 0.687236
0.0776989 0.758755 0.677043
0.733135 0.747509 0.701152
0.865919 0.727703 0.671077
0.847242 0.73695 0.57554
0.126268 0.922179 0.767086
0.127687 0.920638 0.741756
0.309819 0.834928 0.476646
0.812589 0.816907 0.383459
0.812222 0.816709 0.387304
0.129412 0.919661 0.737499
0.150698 0.910536 0.70724
0.227085 0.853346 0.475532
0.807843 0.81619 0.372763
0.812558 0.817075 0.386435
0.0200046 0.139635 0.635279
0.209842 0.0995651 0.670741
0.738354 0.118166 0.785672
0.738308 0.118181 0.785611
0.738277 0.118212 0.785412
0.0194247 0.252796 0.665614
0.0314641 0.139986 0.640085
0.737072 0.117952 0.785107
0.738308 0.118181 0.785626
0.738369 0.118166 0.785687
0.021088 0.729885 0.771252
0.0212558 0.719097 0.768643
0.625559 0.610407 0.860838
0.85713 0.604807 0.864775
0.848371 0.567147 0.858152
0.147417 0.926131 0.864576
0.145357 0.927184 0.865202
0.161837 0.935058 0.855619
0.914092 0.930495 0.906126
0.91516 0.911543 0.8804
0.145464 0.927108 0.865156
0.145357 0.927184 0.865202
0.139147 0.929641 0.832807
0.873732 0.930114 0.869169
0.926543 0.936156 0.862531
0.0299535 0.140002 0.639551
0.213031 0.0860151 0.669352
0.738354 0.118166 0.785672
0.738338 0.118166 0.785672
0.738308 0.118181 0.785626
0.0195621 0.246403 0.664286
0.0416724 0.139986 0.643961
0.738354 0.118166 0.785702
0.738293 0.118181 0.785611
0.738338 0.118166 0.785657
0.0210574 0.724849 0.770047
0.0211185 0.713954 0.767514
0.617563 0.590204 0.856931
0.850721 0.580606 0.859876
0.842161 0.544884 0.853178
0.146563 0.926543 0.864958
0.145357 0.927184 0.865202
0.138323 0.926223 0.868086
0.900038 0.912337 0.911635
0.925505 0.908186 0.916014
0.148775 0.925399 0.864118
0.145357 0.927184 0.865202
0.146304 0.928084 0.865446
0.603159 0.905074 0.857725
0.943709 0.952407 0.934981
