bundles/resolve-cinematic-luts/Phantom Luts/Komodo Phantom FILM LUTs G2/Komodo Phantom FILM LUTs G2/33x/WB Offset - Green Boost/VisionTeal_Komodo_WBO_G2_33x.cube
TITLE "Generated by Resolve"
LUT_3D_SIZE 9
0.0221408 0.0355993 0.0336461
0.0464637 0.0335393 0.033463
0.198566 0.021973 0.0199283
0.427054 0.0121004 0.0250858
0.637064 0.024506 0.0774548
0.645075 0.0275883 0.0995804
0.635004 0.0241398 0.072221
0.631434 0.0230716 0.0531777
0.652705 0.0251011 0.0619821
0.0209659 0.0640726 0.0332036
0.0375067 0.0578927 0.0374304
0.200916 0.0388037 0.0254063
0.439612 0.0187228 0.0268406
0.634089 0.0230259 0.0538033
0.634546 0.0230564 0.0539254
0.643427 0.0238804 0.0550851
0.658213 0.0290684 0.0571298
0.683314 0.0422217 0.0626993
0.0252842 0.222538 0.0451362
0.0230259 0.215778 0.0388952
0.196094 0.224277 0.0390631
0.52665 0.209705 0.0880598
0.696437 0.0755016 0.0587472
0.687938 0.0520638 0.0630961
0.704997 0.0708019 0.0631266
0.750225 0.150698 0.0854047
0.78085 0.300099 0.133867
0.111971 0.517693 0.148852
0.108797 0.513008 0.122988
0.138293 0.502266 0.112718
0.484916 0.507149 0.107393
0.760632 0.591699 0.170184
0.790051 0.593378 0.179644
0.78996 0.592828 0.181827
0.790341 0.610895 0.16556
0.79115 0.643915 0.150149
0.259388 0.776669 0.297658
0.260716 0.779904 0.272282
0.285649 0.781125 0.254154
0.504936 0.715114 0.254307
0.755596 0.783261 0.277714
0.813397 0.791226 0.312398
0.813153 0.793133 0.315602
0.812818 0.794446 0.318334
0.813107 0.788586 0.30782
0.264286 0.828977 0.409171
0.263416 0.829313 0.406546
0.263951 0.828077 0.396933
0.313619 0.795041 0.271672
0.7243 0.7897 0.327474
0.812924 0.81706 0.382635
0.812833 0.816938 0.388327
0.812772 0.816968 0.388266
0.812848 0.816953 0.388312
0.263447 0.829938 0.411505
0.264134 0.828916 0.407599
0.26482 0.827527 0.396567
0.290806 0.801801 0.288624
0.709133 0.785489 0.322332
0.810849 0.816739 0.377005
0.813184 0.816983 0.388174
0.81297 0.817014 0.388128
0.812711 0.816968 0.388266
0.262379 0.831464 0.413825
0.264897 0.828382 0.407599
0.267979 0.824903 0.394568
0.276005 0.808301 0.314611
0.694423 0.781308 0.319097
0.806546 0.815808 0.371252
0.81326 0.816983 0.388159
0.813169 0.817029 0.388022
0.81268 0.81706 0.387991
0.261814 0.832227 0.41471
0.26247 0.830594 0.410819
0.2654 0.827314 0.399741
0.26772 0.823545 0.388373
0.618738 0.764904 0.308339
0.78941 0.813184 0.356146
0.81326 0.817014 0.387793
0.813046 0.816999 0.388128
0.812543 0.81706 0.388022
0.0219883 0.0399634 0.0625772
0.0555276 0.0335241 0.0716259
0.231022 0.0248875 0.0683757
0.47454 0.0218509 0.0899825
0.65713 0.032929 0.168688
0.660029 0.0346838 0.182605
0.656397 0.0326085 0.165301
0.639994 0.0258183 0.0902571
0.646555 0.0243076 0.0641794
0.0215 0.0559701 0.0489815
0.0305028 0.0511177 0.0473945
0.203326 0.0204471 0.0250706
0.431205 0.0122225 0.031693
0.629831 0.0229496 0.0679026
0.631251 0.0230716 0.0657206
0.63624 0.0230716 0.0596017
0.653178 0.0252079 0.0613565
0.681575 0.0388495 0.0623026
0.0185397 0.2224 0.0640574
0.0202029 0.209995 0.0473335
0.184558 0.21561 0.0398413
0.522896 0.183139 0.082414
0.685267 0.0570382 0.0607004
0.679362 0.0398718 0.062211
0.701366 0.0650492 0.063508
0.751965 0.146349 0.0827039
0.782025 0.312093 0.139422
0.105501 0.521096 0.187152
0.10515 0.513222 0.152773
0.118685 0.497658 0.110826
0.480369 0.502846 0.105516
0.761242 0.585092 0.172992
0.790341 0.582712 0.185199
0.790478 0.581567 0.188571
0.790677 0.614252 0.162478
0.792508 0.649195 0.148562
0.248005 0.777325 0.332158
0.251041 0.775158 0.304662
0.287114 0.777356 0.250767
0.48748 0.712322 0.248127
0.753323 0.782238 0.274479
0.812833 0.78941 0.309377
0.813245 0.790738 0.311772
0.813123 0.791836 0.312825
0.813031 0.785901 0.303136
0.263478 0.830121 0.413489
0.262806 0.830304 0.410574
0.263432 0.828489 0.399817
0.286671 0.803174 0.285023
0.718364 0.788266 0.325887
0.812924 0.81706 0.382223
0.812802 0.816953 0.388296
0.812726 0.816983 0.388251
0.812741 0.816968 0.388266
0.262791 0.831983 0.416938
0.263386 0.830091 0.412192
0.264225 0.827955 0.400031
0.275181 0.810742 0.318868
0.701503 0.783307 0.320424
0.809049 0.816388 0.374945
0.813214 0.816999 0.388113
0.812985 0.817014 0.388083
0.812696 0.816968 0.388281
0.262211 0.833005 0.41854
0.263386 0.830198 0.413199
0.267582 0.825895 0.398138
0.269337 0.813825 0.341497
0.68629 0.779065 0.316701
0.804852 0.815518 0.369238
0.81326 0.816983 0.388159
0.813169 0.817029 0.388022
0.812665 0.81706 0.387991
0.261585 0.833387 0.418402
0.262608 0.831266 0.41413
0.264897 0.827604 0.402014
0.267811 0.824613 0.392691
0.608621 0.763088 0.3075
0.788846 0.813626 0.353216
0.81326 0.817029 0.387579
0.813046 0.816999 0.388144
0.812528 0.81706 0.388022
0.0200809 0.0626535 0.206241
0.0435035 0.0514992 0.227115
0.236744 0.0274357 0.223377
0.485359 0.046067 0.261723
0.676783 0.0600443 0.332815
0.673915 0.0536049 0.316732
0.672938 0.05037 0.304051
0.672404 0.0466011 0.281376
0.668315 0.0399023 0.234104
0.0204776 0.0733349 0.168856
0.0202487 0.0573281 0.20145
0.216114 0.0276493 0.208316
0.479393 0.0484169 0.235645
0.673365 0.0491493 0.298802
0.673091 0.0478218 0.289998
0.672633 0.0457008 0.27126
0.667613 0.0394751 0.227131
0.641718 0.0246433 0.079942
0.019089 0.194903 0.141161
0.0190127 0.190463 0.139071
0.190234 0.221378 0.190829
0.528832 0.101396 0.125261
0.645167 0.0250401 0.0735332
0.64477 0.0245212 0.0643626
0.657008 0.0260014 0.0597848
0.708217 0.0762646 0.0715648
0.775051 0.250141 0.117311
0.0699779 0.525795 0.27155
0.0657206 0.522881 0.253788
0.0924392 0.491859 0.160327
0.465003 0.488487 0.099855
0.76286 0.560113 0.189929
0.791821 0.542611 0.197726
0.791257 0.559472 0.196078
0.789792 0.600885 0.175372
0.791272 0.64152 0.150408
0.175265 0.796704 0.42742
0.198306 0.789471 0.411215
0.236316 0.762234 0.315801
0.422766 0.709209 0.231006
0.746563 0.775418 0.266087
0.813535 0.783871 0.299641
0.813474 0.783886 0.299565
0.813504 0.78436 0.300145
0.813458 0.783719 0.299321
0.234913 0.850004 0.470024
0.255924 0.840284 0.446143
0.262226 0.831479 0.413046
0.265187 0.820752 0.362356
0.703258 0.783993 0.321538
0.812818 0.816983 0.380682
0.812787 0.816938 0.388373
0.812696 0.816968 0.388266
0.812726 0.816968 0.388266
0.231312 0.859373 0.504295
0.22771 0.852476 0.472847
0.262715 0.831388 0.414939
0.265354 0.825208 0.387533
0.681254 0.778637 0.31696
0.80531 0.815717 0.369894
0.81326 0.817029 0.388052
0.813031 0.817044 0.388022
0.812772 0.816999 0.38819
0.231159 0.860899 0.511727
0.227741 0.853819 0.479026
0.263584 0.830259 0.415137
0.268009 0.824537 0.393149
0.662608 0.77377 0.312779
0.80032 0.814725 0.365393
0.813275 0.816983 0.388174
0.813169 0.817029 0.388022
0.81265 0.81706 0.387991
0.227314 0.854032 0.478828
0.251423 0.844343 0.456336
0.262974 0.831022 0.415213
0.267765 0.824842 0.393484
0.58323 0.759304 0.306279
0.786175 0.814343 0.34728
0.813275 0.817044 0.386618
0.813062 0.816999 0.388128
0.812497 0.81706 0.388022
0.0192416 0.101091 0.406104
0.0217136 0.086244 0.420615
0.193118 0.0403296 0.438911
0.50454 0.0509957 0.487022
0.687785 0.0569009 0.556374
0.688609 0.057969 0.55816
0.676219 0.0456397 0.508278
0.675837 0.0486 0.470954
0.691295 0.0828565 0.434623
0.0194247 0.128222 0.392905
0.0192721 0.0980087 0.405097
0.153231 0.0426032 0.437766
0.494606 0.0487068 0.477668
0.684184 0.052018 0.541543
0.6813 0.0483406 0.529015
0.675044 0.0462501 0.483207
0.680751 0.0581216 0.462181
0.693492 0.0906539 0.418616
0.0190738 0.188342 0.330388
0.0192721 0.180163 0.336629
0.0275578 0.108629 0.423087
0.456489 0.0434424 0.437964
0.671672 0.0461585 0.485863
0.677714 0.0566567 0.463233
0.68687 0.0780652 0.439277
0.690303 0.0908217 0.400961
0.674113 0.0515602 0.308736
0.0337224 0.494514 0.416388
0.0315557 0.491432 0.414786
0.0285954 0.478309 0.399023
0.495796 0.508339 0.453101
0.787411 0.437018 0.416205
0.797574 0.372488 0.346105
0.791745 0.376028 0.292088
0.791485 0.454429 0.281102
0.790921 0.570459 0.215228
0.138964 0.80029 0.565148
0.140536 0.798062 0.558587
0.150271 0.785428 0.528191
0.196689 0.735958 0.356054
0.697505 0.732006 0.262638
0.813107 0.764218 0.271519
0.81268 0.761181 0.266697
0.813016 0.762829 0.269429
0.813382 0.768505 0.27718
0.221805 0.875685 0.604715
0.221668 0.875776 0.599008
0.234394 0.868925 0.574563
0.261753 0.83328 0.418631
0.648508 0.771649 0.312581
0.807095 0.815763 0.372519
0.812879 0.816815 0.389685
0.81268 0.816861 0.390036
0.812665 0.816938 0.389059
0.214054 0.882231 0.624857
0.215396 0.879728 0.614557
0.228656 0.871611 0.584222
0.262318 0.833036 0.420203
0.610422 0.764202 0.30959
0.792081 0.813123 0.360662
0.812573 0.816815 0.388739
0.812711 0.816938 0.388403
0.812848 0.817014 0.388113
0.21268 0.88365 0.629252
0.214847 0.880217 0.615732
0.228763 0.871611 0.584482
0.262745 0.832837 0.422293
0.583841 0.759472 0.309255
0.786984 0.813977 0.351553
0.812116 0.816602 0.387488
0.812512 0.816815 0.388739
0.812558 0.817029 0.388098
0.220218 0.876493 0.600565
0.225544 0.873442 0.590082
0.238941 0.867781 0.566491
0.262882 0.831876 0.418631
0.47332 0.762707 0.286778
0.771496 0.810086 0.336553
0.812573 0.816861 0.384405
0.81265 0.816861 0.388602
0.812512 0.817029 0.388144
0.0193637 0.146105 0.588922
0.0191958 0.127047 0.589914
0.179477 0.110201 0.626795
0.501152 0.094728 0.677134
0.739879 0.112612 0.762402
0.738354 0.114794 0.773495
0.737346 0.116564 0.780316
0.738445 0.114626 0.771511
0.732479 0.102083 0.715129
0.0193942 0.175006 0.593729
0.0194247 0.142077 0.586938
0.144366 0.124285 0.622843
0.486778 0.0906539 0.67039
0.739788 0.112078 0.759441
0.738949 0.114321 0.769726
0.738003 0.115328 0.775387
0.739223 0.113024 0.762936
0.725887 0.0996414 0.696468
0.0194858 0.252995 0.597604
0.0194858 0.243091 0.604517
0.0191348 0.126177 0.578027
0.422751 0.0721141 0.641611
0.733547 0.108507 0.743282
0.739422 0.111559 0.754665
0.739559 0.111772 0.756115
0.738445 0.107729 0.734188
0.714824 0.0993515 0.661463
0.0203708 0.50222 0.603555
0.0204166 0.496544 0.604837
0.0202182 0.470741 0.608743
0.328374 0.360189 0.71873
0.754894 0.299825 0.738415
0.760388 0.207446 0.719463
0.745052 0.166796 0.683207
0.732311 0.125429 0.639338
0.716793 0.0960098 0.555474
0.0799573 0.768948 0.687236
0.0779889 0.766796 0.685603
0.0776989 0.758755 0.677043
0.0759899 0.74023 0.65388
0.733135 0.747509 0.701152
0.871107 0.732021 0.689601
0.865919 0.727703 0.671077
0.86067 0.734859 0.644419
0.847242 0.73695 0.57554
0.128435 0.920592 0.749981
0.127077 0.921019 0.746517
0.13286 0.917952 0.731228
0.164645 0.903273 0.687587
0.507576 0.819318 0.548638
0.814282 0.840681 0.582605
0.825711 0.8262 0.497704
0.827863 0.827726 0.511986
0.816114 0.819104 0.432517
0.126268 0.922179 0.767086
0.124987 0.922576 0.760098
0.127687 0.920638 0.741756
0.166186 0.904662 0.688411
0.309819 0.834928 0.476646
0.779522 0.813596 0.33994
0.812589 0.816907 0.383459
0.812451 0.816831 0.386603
0.812222 0.816709 0.387304
0.124819 0.922972 0.769589
0.1252 0.922469 0.759976
0.127977 0.920348 0.740261
0.168994 0.903365 0.685802
0.244053 0.850675 0.482612
0.764675 0.807431 0.333532
0.812955 0.817075 0.379141
0.812772 0.817044 0.386038
0.812848 0.81706 0.386145
0.129412 0.919661 0.737499
0.136049 0.916625 0.726314
0.150698 0.910536 0.70724
0.192477 0.893996 0.659724
0.227085 0.853346 0.475532
0.730159 0.792569 0.329076
0.807843 0.81619 0.372763
0.812482 0.81706 0.386114
0.812558 0.817075 0.386435
0.01944 0.141741 0.630198
0.0310826 0.140017 0.639994
0.202274 0.12195 0.672404
0.498131 0.0919203 0.71339
0.738293 0.118196 0.785611
0.738262 0.118196 0.78558
0.738262 0.118196 0.78558
0.738323 0.118181 0.785626
0.738308 0.118181 0.785626
0.0193942 0.156451 0.626841
0.0194553 0.141466 0.630884
0.169162 0.137652 0.670146
0.480339 0.0864576 0.707912
0.738338 0.118181 0.785657
0.738247 0.118196 0.78555
0.738186 0.118212 0.785489
0.738216 0.118212 0.785504
0.738354 0.118166 0.785626
0.0196078 0.258442 0.666041
0.019379 0.242573 0.664042
0.0195163 0.13994 0.633371
0.403815 0.072343 0.688762
0.734188 0.117189 0.783703
0.738338 0.118181 0.785657
0.738338 0.118166 0.785672
0.738323 0.118181 0.785641
0.738354 0.118166 0.785687
0.0203708 0.449134 0.698909
0.0202335 0.440696 0.69781
0.0201724 0.410895 0.693278
0.187686 0.236973 0.728298
0.683742 0.179202 0.781491
0.74081 0.122835 0.78764
0.739208 0.120333 0.786099
0.741268 0.124269 0.788144
0.738964 0.119173 0.78613
0.0211643 0.73637 0.757855
0.0210117 0.733013 0.756741
0.0209049 0.724117 0.75256
0.0211643 0.703304 0.753536
0.644175 0.647166 0.856138
0.874266 0.652216 0.860746
0.8719 0.644587 0.857114
0.871061 0.637812 0.848966
0.859373 0.59147 0.822904
0.145922 0.91873 0.841321
0.140887 0.916442 0.838819
0.135042 0.907988 0.831235
0.119417 0.877455 0.802762
0.312016 0.859083 0.79675
0.858045 0.874144 0.843702
0.886931 0.848508 0.818067
0.883024 0.840818 0.80795
0.885252 0.843656 0.789944
0.158755 0.925841 0.853605
0.153384 0.927474 0.850126
0.145678 0.928054 0.841505
0.128405 0.929152 0.82002
0.127382 0.932998 0.781918
0.787472 0.891218 0.781842
0.898772 0.915755 0.805402
0.904372 0.911604 0.797818
0.90219 0.909468 0.792416
0.15964 0.925521 0.855253
0.154116 0.92726 0.851087
0.145312 0.928161 0.84094
0.126635 0.929381 0.817533
0.12694 0.929442 0.770748
0.747326 0.880278 0.754788
0.857527 0.885679 0.727687
0.812528 0.817075 0.383108
0.812436 0.817014 0.383993
0.145586 0.927657 0.839078
0.140505 0.928405 0.834424
0.132067 0.928923 0.824491
0.119188 0.929564 0.802747
0.128832 0.921477 0.741192
0.661738 0.860792 0.691005
0.828077 0.863294 0.662287
0.812879 0.817121 0.38114
0.812879 0.817121 0.383734
0.0200046 0.139635 0.635279
0.0557717 0.13901 0.646143
0.209842 0.0995651 0.670741
0.516823 0.0977188 0.718669
0.738354 0.118166 0.785672
0.738323 0.118181 0.785641
0.738308 0.118181 0.785611
0.738247 0.118212 0.785534
0.738277 0.118212 0.785412
0.0192874 0.143465 0.628168
0.0223392 0.139803 0.636301
0.196384 0.132494 0.672358
0.497673 0.0918135 0.713176
0.738369 0.118166 0.785702
0.738369 0.118181 0.785702
0.738369 0.118181 0.785702
0.738354 0.118166 0.785702
0.738354 0.118166 0.785702
0.0194247 0.252796 0.665614
0.0194247 0.220768 0.654383
0.0314641 0.139986 0.640085
0.419333 0.0731823 0.691356
0.737072 0.117952 0.785107
0.738308 0.118181 0.785611
0.738308 0.118181 0.785626
0.738338 0.118166 0.785672
0.738369 0.118166 0.785687
0.0204623 0.423163 0.695827
0.0201877 0.41297 0.693629
0.0200961 0.380575 0.687602
0.15993 0.192813 0.703532
0.668879 0.144915 0.769955
0.739086 0.119554 0.786175
0.739055 0.119554 0.78613
0.739193 0.119738 0.786252
0.73901 0.119234 0.786175
0.021088 0.729885 0.771252
0.0213321 0.727337 0.770764
0.0212558 0.719097 0.768643
0.0210727 0.693278 0.764172
0.625559 0.610407 0.860838
0.861021 0.614557 0.868742
0.85713 0.604807 0.864775
0.856641 0.600229 0.864652
0.848371 0.567147 0.858152
0.127138 0.907149 0.86157
0.123598 0.902586 0.859983
0.114107 0.889128 0.85452
0.0746471 0.835401 0.824689
0.104738 0.842588 0.843717
0.819898 0.831006 0.894026
0.909773 0.835813 0.898894
0.909041 0.83064 0.896681
0.905837 0.814878 0.886503
0.147417 0.926131 0.864576
0.145357 0.927184 0.865202
0.145357 0.927184 0.865202
0.145357 0.927184 0.865202
0.161837 0.935058 0.855619
0.723125 0.899382 0.852995
0.914092 0.930495 0.906126
0.919509 0.918669 0.890517
0.91516 0.911543 0.8804
0.148455 0.925597 0.86453
0.145495 0.927108 0.865171
0.145357 0.927184 0.865202
0.145357 0.927184 0.865202
0.152041 0.93315 0.846128
0.319203 0.917922 0.823713
0.900465 0.938079 0.8925
0.933318 0.943633 0.892989
0.932601 0.942031 0.887236
0.145464 0.927108 0.865156
0.145373 0.927169 0.865202
0.145357 0.927184 0.865202
0.151415 0.926863 0.862348
0.139147 0.929641 0.832807
0.169177 0.947814 0.823529
0.873732 0.930114 0.869169
0.923583 0.939193 0.877058
0.926543 0.936156 0.862531
0.0276493 0.13991 0.638376
0.0681621 0.139849 0.650462
0.212467 0.0868086 0.669154
0.527184 0.101579 0.723339
0.738354 0.118166 0.785672
0.738338 0.118166 0.785657
0.738338 0.118166 0.785672
0.738277 0.118196 0.785595
0.738308 0.118181 0.785611
0.01944 0.142519 0.629664
0.0293126 0.140017 0.639384
0.201099 0.124147 0.672557
0.507515 0.0953231 0.717006
0.738354 0.118166 0.785702
0.738354 0.118166 0.785702
0.738354 0.118166 0.785702
0.738369 0.118166 0.785702
0.738354 0.118166 0.785702
0.0193179 0.250553 0.664729
0.0195315 0.212909 0.650111
0.0394751 0.140078 0.643214
0.428901 0.0753033 0.693782
0.73817 0.11812 0.785565
0.738293 0.118181 0.785611
0.738293 0.118181 0.785611
0.738293 0.118196 0.785611
0.738338 0.118166 0.785657
0.0203098 0.414557 0.694743
0.0200504 0.404501 0.692134
0.0201572 0.369711 0.685924
0.152316 0.180316 0.695445
0.665522 0.136584 0.766522
0.738857 0.119142 0.786038
0.738949 0.11928 0.786099
0.739055 0.119478 0.78616
0.738796 0.118944 0.786007
0.0213474 0.728359 0.770657
0.021088 0.725048 0.770077
0.0211643 0.717174 0.768109
0.0209964 0.687922 0.762875
0.622736 0.599878 0.8598
0.857984 0.604089 0.866072
0.854566 0.592935 0.864073
0.852644 0.588235 0.861448
0.845838 0.559442 0.856641
0.124788 0.904204 0.860319
0.121386 0.899657 0.859174
0.106844 0.878553 0.848981
0.0610208 0.82768 0.821088
0.105669 0.834134 0.839353
0.816602 0.821973 0.896223
0.906508 0.823545 0.899443
0.904997 0.81799 0.89836
0.901701 0.803708 0.896452
0.146929 0.926375 0.864912
0.145357 0.927184 0.865202
0.145357 0.927184 0.865202
0.145357 0.927184 0.865202
0.144183 0.931121 0.867704
0.650294 0.880919 0.860883
0.903441 0.916747 0.912902
0.928985 0.919417 0.917967
0.927718 0.913832 0.916762
0.146349 0.92665 0.864988
0.145388 0.927169 0.865187
0.145357 0.927184 0.865202
0.145357 0.927184 0.865202
0.15053 0.932906 0.867033
0.173297 0.946914 0.867857
0.861295 0.93489 0.90605
0.93547 0.94641 0.930343
0.935561 0.943969 0.92462
0.148287 0.925689 0.864469
0.14551 0.927092 0.865141
0.145357 0.927184 0.865202
0.145357 0.927184 0.865202
0.146883 0.928161 0.865309
0.175753 0.944274 0.860502
0.779812 0.922332 0.874952
0.932662 0.948684 0.924727
0.941695 0.951354 0.925933
0.0299535 0.140002 0.639551
0.0726024 0.14049 0.65211
0.213031 0.0860151 0.669352
0.525704 0.100984 0.722637
0.738354 0.118166 0.785672
0.738338 0.118166 0.785672
0.738338 0.118166 0.785672
0.738293 0.118181 0.785611
0.738308 0.118181 0.785626
0.0194553 0.141772 0.630228
0.0328985 0.140093 0.640833
0.201434 0.123491 0.672465
0.50634 0.0948348 0.71664
0.738354 0.118166 0.785702
0.738354 0.118166 0.785702
0.738354 0.118166 0.785702
0.738354 0.118166 0.785687
0.738323 0.118181 0.78555
0.0195621 0.246403 0.664286
0.0193942 0.207156 0.647074
0.0416724 0.139986 0.643961
0.428275 0.0751965 0.69366
0.738354 0.118166 0.785702
0.738293 0.118181 0.785611
0.738293 0.118181 0.785611
0.738308 0.118181 0.785611
0.738338 0.118166 0.785657
0.0198825 0.405692 0.692576
0.0200351 0.394736 0.690105
0.0200809 0.360372 0.684428
0.144183 0.171084 0.688945
0.663539 0.134798 0.765423
0.738689 0.118883 0.78587
0.738796 0.119051 0.785977
0.738918 0.119188 0.786053
0.738659 0.118746 0.785885
0.0210574 0.724849 0.770047
0.0209812 0.72166 0.769299
0.0211185 0.713954 0.767514
0.0211032 0.683513 0.762234
0.617563 0.590204 0.856931
0.855253 0.59205 0.864652
0.850721 0.580606 0.859876
0.850095 0.575158 0.859541
0.842161 0.544884 0.853178
0.12253 0.900542 0.859449
0.118334 0.894896 0.856886
0.0996872 0.868666 0.843946
0.0566567 0.823545 0.820432
0.0901503 0.830411 0.838285
0.812863 0.814923 0.896284
0.904631 0.816693 0.897978
0.903288 0.809918 0.89688
0.900145 0.795605 0.895705
0.146563 0.926543 0.864958
0.145357 0.927184 0.865202
0.145357 0.927184 0.865202
0.145357 0.927184 0.865202
0.138323 0.926223 0.868086
0.651255 0.877302 0.860822
0.900038 0.912337 0.911635
0.927703 0.914412 0.916777
0.925505 0.908186 0.916014
0.146212 0.926726 0.865003
0.145373 0.927169 0.865187
0.145357 0.927184 0.865202
0.145357 0.927184 0.865202
0.149859 0.932296 0.866911
0.161898 0.947936 0.870954
0.842466 0.927687 0.903868
0.93283 0.944213 0.93051
0.937026 0.943648 0.930816
0.148775 0.925399 0.864118
0.14551 0.927092 0.865141
0.145357 0.927184 0.865202
0.145357 0.927184 0.865202
0.146304 0.928084 0.865446
0.164843 0.949493 0.87155
0.603159 0.905074 0.857725
0.923858 0.947723 0.929259
0.943709 0.952407 0.934981
