bundles/resolve-cinematic-luts/Phantom Luts/P4k & P6k Phntm Arri LUTs - V6/P4K/Gen 5 Colour/Standard (No WB Offset)/P4k Jamaica Gen5-Legacy.cube
TITLE "Generated by Resolve"
LUT_3D_SIZE 33
0.0178836 0.0347143 0.0179446
0.0178836 0.0346838 0.0179294
0.0178531 0.034638 0.0178988
0.0287327 0.0360113 0.0188754
0.0415808 0.0381476 0.0206607
0.0540627 0.0404212 0.022385
0.0728008 0.0426795 0.0247044
0.0968185 0.0438849 0.0263981
0.126787 0.0442664 0.0271611
0.165637 0.0446021 0.0277562
0.214466 0.0448005 0.0288853
0.273991 0.0443275 0.0324102
0.343069 0.0452277 0.0374762
0.417746 0.0476844 0.0450904
0.493568 0.052491 0.0570687
0.560891 0.0614023 0.0739757
0.61735 0.0782025 0.0998093
0.656962 0.109133 0.136858
0.694118 0.144396 0.174166
0.713329 0.158999 0.189059
0.714885 0.160189 0.190723
0.715679 0.160983 0.191867
0.716304 0.161578 0.192752
0.716915 0.162295 0.1935
0.717372 0.162814 0.194095
0.717693 0.16318 0.194491
0.717952 0.16347 0.194812
0.718105 0.163668 0.195026
0.718181 0.163806 0.195148
0.718166 0.163928 0.195132
0.71809 0.164034 0.195041
0.717891 0.164141 0.194812
0.717662 0.164233 0.194522
0.0178531 0.0346532 0.0179141
0.0178683 0.0346685 0.0179141
0.0178531 0.034638 0.0178988
0.0253758 0.0358434 0.0185092
0.03682 0.0382849 0.0205234
0.0479286 0.0408026 0.0224308
0.0654002 0.0432746 0.0248112
0.0887617 0.044831 0.0266575
0.117754 0.0454719 0.0275578
0.155947 0.0456245 0.027512
0.204547 0.0460822 0.0280156
0.26305 0.046067 0.0296483
0.332204 0.0471046 0.0359045
0.406622 0.0495308 0.0432136
0.485008 0.0539254 0.0544289
0.55552 0.0631571 0.0713664
0.614633 0.0791638 0.096849
0.656641 0.110002 0.134432
0.694499 0.146395 0.173632
0.714 0.161257 0.188891
0.715251 0.161563 0.190127
0.715877 0.161868 0.190936
0.716365 0.162325 0.191714
0.716823 0.162783 0.192386
0.717144 0.163104 0.192844
0.717357 0.163333 0.193118
0.717479 0.163485 0.193286
0.717571 0.163607 0.193393
0.717601 0.163684 0.193439
0.71754 0.163775 0.193393
0.717449 0.163836 0.193286
0.717235 0.163912 0.193057
0.716991 0.164004 0.192782
0.0182803 0.0358892 0.0196078
0.0180972 0.0356909 0.0186313
0.018143 0.0357366 0.018265
0.0202945 0.0364996 0.0186313
0.0302739 0.0389715 0.0202792
0.042298 0.0416876 0.0228885
0.0575723 0.0441138 0.0252079
0.0819715 0.0459907 0.0275273
0.110933 0.0468147 0.0288396
0.148623 0.0468757 0.0289158
0.19733 0.0475013 0.0294347
0.256352 0.0476081 0.0306249
0.324849 0.0486305 0.0356603
0.396201 0.0512398 0.0424048
0.474769 0.0563516 0.0525063
0.549203 0.0647593 0.0691386
0.611505 0.0801404 0.0941329
0.65626 0.110796 0.132052
0.693568 0.147387 0.171801
0.714076 0.163104 0.188281
0.715572 0.163928 0.189807
0.716747 0.164477 0.191012
0.717556 0.164813 0.191836
0.717937 0.164981 0.192309
0.718074 0.165072 0.192599
0.718212 0.165179 0.192844
0.718303 0.16527 0.193011
0.718364 0.165331 0.193118
0.718364 0.165362 0.193164
0.718303 0.165408 0.193103
0.718166 0.165454 0.192966
0.717937 0.16553 0.192706
0.717678 0.165606 0.192401
0.0204166 0.0450904 0.027924
0.0202029 0.04477 0.0264591
0.0199283 0.0440986 0.0231937
0.0238193 0.0435492 0.0211643
0.0317388 0.0442359 0.0217136
0.0394598 0.0451972 0.0244755
0.0522621 0.0465095 0.0271
0.0752117 0.0478218 0.0285191
0.104341 0.0486458 0.0301213
0.141192 0.0486305 0.0301823
0.189792 0.0492256 0.0305638
0.248432 0.0492561 0.0315099
0.317723 0.0500649 0.0343328
0.39234 0.0523079 0.042649
0.469108 0.0579995 0.0521859
0.541176 0.067155 0.0666819
0.607385 0.081529 0.0911269
0.654307 0.110475 0.127687
0.69247 0.148211 0.16968
0.714199 0.165133 0.187701
0.715694 0.165911 0.189227
0.716762 0.166445 0.190311
0.717571 0.166796 0.191196
0.718273 0.167163 0.191928
0.718944 0.16762 0.192569
0.719356 0.167834 0.192981
0.719631 0.167987 0.193256
0.719814 0.168078 0.193423
0.719875 0.168124 0.193484
0.719783 0.16817 0.193408
0.719661 0.168215 0.193286
0.719432 0.168276 0.193011
0.719188 0.168353 0.192752
0.0230716 0.0522164 0.0354009
0.0228428 0.052018 0.0341192
0.0222324 0.0510414 0.0306096
0.0252232 0.0501411 0.0247959
0.0339666 0.0506142 0.0238041
0.0422522 0.0512093 0.0248722
0.0528573 0.0518807 0.0295109
0.0733654 0.0534524 0.0322118
0.10457 0.0550698 0.0339513
0.139437 0.0541848 0.0336156
0.185962 0.0529946 0.0330053
0.240696 0.0512856 0.0322576
0.311269 0.0515145 0.0351415
0.386954 0.0537881 0.0426337
0.46569 0.0594186 0.0522316
0.539864 0.0681163 0.0670939
0.603754 0.0835431 0.0890364
0.65304 0.11136 0.123903
0.691539 0.149645 0.167208
0.714595 0.167636 0.187335
0.715587 0.167865 0.188327
0.716472 0.168185 0.189334
0.71725 0.168536 0.190158
0.717876 0.168841 0.190784
0.718379 0.1691 0.191302
0.718746 0.169284 0.19173
0.71902 0.169421 0.192035
0.719203 0.169528 0.192233
0.719371 0.169635 0.192386
0.719402 0.169696 0.192416
0.719356 0.169772 0.19234
0.719173 0.169863 0.192111
0.718914 0.16994 0.191806
0.0244297 0.0608835 0.0398108
0.0241855 0.0608377 0.0378576
0.0239414 0.0597391 0.0361944
0.0244144 0.0585946 0.0309758
0.0335546 0.0581064 0.0266575
0.0429694 0.0590066 0.0260777
0.0541085 0.0593576 0.0278019
0.0745403 0.0597086 0.0340734
0.103304 0.0619364 0.0368658
0.143755 0.0635538 0.0387579
0.188403 0.0611887 0.0373999
0.23888 0.0580758 0.035584
0.305943 0.0550393 0.0357671
0.380331 0.0560616 0.0411383
0.460456 0.0608835 0.0519875
0.536294 0.0693675 0.0666361
0.602914 0.0849317 0.0891127
0.653162 0.112902 0.122744
0.690654 0.150912 0.164202
0.715953 0.171588 0.187366
0.717006 0.171771 0.18854
0.717662 0.171725 0.189364
0.718029 0.171603 0.189883
0.718334 0.171496 0.190326
0.718547 0.171435 0.190661
0.718791 0.171481 0.190936
0.719036 0.171588 0.191196
0.719219 0.171664 0.191394
0.719326 0.171725 0.191501
0.719341 0.171756 0.191485
0.71931 0.171817 0.191424
0.719127 0.171908 0.19118
0.718883 0.171984 0.190875
0.0247959 0.0768139 0.0460822
0.0242466 0.0771038 0.0436255
0.0242313 0.0761273 0.0410925
0.0251164 0.0745403 0.0377203
0.0291295 0.0731975 0.0323644
0.0407568 0.0732586 0.0290837
0.0519417 0.0750134 0.0273594
0.0730907 0.0741894 0.0299077
0.102022 0.0734569 0.0370031
0.143679 0.0774701 0.0406806
0.196719 0.0745861 0.0426947
0.250431 0.071809 0.0419471
0.308385 0.0666972 0.0403906
0.376471 0.0640574 0.0434577
0.452873 0.0640726 0.0502174
0.53167 0.0712596 0.0662852
0.600656 0.0866712 0.0885786
0.653208 0.114275 0.121874
0.691417 0.152316 0.164172
0.718959 0.176776 0.188952
0.719646 0.17792 0.189303
0.720302 0.178164 0.190005
0.720913 0.178225 0.190799
0.721401 0.178271 0.191409
0.721736 0.178302 0.191836
0.721996 0.178317 0.192142
0.722164 0.178332 0.192355
0.722286 0.178332 0.192508
0.722362 0.178317 0.192599
0.722408 0.178332 0.192615
0.722362 0.178332 0.192554
0.722225 0.178347 0.192386
0.722072 0.178378 0.192172
0.0246281 0.0984665 0.0532998
0.0235294 0.0991073 0.049958
0.0229648 0.0990005 0.0473487
0.024155 0.0974289 0.0437781
0.0253605 0.0959793 0.0391089
0.032639 0.0945907 0.0326085
0.0477302 0.0962844 0.030396
0.0664225 0.09691 0.0275273
0.0960708 0.0940261 0.0314031
0.13727 0.0964065 0.0391394
0.19884 0.0970016 0.044892
0.26302 0.0915694 0.0467536
0.326955 0.0850538 0.0468452
0.386572 0.0798962 0.0488746
0.450919 0.0774395 0.0541695
0.527092 0.0802319 0.0658427
0.597025 0.0894026 0.0876478
0.653346 0.116701 0.120821
0.692149 0.154253 0.163195
0.723461 0.182559 0.192172
0.724208 0.183398 0.192721
0.724422 0.183719 0.192859
0.724681 0.184054 0.193057
0.724895 0.184344 0.193179
0.724987 0.184573 0.193225
0.725078 0.184726 0.193271
0.725139 0.184833 0.193286
0.72517 0.184894 0.193301
0.7252 0.184955 0.193301
0.72517 0.18497 0.193271
0.725124 0.185 0.193194
0.725002 0.185031 0.193027
0.724849 0.185031 0.192813
0.0235752 0.126116 0.0629282
0.0221256 0.127016 0.058381
0.020676 0.127886 0.0538643
0.0208286 0.127565 0.05037
0.022385 0.125872 0.0467689
0.0241703 0.124071 0.0414893
0.0344701 0.122652 0.0331273
0.0567788 0.125566 0.0306554
0.0842908 0.124575 0.0267491
0.123369 0.119585 0.0319677
0.184176 0.127779 0.0411231
0.267384 0.121233 0.0489204
0.341817 0.113497 0.0530556
0.411246 0.107851 0.0571145
0.473716 0.104341 0.0635538
0.536309 0.104112 0.0737774
0.601892 0.110842 0.090898
0.658976 0.128298 0.123125
0.693416 0.157382 0.16144
0.728969 0.189899 0.196094
0.729747 0.190738 0.196689
0.730129 0.191241 0.196948
0.730404 0.191608 0.197147
0.730648 0.191897 0.19733
0.730816 0.192081 0.197467
0.730953 0.192233 0.197574
0.731029 0.192325 0.19762
0.73109 0.192416 0.197681
0.731106 0.192447 0.197681
0.731075 0.192447 0.197635
0.731014 0.192462 0.197543
0.730861 0.192508 0.19733
0.730709 0.192554 0.197101
0.0212253 0.161379 0.0780194
0.0197604 0.162341 0.0730449
0.0181125 0.163592 0.0671702
0.0168307 0.164752 0.0607919
0.0170443 0.164263 0.0556649
0.0188602 0.16228 0.0519417
0.0211032 0.159731 0.0445106
0.0365301 0.158907 0.033753
0.0718547 0.163638 0.0308995
0.108507 0.160967 0.0258183
0.159411 0.15256 0.0331884
0.2421 0.164889 0.0451209
0.347768 0.153475 0.0567483
0.433783 0.149111 0.0659342
0.511376 0.149081 0.0773327
0.573754 0.148119 0.0907607
0.63093 0.151553 0.108354
0.676875 0.161761 0.132006
0.715923 0.190219 0.172152
0.747372 0.215976 0.208591
0.746441 0.213062 0.208499
0.741817 0.206897 0.205158
0.738918 0.202884 0.20322
0.739162 0.203189 0.203372
0.73933 0.203418 0.203494
0.739467 0.203616 0.203601
0.739544 0.203708 0.203647
0.739574 0.203754 0.203662
0.739574 0.203769 0.203662
0.739528 0.203754 0.203601
0.739437 0.203738 0.203494
0.739315 0.203815 0.203281
0.739101 0.203815 0.203006
0.0194095 0.208545 0.0972457
0.0180514 0.209949 0.092546
0.0162509 0.210941 0.0874342
0.0143587 0.21207 0.0811322
0.0129702 0.213214 0.0733654
0.0130465 0.212711 0.0668498
0.0151064 0.21033 0.0601663
0.0185702 0.207111 0.0491798
0.0419165 0.207401 0.0350805
0.0921187 0.215991 0.0332189
0.139239 0.209018 0.0252079
0.209857 0.19765 0.0369116
0.317556 0.217655 0.0526284
0.44651 0.211872 0.0712596
0.537972 0.204761 0.0870375
0.620539 0.212696 0.111528
0.678737 0.21416 0.134432
0.724514 0.223316 0.163424
0.753506 0.240848 0.197574
0.776425 0.259281 0.226139
0.778286 0.259251 0.228809
0.774868 0.254429 0.226505
0.772137 0.25066 0.224598
0.770123 0.247868 0.223194
0.768597 0.245747 0.222156
0.767254 0.243977 0.221118
0.766171 0.242512 0.220371
0.765438 0.241459 0.219867
0.764965 0.240757 0.219562
0.764431 0.24007 0.219135
0.764233 0.239857 0.218952
0.763806 0.239445 0.218555
0.763348 0.239033 0.218097
0.0191653 0.270146 0.122393
0.0177005 0.270985 0.117998
0.016144 0.271839 0.113466
0.0144503 0.272694 0.107866
0.0126497 0.273899 0.100893
0.0108644 0.275746 0.0927138
0.0108492 0.276204 0.084123
0.0138857 0.27335 0.0728923
0.0183871 0.267247 0.0552224
0.0521706 0.271351 0.0398566
0.121126 0.285374 0.0401465
0.185657 0.27396 0.0280156
0.277699 0.261509 0.0458686
0.41384 0.292958 0.0598154
0.546975 0.289128 0.0880598
0.645426 0.285542 0.121111
0.723522 0.290608 0.156634
0.781598 0.305028 0.2009
0.810742 0.319081 0.23827
0.828779 0.331609 0.261692
0.826978 0.328252 0.261082
0.82295 0.322332 0.25861
0.819776 0.317754 0.25658
0.817868 0.314824 0.255482
0.815778 0.311955 0.254047
0.814191 0.309667 0.25304
0.81297 0.307927 0.252247
0.812055 0.306615 0.251652
0.811704 0.305974 0.251514
0.811276 0.305318 0.251255
0.810742 0.304662 0.250843
0.810254 0.304067 0.250431
0.809598 0.303365 0.249851
0.0241398 0.350271 0.155962
0.0226291 0.351095 0.151766
0.0211948 0.351797 0.147326
0.0195926 0.352407 0.142702
0.0179904 0.353719 0.137682
0.0164797 0.354894 0.130678
0.0145266 0.357168 0.120821
0.0146487 0.357504 0.10779
0.0185702 0.353689 0.0916609
0.0254978 0.34728 0.0644388
0.0750744 0.357839 0.0507515
0.164721 0.372366 0.0506142
0.247822 0.354055 0.0320439
0.357641 0.337896 0.0534371
0.501472 0.368139 0.0696727
0.642634 0.381842 0.113527
0.747997 0.38172 0.165057
0.809491 0.376791 0.210819
0.858412 0.397314 0.265888
0.88011 0.413855 0.290608
0.88014 0.412604 0.291417
0.877134 0.407599 0.289693
0.874968 0.403815 0.288563
0.873213 0.400854 0.287587
0.871489 0.398032 0.286595
0.870146 0.395789 0.285863
0.869078 0.394018 0.285267
0.868391 0.393072 0.28481
0.86804 0.392432 0.284688
0.867475 0.391546 0.284428
0.866941 0.390753 0.284199
0.866377 0.390036 0.283864
0.865614 0.389197 0.283207
0.0328832 0.438407 0.200809
0.0318761 0.43917 0.196033
0.0304265 0.439841 0.191424
0.0292821 0.44094 0.186908
0.0279545 0.44152 0.181994
0.0267338 0.442069 0.176486
0.0252689 0.443488 0.167514
0.0231937 0.446281 0.15433
0.0241855 0.447242 0.137697
0.0301671 0.444312 0.115923
0.0383917 0.438987 0.0757458
0.110185 0.451804 0.0621653
0.229145 0.46511 0.0601816
0.324636 0.438972 0.03888
0.445075 0.421805 0.0642863
0.58764 0.449592 0.0888991
0.732738 0.486168 0.149615
0.832563 0.481559 0.218204
0.880674 0.481727 0.2654
0.909789 0.480125 0.303151
0.917525 0.492119 0.309255
0.915724 0.487327 0.308446
0.914382 0.483879 0.307836
0.913054 0.480674 0.307179
0.911971 0.47805 0.306676
0.911055 0.476127 0.306127
0.910582 0.474998 0.305898
0.910063 0.473716 0.305699
0.909712 0.472724 0.305638
0.909239 0.471809 0.30544
0.908797 0.471031 0.305257
0.908385 0.470649 0.304891
0.907805 0.470344 0.304372
0.046891 0.533593 0.258793
0.0464332 0.534157 0.254093
0.0459602 0.535286 0.249592
0.0455634 0.535515 0.244587
0.0451514 0.535821 0.239963
0.0449683 0.536248 0.234745
0.0445563 0.537026 0.227832
0.0440528 0.539712 0.216358
0.0432136 0.543328 0.19855
0.0458381 0.543496 0.175891
0.049836 0.538888 0.146532
0.0644694 0.536065 0.0969558
0.167071 0.554025 0.0827955
0.322881 0.55993 0.0773022
0.418479 0.532158 0.0566262
0.538643 0.514809 0.0854963
0.677028 0.539162 0.127001
0.821683 0.602625 0.214328
0.900511 0.589456 0.279759
0.934569 0.585046 0.314656
0.947234 0.589441 0.328679
0.94667 0.586801 0.328145
0.945876 0.583978 0.327398
0.945296 0.581598 0.326879
0.94493 0.579797 0.326589
0.944869 0.57908 0.326558
0.944396 0.577691 0.326101
0.94406 0.576486 0.325826
0.94374 0.575265 0.325551
0.943481 0.574334 0.325353
0.943297 0.573632 0.325231
0.942992 0.573602 0.324926
0.942275 0.572702 0.324208
0.0699626 0.630976 0.330297
0.0698253 0.631769 0.326482
0.0693828 0.631891 0.322011
0.0691997 0.631907 0.31725
0.0690471 0.631907 0.312718
0.0691234 0.631937 0.307897
0.0695811 0.632822 0.302464
0.0704204 0.633875 0.293782
0.0718395 0.63595 0.278874
0.0735637 0.638331 0.256382
0.0768292 0.636896 0.227115
0.0827192 0.630793 0.186954
0.126009 0.634302 0.13254
0.264332 0.659129 0.120241
0.428183 0.654673 0.107362
0.520073 0.624811 0.0882887
0.629664 0.608942 0.128023
0.771572 0.637552 0.192706
0.900328 0.707759 0.30071
0.964782 0.707805 0.357427
0.971481 0.690517 0.36112
0.971069 0.692592 0.360891
0.970596 0.690013 0.359976
0.970184 0.688487 0.359304
0.969696 0.68658 0.358495
0.969451 0.685054 0.358007
0.969329 0.683833 0.357687
0.96907 0.682567 0.357229
0.968826 0.681407 0.356771
0.968765 0.681361 0.356634
0.968551 0.680507 0.356237
0.968093 0.679835 0.355612
0.96733 0.678965 0.354711
0.114382 0.723507 0.412009
0.11429 0.723751 0.408789
0.114137 0.723796 0.404944
0.113985 0.723644 0.401221
0.113863 0.723445 0.397162
0.114366 0.723934 0.393469
0.114687 0.723903 0.388296
0.115541 0.724193 0.380896
0.117525 0.725292 0.369574
0.121218 0.727169 0.3505
0.125795 0.728374 0.32517
0.130755 0.72517 0.291279
0.143175 0.718151 0.237217
0.223713 0.735302 0.189502
0.393027 0.758129 0.177722
0.543481 0.748226 0.165179
0.624491 0.718837 0.154864
0.719417 0.705165 0.195621
0.859541 0.736156 0.282078
0.959808 0.798901 0.384649
1 0.817716 0.464973
1 0.8159 0.474067
1 0.815732 0.475151
1 0.81442 0.474296
1 0.81236 0.471885
1 0.810697 0.469932
1 0.809415 0.468467
1 0.80795 0.466865
1 0.807675 0.46656
1 0.806592 0.46537
1 0.80557 0.464332
1 0.8047 0.463203
1 0.803525 0.461418
0.193729 0.812116 0.501961
0.193668 0.812085 0.499397
0.193423 0.811856 0.496513
0.193332 0.811765 0.493614
0.193668 0.812024 0.490898
0.193362 0.811673 0.487556
0.193332 0.811521 0.48336
0.193729 0.811627 0.477562
0.195407 0.81265 0.469688
0.198428 0.814191 0.456672
0.20444 0.816678 0.435752
0.208362 0.814466 0.404517
0.213993 0.809293 0.364675
0.240955 0.803189 0.297765
0.365789 0.839689 0.26775
0.541024 0.853529 0.258137
0.66389 0.844007 0.258564
0.727291 0.817243 0.255344
0.806973 0.80235 0.286351
0.919768 0.822187 0.366491
0.98088 0.864652 0.431495
0.994095 0.863432 0.444099
0.996384 0.864958 0.448417
0.99646 0.864195 0.448417
0.996521 0.863355 0.44831
0.996551 0.862638 0.448203
0.996551 0.862272 0.448127
0.996628 0.861799 0.448081
0.996796 0.861402 0.448157
0.997009 0.861067 0.448173
0.997208 0.860761 0.448157
0.997406 0.860471 0.448066
0.997497 0.860319 0.44799
0.288838 0.893889 0.593683
0.288685 0.893767 0.591562
0.288457 0.893568 0.588968
0.288731 0.893767 0.587121
0.288426 0.893507 0.584436
0.288045 0.893172 0.581842
0.287663 0.892821 0.578302
0.287648 0.89276 0.573922
0.288975 0.893736 0.568368
0.290761 0.89482 0.558495
0.294072 0.896269 0.542519
0.297841 0.896422 0.518837
0.301213 0.893233 0.484932
0.310628 0.887938 0.436591
0.380926 0.904005 0.381384
0.533181 0.935973 0.361486
0.683497 0.930053 0.35111
0.772442 0.921721 0.361532
0.824659 0.902113 0.36466
0.888426 0.886992 0.385809
0.967376 0.90695 0.443641
1 0.939193 0.482506
1 0.945434 0.492515
1 0.944564 0.491905
1 0.943832 0.491325
1 0.94345 0.49102
1 0.943069 0.490776
1 0.942321 0.490257
1 0.941726 0.48983
1 0.941146 0.489311
1 0.940612 0.488792
1 0.940551 0.488502
1 0.940078 0.488029
0.370153 0.956832 0.673472
0.369436 0.956405 0.670985
0.368597 0.955932 0.66836
0.368338 0.95584 0.666239
0.368093 0.955749 0.664164
0.367834 0.955581 0.661891
0.367544 0.955383 0.659297
0.367834 0.955612 0.655955
0.368078 0.955688 0.650828
0.36907 0.956268 0.642786
0.371298 0.957443 0.630488
0.373754 0.958038 0.612741
0.375738 0.95671 0.586282
0.380499 0.954177 0.550225
0.407675 0.954803 0.49308
0.523537 0.988327 0.456779
0.668254 0.998932 0.431556
0.784558 0.980789 0.419501
0.854307 0.972473 0.430961
0.908782 0.961212 0.444373
0.954086 0.952071 0.461585
1 0.973678 0.505272
1 0.986725 0.526711
1 0.987533 0.529686
1 0.987503 0.529686
1 0.987396 0.529503
1 0.987091 0.529198
1 0.986725 0.528801
1 0.986435 0.528435
1 0.986282 0.528099
1 0.986221 0.527825
1 0.985977 0.527245
1 0.985733 0.526558
0.405859 0.984421 0.712489
0.403922 0.983429 0.709148
0.402823 0.982971 0.706325
0.402853 0.983108 0.704768
0.402884 0.983246 0.702998
0.402914 0.983322 0.701167
0.402914 0.983368 0.699123
0.40293 0.983429 0.695964
0.402991 0.983505 0.691279
0.403677 0.983902 0.684657
0.405325 0.984741 0.676173
0.408087 0.986007 0.66363
0.414206 0.989395 0.648005
0.421637 0.992142 0.625406
0.434516 0.993881 0.587915
0.505608 0.998932 0.546715
0.628702 0.998932 0.503166
0.753597 0.998932 0.463279
0.837278 0.995346 0.449332
0.904067 0.988434 0.463569
0.963104 0.987854 0.488823
0.994781 0.986877 0.510964
1 0.99794 0.542229
1 0.998932 0.553307
1 0.998932 0.552346
1 0.998932 0.551858
1 0.998932 0.551751
1 0.998932 0.551644
1 0.998932 0.551751
1 0.998932 0.55169
1 0.998932 0.551492
1 0.99881 0.551247
1 0.998566 0.550988
0.405966 0.984207 0.717281
0.403967 0.983169 0.713909
0.402823 0.982712 0.711177
0.402869 0.982879 0.709575
0.402869 0.982986 0.707881
0.402838 0.983047 0.706157
0.402853 0.983108 0.704067
0.402838 0.983169 0.700969
0.402823 0.983246 0.69659
0.403052 0.983459 0.689723
0.404288 0.984131 0.680888
0.406592 0.985153 0.668498
0.411597 0.987839 0.652354
0.419883 0.991867 0.632654
0.432502 0.996826 0.608789
0.483131 0.998932 0.573083
0.594583 0.998932 0.530785
0.721889 0.998932 0.495613
0.816785 0.998932 0.466316
0.892302 0.995407 0.472541
0.955581 0.991562 0.493294
0.986465 0.98909 0.512505
1 0.996796 0.543496
1 0.998932 0.565652
1 0.998932 0.568124
1 0.998932 0.567132
1 0.998932 0.566278
1 0.998932 0.565713
1 0.998932 0.56524
1 0.998932 0.564752
1 0.998932 0.564477
1 0.998932 0.56434
1 0.998932 0.56437
0.405493 0.983658 0.72018
0.403616 0.982727 0.716991
0.402594 0.982361 0.714504
0.402853 0.982712 0.712978
0.402914 0.982895 0.711421
0.402975 0.983032 0.70985
0.402869 0.983032 0.707851
0.402853 0.983093 0.704906
0.402823 0.983185 0.700511
0.40293 0.983337 0.694209
0.403693 0.983825 0.685054
0.405478 0.984695 0.672663
0.409537 0.986618 0.656229
0.417685 0.990692 0.636118
0.429816 0.995727 0.612818
0.470817 0.998932 0.580056
0.571786 0.998932 0.538537
0.702022 0.998932 0.501976
0.802869 0.998932 0.469352
0.878843 0.996475 0.469139
0.944411 0.991699 0.488441
0.979004 0.989731 0.507103
1 0.995163 0.534203
1 0.998932 0.557778
1 0.998932 0.566033
1 0.998932 0.567193
1 0.998932 0.567483
1 0.998932 0.567666
1 0.998932 0.567742
1 0.998932 0.567346
1 0.998932 0.567086
1 0.998932 0.566995
1 0.998932 0.567041
0.40528 0.98349 0.722133
0.403479 0.982574 0.719219
0.402564 0.982238 0.716854
0.402564 0.982376 0.715343
0.402808 0.982696 0.713893
0.402884 0.982834 0.712505
0.402991 0.983032 0.710552
0.402884 0.983032 0.70782
0.402838 0.983124 0.7037
0.402853 0.983246 0.697658
0.403403 0.983688 0.688533
0.404852 0.984405 0.676097
0.408118 0.985824 0.65951
0.415213 0.989242 0.639109
0.427176 0.994461 0.61593
0.461616 0.998932 0.585412
0.551949 0.998932 0.544533
0.682689 0.998932 0.506203
0.789441 0.998932 0.472084
0.868208 0.997711 0.467124
0.93492 0.991989 0.484855
0.973342 0.989914 0.503578
1 0.993652 0.527504
1 0.998917 0.551949
1 0.998932 0.564065
1 0.998932 0.566155
1 0.998932 0.566491
1 0.998932 0.56669
1 0.998932 0.566735
1 0.998932 0.566659
1 0.998932 0.566461
1 0.998932 0.566476
1 0.998932 0.566583
0.40557 0.983658 0.723842
0.403769 0.982712 0.720882
0.402731 0.982254 0.718654
0.402564 0.982284 0.717159
0.402594 0.982437 0.715648
0.402808 0.982696 0.714214
0.402884 0.982849 0.712535
0.402914 0.982986 0.709957
0.402853 0.983078 0.705898
0.402838 0.9832 0.700145
0.403235 0.983581 0.691203
0.404562 0.984314 0.678996
0.406897 0.985122 0.662104
0.413367 0.988174 0.641627
0.424674 0.993118 0.618402
0.455344 0.998932 0.589303
0.537392 0.998932 0.549828
0.66772 0.998932 0.510323
0.778561 0.998932 0.474388
0.859373 0.99881 0.46566
0.92665 0.992294 0.481773
0.9691 0.99025 0.501167
0.997894 0.992203 0.522606
1 0.998138 0.547906
1 0.998932 0.562493
1 0.998932 0.565682
1 0.998932 0.565972
1 0.998932 0.566155
1 0.998932 0.566217
1 0.998932 0.566186
1 0.998932 0.565988
1 0.998932 0.566018
1 0.998932 0.566079
0.407752 0.985046 0.72723
0.406241 0.984009 0.724239
0.404166 0.982925 0.721141
0.403098 0.982467 0.718853
0.402625 0.982376 0.716976
0.402548 0.982437 0.715541
0.402853 0.982757 0.713909
0.402914 0.98294 0.711299
0.402899 0.983063 0.70753
0.402808 0.983139 0.702022
0.403174 0.98352 0.693401
0.404364 0.984222 0.68127
0.406439 0.985 0.664393
0.412116 0.987503 0.643839
0.422919 0.992248 0.620569
0.449836 0.998932 0.590738
0.525795 0.998932 0.552041
0.654749 0.998932 0.511269
0.769436 0.998932 0.476249
0.852201 0.998932 0.464881
0.920027 0.992721 0.479515
0.965438 0.990616 0.499199
0.994583 0.991363 0.519554
1 0.997314 0.544732
1 0.998932 0.561151
1 0.998932 0.565393
1 0.998932 0.565652
1 0.998932 0.565789
1 0.998932 0.56585
1 0.998932 0.56582
1 0.998932 0.565621
1 0.998932 0.565652
1 0.998932 0.565698
0.408301 0.985443 0.72874
0.407065 0.984527 0.726055
0.405112 0.983429 0.722988
0.403754 0.982757 0.720226
0.402777 0.982376 0.718135
0.402609 0.982422 0.716396
0.402747 0.982635 0.714778
0.402899 0.982879 0.712352
0.402914 0.983032 0.70869
0.402853 0.983139 0.703182
0.403082 0.983444 0.694804
0.404257 0.984176 0.682795
0.406271 0.98497 0.66601
0.411688 0.98735 0.645655
0.422049 0.991882 0.62211
0.446952 0.998932 0.592264
0.517906 0.998932 0.552804
0.645151 0.998932 0.512047
0.762737 0.998932 0.477195
0.847868 0.998932 0.464576
0.915328 0.993103 0.478004
0.963088 0.990951 0.497963
0.992233 0.991135 0.517494
1 0.996674 0.542336
1 0.998932 0.560143
1 0.998932 0.565148
1 0.998932 0.565469
1 0.998932 0.565621
1 0.998932 0.565652
1 0.998932 0.565606
1 0.998932 0.565408
1 0.998932 0.565408
1 0.998932 0.565713
0.409232 0.986313 0.73077
0.407446 0.984741 0.727749
0.405478 0.983368 0.724453
0.404242 0.982773 0.722072
0.403128 0.982254 0.719615
0.402731 0.982162 0.717861
0.402548 0.982193 0.715877
0.402716 0.982452 0.713527
0.402747 0.982635 0.709865
