bundles/resolve-cinematic-luts/Phantom Luts/P4k & P6k Phntm Arri LUTs - V6/P4K/Gen 5 Colour/Standard (No WB Offset)/P4k Tungsten Gen5-Legacy.cube
TITLE "Generated by Resolve"
LUT_3D_SIZE 9
0.0170748 0.0174258 0.0240024
0.032517 0.0200656 0.0255131
0.111772 0.0341497 0.0381933
0.33257 0.0398108 0.0641031
0.654856 0.0795148 0.138689
0.796185 0.147936 0.218311
0.799039 0.150637 0.221775
0.8 0.151614 0.222812
0.80177 0.152712 0.225589
0.0259709 0.0420386 0.0424811
0.0288853 0.0397955 0.0335546
0.0932326 0.0482032 0.0415351
0.30106 0.0469673 0.0558785
0.633356 0.0858167 0.126925
0.79733 0.154269 0.214679
0.800351 0.155627 0.217746
0.801205 0.156039 0.218677
0.802792 0.156924 0.221149
0.036759 0.11577 0.0745403
0.0342565 0.11783 0.0645151
0.0834211 0.119829 0.0420386
0.337118 0.117205 0.0679026
0.624994 0.116152 0.123812
0.810498 0.17702 0.217639
0.811215 0.177951 0.218036
0.811399 0.17821 0.218128
0.813046 0.179751 0.219883
0.0159609 0.290883 0.134676
0.0108492 0.293645 0.123293
0.00680552 0.292531 0.0786145
0.241321 0.307836 0.0053254
0.761898 0.373648 0.157336
0.934157 0.392905 0.271672
0.927596 0.376745 0.268879
0.926894 0.375158 0.268498
0.933242 0.390677 0.271336
0 0.565026 0.27335
0 0.567391 0.266346
0 0.567788 0.239033
0 0.553903 0.0814221
0.57322 0.606531 0.0279698
0.99118 0.765347 0.394629
0.991379 0.763119 0.397742
0.990112 0.764202 0.390082
0.988266 0.770443 0.376761
0.104952 0.80531 0.464591
0.104326 0.804715 0.460746
0.101915 0.802136 0.446784
0.100389 0.791547 0.378744
0.349798 0.792218 0.17499
0.904707 0.864607 0.322087
0.979797 0.8907 0.42385
0.979797 0.8907 0.423804
0.979599 0.890791 0.427024
0.108324 0.80853 0.483864
0.107439 0.807736 0.478859
0.105089 0.805524 0.464988
0.0992599 0.793256 0.393484
0.29778 0.792401 0.196292
0.875059 0.860029 0.311757
0.978882 0.891752 0.4336
0.978744 0.891905 0.43473
0.978683 0.892058 0.435126
0.109285 0.809354 0.489204
0.10811 0.808286 0.482918
0.10547 0.805814 0.467689
0.0992447 0.792859 0.39173
0.308873 0.791943 0.193591
0.877165 0.860517 0.312627
0.979095 0.89134 0.432456
0.978958 0.891493 0.433433
0.978683 0.892103 0.434607
0.110185 0.810178 0.493751
0.108492 0.808698 0.484642
0.104921 0.80528 0.464179
0.101472 0.790753 0.371557
0.402853 0.794339 0.187213
0.90782 0.866392 0.335485
0.979049 0.891432 0.432761
0.978927 0.8916 0.433585
0.978668 0.892149 0.434623
0.0162203 0.0215305 0.0416876
0.0324712 0.0202487 0.0428168
0.102129 0.0299382 0.0585031
0.350698 0.043122 0.0958572
0.685832 0.0937972 0.170779
0.807004 0.156573 0.235233
0.811521 0.161166 0.240375
0.812818 0.162463 0.241871
0.81413 0.163409 0.243824
0.0238499 0.0368811 0.0430762
0.023209 0.0351873 0.0420996
0.100603 0.0398108 0.0462348
0.324681 0.0405432 0.0651255
0.652064 0.0793164 0.139178
0.797696 0.14905 0.220279
0.800259 0.151476 0.223407
0.801175 0.152407 0.224384
0.802289 0.15314 0.226093
0.0382239 0.108675 0.087541
0.0368811 0.109194 0.0781262
0.0752422 0.114595 0.0436408
0.33724 0.106477 0.0679026
0.627359 0.104738 0.126787
0.803998 0.168231 0.214893
0.805386 0.168521 0.21648
0.806073 0.168612 0.21738
0.807675 0.170489 0.218845
0.0207065 0.286549 0.151919
0.0170596 0.288258 0.140261
0.00732433 0.290303 0.0972763
0.239277 0.305165 0.0068513
0.763943 0.365881 0.159548
0.930419 0.383719 0.270008
0.923659 0.367437 0.267201
0.92314 0.366201 0.267018
0.9299 0.382269 0.270054
0 0.564553 0.286412
0 0.567132 0.27985
0 0.567514 0.254368
0 0.554818 0.094377
0.573205 0.606149 0.028687
0.990539 0.763653 0.391043
0.98999 0.759167 0.387854
0.988891 0.7608 0.382055
0.987335 0.768215 0.373037
0.106325 0.806653 0.472663
0.105821 0.806256 0.46891
0.10338 0.803723 0.455177
0.099855 0.792309 0.385412
0.346654 0.792126 0.175555
0.904326 0.864576 0.322087
0.979736 0.890776 0.424659
0.979751 0.890745 0.424353
0.9794 0.891096 0.428504
0.109789 0.809796 0.491798
0.108827 0.808972 0.48687
0.106462 0.806867 0.473106
0.0995041 0.794629 0.401282
0.290913 0.792325 0.19733
0.873747 0.859922 0.311131
0.978775 0.891814 0.434546
0.978698 0.891966 0.435523
0.978607 0.892119 0.435904
0.110948 0.810758 0.497444
0.109636 0.809628 0.491173
0.106752 0.807034 0.47538
0.0995193 0.794247 0.399451
0.301274 0.791974 0.194675
0.876219 0.860746 0.311849
0.979004 0.891417 0.433188
0.978897 0.891569 0.434333
0.978637 0.892164 0.435447
0.111833 0.81149 0.501686
0.109911 0.809888 0.4925
0.10631 0.806668 0.472602
0.101122 0.791806 0.379141
0.394186 0.793912 0.186923
0.906279 0.866468 0.334127
0.978943 0.891524 0.433646
0.978851 0.891661 0.434485
0.978622 0.892226 0.435492
0.00822461 0.0260929 0.107774
0.0346532 0.0258183 0.110338
0.10547 0.030518 0.108232
0.345388 0.0242771 0.147921
0.696437 0.0931411 0.209384
0.83328 0.177996 0.277592
0.833967 0.177554 0.280293
0.834531 0.177966 0.281239
0.835996 0.178485 0.284642
0.0146639 0.0394751 0.0894484
0.0104067 0.0291905 0.0984054
0.0915541 0.0299077 0.10193
0.335225 0.0281987 0.129519
0.702968 0.103212 0.19968
0.820813 0.1691 0.254994
0.825452 0.173663 0.260853
0.826719 0.174975 0.262287
0.828717 0.176532 0.265629
0.0360571 0.103456 0.10605
0.0354009 0.102373 0.106142
0.0801404 0.101106 0.107347
0.330648 0.0889296 0.104067
0.649348 0.0813458 0.13933
0.797925 0.149676 0.219867
0.800168 0.151812 0.222644
0.801083 0.152758 0.22359
0.802365 0.153643 0.225498
0.0277256 0.278172 0.186206
0.0256657 0.279133 0.177356
0.0215457 0.277989 0.145006
0.235676 0.299535 0.0182345
0.770687 0.34435 0.167788
0.920729 0.360784 0.266026
0.912993 0.343893 0.262974
0.912444 0.342977 0.262654
0.920546 0.35993 0.266407
0 0.562081 0.31043
0 0.565606 0.305425
0 0.565606 0.283589
0 0.554604 0.124956
0.571283 0.603311 0.0292058
0.98883 0.755093 0.37879
0.987793 0.749722 0.372564
0.986831 0.751431 0.369635
0.985718 0.761608 0.369085
0.108827 0.808896 0.487175
0.108385 0.808621 0.484031
0.10634 0.806775 0.471992
0.0994888 0.794781 0.402014
0.330449 0.791653 0.176684
0.901671 0.86363 0.319707
0.979629 0.890883 0.426032
0.97966 0.890852 0.425559
0.979202 0.891295 0.430869
0.112932 0.812329 0.506905
0.112001 0.811597 0.502632
0.109239 0.809339 0.48896
0.100374 0.797818 0.419074
0.267765 0.79205 0.201923
0.868711 0.859586 0.308537
0.978637 0.891951 0.436332
0.9785 0.892103 0.437491
0.978408 0.892271 0.438087
0.114488 0.813535 0.51368
0.113359 0.81268 0.508904
0.109987 0.809873 0.493172
0.100221 0.797604 0.418265
0.275929 0.791653 0.199176
0.870817 0.860197 0.308568
0.978882 0.891554 0.434791
0.978714 0.891722 0.436332
0.978424 0.892317 0.437598
0.116777 0.815229 0.522438
0.114717 0.813733 0.514549
0.110323 0.810193 0.494789
0.0999619 0.794858 0.401572
0.36643 0.792966 0.188113
0.900496 0.865827 0.329625
0.978729 0.891707 0.436072
0.978637 0.891844 0.43682
0.978378 0.892424 0.437903
0.00614939 0.0382544 0.284794
0.0293431 0.0387732 0.284901
0.110323 0.0382849 0.296483
0.316228 0.0395361 0.27364
0.657679 0.0396124 0.327626
0.79089 0.0978866 0.343801
0.793423 0.100282 0.346426
0.794278 0.101198 0.346624
0.791943 0.0976425 0.352239
0 0.0445106 0.277989
0.00321965 0.0375525 0.278828
0.0791638 0.0385138 0.291691
0.308141 0.0395514 0.267384
0.655009 0.0388342 0.31751
0.797925 0.107591 0.334539
0.79762 0.106691 0.336706
0.797909 0.106874 0.337179
0.794644 0.102052 0.342168
0 0.0921492 0.250553
0 0.080766 0.259983
0.0149386 0.0613413 0.285344
0.293584 0.046952 0.255924
0.647334 0.0409247 0.286793
0.819272 0.137438 0.320577
0.819638 0.13724 0.322484
0.819562 0.136889 0.323232
0.818311 0.133486 0.328435
0.0327459 0.275471 0.263767
0.0321355 0.276631 0.265309
0.0333104 0.273823 0.262119
0.287205 0.295949 0.293385
0.741634 0.289021 0.285267
0.891783 0.267781 0.292622
0.878294 0.249226 0.282536
0.876387 0.246464 0.281315
0.887877 0.261555 0.290883
0 0.561181 0.400046
0 0.56492 0.398886
0 0.564355 0.384222
0 0.54548 0.267613
0.561074 0.589578 0.070573
0.98439 0.709575 0.34757
0.983154 0.703182 0.342046
0.983948 0.706477 0.348257
0.985565 0.726574 0.378439
0.117449 0.814649 0.533349
0.11754 0.814847 0.532967
0.114916 0.81294 0.523705
0.102098 0.801785 0.46453
0.23035 0.789853 0.207446
0.887785 0.860197 0.306279
0.979583 0.890562 0.427802
0.979553 0.890547 0.428214
0.979034 0.891325 0.433707
0.12752 0.822431 0.558007
0.127047 0.822156 0.556497
0.123552 0.819883 0.545678
0.10927 0.809171 0.486961
0.174014 0.790219 0.253452
0.837369 0.854154 0.29398
0.97821 0.892348 0.441611
0.978027 0.892546 0.443976
0.977935 0.892744 0.444739
0.131182 0.824811 0.56875
0.130251 0.824247 0.565927
0.126024 0.8215 0.553506
0.109926 0.809598 0.490028
0.177172 0.790097 0.25156
0.832349 0.852644 0.290364
0.978851 0.891508 0.435355
0.978195 0.892119 0.443137
0.977951 0.892729 0.444572
0.139345 0.829923 0.590723
0.137331 0.828687 0.585489
0.131319 0.824918 0.569146
0.110338 0.809796 0.490059
0.231662 0.792752 0.229084
0.861982 0.85864 0.308858
0.978531 0.891875 0.438376
0.978058 0.892378 0.44448
0.977844 0.892912 0.445319
0.0246738 0.0721599 0.541085
0.0469825 0.0728771 0.546639
0.10486 0.0732128 0.562661
0.335546 0.0598001 0.574563
0.629007 0.0593271 0.538323
0.838437 0.158251 0.555962
0.835065 0.153506 0.555886
0.834363 0.152285 0.555032
0.837339 0.158297 0.566537
0 0.0683909 0.528511
0.0200198 0.0710155 0.537026
0.0789502 0.0730449 0.555077
0.321263 0.0601511 0.576989
0.626154 0.0596933 0.536553
0.841337 0.16202 0.553109
0.837537 0.156298 0.55285
0.836439 0.15465 0.552193
0.841337 0.163684 0.565805
0 0.0778515 0.513573
0 0.0704967 0.515846
0.0183261 0.0693217 0.531823
0.283467 0.0610361 0.577096
0.617914 0.0610666 0.530953
0.835721 0.151705 0.53875
0.8365 0.153079 0.540475
0.836973 0.153826 0.541253
0.844465 0.1664 0.5561
0 0.297795 0.542779
0 0.294957 0.54995
0 0.281971 0.558648
0.169955 0.223331 0.619364
0.646754 0.144213 0.562264
0.816007 0.121233 0.495811
0.800763 0.104952 0.480079
0.798825 0.102922 0.479011
0.815854 0.121981 0.50103
0.0374151 0.5841 0.5552
0.0384985 0.588785 0.560616
0.0394751 0.59147 0.5626
0.0406195 0.583246 0.553735
0.596201 0.603555 0.586877
1 0.643503 0.608148
1 0.637232 0.603128
1 0.640543 0.606867
1 0.657679 0.62443
0.16112 0.829282 0.670558
0.165682 0.833448 0.676753
0.166384 0.834958 0.676585
0.149004 0.824186 0.642451
0.234897 0.798733 0.490562
0.867597 0.860792 0.435782
0.982162 0.885939 0.526375
0.982071 0.886671 0.529595
0.979782 0.893217 0.546487
0.197162 0.863325 0.709697
0.199908 0.864942 0.714641
0.197513 0.863645 0.710582
0.175204 0.85098 0.670268
0.16669 0.826139 0.506035
0.737408 0.842191 0.390661
0.972183 0.896544 0.501976
0.972671 0.901549 0.535103
0.972641 0.903197 0.544381
0.208331 0.869581 0.728817
0.209689 0.87039 0.730999
0.206561 0.86862 0.725078
0.181201 0.854368 0.6813
0.166812 0.826642 0.511803
0.721218 0.839414 0.390112
0.970626 0.892973 0.479164
0.972763 0.901015 0.532448
0.972442 0.902556 0.539422
0.23743 0.885405 0.767803
0.23714 0.885237 0.767163
0.23003 0.881392 0.757961
0.195865 0.862577 0.705196
0.238575 0.829404 0.535866
0.767315 0.855222 0.447105
0.969741 0.89543 0.498604
0.972747 0.903502 0.546624
0.972396 0.90367 0.545434
0.107866 0.163256 0.731182
0.121889 0.163394 0.738689
0.158801 0.164401 0.757992
0.322255 0.162585 0.821698
0.634134 0.144594 0.816114
0.772519 0.166583 0.791043
0.773236 0.168414 0.794247
0.772946 0.167544 0.792676
0.77351 0.169848 0.797101
0.0893263 0.161105 0.719432
0.103883 0.162051 0.728069
0.139651 0.163394 0.747677
0.308553 0.163699 0.818311
0.628229 0.143893 0.816464
0.772381 0.164935 0.787564
0.774472 0.170459 0.79707
0.774456 0.170504 0.797223
0.774594 0.171145 0.798459
0.0517891 0.154589 0.693629
0.0661021 0.156985 0.703487
0.09897 0.15938 0.723293
0.274632 0.164248 0.807019
0.61297 0.142107 0.817044
0.773144 0.162539 0.78085
0.774655 0.168444 0.792233
0.775402 0.170336 0.795438
0.775692 0.171572 0.797833
0 0.205081 0.661662
0 0.198474 0.659449
0 0.178149 0.653849
0.122591 0.158968 0.73431
0.553201 0.140337 0.820615
0.779019 0.157595 0.759579
0.780133 0.16025 0.764279
0.780835 0.162219 0.767987
0.781704 0.16672 0.777539
0.124514 0.646296 0.809598
0.127855 0.650263 0.813794
0.131106 0.651865 0.819272
0.134966 0.640894 0.834226
0.576532 0.656489 1
0.968017 0.527596 0.915908
0.967865 0.514916 0.907897
0.968368 0.52015 0.910246
0.969329 0.543694 0.921675
0.24535 0.863172 0.831144
0.252888 0.869322 0.838163
0.258274 0.873762 0.842573
0.2589 0.872465 0.840482
0.43389 0.882963 0.853437
0.888548 0.893797 0.882551
0.990356 0.911345 0.893782
0.990127 0.911833 0.894743
0.989364 0.920836 0.904723
0.361501 0.944839 0.898573
0.364492 0.946212 0.901823
0.364401 0.946166 0.901671
0.353567 0.941115 0.889815
0.405249 0.929 0.855116
0.773602 0.944732 0.870451
0.986755 0.962081 0.834379
0.991623 0.96463 0.841627
0.992065 0.966735 0.852491
0.375082 0.950301 0.910369
0.37705 0.951263 0.91223
0.375311 0.95053 0.910842
0.360586 0.943938 0.895918
0.405081 0.929488 0.856214
0.763409 0.942596 0.86804
0.979858 0.964935 0.852079
0.990875 0.962356 0.829343
0.991043 0.964065 0.836927
0.400229 0.959838 0.930129
0.400092 0.959884 0.930236
0.395804 0.958251 0.927077
0.37734 0.950042 0.908415
0.470344 0.937255 0.879499
0.808774 0.95523 0.897871
0.982651 0.970047 0.874311
0.991608 0.964981 0.842573
0.991211 0.964569 0.839536
0.141604 0.178378 0.760113
0.156024 0.17969 0.768475
0.190188 0.181903 0.786831
0.344854 0.180728 0.845609
0.654612 0.162829 0.838514
0.775509 0.171801 0.798611
0.774807 0.170977 0.797757
0.774594 0.170581 0.797162
0.774655 0.171069 0.798199
0.123796 0.176699 0.749538
0.138186 0.178225 0.758267
0.17229 0.180667 0.777279
0.330449 0.181857 0.842206
0.648142 0.162905 0.840345
0.776074 0.172519 0.79942
0.775723 0.172045 0.798871
0.77554 0.171878 0.798733
0.77554 0.172335 0.799786
0.0866102 0.172671 0.726192
0.10103 0.174411 0.735546
0.134722 0.177996 0.756298
0.299077 0.183307 0.832929
0.631342 0.162951 0.844388
0.777325 0.173816 0.800565
0.777447 0.173831 0.800443
0.777356 0.173785 0.800443
0.777478 0.174441 0.801785
0.00920119 0.204257 0.687922
0.00703441 0.197147 0.68365
0.00343328 0.17641 0.672419
0.15848 0.179767 0.769772
0.558251 0.162737 0.854734
0.782132 0.180087 0.80763
0.783322 0.181186 0.808438
0.783612 0.181582 0.808957
0.784268 0.18294 0.810956
0.15378 0.655314 0.86302
0.155428 0.659175 0.864057
0.155413 0.658976 0.864118
0.146761 0.638697 0.859571
0.566598 0.645731 1
0.959472 0.508461 0.982055
0.960128 0.496513 0.978668
0.960983 0.502159 0.979431
0.963912 0.526558 0.983093
0.383185 0.924758 0.977142
0.390555 0.929992 0.979644
0.396612 0.933639 0.981201
0.397253 0.931472 0.98262
0.570687 0.953597 1
0.874113 0.904784 1
0.977661 0.866514 0.981079
0.977981 0.867109 0.980255
0.978088 0.879332 0.981231
0.491981 0.981125 0.973724
0.49279 0.981704 0.974945
0.492058 0.981674 0.974868
0.491066 0.981125 0.973602
0.541878 0.978408 0.967941
0.852125 0.983963 0.979141
0.987167 0.987686 0.985336
0.991058 0.986893 0.98471
0.991073 0.987213 0.986618
0.496437 0.981842 0.975189
0.496422 0.982208 0.975952
0.496406 0.982238 0.976013
0.496376 0.981903 0.975235
0.533745 0.976638 0.964294
0.856306 0.985046 0.981598
0.977508 0.989227 0.987198
0.991089 0.988602 0.980682
0.990875 0.989212 0.982849
0.496452 0.981735 0.974975
0.496422 0.982208 0.975952
0.496406 0.982238 0.976013
0.500572 0.982315 0.976165
0.57847 0.979049 0.969726
0.879011 0.986145 0.984085
0.979751 0.989548 0.98854
0.990845 0.989319 0.983093
0.99089 0.989151 0.982238
0.14757 0.178927 0.763592
0.162737 0.180102 0.772152
0.196078 0.182193 0.789746
0.349157 0.180453 0.846632
0.657694 0.162814 0.837659
0.773449 0.169314 0.795972
0.775357 0.171603 0.798398
0.77496 0.171084 0.797803
0.774945 0.171496 0.798764
0.130495 0.177417 0.753597
0.143954 0.178576 0.761517
0.178134 0.181018 0.780392
0.335027 0.18143 0.843305
0.651469 0.162966 0.839551
0.774243 0.170306 0.797055
0.77615 0.172656 0.799619
0.775937 0.172396 0.799329
0.775937 0.172839 0.800336
0.0930343 0.173083 0.730037
0.107057 0.175219 0.739437
0.14081 0.1785 0.759823
0.304067 0.183062 0.834455
0.634867 0.162936 0.84361
0.775723 0.171878 0.798459
0.777752 0.174228 0.800885
0.777646 0.174136 0.800839
0.777707 0.174746 0.802136
0.00820935 0.200427 0.685679
0.00683604 0.19295 0.681788
0.00317388 0.172732 0.670649
0.164355 0.18027 0.773083
0.561395 0.162448 0.854215
0.781064 0.178729 0.806165
0.783398 0.181262 0.80853
0.783658 0.181674 0.809079
0.784298 0.182986 0.811002
0.151446 0.650217 0.861708
0.153414 0.654368 0.863066
0.153338 0.654185 0.863035
0.14435 0.633219 0.858167
0.56556 0.638514 1
0.958358 0.501823 0.981414
0.95903 0.489906 0.978241
0.959731 0.49546 0.978775
0.963317 0.520668 0.982803
0.403708 0.931121 0.985138
0.406775 0.934661 0.985626
0.408759 0.936797 0.985718
0.403525 0.932082 0.985519
0.567269 0.95111 1
0.872663 0.900511 1
0.97734 0.861616 0.981308
0.977386 0.862577 0.981201
0.977798 0.874266 0.981399
0.496452 0.981811 0.975143
0.496422 0.982208 0.975952
0.496406 0.982238 0.976013
0.49836 0.982315 0.976181
0.563867 0.983322 0.978531
0.879835 0.986664 0.985641
0.984115 0.985824 0.988403
0.989242 0.983749 0.987778
0.989319 0.984741 0.988251
0.496437 0.981918 0.975357
0.496422 0.982208 0.975952
0.496406 0.982238 0.976013
0.500389 0.982391 0.976364
0.575738 0.983322 0.9785
0.871794 0.98645 0.985
0.981567 0.989517 0.988891
0.990372 0.989746 0.988983
0.990234 0.990082 0.989578
0.496422 0.982147 0.975814
0.496422 0.982208 0.975952
0.496406 0.982238 0.976013
0.501884 0.982544 0.976623
0.609064 0.983383 0.978973
0.888701 0.98677 0.985489
0.983124 0.989685 0.989258
0.990234 0.990066 0.989578
0.990112 0.990372 0.990112
0.148974 0.179034 0.764385
0.164034 0.180285 0.772915
0.198199 0.182284 0.790799
0.352468 0.180255 0.84741
0.662043 0.162921 0.836561
0.773144 0.169009 0.795712
0.775494 0.171771 0.79855
0.775204 0.171374 0.798077
0.775204 0.171801 0.799069
0.131762 0.177523 0.754345
0.145266 0.178714 0.76228
0.179721 0.181231 0.781323
0.33872 0.181247 0.844251
0.656092 0.163043 0.838392
0.773953 0.169924 0.796628
0.776287 0.172824 0.799802
0.776043 0.172564 0.799558
0.776028 0.172992 0.800549
0.0939803 0.173175 0.730632
0.10782 0.175296 0.739925
0.141909 0.178485 0.760388
0.30721 0.183017 0.835492
0.639872 0.16286 0.842374
0.775387 0.171481 0.798077
0.777829 0.17435 0.801022
0.777737 0.174258 0.800992
0.777798 0.174899 0.802289
0.00825513 0.201266 0.686015
0.00657664 0.194049 0.682033
0.000610361 0.172274 0.668513
0.166232 0.180636 0.774258
0.566522 0.162371 0.853712
0.781094 0.178744 0.806165
0.783551 0.181476 0.808789
0.783856 0.181933 0.809354
0.784482 0.18323 0.811246
0.153201 0.654185 0.862654
0.154986 0.65803 0.863874
0.15494 0.658015 0.863828
0.146334 0.637659 0.859358
0.573861 0.645121 1
0.959655 0.508064 0.982025
0.960052 0.496727 0.979095
0.960937 0.502724 0.979873
0.964004 0.527214 0.983215
0.405478 0.933028 0.985214
0.408621 0.936614 0.985641
0.410513 0.938628 0.985672
0.405219 0.933516 0.98555
0.573877 0.952499 1
0.875944 0.90219 1
0.977417 0.864561 0.981262
0.977493 0.865629 0.981155
0.977935 0.877211 0.981384
0.496437 0.981826 0.975174
0.496422 0.982208 0.975952
0.496406 0.982238 0.976013
0.497932 0.9823 0.97615
0.566644 0.983536 0.978882
0.883696 0.986603 0.985946
0.984283 0.985641 0.988663
0.989105 0.983474 0.9879
0.989227 0.984527 0.988327
0.496437 0.981918 0.975341
0.496422 0.982208 0.975952
0.496406 0.982238 0.976013
0.500648 0.982422 0.976425
0.579904 0.983673 0.979202
0.874449 0.986755 0.985565
0.981689 0.989929 0.989609
0.990265 0.990021 0.989487
0.990265 0.990021 0.989487
0.496422 0.982147 0.975814
0.496422 0.982208 0.975952
0.496406 0.982238 0.976013
0.502022 0.982574 0.976669
0.611109 0.983734 0.979614
0.889632 0.987152 0.986053
0.982757 0.990036 0.989883
0.990097 0.990417 0.990188
0.990112 0.990387 0.990158
