bundles/resolve-cinematic-luts/Phantom Luts/P4k & P6k Phntm Arri LUTs - V6/P4K/Gen 5 Colour/Standard (No WB Offset)/P4k Tungsten Gen5-Legacy.cube
TITLE "Generated by Resolve"
LUT_3D_SIZE 33
0.0170748 0.0174258 0.0240024
0.0170901 0.0173342 0.0238193
0.0171206 0.0171359 0.0233768
0.0192264 0.017319 0.0229648
0.032517 0.0200656 0.0255131
0.0432288 0.0236973 0.0282444
0.0598306 0.0280308 0.0321202
0.0825666 0.0319371 0.0353246
0.111772 0.0341497 0.0381933
0.151308 0.0350347 0.0412909
0.200977 0.0361334 0.0467689
0.261982 0.0368811 0.0541085
0.33257 0.0398108 0.0641031
0.407797 0.0456397 0.0771496
0.487541 0.0531777 0.093492
0.569604 0.0631418 0.112398
0.654856 0.0795148 0.138689
0.728969 0.10631 0.173556
0.779324 0.135927 0.205951
0.794766 0.146609 0.216648
0.796185 0.147936 0.218311
0.797192 0.148852 0.219562
0.798032 0.149584 0.220645
0.798672 0.150225 0.221393
0.799039 0.150637 0.221775
0.799298 0.150942 0.222019
0.799558 0.151232 0.222248
0.799786 0.151446 0.222522
0.8 0.151614 0.222812
0.80032 0.151827 0.22327
0.800656 0.152056 0.223819
0.801205 0.152377 0.224674
0.80177 0.152712 0.225589
0.0171054 0.0171817 0.0234684
0.0171054 0.017258 0.0236362
0.0171206 0.0171359 0.0233768
0.0177157 0.0170901 0.0227054
0.0282139 0.0201724 0.0243687
0.0392767 0.0243076 0.0265049
0.0541085 0.0291142 0.0297398
0.0766003 0.0328679 0.0330663
0.104494 0.034638 0.0354925
0.142016 0.0357366 0.0382544
0.190692 0.0369573 0.0423438
0.251408 0.0377508 0.0495155
0.321721 0.0408484 0.0599069
0.397192 0.0462196 0.0725872
0.478355 0.0537575 0.0888685
0.562982 0.064332 0.108629
0.649424 0.0796674 0.134707
0.72639 0.106462 0.170504
0.778363 0.136645 0.204181
0.794812 0.147768 0.215473
0.796033 0.148562 0.2168
0.796765 0.149065 0.217777
0.797513 0.149676 0.218784
0.798077 0.15021 0.219471
0.798428 0.15053 0.219898
0.798627 0.150729 0.220157
0.798764 0.150866 0.220356
0.798901 0.150973 0.220539
0.799039 0.15108 0.220737
0.799313 0.151247 0.221164
0.799634 0.151461 0.221668
0.800137 0.151781 0.222385
0.800687 0.152117 0.223255
0.0186923 0.0215 0.0267033
0.018677 0.0216983 0.0269627
0.0184024 0.0211337 0.0263981
0.018265 0.0202945 0.0252995
0.0231785 0.0222782 0.0258335
0.0348058 0.0266575 0.0279545
0.0486763 0.0308232 0.0303655
0.0697185 0.0342565 0.0333715
0.0976577 0.0362097 0.0360723
0.134264 0.0372168 0.038407
0.182467 0.0387274 0.0419013
0.242786 0.0399786 0.0472572
0.313252 0.0432288 0.0583047
0.386847 0.0484016 0.0702068
0.46894 0.0561074 0.0860914
0.555978 0.0667887 0.106035
0.644297 0.0813001 0.131777
0.724269 0.107668 0.167987
0.777874 0.138216 0.202777
0.795254 0.149584 0.214923
0.796445 0.150179 0.216052
0.797391 0.150713 0.21709
0.798047 0.15108 0.217868
0.798383 0.151278 0.218326
0.798566 0.151415 0.218601
0.798703 0.151522 0.218814
0.798825 0.151614 0.218997
0.798947 0.15172 0.219181
0.799084 0.151797 0.219394
0.799344 0.151965 0.219806
0.799664 0.152163 0.22031
0.800214 0.152468 0.22118
0.800778 0.152804 0.222095
0.0225223 0.0329747 0.0353094
0.0224918 0.0331731 0.0356756
0.0221408 0.0323339 0.0342107
0.0216373 0.030808 0.03122
0.0255131 0.0301671 0.0284123
0.0365759 0.0332647 0.0309148
0.0451667 0.0353399 0.0331121
0.0649729 0.0382239 0.0353246
0.0940261 0.0399939 0.0377661
0.129061 0.0402228 0.0398871
0.176593 0.0411231 0.0427863
0.236561 0.0421454 0.0474861
0.307317 0.0449683 0.0575723
0.379919 0.0502327 0.0695048
0.46128 0.0588083 0.0842756
0.54815 0.0696269 0.103273
0.639231 0.0833448 0.129427
0.721721 0.108919 0.165286
0.777066 0.139727 0.201083
0.795636 0.151629 0.214069
0.796857 0.152071 0.215412
0.797848 0.152529 0.216342
0.798581 0.152911 0.217044
0.799084 0.153155 0.217639
0.799527 0.153429 0.218112
0.799802 0.153567 0.218418
0.799985 0.153674 0.218631
0.800137 0.15375 0.21883
0.800275 0.153826 0.219028
0.800504 0.153964 0.219394
0.800793 0.154131 0.219883
0.801328 0.154437 0.220752
0.801907 0.154772 0.221668
0.0259709 0.0420386 0.0424811
0.0259251 0.0422522 0.0428626
0.0258488 0.0419928 0.0416266
0.0254368 0.0408789 0.03888
0.0288853 0.0397955 0.0335546
0.0390021 0.041886 0.0329442
0.0489967 0.0430915 0.035996
0.0651255 0.0453498 0.0397192
0.0932326 0.0482032 0.0415351
0.129915 0.0483101 0.0436561
0.173053 0.0464637 0.0448768
0.230472 0.0454414 0.0479133
0.30106 0.0469673 0.0558785
0.375265 0.051957 0.0691539
0.456397 0.0610513 0.083711
0.542672 0.0720378 0.102144
0.633356 0.0858167 0.126925
0.718166 0.110231 0.162081
0.776272 0.141558 0.199268
0.796063 0.153811 0.213306
0.79733 0.154269 0.214679
0.798444 0.154726 0.215869
0.799268 0.155108 0.216709
0.799878 0.155398 0.217304
0.800351 0.155627 0.217746
0.800687 0.155795 0.218082
0.800931 0.155917 0.218341
0.801114 0.155978 0.21854
0.801205 0.156039 0.218677
0.801404 0.15613 0.218967
0.801663 0.156283 0.219379
0.802213 0.156588 0.220233
0.802792 0.156924 0.221149
0.0294194 0.0531319 0.0484321
0.0293736 0.0533913 0.0488594
0.029221 0.0533455 0.0471962
0.0289769 0.0524147 0.0453498
0.0297093 0.0508431 0.04094
0.039826 0.0517586 0.0374609
0.05066 0.053727 0.0367132
0.0670176 0.0549935 0.040589
0.0939193 0.0572366 0.0456397
0.132616 0.0602884 0.0480201
0.176791 0.0578317 0.0487831
0.229633 0.0547799 0.050721
0.295537 0.0517891 0.0560311
0.370748 0.0551156 0.0689097
0.452094 0.0630961 0.0830091
0.538598 0.0737621 0.101564
0.628595 0.0884718 0.125322
0.714611 0.11223 0.159045
0.775128 0.143771 0.19704
0.796918 0.156954 0.212512
0.798047 0.157076 0.213931
0.799084 0.157351 0.215137
0.799756 0.157488 0.215885
0.800259 0.157595 0.21648
0.80061 0.157702 0.216861
0.80087 0.157809 0.217166
0.801099 0.1579 0.21738
0.801282 0.157977 0.217563
0.801389 0.158038 0.217685
0.801572 0.158129 0.217945
0.801846 0.158297 0.218357
0.80238 0.158618 0.219211
0.803006 0.159014 0.220142
0.0326543 0.0706188 0.0563516
0.0325933 0.0710307 0.0568704
0.0323033 0.0711376 0.0548409
0.0322271 0.0706645 0.0523842
0.0326696 0.0689097 0.0486915
0.0378271 0.0677348 0.0429389
0.0506142 0.0702678 0.0402228
0.0686503 0.0712291 0.0389715
0.0942092 0.0719768 0.0443427
0.132662 0.0755779 0.0498512
0.18616 0.0755779 0.0534676
0.240421 0.0718853 0.0551766
0.297948 0.0664225 0.0582284
0.36701 0.0650797 0.0678721
0.446006 0.0667124 0.0822919
0.533654 0.0764935 0.10074
0.625391 0.0912947 0.124605
0.712581 0.114733 0.157717
0.774838 0.146868 0.195377
0.799573 0.162631 0.212528
0.800397 0.162814 0.213367
0.80119 0.162783 0.214374
0.801709 0.162692 0.215137
0.80209 0.162615 0.215732
0.80238 0.16257 0.216114
0.802579 0.162509 0.216419
0.802731 0.162493 0.216617
0.802838 0.162478 0.216754
0.802915 0.162493 0.216846
0.803052 0.162585 0.217029
0.803265 0.162737 0.217304
0.803632 0.163043 0.217746
0.804074 0.163409 0.218296
0.0354467 0.0914473 0.0638743
0.0353094 0.0919203 0.064683
0.0344549 0.0924697 0.0626841
0.0340581 0.092607 0.0601968
0.0345617 0.0914778 0.0563668
0.0371252 0.0901503 0.0509804
0.0479896 0.0903334 0.044831
0.0648508 0.0934462 0.0421454
0.0936141 0.0923171 0.0418097
0.129229 0.094789 0.0487068
0.186892 0.0980087 0.0550698
0.255238 0.0942855 0.0594186
0.318944 0.0885939 0.0637217
0.376547 0.0837568 0.0706951
0.44387 0.0825666 0.0814832
0.529656 0.0863966 0.0983139
0.620645 0.0948043 0.123537
0.710811 0.118181 0.156619
0.775418 0.150042 0.194858
0.804074 0.169009 0.214343
0.804501 0.169543 0.214557
0.804852 0.169894 0.214755
0.805158 0.170169 0.214969
0.805432 0.170291 0.215244
0.805737 0.170336 0.215595
0.80592 0.170336 0.215839
0.806058 0.170336 0.216022
0.806165 0.170367 0.216144
0.806256 0.170428 0.216205
0.806409 0.17055 0.216373
0.806638 0.170779 0.216648
0.807065 0.171191 0.217151
0.807568 0.171725 0.217716
0.036759 0.11577 0.0745403
0.0365759 0.116304 0.0754406
0.035462 0.117006 0.0719005
0.0343938 0.117708 0.0681468
0.0342565 0.11783 0.0645151
0.035584 0.116533 0.0602121
0.0409552 0.115023 0.0530404
0.0582284 0.116732 0.0468147
0.0834211 0.119829 0.0420386
0.12401 0.116091 0.0434882
0.177111 0.124331 0.0507668
0.2589 0.121859 0.0601205
0.337118 0.117205 0.0679026
0.404211 0.113329 0.076463
0.467079 0.110384 0.0877394
0.536538 0.110216 0.10219
0.624994 0.116152 0.123812
0.712581 0.128481 0.157229
0.776638 0.155138 0.194446
0.810162 0.176577 0.217472
0.810498 0.17702 0.217639
0.810803 0.177432 0.217807
0.810987 0.177691 0.217899
0.811139 0.177859 0.21799
0.811215 0.177951 0.218036
0.811246 0.178012 0.218051
0.811276 0.178042 0.218067
0.811353 0.178134 0.218097
0.811399 0.17821 0.218128
0.811551 0.178363 0.21828
0.811841 0.178637 0.218601
0.81239 0.179095 0.219257
0.813046 0.179751 0.219883
0.035996 0.145937 0.0881208
0.0357671 0.146593 0.0890669
0.0345617 0.147372 0.085359
0.0334173 0.148394 0.0803082
0.0323339 0.149065 0.074464
0.0326085 0.148608 0.0694438
0.0340734 0.146899 0.0638285
0.0438544 0.145312 0.0530556
0.0731518 0.149981 0.0471656
0.108797 0.1523 0.0385595
0.165209 0.145663 0.0450446
0.238285 0.161227 0.0530556
0.346487 0.152697 0.0690471
0.431235 0.153628 0.0817731
0.509178 0.155367 0.0971237
0.579263 0.15378 0.113878
0.652216 0.154589 0.133822
0.728054 0.162554 0.160571
0.795148 0.185702 0.1991
0.827283 0.199969 0.225803
0.823651 0.194247 0.224231
0.82031 0.189746 0.222583
0.819165 0.188235 0.222034
0.819303 0.188418 0.222095
0.819379 0.18851 0.222141
0.819501 0.188647 0.222202
0.819547 0.188708 0.222248
0.819608 0.188785 0.222278
0.819715 0.188907 0.222339
0.819913 0.189136 0.222522
0.820264 0.189502 0.222843
0.820951 0.190204 0.223514
0.821775 0.191012 0.224369
0.0327001 0.184665 0.102846
0.0324407 0.185611 0.104067
0.0313726 0.186282 0.10013
0.0299992 0.186923 0.0955215
0.0282292 0.187701 0.0896162
0.0268864 0.188266 0.0820478
0.0276036 0.187366 0.0747692
0.0303349 0.185168 0.0650492
0.0477913 0.184756 0.0503548
0.0923629 0.194064 0.0448005
0.140429 0.193362 0.0319066
0.221073 0.185992 0.0472877
0.319997 0.213138 0.0556039
0.448692 0.209918 0.0812085
0.540047 0.20972 0.100725
0.630396 0.218906 0.126955
0.703853 0.216724 0.150591
0.774746 0.221012 0.179782
0.828046 0.234409 0.213901
0.855314 0.245075 0.236011
0.854459 0.240879 0.236423
0.850721 0.23534 0.23473
0.847822 0.230823 0.233509
0.845792 0.227863 0.232471
0.84445 0.225895 0.231876
0.843427 0.224369 0.231418
0.842832 0.223453 0.231144
0.842588 0.223056 0.231083
0.842557 0.22298 0.231067
0.842847 0.223377 0.23125
0.843748 0.224674 0.231724
0.84506 0.226459 0.232486
0.846876 0.228992 0.2336
0.0261234 0.232227 0.118517
0.0257725 0.233066 0.119722
0.0243534 0.233768 0.115938
0.0229038 0.234379 0.111498
0.0213474 0.234958 0.106767
0.0193942 0.23566 0.0994278
0.0176242 0.236576 0.0901961
0.0189212 0.235172 0.0788128
0.0234073 0.230777 0.0625925
0.05243 0.233402 0.0442817
0.116548 0.249912 0.0398871
0.184039 0.246311 0.0213626
0.295644 0.241428 0.0513161
0.419837 0.28455 0.0542763
0.548974 0.285161 0.0899825
0.652888 0.286961 0.127749
0.750591 0.293095 0.163302
0.831693 0.300771 0.203571
0.87837 0.309453 0.238605
0.898009 0.314351 0.256397
0.895506 0.308507 0.255741
0.891844 0.30193 0.254002
0.889296 0.29723 0.252888
0.887297 0.293584 0.252064
0.88571 0.290684 0.251408
0.884657 0.288869 0.25095
0.883925 0.287572 0.250599
0.883619 0.287022 0.250462
0.884031 0.287678 0.25066
0.884703 0.288792 0.250965
0.885817 0.290654 0.251484
0.887861 0.294041 0.252491
0.890929 0.298924 0.254231
0.0159609 0.290883 0.134676
0.01561 0.291859 0.136034
0.0139773 0.292424 0.131899
0.0125429 0.292882 0.127962
0.0108492 0.293645 0.123293
0.00906386 0.294102 0.11751
0.00669871 0.294667 0.108843
0.00463874 0.29482 0.0954147
0.00680552 0.292531 0.0786145
0.0146029 0.286915 0.0526589
0.0607767 0.295491 0.0332189
0.147997 0.315206 0.0294499
0.241321 0.307836 0.0053254
0.376135 0.306355 0.0495003
0.506508 0.350835 0.0558785
0.640101 0.370291 0.101076
0.761898 0.373648 0.157336
0.853193 0.37232 0.206577
0.917494 0.390143 0.255131
0.935927 0.397604 0.272236
0.934157 0.392905 0.271672
0.932097 0.387472 0.270909
0.930129 0.38291 0.269947
0.92874 0.379507 0.269368
0.927596 0.376745 0.268879
0.926833 0.37496 0.268528
0.92639 0.373938 0.268315
0.926513 0.374273 0.26836
0.926894 0.375158 0.268498
0.927626 0.376959 0.268803
0.928817 0.37995 0.269245
0.9308 0.384634 0.270176
0.933242 0.390677 0.271336
0.00328069 0.351797 0.15491
0.0030518 0.352819 0.15613
0.00163272 0.35317 0.151751
3.0518e-05 0.353872 0.147829
0 0.354238 0.142962
0 0.354391 0.137835
0 0.35462 0.130236
0 0.354986 0.116823
0 0.354681 0.0987259
0 0.351965 0.0756847
0.00393683 0.346044 0.0342718
0.0750591 0.357794 0.0155489
0.195789 0.380148 0.010605
0.307561 0.371145 0
0.457069 0.374777 0.047715
0.592386 0.418845 0.0666972
0.730694 0.462501 0.120027
0.85008 0.46067 0.19266
0.92076 0.46363 0.244495
0.954665 0.467353 0.276448
0.956451 0.470939 0.278752
0.955566 0.466316 0.278614
0.954711 0.462318 0.278431
0.953964 0.459342 0.278141
0.953628 0.457206 0.278218
0.953368 0.456092 0.278157
0.953323 0.455848 0.278157
0.953368 0.45594 0.278187
0.953567 0.456748 0.278264
0.953994 0.458473 0.278416
0.954589 0.461143 0.278569
0.95584 0.466377 0.279072
0.957427 0.474037 0.279606
0 0.415274 0.182498
0 0.416419 0.184344
0 0.417273 0.18027
0 0.417502 0.175799
0 0.417731 0.171298
0 0.41799 0.166567
0 0.418204 0.160479
0 0.418753 0.149264
0 0.419196 0.129641
0 0.418112 0.103243
0 0.41326 0.071458
0 0.407736 0.0151827
0.10547 0.423163 0
0.267842 0.446952 0
0.386618 0.441703 0
0.541817 0.449882 0.0513619
0.685481 0.497459 0.0950179
0.822293 0.561883 0.163958
0.913115 0.554711 0.233494
0.955703 0.555978 0.26894
0.964736 0.558145 0.278065
0.964706 0.554925 0.278218
0.964736 0.55259 0.27837
0.964691 0.550668 0.278416
0.96466 0.549493 0.278462
0.96466 0.549371 0.278462
0.96466 0.549508 0.278477
0.964691 0.550484 0.278447
0.964752 0.552346 0.278401
0.964721 0.554849 0.278264
0.964904 0.559442 0.278309
0.965255 0.565499 0.278767
0.965667 0.573114 0.279423
0 0.485069 0.220844
0 0.486641 0.222904
0 0.4869 0.219684
0 0.487175 0.215412
0 0.487465 0.21146
0 0.487678 0.206668
0 0.488151 0.201419
0 0.48838 0.192996
0 0.48838 0.178378
0 0.488777 0.152529
0 0.486427 0.118013
0 0.479927 0.074464
0.0202029 0.478004 0.00775158
0.165286 0.495262 0
0.34873 0.520562 0
0.477562 0.520104 0
0.627298 0.530968 0.0764324
0.787198 0.588495 0.146609
0.907225 0.658534 0.231525
0.962188 0.657343 0.281483
0.967239 0.649989 0.287694
0.966583 0.649165 0.28632
0.966583 0.646937 0.285817
0.966262 0.646265 0.285481
0.966339 0.645609 0.28542
0.966567 0.645609 0.285496
0.966415 0.646113 0.285405
0.96614 0.647486 0.285435
0.967117 0.650401 0.28748
0.968658 0.655009 0.291356
0.97084 0.660792 0.296437
0.973571 0.668467 0.303181
0.976379 0.678203 0.312001
0 0.565026 0.27335
0 0.566384 0.275608
0 0.566827 0.273136
0 0.567086 0.269932
0 0.567391 0.266346
0 0.568246 0.263005
0 0.568368 0.25803
0 0.568231 0.250736
0 0.567788 0.239033
0 0.567147 0.218036
0 0.566629 0.186496
0 0.562234 0.145525
0 0.553903 0.0814221
0.0737469 0.55639 0.0170138
0.254185 0.576471 0.0116884
0.444572 0.606058 0.0122377
0.57322 0.606531 0.0279698
0.712749 0.618158 0.119158
0.87747 0.679011 0.217914
0.969451 0.743679 0.308995
0.99118 0.765347 0.394629
0.991852 0.765454 0.40209
0.991669 0.764706 0.400427
0.991547 0.763867 0.399268
0.991379 0.763119 0.397742
0.99115 0.762829 0.39617
0.990875 0.762905 0.394369
0.990539 0.763317 0.392493
0.990112 0.764202 0.390082
0.989868 0.765179 0.387762
0.989105 0.766308 0.384665
0.988602 0.768139 0.380926
0.988266 0.770443 0.376761
0 0.64593 0.328008
0 0.647379 0.330434
0 0.647822 0.328084
0 0.648432 0.326192
0 0.649363 0.323873
0 0.64976 0.320867
0 0.650004 0.317525
0 0.65008 0.311971
0 0.649912 0.303181
0 0.649561 0.28838
0 0.648768 0.262135
0 0.645228 0.223651
0.00375372 0.637247 0.173907
0.0259251 0.628168 0.0878462
0.159823 0.639826 0.0373083
0.366094 0.667735 0.0432441
0.548775 0.697169 0.0602731
0.661906 0.697276 0.0906233
0.790951 0.707393 0.176989
0.929824 0.752285 0.272984
0.983948 0.78909 0.327764
0.988922 0.793484 0.350134
0.989487 0.794614 0.353246
0.989517 0.794705 0.353552
0.989609 0.795056 0.354055
0.989776 0.795727 0.354559
0.990112 0.797131 0.35523
0.990478 0.798337 0.355871
0.99057 0.79968 0.356176
0.990967 0.801801 0.356878
0.991592 0.804654 0.357885
0.992096 0.808347 0.358816
0.992615 0.813413 0.359991
0.0364691 0.72137 0.383368
0.037171 0.722484 0.385473
0.0373999 0.722911 0.383764
0.0379644 0.72372 0.38204
0.0382391 0.724132 0.380209
0.0384527 0.724544 0.378363
0.0386358 0.724819 0.375677
0.0386511 0.724865 0.371649
0.0388952 0.725109 0.365133
0.0388952 0.724361 0.353735
0.0391241 0.722942 0.334386
0.0397803 0.720104 0.303929
0.0411383 0.713527 0.261265
0.0484627 0.703685 0.202106
0.107988 0.702937 0.11136
0.281773 0.72108 0.0743725
0.494514 0.75021 0.092134
0.648783 0.773892 0.127138
0.75378 0.779049 0.170947
0.864134 0.787884 0.246204
0.96878 0.825589 0.321736
0.989944 0.849363 0.361929
0.991333 0.853056 0.372549
0.991333 0.853056 0.372549
0.991302 0.853208 0.372641
0.991211 0.853864 0.373114
0.99118 0.854368 0.37351
0.991241 0.85507 0.374182
0.991043 0.855924 0.374777
0.990692 0.857038 0.375479
0.990387 0.858824 0.376669
0.990082 0.861463 0.37879
0.989242 0.864225 0.380682
0.0812238 0.778973 0.4336
0.0822156 0.780056 0.436118
0.0822766 0.780194 0.434546
0.0822919 0.780224 0.432914
0.0823377 0.780316 0.431327
0.0823682 0.780331 0.429297
0.0823835 0.780346 0.426932
0.0823835 0.780316 0.42388
0.0820172 0.779797 0.418097
0.0813916 0.778653 0.40885
0.0809186 0.776791 0.393301
0.0807355 0.773785 0.369772
0.0816968 0.768978 0.337804
0.0844587 0.761837 0.293538
0.100984 0.753674 0.218158
0.217884 0.764599 0.141741
0.409979 0.780423 0.128252
0.605722 0.803616 0.151949
0.734218 0.822797 0.194049
0.842557 0.837552 0.253239
0.921309 0.847486 0.317601
0.982406 0.875654 0.377417
0.983978 0.882811 0.398093
0.983948 0.883146 0.399664
0.983932 0.883284 0.399817
0.983917 0.883391 0.400031
0.983902 0.883543 0.400397
0.983795 0.883726 0.400824
0.983276 0.884031 0.401297
0.982971 0.884398 0.402197
0.982788 0.884932 0.40322
0.982467 0.885664 0.404654
0.982055 0.886595 0.406683
0.104952 0.80531 0.464591
0.105241 0.805615 0.466316
0.104997 0.805402 0.464637
0.104692 0.805097 0.462684
0.104326 0.804715 0.460746
0.103929 0.804318 0.458457
0.103532 0.803891 0.456123
0.102892 0.803189 0.452476
0.101915 0.802136 0.446784
0.100587 0.800504 0.437583
0.0996109 0.798245 0.424491
0.0990768 0.795041 0.405234
0.100389 0.791547 0.378744
0.104402 0.787976 0.344869
0.111513 0.782712 0.296971
0.181155 0.787015 0.220554
0.349798 0.792218 0.17499
0.536019 0.804608 0.179812
0.694591 0.825376 0.20824
0.81706 0.847776 0.263462
0.904707 0.864607 0.322087
0.961044 0.878889 0.381521
0.980301 0.890394 0.419135
0.979706 0.890806 0.424964
0.979797 0.8907 0.42385
0.979812 0.890669 0.423423
0.979828 0.890654 0.423316
0.979828 0.890669 0.423407
0.979797 0.8907 0.423804
0.979751 0.89073 0.424277
0.979751 0.890761 0.424811
0.979675 0.890776 0.425742
0.979599 0.890791 0.427024
0.105989 0.806287 0.470802
0.10631 0.806561 0.472328
0.10605 0.806394 0.470832
0.105791 0.80618 0.468956
0.105486 0.80589 0.467262
0.105104 0.805508 0.465064
0.104677 0.805081 0.462638
0.104005 0.804379 0.459068
0.103014 0.803296 0.453391
0.101564 0.801694 0.444602
0.0999924 0.799298 0.430472
0.0993057 0.796078 0.411246
0.0998856 0.792126 0.384375
0.104326 0.789059 0.351659
0.11194 0.78616 0.313558
0.165133 0.788357 0.246433
0.324178 0.792401 0.192493
0.498985 0.801266 0.191653
0.668605 0.822217 0.213352
0.800641 0.846006 0.267201
0.892805 0.863584 0.324453
0.947768 0.87631 0.375982
0.978424 0.889693 0.419318
0.978973 0.891386 0.434211
0.978958 0.891386 0.43444
0.978988 0.891356 0.434073
0.979004 0.89134 0.433921
0.978988 0.891371 0.433951
0.978958 0.891417 0.433814
0.978927 0.891508 0.43389
0.978897 0.891554 0.433967
0.978897 0.891539 0.434073
0.978943 0.891478 0.434211
0.106813 0.807095 0.475914
0.107103 0.80737 0.477592
0.106874 0.807187 0.475868
0.10663 0.806958 0.474174
0.106355 0.806745 0.472511
0.10602 0.806424 0.470222
0.105638 0.806058 0.468101
0.104997 0.805417 0.464454
0.103929 0.804288 0.458579
0.102419 0.802655 0.449805
0.100572 0.800244 0.435691
0.0995041 0.796948 0.416098
0.0995499 0.79266 0.388785
0.1037 0.78938 0.355688
0.111223 0.786419 0.316732
0.156466 0.787732 0.25275
0.310872 0.792248 0.194156
0.484611 0.800015 0.190097
0.657526 0.820462 0.210452
0.789059 0.843595 0.26041
0.884474 0.861891 0.318517
0.940459 0.874357 0.368048
0.975464 0.888106 0.41236
0.979065 0.891463 0.432074
0.978866 0.891661 0.434424
0.978836 0.891691 0.434791
0.978805 0.891707 0.43505
0.978775 0.891752 0.435264
0.978744 0.891814 0.435447
0.978714 0.891905 0.435584
0.978683 0.891966 0.435691
0.978668 0.891981 0.435737
0.978683 0.891951 0.435721
0.107698 0.807935 0.480659
0.107942 0.808148 0.482033
0.107622 0.807874 0.480156
0.107301 0.807584 0.478065
0.106966 0.807309 0.47602
0.10663 0.807004 0.474067
0.106279 0.806683 0.471809
0.105669 0.806088 0.468315
0.104631 0.805035 0.462364
0.103059 0.803357 0.453696
0.101076 0.800916 0.43975
0.0997177 0.797559 0.419394
0.0992447 0.792981 0.391775
0.103334 0.789624 0.358328
0.110719 0.786618 0.319249
0.150729 0.787228 0.256672
0.302373 0.792325 0.19556
0.475273 0.799344 0.189288
0.651026 0.819425 0.208927
0.782422 0.842145 0.256397
0.878492 0.860716 0.31426
0.935149 0.872709 0.36286
0.97293 0.886656 0.407385
0.979202 0.891463 0.430121
0.978836 0.891768 0.434058
0.97879 0.891814 0.43447
0.97879 0.891829 0.43473
0.978775 0.891875 0.434943
0.978729 0.891936 0.435142
0.978683 0.892027 0.435355
0.978668 0.892073 0.435462
0.978653 0.892103 0.435538
0.978653 0.892088 0.435523
0.108324 0.80853 0.483864
0.108537 0.808713 0.485222
0.108141 0.808347 0.482872
0.107759 0.808011 0.480873
0.107439 0.807736 0.478859
0.107103 0.807431 0.476692
0.106691 0.807065 0.474464
0.106126 0.806531 0.470787
0.105089 0.805524 0.464988
0.103517 0.803845 0.45623
0.101442 0.801389 0.442161
0.099855 0.797971 0.421744
0.0992599 0.793256 0.393484
0.103105 0.789807 0.360174
0.110475 0.78674 0.320638
0.147143 0.786938 0.259037
0.29778 0.792401 0.196292
0.471336 0.799176 0.188861
0.647974 0.819059 0.208469
0.777859 0.841245 0.254093
0.875059 0.860029 0.311757
0.932189 0.871672 0.359518
0.971008 0.885573 0.404211
0.979278 0.891371 0.428977
0.978882 0.891752 0.4336
0.978836 0.891783 0.434028
0.978805 0.891798 0.434318
0.978775 0.891844 0.434546
0.978744 0.891905 0.43473
0.978714 0.891981 0.434943
0.978698 0.892042 0.43505
0.978683 0.892058 0.435126
0.978683 0.892058 0.435126
0.108736 0.808896 0.486198
0.108934 0.809049 0.487327
0.108537 0.808713 0.48513
0.108125 0.808362 0.48278
0.107774 0.808042 0.480858
0.107424 0.807721 0.478706
0.107012 0.807355 0.476143
0.106401 0.806806 0.472679
0.105409 0.805829 0.466743
0.103792 0.804135 0.457725
0.101671 0.801663 0.443702
0.0999924 0.798169 0.422858
0.099321 0.793454 0.394553
0.103014 0.789899 0.360983
0.110445 0.78677 0.320928
0.144854 0.786633 0.260136
0.296651 0.792416 0.196475
0.469581 0.799146 0.188586
0.646723 0.818875 0.208316
0.775891 0.84097 0.253422
0.873167 0.859831 0.310506
0.930327 0.871015 0.357656
0.97023 0.885115 0.402686
0.979339 0.89131 0.42826
0.978912 0.891722 0.433295
0.978866 0.891752 0.433692
0.978836 0.891768 0.433982
0.978805 0.891814 0.434226
0.978759 0.891875 0.434455
0.978729 0.891951 0.434669
0.978698 0.892012 0.434791
0.978683 0.892042 0.434867
0.978683 0.892042 0.434897
0.109026 0.80914 0.487816
0.109178 0.809277 0.488716
0.108812 0.808957 0.486702
0.1084 0.808606 0.484321
0.108003 0.80824 0.482109
0.107652 0.807935 0.480079
0.10721 0.807553 0.477485
0.106554 0.806943 0.473671
0.105608 0.806027 0.467872
0.103944 0.804318 0.458732
0.101793 0.801785 0.444327
0.100053 0.798276 0.423407
0.099382 0.793515 0.394751
0.10309 0.789914 0.360922
0.110567 0.786725 0.320348
0.144915 0.786496 0.25922
0.297704 0.792432 0.196277
0.470832 0.799268 0.188266
0.647547 0.819028 0.208576
0.776471 0.841108 0.253925
0.873442 0.860044 0.310735
0.929976 0.870787 0.357488
0.970047 0.885023 0.402106
0.979355 0.89131 0.428107
0.978927 0.891691 0.433127
0.978882 0.891737 0.433463
0.978866 0.891752 0.433753
0.978821 0.891798 0.434012
0.97879 0.891859 0.434226
0.978744 0.891936 0.43444
0.978714 0.891997 0.434577
0.978698 0.892012 0.434669
0.978729 0.891981 0.434638
0.109117 0.809201 0.488548
0.109194 0.809232 0.488975
0.108766 0.808835 0.486793
