bundles/resolve-cinematic-luts/Phantom Luts/P4k & P6k Phntm Arri LUTs - V6/P4K/Gen 5 Colour/Standard (No WB Offset)/P4k Neutral Gen5.cube
TITLE "Generated by Resolve"
LUT_3D_SIZE 9
0 0 0
0.0405737 0.00282292 0.00209049
0.16379 0.00772107 0.00848402
0.423087 0.0142061 0.0354009
0.768429 0.0585184 0.117617
0.94844 0.10074 0.162707
0.951995 0.103487 0.167956
0.953079 0.104341 0.169604
0.953384 0.10454 0.170031
0.00224308 0.0339666 0.0124514
0.0171664 0.0315099 0.00260929
0.136461 0.0423133 0.0111849
0.389899 0.0335851 0.0307012
0.733089 0.076051 0.101274
0.940307 0.11667 0.153246
0.945357 0.116594 0.15729
0.946822 0.116701 0.158541
0.947127 0.116732 0.158846
0.00543221 0.149279 0.0570535
0.0056611 0.147311 0.0269169
0.101854 0.153262 0.00549325
0.423285 0.136538 0.0438392
0.710933 0.122515 0.10071
0.93962 0.151827 0.150378
0.940139 0.153811 0.150637
0.940307 0.154421 0.150713
0.940337 0.154574 0.150729
0 0.403616 0.160876
0.0124056 0.405966 0.136385
0.00177005 0.404669 0.0755016
0.299611 0.415167 0.00956741
0.816327 0.455451 0.121111
0.990127 0.442802 0.187396
0.987884 0.417166 0.182269
0.9879 0.412161 0.180392
0.987884 0.411063 0.180041
0.00151064 0.746441 0.380606
0.00325017 0.746014 0.36495
0.0089723 0.745388 0.32694
0.0532998 0.733562 0.126741
0.646723 0.756848 0.0334783
0.976349 0.789303 0.26186
0.977417 0.788571 0.293629
0.97818 0.787884 0.291951
0.978378 0.787701 0.291539
0.0585184 0.978714 0.575082
0.0582284 0.978378 0.564981
0.0585489 0.977478 0.543755
0.115434 0.966766 0.473976
0.568872 0.955932 0.317235
0.909819 0.961563 0.325414
0.979599 0.965576 0.468803
0.979599 0.965576 0.467872
0.979599 0.96556 0.467811
0.0604562 0.978897 0.59649
0.0594949 0.978866 0.586892
0.0582895 0.978439 0.567056
0.0963302 0.969223 0.489281
0.496132 0.961074 0.367041
0.90634 0.96965 0.369802
0.979522 0.970153 0.504173
0.979522 0.970138 0.506264
0.979522 0.970138 0.506783
0.061326 0.978927 0.603021
0.0601358 0.978866 0.593454
0.0584573 0.978683 0.573892
0.0913558 0.970199 0.494713
0.473686 0.961959 0.366583
0.902815 0.96939 0.367193
0.979522 0.970153 0.502464
0.979522 0.970153 0.504555
0.979522 0.970153 0.505043
0.0615702 0.978927 0.604715
0.0603037 0.978882 0.595026
0.0585489 0.978714 0.575662
0.0903639 0.970474 0.49633
0.467308 0.962173 0.366415
0.901411 0.96936 0.36669
0.979522 0.970169 0.500237
0.979522 0.970153 0.504112
0.979522 0.970153 0.504646
0.000289921 0.00158694 0.0273594
0.0382544 0.000671397 0.0336614
0.16492 7.62951e-05 0.062501
0.448249 0.013962 0.0980697
0.79646 0.0762341 0.1617
0.951461 0.108019 0.190219
0.951583 0.116152 0.200351
0.951568 0.118578 0.203494
0.951553 0.119219 0.204334
0.00154116 0.0193942 0.0179446
0.0103761 0.0137026 0.0134127
0.149096 0.0108644 0.0104067
0.413321 0.0145266 0.0343938
0.761791 0.0582895 0.116472
0.94876 0.101579 0.162921
0.95227 0.104341 0.168124
0.953368 0.10518 0.169802
0.953674 0.105379 0.17023
0.00695811 0.134722 0.0829786
0.00560006 0.135378 0.0553292
0.0956436 0.143847 0.00631724
0.425025 0.119432 0.0436255
0.717296 0.104601 0.100725
0.936904 0.138613 0.149081
0.937514 0.14049 0.149401
0.93901 0.140032 0.150683
0.939361 0.139925 0.150988
0 0.394903 0.182803
0 0.395865 0.160235
0.012665 0.400916 0.0966812
0.29601 0.409873 0.00981155
0.8159 0.44416 0.122057
0.987961 0.419135 0.182849
0.987686 0.40206 0.177218
0.987488 0.397147 0.175982
0.987427 0.395804 0.175662
0 0.742061 0.393851
0.00105287 0.74168 0.379049
0.00570687 0.741238 0.345266
0.0476692 0.731701 0.146319
0.644251 0.753689 0.0343938
0.979278 0.788067 0.262242
0.979812 0.786465 0.287938
0.980575 0.78584 0.286778
0.980789 0.785657 0.286366
0.059266 0.978866 0.585092
0.0585336 0.978714 0.575479
0.0580453 0.978027 0.554955
0.106233 0.967926 0.481193
0.557794 0.955306 0.313329
0.908064 0.961013 0.317754
0.979614 0.964767 0.467185
0.979614 0.964752 0.464256
0.979614 0.964721 0.464149
0.0618296 0.978912 0.606409
0.060502 0.978897 0.596887
0.058732 0.978759 0.577676
0.0889448 0.970855 0.498405
0.4804 0.961761 0.366842
0.904875 0.969558 0.369497
0.979522 0.970138 0.505776
0.979522 0.970138 0.507591
0.979522 0.970138 0.508034
0.0629282 0.978866 0.612848
0.061387 0.978927 0.603403
0.0592355 0.978866 0.58439
0.0851301 0.971939 0.504524
0.45539 0.962554 0.366033
0.899962 0.96936 0.366339
0.979522 0.970153 0.501701
0.979522 0.970138 0.506142
0.979522 0.970138 0.506645
0.0631876 0.978836 0.614542
0.0616312 0.978927 0.605112
0.0594034 0.978866 0.585855
0.084184 0.972213 0.506127
0.448737 0.962737 0.365835
0.898131 0.96936 0.365942
0.979522 0.970169 0.498451
0.979522 0.970138 0.505745
0.979522 0.970138 0.506233
0 0 0.138705
0.0597848 0.000137331 0.134127
0.162448 0.000732433 0.135851
0.462501 0 0.180789
0.810803 0.0534676 0.227161
0.959457 0.11693 0.268132
0.962142 0.114107 0.276051
0.962951 0.113466 0.278401
0.963119 0.113405 0.278904
9.15541e-05 0.014374 0.107515
0 0 0.125536
0.141344 0.00131228 0.119432
0.437247 0 0.147387
0.808804 0.0754559 0.202228
0.949111 0.130877 0.228992
0.949844 0.13724 0.240452
0.95082 0.13698 0.243565
0.95108 0.136904 0.244388
0.0068513 0.123919 0.117433
0.00679026 0.120607 0.114397
0.113512 0.118822 0.118456
0.421881 0.0926986 0.0980697
0.755673 0.0620737 0.118471
0.949248 0.103059 0.163272
0.952895 0.105974 0.168582
0.95404 0.106813 0.170275
0.954162 0.107012 0.170687
0 0.380301 0.228
0 0.37995 0.209445
0.00218204 0.380835 0.157137
0.289586 0.399878 0
0.816922 0.417792 0.127169
0.986908 0.389181 0.174792
0.985412 0.371572 0.172778
0.98497 0.366522 0.172244
0.984848 0.365118 0.172107
0 0.733761 0.420035
0 0.733547 0.406332
0 0.732677 0.375952
0.0365911 0.727977 0.185412
0.639765 0.747646 0.0366064
0.984955 0.785779 0.262837
0.984527 0.782467 0.279454
0.985428 0.781704 0.277623
0.985656 0.781506 0.277043
0.0614633 0.978927 0.604013
0.0602884 0.978882 0.594873
0.0585946 0.978729 0.576333
0.0894331 0.970642 0.497246
0.53431 0.95436 0.305913
0.905089 0.959899 0.303975
0.979644 0.963287 0.464622
0.979644 0.963241 0.459586
0.979644 0.963211 0.458259
0.0650492 0.978698 0.625559
0.063508 0.978821 0.616403
0.0605936 0.978912 0.597711
0.0768597 0.974151 0.517586
0.444572 0.96289 0.365743
0.901442 0.969406 0.370916
0.979522 0.970138 0.508721
0.979507 0.970123 0.510475
0.979507 0.970123 0.510918
0.066743 0.978485 0.631983
0.0645304 0.978759 0.622858
0.0614939 0.978927 0.604227
0.0730602 0.975158 0.523629
0.415167 0.964004 0.365164
0.893828 0.969314 0.368185
0.979522 0.970169 0.497765
0.979522 0.970138 0.509087
0.979522 0.970138 0.509544
0.0672007 0.978424 0.633646
0.0648508 0.978729 0.624552
0.0617533 0.978912 0.605936
0.0720684 0.975418 0.5252
0.407263 0.964279 0.36492
0.891905 0.969314 0.367483
0.979034 0.970031 0.494377
0.979522 0.970138 0.508736
0.979522 0.970138 0.509178
0.026978 0 0.380652
0.0769513 0 0.375845
0.186908 0 0.376303
0.431846 3.0518e-05 0.371893
0.803113 0 0.42884
1 0 0.462852
1 0 0.472862
1 0 0.47541
1 0 0.476081
0 0.0016022 0.377691
0.0261082 0 0.372686
0.144991 0 0.37293
0.420523 0 0.361883
0.801892 0 0.414038
1 0 0.432898
1 0 0.444373
1 0 0.447517
1 0 0.448386
0 0.0805371 0.349798
0 0.0512093 0.358312
0.0532082 0.0161135 0.375433
0.399969 0.00376898 0.343771
0.799908 0 0.380789
1 0.0175174 0.390066
1 0.013138 0.39707
1 0.0116884 0.399268
1 0.0113527 0.399817
0 0.357992 0.340368
0 0.355886 0.338354
0.00151064 0.350622 0.333379
0.359167 0.359365 0.361807
0.768032 0.333333 0.314717
0.977066 0.283268 0.2654
0.973861 0.254551 0.251286
0.972702 0.245121 0.246754
0.972412 0.242741 0.245686
0.00700389 0.705516 0.513924
0.00585946 0.705074 0.505898
0.00337224 0.704112 0.486748
0.00750744 0.704646 0.365362
0.63537 0.725399 0.147677
0.982605 0.761791 0.339757
0.986862 0.759808 0.327352
0.988174 0.758709 0.324498
0.98851 0.758434 0.32372
0.071931 0.967117 0.663233
0.0697337 0.967178 0.655451
0.0642405 0.967208 0.638727
0.0552834 0.965652 0.564858
0.393881 0.954833 0.305989
0.893294 0.954803 0.253407
0.979828 0.955825 0.459541
0.979843 0.955306 0.457145
0.979843 0.955169 0.456443
0.0848096 0.975494 0.690349
0.0824598 0.975875 0.682872
0.0776532 0.976699 0.66743
0.0638285 0.978897 0.599435
0.287617 0.964279 0.397162
0.879957 0.969329 0.381445
0.977661 0.969589 0.502983
0.979507 0.970092 0.520867
0.979507 0.970092 0.521096
0.0866865 0.975235 0.696284
0.0843824 0.97557 0.689052
0.0793317 0.976349 0.673442
0.0644388 0.978912 0.606104
0.258106 0.964034 0.39884
0.86688 0.969329 0.374929
0.972061 0.967926 0.486641
0.979507 0.970092 0.520394
0.979507 0.970092 0.520623
0.087068 0.975189 0.697871
0.0848859 0.975494 0.690547
0.0798352 0.976272 0.674937
0.0645914 0.978897 0.607843
0.250629 0.963912 0.399115
0.863371 0.969253 0.372793
0.970321 0.967391 0.48275
0.979507 0.970092 0.520272
0.979507 0.970092 0.52047
0.0896162 0.00563058 0.664332
0.124102 0.0065919 0.661891
0.207034 0.00741588 0.663935
0.463157 0.0102235 0.671275
0.78381 0.0130617 0.684108
0.936355 0.0010071 0.723812
0.935882 0 0.733181
0.935729 0 0.735729
0.935699 0 0.736355
0.046479 0.00268559 0.662074
0.0886091 0.00503548 0.659754
0.17174 0.00689708 0.660288
0.44564 0.00943008 0.668727
0.777005 0.0127565 0.678126
0.936797 0.0142519 0.714961
0.936492 0.00184634 0.723629
0.936385 0 0.725978
0.936355 0 0.726558
0 0.0118257 0.653681
0.000350958 0.000595102 0.656199
0.0949569 0.004654 0.653895
0.405219 0.00767529 0.663233
0.764141 0.0153506 0.667384
0.937514 0.0393683 0.69604
0.937407 0.030518 0.703502
0.937362 0.0279393 0.705562
0.937346 0.0272679 0.706096
0 0.31603 0.669123
0 0.306142 0.6748
0 0.284489 0.688029
0.257481 0.215457 0.688197
0.757671 0.148699 0.671748
0.945754 0.137774 0.639658
0.94258 0.125231 0.627451
0.941512 0.121569 0.623758
0.941253 0.120577 0.622858
0.00526436 0.678889 0.654643
0.00505074 0.677775 0.653574
0.00466926 0.675776 0.651499
0.0104982 0.663859 0.640436
0.654002 0.653849 0.65507
0.94667 0.665507 0.634455
0.959396 0.656611 0.623896
0.959365 0.653391 0.621592
0.959304 0.652583 0.621073
0.099794 0.937285 0.795087
0.0976577 0.936614 0.791211
0.0932784 0.935393 0.783642
0.0863508 0.930632 0.748302
0.433982 0.926146 0.670558
0.896361 0.933288 0.583352
0.974197 0.920272 0.6056
0.974243 0.918654 0.603265
0.974258 0.918257 0.602625
0.145388 0.972305 0.833661
0.142168 0.972122 0.830014
0.134951 0.971893 0.822095
0.116579 0.972015 0.786175
0.263294 0.973556 0.663264
0.832212 0.967071 0.59266
0.969757 0.966354 0.580331
0.978653 0.968948 0.635142
0.978653 0.968963 0.634867
0.149599 0.972457 0.838071
0.146029 0.972335 0.834257
0.138796 0.97203 0.826215
0.117235 0.971939 0.790021
0.200107 0.976211 0.652277
0.811337 0.96495 0.58616
0.957031 0.962936 0.540963
0.978775 0.969162 0.630091
0.97879 0.969177 0.629801
0.150668 0.972488 0.83917
0.147051 0.972366 0.835355
0.139742 0.972061 0.827329
0.117388 0.971908 0.791043
0.183337 0.977035 0.649607
0.805783 0.96437 0.584573
0.953262 0.962249 0.531579
0.978821 0.969223 0.628733
0.978821 0.969238 0.628443
0.202136 0.100191 0.895689
0.229221 0.0991684 0.895308
0.292027 0.0996567 0.897795
0.489418 0.0996109 0.911147
0.823072 0.0860456 0.925582
0.953033 0.0867628 0.940993
0.95407 0.0921187 0.946242
0.954055 0.0920119 0.946227
0.954055 0.0919966 0.946212
0.170504 0.0979934 0.892836
0.199039 0.0973373 0.892683
0.260884 0.0974441 0.894453
0.470909 0.0988479 0.908553
0.814389 0.0844434 0.922911
0.952331 0.0838483 0.937438
0.954437 0.0941176 0.946746
0.954437 0.0940871 0.946746
0.954437 0.0941024 0.946746
0.104891 0.0920424 0.887068
0.134859 0.0925002 0.887175
0.195193 0.0924849 0.887678
0.430747 0.0971389 0.903227
0.796536 0.0816358 0.917937
0.951553 0.0801099 0.930541
0.953521 0.0903029 0.941054
0.954269 0.0935988 0.944045
0.954437 0.0944381 0.944747
0 0.184024 0.873533
0 0.167742 0.869902
0 0.133776 0.863462
0.227512 0.0938582 0.882414
0.722759 0.0873884 0.904341
0.949935 0.0749065 0.904463
0.950835 0.0793164 0.908675
0.951125 0.0807202 0.910048
0.951202 0.080827 0.910369
0 0.676951 0.914656
0 0.674052 0.916579
0 0.668391 0.921218
0 0.644907 0.942657
0.605692 0.600351 0.917739
0.959335 0.561425 0.906493
0.966339 0.545724 0.899916
0.966278 0.541176 0.898497
0.966323 0.540032 0.898146
0.127916 0.918639 0.896986
0.125902 0.917983 0.896284
0.122301 0.916854 0.894804
0.135561 0.910231 0.888334
0.510552 0.893751 0.879026
0.882933 0.882765 0.883955
0.966751 0.890089 0.878569
0.966583 0.88806 0.876967
0.966598 0.887633 0.876661
0.391287 0.969711 0.930877
0.388891 0.969604 0.930037
0.383459 0.969497 0.928618
0.369345 0.969055 0.921553
0.490242 0.965957 0.903014
0.825086 0.970306 0.902754
0.964828 0.973266 0.872343
0.976043 0.969131 0.873686
0.975906 0.968826 0.873625
0.39968 0.969924 0.933486
0.396857 0.969818 0.932509
0.390692 0.969696 0.930709
0.371786 0.969177 0.922759
0.46006 0.96614 0.898329
0.806958 0.971206 0.89897
0.959609 0.976059 0.876066
0.976669 0.97171 0.852827
0.976669 0.97171 0.85301
0.401862 0.969985 0.934127
0.39884 0.969879 0.93315
0.392554 0.969726 0.931243
0.372457 0.969207 0.923125
0.452064 0.96614 0.897063
0.802228 0.971084 0.897597
0.956573 0.975875 0.873976
0.976211 0.97174 0.850324
0.976699 0.971633 0.850904
0.25391 0.121263 0.915373
0.280522 0.122301 0.917144
0.336172 0.124331 0.921019
0.515084 0.124956 0.932708
0.842771 0.109514 0.946456
0.954757 0.0958572 0.947188
0.954543 0.0947433 0.946899
0.954467 0.0942855 0.946792
0.954452 0.0941787 0.946761
0.225422 0.120027 0.913436
0.252918 0.121233 0.915297
0.309056 0.123461 0.919234
0.4972 0.125826 0.931823
0.834134 0.110643 0.946181
0.954955 0.0967727 0.947478
0.954849 0.0964065 0.947326
0.954772 0.0960403 0.947234
0.954772 0.095964 0.947219
0.16466 0.116686 0.908965
0.194827 0.118502 0.911162
0.250996 0.121157 0.915175
0.459663 0.126802 0.92961
0.815793 0.113024 0.945632
0.9552 0.0985428 0.94789
0.955337 0.0993973 0.948135
0.955306 0.0992142 0.948074
0.955291 0.0991836 0.948058
0 0.185901 0.915679
0 0.16878 0.908934
0 0.134752 0.896406
0.282765 0.122377 0.917296
0.73344 0.114717 0.942489
0.956664 0.107408 0.950134
0.957382 0.11107 0.951141
0.957458 0.111574 0.951263
0.957473 0.111696 0.951293
0 0.670863 0.997086
0 0.667994 0.999252
0 0.661814 1
0 0.631708 1
0.595468 0.579446 0.964324
0.955322 0.538384 0.965835
0.966903 0.519829 0.965423
0.966995 0.515175 0.965454
0.96701 0.513985 0.965454
0.3458 0.899504 0.967468
0.347021 0.898451 0.967803
0.347677 0.89601 0.968353
0.349584 0.886229 0.97052
0.583078 0.874891 0.969497
0.867292 0.869947 0.961669
0.967788 0.85716 0.961379
0.967819 0.854551 0.960571
0.967788 0.853834 0.960327
0.543923 0.969253 0.964675
0.541238 0.969314 0.964416
0.536385 0.969406 0.963745
0.521218 0.969833 0.960632
0.567956 0.964691 0.955596
0.855787 0.960632 0.957183
0.960098 0.960067 0.960311
0.974975 0.961746 0.960037
0.974975 0.961486 0.959854
0.557015 0.96875 0.965759
0.557015 0.96875 0.965759
0.557015 0.96875 0.965759
0.530297 0.969741 0.962081
0.568902 0.969863 0.953292
0.857404 0.972381 0.961273
0.951522 0.976669 0.964477
0.97586 0.976547 0.959548
0.976974 0.976623 0.960586
0.557015 0.96875 0.965759
0.557015 0.96875 0.965759
0.557015 0.96875 0.965759
0.532601 0.969665 0.962448
0.561852 0.969802 0.95227
0.853529 0.972229 0.960525
0.949081 0.976486 0.963699
0.974823 0.976486 0.959609
0.976974 0.976608 0.959426
0.265049 0.121843 0.916213
0.291585 0.122728 0.917937
0.34519 0.124681 0.921691
0.521981 0.124697 0.93312
0.847395 0.108873 0.946502
0.953567 0.0899214 0.94551
0.954742 0.0957961 0.947173
0.954635 0.0952163 0.947021
0.954604 0.0950942 0.94699
0.236759 0.120653 0.914305
0.264088 0.121798 0.916152
0.318502 0.123629 0.919707
0.504128 0.125582 0.932235
0.838605 0.110094 0.946334
0.953902 0.0911116 0.945998
0.955108 0.0973068 0.947707
0.954986 0.096849 0.947509
0.954955 0.0967575 0.947463
0.176532 0.117418 0.909743
0.206577 0.11902 0.91194
0.262181 0.121721 0.916014
0.466773 0.126635 0.930022
0.820127 0.11249 0.945785
0.95436 0.0937209 0.946654
0.955474 0.100175 0.948333
0.955413 0.0998703 0.948257
0.955398 0.0998093 0.948241
0 0.17908 0.912932
0 0.162081 0.90631
0 0.127794 0.894072
0.293004 0.122774 0.918029
0.737301 0.113909 0.942504
0.956359 0.104799 0.949615
0.957382 0.111101 0.951141
0.957443 0.111513 0.951247
0.957458 0.11162 0.951263
0 0.66479 1
0 0.660945 1
0 0.653468 1
0 0.621622 1
0.592432 0.567544 0.964599
0.954787 0.525353 0.965942
0.967224 0.505898 0.965545
0.967178 0.501198 0.965438
0.967208 0.499977 0.965454
0.401694 0.896101 0.973251
0.400473 0.895064 0.97348
0.397391 0.892393 0.973831
0.384985 0.881453 0.974792
0.574441 0.869612 0.969421
0.864576 0.864652 0.96495
0.967742 0.851896 0.96762
0.967559 0.849271 0.967437
0.967529 0.848585 0.967407
0.557015 0.96875 0.965759
0.557015 0.96875 0.965759
0.557015 0.96875 0.965759
0.541085 0.966323 0.965896
0.597467 0.959045 0.966628
0.88188 0.957702 0.972961
0.957183 0.957641 0.973953
0.974914 0.956069 0.974914
0.974853 0.955627 0.974716
0.557015 0.96875 0.965759
0.557015 0.96875 0.965759
0.557015 0.96875 0.965759
0.561318 0.968795 0.965835
0.628321 0.969253 0.966827
0.872755 0.973983 0.972549
0.956527 0.975601 0.974823
0.975769 0.975769 0.975799
0.976196 0.97586 0.976745
0.557015 0.96875 0.965759
0.557015 0.96875 0.965759
0.557015 0.96875 0.965759
0.561151 0.968795 0.965835
0.624689 0.969207 0.966751
0.868162 0.973938 0.971786
0.95584 0.976867 0.97499
0.975326 0.976226 0.977264
0.977111 0.976196 0.977279
0.267948 0.12195 0.916411
0.294423 0.12282 0.91812
0.347494 0.124743 0.921843
0.523537 0.124681 0.933242
0.848554 0.108705 0.946502
0.95346 0.0885634 0.945281
0.954787 0.0960708 0.947234
0.954681 0.0954604 0.947097
0.95465 0.0953384 0.947051
0.239719 0.12079 0.914504
0.266972 0.12192 0.916335
0.321004 0.123705 0.919875
0.505898 0.125521 0.932342
0.839796 0.109911 0.946349
0.953536 0.0897231 0.945464
0.955154 0.0975509 0.947768
0.955047 0.0970626 0.947616
0.955016 0.0969558 0.94757
0.179767 0.117601 0.909987
0.209506 0.119173 0.9122
0.265049 0.121843 0.916213
0.46833 0.126574 0.930083
0.821256 0.112337 0.945815
0.954131 0.0924239 0.946319
0.955505 0.100404 0.948394
0.955444 0.100069 0.948302
0.955444 0.0999924 0.948287
0 0.17734 0.9122
0 0.160449 0.905806
0 0.125963 0.893339
0.295415 0.122927 0.918227
0.738354 0.113893 0.942535
0.956237 0.104036 0.949432
0.957382 0.111116 0.951141
0.957443 0.111513 0.951247
0.957458 0.11162 0.951263
0 0.662684 1
0 0.659083 1
0 0.651438 1
0 0.619013 1
0.591638 0.564523 0.964599
0.954803 0.522026 0.966094
0.967163 0.502297 0.965438
0.967254 0.49749 0.965469
0.967376 0.496406 0.965576
0.400717 0.895277 0.973404
0.399405 0.894148 0.973648
0.396155 0.89131 0.973938
0.383032 0.879942 0.974914
0.572168 0.868193 0.969406
0.863905 0.862821 0.964889
0.96759 0.849912 0.967468
0.967468 0.847242 0.967346
0.967437 0.846555 0.967315
0.557015 0.96875 0.965759
0.557015 0.96875 0.965759
0.557015 0.96875 0.965759
0.536019 0.965637 0.965866
0.593591 0.957931 0.966644
0.881559 0.956741 0.972915
0.956878 0.956725 0.973968
0.974762 0.954833 0.974762
0.974701 0.954406 0.974716
0.557015 0.96875 0.965759
0.557015 0.96875 0.965759
0.557015 0.96875 0.965759
0.561395 0.968795 0.965835
0.627985 0.969253 0.966812
0.873533 0.973953 0.972885
0.957595 0.974792 0.976898
0.975265 0.975097 0.976898
0.976043 0.975174 0.977066
0.557015 0.96875 0.965759
0.557015 0.96875 0.965759
0.557015 0.96875 0.965759
0.561242 0.968795 0.96582
0.624414 0.969192 0.96672
0.870878 0.973861 0.972778
0.955962 0.976791 0.976867
0.97583 0.976303 0.977401
0.976852 0.976852 0.976852
