bundles/resolve-cinematic-luts/Phantom Luts/P4k & P6k Phntm Arri LUTs - V6/P4K/Gen 5 Colour/Standard (No WB Offset)/P4k Jamaica Gen5-Legacy.cube
TITLE "Generated by Resolve"
LUT_3D_SIZE 9
0.0178836 0.0347143 0.0179446
0.0415808 0.0381476 0.0206607
0.126787 0.0442664 0.0271611
0.343069 0.0452277 0.0374762
0.61735 0.0782025 0.0998093
0.714885 0.160189 0.190723
0.717372 0.162814 0.194095
0.718181 0.163806 0.195148
0.717662 0.164233 0.194522
0.0230716 0.0522164 0.0354009
0.0339666 0.0506142 0.0238041
0.10457 0.0550698 0.0339513
0.311269 0.0515145 0.0351415
0.603754 0.0835431 0.0890364
0.715587 0.167865 0.188327
0.718379 0.1691 0.191302
0.719371 0.169635 0.192386
0.718914 0.16994 0.191806
0.0235752 0.126116 0.0629282
0.022385 0.125872 0.0467689
0.0842908 0.124575 0.0267491
0.341817 0.113497 0.0530556
0.601892 0.110842 0.090898
0.729747 0.190738 0.196689
0.730816 0.192081 0.197467
0.731106 0.192447 0.197681
0.730709 0.192554 0.197101
0.0241398 0.350271 0.155962
0.0179904 0.353719 0.137682
0.0185702 0.353689 0.0916609
0.247822 0.354055 0.0320439
0.747997 0.38172 0.165057
0.88014 0.412604 0.291417
0.871489 0.398032 0.286595
0.86804 0.392432 0.284688
0.865614 0.389197 0.283207
0.114382 0.723507 0.412009
0.113863 0.723445 0.397162
0.117525 0.725292 0.369574
0.143175 0.718151 0.237217
0.624491 0.718837 0.154864
1 0.817716 0.464973
1 0.81236 0.471885
1 0.807675 0.46656
1 0.803525 0.461418
0.405859 0.984421 0.712489
0.402884 0.983246 0.702998
0.402991 0.983505 0.691279
0.414206 0.989395 0.648005
0.628702 0.998932 0.503166
0.963104 0.987854 0.488823
1 0.998932 0.552346
1 0.998932 0.551751
1 0.998566 0.550988
0.40557 0.983658 0.723842
0.402594 0.982437 0.715648
0.402853 0.983078 0.705898
0.406897 0.985122 0.662104
0.537392 0.998932 0.549828
0.92665 0.992294 0.481773
1 0.998932 0.562493
1 0.998932 0.566217
1 0.998932 0.566079
0.409018 0.986068 0.730938
0.403738 0.982605 0.720485
0.402701 0.982589 0.710353
0.405921 0.984619 0.667796
0.505699 0.998932 0.547158
0.914549 0.992203 0.477256
1 0.998932 0.559976
1 0.998932 0.566003
1 0.998932 0.565072
0.410437 0.987411 0.732677
0.405875 0.984009 0.72256
0.404334 0.983551 0.712337
0.406027 0.984665 0.667353
0.510903 0.998932 0.544228
0.917479 0.991989 0.477974
1 0.998932 0.559915
1 0.998932 0.565698
1 0.998932 0.564675
0.0185092 0.0362402 0.0339208
0.0405127 0.0358587 0.0400397
0.127016 0.0394751 0.052491
0.368215 0.0469368 0.0690776
0.641489 0.0910964 0.129854
0.721111 0.166552 0.203006
0.726345 0.172427 0.209766
0.727687 0.1738 0.211215
0.726894 0.174365 0.210849
0.0220188 0.0467384 0.0364691
0.0284886 0.0453346 0.0323949
0.11368 0.0470588 0.0311131
0.331548 0.0457465 0.0367132
0.614054 0.0775616 0.0975052
0.714397 0.161242 0.190631
0.716258 0.163638 0.193622
0.717189 0.164523 0.194629
0.716182 0.165057 0.1944
0.0277867 0.115923 0.079942
0.0239261 0.117189 0.0604105
0.0770886 0.119203 0.0271763
0.343832 0.102342 0.0513771
0.601373 0.100572 0.088014
0.722927 0.181918 0.191714
0.723903 0.183169 0.192676
0.724422 0.183291 0.193286
0.723918 0.183276 0.192889
0.026688 0.340093 0.171496
0.0221866 0.341634 0.152178
0.0157626 0.347875 0.107759
0.242695 0.348974 0.0326543
0.746929 0.370413 0.165316
0.873472 0.401282 0.287709
0.864118 0.386053 0.282414
0.860838 0.380499 0.280766
0.858015 0.37702 0.278813
0.110262 0.718044 0.420005
0.10927 0.717906 0.406119
0.111437 0.718547 0.379324
0.136919 0.716182 0.246082
0.621393 0.715267 0.152377
1 0.815778 0.466728
1 0.805386 0.463447
1 0.800534 0.457969
1 0.796796 0.453468
0.405631 0.983963 0.717922
0.40293 0.983108 0.709041
0.40293 0.983413 0.697765
0.411597 0.987869 0.652659
0.620874 0.998932 0.504158
0.961807 0.98732 0.487648
1 0.998932 0.552071
1 0.998932 0.550576
1 0.998779 0.549554
0.404776 0.982681 0.728634
0.402304 0.981888 0.720897
0.402884 0.982879 0.711894
0.406088 0.984985 0.668711
0.527871 0.998932 0.552636
0.923339 0.992432 0.480659
1 0.998932 0.562982
1 0.998932 0.566949
1 0.998932 0.566812
0.40853 0.985168 0.735683
0.402533 0.981521 0.725078
0.402502 0.982162 0.716075
0.405264 0.984527 0.674571
0.496635 0.998932 0.550973
0.910811 0.992432 0.476143
1 0.998932 0.559335
1 0.998932 0.566827
1 0.998932 0.565774
0.409842 0.986435 0.737423
0.40296 0.981811 0.725811
0.403922 0.982986 0.717647
0.405371 0.984588 0.674113
0.501778 0.998932 0.547616
0.913954 0.992142 0.476814
1 0.998932 0.55903
1 0.998932 0.56643
1 0.998932 0.565332
0.018555 0.0374304 0.0986343
0.0504005 0.0378424 0.0989853
0.127565 0.0387427 0.111574
0.390356 0.0297551 0.130098
0.658213 0.0926833 0.16701
0.745922 0.18706 0.239796
0.74905 0.189273 0.24477
0.750195 0.19028 0.246098
0.749752 0.190753 0.245335
0.0216831 0.0466926 0.0780346
0.0188907 0.0375525 0.0878462
0.111086 0.0394903 0.0958419
0.366049 0.0372015 0.0991531
0.654551 0.0982376 0.150942
0.731502 0.176349 0.217411
0.736156 0.181262 0.223423
0.737392 0.182452 0.224842
0.736721 0.182727 0.224094
0.0295415 0.107973 0.100755
0.0291905 0.104829 0.0959487
0.0839551 0.103365 0.0870832
0.332403 0.0833295 0.069688
0.611215 0.081239 0.0961166
0.716152 0.164294 0.190829
0.718471 0.166094 0.193759
0.719234 0.166735 0.194614
0.718654 0.167071 0.194339
0.0301976 0.322805 0.198581
0.0269169 0.322713 0.181353
0.0218967 0.325185 0.144244
0.234104 0.339849 0.0358434
0.74548 0.34902 0.166369
0.86099 0.380621 0.280827
0.850752 0.364324 0.275074
0.846922 0.35845 0.272847
0.844343 0.35523 0.271031
0.10367 0.707942 0.434241
0.102464 0.7084 0.421393
0.103044 0.708492 0.39736
0.125338 0.712001 0.264546
0.616571 0.709789 0.148669
1 0.805371 0.456413
1 0.793057 0.448356
1 0.787121 0.441886
1 0.784085 0.438102
0.404883 0.982849 0.726467
0.402518 0.98233 0.718181
0.40296 0.983185 0.708385
0.407553 0.98555 0.66154
0.606546 0.998932 0.506035
0.95996 0.986389 0.485801
1 0.998932 0.551568
1 0.998871 0.549172
1 0.998581 0.547845
0.404318 0.981613 0.736416
0.401846 0.981003 0.72903
0.402365 0.981994 0.720424
0.405188 0.984756 0.679011
0.51162 0.998932 0.557015
0.918257 0.992813 0.479454
1 0.998932 0.5635
1 0.998932 0.568017
1 0.998932 0.567895
0.407858 0.98378 0.743069
0.401663 0.980591 0.732052
0.401999 0.981247 0.724285
0.404517 0.984222 0.684825
0.484092 0.998932 0.557076
0.905272 0.992859 0.474769
1 0.998932 0.557702
1 0.998932 0.567956
1 0.998932 0.566873
0.409003 0.984863 0.745022
0.402365 0.980911 0.733379
0.402533 0.981537 0.725338
0.404578 0.984283 0.684688
0.489113 0.998932 0.554345
0.907607 0.992645 0.475181
1 0.998932 0.557122
1 0.998932 0.567605
1 0.998932 0.566278
0.030396 0.0374151 0.274418
0.0586862 0.0385748 0.26981
0.133898 0.0403754 0.275532
0.354681 0.0387121 0.292088
0.648951 0.0449989 0.291081
0.728801 0.119295 0.302663
0.728786 0.118791 0.306569
0.729229 0.119097 0.306935
0.727764 0.120699 0.304967
0.0153506 0.0418097 0.266514
0.0298009 0.0373693 0.26569
0.104768 0.039765 0.26891
0.344549 0.0398718 0.27982
0.645457 0.0438392 0.276249
0.733761 0.132235 0.292851
0.732692 0.129641 0.296269
0.732998 0.129656 0.29659
0.732067 0.131304 0.294957
0.0146334 0.0856184 0.24152
0.0150454 0.0731518 0.247715
0.0486152 0.0561532 0.265736
0.328267 0.0487373 0.257191
0.642573 0.0492866 0.235004
0.747417 0.163043 0.278614
0.747539 0.161959 0.281224
0.747784 0.16202 0.281758
0.747616 0.163027 0.280369
0.0336156 0.297749 0.270436
0.032578 0.294911 0.264576
0.0330968 0.288426 0.255467
0.269734 0.306493 0.251423
0.709651 0.278538 0.23566
0.817319 0.294408 0.27071
0.802014 0.276112 0.259083
0.797086 0.270085 0.255344
0.794995 0.267857 0.253422
0.0923476 0.674662 0.491905
0.0897688 0.675746 0.481346
0.0870527 0.675319 0.462623
0.0927138 0.684031 0.359548
0.602213 0.693187 0.153918
0.997406 0.749447 0.410956
0.993606 0.739178 0.40029
0.991653 0.732937 0.395422
0.990311 0.730312 0.39234
0.398886 0.974746 0.751751
0.396506 0.974685 0.744411
0.395224 0.97467 0.734279
0.393347 0.975341 0.691844
0.539269 0.998932 0.526925
0.950774 0.983566 0.478965
1 0.998627 0.550759
1 0.998199 0.549004
1 0.997711 0.547402
0.404791 0.978363 0.764324
0.40206 0.978027 0.757595
0.401572 0.978698 0.749432
0.403052 0.982742 0.715923
0.468467 0.998932 0.586267
0.896864 0.99588 0.476875
1 0.998932 0.560861
1 0.998932 0.571923
1 0.998932 0.571771
0.408042 0.980194 0.769207
0.402197 0.977829 0.759701
0.401679 0.978408 0.751858
0.402594 0.981949 0.72015
0.451911 0.998932 0.587457
0.882109 0.996948 0.473182
1 0.997665 0.552026
1 0.998932 0.572229
1 0.998932 0.571054
0.408698 0.980682 0.771145
0.402899 0.977905 0.761761
0.401785 0.978378 0.753201
0.402625 0.981918 0.720851
0.454032 0.998932 0.58584
0.884062 0.996689 0.473579
1 0.997879 0.551415
1 0.998932 0.571756
1 0.998932 0.570474
0.0584573 0.0436255 0.51603
0.0831311 0.0441138 0.516289
0.136767 0.0449073 0.522545
0.345281 0.047425 0.550546
0.624048 0.0577707 0.534676
0.766751 0.151858 0.510353
0.767727 0.153933 0.516716
0.767651 0.153811 0.516701
0.766537 0.152605 0.512108
0.0339208 0.0420233 0.511589
0.0579995 0.0432593 0.512001
0.112215 0.0443732 0.517632
0.329335 0.0469673 0.54696
0.622354 0.0570535 0.531899
0.7635 0.147692 0.501167
0.764431 0.149477 0.506065
0.763806 0.148775 0.505562
0.761913 0.146929 0.500984
0.0118715 0.050248 0.501305
0.0138399 0.0446632 0.502983
0.0585794 0.0427863 0.506508
0.291768 0.0459754 0.537926
0.61976 0.0570993 0.525948
0.749126 0.129992 0.479988
0.752026 0.133867 0.484321
0.751537 0.13312 0.483452
0.74966 0.131243 0.479927
0.00271611 0.256336 0.514382
0.00209049 0.248753 0.514595
0.00210575 0.233402 0.519493
0.183429 0.188571 0.542458
0.671168 0.150942 0.558175
0.738262 0.112627 0.443671
0.73225 0.104341 0.431312
0.730587 0.102007 0.426917
0.729473 0.101061 0.423972
0.0926223 0.628244 0.594247
0.0898756 0.627741 0.588357
0.0874647 0.624704 0.583185
0.083238 0.612589 0.563531
0.591882 0.616358 0.541451
1 0.626093 0.552605
1 0.615274 0.541772
1 0.610071 0.536904
1 0.608286 0.533913
0.376593 0.937514 0.810697
0.374502 0.937377 0.805264
0.370947 0.936263 0.79765
0.359701 0.933898 0.76791
0.443473 0.998932 0.688106
0.936629 0.982467 0.530877
1 0.974975 0.592981
1 0.972229 0.588983
1 0.970855 0.587976
0.418952 0.971664 0.84419
0.416281 0.972198 0.838453
0.414633 0.972732 0.831876
0.409186 0.974289 0.807797
0.419852 0.996414 0.71194
0.840269 0.998932 0.524193
1 0.998093 0.574533
1 0.998932 0.614893
1 0.998932 0.61474
0.419959 0.972503 0.844083
0.41619 0.97203 0.838743
0.414679 0.972625 0.83241
0.409384 0.974136 0.808881
0.414176 0.991379 0.711528
0.81326 0.998932 0.519234
1 0.993317 0.547936
1 0.998932 0.608148
1 0.998932 0.606012
0.420905 0.972686 0.846387
0.417044 0.97203 0.841443
0.41529 0.972412 0.834958
0.409781 0.974014 0.810895
0.414649 0.99176 0.712642
0.81207 0.998932 0.519478
1 0.993576 0.545464
1 0.998932 0.608789
1 0.998932 0.606226
0.123125 0.0915389 0.640162
0.138201 0.0910964 0.647059
0.173159 0.0922408 0.662715
0.314733 0.0977798 0.707408
0.579385 0.123903 0.711238
0.706432 0.161196 0.710445
0.705318 0.165621 0.717891
0.705409 0.16614 0.719417
0.703716 0.165988 0.716548
0.107103 0.0897993 0.631251
0.121141 0.0895705 0.638224
0.154513 0.0905318 0.654017
0.30042 0.0966354 0.7037
0.573419 0.121691 0.710903
0.706798 0.16025 0.707591
0.706416 0.165255 0.716014
0.705562 0.165682 0.716182
0.703731 0.16556 0.713085
0.0697948 0.0839857 0.608637
0.0869154 0.0852369 0.618631
0.117174 0.0864271 0.634745
0.269062 0.0939803 0.694514
0.56022 0.116258 0.709316
0.708171 0.158633 0.701518
0.708568 0.163012 0.710857
0.708049 0.163561 0.71136
0.707454 0.16321 0.708949
0.0373236 0.162356 0.623194
0.0360418 0.151049 0.618555
0.031693 0.132509 0.608698
0.136751 0.0991379 0.651759
0.514748 0.107637 0.714763
0.693858 0.127413 0.658671
0.695964 0.130922 0.663264
0.696284 0.131243 0.663172
0.695827 0.130404 0.660395
0.153765 0.582406 0.755932
0.151385 0.580362 0.753338
0.150393 0.574517 0.753704
0.149722 0.550866 0.758663
0.518608 0.535698 0.866911
1 0.510735 0.90483
1 0.490379 0.895338
1 0.484459 0.890272
1 0.481697 0.886824
0.372274 0.899901 0.875349
0.369162 0.899428 0.870207
0.364874 0.896635 0.865965
0.356405 0.891142 0.855985
0.478782 0.928878 0.877577
0.881346 0.893523 0.834104
1 0.915068 0.875868
1 0.90959 0.86949
1 0.908049 0.866194
0.481331 0.993988 0.961135
0.479438 0.994064 0.956954
0.477256 0.993027 0.953582
0.470268 0.990112 0.941695
0.479316 0.998932 0.919142
0.778668 0.998932 0.892042
0.999908 0.9906 0.794125
1 0.993667 0.793698
1 0.99382 0.793332
0.481498 0.994675 0.96051
0.480064 0.994385 0.957855
0.47776 0.993439 0.954101
0.469947 0.989792 0.94139
0.467552 0.998932 0.909117
0.754009 0.998932 0.883986
0.989151 0.990951 0.793744
1 0.995483 0.771542
1 0.996048 0.772488
0.483513 0.995377 0.963134
0.481514 0.994904 0.96025
0.479515 0.994247 0.956832
0.471504 0.990585 0.943908
0.470695 0.998932 0.912428
0.756634 0.998932 0.886915
0.987671 0.99173 0.798657
1 0.995361 0.772564
1 0.995926 0.773846
0.166537 0.121889 0.675792
0.181491 0.123568 0.683436
0.211917 0.126741 0.698054
0.338079 0.13637 0.74313
0.605341 0.164981 0.758846
0.715328 0.18439 0.74519
0.714443 0.183185 0.744076
0.713588 0.18323 0.743297
0.71223 0.183459 0.741924
0.150225 0.119844 0.667033
0.166247 0.121904 0.675654
0.19585 0.124987 0.690425
0.32459 0.135729 0.739696
0.597681 0.16376 0.75993
0.715984 0.185351 0.746075
0.715221 0.184253 0.745052
0.713756 0.184497 0.743603
0.711955 0.184924 0.742092
0.118379 0.115251 0.649027
0.134432 0.117861 0.658366
0.16318 0.121508 0.674022
0.2963 0.133944 0.731258
0.581231 0.161364 0.762249
0.717296 0.18706 0.74786
0.716976 0.186572 0.747616
0.716701 0.186496 0.747204
0.715969 0.186603 0.745647
0.0630961 0.15346 0.635172
0.0596017 0.143313 0.629038
0.0535897 0.123095 0.617426
0.174533 0.122667 0.679835
0.512474 0.151019 0.765133
0.72137 0.192935 0.752621
0.72256 0.194507 0.754635
0.722744 0.194751 0.754864
0.722622 0.194705 0.754284
0.188312 0.573922 0.809888
0.186175 0.570825 0.807691
0.18381 0.564569 0.80557
0.174228 0.537942 0.79675
0.495277 0.507805 0.952178
0.965591 0.490532 0.996765
0.963653 0.470756 0.993393
0.96112 0.464851 0.991043
0.958907 0.462135 0.98822
0.407141 0.88896 0.952148
0.404837 0.887739 0.949706
0.402243 0.884153 0.949248
0.393225 0.87129 0.947509
0.505333 0.884016 0.986374
0.846082 0.858137 0.968627
0.989868 0.844999 0.98851
0.990662 0.84007 0.987991
0.989364 0.838376 0.986633
0.542062 0.998932 1
0.537926 0.998932 1
0.534997 0.998932 1
0.528084 0.998932 1
0.541909 0.998932 1
0.828656 0.997772 0.990097
0.982238 0.985611 0.973556
0.992905 0.983047 0.970016
0.992523 0.982803 0.968368
0.551492 0.998932 1
0.545876 0.998932 1
0.541497 0.998932 1
0.529809 0.998932 1
0.536095 0.998932 0.998093
0.812604 0.998932 0.994553
0.962005 0.989899 0.978347
0.996796 0.985779 0.954925
0.995819 0.986191 0.95642
0.554086 0.998932 1
0.550469 0.998932 1
0.545754 0.998932 1
0.532067 0.998932 1
0.538491 0.998932 0.998718
0.814054 0.998932 0.994522
0.959991 0.990372 0.978103
0.99472 0.986618 0.954635
0.993561 0.987137 0.954391
0.17351 0.122652 0.679377
0.189563 0.124422 0.687419
0.219242 0.127382 0.70132
0.344656 0.136797 0.744793
0.610025 0.165499 0.757824
0.713024 0.180911 0.742168
0.715053 0.183978 0.744823
0.714611 0.183444 0.744564
0.714382 0.183322 0.743755
0.158785 0.120943 0.671656
0.17319 0.122621 0.67921
0.20267 0.125658 0.693645
0.330816 0.135927 0.741238
0.602533 0.164538 0.759274
0.713466 0.181613 0.742779
0.715785 0.185092 0.74583
0.715557 0.184741 0.745495
0.713375 0.185351 0.743221
0.126162 0.116365 0.653483
0.141741 0.118959 0.662501
0.170687 0.122393 0.677943
0.302617 0.134173 0.733135
0.585443 0.161761 0.761425
0.714443 0.183093 0.744274
0.717449 0.187259 0.748135
0.717266 0.187015 0.747845
0.71693 0.186984 0.746899
0.0615396 0.148135 0.632181
0.0578317 0.13756 0.625711
0.0520027 0.117342 0.614145
0.182116 0.123537 0.68368
0.515038 0.150286 0.763867
0.719676 0.190616 0.750637
0.722591 0.194507 0.754803
0.722713 0.19469 0.75491
0.72256 0.194629 0.754192
0.187121 0.569863 0.808728
0.184497 0.565713 0.806165
0.181079 0.556848 0.803098
0.169879 0.525292 0.792615
0.490028 0.492073 0.949569
0.959411 0.475319 0.992004
0.956161 0.455055 0.986053
0.953307 0.448966 0.983444
0.951034 0.445594 0.980896
0.434882 0.901564 0.976837
0.431647 0.900252 0.974121
0.427619 0.896498 0.972351
0.413977 0.883009 0.966552
0.500526 0.87335 0.986435
0.836973 0.849393 0.973739
0.986374 0.836057 0.994751
0.986282 0.830655 0.995285
0.985977 0.828275 0.994812
0.571176 0.998932 1
0.569284 0.998932 1
0.569085 0.998932 1
0.565789 0.998932 1
0.576165 0.998932 1
0.854078 0.990082 0.999115
0.981323 0.981338 0.992065
0.994217 0.978775 0.994247
0.993576 0.978485 0.993774
0.570703 0.998932 1
0.569268 0.998932 1
0.569085 0.998932 1
0.570733 0.998932 1
0.59762 0.998932 1
0.837827 0.997162 1
0.975387 0.988922 0.993561
0.994766 0.98883 0.994202
0.993667 0.989288 0.993286
0.570291 0.998932 1
0.569268 0.998932 1
0.569085 0.998932 1
0.570733 0.998932 1
0.600092 0.998932 1
0.837674 0.997177 1
0.974044 0.98909 0.993286
0.993713 0.989273 0.993317
0.992401 0.989807 0.992264
0.175601 0.122896 0.68043
0.191638 0.124651 0.688441
0.221195 0.127443 0.702113
0.345785 0.136904 0.745098
0.61091 0.165576 0.757595
0.712215 0.179751 0.741176
0.715221 0.184237 0.745052
0.714946 0.183841 0.744778
0.714763 0.183703 0.743969
0.160784 0.121248 0.67274
0.175296 0.122866 0.680293
0.204532 0.125917 0.69456
0.331991 0.136049 0.741588
0.603525 0.164675 0.759091
0.712749 0.180499 0.741741
0.715969 0.185336 0.746075
0.715694 0.184955 0.745647
0.715541 0.184833 0.74493
0.128496 0.116777 0.654841
0.143694 0.119203 0.663584
0.172503 0.12253 0.678843
0.303975 0.134234 0.733532
0.586358 0.161883 0.761273
0.71371 0.18201 0.743358
0.717601 0.187457 0.748302
0.717403 0.187198 0.747997
0.71722 0.18706 0.747173
0.060914 0.146609 0.631189
0.0574655 0.135851 0.624842
0.0513161 0.115465 0.61297
0.184115 0.123766 0.684688
0.515831 0.150408 0.763882
0.719295 0.190005 0.750118
0.722606 0.194522 0.754818
0.722713 0.19469 0.75491
0.72256 0.194629 0.754192
0.186053 0.566812 0.807797
0.183276 0.562524 0.805097
0.179828 0.553445 0.801953
0.168536 0.52137 0.791348
0.488472 0.487343 0.948592
0.957259 0.470314 0.99057
0.954284 0.450843 0.98436
0.95082 0.444327 0.981109
0.948257 0.440375 0.978286
0.432929 0.899779 0.97612
0.429587 0.898222 0.973327
0.425391 0.894316 0.97145
0.411429 0.880507 0.965347
0.496757 0.870222 0.985962
0.835035 0.845487 0.973465
0.986084 0.832181 0.994675
0.986374 0.826673 0.995621
0.985718 0.823545 0.994812
0.571084 0.998932 1
0.569284 0.998932 1
0.569085 0.998932 1
0.561959 0.998932 1
0.570336 0.998932 1
0.855573 0.988663 0.997955
0.97966 0.980468 0.991379
0.993652 0.97731 0.993881
0.993072 0.976791 0.993454
0.570718 0.998932 1
0.569268 0.998932 1
0.569085 0.998932 1
0.570794 0.998932 1
0.59881 0.998932 1
0.844175 0.997208 1
0.973953 0.98967 0.992187
0.993851 0.989212 0.993439
0.993851 0.989212 0.993439
0.570993 0.998932 1
0.569268 0.998932 1
0.569085 0.998932 1
0.570825 0.998932 1
0.600793 0.998932 1
0.845045 0.997147 1
0.972961 0.989807 0.991897
0.992172 0.989899 0.992081
0.992279 0.989868 0.992172
