bundles/resolve-cinematic-luts/Phantom Luts/P4k & P6k Phntm Arri LUTs - V6/P4K/Gen 5 Colour/Standard (No WB Offset)/P4k Utopia Gen5.cube
TITLE "Generated by Resolve"
LUT_3D_SIZE 5
0 0.0227512 0.0306706
0.123598 0.0180362 0.0225071
0.677089 0.0643168 0.087892
0.836179 0.130236 0.154971
0.851392 0.127687 0.153643
0 0.144732 0.0559548
0.0758984 0.147845 0.0133211
0.660075 0.12224 0.0925154
0.849226 0.173007 0.15407
0.854383 0.17319 0.153262
0 0.768841 0.36968
0 0.77705 0.30544
0.707439 0.735271 0.110979
0.976303 0.776242 0.336996
0.977172 0.777066 0.335454
0.0356298 0.994949 0.603906
0.0346685 0.996307 0.572152
0.553338 0.996857 0.339239
0.999969 0.948119 0.532494
0.999969 0.948348 0.535668
0.0322271 0.995407 0.611597
0.0375219 0.995575 0.58146
0.543603 0.997391 0.337804
0.999969 0.947951 0.529885
0.999969 0.948363 0.533989
0 0.0300298 0.135515
0.110124 0.0158083 0.129595
0.714168 0.0628214 0.181247
0.864332 0.141726 0.243839
0.872724 0.138231 0.246586
0 0.120104 0.125521
0.0775311 0.117968 0.12578
0.681605 0.0724193 0.0935225
0.844587 0.13193 0.15407
0.852338 0.131502 0.154452
0 0.754116 0.416297
0 0.759945 0.365942
0.701091 0.728099 0.111406
0.980819 0.771405 0.325933
0.981735 0.772229 0.325185
0.0368048 0.994049 0.633433
0.0345006 0.995178 0.604059
0.498329 0.999176 0.333806
0.999969 0.948272 0.536538
0.999969 0.948516 0.539178
0.0356146 0.994125 0.642206
0.0382696 0.994217 0.613657
0.481849 0.999588 0.33312
0.999969 0.947555 0.525521
0.999969 0.948562 0.538231
0 0.0579538 0.590524
0.0391089 0.0507668 0.605386
0.637461 0.0482338 0.569619
0.776532 0.0814679 0.597284
0.78233 0.075288 0.60647
0 0.0657664 0.572671
0 0.057496 0.591424
0.631586 0.0487068 0.563729
0.789456 0.100252 0.585657
0.791882 0.0941176 0.591394
0 0.694667 0.658686
0 0.694453 0.658289
0.649409 0.66566 0.64683
0.956329 0.659129 0.614054
0.955261 0.657237 0.613352
0.103746 0.984405 0.835874
0.0877699 0.985397 0.825177
0.226581 0.998108 0.656779
0.995804 0.947753 0.598993
0.998062 0.952514 0.650858
0.103304 0.986221 0.846357
0.0939956 0.985687 0.834531
0.184878 0.997971 0.655436
0.985901 0.943282 0.561578
0.997574 0.952865 0.650339
0.0698253 0.180774 0.846235
0.167819 0.179324 0.860914
0.695964 0.163958 0.851438
0.797726 0.159014 0.820859
0.801846 0.156435 0.826322
0 0.179828 0.82121
0.0671855 0.180758 0.846601
0.680232 0.165011 0.857343
0.797147 0.165133 0.819547
0.803815 0.162051 0.827909
0 0.7122 0.917144
0 0.709438 0.922759
0.519448 0.642222 0.97438
0.932967 0.559976 0.943023
0.930739 0.557763 0.943832
0.473396 0.985443 0.971023
0.465064 0.985672 0.971389
0.522774 0.97911 0.961486
0.960876 0.959091 0.954986
0.976913 0.959823 0.954452
0.497383 0.984573 0.973678
0.493263 0.984787 0.974426
0.528161 0.983642 0.958251
0.944884 0.976364 0.957961
0.977234 0.974166 0.956512
0.0910353 0.180545 0.849805
0.18555 0.179263 0.862943
0.703761 0.163714 0.849882
0.798779 0.16054 0.822019
0.802777 0.157702 0.827329
0 0.180667 0.824948
0.0875105 0.180545 0.850126
0.687663 0.164691 0.856291
0.797742 0.165881 0.820249
0.80415 0.162692 0.828336
0 0.707561 0.918639
0 0.702541 0.921401
0.515663 0.626978 0.97528
0.929671 0.543618 0.940856
0.928313 0.542016 0.941909
0.501717 0.983886 0.974166
0.500984 0.984161 0.975372
0.558206 0.972 0.976074
0.951766 0.956802 0.972198
0.973983 0.953887 0.970748
0.50457 0.984192 0.974121
0.502388 0.984344 0.975341
0.597574 0.981704 0.974685
0.950866 0.976211 0.976379
0.977447 0.974746 0.973816
