bundles/resolve-cinematic-luts/Phantom Luts/P4k & P6k Phntm Arri LUTs - V6/P4K/Gen 5 Colour/Standard (No WB Offset)/P4k Utopia Gen5.cube
TITLE "Generated by Resolve"
LUT_3D_SIZE 33
0 0.0227512 0.0306706
0 0.0227512 0.0306706
0 0.0227512 0.0306706
0.0080415 0.0218814 0.0292058
0.0238956 0.0213779 0.030808
0.0381628 0.0214389 0.0298314
0.0595254 0.0206149 0.0280156
0.0865187 0.0193942 0.0253147
0.123598 0.0180362 0.0225071
0.173083 0.0166323 0.0201724
0.234379 0.0143587 0.0173342
0.304494 0.012726 0.0163272
0.377401 0.0134127 0.0187228
0.454658 0.0186923 0.0262608
0.529564 0.0308385 0.0435645
0.60267 0.0459144 0.0639353
0.677089 0.0643168 0.087892
0.744793 0.0844739 0.111254
0.79826 0.106783 0.132479
0.825422 0.122347 0.145403
0.832212 0.127352 0.150042
0.833402 0.128328 0.151629
0.834424 0.12903 0.152895
0.835416 0.129671 0.154147
0.836179 0.130236 0.154971
0.836713 0.130663 0.155657
0.837095 0.130968 0.156161
0.83769 0.131106 0.156466
0.838407 0.131121 0.156603
0.840406 0.130678 0.156329
0.842847 0.130083 0.155703
0.846983 0.128939 0.154711
0.851392 0.127687 0.153643
0 0.0227512 0.0306706
0 0.0227512 0.0306706
0 0.0227512 0.0306706
0 0.0226139 0.0298314
0.016907 0.0221408 0.0303655
0.0306401 0.0222171 0.0306096
0.0507057 0.0221103 0.0291447
0.0768292 0.0214847 0.0265354
0.11252 0.0205692 0.0238651
0.160754 0.0197604 0.0215152
0.221225 0.0183871 0.0189517
0.292271 0.017792 0.017792
0.366567 0.018967 0.0196078
0.446189 0.0232242 0.025742
0.522774 0.0340429 0.0406958
0.597833 0.0495766 0.0615396
0.672511 0.0670024 0.0852674
0.742351 0.0878462 0.109972
0.797803 0.110567 0.131945
0.825788 0.125963 0.145098
0.831968 0.129412 0.148486
0.832975 0.129686 0.14966
0.833967 0.130312 0.150912
0.834928 0.131106 0.152148
0.835676 0.131762 0.153063
0.836225 0.132235 0.153658
0.836622 0.132586 0.15407
0.837232 0.132753 0.154376
0.838071 0.132753 0.154482
0.839948 0.132372 0.154192
0.842481 0.131731 0.153735
0.846586 0.130602 0.152712
0.850965 0.129397 0.151553
0 0.0227512 0.0306706
0 0.0227512 0.0306706
0 0.0227512 0.0306706
0 0.0231632 0.0306859
0.0069276 0.0238956 0.0298924
0.0227054 0.0235904 0.0311894
0.0419318 0.0240024 0.0305638
0.068864 0.0236362 0.0280766
0.10457 0.0233616 0.025742
0.153445 0.0229648 0.0237125
0.214496 0.0217288 0.02121
0.286915 0.0213779 0.0200198
0.360769 0.0229801 0.0212711
0.438254 0.0278935 0.0264897
0.515618 0.038117 0.0390173
0.592691 0.0529946 0.0593423
0.66862 0.0699016 0.0830701
0.739925 0.0902724 0.107973
0.797772 0.113588 0.130892
0.827085 0.12903 0.144289
0.833417 0.13254 0.147677
0.834485 0.132967 0.148806
0.835386 0.133318 0.149813
0.836103 0.133593 0.150591
0.836622 0.133806 0.151186
0.837034 0.13402 0.151705
0.837354 0.134203 0.152102
0.837781 0.134279 0.152316
0.838331 0.134264 0.152407
0.839811 0.133944 0.152193
0.842115 0.133364 0.15169
0.84625 0.132219 0.150637
0.850568 0.131014 0.149386
0 0.0294804 0.0348821
0 0.0287633 0.0340887
0 0.0278477 0.0329442
0 0.0270848 0.0318761
0.00462348 0.0277562 0.0313726
0.0203098 0.0296788 0.0320897
0.0370184 0.030457 0.0319982
0.0633707 0.0287175 0.0300755
0.0971084 0.027451 0.0280308
0.145495 0.0263676 0.0256657
0.207431 0.0255436 0.0235294
0.280552 0.0247959 0.0218662
0.356527 0.026154 0.0229343
0.43447 0.0307012 0.0275273
0.512032 0.0415808 0.0392309
0.587182 0.057023 0.0581674
0.663615 0.0738994 0.0812085
0.737148 0.0935683 0.105913
0.797436 0.116899 0.129625
0.827695 0.132006 0.142657
0.834913 0.135836 0.146944
0.836286 0.136217 0.148211
0.837263 0.136568 0.149096
0.838041 0.136812 0.149828
0.838605 0.137011 0.150454
0.839017 0.137133 0.150912
0.839307 0.13724 0.151232
0.839521 0.137301 0.151446
0.839704 0.137346 0.151598
0.840711 0.137133 0.151415
0.842634 0.136645 0.150942
0.846601 0.135546 0.149889
0.85098 0.134325 0.148699
0 0.0420081 0.0383917
0 0.0415503 0.037171
0 0.0401617 0.0346227
0 0.0387732 0.0321508
0.00624094 0.0396124 0.0303807
0.0185397 0.0390478 0.029984
0.0402075 0.0442054 0.0333867
0.0688487 0.0478981 0.0344549
0.104738 0.0444648 0.0338445
0.14522 0.0369726 0.0297551
0.20322 0.0322881 0.026688
0.27451 0.0286107 0.0239567
0.352224 0.0294347 0.0244755
0.431479 0.0341039 0.0289158
0.510124 0.04477 0.0402991
0.585458 0.0594339 0.0586099
0.660044 0.077409 0.0804913
0.734081 0.0978714 0.104646
0.795956 0.120851 0.128191
0.828199 0.136522 0.142596
0.835142 0.139864 0.146288
0.836316 0.13991 0.147387
0.837217 0.13994 0.148257
0.837934 0.139986 0.148898
0.838453 0.140063 0.149371
0.838819 0.140185 0.149706
0.83917 0.140291 0.149966
0.839429 0.140368 0.150195
0.839612 0.140429 0.150317
0.840497 0.140246 0.150225
0.842359 0.139803 0.149828
0.846281 0.138766 0.148989
0.850599 0.137652 0.147692
0 0.0563668 0.0417182
0 0.0560159 0.0388037
0 0.0542153 0.0352026
0 0.0525978 0.0303502
0.00227359 0.0519875 0.0283207
0.0168154 0.0548409 0.0256504
0.0345464 0.053666 0.0280919
0.0725872 0.0618906 0.0365301
0.110552 0.0657816 0.0367437
0.160327 0.0581216 0.0367132
0.212161 0.0483253 0.0327001
0.273869 0.0415045 0.0284733
0.348196 0.03682 0.0277256
0.427604 0.0383917 0.0306706
0.507393 0.0476692 0.0410925
0.58323 0.0618296 0.0589761
0.658442 0.0805371 0.0811627
0.732311 0.102007 0.104738
0.794217 0.125734 0.127443
0.828779 0.142458 0.142611
0.835813 0.145342 0.14612
0.836728 0.145129 0.147066
0.837461 0.144945 0.147738
0.838056 0.144808 0.148302
0.838499 0.144701 0.14873
0.838865 0.144625 0.149096
0.83917 0.144625 0.149386
0.839429 0.144686 0.14963
0.839612 0.144747 0.149813
0.84062 0.144564 0.149691
0.842283 0.144183 0.14934
0.846235 0.14316 0.148257
0.850492 0.142077 0.147066
0 0.0791485 0.0467079
0 0.079408 0.0410315
0 0.0778668 0.0368811
0 0.0758068 0.0300298
0 0.07393 0.0239719
0.0120546 0.0762188 0.0220188
0.0281224 0.0794995 0.0205844
0.0613565 0.0742504 0.0302892
0.112795 0.0888838 0.0374762
0.167865 0.0876326 0.0394751
0.229557 0.0699168 0.0395972
0.294896 0.0626841 0.037232
0.355016 0.0559091 0.0344091
0.426078 0.0526284 0.034638
0.50338 0.0526436 0.0424353
0.580362 0.0658579 0.0599832
0.656046 0.0840009 0.0818189
0.730785 0.105547 0.105303
0.793835 0.130144 0.128191
0.83032 0.148836 0.143572
0.837263 0.15285 0.146654
0.837919 0.153155 0.147265
0.838651 0.153124 0.147967
0.839277 0.153033 0.148516
0.839734 0.152956 0.148974
0.840085 0.152895 0.14931
0.840314 0.15285 0.149493
0.840482 0.152819 0.149645
0.84062 0.152804 0.149767
0.84123 0.152697 0.14966
0.842329 0.152453 0.149355
0.844617 0.151919 0.148714
0.847288 0.151293 0.147951
0 0.107851 0.0499428
0 0.108553 0.0445106
0 0.107958 0.0394293
0 0.106142 0.0302739
0 0.104265 0.0211643
0 0.102846 0.0152285
0.0220035 0.108904 0.0166018
0.049485 0.109453 0.0168154
0.0940261 0.100862 0.0327153
0.166644 0.123003 0.0368505
0.241794 0.107958 0.0429541
0.315648 0.0919814 0.0458381
0.382528 0.0849317 0.0457313
0.442023 0.0780804 0.0456245
0.505989 0.0751659 0.0494392
0.580194 0.0803998 0.0651102
0.653346 0.0912337 0.0836957
0.728771 0.111788 0.106783
0.792859 0.135607 0.129503
0.833738 0.156222 0.146349
0.841505 0.161089 0.149874
0.841611 0.161563 0.149935
0.841779 0.16199 0.150042
0.842008 0.162417 0.150225
0.842237 0.162768 0.150423
0.84242 0.163027 0.150576
0.842527 0.16321 0.150683
0.842634 0.163363 0.150759
0.84271 0.163485 0.15082
0.843275 0.163455 0.150713
0.844312 0.163287 0.150439
0.846464 0.16286 0.14995
0.848981 0.162341 0.149203
0 0.144732 0.0559548
0 0.146029 0.0475319
0 0.147204 0.039704
0 0.145785 0.0330205
0 0.143755 0.0235599
0 0.140993 0.012604
0.000839246 0.140703 0.0069276
0.037995 0.15108 0.0108949
0.0758984 0.147845 0.0133211
0.137346 0.135515 0.0346685
0.229419 0.161135 0.035584
0.32961 0.135683 0.0486763
0.405661 0.124651 0.0559091
0.474357 0.119432 0.0609903
0.534447 0.115297 0.0671702
0.592172 0.115404 0.0769513
0.660075 0.12224 0.0925154
0.732738 0.132067 0.113481
0.793393 0.145663 0.131792
0.840162 0.166659 0.149905
0.848447 0.171267 0.153353
0.848569 0.171679 0.153506
0.848753 0.172122 0.153704
0.849012 0.17261 0.153903
0.849226 0.173007 0.15407
0.849393 0.173297 0.154208
0.8495 0.173526 0.154299
0.849592 0.173709 0.15436
0.849668 0.173846 0.154421
0.850034 0.173907 0.154376
0.85069 0.173861 0.154208
0.852354 0.173571 0.153735
0.854383 0.17319 0.153262
0 0.194629 0.0673838
0 0.196017 0.0591592
0 0.197787 0.0488136
0 0.19884 0.0372625
0 0.197284 0.0294347
0 0.194903 0.0200504
0 0.190616 0.00315862
0.00750744 0.193652 0
0.0633249 0.20618 0.00491341
0.112505 0.197742 0.0104677
0.193973 0.18146 0.0364691
0.307012 0.211322 0.0361486
0.421927 0.186114 0.0571908
0.50074 0.174243 0.0732433
0.572564 0.174105 0.0869001
0.630915 0.172488 0.100221
0.689067 0.174029 0.114336
0.748074 0.178531 0.128588
0.809461 0.190143 0.145586
0.855894 0.203052 0.160235
0.863203 0.200626 0.161517
0.860609 0.194415 0.159106
0.858457 0.189929 0.157336
0.858045 0.189151 0.156924
0.858274 0.189548 0.157183
0.858427 0.189883 0.157336
0.858549 0.190173 0.157427
0.858656 0.190402 0.157519
0.858717 0.1906 0.15758
0.858854 0.190784 0.157626
0.859007 0.190921 0.157641
0.859892 0.190906 0.157397
0.861372 0.190738 0.156909
0 0.257572 0.0813458
0 0.258946 0.073579
0 0.260563 0.064744
0 0.262364 0.0539254
0 0.263951 0.0411688
0 0.262379 0.0318914
0 0.259144 0.018204
0 0.253101 0
0.0200351 0.260975 0
0.0968032 0.275364 0
0.162997 0.259434 0.00895705
0.264637 0.239353 0.0388037
0.397635 0.279576 0.0371557
0.519478 0.262379 0.0690776
0.60177 0.252552 0.0936904
0.676005 0.252125 0.121828
0.735943 0.249866 0.140978
0.792187 0.250477 0.156878
0.840772 0.25388 0.169711
0.878202 0.259739 0.180713
0.887541 0.258747 0.18294
0.886473 0.253895 0.181399
0.8851 0.24976 0.180179
0.88368 0.246372 0.178882
0.882582 0.243824 0.177874
0.881849 0.241962 0.177218
0.881575 0.240925 0.176989
0.881376 0.240208 0.176791
0.881193 0.239811 0.176623
0.881071 0.239567 0.176501
0.881041 0.239506 0.17644
0.881621 0.23946 0.176181
0.882734 0.239429 0.175784
0 0.335149 0.0982223
0 0.336477 0.0916152
0 0.338537 0.0844129
0 0.340169 0.075639
0 0.342168 0.0644694
0 0.344091 0.0516518
0 0.342794 0.037583
0 0.338949 0.0189975
0 0.330709 0
0.043183 0.344869 0
0.142016 0.358633 0
0.229664 0.335409 0.0187228
0.348852 0.311345 0.0423133
0.484962 0.354269 0.0421302
0.611887 0.359869 0.0813001
0.702235 0.357076 0.121614
0.775845 0.348333 0.15436
0.837125 0.342061 0.179248
0.882368 0.341634 0.194888
0.915236 0.344381 0.205936
0.924331 0.342519 0.208743
0.92343 0.337636 0.207797
0.921324 0.33283 0.206409
0.920119 0.329656 0.205737
0.919051 0.327031 0.205066
0.91812 0.325139 0.204349
0.917647 0.323873 0.203983
0.917266 0.323064 0.203723
0.916991 0.322621 0.20354
0.916838 0.322423 0.203433
0.916823 0.322438 0.203464
0.917327 0.322576 0.20325
0.918135 0.322805 0.202899
0 0.420035 0.125719
0 0.421149 0.119432
0 0.42298 0.112612
0 0.424338 0.104829
0 0.425864 0.0960555
0 0.428046 0.0843977
0 0.430716 0.0680247
0 0.42977 0.0482032
0 0.425437 0.0232242
0 0.417594 0
0.0807202 0.435187 0
0.210666 0.444938 0.000213626
0.312642 0.415167 0.0238956
0.438087 0.390219 0.0478981
0.566827 0.427588 0.0585641
0.695338 0.457633 0.100984
0.792081 0.456519 0.150973
0.856809 0.455344 0.182559
0.911177 0.451835 0.20972
0.946853 0.451698 0.22977
0.951278 0.450141 0.233707
0.949844 0.443168 0.232303
0.948394 0.436439 0.230793
0.947753 0.431968 0.23006
0.94699 0.428901 0.229053
0.94667 0.427298 0.228367
0.946563 0.426398 0.227924
0.946502 0.42591 0.22768
0.946502 0.425742 0.227558
0.946548 0.425849 0.227527
0.946609 0.426093 0.227543
0.946929 0.42649 0.227298
0.947509 0.426993 0.226673
0 0.510338 0.167559
0 0.511299 0.1617
0 0.512383 0.154788
0 0.513436 0.147723
0 0.514565 0.140093
0 0.516457 0.130632
0 0.518837 0.114397
0 0.522011 0.0909285
0 0.521385 0.065156
0 0.515999 0.031693
0.00477607 0.509071 0
0.132952 0.528176 0
0.307591 0.529412 0.0163119
0.408972 0.495552 0.0293584
0.528954 0.472831 0.0607309
0.643412 0.499596 0.0831617
0.778088 0.557397 0.128542
0.863844 0.556283 0.179278
0.915846 0.559609 0.208499
0.956222 0.562722 0.233097
0.968658 0.568322 0.246159
0.969696 0.566217 0.247776
0.969512 0.563455 0.247623
0.969207 0.561349 0.247272
0.968994 0.559823 0.247044
0.969131 0.558907 0.247166
0.969146 0.558282 0.247196
0.969162 0.557946 0.247196
0.969162 0.557809 0.247211
0.969162 0.557824 0.247211
0.969162 0.557946 0.247196
0.969207 0.558236 0.246784
0.969345 0.558663 0.245975
0 0.598932 0.225956
0 0.599725 0.220218
0 0.600534 0.214374
0 0.601404 0.208255
0 0.60238 0.201328
0 0.603525 0.193545
0 0.605142 0.180972
0 0.607736 0.160586
0 0.611093 0.129717
0 0.609735 0.0935531
0 0.605097 0.0483406
0.0433051 0.602853 0
0.217853 0.616831 0.00329595
0.421469 0.607919 0.0480354
0.510231 0.575082 0.0464485
0.617426 0.557397 0.090547
0.721996 0.576272 0.1196
0.85008 0.638834 0.163912
0.927184 0.655985 0.214008
0.962509 0.657023 0.237079
0.975402 0.66244 0.251789
0.976654 0.661738 0.253864
0.976349 0.659983 0.253712
0.976226 0.658564 0.253712
0.976165 0.657603 0.253727
0.97612 0.656977 0.253758
0.976089 0.656611 0.253803
0.976089 0.656474 0.253864
0.976089 0.656489 0.253925
0.97612 0.656626 0.254002
0.976135 0.656825 0.254063
0.976181 0.657099 0.253895
0.976226 0.65742 0.253483
0 0.685542 0.297246
0 0.686351 0.292119
0 0.687129 0.286885
0 0.687968 0.2813
0 0.688777 0.275731
0 0.689754 0.268528
0 0.690898 0.258198
0 0.6925 0.241413
0 0.695155 0.214893
0 0.69781 0.176867
0 0.696376 0.129809
0.0279545 0.691005 0.0665446
0.115999 0.692866 0.00418097
0.343755 0.697047 0.0454566
0.530266 0.685039 0.0821546
0.612879 0.654414 0.0721294
0.701732 0.640665 0.128511
0.807568 0.65919 0.163607
0.895933 0.697688 0.202853
0.9664 0.732555 0.257877
0.987182 0.7449 0.281422
0.989303 0.747707 0.280797
0.988861 0.747616 0.280156
0.988617 0.7467 0.279576
0.988495 0.745998 0.279332
0.988464 0.745571 0.279301
0.988373 0.745266 0.279286
0.988251 0.745037 0.279301
0.988144 0.7449 0.279362
0.988067 0.744854 0.279469
0.987991 0.744854 0.279622
0.98793 0.744884 0.279759
0.987869 0.74493 0.279896
0 0.768841 0.36968
0 0.769574 0.365408
0 0.770306 0.361227
0 0.771084 0.356695
0 0.771832 0.352132
0 0.772625 0.346731
0 0.773541 0.339086
0 0.774853 0.326406
0 0.77705 0.30544
0 0.780102 0.272389
0.0101472 0.781903 0.227268
0.0298619 0.780179 0.16907
0.0670787 0.774975 0.0803693
0.233539 0.777234 0.0446326
0.492897 0.768551 0.106203
0.632639 0.762936 0.11873
0.707439 0.735271 0.110979
0.781033 0.721828 0.171939
0.877974 0.736873 0.214084
0.932815 0.755199 0.251347
0.972015 0.773327 0.306142
0.975265 0.776608 0.336004
0.97557 0.776501 0.33814
0.975982 0.776333 0.337453
0.976303 0.776242 0.336996
0.976562 0.776226 0.336553
0.976761 0.776272 0.336248
0.976898 0.776349 0.335973
0.977005 0.776471 0.335775
0.977081 0.776593 0.335637
0.977127 0.776745 0.335546
0.977157 0.776898 0.335485
0.977172 0.777066 0.335454
0 0.850446 0.434134
0 0.851118 0.430808
0 0.851942 0.426825
0 0.852674 0.423316
0 0.853422 0.419242
0 0.854032 0.414908
0 0.854826 0.408499
0 0.855787 0.398978
0 0.857389 0.38407
0.00352483 0.859709 0.359304
0.0155795 0.862882 0.321523
0.0356298 0.862272 0.271962
0.0628824 0.8598 0.198215
0.128161 0.854582 0.0711376
0.399542 0.850431 0.100359
0.62771 0.834546 0.165331
0.725536 0.833585 0.152193
0.794812 0.811688 0.15584
0.85481 0.797162 0.217288
0.933333 0.809094 0.265232
0.988342 0.825956 0.264363
0.993469 0.829892 0.333043
0.993332 0.832013 0.353887
0.99324 0.832151 0.35581
0.993179 0.832074 0.356222
0.993149 0.832059 0.356558
0.993118 0.832105 0.356863
0.993133 0.832197 0.357137
0.993149 0.832349 0.357382
0.993194 0.832517 0.35761
0.99324 0.832715 0.357839
0.993286 0.832929 0.358068
0.993347 0.833143 0.358297
0.0062562 0.917571 0.492805
0.00595102 0.918181 0.489433
0.00505074 0.918883 0.485908
0.00430304 0.919585 0.482414
0.00389105 0.920256 0.47863
0.00399786 0.920745 0.475059
0.00468452 0.921355 0.46949
0.00604257 0.922057 0.46183
0.00860609 0.923079 0.450111
0.0139773 0.924605 0.431006
0.02327 0.926741 0.401114
0.0400702 0.927535 0.359609
0.0670481 0.925994 0.303044
0.111696 0.922423 0.205158
0.283024 0.919173 0.104631
0.567025 0.899779 0.167117
0.722927 0.890608 0.200824
0.805737 0.887694 0.182208
0.871519 0.871015 0.203967
0.912627 0.85449 0.267979
0.978882 0.866743 0.289799
0.999969 0.883513 0.35375
0.999969 0.889357 0.399344
0.999954 0.889784 0.403754
0.999954 0.889723 0.403693
0.999954 0.889708 0.403647
0.999954 0.889708 0.403693
0.999954 0.889769 0.403769
0.999954 0.889845 0.403876
0.999954 0.889921 0.403998
0.999954 0.890028 0.404181
0.999969 0.890135 0.404349
0.999969 0.890272 0.404562
0.024155 0.967422 0.544488
0.0233921 0.967987 0.541314
0.0219425 0.968673 0.538003
0.0207065 0.969345 0.53463
0.0198825 0.96994 0.531136
0.0198367 0.970306 0.52784
0.0202029 0.970703 0.522927
0.0209964 0.971191 0.516258
0.0223697 0.971771 0.505867
0.0261234 0.972656 0.489647
0.0332189 0.974075 0.46537
0.0481727 0.974395 0.433555
0.0755627 0.972366 0.390967
0.109499 0.971222 0.324041
0.190585 0.97055 0.184131
0.482795 0.955428 0.178546
0.701747 0.930617 0.24332
0.801373 0.927916 0.244556
0.876707 0.923079 0.236744
0.92575 0.911498 0.271473
0.957717 0.898268 0.328344
0.99649 0.905455 0.381949
0.999969 0.919799 0.439673
0.999969 0.921889 0.452766
0.999969 0.921996 0.453788
0.999969 0.922011 0.453864
0.999969 0.922042 0.453986
0.999969 0.922087 0.454124
0.999969 0.922148 0.454261
0.999969 0.922194 0.454429
0.999969 0.922255 0.454582
0.999969 0.922316 0.454749
0.999969 0.922377 0.454902
0.0378424 0.993286 0.580423
0.03682 0.993698 0.577493
0.0348058 0.994324 0.574197
0.0331426 0.994797 0.571359
0.0319066 0.995239 0.568078
0.0315251 0.995499 0.564767
0.0314794 0.995712 0.560388
0.0319829 0.995941 0.554086
0.0332341 0.996201 0.5449
0.0373846 0.996536 0.532509
0.0460365 0.99678 0.515953
0.0605478 0.996948 0.493126
0.0879835 0.997559 0.465156
0.122469 0.997436 0.421302
0.173327 0.998322 0.339651
0.394461 0.998901 0.277333
0.637385 0.977539 0.303243
0.781888 0.955917 0.334722
0.861097 0.949264 0.330755
0.932342 0.943236 0.348104
0.957748 0.935775 0.379583
0.983337 0.928512 0.432654
0.999771 0.936889 0.477607
0.999969 0.941558 0.50367
0.999969 0.942 0.5037
0.999969 0.942 0.502968
0.999969 0.942031 0.502998
0.999969 0.942031 0.50309
0.999969 0.942061 0.503197
0.999969 0.942077 0.503273
0.999969 0.942077 0.503334
0.999969 0.942077 0.50341
0.999969 0.942061 0.503471
0.0398413 0.99472 0.590692
0.0393988 0.994934 0.588342
0.0379644 0.995346 0.585397
0.0366674 0.995697 0.582605
0.0353399 0.996002 0.579614
0.0348669 0.99617 0.576226
0.0346838 0.996307 0.571939
0.0349432 0.996475 0.565499
0.0355993 0.996658 0.556374
0.0382696 0.996963 0.543023
0.0463417 0.997162 0.526696
0.0600137 0.997375 0.503777
0.0855116 0.997955 0.475853
0.123293 0.998962 0.442298
0.172656 0.999908 0.39472
0.354833 0.999969 0.337545
0.597314 0.992752 0.343099
0.764279 0.963943 0.381079
0.845273 0.955657 0.382742
0.923278 0.948775 0.404913
0.956359 0.943236 0.425071
0.974075 0.935424 0.458564
0.998062 0.942962 0.497154
0.999969 0.947799 0.532525
0.999969 0.948257 0.535882
0.999969 0.948211 0.534401
0.999969 0.948165 0.533043
0.999969 0.948135 0.532036
0.999969 0.948104 0.531395
0.999969 0.948089 0.531044
0.999969 0.948089 0.530785
0.999969 0.948074 0.530541
0.999969 0.948043 0.530358
0.0372168 0.994904 0.596094
0.0373999 0.994995 0.593698
0.0369421 0.995224 0.591241
0.0361944 0.995468 0.588769
0.0352636 0.995789 0.58587
0.034699 0.996017 0.582788
0.0344396 0.99617 0.578454
0.0346532 0.996307 0.572274
0.0350805 0.996521 0.563256
0.0369573 0.996826 0.549737
0.0436866 0.997177 0.532036
0.056733 0.997375 0.509529
0.0805676 0.997818 0.480507
0.119738 0.998901 0.445869
0.169131 0.999878 0.401709
0.33048 0.999969 0.343771
0.578622 0.995041 0.342519
0.753002 0.966506 0.37911
0.838254 0.956374 0.384237
0.916442 0.949248 0.400946
0.955673 0.94461 0.422538
0.972 0.937148 0.452262
0.996307 0.94136 0.489845
0.999969 0.947448 0.5243
0.999969 0.948241 0.534569
0.999969 0.948287 0.535714
0.999969 0.948318 0.53611
0.999969 0.948333 0.536446
0.999969 0.948363 0.536721
0.999969 0.948363 0.5364
0.999969 0.948348 0.53611
0.999969 0.948333 0.535897
0.999969 0.948318 0.535729
0.0368048 0.994827 0.60061
0.0371252 0.994842 0.598474
0.036759 0.994995 0.595972
0.0361028 0.995239 0.593271
0.0351568 0.99556 0.590677
0.0345922 0.995819 0.587594
0.0343786 0.996048 0.583322
0.0344854 0.996201 0.577203
0.0348363 0.996414 0.568246
0.0360571 0.996704 0.555123
0.0417182 0.997147 0.5364
0.0544442 0.997375 0.513512
0.0772106 0.997696 0.483833
0.116197 0.998825 0.449348
0.166278 0.999847 0.40499
0.312367 0.999969 0.346761
0.563821 0.996185 0.340581
0.742489 0.968719 0.376059
0.833295 0.95671 0.383978
0.911009 0.949538 0.397147
0.955779 0.946151 0.419745
0.971038 0.938857 0.447745
0.994202 0.93959 0.483589
0.999969 0.946761 0.517983
0.999969 0.948165 0.533257
0.999969 0.948257 0.534737
0.999969 0.948272 0.535256
0.999969 0.948287 0.535607
0.999969 0.948318 0.535851
0.999969 0.948348 0.536034
0.999969 0.948363 0.536156
0.999969 0.948363 0.536248
0.999969 0.948363 0.536278
0.0356298 0.994949 0.603906
0.0364385 0.994873 0.601633
0.0366369 0.994904 0.599359
0.0362402 0.995071 0.596948
0.035172 0.995377 0.594125
0.0345312 0.995636 0.591089
0.034287 0.995895 0.586954
0.0343938 0.996094 0.581033
0.0346685 0.996307 0.572152
0.0356603 0.996628 0.558785
0.040528 0.997131 0.539422
0.0527199 0.997345 0.516579
0.0745098 0.99765 0.486183
0.113497 0.998764 0.452155
0.164126 0.999817 0.407294
0.300069 0.999969 0.348837
0.553338 0.996857 0.339239
0.734829 0.970214 0.373693
0.829877 0.957092 0.383856
0.906859 0.950072 0.394186
0.954787 0.946517 0.418173
0.970291 0.940108 0.444419
0.99237 0.938415 0.479805
0.999939 0.946166 0.513771
0.999969 0.948119 0.532494
0.999969 0.948226 0.533974
0.999969 0.948241 0.534478
0.999969 0.948257 0.534859
0.999969 0.948287 0.535134
0.999969 0.948302 0.535363
0.999969 0.948333 0.535515
0.999969 0.948348 0.535622
0.999969 0.948348 0.535668
0.0348058 0.995041 0.606409
0.0352636 0.995026 0.604074
0.0357366 0.99501 0.601709
0.0357977 0.995056 0.599344
0.0352178 0.99527 0.596811
0.0345312 0.995499 0.593652
0.0342412 0.995758 0.589639
0.0343786 0.996048 0.583505
0.0345922 0.996262 0.574655
0.035462 0.996567 0.5617
0.0399176 0.99707 0.542168
0.0516213 0.99733 0.518868
0.0727092 0.997604 0.48806
0.111757 0.998718 0.454032
0.162646 0.999802 0.408743
0.291554 0.999969 0.349874
0.546349 0.997314 0.338521
0.729397 0.971298 0.371969
0.827466 0.957366 0.383795
0.902998 0.950866 0.393027
0.953475 0.946502 0.417365
0.968978 0.940444 0.44242
0.990723 0.937881 0.47718
0.999832 0.945708 0.510521
0.999969 0.948089 0.532067
0.999969 0.948211 0.533455
0.999969 0.948211 0.533928
0.999969 0.948241 0.534295
0.999969 0.948257 0.534585
0.999969 0.948287 0.534798
0.999969 0.948302 0.534951
0.999969 0.948318 0.535058
0.999969 0.948318 0.535119
0.034699 0.995041 0.608164
0.0348211 0.995056 0.605951
0.0349737 0.995102 0.60351
0.0351415 0.995132 0.601068
0.0348821 0.995254 0.598627
0.0344701 0.995422 0.59556
0.0342107 0.995682 0.591318
0.0343328 0.995956 0.585412
0.0345159 0.996216 0.576638
0.0353399 0.996521 0.563699
0.0395361 0.99704 0.544182
0.0508888 0.997314 0.520439
0.0718547 0.99762 0.489525
0.110857 0.998703 0.454963
0.161883 0.999786 0.409491
0.286473 0.999969 0.350545
0.541787 0.997543 0.337881
0.725917 0.971969 0.370748
0.826047 0.957488 0.383795
0.900435 0.951202 0.392477
0.952575 0.94641 0.416953
0.967742 0.940414 0.441245
0.988907 0.937621 0.475303
0.99971 0.94551 0.508385
0.999969 0.948119 0.531929
0.999969 0.948196 0.533089
0.999969 0.948226 0.533593
0.999969 0.948241 0.533944
0.999969 0.948272 0.534218
0.999969 0.948287 0.534447
0.999969 0.948318 0.5346
0.999969 0.948333 0.534707
0.999969 0.948318 0.534737
0.0355993 0.994827 0.609873
0.0372625 0.994553 0.607935
0.0383917 0.994385 0.605966
0.0390326 0.994308 0.603662
0.0391699 0.994354 0.601251
0.0395056 0.994385 0.598459
0.0396887 0.994553 0.594324
0.0398871 0.994812 0.588617
0.0400854 0.995178 0.580041
