bundles/resolve-cinematic-luts/Phantom Luts/P4k & P6k Phntm Arri LUTs - V6/P4K/Gen 5 Colour/Standard (No WB Offset)/P4k Neutral Gen5.cube
TITLE "Generated by Resolve"
LUT_3D_SIZE 5
0 0 0
0.16379 0.00772107 0.00848402
0.768429 0.0585184 0.117617
0.951995 0.103487 0.167956
0.953384 0.10454 0.170031
0.00543221 0.149279 0.0570535
0.101854 0.153262 0.00549325
0.710933 0.122515 0.10071
0.940139 0.153811 0.150637
0.940337 0.154574 0.150729
0.00151064 0.746441 0.380606
0.0089723 0.745388 0.32694
0.646723 0.756848 0.0334783
0.977417 0.788571 0.293629
0.978378 0.787701 0.291539
0.0604562 0.978897 0.59649
0.0582895 0.978439 0.567056
0.496132 0.961074 0.367041
0.979522 0.970153 0.504173
0.979522 0.970138 0.506783
0.0615702 0.978927 0.604715
0.0585489 0.978714 0.575662
0.467308 0.962173 0.366415
0.979522 0.970169 0.500237
0.979522 0.970153 0.504646
0 0 0.138705
0.162448 0.000732433 0.135851
0.810803 0.0534676 0.227161
0.962142 0.114107 0.276051
0.963119 0.113405 0.278904
0.0068513 0.123919 0.117433
0.113512 0.118822 0.118456
0.755673 0.0620737 0.118471
0.952895 0.105974 0.168582
0.954162 0.107012 0.170687
0 0.733761 0.420035
0 0.732677 0.375952
0.639765 0.747646 0.0366064
0.984527 0.782467 0.279454
0.985656 0.781506 0.277043
0.0650492 0.978698 0.625559
0.0605936 0.978912 0.597711
0.444572 0.96289 0.365743
0.979522 0.970138 0.508721
0.979507 0.970123 0.510918
0.0672007 0.978424 0.633646
0.0617533 0.978912 0.605936
0.407263 0.964279 0.36492
0.979034 0.970031 0.494377
0.979522 0.970138 0.509178
0.0896162 0.00563058 0.664332
0.207034 0.00741588 0.663935
0.78381 0.0130617 0.684108
0.935882 0 0.733181
0.935699 0 0.736355
0 0.0118257 0.653681
0.0949569 0.004654 0.653895
0.764141 0.0153506 0.667384
0.937407 0.030518 0.703502
0.937346 0.0272679 0.706096
0.00526436 0.678889 0.654643
0.00466926 0.675776 0.651499
0.654002 0.653849 0.65507
0.959396 0.656611 0.623896
0.959304 0.652583 0.621073
0.145388 0.972305 0.833661
0.134951 0.971893 0.822095
0.263294 0.973556 0.663264
0.969757 0.966354 0.580331
0.978653 0.968963 0.634867
0.150668 0.972488 0.83917
0.139742 0.972061 0.827329
0.183337 0.977035 0.649607
0.953262 0.962249 0.531579
0.978821 0.969238 0.628443
0.25391 0.121263 0.915373
0.336172 0.124331 0.921019
0.842771 0.109514 0.946456
0.954543 0.0947433 0.946899
0.954452 0.0941787 0.946761
0.16466 0.116686 0.908965
0.250996 0.121157 0.915175
0.815793 0.113024 0.945632
0.955337 0.0993973 0.948135
0.955291 0.0991836 0.948058
0 0.670863 0.997086
0 0.661814 1
0.595468 0.579446 0.964324
0.966903 0.519829 0.965423
0.96701 0.513985 0.965454
0.543923 0.969253 0.964675
0.536385 0.969406 0.963745
0.567956 0.964691 0.955596
0.960098 0.960067 0.960311
0.974975 0.961486 0.959854
0.557015 0.96875 0.965759
0.557015 0.96875 0.965759
0.561852 0.969802 0.95227
0.949081 0.976486 0.963699
0.976974 0.976608 0.959426
0.267948 0.12195 0.916411
0.347494 0.124743 0.921843
0.848554 0.108705 0.946502
0.954787 0.0960708 0.947234
0.95465 0.0953384 0.947051
0.179767 0.117601 0.909987
0.265049 0.121843 0.916213
0.821256 0.112337 0.945815
0.955505 0.100404 0.948394
0.955444 0.0999924 0.948287
0 0.662684 1
0 0.651438 1
0.591638 0.564523 0.964599
0.967163 0.502297 0.965438
0.967376 0.496406 0.965576
0.557015 0.96875 0.965759
0.557015 0.96875 0.965759
0.593591 0.957931 0.966644
0.956878 0.956725 0.973968
0.974701 0.954406 0.974716
0.557015 0.96875 0.965759
0.557015 0.96875 0.965759
0.624414 0.969192 0.96672
0.955962 0.976791 0.976867
0.976852 0.976852 0.976852
