bundles/resolve-cinematic-luts/Phantom Luts/P4k & P6k Phntm Arri LUTs - V6/P4K/Gen 5 Colour/Standard (No WB Offset)/P4k Jamaica Gen5-Legacy.cube
TITLE "Generated by Resolve"
LUT_3D_SIZE 5
0.0178836 0.0347143 0.0179446
0.126787 0.0442664 0.0271611
0.61735 0.0782025 0.0998093
0.717372 0.162814 0.194095
0.717662 0.164233 0.194522
0.0235752 0.126116 0.0629282
0.0842908 0.124575 0.0267491
0.601892 0.110842 0.090898
0.730816 0.192081 0.197467
0.730709 0.192554 0.197101
0.114382 0.723507 0.412009
0.117525 0.725292 0.369574
0.624491 0.718837 0.154864
1 0.81236 0.471885
1 0.803525 0.461418
0.40557 0.983658 0.723842
0.402853 0.983078 0.705898
0.537392 0.998932 0.549828
1 0.998932 0.562493
1 0.998932 0.566079
0.410437 0.987411 0.732677
0.404334 0.983551 0.712337
0.510903 0.998932 0.544228
1 0.998932 0.559915
1 0.998932 0.564675
0.018555 0.0374304 0.0986343
0.127565 0.0387427 0.111574
0.658213 0.0926833 0.16701
0.74905 0.189273 0.24477
0.749752 0.190753 0.245335
0.0295415 0.107973 0.100755
0.0839551 0.103365 0.0870832
0.611215 0.081239 0.0961166
0.718471 0.166094 0.193759
0.718654 0.167071 0.194339
0.10367 0.707942 0.434241
0.103044 0.708492 0.39736
0.616571 0.709789 0.148669
1 0.793057 0.448356
1 0.784085 0.438102
0.404318 0.981613 0.736416
0.402365 0.981994 0.720424
0.51162 0.998932 0.557015
1 0.998932 0.5635
1 0.998932 0.567895
0.409003 0.984863 0.745022
0.402533 0.981537 0.725338
0.489113 0.998932 0.554345
1 0.998932 0.557122
1 0.998932 0.566278
0.0584573 0.0436255 0.51603
0.136767 0.0449073 0.522545
0.624048 0.0577707 0.534676
0.767727 0.153933 0.516716
0.766537 0.152605 0.512108
0.0118715 0.050248 0.501305
0.0585794 0.0427863 0.506508
0.61976 0.0570993 0.525948
0.752026 0.133867 0.484321
0.74966 0.131243 0.479927
0.0926223 0.628244 0.594247
0.0874647 0.624704 0.583185
0.591882 0.616358 0.541451
1 0.615274 0.541772
1 0.608286 0.533913
0.418952 0.971664 0.84419
0.414633 0.972732 0.831876
0.419852 0.996414 0.71194
1 0.998093 0.574533
1 0.998932 0.61474
0.420905 0.972686 0.846387
0.41529 0.972412 0.834958
0.414649 0.99176 0.712642
1 0.993576 0.545464
1 0.998932 0.606226
0.166537 0.121889 0.675792
0.211917 0.126741 0.698054
0.605341 0.164981 0.758846
0.714443 0.183185 0.744076
0.71223 0.183459 0.741924
0.118379 0.115251 0.649027
0.16318 0.121508 0.674022
0.581231 0.161364 0.762249
0.716976 0.186572 0.747616
0.715969 0.186603 0.745647
0.188312 0.573922 0.809888
0.18381 0.564569 0.80557
0.495277 0.507805 0.952178
0.963653 0.470756 0.993393
0.958907 0.462135 0.98822
0.542062 0.998932 1
0.534997 0.998932 1
0.541909 0.998932 1
0.982238 0.985611 0.973556
0.992523 0.982803 0.968368
0.554086 0.998932 1
0.545754 0.998932 1
0.538491 0.998932 0.998718
0.959991 0.990372 0.978103
0.993561 0.987137 0.954391
0.175601 0.122896 0.68043
0.221195 0.127443 0.702113
0.61091 0.165576 0.757595
0.715221 0.184237 0.745052
0.714763 0.183703 0.743969
0.128496 0.116777 0.654841
0.172503 0.12253 0.678843
0.586358 0.161883 0.761273
0.717601 0.187457 0.748302
0.71722 0.18706 0.747173
0.186053 0.566812 0.807797
0.179828 0.553445 0.801953
0.488472 0.487343 0.948592
0.954284 0.450843 0.98436
0.948257 0.440375 0.978286
0.571084 0.998932 1
0.569085 0.998932 1
0.570336 0.998932 1
0.97966 0.980468 0.991379
0.993072 0.976791 0.993454
0.570993 0.998932 1
0.569085 0.998932 1
0.600793 0.998932 1
0.972961 0.989807 0.991897
0.992279 0.989868 0.992172
