bundles/resolve-cinematic-luts/Phantom Luts/P4k & P6k Phntm Arri LUTs - V6/P4K/Gen 5 Colour/Standard (No WB Offset)/P4k Tungsten Gen5-Legacy.cube
TITLE "Generated by Resolve"
LUT_3D_SIZE 5
0.0170748 0.0174258 0.0240024
0.111772 0.0341497 0.0381933
0.654856 0.0795148 0.138689
0.799039 0.150637 0.221775
0.80177 0.152712 0.225589
0.036759 0.11577 0.0745403
0.0834211 0.119829 0.0420386
0.624994 0.116152 0.123812
0.811215 0.177951 0.218036
0.813046 0.179751 0.219883
0 0.565026 0.27335
0 0.567788 0.239033
0.57322 0.606531 0.0279698
0.991379 0.763119 0.397742
0.988266 0.770443 0.376761
0.108324 0.80853 0.483864
0.105089 0.805524 0.464988
0.29778 0.792401 0.196292
0.978882 0.891752 0.4336
0.978683 0.892058 0.435126
0.110185 0.810178 0.493751
0.104921 0.80528 0.464179
0.402853 0.794339 0.187213
0.979049 0.891432 0.432761
0.978668 0.892149 0.434623
0.00822461 0.0260929 0.107774
0.10547 0.030518 0.108232
0.696437 0.0931411 0.209384
0.833967 0.177554 0.280293
0.835996 0.178485 0.284642
0.0360571 0.103456 0.10605
0.0801404 0.101106 0.107347
0.649348 0.0813458 0.13933
0.800168 0.151812 0.222644
0.802365 0.153643 0.225498
0 0.562081 0.31043
0 0.565606 0.283589
0.571283 0.603311 0.0292058
0.987793 0.749722 0.372564
0.985718 0.761608 0.369085
0.112932 0.812329 0.506905
0.109239 0.809339 0.48896
0.267765 0.79205 0.201923
0.978637 0.891951 0.436332
0.978408 0.892271 0.438087
0.116777 0.815229 0.522438
0.110323 0.810193 0.494789
0.36643 0.792966 0.188113
0.978729 0.891707 0.436072
0.978378 0.892424 0.437903
0.0246738 0.0721599 0.541085
0.10486 0.0732128 0.562661
0.629007 0.0593271 0.538323
0.835065 0.153506 0.555886
0.837339 0.158297 0.566537
0 0.0778515 0.513573
0.0183261 0.0693217 0.531823
0.617914 0.0610666 0.530953
0.8365 0.153079 0.540475
0.844465 0.1664 0.5561
0.0374151 0.5841 0.5552
0.0394751 0.59147 0.5626
0.596201 0.603555 0.586877
1 0.637232 0.603128
1 0.657679 0.62443
0.197162 0.863325 0.709697
0.197513 0.863645 0.710582
0.16669 0.826139 0.506035
0.972183 0.896544 0.501976
0.972641 0.903197 0.544381
0.23743 0.885405 0.767803
0.23003 0.881392 0.757961
0.238575 0.829404 0.535866
0.969741 0.89543 0.498604
0.972396 0.90367 0.545434
0.141604 0.178378 0.760113
0.190188 0.181903 0.786831
0.654612 0.162829 0.838514
0.774807 0.170977 0.797757
0.774655 0.171069 0.798199
0.0866102 0.172671 0.726192
0.134722 0.177996 0.756298
0.631342 0.162951 0.844388
0.777447 0.173831 0.800443
0.777478 0.174441 0.801785
0.15378 0.655314 0.86302
0.155413 0.658976 0.864118
0.566598 0.645731 1
0.960128 0.496513 0.978668
0.963912 0.526558 0.983093
0.491981 0.981125 0.973724
0.492058 0.981674 0.974868
0.541878 0.978408 0.967941
0.987167 0.987686 0.985336
0.991073 0.987213 0.986618
0.496452 0.981735 0.974975
0.496406 0.982238 0.976013
0.57847 0.979049 0.969726
0.979751 0.989548 0.98854
0.99089 0.989151 0.982238
0.148974 0.179034 0.764385
0.198199 0.182284 0.790799
0.662043 0.162921 0.836561
0.775494 0.171771 0.79855
0.775204 0.171801 0.799069
0.0939803 0.173175 0.730632
0.141909 0.178485 0.760388
0.639872 0.16286 0.842374
0.777829 0.17435 0.801022
0.777798 0.174899 0.802289
0.153201 0.654185 0.862654
0.15494 0.658015 0.863828
0.573861 0.645121 1
0.960052 0.496727 0.979095
0.964004 0.527214 0.983215
0.496437 0.981826 0.975174
0.496406 0.982238 0.976013
0.566644 0.983536 0.978882
0.984283 0.985641 0.988663
0.989227 0.984527 0.988327
0.496422 0.982147 0.975814
0.496406 0.982238 0.976013
0.611109 0.983734 0.979614
0.982757 0.990036 0.989883
0.990112 0.990387 0.990158
