bundles/resolve-cinematic-luts/Phantom Luts/P4k & P6k Phntm Arri LUTs - V6/P4K/Gen 5 Colour/Standard (No WB Offset)/P4k Neutral Gen5.cube
TITLE "Generated by Resolve"
LUT_3D_SIZE 33
0 0 0
0 0 0
0 0 0
0.0196841 0.00141909 0.0010071
0.0405737 0.00282292 0.00209049
0.0621653 0.00401312 0.00294499
0.0899672 0.00526436 0.00430304
0.122271 0.0065156 0.00610361
0.16379 0.00772107 0.00848402
0.216129 0.00892653 0.0120699
0.279744 0.00981155 0.0171817
0.350637 0.0107576 0.0246128
0.423087 0.0142061 0.0354009
0.501884 0.0222629 0.049836
0.585901 0.0339055 0.071931
0.674372 0.0455787 0.0939193
0.768429 0.0585184 0.117617
0.854734 0.0720836 0.137804
0.922774 0.0892348 0.15349
0.947036 0.099382 0.160464
0.94844 0.10074 0.162707
0.949737 0.101839 0.164538
0.950607 0.102464 0.165972
0.95137 0.103044 0.167117
0.951995 0.103487 0.167956
0.952377 0.103822 0.168551
0.952682 0.104067 0.169024
0.952911 0.104234 0.16936
0.953079 0.104341 0.169604
0.953201 0.104417 0.169772
0.953277 0.104463 0.169894
0.953338 0.104509 0.169986
0.953384 0.10454 0.170031
0 0 0
0 0 0
0 0 0
0.00900282 0.00148013 0.000564584
0.0309758 0.00337224 0.00192264
0.0505226 0.00502022 0.00291447
0.0783856 0.00691234 0.00416571
0.110277 0.00900282 0.00570687
0.150668 0.0107424 0.00772107
0.20209 0.0125887 0.0107424
0.26453 0.0147402 0.0153048
0.335851 0.0171511 0.021973
0.409537 0.0210422 0.0314336
0.489769 0.0278325 0.045304
0.57554 0.0378882 0.0655833
0.665431 0.0505684 0.0892805
0.760082 0.0620737 0.113283
0.848829 0.0763561 0.135119
0.91928 0.0935988 0.1514
0.94548 0.10338 0.158404
0.947082 0.103517 0.159976
0.948241 0.103532 0.161135
0.949187 0.10425 0.162539
0.949981 0.104936 0.163745
0.950561 0.10544 0.164508
0.950973 0.105806 0.165133
0.951263 0.106065 0.165606
0.951492 0.106264 0.165942
0.951644 0.106386 0.166171
0.951751 0.106477 0.166323
0.951827 0.106538 0.166445
0.951873 0.106584 0.166506
0.951919 0.106615 0.166567
0 0 0
0 0 0
0 0 0
0.00122072 0.00164797 0.00015259
0.0173495 0.00512703 0.00167849
0.0387579 0.00653086 0.00271611
0.0666209 0.00885023 0.00422675
0.100725 0.0116121 0.00614939
0.141085 0.0141909 0.00823987
0.193301 0.0165408 0.0113832
0.256229 0.0187076 0.0158083
0.328786 0.0214389 0.0221866
0.401572 0.0265202 0.0307774
0.478828 0.033341 0.0424353
0.564828 0.0437018 0.0604868
0.656275 0.0547341 0.0843671
0.75198 0.0659648 0.109117
0.842924 0.0803235 0.132113
0.915267 0.0973983 0.149111
0.943435 0.107408 0.156374
0.945373 0.107591 0.157961
0.946731 0.107759 0.159289
0.947814 0.107881 0.160281
0.948608 0.107988 0.161044
0.949142 0.10811 0.161654
0.949569 0.108263 0.162158
0.949874 0.10837 0.162524
0.950088 0.108461 0.162783
0.95024 0.108507 0.162966
0.950347 0.108553 0.163104
0.950439 0.108583 0.163195
0.950484 0.108598 0.163241
0.950515 0.108614 0.163302
0.0009308 0.0129702 0.00584421
0.000839246 0.0116884 0.00448615
0.000839246 0.010132 0.00257877
0.00393683 0.00929274 0.00123598
0.0132601 0.0117342 0.00131228
0.0342412 0.0173342 0.00448615
0.0586862 0.0198367 0.00514229
0.0929122 0.0185855 0.00668345
0.131289 0.0189975 0.00866712
0.183825 0.0208438 0.0116426
0.247379 0.0231937 0.0160983
0.32108 0.025864 0.0223392
0.395727 0.0299535 0.0307012
0.473915 0.0368811 0.0422675
0.557733 0.0479286 0.0583352
0.645167 0.0602731 0.0798199
0.742031 0.0711986 0.104692
0.835538 0.0844892 0.127977
0.910796 0.101793 0.146273
0.940887 0.111894 0.154055
0.943145 0.111955 0.15584
0.944869 0.112062 0.157183
0.946151 0.112169 0.158282
0.947021 0.112245 0.159136
0.947631 0.112322 0.159747
0.948089 0.112367 0.160204
0.94844 0.112398 0.160464
0.948669 0.112428 0.160678
0.948837 0.112444 0.160845
0.948959 0.112459 0.160952
0.949035 0.112474 0.161028
0.949096 0.112474 0.161089
0.949142 0.11249 0.161135
0.00224308 0.0339666 0.0124514
0.00218204 0.0331121 0.0108034
0.00210575 0.030869 0.00680552
0.00585946 0.0291142 0.00320439
0.0171664 0.0315099 0.00260929
0.0331579 0.0316777 0.00332647
0.0623026 0.0395514 0.0087892
0.0970169 0.0453956 0.00949111
0.136461 0.0423133 0.0111849
0.179751 0.0339666 0.0129244
0.24062 0.0310216 0.0166476
0.313054 0.0294957 0.0223239
0.389899 0.0335851 0.0307012
0.469032 0.0407263 0.0420539
0.553552 0.0514076 0.0581064
0.641352 0.0629435 0.079469
0.733089 0.076051 0.101274
0.82742 0.0901656 0.123964
0.905623 0.107134 0.14342
0.938521 0.117159 0.151965
0.940307 0.11667 0.153246
0.942061 0.116564 0.154681
0.94345 0.116518 0.15581
0.944579 0.116548 0.156634
0.945357 0.116594 0.15729
0.945907 0.116655 0.157778
0.946334 0.11667 0.158114
0.946639 0.116686 0.158373
0.946822 0.116701 0.158541
0.946944 0.116716 0.158663
0.947036 0.116716 0.158755
0.947097 0.116732 0.158801
0.947127 0.116732 0.158846
0.00337224 0.0534066 0.0209506
0.00334173 0.0528115 0.0175937
0.00309758 0.0502937 0.012604
0.00393683 0.0480049 0.00613413
0.0159915 0.0480659 0.005066
0.033341 0.0518044 0.00373846
0.0557717 0.0506447 0.00552377
0.100221 0.0624704 0.0125887
0.140993 0.0685893 0.0140383
0.192081 0.0605631 0.0167697
0.245914 0.0502022 0.0196078
0.307912 0.0441749 0.0234379
0.383597 0.0411536 0.03093
0.463233 0.0445563 0.0416571
0.548119 0.0545968 0.0573434
0.636728 0.065919 0.0788891
0.728954 0.0794232 0.100816
0.821836 0.0950027 0.122011
0.898985 0.113039 0.13994
0.936355 0.124056 0.149676
0.938216 0.123415 0.151308
0.939696 0.122866 0.152468
0.940826 0.122454 0.153323
0.941787 0.122087 0.154086
0.942473 0.121828 0.15465
0.942992 0.121645 0.155077
0.943435 0.121614 0.155428
0.943771 0.121614 0.155688
0.943999 0.12163 0.155886
0.944167 0.12163 0.156008
0.944289 0.12163 0.156115
0.944366 0.12163 0.156176
0.944427 0.12163 0.156222
0.00404364 0.0801709 0.0320134
0.00396735 0.0802319 0.0261692
0.00402838 0.0783551 0.0215457
0.00463874 0.0759289 0.0138247
0.00921645 0.0737926 0.00709545
0.03093 0.0771191 0.00758373
0.0506905 0.0804456 0.00497444
0.0852064 0.076585 0.00779736
0.141939 0.093904 0.0149386
0.197681 0.0941024 0.0187381
0.25922 0.0750896 0.0235752
0.32462 0.0695964 0.028275
0.384283 0.0625925 0.0332799
0.457145 0.0591897 0.0422675
0.54078 0.0588083 0.0565194
0.630549 0.0703136 0.0781415
0.723476 0.0838788 0.100206
0.817105 0.0993668 0.121462
0.895186 0.117937 0.139391
0.935286 0.131777 0.148226
0.9355 0.132662 0.148348
0.93669 0.13254 0.149355
0.938033 0.132128 0.150484
0.938994 0.131807 0.151339
0.939651 0.131594 0.151919
0.940139 0.131426 0.152346
0.94049 0.131273 0.152529
0.940749 0.131182 0.152743
0.940963 0.131106 0.15288
0.941085 0.131075 0.152972
0.941161 0.131044 0.153033
0.941222 0.131014 0.153094
0.941253 0.131014 0.153109
0.00482185 0.11133 0.0426947
0.00433356 0.111818 0.0374914
0.00422675 0.111009 0.0327001
0.00523384 0.10898 0.0231937
0.00621042 0.107057 0.0137789
0.015671 0.105653 0.00790417
0.0466316 0.111833 0.00973526
0.0754711 0.113283 0.00564584
0.118242 0.107179 0.0096437
0.19559 0.132219 0.0151369
0.268467 0.116381 0.0243992
0.339986 0.101076 0.0323796
0.406241 0.0949874 0.0388647
0.466621 0.0869764 0.0463417
0.53521 0.0828107 0.0579843
0.623835 0.0848096 0.0781567
0.714916 0.0899825 0.0989853
0.810452 0.106035 0.12076
0.890135 0.124239 0.138979
0.937255 0.140047 0.149248
0.937407 0.140917 0.14931
0.937438 0.141512 0.14931
0.937499 0.142016 0.149325
0.937591 0.142458 0.149371
0.937667 0.142779 0.149401
0.937713 0.143023 0.149432
0.937758 0.143191 0.149447
0.937774 0.143313 0.149462
0.937804 0.143404 0.149477
0.937804 0.143465 0.149477
0.937819 0.143496 0.149477
0.937835 0.143542 0.149493
0.937835 0.143557 0.149493
0.00543221 0.149279 0.0570535
0.004654 0.15021 0.049897
0.00376898 0.151186 0.0429694
0.00462348 0.149416 0.0364233
0.0056611 0.147311 0.0269169
0.00721752 0.144625 0.0153964
0.0223239 0.144594 0.00923171
0.0670939 0.154314 0.0118715
0.101854 0.153262 0.00549325
0.159655 0.144564 0.0112459
0.256001 0.172595 0.0140993
0.351064 0.146075 0.0321813
0.423285 0.136538 0.0438392
0.492988 0.131289 0.0545815
0.556298 0.124788 0.0664225
0.625666 0.121233 0.081651
0.710933 0.122515 0.10071
0.804608 0.125948 0.121096
0.882307 0.132784 0.138048
0.93959 0.15111 0.150362
0.93962 0.151827 0.150378
0.939742 0.152514 0.150439
0.939864 0.153094 0.1505
0.940017 0.153506 0.150576
0.940139 0.153811 0.150637
0.940215 0.15404 0.150683
0.940261 0.154208 0.150698
0.940291 0.15433 0.150713
0.940307 0.154421 0.150713
0.940322 0.154482 0.150729
0.940337 0.154513 0.150729
0.940337 0.154559 0.150744
0.940337 0.154574 0.150729
0.00518807 0.197803 0.0777752
0.00447089 0.198764 0.0708629
0.00355535 0.200107 0.0621042
0.0030518 0.200961 0.0521401
0.00395209 0.199283 0.0450599
0.00515755 0.197116 0.0360266
0.00726329 0.192874 0.0173342
0.0336461 0.19585 0.0108797
0.0936904 0.207965 0.0140688
0.134936 0.203479 0.00462348
0.21149 0.192401 0.0125429
0.328038 0.223423 0.0143435
0.437461 0.197131 0.0424506
0.512734 0.185794 0.0605936
0.588418 0.185016 0.0770733
0.656138 0.178866 0.0923171
0.728252 0.175326 0.108614
0.803952 0.173373 0.124102
0.884657 0.179644 0.141054
0.943221 0.187167 0.152712
0.945449 0.180377 0.15285
0.94403 0.173419 0.152422
0.943053 0.168093 0.151995
0.94313 0.168536 0.152026
0.943206 0.168872 0.152056
0.943252 0.169116 0.152071
0.943282 0.169284 0.152087
0.943297 0.169406 0.152102
0.943313 0.169497 0.152102
0.943328 0.169558 0.152102
0.943328 0.169604 0.152117
0.943343 0.169635 0.152117
0.943343 0.169665 0.152117
0.00425727 0.256809 0.101259
0.00364691 0.25771 0.0949569
0.0027924 0.258854 0.0878157
0.00164797 0.260197 0.079057
0.0134585 0.261372 0.0682383
0.00218204 0.259556 0.0597696
0.00396735 0.256703 0.0471962
0.007187 0.251133 0.0202945
0.0504616 0.257557 0.0121462
0.123674 0.272801 0.0156405
0.177813 0.264164 0.002121
0.273976 0.250401 0.0134737
0.410742 0.291234 0.0130159
0.530877 0.271 0.0549477
0.612299 0.261479 0.0780041
0.695155 0.258 0.104082
0.766293 0.250248 0.121035
0.837674 0.246006 0.135714
0.899733 0.244251 0.147509
0.947585 0.245884 0.156558
0.955032 0.2421 0.157733
0.954192 0.236332 0.157214
0.953475 0.231373 0.156817
0.953017 0.227939 0.156527
0.952605 0.225086 0.156283
0.9523 0.22298 0.156115
0.952056 0.221454 0.155978
0.951888 0.220356 0.155886
0.951751 0.219577 0.155825
0.951614 0.219059 0.155734
0.951492 0.218708 0.155657
0.951431 0.218433 0.155627
0.9514 0.218235 0.155612
0.00215152 0.327535 0.127687
0.00161746 0.328222 0.122118
0.0136263 0.329213 0.116442
0.0137026 0.33019 0.109285
0.0137026 0.331548 0.100145
0.0137026 0.33315 0.0892958
0.0137179 0.331731 0.0773022
0.00244144 0.32845 0.0605478
0.00733959 0.321096 0.0228428
0.0733959 0.332494 0.0138857
0.160739 0.349325 0.0174105
0.232929 0.336843 0.0134432
0.347402 0.321981 0.0145266
0.489128 0.363638 0.0149996
0.624338 0.364034 0.0640421
0.718212 0.359976 0.0994736
0.801175 0.347662 0.126375
0.874556 0.337011 0.146166
0.929641 0.333364 0.158038
0.970657 0.333242 0.166567
0.978958 0.329381 0.168048
0.977478 0.323262 0.167315
0.976074 0.318181 0.166735
0.975097 0.31458 0.166323
0.974304 0.311559 0.165957
0.973709 0.309346 0.165698
0.973266 0.307729 0.165515
0.9729 0.30663 0.165316
0.972641 0.305837 0.165194
0.972488 0.305241 0.165118
0.972427 0.304921 0.165103
0.972396 0.304692 0.165103
0.972366 0.30454 0.165087
0 0.403616 0.160876
0 0.404028 0.155444
0.0118257 0.404517 0.149935
0.012192 0.405158 0.143465
0.0124056 0.405966 0.136385
0.0124361 0.407324 0.12723
0.0124056 0.409537 0.113588
0.0124819 0.408453 0.0966354
0.00177005 0.404669 0.0755016
0.00939956 0.397894 0.0231785
0.104295 0.412695 0.0163272
0.213733 0.429923 0.020264
0.299611 0.415167 0.00956741
0.424262 0.399847 0.016846
0.564218 0.435599 0.0273747
0.711955 0.460746 0.0736248
0.816327 0.455451 0.121111
0.88629 0.453407 0.145205
0.949767 0.447044 0.168368
0.990524 0.445426 0.185748
0.990127 0.442802 0.187396
0.989288 0.433814 0.185519
0.988602 0.426337 0.184146
0.988098 0.420813 0.183322
0.987884 0.417166 0.182269
0.9879 0.415213 0.181521
0.9879 0.413809 0.180987
0.9879 0.412802 0.180606
0.9879 0.412161 0.180392
0.987884 0.411765 0.180285
0.987884 0.411475 0.180209
0.987884 0.411231 0.180117
0.987884 0.411063 0.180041
0 0.484993 0.20351
0 0.485267 0.198352
0 0.485573 0.192645
0 0.485878 0.186709
0 0.486259 0.180377
0.0087892 0.486717 0.173236
0.00944533 0.488151 0.160723
0.00947585 0.490822 0.141344
0.00961318 0.489799 0.119219
0.00300603 0.485496 0.0908064
0.0144961 0.48014 0.0202945
0.144305 0.496986 0.0217899
0.28777 0.513939 0.0263676
0.378515 0.497398 0.0024567
0.504067 0.482628 0.0256809
0.636591 0.508064 0.0441901
0.794858 0.564904 0.0850233
0.891325 0.555398 0.141344
0.946242 0.559167 0.164416
0.991226 0.561349 0.185885
1 0.567361 0.198734
1 0.563394 0.198657
1 0.560388 0.198611
1 0.5579 0.198367
1 0.555947 0.198276
1 0.554498 0.198215
1 0.553445 0.198169
1 0.552682 0.198123
1 0.552132 0.198093
1 0.551751 0.198093
1 0.551492 0.198077
1 0.551293 0.198062
1 0.551156 0.198047
0 0.570443 0.255451
0 0.570489 0.250477
0 0.57055 0.245472
0 0.570657 0.240131
0 0.570809 0.23447
0 0.571054 0.228244
0 0.571572 0.218341
0 0.572717 0.202304
0 0.575235 0.176745
0.000366217 0.573617 0.145983
0.00924697 0.568826 0.10692
0.0452888 0.567239 0.0272374
0.208347 0.583535 0.0390936
0.378042 0.599542 0.039353
0.465049 0.582803 0
0.585 0.569314 0.0478065
0.71191 0.587091 0.0722515
0.863951 0.651469 0.109545
0.952605 0.662058 0.166217
0.989303 0.660151 0.18645
1 0.666209 0.201511
1 0.664042 0.201907
1 0.661753 0.201907
1 0.659953 0.201938
1 0.65861 0.201923
1 0.657618 0.201938
1 0.656886 0.201953
1 0.656367 0.201953
1 0.656001 0.201953
1 0.655741 0.201953
1 0.655558 0.201953
1 0.655421 0.201953
1 0.655344 0.201953
0 0.658991 0.31722
0 0.658946 0.312673
0 0.658869 0.308064
0 0.658854 0.303075
0 0.658839 0.298161
0 0.658854 0.292363
0 0.658824 0.284153
0 0.658869 0.270695
0.00030518 0.659525 0.249332
0.00363165 0.660395 0.218173
0.0099031 0.657893 0.178653
0.0253605 0.651896 0.12047
0.106264 0.653407 0.0460212
0.307027 0.67039 0.0683452
0.470024 0.687251 0.0531777
0.557733 0.669673 0.00534066
0.663981 0.656535 0.0770275
0.795193 0.674891 0.106035
0.902037 0.712734 0.144732
0.982696 0.746334 0.206653
1 0.756695 0.229191
1 0.758831 0.223972
1 0.758602 0.22356
1 0.757351 0.222538
1 0.75639 0.222019
1 0.755673 0.221637
1 0.755154 0.221378
1 0.754772 0.22118
1 0.754498 0.221042
1 0.754314 0.220935
1 0.754177 0.220859
1 0.754086 0.220813
1 0.754009 0.220783
0.00151064 0.746441 0.380606
0.00202945 0.746334 0.376898
0.00244144 0.746212 0.372961
0.00277714 0.74612 0.369116
0.00325017 0.746014 0.36495
0.00373846 0.745892 0.360586
0.00456245 0.745739 0.354162
0.00598154 0.745495 0.343938
0.0089723 0.745388 0.32694
0.0133516 0.745495 0.299535
0.0230869 0.743832 0.262181
0.0342412 0.739651 0.213413
0.0532998 0.733562 0.126741
0.204105 0.73991 0.0805829
0.430655 0.756359 0.106065
0.56199 0.775143 0.0700542
0.646723 0.756848 0.0334783
0.739315 0.742626 0.111162
0.860227 0.758053 0.150317
0.928344 0.773587 0.19292
0.976349 0.789303 0.26186
0.975982 0.789944 0.296574
0.976562 0.78938 0.295338
0.97702 0.788907 0.294484
0.977417 0.788571 0.293629
0.977707 0.788312 0.292973
0.97792 0.788128 0.292531
0.978073 0.787976 0.29218
0.97818 0.787884 0.291951
0.978256 0.787823 0.291783
0.978317 0.787762 0.291661
0.978347 0.787732 0.291569
0.978378 0.787701 0.291539
0.0127871 0.832105 0.439475
0.0129091 0.831998 0.436484
0.0131838 0.831846 0.433127
0.0133974 0.831708 0.429862
0.0137026 0.831556 0.426383
0.0142672 0.831327 0.422431
0.014786 0.831128 0.416999
0.0157168 0.830808 0.408881
0.0185092 0.830579 0.396277
0.0240787 0.829969 0.375799
0.0315709 0.829404 0.343267
0.0477913 0.823621 0.300832
0.0626535 0.817868 0.239857
0.0935073 0.815259 0.10811
0.343313 0.823041 0.123293
0.552422 0.837552 0.139544
0.649668 0.853941 0.0852674
0.731853 0.838651 0.0697185
0.810162 0.822263 0.148577
0.907515 0.834607 0.19733
0.973022 0.852262 0.179706
0.980926 0.850584 0.283604
0.980835 0.851926 0.302113
0.980804 0.85156 0.30251
0.980774 0.851194 0.302861
0.980758 0.850904 0.303075
0.980743 0.85069 0.303258
0.980728 0.850523 0.30341
0.980728 0.850401 0.303517
0.980728 0.850324 0.303563
0.980713 0.850263 0.303624
0.980713 0.850233 0.303639
0.980713 0.850202 0.303655
0.0275273 0.9019 0.493782
0.0277256 0.901717 0.490852
0.0280461 0.901488 0.487846
0.0281071 0.901335 0.485039
0.0283055 0.901167 0.481926
0.0284276 0.900984 0.478706
0.0288243 0.90071 0.473793
0.0294804 0.90042 0.466911
0.0312657 0.899916 0.456458
0.0355383 0.89897 0.439658
0.042771 0.897444 0.413306
0.0571603 0.893141 0.377279
0.0771954 0.886091 0.330404
0.0983139 0.87953 0.245579
0.233539 0.883024 0.137621
0.489342 0.887846 0.165743
0.642695 0.903319 0.154818
0.729122 0.91426 0.0995041
0.809766 0.901335 0.112749
0.867002 0.881743 0.198245
0.946105 0.896483 0.209277
0.981369 0.911421 0.293614
0.981216 0.914519 0.350683
0.981216 0.91429 0.350301
0.981231 0.914107 0.349981
0.981231 0.913954 0.349706
0.981231 0.913832 0.349508
0.981231 0.913756 0.34934
0.981247 0.913695 0.349218
0.981247 0.913649 0.349126
0.981247 0.913619 0.349081
0.981247 0.913588 0.349035
0.981247 0.913573 0.349004
0.0454261 0.953155 0.542062
0.0454566 0.952987 0.539361
0.0454261 0.952819 0.53666
0.0453498 0.952651 0.534005
0.0453956 0.952468 0.531136
0.0454261 0.95227 0.528023
0.0455787 0.951949 0.52369
0.0459754 0.951659 0.51754
0.0464332 0.95108 0.508309
0.0495155 0.949935 0.493584
0.0550546 0.948165 0.471077
0.068864 0.944137 0.443153
0.094789 0.935897 0.406851
0.116548 0.929 0.353857
0.152758 0.928695 0.22002
0.413306 0.92874 0.200092
0.621637 0.931624 0.219852
0.723857 0.94641 0.188357
0.806638 0.951766 0.154971
0.868376 0.941421 0.191302
0.913268 0.925841 0.263005
0.96437 0.933211 0.325795
0.980163 0.946349 0.397665
0.980148 0.946685 0.408789
0.980148 0.946624 0.408652
0.980148 0.946563 0.408515
0.980148 0.946517 0.408408
0.980148 0.946471 0.408331
0.980163 0.946456 0.40824
0.980163 0.946426 0.408194
0.980163 0.94641 0.408164
0.980163 0.946395 0.408148
0.980163 0.946395 0.408103
0.0585184 0.978714 0.575082
0.0583963 0.978653 0.57258
0.0583963 0.978546 0.570016
0.0583047 0.978454 0.56762
0.0582284 0.978378 0.564981
0.0581674 0.978271 0.562081
0.0580453 0.978134 0.558145
0.0580606 0.97792 0.552316
0.0585489 0.977478 0.543755
0.0629129 0.976349 0.532464
0.0727703 0.974105 0.517922
0.087541 0.97052 0.497124
0.115434 0.966766 0.473976
0.145006 0.960403 0.438987
0.169619 0.95613 0.369894
0.352041 0.96141 0.315892
0.568872 0.955932 0.317235
0.710719 0.959167 0.31133
0.794827 0.967315 0.283619
0.877226 0.96878 0.289555
0.909819 0.961563 0.325414
0.945724 0.953338 0.390188
0.974685 0.961929 0.442451
0.979599 0.965515 0.472007
0.979599 0.965576 0.468803
0.979599 0.965591 0.467948
0.979599 0.965591 0.467903
0.979599 0.965576 0.467887
0.979599 0.965576 0.467872
0.979599 0.96556 0.467857
0.979599 0.96556 0.467826
0.979599 0.96556 0.467826
0.979599 0.96556 0.467811
0.0591287 0.978866 0.582712
0.0589456 0.978821 0.580255
0.0587472 0.978775 0.577813
0.0585336 0.978714 0.575433
0.0583963 0.978653 0.572854
0.0583963 0.978546 0.569986
0.0582589 0.978408 0.56611
0.0580606 0.978225 0.560449
0.0580606 0.977905 0.552102
0.0594949 0.977249 0.539361
0.0686656 0.975204 0.52462
0.0832685 0.971756 0.504051
0.108659 0.967651 0.479454
0.144518 0.964019 0.452216
0.176898 0.963104 0.414145
0.325933 0.964645 0.371008
0.539879 0.959762 0.36791
0.698085 0.956878 0.371176
0.781491 0.965545 0.350683
0.871107 0.969238 0.361349
0.910506 0.966033 0.380987
0.93521 0.957992 0.420996
0.968063 0.966583 0.46479
0.979522 0.970138 0.506783
0.979522 0.970138 0.507576
0.979522 0.970138 0.505333
0.979522 0.970153 0.503685
0.979522 0.970153 0.502495
0.979522 0.970153 0.501701
0.979522 0.970153 0.501122
0.979522 0.970153 0.500725
0.979522 0.970169 0.500435
0.979522 0.970169 0.500237
0.0596017 0.978851 0.588525
0.0594339 0.978866 0.586145
0.059205 0.978882 0.583963
0.0590372 0.978836 0.581445
0.058854 0.97879 0.578897
0.0585946 0.978729 0.576318
0.0583658 0.978637 0.57232
0.0582742 0.978424 0.566705
0.0580453 0.978149 0.558541
0.058732 0.97763 0.546288
0.0655222 0.976043 0.529839
0.0798657 0.972717 0.509483
0.103304 0.968338 0.483696
0.140719 0.964263 0.45507
0.174304 0.962921 0.419272
0.303258 0.964309 0.373907
0.522225 0.960266 0.367575
0.685832 0.956725 0.370169
0.77351 0.964767 0.352041
0.862043 0.969131 0.355764
0.908644 0.967529 0.375586
0.931426 0.959808 0.411597
0.963775 0.964889 0.455238
0.979522 0.970169 0.495918
0.979522 0.970138 0.506294
0.979522 0.970138 0.507073
0.979522 0.970138 0.507561
0.979522 0.970138 0.507897
0.979522 0.970138 0.508202
0.979522 0.970138 0.507683
0.979522 0.970138 0.507347
0.979522 0.970138 0.507118
0.979522 0.970138 0.50692
0.06009 0.978851 0.593164
0.0600137 0.978821 0.590768
0.0595865 0.978851 0.588342
0.0594186 0.978866 0.585901
0.0591897 0.978882 0.583658
0.0589914 0.978836 0.58088
0.0586404 0.978759 0.577157
0.0583658 0.978607 0.57145
0.0581826 0.978317 0.563348
0.0581979 0.97789 0.551614
0.0631876 0.976638 0.533974
0.0771649 0.973449 0.513802
0.0994736 0.968811 0.486809
0.137209 0.964614 0.458122
0.172122 0.962844 0.422812
0.285435 0.964279 0.376287
0.507515 0.960723 0.367315
0.674571 0.956893 0.369909
0.767437 0.964141 0.353201
0.855146 0.969039 0.351843
0.907683 0.969177 0.371878
0.929305 0.9617 0.405631
0.960021 0.963073 0.447684
0.977905 0.969711 0.487999
0.979522 0.970153 0.505043
0.979522 0.970138 0.505867
0.979522 0.970138 0.506447
0.979522 0.970138 0.506889
0.979522 0.970138 0.507149
0.979522 0.970138 0.507301
0.979522 0.970138 0.507439
0.979522 0.970138 0.5075
0.979522 0.970138 0.507576
0.0604562 0.978897 0.59649
0.0602121 0.978882 0.594049
0.0600443 0.978821 0.591806
0.0599069 0.978836 0.589349
0.0594949 0.978866 0.586892
0.0592355 0.978866 0.584421
0.0589609 0.978821 0.580499
0.0585184 0.978698 0.575082
0.0582895 0.978439 0.567056
0.0580453 0.978042 0.555352
0.0613565 0.977096 0.537087
0.0753033 0.973953 0.516777
0.0963302 0.969223 0.489281
0.134356 0.964981 0.460746
0.170413 0.962814 0.425406
0.272251 0.964065 0.377584
0.496132 0.961074 0.367041
0.665949 0.956909 0.369543
0.763058 0.96376 0.354314
0.849638 0.96907 0.348852
0.90634 0.96965 0.369802
0.927733 0.963058 0.4009
0.956802 0.961532 0.44239
0.976257 0.969223 0.482429
0.979522 0.970153 0.504173
0.979522 0.970153 0.504952
0.979522 0.970138 0.505531
0.979522 0.970138 0.505959
0.979522 0.970138 0.506264
0.979522 0.970138 0.506462
0.979522 0.970138 0.50663
0.979522 0.970138 0.506722
0.979522 0.970138 0.506783
0.0607462 0.978912 0.599069
0.0604715 0.978897 0.596643
0.0602121 0.978882 0.594171
0.0600443 0.978821 0.591897
0.0599069 0.978836 0.589426
0.0594797 0.978851 0.586725
0.0591592 0.978882 0.583139
0.0587167 0.978759 0.577615
0.0583658 0.978531 0.569665
0.0580453 0.978134 0.558145
0.0609598 0.977264 0.539849
0.0738384 0.97435 0.519112
0.0937209 0.969528 0.491051
0.132219 0.965255 0.462745
0.169085 0.962814 0.427298
0.262119 0.963928 0.378393
0.487968 0.961486 0.367071
0.659403 0.956924 0.369329
0.759762 0.96347 0.355093
0.844541 0.969253 0.347723
0.904967 0.969573 0.36878
0.92607 0.9635 0.398138
0.954314 0.961028 0.439048
0.974853 0.968811 0.477974
0.979522 0.970153 0.503517
0.979522 0.970153 0.504326
0.979522 0.970153 0.504875
0.979522 0.970153 0.505287
0.979522 0.970138 0.505592
0.979522 0.970138 0.505806
0.979522 0.970138 0.505943
0.979522 0.970138 0.50605
0.979522 0.970138 0.506127
0.0609751 0.978927 0.600916
0.0606851 0.978912 0.598489
0.0604105 0.978897 0.596048
0.0601511 0.978866 0.593622
0.0600443 0.978821 0.591257
0.0596017 0.978851 0.588556
0.059266 0.978866 0.58497
0.0588846 0.978805 0.5794
0.0583505 0.978607 0.571527
0.0580453 0.97821 0.560174
0.0605936 0.977417 0.542077
0.0727855 0.974624 0.520806
0.0925917 0.969833 0.492699
0.1308 0.965423 0.464134
0.168139 0.962814 0.428626
0.254841 0.963821 0.379004
0.481621 0.961715 0.366873
0.654475 0.956985 0.3691
0.757458 0.963211 0.35555
0.840665 0.969284 0.347417
0.903975 0.969497 0.368063
0.92459 0.963424 0.396445
0.952331 0.960693 0.436561
0.973922 0.968536 0.474952
0.979522 0.970153 0.503044
0.979522 0.970153 0.503838
0.979522 0.970153 0.504417
0.979522 0.970153 0.504829
0.979522 0.970153 0.505119
0.979522 0.970138 0.505318
0.979522 0.970138 0.50547
0.979522 0.970138 0.505562
0.979522 0.970138 0.505638
0.0611429 0.978927 0.602274
0.0608377 0.978912 0.599832
0.0605631 0.978912 0.597375
