bundles/resolve-cinematic-luts/Phantom Luts/P4k & P6k Phntm Arri LUTs - V6/P4K/Gen 5 Colour/Standard (No WB Offset)/P4k Utopia Gen5.cube
TITLE "Generated by Resolve"
LUT_3D_SIZE 9
0 0.0227512 0.0306706
0.0238956 0.0213779 0.030808
0.123598 0.0180362 0.0225071
0.377401 0.0134127 0.0187228
0.677089 0.0643168 0.087892
0.832212 0.127352 0.150042
0.836179 0.130236 0.154971
0.838407 0.131121 0.156603
0.851392 0.127687 0.153643
0 0.0420081 0.0383917
0.00624094 0.0396124 0.0303807
0.104738 0.0444648 0.0338445
0.352224 0.0294347 0.0244755
0.660044 0.077409 0.0804913
0.835142 0.139864 0.146288
0.838453 0.140063 0.149371
0.839612 0.140429 0.150317
0.850599 0.137652 0.147692
0 0.144732 0.0559548
0 0.143755 0.0235599
0.0758984 0.147845 0.0133211
0.405661 0.124651 0.0559091
0.660075 0.12224 0.0925154
0.848447 0.171267 0.153353
0.849226 0.173007 0.15407
0.849668 0.173846 0.154421
0.854383 0.17319 0.153262
0 0.420035 0.125719
0 0.425864 0.0960555
0 0.425437 0.0232242
0.312642 0.415167 0.0238956
0.792081 0.456519 0.150973
0.951278 0.450141 0.233707
0.94699 0.428901 0.229053
0.946502 0.425742 0.227558
0.947509 0.426993 0.226673
0 0.768841 0.36968
0 0.771832 0.352132
0 0.77705 0.30544
0.0670787 0.774975 0.0803693
0.707439 0.735271 0.110979
0.972015 0.773327 0.306142
0.976303 0.776242 0.336996
0.977005 0.776471 0.335775
0.977172 0.777066 0.335454
0.0378424 0.993286 0.580423
0.0319066 0.995239 0.568078
0.0332341 0.996201 0.5449
0.0879835 0.997559 0.465156
0.637385 0.977539 0.303243
0.957748 0.935775 0.379583
0.999969 0.942 0.5037
0.999969 0.942061 0.503197
0.999969 0.942061 0.503471
0.0356298 0.994949 0.603906
0.035172 0.995377 0.594125
0.0346685 0.996307 0.572152
0.0745098 0.99765 0.486183
0.553338 0.996857 0.339239
0.954787 0.946517 0.418173
0.999969 0.948119 0.532494
0.999969 0.948287 0.535134
0.999969 0.948348 0.535668
0.0342412 0.995071 0.610346
0.0378271 0.994598 0.601862
0.0400702 0.995163 0.580957
0.0763561 0.996979 0.492912
0.53991 0.99762 0.337606
0.953353 0.945891 0.417212
0.999969 0.948043 0.531762
0.999969 0.948165 0.533593
0.999969 0.948348 0.53431
0.0322271 0.995407 0.611597
0.0332647 0.995438 0.602136
0.0375219 0.995575 0.58146
0.0768444 0.99707 0.492988
0.543603 0.997391 0.337804
0.952819 0.945617 0.417777
0.999969 0.947951 0.529885
0.999969 0.94815 0.533242
0.999969 0.948363 0.533989
0 0.0252842 0.0448005
0.0165255 0.0216678 0.0525826
0.119234 0.0141299 0.062623
0.40087 0.0138247 0.0674449
0.708888 0.0829023 0.130098
0.847318 0.130694 0.169146
0.851621 0.138872 0.180209
0.853758 0.141222 0.183398
0.861616 0.13962 0.18265
0 0.0336156 0.042298
0.000289921 0.0299229 0.0378882
0.112734 0.0216373 0.0261387
0.37055 0.0145724 0.019501
0.678706 0.0641489 0.0875563
0.843671 0.125093 0.147509
0.847486 0.128054 0.152483
0.848783 0.129168 0.154162
0.856504 0.12726 0.152773
0 0.130175 0.0881056
0 0.132311 0.0574655
0.0695659 0.139345 0.0145266
0.405661 0.108629 0.0532998
0.661097 0.106172 0.0896162
0.844678 0.158907 0.148241
0.845396 0.160479 0.148974
0.846265 0.16054 0.149645
0.85127 0.159533 0.148394
0 0.409537 0.155306
0 0.41352 0.127565
0 0.422553 0.0478065
0.309026 0.410605 0.0238956
0.792813 0.446418 0.152331
0.947188 0.429786 0.229358
0.944854 0.415778 0.224811
0.944457 0.413108 0.223972
0.945373 0.414023 0.222934
0 0.763806 0.385321
0 0.766629 0.3691
0 0.771496 0.328313
0.0579843 0.774319 0.0986496
0.705318 0.733089 0.111009
0.974289 0.772824 0.306493
0.977874 0.774807 0.332723
0.978607 0.775158 0.332158
0.978943 0.775906 0.332235
0.0378882 0.992874 0.590555
0.0315251 0.994965 0.578958
0.0319371 0.995987 0.556405
0.0795605 0.997345 0.473487
0.62739 0.978347 0.298878
0.956863 0.935134 0.374578
0.999969 0.941207 0.502693
0.999969 0.941192 0.500481
0.999969 0.941253 0.500908
0.0360113 0.994659 0.613779
0.0354314 0.99498 0.604212
0.0344244 0.996063 0.582803
0.0675822 0.997604 0.495766
0.537713 0.997803 0.337575
0.953674 0.946487 0.418067
0.999969 0.948165 0.533867
0.999969 0.948333 0.536217
0.999969 0.948394 0.53669
0.0333257 0.995026 0.619791
0.0383307 0.994263 0.611856
0.0398413 0.99469 0.591028
0.0700847 0.996979 0.502617
0.522515 0.998459 0.335927
0.951003 0.945968 0.416541
0.999969 0.947997 0.53106
0.999969 0.948211 0.534951
0.999969 0.948425 0.535668
0.0330205 0.995041 0.62153
0.0359503 0.99469 0.61294
0.0373693 0.995117 0.591424
0.070634 0.997024 0.502541
0.526238 0.998306 0.336095
0.950286 0.945754 0.417014
0.999969 0.94789 0.528634
0.999969 0.948196 0.53463
0.999969 0.948409 0.535363
0 0.0300298 0.135515
0.00810254 0.0246433 0.136141
0.110124 0.0158083 0.129595
0.404517 0.00509651 0.139559
0.714168 0.0628214 0.181247
0.862669 0.143893 0.235752
0.864332 0.141726 0.243839
0.865614 0.140719 0.24654
0.872724 0.138231 0.246586
0 0.0369726 0.107027
0 0.0294652 0.125811
0.0935073 0.0169375 0.11693
0.386847 0.00444038 0.109575
0.724269 0.0834821 0.16466
0.858656 0.150164 0.203586
0.86215 0.157244 0.215427
0.863233 0.157794 0.21886
0.86865 0.15639 0.219104
0 0.120104 0.125521
0 0.117494 0.122957
0.0775311 0.117968 0.12578
0.396841 0.0877546 0.0877394
0.681605 0.0724193 0.0935225
0.840574 0.128679 0.148882
0.844587 0.13193 0.15407
0.845914 0.133043 0.155764
0.852338 0.131502 0.154452
0 0.390997 0.21323
0 0.393057 0.191257
0 0.399603 0.123415
0.301534 0.400443 0.0180209
0.795148 0.420706 0.158297
0.942367 0.402792 0.221866
0.939132 0.388357 0.219425
0.938399 0.38526 0.218952
0.93959 0.386175 0.218387
0 0.754116 0.416297
0 0.756695 0.401602
0 0.759945 0.365942
0.0382239 0.771115 0.137194
0.701091 0.728099 0.111406
0.978546 0.77145 0.307271
0.980819 0.771405 0.325933
0.981521 0.771542 0.325063
0.981735 0.772229 0.325185
0.0384222 0.991791 0.609842
0.0317235 0.994141 0.599283
0.0308995 0.995407 0.579339
0.0634623 0.996918 0.492226
0.602945 0.980011 0.288685
0.955108 0.933639 0.363897
0.999969 0.940002 0.500832
0.999969 0.93991 0.497215
0.999969 0.939971 0.49688
0.0368048 0.994049 0.633433
0.0354162 0.994537 0.624338
0.0345006 0.995178 0.604059
0.0545815 0.997528 0.51664
0.498329 0.999176 0.333806
0.950301 0.946654 0.418982
0.999969 0.948272 0.536538
0.999969 0.948455 0.538766
0.999969 0.948516 0.539178
0.0357061 0.994125 0.640284
0.0353246 0.994369 0.631403
0.0402533 0.993851 0.612421
0.0571756 0.996796 0.523583
0.478981 0.999634 0.333028
0.945495 0.946487 0.417166
0.999969 0.947814 0.527764
0.999969 0.948333 0.537667
0.999969 0.948547 0.538384
0.0356146 0.994125 0.642206
0.0342718 0.994568 0.633112
0.0382696 0.994217 0.613657
0.0571908 0.996796 0.523796
0.481849 0.999588 0.33312
0.944823 0.946303 0.417441
0.999969 0.947555 0.525521
0.999969 0.948333 0.537469
0.999969 0.948562 0.538231
0 0.0390784 0.355352
0 0.0366979 0.356741
0.0819257 0.0263828 0.35697
0.35462 0.0120546 0.323705
0.671122 0.0281834 0.345678
0.828046 0.0514076 0.364889
0.825772 0.0505837 0.373571
0.826322 0.0500954 0.376761
0.838041 0.0462806 0.380118
0 0.0427863 0.351675
0 0.0388495 0.351553
0.0367437 0.0302434 0.359243
0.347936 0.0125582 0.317189
0.676371 0.0274968 0.33489
0.835615 0.0529793 0.347051
0.833677 0.052079 0.35642
0.833005 0.051545 0.35964
0.84268 0.0479896 0.362219
0 0.109209 0.32369
0 0.0870375 0.337667
0 0.0577249 0.36611
0.338369 0.0217899 0.307668
0.679316 0.0258488 0.303395
0.845258 0.0720073 0.319753
0.842084 0.0679332 0.325032
0.84094 0.0661631 0.326726
0.849928 0.0623178 0.328435
0 0.365209 0.34548
0 0.364401 0.344747
0 0.359533 0.339254
0.336217 0.368872 0.362005
0.752667 0.339208 0.306828
0.920653 0.308049 0.268711
0.91194 0.282902 0.252338
0.910201 0.274876 0.25037
0.910887 0.273899 0.249531
0 0.722255 0.518715
0 0.723796 0.511574
0 0.724926 0.490196
0 0.736965 0.348058
0.687648 0.714321 0.180972
0.974472 0.752956 0.36611
0.979095 0.752392 0.361517
0.979782 0.752056 0.360586
0.979629 0.752331 0.360922
0.0418402 0.978332 0.667948
0.034226 0.980667 0.660151
0.0298466 0.981826 0.642527
0.0278172 0.985031 0.563577
0.448875 0.993881 0.272404
0.948028 0.927123 0.325902
0.999969 0.932601 0.49604
0.999969 0.932219 0.494728
0.999969 0.93228 0.494835
0.0496223 0.989746 0.697887
0.0461585 0.990646 0.690654
0.0432441 0.991638 0.674174
0.0372778 0.99556 0.60119
0.317067 0.999969 0.368933
0.931365 0.94905 0.424369
0.999954 0.947402 0.531075
0.999969 0.948867 0.547601
0.999969 0.948928 0.547951
0.0510262 0.98941 0.705303
0.0477607 0.990219 0.698421
0.046067 0.990784 0.681819
0.0429084 0.994278 0.60972
0.294484 0.999969 0.372152
0.92311 0.949874 0.418936
0.999451 0.945251 0.517784
0.999969 0.948745 0.54725
0.999969 0.948974 0.547921
0.0494087 0.989807 0.708064
0.0477607 0.990234 0.701213
0.0452125 0.990982 0.684169
0.0430152 0.994217 0.611566
0.295872 0.999969 0.371939
0.922164 0.949859 0.417914
0.99913 0.944625 0.515221
0.999969 0.948775 0.547448
0.999954 0.949004 0.548089
0 0.0579538 0.590524
0 0.0563516 0.594888
0.0391089 0.0507668 0.605386
0.338262 0.038529 0.60087
0.637461 0.0482338 0.569619
0.78056 0.0851301 0.590112
0.776532 0.0814679 0.597284
0.775647 0.0794995 0.599939
0.78233 0.075288 0.60647
0 0.0576181 0.583719
0 0.057908 0.590784
0 0.0535286 0.60325
0.322438 0.0386053 0.603128
0.636011 0.0477913 0.56788
0.78529 0.0912184 0.589166
0.777676 0.0816052 0.592554
0.775982 0.0783856 0.594339
0.782635 0.074052 0.600671
0 0.0657664 0.572671
0 0.0586252 0.576745
0 0.057496 0.591424
0.279774 0.038819 0.604623
0.631586 0.0487068 0.563729
0.794446 0.106966 0.581491
0.789456 0.100252 0.585657
0.78735 0.0975814 0.586908
0.791882 0.0941176 0.591394
0 0.366323 0.592691
0 0.35964 0.597314
0 0.341527 0.605509
0.140169 0.271931 0.678676
0.688258 0.189654 0.620783
0.848234 0.181018 0.56907
0.840909 0.167117 0.556512
0.838865 0.164355 0.553857
0.840558 0.164584 0.55552
0 0.694667 0.658686
0 0.695384 0.659556
0 0.694453 0.658289
0 0.685176 0.647837
0.649409 0.66566 0.64683
0.940154 0.667063 0.624094
0.956329 0.659129 0.614054
0.956008 0.656947 0.612604
0.955261 0.657237 0.613352
0.0619516 0.947784 0.795758
0.0543069 0.949248 0.79353
0.0501411 0.948714 0.786252
0.0424964 0.945647 0.749355
0.388617 0.963165 0.651133
0.925368 0.921294 0.590997
0.989746 0.906508 0.616144
0.989471 0.905135 0.614725
0.98938 0.905028 0.615122
0.103746 0.984405 0.835874
0.0948196 0.985656 0.833417
0.0877699 0.985397 0.825177
0.0743725 0.985489 0.786755
0.226581 0.998108 0.656779
0.875013 0.967147 0.596414
0.995804 0.947753 0.598993
0.99826 0.952438 0.650309
0.998062 0.952514 0.650858
0.103609 0.985626 0.842741
0.099443 0.985962 0.839918
0.0919203 0.985611 0.831525
0.0771649 0.984955 0.791913
0.186175 0.997955 0.653468
0.859953 0.968383 0.592569
0.988769 0.943481 0.565927
0.998627 0.952407 0.647852
0.99794 0.952651 0.649042
0.103304 0.986221 0.846357
0.10074 0.98616 0.843137
0.0939956 0.985687 0.834531
0.0780194 0.984985 0.794537
0.184878 0.997971 0.655436
0.857221 0.968887 0.594553
0.985901 0.943282 0.561578
0.998352 0.952575 0.649332
0.997574 0.952865 0.650339
0 0.142733 0.79855
0.0250401 0.140948 0.804135
0.101656 0.13843 0.814298
0.33611 0.129274 0.82681
0.664317 0.122393 0.803098
0.784497 0.135027 0.78793
0.787961 0.142428 0.799725
0.789731 0.143999 0.803342
0.796582 0.141939 0.812512
0 0.143725 0.791104
0 0.142397 0.798688
0.0670787 0.139605 0.810117
0.319265 0.130831 0.827497
0.661418 0.122194 0.803967
0.784451 0.135195 0.786526
0.789441 0.14493 0.800763
0.790692 0.145815 0.803647
0.797925 0.143679 0.813306
0 0.140871 0.768109
0 0.141741 0.782406
0 0.139986 0.796246
0.276768 0.132204 0.826047
0.649866 0.119829 0.804303
0.781003 0.13608 0.777768
0.784802 0.145205 0.790387
0.786877 0.147753 0.795102
0.795254 0.145632 0.806363
0 0.253697 0.74963
0 0.238834 0.753231
0 0.20499 0.748791
0.0442664 0.157229 0.808972
0.593713 0.129488 0.811933
0.786709 0.134524 0.760922
0.786175 0.138033 0.762097
0.787228 0.139712 0.764706
0.793851 0.13756 0.77261
0 0.705547 0.862974
0 0.706523 0.86865
0 0.70454 0.87187
0 0.691646 0.880613
0.543847 0.652659 0.915587
0.92874 0.590311 0.873915
0.938338 0.575601 0.866712
0.93817 0.572992 0.865812
0.937392 0.57351 0.866484
0.0899519 0.930266 0.893614
0.0809339 0.931975 0.895994
0.0778058 0.931426 0.895003
0.0889448 0.926345 0.889052
0.469108 0.909361 0.882216
0.882399 0.885283 0.873686
0.970642 0.889769 0.868559
0.970443 0.888106 0.867231
0.969833 0.888167 0.867903
0.325017 0.985611 0.934966
0.320943 0.985718 0.935271
0.315343 0.985595 0.933791
0.30103 0.98497 0.925246
0.437156 0.982116 0.902998
0.803815 0.97937 0.888319
0.974548 0.967391 0.864286
0.984634 0.963577 0.865202
0.984146 0.96347 0.866087
0.335668 0.985702 0.938293
0.331411 0.985962 0.938613
0.324987 0.98584 0.936828
0.306004 0.985092 0.927413
0.416068 0.982589 0.899977
0.788174 0.980682 0.886397
0.9691 0.970428 0.869856
0.986328 0.964858 0.849561
0.984955 0.965194 0.851118
0.338598 0.985962 0.940291
0.335592 0.985916 0.939742
0.329046 0.985946 0.938216
0.30927 0.985138 0.928634
0.416846 0.982559 0.900572
0.786847 0.980606 0.887404
0.966247 0.970718 0.870649
0.985809 0.965026 0.850278
0.984802 0.96524 0.852338
0.0698253 0.180774 0.846235
0.101671 0.180453 0.852384
0.167819 0.179324 0.860914
0.371847 0.17435 0.872496
0.695964 0.163958 0.851438
0.797513 0.158511 0.820661
0.797726 0.159014 0.820859
0.795926 0.159228 0.818647
0.801846 0.156435 0.826322
0.0368658 0.180774 0.838132
0.0690013 0.180743 0.846922
0.136492 0.179934 0.857298
0.355642 0.175463 0.872648
0.692485 0.164187 0.853162
0.798505 0.159945 0.821759
0.798886 0.160586 0.822126
0.799222 0.159991 0.822629
0.804974 0.157275 0.830121
0 0.179828 0.82121
0 0.180758 0.832715
0.0671855 0.180758 0.846601
0.315679 0.176944 0.871672
0.680232 0.165011 0.857343
0.797345 0.163745 0.819898
0.797147 0.165133 0.819547
0.797604 0.164828 0.820127
0.803815 0.162051 0.827909
0 0.250095 0.782391
0 0.234272 0.78407
0 0.199786 0.774701
0.106783 0.181964 0.853544
0.6047 0.166049 0.866651
0.804318 0.172381 0.82797
0.802747 0.176715 0.825086
0.803525 0.177218 0.826017
0.809506 0.174853 0.833722
0 0.7122 0.917144
0 0.713039 0.922957
0 0.709438 0.922759
0 0.689265 0.916854
0.519448 0.642222 0.97438
0.91812 0.57644 0.948379
0.932967 0.559976 0.943023
0.932448 0.557168 0.942596
0.930739 0.557763 0.943832
0.262898 0.920256 0.970016
0.262379 0.920394 0.971801
0.264927 0.91899 0.97261
0.269978 0.910689 0.974395
0.542718 0.901884 0.975631
0.84416 0.881468 0.959899
0.962737 0.863249 0.950622
0.962844 0.861341 0.949462
0.962158 0.861372 0.949828
0.473396 0.985443 0.971023
0.469551 0.985595 0.972091
0.465064 0.985672 0.971389
0.448829 0.985687 0.967468
0.522774 0.97911 0.961486
0.84036 0.964431 0.957259
0.960876 0.959091 0.954986
0.977996 0.959854 0.953964
0.976913 0.959823 0.954452
0.494194 0.984726 0.973037
0.491722 0.984817 0.97406
0.489693 0.984878 0.973922
0.460899 0.986023 0.969177
0.529229 0.983642 0.95874
0.841581 0.976013 0.96025
0.94786 0.976303 0.95758
0.978943 0.973663 0.954116
0.978821 0.973953 0.955993
0.497383 0.984573 0.973678
0.495033 0.984726 0.974517
0.493263 0.984787 0.974426
0.464286 0.985962 0.969833
0.528161 0.983642 0.958251
0.839979 0.976074 0.95996
0.944884 0.976364 0.957961
0.97641 0.973816 0.955413
0.977234 0.974166 0.956512
0.0866407 0.180529 0.848676
0.117739 0.179965 0.85452
0.181811 0.179248 0.862516
0.381918 0.173892 0.872633
0.701778 0.163775 0.850263
0.794903 0.154406 0.817884
0.79855 0.160189 0.821775
0.797131 0.160052 0.82002
0.800717 0.158267 0.824689
0.0534981 0.180941 0.841276
0.0851759 0.180545 0.849729
0.150683 0.179431 0.858824
0.36556 0.174838 0.872648
0.698085 0.163989 0.85214
0.795483 0.155261 0.818555
0.79968 0.161608 0.823026
0.799817 0.160922 0.82327
0.802396 0.159625 0.826352
0 0.18056 0.823224
0.0162661 0.180911 0.836469
0.0830549 0.180545 0.849363
0.325826 0.176608 0.871977
0.685649 0.164752 0.856596
0.794324 0.158907 0.816709
0.797589 0.165637 0.820066
0.798077 0.165194 0.820737
0.803449 0.162814 0.827436
0 0.242313 0.779782
0 0.226566 0.78175
0 0.191516 0.773144
0.120684 0.180987 0.855344
0.609033 0.164446 0.865492
0.803326 0.169314 0.826963
0.802899 0.176654 0.825284
0.803693 0.17702 0.826246
0.809461 0.174716 0.833661
0 0.709041 0.919234
0 0.708949 0.923598
0 0.704067 0.922026
0 0.680491 0.913054
0.515984 0.629938 0.975143
0.916121 0.563561 0.947814
0.930312 0.5467 0.941405
0.930144 0.54403 0.940688
0.928512 0.544732 0.942031
0.343832 0.918639 0.981048
0.341833 0.918578 0.982269
0.339559 0.916732 0.982528
0.326955 0.907607 0.982361
0.536538 0.898924 0.9776
0.839246 0.878431 0.967269
0.961105 0.858839 0.961227
0.963119 0.856794 0.959197
0.960647 0.856977 0.961135
0.501732 0.983856 0.974105
0.500328 0.984039 0.975265
0.500725 0.984115 0.975357
0.484428 0.982132 0.975982
0.562188 0.972915 0.975448
0.868666 0.961425 0.974395
0.953246 0.957427 0.971435
0.977401 0.955001 0.96849
0.975128 0.95494 0.969757
0.505531 0.984131 0.973602
0.502586 0.984329 0.975235
0.502388 0.984344 0.975341
0.508598 0.984176 0.975158
0.598444 0.981552 0.973724
0.858717 0.977096 0.973083
0.954147 0.974746 0.972366
0.976394 0.973754 0.972351
0.979187 0.973297 0.972427
0.506157 0.984085 0.973266
0.502586 0.984329 0.975235
0.502388 0.984344 0.975341
0.508537 0.984192 0.975219
0.598871 0.981521 0.973709
0.856123 0.977157 0.972503
0.952804 0.975982 0.972732
0.975158 0.974182 0.974121
0.982116 0.973281 0.971405
0.0910353 0.180545 0.849805
0.122377 0.179889 0.855177
0.18555 0.179263 0.862943
0.384955 0.173785 0.872679
0.703761 0.163714 0.849882
0.794293 0.153399 0.817212
0.798779 0.16054 0.822019
0.797848 0.160128 0.820844
0.802777 0.157702 0.827329
0.0580453 0.180896 0.842618
0.089601 0.180545 0.850507
0.154696 0.179324 0.859266
0.368551 0.17467 0.872694
0.699962 0.163958 0.851789
0.794797 0.154223 0.817777
0.799863 0.161898 0.823224
0.800076 0.161151 0.823575
0.804669 0.158892 0.829557
0 0.180667 0.824948
0.0204166 0.18088 0.837369
0.0875105 0.180545 0.850126
0.328664 0.176471 0.871992
0.687663 0.164691 0.856291
0.793439 0.157717 0.815778
0.797742 0.165881 0.820249
0.798169 0.165347 0.820813
0.80415 0.162692 0.828336
0 0.240543 0.779568
0 0.225391 0.781613
0 0.189822 0.7729
0.124605 0.180743 0.855833
0.610971 0.164508 0.865385
0.802808 0.168521 0.826368
0.803067 0.176654 0.825513
0.803861 0.177005 0.826444
0.809476 0.174746 0.833677
0 0.707561 0.918639
0 0.70779 0.923217
0 0.702541 0.921401
0 0.678416 0.912184
0.515663 0.626978 0.97528
0.916121 0.56054 0.947784
0.929671 0.543618 0.940856
0.929488 0.541299 0.940719
0.928313 0.542016 0.941909
0.343282 0.918227 0.981247
0.341238 0.917952 0.982391
0.33846 0.915923 0.982422
0.325032 0.906188 0.982208
0.534707 0.897932 0.977539
0.838636 0.876692 0.96733
0.960601 0.856962 0.96112
0.961654 0.854978 0.959777
0.96025 0.855131 0.960906
0.501717 0.983886 0.974166
0.500557 0.984054 0.975265
0.500984 0.984161 0.975372
0.478202 0.981537 0.97612
0.558206 0.972 0.976074
0.86775 0.960571 0.97464
0.951766 0.956802 0.972198
0.974517 0.954116 0.970443
0.973983 0.953887 0.970748
0.504646 0.984192 0.97409
0.502586 0.984329 0.975235
0.502388 0.984344 0.975341
0.508492 0.984192 0.975296
0.597055 0.981735 0.974716
0.859434 0.977279 0.975143
0.952895 0.974243 0.976226
0.975219 0.973175 0.974105
0.976059 0.973281 0.974197
0.50457 0.984192 0.974121
0.502586 0.984329 0.975235
0.502388 0.984344 0.975341
0.508522 0.984192 0.975296
0.597574 0.981704 0.974685
0.858625 0.977356 0.975143
0.950866 0.976211 0.976379
0.973693 0.974701 0.975662
0.977447 0.974746 0.973816
