bundles/resolve-cinematic-luts/Phantom Luts/P4k & P6k Phntm Arri LUTs - V6/P4K/Gen 4 Colour/White Balance Offset (Magenta Boost)/P4k IceBlue Gen4-Legacy WBO.cube
TITLE "Generated by Resolve"
LUT_3D_SIZE 5
0.033402 0.0457313 0.0450446
0.147066 0.0524147 0.0590219
0.496345 0.0607919 0.0903639
0.720851 0.123919 0.181201
0.74284 0.144549 0.220951
0.0267338 0.171969 0.100679
0.119005 0.17116 0.050721
0.500587 0.131472 0.0748455
0.728923 0.15404 0.153292
0.736019 0.154803 0.165515
0.0328832 0.523369 0.274876
0.0370794 0.541009 0.176364
0.479057 0.560433 0.0803388
0.880537 0.581613 0.270893
0.900359 0.614191 0.291417
0.236622 0.855924 0.601267
0.227146 0.853986 0.557061
0.267948 0.85127 0.375128
0.885588 0.906569 0.402747
0.954894 0.921477 0.507103
0.252064 0.8654 0.644129
0.234531 0.857466 0.580789
0.323812 0.86836 0.391211
0.915129 0.912398 0.437629
0.952804 0.923369 0.521126
0.0471504 0.0493935 0.172061
0.173083 0.0500343 0.161425
0.535363 0.0548714 0.203418
0.734462 0.113313 0.262211
0.743481 0.116121 0.298497
0.0272221 0.148058 0.154116
0.12604 0.139055 0.163867
0.552666 0.0993515 0.147692
0.737087 0.142 0.206485
0.749004 0.152285 0.230945
0.0380407 0.500801 0.342351
0.0329442 0.513359 0.2813
0.460075 0.54641 0.0815747
0.890913 0.553979 0.287007
0.90248 0.577813 0.302831
0.246143 0.855665 0.639063
0.241443 0.857969 0.607263
0.235966 0.847898 0.417212
0.87892 0.904646 0.395697
0.954726 0.920119 0.513039
0.274281 0.872007 0.695857
0.25687 0.865492 0.652094
0.259007 0.857496 0.439399
0.889357 0.909575 0.422492
0.95024 0.922728 0.541253
0.113024 0.052903 0.497963
0.271931 0.0487221 0.49163
0.536431 0.0620737 0.458686
0.756634 0.116716 0.475792
0.751614 0.117906 0.520211
0.0135805 0.078996 0.426719
0.126421 0.0528878 0.507027
0.523812 0.0616617 0.462776
0.759503 0.117586 0.441474
0.756115 0.117357 0.484123
0.042298 0.487541 0.467674
0.0438697 0.492088 0.478904
0.471992 0.476371 0.518425
0.948714 0.459709 0.510643
0.949096 0.462623 0.527749
0.263279 0.842924 0.711681
0.269932 0.8448 0.705364
0.243107 0.844617 0.625177
0.849668 0.902632 0.449912
0.953918 0.911269 0.568826
0.325917 0.89192 0.807065
0.329946 0.886397 0.791943
0.286946 0.873716 0.695872
0.742992 0.906035 0.474556
0.952407 0.924407 0.581735
0.267247 0.0797894 0.700526
0.34699 0.0818494 0.711574
0.532464 0.0963912 0.715404
0.717342 0.140993 0.718166
0.714458 0.14374 0.72781
0.117052 0.0770581 0.655711
0.272221 0.0808576 0.704631
0.51194 0.0945144 0.719844
0.720043 0.141085 0.716121
0.714885 0.143801 0.727749
0.0692454 0.412985 0.695918
0.0733501 0.401038 0.712184
0.510353 0.32575 0.89929
0.834577 0.297871 0.831403
0.834318 0.303899 0.84065
0.286305 0.832334 0.817487
0.2963 0.836042 0.821637
0.33254 0.845563 0.842481
0.834745 0.842649 0.887755
0.946593 0.849348 0.893034
0.41149 0.927672 0.906676
0.429892 0.925902 0.903944
0.448966 0.931914 0.901701
0.808774 0.941222 0.924743
0.958236 0.944579 0.900938
0.330175 0.0852522 0.723339
0.393652 0.0883803 0.730968
0.569894 0.10753 0.733104
0.715908 0.142947 0.725246
0.715511 0.143923 0.727108
0.216526 0.0813458 0.699748
0.328969 0.0854658 0.724132
0.543923 0.102663 0.733181
0.71809 0.142992 0.723262
0.715251 0.144198 0.727932
0.138125 0.381979 0.782879
0.132158 0.367575 0.777996
0.518181 0.273182 0.869398
0.804318 0.257511 0.805554
0.813245 0.275166 0.822217
0.338003 0.841413 0.88452
0.345907 0.842847 0.883833
0.412116 0.848386 0.915221
0.869413 0.80679 0.942611
0.94258 0.818036 0.936233
0.424857 0.932586 0.917464
0.450462 0.930037 0.915709
0.484581 0.937194 0.924514
0.823529 0.945769 0.946166
0.961379 0.943832 0.940597
