bundles/resolve-cinematic-luts/Phantom Luts/P4k & P6k Phntm Arri LUTs - V6/P4K/Gen 4 Colour/White Balance Offset (Magenta Boost)/P4k IceBlue Gen4-Legacy WBO.cube
TITLE "Generated by Resolve"
LUT_3D_SIZE 9
0.033402 0.0457313 0.0450446
0.0610819 0.0471199 0.0503395
0.147066 0.0524147 0.0590219
0.307179 0.0552224 0.0690776
0.496345 0.0607919 0.0903639
0.631739 0.0853132 0.135164
0.720851 0.123919 0.181201
0.733028 0.140612 0.19556
0.74284 0.144549 0.220951
0.036347 0.0742962 0.0652171
0.0553292 0.0712291 0.0543526
0.127535 0.069276 0.0601205
0.27538 0.0590677 0.0574502
0.466896 0.0542458 0.0614023
0.60557 0.0727855 0.098909
0.707057 0.108171 0.154177
0.716106 0.118776 0.165988
0.724468 0.119478 0.189609
0.0267338 0.171969 0.100679
0.0257877 0.177584 0.0603494
0.119005 0.17116 0.050721
0.303105 0.156558 0.0582589
0.500587 0.131472 0.0748455
0.63856 0.138308 0.10515
0.728923 0.15404 0.153292
0.728496 0.148913 0.152453
0.736019 0.154803 0.165515
0.0235904 0.331685 0.153552
0.0224002 0.346029 0.107774
0.0287785 0.341665 0.0514229
0.260594 0.351125 0.0435798
0.520317 0.35819 0.0560769
0.712749 0.339178 0.152285
0.826139 0.354101 0.225544
0.833997 0.358312 0.231403
0.841718 0.372519 0.24033
0.0328832 0.523369 0.274876
0.0341344 0.534646 0.241871
0.0370794 0.541009 0.176364
0.0953536 0.542641 0.0739452
0.479057 0.560433 0.0803388
0.713848 0.572534 0.158175
0.880537 0.581613 0.270893
0.89752 0.595041 0.286915
0.900359 0.614191 0.291417
0.120439 0.721218 0.449287
0.125109 0.732052 0.436637
0.127291 0.740764 0.3991
0.133974 0.737118 0.308614
0.348333 0.759777 0.190311
0.698604 0.786053 0.238972
0.900847 0.803967 0.348348
0.943557 0.815915 0.396521
0.94699 0.831891 0.406546
0.236622 0.855924 0.601267
0.233478 0.856489 0.588663
0.227146 0.853986 0.557061
0.22414 0.851148 0.49691
0.267948 0.85127 0.375128
0.570397 0.878721 0.311864
0.885588 0.906569 0.402747
0.9561 0.920546 0.501656
0.954894 0.921477 0.507103
0.248615 0.862959 0.633631
0.243442 0.861265 0.618418
0.234928 0.857206 0.584756
0.227176 0.853101 0.521263
0.257282 0.854749 0.419867
0.539345 0.882826 0.340963
0.870497 0.907042 0.409308
0.959319 0.920516 0.51075
0.954391 0.922499 0.523064
0.252064 0.8654 0.644129
0.246204 0.862989 0.625498
0.234531 0.857466 0.580789
0.229633 0.853361 0.502617
0.323812 0.86836 0.391211
0.632059 0.888136 0.346166
0.915129 0.912398 0.437629
0.9579 0.921889 0.516945
0.952804 0.923369 0.521126
0.0408484 0.0468299 0.076997
0.0649119 0.0478828 0.0769665
0.164416 0.0492256 0.0988174
0.329564 0.0491646 0.116106
0.512795 0.0554208 0.137087
0.646357 0.0838636 0.176608
0.731899 0.125277 0.221225
0.738094 0.13109 0.232364
0.743008 0.130724 0.251682
0.0354925 0.0648051 0.0684062
0.0491188 0.0615702 0.0694591
0.150973 0.057145 0.0707408
0.310674 0.0547341 0.0786908
0.505409 0.0605783 0.106477
0.64239 0.0867781 0.151446
0.727642 0.12694 0.197848
0.738537 0.141894 0.211154
0.746334 0.14638 0.23061
0.030045 0.154849 0.12639
0.0274815 0.159945 0.100954
0.11014 0.162036 0.0588388
0.319539 0.12256 0.0706188
0.505837 0.106905 0.077348
0.635035 0.110369 0.111742
0.714305 0.119753 0.149294
0.71162 0.113939 0.148592
0.719615 0.119295 0.162814
0.0234836 0.316091 0.1888
0.0227817 0.327184 0.153689
0.0223392 0.336187 0.0680705
0.251865 0.344381 0.0449836
0.535088 0.339101 0.065568
0.718227 0.315618 0.159625
0.823682 0.342046 0.223896
0.827802 0.343648 0.226947
0.83624 0.357549 0.237247
0.0352026 0.514672 0.304753
0.033463 0.524575 0.277638
0.0349126 0.535943 0.207599
0.0612192 0.53785 0.0866865
0.474525 0.556298 0.0795148
0.720882 0.565637 0.161257
0.883909 0.574868 0.274861
0.897292 0.586007 0.287602
0.90045 0.6047 0.292515
0.120607 0.71516 0.467735
0.124666 0.725643 0.455711
0.124956 0.73431 0.420356
0.128923 0.735973 0.328679
0.329732 0.756985 0.192157
0.695506 0.783597 0.237385
0.903517 0.800885 0.35082
0.943328 0.81149 0.397711
0.946242 0.827314 0.407782
0.240024 0.857053 0.615885
0.2383 0.858244 0.605264
0.232456 0.856184 0.576028
0.223423 0.851545 0.510689
0.253254 0.849027 0.387518
0.561578 0.878141 0.312047
0.884047 0.906233 0.401343
0.9561 0.920256 0.502556
0.954742 0.921126 0.509453
0.253666 0.865202 0.649287
0.248798 0.863478 0.635676
0.240375 0.859403 0.60444
0.227192 0.85333 0.535851
0.247303 0.853315 0.433646
0.519173 0.882811 0.344671
0.862623 0.906065 0.405951
0.958999 0.920363 0.513146
0.954238 0.922515 0.525185
0.259983 0.867231 0.662562
0.253895 0.865034 0.646296
0.241459 0.860258 0.60531
0.228107 0.853346 0.520378
0.302419 0.865385 0.404639
0.612451 0.887449 0.346395
0.907912 0.911711 0.433219
0.957732 0.921843 0.518181
0.95227 0.923201 0.526146
0.0471504 0.0493935 0.172061
0.0916152 0.0485084 0.159899
0.173083 0.0500343 0.161425
0.348867 0.0500191 0.188769
0.535363 0.0548714 0.203418
0.663066 0.08159 0.232181
0.734462 0.113313 0.262211
0.73959 0.11725 0.273991
0.743481 0.116121 0.298497
0.0290532 0.0611124 0.137911
0.0481575 0.0493172 0.163088
0.153567 0.0500649 0.154025
0.34258 0.050309 0.164324
0.533578 0.0542306 0.183978
0.662669 0.084596 0.209934
0.735851 0.121309 0.246204
0.74107 0.125673 0.257084
0.746105 0.124865 0.281468
0.0272221 0.148058 0.154116
0.0270848 0.146929 0.154864
0.12604 0.139055 0.163867
0.343832 0.120226 0.153033
0.552666 0.0993515 0.147692
0.673732 0.113451 0.173556
0.737087 0.142 0.206485
0.742992 0.150454 0.213901
0.749004 0.152285 0.230945
0.0233158 0.301244 0.227436
0.0230564 0.304051 0.214252
0.0231785 0.309468 0.165408
0.248615 0.335637 0.100542
0.558038 0.301427 0.129915
0.736233 0.281132 0.180606
0.815763 0.308202 0.22652
0.813809 0.303593 0.22562
0.823499 0.316045 0.238941
0.0380407 0.500801 0.342351
0.0373388 0.507836 0.330007
0.0329442 0.513359 0.2813
0.0383764 0.530083 0.141253
0.460075 0.54641 0.0815747
0.737819 0.547097 0.176181
0.890913 0.553979 0.287007
0.898695 0.559777 0.295384
0.90248 0.577813 0.302831
0.118761 0.70164 0.492271
0.122393 0.710735 0.486275
0.12079 0.717327 0.45626
0.119081 0.728695 0.370016
0.269734 0.750072 0.207691
0.685542 0.774243 0.230945
0.905989 0.789303 0.352178
0.94229 0.798413 0.398779
0.944869 0.813672 0.408957
0.246143 0.855665 0.639063
0.246754 0.858518 0.631876
0.241443 0.857969 0.607263
0.225635 0.852995 0.54049
0.235966 0.847898 0.417212
0.538979 0.876539 0.311055
0.87892 0.904646 0.395697
0.956802 0.919585 0.501488
0.954726 0.920119 0.513039
0.264927 0.868788 0.677104
0.260502 0.867445 0.666133
0.252583 0.863539 0.640787
0.234287 0.856352 0.575433
0.235889 0.852659 0.465064
0.475425 0.882185 0.353933
0.835889 0.903746 0.396551
0.958541 0.919936 0.512398
0.953445 0.922316 0.532769
0.274281 0.872007 0.695857
0.269078 0.87039 0.684047
0.25687 0.865492 0.652094
0.233906 0.856336 0.569757
0.259007 0.857496 0.439399
0.563363 0.885557 0.348745
0.889357 0.909575 0.422492
0.956939 0.921355 0.52079
0.95024 0.922728 0.541253
0.0687877 0.0504463 0.325399
0.124193 0.0485237 0.314229
0.212696 0.0478523 0.303227
0.353491 0.0510414 0.297566
0.542748 0.0576791 0.325628
0.693324 0.0902113 0.324865
0.748653 0.112688 0.348333
0.750759 0.113848 0.358648
0.752667 0.113756 0.390188
0.0189975 0.0579843 0.289082
0.069276 0.05037 0.327123
0.188586 0.0472572 0.314504
0.348226 0.0510872 0.301793
0.546471 0.0581674 0.318853
0.696635 0.0916152 0.314321
0.746532 0.111818 0.336873
0.748547 0.112779 0.346578
0.750866 0.112474 0.378195
0.0166629 0.127001 0.267048
0.0150149 0.116716 0.287541
0.109346 0.0824445 0.357107
0.337285 0.0701457 0.314015
0.543206 0.0639048 0.284398
0.682124 0.0875563 0.279026
0.742885 0.114961 0.298207
0.746471 0.117952 0.306722
0.750134 0.117739 0.331746
0.0200351 0.293568 0.284382
0.0193484 0.2963 0.288472
0.0246433 0.291966 0.294057
0.28658 0.293233 0.326589
0.57261 0.268956 0.308934
0.795605 0.261707 0.308141
0.818769 0.253925 0.302571
0.816205 0.24712 0.303792
0.826947 0.255909 0.328191
0.0408637 0.492241 0.393668
0.0411994 0.497642 0.394003
0.0408484 0.495247 0.376303
0.0578317 0.504814 0.325399
0.442634 0.527657 0.246021
0.773068 0.512505 0.282002
0.907713 0.509087 0.33051
0.908003 0.506554 0.333227
0.913771 0.523613 0.34548
0.119844 0.685527 0.531395
0.123796 0.692317 0.531014
0.121752 0.694301 0.515511
0.112963 0.697536 0.459724
0.170382 0.735882 0.296605
0.664744 0.759625 0.234699
0.916243 0.764904 0.363333
0.942275 0.769711 0.400153
0.942275 0.785199 0.417762
0.253697 0.849683 0.670619
0.258152 0.852674 0.668223
0.253178 0.852979 0.653483
0.238621 0.851377 0.60734
0.225147 0.849531 0.484794
0.475929 0.874586 0.320195
0.869474 0.901396 0.385031
0.958282 0.915663 0.499443
0.954742 0.917159 0.523079
0.282445 0.87483 0.718822
0.284764 0.872923 0.712993
0.276844 0.871092 0.696239
0.258839 0.86453 0.651255
0.229404 0.853574 0.527825
0.3944 0.879576 0.381689
0.775845 0.898634 0.380255
0.955962 0.919051 0.503838
0.952117 0.922042 0.546304
0.294759 0.879164 0.744839
0.2972 0.877028 0.738231
0.288563 0.874296 0.717632
0.266529 0.867185 0.665919
0.233738 0.854612 0.522942
0.448997 0.883803 0.373816
0.831571 0.904509 0.399771
0.955886 0.920241 0.511711
0.951171 0.923125 0.542321
0.113024 0.052903 0.497963
0.175708 0.05066 0.49781
0.271931 0.0487221 0.49163
0.38294 0.0515297 0.471901
0.536431 0.0620737 0.458686
0.7019 0.0943313 0.455055
0.756634 0.116716 0.475792
0.75639 0.117433 0.488334
0.751614 0.117906 0.520211
0.0464485 0.0565194 0.47393
0.114656 0.0531472 0.505058
0.239277 0.0496834 0.50518
0.375265 0.051133 0.486137
0.538643 0.0628519 0.466423
0.708064 0.096849 0.45832
0.756863 0.116976 0.475486
0.756634 0.117586 0.486976
0.751888 0.117952 0.519463
0.0135805 0.078996 0.426719
0.0139467 0.0652476 0.438361
0.126421 0.0528878 0.507027
0.335393 0.0500191 0.492866
0.523812 0.0616617 0.462776
0.702358 0.0941787 0.434623
0.759503 0.117586 0.441474
0.759487 0.117784 0.451041
0.756115 0.117357 0.484123
0.0184329 0.26041 0.432242
0.0170596 0.256107 0.448585
0.0182345 0.231739 0.473396
0.266209 0.18793 0.575219
0.556069 0.169421 0.535424
0.765591 0.161685 0.462898
0.789822 0.157412 0.438056
0.786633 0.15314 0.434485
0.792004 0.160372 0.467857
0.042298 0.487541 0.467674
0.0431983 0.493385 0.475792
0.0438697 0.492088 0.478904
0.0719158 0.499107 0.500847
0.471992 0.476371 0.518425
0.783963 0.463218 0.505821
0.948714 0.459709 0.510643
0.945739 0.448066 0.505882
0.949096 0.462623 0.527749
0.125719 0.673838 0.583597
0.129915 0.67982 0.58645
0.129595 0.679408 0.581491
0.125338 0.674815 0.561685
0.273548 0.698131 0.534707
0.627146 0.716503 0.455207
0.931487 0.715633 0.495903
0.959411 0.720348 0.491859
0.951675 0.734691 0.521645
0.263279 0.842924 0.711681
0.271427 0.845548 0.712917
0.269932 0.8448 0.705364
0.259464 0.841474 0.683421
0.243107 0.844617 0.625177
0.41001 0.883635 0.475364
0.849668 0.902632 0.449912
0.959533 0.908278 0.531594
0.953918 0.911269 0.568826
0.309712 0.884962 0.778225
0.317754 0.882582 0.775784
0.315145 0.880858 0.766354
0.302876 0.87747 0.742199
0.273442 0.869169 0.675502
0.343923 0.886961 0.519677
0.693477 0.898619 0.4206
0.95349 0.919219 0.503212
0.952041 0.924132 0.580148
0.325917 0.89192 0.807065
0.333074 0.889189 0.803616
0.329946 0.886397 0.791943
0.315496 0.881971 0.764202
0.286946 0.873716 0.695872
0.411261 0.896956 0.558038
0.742992 0.906035 0.474556
0.952255 0.919692 0.515969
0.952407 0.924407 0.581735
0.187686 0.063035 0.616464
0.235615 0.0621042 0.623011
0.310826 0.0614023 0.627634
0.409995 0.0626841 0.62298
0.524132 0.0737926 0.612009
0.684184 0.105074 0.595483
0.743618 0.12575 0.607126
0.742184 0.12752 0.620661
0.733059 0.130129 0.649073
0.126635 0.0644846 0.602853
0.190402 0.0639963 0.622324
0.284077 0.0628367 0.633707
0.399619 0.0637675 0.6327
0.522118 0.0754253 0.622278
0.689189 0.108125 0.604837
0.742229 0.126833 0.616312
0.73962 0.128145 0.628687
0.730648 0.13109 0.656428
0.0267948 0.0653849 0.52987
0.0681163 0.065507 0.574426
0.19971 0.0640116 0.624567
0.360052 0.0629282 0.635065
0.502678 0.0734417 0.624308
0.68191 0.10515 0.599527
0.746838 0.125841 0.601389
0.745174 0.127138 0.611765
0.73724 0.128908 0.635447
0.0214084 0.182223 0.553246
0.0204623 0.17145 0.558282
0.0232853 0.139528 0.565057
0.241825 0.085359 0.660365
0.46978 0.0807813 0.646174
0.662791 0.102022 0.601617
0.751064 0.123751 0.574426
0.748608 0.125597 0.593515
0.744564 0.126452 0.605325
0.0510414 0.458839 0.594842
0.0519875 0.461845 0.602594
0.0515755 0.453559 0.610422
0.102953 0.446952 0.68275
0.479042 0.404822 0.815183
0.778149 0.383856 0.769818
0.922988 0.362264 0.722393
0.9149 0.347845 0.713939
0.918593 0.367361 0.747295
0.135241 0.665339 0.651728
0.140536 0.67187 0.657633
0.141909 0.671763 0.659632
0.140902 0.666987 0.660243
0.306065 0.698466 0.717784
0.651164 0.65977 0.717144
0.934524 0.654002 0.712108
0.969482 0.651545 0.717601
0.959808 0.66659 0.735882
0.273259 0.836637 0.759243
0.281376 0.840024 0.762097
0.281453 0.838972 0.759136
0.279866 0.836606 0.750622
0.300099 0.843687 0.739925
0.531228 0.863111 0.73785
0.820981 0.880995 0.678462
0.959274 0.884871 0.717937
0.952087 0.890822 0.748226
0.341848 0.899107 0.838819
0.351781 0.897704 0.837797
0.352972 0.896849 0.834012
0.347463 0.895399 0.823743
0.334966 0.890608 0.796109
0.467277 0.914458 0.781903
0.672389 0.918807 0.709758
0.951278 0.930022 0.686259
0.957549 0.934462 0.749874
0.36701 0.911284 0.866957
0.379858 0.908614 0.865187
0.382712 0.907713 0.861036
0.376364 0.906462 0.85005
0.378637 0.9066 0.829252
0.551812 0.921569 0.828199
0.722499 0.924178 0.761776
0.944518 0.932692 0.711025
0.953811 0.936263 0.749035
0.267247 0.0797894 0.700526
0.29604 0.0803845 0.705425
0.34699 0.0818494 0.711574
0.426459 0.0852522 0.716335
0.532464 0.0963912 0.715404
0.670298 0.126848 0.713848
0.717342 0.140993 0.718166
0.717357 0.142382 0.722194
0.714458 0.14374 0.72781
0.231495 0.0794537 0.694713
0.269688 0.0808728 0.704555
0.328923 0.0821241 0.71281
0.417639 0.0858625 0.719875
0.532143 0.0975814 0.71989
0.674739 0.128969 0.71812
0.716777 0.141802 0.721431
0.71606 0.143099 0.725185
0.714061 0.143938 0.728664
0.117052 0.0770581 0.655711
0.182101 0.0787518 0.681376
0.272221 0.0808576 0.704631
0.384329 0.0841077 0.717906
0.51194 0.0945144 0.719844
0.66424 0.126818 0.718532
0.720043 0.141085 0.716121
0.719051 0.142428 0.720913
0.714885 0.143801 0.727749
0.0346838 0.102632 0.605081
0.0369268 0.0896773 0.605646
0.0559854 0.075349 0.616815
0.279927 0.0806744 0.704921
0.45919 0.0894484 0.719509
0.631434 0.119921 0.718166
0.722377 0.139727 0.70808
0.722377 0.14081 0.711299
0.717128 0.142611 0.721477
0.0692454 0.412985 0.695918
0.0716106 0.414191 0.704036
0.0733501 0.401038 0.712184
0.163775 0.382025 0.790906
0.510353 0.32575 0.89929
0.751507 0.314382 0.878065
0.834577 0.297871 0.831403
0.8262 0.282338 0.817258
0.834318 0.303899 0.84065
0.157092 0.64918 0.750393
0.162264 0.654688 0.757061
0.163195 0.651514 0.761913
0.179385 0.645609 0.782132
0.358083 0.67541 0.904646
0.683619 0.616342 0.951919
0.92813 0.604028 0.923308
0.969192 0.593759 0.908751
0.955245 0.612222 0.915816
0.286305 0.832334 0.817487
0.29456 0.836561 0.820859
0.2963 0.836042 0.821637
0.297642 0.83415 0.822416
0.33254 0.845563 0.842481
0.583154 0.87097 0.890013
0.834745 0.842649 0.887755
0.956054 0.838468 0.884169
0.946593 0.849348 0.893034
0.387564 0.919051 0.886976
0.401373 0.917708 0.886366
0.405158 0.917586 0.885527
0.405692 0.917998 0.883238
0.408392 0.918685 0.877806
0.578927 0.939376 0.905241
0.781888 0.93669 0.909194
0.938872 0.940917 0.884108
0.955627 0.942168 0.905592
0.41149 0.927672 0.906676
0.42565 0.925612 0.905028
0.429892 0.925902 0.903944
0.432837 0.927077 0.901488
0.448966 0.931914 0.901701
0.636744 0.943938 0.921721
0.808774 0.941222 0.924743
0.922972 0.943877 0.904418
0.958236 0.944579 0.900938
0.322194 0.085008 0.722377
0.345388 0.0859541 0.725933
0.387152 0.0880903 0.730541
0.456962 0.0924392 0.733898
0.560983 0.105592 0.732891
0.685832 0.133623 0.726955
0.715999 0.143084 0.725338
0.716793 0.143542 0.725292
0.715496 0.143862 0.727016
0.293675 0.0839399 0.717739
0.321279 0.0852216 0.723156
0.368841 0.0869612 0.728573
0.447471 0.0917983 0.733883
0.558465 0.105287 0.733181
0.688014 0.134173 0.726818
0.716152 0.143236 0.72546
0.716182 0.14374 0.726223
0.713954 0.144198 0.729152
0.203769 0.0810864 0.696284
0.254047 0.0832837 0.711543
0.321996 0.0853132 0.723293
0.4168 0.0897536 0.732662
0.536477 0.10132 0.733074
0.678767 0.13283 0.729107
0.718074 0.143084 0.723369
0.718242 0.143542 0.723949
0.715206 0.144167 0.727871
0.0753948 0.0855116 0.653666
0.078706 0.0803693 0.653315
0.12491 0.080293 0.672923
0.332067 0.0855573 0.724483
0.484749 0.0954757 0.734401
0.651423 0.128206 0.733516
0.718578 0.143191 0.722988
0.719539 0.143618 0.722744
0.716197 0.14435 0.727214
0.111376 0.383352 0.762402
0.119387 0.38471 0.770275
0.128298 0.368292 0.775402
0.2121 0.329854 0.81265
0.513283 0.274723 0.86978
0.734874 0.268116 0.844648
0.803372 0.258503 0.807767
0.79617 0.24564 0.796796
0.810147 0.271046 0.819181
0.192432 0.642069 0.813733
0.199557 0.648219 0.819364
0.206241 0.646662 0.825849
0.232563 0.64036 0.846799
0.390982 0.649638 0.939223
0.72282 0.581781 0.972183
0.93431 0.573693 0.956344
0.959518 0.566491 0.949722
0.949294 0.585428 0.949813
0.303502 0.828946 0.862547
0.31368 0.833814 0.865431
0.321187 0.834974 0.869627
0.345434 0.838315 0.883757
0.403006 0.847349 0.913725
0.613352 0.857008 0.945312
0.866194 0.806149 0.945266
0.953796 0.802838 0.94136
0.943801 0.815839 0.936675
0.408118 0.925277 0.910216
0.423423 0.924453 0.909773
0.429587 0.925231 0.911269
0.431327 0.92636 0.912749
0.434745 0.925887 0.914122
0.598489 0.948135 0.943587
0.802853 0.939742 0.944701
0.940154 0.931228 0.942107
0.956374 0.931365 0.939895
0.424933 0.932815 0.917388
0.439002 0.930465 0.915572
0.445838 0.931167 0.916564
0.453468 0.934249 0.919921
0.472267 0.93991 0.926192
0.641855 0.951263 0.943954
0.82536 0.945678 0.94464
0.933104 0.946548 0.948592
0.955352 0.946502 0.945037
0.330175 0.0852522 0.723339
0.352514 0.0863508 0.726879
0.393652 0.0883803 0.730968
0.463996 0.0929122 0.733791
0.569894 0.10753 0.733104
0.691386 0.134737 0.726085
0.715908 0.142947 0.725246
0.716686 0.143633 0.725505
0.715511 0.143923 0.727108
0.302251 0.0841077 0.718959
0.328527 0.0855268 0.724163
0.375769 0.0873579 0.72932
0.454505 0.0922408 0.733867
0.566781 0.10692 0.733242
0.694667 0.135439 0.725231
0.71606 0.143114 0.725353
0.716213 0.143801 0.726253
0.714992 0.144091 0.727993
0.216526 0.0813458 0.699748
0.264759 0.0835279 0.71368
0.328969 0.0854658 0.724132
0.423194 0.0901503 0.732998
0.543923 0.102663 0.733181
0.684062 0.133867 0.728267
0.71809 0.142992 0.723262
0.718303 0.143587 0.72401
0.715251 0.144198 0.727932
0.0749218 0.0836347 0.652094
0.0790417 0.0806439 0.653635
0.136187 0.0804761 0.677211
0.338277 0.0856947 0.725185
0.49073 0.0961318 0.734447
0.656397 0.129183 0.732982
0.718761 0.143175 0.72282
0.719585 0.143664 0.722789
0.716243 0.144381 0.727245
0.138125 0.381979 0.782879
0.136538 0.383978 0.782712
0.132158 0.367575 0.777996
0.216266 0.327733 0.814282
0.518181 0.273182 0.869398
0.738674 0.269078 0.844694
0.804318 0.257511 0.805554
0.796719 0.246357 0.797314
0.813245 0.275166 0.822217
0.226383 0.652354 0.841413
0.231739 0.658259 0.844251
0.229953 0.654093 0.843442
0.241306 0.643717 0.852415
0.397101 0.650614 0.941024
0.729519 0.582986 0.969955
0.935622 0.576242 0.95523
0.95935 0.569024 0.947127
0.946365 0.590311 0.946578
0.338003 0.841413 0.88452
0.344259 0.844007 0.883635
0.345907 0.842847 0.883833
0.36321 0.842741 0.892592
0.412116 0.848386 0.915221
0.621775 0.856153 0.94406
0.869413 0.80679 0.942611
0.954406 0.80293 0.938247
0.94258 0.818036 0.936233
0.41062 0.922652 0.909316
0.423987 0.923079 0.90927
0.432792 0.92369 0.910384
0.440665 0.9252 0.913329
0.456428 0.927459 0.919509
0.615793 0.945281 0.943145
0.814801 0.937865 0.946029
0.944747 0.927611 0.941741
0.955581 0.928466 0.939605
0.424857 0.932586 0.917464
0.440482 0.930144 0.915343
0.450462 0.930037 0.915709
0.460822 0.932448 0.918593
0.484581 0.937194 0.924514
0.655222 0.948501 0.942748
0.823529 0.945769 0.946166
0.929564 0.946975 0.950332
0.961379 0.943832 0.940597
