bundles/resolve-cinematic-luts/Phantom Luts/P4k & P6k Phntm Arri LUTs - V6/P4K/Gen 4 Colour/White Balance Offset (Magenta Boost)/P4k Neutral Gen4 WBO.cube
TITLE "Generated by Resolve"
LUT_3D_SIZE 9
0 0 0
0.0850233 0 0.0124208
0.228992 1.5259e-05 0.0392157
0.419379 0.00630198 0.0741741
0.616037 0.0285039 0.125811
0.843763 0.0475166 0.178622
0.967926 0.0867475 0.219806
0.968048 0.100374 0.234775
0.968277 0.103807 0.243687
0 0.0828412 0.0273747
0.056672 0.0758373 0
0.201617 0.0510414 0.018677
0.384268 0.0238804 0.0281376
0.577722 0.0135958 0.0560311
0.806836 0.0134279 0.0928664
0.97995 0.0405585 0.149935
0.979629 0.0603037 0.166201
0.978943 0.0730755 0.175616
0 0.236637 0.0783093
0 0.237903 0
0.174517 0.236103 0
0.403403 0.210437 0.0177615
0.602838 0.167514 0.0602121
0.802701 0.159243 0.0903792
0.962661 0.164263 0.118532
0.972885 0.151492 0.118685
0.972885 0.140719 0.117525
0 0.429877 0.156085
0 0.442924 0.0728466
0.0224613 0.438911 0
0.356054 0.43975 0
0.596857 0.439536 0
0.797299 0.413352 0.0995804
0.953979 0.392218 0.159258
0.97792 0.386648 0.166232
0.977813 0.381826 0.164935
0 0.62594 0.31284
0 0.637568 0.244282
0 0.647135 0.121141
0.169085 0.645762 0.000793469
0.554635 0.643931 0.032105
0.777035 0.642084 0.0570993
0.93608 0.636088 0.142077
0.963226 0.642969 0.164111
0.963302 0.64036 0.16376
0.0228122 0.817792 0.476005
0.0137636 0.824582 0.4374
0 0.840436 0.350195
0.00520333 0.840711 0.154604
0.407645 0.837064 0.0834058
0.735241 0.834409 0.110048
0.912749 0.830671 0.217624
0.962707 0.831815 0.304051
0.96289 0.831373 0.295125
0.0721752 0.948775 0.60766
0.0668498 0.951843 0.581155
0.0541238 0.958968 0.526894
0.0518502 0.964614 0.41442
0.213199 0.967498 0.191226
0.635019 0.957656 0.207218
0.889647 0.960296 0.288853
0.969406 0.95494 0.488853
0.96936 0.955261 0.482734
0.0882734 0.958465 0.658457
0.0837262 0.959182 0.635264
0.0730907 0.960891 0.589044
0.0770123 0.966293 0.508461
0.176547 0.974502 0.371328
0.593088 0.963485 0.356939
0.867552 0.965545 0.37499
0.971466 0.97081 0.545785
0.971695 0.971084 0.567712
0.0958572 0.95819 0.676539
0.0917525 0.958694 0.654627
0.0825818 0.960235 0.61117
0.0760967 0.965179 0.524117
0.137392 0.974258 0.378439
0.566781 0.964172 0.35967
0.85127 0.964691 0.37084
0.971374 0.970687 0.530907
0.971695 0.971084 0.568276
0.0196841 0 0.0766918
0.0948196 0 0.077348
0.250843 0 0.113649
0.438148 0 0.149691
0.625345 0.00115969 0.190463
0.846616 0.0248875 0.245457
0.964492 0.0586557 0.287617
0.965698 0.0665293 0.303609
0.966354 0.0714733 0.313863
0 0.0553292 0.053666
0.0508888 0.0450294 0.0510414
0.227939 0.0240482 0.0555886
0.405249 0.00668345 0.0749828
0.605493 0.0268559 0.125475
0.833326 0.0504311 0.179431
0.96762 0.0900587 0.222278
0.968048 0.0999771 0.236774
0.968246 0.103365 0.245426
0 0.206806 0.130541
0 0.212421 0.07393
0.173739 0.218875 0
0.4224 0.153948 0.0456092
0.611429 0.130388 0.0685283
0.813687 0.112734 0.0965286
0.974258 0.107851 0.123247
0.977661 0.0875257 0.123308
0.97969 0.0818494 0.12813
0 0.403113 0.215335
0 0.413687 0.149859
0 0.427726 0
0.352163 0.428031 0
0.611719 0.415183 0.0136263
0.80705 0.382635 0.114214
0.961334 0.366766 0.16141
0.978271 0.363058 0.162875
0.978088 0.358038 0.161089
0 0.607172 0.357748
0 0.615244 0.305562
0 0.636057 0.174472
0.131258 0.639719 0.00184634
0.54963 0.636057 0.033814
0.785092 0.629099 0.0638895
0.939315 0.624048 0.151553
0.963409 0.628367 0.170047
0.963516 0.625406 0.16788
0.0289006 0.804044 0.504021
0.0222477 0.809522 0.471031
0.00433356 0.823255 0.396353
0 0.83386 0.205554
0.388983 0.832258 0.0865949
0.730816 0.828443 0.110353
0.914473 0.823377 0.226505
0.962615 0.824109 0.311559
0.962676 0.822934 0.30454
0.0758831 0.942061 0.626749
0.0714122 0.944671 0.602747
0.0610971 0.950622 0.554208
0.0458991 0.961212 0.438544
0.159716 0.967391 0.19823
0.621851 0.956039 0.203326
0.886427 0.957809 0.278859
0.968887 0.951675 0.485954
0.968826 0.951736 0.48043
0.0930648 0.958038 0.67892
0.0890516 0.958495 0.657938
0.080415 0.959915 0.616175
0.0727092 0.964645 0.529122
0.131624 0.974029 0.384283
0.567086 0.964263 0.362264
0.856992 0.965057 0.373602
0.97142 0.970748 0.54107
0.971695 0.971084 0.568673
0.100328 0.957824 0.696086
0.0964981 0.958267 0.675944
0.0888838 0.959258 0.63624
0.0731518 0.963546 0.545861
0.1149 0.973281 0.401419
0.53576 0.96556 0.364935
0.836652 0.963775 0.370932
0.969314 0.970626 0.523445
0.97171 0.971099 0.569879
0.0552529 0 0.223575
0.141375 0 0.207797
0.261784 0 0.215
0.450629 0 0.266133
0.648814 0.00358587 0.300572
0.856474 0.00556954 0.355322
0.96112 0.0331731 0.391226
0.962341 0.0401923 0.404929
0.963012 0.0447242 0.413291
0 0.025803 0.166735
0.0631723 0 0.203937
0.227588 0 0.18732
0.431785 0 0.20972
0.629358 0.00077821 0.250782
0.84564 0.0151827 0.297642
0.963745 0.0515755 0.33994
0.96492 0.0590829 0.354513
0.965667 0.0635233 0.363561
0 0.189609 0.18468
0 0.181247 0.180591
0.198138 0.181811 0.19855
0.443244 0.152285 0.19118
0.668299 0.107301 0.190616
0.857313 0.0879072 0.210437
0.96817 0.103532 0.236713
0.968215 0.100694 0.245106
0.968368 0.103227 0.253147
0 0.381018 0.275196
0 0.378424 0.248371
0 0.395911 0.154543
0.358938 0.41033 0.0870222
0.628229 0.367987 0.127672
0.841047 0.318685 0.161059
0.977584 0.32401 0.187243
0.977874 0.315282 0.18584
0.977981 0.308019 0.184009
0 0.584741 0.405188
0 0.585977 0.378378
0 0.597803 0.294224
0.0177005 0.632959 0.0508431
0.54229 0.622431 0.0457618
0.802441 0.603464 0.104234
0.948974 0.597848 0.19115
0.963699 0.598489 0.202838
0.963867 0.594461 0.202319
0.0357061 0.783658 0.539086
0.0318456 0.786358 0.516655
0.0212406 0.795377 0.462104
0 0.819974 0.287633
0.350515 0.82536 0.0951705
0.724163 0.818708 0.113466
0.91931 0.809522 0.245716
0.962081 0.809995 0.325658
0.962097 0.808011 0.321736
0.0809186 0.930755 0.655177
0.07776 0.932799 0.635401
0.0701762 0.93753 0.594644
0.0448157 0.95227 0.486046
0.0890669 0.963851 0.241688
0.59733 0.953445 0.196353
0.881209 0.953689 0.262943
0.968292 0.946105 0.483024
0.9682 0.945647 0.478508
0.100343 0.957427 0.709636
0.0971389 0.957855 0.692027
0.0903487 0.958587 0.656489
0.070634 0.961944 0.568444
0.103456 0.972229 0.425742
0.518669 0.966476 0.370077
0.836423 0.963775 0.373739
0.971374 0.970703 0.533532
0.97171 0.971115 0.570535
0.107195 0.957412 0.724102
0.10399 0.95758 0.708095
0.0977188 0.958328 0.674632
0.080415 0.961089 0.592416
0.0974289 0.971176 0.44596
0.487984 0.968078 0.371725
0.812848 0.962585 0.374762
0.96347 0.970352 0.50956
0.97174 0.971145 0.572488
0.11426 0 0.412543
0.203296 0 0.398749
0.308171 0.00457771 0.385794
0.462074 0 0.399817
0.658869 0.0034638 0.462791
0.878691 0.00968948 0.49749
0.958984 0.0170596 0.536675
0.959442 0.0180972 0.547387
0.959701 0.0189975 0.552972
0 0.00047303 0.369223
0.118151 0 0.398947
0.270832 0.00180056 0.382452
0.442603 0 0.381765
0.646525 0.00384527 0.433722
0.867765 0.0105287 0.461112
0.958938 0.0192416 0.499489
0.959152 0.0201419 0.509743
0.959411 0.0210117 0.51548
0 0.142885 0.343435
0 0.120333 0.359365
0.20885 0.0794537 0.423041
0.444343 0.059556 0.392432
0.640772 0.024155 0.386282
0.846006 0.0102541 0.406104
0.961563 0.035874 0.434623
0.962783 0.0432288 0.445914
0.963561 0.0479744 0.453025
0 0.361486 0.355673
0 0.355871 0.352789
0 0.353246 0.359609
0.385931 0.358175 0.386603
0.640253 0.325673 0.379614
0.880354 0.279484 0.373342
0.968673 0.248081 0.359747
0.969573 0.232776 0.364187
0.970001 0.225284 0.364584
0 0.566217 0.465888
0 0.562844 0.454109
0 0.558389 0.424552
0.116777 0.585046 0.362295
0.545602 0.587472 0.287266
0.808789 0.56408 0.303792
0.962585 0.547494 0.305806
0.962676 0.541238 0.311742
0.962951 0.535088 0.312352
0.0446326 0.759869 0.585397
0.0438239 0.759045 0.573358
0.0408789 0.759197 0.546502
0.0245975 0.772457 0.452827
0.212818 0.823514 0.194858
0.71693 0.802213 0.160098
0.933715 0.780499 0.311223
0.96022 0.783429 0.361532
0.960037 0.779477 0.361715
0.090074 0.913207 0.693996
0.0880293 0.913558 0.681025
0.0834211 0.915221 0.654994
0.0699474 0.92369 0.582834
0.066331 0.951965 0.383948
0.555962 0.947082 0.241047
0.8719 0.945724 0.238239
0.967178 0.934295 0.481163
0.967147 0.932799 0.480232
0.111986 0.957122 0.754025
0.10956 0.957214 0.741634
0.104738 0.957443 0.717983
0.0930495 0.958724 0.654932
0.0837568 0.966842 0.506004
0.436377 0.970703 0.383368
0.796597 0.962341 0.381628
0.965881 0.970504 0.518685
0.971771 0.971176 0.574624
0.118257 0.956588 0.766476
0.116274 0.957275 0.754635
0.111559 0.957443 0.731487
0.100343 0.958465 0.672755
0.0800946 0.965469 0.522744
0.398032 0.971984 0.388067
0.768093 0.962112 0.384726
0.950378 0.969833 0.48249
0.971786 0.971191 0.577447
0.200137 0 0.59527
0.28275 0 0.585718
0.390661 0.00140383 0.575921
0.498772 0 0.565774
0.67335 0.00482185 0.594568
0.886366 0.00846876 0.655711
0.961227 0.014313 0.687358
0.961608 0.0150912 0.698711
0.961852 0.0156252 0.705058
0.0667887 0 0.575021
0.198444 0 0.585657
0.349523 3.0518e-05 0.577173
0.477928 0.00733959 0.559686
0.659861 0.00462348 0.582177
0.875319 0.00852979 0.643397
0.960952 0.0152285 0.66537
0.961318 0.016083 0.675074
0.961563 0.0168154 0.680659
0 0.0472114 0.520912
0 0.00125124 0.538979
0.227481 0 0.578592
0.436393 0.00543221 0.551522
0.63624 0.00444038 0.561517
0.858137 0.00894179 0.612345
0.960571 0.0172732 0.625406
0.960952 0.0184329 0.632486
0.961181 0.0192569 0.637064
0 0.308644 0.518425
0 0.292287 0.526558
0.00560006 0.259831 0.558068
0.407126 0.23151 0.609659
0.651331 0.20824 0.595117
0.889418 0.147921 0.599008
0.971649 0.107759 0.60412
0.970779 0.0963302 0.598917
0.970214 0.0888533 0.596765
0 0.547997 0.543099
0 0.54432 0.541024
0 0.537255 0.537881
0.162325 0.543389 0.557336
0.561547 0.528725 0.562295
0.807431 0.508797 0.561959
0.954452 0.486595 0.560174
0.95613 0.467903 0.551934
0.957641 0.456107 0.547127
0.049485 0.739361 0.641428
0.0499275 0.736416 0.635111
0.0509499 0.731594 0.622797
0.0573587 0.726207 0.591196
0.376776 0.748486 0.561639
0.715145 0.745327 0.505898
0.922683 0.73666 0.526619
0.954711 0.734737 0.509148
0.954757 0.728206 0.50219
0.102693 0.894163 0.740658
0.102144 0.893004 0.732692
0.101061 0.891264 0.718486
0.0976883 0.890135 0.685924
0.0993362 0.91136 0.591821
0.512062 0.933074 0.477134
0.86656 0.92488 0.458412
0.96585 0.916533 0.530938
0.965362 0.912428 0.524941
0.132143 0.954345 0.811841
0.131044 0.954589 0.804807
0.128908 0.955245 0.790997
0.123827 0.95729 0.757076
0.108385 0.958907 0.662272
0.333547 0.972976 0.490105
0.748623 0.962493 0.416358
0.959869 0.970336 0.516915
0.971939 0.971389 0.592874
0.137545 0.954284 0.820676
0.136339 0.954452 0.81387
0.134081 0.954955 0.80032
0.129076 0.956909 0.766949
0.110994 0.958602 0.675456
0.22121 0.972808 0.468421
0.697719 0.96257 0.408469
0.929931 0.968734 0.446021
0.971908 0.971344 0.588876
0.318303 0 0.773175
0.381933 0 0.765576
0.472862 0.00015259 0.762051
0.575845 0.00424201 0.749249
0.705318 0.00228885 0.76054
0.895293 0.0109102 0.798016
0.96408 0.0146181 0.824948
0.964508 0.0154421 0.838102
0.964782 0.0160983 0.846113
0.215671 0 0.762249
0.315114 0 0.765072
0.433188 0 0.760052
0.555093 0.00349432 0.74583
0.689464 0.00173953 0.752575
0.885924 0.0107729 0.787488
0.963928 0.0145876 0.818494
0.964279 0.0157626 0.825147
0.964508 0.0165408 0.830594
0.00239567 0 0.71873
0.112871 0 0.737499
0.33875 0 0.757717
0.513619 0.00173953 0.744121
0.661158 0.00103761 0.739727
0.869184 0.0107118 0.769757
0.96376 0.0140841 0.81503
0.96405 0.0152438 0.819013
0.964233 0.0162051 0.82005
0 0.21944 0.683131
0 0.194568 0.692927
0.00550851 0.139361 0.726757
0.426429 0.0588083 0.793011
0.639826 0.0473793 0.760952
0.845685 0.0141756 0.748562
0.963226 0.015259 0.779583
0.963348 0.0162203 0.77763
0.963531 0.0170291 0.780041
0 0.508965 0.690333
0 0.500389 0.694438
0 0.484215 0.703059
0.167422 0.469184 0.759258
0.591684 0.438163 0.775418
0.818097 0.421759 0.758541
0.959731 0.37966 0.762524
0.961242 0.35407 0.75758
0.962142 0.337911 0.755001
0.0446937 0.719554 0.713985
0.0450904 0.716609 0.712306
0.0459144 0.711589 0.709712
0.0487373 0.701915 0.705959
0.417609 0.705348 0.724727
0.722118 0.686717 0.722652
0.919234 0.675547 0.727123
0.951308 0.665949 0.727474
0.951385 0.658824 0.723781
0.108263 0.876265 0.792096
0.108568 0.87425 0.787655
0.109224 0.870817 0.77998
0.117189 0.865827 0.765057
0.239139 0.871 0.746792
0.599069 0.876204 0.733349
0.863325 0.876799 0.695201
0.962142 0.875944 0.716487
0.961456 0.871092 0.711971
0.157992 0.954513 0.864164
0.157763 0.954467 0.860334
0.157275 0.954391 0.8533
0.155764 0.954345 0.838636
0.15314 0.954147 0.802457
0.462837 0.964111 0.76582
0.726696 0.971389 0.699397
0.955337 0.971771 0.688136
0.97293 0.972686 0.720913
0.163561 0.95462 0.872007
0.163241 0.95465 0.867903
0.162417 0.954574 0.860212
0.160403 0.954467 0.844236
0.154604 0.955184 0.807019
0.38883 0.962631 0.751232
0.668238 0.972061 0.688853
0.922881 0.970352 0.647715
0.972839 0.972519 0.695567
0.441184 0 0.915602
0.48249 0 0.911208
0.555413 4.57771e-05 0.910704
0.652628 0.00207523 0.904585
0.773159 0 0.904982
0.912413 0.012314 0.92491
0.967056 0.0179751 0.945586
0.967483 0.0196078 0.957183
0.967758 0.020737 0.962753
0.375921 0 0.909819
0.436622 0 0.91017
0.521248 0 0.9084
0.630732 0.00155642 0.902998
0.757336 0 0.900435
0.902922 0.0117494 0.919554
0.967025 0.0179904 0.940078
0.967315 0.0193484 0.950851
0.967559 0.0203403 0.956115
0.173342 0 0.883711
0.302831 0 0.894392
0.446784 0 0.90483
0.588846 0.000595102 0.901488
0.728603 0 0.89337
0.885191 0.011017 0.910948
0.966781 0.0178225 0.929992
0.967056 0.0191043 0.93901
0.967239 0.0199893 0.943526
0.0166781 0.0975204 0.836606
0.0313726 0.0592203 0.849302
0.0821241 0 0.863203
0.471641 0 0.899336
0.66743 0 0.884108
0.845777 0.00965896 0.893446
0.966278 0.0175326 0.909316
0.966613 0.0191501 0.913359
0.966781 0.0200351 0.915755
0 0.457328 0.832837
0 0.445258 0.840391
0 0.422202 0.85478
0.231662 0.387945 0.913298
0.635981 0.328786 0.935332
0.843503 0.308888 0.923888
0.966705 0.255406 0.920775
0.968688 0.224216 0.914839
0.968902 0.219089 0.908309
0.0256962 0.690166 0.835645
0.0252995 0.684794 0.837751
0.0247654 0.675288 0.842374
0.0762188 0.656428 0.861112
0.44152 0.65301 0.890181
0.754559 0.623911 0.890974
0.921324 0.615854 0.880568
0.951705 0.598108 0.883497
0.951827 0.590127 0.881239
0.105043 0.859556 0.853407
0.105165 0.857466 0.852049
0.105425 0.853956 0.849744
0.109239 0.847807 0.846601
0.227985 0.849836 0.85684
0.630137 0.842542 0.86096
0.860838 0.830915 0.861295
0.958221 0.827283 0.867521
0.957885 0.821668 0.86479
0.196048 0.950805 0.902998
0.199298 0.949722 0.900389
0.206195 0.947814 0.896056
0.2215 0.944213 0.887633
0.26006 0.939696 0.873304
0.570901 0.946365 0.88191
0.787717 0.948165 0.877653
0.948241 0.950759 0.856992
0.971252 0.948425 0.867292
0.244648 0.958801 0.918486
0.24799 0.958862 0.916548
0.252811 0.958862 0.9131
0.259831 0.958755 0.905699
0.2654 0.958343 0.888319
0.500954 0.962768 0.885451
0.731594 0.968322 0.885359
0.902358 0.971389 0.85069
0.974243 0.974136 0.867613
0.526894 0 0.96199
0.561151 0 0.962417
0.61973 0.000381476 0.961913
0.706294 0.00209049 0.957778
0.82269 0 0.957366
0.935561 0.0115358 0.96492
0.967971 0.0213931 0.967971
0.968093 0.0223545 0.968093
0.968139 0.0227512 0.968139
0.484581 0 0.961517
0.526604 0 0.961975
0.592081 7.62951e-05 0.962539
0.686992 0.00169375 0.958679
0.809384 0 0.956893
0.928206 0.011017 0.964431
0.967987 0.0215457 0.967987
0.968109 0.0225681 0.968109
0.96817 0.0229801 0.96817
0.35079 0 0.950591
0.437919 0 0.960388
0.534874 0 0.962142
0.650721 0.0009308 0.960479
0.784054 0 0.956176
0.914794 0.0104067 0.963638
0.968017 0.0218051 0.968017
0.96817 0.0229191 0.96817
0.968231 0.0233768 0.968231
0.137545 0.0037995 0.932784
0.17171 0 0.93817
0.283986 0 0.945647
0.55903 0 0.962386
0.726162 0 0.956573
0.884733 0.00943008 0.961883
0.968032 0.0219425 0.968032
0.968246 0.0235752 0.968246
0.968322 0.0241398 0.968322
0.0730449 0.410468 0.934356
0.0870832 0.39498 0.939986
0.113329 0.365286 0.950042
0.358099 0.302907 0.965927
0.677806 0.237903 0.969497
0.875731 0.209308 0.970092
0.971191 0.176059 0.971191
0.97258 0.149722 0.97258
0.972869 0.143267 0.972869
0.0705882 0.662867 0.921279
0.0747997 0.657404 0.92459
0.0836347 0.647105 0.931029
0.176059 0.627298 0.946899
0.503502 0.611887 0.955856
0.799252 0.575601 0.954177
0.9355 0.566598 0.952102
0.952148 0.553658 0.952148
0.952285 0.544823 0.952285
0.104463 0.841718 0.924453
0.104204 0.838331 0.925246
0.106523 0.832364 0.92697
0.168429 0.82327 0.9346
0.374182 0.813809 0.950607
0.660609 0.808011 0.950774
0.886046 0.787823 0.951843
0.95642 0.78526 0.948074
0.955917 0.778759 0.945937
0.223285 0.941802 0.936934
0.225376 0.940566 0.93611
0.230411 0.938415 0.934478
0.242847 0.934585 0.931426
0.277974 0.928344 0.928222
0.577188 0.934615 0.940307
0.809918 0.930861 0.942596
0.943236 0.926299 0.94342
0.96759 0.924437 0.944381
0.315618 0.959792 0.951995
0.318791 0.959838 0.950378
0.324605 0.95996 0.947829
0.335546 0.960204 0.942855
0.355489 0.960616 0.934737
0.555627 0.964324 0.940185
0.784527 0.969665 0.948363
0.913252 0.972747 0.951217
0.975189 0.975052 0.945983
0.541817 0 0.962219
0.573922 0 0.962615
0.628702 0.000534066 0.961456
0.713695 0 0.956909
0.829419 0 0.957687
0.940688 0.0115053 0.965194
0.967865 0.0205692 0.967865
0.968124 0.0226444 0.968124
0.96817 0.0229953 0.96817
0.502434 0 0.961761
0.541421 0 0.962219
0.602289 0.000167849 0.962386
0.694636 0.00184634 0.958221
0.81593 0 0.957214
0.933028 0.0108949 0.96466
0.96788 0.0208133 0.96788
0.968154 0.0228275 0.968154
0.9682 0.0232242 0.9682
0.38819 0 0.954452
0.465537 0 0.961395
0.548196 0 0.962341
0.658763 0.00109865 0.960113
0.790433 0 0.95639
0.919051 0.0102235 0.963806
0.967941 0.02121 0.967941
0.9682 0.0231327 0.9682
0.968246 0.0235752 0.968246
0.167651 0 0.943175
0.18822 0 0.941665
0.335576 0 0.949645
0.572198 0 0.9626
0.732601 0 0.956374
0.88809 0.00920119 0.96202
0.968002 0.0216831 0.968002
0.968261 0.0236973 0.968261
0.968338 0.0242313 0.968338
0.152102 0.379599 0.963439
0.152224 0.362081 0.963973
0.152331 0.327489 0.963394
0.359197 0.254185 0.967193
0.675898 0.191348 0.970947
0.87187 0.16669 0.972213
0.973129 0.136522 0.973129
0.973526 0.102602 0.973526
0.97348 0.0950942 0.97348
0.168704 0.651408 0.956863
0.167575 0.644587 0.956924
0.166308 0.632914 0.957275
0.213382 0.609369 0.957641
0.503243 0.590799 0.956664
0.798993 0.553521 0.954894
0.935378 0.543984 0.952529
0.952743 0.52987 0.952743
0.953048 0.520607 0.953048
0.204761 0.832074 0.957519
0.203983 0.828702 0.957687
0.201923 0.822217 0.957534
0.245487 0.809888 0.957244
0.395819 0.797726 0.954376
0.666407 0.790738 0.953307
0.892454 0.767254 0.954681
0.955413 0.765255 0.955413
0.955123 0.758724 0.955123
0.24654 0.9364 0.956512
0.257893 0.934768 0.956802
0.278035 0.931853 0.957382
0.314961 0.926452 0.958419
0.372915 0.916579 0.959625
0.605951 0.922087 0.963088
0.822736 0.91754 0.962692
0.949889 0.910002 0.965438
0.965927 0.908827 0.965927
0.330861 0.960082 0.958068
0.335698 0.96022 0.958221
0.343999 0.960388 0.958465
0.359274 0.960525 0.958663
0.384466 0.961105 0.959411
0.558267 0.964553 0.963668
0.78262 0.969848 0.969619
0.922438 0.973281 0.973266
0.975174 0.973816 0.975174
