bundles/resolve-cinematic-luts/Phantom Luts/P4k & P6k Phntm Arri LUTs - V6/P4K/Gen 4 Colour/White Balance Offset (Magenta Boost)/P4k Neutral Gen4 WBO.cube
TITLE "Generated by Resolve"
LUT_3D_SIZE 5
0 0 0
0.228992 1.5259e-05 0.0392157
0.616037 0.0285039 0.125811
0.967926 0.0867475 0.219806
0.968277 0.103807 0.243687
0 0.236637 0.0783093
0.174517 0.236103 0
0.602838 0.167514 0.0602121
0.962661 0.164263 0.118532
0.972885 0.140719 0.117525
0 0.62594 0.31284
0 0.647135 0.121141
0.554635 0.643931 0.032105
0.93608 0.636088 0.142077
0.963302 0.64036 0.16376
0.0721752 0.948775 0.60766
0.0541238 0.958968 0.526894
0.213199 0.967498 0.191226
0.889647 0.960296 0.288853
0.96936 0.955261 0.482734
0.0958572 0.95819 0.676539
0.0825818 0.960235 0.61117
0.137392 0.974258 0.378439
0.85127 0.964691 0.37084
0.971695 0.971084 0.568276
0.0552529 0 0.223575
0.261784 0 0.215
0.648814 0.00358587 0.300572
0.96112 0.0331731 0.391226
0.963012 0.0447242 0.413291
0 0.189609 0.18468
0.198138 0.181811 0.19855
0.668299 0.107301 0.190616
0.96817 0.103532 0.236713
0.968368 0.103227 0.253147
0 0.584741 0.405188
0 0.597803 0.294224
0.54229 0.622431 0.0457618
0.948974 0.597848 0.19115
0.963867 0.594461 0.202319
0.0809186 0.930755 0.655177
0.0701762 0.93753 0.594644
0.0890669 0.963851 0.241688
0.881209 0.953689 0.262943
0.9682 0.945647 0.478508
0.107195 0.957412 0.724102
0.0977188 0.958328 0.674632
0.0974289 0.971176 0.44596
0.812848 0.962585 0.374762
0.97174 0.971145 0.572488
0.200137 0 0.59527
0.390661 0.00140383 0.575921
0.67335 0.00482185 0.594568
0.961227 0.014313 0.687358
0.961852 0.0156252 0.705058
0 0.0472114 0.520912
0.227481 0 0.578592
0.63624 0.00444038 0.561517
0.960571 0.0172732 0.625406
0.961181 0.0192569 0.637064
0 0.547997 0.543099
0 0.537255 0.537881
0.561547 0.528725 0.562295
0.954452 0.486595 0.560174
0.957641 0.456107 0.547127
0.102693 0.894163 0.740658
0.101061 0.891264 0.718486
0.0993362 0.91136 0.591821
0.86656 0.92488 0.458412
0.965362 0.912428 0.524941
0.137545 0.954284 0.820676
0.134081 0.954955 0.80032
0.110994 0.958602 0.675456
0.697719 0.96257 0.408469
0.971908 0.971344 0.588876
0.441184 0 0.915602
0.555413 4.57771e-05 0.910704
0.773159 0 0.904982
0.967056 0.0179751 0.945586
0.967758 0.020737 0.962753
0.173342 0 0.883711
0.446784 0 0.90483
0.728603 0 0.89337
0.966781 0.0178225 0.929992
0.967239 0.0199893 0.943526
0 0.457328 0.832837
0 0.422202 0.85478
0.635981 0.328786 0.935332
0.966705 0.255406 0.920775
0.968902 0.219089 0.908309
0.105043 0.859556 0.853407
0.105425 0.853956 0.849744
0.227985 0.849836 0.85684
0.860838 0.830915 0.861295
0.957885 0.821668 0.86479
0.244648 0.958801 0.918486
0.252811 0.958862 0.9131
0.2654 0.958343 0.888319
0.731594 0.968322 0.885359
0.974243 0.974136 0.867613
0.541817 0 0.962219
0.628702 0.000534066 0.961456
0.829419 0 0.957687
0.967865 0.0205692 0.967865
0.96817 0.0229953 0.96817
0.38819 0 0.954452
0.548196 0 0.962341
0.790433 0 0.95639
0.967941 0.02121 0.967941
0.968246 0.0235752 0.968246
0.152102 0.379599 0.963439
0.152331 0.327489 0.963394
0.675898 0.191348 0.970947
0.973129 0.136522 0.973129
0.97348 0.0950942 0.97348
0.204761 0.832074 0.957519
0.201923 0.822217 0.957534
0.395819 0.797726 0.954376
0.892454 0.767254 0.954681
0.955123 0.758724 0.955123
0.330861 0.960082 0.958068
0.343999 0.960388 0.958465
0.384466 0.961105 0.959411
0.78262 0.969848 0.969619
0.975174 0.973816 0.975174
