bundles/resolve-cinematic-luts/Phantom Luts/P4k & P6k Phntm Arri LUTs - V6/P4K/Gen 4 Colour/White Balance Offset (Magenta Boost)/P4k Utopia Gen4-Legacy WBO.cube
TITLE "Generated by Resolve"
LUT_3D_SIZE 33
0.00621042 0.0319371 0.0404364
0.00621042 0.0319371 0.0404364
0.0171206 0.0314946 0.0404212
0.0302586 0.0320287 0.0459297
0.0496223 0.0328069 0.0487373
0.0703593 0.033814 0.0506142
0.092958 0.0343633 0.0515908
0.119982 0.0347143 0.0522469
0.1514 0.0350805 0.0531472
0.186221 0.0352178 0.0544594
0.224521 0.0347906 0.0558328
0.266239 0.0344091 0.0570535
0.309468 0.0333257 0.0587015
0.355093 0.0325475 0.0616617
0.40325 0.0324559 0.0663462
0.452445 0.032639 0.0717784
0.502602 0.033875 0.0782025
0.548211 0.0357977 0.0855573
0.588052 0.0413214 0.0967422
0.63415 0.0459907 0.10753
0.687495 0.0497292 0.118334
0.739742 0.0547646 0.130724
0.78027 0.0622568 0.14374
0.803265 0.0717327 0.154437
0.812421 0.0801862 0.161822
0.815839 0.085832 0.16669
0.818586 0.0906386 0.170687
0.821424 0.0946517 0.174197
0.823636 0.0978103 0.176822
0.827344 0.100649 0.179522
0.831128 0.102937 0.181598
0.835081 0.104921 0.183307
0.837949 0.106966 0.185046
0.00621042 0.0319371 0.0404517
0.00621042 0.0319371 0.0404364
0.0093843 0.0318456 0.0401617
0.0233463 0.0347753 0.0428168
0.0393835 0.0371099 0.0476997
0.0602579 0.0388037 0.0494545
0.0829175 0.0386664 0.0501869
0.108141 0.0377508 0.0498665
0.137758 0.0367132 0.0495918
0.170764 0.035523 0.049836
0.207431 0.0340276 0.0497139
0.249073 0.0322423 0.0493477
0.295201 0.0309911 0.0496071
0.342214 0.0298314 0.0517739
0.391043 0.0286259 0.0546578
0.441474 0.0271763 0.0584115
0.492912 0.0275883 0.0645762
0.539452 0.0300755 0.0727398
0.579644 0.0358434 0.0842145
0.625879 0.0402686 0.0949264
0.679561 0.0444953 0.106859
0.732204 0.0487831 0.119234
0.773587 0.0559243 0.13228
0.798978 0.0657054 0.144198
0.808011 0.0727703 0.150912
0.810529 0.076936 0.154238
0.813199 0.0810254 0.158145
0.816129 0.0848554 0.161776
0.818524 0.0879072 0.164248
0.822309 0.090547 0.166873
0.826581 0.0925002 0.168917
0.831922 0.0931868 0.169635
0.837613 0.0939345 0.170626
0.00637827 0.0373083 0.0438544
0.00697337 0.0352636 0.0415198
0.00805676 0.0333715 0.0408942
0.0191043 0.0370489 0.0419013
0.0293889 0.0402533 0.0442969
0.0496529 0.0407263 0.0486915
0.0726482 0.0412146 0.0505226
0.0977798 0.0402991 0.0500496
0.12726 0.038468 0.0486305
0.161608 0.037171 0.0484932
0.198718 0.0355383 0.048249
0.239414 0.0335546 0.0473793
0.282383 0.0311894 0.0459754
0.327047 0.0290532 0.0451057
0.373419 0.026688 0.044419
0.42446 0.0254368 0.0461128
0.479515 0.0250095 0.0512245
0.529595 0.0264286 0.059144
0.570031 0.0318151 0.0714885
0.61709 0.0365606 0.0835889
0.670497 0.0401312 0.095079
0.724849 0.0448005 0.108415
0.767422 0.0506447 0.121614
0.794186 0.0597848 0.133745
0.804242 0.0671702 0.140734
0.80705 0.0712596 0.144289
0.809277 0.0746471 0.147372
0.81117 0.0769818 0.149706
0.813825 0.0795453 0.1523
0.817868 0.0818647 0.154376
0.822232 0.0838026 0.156252
0.828519 0.0848249 0.157473
0.834775 0.0854963 0.158404
0.00581369 0.0530556 0.0543832
0.00544747 0.0524453 0.0497749
0.0146639 0.0505531 0.0430457
0.0224002 0.0505989 0.04271
0.0324407 0.0519112 0.0460822
0.0519112 0.0517281 0.0500954
0.0727398 0.0504463 0.0507515
0.0953384 0.0487221 0.0504005
0.122698 0.0463874 0.0495613
0.154269 0.0426947 0.0475471
0.18938 0.0387579 0.0456245
0.227543 0.0351568 0.0447395
0.270756 0.0327459 0.0432288
0.31632 0.0306401 0.0419471
0.363989 0.0284276 0.0413214
0.413565 0.0260014 0.0411383
0.465492 0.0244144 0.0424506
0.515084 0.0240635 0.0454414
0.554574 0.0273899 0.054078
0.603418 0.0318761 0.0669108
0.658381 0.0363317 0.081239
0.714931 0.0410468 0.0961318
0.760494 0.0478218 0.110887
0.789014 0.0556497 0.123507
0.800549 0.0631113 0.131136
0.804486 0.067689 0.135622
0.806226 0.0702525 0.137942
0.80856 0.0729534 0.140871
0.811093 0.0752575 0.143191
0.814588 0.0763104 0.144488
0.81883 0.0773938 0.145708
0.82536 0.0776226 0.146288
0.831632 0.0774395 0.146273
0 0.0749371 0.0565347
0 0.0752117 0.0483864
0.00518807 0.0729534 0.0403601
0.0170443 0.0706798 0.0375982
0.0331121 0.0712596 0.0369879
0.0538643 0.0712902 0.0400092
0.0774548 0.0696574 0.0514229
0.100542 0.0663157 0.0540017
0.127916 0.061677 0.0538033
0.159426 0.0580453 0.0517433
0.194476 0.0542458 0.0497139
0.231403 0.0493935 0.046952
0.272328 0.0441444 0.0443275
0.314931 0.038117 0.0412757
0.359014 0.0319524 0.0384375
0.405982 0.0281224 0.0383917
0.457435 0.0257572 0.0391241
0.507561 0.0254215 0.0413062
0.546029 0.027924 0.0478523
0.591638 0.0300298 0.0550698
0.641337 0.0319829 0.0627604
0.697139 0.0358587 0.0761425
0.747143 0.0417945 0.0929732
0.780301 0.0501411 0.108278
0.796185 0.0587778 0.118517
0.800977 0.0633249 0.122911
0.803662 0.0667887 0.126879
0.805997 0.0693523 0.129839
0.808743 0.0719768 0.132387
0.812894 0.0736858 0.134356
0.817441 0.0749676 0.135866
0.823926 0.0746777 0.135882
0.83061 0.0744182 0.136004
0 0.0996872 0.0546578
0 0.101015 0.0444343
0 0.0994736 0.0347448
0.00914015 0.0962539 0.0259556
0.0214847 0.0967727 0.0272831
0.0513924 0.0951858 0.0309606
0.0761425 0.0936904 0.0369268
0.102663 0.0915999 0.0462959
0.132647 0.0864118 0.0525368
0.166506 0.076936 0.0552529
0.20119 0.0703593 0.0541085
0.238392 0.0654917 0.0518654
0.279179 0.0603494 0.0488746
0.322896 0.0545205 0.0469825
0.366842 0.0486763 0.0442664
0.41236 0.0428016 0.041886
0.459937 0.0365911 0.039826
0.505409 0.0314336 0.0392309
0.541619 0.0310216 0.0446937
0.585931 0.0319982 0.0504311
0.635035 0.0336461 0.0576486
0.687144 0.0354009 0.0666056
0.73492 0.0389868 0.0775769
0.768978 0.0446937 0.0883192
0.788159 0.0513313 0.0971542
0.794705 0.0555581 0.102312
0.798352 0.0596323 0.107332
0.801144 0.0626688 0.111086
0.803983 0.0654002 0.114641
0.808179 0.0672618 0.116823
0.812558 0.0682689 0.118135
0.820371 0.0687419 0.119142
0.827878 0.0687114 0.119585
0 0.125032 0.0551766
0 0.127565 0.0406958
0 0.126589 0.0285801
0 0.124208 0.0137179
0.0122683 0.121675 0.0144656
0.033814 0.121721 0.0187381
0.0734417 0.1187 0.0268559
0.0985122 0.117433 0.0341497
0.132082 0.114382 0.0408026
0.165881 0.109102 0.0471962
0.209552 0.0953536 0.0546731
0.24828 0.0850233 0.0562753
0.289036 0.0810712 0.0557565
0.33225 0.0759442 0.0533761
0.376501 0.0704051 0.0509346
0.422553 0.0646677 0.0502937
0.470085 0.0596323 0.0492714
0.516197 0.0549325 0.0491035
0.555474 0.0523842 0.051606
0.596307 0.0491798 0.0539254
0.639384 0.0455329 0.0571908
0.685008 0.0417792 0.0623331
0.730632 0.0424353 0.0720531
0.766415 0.0468147 0.0824445
0.788144 0.0530556 0.0902113
0.794034 0.0559548 0.0915999
0.795972 0.0584573 0.0922713
0.79823 0.0612345 0.0937667
0.799878 0.0634928 0.0945296
0.802991 0.0652476 0.0957351
0.806912 0.0662242 0.0970321
0.812894 0.0665599 0.097734
0.818662 0.0666514 0.0979629
0 0.153185 0.0597696
0 0.156542 0.0397955
0 0.157198 0.0253605
0 0.155306 0.0132296
0 0.150286 0.000808728
0.0158999 0.15169 0.0033875
0.0506142 0.149935 0.01178
0.0950637 0.146212 0.0234836
0.123613 0.145129 0.0313115
0.165972 0.141619 0.0365759
0.202167 0.138506 0.0437781
0.255589 0.121599 0.0546578
0.303243 0.105974 0.0610666
0.344717 0.101961 0.0612955
0.389319 0.0983291 0.0606851
0.435431 0.094667 0.059968
0.482719 0.0913405 0.0599069
0.529274 0.0885328 0.0606546
0.573068 0.0863508 0.0628519
0.616831 0.0837415 0.0682536
0.660044 0.0808881 0.0720989
0.705074 0.0773938 0.0765545
0.747539 0.0740673 0.0819715
0.779767 0.0728313 0.0882277
0.800565 0.0747997 0.0950942
0.806622 0.0747234 0.0974746
0.806592 0.0734417 0.0972763
0.807309 0.0744945 0.0977035
0.808942 0.0767681 0.0987411
0.811292 0.078584 0.0992447
0.814267 0.0798657 0.0994583
0.818982 0.0799725 0.0984817
0.824048 0.0799725 0.0976272
0 0.18616 0.0630503
0 0.189853 0.0435187
0 0.192325 0.023743
0 0.190951 0.0111086
0 0.187945 0
0.0034638 0.184314 0
0.0218662 0.187686 0
0.070634 0.183917 0.00627146
0.119036 0.179873 0.0208743
0.154818 0.17879 0.0301518
0.20473 0.175601 0.034226
0.246494 0.174502 0.0408637
0.304799 0.158724 0.0547036
0.360464 0.141054 0.0662394
0.40676 0.132738 0.0697948
0.452277 0.130358 0.0712749
0.50013 0.128618 0.0729686
0.54641 0.12665 0.0749371
0.590448 0.125322 0.0781567
0.634165 0.124376 0.0821241
0.678309 0.12369 0.0870832
0.725063 0.122988 0.0925917
0.770474 0.121859 0.10164
0.804807 0.123171 0.108782
0.828519 0.127626 0.116045
0.837095 0.129442 0.119432
0.837156 0.127474 0.118959
0.835492 0.124208 0.117617
0.833661 0.121004 0.116136
0.833402 0.118318 0.115084
0.833738 0.115312 0.113527
0.836072 0.112245 0.111406
0.839246 0.109407 0.109529
0 0.222766 0.0687877
0 0.226886 0.0482643
0 0.230488 0.0265812
0 0.230274 0.011368
0 0.228367 0
0 0.223377 0
0.00729381 0.224201 0
0.0329747 0.228641 0
0.0941787 0.223484 0.00225834
0.152148 0.219333 0.0210117
0.194553 0.218387 0.0313115
0.250401 0.216876 0.035523
0.300343 0.21677 0.0404669
0.358557 0.205829 0.0552834
0.419364 0.188098 0.0692149
0.469993 0.173953 0.0788434
0.515236 0.169635 0.0836042
0.561242 0.167681 0.0867475
0.60618 0.166995 0.0919356
0.650813 0.166842 0.0977646
0.695872 0.167651 0.104707
0.743496 0.168872 0.112184
0.788693 0.170123 0.119524
0.824826 0.174044 0.127733
0.850004 0.180117 0.135485
0.860441 0.183413 0.139284
0.861372 0.182132 0.139284
0.860624 0.179797 0.138445
0.859495 0.177218 0.137209
0.85893 0.174701 0.135851
0.859205 0.17229 0.134432
0.861372 0.169894 0.132692
0.864057 0.16817 0.131167
0 0.264561 0.073167
0 0.26836 0.0556497
0 0.27245 0.0345617
0 0.274159 0.0166629
0 0.272602 0.000839246
0 0.269413 0
0 0.264958 0
0.0139925 0.270741 0
0.0513619 0.275486 0
0.124697 0.269429 0.00141909
0.194781 0.265171 0.024979
0.243076 0.265232 0.0358282
0.30425 0.264439 0.0404364
0.357824 0.264668 0.0421607
0.411704 0.258305 0.0523842
0.474632 0.241367 0.0694285
0.528771 0.227726 0.0836805
0.57554 0.218967 0.0951705
0.619608 0.214939 0.104204
0.665141 0.214801 0.112474
0.710781 0.21593 0.121065
0.759274 0.217868 0.130663
0.805402 0.220218 0.139757
0.842634 0.224155 0.14844
0.86923 0.230426 0.157
0.88159 0.234882 0.161868
0.883452 0.234272 0.162341
0.882567 0.231998 0.161364
0.881804 0.230259 0.160525
0.881697 0.228382 0.15967
0.881971 0.22649 0.158526
0.883589 0.224598 0.15697
0.885344 0.223148 0.155459
0 0.314809 0.0818036
0 0.318532 0.0650187
0 0.322469 0.0455177
0 0.326452 0.0256962
0 0.325902 0.00888075
0 0.323751 0
0 0.319371 0
0 0.318425 0
0.0278477 0.32723 0
0.0763256 0.331624 0
0.166003 0.322881 0.00564584
0.243473 0.316655 0.030457
0.296712 0.316213 0.0403296
0.360586 0.315435 0.045655
0.415412 0.316442 0.0440681
0.466987 0.314656 0.049012
0.527581 0.30074 0.0676127
0.583185 0.28835 0.0867933
0.629953 0.280201 0.104341
0.675135 0.272602 0.121386
0.722286 0.268635 0.135241
0.771115 0.26865 0.146426
0.818784 0.270726 0.156985
0.857252 0.274159 0.16643
0.884535 0.279194 0.174975
0.898329 0.283772 0.179995
0.900679 0.283543 0.180545
0.90042 0.282094 0.180209
0.900099 0.280674 0.179843
0.899992 0.279255 0.179339
0.899947 0.277974 0.178515
0.900862 0.276738 0.177356
0.902251 0.275746 0.176165
0 0.370809 0.0981155
0 0.374533 0.0789197
0 0.378347 0.0624857
0 0.382315 0.0423896
0 0.384527 0.0238956
0 0.383307 0.0037995
0 0.381323 0
0 0.376379 0
0.00917067 0.380118 0
0.0496071 0.387213 0
0.109468 0.388342 0
0.215305 0.375525 0.0124971
0.298054 0.367681 0.0354772
0.35314 0.367514 0.0454871
0.416434 0.366979 0.0509194
0.472541 0.368322 0.0482643
0.52285 0.368338 0.050782
0.57731 0.359716 0.0685588
0.632624 0.348394 0.093431
0.682475 0.339971 0.117021
0.728527 0.334157 0.135988
0.77911 0.322988 0.156634
0.828016 0.320897 0.170779
0.867842 0.323262 0.181659
0.896147 0.327337 0.190082
0.911955 0.332662 0.196582
0.914519 0.332891 0.197604
0.914351 0.331594 0.197269
0.914046 0.330251 0.196826
0.913787 0.329183 0.196307
0.91371 0.328222 0.19585
0.914168 0.327276 0.195056
0.915053 0.326604 0.194141
0 0.426139 0.119188
0 0.429999 0.101823
0 0.433921 0.0847181
0 0.437812 0.0642557
0 0.4421 0.0448615
0 0.442725 0.0240482
0 0.441779 0.00248722
0 0.438712 0
0 0.435294 0
0.027924 0.441215 0
0.0768139 0.445975 0
0.155444 0.442878 0
0.27332 0.4271 0.0226291
0.35903 0.418814 0.043122
0.409857 0.419165 0.0526284
0.472068 0.418738 0.0582284
0.528511 0.419928 0.0557107
0.575845 0.420401 0.059968
0.626551 0.416266 0.0757305
0.6822 0.406119 0.103868
0.734371 0.397253 0.130022
0.783612 0.391028 0.152102
0.832364 0.383444 0.173632
0.874296 0.37583 0.191775
0.904219 0.376776 0.20325
0.921767 0.381689 0.210895
0.925155 0.382788 0.212451
0.924971 0.381781 0.212192
0.924727 0.380713 0.211841
0.924453 0.379782 0.211429
0.924315 0.378882 0.211139
0.924498 0.378149 0.210605
0.925032 0.377783 0.209842
0 0.481422 0.148745
0 0.48539 0.132647
0 0.489586 0.114031
0 0.493828 0.0938277
0 0.498344 0.0737316
0 0.501762 0.0496681
0 0.501198 0.028687
0 0.499275 0.00373846
0 0.49575 0
0 0.493721 0
0.0552834 0.501106 0
0.114382 0.504417 0
0.212436 0.496864 0
0.338384 0.477913 0.0364996
0.420722 0.47013 0.0508278
0.466285 0.470832 0.0599985
0.526787 0.470375 0.0673533
0.582116 0.470878 0.0690166
0.62855 0.47155 0.0738842
0.677958 0.470253 0.0865949
0.733028 0.461357 0.116335
0.789044 0.452338 0.146883
0.836347 0.446433 0.169726
0.875761 0.443275 0.188113
0.906203 0.44123 0.20325
0.92607 0.442695 0.214282
0.930709 0.444007 0.217426
0.930816 0.443229 0.217609
0.930694 0.441932 0.217578
0.930831 0.440925 0.217762
0.930831 0.439902 0.217853
0.931029 0.43917 0.217655
0.931319 0.438865 0.217075
0 0.535683 0.186023
0 0.539559 0.170169
0 0.54374 0.151522
0 0.547692 0.133913
0 0.552132 0.11368
0 0.557122 0.087541
0 0.558648 0.063386
0 0.557366 0.0372931
0 0.554864 0.00794995
0 0.551415 0
0.0312352 0.552804 0
0.0937057 0.558968 0
0.163943 0.560296 0
0.276783 0.548974 0.00950637
0.405051 0.527672 0.0497749
0.477623 0.521462 0.0606851
0.521706 0.522057 0.0728313
0.579873 0.521385 0.0832685
0.63415 0.521294 0.0864576
0.681071 0.521569 0.0920119
0.729641 0.521263 0.102434
0.785916 0.51397 0.133639
0.838682 0.506386 0.1635
0.878065 0.503365 0.185199
0.906386 0.503899 0.199573
0.926619 0.505943 0.211368
0.932372 0.508263 0.216312
0.933059 0.508064 0.217151
0.933013 0.507134 0.217121
0.933059 0.506432 0.217166
0.932998 0.50573 0.217136
0.933074 0.50515 0.21677
0.933257 0.505013 0.216068
0 0.588769 0.228183
0 0.592386 0.211826
0 0.596201 0.196109
0 0.600137 0.179782
0 0.604486 0.159701
0 0.609491 0.134127
0 0.613931 0.106828
0 0.613855 0.0783093
0 0.612345 0.0484932
0 0.609689 0.0141146
0.00833143 0.60679 0
0.071397 0.610819 0
0.142321 0.614099 0
0.222217 0.613535 0
0.348531 0.59765 0.0302129
0.467994 0.576104 0.0671702
0.533639 0.571664 0.0771649
0.575357 0.571756 0.0902724
0.631098 0.570962 0.101625
0.685176 0.570169 0.106477
0.732296 0.569528 0.113222
0.782559 0.569284 0.124392
0.835721 0.56405 0.15198
0.878401 0.559792 0.178973
0.907988 0.559777 0.198596
0.927306 0.564233 0.210925
0.933791 0.568795 0.216815
0.934676 0.569116 0.217838
0.934585 0.568368 0.217777
0.934462 0.567727 0.217655
0.934462 0.567163 0.21767
0.934493 0.566781 0.217319
0.934585 0.566644 0.216648
0 0.640528 0.273152
0 0.643671 0.259525
0 0.646983 0.245167
0 0.650813 0.228565
0 0.655314 0.208743
0 0.660563 0.185351
0 0.666224 0.158267
0 0.669047 0.127077
0 0.668544 0.0967727
0 0.666682 0.0606394
0.00698863 0.663172 0.0193179
0.0297704 0.661128 0
0.120562 0.66659 0
0.20087 0.667887 0
0.286336 0.665232 0.0159304
0.420325 0.645106 0.0556954
0.529061 0.625193 0.0868849
0.587121 0.621378 0.0953841
0.627131 0.621241 0.110033
0.680934 0.620157 0.122942
0.735103 0.618204 0.129763
0.783825 0.616983 0.137728
0.834089 0.617197 0.150744
0.878981 0.614847 0.172351
0.909865 0.614343 0.197482
0.929931 0.617365 0.214481
0.936721 0.624262 0.221469
0.937499 0.625452 0.222614
0.93756 0.625162 0.222644
0.937545 0.624796 0.222507
0.937484 0.624414 0.222385
0.937453 0.624063 0.22208
0.937453 0.623865 0.221592
0 0.692103 0.319554
0 0.695293 0.307271
0 0.698634 0.29424
0 0.702358 0.278676
0 0.70663 0.261128
0 0.711589 0.240116
0 0.717723 0.213062
0 0.723842 0.180163
0 0.724636 0.149676
0 0.723751 0.112825
0.00885023 0.721614 0.0708629
0.0226139 0.71841 0.0222324
0.0652476 0.718975 0
0.180728 0.722103 0
0.265751 0.721065 0.0163424
0.355917 0.716289 0.0395056
0.489494 0.692302 0.0823377
0.586084 0.675013 0.108385
0.639292 0.671595 0.115679
0.677806 0.671 0.130282
0.730892 0.670283 0.145388
0.786191 0.666896 0.155367
0.83653 0.666194 0.165988
0.88011 0.666728 0.182208
0.91426 0.666926 0.20325
0.935347 0.669535 0.222995
0.942748 0.674952 0.234928
0.943832 0.677638 0.237079
0.943877 0.677821 0.236896
0.943786 0.677501 0.236576
0.943694 0.677195 0.236393
0.943648 0.676951 0.236271
0.943633 0.676829 0.236118
0 0.745602 0.36228
0 0.748608 0.351171
0 0.751873 0.339391
0 0.755291 0.326833
0 0.759213 0.312367
0 0.764111 0.293217
0 0.769924 0.267506
0 0.776699 0.237232
0 0.780911 0.203754
0.00111391 0.781216 0.16791
0.0102541 0.780118 0.126925
0.0244602 0.777813 0.078294
0.0500649 0.776364 0.026215
0.126589 0.779507 0
0.247349 0.777218 0.019501
0.336126 0.774151 0.0411536
0.423438 0.767865 0.0655833
0.55378 0.740978 0.108949
0.640879 0.725658 0.129931
0.691417 0.723522 0.138323
0.729931 0.723156 0.154482
0.782238 0.721736 0.171023
0.839536 0.717723 0.184573
0.885267 0.717739 0.201144
0.918105 0.718685 0.224872
0.941604 0.719478 0.247883
0.951034 0.723415 0.263645
0.95256 0.726726 0.269261
0.952651 0.727169 0.269337
0.952605 0.72694 0.268681
0.952575 0.726757 0.267948
0.952575 0.72665 0.267338
0.952575 0.726619 0.267002
0 0.802304 0.401129
0 0.805066 0.391516
0 0.808042 0.381109
0 0.811307 0.370428
0 0.81529 0.356817
0 0.820081 0.339727
0 0.825711 0.318608
0 0.832486 0.292363
0 0.839597 0.25771
0.00607309 0.841138 0.22388
0.0162203 0.841108 0.183474
0.0290837 0.83946 0.137972
0.0476387 0.83621 0.0813458
0.0798657 0.837552 0.0275731
0.203754 0.839231 0.0218204
0.318669 0.833829 0.044007
0.4056 0.829206 0.0663462
0.488502 0.821485 0.091783
0.614527 0.793805 0.135531
0.694865 0.781231 0.154498
0.745556 0.77969 0.162402
0.784848 0.779675 0.179721
0.836988 0.776303 0.201083
0.89044 0.772808 0.221302
0.92668 0.77351 0.248936
0.950286 0.774899 0.274113
0.962081 0.77612 0.296056
0.964096 0.779599 0.308721
0.964355 0.780179 0.30869
0.964569 0.780163 0.307073
0.964721 0.780118 0.305653
0.964813 0.780087 0.304555
0.964858 0.780102 0.303777
0.00526436 0.860502 0.439292
0.00497444 0.863142 0.430259
0.00459297 0.865873 0.420798
0.00408942 0.868955 0.410224
0.00401312 0.87248 0.397803
0.00469978 0.876478 0.383246
0.00582895 0.881376 0.364935
0.00772107 0.887373 0.341634
0.0108339 0.894423 0.311971
0.0166781 0.898375 0.279606
0.0257725 0.898939 0.241566
0.037705 0.898314 0.197513
0.0538491 0.896635 0.146242
0.0768902 0.895674 0.0863966
0.127932 0.896849 0.0321508
0.287465 0.892439 0.0477607
0.391867 0.884886 0.0712444
0.471183 0.879133 0.0936599
0.551766 0.870588 0.119936
0.674662 0.844877 0.162936
0.750759 0.834257 0.181247
0.800351 0.833738 0.191455
0.840543 0.833265 0.210025
0.890791 0.828397 0.236576
0.932555 0.826261 0.273808
0.959335 0.827161 0.302632
0.974105 0.828351 0.328405
0.976165 0.829648 0.348272
0.97641 0.83032 0.351476
0.976532 0.830442 0.350149
0.976699 0.830472 0.348653
0.976791 0.830472 0.347524
0.976852 0.830503 0.346899
0.0174868 0.910246 0.474601
0.0171054 0.912383 0.466682
0.0160372 0.914855 0.457954
0.0153353 0.917418 0.448554
0.0148623 0.920317 0.437583
0.0154116 0.923629 0.424201
0.0162509 0.927703 0.407431
0.018143 0.932525 0.386557
0.0209659 0.938262 0.360754
0.0257725 0.943664 0.329198
0.0332036 0.945068 0.296086
0.0434272 0.945724 0.255131
0.0573434 0.94551 0.206546
0.0767529 0.943358 0.14844
0.110414 0.943969 0.0873274
0.20766 0.944427 0.0544442
0.368658 0.932097 0.0750439
0.459449 0.92459 0.0979782
0.533196 0.918349 0.120912
0.611872 0.909102 0.149126
0.732815 0.885161 0.19147
0.807538 0.876463 0.207172
0.851255 0.876783 0.218982
0.890318 0.874449 0.247028
0.932509 0.871199 0.29044
0.96318 0.870069 0.327688
0.980453 0.870604 0.356481
0.984253 0.870832 0.381003
0.983856 0.871 0.390097
0.983886 0.871138 0.389776
0.984054 0.871214 0.388525
0.984222 0.87126 0.387411
0.984329 0.871321 0.386892
0.029221 0.946548 0.508644
0.0281529 0.948409 0.501289
0.0267033 0.950454 0.4934
0.0254826 0.95256 0.484932
0.0246586 0.95494 0.4748
0.024506 0.957671 0.462547
0.0251316 0.960784 0.448081
0.026276 0.964645 0.429572
0.028397 0.969284 0.405737
0.0319524 0.974304 0.376761
0.0378424 0.977203 0.345678
0.0471504 0.97908 0.308904
0.059678 0.979873 0.264515
0.0764019 0.978729 0.212787
0.102312 0.978012 0.153445
0.154345 0.977646 0.0892805
0.290272 0.974258 0.0808118
0.441489 0.959487 0.106508
0.52195 0.951705 0.129091
0.590433 0.945037 0.152316
0.67306 0.932891 0.1832
0.790051 0.911818 0.220661
0.858503 0.905409 0.235248
0.895521 0.905653 0.254643
0.929168 0.904372 0.29955
0.963088 0.902586 0.346136
0.98294 0.901946 0.381918
0.988968 0.901884 0.407294
0.988373 0.901762 0.423362
0.988159 0.9019 0.423835
0.988159 0.902022 0.422446
0.98822 0.902098 0.421363
0.988388 0.902159 0.420752
0.0375067 0.970901 0.540627
0.0372625 0.972122 0.534157
0.0363165 0.973526 0.527382
0.035111 0.975204 0.519783
0.033753 0.977142 0.510643
0.0332647 0.979263 0.499458
0.0329747 0.981689 0.485786
0.0334783 0.984451 0.469047
0.0343328 0.987808 0.448081
0.0364538 0.991638 0.422095
0.0416876 0.994278 0.394995
0.0492561 0.995956 0.364004
0.0594797 0.997101 0.325414
0.0744945 0.997772 0.278737
0.0964218 0.997665 0.220981
0.134844 0.998001 0.161547
0.235462 0.998093 0.128969
0.372519 0.992142 0.130266
0.505226 0.97612 0.147417
0.579217 0.967498 0.170428
0.64329 0.959426 0.193042
0.728969 0.945144 0.224948
0.843763 0.926146 0.253773
0.897459 0.923384 0.269902
0.930465 0.924132 0.305776
0.959655 0.92343 0.360235
0.982483 0.922545 0.402045
0.990463 0.922484 0.433158
0.989517 0.922728 0.454688
0.989242 0.922896 0.455741
0.989227 0.922957 0.454398
0.989242 0.922988 0.453391
0.989273 0.923003 0.452964
0.0407416 0.978546 0.571603
0.0406653 0.979232 0.565515
0.0403143 0.979919 0.559091
0.0394751 0.980774 0.551965
0.0381476 0.981903 0.543572
0.0371405 0.983307 0.533135
0.0362554 0.985 0.520775
0.0355993 0.986831 0.504479
0.0363317 0.98912 0.486946
0.038529 0.99176 0.467948
0.0420233 0.994217 0.445701
0.0480201 0.996674 0.417578
0.0573129 0.998611 0.382391
0.0704814 0.999664 0.339971
0.0891127 0.999969 0.287434
0.121279 0.999969 0.231693
0.204349 0.999969 0.198032
0.319844 0.999863 0.187106
0.440681 0.995392 0.192157
0.560861 0.97995 0.209781
0.629892 0.970062 0.228977
0.696864 0.95816 0.250889
0.77789 0.94255 0.274876
0.882689 0.928923 0.299306
0.924651 0.927886 0.327642
0.951934 0.928222 0.370016
0.978653 0.928512 0.415671
0.989715 0.929259 0.454231
0.988083 0.930388 0.484382
0.987655 0.930602 0.48748
0.987549 0.930602 0.486686
0.987533 0.930571 0.485771
0.987564 0.930556 0.485283
0.0415198 0.978698 0.584009
0.041001 0.979248 0.578195
0.040528 0.979904 0.571817
0.0401465 0.980636 0.565118
0.0393378 0.981506 0.557137
0.0383917 0.982498 0.547509
0.037583 0.983795 0.53521
0.0367895 0.985626 0.520317
0.0369573 0.987778 0.503258
0.0388952 0.990295 0.485512
0.0419165 0.992935 0.464942
0.0474556 0.995529 0.442512
0.0561074 0.997803 0.416526
0.0672007 0.999313 0.384955
0.0820783 0.999954 0.346563
0.111025 0.999969 0.299733
0.189456 0.999969 0.271992
0.291264 0.999969 0.258152
0.395483 0.999939 0.253223
0.497353 0.996292 0.260288
0.609613 0.981537 0.276448
0.679469 0.970016 0.296605
0.750439 0.955581 0.320394
0.822736 0.941405 0.339422
0.909239 0.931716 0.362387
0.946166 0.930007 0.390173
0.972412 0.929503 0.425467
0.987655 0.930037 0.467002
0.98645 0.931472 0.504784
0.985733 0.93196 0.514199
0.985916 0.931914 0.513878
0.986389 0.931807 0.51281
0.98677 0.931731 0.512169
0.0474861 0.977005 0.59292
0.0469368 0.977523 0.587289
0.0460975 0.97818 0.58114
0.0454261 0.978866 0.574319
0.0446174 0.979706 0.56672
0.0441596 0.980652 0.557412
0.0434577 0.981735 0.545998
0.0429999 0.983185 0.531319
0.0425574 0.985428 0.513771
