bundles/resolve-cinematic-luts/Phantom Luts/P4k & P6k Phntm Arri LUTs - V6/P4K/Gen 4 Colour/White Balance Offset (Magenta Boost)/P4k Tungsten Gen4 WBO.cube
TITLE "Generated by Resolve"
LUT_3D_SIZE 33
0 0 0.0062562
0 0 0.00607309
0 0 0.00567636
0.0128481 0 0.00799573
0.0459907 0.000976577 0.0155032
0.0779889 0.00187686 0.0218051
0.110597 0.00271611 0.0286412
0.147723 0.00354009 0.0361639
0.18999 0.00450141 0.0448768
0.236591 0.00624094 0.0547189
0.286152 0.00851453 0.0653544
0.338079 0.0116579 0.0768749
0.390555 0.0149996 0.0887465
0.4421 0.0190585 0.101961
0.495033 0.0246281 0.116075
0.547143 0.0320439 0.130388
0.585733 0.0444953 0.146426
0.634104 0.0552834 0.162417
0.67837 0.0673838 0.179538
0.714855 0.0817578 0.196735
0.744701 0.098497 0.213962
0.770642 0.115831 0.231083
0.79321 0.132967 0.246815
0.806577 0.145174 0.256672
0.812757 0.152056 0.262394
0.81622 0.155734 0.266194
0.818387 0.157626 0.269398
0.819913 0.158846 0.271855
0.821286 0.159915 0.274159
0.822553 0.16083 0.276448
0.823804 0.161837 0.278431
0.82475 0.162478 0.280232
0.825376 0.16231 0.282734
0 0 0.00581369
0 0 0.00593576
0 0 0.00567636
0.00358587 0 0.00508125
0.0326543 0.000823987 0.0102235
0.0655528 0.00265507 0.0165713
0.0984207 0.00408942 0.0229038
0.135683 0.00514229 0.0302434
0.176822 0.0059205 0.0378882
0.223316 0.00729381 0.0462348
0.273472 0.00920119 0.0552529
0.327214 0.0117494 0.063798
0.382025 0.0157931 0.0737316
0.43563 0.0204471 0.0870375
0.489601 0.0254978 0.10103
0.542672 0.0319219 0.116182
0.58088 0.0436866 0.133394
0.628962 0.0530251 0.149554
0.672618 0.0644083 0.166918
0.708736 0.0781872 0.184894
0.737514 0.0933394 0.202487
0.762524 0.109377 0.21915
0.784772 0.125689 0.234363
0.799161 0.138598 0.244907
0.805951 0.146136 0.250904
0.810254 0.15082 0.2551
0.813718 0.154604 0.258732
0.816953 0.158068 0.262074
0.819684 0.160937 0.265141
0.82211 0.163455 0.267887
0.824033 0.165423 0.270207
0.826246 0.167636 0.272892
0.827802 0.169085 0.274952
0.00190738 0.0125124 0.0138705
0.00189212 0.0127871 0.0140383
0.00166323 0.0117952 0.0104524
0.00520333 0.0103456 0.00798047
0.0254368 0.0115511 0.00946059
0.0566567 0.0100862 0.0141146
0.0910811 0.0100404 0.0196078
0.127245 0.00952163 0.0254826
0.167483 0.00885023 0.0326696
0.212421 0.00973526 0.0410773
0.262119 0.0105592 0.049073
0.31577 0.0120546 0.055787
0.371069 0.0145724 0.0623484
0.423926 0.0174716 0.071458
0.477119 0.0206912 0.0818494
0.531014 0.0263066 0.0963149
0.571145 0.0374456 0.115846
0.62005 0.0469368 0.134463
0.663401 0.0578317 0.152911
0.698726 0.0707408 0.171283
0.727275 0.0852522 0.189136
0.751766 0.100221 0.205783
0.773465 0.115221 0.220584
0.788083 0.127596 0.231159
0.794995 0.134829 0.237018
0.799786 0.14023 0.241337
0.804471 0.145434 0.245655
0.808209 0.149722 0.249119
0.811872 0.153765 0.252705
0.814817 0.157046 0.255634
0.817502 0.159991 0.258366
0.82002 0.162646 0.261067
0.821988 0.164584 0.263432
0.00720226 0.045304 0.0327611
0.00712596 0.045594 0.0329595
0.00691234 0.0451209 0.0233921
0.00918593 0.0420691 0.014374
0.0360571 0.0412757 0.0131991
0.0635843 0.043534 0.0163119
0.0962081 0.0376135 0.0222934
0.131807 0.0295109 0.0247044
0.17026 0.0247807 0.0287175
0.212711 0.0214847 0.0358282
0.259907 0.018555 0.0424964
0.310536 0.0169375 0.0488899
0.362646 0.016083 0.0537118
0.413993 0.016556 0.0600443
0.46566 0.0180667 0.0684825
0.518578 0.0221561 0.0802625
0.55877 0.0317845 0.0973678
0.60618 0.0391089 0.113436
0.650095 0.0500649 0.133501
0.687266 0.0636912 0.155016
0.717037 0.0782788 0.175021
0.741695 0.0926833 0.192416
0.764035 0.107622 0.20795
0.779232 0.119768 0.218799
0.786755 0.126986 0.224811
0.790845 0.131518 0.228687
0.794934 0.136126 0.232486
0.798398 0.139986 0.235782
0.801831 0.143801 0.239017
0.80473 0.146944 0.241917
0.807309 0.149767 0.24448
0.809735 0.152193 0.24712
0.811597 0.154009 0.249287
0.0103761 0.0781109 0.0498512
0.0102846 0.0784466 0.0501106
0.00988785 0.0791485 0.03682
0.00993362 0.0773938 0.0198825
0.0258183 0.0748302 0.0174411
0.0717021 0.0754864 0.0171664
0.104494 0.0755627 0.0206607
0.13756 0.0699626 0.0262913
0.17911 0.0588235 0.0321202
0.222583 0.0497292 0.0353857
0.269535 0.0440681 0.0390784
0.318532 0.0374456 0.043122
0.367666 0.0311742 0.049012
0.414374 0.0267338 0.0547036
0.461585 0.024155 0.0623636
0.512139 0.0245518 0.0720684
0.549844 0.0307927 0.0851759
0.594949 0.0354925 0.0976272
0.636667 0.0438087 0.114061
0.673335 0.0563058 0.13518
0.702296 0.0695354 0.154162
0.729198 0.084947 0.174243
0.752987 0.100145 0.191882
0.770581 0.113298 0.204685
0.779339 0.120943 0.211856
0.783581 0.125414 0.216098
0.787442 0.129656 0.219837
0.790631 0.13315 0.222965
0.793744 0.136538 0.226047
0.796368 0.139361 0.228672
0.79881 0.141985 0.231144
0.801022 0.144213 0.233555
0.802762 0.145861 0.235477
0.0116579 0.11014 0.0643931
0.0115511 0.110475 0.0648814
0.0110475 0.112596 0.047837
0.0107424 0.112016 0.0256504
0.0139773 0.108965 0.0192721
0.0506142 0.110185 0.0181277
0.107637 0.108904 0.0183719
0.145006 0.108492 0.0232548
0.183047 0.104112 0.0249638
0.231342 0.0874342 0.0363928
0.280903 0.0743114 0.0425879
0.330571 0.0663157 0.0471046
0.379538 0.0608682 0.0523537
0.42652 0.0558785 0.0569924
0.472633 0.0512551 0.0626383
0.519646 0.0462806 0.071458
0.5561 0.0449683 0.0812848
0.594919 0.0428931 0.0912947
0.631403 0.0451667 0.104646
0.663493 0.0533913 0.11928
0.689967 0.0641337 0.13489
0.715953 0.0780804 0.153826
0.740093 0.0932326 0.171176
0.76054 0.108049 0.185473
0.770565 0.116136 0.193469
0.775128 0.120363 0.198505
0.778836 0.124086 0.202472
0.782162 0.127337 0.206073
0.785061 0.130312 0.20911
0.787396 0.132616 0.211749
0.789685 0.134981 0.21413
0.791836 0.137102 0.21651
0.793729 0.138949 0.218601
0.0114443 0.142199 0.079118
0.0112612 0.142748 0.0798199
0.0102998 0.145525 0.0586404
0.00972 0.146502 0.0314336
0.0103761 0.142809 0.0185702
0.0288243 0.142016 0.0179446
0.0829938 0.143648 0.0149233
0.143359 0.142031 0.0163577
0.188678 0.141649 0.0205539
0.231861 0.136736 0.023209
0.288777 0.118593 0.0375525
0.342962 0.103319 0.047425
0.393271 0.0957656 0.05449
0.440711 0.0915847 0.0606699
0.486992 0.0877394 0.0677958
0.533455 0.0845197 0.0756847
0.576928 0.0813764 0.0846265
0.617105 0.0781567 0.0975509
0.651164 0.0759747 0.108156
0.67715 0.0757 0.120287
0.697047 0.0775006 0.133593
0.717571 0.0858778 0.148257
0.739483 0.0992752 0.162799
0.761578 0.115694 0.176837
0.772107 0.12517 0.18323
0.775738 0.128893 0.186191
0.7794 0.13257 0.18967
0.782238 0.135607 0.192218
0.784665 0.138064 0.194614
0.787076 0.140185 0.197299
0.789166 0.142153 0.199512
0.79115 0.14403 0.201633
0.792523 0.145296 0.202899
0.00947585 0.176333 0.0910811
0.00918593 0.176883 0.0921645
0.00750744 0.179919 0.0709697
0.00598154 0.181949 0.0409094
0.00633249 0.179522 0.017792
0.0116121 0.176699 0.0154726
0.0502174 0.179446 0.0137331
0.11754 0.179828 0.00949111
0.180804 0.178744 0.0128634
0.236606 0.177981 0.0184329
0.283635 0.176577 0.019089
0.349264 0.158862 0.0353704
0.407752 0.139361 0.0538186
0.455589 0.134371 0.0615702
0.503777 0.131228 0.0697948
0.551553 0.129412 0.0795148
0.597879 0.127733 0.0898756
0.641215 0.125628 0.100786
0.678508 0.124437 0.1131
0.70808 0.125261 0.127321
0.730312 0.127993 0.141619
0.749844 0.131868 0.159503
0.766217 0.138079 0.172671
0.781399 0.145754 0.184283
0.787106 0.147433 0.188922
0.788281 0.148348 0.189639
0.790661 0.151766 0.190692
0.79324 0.155535 0.191791
0.795377 0.158785 0.192676
0.797421 0.161578 0.193866
0.799252 0.164065 0.19498
0.800809 0.166262 0.195865
0.802396 0.168444 0.19678
0.00463874 0.212711 0.102068
0.00433356 0.21326 0.10341
0.00244144 0.215686 0.0819715
0.000427253 0.217899 0.0527657
1.5259e-05 0.216999 0.0231785
0.000488289 0.213413 0.010193
0.0151522 0.213931 0.00935378
0.0729381 0.217594 0.0061799
0.153399 0.217258 0.00138857
0.222416 0.217014 0.00709545
0.289387 0.217105 0.014435
0.341939 0.219348 0.00984207
0.407095 0.204852 0.0305791
0.468238 0.187961 0.0534066
0.518334 0.175692 0.0695354
0.566629 0.174533 0.0802167
0.615381 0.174533 0.0926986
0.66096 0.173953 0.105348
0.701656 0.174487 0.119524
0.735439 0.176806 0.135836
0.761608 0.180896 0.152361
0.783261 0.187655 0.169131
0.800839 0.19501 0.183505
0.816358 0.203433 0.19588
0.822919 0.205783 0.20145
0.822049 0.202594 0.201602
0.819364 0.198459 0.200366
0.818158 0.196551 0.199802
0.817243 0.195102 0.199374
0.816587 0.194034 0.19913
0.816403 0.193545 0.199222
0.816587 0.19353 0.199649
0.817029 0.193896 0.200229
0 0.24976 0.110018
0 0.25034 0.111666
0 0.252445 0.0909895
0 0.255039 0.0634165
0 0.255161 0.033341
0 0.251606 0.00813306
0 0.249241 0.00178531
0.0255283 0.253513 0
0.097734 0.256886 0
0.193362 0.256611 0
0.26804 0.257618 0
0.345968 0.258915 0.0100404
0.401999 0.263874 0.00717174
0.458518 0.256214 0.0185855
0.524056 0.242573 0.0484321
0.578073 0.233097 0.0730755
0.627222 0.225406 0.0945144
0.675288 0.225025 0.109834
0.71899 0.226764 0.125978
0.756542 0.230015 0.143267
0.787457 0.23534 0.161822
0.81149 0.241947 0.179767
0.830747 0.249531 0.19559
0.846922 0.257847 0.20911
0.855558 0.262074 0.216342
0.855955 0.260533 0.217182
0.853925 0.256947 0.21622
0.852491 0.25417 0.215671
0.851118 0.25185 0.214954
0.850416 0.250477 0.21474
0.850324 0.250156 0.214862
0.851377 0.251774 0.215625
0.853117 0.254505 0.216724
0 0.288029 0.117815
0 0.288899 0.119966
0 0.290822 0.0989395
0 0.292714 0.0739605
0 0.293767 0.0453498
0 0.291554 0.013962
0 0.287388 0
0 0.288075 0
0.0394446 0.294133 0
0.127398 0.29691 0
0.23859 0.297337 0
0.318044 0.30042 0
0.402121 0.303746 0.00546273
0.46038 0.310353 0.00668345
0.51043 0.310765 0.00645457
0.573968 0.300572 0.042771
0.629755 0.294102 0.075349
0.679438 0.290242 0.101625
0.728328 0.284459 0.128313
0.770916 0.283391 0.150347
0.806073 0.288304 0.169986
0.833326 0.294484 0.188769
0.854749 0.301472 0.205768
0.871855 0.309148 0.220325
0.882551 0.314702 0.229404
0.883772 0.31371 0.230915
0.882399 0.311147 0.230106
0.881254 0.308843 0.229541
0.8804 0.307118 0.229099
0.879973 0.306218 0.228946
0.880278 0.306691 0.229191
0.881117 0.308186 0.229801
0.882643 0.31104 0.230793
0 0.326452 0.128115
0 0.327153 0.130602
0 0.328466 0.109148
0 0.329717 0.0849012
0 0.331106 0.0583505
0 0.330419 0.0285191
0 0.327245 0
0 0.324239 0
0 0.327291 0
0.0580606 0.332753 0
0.168521 0.335454 0
0.291997 0.337743 0
0.371527 0.343389 0
0.454322 0.34844 0.00196841
0.515496 0.356023 0.00823987
0.563394 0.361547 0.0106355
0.61973 0.356619 0.0438392
0.676783 0.35227 0.0811627
0.726146 0.350057 0.111818
0.773892 0.346456 0.14316
0.816953 0.342901 0.173175
0.849088 0.344701 0.196323
0.873335 0.351446 0.214557
0.892271 0.358801 0.230182
0.905089 0.364721 0.241413
0.907042 0.364324 0.243305
0.906325 0.36231 0.243076
0.905547 0.360616 0.242603
0.905211 0.359777 0.242435
0.904997 0.359304 0.242329
0.905165 0.359701 0.24242
0.905913 0.361349 0.242924
0.907225 0.364141 0.243824
0 0.363455 0.142931
0 0.364157 0.145907
0 0.365179 0.124666
0 0.366247 0.10074
0 0.367742 0.075349
0 0.368536 0.0469062
0 0.366751 0.0151827
0 0.362875 0
0 0.361517 0
0.0105135 0.365881 0
0.0858473 0.370886 0
0.222568 0.373907 0
0.354284 0.379461 0
0.421744 0.38613 0
0.504051 0.392935 0.000427253
0.568338 0.401602 0.0128176
0.615854 0.40943 0.0204776
0.666697 0.410697 0.0525521
0.720867 0.407599 0.0915694
0.769177 0.407385 0.125444
0.814374 0.407034 0.158053
0.85417 0.406134 0.190021
0.884321 0.40705 0.215793
0.90724 0.409384 0.237034
0.923552 0.414435 0.251911
0.926589 0.414221 0.254902
0.926146 0.412757 0.254643
0.925734 0.411658 0.254383
0.925475 0.410925 0.254215
0.925414 0.410758 0.25417
0.925628 0.411475 0.254292
0.926482 0.413397 0.255024
0.927413 0.416632 0.255528
0 0.401663 0.163897
0 0.402319 0.167468
0 0.40296 0.147417
0 0.404074 0.124498
0 0.40531 0.100237
0 0.406851 0.0716259
0 0.406775 0.041413
0 0.404532 0.0069276
0 0.402106 0
0 0.402228 0
0.0357824 0.405539 0
0.124926 0.409567 0
0.287907 0.413428 0
0.40827 0.421912 0
0.470817 0.429831 0
0.553704 0.438895 0.00668345
0.619928 0.447822 0.0223545
0.666941 0.456901 0.0407874
0.712902 0.462119 0.0677958
0.762982 0.46183 0.10811
0.808713 0.463706 0.143038
0.847684 0.466194 0.173602
0.881926 0.468193 0.202838
0.909499 0.471077 0.228016
0.930022 0.474937 0.247501
0.935347 0.475517 0.252735
0.935164 0.474372 0.252689
0.935103 0.473335 0.252781
0.935073 0.472847 0.252827
0.935058 0.473152 0.25275
0.935149 0.47454 0.252644
0.935531 0.477699 0.252689
0.935607 0.481773 0.252308
0 0.440986 0.193011
0 0.44181 0.197391
0 0.442573 0.17879
0 0.443473 0.156878
0 0.444404 0.134066
0 0.446097 0.107134
0 0.44773 0.0757305
0 0.447318 0.0433204
0 0.44596 0.00462348
0 0.444038 0
0 0.444282 0
0.06981 0.445945 0
0.17792 0.449561 0
0.35288 0.455711 0
0.459556 0.466575 0
0.520409 0.475654 0
0.602823 0.485283 0.0249027
0.668711 0.494331 0.0461585
0.715709 0.503761 0.0676585
0.757809 0.511421 0.0950027
0.80267 0.514656 0.130632
0.841245 0.518212 0.16257
0.873945 0.522454 0.189914
0.902739 0.526772 0.215412
0.926101 0.531441 0.237217
0.932982 0.53373 0.243915
0.933394 0.533089 0.244419
0.93344 0.532586 0.24448
0.933516 0.532769 0.244541
0.93344 0.533516 0.244434
0.933303 0.535363 0.244175
0.933272 0.538201 0.244114
0.932921 0.541924 0.243763
0 0.48304 0.229206
0 0.484199 0.234867
0 0.484535 0.2168
0 0.485191 0.197589
0 0.486213 0.177172
0 0.487572 0.152651
0 0.489998 0.122255
0 0.490608 0.0884108
0 0.489189 0.0515297
0 0.486778 0.00569162
0 0.485328 0
0.0301213 0.486183 0
0.115114 0.488685 0
0.23743 0.492668 0
0.411994 0.50074 0
0.510277 0.512505 0
0.570214 0.521523 0.0165713
0.651057 0.531518 0.0487831
0.715587 0.540887 0.0754559
0.761959 0.550576 0.100893
0.800229 0.559747 0.126436
0.83772 0.56582 0.157214
0.869612 0.571023 0.185733
0.895933 0.577722 0.208698
0.919158 0.583291 0.229877
0.927733 0.586725 0.238666
0.92874 0.586877 0.239765
0.92874 0.586755 0.239734
0.928634 0.587274 0.239658
0.928649 0.588479 0.23978
0.928618 0.590158 0.239872
0.928496 0.592981 0.240024
0.928344 0.596582 0.240238
0 0.527413 0.271946
0 0.528466 0.277745
0 0.528542 0.262043
0 0.528725 0.244938
0 0.529198 0.225849
0 0.530175 0.203586
0 0.531395 0.175006
0 0.532784 0.141314
0 0.531487 0.104982
0 0.529427 0.0630198
0 0.526787 0.0115358
0 0.525658 0
0.0784772 0.527459 0
0.163928 0.53135 0
0.298909 0.536736 0
0.471122 0.546685 0
0.560265 0.558648 0.0111696
0.618936 0.567636 0.0419623
0.696651 0.577722 0.0776226
0.759197 0.586664 0.108843
0.805005 0.596674 0.137377
0.839597 0.606607 0.163073
0.870497 0.615396 0.189578
0.896315 0.623209 0.213703
0.916655 0.630884 0.232685
0.926314 0.636652 0.242786
0.927779 0.637598 0.244465
0.92781 0.637919 0.244572
0.927916 0.638758 0.244846
0.928038 0.639735 0.245167
0.928237 0.641321 0.24564
0.928374 0.643565 0.24625
0.928771 0.646998 0.247395
0 0.571115 0.315435
0 0.572229 0.321767
0 0.572152 0.308431
0 0.572259 0.294133
0 0.572671 0.278569
0 0.572869 0.259022
0 0.573175 0.233585
0 0.574166 0.201266
0 0.573816 0.165362
0 0.571405 0.125963
0 0.568338 0.0785077
0 0.564294 0.0200046
0.0263981 0.564538 0
0.128923 0.568582 0
0.218067 0.574029 0
0.363653 0.581231 0
0.529076 0.59295 0.0104829
0.608438 0.604105 0.0395819
0.664958 0.613092 0.0719463
0.738857 0.623407 0.110201
0.800229 0.632456 0.145693
0.844831 0.642969 0.177203
0.876844 0.653483 0.203723
0.903243 0.663554 0.229068
0.923659 0.672663 0.249348
0.933486 0.680293 0.260273
0.935103 0.682582 0.262531
0.935241 0.682963 0.262776
0.935409 0.683513 0.263096
0.935668 0.684413 0.263691
0.935988 0.685618 0.264515
0.936614 0.687892 0.265919
0.93753 0.691081 0.268116
0 0.613214 0.357549
0 0.614374 0.363256
0 0.614298 0.353063
0 0.614572 0.341146
0 0.614603 0.328359
0 0.614633 0.312795
0 0.61471 0.292454
0 0.614771 0.265171
0 0.615442 0.230167
0 0.612924 0.193118
0 0.609659 0.150164
0 0.604929 0.0971695
0 0.599802 0.0300603
0.0771649 0.604654 0
0.185168 0.610361 0
0.277531 0.617304 0
0.428672 0.625406 0
0.585931 0.638209 0.0425116
0.655314 0.64921 0.0726635
0.70898 0.658854 0.106188
0.779721 0.670039 0.146868
0.838956 0.679026 0.18526
0.88072 0.689448 0.218479
0.911482 0.700328 0.247913
0.933944 0.710536 0.272725
0.94551 0.718685 0.287953
0.947692 0.721874 0.291905
0.947936 0.72253 0.292134
0.948211 0.723125 0.29247
0.94844 0.723995 0.292988
0.948745 0.725216 0.293828
0.949462 0.727565 0.295476
0.950561 0.730358 0.297963
0 0.653605 0.396918
0 0.655131 0.403037
0 0.655085 0.394293
0 0.655055 0.384482
0 0.654978 0.374136
0 0.654887 0.361761
0 0.654871 0.345937
0 0.654887 0.324269
0 0.654917 0.29572
0 0.653605 0.261143
0 0.649973 0.221592
0 0.645472 0.174365
0 0.639994 0.116365
0.0287022 0.638819 0.0458228
0.141329 0.645472 0.000823987
0.249058 0.651926 0
0.339925 0.659968 0.00357061
0.494667 0.669093 0.0310826
0.642527 0.683528 0.0805829
0.702098 0.694682 0.111528
0.752895 0.704677 0.144961
0.819715 0.715663 0.186954
0.873198 0.725063 0.226535
0.912642 0.735882 0.263371
0.941283 0.746563 0.295613
0.957336 0.754986 0.318227
0.96051 0.759197 0.326696
0.960739 0.75993 0.326909
0.960861 0.760418 0.326726
0.961013 0.761334 0.327047
0.961273 0.762463 0.327672
0.961929 0.764309 0.329335
0.962631 0.766873 0.331792
0.0175174 0.69218 0.434409
0.0195315 0.693523 0.440116
0.0175784 0.693416 0.432761
0.0154879 0.693294 0.424811
0.0133822 0.693141 0.416022
0.0108949 0.692897 0.405386
0.00819409 0.692821 0.392844
0.00456245 0.692226 0.375616
0.000366217 0.691341 0.353017
0 0.690669 0.323339
0 0.68748 0.289937
0 0.683497 0.248264
0 0.677745 0.194247
0.0162509 0.672801 0.128344
0.0798352 0.673854 0.0555428
0.215427 0.682979 0.0220645
0.314443 0.690074 0.0230869
0.4038 0.698497 0.0329137
0.565225 0.709865 0.0703136
0.693996 0.72546 0.121706
0.747066 0.737072 0.152941
0.795453 0.747189 0.186191
0.855955 0.757641 0.228229
0.903914 0.768124 0.272404
0.938048 0.778607 0.311299
0.961715 0.787823 0.34406
0.967208 0.792279 0.362341
0.967453 0.793347 0.364309
0.967468 0.793973 0.363622
0.967483 0.79469 0.363348
0.967544 0.795758 0.363851
0.96762 0.797299 0.365179
0.96759 0.799237 0.367239
0.0442664 0.725872 0.470054
0.0462806 0.727214 0.475364
0.0446021 0.727001 0.469169
0.0428168 0.726741 0.462196
0.0411841 0.726802 0.454917
0.0390936 0.726543 0.44622
0.0364843 0.72604 0.434791
0.0332341 0.725261 0.420157
0.0293736 0.724239 0.401251
0.0250706 0.722866 0.376471
0.021561 0.720653 0.347311
0.0192416 0.716686 0.31133
0.019501 0.711574 0.264408
0.0267491 0.705653 0.204669
0.0540169 0.701595 0.132631
0.147845 0.707073 0.064744
0.289754 0.715572 0.0445106
0.377935 0.723262 0.049958
0.473594 0.732326 0.0654459
0.63444 0.746853 0.112993
0.741726 0.763256 0.163241
0.790585 0.774914 0.19443
0.834516 0.784588 0.227955
0.888426 0.795331 0.275166
0.927901 0.805768 0.322286
0.95555 0.814923 0.3608
0.966781 0.820142 0.388983
0.967422 0.821881 0.398047
0.967376 0.822385 0.397604
0.9673 0.823072 0.397177
0.967193 0.824018 0.397345
0.967025 0.82533 0.398352
0.966751 0.827085 0.400458
0.0702678 0.755306 0.504158
0.0724498 0.756802 0.509651
0.0709087 0.756527 0.503914
0.069337 0.756359 0.497826
0.0677958 0.756146 0.491478
0.0658885 0.755779 0.483711
0.063508 0.755215 0.474006
0.0604562 0.754253 0.461234
0.0563211 0.752911 0.444266
0.0519112 0.751339 0.422644
0.0471351 0.748898 0.3953
0.0434882 0.745083 0.363989
0.0412451 0.740337 0.32369
0.0427863 0.734783 0.273991
0.0548562 0.729641 0.211139
0.0998856 0.72726 0.130648
0.226001 0.736416 0.0770275
0.356542 0.744305 0.0699016
0.440528 0.752682 0.0793622
0.545235 0.763012 0.102525
0.701625 0.780987 0.159121
0.787625 0.796796 0.20531
0.830259 0.807553 0.235691
0.869596 0.817273 0.27538
0.914412 0.828519 0.329992
0.945678 0.837629 0.376211
0.962844 0.843992 0.411078
0.963989 0.845777 0.428626
0.963897 0.846265 0.429145
0.963806 0.846845 0.42858
0.963516 0.84744 0.428397
0.963317 0.848661 0.429496
0.962966 0.850187 0.431434
0.0944839 0.780575 0.537453
0.0966201 0.78204 0.542306
0.0953384 0.781842 0.537545
0.093843 0.781537 0.532097
0.0922408 0.781186 0.526238
0.0903334 0.780636 0.519234
0.087953 0.779797 0.510475
0.0847639 0.778653 0.498817
0.0805829 0.776944 0.483314
0.075639 0.774746 0.463523
0.0704356 0.772122 0.439307
0.0661173 0.768536 0.411765
0.0624399 0.764065 0.377661
0.0608072 0.758877 0.335195
0.0639658 0.753109 0.282445
0.0835584 0.748989 0.212299
0.16733 0.756069 0.14136
0.296223 0.762646 0.1066
0.415824 0.769512 0.102205
0.502327 0.778195 0.115923
0.613794 0.790082 0.145754
0.755169 0.809781 0.20383
0.82594 0.824475 0.245747
0.862882 0.835065 0.280415
0.899001 0.845533 0.333745
0.933715 0.85507 0.389212
0.957076 0.862364 0.43299
0.95877 0.864729 0.458366
0.958602 0.865263 0.460197
0.958434 0.865721 0.459861
0.95819 0.866514 0.460121
0.9579 0.86743 0.460975
0.957366 0.868223 0.46276
0.115526 0.800153 0.56994
0.11751 0.801495 0.574624
0.115694 0.800549 0.569421
0.113787 0.799695 0.564034
0.111757 0.798779 0.558221
0.109483 0.797681 0.551812
0.106554 0.796231 0.543542
0.102632 0.794171 0.53225
0.0975662 0.791424 0.517449
0.0926375 0.788693 0.500557
0.0879225 0.785901 0.480858
0.0834363 0.782773 0.45687
0.0791485 0.779126 0.42649
0.0758068 0.774945 0.389059
0.0751812 0.770153 0.34255
0.0827344 0.76553 0.285008
0.134371 0.769558 0.218387
0.236484 0.774731 0.170474
0.354131 0.77673 0.150393
0.467216 0.783459 0.150393
0.561975 0.792386 0.164721
0.672312 0.805676 0.195468
0.793194 0.827283 0.249653
0.854215 0.842176 0.293217
0.887785 0.852613 0.337865
0.92224 0.864378 0.397208
0.947219 0.87361 0.450568
0.953796 0.879652 0.489174
0.953841 0.880644 0.494835
0.953689 0.880995 0.494728
0.953521 0.881453 0.494987
0.953445 0.881804 0.496101
0.953429 0.882109 0.497932
0.126558 0.808576 0.590967
0.128008 0.809384 0.594278
0.125719 0.808103 0.58883
0.123308 0.806745 0.583047
0.120867 0.805371 0.577111
0.118074 0.803754 0.570016
0.114611 0.801801 0.561044
0.110307 0.799374 0.549935
0.104707 0.796155 0.535073
0.0994278 0.793042 0.518425
0.0948348 0.790158 0.499977
0.0905013 0.787274 0.478737
0.0872511 0.784649 0.454353
0.0846723 0.781842 0.425834
0.0835737 0.778775 0.39115
0.0860914 0.774853 0.343587
0.126192 0.778576 0.288838
0.206287 0.78114 0.242771
0.301305 0.780453 0.217823
0.40853 0.781399 0.209384
0.521157 0.789746 0.213596
0.620981 0.801312 0.232074
0.725948 0.817914 0.265095
0.824308 0.839002 0.312596
0.877989 0.852918 0.356069
0.911513 0.86363 0.403937
0.940627 0.874708 0.462119
0.952224 0.884215 0.514031
0.953353 0.886793 0.528786
0.953338 0.887007 0.529717
0.953292 0.886885 0.528908
0.953262 0.886824 0.528496
0.953262 0.886824 0.528481
0.130571 0.810803 0.599451
0.131914 0.811597 0.602502
0.129549 0.810224 0.596887
0.127153 0.808865 0.591226
0.124712 0.807492 0.585397
0.121874 0.805905 0.57847
0.118242 0.803845 0.569512
0.113802 0.801297 0.5579
0.108293 0.798184 0.543496
0.102007 0.794537 0.525765
0.0967727 0.791333 0.506523
0.0919509 0.788205 0.484764
0.0885023 0.785504 0.460685
0.0857557 0.782727 0.432563
0.0843824 0.77969 0.398199
0.0859998 0.775921 0.354009
0.121126 0.778958 0.300237
0.198444 0.781674 0.253529
0.290883 0.780972 0.227207
0.394949 0.78085 0.218021
0.510185 0.788495 0.220661
0.611429 0.800031 0.237415
0.711498 0.815564 0.267262
0.812604 0.836835 0.312108
0.873274 0.852125 0.356863
0.908156 0.862715 0.401648
0.937606 0.873716 0.458366
0.951827 0.883726 0.511086
0.953414 0.887266 0.531441
0.953429 0.88777 0.533883
0.953399 0.887678 0.533181
0.953368 0.887602 0.532753
0.953384 0.887541 0.532662
0.134005 0.81268 0.606302
0.134997 0.81323 0.608392
0.132631 0.811856 0.603006
0.130114 0.810407 0.597147
0.127657 0.809003 0.591333
0.124727 0.807324 0.584237
0.121096 0.80531 0.575326
0.116533 0.802701 0.56408
0.110979 0.799527 0.549218
